def moving():
set_payload_mass(0)
set_tcp(p[0,0,0,0,0,0])
movej(p[-0.4025, -0.1161, 0.3402, -1.113, -1.287, 1.334], a = 0.2, v = 0.2, t = 0.2)
movej(p[-0.402554929322023, -0.116057477575295, 0.340251716660558, -1.11260983990136, -1.28658824067133, 1.33570893381171], a = 0.2, v = 0.2, t = 0.2)
movej(p[-0.4025, -0.1161, 0.3402, -1.113, -1.287, 1.334], a = 0.2, v = 0.2, t = 0.2)
movej(p[-0.402554929322023, -0.116057477575295, 0.340251716660558, -1.11260983990136, -1.28658824067133, 1.33570893381171], a = 0.2, v = 0.2, t = 0.2)
movej(p[-0.4025, -0.1161, 0.3402, -1.113, -1.287, 1.334], a = 0.2, v = 0.2, t = 0.2)
movej(p[-0.4025, -0.1161, 0.3402, -1.113, -1.287, 1.334], a = 0.2, v = 0.2, t = 0.2)
movej(p[-0.403374051633981, -0.116104417047236, 0.340101062055162, -1.14839935252973, -1.28346371391856, 1.32544086308039], a = 0.2, v = 0.2, t = 0.2)
movej(p[-0.404874928446979, -0.116157346753725, 0.339687975709496, -1.16453837003544, -1.28518999344705, 1.3212263967331], a = 0.2, v = 0.2, t = 0.2)
movej(p[-0.40620994798333, -0.116190960919476, 0.339290176200291, -1.16574576197627, -1.28529897087669, 1.32786759503268], a = 0.2, v = 0.2, t = 0.2)
movej(p[-0.40724086742897, -0.11628846358701, 0.338936679741435, -1.13593367659918, -1.27335490850097, 1.34822256153581], a = 0.2, v = 0.2, t = 0.2)
movej(p[-0.408244007720961, -0.116391379491918, 0.338715424498104, -1.103579397017, -1.27230062710418, 1.33210750170716], a = 0.2, v = 0.2, t = 0.2)
movej(p[-0.409272243448209, -0.116495136237659, 0.338724496952231, -1.10192347737636, -1.27158270189266, 1.31922459216055], a = 0.2, v = 0.2, t = 0.2)
movej(p[-0.409749710673532, -0.116632135958382, 0.338426587332775, -1.10653101652083, -1.27340566119549, 1.31371434609779], a = 0.2, v = 0.2, t = 0.2)
movej(p[-0.408986887928855, -0.116636321887225, 0.337910589824832, -1.10583050043847, -1.24469613902742, 1.35020558695591], a = 0.2, v = 0.2, t = 0.2)
movej(p[-0.406646193674176, -0.116573246001277, 0.337572606069714, -1.10738893224524, -1.25164028061964, 1.38511994052773], a = 0.2, v = 0.2, t = 0.2)
movej(p[-0.403640140088561, -0.116264587500512, 0.3374168752598, -1.1059908747611, -1.26189873321965, 1.41102857867174], a = 0.2, v = 0.2, t = 0.2)
movej(p[-0.400536317480152, -0.116128357707568, 0.337696862507459, -1.09565491816053, -1.3085638899309, 1.40159852638669], a = 0.2, v = 0.2, t = 0.2)
movej(p[-0.397667220545855, -0.115779118372483, 0.338244839615501, -1.10394615521778, -1.3239598227959, 1.40520036437778], a = 0.2, v = 0.2, t = 0.2)
movej(p[-0.395531057397836, -0.115653206894588, 0.338923700774268, -1.09138061059179, -1.32931367626927, 1.39701480962545], a = 0.2, v = 0.2, t = 0.2)
movej(p[-0.394783306038114, -0.11544057279959, 0.339659242426167, -1.13750869070389, -1.32491940794418, 1.40335235700027], a = 0.2, v = 0.2, t = 0.2)
movej(p[-0.395953754705448, -0.115520059387124, 0.3399556355132, -1.17484322678955, -1.32575261126603, 1.38518856718565], a = 0.2, v = 0.2, t = 0.2)
movej(p[-0.398182000476961, -0.11563907109317, 0.340206293359995, -1.22370395667266, -1.3345525017287, 1.3707989819585], a = 0.2, v = 0.2, t = 0.2)
movej(p[-0.400703209584453, -0.115707389809112, 0.339851248596834, -1.21061123278127, -1.30403965861045, 1.36205726891524], a = 0.2, v = 0.2, t = 0.2)
movej(p[-0.402782052866836, -0.115901670694361, 0.339746405056648, -1.19691640748556, -1.28862725934841, 1.35715125148945], a = 0.2, v = 0.2, t = 0.2)
movej(p[-0.404517139935584, -0.1159934418975, 0.339490581843788, -1.18176083352717, -1.27893058366431, 1.34888548230397], a = 0.2, v = 0.2, t = 0.2)
movej(p[-0.405914265946125, -0.116254650634063, 0.339512374517184, -1.15395085377213, -1.27829927521817, 1.34755069864514], a = 0.2, v = 0.2, t = 0.2)
movej(p[-0.407122085376229, -0.116340393728861, 0.339135538543639, -1.13070283417458, -1.26508899342698, 1.34464697259707], a = 0.2, v = 0.2, t = 0.2)
movej(p[-0.408182284693563, -0.116469083126686, 0.338822566973028, -1.1404250288284, -1.2441001442453, 1.34266608360713], a = 0.2, v = 0.2, t = 0.2)
movej(p[-0.408885495446718, -0.116443023630298, 0.338387958422496, -1.16285018051461, -1.25155616543839, 1.34577144662304], a = 0.2, v = 0.2, t = 0.2)
movej(p[-0.408852158438915, -0.116524404750429, 0.337950472746391, -1.14506394343177, -1.23634815235279, 1.36367878478348], a = 0.2, v = 0.2, t = 0.2)
movej(p[-0.407504220842231, -0.116470684599082, 0.337312196561903, -1.10646399965155, -1.21740769985579, 1.40028738380138], a = 0.2, v = 0.2, t = 0.2)
movej(p[-0.405267762307374, -0.116292984990457, 0.336917883260251, -1.05832863959395, -1.2268060491789, 1.39256905609898], a = 0.2, v = 0.2, t = 0.2)
movej(p[-0.402595489239453, -0.116102113673892, 0.336849248447668, -1.07622636477101, -1.25660733177984, 1.39484924421185], a = 0.2, v = 0.2, t = 0.2)
movej(p[-0.400005141375108, -0.115894780856329, 0.337486231917099, -1.07422503551702, -1.28554847816507, 1.39159722043634], a = 0.2, v = 0.2, t = 0.2)
movej(p[-0.397947970026045, -0.115789677100216, 0.33821530569193, -1.10621563937111, -1.28433033820822, 1.41015076731186], a = 0.2, v = 0.2, t = 0.2)
movej(p[-0.396891412278347, -0.115644423530125, 0.33904449625257, -1.14622351440956, -1.30001726408069, 1.39259225684341], a = 0.2, v = 0.2, t = 0.2)
movej(p[-0.397376582557825, -0.115684275853377, 0.339393678560603, -1.16165965510739, -1.31935737502636, 1.35892685845591], a = 0.2, v = 0.2, t = 0.2)
movej(p[-0.398821001703666, -0.115797527465204, 0.339591327995579, -1.17706428952803, -1.32768499203056, 1.34684414511606], a = 0.2, v = 0.2, t = 0.2)
movej(p[-0.401023529456191, -0.116030420581335, 0.33912135998282, -1.15395544871892, -1.32213872288734, 1.335393962707], a = 0.2, v = 0.2, t = 0.2)
movej(p[-0.403002147212416, -0.11611333537701, 0.33888402169368, -1.15710755509671, -1.29478954758226, 1.34307586753185], a = 0.2, v = 0.2, t = 0.2)
movej(p[-0.404636431665318, -0.116213004474409, 0.338558971407748, -1.17263178551427, -1.27791440708951, 1.34019542774331], a = 0.2, v = 0.2, t = 0.2)
movej(p[-0.405910977989835, -0.116265525401924, 0.338704762949803, -1.18386829180908, -1.24523594577735, 1.35866146625734], a = 0.2, v = 0.2, t = 0.2)
movej(p[-0.407024019812497, -0.116355042733961, 0.338533210134995, -1.18610640957965, -1.22763288633301, 1.37142648862092], a = 0.2, v = 0.2, t = 0.2)
movej(p[-0.408020963653099, -0.116402153377295, 0.33823007396366, -1.1772317934367, -1.24554932986847, 1.33454671148959], a = 0.2, v = 0.2, t = 0.2)
movej(p[-0.40890691571771, -0.116426867411237, 0.338191994443723, -1.18400361987912, -1.23314939313826, 1.32564279562042], a = 0.2, v = 0.2, t = 0.2)
movej(p[-0.409622538076671, -0.116379984103857, 0.337947523072714, -1.18910915634287, -1.23940793098612, 1.31363790218186], a = 0.2, v = 0.2, t = 0.2)
movej(p[-0.409543117741872, -0.116431258022393, 0.338012971932891, -1.16504500914816, -1.22745293038367, 1.32895582661005], a = 0.2, v = 0.2, t = 0.2)
movej(p[-0.408267026991602, -0.116488857304796, 0.337460887966322, -1.1248700780304, -1.23853519183864, 1.35114606495822], a = 0.2, v = 0.2, t = 0.2)
movej(p[-0.405843938971253, -0.116447422148569, 0.337273736649015, -1.09795190125235, -1.25753375311627, 1.3739397766326], a = 0.2, v = 0.2, t = 0.2)
movej(p[-0.403024414419961, -0.11621814597879, 0.337199829969926, -1.12352191246456, -1.27843674230281, 1.40145628958555], a = 0.2, v = 0.2, t = 0.2)
movej(p[-0.400207691283266, -0.115825769766113, 0.337615715373866, -1.14386328576145, -1.28113621463841, 1.43582810040438], a = 0.2, v = 0.2, t = 0.2)
movej(p[-0.397827691385429, -0.115682035322173, 0.33836218553102, -1.14928962781653, -1.2926523842244, 1.44214856661491], a = 0.2, v = 0.2, t = 0.2)
movej(p[-0.396737455424423, -0.115628967354697, 0.338795505147768, -1.14869610204293, -1.31236047447816, 1.41083851607132], a = 0.2, v = 0.2, t = 0.2)
movej(p[-0.397256225875008, -0.115662389861342, 0.339218173522915, -1.16260471266278, -1.33715391557128, 1.36955622426393], a = 0.2, v = 0.2, t = 0.2)
movej(p[-0.399126623144437, -0.115670792204236, 0.339145914102242, -1.17570990391848, -1.34756292808311, 1.33822265876804], a = 0.2, v = 0.2, t = 0.2)
movej(p[-0.401403321943363, -0.115793045426283, 0.339171353330893, -1.1612981679619, -1.32699989027856, 1.33771293015798], a = 0.2, v = 0.2, t = 0.2)
movej(p[-0.403554164147651, -0.116037183187553, 0.338979974491217, -1.15616758779673, -1.31744068954529, 1.32629256827436], a = 0.2, v = 0.2, t = 0.2)
movej(p[-0.405172857747154, -0.116101634915345, 0.33882028517344, -1.1452953398115, -1.29164070700701, 1.32428301695038], a = 0.2, v = 0.2, t = 0.2)
movej(p[-0.406361068777924, -0.116190468446464, 0.338724006543906, -1.160004126525, -1.27543613346021, 1.33744503206904], a = 0.2, v = 0.2, t = 0.2)
movej(p[-0.407296121497065, -0.116157273728861, 0.338655501892596, -1.16150904673016, -1.27096337892128, 1.33376396172337], a = 0.2, v = 0.2, t = 0.2)
movej(p[-0.408051394315295, -0.116196520119791, 0.33842330839798, -1.1692822764294, -1.26533190582839, 1.33065607055007], a = 0.2, v = 0.2, t = 0.2)
movej(p[-0.408647952735864, -0.116275375542607, 0.338205691373049, -1.1736630854663, -1.24991336758308, 1.34214670915468], a = 0.2, v = 0.2, t = 0.2)
movej(p[-0.40894889698208, -0.11633266787177, 0.337760564901033, -1.15560396617877, -1.24772594250259, 1.35069172603401], a = 0.2, v = 0.2, t = 0.2)
movej(p[-0.408243552528501, -0.116312707616688, 0.337392836868891, -1.13755561082576, -1.23999888127296, 1.36761581267739], a = 0.2, v = 0.2, t = 0.2)
movej(p[-0.406645438289866, -0.116203630092975, 0.336997047409086, -1.09975979388205, -1.25921352285427, 1.37095115305522], a = 0.2, v = 0.2, t = 0.2)
movej(p[-0.404301546138986, -0.116012356599303, 0.336941310902553, -1.11947306289327, -1.24881464359347, 1.40234173621099], a = 0.2, v = 0.2, t = 0.2)
movej(p[-0.401867344175441, -0.11604355346735, 0.337156130070656, -1.11466127009878, -1.24971112604602, 1.4148128223315], a = 0.2, v = 0.2, t = 0.2)
movej(p[-0.399700044168825, -0.115990357228815, 0.337784577201359, -1.15080805982331, -1.26837173579732, 1.40713768208234], a = 0.2, v = 0.2, t = 0.2)
movej(p[-0.398269089100366, -0.115901159396635, 0.338315131250243, -1.14029685428064, -1.29783291026373, 1.38780905000006], a = 0.2, v = 0.2, t = 0.2)
movej(p[-0.397940492061089, -0.115793875552487, 0.339100963957989, -1.15437485775539, -1.33036065948117, 1.36512078742861], a = 0.2, v = 0.2, t = 0.2)
movej(p[-0.398876593322975, -0.115762859654488, 0.33925390734348, -1.1471134462235, -1.33485074005453, 1.3458721779263], a = 0.2, v = 0.2, t = 0.2)
movej(p[-0.400653687701407, -0.11588486726245, 0.33916281716084, -1.16855554386989, -1.33038015122389, 1.32657385199408], a = 0.2, v = 0.2, t = 0.2)
movej(p[-0.402543840556615, -0.115944657874122, 0.338802085766487, -1.18051412132368, -1.31627593589469, 1.32887875888556], a = 0.2, v = 0.2, t = 0.2)
movej(p[-0.40419250699637, -0.116009183448404, 0.338464534081667, -1.17290442260204, -1.27986399794089, 1.34294397735097], a = 0.2, v = 0.2, t = 0.2)
movej(p[-0.405505440709627, -0.116016969810864, 0.338483638878263, -1.16858422336133, -1.28000291488649, 1.32888484044612], a = 0.2, v = 0.2, t = 0.2)
movej(p[-0.406572946661777, -0.116104796107195, 0.338150481420901, -1.17702376643914, -1.25859646456847, 1.33693569804893], a = 0.2, v = 0.2, t = 0.2)
movej(p[-0.407505321930054, -0.116237580046464, 0.33800136223542, -1.18841101451233, -1.28052352753145, 1.31035274189147], a = 0.2, v = 0.2, t = 0.2)
movej(p[-0.408177797121735, -0.116315716691966, 0.337488412511955, -1.17795976960123, -1.2746382871466, 1.3271518401217], a = 0.2, v = 0.2, t = 0.2)
movej(p[-0.40853537771187, -0.116311875673116, 0.337329305393845, -1.124689086363, -1.26170180439983, 1.34533123779831], a = 0.2, v = 0.2, t = 0.2)
movej(p[-0.407814901697738, -0.116101470639559, 0.336981493431263, -1.06231740996362, -1.24387422028215, 1.37689962378416], a = 0.2, v = 0.2, t = 0.2)
movej(p[-0.40619526695813, -0.116104670671214, 0.336711058554535, -1.0654554946766, -1.25266117454553, 1.37948799591111], a = 0.2, v = 0.2, t = 0.2)
movej(p[-0.403924928214107, -0.116007360147836, 0.336575672561794, -1.07176459329463, -1.28920754220626, 1.38342250523904], a = 0.2, v = 0.2, t = 0.2)
movej(p[-0.401416555991586, -0.115997408701324, 0.336692704014813, -1.1258204993369, -1.31856981691826, 1.39511459947616], a = 0.2, v = 0.2, t = 0.2)
movej(p[-0.399055322853968, -0.115731746169839, 0.337274844664881, -1.12081520727442, -1.31740788880304, 1.41571297914169], a = 0.2, v = 0.2, t = 0.2)
movej(p[-0.396687786207706, -0.115580111512116, 0.338131876210442, -1.12928140980893, -1.32489753161805, 1.41013281913952], a = 0.2, v = 0.2, t = 0.2)
movej(p[-0.395320187998636, -0.11545736262675, 0.339054696084626, -1.14339448928266, -1.33097738059318, 1.39700613689712], a = 0.2, v = 0.2, t = 0.2)
movej(p[-0.395405534789441, -0.115464650640061, 0.339851844666862, -1.17321155927584, -1.33448488532697, 1.39483498530215], a = 0.2, v = 0.2, t = 0.2)
movej(p[-0.397114972724471, -0.11549755416813, 0.339816872783568, -1.19848184369917, -1.32600289505399, 1.3716035782144], a = 0.2, v = 0.2, t = 0.2)
movej(p[-0.399618927400921, -0.115706833114151, 0.33952604417306, -1.18511376414937, -1.33423321609109, 1.33394850755128], a = 0.2, v = 0.2, t = 0.2)
movej(p[-0.402057476100782, -0.115912992814971, 0.339323194330557, -1.17452475731029, -1.33313235312355, 1.31225247191917], a = 0.2, v = 0.2, t = 0.2)
movej(p[-0.404094545523631, -0.116089303114896, 0.339062230054968, -1.15644874731771, -1.31283626123198, 1.30189362602452], a = 0.2, v = 0.2, t = 0.2)
movej(p[-0.40569041062791, -0.116171178939257, 0.33903922528959, -1.15372282165725, -1.27766338418662, 1.32106676227361], a = 0.2, v = 0.2, t = 0.2)
movej(p[-0.406796259568842, -0.116267335614162, 0.338657525902888, -1.15535550439649, -1.25792158641997, 1.32718213753533], a = 0.2, v = 0.2, t = 0.2)
movej(p[-0.40782231965452, -0.116398171161521, 0.338481357525968, -1.16579659043534, -1.25363518013026, 1.33560473040838], a = 0.2, v = 0.2, t = 0.2)
movej(p[-0.408663551989072, -0.116362666845428, 0.338238146706219, -1.16923866306759, -1.23664997074741, 1.34568493011934], a = 0.2, v = 0.2, t = 0.2)
movej(p[-0.40900685759911, -0.116376114063743, 0.338116160174028, -1.15141845728722, -1.21330135922128, 1.37187280853403], a = 0.2, v = 0.2, t = 0.2)
movej(p[-0.408452849619167, -0.116310873692188, 0.337615791515758, -1.09258696818531, -1.20261040605723, 1.38880492355248], a = 0.2, v = 0.2, t = 0.2)
movej(p[-0.406648223144467, -0.11624449075467, 0.33737901376233, -1.09636334999238, -1.20643542383259, 1.41837629482299], a = 0.2, v = 0.2, t = 0.2)
movej(p[-0.404190396828246, -0.116167399695746, 0.336946592849877, -1.06460821269126, -1.23331936050938, 1.40952966574576], a = 0.2, v = 0.2, t = 0.2)
movej(p[-0.401483007564304, -0.116081471667761, 0.33735951952363, -1.09566379906761, -1.25055234357765, 1.42391948151892], a = 0.2, v = 0.2, t = 0.2)
movej(p[-0.39905611214181, -0.115970681070818, 0.337682967232401, -1.07470974899266, -1.27259245057099, 1.42351593337201], a = 0.2, v = 0.2, t = 0.2)
movej(p[-0.397086849787783, -0.115784231270995, 0.338585170659991, -1.10096568551828, -1.31379487382195, 1.4154721790829], a = 0.2, v = 0.2, t = 0.2)
movej(p[-0.395904579790734, -0.115658828408121, 0.339150246890301, -1.11612065974816, -1.33633415006186, 1.39450937568816], a = 0.2, v = 0.2, t = 0.2)
movej(p[-0.396322322379789, -0.115650237282048, 0.339738768402773, -1.15253681817506, -1.35566447995535, 1.34880634685339], a = 0.2, v = 0.2, t = 0.2)
movej(p[-0.39803357272624, -0.115779307594223, 0.339720719311791, -1.19067637247651, -1.33377951925806, 1.34181137857028], a = 0.2, v = 0.2, t = 0.2)
movej(p[-0.400453992154519, -0.115783295996453, 0.339582092772553, -1.21016499606, -1.30663307509849, 1.35785320584803], a = 0.2, v = 0.2, t = 0.2)
movej(p[-0.402758218791141, -0.115900260825131, 0.339360460542366, -1.2177671317305, -1.28233471864248, 1.36197851315596], a = 0.2, v = 0.2, t = 0.2)
movej(p[-0.404598709499672, -0.116028355831849, 0.339050125413249, -1.19156624952743, -1.26833258107599, 1.33687987803211], a = 0.2, v = 0.2, t = 0.2)
movej(p[-0.405979534898097, -0.116259253535009, 0.33882650361234, -1.16021313149625, -1.26791738596514, 1.30906469712929], a = 0.2, v = 0.2, t = 0.2)
movej(p[-0.407099242450482, -0.116265816526903, 0.338457595369183, -1.15999039286341, -1.25668118302999, 1.32269127579349], a = 0.2, v = 0.2, t = 0.2)
movej(p[-0.408110962258682, -0.116140904832782, 0.338404669847298, -1.1795587508219, -1.23901542143102, 1.34376822113717], a = 0.2, v = 0.2, t = 0.2)
movej(p[-0.40907072578781, -0.116104234524438, 0.338075646855485, -1.18045058003734, -1.2196561985084, 1.35832777493919], a = 0.2, v = 0.2, t = 0.2)
movej(p[-0.409665850474558, -0.116258518907271, 0.33779055981871, -1.16301763958509, -1.19835800713659, 1.37768074194606], a = 0.2, v = 0.2, t = 0.2)
movej(p[-0.409157078467991, -0.116423518936531, 0.33729216535518, -1.11688222195088, -1.21076341932611, 1.38201426831002], a = 0.2, v = 0.2, t = 0.2)
movej(p[-0.407448125072624, -0.116441135037995, 0.336893004445479, -1.10011969908488, -1.23015465046792, 1.38892892608092], a = 0.2, v = 0.2, t = 0.2)
movej(p[-0.404777658845887, -0.116380975874624, 0.336754621299765, -1.07846254061469, -1.27066342847587, 1.37502674276237], a = 0.2, v = 0.2, t = 0.2)
movej(p[-0.401780424347054, -0.116260745953954, 0.337211139392047, -1.0753443851307, -1.28701944151063, 1.38273046653969], a = 0.2, v = 0.2, t = 0.2)
movej(p[-0.398862706836572, -0.116071544370965, 0.338031782762716, -1.10096075976154, -1.31612225480383, 1.37921666152452], a = 0.2, v = 0.2, t = 0.2)
movej(p[-0.396400839584172, -0.115823021140965, 0.338984510340626, -1.13325075947229, -1.32896186332125, 1.37980679378317], a = 0.2, v = 0.2, t = 0.2)
movej(p[-0.395217206970585, -0.115619627616461, 0.339533411813609, -1.15910114150956, -1.34342583563125, 1.37389894098443], a = 0.2, v = 0.2, t = 0.2)
movej(p[-0.395498460981795, -0.115535139964889, 0.339982074542316, -1.17091574879549, -1.34749575717583, 1.35581926166791], a = 0.2, v = 0.2, t = 0.2)
movej(p[-0.397281823789188, -0.115645331198219, 0.340021075677906, -1.18284817249074, -1.35961164847797, 1.32900150572563], a = 0.2, v = 0.2, t = 0.2)
movej(p[-0.399814026096629, -0.1158375751823, 0.340002003571838, -1.20210318628231, -1.35211143239824, 1.3055659224934], a = 0.2, v = 0.2, t = 0.2)
movej(p[-0.402341073776131, -0.115992547636766, 0.339604471886542, -1.19751932665687, -1.32209718906238, 1.31113512603085], a = 0.2, v = 0.2, t = 0.2)
movej(p[-0.404360345053522, -0.115943429165264, 0.339580310644479, -1.15884852886266, -1.31062518460056, 1.31083243027687], a = 0.2, v = 0.2, t = 0.2)
movej(p[-0.405971000984456, -0.116058940587953, 0.33928387014813, -1.14098048883247, -1.27209645911369, 1.32692207960689], a = 0.2, v = 0.2, t = 0.2)
movej(p[-0.407119424164766, -0.116214665826594, 0.339384267350666, -1.14321519843228, -1.26670105268829, 1.31930905194409], a = 0.2, v = 0.2, t = 0.2)
movej(p[-0.408096547587549, -0.11636439466011, 0.338879615777734, -1.16280819647014, -1.2217186402413, 1.34884325564222], a = 0.2, v = 0.2, t = 0.2)
movej(p[-0.408942495869225, -0.11641188463545, 0.338578098307143, -1.17786115701247, -1.2175502988564, 1.35800019141709], a = 0.2, v = 0.2, t = 0.2)
movej(p[-0.409735527596359, -0.116437999233985, 0.338279911245213, -1.18093908845999, -1.21960748870179, 1.35310597707471], a = 0.2, v = 0.2, t = 0.2)
movej(p[-0.410506521962211, -0.116567197079998, 0.33813362585015, -1.16121409206864, -1.20962484216179, 1.3576739417599], a = 0.2, v = 0.2, t = 0.2)
movej(p[-0.410472179127223, -0.116497028519638, 0.338215682411265, -1.13115988975712, -1.204214497507, 1.3728396351517], a = 0.2, v = 0.2, t = 0.2)
movej(p[-0.409505478000568, -0.116484682873572, 0.3379083882212, -1.10467375231588, -1.20643060119323, 1.39078507673483], a = 0.2, v = 0.2, t = 0.2)
movej(p[-0.40741546074655, -0.11632040989188, 0.337303843102129, -1.09481527635014, -1.25825752952418, 1.38746734886805], a = 0.2, v = 0.2, t = 0.2)
movej(p[-0.40503844949474, -0.116264130205416, 0.336859459571203, -1.07131949278175, -1.28738828877444, 1.37022430289887], a = 0.2, v = 0.2, t = 0.2)
movej(p[-0.402701048397776, -0.116135537484629, 0.336656208691872, -1.08856621765301, -1.29502679912711, 1.37031589710894], a = 0.2, v = 0.2, t = 0.2)
movej(p[-0.400751115701353, -0.116038007031845, 0.337461625925345, -1.1136509829143, -1.26815819258006, 1.38595687778151], a = 0.2, v = 0.2, t = 0.2)
movej(p[-0.399840662698345, -0.115973305038047, 0.337982527318423, -1.16430603511509, -1.27823235177458, 1.38179143531865], a = 0.2, v = 0.2, t = 0.2)
movej(p[-0.400406964656055, -0.115967895668415, 0.338430997842999, -1.17635532372501, -1.28962390355543, 1.36809273947946], a = 0.2, v = 0.2, t = 0.2)
movej(p[-0.402249200421236, -0.116051675400802, 0.338464161348825, -1.1577910544251, -1.29235492078785, 1.33048281425434], a = 0.2, v = 0.2, t = 0.2)
movej(p[-0.404492380287084, -0.116275082556685, 0.338405681446793, -1.1554710906231, -1.28793884602194, 1.31052450479968], a = 0.2, v = 0.2, t = 0.2)
movej(p[-0.406395369216249, -0.116413101628519, 0.338526029779919, -1.16413886500237, -1.26454321272181, 1.32422361489028], a = 0.2, v = 0.2, t = 0.2)
movej(p[-0.408013958727651, -0.116581887916718, 0.338405946189887, -1.19395372156642, -1.26785540961394, 1.31971289205261], a = 0.2, v = 0.2, t = 0.2)
movej(p[-0.409417303031712, -0.116582657600084, 0.338295594471062, -1.17082588464164, -1.27585632722218, 1.30428052477082], a = 0.2, v = 0.2, t = 0.2)
movej(p[-0.410629917867022, -0.116610766079258, 0.337901642698651, -1.16391854975645, -1.27495590236943, 1.2963519182634], a = 0.2, v = 0.2, t = 0.2)
movej(p[-0.411582953721946, -0.116658668373774, 0.337790494925357, -1.17024754878683, -1.27225005238172, 1.30413045208503], a = 0.2, v = 0.2, t = 0.2)
movej(p[-0.412249855945584, -0.116603572225543, 0.337451913342047, -1.18829111619508, -1.23340756487099, 1.3290878784416], a = 0.2, v = 0.2, t = 0.2)
movej(p[-0.412693401829923, -0.116683422339882, 0.337317899386707, -1.20481372718893, -1.21279466331015, 1.33462143845711], a = 0.2, v = 0.2, t = 0.2)
movej(p[-0.412791484008342, -0.11679935936926, 0.33721191489541, -1.17416277019674, -1.19436099171698, 1.34213549701085], a = 0.2, v = 0.2, t = 0.2)
movej(p[-0.412154041874489, -0.116720173759761, 0.336926583249536, -1.11639793996332, -1.20346179968242, 1.34097031914226], a = 0.2, v = 0.2, t = 0.2)
movej(p[-0.410509415707617, -0.116624945343584, 0.33660388950542, -1.06705078604749, -1.20791190127229, 1.34849337768882], a = 0.2, v = 0.2, t = 0.2)
movej(p[-0.408118777867875, -0.116335346778182, 0.336117695749277, -1.05932956960299, -1.21658170991899, 1.36221480940646], a = 0.2, v = 0.2, t = 0.2)
movej(p[-0.405360073567187, -0.116320925340634, 0.336299281766361, -1.08995093909118, -1.24715009158275, 1.36929893125552], a = 0.2, v = 0.2, t = 0.2)
movej(p[-0.4029046439567, -0.116115117978191, 0.336598683458966, -1.09234138939404, -1.28123802935398, 1.38043898921093], a = 0.2, v = 0.2, t = 0.2)
movej(p[-0.401085844681712, -0.116006816895577, 0.337498689103933, -1.13274352315976, -1.2921025461367, 1.3991715315495], a = 0.2, v = 0.2, t = 0.2)
movej(p[-0.400637824954102, -0.115905489160765, 0.337912902216027, -1.16088290661018, -1.27875434128914, 1.40892800454954], a = 0.2, v = 0.2, t = 0.2)
movej(p[-0.401536190795916, -0.116081978777139, 0.338144977134908, -1.22893692604994, -1.29491275925049, 1.36701657693251], a = 0.2, v = 0.2, t = 0.2)
movej(p[-0.403534560022498, -0.11623626853781, 0.337862101328933, -1.21088112117632, -1.30160798318613, 1.31888587310488], a = 0.2, v = 0.2, t = 0.2)
movej(p[-0.405907820863983, -0.11644176114847, 0.337957970532464, -1.21100226081042, -1.30592803798522, 1.27507707020235], a = 0.2, v = 0.2, t = 0.2)
movej(p[-0.408012633121185, -0.11643942527705, 0.338031066180328, -1.17915531908766, -1.27093666531922, 1.29508318548286], a = 0.2, v = 0.2, t = 0.2)
movej(p[-0.40955288647744, -0.116525364474802, 0.337988425578366, -1.1731622639782, -1.25853492390415, 1.29826442161748], a = 0.2, v = 0.2, t = 0.2)
movej(p[-0.41068006748409, -0.116714926641012, 0.337869060841998, -1.17837148055795, -1.2570686785833, 1.29175977802629], a = 0.2, v = 0.2, t = 0.2)
movej(p[-0.411385519318391, -0.11689370551249, 0.337670326434824, -1.17969941172153, -1.25670293842039, 1.27831860312793], a = 0.2, v = 0.2, t = 0.2)
movej(p[-0.411909890707036, -0.116910715272332, 0.337634050530418, -1.14979840809234, -1.23906852616475, 1.29724330742192], a = 0.2, v = 0.2, t = 0.2)
movej(p[-0.412095299031823, -0.116770695752318, 0.337089712926798, -1.08100621176188, -1.2154520084047, 1.33695449841612], a = 0.2, v = 0.2, t = 0.2)
movej(p[-0.411367471565165, -0.116594727000237, 0.336704913357321, -1.01739059114601, -1.1849236230701, 1.37723254953046], a = 0.2, v = 0.2, t = 0.2)
movej(p[-0.409681138062603, -0.116508214451248, 0.336339381879735, -1.00087628642555, -1.19003278859542, 1.37418058318953], a = 0.2, v = 0.2, t = 0.2)
movej(p[-0.40700974085957, -0.116358279981573, 0.336065678206157, -1.04422958813897, -1.19778443450298, 1.38715089847313], a = 0.2, v = 0.2, t = 0.2)
movej(p[-0.40401809601249, -0.1162237856287, 0.336349103257842, -1.08005681907854, -1.23257368866175, 1.39054606840155], a = 0.2, v = 0.2, t = 0.2)
movej(p[-0.401123311370477, -0.115907523521234, 0.336796402849273, -1.11421629931166, -1.26447136565142, 1.41586932286785], a = 0.2, v = 0.2, t = 0.2)
movej(p[-0.398582880182867, -0.115771016274282, 0.337726214019092, -1.10831007613775, -1.3071279994227, 1.40840549205714], a = 0.2, v = 0.2, t = 0.2)
movej(p[-0.397309383213897, -0.115735634602509, 0.338528050606824, -1.13462110074487, -1.33406229946035, 1.39983590277297], a = 0.2, v = 0.2, t = 0.2)
movej(p[-0.397781867368181, -0.115772232481302, 0.339094937485592, -1.14985288946611, -1.34410258390963, 1.37038955418912], a = 0.2, v = 0.2, t = 0.2)
movej(p[-0.399848080805207, -0.115881652943713, 0.33913433717035, -1.17387934530179, -1.3344616965424, 1.34422794701702], a = 0.2, v = 0.2, t = 0.2)
movej(p[-0.402457874038177, -0.115954641440199, 0.338821845511224, -1.16274986934977, -1.33697412628644, 1.30938922235105], a = 0.2, v = 0.2, t = 0.2)
movej(p[-0.404897294163734, -0.116254582437203, 0.338297469519552, -1.17663444814011, -1.31769572281799, 1.29262556026134], a = 0.2, v = 0.2, t = 0.2)
movej(p[-0.406909967269633, -0.116400342323321, 0.338282915111533, -1.1781346756645, -1.30495823556128, 1.28882315916969], a = 0.2, v = 0.2, t = 0.2)
movej(p[-0.408527337332887, -0.116558445131762, 0.338130408623628, -1.18282934459447, -1.28336059502835, 1.28981329155557], a = 0.2, v = 0.2, t = 0.2)
movej(p[-0.409681293484078, -0.116510832145959, 0.338268514048255, -1.16278575275889, -1.26584960643331, 1.30126162741172], a = 0.2, v = 0.2, t = 0.2)
movej(p[-0.410606054174672, -0.116578907037196, 0.337963868153462, -1.1303379659524, -1.24645424616441, 1.30575585263775], a = 0.2, v = 0.2, t = 0.2)
movej(p[-0.411263831891875, -0.116657506028102, 0.338005855311976, -1.12619359424747, -1.21877827344509, 1.32391558904233], a = 0.2, v = 0.2, t = 0.2)
movej(p[-0.411044021252882, -0.116697772623871, 0.337992779886522, -1.12289889644355, -1.21481799184481, 1.3394726586088], a = 0.2, v = 0.2, t = 0.2)
movej(p[-0.409760886138608, -0.116472956481293, 0.337821906796331, -1.1311599738334, -1.22295795506745, 1.37470974057873], a = 0.2, v = 0.2, t = 0.2)
movej(p[-0.407324180266741, -0.116224904044474, 0.337071767689564, -1.09754874409474, -1.23518430588899, 1.39882478461712], a = 0.2, v = 0.2, t = 0.2)
movej(p[-0.404475373441624, -0.115957358408601, 0.336454980732836, -1.0866804421113, -1.24466817471908, 1.413355140334], a = 0.2, v = 0.2, t = 0.2)
movej(p[-0.401403980184908, -0.115836074273438, 0.33651404784429, -1.10253224125662, -1.28268917043202, 1.40559478795061], a = 0.2, v = 0.2, t = 0.2)
movej(p[-0.39856642868765, -0.11576387315022, 0.337280418153158, -1.14566226158951, -1.30322102509109, 1.42174133356975], a = 0.2, v = 0.2, t = 0.2)
movej(p[-0.396752088680334, -0.115633310236607, 0.33856699803169, -1.18279753649894, -1.3403437231849, 1.4146207726868], a = 0.2, v = 0.2, t = 0.2)
movej(p[-0.396196264720873, -0.115493317357706, 0.3393478720512, -1.22206142250308, -1.34093983180217, 1.40576242778986], a = 0.2, v = 0.2, t = 0.2)
movej(p[-0.397396425169939, -0.115544713263328, 0.339655045379276, -1.23112285735482, -1.35730615593632, 1.34437620142206], a = 0.2, v = 0.2, t = 0.2)
movej(p[-0.399695687367566, -0.115819379293795, 0.33932623551633, -1.2456083322362, -1.34283898196473, 1.30956292369171], a = 0.2, v = 0.2, t = 0.2)
movej(p[-0.402388067223021, -0.11613256898326, 0.339203789189897, -1.22317403215818, -1.32124947761121, 1.28315715685035], a = 0.2, v = 0.2, t = 0.2)
movej(p[-0.404778185819616, -0.116149675677289, 0.339015664592277, -1.18566731392703, -1.27342955114357, 1.31468173952792], a = 0.2, v = 0.2, t = 0.2)
movej(p[-0.406536339418501, -0.116236047660776, 0.339096229750967, -1.19159978380897, -1.23970194765912, 1.33678860940074], a = 0.2, v = 0.2, t = 0.2)
movej(p[-0.40789077385592, -0.116281389009259, 0.339087980160003, -1.19439464700332, -1.21614864362003, 1.35475193542728], a = 0.2, v = 0.2, t = 0.2)
movej(p[-0.408913827565949, -0.116475579790801, 0.338779478342082, -1.22173585254483, -1.21633106995545, 1.35267312098692], a = 0.2, v = 0.2, t = 0.2)
movej(p[-0.409779598836358, -0.116481383464953, 0.338365850656476, -1.212037905608, -1.212546438359, 1.3522745579505], a = 0.2, v = 0.2, t = 0.2)
movej(p[-0.410464225414205, -0.116574801320715, 0.337744943976184, -1.17812354958941, -1.21026882337621, 1.34817221340133], a = 0.2, v = 0.2, t = 0.2)
movej(p[-0.410229479532852, -0.116645593812298, 0.337468151172045, -1.17016310378007, -1.21599938441716, 1.35925734153234], a = 0.2, v = 0.2, t = 0.2)
movej(p[-0.408870882443802, -0.116654104005319, 0.337231703017394, -1.14922616787894, -1.22340990320096, 1.38479026945405], a = 0.2, v = 0.2, t = 0.2)
movej(p[-0.406224981389588, -0.11632006960239, 0.336856796720475, -1.12916977159159, -1.23469820121373, 1.41538353318157], a = 0.2, v = 0.2, t = 0.2)
movej(p[-0.403250967667923, -0.1159725353271, 0.336940619947245, -1.09716990947334, -1.24617582151685, 1.43125513181126], a = 0.2, v = 0.2, t = 0.2)
movej(p[-0.400095553744303, -0.115746568537042, 0.337142850071902, -1.08102637560489, -1.26880924447237, 1.44197667959698], a = 0.2, v = 0.2, t = 0.2)
movej(p[-0.397249586704728, -0.115688207325596, 0.338096020756819, -1.09627319458462, -1.27029067001888, 1.45136458105843], a = 0.2, v = 0.2, t = 0.2)
movej(p[-0.395381184769048, -0.115730630598876, 0.338819423846549, -1.11588918493876, -1.30195905124949, 1.41783806101409], a = 0.2, v = 0.2, t = 0.2)
movej(p[-0.395469460367801, -0.115698678581265, 0.339325342126349, -1.14573013945668, -1.33252726786937, 1.37287898581963], a = 0.2, v = 0.2, t = 0.2)
movej(p[-0.397269588108782, -0.115757362074817, 0.339640058271841, -1.17502927568578, -1.34710716559471, 1.32944443469334], a = 0.2, v = 0.2, t = 0.2)
movej(p[-0.39989097481366, -0.115804991989743, 0.339782516136129, -1.19762682422972, -1.32883210460328, 1.32480958581342], a = 0.2, v = 0.2, t = 0.2)
movej(p[-0.402488778120566, -0.116014714951667, 0.339697823979021, -1.20354762647965, -1.31030705745259, 1.32278524200627], a = 0.2, v = 0.2, t = 0.2)
movej(p[-0.404698317069192, -0.116165994448025, 0.339357605657707, -1.2020980523778, -1.28579319011173, 1.33354423599315], a = 0.2, v = 0.2, t = 0.2)
movej(p[-0.406439724261982, -0.116298773440952, 0.339182754233815, -1.19952057894281, -1.26735160143676, 1.33248971331399], a = 0.2, v = 0.2, t = 0.2)
movej(p[-0.407798675064826, -0.116434996047334, 0.339193984062916, -1.21292884035808, -1.23632843162672, 1.3509622835516], a = 0.2, v = 0.2, t = 0.2)
movej(p[-0.408821801210959, -0.116559668845817, 0.339254627269592, -1.19321449183227, -1.22285793356045, 1.35716145946013], a = 0.2, v = 0.2, t = 0.2)
movej(p[-0.409776939758695, -0.116617643989486, 0.338908261727214, -1.20353923964707, -1.21829562160447, 1.3667941883833], a = 0.2, v = 0.2, t = 0.2)
movej(p[-0.410235096741971, -0.116629099971193, 0.338436863997947, -1.12915373005718, -1.20825853013706, 1.36627721809858], a = 0.2, v = 0.2, t = 0.2)
movej(p[-0.409685974492612, -0.116458652271261, 0.337741354345285, -1.08841781322519, -1.19924734847733, 1.3838679269675], a = 0.2, v = 0.2, t = 0.2)
movej(p[-0.407546472556627, -0.116358555725074, 0.337361177883286, -1.02908082502316, -1.20211689268203, 1.3940758243552], a = 0.2, v = 0.2, t = 0.2)
movej(p[-0.404354216337103, -0.116120272235266, 0.337220934452786, -1.06164878453955, -1.22295791622577, 1.40878065636653], a = 0.2, v = 0.2, t = 0.2)
movej(p[-0.401259690294652, -0.115981381463238, 0.337562771008145, -1.09051667707762, -1.2739087117418, 1.40819886409201], a = 0.2, v = 0.2, t = 0.2)
movej(p[-0.398594183095763, -0.115897408351285, 0.338091447118674, -1.09195378089025, -1.29299972668245, 1.42261434580783], a = 0.2, v = 0.2, t = 0.2)
movej(p[-0.396789351032086, -0.115770437248256, 0.338734075279448, -1.12037542817064, -1.32205004925324, 1.41165995515703], a = 0.2, v = 0.2, t = 0.2)
movej(p[-0.396256256392224, -0.11579000051503, 0.33931315181605, -1.1340839371634, -1.31946377557122, 1.40328566844562], a = 0.2, v = 0.2, t = 0.2)
movej(p[-0.397385419319417, -0.115723623720422, 0.339593203612673, -1.19137661111907, -1.33478997569538, 1.35558184045969], a = 0.2, v = 0.2, t = 0.2)
movej(p[-0.399711001609255, -0.115896596573052, 0.339749179782145, -1.19145044936259, -1.33859706758257, 1.32756866746117], a = 0.2, v = 0.2, t = 0.2)
movej(p[-0.402198254260875, -0.116032735538878, 0.339501343924371, -1.15615326914505, -1.31269650463512, 1.31271929792957], a = 0.2, v = 0.2, t = 0.2)
movej(p[-0.404428537427797, -0.116194726722081, 0.339408867257529, -1.12070269356999, -1.28153909026899, 1.32642937315603], a = 0.2, v = 0.2, t = 0.2)
movej(p[-0.406134897018036, -0.116234268076097, 0.339387553407039, -1.10615886692848, -1.26339414311992, 1.3242209038524], a = 0.2, v = 0.2, t = 0.2)
movej(p[-0.407336925613751, -0.116294596470523, 0.339301405033232, -1.12611129802565, -1.24357516288027, 1.33510475553009], a = 0.2, v = 0.2, t = 0.2)
movej(p[-0.408326201791481, -0.116369421423639, 0.33901446594742, -1.15194172511842, -1.25508315076934, 1.31381939821146], a = 0.2, v = 0.2, t = 0.2)
movej(p[-0.409234215934675, -0.116358808007063, 0.338617835359533, -1.16022359737317, -1.26351196921562, 1.30513008757315], a = 0.2, v = 0.2, t = 0.2)
movej(p[-0.409805204074239, -0.116364166625181, 0.338383701333407, -1.15658252286439, -1.2743743372948, 1.30519551305566], a = 0.2, v = 0.2, t = 0.2)
movej(p[-0.409634243412936, -0.116263588399787, 0.337977399445934, -1.13430127135194, -1.27065971561315, 1.33214808500504], a = 0.2, v = 0.2, t = 0.2)
movej(p[-0.408222583981416, -0.116152873468209, 0.337343476615516, -1.09897723507293, -1.24396145541093, 1.36609824900246], a = 0.2, v = 0.2, t = 0.2)
movej(p[-0.405711126238789, -0.115979699906606, 0.337075543835402, -1.11650966109419, -1.23914729314051, 1.3851708719019], a = 0.2, v = 0.2, t = 0.2)
movej(p[-0.402798239783893, -0.115869350575623, 0.337304726401575, -1.12163328572757, -1.23700342863604, 1.40836938298685], a = 0.2, v = 0.2, t = 0.2)
movej(p[-0.399797551890042, -0.115813702881163, 0.337861548447021, -1.1567981763623, -1.26858683194916, 1.41521746743633], a = 0.2, v = 0.2, t = 0.2)
movej(p[-0.397172962188322, -0.115678528352986, 0.338591796374891, -1.1620936539923, -1.30227971836805, 1.41548426387294], a = 0.2, v = 0.2, t = 0.2)
movej(p[-0.395162185426461, -0.115553469948518, 0.339298538018445, -1.16313512841913, -1.34054412697511, 1.38485244866352], a = 0.2, v = 0.2, t = 0.2)
movej(p[-0.394863316796378, -0.115535514202657, 0.339844074583817, -1.19585470533103, -1.35335842062966, 1.36661195068564], a = 0.2, v = 0.2, t = 0.2)
movej(p[-0.39628222262109, -0.115604276547369, 0.339933458867514, -1.21167983865037, -1.35609477905322, 1.33704946149776], a = 0.2, v = 0.2, t = 0.2)
movej(p[-0.398920238067286, -0.115710865147469, 0.339554742530973, -1.22103001790244, -1.33515327745512, 1.32932831021135], a = 0.2, v = 0.2, t = 0.2)
movej(p[-0.401769902234075, -0.11585189078256, 0.339443533325577, -1.19238819445353, -1.30247948834346, 1.33436763291372], a = 0.2, v = 0.2, t = 0.2)
movej(p[-0.404066603413922, -0.115937938372597, 0.339285754643758, -1.15614260991787, -1.27948750249939, 1.34012437507561], a = 0.2, v = 0.2, t = 0.2)
movej(p[-0.405798606692302, -0.116190557397805, 0.339321607841449, -1.16924126961213, -1.2639570078598, 1.34114904584505], a = 0.2, v = 0.2, t = 0.2)
movej(p[-0.407237387734525, -0.116310860051712, 0.339241474928726, -1.1856599670844, -1.25818572943954, 1.34094715650809], a = 0.2, v = 0.2, t = 0.2)
movej(p[-0.408479415046363, -0.116462299242518, 0.33892028913664, -1.19426412372106, -1.26055796715337, 1.32376157493523], a = 0.2, v = 0.2, t = 0.2)
movej(p[-0.409640503044948, -0.11638983849273, 0.338783031949648, -1.17805901680253, -1.25980703918267, 1.31970866781402], a = 0.2, v = 0.2, t = 0.2)
movej(p[-0.410232741972832, -0.116473351869991, 0.338556884488425, -1.14330448750651, -1.25958729512055, 1.31136237848251], a = 0.2, v = 0.2, t = 0.2)
movej(p[-0.409800762358073, -0.116499558464325, 0.338155460953433, -1.14329284709466, -1.23300481785152, 1.34137357805104], a = 0.2, v = 0.2, t = 0.2)
movej(p[-0.407849405195641, -0.116424195369724, 0.337393667845889, -1.12023499579442, -1.22708264094769, 1.37237490313717], a = 0.2, v = 0.2, t = 0.2)
movej(p[-0.404945671242158, -0.116138990936479, 0.336699811238554, -1.11656878872125, -1.23589877030198, 1.40410422308035], a = 0.2, v = 0.2, t = 0.2)
movej(p[-0.401556444677914, -0.115857598299402, 0.337014118464881, -1.1069620952857, -1.24776729195044, 1.44064014619258], a = 0.2, v = 0.2, t = 0.2)
movej(p[-0.398272620918728, -0.115686963923423, 0.337753201865075, -1.12079537027747, -1.27540864009722, 1.45554257646233], a = 0.2, v = 0.2, t = 0.2)
movej(p[-0.395395804964108, -0.115582525939196, 0.338654702332236, -1.15492673960357, -1.30519185257748, 1.45957137325042], a = 0.2, v = 0.2, t = 0.2)
movej(p[-0.394136973373518, -0.115566491547016, 0.3390361063975, -1.18219291366835, -1.35712413197076, 1.41487148884663], a = 0.2, v = 0.2, t = 0.2)
movej(p[-0.394939610963151, -0.115528869934036, 0.339418486059152, -1.20797663700441, -1.3644777532775, 1.38119252890583], a = 0.2, v = 0.2, t = 0.2)
movej(p[-0.397210021651995, -0.115654135487931, 0.339657876520512, -1.19503044132985, -1.35562724890413, 1.34755481439389], a = 0.2, v = 0.2, t = 0.2)
movej(p[-0.399995133663994, -0.115826975257206, 0.340082265900262, -1.18902722443166, -1.32344792777357, 1.33802023739622], a = 0.2, v = 0.2, t = 0.2)
movej(p[-0.402443760659351, -0.116008115871041, 0.340062020342663, -1.1794553159673, -1.30341030287577, 1.33179527336747], a = 0.2, v = 0.2, t = 0.2)
movej(p[-0.40455994055858, -0.116111528155031, 0.33968241180118, -1.18563345489699, -1.2910341154944, 1.31684477734863], a = 0.2, v = 0.2, t = 0.2)
movej(p[-0.406212062353052, -0.11609781863471, 0.339264212097588, -1.20538300999642, -1.27519479110618, 1.32797080713985], a = 0.2, v = 0.2, t = 0.2)
movej(p[-0.407588945078515, -0.116256234365389, 0.338994917570732, -1.21725516064716, -1.27094259557492, 1.31011134162538], a = 0.2, v = 0.2, t = 0.2)
movej(p[-0.408917821023009, -0.116461615752482, 0.339145469826047, -1.22341910924666, -1.24818673035475, 1.33157143089008], a = 0.2, v = 0.2, t = 0.2)
movej(p[-0.409962060021728, -0.116665220328152, 0.339132948136046, -1.20429504630216, -1.21094138510142, 1.34888119737247], a = 0.2, v = 0.2, t = 0.2)
movej(p[-0.4102798641648, -0.116602581518581, 0.338726564198024, -1.16229879148056, -1.16297512648417, 1.39875309092047], a = 0.2, v = 0.2, t = 0.2)
movej(p[-0.409174629054389, -0.116457187566631, 0.337827604605856, -1.11744823875868, -1.14682649592772, 1.43028256322109], a = 0.2, v = 0.2, t = 0.2)
movej(p[-0.406707959288625, -0.116217815774573, 0.337023131334247, -1.09006724820065, -1.19570275014864, 1.43101569861992], a = 0.2, v = 0.2, t = 0.2)
movej(p[-0.403703465970077, -0.116120292181803, 0.336856731212387, -1.10127230040215, -1.25199251510936, 1.41653829355169], a = 0.2, v = 0.2, t = 0.2)
movej(p[-0.40028944257942, -0.11603087192935, 0.337401190656696, -1.12642781241759, -1.31194694513635, 1.39705071493415], a = 0.2, v = 0.2, t = 0.2)
movej(p[-0.397372421771012, -0.115849089270141, 0.338326465710789, -1.16121853048897, -1.31287518894294, 1.42426534413988], a = 0.2, v = 0.2, t = 0.2)
movej(p[-0.395691948694588, -0.115746718309291, 0.339089569609344, -1.18378112138079, -1.35183047773889, 1.39521774412853], a = 0.2, v = 0.2, t = 0.2)
movej(p[-0.395646702912778, -0.115595163326519, 0.339551197149062, -1.19384573817948, -1.35579028507986, 1.36963465199297], a = 0.2, v = 0.2, t = 0.2)
movej(p[-0.397263813999399, -0.115640268758667, 0.339900904120138, -1.20429912088354, -1.35336635864392, 1.33948360209821], a = 0.2, v = 0.2, t = 0.2)
movej(p[-0.399613572387246, -0.115701803050092, 0.339839895774758, -1.17467439462828, -1.32303716823973, 1.34100658065149], a = 0.2, v = 0.2, t = 0.2)
movej(p[-0.402140900609245, -0.115808444596163, 0.339786679487743, -1.16620893467672, -1.28546448375489, 1.35882762612584], a = 0.2, v = 0.2, t = 0.2)
movej(p[-0.404379021747281, -0.115966202584792, 0.339516481753111, -1.14502483201783, -1.27796771471309, 1.34882507046048], a = 0.2, v = 0.2, t = 0.2)
movej(p[-0.406037141724102, -0.116109996558643, 0.339543824242954, -1.17303957352123, -1.24102122858081, 1.37356369375252], a = 0.2, v = 0.2, t = 0.2)
movej(p[-0.407481322291087, -0.116171318930625, 0.339381598310574, -1.17442952420638, -1.23616013633535, 1.35421975802886], a = 0.2, v = 0.2, t = 0.2)
movej(p[-0.408665489406473, -0.116330272722736, 0.339165615761945, -1.19120038736831, -1.23222537059196, 1.34505722069261], a = 0.2, v = 0.2, t = 0.2)
movej(p[-0.409720447520601, -0.116440163201976, 0.338564874646648, -1.17919451670868, -1.2511559022884, 1.31201615525568], a = 0.2, v = 0.2, t = 0.2)
movej(p[-0.410468063009467, -0.116553401188765, 0.338142808373706, -1.16680487525207, -1.23454247195581, 1.33955602743638], a = 0.2, v = 0.2, t = 0.2)
movej(p[-0.409975133772849, -0.116545678128573, 0.33774356305798, -1.11480655341237, -1.20888296054379, 1.3729154866593], a = 0.2, v = 0.2, t = 0.2)
movej(p[-0.408177215030575, -0.116452983464351, 0.33724640906473, -1.0682342358637, -1.20002356239227, 1.39838306801413], a = 0.2, v = 0.2, t = 0.2)
movej(p[-0.405106346689325, -0.1162330637342, 0.337018961970664, -1.0516666521859, -1.23036634254535, 1.3993767433492], a = 0.2, v = 0.2, t = 0.2)
movej(p[-0.401760539800816, -0.115908825379358, 0.336950108007839, -1.07603309011717, -1.26675305251588, 1.39311385397418], a = 0.2, v = 0.2, t = 0.2)
movej(p[-0.398541179819662, -0.115617113460222, 0.337734497652481, -1.12302816847384, -1.29770367094618, 1.40305028731471], a = 0.2, v = 0.2, t = 0.2)
movej(p[-0.395878619794514, -0.115471637374983, 0.338716917449103, -1.14113018363065, -1.33951711720049, 1.39996200259607], a = 0.2, v = 0.2, t = 0.2)
movej(p[-0.394968051881769, -0.11561880857209, 0.339490970797085, -1.16064582915719, -1.36053923197024, 1.38708856698885], a = 0.2, v = 0.2, t = 0.2)
movej(p[-0.395813689594897, -0.115686522914437, 0.339761755329834, -1.16928794992236, -1.37289851782624, 1.35136214612521], a = 0.2, v = 0.2, t = 0.2)
movej(p[-0.398411689784626, -0.115836423944256, 0.339512981846667, -1.1802751159914, -1.35387312247567, 1.31751020043239], a = 0.2, v = 0.2, t = 0.2)
movej(p[-0.401246291179518, -0.115865851377324, 0.339395696489191, -1.16472472264061, -1.33480905872565, 1.30168980611386], a = 0.2, v = 0.2, t = 0.2)
movej(p[-0.403748437925626, -0.116073377047083, 0.339450281805985, -1.17492196371584, -1.30336254178939, 1.31368406746368], a = 0.2, v = 0.2, t = 0.2)
movej(p[-0.405417353995952, -0.116273952610645, 0.33947514866762, -1.16878834322426, -1.28312203855932, 1.3356117138548], a = 0.2, v = 0.2, t = 0.2)
movej(p[-0.406796440026497, -0.116416466170941, 0.339087938079841, -1.18089519121899, -1.26840523274327, 1.34070384552289], a = 0.2, v = 0.2, t = 0.2)
movej(p[-0.407937476279434, -0.116438418607938, 0.338676235609126, -1.16676459213878, -1.26073724574683, 1.33831732508406], a = 0.2, v = 0.2, t = 0.2)
movej(p[-0.409010063921466, -0.116498815053319, 0.33833579775996, -1.19136727976668, -1.23363289043268, 1.34045440449222], a = 0.2, v = 0.2, t = 0.2)
movej(p[-0.409757785806371, -0.116545344613968, 0.338188634227385, -1.21975152504936, -1.21187481487322, 1.35373369721038], a = 0.2, v = 0.2, t = 0.2)
movej(p[-0.409461785119197, -0.1165723309417, 0.337785072616466, -1.20304110679472, -1.18095533360471, 1.38330586809199], a = 0.2, v = 0.2, t = 0.2)
movej(p[-0.407898682098131, -0.11637817249906, 0.337247742899918, -1.13405237664973, -1.16758879058694, 1.41730929828805], a = 0.2, v = 0.2, t = 0.2)
movej(p[-0.405267239352781, -0.116166839714222, 0.336899846955136, -1.09512841805325, -1.16083514194488, 1.45560451447537], a = 0.2, v = 0.2, t = 0.2)
movej(p[-0.402432641418364, -0.116039035084543, 0.33719671415109, -1.11724048632095, -1.19982248592756, 1.46582391498028], a = 0.2, v = 0.2, t = 0.2)
movej(p[-0.400085476475175, -0.115999859020863, 0.338041080692114, -1.17309064519969, -1.25199995422411, 1.44402373850042], a = 0.2, v = 0.2, t = 0.2)
movej(p[-0.398679837384651, -0.115972367723975, 0.339046865000096, -1.18955800765671, -1.30619471781166, 1.41362866182984], a = 0.2, v = 0.2, t = 0.2)
movej(p[-0.398655067745593, -0.115863654880367, 0.33934641732243, -1.16807273839411, -1.32500753596444, 1.36470053437082], a = 0.2, v = 0.2, t = 0.2)
movej(p[-0.399814092339045, -0.115897364941289, 0.33956146404588, -1.16719941273971, -1.32700822900176, 1.32737515761511], a = 0.2, v = 0.2, t = 0.2)
movej(p[-0.401716292456162, -0.115985811797154, 0.3393508090993, -1.18214120906638, -1.30929447687652, 1.2958576666585], a = 0.2, v = 0.2, t = 0.2)
movej(p[-0.40376392506977, -0.116139695135944, 0.339286462404337, -1.19895121990528, -1.30377268815473, 1.28933420748037], a = 0.2, v = 0.2, t = 0.2)
movej(p[-0.405525182532163, -0.116129722140416, 0.339052819045718, -1.19330486773364, -1.29175740999822, 1.29767283054753], a = 0.2, v = 0.2, t = 0.2)
movej(p[-0.407001487894574, -0.116142740531247, 0.338879850044696, -1.17726679113655, -1.27984781354923, 1.30325102159424], a = 0.2, v = 0.2, t = 0.2)
movej(p[-0.408152792385294, -0.116180508988084, 0.338921280238009, -1.21630288495699, -1.25266509149974, 1.3255158498003], a = 0.2, v = 0.2, t = 0.2)
movej(p[-0.409055877809, -0.116339687385438, 0.338592871202042, -1.20644007089075, -1.24714709243861, 1.31455525702698], a = 0.2, v = 0.2, t = 0.2)
movej(p[-0.40983562110579, -0.116489260106526, 0.338187043067584, -1.20746023046756, -1.24418904968042, 1.32820409129847], a = 0.2, v = 0.2, t = 0.2)
movej(p[-0.409635081675298, -0.116485735539079, 0.337377596406745, -1.14345224893961, -1.23953341643106, 1.33622834175429], a = 0.2, v = 0.2, t = 0.2)
movej(p[-0.408151091107398, -0.116409526670155, 0.337012704514976, -1.13876208300587, -1.24064599525281, 1.3677860153763], a = 0.2, v = 0.2, t = 0.2)
movej(p[-0.405127103060964, -0.116164913740475, 0.336802570651541, -1.13132214571759, -1.24201725188651, 1.39947420230539], a = 0.2, v = 0.2, t = 0.2)
movej(p[-0.401461125290503, -0.115918782008901, 0.33706795912235, -1.1295869755236, -1.26068791865948, 1.42653832460916], a = 0.2, v = 0.2, t = 0.2)
movej(p[-0.398073519953466, -0.11561756204251, 0.337742438308158, -1.10569219907416, -1.28333778492055, 1.43702652278424], a = 0.2, v = 0.2, t = 0.2)
movej(p[-0.395506529703386, -0.115451992650913, 0.338496346655477, -1.12010119619349, -1.32961407464886, 1.4165500001989], a = 0.2, v = 0.2, t = 0.2)
movej(p[-0.394587547048761, -0.115467085378041, 0.339437520602092, -1.16388123678835, -1.38456329861771, 1.35525209896268], a = 0.2, v = 0.2, t = 0.2)
movej(p[-0.395734620107696, -0.115782038899372, 0.339794884007978, -1.21799600987016, -1.40357237995634, 1.31094493889453], a = 0.2, v = 0.2, t = 0.2)
movej(p[-0.398109576341852, -0.115913946735657, 0.339906149994549, -1.22248113806414, -1.37417670408519, 1.29170364271488], a = 0.2, v = 0.2, t = 0.2)
movej(p[-0.400754336571983, -0.115985455850424, 0.339812531316257, -1.21297463152479, -1.33083104923253, 1.31638866417892], a = 0.2, v = 0.2, t = 0.2)
movej(p[-0.402857810826363, -0.115888959243706, 0.339771941217098, -1.21816148571627, -1.28225935248419, 1.35674399341297], a = 0.2, v = 0.2, t = 0.2)
movej(p[-0.4046201698422, -0.116015243963656, 0.339551688144232, -1.19245679936513, -1.24962181443161, 1.37707816977865], a = 0.2, v = 0.2, t = 0.2)
movej(p[-0.405980428170803, -0.116094085748941, 0.339052351497009, -1.17451441978348, -1.25332190545034, 1.36066065563968], a = 0.2, v = 0.2, t = 0.2)
movej(p[-0.407166774391594, -0.116097614449547, 0.338656441465958, -1.13358482829317, -1.26025184153709, 1.32735804614852], a = 0.2, v = 0.2, t = 0.2)
movej(p[-0.40826618814282, -0.116124321338248, 0.338582521180446, -1.1444630629573, -1.26049187827365, 1.32429493305351], a = 0.2, v = 0.2, t = 0.2)
movej(p[-0.409071921606764, -0.116252937224772, 0.338423040010038, -1.14268706856824, -1.24568036470037, 1.33247129721721], a = 0.2, v = 0.2, t = 0.2)
movej(p[-0.409413080818881, -0.116471455572481, 0.338170244990106, -1.14294516337587, -1.22603961812984, 1.35422497060288], a = 0.2, v = 0.2, t = 0.2)
movej(p[-0.408829056315555, -0.116408233742079, 0.337520043002048, -1.09868130873985, -1.21555845767094, 1.3830820487871], a = 0.2, v = 0.2, t = 0.2)
movej(p[-0.407261620096485, -0.116235257313924, 0.336907132810789, -1.06588204122772, -1.19591667681632, 1.4265546090529], a = 0.2, v = 0.2, t = 0.2)
movej(p[-0.40485578676071, -0.116083857166661, 0.336582883194781, -1.05989192077724, -1.21819354296284, 1.43312113272289], a = 0.2, v = 0.2, t = 0.2)
movej(p[-0.402056579804716, -0.116048307778934, 0.336913927271261, -1.06529465029443, -1.25581676234369, 1.4207576607099], a = 0.2, v = 0.2, t = 0.2)
movej(p[-0.399398336483394, -0.115985779012409, 0.337875049434042, -1.10671786319924, -1.30511390624059, 1.39062519175081], a = 0.2, v = 0.2, t = 0.2)
movej(p[-0.397759944995701, -0.115870692131787, 0.338559895671795, -1.118594971298, -1.3263601614652, 1.37883587889379], a = 0.2, v = 0.2, t = 0.2)
movej(p[-0.397780862364582, -0.115871966117169, 0.338992506668234, -1.15183989502168, -1.3454201869197, 1.35447093184848], a = 0.2, v = 0.2, t = 0.2)
movej(p[-0.399256016614785, -0.115996011639404, 0.338977018304221, -1.18422996061612, -1.33916489039554, 1.34077122365877], a = 0.2, v = 0.2, t = 0.2)
movej(p[-0.401531362228374, -0.116093363333447, 0.338995106056727, -1.19977202706503, -1.31989709117557, 1.33191781146025], a = 0.2, v = 0.2, t = 0.2)
movej(p[-0.403692141364218, -0.116068151460692, 0.338912034124224, -1.22010212025906, -1.28778390993806, 1.32974603102147], a = 0.2, v = 0.2, t = 0.2)
movej(p[-0.405611753513114, -0.116059480147199, 0.338806000225232, -1.18893251535698, -1.26208296630453, 1.32804554611821], a = 0.2, v = 0.2, t = 0.2)
movej(p[-0.407022489534348, -0.116157478789767, 0.338496126518622, -1.16368608579792, -1.25455233812559, 1.33201195409006], a = 0.2, v = 0.2, t = 0.2)
movej(p[-0.408149792658718, -0.116227283644339, 0.338385200472701, -1.14806234436991, -1.24388906090009, 1.337957747146], a = 0.2, v = 0.2, t = 0.2)
movej(p[-0.408977580061738, -0.116319700159599, 0.338184162230796, -1.14368125360906, -1.25283367627846, 1.33042277168498], a = 0.2, v = 0.2, t = 0.2)
movej(p[-0.409809550769576, -0.116359413116294, 0.338033506801192, -1.1373296526053, -1.25004429387364, 1.31676092581356], a = 0.2, v = 0.2, t = 0.2)
movej(p[-0.41031553417285, -0.116445191141956, 0.337755620806537, -1.1158744783528, -1.2528897578519, 1.31327419473003], a = 0.2, v = 0.2, t = 0.2)
movej(p[-0.409927763935505, -0.116325699511599, 0.33733881861196, -1.10000150826973, -1.22410945061898, 1.3516166178692], a = 0.2, v = 0.2, t = 0.2)
movej(p[-0.408130339641736, -0.116176735177944, 0.336859978204448, -1.0878131759608, -1.20726501216081, 1.3881403766432], a = 0.2, v = 0.2, t = 0.2)
movej(p[-0.405573521868808, -0.116066578666651, 0.336511360274391, -1.08982772530457, -1.21796400716219, 1.4066557746999], a = 0.2, v = 0.2, t = 0.2)
movej(p[-0.403135442282427, -0.116048620037988, 0.336535248403874, -1.09476967346126, -1.2610692308705, 1.39382583400537], a = 0.2, v = 0.2, t = 0.2)
movej(p[-0.400932638569581, -0.116021856655723, 0.336985789299956, -1.09360871819006, -1.29189417016869, 1.38251851348962], a = 0.2, v = 0.2, t = 0.2)
movej(p[-0.399395821519074, -0.115934061791103, 0.337600399133524, -1.10849665663736, -1.30760384624971, 1.37826190671066], a = 0.2, v = 0.2, t = 0.2)
movej(p[-0.398861717804995, -0.115973373209998, 0.338270948457101, -1.12657523175818, -1.3056086505096, 1.37133561752859], a = 0.2, v = 0.2, t = 0.2)
movej(p[-0.399855787742521, -0.116041468551382, 0.338721402741339, -1.17263997084592, -1.31562422813561, 1.35284117499751], a = 0.2, v = 0.2, t = 0.2)
movej(p[-0.401876854355848, -0.11599111516182, 0.338717650235891, -1.20468975314841, -1.30973765803348, 1.34005132341945], a = 0.2, v = 0.2, t = 0.2)
movej(p[-0.404156172823171, -0.116076819909526, 0.338646455685345, -1.21408116119517, -1.29487991237272, 1.32407070687052], a = 0.2, v = 0.2, t = 0.2)
movej(p[-0.406071534197328, -0.116110504092839, 0.338697809183576, -1.20186653974633, -1.26398392251618, 1.32900991437189], a = 0.2, v = 0.2, t = 0.2)
movej(p[-0.40750491761831, -0.116354951013559, 0.33895580527464, -1.19315305303087, -1.23960106198268, 1.34393910081611], a = 0.2, v = 0.2, t = 0.2)
movej(p[-0.408677564351076, -0.116306074589695, 0.338602949273099, -1.17543234026294, -1.24690919732747, 1.33782416919615], a = 0.2, v = 0.2, t = 0.2)
movej(p[-0.409672741861898, -0.116357685359447, 0.338240439190479, -1.14991076724702, -1.24408010141521, 1.34177926862731], a = 0.2, v = 0.2, t = 0.2)
movej(p[-0.410147541790129, -0.116276785777626, 0.337752095893389, -1.11431683484512, -1.24042914614098, 1.32866746852676], a = 0.2, v = 0.2, t = 0.2)
movej(p[-0.409729672242093, -0.116454367196818, 0.337436868337515, -1.1018952754317, -1.24389548269686, 1.33183513146974], a = 0.2, v = 0.2, t = 0.2)
movej(p[-0.408089612899891, -0.116358382666439, 0.337091415885093, -1.10983360273854, -1.25767338630462, 1.33950227477918], a = 0.2, v = 0.2, t = 0.2)
movej(p[-0.405633091331683, -0.116203473230483, 0.336717241289509, -1.11111902562911, -1.26811554340902, 1.3688584661327], a = 0.2, v = 0.2, t = 0.2)
movej(p[-0.402619857123669, -0.11581901611433, 0.336900647628347, -1.12801232306173, -1.26347078862757, 1.39998249020094], a = 0.2, v = 0.2, t = 0.2)
movej(p[-0.399412059392452, -0.115583704304175, 0.337264993965313, -1.13668946556188, -1.28389134916855, 1.40320408342838], a = 0.2, v = 0.2, t = 0.2)
movej(p[-0.396509867743864, -0.115479032522691, 0.338161601967298, -1.15101638712952, -1.30977995811509, 1.39333611960115], a = 0.2, v = 0.2, t = 0.2)
movej(p[-0.394644827152237, -0.115436674414957, 0.33877037572527, -1.15940048832507, -1.34191262268335, 1.38041559418787], a = 0.2, v = 0.2, t = 0.2)
movej(p[-0.394476187982311, -0.115456916008815, 0.339657284439538, -1.17930815493432, -1.35935503030493, 1.38174068167628], a = 0.2, v = 0.2, t = 0.2)
movej(p[-0.396101542424566, -0.115464165442619, 0.339798847059076, -1.19215616570017, -1.36013202620321, 1.36888896904503], a = 0.2, v = 0.2, t = 0.2)
movej(p[-0.398634223937828, -0.115595016616135, 0.339841994291028, -1.18959691771273, -1.35216619068227, 1.35141611358187], a = 0.2, v = 0.2, t = 0.2)
movej(p[-0.401381299323632, -0.115739641621167, 0.339430966541496, -1.19181399879168, -1.3263596195836, 1.33179568546814], a = 0.2, v = 0.2, t = 0.2)
movej(p[-0.403615905436712, -0.115865935550611, 0.339127368542206, -1.17914724050738, -1.31240081544089, 1.321687461604], a = 0.2, v = 0.2, t = 0.2)
movej(p[-0.405397971346712, -0.115975373000018, 0.338974252961084, -1.16549239956332, -1.28248264020675, 1.32271197525022], a = 0.2, v = 0.2, t = 0.2)
movej(p[-0.406754177188126, -0.115996038694078, 0.338845151199653, -1.18453789403261, -1.28174556593508, 1.33223943167306], a = 0.2, v = 0.2, t = 0.2)
movej(p[-0.407730688171679, -0.116067862648007, 0.338875848123641, -1.19767408726244, -1.2656565162359, 1.33767302039145], a = 0.2, v = 0.2, t = 0.2)
movej(p[-0.408699564968597, -0.116197663010209, 0.338716483242738, -1.18760451970906, -1.26905130363116, 1.32932558028469], a = 0.2, v = 0.2, t = 0.2)
movej(p[-0.409526872615872, -0.11634012759753, 0.338451568448661, -1.17940683515633, -1.25746717777157, 1.31719057361204], a = 0.2, v = 0.2, t = 0.2)
movej(p[-0.410099554728476, -0.116484302272676, 0.338114406628389, -1.17932252516192, -1.2530167230962, 1.31687713963153], a = 0.2, v = 0.2, t = 0.2)
movej(p[-0.409846590028944, -0.116587129488719, 0.337473126668519, -1.17519645288626, -1.2635500621896, 1.33282198609001], a = 0.2, v = 0.2, t = 0.2)
movej(p[-0.408432339271267, -0.116483894324559, 0.336993852215422, -1.11993806830567, -1.25211857419266, 1.35693542989759], a = 0.2, v = 0.2, t = 0.2)
movej(p[-0.406239101914502, -0.116415837219241, 0.336489596685155, -1.06543106923833, -1.25335679097539, 1.3788462916803], a = 0.2, v = 0.2, t = 0.2)
movej(p[-0.403736317301539, -0.116231555163754, 0.336532900759847, -1.0633006761868, -1.25876749467999, 1.39307866350981], a = 0.2, v = 0.2, t = 0.2)
movej(p[-0.401315493279902, -0.116140709720733, 0.337110632450439, -1.07444174970915, -1.28031011707056, 1.40127648368825], a = 0.2, v = 0.2, t = 0.2)
movej(p[-0.399095201799287, -0.115875712324983, 0.337905342964873, -1.10644772466408, -1.29913057396336, 1.41056656070966], a = 0.2, v = 0.2, t = 0.2)
movej(p[-0.397969665945859, -0.115595897888841, 0.338694180306837, -1.13910975259582, -1.30480343893272, 1.41256130498022], a = 0.2, v = 0.2, t = 0.2)
movej(p[-0.398212862985811, -0.11555126506085, 0.33905448789841, -1.16860161226885, -1.31325202859724, 1.39487014193444], a = 0.2, v = 0.2, t = 0.2)
movej(p[-0.39990838673804, -0.115688878522961, 0.338878867276245, -1.17700176051303, -1.32924341006443, 1.3569209429647], a = 0.2, v = 0.2, t = 0.2)
movej(p[-0.402138077046614, -0.115893506580357, 0.338772279848725, -1.16254356064121, -1.32949574697438, 1.3321368547518], a = 0.2, v = 0.2, t = 0.2)
movej(p[-0.404265409069531, -0.115937300446718, 0.338459079340843, -1.16588698090866, -1.30647409556562, 1.32795708136357], a = 0.2, v = 0.2, t = 0.2)
movej(p[-0.405942130726597, -0.11603606130639, 0.338300713883039, -1.16519205250161, -1.28307687949692, 1.32574338986396], a = 0.2, v = 0.2, t = 0.2)
movej(p[-0.407207263931049, -0.116055277653017, 0.338303299441761, -1.18320517167666, -1.25393748863679, 1.33465064999103], a = 0.2, v = 0.2, t = 0.2)
movej(p[-0.408270825515729, -0.116204143047043, 0.338164067728223, -1.17153176060242, -1.25278535349197, 1.32197478388687], a = 0.2, v = 0.2, t = 0.2)
movej(p[-0.409213542719973, -0.116167374563611, 0.338023265869042, -1.17490721328428, -1.25336462971799, 1.31242160413911], a = 0.2, v = 0.2, t = 0.2)
movej(p[-0.409939575513407, -0.11625889910684, 0.337603524080266, -1.15292261405985, -1.27042012755127, 1.29158516473881], a = 0.2, v = 0.2, t = 0.2)
movej(p[-0.410396787932773, -0.116284552745007, 0.337498402959521, -1.16296273427711, -1.2640379183351, 1.29877914635998], a = 0.2, v = 0.2, t = 0.2)
movej(p[-0.410043077689313, -0.116438234204597, 0.33719199245913, -1.13870904792607, -1.24562829556404, 1.32740977144093], a = 0.2, v = 0.2, t = 0.2)
movej(p[-0.408883129908027, -0.116432893060499, 0.33686436161432, -1.10000893546611, -1.22254298886567, 1.35695183638556], a = 0.2, v = 0.2, t = 0.2)
movej(p[-0.406803009364827, -0.116245024530018, 0.336342382546337, -1.08963945574107, -1.21631971242633, 1.38957021075546], a = 0.2, v = 0.2, t = 0.2)
movej(p[-0.404305679861847, -0.116031861061525, 0.336458561527423, -1.09689582895236, -1.2282049985016, 1.40039049693411], a = 0.2, v = 0.2, t = 0.2)
movej(p[-0.401825528178823, -0.115921409900176, 0.336759533189238, -1.13017887044658, -1.26024469616698, 1.39016148867914], a = 0.2, v = 0.2, t = 0.2)
movej(p[-0.399490944257371, -0.115931594528018, 0.337241889103438, -1.1331159812079, -1.29301355486945, 1.37739602213631], a = 0.2, v = 0.2, t = 0.2)
movej(p[-0.398237483767111, -0.115973052579954, 0.337853938131038, -1.14733478001221, -1.32793792731629, 1.36580420310621], a = 0.2, v = 0.2, t = 0.2)
movej(p[-0.398434260297645, -0.11589893892077, 0.338571660537998, -1.17578437382561, -1.34417659009347, 1.3604226784338], a = 0.2, v = 0.2, t = 0.2)
movej(p[-0.400140039676284, -0.115992188165429, 0.339185406260412, -1.18714641166303, -1.35335426775284, 1.32938597705073], a = 0.2, v = 0.2, t = 0.2)
movej(p[-0.402239025705364, -0.115973471322485, 0.339254843940698, -1.19391539124063, -1.3356859007601, 1.32070955389221], a = 0.2, v = 0.2, t = 0.2)
movej(p[-0.404206226085179, -0.116015523769561, 0.339263551750952, -1.18675001226809, -1.30822552177065, 1.32206300423038], a = 0.2, v = 0.2, t = 0.2)
movej(p[-0.405875040084976, -0.116027165603594, 0.339162157296549, -1.19331974946939, -1.28430366758684, 1.33570834026206], a = 0.2, v = 0.2, t = 0.2)
movej(p[-0.407234635707129, -0.116104496078571, 0.338870889718774, -1.17226866187004, -1.27215138010182, 1.33918124785985], a = 0.2, v = 0.2, t = 0.2)
movej(p[-0.408177883895196, -0.116124392539595, 0.338517890559361, -1.16076604304264, -1.26529835574706, 1.34573416146767], a = 0.2, v = 0.2, t = 0.2)
movej(p[-0.4089035109738, -0.116117962165272, 0.337961800157014, -1.14921608028426, -1.26528943589334, 1.33970145387874], a = 0.2, v = 0.2, t = 0.2)
movej(p[-0.409525802388323, -0.116165935749083, 0.337767325256917, -1.16120894457846, -1.27007777822897, 1.31465936454306], a = 0.2, v = 0.2, t = 0.2)
movej(p[-0.410209027309393, -0.116274492578041, 0.337434135102479, -1.15560241669924, -1.27905308629296, 1.29444368351129], a = 0.2, v = 0.2, t = 0.2)
movej(p[-0.410884168168025, -0.11643390408013, 0.337144374203793, -1.15822557752801, -1.26755727487658, 1.30258519159769], a = 0.2, v = 0.2, t = 0.2)
movej(p[-0.410725762839659, -0.116458973670572, 0.336763831788181, -1.15991969221732, -1.24384835798425, 1.3318207154744], a = 0.2, v = 0.2, t = 0.2)
movej(p[-0.409412160657805, -0.116373438587942, 0.336375235895939, -1.17708337335705, -1.21844119410412, 1.35956406950064], a = 0.2, v = 0.2, t = 0.2)
movej(p[-0.407151983032801, -0.116244717643517, 0.336073224863033, -1.13490200199588, -1.21407546139272, 1.37463699091383], a = 0.2, v = 0.2, t = 0.2)
movej(p[-0.404500496634555, -0.116158668275161, 0.336216337785313, -1.09688979306483, -1.23405912674009, 1.39691644664491], a = 0.2, v = 0.2, t = 0.2)
movej(p[-0.402008883228111, -0.116068034046568, 0.336744962365952, -1.05421679590959, -1.262993277557, 1.39877486284578], a = 0.2, v = 0.2, t = 0.2)
movej(p[-0.399434636637366, -0.115915374845429, 0.337428845087365, -1.08396149836927, -1.29051846873795, 1.41015819298243], a = 0.2, v = 0.2, t = 0.2)
movej(p[-0.397645846125125, -0.115749592240479, 0.3379346312588, -1.09460354503461, -1.3258410239548, 1.37201586025337], a = 0.2, v = 0.2, t = 0.2)
movej(p[-0.397167433350821, -0.115795195772379, 0.338509804941143, -1.1587390753473, -1.35153591498124, 1.34018691824654], a = 0.2, v = 0.2, t = 0.2)
movej(p[-0.398491807538598, -0.115929811485524, 0.338637388783861, -1.18617042545227, -1.35637498178017, 1.30491183488468], a = 0.2, v = 0.2, t = 0.2)
movej(p[-0.400928545033674, -0.116001622980314, 0.338864312954915, -1.22859554634703, -1.33876589906645, 1.30368103734553], a = 0.2, v = 0.2, t = 0.2)
movej(p[-0.403416552920645, -0.116054801712218, 0.338834065491527, -1.20426323382278, -1.31211283069357, 1.29955607364104], a = 0.2, v = 0.2, t = 0.2)
movej(p[-0.40543643478243, -0.116039231788005, 0.338870691751119, -1.20318997946447, -1.29647017730681, 1.30782101534246], a = 0.2, v = 0.2, t = 0.2)
movej(p[-0.406911400171244, -0.116080666346939, 0.338737660135603, -1.19354792311092, -1.27663901861095, 1.30827557459147], a = 0.2, v = 0.2, t = 0.2)
movej(p[-0.407995617473362, -0.11620408193373, 0.338475831719219, -1.16636731155408, -1.2656176638237, 1.31259154042459], a = 0.2, v = 0.2, t = 0.2)
movej(p[-0.408980879839887, -0.116316323672231, 0.338097404289389, -1.14839673761866, -1.25462020366818, 1.31146231309411], a = 0.2, v = 0.2, t = 0.2)
movej(p[-0.409841679218039, -0.116417077239849, 0.337767987423267, -1.13700980947413, -1.24194531388136, 1.32502078578965], a = 0.2, v = 0.2, t = 0.2)
movej(p[-0.410650340591208, -0.116413884323334, 0.337576550245768, -1.19107160375911, -1.22718272682951, 1.34151272538577], a = 0.2, v = 0.2, t = 0.2)
movej(p[-0.411249415598669, -0.116522731957703, 0.337626257270703, -1.19361906491516, -1.21525487818117, 1.34509544528185], a = 0.2, v = 0.2, t = 0.2)
movej(p[-0.41143247656175, -0.116551970004153, 0.337489441747697, -1.15249021759247, -1.20921290406753, 1.34698128558558], a = 0.2, v = 0.2, t = 0.2)
movej(p[-0.410749259117554, -0.116505604241934, 0.337142553270459, -1.07752774380178, -1.20508905762113, 1.35987782632691], a = 0.2, v = 0.2, t = 0.2)
movej(p[-0.409105449916785, -0.116353856075956, 0.336700396433931, -1.05017264780711, -1.19751050694446, 1.38322939086925], a = 0.2, v = 0.2, t = 0.2)
movej(p[-0.406765411661289, -0.116280226142914, 0.336629844539022, -1.05804295752982, -1.21846195311159, 1.39585319923599], a = 0.2, v = 0.2, t = 0.2)
movej(p[-0.404388237786192, -0.11618096127227, 0.336664515499668, -1.09925571491385, -1.23502251842758, 1.40527533297426], a = 0.2, v = 0.2, t = 0.2)
movej(p[-0.402333279790383, -0.116070528013177, 0.337066331265177, -1.12949056007333, -1.25839726731978, 1.40973097450917], a = 0.2, v = 0.2, t = 0.2)
movej(p[-0.400989940698086, -0.115931479769213, 0.337338710164957, -1.17164414743183, -1.26513967818201, 1.40753525567172], a = 0.2, v = 0.2, t = 0.2)
movej(p[-0.40070775744958, -0.115818519833406, 0.338105483458789, -1.19311902855711, -1.28517325920327, 1.39746164467804], a = 0.2, v = 0.2, t = 0.2)
movej(p[-0.401590998613256, -0.115959276155533, 0.33831481458514, -1.18844378777877, -1.30054532491562, 1.34998716837796], a = 0.2, v = 0.2, t = 0.2)
movej(p[-0.403275460542541, -0.115994192978793, 0.338248420144261, -1.18266252344545, -1.29205418136555, 1.32539730949097], a = 0.2, v = 0.2, t = 0.2)
movej(p[-0.405122612395738, -0.116151025659167, 0.337622250689802, -1.18566461340852, -1.29239888878051, 1.30524448832719], a = 0.2, v = 0.2, t = 0.2)
movej(p[-0.4067625245592, -0.116048505658891, 0.337325882708109, -1.1714025786735, -1.27738006784145, 1.31135555508412], a = 0.2, v = 0.2, t = 0.2)
movej(p[-0.408074849464458, -0.116193261655081, 0.337082368505224, -1.16622748135351, -1.27285423814042, 1.32532723385623], a = 0.2, v = 0.2, t = 0.2)
movej(p[-0.409168789761319, -0.116146163803651, 0.337061676649441, -1.15400828564331, -1.26384250356144, 1.3236273831444], a = 0.2, v = 0.2, t = 0.2)
movej(p[-0.410021828813426, -0.116247583041126, 0.337293144322884, -1.1896502258287, -1.24997545696352, 1.33938052549167], a = 0.2, v = 0.2, t = 0.2)
movej(p[-0.410730619192445, -0.116344201878704, 0.337404261170103, -1.16939999455451, -1.25498627133308, 1.32948920092442], a = 0.2, v = 0.2, t = 0.2)
movej(p[-0.411007137952956, -0.116365671831576, 0.337482107774454, -1.13273811821794, -1.23685637534155, 1.35009931680994], a = 0.2, v = 0.2, t = 0.2)
movej(p[-0.410295035833891, -0.116326520513848, 0.336907205566384, -1.0911594809824, -1.23177292307952, 1.366709446434], a = 0.2, v = 0.2, t = 0.2)
movej(p[-0.40842467158384, -0.116167239045094, 0.336578448955136, -1.09102160529198, -1.2235174410972, 1.39696217432389], a = 0.2, v = 0.2, t = 0.2)
movej(p[-0.405859693978033, -0.116007431424932, 0.336349742645098, -1.12111162390425, -1.24318851500715, 1.40183776256769], a = 0.2, v = 0.2, t = 0.2)
movej(p[-0.403372195830997, -0.11594556357279, 0.336696658232324, -1.12021004917811, -1.25367803914621, 1.41744227208398], a = 0.2, v = 0.2, t = 0.2)
movej(p[-0.401114487090549, -0.1158281715352, 0.337318477507059, -1.14324892942079, -1.27386159225277, 1.40983477250097], a = 0.2, v = 0.2, t = 0.2)
movej(p[-0.399270712312695, -0.115769870424199, 0.337799626012014, -1.14219659777565, -1.29314870001174, 1.40478999729971], a = 0.2, v = 0.2, t = 0.2)
movej(p[-0.39837529109033, -0.115696276517368, 0.338244956183366, -1.14978115208976, -1.32082943811045, 1.383202187433], a = 0.2, v = 0.2, t = 0.2)
movej(p[-0.398621586173699, -0.11567102291663, 0.338442558534461, -1.12017533112697, -1.33936648365862, 1.35069545286102], a = 0.2, v = 0.2, t = 0.2)
movej(p[-0.400258514290042, -0.115875927648926, 0.338586084708407, -1.13604990198342, -1.32341087485295, 1.34001600469992], a = 0.2, v = 0.2, t = 0.2)
movej(p[-0.402489999846903, -0.1160092531838, 0.338325964206032, -1.16544628204642, -1.30753461578817, 1.3255854188012], a = 0.2, v = 0.2, t = 0.2)
movej(p[-0.404633664390098, -0.116136121624619, 0.338334803015694, -1.18251113531713, -1.29658807291418, 1.33327173109067], a = 0.2, v = 0.2, t = 0.2)
movej(p[-0.406218332712053, -0.116123610806225, 0.338191101802005, -1.17154818596061, -1.28560432153921, 1.32821732286782], a = 0.2, v = 0.2, t = 0.2)
movej(p[-0.407358106446361, -0.116114887502626, 0.338176833005487, -1.15222533876837, -1.27961382091477, 1.32269522107931], a = 0.2, v = 0.2, t = 0.2)
movej(p[-0.40837145902297, -0.11612159184724, 0.337781086551751, -1.15324708295206, -1.271271063381, 1.30638284445831], a = 0.2, v = 0.2, t = 0.2)
movej(p[-0.409326993366583, -0.116103795077445, 0.337521264758862, -1.16407045937308, -1.27147774254262, 1.2960362291188], a = 0.2, v = 0.2, t = 0.2)
movej(p[-0.410211830276983, -0.116184973964657, 0.337207689437185, -1.15748933681189, -1.27314545952319, 1.28831235926609], a = 0.2, v = 0.2, t = 0.2)
movej(p[-0.41095059744351, -0.116291420896473, 0.336992505435992, -1.14610357237984, -1.26086380601264, 1.29921731341838], a = 0.2, v = 0.2, t = 0.2)
movej(p[-0.410944201214604, -0.116397667972281, 0.336712000545592, -1.10825980066257, -1.25009229125837, 1.31664186015579], a = 0.2, v = 0.2, t = 0.2)
movej(p[-0.409984467594302, -0.116350422096092, 0.336239851109349, -1.07868903350528, -1.21769833790185, 1.34784711805727], a = 0.2, v = 0.2, t = 0.2)
movej(p[-0.407942644626966, -0.116169816867721, 0.335897866133006, -1.05661295141562, -1.19466325818435, 1.39124228305042], a = 0.2, v = 0.2, t = 0.2)
movej(p[-0.405270117262686, -0.116016496175101, 0.335785205119397, -1.05839776509039, -1.196201392174, 1.41042162576284], a = 0.2, v = 0.2, t = 0.2)
movej(p[-0.402473197600426, -0.115840444333874, 0.336212702745899, -1.08777988532596, -1.22219151149627, 1.41958291338026], a = 0.2, v = 0.2, t = 0.2)
movej(p[-0.399832318484738, -0.115822107389626, 0.336744310311873, -1.11748673436429, -1.27868486085733, 1.39766237480553], a = 0.2, v = 0.2, t = 0.2)
movej(p[-0.397901629766014, -0.115625794909653, 0.337629097520018, -1.15122404740317, -1.30419324744069, 1.40502409486821], a = 0.2, v = 0.2, t = 0.2)
movej(p[-0.397352863012112, -0.115593623326735, 0.338232991346335, -1.158940028801, -1.31841635547287, 1.38436240448023], a = 0.2, v = 0.2, t = 0.2)
movej(p[-0.398368752760713, -0.115587775371291, 0.338777053845933, -1.15953809902311, -1.29532578049026, 1.37083622002211], a = 0.2, v = 0.2, t = 0.2)
movej(p[-0.400555895368841, -0.115755431355191, 0.338759926450786, -1.15387781255694, -1.28640157951908, 1.33808754354274], a = 0.2, v = 0.2, t = 0.2)
movej(p[-0.402910329234042, -0.115930714443542, 0.338884185362574, -1.139919138219, -1.28546172918355, 1.33105411079954], a = 0.2, v = 0.2, t = 0.2)
movej(p[-0.405092071619762, -0.115963941912424, 0.338738435086892, -1.15835629436924, -1.2933792964021, 1.30978846247284], a = 0.2, v = 0.2, t = 0.2)
movej(p[-0.406782389989854, -0.116098145191998, 0.338744547368209, -1.1858122868242, -1.28030882057907, 1.32145573508564], a = 0.2, v = 0.2, t = 0.2)
movej(p[-0.408130483181397, -0.11614222804261, 0.338396355216092, -1.21311759674801, -1.2680741431785, 1.31875043787059], a = 0.2, v = 0.2, t = 0.2)
movej(p[-0.409144129416907, -0.116336570072348, 0.338273541676065, -1.22793085951864, -1.24126064117512, 1.34300016462211], a = 0.2, v = 0.2, t = 0.2)
movej(p[-0.410076735767348, -0.11634908748652, 0.338027495941372, -1.18585339440263, -1.23336375000681, 1.34753498978245], a = 0.2, v = 0.2, t = 0.2)
movej(p[-0.410975980848136, -0.11638189041088, 0.337822522096868, -1.14720469007332, -1.22557227512597, 1.33728535980322], a = 0.2, v = 0.2, t = 0.2)
movej(p[-0.411693587464861, -0.116401191140023, 0.337661743519041, -1.11855019662247, -1.24020199245721, 1.3178607011684], a = 0.2, v = 0.2, t = 0.2)
movej(p[-0.411623681479129, -0.116467852407177, 0.337396103535002, -1.09629729725606, -1.24585777187419, 1.31836113644635], a = 0.2, v = 0.2, t = 0.2)
movej(p[-0.410278049514161, -0.11650595301237, 0.337091932341693, -1.11510041698873, -1.23756871672043, 1.34494491199243], a = 0.2, v = 0.2, t = 0.2)
movej(p[-0.407998711460503, -0.116329675724319, 0.336460477344274, -1.10956644727239, -1.24404415140966, 1.3807300205648], a = 0.2, v = 0.2, t = 0.2)
movej(p[-0.405134168847484, -0.116061363189106, 0.336034755426066, -1.09824797189183, -1.269625531515, 1.3865594991939], a = 0.2, v = 0.2, t = 0.2)
movej(p[-0.402223243331409, -0.115902009591595, 0.33631016113775, -1.06927491418596, -1.29709800627734, 1.38604461281541], a = 0.2, v = 0.2, t = 0.2)
movej(p[-0.399419271464607, -0.11573797013975, 0.336939305943805, -1.07730810802745, -1.29722740684768, 1.40096101283996], a = 0.2, v = 0.2, t = 0.2)
movej(p[-0.397064142060718, -0.115601297213956, 0.33773051416946, -1.13639244814072, -1.31785278481533, 1.39379830501587], a = 0.2, v = 0.2, t = 0.2)
movej(p[-0.396088236201026, -0.115427706937417, 0.338436831386658, -1.1918022261416, -1.3353463038701, 1.39555196028562], a = 0.2, v = 0.2, t = 0.2)
movej(p[-0.396786079508305, -0.115372950225146, 0.338856010657791, -1.21341239418071, -1.33804841791932, 1.38491016425843], a = 0.2, v = 0.2, t = 0.2)
movej(p[-0.398984732516219, -0.115593598221725, 0.339331382394219, -1.20231642840871, -1.32074928028107, 1.38366643676058], a = 0.2, v = 0.2, t = 0.2)
movej(p[-0.401565908624234, -0.115809374081761, 0.339369559436282, -1.2023688162107, -1.29691106464557, 1.38278087379555], a = 0.2, v = 0.2, t = 0.2)
movej(p[-0.403941946226446, -0.1159295639151, 0.339169461994926, -1.19091245143551, -1.27311289155242, 1.37983208845179], a = 0.2, v = 0.2, t = 0.2)
movej(p[-0.405958486617474, -0.116142916878032, 0.338858635444321, -1.18851539034141, -1.24286439983328, 1.36380119591447], a = 0.2, v = 0.2, t = 0.2)
movej(p[-0.40760504223463, -0.116297545255995, 0.338354610051268, -1.16321876117329, -1.24577502601307, 1.32160290019618], a = 0.2, v = 0.2, t = 0.2)
movej(p[-0.40890641809178, -0.116468501219117, 0.338239139883692, -1.1581945835622, -1.25058307400114, 1.29747247170205], a = 0.2, v = 0.2, t = 0.2)
movej(p[-0.409947590897505, -0.116455679441766, 0.338109024572357, -1.14785358340772, -1.25534134704376, 1.29831740452001], a = 0.2, v = 0.2, t = 0.2)
movej(p[-0.410905267796221, -0.116415118044464, 0.338215280239566, -1.15898025399101, -1.25250206564976, 1.30722126244481], a = 0.2, v = 0.2, t = 0.2)
movej(p[-0.411412831313455, -0.116476690410404, 0.337873573845528, -1.14870045729136, -1.231574802964, 1.33559356399857], a = 0.2, v = 0.2, t = 0.2)
movej(p[-0.41108767785469, -0.116422752924206, 0.337349562949233, -1.10896610204975, -1.23622601441788, 1.33740362908614], a = 0.2, v = 0.2, t = 0.2)
movej(p[-0.409440945474892, -0.116363423811436, 0.336783943973858, -1.09446010656454, -1.21833840411433, 1.36742907302694], a = 0.2, v = 0.2, t = 0.2)
movej(p[-0.406800388381065, -0.116092865483905, 0.336274595827653, -1.08598994439906, -1.22396097352221, 1.39338284395173], a = 0.2, v = 0.2, t = 0.2)
movej(p[-0.403919815071057, -0.115892719929166, 0.336331197793912, -1.13118719933738, -1.22747251062407, 1.42028458328947], a = 0.2, v = 0.2, t = 0.2)
movej(p[-0.401155031608761, -0.115751550915559, 0.336979554281203, -1.12275700405096, -1.24853118839331, 1.42769224152928], a = 0.2, v = 0.2, t = 0.2)
movej(p[-0.398921231692035, -0.11577955145893, 0.337694783485099, -1.14468427068544, -1.29439822199151, 1.39189247636896], a = 0.2, v = 0.2, t = 0.2)
movej(p[-0.397536665316819, -0.115758521672625, 0.338232947675946, -1.15718410501118, -1.33114473505516, 1.34721348961498], a = 0.2, v = 0.2, t = 0.2)
movej(p[-0.397870463839651, -0.115739161470612, 0.338479075917384, -1.20991321630199, -1.35908448516717, 1.32591697299896], a = 0.2, v = 0.2, t = 0.2)
movej(p[-0.399583747672162, -0.115801004123545, 0.338929765887467, -1.22985094828832, -1.34602380373996, 1.3255465565879], a = 0.2, v = 0.2, t = 0.2)
movej(p[-0.401951118605949, -0.11598012541202, 0.33912434324461, -1.23011805946562, -1.32872961660805, 1.32753685199248], a = 0.2, v = 0.2, t = 0.2)
movej(p[-0.40425609081796, -0.11616814136258, 0.339046815679138, -1.21579932607865, -1.30346343774159, 1.31275882131789], a = 0.2, v = 0.2, t = 0.2)
movej(p[-0.406200142048798, -0.11626220058266, 0.338686152601053, -1.19133833148286, -1.30291942260508, 1.29820187006934], a = 0.2, v = 0.2, t = 0.2)
movej(p[-0.407758720142214, -0.116137583585641, 0.33845815731409, -1.19029248365648, -1.28624946853107, 1.28599042933625], a = 0.2, v = 0.2, t = 0.2)
movej(p[-0.408936432348823, -0.116223035248859, 0.338564219438139, -1.18657026581336, -1.27011152839277, 1.29761395206316], a = 0.2, v = 0.2, t = 0.2)
movej(p[-0.409965941416746, -0.116294077915118, 0.33826776122669, -1.18138531298107, -1.23837186722294, 1.30542449790337], a = 0.2, v = 0.2, t = 0.2)
movej(p[-0.410734906344808, -0.116575195041312, 0.338260743365862, -1.15753701561753, -1.23574750401677, 1.31524849309344], a = 0.2, v = 0.2, t = 0.2)
movej(p[-0.410953846747679, -0.116630214852772, 0.337773807979247, -1.13245140145771, -1.23119378012237, 1.32514615228146], a = 0.2, v = 0.2, t = 0.2)
movej(p[-0.410131263602375, -0.116505987217673, 0.337618025960578, -1.11782741222021, -1.22810939563255, 1.34168206747515], a = 0.2, v = 0.2, t = 0.2)
movej(p[-0.408128916379115, -0.116396855031486, 0.337135734771007, -1.10922899533784, -1.2310621627498, 1.3686815662904], a = 0.2, v = 0.2, t = 0.2)
movej(p[-0.405487301899721, -0.11617028771994, 0.336750073770651, -1.10378072229337, -1.24496956397995, 1.39307684129535], a = 0.2, v = 0.2, t = 0.2)
movej(p[-0.402724225992663, -0.115969312695343, 0.336757252132878, -1.09639754680535, -1.25351930797868, 1.41972343026833], a = 0.2, v = 0.2, t = 0.2)
movej(p[-0.400498289605244, -0.115678221731344, 0.336949240225729, -1.11123922995756, -1.26733133495198, 1.42592346661627], a = 0.2, v = 0.2, t = 0.2)
movej(p[-0.39900582371273, -0.115542741905055, 0.337333590427231, -1.14671423515261, -1.29334793637019, 1.40231677601926], a = 0.2, v = 0.2, t = 0.2)
movej(p[-0.398701935739642, -0.115551945032706, 0.337882951877276, -1.18760208002059, -1.32089986665857, 1.38060784904038], a = 0.2, v = 0.2, t = 0.2)
movej(p[-0.399668018462458, -0.115710417800845, 0.338262988738828, -1.20714213520826, -1.32169966756951, 1.35380681075508], a = 0.2, v = 0.2, t = 0.2)
movej(p[-0.401622740225475, -0.115854397688776, 0.338356864343023, -1.2171223710305, -1.29963470241767, 1.34681833381357], a = 0.2, v = 0.2, t = 0.2)
movej(p[-0.403984518476863, -0.115986890566732, 0.338162440349227, -1.21512986333714, -1.2959954057903, 1.31449652346013], a = 0.2, v = 0.2, t = 0.2)
movej(p[-0.405927254893403, -0.116080720364712, 0.338087709620883, -1.19966208510753, -1.27618754713351, 1.31729676459487], a = 0.2, v = 0.2, t = 0.2)
movej(p[-0.407478706935929, -0.116172391711284, 0.3378756866326, -1.17946201885025, -1.28369142094509, 1.29344513849418], a = 0.2, v = 0.2, t = 0.2)
movej(p[-0.408608244485944, -0.116297422521602, 0.338159896425669, -1.18411925509179, -1.26054925096362, 1.3147784168504], a = 0.2, v = 0.2, t = 0.2)
movej(p[-0.409523341089293, -0.116398851858163, 0.338143980574334, -1.19258511582687, -1.2551815763441, 1.3090133879941], a = 0.2, v = 0.2, t = 0.2)
movej(p[-0.410445545328799, -0.116472252291649, 0.338154172855843, -1.18963052628052, -1.24520305212743, 1.31920910281297], a = 0.2, v = 0.2, t = 0.2)
movej(p[-0.411181778710834, -0.116477928801712, 0.337630842051753, -1.1813339746299, -1.24049582251867, 1.32001721457297], a = 0.2, v = 0.2, t = 0.2)
movej(p[-0.411808295654354, -0.116512489197032, 0.33744374452783, -1.15652040210788, -1.23474719698281, 1.31677645044465], a = 0.2, v = 0.2, t = 0.2)
movej(p[-0.411888379720576, -0.116558562521898, 0.337428095528723, -1.16923761569044, -1.24295982183075, 1.32223016915274], a = 0.2, v = 0.2, t = 0.2)
movej(p[-0.411342806802626, -0.116526329530023, 0.33713893968781, -1.14343356270308, -1.24329666233349, 1.33198510292547], a = 0.2, v = 0.2, t = 0.2)
movej(p[-0.409772270556432, -0.116452939532823, 0.336637849146888, -1.13545352066488, -1.25455295631627, 1.34325076831802], a = 0.2, v = 0.2, t = 0.2)
movej(p[-0.407416365158302, -0.116255677793268, 0.336323796363474, -1.1221501744857, -1.25140883616262, 1.3673660265156], a = 0.2, v = 0.2, t = 0.2)
movej(p[-0.404817300244652, -0.116114872054829, 0.336669564477614, -1.14210665992707, -1.25560087122199, 1.37857146174563], a = 0.2, v = 0.2, t = 0.2)
movej(p[-0.402693788488654, -0.116075419762788, 0.337143924261934, -1.15551255555558, -1.2675765544721, 1.38358913403805], a = 0.2, v = 0.2, t = 0.2)
movej(p[-0.401684244154072, -0.116052999508492, 0.337695713994069, -1.18521078236685, -1.27268202260146, 1.37508376133896], a = 0.2, v = 0.2, t = 0.2)
movej(p[-0.402009373762293, -0.116072978220757, 0.337748637835423, -1.19180051689704, -1.27539804957569, 1.35829668839538], a = 0.2, v = 0.2, t = 0.2)
movej(p[-0.403596445912011, -0.116042115315264, 0.338058302787996, -1.20335961265024, -1.29424988964, 1.32702744165433], a = 0.2, v = 0.2, t = 0.2)
movej(p[-0.405662135003975, -0.11625611125282, 0.33782524877676, -1.19052875880885, -1.29659811759548, 1.2974578654285], a = 0.2, v = 0.2, t = 0.2)
movej(p[-0.407711690532817, -0.116431661404281, 0.337667361986256, -1.10965551784604, -1.29433327127663, 1.28657828103698], a = 0.2, v = 0.2, t = 0.2)
movej(p[-0.409260480925541, -0.116503478188838, 0.337497761274992, -1.09481954294934, -1.27113753543748, 1.29303183290257], a = 0.2, v = 0.2, t = 0.2)
movej(p[-0.410463723034379, -0.116509661867309, 0.33762128378524, -1.11976990897109, -1.2583545447946, 1.30084795332229], a = 0.2, v = 0.2, t = 0.2)
movej(p[-0.411251155035833, -0.116520540763373, 0.337730571411287, -1.17244117098245, -1.24633553730436, 1.30743015555847], a = 0.2, v = 0.2, t = 0.2)
movej(p[-0.411809744949762, -0.116527134249758, 0.337608780983116, -1.21094486013294, -1.23079712393203, 1.33261347154748], a = 0.2, v = 0.2, t = 0.2)
movej(p[-0.412260461683178, -0.116339732933453, 0.337569580405748, -1.20513716049564, -1.2173799101001, 1.3534972538467], a = 0.2, v = 0.2, t = 0.2)
movej(p[-0.412548847648316, -0.11633417196851, 0.337446364575676, -1.22787205170172, -1.2175226513906, 1.35348982586074], a = 0.2, v = 0.2, t = 0.2)
movej(p[-0.412144339946783, -0.116372978731775, 0.337355668299427, -1.22356303552087, -1.22989962560432, 1.35856792249216], a = 0.2, v = 0.2, t = 0.2)
movej(p[-0.410835065671845, -0.116447993578337, 0.336772400968453, -1.21342431955478, -1.24506166318727, 1.35174378338802], a = 0.2, v = 0.2, t = 0.2)
movej(p[-0.408344219189041, -0.116406849468831, 0.336177823932692, -1.18398220154975, -1.24773856291912, 1.36195951757926], a = 0.2, v = 0.2, t = 0.2)
movej(p[-0.40545769444195, -0.116153076049649, 0.335631738523397, -1.13625635123027, -1.26525842498951, 1.35128119322938], a = 0.2, v = 0.2, t = 0.2)
movej(p[-0.402270605021058, -0.115898056463537, 0.335884028787849, -1.09700739431821, -1.27462591044362, 1.37199276592366], a = 0.2, v = 0.2, t = 0.2)
movej(p[-0.399254317997336, -0.115595254939947, 0.336655855425977, -1.08247361095021, -1.30642125456158, 1.38337740949848], a = 0.2, v = 0.2, t = 0.2)
movej(p[-0.396926810007762, -0.115519113890905, 0.337462078863393, -1.11876799033494, -1.32645780010867, 1.38026222582161], a = 0.2, v = 0.2, t = 0.2)
movej(p[-0.396159677534407, -0.115498417181745, 0.338152649213867, -1.18047593695047, -1.34870994242216, 1.35741251924504], a = 0.2, v = 0.2, t = 0.2)
movej(p[-0.397122429865156, -0.11554655871377, 0.338542557642773, -1.21224023639636, -1.34767319393977, 1.33934021908577], a = 0.2, v = 0.2, t = 0.2)
movej(p[-0.399166478512461, -0.115563548927902, 0.338987868853389, -1.22922710452748, -1.3386164746758, 1.33091701239914], a = 0.2, v = 0.2, t = 0.2)
movej(p[-0.401598277085768, -0.115662039504002, 0.338988927722555, -1.21267410989654, -1.31587458473893, 1.33564803821226], a = 0.2, v = 0.2, t = 0.2)
movej(p[-0.403898872084873, -0.115804809292743, 0.33899554636415, -1.24234140925458, -1.2881941964337, 1.33737809448616], a = 0.2, v = 0.2, t = 0.2)
movej(p[-0.405890739727575, -0.11595841118566, 0.338770475485206, -1.22633171137807, -1.26824424542163, 1.33431721073666], a = 0.2, v = 0.2, t = 0.2)
movej(p[-0.407473029974945, -0.116064866273588, 0.338611147678994, -1.21189356110257, -1.26443264683319, 1.31377186189867], a = 0.2, v = 0.2, t = 0.2)
movej(p[-0.408770046192921, -0.115995736058958, 0.338406323822638, -1.16488746345181, -1.24738834597634, 1.32517081430778], a = 0.2, v = 0.2, t = 0.2)
movej(p[-0.409700233158753, -0.116199622346746, 0.338109933841113, -1.16265539185876, -1.23131781779646, 1.3303594862098], a = 0.2, v = 0.2, t = 0.2)
movej(p[-0.410438944247958, -0.11627805740699, 0.338143247083378, -1.15050483524193, -1.20714129071142, 1.34066557847291], a = 0.2, v = 0.2, t = 0.2)
movej(p[-0.41040311850408, -0.116489316787536, 0.337829279497302, -1.13157947889324, -1.21526348376126, 1.34227164110919], a = 0.2, v = 0.2, t = 0.2)
movej(p[-0.408969826394828, -0.116242728523081, 0.337408172123951, -1.10539963419841, -1.20044505338957, 1.36603305498776], a = 0.2, v = 0.2, t = 0.2)
movej(p[-0.406508125108664, -0.116094820213437, 0.336579970209417, -1.08871388245788, -1.18384403417601, 1.40359071856271], a = 0.2, v = 0.2, t = 0.2)
movej(p[-0.403385963057065, -0.115877942339379, 0.336240274487786, -1.09759537679565, -1.20635335637918, 1.40476046593545], a = 0.2, v = 0.2, t = 0.2)
movej(p[-0.400444434210497, -0.115770528993794, 0.336650284707425, -1.12506068510809, -1.2550467221518, 1.39698059201379], a = 0.2, v = 0.2, t = 0.2)
movej(p[-0.397841183162116, -0.115594284800214, 0.337398560684175, -1.13824040498207, -1.31216115527143, 1.3737400877357], a = 0.2, v = 0.2, t = 0.2)
movej(p[-0.396159043549287, -0.115341908424577, 0.33831805418082, -1.1457853231227, -1.31581847598941, 1.3867374445937], a = 0.2, v = 0.2, t = 0.2)
movej(p[-0.396092454628873, -0.115211817301797, 0.338974407354311, -1.14712391195057, -1.32438038460602, 1.36544379580292], a = 0.2, v = 0.2, t = 0.2)
movej(p[-0.397930282686924, -0.115194530643534, 0.339156704123857, -1.16536072045037, -1.3294128684052, 1.34731682850836], a = 0.2, v = 0.2, t = 0.2)
movej(p[-0.400787723969688, -0.115416281426855, 0.339276444426818, -1.18800080686333, -1.31850934581964, 1.31808377784229], a = 0.2, v = 0.2, t = 0.2)
movej(p[-0.403588281474536, -0.115636515669308, 0.339077585279193, -1.19979973284402, -1.30077159193368, 1.31257184360458], a = 0.2, v = 0.2, t = 0.2)
movej(p[-0.405644086407733, -0.115880502967975, 0.339187268701955, -1.20414898157815, -1.28416211883763, 1.32358639722509], a = 0.2, v = 0.2, t = 0.2)
movej(p[-0.407298951602884, -0.11598199303811, 0.339020948617648, -1.18356020901897, -1.28829562984672, 1.31024293813343], a = 0.2, v = 0.2, t = 0.2)
movej(p[-0.408642593291807, -0.11599757613775, 0.338746787531435, -1.15874174449838, -1.26197807132057, 1.33448262452946], a = 0.2, v = 0.2, t = 0.2)
movej(p[-0.409746624546678, -0.116051517583304, 0.338297445539607, -1.1051001983138, -1.25050448245312, 1.30716093336484], a = 0.2, v = 0.2, t = 0.2)
movej(p[-0.410625786977821, -0.116203503028054, 0.337999978408231, -1.12392566667888, -1.24085562444778, 1.30800846204162], a = 0.2, v = 0.2, t = 0.2)
movej(p[-0.41076642072316, -0.116382999509166, 0.337765058161039, -1.08060159810464, -1.23544907443971, 1.32329515943435], a = 0.2, v = 0.2, t = 0.2)
movej(p[-0.409676615609668, -0.116402112385282, 0.337553191849012, -1.08968237966576, -1.2374840045404, 1.3575840126784], a = 0.2, v = 0.2, t = 0.2)
movej(p[-0.407184042097349, -0.116248005606049, 0.336965525892553, -1.03369559359841, -1.25292089298268, 1.38713147629839], a = 0.2, v = 0.2, t = 0.2)
movej(p[-0.403937770286587, -0.116100895687933, 0.336634182751619, -1.07027164830565, -1.29714717174238, 1.37902941748506], a = 0.2, v = 0.2, t = 0.2)
movej(p[-0.400654763093471, -0.115948731448225, 0.336939325557047, -1.08525088841899, -1.30631439901001, 1.39784840529772], a = 0.2, v = 0.2, t = 0.2)
movej(p[-0.397607901639388, -0.115848724848913, 0.337745139591312, -1.11897804894022, -1.31230542067822, 1.41583046258828], a = 0.2, v = 0.2, t = 0.2)
movej(p[-0.395704767093964, -0.11565586662784, 0.338755589426078, -1.14901183783764, -1.34132387073806, 1.39126085622044], a = 0.2, v = 0.2, t = 0.2)
movej(p[-0.395456569501607, -0.115492780529395, 0.339334513293388, -1.18461736497777, -1.36710992108343, 1.3548954264243], a = 0.2, v = 0.2, t = 0.2)
movej(p[-0.39689590714153, -0.115488116697245, 0.339779859949118, -1.23682760369324, -1.37549038159491, 1.31440993652595], a = 0.2, v = 0.2, t = 0.2)
movej(p[-0.399542617643154, -0.11565520580363, 0.3399867037473, -1.247587110893, -1.34182447101395, 1.32054491839764], a = 0.2, v = 0.2, t = 0.2)
movej(p[-0.402206252767479, -0.115820143703696, 0.339792165624541, -1.23428160226549, -1.29280268524345, 1.33814784416403], a = 0.2, v = 0.2, t = 0.2)
movej(p[-0.404454551826728, -0.115899973826352, 0.339606500646429, -1.23172850594742, -1.26410538298749, 1.36502484664363], a = 0.2, v = 0.2, t = 0.2)
movej(p[-0.406133596764701, -0.115930547991909, 0.339354005371289, -1.20385819096449, -1.24400695533049, 1.36961169168021], a = 0.2, v = 0.2, t = 0.2)
movej(p[-0.407474701190123, -0.116065478668307, 0.339292837900511, -1.18026041897105, -1.24128094953115, 1.35773791882976], a = 0.2, v = 0.2, t = 0.2)
movej(p[-0.408607579373992, -0.116190674357367, 0.339347721445888, -1.17328924017478, -1.231468171912, 1.34050424268885], a = 0.2, v = 0.2, t = 0.2)
movej(p[-0.409435312127991, -0.116387944754109, 0.33921411105173, -1.16754844062582, -1.22226899411129, 1.3340038402949], a = 0.2, v = 0.2, t = 0.2)
movej(p[-0.40999807913415, -0.116390893834471, 0.338968068327382, -1.19347916462636, -1.22862099924331, 1.33013189691269], a = 0.2, v = 0.2, t = 0.2)
movej(p[-0.409661462931517, -0.116333242477305, 0.33822599845497, -1.12744634556675, -1.22519477776563, 1.34770343390405], a = 0.2, v = 0.2, t = 0.2)
movej(p[-0.408318918169985, -0.11615202563933, 0.337827747570457, -1.07770172588544, -1.21042669194716, 1.38098994073652], a = 0.2, v = 0.2, t = 0.2)
movej(p[-0.405994033312035, -0.115877984335691, 0.33734804622464, -1.05329323258983, -1.1921322974281, 1.41918288489169], a = 0.2, v = 0.2, t = 0.2)
movej(p[-0.40313390607411, -0.115902066655169, 0.337660380557956, -1.06632272681489, -1.21172968051509, 1.43196567928781], a = 0.2, v = 0.2, t = 0.2)
movej(p[-0.400143218520659, -0.115738641166907, 0.338127992762892, -1.10959776187254, -1.25743321081234, 1.414224593675], a = 0.2, v = 0.2, t = 0.2)
movej(p[-0.397302161694915, -0.115735679351265, 0.338780156520601, -1.1215357137082, -1.3074072051595, 1.41048395687315], a = 0.2, v = 0.2, t = 0.2)
movej(p[-0.395343459462463, -0.115507177964374, 0.339446445725734, -1.13712917485195, -1.34989858223978, 1.3708328179867], a = 0.2, v = 0.2, t = 0.2)
movej(p[-0.394671165434857, -0.115297014017344, 0.340050119168428, -1.1358126521456, -1.3649009024841, 1.36153011828905], a = 0.2, v = 0.2, t = 0.2)
movej(p[-0.395814915517723, -0.115210137804842, 0.340616296409252, -1.17619240876721, -1.379073058264, 1.31863679450309], a = 0.2, v = 0.2, t = 0.2)
movej(p[-0.398073468543666, -0.115357644636086, 0.340844649545919, -1.19585095530285, -1.36034399953783, 1.31726160156232], a = 0.2, v = 0.2, t = 0.2)
movej(p[-0.400751819079634, -0.115609963021546, 0.340805623639908, -1.20736529973963, -1.32343704911182, 1.31750272963228], a = 0.2, v = 0.2, t = 0.2)
movej(p[-0.403246241446232, -0.115797577570424, 0.340729504960426, -1.18244962739268, -1.29942847243936, 1.31439799927169], a = 0.2, v = 0.2, t = 0.2)
movej(p[-0.405182817668979, -0.115890328824487, 0.340352781859304, -1.18141816395584, -1.28711758165463, 1.31472143867823], a = 0.2, v = 0.2, t = 0.2)
movej(p[-0.406709900298891, -0.11600236317594, 0.339961658553148, -1.17899186547404, -1.2929041181179, 1.3049137369453], a = 0.2, v = 0.2, t = 0.2)
movej(p[-0.407828622355557, -0.116202954260547, 0.339722924561425, -1.17461843393569, -1.27648828433455, 1.31016940298762], a = 0.2, v = 0.2, t = 0.2)
movej(p[-0.408705252209414, -0.116252463198289, 0.339657540535775, -1.17465824790463, -1.24563572828516, 1.33028887882466], a = 0.2, v = 0.2, t = 0.2)
movej(p[-0.40948876161771, -0.116277639350945, 0.339422894883675, -1.15512230764883, -1.22766972605719, 1.35051458955489], a = 0.2, v = 0.2, t = 0.2)
movej(p[-0.409398725703541, -0.116234835838356, 0.338966417277357, -1.12999182864816, -1.21057662660191, 1.36579065072435], a = 0.2, v = 0.2, t = 0.2)
movej(p[-0.408250737341825, -0.11621450265014, 0.338377556864932, -1.08217764658133, -1.22065955459993, 1.37422975680596], a = 0.2, v = 0.2, t = 0.2)
movej(p[-0.405609497804944, -0.116158979009701, 0.338287953191613, -1.0683530370717, -1.23343982728946, 1.37984810223578], a = 0.2, v = 0.2, t = 0.2)
movej(p[-0.402547588514637, -0.116014455566662, 0.338351724984944, -1.08038963493217, -1.2574892687253, 1.3926071257735], a = 0.2, v = 0.2, t = 0.2)
movej(p[-0.399627018455691, -0.115685557494561, 0.33885098401433, -1.09871265983273, -1.28631329037442, 1.39826629587472], a = 0.2, v = 0.2, t = 0.2)
movej(p[-0.397019474439442, -0.115480134883646, 0.339491048301087, -1.11563537980126, -1.31257314795067, 1.40295527716759], a = 0.2, v = 0.2, t = 0.2)
movej(p[-0.395412028862836, -0.115338223447388, 0.340282514279516, -1.12047913474725, -1.33647208642634, 1.38786615547308], a = 0.2, v = 0.2, t = 0.2)
movej(p[-0.395232980403491, -0.11534064207957, 0.340894896367697, -1.14914838481454, -1.33294067115587, 1.37504582158246], a = 0.2, v = 0.2, t = 0.2)
movej(p[-0.396811076831064, -0.115400649393383, 0.341011094698457, -1.1851094850596, -1.3297762303518, 1.3378828313052], a = 0.2, v = 0.2, t = 0.2)
movej(p[-0.399343913354362, -0.115533934212408, 0.340783210701069, -1.19661977831326, -1.31896368554897, 1.32322944338201], a = 0.2, v = 0.2, t = 0.2)
movej(p[-0.401887644980887, -0.115726992856189, 0.34060221231661, -1.20300667381966, -1.31006239102388, 1.31542132343715], a = 0.2, v = 0.2, t = 0.2)
movej(p[-0.404022328216361, -0.115943050295944, 0.340590573578944, -1.1936208765839, -1.30329241413669, 1.31287456308029], a = 0.2, v = 0.2, t = 0.2)
movej(p[-0.405743932652942, -0.116049448325085, 0.340618808922707, -1.1907865685495, -1.27714087445369, 1.32512493750341], a = 0.2, v = 0.2, t = 0.2)
movej(p[-0.407042079523264, -0.116252966294594, 0.340573422196, -1.17604691858137, -1.27903360533458, 1.30934001639347], a = 0.2, v = 0.2, t = 0.2)
movej(p[-0.408267376060325, -0.116265669136363, 0.340365355737151, -1.1550360171914, -1.2652464592184, 1.31493580038245], a = 0.2, v = 0.2, t = 0.2)
movej(p[-0.409148577118331, -0.116358189610257, 0.340327038649847, -1.12808265907125, -1.24641050488395, 1.31990002118288], a = 0.2, v = 0.2, t = 0.2)
movej(p[-0.40909920132657, -0.116302122301442, 0.340014790353502, -1.12082608471835, -1.24637981769009, 1.33607620683099], a = 0.2, v = 0.2, t = 0.2)
movej(p[-0.408011319328022, -0.116248880104952, 0.33957613351787, -1.10880798799965, -1.24399146117612, 1.36604145724475], a = 0.2, v = 0.2, t = 0.2)
movej(p[-0.405595958714522, -0.116042675753806, 0.339185491743319, -1.12395375141014, -1.2535124173749, 1.38489467188039], a = 0.2, v = 0.2, t = 0.2)
movej(p[-0.402880488074248, -0.11589533194905, 0.339116288616893, -1.12383514581735, -1.24837365563121, 1.41703165777572], a = 0.2, v = 0.2, t = 0.2)
movej(p[-0.399909066899237, -0.115777093200569, 0.339653972257134, -1.10711858687148, -1.25833376520907, 1.42052599759178], a = 0.2, v = 0.2, t = 0.2)
movej(p[-0.397299536723047, -0.115683869437392, 0.34044181842678, -1.10310460246075, -1.29988519900047, 1.41946867853437], a = 0.2, v = 0.2, t = 0.2)
movej(p[-0.395232094641901, -0.115519727302838, 0.341108662919649, -1.11558112861065, -1.32808958298306, 1.40213166134412], a = 0.2, v = 0.2, t = 0.2)
movej(p[-0.394411671821986, -0.115296873363262, 0.341455920055181, -1.17092645031589, -1.34669351579652, 1.38920812551415], a = 0.2, v = 0.2, t = 0.2)
movej(p[-0.395340784027549, -0.115276527916413, 0.34163053223307, -1.19851896497826, -1.34368955043551, 1.35899229172909], a = 0.2, v = 0.2, t = 0.2)
movej(p[-0.397440264532209, -0.115268258369473, 0.341664983763223, -1.22322822223404, -1.33203515885635, 1.34479746526693], a = 0.2, v = 0.2, t = 0.2)
movej(p[-0.400141238000604, -0.115477606371926, 0.341438140873058, -1.20325792064048, -1.31488912298318, 1.31978762010941], a = 0.2, v = 0.2, t = 0.2)
movej(p[-0.402692861867877, -0.115686457069546, 0.341291618824998, -1.18937880031917, -1.29498793945861, 1.31661789926605], a = 0.2, v = 0.2, t = 0.2)
movej(p[-0.40468764624666, -0.115899534228272, 0.340968471585969, -1.17351531962307, -1.29764406632853, 1.3047200800522], a = 0.2, v = 0.2, t = 0.2)
movej(p[-0.406053547411414, -0.115986032133903, 0.340889929696224, -1.15874877687719, -1.27706173824859, 1.31550449470109], a = 0.2, v = 0.2, t = 0.2)
movej(p[-0.407194902150317, -0.116023392213532, 0.340584231287767, -1.1399833411786, -1.26954673855786, 1.31550295578754], a = 0.2, v = 0.2, t = 0.2)
movej(p[-0.408177166451808, -0.116095517788866, 0.340498312983409, -1.103845041352, -1.25246153998523, 1.30750266944223], a = 0.2, v = 0.2, t = 0.2)
movej(p[-0.408741843975538, -0.116091305685213, 0.340194325598469, -1.07077778898713, -1.26444822525133, 1.3056342857886], a = 0.2, v = 0.2, t = 0.2)
movej(p[-0.408301622697423, -0.116132529053965, 0.339936187777597, -1.06189107265279, -1.25841677893312, 1.31361775013546], a = 0.2, v = 0.2, t = 0.2)
movej(p[-0.407018877936395, -0.116047528225136, 0.339542211425069, -1.04882727567423, -1.25950836140064, 1.34226390975096], a = 0.2, v = 0.2, t = 0.2)
movej(p[-0.405224031216798, -0.115953132945259, 0.33914404761256, -1.08103863376219, -1.25277857660758, 1.3704721126154], a = 0.2, v = 0.2, t = 0.2)
movej(p[-0.403127606721799, -0.115822789979239, 0.339145849299368, -1.10941699217339, -1.26616795373874, 1.39697585638881], a = 0.2, v = 0.2, t = 0.2)
movej(p[-0.400802690515064, -0.115740116166277, 0.339320630112995, -1.14957563330972, -1.25232495021597, 1.42900504267187], a = 0.2, v = 0.2, t = 0.2)
movej(p[-0.398373714745999, -0.115708282465277, 0.339797523744296, -1.1569705222604, -1.27014580135351, 1.43709325034674], a = 0.2, v = 0.2, t = 0.2)
movej(p[-0.396073080795208, -0.115495561679161, 0.340332251996891, -1.1504769106258, -1.29263459770063, 1.42566167020557], a = 0.2, v = 0.2, t = 0.2)
movej(p[-0.394684479214651, -0.115309276895151, 0.341186167586232, -1.17535073324931, -1.33986268859448, 1.39123004672939], a = 0.2, v = 0.2, t = 0.2)
movej(p[-0.394457182186313, -0.115113165467068, 0.34172865501538, -1.17222534622329, -1.35527042116976, 1.37149523560428], a = 0.2, v = 0.2, t = 0.2)
movej(p[-0.395751378177563, -0.115139600836254, 0.341982856224223, -1.18528728536128, -1.36739871846385, 1.34687266627343], a = 0.2, v = 0.2, t = 0.2)
movej(p[-0.398066324967981, -0.115294208504179, 0.341878473714961, -1.17851567163053, -1.34748115835446, 1.33523709125671], a = 0.2, v = 0.2, t = 0.2)
movej(p[-0.400547173961432, -0.115555649205525, 0.341816322356384, -1.17360069576057, -1.32684172284912, 1.32405486936723], a = 0.2, v = 0.2, t = 0.2)
movej(p[-0.40299875400221, -0.115739056979026, 0.341534871734284, -1.17380136409444, -1.30512242405749, 1.3143093108283], a = 0.2, v = 0.2, t = 0.2)
movej(p[-0.404815476283051, -0.115846719185511, 0.341491427994912, -1.18401541092689, -1.28596066786443, 1.32127866419169], a = 0.2, v = 0.2, t = 0.2)
