def moving():
set_payload_mass(0.606)
set_tcp(p[0.0005,0.0025,0.058,0,0,0])
movej(p[0.5385, 0.0103, 0.1725, -1.192, 1.165, -1.191], a = 0.2, v = 0.2, t = 0.2)
movej(p[0.538600008524446, 0.0102022400390445, 0.172602182606505, -1.19027157173908, 1.16326839996086, -1.18922581949945], a = 0.2, v = 0.2, t = 0.2)
movej(p[0.5385, 0.0103, 0.1725, -1.192, 1.165, -1.191], a = 0.2, v = 0.2, t = 0.2)
movej(p[0.538600008524446, 0.0102022400390445, 0.172602182606505, -1.19027157173908, 1.16326839996086, -1.18922581949945], a = 0.2, v = 0.2, t = 0.2)
movej(p[0.5385, 0.0103, 0.1725, -1.192, 1.165, -1.191], a = 0.2, v = 0.2, t = 0.2)
movej(p[0.538600008524446, 0.0102022400390445, 0.172602182606505, -1.19027157173908, 1.16326839996086, -1.18922581949945], a = 0.2, v = 0.2, t = 0.2)
movej(p[0.5385, 0.0103, 0.1725, -1.192, 1.165, -1.191], a = 0.2, v = 0.2, t = 0.2)
movej(p[0.53819903007928, 0.0109930009664006, 0.172914290714824, -1.19746841753306, 1.14594867266181, -1.19299497270192], a = 0.2, v = 0.2, t = 0.2)
movej(p[0.537755660546896, 0.0117229780830303, 0.173484272917573, -1.19598952375623, 1.13909109929773, -1.19493362317387], a = 0.2, v = 0.2, t = 0.2)
movej(p[0.537449679780983, 0.0122603576240915, 0.173871421858215, -1.19852251662368, 1.12964356269757, -1.19802804850571], a = 0.2, v = 0.2, t = 0.2)
movej(p[0.537265191119585, 0.0126262091235164, 0.174088837207683, -1.19908827798356, 1.12122998324861, -1.19828780961314], a = 0.2, v = 0.2, t = 0.2)
movej(p[0.537221813706289, 0.013046254563088, 0.174199342676827, -1.20429583539528, 1.11088835499399, -1.19580725219236], a = 0.2, v = 0.2, t = 0.2)
movej(p[0.537191748197315, 0.0132601787748205, 0.174224396155723, -1.209136493582, 1.10788489988965, -1.19273537491351], a = 0.2, v = 0.2, t = 0.2)
movej(p[0.537282587813678, 0.0133496280951114, 0.174192197193031, -1.21172787858067, 1.11028755475872, -1.19060281760208], a = 0.2, v = 0.2, t = 0.2)
movej(p[0.537633518271385, 0.0132502374730564, 0.173871932700773, -1.21321655683989, 1.1082856993358, -1.18810533914838], a = 0.2, v = 0.2, t = 0.2)
movej(p[0.538533074412795, 0.013345207697157, 0.173227341618082, -1.22096841374245, 1.11241797351822, -1.17482123935865], a = 0.2, v = 0.2, t = 0.2)
movej(p[0.539915942358833, 0.0131040129692779, 0.172198186328699, -1.22792805696359, 1.13623111041473, -1.15111391877559], a = 0.2, v = 0.2, t = 0.2)
movej(p[0.541018046042133, 0.0121801754775014, 0.171108078294766, -1.22952331045142, 1.16970754635221, -1.13702829973184], a = 0.2, v = 0.2, t = 0.2)
movej(p[0.541802676310623, 0.011161434440193, 0.170043026196945, -1.22202216932032, 1.19867291953994, -1.12515092406595], a = 0.2, v = 0.2, t = 0.2)
movej(p[0.54227774517346, 0.0101430908189186, 0.168974789905354, -1.21398333585287, 1.21644643166831, -1.11903357709253], a = 0.2, v = 0.2, t = 0.2)
movej(p[0.542545405147618, 0.00931007752463832, 0.168187722233622, -1.2026478888553, 1.23013557852296, -1.11316640397283], a = 0.2, v = 0.2, t = 0.2)
movej(p[0.542524858721238, 0.00867424889608306, 0.167937544977516, -1.19167592620119, 1.2406453574491, -1.11114217458418], a = 0.2, v = 0.2, t = 0.2)
movej(p[0.542178548502417, 0.00860202372070017, 0.168415446700029, -1.18796713111395, 1.22972385166136, -1.12276268421089], a = 0.2, v = 0.2, t = 0.2)
movej(p[0.541423913260625, 0.00916408138139716, 0.169551811253285, -1.18844025763804, 1.20970367054437, -1.14140938901609], a = 0.2, v = 0.2, t = 0.2)
movej(p[0.54030370203218, 0.0099460501782745, 0.170913079240412, -1.19429204989157, 1.17891155908203, -1.16421533071242], a = 0.2, v = 0.2, t = 0.2)
movej(p[0.538941251390787, 0.0107339220470566, 0.17230677045928, -1.19505418093078, 1.15143134860804, -1.18638645193708], a = 0.2, v = 0.2, t = 0.2)
movej(p[0.537946253800505, 0.0114520880586929, 0.173196306606361, -1.19709030335781, 1.12792541107138, -1.19603154263319], a = 0.2, v = 0.2, t = 0.2)
movej(p[0.537604821972369, 0.0123149091223962, 0.173704244782979, -1.20284816031898, 1.11006735162933, -1.1935246470836], a = 0.2, v = 0.2, t = 0.2)
movej(p[0.537514380228211, 0.0128369684017462, 0.173933818493708, -1.20583638859353, 1.11634678001212, -1.1883149818187], a = 0.2, v = 0.2, t = 0.2)
movej(p[0.537410000683919, 0.012789343820131, 0.173978190692881, -1.20852447644667, 1.11592581341874, -1.18850040285884], a = 0.2, v = 0.2, t = 0.2)
movej(p[0.537193880837933, 0.0128170009484211, 0.174095623464395, -1.20697169623574, 1.11307762856431, -1.19601156912013], a = 0.2, v = 0.2, t = 0.2)
movej(p[0.537067767514563, 0.0129624816509603, 0.174164368972301, -1.20738453595072, 1.09990351215785, -1.20191199258197], a = 0.2, v = 0.2, t = 0.2)
movej(p[0.537213925016593, 0.0135722780592474, 0.174284317732363, -1.21092540395167, 1.08846599872273, -1.19738862506898], a = 0.2, v = 0.2, t = 0.2)
movej(p[0.537548062135871, 0.0138813654551459, 0.1742065825015, -1.21667613590672, 1.0939075021978, -1.18881165591924], a = 0.2, v = 0.2, t = 0.2)
movej(p[0.537987021070964, 0.0135900093477253, 0.17391969808859, -1.219050574527, 1.10614679028964, -1.18144216747018], a = 0.2, v = 0.2, t = 0.2)
movej(p[0.538681446344451, 0.0132136327175663, 0.173281184217783, -1.21793205403321, 1.12914675548241, -1.17008629946199], a = 0.2, v = 0.2, t = 0.2)
movej(p[0.53972278700802, 0.0127990868127159, 0.172356438432623, -1.22030518609822, 1.14161414554104, -1.15549593608466], a = 0.2, v = 0.2, t = 0.2)
movej(p[0.540819028206207, 0.012380368008508, 0.171410422257022, -1.22395763286783, 1.16337629219264, -1.14115475050529], a = 0.2, v = 0.2, t = 0.2)
movej(p[0.541720785760571, 0.0115921510519628, 0.170361814230845, -1.22387152764432, 1.18947030655779, -1.12610178192879], a = 0.2, v = 0.2, t = 0.2)
movej(p[0.542277077050382, 0.0105877525766579, 0.169251822710118, -1.21666345517007, 1.21690251249754, -1.11271938113861], a = 0.2, v = 0.2, t = 0.2)
movej(p[0.542583285903232, 0.00969168329478848, 0.168299555030878, -1.20860288045015, 1.23019644492936, -1.10513395608694], a = 0.2, v = 0.2, t = 0.2)
movej(p[0.542678300663707, 0.00882735328169407, 0.167569399900953, -1.19683877846168, 1.24281425087999, -1.10211280947009], a = 0.2, v = 0.2, t = 0.2)
movej(p[0.542539365060065, 0.00816264590538068, 0.167299520090824, -1.18271661217508, 1.2538001147355, -1.10483624030933], a = 0.2, v = 0.2, t = 0.2)
movej(p[0.542329934259334, 0.00788941606457757, 0.16731140006558, -1.17357952422205, 1.25569832749552, -1.10620512676033], a = 0.2, v = 0.2, t = 0.2)
movej(p[0.542287147188352, 0.00804284372982629, 0.16747227044226, -1.17212863621409, 1.25050683108641, -1.10465208319842], a = 0.2, v = 0.2, t = 0.2)
movej(p[0.542266767909881, 0.0084548196419164, 0.167927757459492, -1.18275207782627, 1.24395660935708, -1.10790441451672], a = 0.2, v = 0.2, t = 0.2)
movej(p[0.541806205805913, 0.00877403093428671, 0.168779822433078, -1.18410963735713, 1.23579458601914, -1.12243265733049], a = 0.2, v = 0.2, t = 0.2)
movej(p[0.54080979315008, 0.00938508315800649, 0.170077657803679, -1.18700850475499, 1.20867816600587, -1.14533105292719], a = 0.2, v = 0.2, t = 0.2)
movej(p[0.539536554971218, 0.0103416680916026, 0.171549002022019, -1.18957255023278, 1.17461956419734, -1.16767641025319], a = 0.2, v = 0.2, t = 0.2)
movej(p[0.538448304200219, 0.0112207596622443, 0.172673820671581, -1.19303189063867, 1.15104427857357, -1.17950353591395], a = 0.2, v = 0.2, t = 0.2)
movej(p[0.537822482093623, 0.0117692606064172, 0.173336751268579, -1.19814997967856, 1.13675275591521, -1.18753050317158], a = 0.2, v = 0.2, t = 0.2)
movej(p[0.537419872800496, 0.0120866485979557, 0.173743309688016, -1.19847884220024, 1.12850675772942, -1.19191515284433], a = 0.2, v = 0.2, t = 0.2)
movej(p[0.537308100588264, 0.012683494577878, 0.174037937264498, -1.20719086364279, 1.11029313724752, -1.19166600494084], a = 0.2, v = 0.2, t = 0.2)
movej(p[0.537174117024385, 0.0129731508174155, 0.174164634768448, -1.20957046168379, 1.11282298497114, -1.19096013516301], a = 0.2, v = 0.2, t = 0.2)
movej(p[0.537119493831138, 0.0130483203779744, 0.174244896552161, -1.20967824799643, 1.11579985437955, -1.19296310573083], a = 0.2, v = 0.2, t = 0.2)
movej(p[0.537083507418077, 0.0130730618821597, 0.174230096347916, -1.20736553768771, 1.11483936599321, -1.19571766547644], a = 0.2, v = 0.2, t = 0.2)
movej(p[0.537455826061743, 0.0133090869752997, 0.174056669236462, -1.21016409618087, 1.10452345258145, -1.19184727324189], a = 0.2, v = 0.2, t = 0.2)
movej(p[0.538351233364215, 0.0135145544013289, 0.173504420302102, -1.22246443048917, 1.10342920728495, -1.17435796543205], a = 0.2, v = 0.2, t = 0.2)
movej(p[0.539465193940903, 0.0130766209641995, 0.172675819895664, -1.2289293005947, 1.13276395043967, -1.16083249949104], a = 0.2, v = 0.2, t = 0.2)
movej(p[0.540427027897494, 0.0123052506020959, 0.171773447814969, -1.23238659539537, 1.16086635952758, -1.14768879031402], a = 0.2, v = 0.2, t = 0.2)
movej(p[0.5411599791344, 0.0114140734405624, 0.170677881553359, -1.22432117323559, 1.18827640371914, -1.13603958223755], a = 0.2, v = 0.2, t = 0.2)
movej(p[0.541893369109844, 0.0105350442292328, 0.16944994643839, -1.21579529228369, 1.20491543826967, -1.12152061033349], a = 0.2, v = 0.2, t = 0.2)
movej(p[0.542569847463303, 0.00980601957990295, 0.168306322027145, -1.20807820437775, 1.22029553660356, -1.10770943420377], a = 0.2, v = 0.2, t = 0.2)
movej(p[0.542852009731749, 0.00898490629058827, 0.167688989612334, -1.19705214263947, 1.23947735459397, -1.10576162768694], a = 0.2, v = 0.2, t = 0.2)
movej(p[0.542673402966096, 0.00838365987444184, 0.167661826211703, -1.18801965601125, 1.24530107929552, -1.10729169709096], a = 0.2, v = 0.2, t = 0.2)
movej(p[0.542298073958344, 0.00829821199696514, 0.168078362063912, -1.18754023357388, 1.2386447053158, -1.11314001605664], a = 0.2, v = 0.2, t = 0.2)
movej(p[0.541933978714396, 0.00868848297903424, 0.168806230598669, -1.19280860123297, 1.22119792880358, -1.12323169510816], a = 0.2, v = 0.2, t = 0.2)
movej(p[0.541398801666601, 0.00961314653689917, 0.169872413424768, -1.19955959288468, 1.19746638035735, -1.13710204330336], a = 0.2, v = 0.2, t = 0.2)
movej(p[0.540392423357051, 0.0103346044465786, 0.171092729788966, -1.19709478610332, 1.18979872844444, -1.15618011235262], a = 0.2, v = 0.2, t = 0.2)
movej(p[0.539204083349323, 0.0107956626992082, 0.172225184435084, -1.19356963007383, 1.17190374792518, -1.17363491404816], a = 0.2, v = 0.2, t = 0.2)
movej(p[0.538220557907132, 0.0112954536222597, 0.173007122497592, -1.19522045326427, 1.15006527090787, -1.18273845448883], a = 0.2, v = 0.2, t = 0.2)
movej(p[0.537849099743904, 0.0119252833391284, 0.173506435571244, -1.19898961354891, 1.13076063815804, -1.18419284010994], a = 0.2, v = 0.2, t = 0.2)
movej(p[0.537621898132472, 0.0123957617053896, 0.173828486904175, -1.19732012514058, 1.12876740759181, -1.18293065447323], a = 0.2, v = 0.2, t = 0.2)
movej(p[0.537488034953693, 0.0126476368381639, 0.174014259833466, -1.19613518674096, 1.13446749941986, -1.18480256469393], a = 0.2, v = 0.2, t = 0.2)
movej(p[0.537407250850781, 0.0129256179309502, 0.17410525887945, -1.19963234430747, 1.12540586799871, -1.18438527228338], a = 0.2, v = 0.2, t = 0.2)
movej(p[0.537426089933501, 0.0132466057501838, 0.17421010732849, -1.20654133431088, 1.12058512220739, -1.18524608146321], a = 0.2, v = 0.2, t = 0.2)
movej(p[0.537507675974556, 0.0133299229488003, 0.174223453890581, -1.21170331382239, 1.11291519939052, -1.18640298837384], a = 0.2, v = 0.2, t = 0.2)
movej(p[0.5375877258265, 0.0132592124618348, 0.174144993159404, -1.21103307519772, 1.1153367027031, -1.19038110873523], a = 0.2, v = 0.2, t = 0.2)
movej(p[0.537968392936863, 0.0132817650966741, 0.173803406538106, -1.21351946055792, 1.10893734134982, -1.18526498328927], a = 0.2, v = 0.2, t = 0.2)
movej(p[0.538833741852928, 0.0133627417763044, 0.173141415290264, -1.21399188302421, 1.1172324309986, -1.16793368588868], a = 0.2, v = 0.2, t = 0.2)
movej(p[0.540058380436973, 0.0129457450786825, 0.172186811742899, -1.22156572976653, 1.14280254929038, -1.1505267029726], a = 0.2, v = 0.2, t = 0.2)
movej(p[0.541037007286335, 0.0120104724876483, 0.17118366411654, -1.21929897427079, 1.17556452003182, -1.13802461817891], a = 0.2, v = 0.2, t = 0.2)
movej(p[0.541772639456015, 0.0110238704339334, 0.170081356493671, -1.21616782696917, 1.20424651423218, -1.12716242567459], a = 0.2, v = 0.2, t = 0.2)
movej(p[0.542352717903149, 0.0100775414683775, 0.168934548085731, -1.21148513785314, 1.21978667607791, -1.11509530529389], a = 0.2, v = 0.2, t = 0.2)
movej(p[0.542748326113894, 0.00921160967820307, 0.167945899871827, -1.20471861397814, 1.23582764220073, -1.10477331120571], a = 0.2, v = 0.2, t = 0.2)
movej(p[0.542861162889367, 0.00834827904727875, 0.167404968199794, -1.19819463786249, 1.24098756089655, -1.10470842515945], a = 0.2, v = 0.2, t = 0.2)
movej(p[0.542698087373293, 0.00795871704156746, 0.16743056331189, -1.19010454283459, 1.24160304676847, -1.10550939551524], a = 0.2, v = 0.2, t = 0.2)
movej(p[0.542389886667139, 0.00810755173758544, 0.167979901147823, -1.18879772923216, 1.23302455953837, -1.11691943615175], a = 0.2, v = 0.2, t = 0.2)
movej(p[0.541760396835939, 0.008596474857198, 0.169026766734002, -1.19028960648828, 1.21752192070999, -1.13600089394699], a = 0.2, v = 0.2, t = 0.2)
movej(p[0.540714534779464, 0.00934379887783336, 0.170424201121372, -1.18948989741431, 1.19234650276095, -1.1591939642832], a = 0.2, v = 0.2, t = 0.2)
movej(p[0.539653537508956, 0.0102609505010623, 0.171694736125157, -1.19100297533802, 1.16210306907456, -1.17462652610765], a = 0.2, v = 0.2, t = 0.2)
movej(p[0.538903159169928, 0.0113275282825066, 0.172646735061768, -1.19824398633337, 1.13741675364109, -1.17763658643217], a = 0.2, v = 0.2, t = 0.2)
movej(p[0.538421778591215, 0.0119848320479394, 0.173204700783812, -1.20167048681645, 1.13881800199686, -1.17922473854457], a = 0.2, v = 0.2, t = 0.2)
movej(p[0.538036710582351, 0.0120203071321609, 0.173444202271037, -1.19986626181792, 1.13557012404549, -1.18346903959331], a = 0.2, v = 0.2, t = 0.2)
movej(p[0.537659310851635, 0.01209403766888, 0.173659905171366, -1.19979069598514, 1.12961051585903, -1.19103138837453], a = 0.2, v = 0.2, t = 0.2)
movej(p[0.537419247151322, 0.0123008579716535, 0.173824680388413, -1.19957819029134, 1.11443040454783, -1.19741224374886], a = 0.2, v = 0.2, t = 0.2)
movej(p[0.537472050749007, 0.0129035466347382, 0.173961249720112, -1.20465505745595, 1.10515878548864, -1.19439857553883], a = 0.2, v = 0.2, t = 0.2)
movej(p[0.537651219815109, 0.0134768157518057, 0.174058030697938, -1.20699796448955, 1.10890834486695, -1.18469849240887], a = 0.2, v = 0.2, t = 0.2)
movej(p[0.537725862050109, 0.0133439081070052, 0.17398582754906, -1.20734723029616, 1.11505532575689, -1.1821727812888], a = 0.2, v = 0.2, t = 0.2)
movej(p[0.537834885186611, 0.013209799947765, 0.173867523154245, -1.20694598531155, 1.12006018119655, -1.18284664238341], a = 0.2, v = 0.2, t = 0.2)
movej(p[0.538174481986326, 0.0131169091197696, 0.173521666067868, -1.21059233370302, 1.11457080012572, -1.18101280904011], a = 0.2, v = 0.2, t = 0.2)
movej(p[0.538942955965982, 0.0131261866456999, 0.173030829320563, -1.21384392965794, 1.12930886957379, -1.17037828144966], a = 0.2, v = 0.2, t = 0.2)
movej(p[0.539796495111732, 0.0128958300183055, 0.172343962466953, -1.21577949343706, 1.14832667711368, -1.15675554181171], a = 0.2, v = 0.2, t = 0.2)
movej(p[0.540711251791781, 0.0122363363786603, 0.171323010449485, -1.21423585959228, 1.1731343661363, -1.14399707295945], a = 0.2, v = 0.2, t = 0.2)
movej(p[0.541449840266672, 0.0113154561533089, 0.17020310010137, -1.2135360544053, 1.19023323303162, -1.13589044620307], a = 0.2, v = 0.2, t = 0.2)
movej(p[0.542127200268285, 0.0104271581466243, 0.168935964165426, -1.21233178326049, 1.20776681504401, -1.12160346910078], a = 0.2, v = 0.2, t = 0.2)
movej(p[0.54266462357856, 0.00947741312911083, 0.167855237690824, -1.20804777686179, 1.22717504837319, -1.10989844910221], a = 0.2, v = 0.2, t = 0.2)
movej(p[0.543098224357002, 0.0087027216896916, 0.166927314806838, -1.19914226264007, 1.2432557490614, -1.09651100883566], a = 0.2, v = 0.2, t = 0.2)
movej(p[0.543127919820873, 0.00784535288957871, 0.166518476733735, -1.18758982518079, 1.25670836965737, -1.09722341611411], a = 0.2, v = 0.2, t = 0.2)
movej(p[0.54286604599916, 0.00735828926302052, 0.166636444887003, -1.1757811385963, 1.26541439760057, -1.09934569904987], a = 0.2, v = 0.2, t = 0.2)
movej(p[0.542487848675653, 0.00733668984744287, 0.167115111461707, -1.1724243177922, 1.26250259332821, -1.10610490885901], a = 0.2, v = 0.2, t = 0.2)
movej(p[0.542215529008891, 0.00795023257239423, 0.167944745817163, -1.17836835856802, 1.2410317973265, -1.1126256267534], a = 0.2, v = 0.2, t = 0.2)
movej(p[0.541670636850466, 0.00886364035322247, 0.169081911658899, -1.18938356486802, 1.21990306697024, -1.12680043058458], a = 0.2, v = 0.2, t = 0.2)
movej(p[0.540447925686916, 0.00955898652294741, 0.170482830646877, -1.18899017669313, 1.20618620205771, -1.15152235267884], a = 0.2, v = 0.2, t = 0.2)
movej(p[0.539095213566113, 0.0101330947696917, 0.171759246931893, -1.18579073147601, 1.18733663784921, -1.17134364580001], a = 0.2, v = 0.2, t = 0.2)
movej(p[0.538037062209011, 0.0106868313717082, 0.172633127795884, -1.18461910082176, 1.16129493510571, -1.18793256294411], a = 0.2, v = 0.2, t = 0.2)
movej(p[0.537605948887352, 0.0114148245262735, 0.17320624480217, -1.18974290505928, 1.13107100077945, -1.19452402745744], a = 0.2, v = 0.2, t = 0.2)
movej(p[0.53747118016955, 0.0123160914051801, 0.173598051557457, -1.20094939490312, 1.11515969924967, -1.19268360140499], a = 0.2, v = 0.2, t = 0.2)
movej(p[0.537379394496347, 0.0125917276900349, 0.173757399050584, -1.19936366879217, 1.12499474524106, -1.19000188947753], a = 0.2, v = 0.2, t = 0.2)
movej(p[0.537279237060328, 0.0125854724900293, 0.173837844143554, -1.19929968242787, 1.12420934989033, -1.19049854544994], a = 0.2, v = 0.2, t = 0.2)
movej(p[0.537267569950347, 0.0126499934713263, 0.173812735947339, -1.20185430536085, 1.11826648491707, -1.19116927913663], a = 0.2, v = 0.2, t = 0.2)
movej(p[0.537805717605229, 0.0128232906786202, 0.173567901473685, -1.21303550048153, 1.11296231942371, -1.18613531403798], a = 0.2, v = 0.2, t = 0.2)
movej(p[0.538569024666698, 0.0128264505953831, 0.173107076474322, -1.21937569031131, 1.12622512228768, -1.17313859103246], a = 0.2, v = 0.2, t = 0.2)
movej(p[0.539549648791156, 0.0124699486169728, 0.172227206658031, -1.21550539038746, 1.15502981387346, -1.15749751840634], a = 0.2, v = 0.2, t = 0.2)
movej(p[0.540561087715086, 0.0118280499276516, 0.171031704709766, -1.21521907859978, 1.1759820683081, -1.13991438536148], a = 0.2, v = 0.2, t = 0.2)
movej(p[0.541528195473954, 0.0110788148091017, 0.16976000867141, -1.21257114073959, 1.19974782988903, -1.12447851617144], a = 0.2, v = 0.2, t = 0.2)
movej(p[0.542149115071993, 0.0099965350097246, 0.168721349672975, -1.20856552901765, 1.21774094251785, -1.11734320996111], a = 0.2, v = 0.2, t = 0.2)
movej(p[0.542302049791776, 0.00918419091487759, 0.168332374445033, -1.20058283265977, 1.22231714084268, -1.12268013174271], a = 0.2, v = 0.2, t = 0.2)
movej(p[0.542068307679763, 0.00921516275008178, 0.168752152434566, -1.20278048489638, 1.20223006585847, -1.13463841408844], a = 0.2, v = 0.2, t = 0.2)
movej(p[0.541372410755448, 0.00990920085655285, 0.169898401945752, -1.20890050884619, 1.18036243614647, -1.15043248781976], a = 0.2, v = 0.2, t = 0.2)
movej(p[0.540278911129704, 0.010480703519978, 0.171196923941366, -1.20397953892947, 1.16925378043462, -1.16671564787564], a = 0.2, v = 0.2, t = 0.2)
movej(p[0.539067548890224, 0.0109964575668894, 0.172247686388144, -1.19947161168049, 1.15889557538187, -1.18307049866015], a = 0.2, v = 0.2, t = 0.2)
movej(p[0.538214253268075, 0.0115935773701169, 0.172967292662167, -1.19649896233465, 1.13936423819161, -1.19008795291289], a = 0.2, v = 0.2, t = 0.2)
movej(p[0.537832687809324, 0.0121610086310578, 0.173404811902996, -1.19836456086442, 1.12987769479507, -1.19319765359664], a = 0.2, v = 0.2, t = 0.2)
movej(p[0.537655650530039, 0.0124912513489581, 0.173661780805818, -1.20150899186521, 1.1229037753781, -1.18995801104466], a = 0.2, v = 0.2, t = 0.2)
movej(p[0.537462499087838, 0.0126395523257775, 0.17374584294444, -1.20303211175369, 1.12142294130148, -1.19489502487997], a = 0.2, v = 0.2, t = 0.2)
movej(p[0.537409451412146, 0.0130286560818191, 0.173846339380387, -1.20741158077316, 1.1045066077463, -1.19582994504068], a = 0.2, v = 0.2, t = 0.2)
movej(p[0.537525255898218, 0.0135150721577537, 0.173881605468604, -1.21074734470476, 1.09528147404173, -1.19295630448304], a = 0.2, v = 0.2, t = 0.2)
movej(p[0.537698607548908, 0.0136024129503581, 0.173871836581754, -1.21218440755623, 1.1056909772575, -1.18761759054286], a = 0.2, v = 0.2, t = 0.2)
movej(p[0.537861583090283, 0.0133104634019263, 0.173708551259132, -1.20890622759612, 1.11769610902816, -1.1827414828399], a = 0.2, v = 0.2, t = 0.2)
movej(p[0.538100265084176, 0.0130792779344977, 0.173391854343705, -1.20775806965178, 1.12779135312167, -1.18049062261763], a = 0.2, v = 0.2, t = 0.2)
movej(p[0.538870587326011, 0.0128116738996976, 0.172656242351421, -1.21113079008543, 1.13188618984348, -1.16863848069736], a = 0.2, v = 0.2, t = 0.2)
movej(p[0.540170087563973, 0.0125764973492779, 0.171511938485015, -1.22017140149555, 1.14551682589924, -1.14812954011349], a = 0.2, v = 0.2, t = 0.2)
movej(p[0.541539446465852, 0.0118222185862878, 0.170266464035038, -1.22427778429546, 1.17489096810275, -1.12681457523676], a = 0.2, v = 0.2, t = 0.2)
movej(p[0.542426042564624, 0.0105453724474108, 0.16903921704467, -1.21587009414973, 1.21125212411763, -1.11456707030964], a = 0.2, v = 0.2, t = 0.2)
movej(p[0.542807207050346, 0.00933128282279923, 0.168002667325398, -1.20467369298562, 1.23492911901767, -1.10923432434487], a = 0.2, v = 0.2, t = 0.2)
movej(p[0.542880489094995, 0.0085633947630243, 0.167323710913257, -1.20060215315555, 1.23605145672408, -1.10843162465129], a = 0.2, v = 0.2, t = 0.2)
movej(p[0.542842608173389, 0.00822510965651315, 0.16722151814203, -1.19479557115391, 1.23562852958617, -1.11304124401673], a = 0.2, v = 0.2, t = 0.2)
movej(p[0.542544843384184, 0.00820893039399622, 0.167794583707017, -1.189788784765, 1.22840661057156, -1.12316634920723], a = 0.2, v = 0.2, t = 0.2)
movej(p[0.541974794688513, 0.00866216347398408, 0.168815968663715, -1.18772553136884, 1.21574946777498, -1.13455557762657], a = 0.2, v = 0.2, t = 0.2)
movej(p[0.541147060175475, 0.0094519256554856, 0.170061079075966, -1.18889558785633, 1.20348774200561, -1.1466475674461], a = 0.2, v = 0.2, t = 0.2)
movej(p[0.540145283781063, 0.0101961562815023, 0.171228695953755, -1.19323725683974, 1.18375229245456, -1.16044363651588], a = 0.2, v = 0.2, t = 0.2)
movej(p[0.539129284958848, 0.0108801669590381, 0.17225948195326, -1.18712568927735, 1.16567001427952, -1.17465690350996], a = 0.2, v = 0.2, t = 0.2)
movej(p[0.538400399763319, 0.0114554766298916, 0.172906938366035, -1.18728207229017, 1.14192036610121, -1.18213782293435], a = 0.2, v = 0.2, t = 0.2)
movej(p[0.538103606482407, 0.0122175584836609, 0.173335398275765, -1.19165232027352, 1.123614396916, -1.18080700466563], a = 0.2, v = 0.2, t = 0.2)
movej(p[0.53806254432487, 0.0127533927744469, 0.173568174732985, -1.19644379289745, 1.12461350615202, -1.17568957071416], a = 0.2, v = 0.2, t = 0.2)
movej(p[0.53790018678988, 0.0126817474259218, 0.173604218940102, -1.1988256800097, 1.12739371980435, -1.17660252209748], a = 0.2, v = 0.2, t = 0.2)
movej(p[0.537689320354027, 0.0126684852875341, 0.173683497941206, -1.19648186547714, 1.12777661905258, -1.18312133741612], a = 0.2, v = 0.2, t = 0.2)
movej(p[0.537495909217146, 0.0127587090592104, 0.173743420417415, -1.19735436806471, 1.11516998611029, -1.19186408573225], a = 0.2, v = 0.2, t = 0.2)
movej(p[0.537655700888372, 0.0133141445602984, 0.173845040683298, -1.20695216084854, 1.09697508622566, -1.18947657607813], a = 0.2, v = 0.2, t = 0.2)
movej(p[0.537835475634199, 0.0136875797559758, 0.173863429361668, -1.21386207073734, 1.09940144231113, -1.18423364509209], a = 0.2, v = 0.2, t = 0.2)
movej(p[0.538028544118158, 0.0134902321755683, 0.173771454941807, -1.21746767652462, 1.10897945680178, -1.1817694094535], a = 0.2, v = 0.2, t = 0.2)
movej(p[0.538208020736685, 0.0133066717227609, 0.173532206254314, -1.21415963113387, 1.11599606199795, -1.18160495534079], a = 0.2, v = 0.2, t = 0.2)
movej(p[0.53879213499796, 0.0131314640966886, 0.172961799038685, -1.21769315140192, 1.11129201302085, -1.17775945730976], a = 0.2, v = 0.2, t = 0.2)
movej(p[0.539861210112978, 0.0130352039978952, 0.171999394460854, -1.22665687467075, 1.12275886668508, -1.16020721870392], a = 0.2, v = 0.2, t = 0.2)
movej(p[0.541075664486421, 0.0124494387740893, 0.170857554579345, -1.23080107575147, 1.15347505725173, -1.1387234626539], a = 0.2, v = 0.2, t = 0.2)
movej(p[0.541924625836782, 0.0112903136927236, 0.169674335646162, -1.22184835602365, 1.19540121648416, -1.12058221246485], a = 0.2, v = 0.2, t = 0.2)
movej(p[0.542419122949696, 0.0100710429921516, 0.168452671930999, -1.20870021177219, 1.22243618518548, -1.10939627617676], a = 0.2, v = 0.2, t = 0.2)
movej(p[0.542682899727254, 0.00906941383425611, 0.167449260908499, -1.19795329699102, 1.23658146395677, -1.10660683648693], a = 0.2, v = 0.2, t = 0.2)
movej(p[0.542768020957619, 0.00845978349811063, 0.166980880935195, -1.19361359783847, 1.23510706643317, -1.1104393706677], a = 0.2, v = 0.2, t = 0.2)
movej(p[0.542638994817668, 0.00827094840083019, 0.16717448729161, -1.18536652630057, 1.23343501452922, -1.11326083347641], a = 0.2, v = 0.2, t = 0.2)
movej(p[0.542311569093323, 0.00860491655725283, 0.167922893308109, -1.18510299890265, 1.22373661224551, -1.12168364214153], a = 0.2, v = 0.2, t = 0.2)
movej(p[0.541700278447659, 0.00921275598158822, 0.169004551308934, -1.18396265152681, 1.216478311498, -1.13165648582258], a = 0.2, v = 0.2, t = 0.2)
movej(p[0.540835931425907, 0.00983862222438882, 0.170194790370892, -1.18766236267335, 1.19711921033516, -1.15190397665442], a = 0.2, v = 0.2, t = 0.2)
movej(p[0.53970927698911, 0.0104994239208878, 0.171424167856268, -1.18351014405097, 1.17180645725565, -1.17093623706538], a = 0.2, v = 0.2, t = 0.2)
movej(p[0.538870050786488, 0.0112903128353791, 0.172313096478356, -1.18754151188089, 1.14011628547782, -1.18018128588248], a = 0.2, v = 0.2, t = 0.2)
movej(p[0.538460745146474, 0.0121686412392569, 0.17293228017056, -1.19546939056804, 1.1300918936708, -1.17987242662513], a = 0.2, v = 0.2, t = 0.2)
movej(p[0.538204728217302, 0.0123352232470889, 0.173156276471734, -1.19800305775359, 1.13447988532034, -1.18101352957929], a = 0.2, v = 0.2, t = 0.2)
movej(p[0.537981756790864, 0.0123859894653192, 0.173342579674548, -1.19944818410298, 1.13375138856611, -1.1843647727021], a = 0.2, v = 0.2, t = 0.2)
movej(p[0.537843668707225, 0.0126562985381364, 0.173468651912609, -1.20619804665504, 1.1157811377519, -1.19024904004015], a = 0.2, v = 0.2, t = 0.2)
movej(p[0.537884285707465, 0.0129974986311301, 0.173613888582677, -1.21412934657299, 1.10803506038964, -1.19086705779765], a = 0.2, v = 0.2, t = 0.2)
movej(p[0.537939783605277, 0.0132556501542769, 0.173706072764267, -1.216127814098, 1.10626471216454, -1.18934310185788], a = 0.2, v = 0.2, t = 0.2)
movej(p[0.538011174658895, 0.0132868429537407, 0.173642389645429, -1.21175536112831, 1.10744839592478, -1.1877078166162], a = 0.2, v = 0.2, t = 0.2)
movej(p[0.538434997746171, 0.0134670993080258, 0.173398042116217, -1.21524945321749, 1.09884569141381, -1.18125128782844], a = 0.2, v = 0.2, t = 0.2)
movej(p[0.539097201319307, 0.0133003725291687, 0.172864837811811, -1.22150540386843, 1.11404566328601, -1.17159538492469], a = 0.2, v = 0.2, t = 0.2)
movej(p[0.539895281970525, 0.0128390354031758, 0.17209009570599, -1.22614326760291, 1.13962591946656, -1.16121506040446], a = 0.2, v = 0.2, t = 0.2)
movej(p[0.540637140787478, 0.0121840722284834, 0.171106167193543, -1.22532535608763, 1.16025261234218, -1.15200670947614], a = 0.2, v = 0.2, t = 0.2)
movej(p[0.541519897596609, 0.0116488766879434, 0.16994037288522, -1.22497897150636, 1.17405004917028, -1.13515236825175], a = 0.2, v = 0.2, t = 0.2)
movej(p[0.542373223025718, 0.0108913342167972, 0.168806479912605, -1.21999566164021, 1.19540974441201, -1.11987160635384], a = 0.2, v = 0.2, t = 0.2)
movej(p[0.542721354325633, 0.00976866584397116, 0.167965582260345, -1.20964550800348, 1.22492130495954, -1.11295096326011], a = 0.2, v = 0.2, t = 0.2)
movej(p[0.542671140826612, 0.00892401424421102, 0.167475994734832, -1.19867772421005, 1.23575287128482, -1.11337140257386], a = 0.2, v = 0.2, t = 0.2)
movej(p[0.542504441239553, 0.00862959272905522, 0.167367157658944, -1.19499012098943, 1.23191323772539, -1.11370557015833], a = 0.2, v = 0.2, t = 0.2)
movej(p[0.5421949303449, 0.00890412397439272, 0.167955926078124, -1.19366238751572, 1.22421428837567, -1.1215832052458], a = 0.2, v = 0.2, t = 0.2)
movej(p[0.541512473925195, 0.00942946168482503, 0.169144469390419, -1.19038225408636, 1.2137321329488, -1.13964490234125], a = 0.2, v = 0.2, t = 0.2)
movej(p[0.540288469081163, 0.010200461158408, 0.170643939819311, -1.18819423277865, 1.18543808763353, -1.16483584395813], a = 0.2, v = 0.2, t = 0.2)
movej(p[0.539226603859557, 0.0111008617022727, 0.171852860791398, -1.18822405738312, 1.15958995045892, -1.17748917396085], a = 0.2, v = 0.2, t = 0.2)
movej(p[0.538465923848661, 0.011622760887971, 0.172574528910901, -1.19098205550035, 1.14175040892702, -1.18501994070692], a = 0.2, v = 0.2, t = 0.2)
movej(p[0.538053766464862, 0.011964423353317, 0.173053754903862, -1.19303104232623, 1.1351904005368, -1.19114749079751], a = 0.2, v = 0.2, t = 0.2)
movej(p[0.537740552004115, 0.0122218792154981, 0.173341670744878, -1.19402796051109, 1.12065165892428, -1.19842243880331], a = 0.2, v = 0.2, t = 0.2)
movej(p[0.537690896778073, 0.0127553233746897, 0.173546934896768, -1.19984272923611, 1.10584468121264, -1.19923717355581], a = 0.2, v = 0.2, t = 0.2)
movej(p[0.537810369896128, 0.0132941291897002, 0.173660117615295, -1.20736797148513, 1.09896371319121, -1.19071461889926], a = 0.2, v = 0.2, t = 0.2)
movej(p[0.537877568980053, 0.0133094170328796, 0.173690358160438, -1.20802125039619, 1.1124459581337, -1.18774035520147], a = 0.2, v = 0.2, t = 0.2)
movej(p[0.537876444198697, 0.013155208090596, 0.173696523862886, -1.209174390241, 1.11623861267142, -1.18691892251412], a = 0.2, v = 0.2, t = 0.2)
movej(p[0.537818961048225, 0.0130836491888822, 0.173618782741867, -1.20726997342317, 1.11562443796241, -1.19036334749146], a = 0.2, v = 0.2, t = 0.2)
movej(p[0.53815070137432, 0.0132180273485818, 0.173336385787497, -1.21486290538071, 1.10464440588025, -1.18566636812906], a = 0.2, v = 0.2, t = 0.2)
movej(p[0.538882077984679, 0.0134409348602726, 0.172857336880336, -1.2259064260073, 1.1083286711367, -1.17163460625004], a = 0.2, v = 0.2, t = 0.2)
movej(p[0.539810153522566, 0.0131221633018999, 0.17221748669002, -1.22940860951738, 1.13172243949206, -1.15785524274122], a = 0.2, v = 0.2, t = 0.2)
movej(p[0.540612498212538, 0.0124529236090169, 0.17139024066764, -1.22743971423295, 1.16325485554818, -1.14378708002882], a = 0.2, v = 0.2, t = 0.2)
movej(p[0.541251322399268, 0.0116411857104166, 0.170354513226455, -1.21863969126702, 1.18724404242272, -1.13659177729587], a = 0.2, v = 0.2, t = 0.2)
movej(p[0.541872437000295, 0.010731239598398, 0.169055221148431, -1.21022069951619, 1.20843263760526, -1.12300512621182], a = 0.2, v = 0.2, t = 0.2)
movej(p[0.542535261724029, 0.00983812500594173, 0.167790544363459, -1.20673378541186, 1.22096811097518, -1.10928317349842], a = 0.2, v = 0.2, t = 0.2)
movej(p[0.542871597100929, 0.00876868240218085, 0.166960617677777, -1.19732333192246, 1.24248569329215, -1.10221228537581], a = 0.2, v = 0.2, t = 0.2)
movej(p[0.542795886266324, 0.00802590239799531, 0.166762321548452, -1.19016962610399, 1.24734524215227, -1.10556675983334], a = 0.2, v = 0.2, t = 0.2)
movej(p[0.542546811195809, 0.00790933126376746, 0.167067399308887, -1.18594762217051, 1.24402846856653, -1.11147249455226], a = 0.2, v = 0.2, t = 0.2)
movej(p[0.542173000008312, 0.00845166403508329, 0.1679476150218, -1.18714940559495, 1.22759357185177, -1.12297576228706], a = 0.2, v = 0.2, t = 0.2)
movej(p[0.541483513287534, 0.00917489603840094, 0.169135563598654, -1.19080968139332, 1.2120153978232, -1.1368863169697], a = 0.2, v = 0.2, t = 0.2)
movej(p[0.540457963616356, 0.0100060567004705, 0.17052570178451, -1.19012132593094, 1.19219323245868, -1.15618844971973], a = 0.2, v = 0.2, t = 0.2)
movej(p[0.539422294073599, 0.0108359733061138, 0.171675627410489, -1.19107731437003, 1.17399572999214, -1.16613124895117], a = 0.2, v = 0.2, t = 0.2)
movej(p[0.538724129865226, 0.011428455392196, 0.172411421891318, -1.19204952135682, 1.15833490535976, -1.17375213024074], a = 0.2, v = 0.2, t = 0.2)
movej(p[0.538290935796695, 0.0118231411370215, 0.172916278484442, -1.1971794256145, 1.14178408805832, -1.18106390952486], a = 0.2, v = 0.2, t = 0.2)
movej(p[0.537972858320279, 0.0121330005368836, 0.173227743448947, -1.19989746120328, 1.12769933886561, -1.19007819588806], a = 0.2, v = 0.2, t = 0.2)
movej(p[0.537854654624629, 0.0126412749829679, 0.173485852613434, -1.20193789183163, 1.10933071083851, -1.19407235731718], a = 0.2, v = 0.2, t = 0.2)
movej(p[0.537965560865282, 0.0131952458091764, 0.173612425983438, -1.20756305167544, 1.1000764558637, -1.19019582821265], a = 0.2, v = 0.2, t = 0.2)
movej(p[0.537992829726795, 0.0131881095312146, 0.173627753828317, -1.2074210493899, 1.11489704912301, -1.18656039518943], a = 0.2, v = 0.2, t = 0.2)
movej(p[0.537998212992721, 0.0130046928150446, 0.173590348406552, -1.20485537575351, 1.12478899100198, -1.18560902931766], a = 0.2, v = 0.2, t = 0.2)
movej(p[0.53801758459493, 0.012887065429263, 0.173430932097343, -1.20250965537826, 1.12899278991234, -1.18250932843379], a = 0.2, v = 0.2, t = 0.2)
movej(p[0.538500757261444, 0.0129538240421401, 0.1730764386343, -1.20263346259528, 1.1203468111166, -1.17631266855975], a = 0.2, v = 0.2, t = 0.2)
movej(p[0.539425500395014, 0.0131387093753574, 0.172459750379039, -1.2132588647654, 1.11988452254352, -1.1593601842304], a = 0.2, v = 0.2, t = 0.2)
movej(p[0.540434727992034, 0.0127907439494537, 0.171727899315373, -1.2171579471028, 1.14664413733289, -1.14681109848074], a = 0.2, v = 0.2, t = 0.2)
movej(p[0.541160151557643, 0.012084667790074, 0.170941918991374, -1.22160367993362, 1.17183584774978, -1.13830466345034], a = 0.2, v = 0.2, t = 0.2)
movej(p[0.541632673276497, 0.0113107410865648, 0.169975274593, -1.21753188961791, 1.19243909626095, -1.13269086210589], a = 0.2, v = 0.2, t = 0.2)
movej(p[0.542159690388667, 0.0104849029386206, 0.168780758099246, -1.21566495601844, 1.20395089378873, -1.12320299622204], a = 0.2, v = 0.2, t = 0.2)
movej(p[0.542739714564444, 0.00974780690536651, 0.167622819919341, -1.20798606247604, 1.21961686775229, -1.10632413577536], a = 0.2, v = 0.2, t = 0.2)
movej(p[0.542965491454933, 0.00881827623048186, 0.166958347770135, -1.20252987087377, 1.2385264123588, -1.10462457689956], a = 0.2, v = 0.2, t = 0.2)
movej(p[0.542771280137657, 0.00812225417680651, 0.166812723166996, -1.18766216058392, 1.25020763430571, -1.10730911829582], a = 0.2, v = 0.2, t = 0.2)
movej(p[0.542437758414838, 0.00797626855649892, 0.167089614389449, -1.18053622243032, 1.24717712924796, -1.11373587078616], a = 0.2, v = 0.2, t = 0.2)
movej(p[0.542180234586578, 0.00836959457241109, 0.167685078883004, -1.17618878592748, 1.23570991868499, -1.11703036793457], a = 0.2, v = 0.2, t = 0.2)
movej(p[0.541680987552291, 0.0089437258250771, 0.168672585578408, -1.1822453463858, 1.21780291750237, -1.12971323310215], a = 0.2, v = 0.2, t = 0.2)
movej(p[0.540772957894763, 0.00964609038374812, 0.169934961264911, -1.1853726306199, 1.1959195830112, -1.14814734192988], a = 0.2, v = 0.2, t = 0.2)
movej(p[0.539713337935918, 0.0105284788608184, 0.171229538650914, -1.19159827712735, 1.16978082902608, -1.16459781132595], a = 0.2, v = 0.2, t = 0.2)
movej(p[0.538885068383105, 0.0111708790668943, 0.172102260907028, -1.19216412504072, 1.15553133374365, -1.17247165291749], a = 0.2, v = 0.2, t = 0.2)
movej(p[0.538356546422284, 0.0116702106492024, 0.172718709631367, -1.19564157124667, 1.14174319794828, -1.18227967865295], a = 0.2, v = 0.2, t = 0.2)
movej(p[0.537959329761854, 0.0119647135085571, 0.173076604593903, -1.1914789154466, 1.13293868759265, -1.18845832861985], a = 0.2, v = 0.2, t = 0.2)
movej(p[0.537837444504224, 0.0124840513014561, 0.173327293121043, -1.1982767501344, 1.11339140995895, -1.19244243116257], a = 0.2, v = 0.2, t = 0.2)
movej(p[0.537928019102006, 0.0130633540634004, 0.173488214671931, -1.20612820223462, 1.10439376726463, -1.18723077981919], a = 0.2, v = 0.2, t = 0.2)
movej(p[0.53793548255675, 0.0130017391907825, 0.173482099378351, -1.20848257474262, 1.11781803976327, -1.18736664192605], a = 0.2, v = 0.2, t = 0.2)
movej(p[0.53793569591043, 0.0128971371911478, 0.173467848180063, -1.2062295049983, 1.12702449120613, -1.18622352075904], a = 0.2, v = 0.2, t = 0.2)
movej(p[0.537943204663465, 0.0128239696842009, 0.173340675930515, -1.20401529879964, 1.12619474831251, -1.18627337710089], a = 0.2, v = 0.2, t = 0.2)
movej(p[0.538483829917331, 0.013026631834558, 0.172965223675736, -1.21072421533539, 1.11695569315138, -1.17662976848981], a = 0.2, v = 0.2, t = 0.2)
movej(p[0.539408890675353, 0.0131840486215933, 0.172371922089954, -1.2251175566495, 1.11633647036202, -1.1601918438416], a = 0.2, v = 0.2, t = 0.2)
movej(p[0.540374608455899, 0.0126147365807726, 0.171595508805347, -1.22424721271076, 1.15488789724213, -1.14372513703184], a = 0.2, v = 0.2, t = 0.2)
movej(p[0.541126490994443, 0.0118207909846942, 0.170749026642983, -1.21759025188685, 1.18756487264189, -1.1294741499066], a = 0.2, v = 0.2, t = 0.2)
movej(p[0.54167762732967, 0.0109439262815615, 0.169713482586946, -1.20507483430835, 1.21194094663782, -1.12059045813851], a = 0.2, v = 0.2, t = 0.2)
movej(p[0.542325410401902, 0.0100986268116302, 0.168466506445409, -1.1983540312949, 1.22381765549765, -1.10857782358442], a = 0.2, v = 0.2, t = 0.2)
movej(p[0.542959111401729, 0.00929351741845745, 0.167258081949322, -1.19424351062215, 1.23792172129425, -1.09427941797389], a = 0.2, v = 0.2, t = 0.2)
movej(p[0.543116330172828, 0.00834611230671321, 0.166578401655172, -1.18361247422585, 1.26050850802711, -1.08821328931013], a = 0.2, v = 0.2, t = 0.2)
movej(p[0.54296358517661, 0.00760001601569524, 0.16617967878066, -1.16880518296924, 1.27586077041002, -1.08577160856466], a = 0.2, v = 0.2, t = 0.2)
movej(p[0.542670987828285, 0.00720718533931397, 0.165955072232565, -1.16022874314462, 1.28054714304966, -1.08676936372022], a = 0.2, v = 0.2, t = 0.2)
movej(p[0.542493525406152, 0.00719780563726777, 0.16601389629159, -1.16063627651635, 1.27919433610675, -1.08661704314703], a = 0.2, v = 0.2, t = 0.2)
movej(p[0.542190415068444, 0.00739509226065449, 0.166550292377899, -1.17078947271772, 1.26479977395966, -1.09863098090978], a = 0.2, v = 0.2, t = 0.2)
movej(p[0.541484439043724, 0.00810713515641707, 0.167855728897655, -1.17311301240258, 1.24070805345084, -1.11857539081559], a = 0.2, v = 0.2, t = 0.2)
movej(p[0.540479173530106, 0.00901875089831044, 0.169326083248233, -1.17402181155306, 1.21548197169596, -1.1428743640813], a = 0.2, v = 0.2, t = 0.2)
movej(p[0.539375306947606, 0.00981438058891054, 0.170630226880382, -1.17140769514864, 1.19812634063954, -1.1584659968433], a = 0.2, v = 0.2, t = 0.2)
movej(p[0.538422146192955, 0.0103894454856352, 0.171631749800808, -1.17292560366286, 1.17975234254754, -1.17423342382834], a = 0.2, v = 0.2, t = 0.2)
movej(p[0.537780944278953, 0.0108259054422512, 0.172360369554753, -1.18215849555096, 1.15721276599414, -1.18561973297028], a = 0.2, v = 0.2, t = 0.2)
movej(p[0.537502763641791, 0.0115480310094692, 0.172931184924447, -1.19129085359627, 1.13538122692857, -1.18786378755595], a = 0.2, v = 0.2, t = 0.2)
movej(p[0.537397013317597, 0.0122024960214431, 0.17336233861495, -1.19946868293655, 1.12712044910165, -1.18775666657133], a = 0.2, v = 0.2, t = 0.2)
movej(p[0.537189961233681, 0.0122428793380485, 0.173532963004432, -1.19709113356272, 1.13361055737697, -1.1877405609923], a = 0.2, v = 0.2, t = 0.2)
movej(p[0.536956456989763, 0.0123084808507203, 0.173729235314266, -1.19410998388722, 1.13095910197576, -1.19444465314966], a = 0.2, v = 0.2, t = 0.2)
movej(p[0.536733372168021, 0.0124338267847675, 0.173876659596954, -1.19191443481235, 1.11756193311824, -1.20216090587948], a = 0.2, v = 0.2, t = 0.2)
movej(p[0.536820712173146, 0.013002520586457, 0.174045677978868, -1.19355834435511, 1.10015994368427, -1.1998207073806], a = 0.2, v = 0.2, t = 0.2)
movej(p[0.53700410339751, 0.0135158712414847, 0.17414466208774, -1.19928975790406, 1.09669247889512, -1.19504246195832], a = 0.2, v = 0.2, t = 0.2)
movej(p[0.537079435130013, 0.0134588297581282, 0.174117845502303, -1.1996979288435, 1.11072164296866, -1.19132555176098], a = 0.2, v = 0.2, t = 0.2)
movej(p[0.537058725658086, 0.0133811543706947, 0.174118800468028, -1.19684360794044, 1.11855099274926, -1.19150982506154], a = 0.2, v = 0.2, t = 0.2)
movej(p[0.537078809191275, 0.0132851088346165, 0.173991303892803, -1.19364071546467, 1.11560230157012, -1.19334671750078], a = 0.2, v = 0.2, t = 0.2)
movej(p[0.537623367016909, 0.0135118443159094, 0.17367649715691, -1.19945841222556, 1.10797824667855, -1.18533745821027], a = 0.2, v = 0.2, t = 0.2)
movej(p[0.538508973232167, 0.0135537224572586, 0.173172916683428, -1.20869899950542, 1.11483561077746, -1.17426557993029], a = 0.2, v = 0.2, t = 0.2)
movej(p[0.539287257723279, 0.0130975781388233, 0.172624329832561, -1.21370972512306, 1.13667450769685, -1.1649640338512], a = 0.2, v = 0.2, t = 0.2)
movej(p[0.539941098733917, 0.012639365988655, 0.171948528157812, -1.21640736211268, 1.15887146311996, -1.15572165148046], a = 0.2, v = 0.2, t = 0.2)
movej(p[0.54062969116803, 0.012103227013517, 0.170993052055798, -1.22192461602945, 1.17154972384324, -1.14471639930887], a = 0.2, v = 0.2, t = 0.2)
movej(p[0.541449279521938, 0.0115231556177981, 0.170003416124756, -1.22795585630183, 1.18513249679117, -1.13367451515979], a = 0.2, v = 0.2, t = 0.2)
movej(p[0.542164175899468, 0.0105868156017864, 0.168907042690105, -1.22607113952922, 1.20416459233068, -1.12021314298543], a = 0.2, v = 0.2, t = 0.2)
movej(p[0.542620542013248, 0.00959101856864004, 0.167967043369164, -1.21667492212049, 1.22327239528047, -1.11166137794377], a = 0.2, v = 0.2, t = 0.2)
movej(p[0.542769710255317, 0.00887341787403471, 0.167338260116635, -1.20256479112638, 1.2374798324245, -1.1050977996659], a = 0.2, v = 0.2, t = 0.2)
movej(p[0.542727460433501, 0.00841406991873102, 0.167131664331308, -1.19419640038705, 1.24193335012938, -1.10575797437268], a = 0.2, v = 0.2, t = 0.2)
movej(p[0.542491800769876, 0.00841241116054595, 0.16752846195159, -1.18962713217162, 1.23843430177387, -1.11150879319016], a = 0.2, v = 0.2, t = 0.2)
movej(p[0.542230804488463, 0.00894264378915842, 0.168263786451823, -1.19524665059758, 1.21818014524718, -1.11977143959989], a = 0.2, v = 0.2, t = 0.2)
movej(p[0.541760468243642, 0.00998867608560035, 0.169454798449457, -1.19990683170127, 1.20031400069047, -1.13485375293063], a = 0.2, v = 0.2, t = 0.2)
movej(p[0.540735590303947, 0.010516372543449, 0.17077857673452, -1.19807270514897, 1.18592347241315, -1.15558394818007], a = 0.2, v = 0.2, t = 0.2)
movej(p[0.539408986944606, 0.010907943764362, 0.172047566009666, -1.19343969652242, 1.16605123784, -1.17494447717218], a = 0.2, v = 0.2, t = 0.2)
movej(p[0.53829032138779, 0.0113187629369617, 0.17291859250824, -1.19408476487818, 1.14451275210659, -1.18491180347501], a = 0.2, v = 0.2, t = 0.2)
movej(p[0.537676981926301, 0.0117802976364446, 0.173440137128722, -1.19469790824554, 1.13601323781269, -1.18555554367957], a = 0.2, v = 0.2, t = 0.2)
movej(p[0.537387049061198, 0.0121798408187259, 0.173719852873945, -1.19403172479427, 1.13474671657728, -1.18815535007862], a = 0.2, v = 0.2, t = 0.2)
movej(p[0.537182271460066, 0.0124211392513163, 0.173863212214429, -1.19043257834833, 1.12894646577644, -1.19109252931547], a = 0.2, v = 0.2, t = 0.2)
movej(p[0.537187734385277, 0.0129322911407459, 0.173994876987169, -1.19804935702282, 1.11470440974688, -1.19259900397121], a = 0.2, v = 0.2, t = 0.2)
movej(p[0.537147316764088, 0.0131095042402378, 0.174022635648265, -1.20361497550457, 1.11619192095736, -1.19400010532079], a = 0.2, v = 0.2, t = 0.2)
movej(p[0.537093460943675, 0.0131352940986493, 0.174046879076462, -1.20604173903068, 1.1179050535003, -1.19762177936434], a = 0.2, v = 0.2, t = 0.2)
movej(p[0.536951827331972, 0.0131418683473793, 0.174051256209056, -1.20823228258851, 1.10707838089423, -1.20360830203352], a = 0.2, v = 0.2, t = 0.2)
movej(p[0.537120149142129, 0.013505818245474, 0.174068246497531, -1.20706734828963, 1.09439127687038, -1.19986276180709], a = 0.2, v = 0.2, t = 0.2)
movej(p[0.537573013406238, 0.013843711197315, 0.173910461473246, -1.2145419431617, 1.08717452020337, -1.19056911832035], a = 0.2, v = 0.2, t = 0.2)
movej(p[0.53820904874917, 0.0136168379268368, 0.17350294516856, -1.21013010854553, 1.1163504926106, -1.17601135750013], a = 0.2, v = 0.2, t = 0.2)
movej(p[0.538917917508203, 0.0131140015475755, 0.172844259843113, -1.21341287767046, 1.13747733531606, -1.16365875230874], a = 0.2, v = 0.2, t = 0.2)
movej(p[0.539733370565208, 0.0125589764969442, 0.171901814865837, -1.21225643261299, 1.1610573172183, -1.14914984984443], a = 0.2, v = 0.2, t = 0.2)
movej(p[0.540865756158195, 0.0119296340270625, 0.170743900504584, -1.21872901919731, 1.17476609560005, -1.13604645430184], a = 0.2, v = 0.2, t = 0.2)
movej(p[0.541850985922634, 0.0111215233890968, 0.169582350183474, -1.21995946079735, 1.19890889592668, -1.12116391855964], a = 0.2, v = 0.2, t = 0.2)
movej(p[0.54244840023043, 0.0100869037235889, 0.168557206031325, -1.21415300874359, 1.2224540475868, -1.11449500390577], a = 0.2, v = 0.2, t = 0.2)
movej(p[0.54266335682856, 0.0093060926086941, 0.167950443702339, -1.21341688956038, 1.22309303644824, -1.11651018402612], a = 0.2, v = 0.2, t = 0.2)
movej(p[0.542509836783388, 0.00905916078131582, 0.168163232044026, -1.20543448311982, 1.21285297244755, -1.13037022945001], a = 0.2, v = 0.2, t = 0.2)
movej(p[0.541827875814108, 0.00942472521936746, 0.169269971041265, -1.20471780934061, 1.191005884509, -1.14774604372485], a = 0.2, v = 0.2, t = 0.2)
movej(p[0.540604682054462, 0.0102475413568246, 0.170859363620304, -1.19883796342841, 1.16828834538903, -1.16757813661381], a = 0.2, v = 0.2, t = 0.2)
movej(p[0.539404899760889, 0.0111999797859212, 0.172134764639478, -1.20035772096642, 1.14259661274491, -1.1795416628771], a = 0.2, v = 0.2, t = 0.2)
movej(p[0.53868203944509, 0.012002204358912, 0.172865560604185, -1.20185176884724, 1.12551964460299, -1.18300932733053], a = 0.2, v = 0.2, t = 0.2)
movej(p[0.538231095812505, 0.0123825054099975, 0.173250874940505, -1.19987250048239, 1.13075119382463, -1.18636443724149], a = 0.2, v = 0.2, t = 0.2)
movej(p[0.537896665232435, 0.0123398490583758, 0.173376354471827, -1.20118716103568, 1.13068342336335, -1.19103586100024], a = 0.2, v = 0.2, t = 0.2)
movej(p[0.537556246658833, 0.0123982444084994, 0.173538353533647, -1.19936840691554, 1.12213162794114, -1.19954642533827], a = 0.2, v = 0.2, t = 0.2)
movej(p[0.537448214142065, 0.012681980727442, 0.173657035415725, -1.19894312680263, 1.1048586823335, -1.20085566227984], a = 0.2, v = 0.2, t = 0.2)
movej(p[0.537593149159755, 0.0132573742310319, 0.173762510403631, -1.20220623115269, 1.09231325158797, -1.1981572633736], a = 0.2, v = 0.2, t = 0.2)
movej(p[0.537774250898799, 0.0135586438399534, 0.173795562873364, -1.20387149417799, 1.10257109659471, -1.1938463113344], a = 0.2, v = 0.2, t = 0.2)
movej(p[0.537854522922614, 0.0133725763761721, 0.173733998240541, -1.20457654442914, 1.10962755057989, -1.19245527624204], a = 0.2, v = 0.2, t = 0.2)
movej(p[0.537861609467074, 0.0132756792390448, 0.173624670679038, -1.20531124178445, 1.11270614839651, -1.19103028136549], a = 0.2, v = 0.2, t = 0.2)
movej(p[0.538204986217225, 0.0132103109761271, 0.173272174278973, -1.2106575463552, 1.1068869776019, -1.18625813447441], a = 0.2, v = 0.2, t = 0.2)
movej(p[0.539111287011256, 0.0133217537533456, 0.172624962724795, -1.21921638913458, 1.10823854878228, -1.16941910073903], a = 0.2, v = 0.2, t = 0.2)
movej(p[0.540336487678802, 0.0130135592496927, 0.171731953663107, -1.22603140919461, 1.13610466396573, -1.14966329581145], a = 0.2, v = 0.2, t = 0.2)
movej(p[0.541363137576451, 0.0121405123531195, 0.17074402846369, -1.22551594147109, 1.17176376233691, -1.13172372091322], a = 0.2, v = 0.2, t = 0.2)
movej(p[0.542101883419476, 0.0112092122818238, 0.1696508116812, -1.2201627109707, 1.19969493557307, -1.11855623831711], a = 0.2, v = 0.2, t = 0.2)
movej(p[0.542758547326609, 0.0103069601408995, 0.168569432704307, -1.21653927566573, 1.21308659271606, -1.11140044677154], a = 0.2, v = 0.2, t = 0.2)
movej(p[0.543179171978632, 0.00941959925915568, 0.167695023457924, -1.21027830400095, 1.22691030418555, -1.10521134016198], a = 0.2, v = 0.2, t = 0.2)
movej(p[0.543359825789921, 0.00863189453483502, 0.167168486642734, -1.20564826157143, 1.24046173739893, -1.10046431387086], a = 0.2, v = 0.2, t = 0.2)
movej(p[0.543274313273637, 0.00812288669910857, 0.166920415014514, -1.19677284853022, 1.24810160976367, -1.09875146059453], a = 0.2, v = 0.2, t = 0.2)
movej(p[0.543054764446235, 0.00801682011588055, 0.167119937124339, -1.18785121094913, 1.24895596480729, -1.10260272131669], a = 0.2, v = 0.2, t = 0.2)
movej(p[0.542619071004453, 0.00826943202845481, 0.167874746495249, -1.18308987371832, 1.23989126524392, -1.118509767917], a = 0.2, v = 0.2, t = 0.2)
movej(p[0.541534690155353, 0.00898708289740236, 0.169346081536769, -1.18238928598211, 1.2148302036608, -1.14379673919108], a = 0.2, v = 0.2, t = 0.2)
movej(p[0.540264493984477, 0.0100490457896161, 0.170825490810585, -1.1890709853589, 1.18073942170351, -1.16131229923124], a = 0.2, v = 0.2, t = 0.2)
movej(p[0.539077089769481, 0.0111296039396122, 0.171975753756866, -1.19730210763768, 1.15358628846855, -1.17469649796352], a = 0.2, v = 0.2, t = 0.2)
movej(p[0.538196741000817, 0.0114945526417428, 0.17262347409291, -1.19601282338407, 1.14326369592747, -1.18215259479968], a = 0.2, v = 0.2, t = 0.2)
movej(p[0.537609632494316, 0.0117507089200011, 0.173077716598301, -1.19606937638741, 1.12601269581838, -1.18870420222325], a = 0.2, v = 0.2, t = 0.2)
movej(p[0.537347371675627, 0.0121652776148969, 0.1733966117414, -1.1984275708605, 1.11409464089344, -1.19093597635861], a = 0.2, v = 0.2, t = 0.2)
movej(p[0.537279659729561, 0.0126067108586567, 0.173667012638706, -1.20264889302558, 1.10786590696632, -1.19010116516355], a = 0.2, v = 0.2, t = 0.2)
movej(p[0.53722952426236, 0.0129376720143118, 0.173848440030177, -1.2058563594404, 1.10677032357943, -1.19343246162023], a = 0.2, v = 0.2, t = 0.2)
movej(p[0.537150127759663, 0.0130764707321042, 0.173933966174125, -1.20728620619109, 1.10336289805419, -1.19650058277572], a = 0.2, v = 0.2, t = 0.2)
movej(p[0.537217096092553, 0.0135571533293883, 0.174027075051565, -1.2142277413478, 1.0901674236234, -1.19540495163677], a = 0.2, v = 0.2, t = 0.2)
movej(p[0.537211947622267, 0.0136623919293011, 0.174004987264394, -1.21624477946095, 1.09460361052603, -1.1955722602189], a = 0.2, v = 0.2, t = 0.2)
movej(p[0.537284580688339, 0.0135893329192921, 0.173970478732557, -1.21194685073103, 1.10318028938898, -1.19448960635503], a = 0.2, v = 0.2, t = 0.2)
movej(p[0.537375872448757, 0.0134455320766741, 0.173805236138042, -1.2078880508989, 1.10416194549924, -1.19589928376743], a = 0.2, v = 0.2, t = 0.2)
movej(p[0.537930734694776, 0.0136166036662039, 0.173453082245974, -1.21442274218718, 1.09877050932405, -1.18644400105232], a = 0.2, v = 0.2, t = 0.2)
movej(p[0.53879081634513, 0.0136768299133237, 0.172921261977856, -1.22327877237547, 1.10866582462358, -1.17085050488993], a = 0.2, v = 0.2, t = 0.2)
movej(p[0.539677282229314, 0.0131126298269866, 0.172212840790174, -1.22385533569238, 1.13778053508924, -1.15619676931678], a = 0.2, v = 0.2, t = 0.2)
movej(p[0.54046886197939, 0.0124576374266843, 0.171322182806594, -1.22171196984783, 1.16260414186613, -1.14354989279912], a = 0.2, v = 0.2, t = 0.2)
movej(p[0.54124869908502, 0.0117257350758393, 0.17027541851722, -1.21991669762446, 1.17881604739154, -1.13445261260353], a = 0.2, v = 0.2, t = 0.2)
movej(p[0.541904437069498, 0.0109767520701611, 0.169238726057848, -1.21666687205125, 1.19970590150766, -1.12318883617136], a = 0.2, v = 0.2, t = 0.2)
movej(p[0.542361713464421, 0.0101079014363995, 0.168306626703456, -1.2108268304888, 1.22097882124298, -1.11258734004984], a = 0.2, v = 0.2, t = 0.2)
movej(p[0.542514581611675, 0.00918540058604586, 0.167528747104641, -1.1972763072254, 1.23822159781098, -1.10865053321514], a = 0.2, v = 0.2, t = 0.2)
movej(p[0.542644223916636, 0.00866526461247472, 0.166899248501178, -1.18972402739443, 1.24498218912736, -1.1002900716328], a = 0.2, v = 0.2, t = 0.2)
movej(p[0.542681741456154, 0.00836257234563375, 0.166674422978109, -1.18728795064909, 1.24882208579273, -1.10249027292963], a = 0.2, v = 0.2, t = 0.2)
movej(p[0.542369867437874, 0.00805506429625221, 0.166876395566069, -1.17775081193323, 1.25720104767821, -1.105062829355], a = 0.2, v = 0.2, t = 0.2)
movej(p[0.541965886408288, 0.00808879103322038, 0.167401716586921, -1.17872705030472, 1.24793570305888, -1.11510182404444], a = 0.2, v = 0.2, t = 0.2)
movej(p[0.541566829093708, 0.00857385940218247, 0.168260173823545, -1.18224158290025, 1.22833526601743, -1.12418740052051], a = 0.2, v = 0.2, t = 0.2)
movej(p[0.540956820083696, 0.00939091917514816, 0.169427807304183, -1.18779586613348, 1.21213199306041, -1.13877621853877], a = 0.2, v = 0.2, t = 0.2)
movej(p[0.54004524955497, 0.00992715766605801, 0.170603863401707, -1.18847595962125, 1.19397509116002, -1.15766987989405], a = 0.2, v = 0.2, t = 0.2)
movej(p[0.538882320475456, 0.0104357993733917, 0.171699065594675, -1.18530830606609, 1.17476311411626, -1.1753015433322], a = 0.2, v = 0.2, t = 0.2)
movej(p[0.53804265786654, 0.0110327689357311, 0.172500961362058, -1.1879546674554, 1.14456144276802, -1.18622953702339], a = 0.2, v = 0.2, t = 0.2)
movej(p[0.537722490713583, 0.0118364737581997, 0.173040230602613, -1.19105696518353, 1.12430698622455, -1.18817985609676], a = 0.2, v = 0.2, t = 0.2)
movej(p[0.537615841639947, 0.0124465691186293, 0.173373846237101, -1.19447776673356, 1.12291250619574, -1.18755155642812], a = 0.2, v = 0.2, t = 0.2)
movej(p[0.537452958441915, 0.0124673297579484, 0.173484718996849, -1.19313200051116, 1.12713282218736, -1.19011766687278], a = 0.2, v = 0.2, t = 0.2)
movej(p[0.537258064832234, 0.0125311666565123, 0.173591016099759, -1.19214321125583, 1.12804436964046, -1.19416157359737], a = 0.2, v = 0.2, t = 0.2)
movej(p[0.537091703925937, 0.012763369854698, 0.173708723846353, -1.19742102897902, 1.11384031523724, -1.19653816964909], a = 0.2, v = 0.2, t = 0.2)
movej(p[0.537172089637912, 0.0131754256828093, 0.173841557659178, -1.20172454743438, 1.10901190560735, -1.19266816722668], a = 0.2, v = 0.2, t = 0.2)
movej(p[0.537281908036873, 0.0133748726930591, 0.17391030865446, -1.20684911911128, 1.10274357114692, -1.19113411185097], a = 0.2, v = 0.2, t = 0.2)
movej(p[0.537478890251484, 0.0133631250857141, 0.173787632724675, -1.20595140341287, 1.11024441023304, -1.18894789366242], a = 0.2, v = 0.2, t = 0.2)
movej(p[0.53799763713547, 0.0133990755197275, 0.173479110575148, -1.21255378171627, 1.11033124681145, -1.18390947704201], a = 0.2, v = 0.2, t = 0.2)
movej(p[0.538671490086459, 0.0131836568839676, 0.172933505421295, -1.2165839186519, 1.12863209106865, -1.17394573841457], a = 0.2, v = 0.2, t = 0.2)
movej(p[0.539520548074299, 0.0127095298554004, 0.172072745656572, -1.21871658135663, 1.15431093080945, -1.15825820387321], a = 0.2, v = 0.2, t = 0.2)
movej(p[0.540405264271275, 0.011964261368749, 0.170826676644192, -1.2173526245673, 1.17701179580228, -1.14316171817744], a = 0.2, v = 0.2, t = 0.2)
movej(p[0.541424687641951, 0.0112592640525008, 0.169392562344213, -1.21462762474683, 1.19804152511513, -1.1256705980022], a = 0.2, v = 0.2, t = 0.2)
movej(p[0.542366872024341, 0.0102719693409074, 0.168040753391388, -1.20797542172083, 1.22222960578926, -1.1119240657472], a = 0.2, v = 0.2, t = 0.2)
movej(p[0.542775893048325, 0.00899237830044534, 0.167117393120416, -1.19485683506696, 1.2484205990049, -1.10787135071102], a = 0.2, v = 0.2, t = 0.2)
movej(p[0.54265489812953, 0.00813356635151983, 0.166918661653334, -1.19041926342593, 1.24944116581542, -1.11146489643966], a = 0.2, v = 0.2, t = 0.2)
movej(p[0.542232403294985, 0.00811351316625528, 0.167498238632297, -1.19123812112382, 1.23085753693686, -1.12433803555278], a = 0.2, v = 0.2, t = 0.2)
movej(p[0.541672037871989, 0.00892322657233862, 0.168733173562858, -1.19749879715291, 1.19789411525143, -1.14057560304756], a = 0.2, v = 0.2, t = 0.2)
movej(p[0.540939445045949, 0.0101165195934587, 0.170085887213776, -1.20141405905595, 1.17810390184381, -1.14996654104329], a = 0.2, v = 0.2, t = 0.2)
movej(p[0.53999768080474, 0.0107263326236392, 0.17118619923366, -1.19873435411563, 1.17059970862558, -1.16431856253084], a = 0.2, v = 0.2, t = 0.2)
movej(p[0.539114442616222, 0.0110733940567614, 0.171914953986223, -1.19838861797024, 1.16394061472505, -1.17559477611004], a = 0.2, v = 0.2, t = 0.2)
movej(p[0.538392643982975, 0.0114719799255049, 0.17252591564946, -1.19920572763142, 1.14297642440728, -1.19006905977821], a = 0.2, v = 0.2, t = 0.2)
movej(p[0.537989322123184, 0.0120132966577841, 0.172967691683865, -1.20316568235597, 1.12255179390878, -1.19464559154334], a = 0.2, v = 0.2, t = 0.2)
movej(p[0.537896367499545, 0.0127739966003836, 0.173316178110822, -1.21250684131688, 1.10453536886709, -1.19080465072316], a = 0.2, v = 0.2, t = 0.2)
movej(p[0.537807911259251, 0.0129609806280452, 0.173458422762927, -1.21816874536221, 1.1099484605057, -1.1923404158135], a = 0.2, v = 0.2, t = 0.2)
movej(p[0.537730799511233, 0.0129286731866716, 0.173541494219213, -1.21798333979807, 1.11055332086548, -1.19618138881244], a = 0.2, v = 0.2, t = 0.2)
movej(p[0.537631010151125, 0.0127805362275794, 0.173541552187228, -1.21383020234727, 1.11961549541157, -1.19780422654467], a = 0.2, v = 0.2, t = 0.2)
movej(p[0.537641953377626, 0.0128428970881219, 0.173573504585669, -1.21145497570845, 1.11261040048352, -1.19785297466498], a = 0.2, v = 0.2, t = 0.2)
movej(p[0.537916701272928, 0.013157895973101, 0.173419350630842, -1.21519075210257, 1.1084113252763, -1.19210670855607], a = 0.2, v = 0.2, t = 0.2)
movej(p[0.538539106189463, 0.0133252120857873, 0.172967082067256, -1.21993933393022, 1.10826420576201, -1.18349623822585], a = 0.2, v = 0.2, t = 0.2)
movej(p[0.539546229414423, 0.0133430141899419, 0.172235239562796, -1.22794422220106, 1.11493633380838, -1.16822583692694], a = 0.2, v = 0.2, t = 0.2)
movej(p[0.540419741582967, 0.0127434268322911, 0.171438946509423, -1.22813667005583, 1.14958912279945, -1.15357709503603], a = 0.2, v = 0.2, t = 0.2)
movej(p[0.541111497232746, 0.01185957402656, 0.170518761746019, -1.22437650541054, 1.18043672521093, -1.14196316361167], a = 0.2, v = 0.2, t = 0.2)
movej(p[0.541706263197194, 0.0108581616647109, 0.169327534549398, -1.21106885539791, 1.20952184035393, -1.12991132790903], a = 0.2, v = 0.2, t = 0.2)
movej(p[0.542341633356168, 0.00993204828554578, 0.168004802193206, -1.20306491746871, 1.22458417569341, -1.11552384006709], a = 0.2, v = 0.2, t = 0.2)
movej(p[0.542890861521307, 0.00906059674121444, 0.16683907965585, -1.19462310740759, 1.24151626036435, -1.10385285975929], a = 0.2, v = 0.2, t = 0.2)
movej(p[0.542953446494501, 0.00806484599736994, 0.166316157149867, -1.18527811833729, 1.2550691889658, -1.10288629294536], a = 0.2, v = 0.2, t = 0.2)
movej(p[0.542723275668059, 0.0075697647036276, 0.166345124083459, -1.17691990975385, 1.25287638862233, -1.10755297002317], a = 0.2, v = 0.2, t = 0.2)
movej(p[0.542457517763379, 0.00784612696939063, 0.166940873421824, -1.18126878722378, 1.23591806831759, -1.11566552720201], a = 0.2, v = 0.2, t = 0.2)
movej(p[0.541950686653603, 0.00854487072190105, 0.167991703862233, -1.18677247316588, 1.21939423890521, -1.1282005370412], a = 0.2, v = 0.2, t = 0.2)
movej(p[0.54112376079837, 0.00937826683594451, 0.169320231395649, -1.18979439039768, 1.20104941987404, -1.14591485870417], a = 0.2, v = 0.2, t = 0.2)
movej(p[0.540012362433113, 0.0101788185460918, 0.170629888871474, -1.18753558142361, 1.18047054660904, -1.16595293633026], a = 0.2, v = 0.2, t = 0.2)
movej(p[0.539128736459661, 0.0110288794310142, 0.171652695514035, -1.18948781526156, 1.1541293397629, -1.17630120104509], a = 0.2, v = 0.2, t = 0.2)
movej(p[0.538693056120008, 0.0118665303500022, 0.172280987071959, -1.20103547673764, 1.13434193046122, -1.17907738863864], a = 0.2, v = 0.2, t = 0.2)
movej(p[0.53832869094239, 0.0121516682974694, 0.172664904645864, -1.20252700280569, 1.14072132732129, -1.17999191211326], a = 0.2, v = 0.2, t = 0.2)
movej(p[0.538009963440997, 0.0121464079318885, 0.172912903937012, -1.20102984296607, 1.1428835384768, -1.18335202385529], a = 0.2, v = 0.2, t = 0.2)
movej(p[0.53768029678438, 0.0123305171362072, 0.173176803884719, -1.19699344301031, 1.13324815012589, -1.1856838646765], a = 0.2, v = 0.2, t = 0.2)
movej(p[0.53764142589115, 0.0127408188356103, 0.173420822897762, -1.19982180352685, 1.11855453199182, -1.18446927933989], a = 0.2, v = 0.2, t = 0.2)
movej(p[0.537640214319397, 0.0131035935909647, 0.173583766611883, -1.20757793845822, 1.11202840288047, -1.1828412563393], a = 0.2, v = 0.2, t = 0.2)
movej(p[0.5376345169193, 0.0133136773376053, 0.173687331864403, -1.21152473095401, 1.11074400598611, -1.1874259965523], a = 0.2, v = 0.2, t = 0.2)
movej(p[0.537765301329237, 0.0134619111387697, 0.173613158524112, -1.21760106153226, 1.10139375189219, -1.18781542516015], a = 0.2, v = 0.2, t = 0.2)
movej(p[0.538166020195703, 0.0136171058221408, 0.173417915154925, -1.21647461776099, 1.11166024578456, -1.17966080858473], a = 0.2, v = 0.2, t = 0.2)
movej(p[0.538777347345833, 0.0134219497045732, 0.172934561065991, -1.2169275536908, 1.12830424869248, -1.16796570691945], a = 0.2, v = 0.2, t = 0.2)
movej(p[0.539469144038874, 0.0130292192268068, 0.172139740054485, -1.22062101148981, 1.14484027029954, -1.15918098737733], a = 0.2, v = 0.2, t = 0.2)
movej(p[0.54042687548791, 0.0126066603471037, 0.171083174242474, -1.22927439408852, 1.15356415631469, -1.14669394611758], a = 0.2, v = 0.2, t = 0.2)
movej(p[0.541387705944039, 0.011951612524706, 0.169985740055405, -1.23163179972284, 1.17644221837938, -1.13568908730994], a = 0.2, v = 0.2, t = 0.2)
movej(p[0.541987602966248, 0.0109188869605108, 0.169039551362911, -1.22337918072292, 1.20323048090522, -1.1234717132469], a = 0.2, v = 0.2, t = 0.2)
movej(p[0.54217724647692, 0.00997271401841661, 0.16838277816202, -1.20914491273748, 1.21258165942902, -1.12580129409593], a = 0.2, v = 0.2, t = 0.2)
movej(p[0.542115900275167, 0.00988832979789239, 0.168455645211205, -1.20753362423493, 1.19604467154762, -1.13033991443095], a = 0.2, v = 0.2, t = 0.2)
movej(p[0.541618226647532, 0.0102760889239005, 0.169296815006285, -1.19920841720813, 1.18598819174545, -1.14545411248147], a = 0.2, v = 0.2, t = 0.2)
movej(p[0.540740357344336, 0.0107811281161549, 0.170573969992336, -1.19613575008681, 1.17547169423891, -1.15988043362715], a = 0.2, v = 0.2, t = 0.2)
movej(p[0.539608338480496, 0.0114204543182061, 0.171701960799293, -1.19289252840091, 1.15685599899139, -1.17324687091868], a = 0.2, v = 0.2, t = 0.2)
movej(p[0.538943713428287, 0.0119993749164319, 0.172395576163833, -1.19594184030865, 1.13824355792059, -1.17604982401602], a = 0.2, v = 0.2, t = 0.2)
movej(p[0.538573076331475, 0.0124110587525617, 0.172781376313699, -1.20096725226861, 1.12673171186869, -1.17718777736975], a = 0.2, v = 0.2, t = 0.2)
movej(p[0.538372154758789, 0.0126117926626384, 0.17302051397187, -1.20330982679723, 1.12350166113614, -1.18109605967018], a = 0.2, v = 0.2, t = 0.2)
movej(p[0.538241495878677, 0.0128801204490129, 0.173122973833515, -1.20798771159014, 1.11467227577317, -1.18208693918351], a = 0.2, v = 0.2, t = 0.2)
movej(p[0.538251086038816, 0.0131654212110262, 0.173222891950107, -1.21069327448495, 1.11479616507273, -1.18238511442682], a = 0.2, v = 0.2, t = 0.2)
movej(p[0.538294659187446, 0.0132577369764058, 0.173244941684363, -1.21198919118386, 1.11514359768218, -1.18046080544656], a = 0.2, v = 0.2, t = 0.2)
movej(p[0.538212635655437, 0.0132502542343813, 0.173258452201321, -1.21057491845057, 1.11090916032597, -1.18438174876043], a = 0.2, v = 0.2, t = 0.2)
movej(p[0.538268083169598, 0.0134801017852427, 0.173241837470736, -1.21525857886244, 1.09436829825204, -1.18446834363353], a = 0.2, v = 0.2, t = 0.2)
movej(p[0.53853978752876, 0.0138074389989842, 0.173182934306914, -1.22024415220404, 1.09425066658594, -1.17975815239884], a = 0.2, v = 0.2, t = 0.2)
movej(p[0.538991460230357, 0.0134724295888217, 0.172892722221992, -1.22269048248628, 1.11431527371111, -1.17306528686668], a = 0.2, v = 0.2, t = 0.2)
movej(p[0.539452062775087, 0.0131618449932736, 0.172405634247909, -1.22075628086742, 1.12905278879611, -1.1654924595894], a = 0.2, v = 0.2, t = 0.2)
movej(p[0.540163183854001, 0.0128494765187028, 0.171606943526717, -1.22117902448843, 1.13629900297417, -1.15398458238683], a = 0.2, v = 0.2, t = 0.2)
movej(p[0.541103932322436, 0.0125128469818114, 0.170661452313574, -1.22355186126606, 1.15411407074922, -1.14033532585419], a = 0.2, v = 0.2, t = 0.2)
movej(p[0.541931310960568, 0.0117227143155469, 0.169671085568946, -1.22224459914979, 1.18298448196354, -1.12837844343478], a = 0.2, v = 0.2, t = 0.2)
movej(p[0.542427134057585, 0.0106672091349807, 0.168586070365752, -1.21307423179421, 1.20969343375817, -1.12027116216618], a = 0.2, v = 0.2, t = 0.2)
movej(p[0.542730578386883, 0.00985764513230605, 0.167690712848003, -1.20767389976319, 1.21715770625211, -1.1152972976584], a = 0.2, v = 0.2, t = 0.2)
movej(p[0.542812991862539, 0.00935342042984297, 0.167356526448884, -1.19749444458953, 1.22290248553333, -1.11320921903334], a = 0.2, v = 0.2, t = 0.2)
movej(p[0.542561743688282, 0.00912008434421191, 0.167752249693178, -1.19348642127424, 1.2189890034445, -1.12198477032875], a = 0.2, v = 0.2, t = 0.2)
movej(p[0.541898131874435, 0.00952914729254974, 0.168781385861875, -1.18691056931302, 1.20306952303784, -1.13536596921481], a = 0.2, v = 0.2, t = 0.2)
movej(p[0.541159266252051, 0.0104549835257229, 0.169889640764922, -1.19824252341142, 1.17148199141727, -1.14880780460055], a = 0.2, v = 0.2, t = 0.2)
movej(p[0.540307998894967, 0.0112536479620234, 0.170932651900047, -1.20314020210196, 1.15692307316853, -1.16117416080811], a = 0.2, v = 0.2, t = 0.2)
movej(p[0.53956236769007, 0.0116031598083951, 0.171731493736538, -1.20291271239368, 1.14942279231956, -1.17377922035165], a = 0.2, v = 0.2, t = 0.2)
movej(p[0.538986573593024, 0.0118942867235394, 0.172189515659143, -1.20244302418374, 1.13664699170497, -1.18374677790697], a = 0.2, v = 0.2, t = 0.2)
movej(p[0.538829861205314, 0.0124542965003873, 0.172525578808747, -1.20551593834176, 1.12148693081495, -1.18670921552459], a = 0.2, v = 0.2, t = 0.2)
movej(p[0.53871938123947, 0.0127402003362342, 0.172666583101817, -1.20802829645823, 1.12096164888422, -1.18454662252135], a = 0.2, v = 0.2, t = 0.2)
movej(p[0.538614734655663, 0.0128132874335786, 0.1728056238124, -1.20618221579563, 1.12587399455464, -1.18529725977079], a = 0.2, v = 0.2, t = 0.2)
movej(p[0.538439695448159, 0.012916315521977, 0.17287782235004, -1.20354214474788, 1.11845175929297, -1.18643873976999], a = 0.2, v = 0.2, t = 0.2)
movej(p[0.538620938337405, 0.0133587739947229, 0.172938487166805, -1.20959916020194, 1.10538009469883, -1.18152182417696], a = 0.2, v = 0.2, t = 0.2)
movej(p[0.538982629171717, 0.0133974197417206, 0.172763583036455, -1.21458768974041, 1.11512192516071, -1.17401593895497], a = 0.2, v = 0.2, t = 0.2)
movej(p[0.539541651829843, 0.0131442475456271, 0.172331698034831, -1.21789800644226, 1.13059466489158, -1.16330642944815], a = 0.2, v = 0.2, t = 0.2)
movej(p[0.540192274288965, 0.0127639365446301, 0.171587833855624, -1.21811782636232, 1.14510863673468, -1.15366046357318], a = 0.2, v = 0.2, t = 0.2)
movej(p[0.54114507670396, 0.0125272053430358, 0.170730239793045, -1.22401772971281, 1.1479684598313, -1.13996403842933], a = 0.2, v = 0.2, t = 0.2)
movej(p[0.541928460675471, 0.0117747298686684, 0.169816023066194, -1.22475984697345, 1.17176214174652, -1.13108966772144], a = 0.2, v = 0.2, t = 0.2)
movej(p[0.542486523143936, 0.0108406065578398, 0.168817126425115, -1.22117625717616, 1.19606006459196, -1.12117040738874], a = 0.2, v = 0.2, t = 0.2)
movej(p[0.542780324663591, 0.00990339024801429, 0.167840924214892, -1.21015240987025, 1.2153022466995, -1.11365223826718], a = 0.2, v = 0.2, t = 0.2)
movej(p[0.542962930011514, 0.00949157118562686, 0.167410846060059, -1.20789556865816, 1.21575705656016, -1.11185364338013], a = 0.2, v = 0.2, t = 0.2)
movej(p[0.542800951738554, 0.00926966879985113, 0.167721623408455, -1.20522580943018, 1.21098223678106, -1.12121595738433], a = 0.2, v = 0.2, t = 0.2)
movej(p[0.542070004892953, 0.00968718749460237, 0.168877705943587, -1.20825486022279, 1.1911159304551, -1.14205747066412], a = 0.2, v = 0.2, t = 0.2)
movej(p[0.541127756493066, 0.0104959126849957, 0.170109036005278, -1.21115962444923, 1.16227475939679, -1.15909884377927], a = 0.2, v = 0.2, t = 0.2)
movej(p[0.540186803347429, 0.0113349512923955, 0.171214703799752, -1.20950631892234, 1.14662113315173, -1.17084531948332], a = 0.2, v = 0.2, t = 0.2)
movej(p[0.539420329445956, 0.0117021583692954, 0.171925715936734, -1.20407563061295, 1.13864638636195, -1.17713483232493], a = 0.2, v = 0.2, t = 0.2)
movej(p[0.538806502307186, 0.0118841263740897, 0.17237269153287, -1.19885720813614, 1.13768079206568, -1.18531562144149], a = 0.2, v = 0.2, t = 0.2)
movej(p[0.538587252133169, 0.0123564593379958, 0.172616087540746, -1.20452420960485, 1.1197659293381, -1.18529308454457], a = 0.2, v = 0.2, t = 0.2)
movej(p[0.538520078415253, 0.0127694826240891, 0.172788977872445, -1.20861995290187, 1.12057339257313, -1.18513331856546], a = 0.2, v = 0.2, t = 0.2)
movej(p[0.538526827460302, 0.012859590351661, 0.172859106890852, -1.2107188352234, 1.12046039848914, -1.18338437118746], a = 0.2, v = 0.2, t = 0.2)
movej(p[0.538421160531085, 0.0128995046492592, 0.172901173872656, -1.20567541745326, 1.12033700185363, -1.18643320096294], a = 0.2, v = 0.2, t = 0.2)
movej(p[0.538527653860859, 0.0132109297802097, 0.172914539825189, -1.20708510100078, 1.10311280531346, -1.18249619910412], a = 0.2, v = 0.2, t = 0.2)
movej(p[0.538842624726941, 0.0133942017183681, 0.172771715967577, -1.20802399374839, 1.1171517567428, -1.17330450177774], a = 0.2, v = 0.2, t = 0.2)
movej(p[0.539438448149096, 0.0131581302013241, 0.172364770353333, -1.21166097465188, 1.13549564634294, -1.15902665932123], a = 0.2, v = 0.2, t = 0.2)
movej(p[0.540164210400497, 0.0127071739604275, 0.171494643044925, -1.21619150151187, 1.1557553354523, -1.14660003087103], a = 0.2, v = 0.2, t = 0.2)
movej(p[0.54120496466464, 0.0122138349153774, 0.170428677830532, -1.2221890762396, 1.16829316459048, -1.13303543260965], a = 0.2, v = 0.2, t = 0.2)
movej(p[0.542145923846024, 0.0114646552375925, 0.169329922189198, -1.21648103312328, 1.19614232847714, -1.11894349683671], a = 0.2, v = 0.2, t = 0.2)
movej(p[0.54278613173091, 0.0104863458499559, 0.168252361269482, -1.20457350711431, 1.22631214963484, -1.10730126156967], a = 0.2, v = 0.2, t = 0.2)
movej(p[0.54307964534099, 0.0095617316708898, 0.167245185365345, -1.19524392432539, 1.24380832293923, -1.10034150261658], a = 0.2, v = 0.2, t = 0.2)
movej(p[0.543144083885903, 0.00877536180317747, 0.16644322998212, -1.19160748247607, 1.25035115681263, -1.10003264614682], a = 0.2, v = 0.2, t = 0.2)
movej(p[0.542991557170712, 0.00819585526472543, 0.16630633227197, -1.1875638909535, 1.24984578758493, -1.10051822491193], a = 0.2, v = 0.2, t = 0.2)
movej(p[0.542532688703073, 0.00814759888458251, 0.166879749006276, -1.18083975350581, 1.24286731809462, -1.10850420643414], a = 0.2, v = 0.2, t = 0.2)
movej(p[0.541951716304186, 0.00883965629008911, 0.167968757215251, -1.18278296841028, 1.22051311322378, -1.12190372231175], a = 0.2, v = 0.2, t = 0.2)
movej(p[0.541315672448822, 0.00993442815310381, 0.169182277463786, -1.18770625365004, 1.19845065247643, -1.13541614479308], a = 0.2, v = 0.2, t = 0.2)
movej(p[0.540619940028854, 0.0104634631225364, 0.170074539012057, -1.1858694332057, 1.19871408765392, -1.1463847222191], a = 0.2, v = 0.2, t = 0.2)
movej(p[0.540205370939451, 0.0105099512072065, 0.170333498116348, -1.18154352994938, 1.2009797984433, -1.14400674500173], a = 0.2, v = 0.2, t = 0.2)
movej(p[0.540220318344846, 0.0104297590174465, 0.170110566307531, -1.18357985454574, 1.20019447774921, -1.13864468310501], a = 0.2, v = 0.2, t = 0.2)
movej(p[0.540676056820275, 0.0102757047894377, 0.169730973643936, -1.18588760389092, 1.19913393568775, -1.13401761125832], a = 0.2, v = 0.2, t = 0.2)
movej(p[0.540999253473329, 0.00998587178291811, 0.169470777856332, -1.1850918362057, 1.20222701219089, -1.13627123866531], a = 0.2, v = 0.2, t = 0.2)
movej(p[0.541009816897841, 0.00961010211956243, 0.16947229807478, -1.17352876618731, 1.20929494501265, -1.14625868370711], a = 0.2, v = 0.2, t = 0.2)
movej(p[0.540760975710885, 0.00963861725852353, 0.16969482008296, -1.17131639149286, 1.19619430779347, -1.14992390239117], a = 0.2, v = 0.2, t = 0.2)
movej(p[0.540480730614594, 0.00998780195855653, 0.16998699486912, -1.17391620534844, 1.1901447660295, -1.1521151415436], a = 0.2, v = 0.2, t = 0.2)
movej(p[0.54027577836047, 0.0101737690835082, 0.170158884312852, -1.17874977086631, 1.18780470558107, -1.14938575874505], a = 0.2, v = 0.2, t = 0.2)
movej(p[0.539976290404775, 0.0104966744789169, 0.170445592279972, -1.18556255340349, 1.17516642913157, -1.15835009852488], a = 0.2, v = 0.2, t = 0.2)
movej(p[0.539668692632033, 0.0110885286079431, 0.170968294114921, -1.1933522101202, 1.15501060744199, -1.16608752746481], a = 0.2, v = 0.2, t = 0.2)
movej(p[0.539224833625455, 0.0116289060381141, 0.171681242857146, -1.19479823111368, 1.14784623091757, -1.17572260234135], a = 0.2, v = 0.2, t = 0.2)
movej(p[0.538789292072767, 0.0118990385695797, 0.1722568106153, -1.19446029920856, 1.14835735635983, -1.18180024234732], a = 0.2, v = 0.2, t = 0.2)
movej(p[0.538396704704971, 0.0120955940591746, 0.172564847779692, -1.19323482070712, 1.13966691903091, -1.18671816119963], a = 0.2, v = 0.2, t = 0.2)
movej(p[0.538306192351909, 0.0125259979373631, 0.172740108264948, -1.19892405125158, 1.12493942263439, -1.18731611353785], a = 0.2, v = 0.2, t = 0.2)
movej(p[0.538275767726924, 0.0127202725824249, 0.172821002693561, -1.19976696265202, 1.12552729854665, -1.18621393282765], a = 0.2, v = 0.2, t = 0.2)
movej(p[0.538319249094279, 0.0127603350215549, 0.172889194290286, -1.19743152376945, 1.13369453785957, -1.18569365512309], a = 0.2, v = 0.2, t = 0.2)
movej(p[0.53843264255369, 0.0127152652353242, 0.172750379734807, -1.19969810675616, 1.12832758765032, -1.1826178560945], a = 0.2, v = 0.2, t = 0.2)
movej(p[0.539176864611507, 0.0128009305123493, 0.172288756985702, -1.20500552534334, 1.13514738897488, -1.16960362243432], a = 0.2, v = 0.2, t = 0.2)
movej(p[0.540139951107803, 0.0123185564068341, 0.171416497643544, -1.21171666194726, 1.15708343747932, -1.1528320242891], a = 0.2, v = 0.2, t = 0.2)
movej(p[0.541185132395851, 0.0115555670479178, 0.170218672959672, -1.20934762992734, 1.191421569825, -1.13490934857187], a = 0.2, v = 0.2, t = 0.2)
movej(p[0.541975434668333, 0.0107155305454006, 0.168955787775599, -1.2085604781081, 1.20730733255961, -1.11955679248009], a = 0.2, v = 0.2, t = 0.2)
movej(p[0.542639002684035, 0.00998003128671442, 0.167863186590808, -1.20146284119132, 1.22561557307681, -1.10507381812564], a = 0.2, v = 0.2, t = 0.2)
movej(p[0.542958794779001, 0.00891643074580635, 0.167036984502347, -1.18968737675669, 1.24653731671108, -1.0966257226559], a = 0.2, v = 0.2, t = 0.2)
movej(p[0.54294364867828, 0.00801944119114604, 0.16654311449469, -1.1763937139632, 1.26202173108053, -1.0929516876151], a = 0.2, v = 0.2, t = 0.2)
movej(p[0.542787938297907, 0.00757039806607149, 0.166380502935238, -1.17041307922215, 1.26379131886113, -1.09332984811442], a = 0.2, v = 0.2, t = 0.2)
movej(p[0.542551683486234, 0.00760117203244949, 0.166622383209247, -1.16431547499444, 1.26572555322968, -1.09580801858532], a = 0.2, v = 0.2, t = 0.2)
movej(p[0.542201020782276, 0.00763414627677191, 0.167146766196446, -1.16384147217966, 1.26103171947022, -1.10492608597465], a = 0.2, v = 0.2, t = 0.2)
movej(p[0.541637528681351, 0.00787803540319953, 0.16801899492574, -1.16642103541494, 1.24127975110667, -1.12122927391889], a = 0.2, v = 0.2, t = 0.2)
movej(p[0.540900635928986, 0.00868944306506769, 0.169229168970154, -1.17951297761107, 1.20680354771456, -1.13721713637185], a = 0.2, v = 0.2, t = 0.2)
movej(p[0.539859736626282, 0.00962200718828627, 0.170565112926806, -1.1820360310383, 1.18542845129646, -1.15437206676276], a = 0.2, v = 0.2, t = 0.2)
movej(p[0.538787331978279, 0.010397074553349, 0.171746901745208, -1.18398044415809, 1.16520091245062, -1.17010999429043], a = 0.2, v = 0.2, t = 0.2)
movej(p[0.537972072496626, 0.0110766140800052, 0.172579769082475, -1.18526520921459, 1.1497058814235, -1.18089460555533], a = 0.2, v = 0.2, t = 0.2)
movej(p[0.537607478262053, 0.0117074627698654, 0.173126332500861, -1.18991364408128, 1.13671308973144, -1.18512021525494], a = 0.2, v = 0.2, t = 0.2)
movej(p[0.537440196499279, 0.0121810039109299, 0.173466654272957, -1.19144592046854, 1.13352693278438, -1.1850976734793], a = 0.2, v = 0.2, t = 0.2)
movej(p[0.537298196484196, 0.0124458215613847, 0.173651135524644, -1.18929377024592, 1.1313189229935, -1.18755719855348], a = 0.2, v = 0.2, t = 0.2)
movej(p[0.53724557540688, 0.0127901955994037, 0.173779812500676, -1.19434855613446, 1.11264979809761, -1.18991205588449], a = 0.2, v = 0.2, t = 0.2)
movej(p[0.537398298338696, 0.0132843589686278, 0.173916164440576, -1.20086236893393, 1.10846351721633, -1.18933755577348], a = 0.2, v = 0.2, t = 0.2)
movej(p[0.537782297419804, 0.0131238011780806, 0.173736032953869, -1.20342482496803, 1.12256410905298, -1.18225249389094], a = 0.2, v = 0.2, t = 0.2)
movej(p[0.538386032534205, 0.0128252634104566, 0.173221562729899, -1.20617146802865, 1.13936061532826, -1.17259375370864], a = 0.2, v = 0.2, t = 0.2)
movej(p[0.53934356054144, 0.0124158912157688, 0.172282616600315, -1.20994536512945, 1.15476794762632, -1.1564616085374], a = 0.2, v = 0.2, t = 0.2)
movej(p[0.54049796797955, 0.011953505664446, 0.171233080073431, -1.2117180320202, 1.17662223744402, -1.14024427753608], a = 0.2, v = 0.2, t = 0.2)
movej(p[0.541548425493063, 0.0111005262300812, 0.169901337355427, -1.20557067584541, 1.21091432354738, -1.12003454786004], a = 0.2, v = 0.2, t = 0.2)
movej(p[0.542416479007374, 0.00986053329454852, 0.168366835374777, -1.19733289904348, 1.24090243320929, -1.10586592363599], a = 0.2, v = 0.2, t = 0.2)
movej(p[0.542961158318288, 0.00887419597767942, 0.167170126111332, -1.19037610503256, 1.25167402425097, -1.09543070117456], a = 0.2, v = 0.2, t = 0.2)
movej(p[0.5431736735036, 0.008182451783224, 0.166688359035403, -1.18645087796027, 1.25656985428208, -1.09703002143244], a = 0.2, v = 0.2, t = 0.2)
movej(p[0.54279603340514, 0.00778331947092539, 0.167095845898154, -1.17213105427482, 1.2608657183014, -1.10661879575637], a = 0.2, v = 0.2, t = 0.2)
movej(p[0.542159555981956, 0.00784364954678924, 0.167818092436203, -1.16645954927977, 1.25250689506043, -1.12129713081939], a = 0.2, v = 0.2, t = 0.2)
movej(p[0.541647639341284, 0.00833499139912238, 0.168599728283096, -1.17033130484321, 1.22860745140654, -1.13244133587975], a = 0.2, v = 0.2, t = 0.2)
movej(p[0.540861325494602, 0.00902602203337567, 0.169612652291618, -1.17408559212842, 1.21261335115996, -1.14670644069708], a = 0.2, v = 0.2, t = 0.2)
movej(p[0.53989009594578, 0.00973493091733984, 0.170756233796248, -1.1769482259824, 1.19210463024928, -1.16472530694141], a = 0.2, v = 0.2, t = 0.2)
movej(p[0.538708588168036, 0.0105996795803581, 0.171905692094726, -1.17952790697741, 1.16747964012647, -1.18288312070803], a = 0.2, v = 0.2, t = 0.2)
movej(p[0.538029853362067, 0.011590121250315, 0.172752517287182, -1.1911878584505, 1.13767658811443, -1.18908567277751], a = 0.2, v = 0.2, t = 0.2)
movej(p[0.537619447780043, 0.012269125536164, 0.173262158711855, -1.19583408045135, 1.13263849776812, -1.18751170865685], a = 0.2, v = 0.2, t = 0.2)
movej(p[0.537489343376547, 0.0124947888561016, 0.173512704158282, -1.19810398111425, 1.12786167475551, -1.18708666158001], a = 0.2, v = 0.2, t = 0.2)
movej(p[0.537254123483414, 0.0126822022600817, 0.173673998942709, -1.19571407112302, 1.12117120613656, -1.19172088118494], a = 0.2, v = 0.2, t = 0.2)
movej(p[0.537277071492077, 0.0132415917954014, 0.173823250397218, -1.20557572810834, 1.09716407354974, -1.19441453881213], a = 0.2, v = 0.2, t = 0.2)
movej(p[0.537277124848667, 0.0135191802952904, 0.173849690364738, -1.21001963382101, 1.10299787012759, -1.19303493942351], a = 0.2, v = 0.2, t = 0.2)
movej(p[0.53734970427971, 0.0135217577622827, 0.173843029850247, -1.21076710384238, 1.10796477262561, -1.19261582739266], a = 0.2, v = 0.2, t = 0.2)
movej(p[0.537424348503382, 0.013522036095473, 0.17372624041578, -1.20963210382287, 1.11050965007982, -1.19088398336942], a = 0.2, v = 0.2, t = 0.2)
movej(p[0.537891816905232, 0.0136295929603888, 0.173522672794137, -1.21202132102311, 1.10488010621299, -1.18496731548799], a = 0.2, v = 0.2, t = 0.2)
movej(p[0.538599233231905, 0.013453539502049, 0.172996510426076, -1.21709841028438, 1.12092876785604, -1.17172425625537], a = 0.2, v = 0.2, t = 0.2)
movej(p[0.539490256700708, 0.0130156805043285, 0.17214487800193, -1.21813015026382, 1.14419816618735, -1.15951989682934], a = 0.2, v = 0.2, t = 0.2)
movej(p[0.540405964439834, 0.012373237434781, 0.171007054323457, -1.22072304387449, 1.16389396556325, -1.14749383448327], a = 0.2, v = 0.2, t = 0.2)
movej(p[0.541555740094969, 0.0116969135613149, 0.169647872297001, -1.22198239234973, 1.1819485772645, -1.1277888154287], a = 0.2, v = 0.2, t = 0.2)
movej(p[0.542459294294545, 0.0105220783803807, 0.168446962789291, -1.21908690790707, 1.21116975879981, -1.11600988781188], a = 0.2, v = 0.2, t = 0.2)
movej(p[0.542830282314962, 0.0093142761504205, 0.167563548611087, -1.20833642950256, 1.23758312994237, -1.10506372850984], a = 0.2, v = 0.2, t = 0.2)
movej(p[0.542853012623303, 0.00855030336041671, 0.167148026085565, -1.19760334020611, 1.24603715280066, -1.10733054741183], a = 0.2, v = 0.2, t = 0.2)
movej(p[0.542657189234604, 0.0084199601599072, 0.167282996825058, -1.19248387583124, 1.24228094466848, -1.11020187793964], a = 0.2, v = 0.2, t = 0.2)
movej(p[0.542063202959202, 0.00860807323270195, 0.16809158470926, -1.18972017927068, 1.22936424212379, -1.12884241013067], a = 0.2, v = 0.2, t = 0.2)
movej(p[0.540967984082955, 0.00922442187522834, 0.169461146983845, -1.18974940374128, 1.20656919353374, -1.15248750648419], a = 0.2, v = 0.2, t = 0.2)
movej(p[0.539667142743245, 0.0102333796790522, 0.170976707251174, -1.19306322802176, 1.17593825475063, -1.17159634702352], a = 0.2, v = 0.2, t = 0.2)
movej(p[0.538585888921732, 0.0111414593830245, 0.172097763363996, -1.1928268174827, 1.15749551489073, -1.18182822327216], a = 0.2, v = 0.2, t = 0.2)
movej(p[0.53781224909794, 0.0118136432139862, 0.172888966926574, -1.19435353034132, 1.14238871777636, -1.19089691676148], a = 0.2, v = 0.2, t = 0.2)
movej(p[0.537309809555607, 0.012242534802212, 0.173289188290759, -1.19484824414134, 1.12669366316321, -1.19979623470137], a = 0.2, v = 0.2, t = 0.2)
movej(p[0.537184543933175, 0.0129054156766609, 0.173560866998291, -1.20501582976396, 1.10482073341828, -1.20170072007637], a = 0.2, v = 0.2, t = 0.2)
movej(p[0.53717929820302, 0.0134069518339959, 0.173722976514363, -1.21148198156008, 1.1057068073752, -1.20038996747072], a = 0.2, v = 0.2, t = 0.2)
movej(p[0.537207252670701, 0.013396094001556, 0.173777906153096, -1.20881649869758, 1.11134035722657, -1.19878038220516], a = 0.2, v = 0.2, t = 0.2)
movej(p[0.537176361965585, 0.0134316400211754, 0.173841657818381, -1.20492021521084, 1.1123476508666, -1.19996769550177], a = 0.2, v = 0.2, t = 0.2)
movej(p[0.537433340880278, 0.0136081611612397, 0.173720997534469, -1.20740142493377, 1.10279372905094, -1.19526188586135], a = 0.2, v = 0.2, t = 0.2)
movej(p[0.538042938438542, 0.0136765693503436, 0.173349374890351, -1.21252408573152, 1.11296806797706, -1.18521403589887], a = 0.2, v = 0.2, t = 0.2)
movej(p[0.538952065383781, 0.0133313684155349, 0.172607465118918, -1.21753514994318, 1.13293438895338, -1.17214730844376], a = 0.2, v = 0.2, t = 0.2)
movej(p[0.539912455418213, 0.0125939486673752, 0.171492379881597, -1.21789500878798, 1.15568796574142, -1.15961206572664], a = 0.2, v = 0.2, t = 0.2)
movej(p[0.541032930780166, 0.011886251607314, 0.170208584830027, -1.22094581772853, 1.17221158004087, -1.14227448017931], a = 0.2, v = 0.2, t = 0.2)
movej(p[0.541936796414369, 0.0108549904540352, 0.168980838516392, -1.21206761565096, 1.20236572008532, -1.13098997508896], a = 0.2, v = 0.2, t = 0.2)
movej(p[0.54243253948218, 0.00968612992526282, 0.167974372779322, -1.20402755609722, 1.22967978608646, -1.11958360309804], a = 0.2, v = 0.2, t = 0.2)
movej(p[0.542544893582292, 0.00868633314431431, 0.167241122135209, -1.1883373386954, 1.24756229963976, -1.11375441363974], a = 0.2, v = 0.2, t = 0.2)
movej(p[0.542483228306167, 0.00841302021872272, 0.167045080868061, -1.18840172272733, 1.24030886632074, -1.11196597402343], a = 0.2, v = 0.2, t = 0.2)
movej(p[0.542232705636956, 0.00849824564087211, 0.167483081404168, -1.18284345929439, 1.23489763079733, -1.11875839003046], a = 0.2, v = 0.2, t = 0.2)
movej(p[0.541628250653851, 0.00905127089777147, 0.168548080450473, -1.18865875617181, 1.21794436228614, -1.13723964121903], a = 0.2, v = 0.2, t = 0.2)
movej(p[0.540763664040919, 0.00981614866819681, 0.16983058299049, -1.19013711771883, 1.19506743434508, -1.1532172537151], a = 0.2, v = 0.2, t = 0.2)
movej(p[0.539940184164233, 0.0108284870838722, 0.170943895473506, -1.19941567577151, 1.17118583710284, -1.16291965578411], a = 0.2, v = 0.2, t = 0.2)
movej(p[0.539003248147857, 0.0114372722086051, 0.171848642393602, -1.20022702413853, 1.15723341248734, -1.17320498409282], a = 0.2, v = 0.2, t = 0.2)
movej(p[0.538238755671122, 0.0118093540601034, 0.172503008670901, -1.19762811877235, 1.15273517321953, -1.18271363168642], a = 0.2, v = 0.2, t = 0.2)
movej(p[0.537711543606136, 0.0121288641897175, 0.172935064771206, -1.19215460035883, 1.13852874173685, -1.19198952986241], a = 0.2, v = 0.2, t = 0.2)
movej(p[0.537546474240965, 0.0127904280176528, 0.173309108837393, -1.19687380656207, 1.12409715192344, -1.19376973755261], a = 0.2, v = 0.2, t = 0.2)
movej(p[0.537425770439153, 0.0130878795295002, 0.17351340248396, -1.20062610522694, 1.11946872354101, -1.19515395679186], a = 0.2, v = 0.2, t = 0.2)
movej(p[0.537315093669187, 0.0132129789757735, 0.173644749079013, -1.20479404519905, 1.11784902271161, -1.19705860048764], a = 0.2, v = 0.2, t = 0.2)
movej(p[0.537172007716633, 0.0133318039056599, 0.173727210622894, -1.20484077567457, 1.10840031772877, -1.20083275702786], a = 0.2, v = 0.2, t = 0.2)
movej(p[0.537276746571193, 0.0138564929383476, 0.173831424064074, -1.21194848815056, 1.09668424468337, -1.19643451530441], a = 0.2, v = 0.2, t = 0.2)
movej(p[0.537350853962885, 0.0139528378134826, 0.173811061502056, -1.21457554200766, 1.10206911205382, -1.19256621555347], a = 0.2, v = 0.2, t = 0.2)
movej(p[0.537522433705245, 0.0138379053115932, 0.173727894375612, -1.21574456254685, 1.11240226580472, -1.18897525870336], a = 0.2, v = 0.2, t = 0.2)
movej(p[0.537796064170794, 0.0136346798087542, 0.173416817007231, -1.21597831917983, 1.1129270246295, -1.18790192381358], a = 0.2, v = 0.2, t = 0.2)
movej(p[0.53851333773578, 0.0136267469416003, 0.172866459274487, -1.22032772819655, 1.11132870377891, -1.17948916312185], a = 0.2, v = 0.2, t = 0.2)
movej(p[0.539688712132132, 0.0134524360953928, 0.171936515482478, -1.23019713465765, 1.12493083354287, -1.15952296034311], a = 0.2, v = 0.2, t = 0.2)
movej(p[0.540826377169175, 0.0127372415001878, 0.17097339073221, -1.23122736112419, 1.15904978957883, -1.14221719613065], a = 0.2, v = 0.2, t = 0.2)
movej(p[0.541661531360658, 0.0117327595234414, 0.17005248393191, -1.2274530577877, 1.19011476614852, -1.13020195058542], a = 0.2, v = 0.2, t = 0.2)
movej(p[0.542109902685383, 0.0107301421400549, 0.16908031465339, -1.21393597005471, 1.21702539602423, -1.1186726773909], a = 0.2, v = 0.2, t = 0.2)
movej(p[0.542507175121105, 0.00974266539880193, 0.167998865260493, -1.20315924473093, 1.23230806808079, -1.10948679565481], a = 0.2, v = 0.2, t = 0.2)
movej(p[0.543015776338501, 0.0090004718792137, 0.166900828416281, -1.19569838203211, 1.2422735581286, -1.09570719595759], a = 0.2, v = 0.2, t = 0.2)
movej(p[0.543224341717841, 0.00833455297256086, 0.166406140289981, -1.19165483564951, 1.25041494537074, -1.09516384544198], a = 0.2, v = 0.2, t = 0.2)
movej(p[0.543011937992853, 0.00788221730255485, 0.166568808539039, -1.18416782947917, 1.25405018181544, -1.10102393280568], a = 0.2, v = 0.2, t = 0.2)
movej(p[0.54230412445667, 0.00829289266027119, 0.167704862885697, -1.18511764591602, 1.23420565797929, -1.12090222027025], a = 0.2, v = 0.2, t = 0.2)
movej(p[0.541430681380238, 0.00919280017687148, 0.169143333501941, -1.18840232916229, 1.20803851663431, -1.14034153815949], a = 0.2, v = 0.2, t = 0.2)
movej(p[0.540441583908243, 0.0103984765507685, 0.17060274287743, -1.19561282816962, 1.17645366928974, -1.15574560452544], a = 0.2, v = 0.2, t = 0.2)
movej(p[0.539325049602077, 0.011186591298307, 0.17172668969509, -1.19688331779422, 1.16432680401674, -1.165649780467], a = 0.2, v = 0.2, t = 0.2)
movej(p[0.538403594576336, 0.0114270685233571, 0.172432828480032, -1.19547950431147, 1.15315115990605, -1.17667265671962], a = 0.2, v = 0.2, t = 0.2)
movej(p[0.537693130536599, 0.0118079478331687, 0.172959312473565, -1.19814344405972, 1.13805727415561, -1.18710581610534], a = 0.2, v = 0.2, t = 0.2)
movej(p[0.537408358515475, 0.0123383044083186, 0.173315089928837, -1.20179208699189, 1.12193881780195, -1.19507094572423], a = 0.2, v = 0.2, t = 0.2)
movej(p[0.537286851232345, 0.0128076975333475, 0.173559061173295, -1.20533872101002, 1.11894974974615, -1.19535096701577], a = 0.2, v = 0.2, t = 0.2)
movej(p[0.537214624570966, 0.0131019688353045, 0.173767719315313, -1.2040175382606, 1.11603590477407, -1.19524183254884], a = 0.2, v = 0.2, t = 0.2)
movej(p[0.537131877910833, 0.013326398437315, 0.173845184558992, -1.20830317648316, 1.10541240058899, -1.19415679968647], a = 0.2, v = 0.2, t = 0.2)
movej(p[0.537216978385116, 0.0136844693926144, 0.173916470954943, -1.21374749143038, 1.10061507750068, -1.19293909060759], a = 0.2, v = 0.2, t = 0.2)
movej(p[0.537393039145213, 0.0137295736363966, 0.173763781683718, -1.21755514059631, 1.10664252504253, -1.18798365514227], a = 0.2, v = 0.2, t = 0.2)
movej(p[0.537754694509147, 0.0135731173844819, 0.173425428831249, -1.21620329296482, 1.12359909774197, -1.18334560626322], a = 0.2, v = 0.2, t = 0.2)
movej(p[0.538395170438824, 0.0134117141581268, 0.17279661803874, -1.22178082038242, 1.12520236985368, -1.17395077509598], a = 0.2, v = 0.2, t = 0.2)
movej(p[0.539402593518922, 0.013401946406624, 0.172070329159666, -1.22834080865769, 1.13621261447615, -1.15840851734378], a = 0.2, v = 0.2, t = 0.2)
movej(p[0.540315643578951, 0.0127678998852932, 0.171211345860837, -1.23059120295023, 1.16386509219678, -1.14300783178887], a = 0.2, v = 0.2, t = 0.2)
movej(p[0.541001111234317, 0.0118828876587604, 0.170232300865785, -1.22194264416733, 1.19462034807796, -1.13347849631843], a = 0.2, v = 0.2, t = 0.2)
movej(p[0.541562797109291, 0.0108529766933151, 0.168973080380719, -1.21246596570435, 1.21359209644527, -1.12604901196614], a = 0.2, v = 0.2, t = 0.2)
movej(p[0.542131901727647, 0.00992276281984072, 0.167829608031704, -1.20312134383598, 1.2248174780716, -1.12171938357345], a = 0.2, v = 0.2, t = 0.2)
movej(p[0.542463517029951, 0.00899635171762147, 0.167024703233692, -1.1962858890087, 1.23719206286594, -1.11495619073247], a = 0.2, v = 0.2, t = 0.2)
movej(p[0.542499040911052, 0.0083076877920487, 0.166723806139179, -1.18897469979907, 1.24328485504157, -1.11476658913775], a = 0.2, v = 0.2, t = 0.2)
movej(p[0.542402253298045, 0.00836512418061749, 0.166962247555961, -1.19101222914021, 1.23512334163322, -1.11422735106411], a = 0.2, v = 0.2, t = 0.2)
movej(p[0.541909425320718, 0.00889174140529573, 0.167896448408794, -1.1911834712733, 1.21832147860543, -1.1313034209937], a = 0.2, v = 0.2, t = 0.2)
movej(p[0.540856434253287, 0.00962788049535271, 0.169359349157991, -1.19374905959588, 1.19698769273116, -1.15419566144943], a = 0.2, v = 0.2, t = 0.2)
movej(p[0.539425726129687, 0.0104654334223081, 0.170953330319397, -1.18973808793587, 1.16941800326123, -1.18132724909057], a = 0.2, v = 0.2, t = 0.2)
movej(p[0.538411755053723, 0.0114230463229738, 0.172048276462826, -1.19958719640206, 1.13585077902324, -1.18753406135539], a = 0.2, v = 0.2, t = 0.2)
movej(p[0.537826520851269, 0.0119899113451152, 0.172686766844959, -1.20325216217397, 1.12253460330718, -1.19180417219314], a = 0.2, v = 0.2, t = 0.2)
movej(p[0.537519315230881, 0.0122990490829356, 0.173078364547783, -1.20831018159985, 1.11777722676257, -1.19442807594471], a = 0.2, v = 0.2, t = 0.2)
movej(p[0.53722302865733, 0.0125659707583853, 0.173341574075552, -1.20407267905478, 1.11232754431909, -1.19970892229742], a = 0.2, v = 0.2, t = 0.2)
movej(p[0.53718724929875, 0.0131421548195525, 0.173597497985448, -1.20818580448745, 1.10338215672591, -1.19778150667434], a = 0.2, v = 0.2, t = 0.2)
movej(p[0.53717326396557, 0.0133870281979423, 0.173705319314562, -1.2104492312084, 1.10352849507693, -1.1939221630534], a = 0.2, v = 0.2, t = 0.2)
movej(p[0.537166547841851, 0.0134736033301363, 0.173790316668449, -1.21050196470316, 1.10914613859175, -1.19506616850888], a = 0.2, v = 0.2, t = 0.2)
movej(p[0.537171362232826, 0.013525932686241, 0.173742991937818, -1.20835957133293, 1.10452951666539, -1.19639075249863], a = 0.2, v = 0.2, t = 0.2)
movej(p[0.537609555979434, 0.013839518974257, 0.173548096471473, -1.21215561903174, 1.10140467691035, -1.18742251118515], a = 0.2, v = 0.2, t = 0.2)
movej(p[0.538256604586127, 0.013673342430792, 0.173071050617304, -1.21520991695197, 1.11702738813267, -1.17664151512204], a = 0.2, v = 0.2, t = 0.2)
movej(p[0.53898979230583, 0.0133522052680911, 0.172453348831886, -1.21583316990436, 1.13775000485721, -1.16650420046167], a = 0.2, v = 0.2, t = 0.2)
movej(p[0.539825740742595, 0.0129051960989495, 0.171552172283882, -1.21868903112762, 1.1517412001198, -1.15606374733723], a = 0.2, v = 0.2, t = 0.2)
movej(p[0.540908638982871, 0.0125158588781002, 0.170532618661129, -1.22417544981392, 1.1620008080525, -1.1410715879216], a = 0.2, v = 0.2, t = 0.2)
movej(p[0.541771413947396, 0.0115051445843306, 0.169431039391644, -1.22205265800686, 1.18821546525971, -1.1260675618313], a = 0.2, v = 0.2, t = 0.2)
movej(p[0.54232010777473, 0.0102799294074948, 0.168345188759238, -1.21307083438177, 1.21472580255561, -1.11520768350836], a = 0.2, v = 0.2, t = 0.2)
movej(p[0.542570108883805, 0.00927247781025924, 0.167411892241357, -1.1995044780599, 1.2308217284191, -1.1071327608777], a = 0.2, v = 0.2, t = 0.2)
movej(p[0.542641347494744, 0.00883292802091239, 0.16709134024402, -1.19274774017607, 1.22982037468866, -1.10836985320185], a = 0.2, v = 0.2, t = 0.2)
movej(p[0.542402606776451, 0.00873376686274162, 0.167517852323731, -1.19336298263743, 1.21944233257198, -1.12609964632254], a = 0.2, v = 0.2, t = 0.2)
movej(p[0.541365801874555, 0.00934694057948961, 0.168921938321273, -1.19483894444291, 1.1983136396818, -1.14902176297854], a = 0.2, v = 0.2, t = 0.2)
movej(p[0.540114254448541, 0.0103729956364593, 0.170505290020667, -1.19995748395342, 1.17208967812262, -1.17032291516194], a = 0.2, v = 0.2, t = 0.2)
movej(p[0.538869595503596, 0.0112340361000411, 0.171783935194174, -1.19605324496911, 1.15939798018376, -1.17929828744389], a = 0.2, v = 0.2, t = 0.2)
movej(p[0.538083197268744, 0.0117191782468773, 0.172561648810469, -1.19437822082182, 1.14638998991403, -1.18494313028511], a = 0.2, v = 0.2, t = 0.2)
movej(p[0.537555426650537, 0.0120138991258211, 0.173007455234375, -1.19142053048244, 1.13442029975602, -1.19042809938282], a = 0.2, v = 0.2, t = 0.2)
movej(p[0.537444448229626, 0.0126579411398092, 0.173325545674361, -1.19845863632195, 1.11468647268703, -1.19047590196867], a = 0.2, v = 0.2, t = 0.2)
movej(p[0.537349288200577, 0.0130968432361506, 0.17351397173386, -1.20453280030443, 1.11849200508156, -1.19105728144544], a = 0.2, v = 0.2, t = 0.2)
movej(p[0.537366157374219, 0.0131186047110763, 0.173579641812204, -1.20693314827955, 1.12369505649882, -1.19108753269245], a = 0.2, v = 0.2, t = 0.2)
movej(p[0.537244269903141, 0.0132294891608751, 0.173650102391163, -1.20835255673915, 1.11548473885541, -1.19383981952956], a = 0.2, v = 0.2, t = 0.2)
movej(p[0.537293454006451, 0.0135259920708672, 0.173756258259337, -1.21028714343714, 1.10281411901123, -1.19276574427688], a = 0.2, v = 0.2, t = 0.2)
movej(p[0.537364250789182, 0.0137457620764685, 0.173802248722402, -1.21088541035845, 1.10763254498576, -1.19082059723781], a = 0.2, v = 0.2, t = 0.2)
movej(p[0.537540939650305, 0.0137885746262303, 0.173704286462128, -1.21105199735769, 1.1123398364573, -1.18902621161996], a = 0.2, v = 0.2, t = 0.2)
movej(p[0.537847218570097, 0.0136164959715912, 0.173303651688789, -1.21163066100574, 1.11088029221772, -1.18771877128616], a = 0.2, v = 0.2, t = 0.2)
movej(p[0.538665395296325, 0.0136434487627352, 0.1726472704747, -1.22013501577944, 1.10595047021578, -1.17718942765872], a = 0.2, v = 0.2, t = 0.2)
movej(p[0.539680704572229, 0.0133451373529291, 0.171905417267897, -1.22627862133475, 1.12501069883977, -1.16454280013753], a = 0.2, v = 0.2, t = 0.2)
movej(p[0.540571237436199, 0.0125830514517153, 0.171107195648446, -1.22098123206437, 1.1584045783136, -1.15266891672921], a = 0.2, v = 0.2, t = 0.2)
movej(p[0.541319030057082, 0.0118320824695277, 0.170145384843794, -1.21356433875125, 1.18252223721587, -1.13816863690031], a = 0.2, v = 0.2, t = 0.2)
movej(p[0.542020075035575, 0.0110774684733418, 0.169115733005069, -1.20859726068198, 1.1994764628616, -1.12467218091124], a = 0.2, v = 0.2, t = 0.2)
movej(p[0.542566287392833, 0.0101789747549504, 0.168078857881831, -1.20402455775008, 1.22176076427108, -1.11200913179252], a = 0.2, v = 0.2, t = 0.2)
movej(p[0.542835456519585, 0.00912290086440175, 0.167226149652127, -1.19722263771247, 1.24185761324297, -1.10239897956479], a = 0.2, v = 0.2, t = 0.2)
movej(p[0.542799378176813, 0.00839147705740213, 0.166761042892622, -1.19054166258883, 1.25389797002632, -1.09743416249301], a = 0.2, v = 0.2, t = 0.2)
movej(p[0.542653247671408, 0.00811813691190517, 0.166781130208271, -1.18606567210894, 1.249488010683, -1.10510697039257], a = 0.2, v = 0.2, t = 0.2)
movej(p[0.542197571221425, 0.00831537703574683, 0.167602734971206, -1.18371103277768, 1.2365337629395, -1.12041508394513], a = 0.2, v = 0.2, t = 0.2)
movej(p[0.541129163459748, 0.00902273895143222, 0.169050158970947, -1.18359668741993, 1.20913082079787, -1.14584664111401], a = 0.2, v = 0.2, t = 0.2)
movej(p[0.539900445007194, 0.0101223659622981, 0.170597553566332, -1.18872764366468, 1.17998592415434, -1.16207269911412], a = 0.2, v = 0.2, t = 0.2)
movej(p[0.538699538084362, 0.010956006700142, 0.171746023147863, -1.1906010782179, 1.1629040499325, -1.17670754423902], a = 0.2, v = 0.2, t = 0.2)
movej(p[0.537968140525311, 0.011406680971139, 0.172465662158023, -1.1883354505075, 1.15263701814818, -1.18438496261431], a = 0.2, v = 0.2, t = 0.2)
movej(p[0.537379225255105, 0.0117827049653836, 0.17296898596187, -1.18689299359267, 1.13587820711349, -1.19224013164074], a = 0.2, v = 0.2, t = 0.2)
movej(p[0.537206569058162, 0.0124028288550503, 0.173302891896561, -1.19342826820132, 1.11106095460403, -1.19473442128794], a = 0.2, v = 0.2, t = 0.2)
movej(p[0.537207923461867, 0.0131050026185218, 0.173538489994989, -1.2027848068391, 1.10315351698845, -1.19238351733381], a = 0.2, v = 0.2, t = 0.2)
movej(p[0.537201040748366, 0.013155143837457, 0.173570199243144, -1.20718344506822, 1.11418944995501, -1.19172328139763], a = 0.2, v = 0.2, t = 0.2)
movej(p[0.537168945697221, 0.0131704040359657, 0.173645668203873, -1.2056178627712, 1.11522014119047, -1.1945151815419], a = 0.2, v = 0.2, t = 0.2)
