def moving():
set_payload_mass(0)
set_tcp(p[0,0,0,0,0,0])
movej(p[0.4021, 0.2285, 0.3182, -1.385, 0.72, -0.736], a = 0.2, v = 0.2, t = 0.2)
movej(p[0.402086056907693, 0.228481375581666, 0.318599322828321, -1.385, 0.72, -0.736], a = 0.2, v = 0.2, t = 0.2)
movej(p[0.4021, 0.2285, 0.3182, -1.385, 0.72, -0.736], a = 0.2, v = 0.2, t = 0.2)
movej(p[0.402086056907693, 0.228481375581666, 0.318599322828321, -1.385, 0.72, -0.736], a = 0.2, v = 0.2, t = 0.2)
movej(p[0.4021, 0.2285, 0.3182, -1.385, 0.72, -0.736], a = 0.2, v = 0.2, t = 0.2)
movej(p[0.402086056907693, 0.228481375581666, 0.318599322828321, -1.385, 0.72, -0.736], a = 0.2, v = 0.2, t = 0.2)
movej(p[0.4021, 0.2285, 0.3182, -1.385, 0.72, -0.736], a = 0.2, v = 0.2, t = 0.2)
movej(p[0.402086056907693, 0.228481375581666, 0.318599322828321, -1.385, 0.72, -0.736], a = 0.2, v = 0.2, t = 0.2)
movej(p[0.4021, 0.2285, 0.3182, -1.385, 0.72, -0.736], a = 0.2, v = 0.2, t = 0.2)
movej(p[0.402086056907693, 0.228481375581666, 0.318599322828321, -1.385, 0.72, -0.736], a = 0.2, v = 0.2, t = 0.2)
movej(p[0.4021, 0.2285, 0.3182, -1.385, 0.72, -0.736], a = 0.2, v = 0.2, t = 0.2)
movej(p[0.402097389504543, 0.228496513043278, 0.318274763216532, -1.385, 0.72, -0.736], a = 0.2, v = 0.2, t = 0.2)
movej(p[0.402088434553509, 0.228484551510603, 0.318531228303022, -1.385, 0.72, -0.736], a = 0.2, v = 0.2, t = 0.2)
movej(p[0.402087541149869, 0.228483358150998, 0.318556814913247, -1.385, 0.72, -0.736], a = 0.2, v = 0.2, t = 0.2)
movej(p[0.402087897395878, 0.228483834004886, 0.318546612214983, -1.385, 0.72, -0.736], a = 0.2, v = 0.2, t = 0.2)
movej(p[0.402089948076179, 0.228486573191213, 0.318487881810008, -1.385, 0.72, -0.736], a = 0.2, v = 0.2, t = 0.2)
movej(p[0.402094628423689, 0.228492824942837, 0.318353839119611, -1.385, 0.72, -0.736], a = 0.2, v = 0.2, t = 0.2)
movej(p[0.402111395689342, 0.228515221737104, 0.317873633452413, -1.385, 0.72, -0.736], a = 0.2, v = 0.2, t = 0.2)
movej(p[0.40214259963277, 0.228556902254114, 0.316979968928771, -1.385, 0.72, -0.736], a = 0.2, v = 0.2, t = 0.2)
movej(p[0.402175728420091, 0.228601153872075, 0.316031177888679, -1.385, 0.72, -0.736], a = 0.2, v = 0.2, t = 0.2)
movej(p[0.402209083782662, 0.228645708136833, 0.315075897852627, -1.385, 0.72, -0.736], a = 0.2, v = 0.2, t = 0.2)
movej(p[0.40223867451031, 0.228685233808642, 0.314228434980222, -1.385, 0.72, -0.736], a = 0.2, v = 0.2, t = 0.2)
movej(p[0.402256845845358, 0.228709506081835, 0.313708017504212, -1.385, 0.72, -0.736], a = 0.2, v = 0.2, t = 0.2)
movej(p[0.402250494766813, 0.228701022659284, 0.313889909052512, -1.385, 0.72, -0.736], a = 0.2, v = 0.2, t = 0.2)
movej(p[0.402219363327465, 0.22865943898925, 0.314781497097447, -1.385, 0.72, -0.736], a = 0.2, v = 0.2, t = 0.2)
movej(p[0.402181120911041, 0.228608356865865, 0.315876739784826, -1.385, 0.72, -0.736], a = 0.2, v = 0.2, t = 0.2)
movej(p[0.402140075933063, 0.228553531234395, 0.317052246360697, -1.385, 0.72, -0.736], a = 0.2, v = 0.2, t = 0.2)
movej(p[0.402108179715102, 0.228510926015015, 0.317965737262765, -1.385, 0.72, -0.736], a = 0.2, v = 0.2, t = 0.2)
movej(p[0.40209036741468, 0.228487133320594, 0.318475872175946, -1.385, 0.72, -0.736], a = 0.2, v = 0.2, t = 0.2)
movej(p[0.402088255384773, 0.228484312186827, 0.318536359601366, -1.385, 0.72, -0.736], a = 0.2, v = 0.2, t = 0.2)
movej(p[0.402090152342481, 0.228486846038941, 0.318482031730573, -1.385, 0.72, -0.736], a = 0.2, v = 0.2, t = 0.2)
movej(p[0.402101594566894, 0.228502129935042, 0.318154332443046, -1.385, 0.72, -0.736], a = 0.2, v = 0.2, t = 0.2)
movej(p[0.402125939728927, 0.228534648867868, 0.317457099810191, -1.385, 0.72, -0.736], a = 0.2, v = 0.2, t = 0.2)
movej(p[0.402158261211204, 0.228577822132007, 0.316531429561859, -1.385, 0.72, -0.736], a = 0.2, v = 0.2, t = 0.2)
movej(p[0.402194325019455, 0.228625994190027, 0.315498581066405, -1.385, 0.72, -0.736], a = 0.2, v = 0.2, t = 0.2)
movej(p[0.402223696143399, 0.228665226527247, 0.314657407528546, -1.385, 0.72, -0.736], a = 0.2, v = 0.2, t = 0.2)
movej(p[0.402249759268694, 0.228700040221217, 0.313910973331706, -1.385, 0.72, -0.736], a = 0.2, v = 0.2, t = 0.2)
movej(p[0.40225487638357, 0.228706875382745, 0.313764421853712, -1.385, 0.72, -0.736], a = 0.2, v = 0.2, t = 0.2)
movej(p[0.402240100191498, 0.228687138155416, 0.314187604221026, -1.385, 0.72, -0.736], a = 0.2, v = 0.2, t = 0.2)
movej(p[0.402206096475135, 0.228641717855205, 0.315161452768595, -1.385, 0.72, -0.736], a = 0.2, v = 0.2, t = 0.2)
movej(p[0.402165068926022, 0.228586915504259, 0.316336460190931, -1.385, 0.72, -0.736], a = 0.2, v = 0.2, t = 0.2)
movej(p[0.402126862413061, 0.228535881338751, 0.317430674622027, -1.385, 0.72, -0.736], a = 0.2, v = 0.2, t = 0.2)
movej(p[0.402103810647127, 0.228505090053531, 0.31809086507102, -1.385, 0.72, -0.736], a = 0.2, v = 0.2, t = 0.2)
movej(p[0.402095963474777, 0.228494608230892, 0.318315603958799, -1.385, 0.72, -0.736], a = 0.2, v = 0.2, t = 0.2)
movej(p[0.402094705459274, 0.228492927842748, 0.318351632860984, -1.385, 0.72, -0.736], a = 0.2, v = 0.2, t = 0.2)
movej(p[0.40209872211559, 0.22849829307206, 0.318236597937216, -1.385, 0.72, -0.736], a = 0.2, v = 0.2, t = 0.2)
movej(p[0.402114034070984, 0.228518745942663, 0.317798071590224, -1.385, 0.72, -0.736], a = 0.2, v = 0.2, t = 0.2)
movej(p[0.40214007244729, 0.228553526578291, 0.317052346191404, -1.385, 0.72, -0.736], a = 0.2, v = 0.2, t = 0.2)
movej(p[0.40217289448658, 0.228597368459048, 0.316112340253535, -1.385, 0.72, -0.736], a = 0.2, v = 0.2, t = 0.2)
movej(p[0.402207679016112, 0.228643831726686, 0.31511612962758, -1.385, 0.72, -0.736], a = 0.2, v = 0.2, t = 0.2)
movej(p[0.402239050973802, 0.228685736667937, 0.314217653263857, -1.385, 0.72, -0.736], a = 0.2, v = 0.2, t = 0.2)
movej(p[0.402253210184039, 0.228704649764755, 0.313812140931697, -1.385, 0.72, -0.736], a = 0.2, v = 0.2, t = 0.2)
movej(p[0.402249860356113, 0.22870017524825, 0.313908078241201, -1.385, 0.72, -0.736], a = 0.2, v = 0.2, t = 0.2)
movej(p[0.402231465931587, 0.228675604984363, 0.314434884882464, -1.385, 0.72, -0.736], a = 0.2, v = 0.2, t = 0.2)
movej(p[0.402196339796293, 0.228628685418476, 0.315440878917713, -1.385, 0.72, -0.736], a = 0.2, v = 0.2, t = 0.2)
movej(p[0.402154141027427, 0.22857231861639, 0.316649429457628, -1.385, 0.72, -0.736], a = 0.2, v = 0.2, t = 0.2)
movej(p[0.402118348412321, 0.228524508803306, 0.31767451112407, -1.385, 0.72, -0.736], a = 0.2, v = 0.2, t = 0.2)
movej(p[0.40210298295031, 0.228503984461497, 0.318114569872416, -1.385, 0.72, -0.736], a = 0.2, v = 0.2, t = 0.2)
movej(p[0.40209564592085, 0.228494184059765, 0.318324698536214, -1.385, 0.72, -0.736], a = 0.2, v = 0.2, t = 0.2)
movej(p[0.402094485158415, 0.228492633576939, 0.318357942161672, -1.385, 0.72, -0.736], a = 0.2, v = 0.2, t = 0.2)
movej(p[0.402102733612962, 0.228503651410336, 0.318121710762893, -1.385, 0.72, -0.736], a = 0.2, v = 0.2, t = 0.2)
movej(p[0.402123081743582, 0.22853083132772, 0.317538951006926, -1.385, 0.72, -0.736], a = 0.2, v = 0.2, t = 0.2)
movej(p[0.402156316149827, 0.22857522402565, 0.31658713509641, -1.385, 0.72, -0.736], a = 0.2, v = 0.2, t = 0.2)
movej(p[0.402192425273128, 0.228623456613029, 0.315552988801764, -1.385, 0.72, -0.736], a = 0.2, v = 0.2, t = 0.2)
movej(p[0.402227589751926, 0.228670427396067, 0.314545896628737, -1.385, 0.72, -0.736], a = 0.2, v = 0.2, t = 0.2)
movej(p[0.402250247276924, 0.228700692075859, 0.313896997032715, -1.385, 0.72, -0.736], a = 0.2, v = 0.2, t = 0.2)
movej(p[0.402255158731189, 0.228707252527217, 0.313756335566439, -1.385, 0.72, -0.736], a = 0.2, v = 0.2, t = 0.2)
movej(p[0.402244652611136, 0.228693219028002, 0.314057225317579, -1.385, 0.72, -0.736], a = 0.2, v = 0.2, t = 0.2)
movej(p[0.4022109172993, 0.228648157247844, 0.315023386900703, -1.385, 0.72, -0.736], a = 0.2, v = 0.2, t = 0.2)
movej(p[0.402166281975053, 0.228588535828654, 0.316301719104867, -1.385, 0.72, -0.736], a = 0.2, v = 0.2, t = 0.2)
movej(p[0.402125311941196, 0.228533810303432, 0.317475079320536, -1.385, 0.72, -0.736], a = 0.2, v = 0.2, t = 0.2)
movej(p[0.402105248179944, 0.228507010231061, 0.31804969488742, -1.385, 0.72, -0.736], a = 0.2, v = 0.2, t = 0.2)
movej(p[0.402096110922978, 0.228494805184116, 0.31831138111989, -1.385, 0.72, -0.736], a = 0.2, v = 0.2, t = 0.2)
movej(p[0.402094784586323, 0.228493033536322, 0.318349366703934, -1.385, 0.72, -0.736], a = 0.2, v = 0.2, t = 0.2)
movej(p[0.402103452902237, 0.228504612197517, 0.318101110696487, -1.385, 0.72, -0.736], a = 0.2, v = 0.2, t = 0.2)
movej(p[0.402120036223645, 0.228526763289145, 0.317626173095702, -1.385, 0.72, -0.736], a = 0.2, v = 0.2, t = 0.2)
movej(p[0.402150034786743, 0.22856683372519, 0.316767030030568, -1.385, 0.72, -0.736], a = 0.2, v = 0.2, t = 0.2)
movej(p[0.402184693828444, 0.228613129373063, 0.315774413310068, -1.385, 0.72, -0.736], a = 0.2, v = 0.2, t = 0.2)
movej(p[0.402217508896188, 0.228656961941611, 0.314834607033614, -1.385, 0.72, -0.736], a = 0.2, v = 0.2, t = 0.2)
movej(p[0.402238904571333, 0.228685541111544, 0.314221846153554, -1.385, 0.72, -0.736], a = 0.2, v = 0.2, t = 0.2)
movej(p[0.402250913059582, 0.228701581391834, 0.313877929367663, -1.385, 0.72, -0.736], a = 0.2, v = 0.2, t = 0.2)
movej(p[0.402247392428774, 0.228696878726205, 0.313978758381814, -1.385, 0.72, -0.736], a = 0.2, v = 0.2, t = 0.2)
movej(p[0.402221458277084, 0.228662237308104, 0.314721498842492, -1.385, 0.72, -0.736], a = 0.2, v = 0.2, t = 0.2)
movej(p[0.402178056916506, 0.228604264149936, 0.315964490976349, -1.385, 0.72, -0.736], a = 0.2, v = 0.2, t = 0.2)
movej(p[0.402136314783913, 0.22854850729755, 0.317159963693637, -1.385, 0.72, -0.736], a = 0.2, v = 0.2, t = 0.2)
movej(p[0.402110939053069, 0.228514611787404, 0.31788671127504, -1.385, 0.72, -0.736], a = 0.2, v = 0.2, t = 0.2)
movej(p[0.402097734874939, 0.22849697437012, 0.318264871990075, -1.385, 0.72, -0.736], a = 0.2, v = 0.2, t = 0.2)
movej(p[0.402095703087528, 0.22849426041988, 0.318323061312618, -1.385, 0.72, -0.736], a = 0.2, v = 0.2, t = 0.2)
movej(p[0.402102446942984, 0.228503268492295, 0.318129920840244, -1.385, 0.72, -0.736], a = 0.2, v = 0.2, t = 0.2)
movej(p[0.402120532597731, 0.228527426318438, 0.317611957203014, -1.385, 0.72, -0.736], a = 0.2, v = 0.2, t = 0.2)
movej(p[0.4021498848985, 0.228566633512693, 0.316771322750973, -1.385, 0.72, -0.736], a = 0.2, v = 0.2, t = 0.2)
movej(p[0.40218510863544, 0.228613683449509, 0.315762533455926, -1.385, 0.72, -0.736], a = 0.2, v = 0.2, t = 0.2)
movej(p[0.402216930257857, 0.22865618902825, 0.314851178930989, -1.385, 0.72, -0.736], a = 0.2, v = 0.2, t = 0.2)
movej(p[0.402239723728006, 0.228686635296121, 0.314198385937391, -1.385, 0.72, -0.736], a = 0.2, v = 0.2, t = 0.2)
movej(p[0.402252307368813, 0.228703443833668, 0.31383799708483, -1.385, 0.72, -0.736], a = 0.2, v = 0.2, t = 0.2)
movej(p[0.402256389209085, 0.228708896132135, 0.313721095326839, -1.385, 0.72, -0.736], a = 0.2, v = 0.2, t = 0.2)
movej(p[0.40223328201936, 0.228678030814851, 0.314382873084075, -1.385, 0.72, -0.736], a = 0.2, v = 0.2, t = 0.2)
movej(p[0.402192982996821, 0.228624201589762, 0.315537015888631, -1.385, 0.72, -0.736], a = 0.2, v = 0.2, t = 0.2)
movej(p[0.402146925477158, 0.228562680479902, 0.316856079021284, -1.385, 0.72, -0.736], a = 0.2, v = 0.2, t = 0.2)
movej(p[0.40211416409032, 0.228518919615364, 0.31779434790485, -1.385, 0.72, -0.736], a = 0.2, v = 0.2, t = 0.2)
movej(p[0.402095122357734, 0.228493484712856, 0.318339693108418, -1.385, 0.72, -0.736], a = 0.2, v = 0.2, t = 0.2)
movej(p[0.402090686014339, 0.228487558888553, 0.318466747649319, -1.385, 0.72, -0.736], a = 0.2, v = 0.2, t = 0.2)
movej(p[0.40209332579029, 0.228491084956554, 0.318391145854847, -1.385, 0.72, -0.736], a = 0.2, v = 0.2, t = 0.2)
movej(p[0.402102288340309, 0.228503056639537, 0.318134463137416, -1.385, 0.72, -0.736], a = 0.2, v = 0.2, t = 0.2)
movej(p[0.402124386119867, 0.228532573642055, 0.317501594356336, -1.385, 0.72, -0.736], a = 0.2, v = 0.2, t = 0.2)
movej(p[0.402160000611969, 0.228580145528194, 0.316481614039026, -1.385, 0.72, -0.736], a = 0.2, v = 0.2, t = 0.2)
movej(p[0.402196186422278, 0.228628480549875, 0.315445271468824, -1.385, 0.72, -0.736], a = 0.2, v = 0.2, t = 0.2)
movej(p[0.402227098257922, 0.22866977088532, 0.314559972758436, -1.385, 0.72, -0.736], a = 0.2, v = 0.2, t = 0.2)
movej(p[0.402251530041417, 0.228702405522345, 0.313860259332509, -1.385, 0.72, -0.736], a = 0.2, v = 0.2, t = 0.2)
movej(p[0.402261837472404, 0.228716173623599, 0.313565059931673, -1.385, 0.72, -0.736], a = 0.2, v = 0.2, t = 0.2)
movej(p[0.402249930071574, 0.228700268370342, 0.313906081627059, -1.385, 0.72, -0.736], a = 0.2, v = 0.2, t = 0.2)
movej(p[0.402211356506708, 0.228648743917022, 0.315010808231611, -1.385, 0.72, -0.736], a = 0.2, v = 0.2, t = 0.2)
movej(p[0.40216600659898, 0.228588167996391, 0.316309605730726, -1.385, 0.72, -0.736], a = 0.2, v = 0.2, t = 0.2)
movej(p[0.402126306083678, 0.22853513822446, 0.317446607602877, -1.385, 0.72, -0.736], a = 0.2, v = 0.2, t = 0.2)
movej(p[0.402099927412261, 0.228499903041278, 0.318202078874644, -1.385, 0.72, -0.736], a = 0.2, v = 0.2, t = 0.2)
movej(p[0.40208825050469, 0.228484305668281, 0.318536499364356, -1.385, 0.72, -0.736], a = 0.2, v = 0.2, t = 0.2)
movej(p[0.402088760821869, 0.228484987321992, 0.318521884148839, -1.385, 0.72, -0.736], a = 0.2, v = 0.2, t = 0.2)
movej(p[0.402090261795756, 0.228486992240625, 0.31847889704637, -1.385, 0.72, -0.736], a = 0.2, v = 0.2, t = 0.2)
movej(p[0.402099137271164, 0.228498847614116, 0.318224708100002, -1.385, 0.72, -0.736], a = 0.2, v = 0.2, t = 0.2)
movej(p[0.402119316760082, 0.228525802269159, 0.317646778153643, -1.385, 0.72, -0.736], a = 0.2, v = 0.2, t = 0.2)
movej(p[0.402146918505612, 0.228562671167693, 0.316856278682698, -1.385, 0.72, -0.736], a = 0.2, v = 0.2, t = 0.2)
movej(p[0.402182177100283, 0.228609767665554, 0.31584649108058, -1.385, 0.72, -0.736], a = 0.2, v = 0.2, t = 0.2)
movej(p[0.402212604413469, 0.228650410802462, 0.314975068838476, -1.385, 0.72, -0.736], a = 0.2, v = 0.2, t = 0.2)
movej(p[0.402236088066687, 0.228681778979041, 0.314302509364875, -1.385, 0.72, -0.736], a = 0.2, v = 0.2, t = 0.2)
movej(p[0.402237513747875, 0.228683683325816, 0.314261678605679, -1.385, 0.72, -0.736], a = 0.2, v = 0.2, t = 0.2)
movej(p[0.40221983390683, 0.228660067563368, 0.314768019951991, -1.385, 0.72, -0.736], a = 0.2, v = 0.2, t = 0.2)
movej(p[0.40218669466219, 0.228615801977094, 0.315717110484204, -1.385, 0.72, -0.736], a = 0.2, v = 0.2, t = 0.2)
movej(p[0.402146618729128, 0.228562270742699, 0.316864864123507, -1.385, 0.72, -0.736], a = 0.2, v = 0.2, t = 0.2)
movej(p[0.402115760225812, 0.228521051645653, 0.317748635424078, -1.385, 0.72, -0.736], a = 0.2, v = 0.2, t = 0.2)
movej(p[0.402097624306217, 0.228496826678482, 0.318268038620104, -1.385, 0.72, -0.736], a = 0.2, v = 0.2, t = 0.2)
movej(p[0.402093323698826, 0.228491082162891, 0.318391205753271, -1.385, 0.72, -0.736], a = 0.2, v = 0.2, t = 0.2)
movej(p[0.40209111964451, 0.228488138107963, 0.318454328709358, -1.385, 0.72, -0.736], a = 0.2, v = 0.2, t = 0.2)
movej(p[0.402093297555528, 0.228491047242107, 0.318391954483574, -1.385, 0.72, -0.736], a = 0.2, v = 0.2, t = 0.2)
movej(p[0.402101817133505, 0.228502427227319, 0.318147958252399, -1.385, 0.72, -0.736], a = 0.2, v = 0.2, t = 0.2)
movej(p[0.402119220204168, 0.228525673295062, 0.31764954346423, -1.385, 0.72, -0.736], a = 0.2, v = 0.2, t = 0.2)
movej(p[0.402146385182331, 0.228561958783691, 0.316871552780882, -1.385, 0.72, -0.736], a = 0.2, v = 0.2, t = 0.2)
movej(p[0.402181110453721, 0.228608342897551, 0.315877039276947, -1.385, 0.72, -0.736], a = 0.2, v = 0.2, t = 0.2)
movej(p[0.402209697278723, 0.22864652761124, 0.315058327648181, -1.385, 0.72, -0.736], a = 0.2, v = 0.2, t = 0.2)
movej(p[0.402226822881849, 0.228669403053058, 0.314567859384295, -1.385, 0.72, -0.736], a = 0.2, v = 0.2, t = 0.2)
movej(p[0.402232668523299, 0.228677211340445, 0.314400443288521, -1.385, 0.72, -0.736], a = 0.2, v = 0.2, t = 0.2)
movej(p[0.402228339193137, 0.228671428458552, 0.314524433026715, -1.385, 0.72, -0.736], a = 0.2, v = 0.2, t = 0.2)
movej(p[0.402203464716462, 0.228638202496245, 0.31523682495244, -1.385, 0.72, -0.736], a = 0.2, v = 0.2, t = 0.2)
movej(p[0.402166752554418, 0.228589164402772, 0.316288241959411, -1.385, 0.72, -0.736], a = 0.2, v = 0.2, t = 0.2)
movej(p[0.402130581732934, 0.228540849402342, 0.317324155257572, -1.385, 0.72, -0.736], a = 0.2, v = 0.2, t = 0.2)
movej(p[0.402109756678842, 0.228513032436729, 0.317920573850882, -1.385, 0.72, -0.736], a = 0.2, v = 0.2, t = 0.2)
movej(p[0.402096880721105, 0.228495833438252, 0.318289334506538, -1.385, 0.72, -0.736], a = 0.2, v = 0.2, t = 0.2)
movej(p[0.402092531382606, 0.22849002383032, 0.31841389727299, -1.385, 0.72, -0.736], a = 0.2, v = 0.2, t = 0.2)
movej(p[0.402094334224441, 0.22849243196761, 0.318362264831288, -1.385, 0.72, -0.736], a = 0.2, v = 0.2, t = 0.2)
movej(p[0.402096222467717, 0.228494954179463, 0.318308186537263, -1.385, 0.72, -0.736], a = 0.2, v = 0.2, t = 0.2)
movej(p[0.40209874777088, 0.228498327340989, 0.318235863183212, -1.385, 0.72, -0.736], a = 0.2, v = 0.2, t = 0.2)
movej(p[0.402104784223548, 0.228506390503541, 0.318062982354532, -1.385, 0.72, -0.736], a = 0.2, v = 0.2, t = 0.2)
movej(p[0.402125311941196, 0.228533810303432, 0.317475079320536, -1.385, 0.72, -0.736], a = 0.2, v = 0.2, t = 0.2)
movej(p[0.402147023078804, 0.22856281085083, 0.316853283761486, -1.385, 0.72, -0.736], a = 0.2, v = 0.2, t = 0.2)
movej(p[0.402171200400864, 0.228595105592221, 0.316160857977176, -1.385, 0.72, -0.736], a = 0.2, v = 0.2, t = 0.2)
movej(p[0.402192390415398, 0.228623410051983, 0.315553987108835, -1.385, 0.72, -0.736], a = 0.2, v = 0.2, t = 0.2)
movej(p[0.402212625328108, 0.22865043873909, 0.314974469854233, -1.385, 0.72, -0.736], a = 0.2, v = 0.2, t = 0.2)
movej(p[0.402221486163269, 0.228662274556941, 0.314720700196835, -1.385, 0.72, -0.736], a = 0.2, v = 0.2, t = 0.2)
movej(p[0.402218195593484, 0.228657879194214, 0.314814940384319, -1.385, 0.72, -0.736], a = 0.2, v = 0.2, t = 0.2)
movej(p[0.402201951890947, 0.228636181746856, 0.315280151479313, -1.385, 0.72, -0.736], a = 0.2, v = 0.2, t = 0.2)
movej(p[0.402168854475584, 0.228591972033836, 0.316228044043042, -1.385, 0.72, -0.736], a = 0.2, v = 0.2, t = 0.2)
movej(p[0.402135108706428, 0.228546896285364, 0.317194505118287, -1.385, 0.72, -0.736], a = 0.2, v = 0.2, t = 0.2)
movej(p[0.402109088107566, 0.22851213939587, 0.3179397213805, -1.385, 0.72, -0.736], a = 0.2, v = 0.2, t = 0.2)
movej(p[0.402099787848879, 0.228499716620163, 0.318206075896494, -1.385, 0.72, -0.736], a = 0.2, v = 0.2, t = 0.2)
movej(p[0.402095848792843, 0.228494455045052, 0.318318888389062, -1.385, 0.72, -0.736], a = 0.2, v = 0.2, t = 0.2)
movej(p[0.402094938308915, 0.228493238870534, 0.318344964169751, -1.385, 0.72, -0.736], a = 0.2, v = 0.2, t = 0.2)
movej(p[0.402097214727881, 0.228496279586194, 0.318279768728185, -1.385, 0.72, -0.736], a = 0.2, v = 0.2, t = 0.2)
movej(p[0.402098832963174, 0.228498441136185, 0.318233423320731, -1.385, 0.72, -0.736], a = 0.2, v = 0.2, t = 0.2)
movej(p[0.402103540499714, 0.228504729205425, 0.318098601950818, -1.385, 0.72, -0.736], a = 0.2, v = 0.2, t = 0.2)
movej(p[0.402118263708035, 0.228524395659965, 0.317676937010252, -1.385, 0.72, -0.736], a = 0.2, v = 0.2, t = 0.2)
movej(p[0.40214450286487, 0.228559444487216, 0.316925461362705, -1.385, 0.72, -0.736], a = 0.2, v = 0.2, t = 0.2)
movej(p[0.402170876223968, 0.228594672574494, 0.316170142232935, -1.385, 0.72, -0.736], a = 0.2, v = 0.2, t = 0.2)
movej(p[0.402196078363313, 0.228628336210633, 0.315448366220744, -1.385, 0.72, -0.736], a = 0.2, v = 0.2, t = 0.2)
movej(p[0.402218216508123, 0.228657907130842, 0.314814341400076, -1.385, 0.72, -0.736], a = 0.2, v = 0.2, t = 0.2)
movej(p[0.402231981826002, 0.228676294087842, 0.314420109937816, -1.385, 0.72, -0.736], a = 0.2, v = 0.2, t = 0.2)
movej(p[0.402223406824234, 0.228664840070566, 0.314665693477234, -1.385, 0.72, -0.736], a = 0.2, v = 0.2, t = 0.2)
movej(p[0.402199626880305, 0.228633076125098, 0.315346738560936, -1.385, 0.72, -0.736], a = 0.2, v = 0.2, t = 0.2)
movej(p[0.402169126365884, 0.228592335209994, 0.316220257247889, -1.385, 0.72, -0.736], a = 0.2, v = 0.2, t = 0.2)
movej(p[0.402135945291967, 0.228548013750464, 0.317170545748587, -1.385, 0.72, -0.736], a = 0.2, v = 0.2, t = 0.2)
movej(p[0.402111761695515, 0.228515710628085, 0.317863151228169, -1.385, 0.72, -0.736], a = 0.2, v = 0.2, t = 0.2)
movej(p[0.402097443534026, 0.228496585212899, 0.318273215840573, -1.385, 0.72, -0.736], a = 0.2, v = 0.2, t = 0.2)
movej(p[0.402094974560955, 0.228493287294022, 0.318343925930398, -1.385, 0.72, -0.736], a = 0.2, v = 0.2, t = 0.2)
movej(p[0.402093084574793, 0.228490762754117, 0.318398054139777, -1.385, 0.72, -0.736], a = 0.2, v = 0.2, t = 0.2)
movej(p[0.402094692561913, 0.228492910615161, 0.318352002234601, -1.385, 0.72, -0.736], a = 0.2, v = 0.2, t = 0.2)
movej(p[0.40209942979724, 0.228499238354412, 0.318216330307064, -1.385, 0.72, -0.736], a = 0.2, v = 0.2, t = 0.2)
movej(p[0.402112749215028, 0.228517029702514, 0.317834869188854, -1.385, 0.72, -0.736], a = 0.2, v = 0.2, t = 0.2)
movej(p[0.402134394820102, 0.228545942715145, 0.317214950447097, -1.385, 0.72, -0.736], a = 0.2, v = 0.2, t = 0.2)
movej(p[0.402167338164295, 0.228589946628342, 0.316271470400621, -1.385, 0.72, -0.736], a = 0.2, v = 0.2, t = 0.2)
movej(p[0.402197305355436, 0.228629975159446, 0.315413225811851, -1.385, 0.72, -0.736], a = 0.2, v = 0.2, t = 0.2)
movej(p[0.402217700613707, 0.228657218027363, 0.314829116344724, -1.385, 0.72, -0.736], a = 0.2, v = 0.2, t = 0.2)
movej(p[0.402234271978914, 0.228679353148553, 0.314354521163264, -1.385, 0.72, -0.736], a = 0.2, v = 0.2, t = 0.2)
movej(p[0.402244760670102, 0.228693363367244, 0.314054130565659, -1.385, 0.72, -0.736], a = 0.2, v = 0.2, t = 0.2)
movej(p[0.402233184417714, 0.228677900443923, 0.314385668343873, -1.385, 0.72, -0.736], a = 0.2, v = 0.2, t = 0.2)
movej(p[0.402200927073662, 0.228634812852108, 0.315309501707195, -1.385, 0.72, -0.736], a = 0.2, v = 0.2, t = 0.2)
movej(p[0.402159787979811, 0.228579861505815, 0.316487703712158, -1.385, 0.72, -0.736], a = 0.2, v = 0.2, t = 0.2)
movej(p[0.402125969009421, 0.228534687979146, 0.317456261232251, -1.385, 0.72, -0.736], a = 0.2, v = 0.2, t = 0.2)
movej(p[0.402100728387142, 0.228500972939614, 0.318179139375448, -1.385, 0.72, -0.736], a = 0.2, v = 0.2, t = 0.2)
movej(p[0.402090522880159, 0.228487340982859, 0.31847141972641, -1.385, 0.72, -0.736], a = 0.2, v = 0.2, t = 0.2)
movej(p[0.402090410289689, 0.228487190590681, 0.318474644258249, -1.385, 0.72, -0.736], a = 0.2, v = 0.2, t = 0.2)
movej(p[0.402090855771488, 0.228487785640846, 0.318461885893884, -1.385, 0.72, -0.736], a = 0.2, v = 0.2, t = 0.2)
movej(p[0.402091286264463, 0.228488360669762, 0.31844955680156, -1.385, 0.72, -0.736], a = 0.2, v = 0.2, t = 0.2)
movej(p[0.402093638464135, 0.228491502609135, 0.318382191040422, -1.385, 0.72, -0.736], a = 0.2, v = 0.2, t = 0.2)
movej(p[0.402107956974202, 0.228510628489933, 0.317972116444948, -1.385, 0.72, -0.736], a = 0.2, v = 0.2, t = 0.2)
movej(p[0.402130060261281, 0.228540152849096, 0.317339089931351, -1.385, 0.72, -0.736], a = 0.2, v = 0.2, t = 0.2)
movej(p[0.402159233741892, 0.228579121185186, 0.316503576794583, -1.385, 0.72, -0.736], a = 0.2, v = 0.2, t = 0.2)
movej(p[0.402187304672479, 0.228616616795396, 0.315699640110465, -1.385, 0.72, -0.736], a = 0.2, v = 0.2, t = 0.2)
movej(p[0.402206814544389, 0.228642677012749, 0.315140887642936, -1.385, 0.72, -0.736], a = 0.2, v = 0.2, t = 0.2)
movej(p[0.402220715807419, 0.228661245557828, 0.3147427627831, -1.385, 0.72, -0.736], a = 0.2, v = 0.2, t = 0.2)
movej(p[0.402224299182141, 0.22866603203334, 0.314640136816221, -1.385, 0.72, -0.736], a = 0.2, v = 0.2, t = 0.2)
movej(p[0.402218049191015, 0.228657683637822, 0.314819133274016, -1.385, 0.72, -0.736], a = 0.2, v = 0.2, t = 0.2)
movej(p[0.40218964014044, 0.228619736385467, 0.315632753536721, -1.385, 0.72, -0.736], a = 0.2, v = 0.2, t = 0.2)
movej(p[0.4021554133346, 0.228574018094562, 0.316612991249543, -1.385, 0.72, -0.736], a = 0.2, v = 0.2, t = 0.2)
movej(p[0.402125949489092, 0.228534661904961, 0.317456820284211, -1.385, 0.72, -0.736], a = 0.2, v = 0.2, t = 0.2)
movej(p[0.402105935225818, 0.228507927949274, 0.318030018255054, -1.385, 0.72, -0.736], a = 0.2, v = 0.2, t = 0.2)
movej(p[0.402097788102694, 0.228497045468837, 0.318263347575178, -1.385, 0.72, -0.736], a = 0.2, v = 0.2, t = 0.2)
movej(p[0.402095517644401, 0.228494012715116, 0.318328372306235, -1.385, 0.72, -0.736], a = 0.2, v = 0.2, t = 0.2)
movej(p[0.402098133089656, 0.228497506283507, 0.318253467330098, -1.385, 0.72, -0.736], a = 0.2, v = 0.2, t = 0.2)
movej(p[0.402097050757115, 0.228496060563034, 0.318284464764647, -1.385, 0.72, -0.736], a = 0.2, v = 0.2, t = 0.2)
movej(p[0.402098670770153, 0.228498224487639, 0.318238068443531, -1.385, 0.72, -0.736], a = 0.2, v = 0.2, t = 0.2)
movej(p[0.402108712689805, 0.228511637933406, 0.317950473147653, -1.385, 0.72, -0.736], a = 0.2, v = 0.2, t = 0.2)
movej(p[0.402126041513501, 0.228534784826122, 0.317454184753544, -1.385, 0.72, -0.736], a = 0.2, v = 0.2, t = 0.2)
movej(p[0.402150003414785, 0.228566791820249, 0.316767928506932, -1.385, 0.72, -0.736], a = 0.2, v = 0.2, t = 0.2)
movej(p[0.402175662190403, 0.228601065406087, 0.316033074672114, -1.385, 0.72, -0.736], a = 0.2, v = 0.2, t = 0.2)
movej(p[0.402199389847735, 0.228632759509987, 0.315353527049017, -1.385, 0.72, -0.736], a = 0.2, v = 0.2, t = 0.2)
movej(p[0.40221575555233, 0.228654619921006, 0.314884821879275, -1.385, 0.72, -0.736], a = 0.2, v = 0.2, t = 0.2)
movej(p[0.402222204232522, 0.228663233714485, 0.314700135071176, -1.385, 0.72, -0.736], a = 0.2, v = 0.2, t = 0.2)
movej(p[0.4022165363655, 0.228655662888433, 0.314862459800889, -1.385, 0.72, -0.736], a = 0.2, v = 0.2, t = 0.2)
movej(p[0.402193282773305, 0.228624602014757, 0.315528430447822, -1.385, 0.72, -0.736], a = 0.2, v = 0.2, t = 0.2)
movej(p[0.402158975794684, 0.228578776633447, 0.316510964266907, -1.385, 0.72, -0.736], a = 0.2, v = 0.2, t = 0.2)
movej(p[0.402126759234178, 0.228535743518055, 0.317433629610956, -1.385, 0.72, -0.736], a = 0.2, v = 0.2, t = 0.2)
movej(p[0.402110690866026, 0.228514280272757, 0.317893819221384, -1.385, 0.72, -0.736], a = 0.2, v = 0.2, t = 0.2)
movej(p[0.402099886433513, 0.228499848304113, 0.318203252484437, -1.385, 0.72, -0.736], a = 0.2, v = 0.2, t = 0.2)
movej(p[0.402097293645783, 0.228496385000401, 0.318277508560977, -1.385, 0.72, -0.736], a = 0.2, v = 0.2, t = 0.2)
movej(p[0.402094143552654, 0.228492177278689, 0.318367725570966, -1.385, 0.72, -0.736], a = 0.2, v = 0.2, t = 0.2)
movej(p[0.402098052847159, 0.22849739909998, 0.318255765432975, -1.385, 0.72, -0.736], a = 0.2, v = 0.2, t = 0.2)
movej(p[0.402107178252497, 0.228509588316169, 0.317994418624909, -1.385, 0.72, -0.736], a = 0.2, v = 0.2, t = 0.2)
movej(p[0.402127477652009, 0.22853670314121, 0.317413054502227, -1.385, 0.72, -0.736], a = 0.2, v = 0.2, t = 0.2)
movej(p[0.402157849889981, 0.228577272711666, 0.316543209585294, -1.385, 0.72, -0.736], a = 0.2, v = 0.2, t = 0.2)
movej(p[0.402185948706752, 0.228614805570713, 0.315738474255519, -1.385, 0.72, -0.736], a = 0.2, v = 0.2, t = 0.2)
movej(p[0.402208902522462, 0.228645466019395, 0.315081089049395, -1.385, 0.72, -0.736], a = 0.2, v = 0.2, t = 0.2)
movej(p[0.402227840727587, 0.228670762635597, 0.314538708817827, -1.385, 0.72, -0.736], a = 0.2, v = 0.2, t = 0.2)
movej(p[0.402237987813014, 0.228684316556039, 0.314248101629517, -1.385, 0.72, -0.736], a = 0.2, v = 0.2, t = 0.2)
movej(p[0.402224794161918, 0.228666693200191, 0.314625960855816, -1.385, 0.72, -0.736], a = 0.2, v = 0.2, t = 0.2)
movej(p[0.402194000842559, 0.228625561172301, 0.315507865322164, -1.385, 0.72, -0.736], a = 0.2, v = 0.2, t = 0.2)
movej(p[0.402154256057939, 0.228572472267841, 0.316646135044294, -1.385, 0.72, -0.736], a = 0.2, v = 0.2, t = 0.2)
movej(p[0.402121641422147, 0.228528907425306, 0.317580201055091, -1.385, 0.72, -0.736], a = 0.2, v = 0.2, t = 0.2)
movej(p[0.402099029247056, 0.228498703321435, 0.318227801853615, -1.385, 0.72, -0.736], a = 0.2, v = 0.2, t = 0.2)
movej(p[0.402092474215927, 0.228489947470204, 0.318415534496586, -1.385, 0.72, -0.736], a = 0.2, v = 0.2, t = 0.2)
movej(p[0.402093605349291, 0.228491458376142, 0.318383139432139, -1.385, 0.72, -0.736], a = 0.2, v = 0.2, t = 0.2)
movej(p[0.402093116295328, 0.228490805124669, 0.318397145680342, -1.385, 0.72, -0.736], a = 0.2, v = 0.2, t = 0.2)
movej(p[0.402094462849468, 0.228492603777869, 0.318358581078197, -1.385, 0.72, -0.736], a = 0.2, v = 0.2, t = 0.2)
movej(p[0.402104189550661, 0.228505596172099, 0.31808001347316, -1.385, 0.72, -0.736], a = 0.2, v = 0.2, t = 0.2)
movej(p[0.402123986301695, 0.228532039586859, 0.317513044938439, -1.385, 0.72, -0.736], a = 0.2, v = 0.2, t = 0.2)
movej(p[0.402153914452177, 0.228572015969592, 0.316655918453588, -1.385, 0.72, -0.736], a = 0.2, v = 0.2, t = 0.2)
movej(p[0.40218587899129, 0.228614712448621, 0.315740470869661, -1.385, 0.72, -0.736], a = 0.2, v = 0.2, t = 0.2)
movej(p[0.402215431375434, 0.22865418690328, 0.314894106135034, -1.385, 0.72, -0.736], a = 0.2, v = 0.2, t = 0.2)
movej(p[0.40223355390966, 0.228678393991009, 0.314375086288923, -1.385, 0.72, -0.736], a = 0.2, v = 0.2, t = 0.2)
movej(p[0.402238353819187, 0.22868480544702, 0.314237619405273, -1.385, 0.72, -0.736], a = 0.2, v = 0.2, t = 0.2)
movej(p[0.402228021987787, 0.228671004753035, 0.314533517621059, -1.385, 0.72, -0.736], a = 0.2, v = 0.2, t = 0.2)
movej(p[0.402198887896412, 0.228632089030927, 0.315367902670837, -1.385, 0.72, -0.736], a = 0.2, v = 0.2, t = 0.2)
movej(p[0.402159787979811, 0.228579861505815, 0.316487703712158, -1.385, 0.72, -0.736], a = 0.2, v = 0.2, t = 0.2)
movej(p[0.402124792212431, 0.228533116078239, 0.317489964078962, -1.385, 0.72, -0.736], a = 0.2, v = 0.2, t = 0.2)
movej(p[0.402105212973636, 0.228506963204405, 0.318050703177561, -1.385, 0.72, -0.736], a = 0.2, v = 0.2, t = 0.2)
movej(p[0.402094393482583, 0.228492511121388, 0.318360567709268, -1.385, 0.72, -0.736], a = 0.2, v = 0.2, t = 0.2)
movej(p[0.402092444238279, 0.228489907427705, 0.318416393040667, -1.385, 0.72, -0.736], a = 0.2, v = 0.2, t = 0.2)
movej(p[0.402092655476127, 0.228490189587643, 0.318410343299818, -1.385, 0.72, -0.736], a = 0.2, v = 0.2, t = 0.2)
movej(p[0.402094537096434, 0.228492702952897, 0.318356454684136, -1.385, 0.72, -0.736], a = 0.2, v = 0.2, t = 0.2)
movej(p[0.402099295769265, 0.228499059327191, 0.318220168797751, -1.385, 0.72, -0.736], a = 0.2, v = 0.2, t = 0.2)
movej(p[0.402114785255082, 0.228519749333201, 0.317776558072848, -1.385, 0.72, -0.736], a = 0.2, v = 0.2, t = 0.2)
movej(p[0.402139821471628, 0.228553191338761, 0.317059534002314, -1.385, 0.72, -0.736], a = 0.2, v = 0.2, t = 0.2)
movej(p[0.402165762594865, 0.228587842069071, 0.316316593880222, -1.385, 0.72, -0.736], a = 0.2, v = 0.2, t = 0.2)
movej(p[0.402192400872717, 0.228623424020297, 0.315553687616714, -1.385, 0.72, -0.736], a = 0.2, v = 0.2, t = 0.2)
movej(p[0.402217508896188, 0.228656961941611, 0.314834607033614, -1.385, 0.72, -0.736], a = 0.2, v = 0.2, t = 0.2)
movej(p[0.402234815759514, 0.228680079500868, 0.31433894757296, -1.385, 0.72, -0.736], a = 0.2, v = 0.2, t = 0.2)
movej(p[0.402237273229533, 0.228683362054599, 0.314268566924468, -1.385, 0.72, -0.736], a = 0.2, v = 0.2, t = 0.2)
movej(p[0.402221866112534, 0.228662782072341, 0.314709818649763, -1.385, 0.72, -0.736], a = 0.2, v = 0.2, t = 0.2)
movej(p[0.402193694094528, 0.228625151435097, 0.315516650424387, -1.385, 0.72, -0.736], a = 0.2, v = 0.2, t = 0.2)
movej(p[0.402153339299619, 0.228571247712335, 0.316672390520256, -1.385, 0.72, -0.736], a = 0.2, v = 0.2, t = 0.2)
movej(p[0.402120654599789, 0.228527589282099, 0.317608463128266, -1.385, 0.72, -0.736], a = 0.2, v = 0.2, t = 0.2)
movej(p[0.402102267390813, 0.228503028656348, 0.318135063119965, -1.385, 0.72, -0.736], a = 0.2, v = 0.2, t = 0.2)
movej(p[0.402095309543748, 0.228493734745673, 0.318334332199447, -1.385, 0.72, -0.736], a = 0.2, v = 0.2, t = 0.2)
movej(p[0.402091684688326, 0.228488892862516, 0.31843814615174, -1.385, 0.72, -0.736], a = 0.2, v = 0.2, t = 0.2)
movej(p[0.402091897320483, 0.228489176884896, 0.318432056478608, -1.385, 0.72, -0.736], a = 0.2, v = 0.2, t = 0.2)
movej(p[0.402095773848722, 0.228494354938803, 0.318321034749264, -1.385, 0.72, -0.736], a = 0.2, v = 0.2, t = 0.2)
movej(p[0.402106128337646, 0.228508185897468, 0.318024487633882, -1.385, 0.72, -0.736], a = 0.2, v = 0.2, t = 0.2)
movej(p[0.402127300923314, 0.228536467076708, 0.317418115919076, -1.385, 0.72, -0.736], a = 0.2, v = 0.2, t = 0.2)
movej(p[0.402156762328781, 0.228575820007036, 0.316574356765903, -1.385, 0.72, -0.736], a = 0.2, v = 0.2, t = 0.2)
movej(p[0.402182065555544, 0.228609618670207, 0.315849685663207, -1.385, 0.72, -0.736], a = 0.2, v = 0.2, t = 0.2)
movej(p[0.402198267428805, 0.228631260244311, 0.315385672536697, -1.385, 0.72, -0.736], a = 0.2, v = 0.2, t = 0.2)
movej(p[0.40219678946102, 0.228629286055968, 0.315428000756499, -1.385, 0.72, -0.736], a = 0.2, v = 0.2, t = 0.2)
movej(p[0.402182191043375, 0.228609786289972, 0.315846091757752, -1.385, 0.72, -0.736], a = 0.2, v = 0.2, t = 0.2)
movej(p[0.402149417804908, 0.228566009594679, 0.316784700065722, -1.385, 0.72, -0.736], a = 0.2, v = 0.2, t = 0.2)
movej(p[0.402120033086449, 0.228526759098651, 0.317626262943338, -1.385, 0.72, -0.736], a = 0.2, v = 0.2, t = 0.2)
movej(p[0.402098397520401, 0.228497859495601, 0.318245894172659, -1.385, 0.72, -0.736], a = 0.2, v = 0.2, t = 0.2)
movej(p[0.402090120273369, 0.228486803202779, 0.318482950173078, -1.385, 0.72, -0.736], a = 0.2, v = 0.2, t = 0.2)
movej(p[0.402086855498305, 0.228482442295226, 0.318576451613329, -1.385, 0.72, -0.736], a = 0.2, v = 0.2, t = 0.2)
movej(p[0.402088489280146, 0.228484624611445, 0.318529660960921, -1.385, 0.72, -0.736], a = 0.2, v = 0.2, t = 0.2)
movej(p[0.402101632387532, 0.228502180453776, 0.318153249279874, -1.385, 0.72, -0.736], a = 0.2, v = 0.2, t = 0.2)
movej(p[0.402123006102306, 0.228530730290251, 0.31754111733327, -1.385, 0.72, -0.736], a = 0.2, v = 0.2, t = 0.2)
movej(p[0.402158285611615, 0.228577854724739, 0.316530730746909, -1.385, 0.72, -0.736], a = 0.2, v = 0.2, t = 0.2)
movej(p[0.402195691442501, 0.228627819383024, 0.31545944742923, -1.385, 0.72, -0.736], a = 0.2, v = 0.2, t = 0.2)
movej(p[0.402226788024118, 0.228669356492012, 0.314568857691366, -1.385, 0.72, -0.736], a = 0.2, v = 0.2, t = 0.2)
movej(p[0.402245290507609, 0.228694071095141, 0.314038956298183, -1.385, 0.72, -0.736], a = 0.2, v = 0.2, t = 0.2)
movej(p[0.402252220224486, 0.228703327431053, 0.313840492852507, -1.385, 0.72, -0.736], a = 0.2, v = 0.2, t = 0.2)
movej(p[0.40224546131049, 0.228694299244266, 0.314034064593536, -1.385, 0.72, -0.736], a = 0.2, v = 0.2, t = 0.2)
movej(p[0.40221838382523, 0.228658130623862, 0.314809549526137, -1.385, 0.72, -0.736], a = 0.2, v = 0.2, t = 0.2)
movej(p[0.402181553146902, 0.228608934222833, 0.315864360777148, -1.385, 0.72, -0.736], a = 0.2, v = 0.2, t = 0.2)
movej(p[0.402143840567985, 0.228558559827346, 0.31694442919705, -1.385, 0.72, -0.736], a = 0.2, v = 0.2, t = 0.2)
movej(p[0.40211516869012, 0.228520261504705, 0.317765576695069, -1.385, 0.72, -0.736], a = 0.2, v = 0.2, t = 0.2)
movej(p[0.4020954608263, 0.228493936820612, 0.31832999954676, -1.385, 0.72, -0.736], a = 0.2, v = 0.2, t = 0.2)
movej(p[0.402089822936925, 0.228486406037058, 0.318491465732392, -1.385, 0.72, -0.736], a = 0.2, v = 0.2, t = 0.2)
movej(p[0.402094909725576, 0.228493200690477, 0.318345782781549, -1.385, 0.72, -0.736], a = 0.2, v = 0.2, t = 0.2)
movej(p[0.402110007654503, 0.228513367676259, 0.317913386039972, -1.385, 0.72, -0.736], a = 0.2, v = 0.2, t = 0.2)
movej(p[0.402139720384209, 0.228553056311728, 0.317062429092819, -1.385, 0.72, -0.736], a = 0.2, v = 0.2, t = 0.2)
movej(p[0.402179287394402, 0.228605907754854, 0.31592925073675, -1.385, 0.72, -0.736], a = 0.2, v = 0.2, t = 0.2)
movej(p[0.402220409059388, 0.228660835820625, 0.314751547885323, -1.385, 0.72, -0.736], a = 0.2, v = 0.2, t = 0.2)
movej(p[0.402254705580689, 0.228706647233621, 0.313769313558359, -1.385, 0.72, -0.736], a = 0.2, v = 0.2, t = 0.2)
movej(p[0.402273249893457, 0.228731417710005, 0.313238214196692, -1.385, 0.72, -0.736], a = 0.2, v = 0.2, t = 0.2)
movej(p[0.402275710849249, 0.228734704919841, 0.313167733717493, -1.385, 0.72, -0.736], a = 0.2, v = 0.2, t = 0.2)
movej(p[0.402248344044824, 0.228698149842756, 0.313951504598781, -1.385, 0.72, -0.736], a = 0.2, v = 0.2, t = 0.2)
movej(p[0.40220748381282, 0.228643570984829, 0.315121720147177, -1.385, 0.72, -0.736], a = 0.2, v = 0.2, t = 0.2)
movej(p[0.402163681588338, 0.228585062374634, 0.316376192812349, -1.385, 0.72, -0.736], a = 0.2, v = 0.2, t = 0.2)
movej(p[0.402128320511939, 0.228537828987298, 0.317388915437255, -1.385, 0.72, -0.736], a = 0.2, v = 0.2, t = 0.2)
movej(p[0.402104083583159, 0.228505454626519, 0.318083048326655, -1.385, 0.72, -0.736], a = 0.2, v = 0.2, t = 0.2)
movej(p[0.402092310384593, 0.228489728633289, 0.318420226539819, -1.385, 0.72, -0.736], a = 0.2, v = 0.2, t = 0.2)
movej(p[0.402091487044992, 0.228488628861386, 0.318443806552832, -1.385, 0.72, -0.736], a = 0.2, v = 0.2, t = 0.2)
movej(p[0.402091092106903, 0.228488101324737, 0.318455117371944, -1.385, 0.72, -0.736], a = 0.2, v = 0.2, t = 0.2)
movej(p[0.40210015395614, 0.228500205646171, 0.31819559077716, -1.385, 0.72, -0.736], a = 0.2, v = 0.2, t = 0.2)
movej(p[0.402122191477138, 0.228529642158609, 0.317564447769514, -1.385, 0.72, -0.736], a = 0.2, v = 0.2, t = 0.2)
movej(p[0.402155601566346, 0.22857426952421, 0.316607600391361, -1.385, 0.72, -0.736], a = 0.2, v = 0.2, t = 0.2)
movej(p[0.402193091055786, 0.228624345929005, 0.315533921136712, -1.385, 0.72, -0.736], a = 0.2, v = 0.2, t = 0.2)
movej(p[0.402228091703249, 0.228671097875127, 0.314531521006918, -1.385, 0.72, -0.736], a = 0.2, v = 0.2, t = 0.2)
movej(p[0.402256978304735, 0.228709683013809, 0.313704223937343, -1.385, 0.72, -0.736], a = 0.2, v = 0.2, t = 0.2)
movej(p[0.402264584261589, 0.22871984263401, 0.313486393334493, -1.385, 0.72, -0.736], a = 0.2, v = 0.2, t = 0.2)
movej(p[0.402251592785332, 0.228702489332228, 0.313858462379782, -1.385, 0.72, -0.736], a = 0.2, v = 0.2, t = 0.2)
movej(p[0.402220827352157, 0.228661394553175, 0.314739568200473, -1.385, 0.72, -0.736], a = 0.2, v = 0.2, t = 0.2)
movej(p[0.402181190626502, 0.228608449987957, 0.315874743170684, -1.385, 0.72, -0.736], a = 0.2, v = 0.2, t = 0.2)
movej(p[0.402138549164455, 0.228551491860588, 0.317095972210398, -1.385, 0.72, -0.736], a = 0.2, v = 0.2, t = 0.2)
movej(p[0.402106413125306, 0.228508566301213, 0.318016331465114, -1.385, 0.72, -0.736], a = 0.2, v = 0.2, t = 0.2)
movej(p[0.402094490038498, 0.228492640095485, 0.318357802398682, -1.385, 0.72, -0.736], a = 0.2, v = 0.2, t = 0.2)
movej(p[0.402089010751798, 0.22848532116469, 0.318514726287142, -1.385, 0.72, -0.736], a = 0.2, v = 0.2, t = 0.2)
movej(p[0.402091846776774, 0.228489109371379, 0.318433504023861, -1.385, 0.72, -0.736], a = 0.2, v = 0.2, t = 0.2)
movej(p[0.402103405286576, 0.228504548595129, 0.318102474383946, -1.385, 0.72, -0.736], a = 0.2, v = 0.2, t = 0.2)
movej(p[0.402126846727082, 0.228535860386281, 0.317431123860208, -1.385, 0.72, -0.736], a = 0.2, v = 0.2, t = 0.2)
movej(p[0.402159150083338, 0.228579009438676, 0.316505972731553, -1.385, 0.72, -0.736], a = 0.2, v = 0.2, t = 0.2)
movej(p[0.40219430759059, 0.228625970909504, 0.315499080219941, -1.385, 0.72, -0.736], a = 0.2, v = 0.2, t = 0.2)
movej(p[0.402227272546576, 0.228670003690549, 0.314554981223082, -1.385, 0.72, -0.736], a = 0.2, v = 0.2, t = 0.2)
movej(p[0.402246008576863, 0.228695030252685, 0.314018391172525, -1.385, 0.72, -0.736], a = 0.2, v = 0.2, t = 0.2)
movej(p[0.402250142703732, 0.228700552392721, 0.313899991953927, -1.385, 0.72, -0.736], a = 0.2, v = 0.2, t = 0.2)
movej(p[0.402239462295025, 0.228686286088278, 0.314205873240422, -1.385, 0.72, -0.736], a = 0.2, v = 0.2, t = 0.2)
movej(p[0.402214312442277, 0.228652692293708, 0.314926151792006, -1.385, 0.72, -0.736], a = 0.2, v = 0.2, t = 0.2)
movej(p[0.402179252536671, 0.228605861193808, 0.315930249043821, -1.385, 0.72, -0.736], a = 0.2, v = 0.2, t = 0.2)
movej(p[0.402142819236474, 0.228557195588703, 0.316973679594225, -1.385, 0.72, -0.736], a = 0.2, v = 0.2, t = 0.2)
movej(p[0.402118216998676, 0.228524333268163, 0.317678274741727, -1.385, 0.72, -0.736], a = 0.2, v = 0.2, t = 0.2)
movej(p[0.402100607500532, 0.228500811465907, 0.31818260150437, -1.385, 0.72, -0.736], a = 0.2, v = 0.2, t = 0.2)
movej(p[0.402094278452072, 0.228492357469937, 0.318363862122602, -1.385, 0.72, -0.736], a = 0.2, v = 0.2, t = 0.2)
movej(p[0.402096058287805, 0.228494734876937, 0.318312888563566, -1.385, 0.72, -0.736], a = 0.2, v = 0.2, t = 0.2)
movej(p[0.402108381192786, 0.22851119513786, 0.317959967047896, -1.385, 0.72, -0.736], a = 0.2, v = 0.2, t = 0.2)
movej(p[0.402130440210547, 0.228540660364496, 0.317328208384279, -1.385, 0.72, -0.736], a = 0.2, v = 0.2, t = 0.2)
movej(p[0.402161900358296, 0.228582683105192, 0.316427206303667, -1.385, 0.72, -0.736], a = 0.2, v = 0.2, t = 0.2)
movej(p[0.402196325853201, 0.228628666794058, 0.315441278240541, -1.385, 0.72, -0.736], a = 0.2, v = 0.2, t = 0.2)
movej(p[0.402219582931169, 0.228659732323838, 0.314775207762901, -1.385, 0.72, -0.736], a = 0.2, v = 0.2, t = 0.2)
movej(p[0.40223600092236, 0.228681662576426, 0.314305005132552, -1.385, 0.72, -0.736], a = 0.2, v = 0.2, t = 0.2)
movej(p[0.402240943748583, 0.228688264932726, 0.314163445189912, -1.385, 0.72, -0.736], a = 0.2, v = 0.2, t = 0.2)
movej(p[0.402228374050868, 0.228671475019598, 0.314523434719644, -1.385, 0.72, -0.736], a = 0.2, v = 0.2, t = 0.2)
movej(p[0.402195353322513, 0.228627367740879, 0.315469131007817, -1.385, 0.72, -0.736], a = 0.2, v = 0.2, t = 0.2)
movej(p[0.402150644797031, 0.228567648543492, 0.316749559656829, -1.385, 0.72, -0.736], a = 0.2, v = 0.2, t = 0.2)
movej(p[0.402120262450317, 0.228527065470333, 0.317619694082812, -1.385, 0.72, -0.736], a = 0.2, v = 0.2, t = 0.2)
movej(p[0.40209727081397, 0.228496354502916, 0.318278162452109, -1.385, 0.72, -0.736], a = 0.2, v = 0.2, t = 0.2)
movej(p[0.402090856468643, 0.228487786572067, 0.318461865927743, -1.385, 0.72, -0.736], a = 0.2, v = 0.2, t = 0.2)
movej(p[0.402088215995537, 0.228484259572845, 0.318537487688356, -1.385, 0.72, -0.736], a = 0.2, v = 0.2, t = 0.2)
movej(p[0.402094708247892, 0.228492931567632, 0.318351552996419, -1.385, 0.72, -0.736], a = 0.2, v = 0.2, t = 0.2)
movej(p[0.402110317888307, 0.228513782069567, 0.317904501107042, -1.385, 0.72, -0.736], a = 0.2, v = 0.2, t = 0.2)
movej(p[0.402139329977624, 0.228552534828015, 0.317073610132012, -1.385, 0.72, -0.736], a = 0.2, v = 0.2, t = 0.2)
movej(p[0.402174124964476, 0.228599012063966, 0.316077100013936, -1.385, 0.72, -0.736], a = 0.2, v = 0.2, t = 0.2)
movej(p[0.402204099127162, 0.228639049907279, 0.315218655763752, -1.385, 0.72, -0.736], a = 0.2, v = 0.2, t = 0.2)
movej(p[0.402227746611714, 0.228670636920773, 0.314541404246919, -1.385, 0.72, -0.736], a = 0.2, v = 0.2, t = 0.2)
movej(p[0.40224654887169, 0.228695751948896, 0.314002917412927, -1.385, 0.72, -0.736], a = 0.2, v = 0.2, t = 0.2)
movej(p[0.402255263304382, 0.228707392210354, 0.313753340645226, -1.385, 0.72, -0.736], a = 0.2, v = 0.2, t = 0.2)
movej(p[0.402242202112663, 0.22868994578648, 0.314127406304656, -1.385, 0.72, -0.736], a = 0.2, v = 0.2, t = 0.2)
movej(p[0.402210133000358, 0.228647109624313, 0.315045848809796, -1.385, 0.72, -0.736], a = 0.2, v = 0.2, t = 0.2)
movej(p[0.402171810411153, 0.228595920410523, 0.316143387603437, -1.385, 0.72, -0.736], a = 0.2, v = 0.2, t = 0.2)
movej(p[0.402133185953999, 0.228544327978076, 0.317249571736312, -1.385, 0.72, -0.736], a = 0.2, v = 0.2, t = 0.2)
movej(p[0.40210699664372, 0.22850934573312, 0.317999619804748, -1.385, 0.72, -0.736], a = 0.2, v = 0.2, t = 0.2)
movej(p[0.402094613783442, 0.228492805387198, 0.318354258408581, -1.385, 0.72, -0.736], a = 0.2, v = 0.2, t = 0.2)
movej(p[0.402092164679278, 0.228489534008117, 0.318424399463375, -1.385, 0.72, -0.736], a = 0.2, v = 0.2, t = 0.2)
movej(p[0.402091143696344, 0.228488170235085, 0.318453639877479, -1.385, 0.72, -0.736], a = 0.2, v = 0.2, t = 0.2)
movej(p[0.402094733694036, 0.228492965557195, 0.318350824232257, -1.385, 0.72, -0.736], a = 0.2, v = 0.2, t = 0.2)
movej(p[0.402112367174299, 0.228516519393451, 0.31784581063435, -1.385, 0.72, -0.736], a = 0.2, v = 0.2, t = 0.2)
movej(p[0.402136590159986, 0.228548875129812, 0.317152077067777, -1.385, 0.72, -0.736], a = 0.2, v = 0.2, t = 0.2)
movej(p[0.402170060553068, 0.228593583046022, 0.316193502618392, -1.385, 0.72, -0.736], a = 0.2, v = 0.2, t = 0.2)
movej(p[0.402203353171724, 0.228638053500898, 0.315240019535067, -1.385, 0.72, -0.736], a = 0.2, v = 0.2, t = 0.2)
movej(p[0.402230692089964, 0.228674571329146, 0.314457047299436, -1.385, 0.72, -0.736], a = 0.2, v = 0.2, t = 0.2)
movej(p[0.402247378485682, 0.228696860101787, 0.313979157704642, -1.385, 0.72, -0.736], a = 0.2, v = 0.2, t = 0.2)
movej(p[0.402244973302259, 0.228693647389624, 0.314048040892527, -1.385, 0.72, -0.736], a = 0.2, v = 0.2, t = 0.2)
movej(p[0.402227422434818, 0.228670203903047, 0.314550688502677, -1.385, 0.72, -0.736], a = 0.2, v = 0.2, t = 0.2)
movej(p[0.402188329489763, 0.228617985690144, 0.315670289882583, -1.385, 0.72, -0.736], a = 0.2, v = 0.2, t = 0.2)
movej(p[0.402144712011255, 0.228559723853491, 0.31691947152028, -1.385, 0.72, -0.736], a = 0.2, v = 0.2, t = 0.2)
movej(p[0.402107859721133, 0.228510498584615, 0.317974901721675, -1.385, 0.72, -0.736], a = 0.2, v = 0.2, t = 0.2)
movej(p[0.402093477769996, 0.228491287962714, 0.318386793236018, -1.385, 0.72, -0.736], a = 0.2, v = 0.2, t = 0.2)
movej(p[0.402085596785647, 0.228480760975861, 0.318612500481656, -1.385, 0.72, -0.736], a = 0.2, v = 0.2, t = 0.2)
movej(p[0.40208669306128, 0.228482225320753, 0.318581103724279, -1.385, 0.72, -0.736], a = 0.2, v = 0.2, t = 0.2)
movej(p[0.402095124449198, 0.228493487506519, 0.318339633209993, -1.385, 0.72, -0.736], a = 0.2, v = 0.2, t = 0.2)
movej(p[0.402114765386176, 0.228519722793405, 0.317777127107878, -1.385, 0.72, -0.736], a = 0.2, v = 0.2, t = 0.2)
movej(p[0.402148006066812, 0.228564123872323, 0.316825131502089, -1.385, 0.72, -0.736], a = 0.2, v = 0.2, t = 0.2)
movej(p[0.402186907294348, 0.228616085999474, 0.315711020811072, -1.385, 0.72, -0.736], a = 0.2, v = 0.2, t = 0.2)
movej(p[0.402225655147868, 0.228667843258023, 0.314601302671167, -1.385, 0.72, -0.736], a = 0.2, v = 0.2, t = 0.2)
movej(p[0.402251993649236, 0.228703024784255, 0.313846981848468, -1.385, 0.72, -0.736], a = 0.2, v = 0.2, t = 0.2)
movej(p[0.402266644353477, 0.228722594391819, 0.313427393386609, -1.385, 0.72, -0.736], a = 0.2, v = 0.2, t = 0.2)
movej(p[0.402267892260238, 0.22872426127726, 0.313391653993474, -1.385, 0.72, -0.736], a = 0.2, v = 0.2, t = 0.2)
movej(p[0.402242867895321, 0.228690835102456, 0.314108338639604, -1.385, 0.72, -0.736], a = 0.2, v = 0.2, t = 0.2)
movej(p[0.402201362795297, 0.228635394865181, 0.31529702286881, -1.385, 0.72, -0.736], a = 0.2, v = 0.2, t = 0.2)
movej(p[0.40215246785635, 0.22857008368619, 0.316697348197026, -1.385, 0.72, -0.736], a = 0.2, v = 0.2, t = 0.2)
movej(p[0.402118668754867, 0.228524936699317, 0.31766533668209, -1.385, 0.72, -0.736], a = 0.2, v = 0.2, t = 0.2)
movej(p[0.40209829308664, 0.228497719998708, 0.318248885100643, -1.385, 0.72, -0.736], a = 0.2, v = 0.2, t = 0.2)
movej(p[0.402089613441963, 0.228486126205173, 0.318497465557887, -1.385, 0.72, -0.736], a = 0.2, v = 0.2, t = 0.2)
movej(p[0.402090806622088, 0.228487719989772, 0.318463293506854, -1.385, 0.72, -0.736], a = 0.2, v = 0.2, t = 0.2)
movej(p[0.402100592964858, 0.228500792049951, 0.318183017798419, -1.385, 0.72, -0.736], a = 0.2, v = 0.2, t = 0.2)
movej(p[0.40212082017401, 0.228527810447066, 0.31760372116968, -1.385, 0.72, -0.736], a = 0.2, v = 0.2, t = 0.2)
movej(p[0.402150456565285, 0.228567397113845, 0.316754950515012, -1.385, 0.72, -0.736], a = 0.2, v = 0.2, t = 0.2)
movej(p[0.402185359611102, 0.228614018689039, 0.315755345645016, -1.385, 0.72, -0.736], a = 0.2, v = 0.2, t = 0.2)
movej(p[0.402212405724404, 0.228650145404501, 0.314980759188779, -1.385, 0.72, -0.736], a = 0.2, v = 0.2, t = 0.2)
movej(p[0.402234585698491, 0.228679772197965, 0.314345536399627, -1.385, 0.72, -0.736], a = 0.2, v = 0.2, t = 0.2)
movej(p[0.402247469115782, 0.228696981160506, 0.313976562106258, -1.385, 0.72, -0.736], a = 0.2, v = 0.2, t = 0.2)
movej(p[0.402252004106555, 0.228703038752569, 0.313846682356346, -1.385, 0.72, -0.736], a = 0.2, v = 0.2, t = 0.2)
movej(p[0.402235851034118, 0.228681462363929, 0.314309297852957, -1.385, 0.72, -0.736], a = 0.2, v = 0.2, t = 0.2)
movej(p[0.402206546139862, 0.228642318492697, 0.315148574607381, -1.385, 0.72, -0.736], a = 0.2, v = 0.2, t = 0.2)
movej(p[0.402173145462241, 0.228597703698578, 0.316105152442626, -1.385, 0.72, -0.736], a = 0.2, v = 0.2, t = 0.2)
movej(p[0.402138814083209, 0.228551845724536, 0.31708838507666, -1.385, 0.72, -0.736], a = 0.2, v = 0.2, t = 0.2)
movej(p[0.402113251166351, 0.228517700181574, 0.317820493567034, -1.385, 0.72, -0.736], a = 0.2, v = 0.2, t = 0.2)
movej(p[0.402097996377636, 0.228497323671085, 0.31825738269043, -1.385, 0.72, -0.736], a = 0.2, v = 0.2, t = 0.2)
movej(p[0.40209507495122, 0.228493421389834, 0.318341050806034, -1.385, 0.72, -0.736], a = 0.2, v = 0.2, t = 0.2)
movej(p[0.402098202003389, 0.228497598334695, 0.318251493677019, -1.385, 0.72, -0.736], a = 0.2, v = 0.2, t = 0.2)
movej(p[0.402111840473987, 0.228515815856049, 0.317860895054189, -1.385, 0.72, -0.736], a = 0.2, v = 0.2, t = 0.2)
movej(p[0.402139183575155, 0.228552339271622, 0.31707780302171, -1.385, 0.72, -0.736], a = 0.2, v = 0.2, t = 0.2)
movej(p[0.402168718530434, 0.228591790445757, 0.316231937440618, -1.385, 0.72, -0.736], a = 0.2, v = 0.2, t = 0.2)
movej(p[0.402196977692766, 0.228629537485615, 0.315422609898317, -1.385, 0.72, -0.736], a = 0.2, v = 0.2, t = 0.2)
movej(p[0.402221876569853, 0.228662796040654, 0.314709519157642, -1.385, 0.72, -0.736], a = 0.2, v = 0.2, t = 0.2)
movej(p[0.402243917113017, 0.228692236589935, 0.314078289596773, -1.385, 0.72, -0.736], a = 0.2, v = 0.2, t = 0.2)
movej(p[0.402247106595382, 0.228696496925629, 0.313986944499794, -1.385, 0.72, -0.736], a = 0.2, v = 0.2, t = 0.2)
movej(p[0.40223119752706, 0.22867524646431, 0.314442571846909, -1.385, 0.72, -0.736], a = 0.2, v = 0.2, t = 0.2)
movej(p[0.402197671361609, 0.228630464050427, 0.315402743587608, -1.385, 0.72, -0.736], a = 0.2, v = 0.2, t = 0.2)
movej(p[0.40216016095753, 0.228580359709005, 0.3164770218265, -1.385, 0.72, -0.736], a = 0.2, v = 0.2, t = 0.2)
movej(p[0.40212230127899, 0.228529788825904, 0.317561303102241, -1.385, 0.72, -0.736], a = 0.2, v = 0.2, t = 0.2)
movej(p[0.402098292389485, 0.228497719067487, 0.318248905066784, -1.385, 0.72, -0.736], a = 0.2, v = 0.2, t = 0.2)
movej(p[0.402090018140218, 0.228486666778915, 0.318485875212795, -1.385, 0.72, -0.736], a = 0.2, v = 0.2, t = 0.2)
movej(p[0.402087613305372, 0.228483454532363, 0.31855474841761, -1.385, 0.72, -0.736], a = 0.2, v = 0.2, t = 0.2)
movej(p[0.402093374939691, 0.228491150607629, 0.318389738241877, -1.385, 0.72, -0.736], a = 0.2, v = 0.2, t = 0.2)
movej(p[0.402106939477041, 0.228509269373005, 0.318001257028344, -1.385, 0.72, -0.736], a = 0.2, v = 0.2, t = 0.2)
movej(p[0.402134413643277, 0.22854596785811, 0.317214411361278, -1.385, 0.72, -0.736], a = 0.2, v = 0.2, t = 0.2)
movej(p[0.402164340399449, 0.228585942378401, 0.316357324808711, -1.385, 0.72, -0.736], a = 0.2, v = 0.2, t = 0.2)
movej(p[0.402196939349263, 0.228629486268465, 0.315423708036095, -1.385, 0.72, -0.736], a = 0.2, v = 0.2, t = 0.2)
movej(p[0.402226801967211, 0.228669375116431, 0.314568458368537, -1.385, 0.72, -0.736], a = 0.2, v = 0.2, t = 0.2)
movej(p[0.402247960609786, 0.228697637671252, 0.31396248597656, -1.385, 0.72, -0.736], a = 0.2, v = 0.2, t = 0.2)
movej(p[0.40224831615864, 0.22869811259392, 0.313952303244437, -1.385, 0.72, -0.736], a = 0.2, v = 0.2, t = 0.2)
movej(p[0.402228269477676, 0.22867133533646, 0.314526429640857, -1.385, 0.72, -0.736], a = 0.2, v = 0.2, t = 0.2)
movej(p[0.402196134135682, 0.228628410708306, 0.315446768929431, -1.385, 0.72, -0.736], a = 0.2, v = 0.2, t = 0.2)
movej(p[0.402153621647239, 0.228571624856807, 0.316664304232983, -1.385, 0.72, -0.736], a = 0.2, v = 0.2, t = 0.2)
movej(p[0.402118412550546, 0.228524594475631, 0.31767267423906, -1.385, 0.72, -0.736], a = 0.2, v = 0.2, t = 0.2)
movej(p[0.402096482157811, 0.228495301059254, 0.318300749149586, -1.385, 0.72, -0.736], a = 0.2, v = 0.2, t = 0.2)
movej(p[0.402087385335813, 0.228483150023123, 0.318561277345853, -1.385, 0.72, -0.736], a = 0.2, v = 0.2, t = 0.2)
movej(p[0.402083588980355, 0.228478079059621, 0.318670002968934, -1.385, 0.72, -0.736], a = 0.2, v = 0.2, t = 0.2)
movej(p[0.402083451292318, 0.22847789514349, 0.318673946281864, -1.385, 0.72, -0.736], a = 0.2, v = 0.2, t = 0.2)
movej(p[0.402093820770067, 0.228491746123405, 0.318376969894441, -1.385, 0.72, -0.736], a = 0.2, v = 0.2, t = 0.2)
movej(p[0.40211249266213, 0.228516687013216, 0.317842216728895, -1.385, 0.72, -0.736], a = 0.2, v = 0.2, t = 0.2)
movej(p[0.402144659724658, 0.228559654011923, 0.316920968980886, -1.385, 0.72, -0.736], a = 0.2, v = 0.2, t = 0.2)
movej(p[0.402182016754721, 0.228609553484743, 0.315851083293106, -1.385, 0.72, -0.736], a = 0.2, v = 0.2, t = 0.2)
movej(p[0.402213123793658, 0.228651104562045, 0.314960194063121, -1.385, 0.72, -0.736], a = 0.2, v = 0.2, t = 0.2)
movej(p[0.402236237954929, 0.228681979191538, 0.314298216644471, -1.385, 0.72, -0.736], a = 0.2, v = 0.2, t = 0.2)
movej(p[0.402255224960878, 0.228707340993204, 0.313754438783004, -1.385, 0.72, -0.736], a = 0.2, v = 0.2, t = 0.2)
movej(p[0.40227280022873, 0.228730817072513, 0.313251092357905, -1.385, 0.72, -0.736], a = 0.2, v = 0.2, t = 0.2)
movej(p[0.402272082159477, 0.228729857914969, 0.313271657483563, -1.385, 0.72, -0.736], a = 0.2, v = 0.2, t = 0.2)
movej(p[0.402246608129832, 0.228695831102674, 0.314001220290907, -1.385, 0.72, -0.736], a = 0.2, v = 0.2, t = 0.2)
movej(p[0.402207389696946, 0.228643445270006, 0.315124415576268, -1.385, 0.72, -0.736], a = 0.2, v = 0.2, t = 0.2)
movej(p[0.402171486234257, 0.228595487392797, 0.316152671859196, -1.385, 0.72, -0.736], a = 0.2, v = 0.2, t = 0.2)
movej(p[0.402137688178505, 0.228550341802756, 0.317120630395047, -1.385, 0.72, -0.736], a = 0.2, v = 0.2, t = 0.2)
movej(p[0.402111895549202, 0.228515889422501, 0.317859317729018, -1.385, 0.72, -0.736], a = 0.2, v = 0.2, t = 0.2)
movej(p[0.4020957403853, 0.228494310240199, 0.318321993124052, -1.385, 0.72, -0.736], a = 0.2, v = 0.2, t = 0.2)
movej(p[0.402090358700247, 0.228487121680333, 0.318476121752714, -1.385, 0.72, -0.736], a = 0.2, v = 0.2, t = 0.2)
movej(p[0.402087127737182, 0.228482805936994, 0.318568654835106, -1.385, 0.72, -0.736], a = 0.2, v = 0.2, t = 0.2)
movej(p[0.40208723161322, 0.228482944688911, 0.318565679880035, -1.385, 0.72, -0.736], a = 0.2, v = 0.2, t = 0.2)
movej(p[0.402089957139189, 0.228486585297085, 0.318487622250169, -1.385, 0.72, -0.736], a = 0.2, v = 0.2, t = 0.2)
movej(p[0.402098493414019, 0.228497987585038, 0.318243147829907, -1.385, 0.72, -0.736], a = 0.2, v = 0.2, t = 0.2)
movej(p[0.402118924262033, 0.228525277991783, 0.317658019091261, -1.385, 0.72, -0.736], a = 0.2, v = 0.2, t = 0.2)
movej(p[0.402152607287273, 0.228570269930373, 0.316693354968743, -1.385, 0.72, -0.736], a = 0.2, v = 0.2, t = 0.2)
movej(p[0.402186572660133, 0.228615639013434, 0.315720604558952, -1.385, 0.72, -0.736], a = 0.2, v = 0.2, t = 0.2)
movej(p[0.402212273265027, 0.228649968472527, 0.314984552755648, -1.385, 0.72, -0.736], a = 0.2, v = 0.2, t = 0.2)
movej(p[0.402231622791376, 0.22867581450907, 0.314430392500645, -1.385, 0.72, -0.736], a = 0.2, v = 0.2, t = 0.2)
movej(p[0.402243955456521, 0.228692287807086, 0.314077191458995, -1.385, 0.72, -0.736], a = 0.2, v = 0.2, t = 0.2)
movej(p[0.402236084580914, 0.228681774322936, 0.314302609195582, -1.385, 0.72, -0.736], a = 0.2, v = 0.2, t = 0.2)
movej(p[0.402209299900592, 0.228645996815317, 0.315069708348788, -1.385, 0.72, -0.736], a = 0.2, v = 0.2, t = 0.2)
movej(p[0.402170036152657, 0.22859355045329, 0.316194201433341, -1.385, 0.72, -0.736], a = 0.2, v = 0.2, t = 0.2)
movej(p[0.402138528249817, 0.22855146392396, 0.317096571194641, -1.385, 0.72, -0.736], a = 0.2, v = 0.2, t = 0.2)
movej(p[0.402108480885896, 0.228511328302451, 0.317957111889673, -1.385, 0.72, -0.736], a = 0.2, v = 0.2, t = 0.2)
movej(p[0.402093029499579, 0.228490689187665, 0.318399631464949, -1.385, 0.72, -0.736], a = 0.2, v = 0.2, t = 0.2)
movej(p[0.402087905761733, 0.228483845179537, 0.318546372621286, -1.385, 0.72, -0.736], a = 0.2, v = 0.2, t = 0.2)
movej(p[0.402099480689527, 0.228499306333539, 0.318214872778741, -1.385, 0.72, -0.736], a = 0.2, v = 0.2, t = 0.2)
movej(p[0.402124247734676, 0.228532388794703, 0.317505557635408, -1.385, 0.72, -0.736], a = 0.2, v = 0.2, t = 0.2)
movej(p[0.402161977045303, 0.228582785539493, 0.316425010028111, -1.385, 0.72, -0.736], a = 0.2, v = 0.2, t = 0.2)
movej(p[0.402202321382893, 0.228636675293941, 0.315269569424363, -1.385, 0.72, -0.736], a = 0.2, v = 0.2, t = 0.2)
movej(p[0.402231075525003, 0.22867508350065, 0.314446065921657, -1.385, 0.72, -0.736], a = 0.2, v = 0.2, t = 0.2)
movej(p[0.402248249928951, 0.228698024127932, 0.313954200027872, -1.385, 0.72, -0.736], a = 0.2, v = 0.2, t = 0.2)
movej(p[0.402250745742474, 0.228701357898814, 0.313882721241602, -1.385, 0.72, -0.736], a = 0.2, v = 0.2, t = 0.2)
movej(p[0.402242655263163, 0.228690551080076, 0.314114428312736, -1.385, 0.72, -0.736], a = 0.2, v = 0.2, t = 0.2)
movej(p[0.402216965115588, 0.228656235589296, 0.314850180623918, -1.385, 0.72, -0.736], a = 0.2, v = 0.2, t = 0.2)
movej(p[0.402188367833267, 0.228618036907294, 0.315669191744806, -1.385, 0.72, -0.736], a = 0.2, v = 0.2, t = 0.2)
movej(p[0.402165616192395, 0.228587646512678, 0.316320786769919, -1.385, 0.72, -0.736], a = 0.2, v = 0.2, t = 0.2)
movej(p[0.402151261778866, 0.228568472674004, 0.316731889621676, -1.385, 0.72, -0.736], a = 0.2, v = 0.2, t = 0.2)
movej(p[0.402149131971516, 0.228565627794103, 0.316792886183702, -1.385, 0.72, -0.736], a = 0.2, v = 0.2, t = 0.2)
movej(p[0.402167906345307, 0.228590705573389, 0.316255197995367, -1.385, 0.72, -0.736], a = 0.2, v = 0.2, t = 0.2)
movej(p[0.402203921352735, 0.228638812445945, 0.315223747129813, -1.385, 0.72, -0.736], a = 0.2, v = 0.2, t = 0.2)
movej(p[0.402241891878859, 0.228689531393172, 0.314136291237587, -1.385, 0.72, -0.736], a = 0.2, v = 0.2, t = 0.2)
movej(p[0.402275707363476, 0.228734700263736, 0.3131678335482, -1.385, 0.72, -0.736], a = 0.2, v = 0.2, t = 0.2)
movej(p[0.402310352462086, 0.22878097728719, 0.312175616150528, -1.385, 0.72, -0.736], a = 0.2, v = 0.2, t = 0.2)
movej(p[0.402338796370391, 0.228818971100591, 0.311360997580752, -1.385, 0.72, -0.736], a = 0.2, v = 0.2, t = 0.2)
movej(p[0.402356894504205, 0.228843145595588, 0.310842676549591, -1.385, 0.72, -0.736], a = 0.2, v = 0.2, t = 0.2)
movej(p[0.40235081531596, 0.228835025349195, 0.311016781302739, -1.385, 0.72, -0.736], a = 0.2, v = 0.2, t = 0.2)
movej(p[0.402333389936349, 0.228811749482382, 0.311515835007434, -1.385, 0.72, -0.736], a = 0.2, v = 0.2, t = 0.2)
movej(p[0.402300703842209, 0.228768089189704, 0.312451947547727, -1.385, 0.72, -0.736], a = 0.2, v = 0.2, t = 0.2)
movej(p[0.402271102657242, 0.228728549549581, 0.313299709912253, -1.385, 0.72, -0.736], a = 0.2, v = 0.2, t = 0.2)
movej(p[0.402242512346467, 0.228690360179788, 0.314118521371726, -1.385, 0.72, -0.736], a = 0.2, v = 0.2, t = 0.2)
movej(p[0.402217902788546, 0.228657488081429, 0.314823326163714, -1.385, 0.72, -0.736], a = 0.2, v = 0.2, t = 0.2)
movej(p[0.402191069307401, 0.228621645388346, 0.315591822946818, -1.385, 0.72, -0.736], a = 0.2, v = 0.2, t = 0.2)
movej(p[0.402167027930492, 0.228589532235034, 0.316280355333552, -1.385, 0.72, -0.736], a = 0.2, v = 0.2, t = 0.2)
movej(p[0.40214808275382, 0.228564226306624, 0.316822935226533, -1.385, 0.72, -0.736], a = 0.2, v = 0.2, t = 0.2)
movej(p[0.402135147049932, 0.228546947502515, 0.317193406980509, -1.385, 0.72, -0.736], a = 0.2, v = 0.2, t = 0.2)
movej(p[0.402131764107161, 0.228542428753016, 0.31729029268173, -1.385, 0.72, -0.736], a = 0.2, v = 0.2, t = 0.2)
movej(p[0.402143408332124, 0.228557982470377, 0.316956808204728, -1.385, 0.72, -0.736], a = 0.2, v = 0.2, t = 0.2)
movej(p[0.402164877208503, 0.228586659418506, 0.31634195087982, -1.385, 0.72, -0.736], a = 0.2, v = 0.2, t = 0.2)
movej(p[0.402191083250494, 0.228621664012764, 0.31559142362399, -1.385, 0.72, -0.736], a = 0.2, v = 0.2, t = 0.2)
movej(p[0.402212970419642, 0.228650899693444, 0.314964586614232, -1.385, 0.72, -0.736], a = 0.2, v = 0.2, t = 0.2)
movej(p[0.402231504275091, 0.228675656201514, 0.314433786744686, -1.385, 0.72, -0.736], a = 0.2, v = 0.2, t = 0.2)
movej(p[0.402224644273676, 0.228666492987694, 0.31463025357622, -1.385, 0.72, -0.736], a = 0.2, v = 0.2, t = 0.2)
movej(p[0.402200812043151, 0.228634659200657, 0.315312796120529, -1.385, 0.72, -0.736], a = 0.2, v = 0.2, t = 0.2)
movej(p[0.402161726069642, 0.228582450299963, 0.316432197839021, -1.385, 0.72, -0.736], a = 0.2, v = 0.2, t = 0.2)
movej(p[0.402130522823369, 0.228540770714174, 0.317325842396521, -1.385, 0.72, -0.736], a = 0.2, v = 0.2, t = 0.2)
movej(p[0.402108050392921, 0.228510753273535, 0.317969440981998, -1.385, 0.72, -0.736], a = 0.2, v = 0.2, t = 0.2)
movej(p[0.402097656933053, 0.228496870259621, 0.318267104204685, -1.385, 0.72, -0.736], a = 0.2, v = 0.2, t = 0.2)
movej(p[0.40209885007832, 0.228498463997659, 0.318232933151959, -1.385, 0.72, -0.736], a = 0.2, v = 0.2, t = 0.2)
movej(p[0.402109657682886, 0.228512900203359, 0.317923409042963, -1.385, 0.72, -0.736], a = 0.2, v = 0.2, t = 0.2)
movej(p[0.402132464398972, 0.228543364164427, 0.317270236692678, -1.385, 0.72, -0.736], a = 0.2, v = 0.2, t = 0.2)
movej(p[0.402162329108384, 0.228583255806056, 0.316414927126696, -1.385, 0.72, -0.736], a = 0.2, v = 0.2, t = 0.2)
movej(p[0.402193634836386, 0.22862507228132, 0.315518347546407, -1.385, 0.72, -0.736], a = 0.2, v = 0.2, t = 0.2)
movej(p[0.402216609566734, 0.228655760666629, 0.31486036335604, -1.385, 0.72, -0.736], a = 0.2, v = 0.2, t = 0.2)
movej(p[0.402230367913068, 0.22867413831142, 0.314466331555194, -1.385, 0.72, -0.736], a = 0.2, v = 0.2, t = 0.2)
movej(p[0.402231933025179, 0.228676228902377, 0.314421507567715, -1.385, 0.72, -0.736], a = 0.2, v = 0.2, t = 0.2)
movej(p[0.402217515867734, 0.22865697125382, 0.3148344073722, -1.385, 0.72, -0.736], a = 0.2, v = 0.2, t = 0.2)
movej(p[0.402182546592229, 0.22861026121264, 0.31583590902563, -1.385, 0.72, -0.736], a = 0.2, v = 0.2, t = 0.2)
movej(p[0.402144565608785, 0.228559528297099, 0.316923664409977, -1.385, 0.72, -0.736], a = 0.2, v = 0.2, t = 0.2)
movej(p[0.402118647840228, 0.22852490876269, 0.317665935666332, -1.385, 0.72, -0.736], a = 0.2, v = 0.2, t = 0.2)
movej(p[0.402103988072977, 0.228505327049254, 0.318085783688029, -1.385, 0.72, -0.736], a = 0.2, v = 0.2, t = 0.2)
movej(p[0.402098226891809, 0.228497631579282, 0.318250780885771, -1.385, 0.72, -0.736], a = 0.2, v = 0.2, t = 0.2)
movej(p[0.402100020371904, 0.228500027211672, 0.318199416559399, -1.385, 0.72, -0.736], a = 0.2, v = 0.2, t = 0.2)
movej(p[0.402111973979096, 0.228515994184854, 0.317857071538108, -1.385, 0.72, -0.736], a = 0.2, v = 0.2, t = 0.2)
movej(p[0.40213250866829, 0.228543423296955, 0.317268968842698, -1.385, 0.72, -0.736], a = 0.2, v = 0.2, t = 0.2)
movej(p[0.402159739178988, 0.22857979632035, 0.316489101342057, -1.385, 0.72, -0.736], a = 0.2, v = 0.2, t = 0.2)
movej(p[0.402192094124686, 0.228623014283094, 0.315562472718937, -1.385, 0.72, -0.736], a = 0.2, v = 0.2, t = 0.2)
movej(p[0.402214211354858, 0.228652557266675, 0.314929046882512, -1.385, 0.72, -0.736], a = 0.2, v = 0.2, t = 0.2)
movej(p[0.402223103561976, 0.228664434989468, 0.31467437874875, -1.385, 0.72, -0.736], a = 0.2, v = 0.2, t = 0.2)
movej(p[0.402214138153623, 0.228652459488479, 0.31493114332736, -1.385, 0.72, -0.736], a = 0.2, v = 0.2, t = 0.2)
movej(p[0.402194028728744, 0.228625598421137, 0.315507066676507, -1.385, 0.72, -0.736], a = 0.2, v = 0.2, t = 0.2)
movej(p[0.402162123447773, 0.228582981095886, 0.316420817138414, -1.385, 0.72, -0.736], a = 0.2, v = 0.2, t = 0.2)
movej(p[0.40212892111064, 0.228538631234118, 0.317371714606425, -1.385, 0.72, -0.736], a = 0.2, v = 0.2, t = 0.2)
movej(p[0.402103548168415, 0.228504739448855, 0.318098382323263, -1.385, 0.72, -0.736], a = 0.2, v = 0.2, t = 0.2)
movej(p[0.402096666624922, 0.228495547460309, 0.318295466108567, -1.385, 0.72, -0.736], a = 0.2, v = 0.2, t = 0.2)
movej(p[0.402090116090441, 0.228486797615454, 0.318483069969926, -1.385, 0.72, -0.736], a = 0.2, v = 0.2, t = 0.2)
movej(p[0.402088601173462, 0.228484774072402, 0.318526456395223, -1.385, 0.72, -0.736], a = 0.2, v = 0.2, t = 0.2)
movej(p[0.402086954494261, 0.228482574528597, 0.318573616421248, -1.385, 0.72, -0.736], a = 0.2, v = 0.2, t = 0.2)
movej(p[0.402089650391158, 0.228486175559881, 0.318496407352392, -1.385, 0.72, -0.736], a = 0.2, v = 0.2, t = 0.2)
movej(p[0.402094735088345, 0.228492967419637, 0.318350784299974, -1.385, 0.72, -0.736], a = 0.2, v = 0.2, t = 0.2)
movej(p[0.402111450764557, 0.228515295303557, 0.317872056127241, -1.385, 0.72, -0.736], a = 0.2, v = 0.2, t = 0.2)
movej(p[0.402140361766455, 0.228553913034971, 0.317044060242716, -1.385, 0.72, -0.736], a = 0.2, v = 0.2, t = 0.2)
movej(p[0.40217013026853, 0.228593676168114, 0.31619150600425, -1.385, 0.72, -0.736], a = 0.2, v = 0.2, t = 0.2)
movej(p[0.402197127581009, 0.228629737698112, 0.315418317177913, -1.385, 0.72, -0.736], a = 0.2, v = 0.2, t = 0.2)
movej(p[0.402218589485842, 0.228658405334032, 0.314803659514419, -1.385, 0.72, -0.736], a = 0.2, v = 0.2, t = 0.2)
movej(p[0.402239340292967, 0.228686123124617, 0.314209367315169, -1.385, 0.72, -0.736], a = 0.2, v = 0.2, t = 0.2)
movej(p[0.402238451420833, 0.228684935817948, 0.314234824145475, -1.385, 0.72, -0.736], a = 0.2, v = 0.2, t = 0.2)
movej(p[0.402219035664796, 0.228659001315419, 0.314790881183913, -1.385, 0.72, -0.736], a = 0.2, v = 0.2, t = 0.2)
movej(p[0.402181776236379, 0.228609232213527, 0.315857971611895, -1.385, 0.72, -0.736], a = 0.2, v = 0.2, t = 0.2)
movej(p[0.402145311564224, 0.22856052470348, 0.316902300638662, -1.385, 0.72, -0.736], a = 0.2, v = 0.2, t = 0.2)
movej(p[0.402112664510742, 0.228516916559172, 0.317837295075036, -1.385, 0.72, -0.736], a = 0.2, v = 0.2, t = 0.2)
movej(p[0.402093656938732, 0.22849152728649, 0.318381661937674, -1.385, 0.72, -0.736], a = 0.2, v = 0.2, t = 0.2)
movej(p[0.402087948636742, 0.228483902449624, 0.318545144703589, -1.385, 0.72, -0.736], a = 0.2, v = 0.2, t = 0.2)
movej(p[0.402087727290152, 0.228483606786983, 0.318551483953489, -1.385, 0.72, -0.736], a = 0.2, v = 0.2, t = 0.2)
movej(p[0.402087168869305, 0.228482860879028, 0.318567476832763, -1.385, 0.72, -0.736], a = 0.2, v = 0.2, t = 0.2)
movej(p[0.402088072381686, 0.228484067741337, 0.318541600713488, -1.385, 0.72, -0.736], a = 0.2, v = 0.2, t = 0.2)
movej(p[0.402096282771591, 0.228495034730072, 0.31830645946603, -1.385, 0.72, -0.736], a = 0.2, v = 0.2, t = 0.2)
movej(p[0.402112685076803, 0.228516944030189, 0.317836706073864, -1.385, 0.72, -0.736], a = 0.2, v = 0.2, t = 0.2)
movej(p[0.40213866768074, 0.228551650168144, 0.317092577966357, -1.385, 0.72, -0.736], a = 0.2, v = 0.2, t = 0.2)
movej(p[0.402169833977818, 0.228593280399224, 0.316199991614352, -1.385, 0.72, -0.736], a = 0.2, v = 0.2, t = 0.2)
movej(p[0.402198288343443, 0.228631288180938, 0.315385073552455, -1.385, 0.72, -0.736], a = 0.2, v = 0.2, t = 0.2)
movej(p[0.402215957727169, 0.228654889975072, 0.314879031698264, -1.385, 0.72, -0.736], a = 0.2, v = 0.2, t = 0.2)
movej(p[0.402221928856449, 0.228662865882223, 0.314708021697036, -1.385, 0.72, -0.736], a = 0.2, v = 0.2, t = 0.2)
movej(p[0.402221113185549, 0.228661776353751, 0.314731382082493, -1.385, 0.72, -0.736], a = 0.2, v = 0.2, t = 0.2)
movej(p[0.402200093973897, 0.228633700043113, 0.315333361246187, -1.385, 0.72, -0.736], a = 0.2, v = 0.2, t = 0.2)
movej(p[0.402166710725142, 0.228589108529517, 0.316289439927896, -1.385, 0.72, -0.736], a = 0.2, v = 0.2, t = 0.2)
movej(p[0.402128704992709, 0.228538342555634, 0.317377904110264, -1.385, 0.72, -0.736], a = 0.2, v = 0.2, t = 0.2)
movej(p[0.402107441776941, 0.228509940317675, 0.317986871423454, -1.385, 0.72, -0.736], a = 0.2, v = 0.2, t = 0.2)
movej(p[0.402092514650895, 0.228490001481018, 0.318414376460384, -1.385, 0.72, -0.736], a = 0.2, v = 0.2, t = 0.2)
movej(p[0.402087488514696, 0.228483287843819, 0.318558322356924, -1.385, 0.72, -0.736], a = 0.2, v = 0.2, t = 0.2)
movej(p[0.402084319946969, 0.228479055444752, 0.31864906846966, -1.385, 0.72, -0.736], a = 0.2, v = 0.2, t = 0.2)
movej(p[0.402085582842555, 0.228480742351443, 0.318612899804484, -1.385, 0.72, -0.736], a = 0.2, v = 0.2, t = 0.2)
movej(p[0.402086390147599, 0.228481820705265, 0.318589779012725, -1.385, 0.72, -0.736], a = 0.2, v = 0.2, t = 0.2)
movej(p[0.402095926525583, 0.228494558876184, 0.318316662164294, -1.385, 0.72, -0.736], a = 0.2, v = 0.2, t = 0.2)
movej(p[0.402117736310569, 0.228523691191341, 0.317692041396234, -1.385, 0.72, -0.736], a = 0.2, v = 0.2, t = 0.2)
movej(p[0.402141972193616, 0.228556064155289, 0.316997938456045, -1.385, 0.72, -0.736], a = 0.2, v = 0.2, t = 0.2)
movej(p[0.402168059719322, 0.228590910441991, 0.316250805444256, -1.385, 0.72, -0.736], a = 0.2, v = 0.2, t = 0.2)
movej(p[0.402193746381124, 0.228625221276666, 0.315515152963781, -1.385, 0.72, -0.736], a = 0.2, v = 0.2, t = 0.2)
movej(p[0.402216428306534, 0.22865551854919, 0.314865554552809, -1.385, 0.72, -0.736], a = 0.2, v = 0.2, t = 0.2)
movej(p[0.402225257769738, 0.2286673124621, 0.314612683371774, -1.385, 0.72, -0.736], a = 0.2, v = 0.2, t = 0.2)
movej(p[0.402217718042573, 0.228657241307886, 0.314828617191189, -1.385, 0.72, -0.736], a = 0.2, v = 0.2, t = 0.2)
movej(p[0.40219728792657, 0.228629951878923, 0.315413724965387, -1.385, 0.72, -0.736], a = 0.2, v = 0.2, t = 0.2)
movej(p[0.4021623012222, 0.228583218557219, 0.316415725772353, -1.385, 0.72, -0.736], a = 0.2, v = 0.2, t = 0.2)
movej(p[0.402126036981996, 0.228534778773186, 0.317454314533463, -1.385, 0.72, -0.736], a = 0.2, v = 0.2, t = 0.2)
movej(p[0.402101159681845, 0.228501549039434, 0.318166787322061, -1.385, 0.72, -0.736], a = 0.2, v = 0.2, t = 0.2)
movej(p[0.402092266115275, 0.228489669500761, 0.318421494389799, -1.385, 0.72, -0.736], a = 0.2, v = 0.2, t = 0.2)
movej(p[0.402088326494544, 0.228484407171361, 0.318534323054941, -1.385, 0.72, -0.736], a = 0.2, v = 0.2, t = 0.2)
movej(p[0.402090528457396, 0.228487348432626, 0.318471259997279, -1.385, 0.72, -0.736], a = 0.2, v = 0.2, t = 0.2)
movej(p[0.402101894308521, 0.228502530313475, 0.318145748000544, -1.385, 0.72, -0.736], a = 0.2, v = 0.2, t = 0.2)
movej(p[0.402123295770049, 0.228531117212541, 0.317532821401511, -1.385, 0.72, -0.736], a = 0.2, v = 0.2, t = 0.2)
movej(p[0.402149944156643, 0.228566712666471, 0.316769625628952, -1.385, 0.72, -0.736], a = 0.2, v = 0.2, t = 0.2)
movej(p[0.402178123146195, 0.228604352615923, 0.315962594192915, -1.385, 0.72, -0.736], a = 0.2, v = 0.2, t = 0.2)
movej(p[0.402207375753854, 0.228643426645587, 0.315124814899096, -1.385, 0.72, -0.736], a = 0.2, v = 0.2, t = 0.2)
movej(p[0.402221716224292, 0.228662581859844, 0.314714111370168, -1.385, 0.72, -0.736], a = 0.2, v = 0.2, t = 0.2)
movej(p[0.40221897292088, 0.228658917505536, 0.31479267813664, -1.385, 0.72, -0.736], a = 0.2, v = 0.2, t = 0.2)
movej(p[0.402196179450732, 0.228628471237665, 0.315445471130238, -1.385, 0.72, -0.736], a = 0.2, v = 0.2, t = 0.2)
movej(p[0.402164835379226, 0.228586603545251, 0.316343148848305, -1.385, 0.72, -0.736], a = 0.2, v = 0.2, t = 0.2)
movej(p[0.402129084593397, 0.228538849605423, 0.317367032546263, -1.385, 0.72, -0.736], a = 0.2, v = 0.2, t = 0.2)
movej(p[0.402103185299438, 0.228504254748368, 0.31810877469987, -1.385, 0.72, -0.736], a = 0.2, v = 0.2, t = 0.2)
movej(p[0.402093628355393, 0.228491489106432, 0.318382480549472, -1.385, 0.72, -0.736], a = 0.2, v = 0.2, t = 0.2)
movej(p[0.402090300487837, 0.228487043923386, 0.318477788925522, -1.385, 0.72, -0.736], a = 0.2, v = 0.2, t = 0.2)
movej(p[0.402088791845249, 0.228485028761323, 0.318520995655546, -1.385, 0.72, -0.736], a = 0.2, v = 0.2, t = 0.2)
movej(p[0.402092586109243, 0.228490096931162, 0.318412329930889, -1.385, 0.72, -0.736], a = 0.2, v = 0.2, t = 0.2)
movej(p[0.40210752613265, 0.228510052995406, 0.317984455520343, -1.385, 0.72, -0.736], a = 0.2, v = 0.2, t = 0.2)
movej(p[0.402131233572499, 0.228541720093899, 0.317305486915348, -1.385, 0.72, -0.736], a = 0.2, v = 0.2, t = 0.2)
movej(p[0.402162283793334, 0.228583195276696, 0.316416224925888, -1.385, 0.72, -0.736], a = 0.2, v = 0.2, t = 0.2)
movej(p[0.40219317471434, 0.228624457675515, 0.315531525199742, -1.385, 0.72, -0.736], a = 0.2, v = 0.2, t = 0.2)
movej(p[0.40221720563393, 0.228656556860513, 0.31484329230513, -1.385, 0.72, -0.736], a = 0.2, v = 0.2, t = 0.2)
movej(p[0.402228168390257, 0.228671200309427, 0.314529324731362, -1.385, 0.72, -0.736], a = 0.2, v = 0.2, t = 0.2)
movej(p[0.40222182776903, 0.22866273085519, 0.314710916787541, -1.385, 0.72, -0.736], a = 0.2, v = 0.2, t = 0.2)
movej(p[0.402201993720224, 0.228636237620111, 0.315278953510828, -1.385, 0.72, -0.736], a = 0.2, v = 0.2, t = 0.2)
movej(p[0.402163789647303, 0.228585206713876, 0.316373098060429, -1.385, 0.72, -0.736], a = 0.2, v = 0.2, t = 0.2)
movej(p[0.40212783354944, 0.228537178529488, 0.317402861787034, -1.385, 0.72, -0.736], a = 0.2, v = 0.2, t = 0.2)
movej(p[0.402102685648725, 0.228503587342337, 0.318123084433423, -1.385, 0.72, -0.736], a = 0.2, v = 0.2, t = 0.2)
movej(p[0.40209377371213, 0.228491683265993, 0.318378317608987, -1.385, 0.72, -0.736], a = 0.2, v = 0.2, t = 0.2)
movej(p[0.40209075712411, 0.228487653873087, 0.318464711102894, -1.385, 0.72, -0.736], a = 0.2, v = 0.2, t = 0.2)
movej(p[0.402089734049712, 0.228486287306391, 0.318494011415422, -1.385, 0.72, -0.736], a = 0.2, v = 0.2, t = 0.2)
movej(p[0.402092826279008, 0.228490417736767, 0.318405451595171, -1.385, 0.72, -0.736], a = 0.2, v = 0.2, t = 0.2)
movej(p[0.402093037865434, 0.228490700362316, 0.318399391871252, -1.385, 0.72, -0.736], a = 0.2, v = 0.2, t = 0.2)
movej(p[0.402102490619721, 0.228503326833286, 0.318128669961484, -1.385, 0.72, -0.736], a = 0.2, v = 0.2, t = 0.2)
movej(p[0.402120505408701, 0.228527390000822, 0.317612735882529, -1.385, 0.72, -0.736], a = 0.2, v = 0.2, t = 0.2)
movej(p[0.402146311981097, 0.228561861005495, 0.31687364922573, -1.385, 0.72, -0.736], a = 0.2, v = 0.2, t = 0.2)
movej(p[0.402170426559241, 0.228594071937003, 0.316183020394148, -1.385, 0.72, -0.736], a = 0.2, v = 0.2, t = 0.2)
movej(p[0.40219312939929, 0.228624397146155, 0.315532822998934, -1.385, 0.72, -0.736], a = 0.2, v = 0.2, t = 0.2)
movej(p[0.402213622259208, 0.228651770385001, 0.314945918272008, -1.385, 0.72, -0.736], a = 0.2, v = 0.2, t = 0.2)
movej(p[0.402221175929465, 0.228661860163633, 0.314729585129765, -1.385, 0.72, -0.736], a = 0.2, v = 0.2, t = 0.2)
movej(p[0.402213102879019, 0.228651076625418, 0.314960793047363, -1.385, 0.72, -0.736], a = 0.2, v = 0.2, t = 0.2)
movej(p[0.402188015770186, 0.228617566640731, 0.315679274646221, -1.385, 0.72, -0.736], a = 0.2, v = 0.2, t = 0.2)
movej(p[0.402157863833073, 0.228577291336085, 0.316542810262466, -1.385, 0.72, -0.736], a = 0.2, v = 0.2, t = 0.2)
movej(p[0.402124796046781, 0.228533121199954, 0.317489854265184, -1.385, 0.72, -0.736], a = 0.2, v = 0.2, t = 0.2)
movej(p[0.402104056394129, 0.228505418308904, 0.318083827006171, -1.385, 0.72, -0.736], a = 0.2, v = 0.2, t = 0.2)
movej(p[0.402094691516182, 0.22849290921833, 0.318352032183813, -1.385, 0.72, -0.736], a = 0.2, v = 0.2, t = 0.2)
movej(p[0.402090337785609, 0.228487093743705, 0.318476720736956, -1.385, 0.72, -0.736], a = 0.2, v = 0.2, t = 0.2)
movej(p[0.402088104450799, 0.228484110577499, 0.318540682270982, -1.385, 0.72, -0.736], a = 0.2, v = 0.2, t = 0.2)
movej(p[0.402089240115667, 0.228485627536372, 0.318508157426616, -1.385, 0.72, -0.736], a = 0.2, v = 0.2, t = 0.2)
movej(p[0.402094682801749, 0.228492897578068, 0.31835228176058, -1.385, 0.72, -0.736], a = 0.2, v = 0.2, t = 0.2)
movej(p[0.402106893116259, 0.228509207446814, 0.318002584776749, -1.385, 0.72, -0.736], a = 0.2, v = 0.2, t = 0.2)
movej(p[0.40212868930673, 0.228538321603163, 0.317378353348446, -1.385, 0.72, -0.736], a = 0.2, v = 0.2, t = 0.2)
movej(p[0.402158240296565, 0.22857779419538, 0.316532028546101, -1.385, 0.72, -0.736], a = 0.2, v = 0.2, t = 0.2)
movej(p[0.402180434213744, 0.228607439613262, 0.31589640643412, -1.385, 0.72, -0.736], a = 0.2, v = 0.2, t = 0.2)
movej(p[0.402199529278659, 0.22863294575417, 0.315349533820734, -1.385, 0.72, -0.736], a = 0.2, v = 0.2, t = 0.2)
movej(p[0.402213988265381, 0.228652259275982, 0.314935436047765, -1.385, 0.72, -0.736], a = 0.2, v = 0.2, t = 0.2)
movej(p[0.402218969435107, 0.228658912849432, 0.314792777967347, -1.385, 0.72, -0.736], a = 0.2, v = 0.2, t = 0.2)
movej(p[0.402203415915639, 0.228638137310781, 0.31523822258234, -1.385, 0.72, -0.736], a = 0.2, v = 0.2, t = 0.2)
movej(p[0.402172141559595, 0.228596362740458, 0.316133903686265, -1.385, 0.72, -0.736], a = 0.2, v = 0.2, t = 0.2)
movej(p[0.402139793585443, 0.228553154089924, 0.317060332647971, -1.385, 0.72, -0.736], a = 0.2, v = 0.2, t = 0.2)
movej(p[0.402114149450073, 0.228518900059725, 0.317794767193819, -1.385, 0.72, -0.736], a = 0.2, v = 0.2, t = 0.2)
movej(p[0.402098941231286, 0.228498585754794, 0.318230322578969, -1.385, 0.72, -0.736], a = 0.2, v = 0.2, t = 0.2)
movej(p[0.402089835834286, 0.228486423264645, 0.318491096358776, -1.385, 0.72, -0.736], a = 0.2, v = 0.2, t = 0.2)
movej(p[0.402090935247114, 0.228487891800031, 0.318459609753762, -1.385, 0.72, -0.736], a = 0.2, v = 0.2, t = 0.2)
movej(p[0.402095728882249, 0.228494294875054, 0.318322322565386, -1.385, 0.72, -0.736], a = 0.2, v = 0.2, t = 0.2)
movej(p[0.402115144986864, 0.228520229843194, 0.317766255543877, -1.385, 0.72, -0.736], a = 0.2, v = 0.2, t = 0.2)
movej(p[0.402144544694147, 0.228559500360471, 0.31692426339422, -1.385, 0.72, -0.736], a = 0.2, v = 0.2, t = 0.2)
movej(p[0.40217447005601, 0.22859947301832, 0.316067216773935, -1.385, 0.72, -0.736], a = 0.2, v = 0.2, t = 0.2)
movej(p[0.402200285691416, 0.228633956128865, 0.315327870557298, -1.385, 0.72, -0.736], a = 0.2, v = 0.2, t = 0.2)
movej(p[0.402222591153334, 0.228663750542094, 0.314689053862691, -1.385, 0.72, -0.736], a = 0.2, v = 0.2, t = 0.2)
movej(p[0.402238716339587, 0.228685289681897, 0.314227237011737, -1.385, 0.72, -0.736], a = 0.2, v = 0.2, t = 0.2)
movej(p[0.402235851034118, 0.228681462363929, 0.314309297852957, -1.385, 0.72, -0.736], a = 0.2, v = 0.2, t = 0.2)
movej(p[0.402213329454269, 0.228651379272216, 0.314954304051403, -1.385, 0.72, -0.736], a = 0.2, v = 0.2, t = 0.2)
movej(p[0.402177872170533, 0.228604017376393, 0.315969782003825, -1.385, 0.72, -0.736], a = 0.2, v = 0.2, t = 0.2)
movej(p[0.402142205740412, 0.228556376114296, 0.316991249798671, -1.385, 0.72, -0.736], a = 0.2, v = 0.2, t = 0.2)
movej(p[0.402111826182317, 0.22851579676602, 0.317861304360088, -1.385, 0.72, -0.736], a = 0.2, v = 0.2, t = 0.2)
movej(p[0.402095691933055, 0.228494245520345, 0.318323380770881, -1.385, 0.72, -0.736], a = 0.2, v = 0.2, t = 0.2)
movej(p[0.402090545886261, 0.228487371713149, 0.318470760843743, -1.385, 0.72, -0.736], a = 0.2, v = 0.2, t = 0.2)
movej(p[0.40208910765629, 0.228485450604398, 0.318511950993485, -1.385, 0.72, -0.736], a = 0.2, v = 0.2, t = 0.2)
movej(p[0.402088644048471, 0.228484831342488, 0.318525228477526, -1.385, 0.72, -0.736], a = 0.2, v = 0.2, t = 0.2)
movej(p[0.402092984533106, 0.228490629123915, 0.31840091928107, -1.385, 0.72, -0.736], a = 0.2, v = 0.2, t = 0.2)
movej(p[0.402109641996907, 0.228512879250888, 0.317923858281145, -1.385, 0.72, -0.736], a = 0.2, v = 0.2, t = 0.2)
movej(p[0.402130962379354, 0.228541357848962, 0.317313253744359, -1.385, 0.72, -0.736], a = 0.2, v = 0.2, t = 0.2)
movej(p[0.402160230672992, 0.228580452831097, 0.316475025212358, -1.385, 0.72, -0.736], a = 0.2, v = 0.2, t = 0.2)
movej(p[0.402189835343732, 0.228619997127324, 0.315627163017125, -1.385, 0.72, -0.736], a = 0.2, v = 0.2, t = 0.2)
movej(p[0.402213813976727, 0.228652026470753, 0.314940427583119, -1.385, 0.72, -0.736], a = 0.2, v = 0.2, t = 0.2)
movej(p[0.402229346581556, 0.228672774072777, 0.314495581952369, -1.385, 0.72, -0.736], a = 0.2, v = 0.2, t = 0.2)
movej(p[0.402231214955926, 0.228675269744833, 0.314442072693374, -1.385, 0.72, -0.736], a = 0.2, v = 0.2, t = 0.2)
movej(p[0.402216679282196, 0.22865585378872, 0.314858366741899, -1.385, 0.72, -0.736], a = 0.2, v = 0.2, t = 0.2)
movej(p[0.402181347486291, 0.228608659512663, 0.315870250788865, -1.385, 0.72, -0.736], a = 0.2, v = 0.2, t = 0.2)
movej(p[0.402139727355755, 0.228553065623937, 0.317062229431405, -1.385, 0.72, -0.736], a = 0.2, v = 0.2, t = 0.2)
movej(p[0.402107353586883, 0.228509822518229, 0.317989397140343, -1.385, 0.72, -0.736], a = 0.2, v = 0.2, t = 0.2)
movej(p[0.402093760117615, 0.228491665107185, 0.318378706948745, -1.385, 0.72, -0.736], a = 0.2, v = 0.2, t = 0.2)
movej(p[0.402086934276777, 0.22848254752319, 0.318574195439349, -1.385, 0.72, -0.736], a = 0.2, v = 0.2, t = 0.2)
movej(p[0.40208956080679, 0.228486055897994, 0.318498973001564, -1.385, 0.72, -0.736], a = 0.2, v = 0.2, t = 0.2)
movej(p[0.402100688126463, 0.228500919161606, 0.318180292420115, -1.385, 0.72, -0.736], a = 0.2, v = 0.2, t = 0.2)
movej(p[0.402121173282822, 0.228528282110461, 0.317593608319052, -1.385, 0.72, -0.736], a = 0.2, v = 0.2, t = 0.2)
movej(p[0.402150707540947, 0.228567732353375, 0.316747762704102, -1.385, 0.72, -0.736], a = 0.2, v = 0.2, t = 0.2)
movej(p[0.402183491236733, 0.228611523016982, 0.315808854904011, -1.385, 0.72, -0.736], a = 0.2, v = 0.2, t = 0.2)
movej(p[0.402214155582488, 0.228652482769002, 0.314930644173825, -1.385, 0.72, -0.736], a = 0.2, v = 0.2, t = 0.2)
movej(p[0.402232271145168, 0.228676680544522, 0.314411823989128, -1.385, 0.72, -0.736], a = 0.2, v = 0.2, t = 0.2)
movej(p[0.402235997436587, 0.228681657920322, 0.314305104963259, -1.385, 0.72, -0.736], a = 0.2, v = 0.2, t = 0.2)
movej(p[0.402227593237699, 0.228670432052171, 0.31454579679803, -1.385, 0.72, -0.736], a = 0.2, v = 0.2, t = 0.2)
movej(p[0.40219634676784, 0.228628694730685, 0.315440679256299, -1.385, 0.72, -0.736], a = 0.2, v = 0.2, t = 0.2)
movej(p[0.402158236810792, 0.228577789539275, 0.316532128376808, -1.385, 0.72, -0.736], a = 0.2, v = 0.2, t = 0.2)
movej(p[0.402123036777109, 0.228530771263971, 0.317540238823047, -1.385, 0.72, -0.736], a = 0.2, v = 0.2, t = 0.2)
movej(p[0.402104161664476, 0.228505558923262, 0.318080812118817, -1.385, 0.72, -0.736], a = 0.2, v = 0.2, t = 0.2)
movej(p[0.402093829135922, 0.228491757298056, 0.318376730300744, -1.385, 0.72, -0.736], a = 0.2, v = 0.2, t = 0.2)
movej(p[0.402091733140571, 0.22848895758237, 0.318436758504912, -1.385, 0.72, -0.736], a = 0.2, v = 0.2, t = 0.2)
movej(p[0.402098984036579, 0.228498642931758, 0.318229096657886, -1.385, 0.72, -0.736], a = 0.2, v = 0.2, t = 0.2)
movej(p[0.40211707192222, 0.228522803737808, 0.317711069129003, -1.385, 0.72, -0.736], a = 0.2, v = 0.2, t = 0.2)
movej(p[0.402144980415782, 0.228560082373544, 0.316911784555835, -1.385, 0.72, -0.736], a = 0.2, v = 0.2, t = 0.2)
movej(p[0.402176972841079, 0.228602816101411, 0.315995538326251, -1.385, 0.72, -0.736], a = 0.2, v = 0.2, t = 0.2)
movej(p[0.402207832390127, 0.228644036595288, 0.315111737076469, -1.385, 0.72, -0.736], a = 0.2, v = 0.2, t = 0.2)
movej(p[0.402227028542461, 0.228669677763229, 0.314561969372577, -1.385, 0.72, -0.736], a = 0.2, v = 0.2, t = 0.2)
movej(p[0.402235892863395, 0.228681518237184, 0.314308099884472, -1.385, 0.72, -0.736], a = 0.2, v = 0.2, t = 0.2)
movej(p[0.402229953106072, 0.228673584234974, 0.314478211409337, -1.385, 0.72, -0.736], a = 0.2, v = 0.2, t = 0.2)
movej(p[0.402209191841627, 0.228645852476075, 0.315072803100707, -1.385, 0.72, -0.736], a = 0.2, v = 0.2, t = 0.2)
movej(p[0.402170433530787, 0.228594081249212, 0.316182820732734, -1.385, 0.72, -0.736], a = 0.2, v = 0.2, t = 0.2)
movej(p[0.402131612476032, 0.228542226212467, 0.317294635317488, -1.385, 0.72, -0.736], a = 0.2, v = 0.2, t = 0.2)
movej(p[0.402107255288082, 0.22850969121608, 0.317992212366283, -1.385, 0.72, -0.736], a = 0.2, v = 0.2, t = 0.2)
movej(p[0.402093317424435, 0.228491073781903, 0.318391385448544, -1.385, 0.72, -0.736], a = 0.2, v = 0.2, t = 0.2)
movej(p[0.40208798907171, 0.228483956460437, 0.318543986667387, -1.385, 0.72, -0.736], a = 0.2, v = 0.2, t = 0.2)
movej(p[0.402087352220969, 0.22848310579013, 0.31856222573757, -1.385, 0.72, -0.736], a = 0.2, v = 0.2, t = 0.2)
movej(p[0.40208974206699, 0.228486298015432, 0.318493781804796, -1.385, 0.72, -0.736], a = 0.2, v = 0.2, t = 0.2)
movej(p[0.402098555774499, 0.228498070882749, 0.318241361858558, -1.385, 0.72, -0.736], a = 0.2, v = 0.2, t = 0.2)
movej(p[0.402118865003891, 0.228525198838005, 0.317659716213281, -1.385, 0.72, -0.736], a = 0.2, v = 0.2, t = 0.2)
movej(p[0.402149818668812, 0.228566545046706, 0.316773219534407, -1.385, 0.72, -0.736], a = 0.2, v = 0.2, t = 0.2)
movej(p[0.402177220330968, 0.228603146684836, 0.315988450346049, -1.385, 0.72, -0.736], a = 0.2, v = 0.2, t = 0.2)
movej(p[0.402200707469958, 0.228634519517519, 0.315315791041741, -1.385, 0.72, -0.736], a = 0.2, v = 0.2, t = 0.2)
movej(p[0.402220482260622, 0.228660933598821, 0.314749451440474, -1.385, 0.72, -0.736], a = 0.2, v = 0.2, t = 0.2)
movej(p[0.402234202263452, 0.228679260026461, 0.314356517777406, -1.385, 0.72, -0.736], a = 0.2, v = 0.2, t = 0.2)
movej(p[0.40222975790278, 0.228673323493117, 0.314483801928933, -1.385, 0.72, -0.736], a = 0.2, v = 0.2, t = 0.2)
movej(p[0.402208418000004, 0.228644818820858, 0.315094965517679, -1.385, 0.72, -0.736], a = 0.2, v = 0.2, t = 0.2)
movej(p[0.402177568908275, 0.228603612295295, 0.315978467275341, -1.385, 0.72, -0.736], a = 0.2, v = 0.2, t = 0.2)
movej(p[0.402142641462047, 0.228556958127369, 0.316978770960286, -1.385, 0.72, -0.736], a = 0.2, v = 0.2, t = 0.2)
movej(p[0.402113758694911, 0.228518378110401, 0.317805958216083, -1.385, 0.72, -0.736], a = 0.2, v = 0.2, t = 0.2)
movej(p[0.402093240040272, 0.228490970416381, 0.318393601690241, -1.385, 0.72, -0.736], a = 0.2, v = 0.2, t = 0.2)
movej(p[0.402088459651075, 0.228484585034556, 0.318530509521931, -1.385, 0.72, -0.736], a = 0.2, v = 0.2, t = 0.2)
movej(p[0.402085387639263, 0.228480481609586, 0.318618490324081, -1.385, 0.72, -0.736], a = 0.2, v = 0.2, t = 0.2)
movej(p[0.402086922076571, 0.228482531226824, 0.318574544846824, -1.385, 0.72, -0.736], a = 0.2, v = 0.2, t = 0.2)
movej(p[0.402095083665653, 0.228493433030096, 0.318340801229266, -1.385, 0.72, -0.736], a = 0.2, v = 0.2, t = 0.2)
movej(p[0.402110964499213, 0.228514645776967, 0.317885982510879, -1.385, 0.72, -0.736], a = 0.2, v = 0.2, t = 0.2)
movej(p[0.402134875159632, 0.228546584326357, 0.317201193775661, -1.385, 0.72, -0.736], a = 0.2, v = 0.2, t = 0.2)
movej(p[0.402164302055946, 0.22858589116125, 0.316358422946488, -1.385, 0.72, -0.736], a = 0.2, v = 0.2, t = 0.2)
movej(p[0.402192317214163, 0.228623312273787, 0.315556083553684, -1.385, 0.72, -0.736], a = 0.2, v = 0.2, t = 0.2)
movej(p[0.402212576527285, 0.228650373553626, 0.314975867484132, -1.385, 0.72, -0.736], a = 0.2, v = 0.2, t = 0.2)
movej(p[0.402223284822176, 0.228664677106906, 0.314669187551982, -1.385, 0.72, -0.736], a = 0.2, v = 0.2, t = 0.2)
movej(p[0.402220931925349, 0.228661534236312, 0.314736573279261, -1.385, 0.72, -0.736], a = 0.2, v = 0.2, t = 0.2)
movej(p[0.402204186271489, 0.228639166309894, 0.315216159996075, -1.385, 0.72, -0.736], a = 0.2, v = 0.2, t = 0.2)
movej(p[0.402170998226026, 0.228594835538155, 0.316166648158187, -1.385, 0.72, -0.736], a = 0.2, v = 0.2, t = 0.2)
movej(p[0.402137269885736, 0.228549783070206, 0.317132610079897, -1.385, 0.72, -0.736], a = 0.2, v = 0.2, t = 0.2)
movej(p[0.402112069140701, 0.22851612129651, 0.317854346159805, -1.385, 0.72, -0.736], a = 0.2, v = 0.2, t = 0.2)
movej(p[0.402097585927856, 0.228496775414771, 0.318269137756188, -1.385, 0.72, -0.736], a = 0.2, v = 0.2, t = 0.2)
movej(p[0.402091128010365, 0.228488149282614, 0.318454089115661, -1.385, 0.72, -0.736], a = 0.2, v = 0.2, t = 0.2)
movej(p[0.402090368808989, 0.228487135183036, 0.318475832243663, -1.385, 0.72, -0.736], a = 0.2, v = 0.2, t = 0.2)
movej(p[0.402094640623895, 0.228492841239203, 0.318353489712136, -1.385, 0.72, -0.736], a = 0.2, v = 0.2, t = 0.2)
movej(p[0.402105136635206, 0.228506861235714, 0.318052889470046, -1.385, 0.72, -0.736], a = 0.2, v = 0.2, t = 0.2)
movej(p[0.402129570161587, 0.228539498200792, 0.317353126128767, -1.385, 0.72, -0.736], a = 0.2, v = 0.2, t = 0.2)
movej(p[0.402164490287692, 0.228586142590898, 0.316353032088306, -1.385, 0.72, -0.736], a = 0.2, v = 0.2, t = 0.2)
movej(p[0.402196444369486, 0.228628825101614, 0.3154378839965, -1.385, 0.72, -0.736], a = 0.2, v = 0.2, t = 0.2)
movej(p[0.402222385492722, 0.228663475831924, 0.314694943874408, -1.385, 0.72, -0.736], a = 0.2, v = 0.2, t = 0.2)
movej(p[0.402242393830183, 0.228690201872232, 0.314121915615767, -1.385, 0.72, -0.736], a = 0.2, v = 0.2, t = 0.2)
movej(p[0.402253147440124, 0.228704565954872, 0.313813937884424, -1.385, 0.72, -0.736], a = 0.2, v = 0.2, t = 0.2)
movej(p[0.402239992132533, 0.228686993816174, 0.314190698972945, -1.385, 0.72, -0.736], a = 0.2, v = 0.2, t = 0.2)
movej(p[0.402205096058262, 0.22864038155319, 0.315190104181527, -1.385, 0.72, -0.736], a = 0.2, v = 0.2, t = 0.2)
movej(p[0.402159735693215, 0.228579791664246, 0.316489201172764, -1.385, 0.72, -0.736], a = 0.2, v = 0.2, t = 0.2)
movej(p[0.402122731771965, 0.22853036385482, 0.317548974009917, -1.385, 0.72, -0.736], a = 0.2, v = 0.2, t = 0.2)
movej(p[0.402097164288744, 0.22849621221236, 0.318281213278517, -1.385, 0.72, -0.736], a = 0.2, v = 0.2, t = 0.2)
movej(p[0.402086852012532, 0.228482437639122, 0.318576551444036, -1.385, 0.72, -0.736], a = 0.2, v = 0.2, t = 0.2)
movej(p[0.402086389101868, 0.228481819308433, 0.318589808961937, -1.385, 0.72, -0.736], a = 0.2, v = 0.2, t = 0.2)
movej(p[0.402086890704613, 0.228482489321883, 0.318575443323188, -1.385, 0.72, -0.736], a = 0.2, v = 0.2, t = 0.2)
movej(p[0.40209715376171, 0.228496198150925, 0.318281514767252, -1.385, 0.72, -0.736], a = 0.2, v = 0.2, t = 0.2)
movej(p[0.402116786437405, 0.228522422402842, 0.317719245263913, -1.385, 0.72, -0.736], a = 0.2, v = 0.2, t = 0.2)
movej(p[0.402145823972866, 0.228561209150854, 0.316887625524721, -1.385, 0.72, -0.736], a = 0.2, v = 0.2, t = 0.2)
movej(p[0.402176648664183, 0.228602383083685, 0.31600482258201, -1.385, 0.72, -0.736], a = 0.2, v = 0.2, t = 0.2)
movej(p[0.402205862928339, 0.228641405896198, 0.315168141425969, -1.385, 0.72, -0.736], a = 0.2, v = 0.2, t = 0.2)
movej(p[0.402234498554164, 0.228679655795351, 0.314348032167304, -1.385, 0.72, -0.736], a = 0.2, v = 0.2, t = 0.2)
movej(p[0.402243700995086, 0.228691947911451, 0.314084479100612, -1.385, 0.72, -0.736], a = 0.2, v = 0.2, t = 0.2)
movej(p[0.402238134215483, 0.228684512112431, 0.314243908739819, -1.385, 0.72, -0.736], a = 0.2, v = 0.2, t = 0.2)
movej(p[0.402214455358973, 0.228652883193996, 0.314922058733016, -1.385, 0.72, -0.736], a = 0.2, v = 0.2, t = 0.2)
movej(p[0.402179015504102, 0.228605544578697, 0.315937037531902, -1.385, 0.72, -0.736], a = 0.2, v = 0.2, t = 0.2)
movej(p[0.402139905130182, 0.228553303085271, 0.317057138065344, -1.385, 0.72, -0.736], a = 0.2, v = 0.2, t = 0.2)
movej(p[0.402111869405903, 0.228515854501717, 0.317860066459321, -1.385, 0.72, -0.736], a = 0.2, v = 0.2, t = 0.2)
movej(p[0.402098088855195, 0.22849744719754, 0.318254734181771, -1.385, 0.72, -0.736], a = 0.2, v = 0.2, t = 0.2)
movej(p[0.402091069797955, 0.228488071525668, 0.318455756288469, -1.385, 0.72, -0.736], a = 0.2, v = 0.2, t = 0.2)
movej(p[0.402090965921917, 0.228487932773751, 0.31845873124354, -1.385, 0.72, -0.736], a = 0.2, v = 0.2, t = 0.2)
movej(p[0.402101316018767, 0.228501757865724, 0.318162309914849, -1.385, 0.72, -0.736], a = 0.2, v = 0.2, t = 0.2)
movej(p[0.402122809504705, 0.228530467685952, 0.317546747785149, -1.385, 0.72, -0.736], a = 0.2, v = 0.2, t = 0.2)
movej(p[0.402152711860466, 0.22857040961351, 0.316690360047531, -1.385, 0.72, -0.736], a = 0.2, v = 0.2, t = 0.2)
movej(p[0.402187841481532, 0.228617333835502, 0.315684266181575, -1.385, 0.72, -0.736], a = 0.2, v = 0.2, t = 0.2)
movej(p[0.402223284822176, 0.228664677106906, 0.314669187551982, -1.385, 0.72, -0.736], a = 0.2, v = 0.2, t = 0.2)
movej(p[0.402245708800378, 0.228694629827691, 0.314026976613334, -1.385, 0.72, -0.736], a = 0.2, v = 0.2, t = 0.2)
movej(p[0.402255618853235, 0.228707867133022, 0.313743157913104, -1.385, 0.72, -0.736], a = 0.2, v = 0.2, t = 0.2)
movej(p[0.402248079126071, 0.228697795978808, 0.313959091732519, -1.385, 0.72, -0.736], a = 0.2, v = 0.2, t = 0.2)
movej(p[0.402222333206126, 0.228663405990355, 0.314696441335014, -1.385, 0.72, -0.736], a = 0.2, v = 0.2, t = 0.2)
movej(p[0.402183222832206, 0.228611164496929, 0.315816541868456, -1.385, 0.72, -0.736], a = 0.2, v = 0.2, t = 0.2)
movej(p[0.402142571746586, 0.228556865005277, 0.316980767574427, -1.385, 0.72, -0.736], a = 0.2, v = 0.2, t = 0.2)
movej(p[0.402117821363432, 0.228523804800293, 0.317689605526981, -1.385, 0.72, -0.736], a = 0.2, v = 0.2, t = 0.2)
movej(p[0.40209934638269, 0.22849912693383, 0.318218719255885, -1.385, 0.72, -0.736], a = 0.2, v = 0.2, t = 0.2)
movej(p[0.402092847542224, 0.228490446139005, 0.318404842627858, -1.385, 0.72, -0.736], a = 0.2, v = 0.2, t = 0.2)
movej(p[0.40209151841695, 0.228488670766328, 0.318442908076468, -1.385, 0.72, -0.736], a = 0.2, v = 0.2, t = 0.2)
movej(p[0.402102433243896, 0.228503250193804, 0.318130313174923, -1.385, 0.72, -0.736], a = 0.2, v = 0.2, t = 0.2)
movej(p[0.402123955626892, 0.228531998613139, 0.317513923448661, -1.385, 0.72, -0.736], a = 0.2, v = 0.2, t = 0.2)
movej(p[0.402158341383984, 0.228577929222413, 0.316529133455596, -1.385, 0.72, -0.736], a = 0.2, v = 0.2, t = 0.2)
movej(p[0.402197441300586, 0.228630156747525, 0.315409332414275, -1.385, 0.72, -0.736], a = 0.2, v = 0.2, t = 0.2)
movej(p[0.402225832922295, 0.228668080719357, 0.314596211305106, -1.385, 0.72, -0.736], a = 0.2, v = 0.2, t = 0.2)
movej(p[0.402247758434948, 0.228697367617186, 0.31396827615757, -1.385, 0.72, -0.736], a = 0.2, v = 0.2, t = 0.2)
movej(p[0.402258013579339, 0.228711065876871, 0.31367457421734, -1.385, 0.72, -0.736], a = 0.2, v = 0.2, t = 0.2)
movej(p[0.402257037562878, 0.228709762167587, 0.313702526815322, -1.385, 0.72, -0.736], a = 0.2, v = 0.2, t = 0.2)
movej(p[0.40222933961001, 0.228672764760567, 0.314495781613783, -1.385, 0.72, -0.736], a = 0.2, v = 0.2, t = 0.2)
movej(p[0.40219122616719, 0.228621854913052, 0.315587330565, -1.385, 0.72, -0.736], a = 0.2, v = 0.2, t = 0.2)
movej(p[0.402153454330131, 0.228571401363787, 0.316669096106923, -1.385, 0.72, -0.736], a = 0.2, v = 0.2, t = 0.2)
movej(p[0.402122582929455, 0.228530165039154, 0.317553236781109, -1.385, 0.72, -0.736], a = 0.2, v = 0.2, t = 0.2)
movej(p[0.402102697256349, 0.228503602847166, 0.318122751997168, -1.385, 0.72, -0.736], a = 0.2, v = 0.2, t = 0.2)
movej(p[0.402093834016005, 0.228491763816602, 0.318376590537754, -1.385, 0.72, -0.736], a = 0.2, v = 0.2, t = 0.2)
movej(p[0.402095446186053, 0.228493917264972, 0.31833041883573, -1.385, 0.72, -0.736], a = 0.2, v = 0.2, t = 0.2)
movej(p[0.402100038782711, 0.22850005180382, 0.318198889283553, -1.385, 0.72, -0.736], a = 0.2, v = 0.2, t = 0.2)
movej(p[0.40211408252323, 0.228518810662517, 0.317796683943395, -1.385, 0.72, -0.736], a = 0.2, v = 0.2, t = 0.2)
movej(p[0.402140393138413, 0.228553954939913, 0.317043161766353, -1.385, 0.72, -0.736], a = 0.2, v = 0.2, t = 0.2)
movej(p[0.402168289780345, 0.228591217744894, 0.316244216617589, -1.385, 0.72, -0.736], a = 0.2, v = 0.2, t = 0.2)
movej(p[0.402195419552201, 0.228627456206866, 0.315467234224382, -1.385, 0.72, -0.736], a = 0.2, v = 0.2, t = 0.2)
movej(p[0.402216041385723, 0.228655001721582, 0.314876635761295, -1.385, 0.72, -0.736], a = 0.2, v = 0.2, t = 0.2)
movej(p[0.402234634499314, 0.22867983738343, 0.314344138769728, -1.385, 0.72, -0.736], a = 0.2, v = 0.2, t = 0.2)
movej(p[0.402234338208602, 0.22867944161454, 0.31435262437983, -1.385, 0.72, -0.736], a = 0.2, v = 0.2, t = 0.2)
movej(p[0.402215330288015, 0.228654051876247, 0.314897001225539, -1.385, 0.72, -0.736], a = 0.2, v = 0.2, t = 0.2)
movej(p[0.402182968370771, 0.228610824601294, 0.315823829510073, -1.385, 0.72, -0.736], a = 0.2, v = 0.2, t = 0.2)
movej(p[0.4021504286791, 0.228567359865008, 0.316755749160668, -1.385, 0.72, -0.736], a = 0.2, v = 0.2, t = 0.2)
movej(p[0.402118963651269, 0.228525330605765, 0.317656891004271, -1.385, 0.72, -0.736], a = 0.2, v = 0.2, t = 0.2)
movej(p[0.402100061356578, 0.228500081956753, 0.318198242779894, -1.385, 0.72, -0.736], a = 0.2, v = 0.2, t = 0.2)
movej(p[0.402091985161965, 0.228489294218731, 0.31842954074479, -1.385, 0.72, -0.736], a = 0.2, v = 0.2, t = 0.2)
movej(p[0.402089949819065, 0.228486575519265, 0.318487831894654, -1.385, 0.72, -0.736], a = 0.2, v = 0.2, t = 0.2)
movej(p[0.402088999597325, 0.228485306265156, 0.318515045745404, -1.385, 0.72, -0.736], a = 0.2, v = 0.2, t = 0.2)
movej(p[0.40209225635511, 0.228489656463668, 0.318421773915779, -1.385, 0.72, -0.736], a = 0.2, v = 0.2, t = 0.2)
movej(p[0.402104664661531, 0.228506230799154, 0.318066406547785, -1.385, 0.72, -0.736], a = 0.2, v = 0.2, t = 0.2)
movej(p[0.402124517882089, 0.228532749642808, 0.317497820755609, -1.385, 0.72, -0.736], a = 0.2, v = 0.2, t = 0.2)
movej(p[0.402150589024662, 0.228567574045819, 0.316751156948143, -1.385, 0.72, -0.736], a = 0.2, v = 0.2, t = 0.2)
movej(p[0.40218261630769, 0.228610354334731, 0.315833912411488, -1.385, 0.72, -0.736], a = 0.2, v = 0.2, t = 0.2)
movej(p[0.402206347450797, 0.228642053094735, 0.315154264957685, -1.385, 0.72, -0.736], a = 0.2, v = 0.2, t = 0.2)
movej(p[0.402223706600718, 0.228665240495561, 0.314657108036425, -1.385, 0.72, -0.736], a = 0.2, v = 0.2, t = 0.2)
movej(p[0.402230068136583, 0.228673737886425, 0.314474916996003, -1.385, 0.72, -0.736], a = 0.2, v = 0.2, t = 0.2)
movej(p[0.402230768776972, 0.228674673763447, 0.31445485102388, -1.385, 0.72, -0.736], a = 0.2, v = 0.2, t = 0.2)
movej(p[0.402208578345566, 0.228645033001669, 0.315090373305154, -1.385, 0.72, -0.736], a = 0.2, v = 0.2, t = 0.2)
movej(p[0.402172988602453, 0.228597494173872, 0.316109644824444, -1.385, 0.72, -0.736], a = 0.2, v = 0.2, t = 0.2)
movej(p[0.402136781877505, 0.228549131215564, 0.317146586378888, -1.385, 0.72, -0.736], a = 0.2, v = 0.2, t = 0.2)
movej(p[0.40211398666447, 0.228518682619641, 0.31779942928784, -1.385, 0.72, -0.736], a = 0.2, v = 0.2, t = 0.2)
movej(p[0.402099505508231, 0.228499339485004, 0.318214161984106, -1.385, 0.72, -0.736], a = 0.2, v = 0.2, t = 0.2)
movej(p[0.402091856536938, 0.228489122408472, 0.318433224497881, -1.385, 0.72, -0.736], a = 0.2, v = 0.2, t = 0.2)
movej(p[0.402093169627656, 0.228490876363069, 0.318395618270524, -1.385, 0.72, -0.736], a = 0.2, v = 0.2, t = 0.2)
movej(p[0.402097211276965, 0.22849627497665, 0.318279867560586, -1.385, 0.72, -0.736], a = 0.2, v = 0.2, t = 0.2)
movej(p[0.402114700550796, 0.22851963618986, 0.31777898395903, -1.385, 0.72, -0.736], a = 0.2, v = 0.2, t = 0.2)
movej(p[0.402141459784974, 0.228555379707915, 0.317012613569986, -1.385, 0.72, -0.736], a = 0.2, v = 0.2, t = 0.2)
movej(p[0.40217578419246, 0.228601228369748, 0.316029580597366, -1.385, 0.72, -0.736], a = 0.2, v = 0.2, t = 0.2)
movej(p[0.402204632450443, 0.22863976229128, 0.315203381665569, -1.385, 0.72, -0.736], a = 0.2, v = 0.2, t = 0.2)
movej(p[0.402231037181499, 0.2286750322835, 0.314447164059435, -1.385, 0.72, -0.736], a = 0.2, v = 0.2, t = 0.2)
movej(p[0.402251066433597, 0.228701786260436, 0.313873536816551, -1.385, 0.72, -0.736], a = 0.2, v = 0.2, t = 0.2)
movej(p[0.402253297328366, 0.228704766167369, 0.31380964516402, -1.385, 0.72, -0.736], a = 0.2, v = 0.2, t = 0.2)
movej(p[0.402235401369391, 0.228680861726438, 0.31432217601417, -1.385, 0.72, -0.736], a = 0.2, v = 0.2, t = 0.2)
