def moving():
set_payload_mass(0.606)
set_tcp(p[0.0005,0.0025,0.058,0,0,0])
movej(p[0.5348, -0.0101, 0.1843, -1.198, 1.201, -1.221], a = 0.2, v = 0.2, t = 0.2)
movej(p[0.534849041975008, -0.0101501210227445, 0.184350820938267, -1.19713837063127, 1.20011968084904, -1.22012440477063], a = 0.2, v = 0.2, t = 0.2)
movej(p[0.5348, -0.0101, 0.1843, -1.198, 1.201, -1.221], a = 0.2, v = 0.2, t = 0.2)
movej(p[0.534849041975008, -0.0101501210227445, 0.184350820938267, -1.19713837063127, 1.20011968084904, -1.22012440477063], a = 0.2, v = 0.2, t = 0.2)
movej(p[0.5348, -0.0101, 0.1843, -1.198, 1.201, -1.221], a = 0.2, v = 0.2, t = 0.2)
movej(p[0.5348, -0.0101, 0.1843, -1.198, 1.201, -1.221], a = 0.2, v = 0.2, t = 0.2)
movej(p[0.534755435477542, -0.0102150226226902, 0.18436063210979, -1.19747707589131, 1.20265209439277, -1.227030585633], a = 0.2, v = 0.2, t = 0.2)
movej(p[0.534655210092288, -0.0102674128838583, 0.184323996567506, -1.2031184493176, 1.20242255142918, -1.24028466053885], a = 0.2, v = 0.2, t = 0.2)
movej(p[0.534289777876474, -0.0101647663505156, 0.184135326631462, -1.20119603598622, 1.20263715035918, -1.24341843283278], a = 0.2, v = 0.2, t = 0.2)
movej(p[0.533633391146578, -0.0101503683402368, 0.184010722371642, -1.20019511138671, 1.19791849064719, -1.25017427274171], a = 0.2, v = 0.2, t = 0.2)
movej(p[0.532757259845179, -0.0102918162486488, 0.184050624144839, -1.18851669171812, 1.19435906522249, -1.24303034332678], a = 0.2, v = 0.2, t = 0.2)
movej(p[0.531841909071146, -0.01026350023263, 0.184167347441752, -1.18978098920505, 1.18884571948238, -1.26177065452016], a = 0.2, v = 0.2, t = 0.2)
movej(p[0.531230107821597, -0.009977428100165, 0.184136848584299, -1.19651096730096, 1.18270148620629, -1.26979013842927], a = 0.2, v = 0.2, t = 0.2)
movej(p[0.530661450684492, -0.0096461863279503, 0.184055627051688, -1.20014578100752, 1.17461777982844, -1.27587239421668], a = 0.2, v = 0.2, t = 0.2)
movej(p[0.530237875040064, -0.00956911487337711, 0.184082454307189, -1.20434239272351, 1.16592198731314, -1.27426911002043], a = 0.2, v = 0.2, t = 0.2)
movej(p[0.529784419021368, -0.00965405762425636, 0.184173533129131, -1.20045643177033, 1.16197293857024, -1.27196814154496], a = 0.2, v = 0.2, t = 0.2)
movej(p[0.529865678969341, -0.00959417811592868, 0.184182419699836, -1.20574495160549, 1.15873250397801, -1.27928813751134], a = 0.2, v = 0.2, t = 0.2)
movej(p[0.530320905674347, -0.00943045323223746, 0.184091050704517, -1.20747653781564, 1.16031795975594, -1.2758713300609], a = 0.2, v = 0.2, t = 0.2)
movej(p[0.531108060058682, -0.00941390102511781, 0.184112784028282, -1.20908382018728, 1.16185035422259, -1.27221967495872], a = 0.2, v = 0.2, t = 0.2)
movej(p[0.531916010683431, -0.00956695672501462, 0.184260948499351, -1.20321445112632, 1.17044223680662, -1.25943761082192], a = 0.2, v = 0.2, t = 0.2)
movej(p[0.532765603583297, -0.00964314800422178, 0.184361801446469, -1.20195072759647, 1.17851255907782, -1.26202354545694], a = 0.2, v = 0.2, t = 0.2)
movej(p[0.533586085055089, -0.00960490435316104, 0.184312411942553, -1.20831530278712, 1.18842659488711, -1.25790767153799], a = 0.2, v = 0.2, t = 0.2)
movej(p[0.534234405601855, -0.00964408095002293, 0.18423737414742, -1.21500687272451, 1.19490188723707, -1.259017633721], a = 0.2, v = 0.2, t = 0.2)
movej(p[0.534677195492816, -0.00989790346848625, 0.184304186078259, -1.21379684963431, 1.20135131465408, -1.24479115135965], a = 0.2, v = 0.2, t = 0.2)
movej(p[0.534751619479372, -0.0100408878579858, 0.184352996607102, -1.20351960199301, 1.20665915430083, -1.24202694869073], a = 0.2, v = 0.2, t = 0.2)
movej(p[0.534852309979595, -0.0100211939236232, 0.184295298619552, -1.2050604647329, 1.21044395880064, -1.24214127212558], a = 0.2, v = 0.2, t = 0.2)
movej(p[0.534628279677828, -0.00999768936550617, 0.184167582479925, -1.20713018211949, 1.20872584157251, -1.24752406324512], a = 0.2, v = 0.2, t = 0.2)
movej(p[0.534175313828341, -0.0101857528125612, 0.184136258925276, -1.21043271143366, 1.2057940613365, -1.2506549468285], a = 0.2, v = 0.2, t = 0.2)
movej(p[0.53324435984035, -0.0103664521815441, 0.184197302367916, -1.19782006406921, 1.20366792417912, -1.25145027137712], a = 0.2, v = 0.2, t = 0.2)
movej(p[0.532333397108594, -0.0102010161746916, 0.184150554576658, -1.19502734326973, 1.19883384055534, -1.26087199760639], a = 0.2, v = 0.2, t = 0.2)
movej(p[0.531414123889089, -0.0098553015263821, 0.184079305321611, -1.19485222979637, 1.19115092993792, -1.26647176247258], a = 0.2, v = 0.2, t = 0.2)
movej(p[0.530624139708278, -0.00964990866566704, 0.184103584383306, -1.19877631689946, 1.17958506630319, -1.26994914351931], a = 0.2, v = 0.2, t = 0.2)
movej(p[0.529860357684548, -0.00967462297153634, 0.184276095417769, -1.19718163825931, 1.17128345106037, -1.26476588995687], a = 0.2, v = 0.2, t = 0.2)
movej(p[0.529465413010482, -0.00957358301242187, 0.18435048587676, -1.19353003541377, 1.16431993105702, -1.26674836269316], a = 0.2, v = 0.2, t = 0.2)
movej(p[0.529686926061661, -0.00934338411716298, 0.184300580590841, -1.19904718321147, 1.15856372535733, -1.2688753295179], a = 0.2, v = 0.2, t = 0.2)
movej(p[0.530299399862022, -0.0091746613904393, 0.184243582052727, -1.20215356282899, 1.15635092770589, -1.27130421440887], a = 0.2, v = 0.2, t = 0.2)
movej(p[0.531221277831928, -0.0093505584051637, 0.184341623244676, -1.20046270719903, 1.16251930075739, -1.25886666891975], a = 0.2, v = 0.2, t = 0.2)
movej(p[0.532065653212488, -0.00949257430493485, 0.184415406446529, -1.19534608754305, 1.17309820850447, -1.25710469390495], a = 0.2, v = 0.2, t = 0.2)
movej(p[0.533126167145052, -0.0094903354684188, 0.184347062863764, -1.20285958350558, 1.18296046050612, -1.25817344192218], a = 0.2, v = 0.2, t = 0.2)
movej(p[0.533922465303791, -0.00948787826143251, 0.184270137352234, -1.21081134890066, 1.19063318274759, -1.25845828015929], a = 0.2, v = 0.2, t = 0.2)
movej(p[0.534572547283379, -0.00963645954348625, 0.184262580427342, -1.21793078115852, 1.19656518549626, -1.25411545413261], a = 0.2, v = 0.2, t = 0.2)
movej(p[0.534838949853048, -0.00991109336906056, 0.18431230921442, -1.21024231590841, 1.20318900323481, -1.24494658256571], a = 0.2, v = 0.2, t = 0.2)
movej(p[0.534988216098043, -0.00993839381858396, 0.184223258558088, -1.20721624149003, 1.20563681363627, -1.24856309411559], a = 0.2, v = 0.2, t = 0.2)
movej(p[0.534798166269971, -0.00990584349122165, 0.184060508111808, -1.20841685952695, 1.20479615044963, -1.25281943209443], a = 0.2, v = 0.2, t = 0.2)
movej(p[0.534188855474158, -0.00995643757345031, 0.183978778661953, -1.20588563487521, 1.20048914241429, -1.25609373370684], a = 0.2, v = 0.2, t = 0.2)
movej(p[0.533187433753877, -0.0101805388053578, 0.18408489075317, -1.1993444143353, 1.19776069744278, -1.25534688560865], a = 0.2, v = 0.2, t = 0.2)
movej(p[0.532241935088425, -0.0100795634338116, 0.184130819476543, -1.19092627380253, 1.19234265426691, -1.26289517812079], a = 0.2, v = 0.2, t = 0.2)
movej(p[0.531504021634985, -0.0097346498569246, 0.184098331378478, -1.19268352944593, 1.18484426352002, -1.2671744504031], a = 0.2, v = 0.2, t = 0.2)
movej(p[0.530864376151505, -0.0094172139794954, 0.184073876667586, -1.19442291362319, 1.17433951365097, -1.27201780280735], a = 0.2, v = 0.2, t = 0.2)
movej(p[0.530341353778962, -0.00938464901744113, 0.184193113728794, -1.19832689593601, 1.1657729378521, -1.26921664712777], a = 0.2, v = 0.2, t = 0.2)
movej(p[0.52989156016657, -0.00942396090846732, 0.184301595884013, -1.20236256791518, 1.15759221700049, -1.28147787081324], a = 0.2, v = 0.2, t = 0.2)
movej(p[0.530143151233795, -0.0092489230312774, 0.18422866078022, -1.20653993945593, 1.15472186242661, -1.28262862963518], a = 0.2, v = 0.2, t = 0.2)
movej(p[0.530749930239154, -0.00908245570814381, 0.184114875133507, -1.20850914909774, 1.15353896948892, -1.28391377441898], a = 0.2, v = 0.2, t = 0.2)
movej(p[0.53167738332143, -0.00908271926131875, 0.184090636296546, -1.20649470879175, 1.15937004475214, -1.27256430455922], a = 0.2, v = 0.2, t = 0.2)
movej(p[0.532588349363139, -0.00932733753412583, 0.184201974424631, -1.20882117516158, 1.16745409560437, -1.27340493375199], a = 0.2, v = 0.2, t = 0.2)
movej(p[0.533550769224832, -0.00942003983743767, 0.184171294057239, -1.21128810432537, 1.17798321245008, -1.27398671864427], a = 0.2, v = 0.2, t = 0.2)
movej(p[0.534347269504793, -0.0094750071942328, 0.184093039560184, -1.21216865490029, 1.18888906373323, -1.26491344618638], a = 0.2, v = 0.2, t = 0.2)
movej(p[0.534877626225596, -0.00960437371320012, 0.18405480092562, -1.21074478019606, 1.19587236775035, -1.25482963167498], a = 0.2, v = 0.2, t = 0.2)
movej(p[0.535104465788229, -0.00988577750656383, 0.184148703046944, -1.21226169351689, 1.2018821272848, -1.24730536877762], a = 0.2, v = 0.2, t = 0.2)
movej(p[0.53512593043698, -0.0100034026697892, 0.184183545728158, -1.21103929090632, 1.20474603739425, -1.24851647119173], a = 0.2, v = 0.2, t = 0.2)
movej(p[0.535075742904667, -0.00994537733958606, 0.184063313485149, -1.20528869103226, 1.20724919064533, -1.24071191968476], a = 0.2, v = 0.2, t = 0.2)
movej(p[0.534701580672174, -0.00997946085231012, 0.183954172531622, -1.19843363302858, 1.20514716263187, -1.23891253660081], a = 0.2, v = 0.2, t = 0.2)
movej(p[0.534022916270612, -0.0101483294476795, 0.183952207316252, -1.18776840098917, 1.20305947136771, -1.23356868535624], a = 0.2, v = 0.2, t = 0.2)
movej(p[0.533010974060105, -0.0101901795492117, 0.184063654977388, -1.19257672170569, 1.1964066982762, -1.25848022613768], a = 0.2, v = 0.2, t = 0.2)
movej(p[0.532161603739885, -0.00986393571871743, 0.184062980500768, -1.18660257606555, 1.19190045585286, -1.26065031711839], a = 0.2, v = 0.2, t = 0.2)
movej(p[0.531431772808226, -0.00949827723463776, 0.184052394854173, -1.19113888446697, 1.18322118537898, -1.27217756570464], a = 0.2, v = 0.2, t = 0.2)
movej(p[0.530839627435587, -0.00937586734241246, 0.184139136415995, -1.18560971506504, 1.17637999513824, -1.25982584931131], a = 0.2, v = 0.2, t = 0.2)
movej(p[0.530322136972564, -0.00937695658359261, 0.184217487202271, -1.18969640551865, 1.16877360450465, -1.26915784388138], a = 0.2, v = 0.2, t = 0.2)
movej(p[0.530337720469737, -0.00926075397410434, 0.184186781318064, -1.19319010843973, 1.16320793691228, -1.26953041347852], a = 0.2, v = 0.2, t = 0.2)
movej(p[0.530818199386312, -0.00908059798144947, 0.184090339131431, -1.19792788998942, 1.16011646022819, -1.27360386194014], a = 0.2, v = 0.2, t = 0.2)
movej(p[0.531782196614592, -0.00904612902501353, 0.184081509923569, -1.20133270783211, 1.16156643658654, -1.26861136661872], a = 0.2, v = 0.2, t = 0.2)
movej(p[0.532734813098015, -0.00923378854439642, 0.184180267824535, -1.19873576544716, 1.17070067876924, -1.26309894938279], a = 0.2, v = 0.2, t = 0.2)
movej(p[0.533737017836261, -0.00932147058747857, 0.184152579170023, -1.1972518013674, 1.18167972474993, -1.25814410820794], a = 0.2, v = 0.2, t = 0.2)
movej(p[0.534561728413025, -0.00936926298426991, 0.184077544362889, -1.20369073177889, 1.19101225921787, -1.25332170177204], a = 0.2, v = 0.2, t = 0.2)
movej(p[0.535070149147459, -0.00952562625633396, 0.184049041463954, -1.20851481238669, 1.19786884754599, -1.24808706898078], a = 0.2, v = 0.2, t = 0.2)
movej(p[0.535280739209736, -0.0098606819166359, 0.184162851150579, -1.21173622480394, 1.20355767728115, -1.24315259362526], a = 0.2, v = 0.2, t = 0.2)
movej(p[0.535311327178585, -0.0100198828244587, 0.184150001983522, -1.20656233848729, 1.20786079677843, -1.24231867525676], a = 0.2, v = 0.2, t = 0.2)
movej(p[0.535372543990864, -0.00998627776213715, 0.184053756745797, -1.20634520823032, 1.20932061454144, -1.24377894105015], a = 0.2, v = 0.2, t = 0.2)
movej(p[0.535395605782765, -0.0100469245488771, 0.183966723232634, -1.20098848455117, 1.20974876655347, -1.23744584533319], a = 0.2, v = 0.2, t = 0.2)
movej(p[0.535320197701555, -0.010224489090754, 0.184001077080705, -1.19939215600022, 1.21101502799738, -1.23402485403076], a = 0.2, v = 0.2, t = 0.2)
movej(p[0.535044733155986, -0.0103350264774513, 0.184035798566511, -1.2025217556986, 1.20952402558868, -1.24713155727041], a = 0.2, v = 0.2, t = 0.2)
movej(p[0.534755854983358, -0.010168629109342, 0.183904526145469, -1.20223117753703, 1.20810099327944, -1.25347702529823], a = 0.2, v = 0.2, t = 0.2)
movej(p[0.534232194413727, -0.0100254862425596, 0.183792694590533, -1.19971836749479, 1.20455208429953, -1.26120398391029], a = 0.2, v = 0.2, t = 0.2)
movej(p[0.533607817721806, -0.0100870081125384, 0.183806563029417, -1.18877852381297, 1.20221429473869, -1.25128602630352], a = 0.2, v = 0.2, t = 0.2)
movej(p[0.532897212064607, -0.0101162399338962, 0.183903159949215, -1.18584543440897, 1.19881145913886, -1.26031273669623], a = 0.2, v = 0.2, t = 0.2)
movej(p[0.532506871818645, -0.00985920122460363, 0.183839916323108, -1.18565347499453, 1.19462950372654, -1.26324398849863], a = 0.2, v = 0.2, t = 0.2)
movej(p[0.532151933078606, -0.00954700752789589, 0.183759907257025, -1.18589189567384, 1.18816449973434, -1.26379360427522], a = 0.2, v = 0.2, t = 0.2)
movej(p[0.53186777953358, -0.00941202831463457, 0.183763296554378, -1.18455451089966, 1.18198842011924, -1.2575818735366], a = 0.2, v = 0.2, t = 0.2)
movej(p[0.531445518055126, -0.00948801011348069, 0.183955289298664, -1.18450241090502, 1.17754401432349, -1.2565087816427], a = 0.2, v = 0.2, t = 0.2)
movej(p[0.531476215944817, -0.0094346211333951, 0.18410511780254, -1.19173769987514, 1.17394464994782, -1.26536529734229], a = 0.2, v = 0.2, t = 0.2)
movej(p[0.531846130562671, -0.00925644734194683, 0.184157711463752, -1.20092673447244, 1.17152166440507, -1.27149017565926], a = 0.2, v = 0.2, t = 0.2)
movej(p[0.532570728209895, -0.00914218526697483, 0.184158848443005, -1.20639024815827, 1.16968221558989, -1.27299277775336], a = 0.2, v = 0.2, t = 0.2)
movej(p[0.533235563483677, -0.00925243498755375, 0.184202532925064, -1.20502030070244, 1.17301125407568, -1.26762493770434], a = 0.2, v = 0.2, t = 0.2)
movej(p[0.533766652618354, -0.00931458902611259, 0.184138708167773, -1.20458728240431, 1.1778881108812, -1.2712207906219], a = 0.2, v = 0.2, t = 0.2)
movej(p[0.534266837034393, -0.00935723079171939, 0.183999193220264, -1.2091836671513, 1.18330349196503, -1.268125652698], a = 0.2, v = 0.2, t = 0.2)
movej(p[0.534609064171604, -0.00946987465022583, 0.183878026230547, -1.20919524468794, 1.18779371397346, -1.26247400834994], a = 0.2, v = 0.2, t = 0.2)
movej(p[0.534829279516537, -0.00978381708481007, 0.183930410911819, -1.20559157337844, 1.19382555379825, -1.24783331363023], a = 0.2, v = 0.2, t = 0.2)
movej(p[0.534893689210287, -0.0100220795926968, 0.183999821492422, -1.19830761011154, 1.2001405854239, -1.24419771896423], a = 0.2, v = 0.2, t = 0.2)
movej(p[0.535045794357301, -0.0100263705263189, 0.183939389652616, -1.19520057782559, 1.20531613129294, -1.2380815591642], a = 0.2, v = 0.2, t = 0.2)
movej(p[0.535117269802168, -0.0100347808963531, 0.183901381040526, -1.19434683582567, 1.20624909180831, -1.23627590530693], a = 0.2, v = 0.2, t = 0.2)
movej(p[0.535159727587184, -0.0101703176327044, 0.183931074441995, -1.18811850632875, 1.20849677949201, -1.22056664235353], a = 0.2, v = 0.2, t = 0.2)
movej(p[0.534999255985652, -0.0103876150347408, 0.184016839805459, -1.19068335658532, 1.20721455418759, -1.23037723884361], a = 0.2, v = 0.2, t = 0.2)
movej(p[0.534934809360266, -0.0103747970168102, 0.183903373619338, -1.18491058014077, 1.208005419434, -1.22653242973423], a = 0.2, v = 0.2, t = 0.2)
movej(p[0.534732328113097, -0.0103515036103295, 0.183808103233828, -1.18427175976831, 1.20618081081428, -1.23094239030481], a = 0.2, v = 0.2, t = 0.2)
movej(p[0.534505327052614, -0.0105176810144741, 0.183818431631929, -1.17560812236455, 1.20742473676545, -1.21879017601357], a = 0.2, v = 0.2, t = 0.2)
movej(p[0.534103275288415, -0.0107669211946877, 0.18401438904968, -1.1761114307995, 1.20935923305397, -1.22191975985003], a = 0.2, v = 0.2, t = 0.2)
movej(p[0.533867432417321, -0.0107344939610091, 0.183973814952398, -1.17387919897806, 1.20993030936511, -1.22656654860552], a = 0.2, v = 0.2, t = 0.2)
movej(p[0.533528756524302, -0.0105003809184219, 0.183878220885226, -1.17237633827002, 1.20917455733436, -1.22792373330204], a = 0.2, v = 0.2, t = 0.2)
movej(p[0.533079543107781, -0.0103160323811792, 0.183823913552074, -1.17688473118656, 1.20144443480645, -1.23772596380164], a = 0.2, v = 0.2, t = 0.2)
movej(p[0.532417158184367, -0.0102730658689554, 0.183970628481992, -1.17999268099742, 1.19426126255769, -1.24267493507323], a = 0.2, v = 0.2, t = 0.2)
movej(p[0.531819577138614, -0.0100828061322582, 0.184081754181243, -1.18966102147677, 1.18428248167149, -1.26735161759846], a = 0.2, v = 0.2, t = 0.2)
movej(p[0.531696002689321, -0.00967520475117247, 0.184043881762519, -1.19458799791378, 1.17906079238363, -1.26843434951407], a = 0.2, v = 0.2, t = 0.2)
movej(p[0.531856266438527, -0.00940184730055462, 0.184017835494414, -1.20129624701604, 1.1731035274333, -1.27343254452133], a = 0.2, v = 0.2, t = 0.2)
movej(p[0.532272969344663, -0.00942047494446479, 0.184084479874522, -1.19477799626058, 1.17471184174077, -1.25579120833893], a = 0.2, v = 0.2, t = 0.2)
movej(p[0.532672125826179, -0.00945653100280705, 0.184127708342233, -1.19048308016779, 1.17726592033703, -1.2557581620447], a = 0.2, v = 0.2, t = 0.2)
movej(p[0.533235042669414, -0.00937085745438142, 0.184047416477748, -1.1950409208675, 1.18072478891087, -1.25642846384697], a = 0.2, v = 0.2, t = 0.2)
movej(p[0.533691712037804, -0.0092818788274167, 0.183956739915629, -1.20162565187717, 1.18262157769809, -1.25856654669796], a = 0.2, v = 0.2, t = 0.2)
movej(p[0.534124587937813, -0.00944787317692147, 0.183967987334166, -1.21032070606048, 1.18434052917094, -1.25890782622377], a = 0.2, v = 0.2, t = 0.2)
movej(p[0.53431925275392, -0.00971785634556546, 0.184057171449451, -1.20212151848687, 1.19036585098683, -1.25111341650586], a = 0.2, v = 0.2, t = 0.2)
movej(p[0.534574335599902, -0.00983278845273791, 0.184030867698263, -1.20771493997799, 1.19340073482184, -1.2594363343531], a = 0.2, v = 0.2, t = 0.2)
movej(p[0.534781002649178, -0.00983374214464449, 0.183939538997188, -1.20986706443144, 1.19724988126775, -1.25599982521633], a = 0.2, v = 0.2, t = 0.2)
movej(p[0.534939857905006, -0.00995731623234936, 0.183916812436324, -1.21430907799849, 1.1975550508591, -1.25594092738775], a = 0.2, v = 0.2, t = 0.2)
movej(p[0.534979937452284, -0.0102377266119639, 0.184014979943649, -1.20175726872547, 1.20190088873053, -1.23999568139367], a = 0.2, v = 0.2, t = 0.2)
movej(p[0.534993675215324, -0.010324388487487, 0.184021299998829, -1.19297474034042, 1.20425027165228, -1.24012118420993], a = 0.2, v = 0.2, t = 0.2)
movej(p[0.535015282297406, -0.0102468859932357, 0.18392013796055, -1.19350990822738, 1.20382344275161, -1.24201388104096], a = 0.2, v = 0.2, t = 0.2)
movej(p[0.534842169483044, -0.0102502066522768, 0.183826618622382, -1.19239934711143, 1.20139343027948, -1.24304184993104], a = 0.2, v = 0.2, t = 0.2)
movej(p[0.53451614427291, -0.0104786809503279, 0.183902279459221, -1.19443607146106, 1.20022901712333, -1.24354981098992], a = 0.2, v = 0.2, t = 0.2)
movej(p[0.534056025664703, -0.0106203282817643, 0.183958449539138, -1.18788393134209, 1.20123185618011, -1.24700275572033], a = 0.2, v = 0.2, t = 0.2)
movej(p[0.533851651084264, -0.0104428651382967, 0.183871941244846, -1.18999394179259, 1.20194332414178, -1.2510995345211], a = 0.2, v = 0.2, t = 0.2)
movej(p[0.533576088977202, -0.0102680255553957, 0.183763673835612, -1.1870256474153, 1.1995843706408, -1.24937452327756], a = 0.2, v = 0.2, t = 0.2)
movej(p[0.533271264780257, -0.0102647076836308, 0.183736184688953, -1.18523352666019, 1.19755015478582, -1.24456629142682], a = 0.2, v = 0.2, t = 0.2)
movej(p[0.532748291084769, -0.0103897169936184, 0.183821938092638, -1.18421389916402, 1.19556377918199, -1.25285456439137], a = 0.2, v = 0.2, t = 0.2)
movej(p[0.532532606066086, -0.0101958849536997, 0.183742751820996, -1.18512226806512, 1.19309306498545, -1.25923897689467], a = 0.2, v = 0.2, t = 0.2)
movej(p[0.532411456724819, -0.00991630357676729, 0.183710438515945, -1.18956535234119, 1.18940342458387, -1.26060539029746], a = 0.2, v = 0.2, t = 0.2)
movej(p[0.53257570299153, -0.00979032751034332, 0.183777095844574, -1.19213587944016, 1.18501807908627, -1.25977152462201], a = 0.2, v = 0.2, t = 0.2)
movej(p[0.532813288811456, -0.0098606449438268, 0.183979826073989, -1.20020351183158, 1.18212258333855, -1.26476014361727], a = 0.2, v = 0.2, t = 0.2)
movej(p[0.533287839566876, -0.00980472632793705, 0.184012062628199, -1.19952126311548, 1.1839236032329, -1.2675624560272], a = 0.2, v = 0.2, t = 0.2)
movej(p[0.533813415660286, -0.00964274518177352, 0.183918643870325, -1.20473479494629, 1.18683508341263, -1.26730414335869], a = 0.2, v = 0.2, t = 0.2)
movej(p[0.534239472773383, -0.00965608240921914, 0.183861567832936, -1.20440694390014, 1.18987534104064, -1.25906235698123], a = 0.2, v = 0.2, t = 0.2)
movej(p[0.534515475099313, -0.00992153238329795, 0.183957211022672, -1.20905582117742, 1.19242674144914, -1.25646294475997], a = 0.2, v = 0.2, t = 0.2)
movej(p[0.534651654516304, -0.0101242446187292, 0.184040935330364, -1.20735666992199, 1.19541558459399, -1.25666326286065], a = 0.2, v = 0.2, t = 0.2)
movej(p[0.534869728224104, -0.0100969731969141, 0.183996622910098, -1.20451094751409, 1.19966697381329, -1.24792470402978], a = 0.2, v = 0.2, t = 0.2)
movej(p[0.535000729549855, -0.0101155505772113, 0.183948780896022, -1.20437487628385, 1.20042521566219, -1.24570585520806], a = 0.2, v = 0.2, t = 0.2)
movej(p[0.535064552209507, -0.0102964979770131, 0.183980312033266, -1.1988748472764, 1.20291499955634, -1.23489719274808], a = 0.2, v = 0.2, t = 0.2)
movej(p[0.534998951435721, -0.0105016428256379, 0.184064443142027, -1.20386513329951, 1.20194089664005, -1.24755012418351], a = 0.2, v = 0.2, t = 0.2)
movej(p[0.534961403347972, -0.0104754522722668, 0.183982747084469, -1.19976785498313, 1.20383577499529, -1.24407824843636], a = 0.2, v = 0.2, t = 0.2)
movej(p[0.534737010315308, -0.010378217998202, 0.183839693030647, -1.19635923746694, 1.2023857867167, -1.24332751044483], a = 0.2, v = 0.2, t = 0.2)
movej(p[0.53440965878444, -0.010453967834999, 0.183755379481087, -1.18529007293038, 1.20239478227712, -1.23115672600585], a = 0.2, v = 0.2, t = 0.2)
movej(p[0.533906667954833, -0.0106760477781073, 0.183843085256841, -1.1777298867947, 1.20396224240505, -1.2280136110287], a = 0.2, v = 0.2, t = 0.2)
movej(p[0.533561549642702, -0.0106314307142835, 0.183843528706133, -1.17315590220466, 1.20433900787082, -1.23414943035328], a = 0.2, v = 0.2, t = 0.2)
movej(p[0.533298796216696, -0.0103751843002517, 0.18373326469107, -1.1716532934473, 1.20410526807684, -1.23276932070946], a = 0.2, v = 0.2, t = 0.2)
movej(p[0.533051251355269, -0.010268136397886, 0.183657743441873, -1.17204618373485, 1.1990103675566, -1.23566974214511], a = 0.2, v = 0.2, t = 0.2)
movej(p[0.532696285754573, -0.0103409682910605, 0.183726362898, -1.17323828852824, 1.19542283475106, -1.23354762527156], a = 0.2, v = 0.2, t = 0.2)
movej(p[0.532297741683459, -0.0103358799082909, 0.183811385399966, -1.17741489025171, 1.190746291537, -1.251499041168], a = 0.2, v = 0.2, t = 0.2)
movej(p[0.532176241190135, -0.0100350409840174, 0.183761678106808, -1.18030142527532, 1.18742163840922, -1.25404592647577], a = 0.2, v = 0.2, t = 0.2)
movej(p[0.532227768802874, -0.00976578163222015, 0.183701175252957, -1.18565336569165, 1.18183092491957, -1.25781361092508], a = 0.2, v = 0.2, t = 0.2)
movej(p[0.532553863889287, -0.00975396394744988, 0.183777491580465, -1.18276182724221, 1.18044044121729, -1.24322253081603], a = 0.2, v = 0.2, t = 0.2)
movej(p[0.532871713078295, -0.00983128975438488, 0.18391853383062, -1.18805861909031, 1.18115457393793, -1.25077238192715], a = 0.2, v = 0.2, t = 0.2)
movej(p[0.533400432558186, -0.00975344285334557, 0.183863080678481, -1.19031791575265, 1.18455408476799, -1.25333909003544], a = 0.2, v = 0.2, t = 0.2)
movej(p[0.533725860147845, -0.00963054132701559, 0.18371567762419, -1.19484407266395, 1.18756317861924, -1.25278339572753], a = 0.2, v = 0.2, t = 0.2)
movej(p[0.533932310308293, -0.00974428046897766, 0.183635996967586, -1.19313238175129, 1.18847265878002, -1.24183413274874], a = 0.2, v = 0.2, t = 0.2)
movej(p[0.533910133422834, -0.0100105156368932, 0.183759571414853, -1.19375735648053, 1.18923733503244, -1.23970065809067], a = 0.2, v = 0.2, t = 0.2)
movej(p[0.534019357637828, -0.0101286137303257, 0.183842290894153, -1.19714485642736, 1.18929088965927, -1.2490831071544], a = 0.2, v = 0.2, t = 0.2)
movej(p[0.534308409970358, -0.0100506115964192, 0.183819567965776, -1.19877757798004, 1.19352409462547, -1.24929091513898], a = 0.2, v = 0.2, t = 0.2)
movej(p[0.534588088558991, -0.0100587253774942, 0.183795611081047, -1.19497798480336, 1.19680176930613, -1.24120312634436], a = 0.2, v = 0.2, t = 0.2)
movej(p[0.534753016807646, -0.0102608304896762, 0.183872676325421, -1.18567890419032, 1.20134859126872, -1.22471340247261], a = 0.2, v = 0.2, t = 0.2)
movej(p[0.53479547946574, -0.0104002448851587, 0.183973295882447, -1.19233035157451, 1.20006038869179, -1.23825182255628], a = 0.2, v = 0.2, t = 0.2)
movej(p[0.534950664031908, -0.0103278479419713, 0.183923229436091, -1.19518772511203, 1.20241546814287, -1.23863575859822], a = 0.2, v = 0.2, t = 0.2)
movej(p[0.53496138966131, -0.0102642941015126, 0.183850264971199, -1.19933036414018, 1.20102377366753, -1.24365171208553], a = 0.2, v = 0.2, t = 0.2)
movej(p[0.534817674718888, -0.0104514270239902, 0.183862746463522, -1.18942324136977, 1.20196774981418, -1.22899411575474], a = 0.2, v = 0.2, t = 0.2)
movej(p[0.534426842475181, -0.0106666220429863, 0.183941077183544, -1.17997396500982, 1.20308307761257, -1.23099114715851], a = 0.2, v = 0.2, t = 0.2)
movej(p[0.534187749975871, -0.0106043431513399, 0.183921932517729, -1.17882903849706, 1.20362097395372, -1.2370671427613], a = 0.2, v = 0.2, t = 0.2)
movej(p[0.533892626072652, -0.0103847339088189, 0.183835767223974, -1.17912633548052, 1.20321088784652, -1.24203154106421], a = 0.2, v = 0.2, t = 0.2)
movej(p[0.533531106539079, -0.0102887232492583, 0.183783225580528, -1.18655623424709, 1.19790195134719, -1.2511342038429], a = 0.2, v = 0.2, t = 0.2)
movej(p[0.532900787012166, -0.0103692881033952, 0.183823083593159, -1.18139777403298, 1.19591621898145, -1.24703664659484], a = 0.2, v = 0.2, t = 0.2)
movej(p[0.532259382901238, -0.0102603083779592, 0.183797875472881, -1.17796062774193, 1.19111146368456, -1.25625486839328], a = 0.2, v = 0.2, t = 0.2)
movej(p[0.531804291924262, -0.00986379983469187, 0.183720151091948, -1.18169672572369, 1.18660464455656, -1.25683480642351], a = 0.2, v = 0.2, t = 0.2)
movej(p[0.531428675286134, -0.00955349990755704, 0.183714347017392, -1.18760351845316, 1.17784242169074, -1.26320807728923], a = 0.2, v = 0.2, t = 0.2)
movej(p[0.531312831516057, -0.00955133297522586, 0.183911948960293, -1.19294855961353, 1.17383007582782, -1.25935931798641], a = 0.2, v = 0.2, t = 0.2)
movej(p[0.531573113516323, -0.00960404291208307, 0.184079082448839, -1.18767064826083, 1.17268848126788, -1.26139228913362], a = 0.2, v = 0.2, t = 0.2)
movej(p[0.532459300523093, -0.00953905811170327, 0.184108041843717, -1.19307082694149, 1.17507740228193, -1.26102355053354], a = 0.2, v = 0.2, t = 0.2)
movej(p[0.53345090061314, -0.00947713867298978, 0.184080286330219, -1.19777714118033, 1.17908610163452, -1.26132839923496], a = 0.2, v = 0.2, t = 0.2)
movej(p[0.53440567731058, -0.00962365518874561, 0.18412905181019, -1.20604477623041, 1.18644029846957, -1.25469244247275], a = 0.2, v = 0.2, t = 0.2)
movej(p[0.534869157268204, -0.00988101207915252, 0.184243574232292, -1.20393029322909, 1.19496685707752, -1.24799759790687], a = 0.2, v = 0.2, t = 0.2)
movej(p[0.535210705435004, -0.00994679014007303, 0.184193139107811, -1.20567194010976, 1.20126106367813, -1.24534367322636], a = 0.2, v = 0.2, t = 0.2)
movej(p[0.535337501241068, -0.00992813984434474, 0.184087778108225, -1.20694590765505, 1.20425855347552, -1.24209584143615], a = 0.2, v = 0.2, t = 0.2)
movej(p[0.535358329290243, -0.0100411067430663, 0.184055714253781, -1.20973537369358, 1.20481637857588, -1.24011170509146], a = 0.2, v = 0.2, t = 0.2)
movej(p[0.535190273435073, -0.0103083320788039, 0.184136000727387, -1.20282398391381, 1.20657335852557, -1.23484419392271], a = 0.2, v = 0.2, t = 0.2)
movej(p[0.534859857879659, -0.0103283259166183, 0.184061420636617, -1.19605576559207, 1.20593402235323, -1.24299730279689], a = 0.2, v = 0.2, t = 0.2)
movej(p[0.534267725877685, -0.0101640453334779, 0.183884401742037, -1.1955166540924, 1.20286134574946, -1.25325053249337], a = 0.2, v = 0.2, t = 0.2)
movej(p[0.533479257261617, -0.0100501095786027, 0.183800813846586, -1.1950954583296, 1.19656947255922, -1.26409478055719], a = 0.2, v = 0.2, t = 0.2)
movej(p[0.532519374893745, -0.0100915630700197, 0.183924639791646, -1.19453994672108, 1.1902319707929, -1.26456389081497], a = 0.2, v = 0.2, t = 0.2)
movej(p[0.531699795643611, -0.00999667286456672, 0.184044768708115, -1.19169327258563, 1.18326677306365, -1.27263583519545], a = 0.2, v = 0.2, t = 0.2)
movej(p[0.531230873751627, -0.00966810572892591, 0.184002759971426, -1.19106772549299, 1.17834587094848, -1.26912424692291], a = 0.2, v = 0.2, t = 0.2)
movej(p[0.530946715139876, -0.00943990908885962, 0.183953177032521, -1.1892438426177, 1.17108814227928, -1.26665039988318], a = 0.2, v = 0.2, t = 0.2)
movej(p[0.530925952625609, -0.00949301144743248, 0.184065398301518, -1.18738469004264, 1.16831889816714, -1.25450833660613], a = 0.2, v = 0.2, t = 0.2)
movej(p[0.531295718483775, -0.00960049799174853, 0.184161156401595, -1.18857924523909, 1.16760621226671, -1.26170701496968], a = 0.2, v = 0.2, t = 0.2)
movej(p[0.532238530683249, -0.00955665066912284, 0.184133282070312, -1.1923406632738, 1.17484786017379, -1.25857104785709], a = 0.2, v = 0.2, t = 0.2)
movej(p[0.533272674297772, -0.009499284230192, 0.184080495152177, -1.19582143480878, 1.18265590064212, -1.25605530399415], a = 0.2, v = 0.2, t = 0.2)
movej(p[0.534136428159735, -0.0096950147750737, 0.184129512145597, -1.19899041901207, 1.19006155007517, -1.24601447347524], a = 0.2, v = 0.2, t = 0.2)
movej(p[0.534656745967674, -0.00995739803709687, 0.184248574678274, -1.20560088779651, 1.19508619103772, -1.25156220307101], a = 0.2, v = 0.2, t = 0.2)
movej(p[0.534988744530314, -0.0100402608532284, 0.184210596546238, -1.21150506769704, 1.20014119476533, -1.25430292730577], a = 0.2, v = 0.2, t = 0.2)
movej(p[0.535093808882735, -0.0100184610008047, 0.184139573015985, -1.21187781090238, 1.20519081234898, -1.24971971424963], a = 0.2, v = 0.2, t = 0.2)
movej(p[0.535093983887435, -0.0101132306828246, 0.184107182115299, -1.21264238983917, 1.20717204282539, -1.24588644678919], a = 0.2, v = 0.2, t = 0.2)
movej(p[0.534864273010565, -0.0103377649653469, 0.184159955387356, -1.20157000173619, 1.20905040146831, -1.23723496646355], a = 0.2, v = 0.2, t = 0.2)
movej(p[0.534488075471018, -0.0103536040420961, 0.184066946471059, -1.1977878613052, 1.20817263576004, -1.25004340617271], a = 0.2, v = 0.2, t = 0.2)
movej(p[0.533950448983322, -0.0101556667134423, 0.183901767232707, -1.19399557027313, 1.20532784653791, -1.25262247636838], a = 0.2, v = 0.2, t = 0.2)
movej(p[0.533268427141875, -0.0100279841447476, 0.183815347715145, -1.19490102800258, 1.19884107825893, -1.26119793069568], a = 0.2, v = 0.2, t = 0.2)
movej(p[0.532459218634434, -0.0100954179735039, 0.183933785137568, -1.19402726398177, 1.19278504138682, -1.2587094185832], a = 0.2, v = 0.2, t = 0.2)
movej(p[0.531671707865153, -0.0100351229254608, 0.184031258995961, -1.19356112175433, 1.18693441709279, -1.27018995436088], a = 0.2, v = 0.2, t = 0.2)
movej(p[0.531225533002159, -0.00973548255597109, 0.183997672017766, -1.19976846846082, 1.18137009140836, -1.27580657063597], a = 0.2, v = 0.2, t = 0.2)
movej(p[0.530985397361405, -0.00946156713449408, 0.183940759395995, -1.2014056223866, 1.17409045247055, -1.2786731211841], a = 0.2, v = 0.2, t = 0.2)
movej(p[0.531081828108272, -0.00942518117311857, 0.184013761734132, -1.20089997852981, 1.1703272957658, -1.26988874916752], a = 0.2, v = 0.2, t = 0.2)
movej(p[0.531411629605109, -0.00955858562697387, 0.184181815805147, -1.19776113277979, 1.17046894920113, -1.27089034446949], a = 0.2, v = 0.2, t = 0.2)
movej(p[0.532344646157083, -0.00951141132308031, 0.184210287336442, -1.20065297504147, 1.1748074750104, -1.2711046195379], a = 0.2, v = 0.2, t = 0.2)
movej(p[0.533347418259458, -0.00941931812527355, 0.18415258928478, -1.20653369261167, 1.18190955234569, -1.26872843682643], a = 0.2, v = 0.2, t = 0.2)
movej(p[0.534233583976507, -0.00953133784306739, 0.184115343617216, -1.20503129594793, 1.18958410255967, -1.2517615075747], a = 0.2, v = 0.2, t = 0.2)
movej(p[0.534737003602963, -0.00984410577360175, 0.184200388459913, -1.20570796396205, 1.19680598476887, -1.24285260849857], a = 0.2, v = 0.2, t = 0.2)
movej(p[0.535007051088914, -0.0100055172659974, 0.184175611838671, -1.20172971759437, 1.20149760296542, -1.2398678027001], a = 0.2, v = 0.2, t = 0.2)
movej(p[0.535214042033341, -0.0100243109811213, 0.184084157310181, -1.20462874201533, 1.20459064328811, -1.24004981583734], a = 0.2, v = 0.2, t = 0.2)
movej(p[0.535252299277588, -0.010099261065902, 0.184016585835955, -1.20478502666423, 1.20509972300367, -1.23799846301212], a = 0.2, v = 0.2, t = 0.2)
movej(p[0.535249069754862, -0.0103096367310152, 0.184075781883477, -1.20148016288095, 1.20667549254, -1.23109664563297], a = 0.2, v = 0.2, t = 0.2)
movej(p[0.535101567763185, -0.0104938268878182, 0.184141778106007, -1.19712022445453, 1.20853001741396, -1.23678568089495], a = 0.2, v = 0.2, t = 0.2)
movej(p[0.535042443005683, -0.0103765246011112, 0.184013325252463, -1.19766938791962, 1.20858764477764, -1.24195921086598], a = 0.2, v = 0.2, t = 0.2)
movej(p[0.534724123364873, -0.0103293784297915, 0.183885574525555, -1.19616039823179, 1.20638670895296, -1.24516830768925], a = 0.2, v = 0.2, t = 0.2)
movej(p[0.534232841374345, -0.0104215363460426, 0.183868629542947, -1.19555204976547, 1.20283349001534, -1.24513291101748], a = 0.2, v = 0.2, t = 0.2)
movej(p[0.533535978846317, -0.0105935200963421, 0.18400659459165, -1.18861414200283, 1.20372364117657, -1.2497592462646], a = 0.2, v = 0.2, t = 0.2)
movej(p[0.533086813871496, -0.0104282228295617, 0.183984493573828, -1.18744648317598, 1.20202677628737, -1.25810721328715], a = 0.2, v = 0.2, t = 0.2)
movej(p[0.532674345011341, -0.0101107853900362, 0.18387999386321, -1.19081218566712, 1.19705466334392, -1.2636007849207], a = 0.2, v = 0.2, t = 0.2)
movej(p[0.53230902034149, -0.00990928127557642, 0.183832684339826, -1.19280261163656, 1.18773618308177, -1.26563523495952], a = 0.2, v = 0.2, t = 0.2)
movej(p[0.531992037592423, -0.0100072093051043, 0.183999025366787, -1.19210147199007, 1.18316819477328, -1.259496400736], a = 0.2, v = 0.2, t = 0.2)
movej(p[0.531993719881311, -0.0100074105207995, 0.184118462596814, -1.18889810136668, 1.18196321917189, -1.26308368177484], a = 0.2, v = 0.2, t = 0.2)
movej(p[0.53249195200205, -0.00985132505228439, 0.184108062869575, -1.19320950844901, 1.1845028968905, -1.26182737180195], a = 0.2, v = 0.2, t = 0.2)
movej(p[0.533174069426075, -0.00970786661106099, 0.184047367377296, -1.19839756522844, 1.18589847712975, -1.26314079736659], a = 0.2, v = 0.2, t = 0.2)
movej(p[0.533888910737194, -0.00982220196407636, 0.184104315665836, -1.20361136837863, 1.18888429527242, -1.25483485830612], a = 0.2, v = 0.2, t = 0.2)
movej(p[0.534306050370147, -0.0100075377951394, 0.184192398005407, -1.19673417804381, 1.19476374807387, -1.24777725434821], a = 0.2, v = 0.2, t = 0.2)
movej(p[0.534764749215652, -0.0100200928393061, 0.184152060911255, -1.1994748855363, 1.20119837620719, -1.24703176660158], a = 0.2, v = 0.2, t = 0.2)
movej(p[0.534992757160365, -0.00998393030044126, 0.184058236266218, -1.19897285038313, 1.20702410481529, -1.24129801821256], a = 0.2, v = 0.2, t = 0.2)
movej(p[0.535156621045131, -0.0100905008651033, 0.18405679622518, -1.20592216159369, 1.20731855811118, -1.24234522289241], a = 0.2, v = 0.2, t = 0.2)
movej(p[0.535019402524807, -0.0103620682186403, 0.18413819542563, -1.20441814049899, 1.2068912059838, -1.24066637665785], a = 0.2, v = 0.2, t = 0.2)
movej(p[0.534712689101293, -0.0104501433510008, 0.184096450158148, -1.20490163736712, 1.20573635835734, -1.25579391138012], a = 0.2, v = 0.2, t = 0.2)
movej(p[0.534264634207487, -0.0102768374026474, 0.183894618352867, -1.19830745529623, 1.20618857738849, -1.25534772663577], a = 0.2, v = 0.2, t = 0.2)
movej(p[0.533600248520017, -0.0101214537494983, 0.18373061260268, -1.19265184968753, 1.20196371806857, -1.25791693090161], a = 0.2, v = 0.2, t = 0.2)
movej(p[0.532870988420049, -0.0101820540415785, 0.183792877430667, -1.18152664687227, 1.19797886091921, -1.24613212673173], a = 0.2, v = 0.2, t = 0.2)
movej(p[0.531973821049545, -0.0102203050175969, 0.183958931659714, -1.18779386917422, 1.18922685962492, -1.26452115234752], a = 0.2, v = 0.2, t = 0.2)
movej(p[0.531351237691439, -0.00997659084111067, 0.183989921273941, -1.19251469884345, 1.18257821681207, -1.27018384353977], a = 0.2, v = 0.2, t = 0.2)
movej(p[0.530836867543419, -0.00964713199267812, 0.183965109500227, -1.20017998117689, 1.17395183870386, -1.27799677742865], a = 0.2, v = 0.2, t = 0.2)
movej(p[0.530588655784258, -0.00947099245170818, 0.183972234296443, -1.19439328540283, 1.16872743030206, -1.26476379191835], a = 0.2, v = 0.2, t = 0.2)
movej(p[0.530573283997449, -0.00955495578627593, 0.184123855554249, -1.19219415148403, 1.16596173457125, -1.26279591830977], a = 0.2, v = 0.2, t = 0.2)
movej(p[0.531090184873772, -0.00954255341881638, 0.184194516970699, -1.19611360874016, 1.16654595479676, -1.27097278998317], a = 0.2, v = 0.2, t = 0.2)
movej(p[0.532010180734558, -0.00940398983971207, 0.184156495915238, -1.19969374696151, 1.17205734547052, -1.27025480894232], a = 0.2, v = 0.2, t = 0.2)
movej(p[0.533081895321137, -0.00938991021082403, 0.184126807077869, -1.20131268793898, 1.17844420837369, -1.26492452843559], a = 0.2, v = 0.2, t = 0.2)
movej(p[0.533951035679005, -0.0095992592271743, 0.184202313426466, -1.19721285685143, 1.1870903269301, -1.24887491535088], a = 0.2, v = 0.2, t = 0.2)
movej(p[0.53452432358562, -0.00978982667787177, 0.184276150970764, -1.19911019844699, 1.1930502159468, -1.25235342012501], a = 0.2, v = 0.2, t = 0.2)
movej(p[0.534957891248251, -0.00980923104665302, 0.184180961242887, -1.20057128288483, 1.2012324477778, -1.24611892202006], a = 0.2, v = 0.2, t = 0.2)
movej(p[0.535162273298943, -0.00985247609940655, 0.184084282868533, -1.19798748331954, 1.20659946362388, -1.23837213646987], a = 0.2, v = 0.2, t = 0.2)
movej(p[0.535250796133618, -0.0100745071783909, 0.184082536356001, -1.19402883425498, 1.21069247237978, -1.22683776525135], a = 0.2, v = 0.2, t = 0.2)
movej(p[0.535131467654561, -0.0102807271332363, 0.184177559183308, -1.19774962541569, 1.2092567345942, -1.2349401572956], a = 0.2, v = 0.2, t = 0.2)
movej(p[0.53493179054544, -0.0102372926215164, 0.184070173167995, -1.19850956573634, 1.20867354572538, -1.24533714263619], a = 0.2, v = 0.2, t = 0.2)
movej(p[0.534468221368713, -0.0100942919864594, 0.183885217434024, -1.19414962643697, 1.20661971005319, -1.24888577094208], a = 0.2, v = 0.2, t = 0.2)
movej(p[0.533811019301267, -0.0100679677667997, 0.183783617463681, -1.18487773971141, 1.20420410088284, -1.2475511129363], a = 0.2, v = 0.2, t = 0.2)
movej(p[0.5329399674171, -0.0101862266040955, 0.183932662347908, -1.17986012919795, 1.20005903655902, -1.24846784859104], a = 0.2, v = 0.2, t = 0.2)
movej(p[0.532270010105132, -0.0100698372770898, 0.184017669276222, -1.18488175098247, 1.19365961798887, -1.26524621552161], a = 0.2, v = 0.2, t = 0.2)
movej(p[0.531788591655746, -0.00972931295401774, 0.183986145633612, -1.19329905398643, 1.18723621299002, -1.27304118794185], a = 0.2, v = 0.2, t = 0.2)
movej(p[0.531442540679653, -0.00949759134425883, 0.183943636528518, -1.19901873984869, 1.17918257852094, -1.27792366555276], a = 0.2, v = 0.2, t = 0.2)
movej(p[0.531204390754716, -0.00952119564218302, 0.18404192812415, -1.19827529753402, 1.17539915983891, -1.26929757762758], a = 0.2, v = 0.2, t = 0.2)
movej(p[0.531325139486328, -0.00961842125206645, 0.184181956957942, -1.19842266630881, 1.17336877431801, -1.27554918384993], a = 0.2, v = 0.2, t = 0.2)
movej(p[0.532076453826899, -0.00955490242765797, 0.184193557281538, -1.20030498621336, 1.17674101151893, -1.27084201692879], a = 0.2, v = 0.2, t = 0.2)
movej(p[0.532997920759944, -0.00946369988101962, 0.184135285169928, -1.20068456170167, 1.18087109219091, -1.26515680682606], a = 0.2, v = 0.2, t = 0.2)
movej(p[0.533907469922152, -0.00960448826265244, 0.184117201187401, -1.19614879469101, 1.18805490301061, -1.24629624556816], a = 0.2, v = 0.2, t = 0.2)
movej(p[0.534411825759233, -0.00986287343710892, 0.184168004350918, -1.19085904574262, 1.19556788090795, -1.23624985212698], a = 0.2, v = 0.2, t = 0.2)
movej(p[0.534854430625504, -0.0100114643255359, 0.184143779215952, -1.19652139115464, 1.20106037920696, -1.23903165907824], a = 0.2, v = 0.2, t = 0.2)
movej(p[0.535131488581824, -0.010025500155083, 0.184066662192236, -1.20124373523398, 1.20468823406265, -1.23861973813597], a = 0.2, v = 0.2, t = 0.2)
movej(p[0.535279864364959, -0.010169689434025, 0.184055582003698, -1.20612201588456, 1.20557884344053, -1.23873455709481], a = 0.2, v = 0.2, t = 0.2)
movej(p[0.535237140395329, -0.0103923073737584, 0.184133769836619, -1.20028781242532, 1.20678845589344, -1.23238600033475], a = 0.2, v = 0.2, t = 0.2)
movej(p[0.535179442833248, -0.0104987344337507, 0.184154369009692, -1.20323471527488, 1.2074050857933, -1.24565857159968], a = 0.2, v = 0.2, t = 0.2)
movej(p[0.535221991964587, -0.0103901317051202, 0.184038247312511, -1.20449117816582, 1.20967110286135, -1.24378187055075], a = 0.2, v = 0.2, t = 0.2)
movej(p[0.535231346831043, -0.0103606613761987, 0.183937605760521, -1.20413867026186, 1.20956271243301, -1.24239221512505], a = 0.2, v = 0.2, t = 0.2)
movej(p[0.535231616439266, -0.0105333600041318, 0.183963165029318, -1.19508397435433, 1.21162792149511, -1.22667500064816], a = 0.2, v = 0.2, t = 0.2)
movej(p[0.535057450684341, -0.0106343563627067, 0.183995600318221, -1.18976860365328, 1.21062799556898, -1.23368581982744], a = 0.2, v = 0.2, t = 0.2)
movej(p[0.534962937970469, -0.0105053560976602, 0.183877464273618, -1.18850686712673, 1.21041983598908, -1.23861773070092], a = 0.2, v = 0.2, t = 0.2)
movej(p[0.53461100252661, -0.0103731267451015, 0.183789126267202, -1.18788202567835, 1.20827085754174, -1.24328166444472], a = 0.2, v = 0.2, t = 0.2)
movej(p[0.534262601865824, -0.0104552323380376, 0.183823846999803, -1.18408877858474, 1.20685781429918, -1.23764807707689], a = 0.2, v = 0.2, t = 0.2)
movej(p[0.533763108013586, -0.0105987222134835, 0.183969905021565, -1.1792193117417, 1.20641862610785, -1.23864666393016], a = 0.2, v = 0.2, t = 0.2)
movej(p[0.533495169123611, -0.0104713311394662, 0.183962992974132, -1.18087753936249, 1.20449626463011, -1.24560796515869], a = 0.2, v = 0.2, t = 0.2)
movej(p[0.533181203999316, -0.0102021199937355, 0.18386428577915, -1.1829013505709, 1.20129005261987, -1.25124116432732], a = 0.2, v = 0.2, t = 0.2)
movej(p[0.532835047550893, -0.0100295018872037, 0.18379608341646, -1.18768160424922, 1.19523299400606, -1.25805205058099], a = 0.2, v = 0.2, t = 0.2)
movej(p[0.532360877453765, -0.0100893601437102, 0.183889134296244, -1.18509217881153, 1.19217520187346, -1.25585951996356], a = 0.2, v = 0.2, t = 0.2)
movej(p[0.532199785873425, -0.0100080559563361, 0.18398312992963, -1.18635464538278, 1.18912609070787, -1.26459108712423], a = 0.2, v = 0.2, t = 0.2)
movej(p[0.532537881083837, -0.00974919034184689, 0.1840142264136, -1.18847449360798, 1.18866531438673, -1.2612223534106], a = 0.2, v = 0.2, t = 0.2)
movej(p[0.533144486012783, -0.00954384431482415, 0.184015555572959, -1.19262416815405, 1.18711038592415, -1.2603946447561], a = 0.2, v = 0.2, t = 0.2)
movej(p[0.533784720896563, -0.00963294921208929, 0.184058954776575, -1.19496219384888, 1.18923428543629, -1.24976690479032], a = 0.2, v = 0.2, t = 0.2)
movej(p[0.534204249602085, -0.00978928210230548, 0.184102242433934, -1.19650063258285, 1.1918232961733, -1.25344189278507], a = 0.2, v = 0.2, t = 0.2)
movej(p[0.534660092351057, -0.0098398292639302, 0.184007932798897, -1.19946416677012, 1.19533360363896, -1.25300008139103], a = 0.2, v = 0.2, t = 0.2)
movej(p[0.534933715970236, -0.00992247973470303, 0.183943469824962, -1.19904995800639, 1.19868682794746, -1.24864817495106], a = 0.2, v = 0.2, t = 0.2)
movej(p[0.535146506113163, -0.0101127629902227, 0.183951079085318, -1.1969788930169, 1.20241114069703, -1.23687656554661], a = 0.2, v = 0.2, t = 0.2)
movej(p[0.535117850000429, -0.0103734877697217, 0.184092330113064, -1.19502660720193, 1.2063623584349, -1.23531009457789], a = 0.2, v = 0.2, t = 0.2)
movej(p[0.535156599470959, -0.0103863553677925, 0.184066252520125, -1.19286665548188, 1.20816205875538, -1.23530464106456], a = 0.2, v = 0.2, t = 0.2)
movej(p[0.535020731209292, -0.0103082770996712, 0.183950485482852, -1.190492041036, 1.20752413569378, -1.23502636052243], a = 0.2, v = 0.2, t = 0.2)
movej(p[0.534732798815148, -0.0103771283595099, 0.183853611586963, -1.18401594762737, 1.20523025901154, -1.23136266644911], a = 0.2, v = 0.2, t = 0.2)
movej(p[0.534194942986346, -0.0105480380922127, 0.183916340486167, -1.18671887793196, 1.20314047810678, -1.24597277632663], a = 0.2, v = 0.2, t = 0.2)
movej(p[0.533813524451195, -0.0104553256143796, 0.183863200233086, -1.18283758523238, 1.20311531732014, -1.25136680771408], a = 0.2, v = 0.2, t = 0.2)
movej(p[0.533468358931461, -0.010202132040224, 0.183800134094841, -1.18579484197383, 1.20139344528483, -1.25700295486814], a = 0.2, v = 0.2, t = 0.2)
movej(p[0.533150286238049, -0.0100574753450903, 0.1837311970478, -1.18388625874804, 1.19674881908454, -1.25614548985987], a = 0.2, v = 0.2, t = 0.2)
movej(p[0.532645696489546, -0.0100966935182802, 0.183790311617256, -1.18023863264838, 1.19270872034148, -1.25319691759276], a = 0.2, v = 0.2, t = 0.2)
movej(p[0.53222941020219, -0.00998007829735259, 0.183768120780226, -1.17945792414709, 1.1874647944058, -1.26501883002026], a = 0.2, v = 0.2, t = 0.2)
movej(p[0.53203916292596, -0.00965659324114266, 0.18366584018189, -1.18397934458231, 1.18358545264949, -1.26587564296768], a = 0.2, v = 0.2, t = 0.2)
movej(p[0.532022117563315, -0.00942142471552385, 0.183654492994106, -1.1912706471581, 1.17793403239183, -1.27131943482331], a = 0.2, v = 0.2, t = 0.2)
movej(p[0.532231755966673, -0.0095007910209595, 0.183843460348693, -1.19315313518557, 1.17543845238002, -1.26413661258112], a = 0.2, v = 0.2, t = 0.2)
movej(p[0.532582921117967, -0.00956067729807997, 0.183996253788436, -1.19460053221987, 1.17575070495738, -1.2701813767704], a = 0.2, v = 0.2, t = 0.2)
movej(p[0.533224261624294, -0.00944411684530018, 0.184015360559287, -1.20744740814081, 1.17711849889229, -1.27830114809433], a = 0.2, v = 0.2, t = 0.2)
movej(p[0.533743563125705, -0.00937520966357361, 0.183958191744024, -1.21647043666225, 1.17907719190771, -1.28060717798248], a = 0.2, v = 0.2, t = 0.2)
movej(p[0.534171609628479, -0.00951724414347437, 0.18398197801701, -1.22061116519249, 1.18259008565951, -1.27474238503759], a = 0.2, v = 0.2, t = 0.2)
movej(p[0.534369469242165, -0.00979058902291878, 0.184030811213236, -1.21940598650353, 1.18612729576544, -1.27364162433029], a = 0.2, v = 0.2, t = 0.2)
movej(p[0.534648138086404, -0.00986746512807626, 0.183956066833472, -1.21576810677003, 1.19103670709027, -1.26867595507026], a = 0.2, v = 0.2, t = 0.2)
movej(p[0.534822051447472, -0.00990868531068085, 0.183869727372482, -1.21718803235678, 1.19367191249851, -1.2674179032453], a = 0.2, v = 0.2, t = 0.2)
movej(p[0.534957622999628, -0.0100797440640837, 0.183876304654776, -1.20979697572602, 1.19839892139625, -1.25306605653428], a = 0.2, v = 0.2, t = 0.2)
movej(p[0.534892540317854, -0.0103239711388265, 0.183976591518002, -1.21109349209022, 1.20097511920814, -1.25743105959814], a = 0.2, v = 0.2, t = 0.2)
movej(p[0.534805112687105, -0.010340423178954, 0.183915595607637, -1.20821432195548, 1.20174176449563, -1.26062599764497], a = 0.2, v = 0.2, t = 0.2)
movej(p[0.534522248482344, -0.0102078306762084, 0.183783734427539, -1.20331210076672, 1.20063765473823, -1.26101507169535], a = 0.2, v = 0.2, t = 0.2)
movej(p[0.534029165307489, -0.0102005198223152, 0.183719798185935, -1.19610988193657, 1.19883257236552, -1.25799061979566], a = 0.2, v = 0.2, t = 0.2)
movej(p[0.533337995702129, -0.0103022158784696, 0.183826775985919, -1.18942463560677, 1.19828470605982, -1.25571341386791], a = 0.2, v = 0.2, t = 0.2)
movej(p[0.532669413653609, -0.0102349779288637, 0.183876747887314, -1.19079913347223, 1.19412217164065, -1.27194321734378], a = 0.2, v = 0.2, t = 0.2)
movej(p[0.532244719460545, -0.00989697696349572, 0.183759695661841, -1.18909092269469, 1.19085657783557, -1.26877508928562], a = 0.2, v = 0.2, t = 0.2)
movej(p[0.531924906919429, -0.0096215423062404, 0.183701034906412, -1.1900585657712, 1.18426989966981, -1.27134637677599], a = 0.2, v = 0.2, t = 0.2)
movej(p[0.531605587644432, -0.00958333357130694, 0.18378176164851, -1.184018013136, 1.18105959236174, -1.25633043207718], a = 0.2, v = 0.2, t = 0.2)
movej(p[0.531483352913976, -0.00959036965015785, 0.18396875105587, -1.18399919058993, 1.17629943982685, -1.26446050334746], a = 0.2, v = 0.2, t = 0.2)
movej(p[0.531884160035246, -0.00946920951357335, 0.184045408379995, -1.18750221755735, 1.1756676745003, -1.26316154342326], a = 0.2, v = 0.2, t = 0.2)
movej(p[0.532565122565337, -0.00927806896275324, 0.184038726341081, -1.1942100614861, 1.17579606719866, -1.26835314097781], a = 0.2, v = 0.2, t = 0.2)
movej(p[0.533300515074477, -0.00931165149794135, 0.184034224415847, -1.19898887371677, 1.17898503845358, -1.26414820656402], a = 0.2, v = 0.2, t = 0.2)
movej(p[0.533711145741134, -0.0094172813395685, 0.18403596750475, -1.19733380271025, 1.18321429778262, -1.26463786300576], a = 0.2, v = 0.2, t = 0.2)
movej(p[0.53416214312078, -0.00945236486866695, 0.183909430592987, -1.20038179976748, 1.1851928863868, -1.26594086803637], a = 0.2, v = 0.2, t = 0.2)
movej(p[0.534475444516473, -0.00946732299323822, 0.183783161068294, -1.20293686207656, 1.18861429843181, -1.26384786889881], a = 0.2, v = 0.2, t = 0.2)
movej(p[0.534753855977963, -0.00962317552329271, 0.183742581610095, -1.21133732489376, 1.18924834746456, -1.26514616004738], a = 0.2, v = 0.2, t = 0.2)
movej(p[0.534881978024685, -0.00995377251121564, 0.183852936373839, -1.20537991384833, 1.19382006678231, -1.25577803414105], a = 0.2, v = 0.2, t = 0.2)
movej(p[0.535009601165359, -0.0100711187245868, 0.183895634265087, -1.20701541609626, 1.19515149249973, -1.26470490292909], a = 0.2, v = 0.2, t = 0.2)
movej(p[0.535129022486202, -0.0100317679789141, 0.183834786159586, -1.20906199934693, 1.1965905797296, -1.26389643201765], a = 0.2, v = 0.2, t = 0.2)
movej(p[0.53517251198813, -0.01006294761893, 0.183797256027752, -1.2097031150985, 1.19703405983261, -1.26125224275639], a = 0.2, v = 0.2, t = 0.2)
movej(p[0.535073077777686, -0.0103745595889696, 0.183849703690401, -1.20185033725861, 1.19874551208185, -1.2476156080889], a = 0.2, v = 0.2, t = 0.2)
movej(p[0.534839879184007, -0.0105545401304504, 0.183868424533078, -1.18975156591653, 1.2017994618899, -1.24871720474077], a = 0.2, v = 0.2, t = 0.2)
movej(p[0.534708778013231, -0.0104696481436674, 0.18378334411925, -1.18493890521021, 1.2034278868489, -1.25002908995624], a = 0.2, v = 0.2, t = 0.2)
movej(p[0.534427687340275, -0.0103458456347474, 0.183725205683062, -1.1800692555137, 1.20417768578543, -1.24964907703477], a = 0.2, v = 0.2, t = 0.2)
movej(p[0.534072805026377, -0.0103687697582912, 0.183769393160272, -1.17577948241421, 1.20360078972756, -1.24106350620955], a = 0.2, v = 0.2, t = 0.2)
movej(p[0.533457157898859, -0.0105288525097501, 0.183889216603569, -1.17427372951205, 1.20178285971554, -1.24451437954571], a = 0.2, v = 0.2, t = 0.2)
movej(p[0.53302922072439, -0.0103834721012006, 0.183803257918623, -1.17102490088238, 1.1995560249162, -1.24811233197482], a = 0.2, v = 0.2, t = 0.2)
movej(p[0.532627881107295, -0.0101150647720871, 0.183694866321199, -1.17382706528248, 1.19491407212946, -1.25323730802057], a = 0.2, v = 0.2, t = 0.2)
movej(p[0.53233870947834, -0.00993648120495819, 0.183664883380667, -1.17547562029796, 1.18908091326967, -1.25473101097038], a = 0.2, v = 0.2, t = 0.2)
movej(p[0.531935092139972, -0.00992483407678898, 0.18382664657665, -1.18724640257346, 1.18201063352236, -1.27000022854584], a = 0.2, v = 0.2, t = 0.2)
movej(p[0.531862064357753, -0.00977446311928164, 0.183918373982928, -1.19207276789454, 1.17921482230963, -1.27649023792627], a = 0.2, v = 0.2, t = 0.2)
movej(p[0.532088345010607, -0.00951996502254533, 0.183962095229497, -1.19872501545784, 1.17604128438571, -1.28026212991752], a = 0.2, v = 0.2, t = 0.2)
movej(p[0.532574128067416, -0.00934364308046867, 0.183996336540207, -1.19860541862265, 1.17625917918469, -1.2722308982057], a = 0.2, v = 0.2, t = 0.2)
movej(p[0.533038696956272, -0.00940433868391223, 0.184052120603609, -1.20037757740413, 1.17600096594622, -1.26932986283407], a = 0.2, v = 0.2, t = 0.2)
movej(p[0.533448348158024, -0.00946217771249032, 0.184005278586394, -1.19980419531927, 1.18036278525498, -1.270203097098], a = 0.2, v = 0.2, t = 0.2)
movej(p[0.533962016480559, -0.00944744818982867, 0.183867460385181, -1.1978750934882, 1.18689281634068, -1.26030280162653], a = 0.2, v = 0.2, t = 0.2)
movej(p[0.534375028981876, -0.00951555185533849, 0.183816538969248, -1.19602678768092, 1.19098563444606, -1.25268613056096], a = 0.2, v = 0.2, t = 0.2)
movej(p[0.534681068673575, -0.00978340807986714, 0.183890956744584, -1.19326557807255, 1.19481287254286, -1.24128367282576], a = 0.2, v = 0.2, t = 0.2)
movej(p[0.534749225435686, -0.0100210121953802, 0.183972430968384, -1.19848461106381, 1.19487418315837, -1.25188060204969], a = 0.2, v = 0.2, t = 0.2)
movej(p[0.534904184637462, -0.0100829130538437, 0.183913487947301, -1.20064279723496, 1.19753372043813, -1.2507293375168], a = 0.2, v = 0.2, t = 0.2)
movej(p[0.534971004030098, -0.0100845693032588, 0.183842083954733, -1.20138057944459, 1.19870705354523, -1.24920025109113], a = 0.2, v = 0.2, t = 0.2)
movej(p[0.535031303000642, -0.0102406632680836, 0.183835275348291, -1.19713839486175, 1.19909585638185, -1.24119548821507], a = 0.2, v = 0.2, t = 0.2)
movej(p[0.534849257296941, -0.0104814659042326, 0.183922943081311, -1.18996081498527, 1.20164857304112, -1.23922995666831], a = 0.2, v = 0.2, t = 0.2)
movej(p[0.53474276369797, -0.010496889761015, 0.183870751934359, -1.18570641573799, 1.20341088844232, -1.24407154533751], a = 0.2, v = 0.2, t = 0.2)
movej(p[0.534519001693281, -0.010392628352846, 0.183783537272466, -1.182005458996, 1.20489452080977, -1.24183622545123], a = 0.2, v = 0.2, t = 0.2)
movej(p[0.534295751062823, -0.0103885903960544, 0.183747637470169, -1.18292387530164, 1.20257360172473, -1.24369258901556], a = 0.2, v = 0.2, t = 0.2)
movej(p[0.533820028103385, -0.0105359757846747, 0.183859171953112, -1.17865196691961, 1.20173101081359, -1.23963231789027], a = 0.2, v = 0.2, t = 0.2)
movej(p[0.53342586753354, -0.0104714620004952, 0.183858166652108, -1.17736702159179, 1.19918178813691, -1.25153122144818], a = 0.2, v = 0.2, t = 0.2)
movej(p[0.533131677250994, -0.0101646945157919, 0.183745688849994, -1.17639601059433, 1.19787428417495, -1.25098501613223], a = 0.2, v = 0.2, t = 0.2)
movej(p[0.5328723647133, -0.00995182919604936, 0.183646401555292, -1.17485663687789, 1.19392464147697, -1.25118455234028], a = 0.2, v = 0.2, t = 0.2)
movej(p[0.532558924072888, -0.0100034143916041, 0.183713530290224, -1.17364865890268, 1.19228709888505, -1.24480919933845], a = 0.2, v = 0.2, t = 0.2)
movej(p[0.532131685647251, -0.0100181493724947, 0.183833258183642, -1.17376573154576, 1.18808265324286, -1.25436107856757], a = 0.2, v = 0.2, t = 0.2)
movej(p[0.53200160339682, -0.00978230490755026, 0.183858579563179, -1.17889926463551, 1.18463764598718, -1.25588911342019], a = 0.2, v = 0.2, t = 0.2)
movej(p[0.532042497219467, -0.00959365128999793, 0.183948178428985, -1.18095685183374, 1.18046389952364, -1.25631368515936], a = 0.2, v = 0.2, t = 0.2)
movej(p[0.532381916712382, -0.00955204871271547, 0.18408818689156, -1.18270561607181, 1.17888057145678, -1.25031609209048], a = 0.2, v = 0.2, t = 0.2)
movej(p[0.532884376187448, -0.00972884815607284, 0.18428128055323, -1.18367278771495, 1.17944808805773, -1.25558576863036], a = 0.2, v = 0.2, t = 0.2)
movej(p[0.53354451049853, -0.00970501960152474, 0.184201410838108, -1.19017252109675, 1.18331241808294, -1.26273590919887], a = 0.2, v = 0.2, t = 0.2)
movej(p[0.534137484394467, -0.00970579600248351, 0.184089426974976, -1.19517873367547, 1.18783962450856, -1.2567972769313], a = 0.2, v = 0.2, t = 0.2)
movej(p[0.534414768670662, -0.00992327208269288, 0.184040466995277, -1.19830437834855, 1.19215215979216, -1.24957972694379], a = 0.2, v = 0.2, t = 0.2)
movej(p[0.534518538342944, -0.0102926927856849, 0.184138166625344, -1.19852204430757, 1.19500976896045, -1.24440693233032], a = 0.2, v = 0.2, t = 0.2)
movej(p[0.534534075394156, -0.0104566963379275, 0.184134142822236, -1.19687351339361, 1.19661193843714, -1.24991523863392], a = 0.2, v = 0.2, t = 0.2)
movej(p[0.534627575883769, -0.0104023965102294, 0.184081460092104, -1.19793855675347, 1.19878282681276, -1.25037800299218], a = 0.2, v = 0.2, t = 0.2)
movej(p[0.534702122816236, -0.0104027175843988, 0.184071170605476, -1.19772160986196, 1.1995004174721, -1.24733889403709], a = 0.2, v = 0.2, t = 0.2)
movej(p[0.534706221574059, -0.0105947575763874, 0.184155743975459, -1.19627716848461, 1.20076869439729, -1.24189331228648], a = 0.2, v = 0.2, t = 0.2)
movej(p[0.53450296260778, -0.0107844095869409, 0.184183217266145, -1.18908142433956, 1.20181218195617, -1.24271635911553], a = 0.2, v = 0.2, t = 0.2)
movej(p[0.534333959542913, -0.0106929599397304, 0.184051672940192, -1.18334791988741, 1.20186212803292, -1.24481554522858], a = 0.2, v = 0.2, t = 0.2)
movej(p[0.533989167291466, -0.0106207951725261, 0.183977132106978, -1.18097553096913, 1.20148537159722, -1.24999781568088], a = 0.2, v = 0.2, t = 0.2)
movej(p[0.533609855394746, -0.010626849913329, 0.184018901008342, -1.17768928284682, 1.20122755812721, -1.24740437409787], a = 0.2, v = 0.2, t = 0.2)
movej(p[0.533058241317241, -0.0106369481105984, 0.184130491073805, -1.18273945968018, 1.20002862655261, -1.26178524405312], a = 0.2, v = 0.2, t = 0.2)
movej(p[0.532761087147836, -0.0103593463225828, 0.184068650674423, -1.17926678003849, 1.19918887852538, -1.25936433823743], a = 0.2, v = 0.2, t = 0.2)
movej(p[0.532444707101245, -0.0100074679217464, 0.183969875592704, -1.18009537567957, 1.19467163105017, -1.26083682918311], a = 0.2, v = 0.2, t = 0.2)
movej(p[0.532208176795987, -0.00981162092555156, 0.183956932405258, -1.17983015151292, 1.18947613717199, -1.25455921419416], a = 0.2, v = 0.2, t = 0.2)
movej(p[0.531828604900869, -0.00984385887478072, 0.184108487190948, -1.18337953231343, 1.1851728384533, -1.25547194162319], a = 0.2, v = 0.2, t = 0.2)
movej(p[0.531613811083702, -0.00976544792394435, 0.184194319924708, -1.18518159288447, 1.18280388017549, -1.25900661156606], a = 0.2, v = 0.2, t = 0.2)
movej(p[0.531716423795977, -0.00955426851669197, 0.184220817818077, -1.18836397373636, 1.18028791336503, -1.25893629912851], a = 0.2, v = 0.2, t = 0.2)
movej(p[0.532137382674776, -0.00945120756486673, 0.184239486609512, -1.19024503570733, 1.17648948004842, -1.25980403501522], a = 0.2, v = 0.2, t = 0.2)
movej(p[0.53273922476245, -0.00953325009002058, 0.184367839613817, -1.19244050936405, 1.17503456343465, -1.25834842434382], a = 0.2, v = 0.2, t = 0.2)
movej(p[0.533261401768317, -0.00961180349724008, 0.184452521860254, -1.19412507001787, 1.17686761104896, -1.26617885708032], a = 0.2, v = 0.2, t = 0.2)
movej(p[0.533808202030931, -0.0095724648646586, 0.18439096313226, -1.19754478080325, 1.18209307269299, -1.26285476615555], a = 0.2, v = 0.2, t = 0.2)
movej(p[0.534195170171704, -0.00957138482666973, 0.184284605015617, -1.20170289959652, 1.18562049585001, -1.26170391883969], a = 0.2, v = 0.2, t = 0.2)
movej(p[0.534494275204245, -0.00976595337033785, 0.184216741138033, -1.1965733204322, 1.19132744132154, -1.24435552290033], a = 0.2, v = 0.2, t = 0.2)
movej(p[0.534613815115507, -0.0100076678444648, 0.184239685421311, -1.19846213663232, 1.19365600397805, -1.246130242907], a = 0.2, v = 0.2, t = 0.2)
movej(p[0.534786128827009, -0.010062066014356, 0.184184384461918, -1.19549427159106, 1.19842827237267, -1.24214369826129], a = 0.2, v = 0.2, t = 0.2)
movej(p[0.53488477902759, -0.0100241451971066, 0.184076936218855, -1.19610026992378, 1.20104231761737, -1.2418455666669], a = 0.2, v = 0.2, t = 0.2)
movej(p[0.53498755061127, -0.010143273977627, 0.18401685020194, -1.1952018179776, 1.20303923601652, -1.23629223492739], a = 0.2, v = 0.2, t = 0.2)
movej(p[0.534907800218221, -0.0104161887383542, 0.184058053688622, -1.1958618357817, 1.20260938511916, -1.23954112404777], a = 0.2, v = 0.2, t = 0.2)
movej(p[0.53477820902521, -0.0105436469240165, 0.18402868141364, -1.19487399586082, 1.20259985395079, -1.24649195204169], a = 0.2, v = 0.2, t = 0.2)
movej(p[0.534545122123934, -0.0104666049079214, 0.183930911999274, -1.18886560140363, 1.20325611716849, -1.24338932606664], a = 0.2, v = 0.2, t = 0.2)
movej(p[0.534139627374367, -0.0104745876481125, 0.18386074722369, -1.18765321750622, 1.20235464220771, -1.24727028804321], a = 0.2, v = 0.2, t = 0.2)
movej(p[0.533543281384277, -0.0105402961145288, 0.183926303069687, -1.18016325641892, 1.20185808500589, -1.24002766128674], a = 0.2, v = 0.2, t = 0.2)
movej(p[0.53280260823312, -0.0104888497051504, 0.184004757363502, -1.1830581949668, 1.19687863808335, -1.25909589444731], a = 0.2, v = 0.2, t = 0.2)
movej(p[0.532357396418895, -0.0101305042582392, 0.183930129795265, -1.18105590454408, 1.19277785865961, -1.25862125949487], a = 0.2, v = 0.2, t = 0.2)
movej(p[0.53195604689612, -0.00974618809499999, 0.183832092298406, -1.18452962528049, 1.18470909297232, -1.26492720377165], a = 0.2, v = 0.2, t = 0.2)
movej(p[0.5316575207283, -0.00961140102504135, 0.183826444599854, -1.17894658443137, 1.18018457319963, -1.25328727391753], a = 0.2, v = 0.2, t = 0.2)
movej(p[0.531212559837289, -0.00961680643323122, 0.183957568434576, -1.17984847500857, 1.17465105079825, -1.2587122219056], a = 0.2, v = 0.2, t = 0.2)
movej(p[0.531198225624017, -0.00952023626661493, 0.184018895001002, -1.18526905344379, 1.17075013542327, -1.26402547898386], a = 0.2, v = 0.2, t = 0.2)
movej(p[0.531483488560282, -0.00933406406316497, 0.184049173533924, -1.19459810485882, 1.16692173996214, -1.27124985575937], a = 0.2, v = 0.2, t = 0.2)
movej(p[0.532141469029963, -0.00926891897205773, 0.184097696385473, -1.2001282252488, 1.16566427425119, -1.27229965947574], a = 0.2, v = 0.2, t = 0.2)
movej(p[0.532827388663042, -0.00936793694195652, 0.184174094317269, -1.19852344710872, 1.17096492164339, -1.26788192963194], a = 0.2, v = 0.2, t = 0.2)
movej(p[0.53352095276401, -0.00941952764147374, 0.184130630304099, -1.19768791722848, 1.17835428861553, -1.26948031515931], a = 0.2, v = 0.2, t = 0.2)
movej(p[0.534124826335585, -0.00941981768096711, 0.184045346760956, -1.20393633733546, 1.18580023389881, -1.26511806818139], a = 0.2, v = 0.2, t = 0.2)
movej(p[0.534588330210094, -0.00954773064449954, 0.184007384573516, -1.20933879301488, 1.18853581121694, -1.26237131746025], a = 0.2, v = 0.2, t = 0.2)
movej(p[0.534906420209706, -0.00991069548467437, 0.184118590099654, -1.20782994557432, 1.19290622089959, -1.24704031632693], a = 0.2, v = 0.2, t = 0.2)
movej(p[0.534982424876623, -0.0101185375567394, 0.184142074982934, -1.20450677972293, 1.19577288447009, -1.2501939136257], a = 0.2, v = 0.2, t = 0.2)
movej(p[0.535123901949066, -0.0101378065144194, 0.184055780926454, -1.2103565744621, 1.19766469029855, -1.25358062701146], a = 0.2, v = 0.2, t = 0.2)
movej(p[0.535113291940284, -0.0101406929810361, 0.183974766348333, -1.20994787595062, 1.19907058703774, -1.25309643124645], a = 0.2, v = 0.2, t = 0.2)
movej(p[0.535067958462134, -0.0103136541666984, 0.184003571439933, -1.20681812466506, 1.20001159085174, -1.2436117129549], a = 0.2, v = 0.2, t = 0.2)
movej(p[0.534733283025564, -0.0105476173556933, 0.184074899719235, -1.19587915991436, 1.20169648541621, -1.2432598000119], a = 0.2, v = 0.2, t = 0.2)
movej(p[0.534522843730179, -0.010472901422898, 0.183958498830749, -1.19414235433382, 1.19968682614159, -1.25151913197532], a = 0.2, v = 0.2, t = 0.2)
movej(p[0.534148238201171, -0.010374734266419, 0.183833926814928, -1.19281544283688, 1.19779289716296, -1.25885969050979], a = 0.2, v = 0.2, t = 0.2)
movej(p[0.533783958607698, -0.0103493485335011, 0.183796783652123, -1.18801801538639, 1.1955362118535, -1.25402463877598], a = 0.2, v = 0.2, t = 0.2)
movej(p[0.533226344214277, -0.0104554269922008, 0.183919041337972, -1.18477151452591, 1.19543562541615, -1.25496666026179], a = 0.2, v = 0.2, t = 0.2)
movej(p[0.532864385119152, -0.010274316131001, 0.183902338586342, -1.18367408011631, 1.19427896132204, -1.26130782728986], a = 0.2, v = 0.2, t = 0.2)
movej(p[0.532593951999787, -0.00994270839965047, 0.183794107466236, -1.18470941962173, 1.19092032479061, -1.26395136597612], a = 0.2, v = 0.2, t = 0.2)
movej(p[0.532406072103387, -0.00978079942038786, 0.183704460259014, -1.18374055664539, 1.18622621717493, -1.26124314734706], a = 0.2, v = 0.2, t = 0.2)
movej(p[0.532015229910231, -0.00983953265223973, 0.1837965955792, -1.18486334420658, 1.18083836690606, -1.25965004238978], a = 0.2, v = 0.2, t = 0.2)
movej(p[0.531769151804432, -0.00984919113954731, 0.183936076731937, -1.18739952500287, 1.17550457098982, -1.2657319119395], a = 0.2, v = 0.2, t = 0.2)
movej(p[0.531963444265537, -0.00970501932818449, 0.184019557139015, -1.19487898493711, 1.17287370945956, -1.26848486206405], a = 0.2, v = 0.2, t = 0.2)
movej(p[0.532595850784169, -0.00959927999732402, 0.184065282361817, -1.19874853055567, 1.17113098207102, -1.26697787039368], a = 0.2, v = 0.2, t = 0.2)
movej(p[0.533370095435505, -0.00971812749462386, 0.184106402323687, -1.19860126872341, 1.17523040368539, -1.25700520272731], a = 0.2, v = 0.2, t = 0.2)
movej(p[0.533931848738805, -0.00985650411097619, 0.184145872885855, -1.19935265658931, 1.17999911844925, -1.25981307939802], a = 0.2, v = 0.2, t = 0.2)
movej(p[0.534467465813462, -0.00991710992496662, 0.184091075696632, -1.19874881565972, 1.18655387864012, -1.25325669435122], a = 0.2, v = 0.2, t = 0.2)
movej(p[0.534787525959096, -0.00996482510220204, 0.184050904947795, -1.2013148954034, 1.19145789145261, -1.25086523569291], a = 0.2, v = 0.2, t = 0.2)
movej(p[0.534992509819631, -0.010173969761544, 0.184078665993831, -1.19716411647745, 1.1971995910247, -1.23684477904231], a = 0.2, v = 0.2, t = 0.2)
movej(p[0.534967359037129, -0.0104067385142712, 0.184178531054775, -1.19822106960846, 1.20160136413537, -1.23988551506818], a = 0.2, v = 0.2, t = 0.2)
movej(p[0.534997940870743, -0.0104369991969067, 0.184147294128882, -1.1987522873316, 1.20497375848106, -1.24154460602522], a = 0.2, v = 0.2, t = 0.2)
movej(p[0.53491627053058, -0.0103468985931243, 0.18399703537594, -1.19564334836636, 1.20535995366509, -1.23919369217626], a = 0.2, v = 0.2, t = 0.2)
movej(p[0.534593377778555, -0.0104207685055265, 0.18389912027531, -1.19447853783865, 1.20316041053139, -1.24020474972099], a = 0.2, v = 0.2, t = 0.2)
movej(p[0.533951665586074, -0.0106133963162871, 0.183918130755137, -1.18609697959019, 1.2008874100941, -1.23821167364343], a = 0.2, v = 0.2, t = 0.2)
movej(p[0.533162263807402, -0.0106444056292866, 0.183953433208812, -1.18493593041812, 1.19792692168081, -1.2554576274033], a = 0.2, v = 0.2, t = 0.2)
movej(p[0.532661200845663, -0.0102680807458432, 0.183811216339998, -1.1815556770611, 1.19504833049869, -1.25674741622178], a = 0.2, v = 0.2, t = 0.2)
movej(p[0.532254274477502, -0.00992502425885824, 0.18369817857581, -1.18249074914239, 1.19096679934017, -1.26198532126765], a = 0.2, v = 0.2, t = 0.2)
movej(p[0.531930817751899, -0.0097709278219139, 0.183721573021381, -1.18058316275624, 1.18729032648246, -1.25385722757548], a = 0.2, v = 0.2, t = 0.2)
movej(p[0.531542235494718, -0.0097495489624059, 0.183856337783356, -1.18456557996983, 1.18257537236775, -1.26451657477675], a = 0.2, v = 0.2, t = 0.2)
movej(p[0.53143129377547, -0.00948578258680198, 0.183825416306501, -1.18287788943377, 1.17877182876624, -1.26349483104864], a = 0.2, v = 0.2, t = 0.2)
movej(p[0.531410321119055, -0.00921297500350333, 0.183828110778186, -1.19211432466469, 1.17073426644769, -1.27102973662898], a = 0.2, v = 0.2, t = 0.2)
movej(p[0.531543419547203, -0.0091665779319392, 0.183879065344957, -1.19325684791137, 1.16486753595581, -1.26667897934412], a = 0.2, v = 0.2, t = 0.2)
movej(p[0.531574886752554, -0.00939264682670546, 0.184065858076631, -1.20062591681035, 1.16006522757879, -1.27128926306124], a = 0.2, v = 0.2, t = 0.2)
movej(p[0.531845477024364, -0.00945633251467267, 0.184048084434635, -1.19928922154831, 1.16297346552084, -1.27418799952975], a = 0.2, v = 0.2, t = 0.2)
movej(p[0.532402935860509, -0.00930636888893648, 0.183936928438573, -1.20271326814073, 1.16739583549205, -1.27552256195372], a = 0.2, v = 0.2, t = 0.2)
movej(p[0.533151749090008, -0.00921361195724038, 0.183881523963575, -1.20484451740023, 1.1704460963984, -1.27406421886707], a = 0.2, v = 0.2, t = 0.2)
movej(p[0.53376138750074, -0.00937327506977311, 0.183957263411398, -1.20334367410526, 1.17386844733212, -1.26538950717237], a = 0.2, v = 0.2, t = 0.2)
movej(p[0.534128375348509, -0.00953660830684383, 0.18400697249465, -1.20650975243864, 1.17629364469449, -1.27147779059198], a = 0.2, v = 0.2, t = 0.2)
movej(p[0.534457545689589, -0.00956513076998753, 0.183927295912463, -1.2044590180359, 1.1814342701456, -1.26318194065349], a = 0.2, v = 0.2, t = 0.2)
movej(p[0.534673388218975, -0.00959781758844297, 0.18386400230135, -1.20693567920226, 1.1844935553999, -1.26421552854653], a = 0.2, v = 0.2, t = 0.2)
movej(p[0.53484255062458, -0.00979833703025463, 0.183884978931545, -1.19911228737, 1.18932548643477, -1.25041942257508], a = 0.2, v = 0.2, t = 0.2)
movej(p[0.534819374310151, -0.00999372259361637, 0.183930833810406, -1.19826228003594, 1.1920678594252, -1.25590112593957], a = 0.2, v = 0.2, t = 0.2)
movej(p[0.534790335359379, -0.0100191738527292, 0.183808980183732, -1.19813507807601, 1.19355752833831, -1.26032980188401], a = 0.2, v = 0.2, t = 0.2)
movej(p[0.534600730734092, -0.00999316232118411, 0.183626859576426, -1.19666121233886, 1.19201852845763, -1.26152064876825], a = 0.2, v = 0.2, t = 0.2)
movej(p[0.534395405515583, -0.0101232806805687, 0.18353063819244, -1.19189751669497, 1.19050733690889, -1.25554969250592], a = 0.2, v = 0.2, t = 0.2)
movej(p[0.534050476632304, -0.0103695498670925, 0.183627639159805, -1.18410835064397, 1.19208917488792, -1.24691323322003], a = 0.2, v = 0.2, t = 0.2)
movej(p[0.533817031593556, -0.0103635768690159, 0.183664936356456, -1.18397106305617, 1.19208565536298, -1.25794009612198], a = 0.2, v = 0.2, t = 0.2)
movej(p[0.533625233711585, -0.0101271300584977, 0.183590879339284, -1.18551840251099, 1.19365760022265, -1.26002407404843], a = 0.2, v = 0.2, t = 0.2)
movej(p[0.533425995237307, -0.00996230248478191, 0.18353398595535, -1.18835043392273, 1.1899872079283, -1.26848158571734], a = 0.2, v = 0.2, t = 0.2)
movej(p[0.53306442619876, -0.00996232603050837, 0.183563735103395, -1.18228699861786, 1.18946463720718, -1.25688507400969], a = 0.2, v = 0.2, t = 0.2)
movej(p[0.532506966675204, -0.00990592275764427, 0.183658212023894, -1.1856500862892, 1.18433989234544, -1.27505512417341], a = 0.2, v = 0.2, t = 0.2)
movej(p[0.5322422178112, -0.00957418445165374, 0.183599857539513, -1.18581463665542, 1.18124142662743, -1.27695217315141], a = 0.2, v = 0.2, t = 0.2)
movej(p[0.532167310308296, -0.00919271272608389, 0.183584044468988, -1.19392127623232, 1.17552865349625, -1.28604155619745], a = 0.2, v = 0.2, t = 0.2)
movej(p[0.532504803528086, -0.00910359801720068, 0.183664713705728, -1.1939667362901, 1.17379420608703, -1.2758639524295], a = 0.2, v = 0.2, t = 0.2)
movej(p[0.532849815706949, -0.0092194228669665, 0.183879569270965, -1.2061217386945, 1.17120790487584, -1.28492756499537], a = 0.2, v = 0.2, t = 0.2)
movej(p[0.533347829403449, -0.00926198810694145, 0.183910540981352, -1.20803151213244, 1.17389352203698, -1.28589771412716], a = 0.2, v = 0.2, t = 0.2)
movej(p[0.533800826945372, -0.00919243032244397, 0.183811593834716, -1.21136439565632, 1.17631151209153, -1.28393586302586], a = 0.2, v = 0.2, t = 0.2)
movej(p[0.534151863458992, -0.0092874128704107, 0.183724077812255, -1.20706971956675, 1.18092681514305, -1.27358218069094], a = 0.2, v = 0.2, t = 0.2)
movej(p[0.534309904045467, -0.00956965812277385, 0.183788430358787, -1.20871124657176, 1.18424835748699, -1.26725988862349], a = 0.2, v = 0.2, t = 0.2)
movej(p[0.534266099286458, -0.00985931801996901, 0.183862370780377, -1.21023234442773, 1.18667517033848, -1.27269176249716], a = 0.2, v = 0.2, t = 0.2)
movej(p[0.534410733742544, -0.00989805198598751, 0.183822160082933, -1.20859914063879, 1.19022678241036, -1.2683448488793], a = 0.2, v = 0.2, t = 0.2)
movej(p[0.534586700466515, -0.00994491323280462, 0.183786367959473, -1.20590924272741, 1.19229294467317, -1.26313126104004], a = 0.2, v = 0.2, t = 0.2)
movej(p[0.534820792681317, -0.01009895915155, 0.183835287293506, -1.19896029008876, 1.19603140715893, -1.2468963334513], a = 0.2, v = 0.2, t = 0.2)
movej(p[0.534900761433764, -0.010358214022479, 0.183974755304139, -1.19618487472149, 1.19847505266652, -1.24530929648836], a = 0.2, v = 0.2, t = 0.2)
movej(p[0.535002012397782, -0.0103511817553859, 0.183921768623455, -1.19478088395542, 1.19954194665657, -1.24838017838834], a = 0.2, v = 0.2, t = 0.2)
movej(p[0.53492589098405, -0.0103123738730895, 0.183777993930817, -1.19692204013476, 1.19833483812599, -1.25330017027379], a = 0.2, v = 0.2, t = 0.2)
movej(p[0.534641085135901, -0.0103990346073661, 0.183688285170961, -1.19501397991483, 1.19594709455451, -1.25313714164359], a = 0.2, v = 0.2, t = 0.2)
movej(p[0.534194850653868, -0.0106924037994307, 0.183765463131491, -1.19112328257754, 1.19713760740216, -1.24806589988338], a = 0.2, v = 0.2, t = 0.2)
movej(p[0.533775915244108, -0.0107720499254323, 0.183795184633181, -1.18685231931209, 1.19785105595206, -1.25572625239192], a = 0.2, v = 0.2, t = 0.2)
movej(p[0.533558482432608, -0.0105511179308505, 0.18366546786305, -1.18356518609013, 1.19975929731857, -1.25192682512987], a = 0.2, v = 0.2, t = 0.2)
movej(p[0.533259867385964, -0.0103467468431318, 0.183549383024582, -1.18306468578877, 1.19519266289948, -1.25597321825123], a = 0.2, v = 0.2, t = 0.2)
movej(p[0.532674854247502, -0.010231239511887, 0.183576055993216, -1.18387845744252, 1.19021439332868, -1.25405979576893], a = 0.2, v = 0.2, t = 0.2)
movej(p[0.531726855127027, -0.0101293221203739, 0.183754470705366, -1.18950971754279, 1.18006488248624, -1.27489962990869], a = 0.2, v = 0.2, t = 0.2)
movej(p[0.531254154729411, -0.00969548932100884, 0.183786722268332, -1.19435121646379, 1.17235624699193, -1.28228532561186], a = 0.2, v = 0.2, t = 0.2)
movej(p[0.531285982677317, -0.00931462660287831, 0.183831700255952, -1.19999434772027, 1.16431223966132, -1.2847295296805], a = 0.2, v = 0.2, t = 0.2)
movej(p[0.531926444985284, -0.00916890981531649, 0.18387958284147, -1.20142906503394, 1.16268882918446, -1.27503690844127], a = 0.2, v = 0.2, t = 0.2)
movej(p[0.532575271329689, -0.00927920408148974, 0.183993309848618, -1.20632307358201, 1.16420315707786, -1.27562767379936], a = 0.2, v = 0.2, t = 0.2)
movej(p[0.533209090087855, -0.00931675930629067, 0.183943152766498, -1.20133821976377, 1.171069006348, -1.26939076847174], a = 0.2, v = 0.2, t = 0.2)
movej(p[0.533765241158778, -0.009317525495063, 0.183825511312214, -1.20093298296913, 1.17774674587312, -1.26278256714646], a = 0.2, v = 0.2, t = 0.2)
movej(p[0.534197687674139, -0.00945302824427368, 0.18376657757986, -1.19691115143206, 1.18300178669158, -1.25108070748316], a = 0.2, v = 0.2, t = 0.2)
movej(p[0.534507954694619, -0.00976345780684394, 0.183876834209522, -1.194121025409, 1.18800512777369, -1.23906624964328], a = 0.2, v = 0.2, t = 0.2)
movej(p[0.534674845260972, -0.00999102606724897, 0.183954074087297, -1.19330553917999, 1.19039696713208, -1.24071969272905], a = 0.2, v = 0.2, t = 0.2)
movej(p[0.534919443266499, -0.00999700854320782, 0.183918047261541, -1.19402272915685, 1.19373028272253, -1.24079946489239], a = 0.2, v = 0.2, t = 0.2)
movej(p[0.535038202995069, -0.0100611859600077, 0.183844687746059, -1.19633137627184, 1.19376240544177, -1.2414772037157], a = 0.2, v = 0.2, t = 0.2)
movej(p[0.53511981309099, -0.0102501951114447, 0.183869061513636, -1.19208112136347, 1.19750173047786, -1.22997714180375], a = 0.2, v = 0.2, t = 0.2)
movej(p[0.535030534030384, -0.0104847999258292, 0.183980920688517, -1.19347755596614, 1.19840378643287, -1.23461296750786], a = 0.2, v = 0.2, t = 0.2)
movej(p[0.535044802590281, -0.0104825636966524, 0.183917163969831, -1.18864202274199, 1.20118726634459, -1.2331682290771], a = 0.2, v = 0.2, t = 0.2)
movej(p[0.534894437850248, -0.0104546632664661, 0.1838362835646, -1.19035436866176, 1.2003687596373, -1.23976606730333], a = 0.2, v = 0.2, t = 0.2)
movej(p[0.534581626227038, -0.0105993536730853, 0.183802416984958, -1.18089040472453, 1.20079593136441, -1.22863973440781], a = 0.2, v = 0.2, t = 0.2)
movej(p[0.534042293019078, -0.0108928479517232, 0.183948985162264, -1.17995709656195, 1.20077488615776, -1.22983183285708], a = 0.2, v = 0.2, t = 0.2)
movej(p[0.533615338174251, -0.0108697900433534, 0.183948520684013, -1.17677856409514, 1.20011201696451, -1.23811619140248], a = 0.2, v = 0.2, t = 0.2)
movej(p[0.533273435940311, -0.0106091491222301, 0.183849401111965, -1.1790417964419, 1.19781698628614, -1.24473652333772], a = 0.2, v = 0.2, t = 0.2)
movej(p[0.533017897122503, -0.0104142125855971, 0.183801823220261, -1.17845968052741, 1.19328967193499, -1.24901322079814], a = 0.2, v = 0.2, t = 0.2)
movej(p[0.532652735001062, -0.0104273654787329, 0.183931160367542, -1.17748964909711, 1.19075374311664, -1.24307301879792], a = 0.2, v = 0.2, t = 0.2)
movej(p[0.532366337944503, -0.0103837747505659, 0.184005387434116, -1.17731290831405, 1.18887851058877, -1.25326257780793], a = 0.2, v = 0.2, t = 0.2)
movej(p[0.532359344088604, -0.0100608187993204, 0.183907630976141, -1.18051143280654, 1.1881779404477, -1.25274341234037], a = 0.2, v = 0.2, t = 0.2)
movej(p[0.532408422094555, -0.00981945616130049, 0.183813711221132, -1.18446981525072, 1.18337978351015, -1.25748734214222], a = 0.2, v = 0.2, t = 0.2)
movej(p[0.532642345814068, -0.00978964466140133, 0.183830517318922, -1.18162602544276, 1.18248963783764, -1.2437838583178], a = 0.2, v = 0.2, t = 0.2)
movej(p[0.532898939578547, -0.00984292409532325, 0.183934012363978, -1.18351436222745, 1.18207081000423, -1.24903581078647], a = 0.2, v = 0.2, t = 0.2)
movej(p[0.533450360159843, -0.00973511716959369, 0.183909222168572, -1.18759934763098, 1.18554462930275, -1.2500808407118], a = 0.2, v = 0.2, t = 0.2)
movej(p[0.533926553639882, -0.00959648643966178, 0.183819866187869, -1.19763395217453, 1.1881910656603, -1.25598422221611], a = 0.2, v = 0.2, t = 0.2)
movej(p[0.534300792181506, -0.0097093757546747, 0.183803120626693, -1.19983404421087, 1.19001067113444, -1.25187169179675], a = 0.2, v = 0.2, t = 0.2)
movej(p[0.534455864764448, -0.0099693057797033, 0.183891223596042, -1.20322581454499, 1.19061105416299, -1.25467557460129], a = 0.2, v = 0.2, t = 0.2)
movej(p[0.534587668510408, -0.0100769583549093, 0.183928839525213, -1.20347617537737, 1.19104958055078, -1.26084542735399], a = 0.2, v = 0.2, t = 0.2)
movej(p[0.534747199624004, -0.0100142585495497, 0.183874276531887, -1.20430867261448, 1.19261414507195, -1.2595181271417], a = 0.2, v = 0.2, t = 0.2)
movej(p[0.534920832950275, -0.0100681216388487, 0.183799082241862, -1.20194671541092, 1.19527446501172, -1.25622035343081], a = 0.2, v = 0.2, t = 0.2)
movej(p[0.535075186329172, -0.0101993681559856, 0.18384457521893, -1.18491648863306, 1.20181084664448, -1.22904957579648], a = 0.2, v = 0.2, t = 0.2)
movej(p[0.534924090133039, -0.0104356080978745, 0.183935737809232, -1.19036605226697, 1.20493687131259, -1.24049732791458], a = 0.2, v = 0.2, t = 0.2)
movej(p[0.534915504173904, -0.0103717748866521, 0.183880907224238, -1.18870764979463, 1.20921394761363, -1.23331085001616], a = 0.2, v = 0.2, t = 0.2)
movej(p[0.534709498015697, -0.0103796882295144, 0.183812238165887, -1.19833605340372, 1.20569458538566, -1.2461615255283], a = 0.2, v = 0.2, t = 0.2)
movej(p[0.534630381064133, -0.0105298784538529, 0.183808244023007, -1.18478804846182, 1.206521260228, -1.22265866105695], a = 0.2, v = 0.2, t = 0.2)
movej(p[0.534345502959642, -0.0107207161160059, 0.183929857402969, -1.18432320687335, 1.20535924816851, -1.22853704420776], a = 0.2, v = 0.2, t = 0.2)
movej(p[0.533960071928225, -0.010759535654743, 0.183960919876036, -1.18298318195949, 1.20518866106442, -1.21895567879683], a = 0.2, v = 0.2, t = 0.2)
movej(p[0.53368398671961, -0.0107414058184448, 0.183889826144108, -1.18471951135942, 1.20441463215862, -1.23388517095568], a = 0.2, v = 0.2, t = 0.2)
movej(p[0.533589448278343, -0.0105256558090788, 0.183891970201344, -1.17005488819911, 1.2070935518437, -1.2180553227862], a = 0.2, v = 0.2, t = 0.2)
movej(p[0.533272470910784, -0.0108802232985803, 0.183954058998596, -1.17105541629842, 1.20564814879302, -1.2255453016839], a = 0.2, v = 0.2, t = 0.2)
movej(p[0.532872646416166, -0.010638528606844, 0.184023807179863, -1.1722530777726, 1.20440840451866, -1.23685287386956], a = 0.2, v = 0.2, t = 0.2)
movej(p[0.532281241324059, -0.0104849897501766, 0.183930001321716, -1.1858528067148, 1.19399909833222, -1.25122234451967], a = 0.2, v = 0.2, t = 0.2)
movej(p[0.531849279702639, -0.0100560944785085, 0.183853937608149, -1.18926005725818, 1.1864492618259, -1.26423201535977], a = 0.2, v = 0.2, t = 0.2)
movej(p[0.531553030637399, -0.00991792320899168, 0.183850995407369, -1.18449193862178, 1.17922976798027, -1.25351371232492], a = 0.2, v = 0.2, t = 0.2)
movej(p[0.531483021998175, -0.00992754798669941, 0.183952271739689, -1.18942884727562, 1.17561424365765, -1.26891202203149], a = 0.2, v = 0.2, t = 0.2)
movej(p[0.531981101833086, -0.00973291468746471, 0.183957976105093, -1.19153652166328, 1.17704254155856, -1.26479485454447], a = 0.2, v = 0.2, t = 0.2)
movej(p[0.532785201797882, -0.00960114125074466, 0.183951334532344, -1.20105034705073, 1.17875926040329, -1.2683826404176], a = 0.2, v = 0.2, t = 0.2)
movej(p[0.533646890222874, -0.00965323584605724, 0.184011694759936, -1.19946809602026, 1.18392536602327, -1.25177773980764], a = 0.2, v = 0.2, t = 0.2)
movej(p[0.534247790493423, -0.00987343532965791, 0.184130957426666, -1.20180895754657, 1.18972013859926, -1.24860144776628], a = 0.2, v = 0.2, t = 0.2)
movej(p[0.534772561560632, -0.00997988477432698, 0.184209346089596, -1.20352686341119, 1.1979707168414, -1.24308789999058], a = 0.2, v = 0.2, t = 0.2)
movej(p[0.535050086058967, -0.0100198180572804, 0.184333759445998, -1.20447178859908, 1.20443396348574, -1.23548074939503], a = 0.2, v = 0.2, t = 0.2)
movej(p[0.535203692706837, -0.0101701441546514, 0.184516147437734, -1.20402733891971, 1.20685636589883, -1.23132444800634], a = 0.2, v = 0.2, t = 0.2)
movej(p[0.535170685179583, -0.010467794849862, 0.184749167477621, -1.19492804033662, 1.20912673274223, -1.22234759314937], a = 0.2, v = 0.2, t = 0.2)
movej(p[0.53511009007315, -0.0105814524924539, 0.184781842325086, -1.19469619982637, 1.2099406671236, -1.23358457816298], a = 0.2, v = 0.2, t = 0.2)
movej(p[0.5349556340831, -0.0104781795102828, 0.184604355918589, -1.19219987942651, 1.2119780181978, -1.23153798952303], a = 0.2, v = 0.2, t = 0.2)
movej(p[0.534536563978386, -0.0104567379118141, 0.184492496520724, -1.18986183253527, 1.20994364786851, -1.2364218797094], a = 0.2, v = 0.2, t = 0.2)
movej(p[0.533913471346719, -0.0106275678835625, 0.184495084437733, -1.17851117265426, 1.20801613054945, -1.22810510084278], a = 0.2, v = 0.2, t = 0.2)
movej(p[0.533238333213343, -0.0106534417193784, 0.184558439906176, -1.17486785719981, 1.20306475003514, -1.24211188515911], a = 0.2, v = 0.2, t = 0.2)
movej(p[0.532828283298009, -0.0103835945662692, 0.184499855253805, -1.18184064593049, 1.19664714898226, -1.25451132444383], a = 0.2, v = 0.2, t = 0.2)
movej(p[0.532432986656107, -0.0100409982956817, 0.184412518289001, -1.18140617787127, 1.19010937434712, -1.25688218043477], a = 0.2, v = 0.2, t = 0.2)
movej(p[0.532085042193527, -0.00988087916369836, 0.184429856975063, -1.17730160313869, 1.18494900123809, -1.24945396933784], a = 0.2, v = 0.2, t = 0.2)
movej(p[0.531611377493851, -0.00987589245842841, 0.184522641392133, -1.1697883841027, 1.18153777944884, -1.24546356472352], a = 0.2, v = 0.2, t = 0.2)
movej(p[0.531437888479147, -0.00961255749521105, 0.184480461171363, -1.17216248330677, 1.17792188649949, -1.25212240743433], a = 0.2, v = 0.2, t = 0.2)
movej(p[0.531373805349334, -0.00930205511598172, 0.184433127532518, -1.18354686378938, 1.17257078024183, -1.26036260797257], a = 0.2, v = 0.2, t = 0.2)
movej(p[0.531507925000091, -0.00914080493493134, 0.184561500436559, -1.19549277359022, 1.16675861118967, -1.26756743002144], a = 0.2, v = 0.2, t = 0.2)
movej(p[0.531793735344184, -0.00919889259937962, 0.184808601012131, -1.20245478878043, 1.16451624738881, -1.26946786298399], a = 0.2, v = 0.2, t = 0.2)
movej(p[0.532305492408448, -0.0091488528265556, 0.184866617796877, -1.20218150871102, 1.16666449306863, -1.27304467902424], a = 0.2, v = 0.2, t = 0.2)
movej(p[0.533009169692223, -0.0090068790656988, 0.184683192343008, -1.20728105009987, 1.17006721351183, -1.27412732950781], a = 0.2, v = 0.2, t = 0.2)
movej(p[0.533496172176378, -0.00902139460445702, 0.184480459027638, -1.20700327577989, 1.17368934344486, -1.26895809306593], a = 0.2, v = 0.2, t = 0.2)
movej(p[0.533815953994822, -0.00930514969921307, 0.1844411774328, -1.20753712236268, 1.17873114296336, -1.25875263971328], a = 0.2, v = 0.2, t = 0.2)
movej(p[0.533936558346281, -0.00960089645485268, 0.184497821301292, -1.19829575560316, 1.185609873163, -1.24984832802626], a = 0.2, v = 0.2, t = 0.2)
movej(p[0.534236136970418, -0.00971236842067399, 0.184461458014914, -1.20835151565451, 1.19002666445418, -1.25728541510008], a = 0.2, v = 0.2, t = 0.2)
movej(p[0.534378045203569, -0.00982671121385138, 0.184453549114078, -1.21096035947024, 1.19044613231376, -1.26047779813182], a = 0.2, v = 0.2, t = 0.2)
movej(p[0.534608171974241, -0.0100116299307784, 0.184450744432428, -1.2123084483872, 1.19072426751075, -1.25590152194033], a = 0.2, v = 0.2, t = 0.2)
movej(p[0.534771672720908, -0.0102514518403001, 0.184517581669248, -1.19894062369939, 1.19483270170615, -1.24532997660636], a = 0.2, v = 0.2, t = 0.2)
movej(p[0.535174509135497, -0.010238955982529, 0.184457734521422, -1.19667250173998, 1.19763348361243, -1.247000887657], a = 0.2, v = 0.2, t = 0.2)
movej(p[0.535502017030507, -0.0101866017099387, 0.184359853913854, -1.1989900852508, 1.19895584882159, -1.24912889335674], a = 0.2, v = 0.2, t = 0.2)
movej(p[0.535950699380866, -0.0102860140892093, 0.18432553343897, -1.1971334483594, 1.19778247014043, -1.24563905852099], a = 0.2, v = 0.2, t = 0.2)
movej(p[0.536245937449608, -0.0106338000187186, 0.184470122180908, -1.18700214308038, 1.20078382304978, -1.23099114211202], a = 0.2, v = 0.2, t = 0.2)
movej(p[0.536400244944138, -0.0107068329713245, 0.184502854150993, -1.17634683945369, 1.20196042070831, -1.23424157503298], a = 0.2, v = 0.2, t = 0.2)
movej(p[0.536318679377741, -0.0105016915668381, 0.184454862779438, -1.18426610749731, 1.20025646087967, -1.24914010653729], a = 0.2, v = 0.2, t = 0.2)
movej(p[0.535854008346132, -0.0102403120908374, 0.184338924183651, -1.18886956020874, 1.19426018531856, -1.26286272949746], a = 0.2, v = 0.2, t = 0.2)
movej(p[0.535335643848944, -0.0101860239024074, 0.18436450612463, -1.19085580134839, 1.19070037390534, -1.26223439174713], a = 0.2, v = 0.2, t = 0.2)
movej(p[0.534708398594334, -0.0101478321617406, 0.184421772977672, -1.18255292891119, 1.18801673615015, -1.26122344181286], a = 0.2, v = 0.2, t = 0.2)
movej(p[0.534433639500914, -0.00980639928803829, 0.184328787551983, -1.18862351344914, 1.18301912845652, -1.26883656369144], a = 0.2, v = 0.2, t = 0.2)
movej(p[0.534165575641209, -0.00946790313240822, 0.184224941665692, -1.18992337544566, 1.17684986576183, -1.26688472669162], a = 0.2, v = 0.2, t = 0.2)
movej(p[0.534086174431625, -0.0093046119096081, 0.184270254981551, -1.19323544506254, 1.17105666521533, -1.26346817699577], a = 0.2, v = 0.2, t = 0.2)
movej(p[0.534069061296723, -0.00941888230402495, 0.184535975437667, -1.18933582127321, 1.16963274502878, -1.25848972757144], a = 0.2, v = 0.2, t = 0.2)
movej(p[0.534507539904125, -0.00936069480666406, 0.184675240083583, -1.19300845532664, 1.16921072843252, -1.26857338733674], a = 0.2, v = 0.2, t = 0.2)
movej(p[0.535963068364473, -0.00916803978683847, 0.184626787146084, -1.20710084516806, 1.16768800945376, -1.28410544684985], a = 0.2, v = 0.2, t = 0.2)
movej(p[0.538236004197586, -0.00908955422688224, 0.184493820577237, -1.21021103407264, 1.16941602913617, -1.28267093570718], a = 0.2, v = 0.2, t = 0.2)
movej(p[0.540407681934808, -0.00933371831439891, 0.184537983101152, -1.2098820984645, 1.17387435043766, -1.27087287144697], a = 0.2, v = 0.2, t = 0.2)
movej(p[0.541765424985307, -0.00953315408932973, 0.184557781520326, -1.20262668532304, 1.18212271601579, -1.26255645099303], a = 0.2, v = 0.2, t = 0.2)
movej(p[0.542208040933562, -0.00959067652553536, 0.184534624852109, -1.21179082763149, 1.18580441085143, -1.26513879999493], a = 0.2, v = 0.2, t = 0.2)
movej(p[0.541874202694768, -0.00962994139586929, 0.184494108896175, -1.21562993258803, 1.18844178114259, -1.26404683185826], a = 0.2, v = 0.2, t = 0.2)
movej(p[0.541081529048979, -0.00983761138468372, 0.184550981102635, -1.21855381718594, 1.18953424236624, -1.2577574805922], a = 0.2, v = 0.2, t = 0.2)
movej(p[0.53971929703245, -0.0100903214418671, 0.184634561062607, -1.20771117750848, 1.19577352133652, -1.24652235635577], a = 0.2, v = 0.2, t = 0.2)
movej(p[0.538356276991418, -0.0101348966429636, 0.184575933457888, -1.20687710396674, 1.19875786776803, -1.24905532738704], a = 0.2, v = 0.2, t = 0.2)
movej(p[0.53700631201881, -0.0100781265618245, 0.184462883065286, -1.20115284906906, 1.20280072728467, -1.24001891804753], a = 0.2, v = 0.2, t = 0.2)
movej(p[0.535644878108912, -0.0102143264609917, 0.184439595017094, -1.20100516869874, 1.20080214567877, -1.235569916763], a = 0.2, v = 0.2, t = 0.2)
movej(p[0.533873103562859, -0.0105149094183938, 0.18456861266192, -1.19197378335231, 1.20305086845775, -1.22651807517131], a = 0.2, v = 0.2, t = 0.2)
movej(p[0.532171709467552, -0.0106509923234558, 0.184635890292713, -1.18785601505756, 1.20306617413472, -1.24030064025188], a = 0.2, v = 0.2, t = 0.2)
movej(p[0.530845309653637, -0.0104763262270999, 0.184535758530873, -1.184003248293, 1.20501575993716, -1.23953968142519], a = 0.2, v = 0.2, t = 0.2)
movej(p[0.530094102986465, -0.0103398886772232, 0.184400480590393, -1.18203829743407, 1.20111199938406, -1.24402362698902], a = 0.2, v = 0.2, t = 0.2)
movej(p[0.529548928595185, -0.010383025317733, 0.184373461733309, -1.17453157802028, 1.20058082832676, -1.22906812348795], a = 0.2, v = 0.2, t = 0.2)
movej(p[0.528976264162226, -0.0104489370344026, 0.184428597121487, -1.1756210320685, 1.19773548323562, -1.23807773958989], a = 0.2, v = 0.2, t = 0.2)
movej(p[0.528804876300905, -0.010218965469804, 0.184347736930615, -1.17329336562426, 1.19722519573058, -1.23817160851094], a = 0.2, v = 0.2, t = 0.2)
movej(p[0.528718668157577, -0.00993113180577072, 0.184238985204334, -1.17631287217307, 1.19327007573021, -1.24202123604595], a = 0.2, v = 0.2, t = 0.2)
movej(p[0.528721414929428, -0.00980642750530465, 0.184171744217587, -1.17584246520426, 1.1896547947345, -1.24044102070334], a = 0.2, v = 0.2, t = 0.2)
movej(p[0.528536434030831, -0.00994385134059289, 0.184312317289937, -1.17972069252163, 1.18611320558479, -1.24184958985247], a = 0.2, v = 0.2, t = 0.2)
movej(p[0.528575787666302, -0.00993068976400141, 0.184473150441609, -1.18563350103284, 1.18509305666209, -1.25311647349238], a = 0.2, v = 0.2, t = 0.2)
movej(p[0.528892576940224, -0.00969236169581731, 0.184532629368497, -1.19432738988733, 1.18447534003373, -1.25710590285571], a = 0.2, v = 0.2, t = 0.2)
movej(p[0.529421987378491, -0.00953971914900131, 0.184564609633593, -1.19920519584673, 1.18393922193513, -1.25665038615828], a = 0.2, v = 0.2, t = 0.2)
movej(p[0.529886079781537, -0.00960064600317729, 0.184590854243982, -1.20203321311832, 1.18443691684885, -1.24919234881322], a = 0.2, v = 0.2, t = 0.2)
movej(p[0.530199756597737, -0.00977415409415832, 0.184629268852438, -1.20668289864362, 1.18423270595609, -1.25768905484641], a = 0.2, v = 0.2, t = 0.2)
movej(p[0.530515014543123, -0.00980765643695297, 0.184561254681866, -1.20692293443598, 1.18781389401792, -1.25533085195974], a = 0.2, v = 0.2, t = 0.2)
movej(p[0.530730061555353, -0.00980585939841259, 0.184455928787218, -1.20797706252438, 1.18999911324975, -1.25614185071322], a = 0.2, v = 0.2, t = 0.2)
movej(p[0.530889433068826, -0.00998916859972798, 0.184441622903582, -1.19762788191421, 1.19488173814401, -1.23751652531339], a = 0.2, v = 0.2, t = 0.2)
movej(p[0.530927022334677, -0.0102532106770519, 0.184538128189941, -1.19941945335944, 1.19693390868878, -1.24184519392788], a = 0.2, v = 0.2, t = 0.2)
movej(p[0.53099078020397, -0.0103260635550091, 0.184545826344045, -1.19796553011331, 1.19959317756026, -1.24364704317998], a = 0.2, v = 0.2, t = 0.2)
movej(p[0.531085225314887, -0.0102322784849707, 0.184455515710332, -1.20004298517388, 1.20135402161373, -1.24599123752153], a = 0.2, v = 0.2, t = 0.2)
movej(p[0.531128361746841, -0.0102813695830644, 0.184395707844409, -1.19897581390874, 1.20141139109087, -1.2433048837601], a = 0.2, v = 0.2, t = 0.2)
movej(p[0.531112593763745, -0.0104625747457706, 0.184411264522001, -1.19285828993215, 1.20317728061482, -1.23580165633011], a = 0.2, v = 0.2, t = 0.2)
movej(p[0.531290645383271, -0.0106059997432047, 0.184397478656226, -1.18895019702563, 1.20148075468652, -1.24604937503183], a = 0.2, v = 0.2, t = 0.2)
movej(p[0.531844476152891, -0.0104844893832181, 0.184174698801467, -1.18069413921996, 1.20289014087303, -1.23863244059837], a = 0.2, v = 0.2, t = 0.2)
movej(p[0.532220092208318, -0.0104392602804223, 0.184010330047213, -1.17797536591704, 1.20054235952966, -1.23937013324709], a = 0.2, v = 0.2, t = 0.2)
movej(p[0.532254191148573, -0.0105299231725502, 0.183953524794248, -1.16895933947957, 1.20295415862332, -1.22295145755969], a = 0.2, v = 0.2, t = 0.2)
movej(p[0.531623643272266, -0.0106506769624125, 0.184086698442234, -1.17135608981068, 1.20134991754569, -1.23433519800463], a = 0.2, v = 0.2, t = 0.2)
movej(p[0.531032447660587, -0.0103792575163366, 0.184099925680177, -1.17634515048501, 1.19599367200034, -1.24802310166958], a = 0.2, v = 0.2, t = 0.2)
movej(p[0.53037665541597, -0.00994142395651025, 0.184103625192382, -1.18446837168715, 1.18612654507306, -1.26240658897114], a = 0.2, v = 0.2, t = 0.2)
movej(p[0.529946597287317, -0.00965898900989098, 0.184139956248907, -1.18641583582224, 1.17743940208659, -1.2659833033395], a = 0.2, v = 0.2, t = 0.2)
movej(p[0.529585781705776, -0.00963243626494127, 0.184313714541593, -1.19056679641242, 1.17285561345721, -1.26693839203108], a = 0.2, v = 0.2, t = 0.2)
movej(p[0.529425377836691, -0.00953796095281861, 0.184385005468721, -1.19206792971002, 1.16987076990515, -1.27185961736745], a = 0.2, v = 0.2, t = 0.2)
movej(p[0.529492024287351, -0.00928023587290403, 0.18442392586437, -1.19951904950019, 1.16683096900485, -1.27213800045917], a = 0.2, v = 0.2, t = 0.2)
movej(p[0.529856560089244, -0.00911504925767439, 0.184456889962833, -1.20074268609353, 1.16362984408747, -1.27151022877325], a = 0.2, v = 0.2, t = 0.2)
movej(p[0.53040368438561, -0.00909593680591296, 0.184556157700358, -1.20434843672498, 1.16224673317569, -1.26814947750434], a = 0.2, v = 0.2, t = 0.2)
movej(p[0.531002331135189, -0.00912383595058158, 0.184590372877473, -1.20780686441022, 1.16355297311991, -1.27766914133562], a = 0.2, v = 0.2, t = 0.2)
movej(p[0.53172991717873, -0.00906006101722421, 0.184464710268792, -1.2091416165575, 1.17073046043824, -1.27196467717164], a = 0.2, v = 0.2, t = 0.2)
movej(p[0.532251487654592, -0.009102738509929, 0.184331888324631, -1.20982061605318, 1.1771539448116, -1.267550641589], a = 0.2, v = 0.2, t = 0.2)
movej(p[0.532640768134806, -0.00935280904651156, 0.184352840817889, -1.20460458134816, 1.18336271887983, -1.25308285774784], a = 0.2, v = 0.2, t = 0.2)
movej(p[0.532770924763812, -0.00960222235971645, 0.184422301587988, -1.2063222399819, 1.18631325853899, -1.2593168073608], a = 0.2, v = 0.2, t = 0.2)
movej(p[0.532961123354869, -0.00970500224209373, 0.184418491202385, -1.20567487465763, 1.18931776486271, -1.25891192729115], a = 0.2, v = 0.2, t = 0.2)
movej(p[0.533109814275368, -0.00972090502571713, 0.184331684261444, -1.20601000467407, 1.19171816464789, -1.25606416683753], a = 0.2, v = 0.2, t = 0.2)
movej(p[0.533249837306493, -0.00988508298142448, 0.184298960091016, -1.20136688980943, 1.19324284859044, -1.24437888626032], a = 0.2, v = 0.2, t = 0.2)
movej(p[0.533025558188341, -0.0101516399560082, 0.184355591920722, -1.19338399829237, 1.19589825504805, -1.23608319616733], a = 0.2, v = 0.2, t = 0.2)
movej(p[0.53271754477556, -0.01022812055104, 0.184329341922261, -1.19076574399411, 1.19624493641782, -1.24735190905812], a = 0.2, v = 0.2, t = 0.2)
movej(p[0.532336962409154, -0.0100813450897684, 0.184143009808207, -1.18559539561289, 1.19821022826161, -1.24767148328652], a = 0.2, v = 0.2, t = 0.2)
movej(p[0.531985762345469, -0.00998626089927381, 0.184004029328501, -1.18390052044169, 1.19504479960228, -1.25350113775648], a = 0.2, v = 0.2, t = 0.2)
movej(p[0.531546410057332, -0.0100747298679541, 0.184010344614172, -1.1759392748952, 1.19465379328419, -1.24273155322643], a = 0.2, v = 0.2, t = 0.2)
movej(p[0.531163166694345, -0.0100446988743974, 0.184047856624098, -1.17727722701201, 1.19098376906622, -1.25636520892694], a = 0.2, v = 0.2, t = 0.2)
movej(p[0.531044381552207, -0.00974837880145707, 0.183953903677237, -1.17754673328855, 1.19075016510974, -1.25420506272766], a = 0.2, v = 0.2, t = 0.2)
movej(p[0.530917266640206, -0.00944026876853003, 0.183824031149901, -1.18006217816611, 1.1869393046123, -1.25636159839167], a = 0.2, v = 0.2, t = 0.2)
movej(p[0.530754288432232, -0.00938174043923857, 0.183840151925193, -1.17767322738699, 1.18438607368549, -1.24505437447364], a = 0.2, v = 0.2, t = 0.2)
movej(p[0.530367365683552, -0.00950215988959197, 0.184091877103771, -1.17847321086198, 1.18251643930192, -1.24418591180119], a = 0.2, v = 0.2, t = 0.2)
movej(p[0.530504847631352, -0.00945648244065148, 0.184296818503209, -1.18235075243847, 1.18180784561066, -1.24337735414871], a = 0.2, v = 0.2, t = 0.2)
movej(p[0.530841367421505, -0.00929041801809933, 0.184449214815151, -1.18961023737308, 1.18124850590049, -1.24764328038459], a = 0.2, v = 0.2, t = 0.2)
movej(p[0.531512577960914, -0.00920648571658986, 0.184487915050943, -1.19271417780757, 1.17992677137379, -1.24949603409563], a = 0.2, v = 0.2, t = 0.2)
movej(p[0.53193870151065, -0.0093511850443858, 0.184561114825498, -1.19362180102663, 1.18152342295462, -1.25392944899858], a = 0.2, v = 0.2, t = 0.2)
movej(p[0.532324551731155, -0.00943938958165621, 0.184525199343577, -1.19760792735144, 1.18354837832918, -1.26091953712235], a = 0.2, v = 0.2, t = 0.2)
movej(p[0.532637445014381, -0.00947188030728778, 0.184434166530482, -1.20463647473075, 1.18843863564992, -1.261068907655], a = 0.2, v = 0.2, t = 0.2)
movej(p[0.532836802816296, -0.00958297723900135, 0.184367969559408, -1.20978376247973, 1.18994705113177, -1.2619471268874], a = 0.2, v = 0.2, t = 0.2)
movej(p[0.53301047173684, -0.00989586039106507, 0.184430304291234, -1.20448614202224, 1.19400586032784, -1.25000070252952], a = 0.2, v = 0.2, t = 0.2)
movej(p[0.533068145175229, -0.0100924623764835, 0.1844594515314, -1.19664153107391, 1.19698209561475, -1.25077777369416], a = 0.2, v = 0.2, t = 0.2)
movej(p[0.533136667463123, -0.0100778861079992, 0.184351859207593, -1.19993771534678, 1.19635012771009, -1.2548035331204], a = 0.2, v = 0.2, t = 0.2)
movej(p[0.532887373359977, -0.010090640406766, 0.18419926216616, -1.19721093322436, 1.19445809206484, -1.25361475041446], a = 0.2, v = 0.2, t = 0.2)
