def moving():
set_payload_mass(0)
set_tcp(p[0,0,0,0,0,0])
movej(p[0.404, -0.093, 0.2789, -1.119, 1.017, -1.215], a = 0.2, v = 0.2, t = 0.2)
movej(p[0.404360051224833, -0.0933671564795896, 0.279364283571745, -1.11270770682943, 1.00995234653142, -1.20745804886047], a = 0.2, v = 0.2, t = 0.2)
movej(p[0.404, -0.093, 0.2789, -1.119, 1.017, -1.215], a = 0.2, v = 0.2, t = 0.2)
movej(p[0.404360051224833, -0.0933671564795896, 0.279364283571745, -1.11270770682943, 1.00995234653142, -1.20745804886047], a = 0.2, v = 0.2, t = 0.2)
movej(p[0.404, -0.093, 0.2789, -1.119, 1.017, -1.215], a = 0.2, v = 0.2, t = 0.2)
movej(p[0.404360051224833, -0.0933671564795896, 0.279364283571745, -1.11270770682943, 1.00995234653142, -1.20745804886047], a = 0.2, v = 0.2, t = 0.2)
movej(p[0.404, -0.093, 0.2789, -1.119, 1.017, -1.215], a = 0.2, v = 0.2, t = 0.2)
movej(p[0.404360051224833, -0.0933671564795896, 0.279364283571745, -1.11270770682943, 1.00995234653142, -1.20745804886047], a = 0.2, v = 0.2, t = 0.2)
movej(p[0.404, -0.093, 0.2789, -1.119, 1.017, -1.215], a = 0.2, v = 0.2, t = 0.2)
movej(p[0.404360051224833, -0.0933671564795896, 0.279364283571745, -1.11270770682943, 1.00995234653142, -1.20745804886047], a = 0.2, v = 0.2, t = 0.2)
movej(p[0.404, -0.093, 0.2789, -1.119, 1.017, -1.215], a = 0.2, v = 0.2, t = 0.2)
movej(p[0.403289079787536, -0.0928769416250187, 0.278993799082389, -1.11513666353204, 1.00873350932916, -1.22591739377931], a = 0.2, v = 0.2, t = 0.2)
movej(p[0.402578070724679, -0.0927539919458691, 0.279087581111223, -1.11130244922004, 1.00038637601816, -1.23676821043551], a = 0.2, v = 0.2, t = 0.2)
movej(p[0.401499168926856, -0.0925899097665752, 0.279279670072626, -1.10874088223011, 0.992633602311543, -1.24563997646459], a = 0.2, v = 0.2, t = 0.2)
movej(p[0.399601206312124, -0.0923343390483454, 0.279690449649848, -1.10922772206232, 0.985909584975792, -1.24984545528746], a = 0.2, v = 0.2, t = 0.2)
movej(p[0.39730344469189, -0.0919302392101502, 0.279851299105393, -1.10739875102662, 0.980488313679971, -1.25285952233765], a = 0.2, v = 0.2, t = 0.2)
movej(p[0.394750042581714, -0.0914311151675006, 0.279852359198119, -1.10592126163407, 0.973052795468798, -1.25251994886266], a = 0.2, v = 0.2, t = 0.2)
movej(p[0.392224522158573, -0.0910307590713861, 0.28011192051766, -1.10818734032151, 0.96664228148788, -1.25235780089196], a = 0.2, v = 0.2, t = 0.2)
movej(p[0.389797294858674, -0.0906579038044831, 0.280393520809864, -1.10952915907804, 0.959524408645921, -1.25228019544145], a = 0.2, v = 0.2, t = 0.2)
movej(p[0.387564330733816, -0.0902254152279493, 0.28040173228151, -1.10322311295918, 0.950145713178481, -1.25114391540879], a = 0.2, v = 0.2, t = 0.2)
movej(p[0.385632341292958, -0.0898072379955861, 0.280377332635119, -1.09688321783642, 0.934156931854756, -1.24919084636601], a = 0.2, v = 0.2, t = 0.2)
movej(p[0.385722354099166, -0.0898990271154835, 0.280493403528055, -1.09304172328381, 0.932726340232233, -1.2393810639821], a = 0.2, v = 0.2, t = 0.2)
movej(p[0.386027367213677, -0.0898917649132972, 0.280426560799237, -1.09656505593171, 0.934469435459623, -1.23638658725097], a = 0.2, v = 0.2, t = 0.2)
movej(p[0.387000656500611, -0.089976182320861, 0.280256431156791, -1.09544484841381, 0.94015133191261, -1.23410207215691], a = 0.2, v = 0.2, t = 0.2)
movej(p[0.388904282914979, -0.0902252592625588, 0.280051527858532, -1.0986685920266, 0.957109946508864, -1.23577981343098], a = 0.2, v = 0.2, t = 0.2)
movej(p[0.39094329518212, -0.0905879669019718, 0.279989239795804, -1.09802425698054, 0.971909994110625, -1.24510566290259], a = 0.2, v = 0.2, t = 0.2)
movej(p[0.3933660917083, -0.0911068852577531, 0.279997908865249, -1.10702481262089, 0.982659550208407, -1.25395580024274], a = 0.2, v = 0.2, t = 0.2)
movej(p[0.395569129324809, -0.0914112628717671, 0.279809315921771, -1.10221264316588, 0.987965866326308, -1.26332897117637], a = 0.2, v = 0.2, t = 0.2)
movej(p[0.397642495665041, -0.0918336328442547, 0.279870326130215, -1.10475420034657, 0.990411439128182, -1.27067861194199], a = 0.2, v = 0.2, t = 0.2)
movej(p[0.399427345421068, -0.0925023205396094, 0.280127689617319, -1.10302952077078, 0.998131934372468, -1.27230623633682], a = 0.2, v = 0.2, t = 0.2)
movej(p[0.400227168790889, -0.0926693800714059, 0.280144932584671, -1.1098663721527, 1.00355705287683, -1.27081661050104], a = 0.2, v = 0.2, t = 0.2)
movej(p[0.400595372550396, -0.0926781332259222, 0.280127128827444, -1.10704635116043, 1.00363876155721, -1.27060444967036], a = 0.2, v = 0.2, t = 0.2)
movej(p[0.40093019120413, -0.0928896634645278, 0.280284496954036, -1.10983652512025, 1.00406092287748, -1.27228848987289], a = 0.2, v = 0.2, t = 0.2)
movej(p[0.401051528601134, -0.0929790278348909, 0.280221909372219, -1.10824935026074, 1.00818457671959, -1.27672122273614], a = 0.2, v = 0.2, t = 0.2)
movej(p[0.400250646904623, -0.0929138780005239, 0.280288589783699, -1.10895488628508, 1.00858226373869, -1.27370185318214], a = 0.2, v = 0.2, t = 0.2)
movej(p[0.398383845120823, -0.0926110145626297, 0.280366349464695, -1.10661998232244, 1.00889995263828, -1.27592070833193], a = 0.2, v = 0.2, t = 0.2)
movej(p[0.396721713869413, -0.0923527248514107, 0.280427099264397, -1.10465647517163, 1.0086430807161, -1.27488636238439], a = 0.2, v = 0.2, t = 0.2)
movej(p[0.395298359492969, -0.092402106239786, 0.280652456774901, -1.10815946294559, 1.00444923820854, -1.27793340044504], a = 0.2, v = 0.2, t = 0.2)
movej(p[0.393594876395361, -0.0921496890657684, 0.280699276817864, -1.11064112837674, 0.999804636781748, -1.2784560163423], a = 0.2, v = 0.2, t = 0.2)
movej(p[0.391728651606315, -0.091571746021275, 0.28060866851761, -1.1088651017957, 0.987709991040515, -1.28352969324809], a = 0.2, v = 0.2, t = 0.2)
movej(p[0.389870667520887, -0.0911414994850824, 0.280621370343867, -1.10550327409375, 0.983092582249242, -1.28494024352656], a = 0.2, v = 0.2, t = 0.2)
movej(p[0.388446252399875, -0.0911299406992638, 0.280762892241472, -1.10314003580362, 0.975555056458594, -1.28421096800981], a = 0.2, v = 0.2, t = 0.2)
movej(p[0.386669468382432, -0.0907124031367013, 0.280761330444472, -1.10561849697161, 0.967685169713712, -1.28136420479005], a = 0.2, v = 0.2, t = 0.2)
movej(p[0.384824649125986, -0.0903140334197093, 0.280791341103027, -1.10083386624223, 0.953846002466757, -1.27734919083781], a = 0.2, v = 0.2, t = 0.2)
movej(p[0.383033514819383, -0.0897793470605673, 0.280779308935402, -1.09918506196343, 0.93948879351144, -1.27157835251], a = 0.2, v = 0.2, t = 0.2)
movej(p[0.382026233796723, -0.0895858718174323, 0.280807887278303, -1.09339793526298, 0.931139717540951, -1.27212951410091], a = 0.2, v = 0.2, t = 0.2)
movej(p[0.381256601437388, -0.0895453976174493, 0.280855546596392, -1.09134159710278, 0.9213577884996, -1.26864733811915], a = 0.2, v = 0.2, t = 0.2)
movej(p[0.380350819804762, -0.0892841553337211, 0.280855728777018, -1.08799880563086, 0.920748598708497, -1.26370030235783], a = 0.2, v = 0.2, t = 0.2)
movej(p[0.380427719199967, -0.0892342504630122, 0.280971423534448, -1.09282651448479, 0.923267010884917, -1.26063240475759], a = 0.2, v = 0.2, t = 0.2)
movej(p[0.380528798482919, -0.0893257401340675, 0.280814483359068, -1.09705442214836, 0.928728366516801, -1.25931666502902], a = 0.2, v = 0.2, t = 0.2)
movej(p[0.381317346975419, -0.0891586097310444, 0.280758235751468, -1.09929902263747, 0.935007776095079, -1.25413754544196], a = 0.2, v = 0.2, t = 0.2)
movej(p[0.38253723314402, -0.0891092569258302, 0.280692454171418, -1.10388263239583, 0.946644692132309, -1.24181651227828], a = 0.2, v = 0.2, t = 0.2)
movej(p[0.384156231723268, -0.0890095948088325, 0.28063255364698, -1.10546577156411, 0.951372436018548, -1.23491940334872], a = 0.2, v = 0.2, t = 0.2)
movej(p[0.386051967536658, -0.0892959388225027, 0.280586084069131, -1.10605751080956, 0.956233966753267, -1.23319009227934], a = 0.2, v = 0.2, t = 0.2)
movej(p[0.387389048222325, -0.0895552253745153, 0.280548744224968, -1.11250978020928, 0.964674504989362, -1.22468462997319], a = 0.2, v = 0.2, t = 0.2)
movej(p[0.388904049598234, -0.0895889010984518, 0.280531852907367, -1.11391105671304, 0.968029465773858, -1.21945313522062], a = 0.2, v = 0.2, t = 0.2)
movej(p[0.390593275403388, -0.0897273753292606, 0.280512103056586, -1.1145216289716, 0.967352892468213, -1.21749454597141], a = 0.2, v = 0.2, t = 0.2)
movej(p[0.393076901304635, -0.090365249578262, 0.28042432865763, -1.11125153426879, 0.979965111545441, -1.22240719951738], a = 0.2, v = 0.2, t = 0.2)
movej(p[0.395560522705351, -0.0913323118696277, 0.280266291375556, -1.10989620142589, 0.984684838190024, -1.23164994512715], a = 0.2, v = 0.2, t = 0.2)
movej(p[0.396676158166265, -0.0916466935689384, 0.280208668849662, -1.11184957916018, 0.985991966042022, -1.23205594758966], a = 0.2, v = 0.2, t = 0.2)
movej(p[0.398256083451315, -0.0919568852014544, 0.280145899233004, -1.11149488198577, 0.984314795003453, -1.23500693002631], a = 0.2, v = 0.2, t = 0.2)
movej(p[0.399587294175886, -0.0926064685286229, 0.279997449484424, -1.10944625536104, 0.9834136063434, -1.24218993411741], a = 0.2, v = 0.2, t = 0.2)
movej(p[0.399669298862514, -0.0926117277273419, 0.280113290678305, -1.1099228861932, 0.981560029768628, -1.24529867900994], a = 0.2, v = 0.2, t = 0.2)
movej(p[0.399012651837162, -0.0927733343311488, 0.27995961660859, -1.10996916614726, 0.981378823921124, -1.24563590154925], a = 0.2, v = 0.2, t = 0.2)
movej(p[0.3983942758778, -0.0925673053307104, 0.279973599235728, -1.11090346613823, 0.979822727919587, -1.24473379632484], a = 0.2, v = 0.2, t = 0.2)
movej(p[0.396989224978467, -0.0923085663898747, 0.280017899695962, -1.11027512948437, 0.980888245059528, -1.24613128272493], a = 0.2, v = 0.2, t = 0.2)
movej(p[0.394983583332903, -0.0918397990688556, 0.280130427240704, -1.11118180528046, 0.980106571571814, -1.24693416401604], a = 0.2, v = 0.2, t = 0.2)
movej(p[0.392779150668771, -0.0913038723636122, 0.280315826096997, -1.11042924317368, 0.978064048513205, -1.24722564431168], a = 0.2, v = 0.2, t = 0.2)
movej(p[0.390763973074267, -0.0908260058380651, 0.280481024602949, -1.10729319423612, 0.970960401977156, -1.24452208134402], a = 0.2, v = 0.2, t = 0.2)
movej(p[0.388911144286568, -0.0905189886675085, 0.280539257587222, -1.10225380646206, 0.959939856679022, -1.2467096902229], a = 0.2, v = 0.2, t = 0.2)
movej(p[0.387597442262555, -0.0901388192826541, 0.280695243454931, -1.10122718686626, 0.955578783416016, -1.23815071105759], a = 0.2, v = 0.2, t = 0.2)
movej(p[0.387687455068763, -0.0902306084025515, 0.280811314347867, -1.10709824065647, 0.961204815837145, -1.22926989995523], a = 0.2, v = 0.2, t = 0.2)
movej(p[0.389030549846973, -0.0900827363533465, 0.280762786378505, -1.11569737071268, 0.967952965614985, -1.22342987727915], a = 0.2, v = 0.2, t = 0.2)
movej(p[0.391737940280152, -0.0908731795851675, 0.280508597768226, -1.10805752931778, 0.975095383794945, -1.2161485068584], a = 0.2, v = 0.2, t = 0.2)
movej(p[0.393970634774652, -0.0912092018290236, 0.280530788664237, -1.10210248161639, 0.980028201756187, -1.22030718617257], a = 0.2, v = 0.2, t = 0.2)
movej(p[0.396416715934646, -0.0920621480469652, 0.280141803872731, -1.10608222213082, 0.977670482224853, -1.23445458522189], a = 0.2, v = 0.2, t = 0.2)
movej(p[0.398293672590618, -0.0925141635251238, 0.279968459478228, -1.10447446891401, 0.975942224132888, -1.23253829059972], a = 0.2, v = 0.2, t = 0.2)
movej(p[0.399755102553721, -0.0930202070219012, 0.279717262140834, -1.10608222213082, 0.977670482224853, -1.23445458522189], a = 0.2, v = 0.2, t = 0.2)
movej(p[0.400187416664977, -0.0930130175192801, 0.279724724061549, -1.10468891343461, 0.975317994855233, -1.23658668211235], a = 0.2, v = 0.2, t = 0.2)
movej(p[0.400277429471185, -0.0931048066391775, 0.279840794954486, -1.10120453966714, 0.969041917358183, -1.24421267469871], a = 0.2, v = 0.2, t = 0.2)
movej(p[0.392133729394822, -0.0928067888883052, 0.279090667907644, -1.10052414051972, 0.968939717906236, -1.24710399548606], a = 0.2, v = 0.2, t = 0.2)
movej(p[0.388524317954664, -0.0926856560904557, 0.278801637008015, -1.09791063377993, 0.968759501852911, -1.24660069965884], a = 0.2, v = 0.2, t = 0.2)
movej(p[0.388614330760872, -0.0927774452103531, 0.278917707900951, -1.10177941369931, 0.968796815629212, -1.24545863547798], a = 0.2, v = 0.2, t = 0.2)
movej(p[0.389397773886919, -0.0926874995313337, 0.278866929627301, -1.10152412664245, 0.970977854193894, -1.24509694994255], a = 0.2, v = 0.2, t = 0.2)
movej(p[0.390271229819175, -0.0926893429722117, 0.278932222246588, -1.1021110264571, 0.971851582334859, -1.24353588053248], a = 0.2, v = 0.2, t = 0.2)
movej(p[0.391144561202141, -0.0926910972973431, 0.278997595772351, -1.10269959166864, 0.972722690564042, -1.24197266266367], a = 0.2, v = 0.2, t = 0.2)
movej(p[0.392018017134396, -0.0926929407382211, 0.279062888391638, -1.10328923171914, 0.97359296697634, -1.24041104858203], a = 0.2, v = 0.2, t = 0.2)
movej(p[0.392891473066652, -0.0926947841790991, 0.279128181010924, -1.1038794383573, 0.97446145059482, -1.23884592923033], a = 0.2, v = 0.2, t = 0.2)
movej(p[0.393764830933187, -0.0926966367416763, 0.279193456312329, -1.10447071502034, 0.975329103056406, -1.23728241683388], a = 0.2, v = 0.2, t = 0.2)
movej(p[0.394638286865442, -0.0926984801825544, 0.279258748931615, -1.10506255932171, 0.976194959090412, -1.2357154008232], a = 0.2, v = 0.2, t = 0.2)
movej(p[0.395511742797698, -0.0927003236234324, 0.279324041550902, -1.10565546883812, 0.97705998463351, -1.23414999492758], a = 0.2, v = 0.2, t = 0.2)
movej(p[0.396385100664233, -0.0927021761860096, 0.279389316852306, -1.10624809668275, 0.977924519626338, -1.23258227827665], a = 0.2, v = 0.2, t = 0.2)
movej(p[0.397258556596488, -0.0927040196268877, 0.279454609471593, -1.10684239016707, 0.978786428354466, -1.23101242555569], a = 0.2, v = 0.2, t = 0.2)
movej(p[0.397348569402696, -0.092795808746785, 0.279570680364529, -1.10535209518739, 0.977423492159693, -1.23076186143438], a = 0.2, v = 0.2, t = 0.2)
movej(p[0.396651510157482, -0.0925105644584267, 0.279482084345315, -1.1082895855152, 0.978337603942787, -1.22825395498124], a = 0.2, v = 0.2, t = 0.2)
movej(p[0.394485609385096, -0.0920157151373245, 0.279685154982238, -1.10551924303565, 0.981864902707503, -1.22962653365421], a = 0.2, v = 0.2, t = 0.2)
movej(p[0.392140255892172, -0.0915217852568444, 0.27985857691395, -1.10574873652165, 0.989158314126159, -1.22780853559586], a = 0.2, v = 0.2, t = 0.2)
movej(p[0.390582546329551, -0.0911922564148725, 0.279962056529471, -1.10316052646363, 0.988927492588871, -1.22726963459663], a = 0.2, v = 0.2, t = 0.2)
movej(p[0.389895591055273, -0.0909854786917479, 0.280076423851557, -1.10447876648848, 0.984753871490147, -1.2323533284011], a = 0.2, v = 0.2, t = 0.2)
movej(p[0.387948427004393, -0.0907517072479558, 0.280005840914332, -1.10364247274667, 0.974855534556709, -1.24203446465335], a = 0.2, v = 0.2, t = 0.2)
movej(p[0.385334505893423, -0.0906119908607683, 0.279666400246797, -1.10397546496884, 0.97172877521152, -1.24548555956992], a = 0.2, v = 0.2, t = 0.2)
movej(p[0.384385051987813, -0.09007272196997, 0.280108130520311, -1.10462617142725, 0.970987144273537, -1.24646812235168], a = 0.2, v = 0.2, t = 0.2)
movej(p[0.383797198981425, -0.0900273326100859, 0.280020602531135, -1.10430577350453, 0.971480678693238, -1.24589855696421], a = 0.2, v = 0.2, t = 0.2)
movej(p[0.3838707263093, -0.0899336625644131, 0.280132340190852, -1.10314037220069, 0.972191224659832, -1.24454733510644], a = 0.2, v = 0.2, t = 0.2)
movej(p[0.383911019795152, -0.0900300763858389, 0.280239630917553, -1.1027180617925, 0.969907025395827, -1.24526052430706], a = 0.2, v = 0.2, t = 0.2)
movej(p[0.38458615035804, -0.0900622074040547, 0.280084642238214, -1.10383210499794, 0.9685511097893, -1.23497375682139], a = 0.2, v = 0.2, t = 0.2)
movej(p[0.385565378977022, -0.0902749686372268, 0.279973311292718, -1.10318170911658, 0.96440600655471, -1.21749365251852], a = 0.2, v = 0.2, t = 0.2)
movej(p[0.386352167088591, -0.0903963261938163, 0.280031635052474, -1.10422411072244, 0.963290572125686, -1.2161951773724], a = 0.2, v = 0.2, t = 0.2)
movej(p[0.387234281944907, -0.0903715280319683, 0.280108351683241, -1.1039407006381, 0.968380359039418, -1.21843244376701], a = 0.2, v = 0.2, t = 0.2)
movej(p[0.388833239003054, -0.0906409829745576, 0.280200453638236, -1.10080197683138, 0.971024966934462, -1.22554736229952], a = 0.2, v = 0.2, t = 0.2)
movej(p[0.390113617314453, -0.0910057625590072, 0.279891304281989, -1.10192455961965, 0.971786627796027, -1.22234879437589], a = 0.2, v = 0.2, t = 0.2)
movej(p[0.391625100200732, -0.0913683715078297, 0.279644331318451, -1.10124131703312, 0.972838252192102, -1.22336675528597], a = 0.2, v = 0.2, t = 0.2)
movej(p[0.393155148482695, -0.0915956407504543, 0.279644203954447, -1.09910436997888, 0.969637541622091, -1.22274618385753], a = 0.2, v = 0.2, t = 0.2)
movej(p[0.394619289339285, -0.0918910002559264, 0.279482645653549, -1.09402233019324, 0.971878324253028, -1.22101515473197], a = 0.2, v = 0.2, t = 0.2)
movej(p[0.394709302145494, -0.0919827893758238, 0.279598716546485, -1.09600469273495, 0.978121726948369, -1.21922409502854], a = 0.2, v = 0.2, t = 0.2)
movej(p[0.394733744540195, -0.091905887717618, 0.279455602346259, -1.09762784339274, 0.977707972189972, -1.22108888462064], a = 0.2, v = 0.2, t = 0.2)
movej(p[0.395385638935934, -0.0922358066011671, 0.27896829836815, -1.10185800544812, 0.975766163541709, -1.22507193584477], a = 0.2, v = 0.2, t = 0.2)
movej(p[0.395402527036076, -0.0922482142844211, 0.278964085118826, -1.10025011070048, 0.974055209324931, -1.22315385863049], a = 0.2, v = 0.2, t = 0.2)
movej(p[0.395519098398318, -0.0923379475802922, 0.278928680414094, -1.101349110927, 0.975275551920459, -1.22452479285223], a = 0.2, v = 0.2, t = 0.2)
movej(p[0.395580128595331, -0.0923141765954047, 0.27879461078543, -1.10050453148326, 0.974526940160239, -1.223603867776], a = 0.2, v = 0.2, t = 0.2)
movej(p[0.395616178634913, -0.0924114255533457, 0.278735238781712, -1.10017345124486, 0.974232723287991, -1.223519162598], a = 0.2, v = 0.2, t = 0.2)
movej(p[0.395620158720029, -0.0923168740621646, 0.278690615531742, -1.10096194435863, 0.972881026337549, -1.22234672813818], a = 0.2, v = 0.2, t = 0.2)
movej(p[0.396139095868248, -0.0923629783449223, 0.278717212548679, -1.09767492699088, 0.97455270078335, -1.22558219701438], a = 0.2, v = 0.2, t = 0.2)
movej(p[0.396774655616509, -0.092433395499194, 0.278760272051396, -1.09669003801462, 0.97852191066242, -1.22533175785112], a = 0.2, v = 0.2, t = 0.2)
movej(p[0.39771923790795, -0.092546428426349, 0.27902588820692, -1.09797619069458, 0.978127657333892, -1.22713970650517], a = 0.2, v = 0.2, t = 0.2)
movej(p[0.397836603609319, -0.0926361002346354, 0.278985953022673, -1.09810553101678, 0.980741757732015, -1.22545189695597], a = 0.2, v = 0.2, t = 0.2)
movej(p[0.397419529352355, -0.0921255026179812, 0.279840166577965, -1.09623049591096, 0.981132715502993, -1.22971114973267], a = 0.2, v = 0.2, t = 0.2)
movej(p[0.395533248964905, -0.0919089974452987, 0.279541316548479, -1.0957134650306, 0.981238992615793, -1.23081177698162], a = 0.2, v = 0.2, t = 0.2)
movej(p[0.392858795805211, -0.0914375452469861, 0.279580682286242, -1.09350970395991, 0.97084324747706, -1.23753208581741], a = 0.2, v = 0.2, t = 0.2)
movej(p[0.390307371556726, -0.0909293021397971, 0.27984579650358, -1.09366838653369, 0.969110433184516, -1.24228051697299], a = 0.2, v = 0.2, t = 0.2)
movej(p[0.388375206219963, -0.0906820901733477, 0.279624302496763, -1.09577903378417, 0.970080409831438, -1.24348053356168], a = 0.2, v = 0.2, t = 0.2)
movej(p[0.385947720863321, -0.0901964620973715, 0.279836415474006, -1.0963982514169, 0.966666598046794, -1.24431508871519], a = 0.2, v = 0.2, t = 0.2)
movej(p[0.383765064567833, -0.0898012234776787, 0.279947775203124, -1.09097579035447, 0.964340515474117, -1.24528490693197], a = 0.2, v = 0.2, t = 0.2)
movej(p[0.382136782780886, -0.089447575536609, 0.28021009115017, -1.09639795813357, 0.938573806594966, -1.23525113773564], a = 0.2, v = 0.2, t = 0.2)
movej(p[0.380756832984768, -0.0891327754106771, 0.280522730944351, -1.09710089730416, 0.934374547895927, -1.2338946387326], a = 0.2, v = 0.2, t = 0.2)
movej(p[0.379717023615232, -0.0889238014009164, 0.280487129423723, -1.10006445392768, 0.934977329786884, -1.23455354305759], a = 0.2, v = 0.2, t = 0.2)
movej(p[0.37914466091834, -0.0888938080208411, 0.280529026563936, -1.10304120405857, 0.935526093043487, -1.2324841667999], a = 0.2, v = 0.2, t = 0.2)
movej(p[0.378230527655517, -0.088646216119271, 0.280898972395209, -1.1014179039083, 0.950536844754273, -1.23739797645432], a = 0.2, v = 0.2, t = 0.2)
movej(p[0.378320540461725, -0.0887380052391684, 0.281015043288145, -1.09802305530201, 0.950223861995626, -1.23326694693203], a = 0.2, v = 0.2, t = 0.2)
movej(p[0.378728528407438, -0.0887257198058707, 0.280915048616878, -1.10041453208194, 0.946290360280948, -1.21875772412087], a = 0.2, v = 0.2, t = 0.2)
movej(p[0.379169615695271, -0.0888317959672206, 0.280698627932781, -1.10209722589191, 0.945729697853674, -1.20609308392567], a = 0.2, v = 0.2, t = 0.2)
movej(p[0.379591216553115, -0.0889469164889073, 0.280402720088762, -1.10800249964529, 0.950852502442463, -1.19233668351318], a = 0.2, v = 0.2, t = 0.2)
movej(p[0.380012843894528, -0.08906213524804, 0.280106714020384, -1.11397578143592, 0.955888145428702, -1.17853334990157], a = 0.2, v = 0.2, t = 0.2)
movej(p[0.380561219228734, -0.0891748398702558, 0.279932976572014, -1.11799042650287, 0.960003417699251, -1.16696097171831], a = 0.2, v = 0.2, t = 0.2)
movej(p[0.381776852748532, -0.0893572751815459, 0.280090740835194, -1.11737157501564, 0.959818677292599, -1.15737202731764], a = 0.2, v = 0.2, t = 0.2)
movej(p[0.383969992060696, -0.0897299202715496, 0.280218202689643, -1.11451869008258, 0.958625552917587, -1.1517056535296], a = 0.2, v = 0.2, t = 0.2)
movej(p[0.38565456222902, -0.0900272601719253, 0.280024394790846, -1.1138750510126, 0.960170470731636, -1.14891122437589], a = 0.2, v = 0.2, t = 0.2)
movej(p[0.387153174637254, -0.0902989401031594, 0.279863617445267, -1.11072453648356, 0.961777931600171, -1.14392608217702], a = 0.2, v = 0.2, t = 0.2)
movej(p[0.389309483851522, -0.0906531695189105, 0.279775913719683, -1.10912585109358, 0.960168208433394, -1.14198679882137], a = 0.2, v = 0.2, t = 0.2)
movej(p[0.391260992527625, -0.0909637339001386, 0.279518767395182, -1.11496095734743, 0.96496365021323, -1.14506919093117], a = 0.2, v = 0.2, t = 0.2)
movej(p[0.39265607585066, -0.0911553763395937, 0.279145064268102, -1.11292093257684, 0.971405353811398, -1.15191931687755], a = 0.2, v = 0.2, t = 0.2)
movej(p[0.394152513011529, -0.0914066534746333, 0.278990477577282, -1.1091023474624, 0.978590820641596, -1.16072862752102], a = 0.2, v = 0.2, t = 0.2)
movej(p[0.395580429867376, -0.0916774836307313, 0.278966267675681, -1.11173599713811, 0.984058179834552, -1.17240456432081], a = 0.2, v = 0.2, t = 0.2)
movej(p[0.39683913566831, -0.0918959242838644, 0.27885116460121, -1.11337028144911, 0.986708717360651, -1.1734452717325], a = 0.2, v = 0.2, t = 0.2)
movej(p[0.397402630487867, -0.0919719829132693, 0.278713980297351, -1.11254680404362, 0.985361116357482, -1.17578479334126], a = 0.2, v = 0.2, t = 0.2)
movej(p[0.397623614745154, -0.0920563803475522, 0.278675226573426, -1.09420707131205, 0.959193416960304, -1.21519115956352], a = 0.2, v = 0.2, t = 0.2)
movej(p[0.397713627551362, -0.0921481694674496, 0.278791297466362, -1.09272591669529, 0.958141979086627, -1.2160015878063], a = 0.2, v = 0.2, t = 0.2)
movej(p[0.397205833522623, -0.0920245425185154, 0.278789536252555, -1.09399188505961, 0.959540586886471, -1.21554987595741], a = 0.2, v = 0.2, t = 0.2)
movej(p[0.396788052300092, -0.0919927046894786, 0.278903845931685, -1.09250985958642, 0.958489647813397, -1.21635921347429], a = 0.2, v = 0.2, t = 0.2)
movej(p[0.396370271077561, -0.0919608668604417, 0.279018155610815, -1.09377555292108, 0.959888598015857, -1.21590720908932], a = 0.2, v = 0.2, t = 0.2)
movej(p[0.395952516338599, -0.0919291272688508, 0.279132367065585, -1.09366847298459, 0.960062570166844, -1.21608494771439], a = 0.2, v = 0.2, t = 0.2)
movej(p[0.395534735116068, -0.091897289439814, 0.279246676744715, -1.09356162369345, 0.960236993944472, -1.21626524258294], a = 0.2, v = 0.2, t = 0.2)
movej(p[0.395116953893537, -0.0918654516107771, 0.279360986423845, -1.09345451450294, 0.960410966832174, -1.21644296820694], a = 0.2, v = 0.2, t = 0.2)
movej(p[0.394699172671006, -0.0918336137817403, 0.279475296102975, -1.09334654739379, 0.960586231125694, -1.21662189229946], a = 0.2, v = 0.2, t = 0.2)
movej(p[0.394281408716717, -0.0918017746160168, 0.279589507293419, -1.09323940877632, 0.960760204591207, -1.21679960493307], a = 0.2, v = 0.2, t = 0.2)
movej(p[0.393863636709514, -0.0917700363611126, 0.279703817236875, -1.09175729904379, 0.959709359325639, -1.21761108349901], a = 0.2, v = 0.2, t = 0.2)
movej(p[0.393445855486983, -0.0917381985320757, 0.279818126916004, -1.09302396060187, 0.961107379494373, -1.21715820571524], a = 0.2, v = 0.2, t = 0.2)
movej(p[0.393028074264452, -0.0917063607030389, 0.279932436595134, -1.09291593446622, 0.961282644897374, -1.21733710376471], a = 0.2, v = 0.2, t = 0.2)
movej(p[0.392610310310163, -0.0916745215373154, 0.280046647785579, -1.09280873727546, 0.961456619504986, -1.21751479052945], a = 0.2, v = 0.2, t = 0.2)
movej(p[0.392192538302959, -0.0916427832824111, 0.280160957729034, -1.09270068147405, 0.961631885467729, -1.21769367548798], a = 0.2, v = 0.2, t = 0.2)
movej(p[0.391774757080428, -0.0916109454533743, 0.280275267408164, -1.0925934548452, 0.961805860651402, -1.21787134924942], a = 0.2, v = 0.2, t = 0.2)
movej(p[0.391356975857897, -0.0915791076243375, 0.280389577087294, -1.09248645940589, 0.961980288965871, -1.21805157864335], a = 0.2, v = 0.2, t = 0.2)
movej(p[0.390939194635366, -0.0915472697953006, 0.280503886766423, -1.09237920350436, 0.962154264883569, -1.2182292393821], a = 0.2, v = 0.2, t = 0.2)
movej(p[0.390521430681077, -0.0915154306295772, 0.280618097956868, -1.09089796154603, 0.961102051784979, -1.21904178647743], a = 0.2, v = 0.2, t = 0.2)
movej(p[0.390103658673874, -0.0914836923746729, 0.280732407900324, -1.09216243162753, 0.962502282256575, -1.21858637950433], a = 0.2, v = 0.2, t = 0.2)
movej(p[0.389685877451343, -0.091451854545636, 0.280846717579453, -1.09205428710031, 0.962677549883415, -1.21876522528987], a = 0.2, v = 0.2, t = 0.2)
movej(p[0.389268096228812, -0.0914200167165992, 0.280961027258583, -1.09194697242676, 0.962851526780196, -1.21894286014039], a = 0.2, v = 0.2, t = 0.2)
movej(p[0.388850332274523, -0.0913881775508757, 0.281075238449028, -1.09183988926879, 0.963025957710263, -1.21912305025606], a = 0.2, v = 0.2, t = 0.2)
movej(p[0.388432551051992, -0.0913563397218389, 0.281189548128157, -1.09173254531137, 0.963199935339449, -1.21930067207091], a = 0.2, v = 0.2, t = 0.2)
movej(p[0.3885225638582, -0.0914481288417363, 0.281305619021093, -1.09052410958225, 0.964218405617072, -1.21811112511438], a = 0.2, v = 0.2, t = 0.2)
movej(p[0.388818592473392, -0.0915210639374651, 0.281190422055862, -1.09467756237095, 0.969956437051279, -1.21752619630928], a = 0.2, v = 0.2, t = 0.2)
movej(p[0.390865558117566, -0.0919326142756097, 0.280799893784485, -1.09292389369228, 0.974914008809602, -1.2183078251161], a = 0.2, v = 0.2, t = 0.2)
movej(p[0.392356995134905, -0.0922378127516078, 0.280595774300951, -1.0946347147947, 0.975610845027479, -1.22514552921568], a = 0.2, v = 0.2, t = 0.2)
movej(p[0.394304317026341, -0.0926072852514103, 0.28050076802209, -1.09595259372378, 0.973485787411757, -1.23298833940872], a = 0.2, v = 0.2, t = 0.2)
movej(p[0.395972622497431, -0.0929312859689428, 0.280402133493794, -1.09986905261116, 0.973341720875283, -1.23498796473481], a = 0.2, v = 0.2, t = 0.2)
movej(p[0.39687554288521, -0.0930765848092487, 0.280520498650572, -1.10083419155032, 0.97200265019756, -1.23388294547765], a = 0.2, v = 0.2, t = 0.2)
movej(p[0.397544557898478, -0.0932451061255164, 0.28023465315387, -1.09983819813455, 0.973655687668791, -1.23547167356063], a = 0.2, v = 0.2, t = 0.2)
movej(p[0.397930590064429, -0.09330685504338, 0.280287588756203, -1.09961502625775, 0.974067177275148, -1.23585639746191], a = 0.2, v = 0.2, t = 0.2)
movej(p[0.398348754841969, -0.0933905991049306, 0.280241177647837, -1.09951863070272, 0.97424487936482, -1.23602163988678], a = 0.2, v = 0.2, t = 0.2)
movej(p[0.398666087893944, -0.0934635096873377, 0.280149109460621, -1.09790668792344, 0.972525831689587, -1.23410365612044], a = 0.2, v = 0.2, t = 0.2)
movej(p[0.398756100700152, -0.0935552988072351, 0.280265180353557, -1.09951863070272, 0.97424487936482, -1.23602163988678], a = 0.2, v = 0.2, t = 0.2)
movej(p[0.398666087893944, -0.0934635096873377, 0.280149109460621, -1.09790668792344, 0.972525831689587, -1.23410365612044], a = 0.2, v = 0.2, t = 0.2)
movej(p[0.397898798949371, -0.0933055515363943, 0.280260202521103, -1.0998590500895, 0.984116076858495, -1.24134814175515], a = 0.2, v = 0.2, t = 0.2)
movej(p[0.396647631027069, -0.0930541506970781, 0.280422663557022, -1.10023291893006, 0.995793876070199, -1.24759973914907], a = 0.2, v = 0.2, t = 0.2)
movej(p[0.395235113394313, -0.0927888502178119, 0.280550829827366, -1.0998539423958, 0.993143666524492, -1.24720420771785], a = 0.2, v = 0.2, t = 0.2)
movej(p[0.393622727413361, -0.092534187138242, 0.280499832431981, -1.09986126313514, 0.993629751191994, -1.24965621404641], a = 0.2, v = 0.2, t = 0.2)
movej(p[0.391992988869595, -0.092215515895428, 0.28061327941504, -1.09656782796998, 0.988890664367439, -1.25776083903463], a = 0.2, v = 0.2, t = 0.2)
movej(p[0.390883187880378, -0.0920339676688475, 0.28070667452069, -1.09871721466882, 0.985316965313582, -1.25949032811828], a = 0.2, v = 0.2, t = 0.2)
movej(p[0.389569997581353, -0.0917902848561172, 0.280540150212177, -1.09848744559663, 0.980709742141048, -1.25538085028939], a = 0.2, v = 0.2, t = 0.2)
movej(p[0.388976501401154, -0.0916339444029743, 0.280527766480892, -1.09572746923251, 0.975057101881701, -1.23615597025021], a = 0.2, v = 0.2, t = 0.2)
movej(p[0.389073766868958, -0.0917251721144901, 0.28060247212609, -1.0956244344475, 0.976736740149093, -1.23145370846217], a = 0.2, v = 0.2, t = 0.2)
movej(p[0.389596015489634, -0.0917432122510725, 0.28079532881297, -1.0959138935561, 0.975409490951357, -1.23015866586263], a = 0.2, v = 0.2, t = 0.2)
movej(p[0.389617874659776, -0.0917555420701594, 0.280684970839801, -1.09653030634456, 0.97328410965994, -1.22625716887776], a = 0.2, v = 0.2, t = 0.2)
movej(p[0.389629794116368, -0.0917575147699876, 0.280661244166837, -1.09830781780712, 0.971005269837441, -1.22649917277287], a = 0.2, v = 0.2, t = 0.2)
movej(p[0.389743989957218, -0.0917548666177719, 0.280590632006254, -1.09461942283648, 0.973354376968096, -1.23051994824916], a = 0.2, v = 0.2, t = 0.2)
movej(p[0.389611785840495, -0.0918673255082083, 0.280667460578303, -1.09610397277923, 0.976600783946329, -1.23203714917017], a = 0.2, v = 0.2, t = 0.2)
movej(p[0.388676686312128, -0.0915585786000341, 0.280707010025098, -1.09894005084085, 0.977745051454632, -1.23421776474966], a = 0.2, v = 0.2, t = 0.2)
movej(p[0.387203767776217, -0.09127033141081, 0.280803067583226, -1.09884243248795, 0.974887628658079, -1.23417654975914], a = 0.2, v = 0.2, t = 0.2)
movej(p[0.385350453509025, -0.0908861128420546, 0.280792204414018, -1.09902485133874, 0.971533683958375, -1.2366923089067], a = 0.2, v = 0.2, t = 0.2)
movej(p[0.384336076597546, -0.0906610321768045, 0.280943636595503, -1.09022014255551, 0.955395245601577, -1.24564480863482], a = 0.2, v = 0.2, t = 0.2)
movej(p[0.383759802068932, -0.0905405357867282, 0.281355560238487, -1.08859015276512, 0.95369888271843, -1.24371225668215], a = 0.2, v = 0.2, t = 0.2)
movej(p[0.383849814875141, -0.0906323249066256, 0.281471631131423, -1.09139298690942, 0.955992038291875, -1.2375226997018], a = 0.2, v = 0.2, t = 0.2)
movej(p[0.383909387416749, -0.090560141345196, 0.281239474512423, -1.0945715235484, 0.958727072278194, -1.20926968430043], a = 0.2, v = 0.2, t = 0.2)
movej(p[0.385198679258772, -0.0908107187951124, 0.281155189296135, -1.09875795340462, 0.962198172883225, -1.20465641175434], a = 0.2, v = 0.2, t = 0.2)
movej(p[0.386950000034635, -0.0911915017614417, 0.281097956765314, -1.09868539630828, 0.968609495634054, -1.20710548690255], a = 0.2, v = 0.2, t = 0.2)
movej(p[0.388864916447571, -0.0915876700635903, 0.28081536274938, -1.09732923323814, 0.972690114942342, -1.20722804262847], a = 0.2, v = 0.2, t = 0.2)
movej(p[0.391266081476593, -0.0920918698121414, 0.280577872945469, -1.09631985478149, 0.976102586854418, -1.21498929668187], a = 0.2, v = 0.2, t = 0.2)
movej(p[0.393687450430057, -0.0925792958751132, 0.280582657747963, -1.09703441590724, 0.978318344411408, -1.22495935530433], a = 0.2, v = 0.2, t = 0.2)
movej(p[0.395615660439395, -0.0930070304298617, 0.280694701581191, -1.10315217814713, 0.977436033190944, -1.22578981739752], a = 0.2, v = 0.2, t = 0.2)
movej(p[0.397057775343714, -0.0933258128400067, 0.280611308009956, -1.10121541361766, 0.977187293290036, -1.22761532424906], a = 0.2, v = 0.2, t = 0.2)
movej(p[0.398218194461762, -0.0935810807685031, 0.280415622432692, -1.10376544236198, 0.976331959718331, -1.226752236958], a = 0.2, v = 0.2, t = 0.2)
movej(p[0.398887842367417, -0.0937220546403032, 0.28042176734294, -1.1014644409233, 0.976659804774665, -1.22914714452644], a = 0.2, v = 0.2, t = 0.2)
movej(p[0.398977855173625, -0.0938138437602006, 0.280537838235876, -1.10160599434439, 0.987524727308439, -1.23627184464816], a = 0.2, v = 0.2, t = 0.2)
movej(p[0.398390392938728, -0.0936165225804652, 0.280733589824881, -1.09750362405311, 0.991933989936886, -1.24562125717371], a = 0.2, v = 0.2, t = 0.2)
movej(p[0.396548668850689, -0.0932292120831862, 0.28076460227776, -1.10097212586898, 0.990379855562393, -1.24592957732016], a = 0.2, v = 0.2, t = 0.2)
movej(p[0.394181381855467, -0.0927492042646974, 0.280922313141181, -1.09372301728777, 0.979023344965149, -1.25493417717677], a = 0.2, v = 0.2, t = 0.2)
movej(p[0.391757701861822, -0.0922441758081149, 0.2812354696459, -1.09470826195244, 0.971789192646554, -1.26082711984908], a = 0.2, v = 0.2, t = 0.2)
movej(p[0.389672511565789, -0.0918282460900163, 0.281241342373938, -1.08947227073828, 0.964574822585887, -1.25977802551864], a = 0.2, v = 0.2, t = 0.2)
movej(p[0.38766584000388, -0.0913922397493982, 0.281079000008659, -1.08934615934835, 0.958534987356551, -1.25485521735323], a = 0.2, v = 0.2, t = 0.2)
movej(p[0.385459061640419, -0.0909193846769663, 0.281118038771931, -1.08621774791436, 0.95156696500854, -1.25192545033078], a = 0.2, v = 0.2, t = 0.2)
movej(p[0.385146573742384, -0.0908555185182144, 0.281341610163991, -1.08686382648983, 0.944491094887192, -1.24040105438021], a = 0.2, v = 0.2, t = 0.2)
movej(p[0.385236586548592, -0.0909473076381118, 0.281457681056927, -1.08941748977277, 0.947132518594846, -1.22611992001856], a = 0.2, v = 0.2, t = 0.2)
movej(p[0.385650790745868, -0.0909524755879539, 0.281262386240679, -1.08347409705916, 0.951501247334595, -1.2126121915126], a = 0.2, v = 0.2, t = 0.2)
movej(p[0.38895624888017, -0.0915654765005999, 0.28099788946665, -1.0843952755108, 0.95210058452666, -1.20951578460548], a = 0.2, v = 0.2, t = 0.2)
movej(p[0.393461563228068, -0.0925395844910323, 0.280869618699927, -1.08782365565419, 0.958536163966332, -1.22526799773517], a = 0.2, v = 0.2, t = 0.2)
movej(p[0.39580594189513, -0.0930461440790403, 0.280625795630424, -1.09360105852254, 0.97102610836878, -1.23560853020824], a = 0.2, v = 0.2, t = 0.2)
movej(p[0.397049646452111, -0.0933387827642999, 0.280624327694482, -1.09999457198816, 0.97639743332355, -1.23378577521953], a = 0.2, v = 0.2, t = 0.2)
movej(p[0.397684040629889, -0.0934600569241855, 0.280541402093216, -1.09807143996209, 0.976043691659972, -1.2353105594681], a = 0.2, v = 0.2, t = 0.2)
movej(p[0.398230185103165, -0.0935896807598352, 0.280465430812186, -1.09933472559132, 0.976519501914636, -1.23544835417629], a = 0.2, v = 0.2, t = 0.2)
movej(p[0.398510021523367, -0.0936249475778924, 0.280161082575009, -1.09729914543497, 0.97735370469821, -1.23485828499495], a = 0.2, v = 0.2, t = 0.2)
movej(p[0.398742835042764, -0.093665157939763, 0.279974325401159, -1.09783975980403, 0.976420842673551, -1.23663762373402], a = 0.2, v = 0.2, t = 0.2)
movej(p[0.399002610762095, -0.0937203785032914, 0.279889361908945, -1.09764157322184, 0.976254973336911, -1.23672673637985], a = 0.2, v = 0.2, t = 0.2)
movej(p[0.399092623568304, -0.0938121676231888, 0.280005432801881, -1.09716950970165, 0.973677286864154, -1.23621998599466], a = 0.2, v = 0.2, t = 0.2)
movej(p[0.398390619170442, -0.0936284421276333, 0.280434854736191, -1.09672821187358, 0.978058761022172, -1.23844525792782], a = 0.2, v = 0.2, t = 0.2)
movej(p[0.396640616553819, -0.0932320461919477, 0.280388051274951, -1.09583584444344, 0.981343089000534, -1.24234890479178], a = 0.2, v = 0.2, t = 0.2)
movej(p[0.394838902552691, -0.0928562737331305, 0.28023899716621, -1.09813481900015, 0.982465816884586, -1.24922456569612], a = 0.2, v = 0.2, t = 0.2)
movej(p[0.392707385618283, -0.0923933574907973, 0.280341559444445, -1.09790841567248, 0.982004329213378, -1.24665850699585], a = 0.2, v = 0.2, t = 0.2)
movej(p[0.390983384916972, -0.0920420121427429, 0.28042531706069, -1.09928942085567, 0.981689155514422, -1.24237119675963], a = 0.2, v = 0.2, t = 0.2)
movej(p[0.389068866661595, -0.0915817153429128, 0.280374498108587, -1.09837934567143, 0.979676314813281, -1.24213436887205], a = 0.2, v = 0.2, t = 0.2)
movej(p[0.38798925998615, -0.0913283252610576, 0.280223270522636, -1.09909756024668, 0.97375617894513, -1.23808099475655], a = 0.2, v = 0.2, t = 0.2)
movej(p[0.387507094355886, -0.0912049584471664, 0.280251484423865, -1.09935925600074, 0.972681066470362, -1.23736300126767], a = 0.2, v = 0.2, t = 0.2)
movej(p[0.387024919510294, -0.0910814920591428, 0.280279698060767, -1.09961792077163, 0.97160583991699, -1.23664384648301], a = 0.2, v = 0.2, t = 0.2)
movej(p[0.386542753880031, -0.0909581252452517, 0.280307911961996, -1.09987762832146, 0.970532635830873, -1.23592617324095], a = 0.2, v = 0.2, t = 0.2)
movej(p[0.385422740829695, -0.0908760789796216, 0.280916905917116, -1.09913929743628, 0.961428897881742, -1.23048341907765], a = 0.2, v = 0.2, t = 0.2)
movej(p[0.384387694303273, -0.0905980339937888, 0.28078215160737, -1.09515181930015, 0.962117918518132, -1.22756020267839], a = 0.2, v = 0.2, t = 0.2)
movej(p[0.384502279817697, -0.0906879210086216, 0.280758073101423, -1.09577595485889, 0.960787772462557, -1.21209735455932], a = 0.2, v = 0.2, t = 0.2)
movej(p[0.384853086677418, -0.0906206562605741, 0.280739266165403, -1.098231124648, 0.964366987373506, -1.19595553695457], a = 0.2, v = 0.2, t = 0.2)
movej(p[0.387724999550786, -0.0912525624423824, 0.280674469134788, -1.1007346372332, 0.967226780572592, -1.19280773078807], a = 0.2, v = 0.2, t = 0.2)
movej(p[0.390030610197053, -0.0917013837993096, 0.280379551082799, -1.10120053290118, 0.967371122852889, -1.18991763929188], a = 0.2, v = 0.2, t = 0.2)
movej(p[0.393104729903228, -0.0924208626483142, 0.280377651625475, -1.09929175256532, 0.969011609092368, -1.19865215051356], a = 0.2, v = 0.2, t = 0.2)
movej(p[0.396381198019909, -0.093103803906565, 0.280275466948762, -1.10166355680749, 0.973394801690805, -1.20992299752359], a = 0.2, v = 0.2, t = 0.2)
movej(p[0.397550385422427, -0.0933864728578264, 0.280082672934892, -1.10047422153416, 0.974993068357049, -1.2210575819791], a = 0.2, v = 0.2, t = 0.2)
movej(p[0.398559048392545, -0.0937213850622509, 0.28018197534192, -1.10057594764131, 0.973907973802101, -1.22638578808574], a = 0.2, v = 0.2, t = 0.2)
movej(p[0.398552836396758, -0.0937273932327977, 0.280253807945904, -1.10048859581804, 0.974039402947052, -1.22652061648367], a = 0.2, v = 0.2, t = 0.2)
movej(p[0.398652674832604, -0.0938184217780066, 0.280313838777024, -1.09817025502814, 0.976442513309046, -1.22984948090529], a = 0.2, v = 0.2, t = 0.2)
movej(p[0.396910184179537, -0.0933986226293755, 0.280460468715246, -1.09601642140464, 0.978147412715675, -1.23305492834668], a = 0.2, v = 0.2, t = 0.2)
movej(p[0.394679823807226, -0.092916969365224, 0.280587990136033, -1.09497332836357, 0.975721986298393, -1.23724715966007], a = 0.2, v = 0.2, t = 0.2)
movej(p[0.392350234285452, -0.0925011788748192, 0.280852465859167, -1.09411326787969, 0.963530941038955, -1.24630969686728], a = 0.2, v = 0.2, t = 0.2)
movej(p[0.39024642531801, -0.0920926493521725, 0.280838322039496, -1.09141239396825, 0.959119809761247, -1.2523020163896], a = 0.2, v = 0.2, t = 0.2)
movej(p[0.388656953830388, -0.0916482716507239, 0.280747617362148, -1.0886229956216, 0.957983843693499, -1.25156207774457], a = 0.2, v = 0.2, t = 0.2)
movej(p[0.386542951494098, -0.0911345954074807, 0.280672294196458, -1.08973513202778, 0.951050258037289, -1.24813525828293], a = 0.2, v = 0.2, t = 0.2)
movej(p[0.38437132493187, -0.0907142542889833, 0.280964933818388, -1.09063856913044, 0.945393171152435, -1.24250967644198], a = 0.2, v = 0.2, t = 0.2)
movej(p[0.384461337738078, -0.0908060434088807, 0.281081004711325, -1.09184582117118, 0.951200276479014, -1.21784684954334], a = 0.2, v = 0.2, t = 0.2)
movej(p[0.386077916974387, -0.0908445240046359, 0.280668714150573, -1.09357697942262, 0.956518231347064, -1.20954310297109], a = 0.2, v = 0.2, t = 0.2)
movej(p[0.388899061872069, -0.0914368311706256, 0.28053158655525, -1.09490449217391, 0.957457509382669, -1.20625995394913], a = 0.2, v = 0.2, t = 0.2)
movej(p[0.392074359913798, -0.0921745025769063, 0.280363605626129, -1.09473605721344, 0.967338999152963, -1.22648505309426], a = 0.2, v = 0.2, t = 0.2)
movej(p[0.394063921397733, -0.0927122591183032, 0.280283773277879, -1.09884347452412, 0.976693255687693, -1.22787883195663], a = 0.2, v = 0.2, t = 0.2)
movej(p[0.394731628798771, -0.0927445696104777, 0.280017315703967, -1.09908809408468, 0.976659073480875, -1.22508967560552], a = 0.2, v = 0.2, t = 0.2)
movej(p[0.395134804787048, -0.0928251255536592, 0.280029849757385, -1.10029116686203, 0.978344616092807, -1.22584058541665], a = 0.2, v = 0.2, t = 0.2)
movej(p[0.396467971561362, -0.0931601290276225, 0.280168887573452, -1.09839121359425, 0.977078313255889, -1.22433644572569], a = 0.2, v = 0.2, t = 0.2)
movej(p[0.39769221903917, -0.093449220979778, 0.279987589348753, -1.09959760278427, 0.972362096592621, -1.22736867741476], a = 0.2, v = 0.2, t = 0.2)
movej(p[0.398342533334607, -0.0936519196835962, 0.28000118319371, -1.10042037756911, 0.967677904708474, -1.22963355115428], a = 0.2, v = 0.2, t = 0.2)
movej(p[0.3988055730041, -0.093717307866584, 0.279857293339997, -1.09868532476369, 0.969897048257463, -1.23204888615575], a = 0.2, v = 0.2, t = 0.2)
movej(p[0.398895585810308, -0.0938090969864814, 0.279973364232933, -1.0947797192459, 0.972701066250645, -1.23675420300626], a = 0.2, v = 0.2, t = 0.2)
movej(p[0.398038974202408, -0.0935718429943723, 0.280042661104715, -1.10103961638085, 0.984013656883169, -1.23592885642602], a = 0.2, v = 0.2, t = 0.2)
movej(p[0.396667098118073, -0.0932622398036436, 0.280121187428453, -1.09864247548319, 0.98580916947256, -1.24287641413758], a = 0.2, v = 0.2, t = 0.2)
movej(p[0.394756790854722, -0.0928249221075401, 0.280195479300574, -1.09685971505807, 0.984102330594166, -1.24431046557489], a = 0.2, v = 0.2, t = 0.2)
movej(p[0.393043721278519, -0.092645552252372, 0.280751970245823, -1.09858551970042, 0.981107542812858, -1.26541513126421], a = 0.2, v = 0.2, t = 0.2)
movej(p[0.39135709068601, -0.0921900957910459, 0.28054213555791, -1.10032983235549, 0.979551613463273, -1.2700684042993], a = 0.2, v = 0.2, t = 0.2)
movej(p[0.389626792981937, -0.0916643677318705, 0.280293107300329, -1.09700800423792, 0.976172423000357, -1.26896454396688], a = 0.2, v = 0.2, t = 0.2)
movej(p[0.387664658041413, -0.0911122906357614, 0.280233763765506, -1.09458489089451, 0.965104020500433, -1.26658899241928], a = 0.2, v = 0.2, t = 0.2)
movej(p[0.386876810924283, -0.0909766786437349, 0.280323485098806, -1.09377778019833, 0.958252850758376, -1.25077154465851], a = 0.2, v = 0.2, t = 0.2)
movej(p[0.386966823730491, -0.0910684677636323, 0.280439555991742, -1.0956574721104, 0.959592559805479, -1.23429115314018], a = 0.2, v = 0.2, t = 0.2)
movej(p[0.389575619484401, -0.0914979893508918, 0.280249840598435, -1.09623405952838, 0.962844914955639, -1.22834385909815], a = 0.2, v = 0.2, t = 0.2)
movej(p[0.392722814456168, -0.0920042044002144, 0.279802072138708, -1.0943248485382, 0.966061161156637, -1.22859297506757], a = 0.2, v = 0.2, t = 0.2)
movej(p[0.39489233436758, -0.092436042021971, 0.279791883791221, -1.09511536092002, 0.972212304051559, -1.2383116469727], a = 0.2, v = 0.2, t = 0.2)
movej(p[0.3961296403268, -0.0928794401982919, 0.279742065014525, -1.10427423333728, 0.976696687010881, -1.23507552657625], a = 0.2, v = 0.2, t = 0.2)
movej(p[0.396928584112571, -0.0929104860128616, 0.279500360660867, -1.11109816277026, 0.98336738996924, -1.2336036148994], a = 0.2, v = 0.2, t = 0.2)
movej(p[0.397172551065523, -0.0931357492469314, 0.279505556932964, -1.11457998433565, 0.982090215059843, -1.23362917976915], a = 0.2, v = 0.2, t = 0.2)
movej(p[0.39783491059958, -0.0931981175160461, 0.279376449897326, -1.11159138938577, 0.982488424319462, -1.2336467319691], a = 0.2, v = 0.2, t = 0.2)
movej(p[0.39825521670617, -0.0931847967544584, 0.279350515478611, -1.1141078650057, 0.979374197694858, -1.22513086288047], a = 0.2, v = 0.2, t = 0.2)
movej(p[0.398340647190057, -0.0931783686102717, 0.27928547071414, -1.11265984710434, 0.978876308472386, -1.22496043554487], a = 0.2, v = 0.2, t = 0.2)
movej(p[0.398459587764435, -0.0931957827409842, 0.27920952917203, -1.11198860693588, 0.976446062510322, -1.22421418007387], a = 0.2, v = 0.2, t = 0.2)
movej(p[0.398877013511152, -0.0932421470145128, 0.2792723407961, -1.11164614676089, 0.980169969734549, -1.22547419740839], a = 0.2, v = 0.2, t = 0.2)
movej(p[0.39899952419362, -0.0932661351128084, 0.279395029808735, -1.1027752379311, 0.973990429651068, -1.22779072386664], a = 0.2, v = 0.2, t = 0.2)
movej(p[0.399411865519915, -0.0937616195095554, 0.279518781104525, -1.09772500954006, 0.967596133119209, -1.23202840170652], a = 0.2, v = 0.2, t = 0.2)
movej(p[0.399651809392464, -0.0937581132547708, 0.279662433094428, -1.09714508126973, 0.965100969788279, -1.23138994854762], a = 0.2, v = 0.2, t = 0.2)
movej(p[0.399895814920978, -0.0938073942839279, 0.279603011783268, -1.09801302808598, 0.968368899389174, -1.23140703576417], a = 0.2, v = 0.2, t = 0.2)
movej(p[0.399997226640862, -0.0939731154948058, 0.279693475827702, -1.09886586228205, 0.969594360336514, -1.23060955425872], a = 0.2, v = 0.2, t = 0.2)
movej(p[0.39983162212572, -0.0940885593311045, 0.279810301318178, -1.09759328649299, 0.97223681041127, -1.23009584033179], a = 0.2, v = 0.2, t = 0.2)
movej(p[0.399310682835321, -0.0938638550108121, 0.27986842630558, -1.09750906911902, 0.973820117129566, -1.23345494236951], a = 0.2, v = 0.2, t = 0.2)
movej(p[0.398176751891667, -0.093610937161846, 0.279995619374178, -1.09825143386811, 0.979123322024649, -1.23585770039727], a = 0.2, v = 0.2, t = 0.2)
movej(p[0.39687744809598, -0.0933598126039407, 0.28014324021596, -1.0977396728042, 0.983016599866593, -1.23908389290084], a = 0.2, v = 0.2, t = 0.2)
movej(p[0.394880466658373, -0.0930048940215886, 0.280270158921256, -1.09684813132393, 0.982485925166655, -1.24385902879246], a = 0.2, v = 0.2, t = 0.2)
movej(p[0.392947927664731, -0.0924534696861586, 0.280257218660364, -1.10053569296333, 0.979410910513184, -1.24581342497909], a = 0.2, v = 0.2, t = 0.2)
movej(p[0.390744176843999, -0.0918324823231773, 0.280266916863287, -1.08915861725113, 0.968575679335018, -1.24845780560974], a = 0.2, v = 0.2, t = 0.2)
movej(p[0.388607631143525, -0.0914225734318601, 0.280551757012505, -1.09144764123307, 0.961694944465702, -1.24823026830397], a = 0.2, v = 0.2, t = 0.2)
movej(p[0.386378685707048, -0.0908114391246904, 0.280716820908644, -1.08941629773288, 0.959613805438455, -1.24649032070439], a = 0.2, v = 0.2, t = 0.2)
movej(p[0.384213874699111, -0.0902813327866152, 0.280771000796467, -1.08603304074617, 0.955539196891222, -1.25025225036577], a = 0.2, v = 0.2, t = 0.2)
movej(p[0.383027723594305, -0.0901574487493276, 0.280870939687166, -1.08399447984214, 0.941716063776613, -1.24218187076296], a = 0.2, v = 0.2, t = 0.2)
movej(p[0.383114541775763, -0.0902494851562503, 0.281005230986843, -1.08167261806316, 0.937640488495967, -1.23462026511424], a = 0.2, v = 0.2, t = 0.2)
movej(p[0.383258697375001, -0.0902145153757958, 0.281132515226494, -1.07991898097824, 0.93373446273214, -1.22418113526602], a = 0.2, v = 0.2, t = 0.2)
movej(p[0.3844830701264, -0.0903691259160606, 0.280874476437799, -1.08577494730305, 0.941235658943872, -1.21639518283309], a = 0.2, v = 0.2, t = 0.2)
movej(p[0.38576499956372, -0.0905183995201723, 0.280695949692331, -1.08662425418712, 0.948067880197529, -1.21595220324365], a = 0.2, v = 0.2, t = 0.2)
movej(p[0.387394791513587, -0.090978684775798, 0.280652171917127, -1.08802426602783, 0.957673101037412, -1.23205501098149], a = 0.2, v = 0.2, t = 0.2)
movej(p[0.391503917537698, -0.0917762971067796, 0.280166037133926, -1.08934436431809, 0.963463294351591, -1.24296255600463], a = 0.2, v = 0.2, t = 0.2)
movej(p[0.394048815503419, -0.092468220873176, 0.280091216644983, -1.08860924230217, 0.963440782767215, -1.25012119111098], a = 0.2, v = 0.2, t = 0.2)
movej(p[0.395614335349806, -0.0928257852371968, 0.279936334121266, -1.08915832523545, 0.967942495764778, -1.25731758171444], a = 0.2, v = 0.2, t = 0.2)
movej(p[0.396945243953042, -0.0934200288883639, 0.280064756326814, -1.09388713077901, 0.972115810054763, -1.25242939898855], a = 0.2, v = 0.2, t = 0.2)
movej(p[0.397451117231257, -0.0934517390406202, 0.279953912686348, -1.09697443686247, 0.978788993727065, -1.2497633490558], a = 0.2, v = 0.2, t = 0.2)
movej(p[0.397920013351846, -0.0934465952278719, 0.27984480256176, -1.09627421208058, 0.976370010648952, -1.24897152840793], a = 0.2, v = 0.2, t = 0.2)
movej(p[0.398270799966801, -0.0936142458282978, 0.279896720929853, -1.09783451510056, 0.981035348958931, -1.2489664825599], a = 0.2, v = 0.2, t = 0.2)
movej(p[0.398725467130755, -0.0938474781989686, 0.27995794160686, -1.09491143506137, 0.98162219939427, -1.24993319733345], a = 0.2, v = 0.2, t = 0.2)
movej(p[0.398919331417409, -0.0938455388944103, 0.279907177274324, -1.09526910058078, 0.984128853918224, -1.24799646663852], a = 0.2, v = 0.2, t = 0.2)
movej(p[0.399267585819693, -0.0938786902034124, 0.279830411383451, -1.09735066055411, 0.982115926137826, -1.24810668963841], a = 0.2, v = 0.2, t = 0.2)
movej(p[0.399351774538934, -0.0939075484715437, 0.279946315222529, -1.09262792017112, 0.984610378593951, -1.24879503566277], a = 0.2, v = 0.2, t = 0.2)
movej(p[0.398526994274898, -0.0940836499932567, 0.28019397922901, -1.08958417297401, 0.989336278244569, -1.25048655043646], a = 0.2, v = 0.2, t = 0.2)
movej(p[0.396866813273314, -0.0937441633755362, 0.280357402875919, -1.08741861374769, 0.985834306762863, -1.25710487726304], a = 0.2, v = 0.2, t = 0.2)
movej(p[0.39442385131858, -0.0931839312305239, 0.28053644066919, -1.08894534529869, 0.980859709681222, -1.25994620297176], a = 0.2, v = 0.2, t = 0.2)
movej(p[0.391942898298524, -0.0925896045521931, 0.28069668985545, -1.079254729078, 0.972323490747638, -1.26518929051578], a = 0.2, v = 0.2, t = 0.2)
movej(p[0.389742368008199, -0.0920803408576042, 0.280878654277072, -1.07728009765837, 0.965718179106134, -1.26943737592203], a = 0.2, v = 0.2, t = 0.2)
movej(p[0.387491681834009, -0.09138121618971, 0.280861790586674, -1.08011485780447, 0.960747821343967, -1.27409643129983], a = 0.2, v = 0.2, t = 0.2)
movej(p[0.385063460282104, -0.0906809793586241, 0.280908444474571, -1.07653271975075, 0.956583033023041, -1.27282922814293], a = 0.2, v = 0.2, t = 0.2)
movej(p[0.382895860190088, -0.0902252734011872, 0.281141755471839, -1.0735248586738, 0.944884612479362, -1.26775224150137], a = 0.2, v = 0.2, t = 0.2)
movej(p[0.382567852153101, -0.090207638266273, 0.281212519443523, -1.07251185058888, 0.943117090435975, -1.26379249291164], a = 0.2, v = 0.2, t = 0.2)
movej(p[0.382644253920622, -0.0901523563924069, 0.281328199927363, -1.07093489957138, 0.940837377123659, -1.26008412566256], a = 0.2, v = 0.2, t = 0.2)
movej(p[0.382923570043239, -0.090227353674647, 0.281170141674486, -1.07114465462407, 0.945694118462575, -1.24197735754415], a = 0.2, v = 0.2, t = 0.2)
movej(p[0.385068051646136, -0.0902771974608411, 0.280847615300658, -1.07357707332732, 0.947717489762898, -1.23819601872888], a = 0.2, v = 0.2, t = 0.2)
movej(p[0.389501827252672, -0.0914524445317609, 0.280609644539473, -1.07367585008916, 0.958855767064494, -1.25059213327252], a = 0.2, v = 0.2, t = 0.2)
movej(p[0.394164901971065, -0.0924868963882675, 0.280131420714, -1.0802644370728, 0.965483261784102, -1.24967207303019], a = 0.2, v = 0.2, t = 0.2)
movej(p[0.395992780900864, -0.0928808057599948, 0.27998884313911, -1.08340607465307, 0.966089690170712, -1.2476161836806], a = 0.2, v = 0.2, t = 0.2)
movej(p[0.396715903215158, -0.0931652903945163, 0.279946775202482, -1.08737745924376, 0.973530700049812, -1.2446389061629], a = 0.2, v = 0.2, t = 0.2)
movej(p[0.397464330775725, -0.0933309271146636, 0.279908421799466, -1.09308475644754, 0.976949125097139, -1.24380156184996], a = 0.2, v = 0.2, t = 0.2)
movej(p[0.397738665674562, -0.0934061599705721, 0.279835283637937, -1.09422571407192, 0.976202484346001, -1.23853871978915], a = 0.2, v = 0.2, t = 0.2)
movej(p[0.397911420603779, -0.0932952551851098, 0.279802197795156, -1.09376024115839, 0.978983376694951, -1.23525460323084], a = 0.2, v = 0.2, t = 0.2)
movej(p[0.398195264746183, -0.093369335605321, 0.279831667850543, -1.09385483258952, 0.978819549855586, -1.23253544839612], a = 0.2, v = 0.2, t = 0.2)
movej(p[0.398676988086609, -0.0933949525764114, 0.279793737334053, -1.09648040351536, 0.983368579907098, -1.2346770884174], a = 0.2, v = 0.2, t = 0.2)
movej(p[0.398888694540713, -0.0934510896415965, 0.279715258883489, -1.1021075888652, 0.988569726807955, -1.22898023887012], a = 0.2, v = 0.2, t = 0.2)
movej(p[0.399234263633319, -0.0935195027657122, 0.279727706239989, -1.10240647848955, 0.988044096359214, -1.22138469227361], a = 0.2, v = 0.2, t = 0.2)
movej(p[0.399435260866416, -0.0935894916570865, 0.279760474629814, -1.10129326629073, 0.985960537783958, -1.22008325234199], a = 0.2, v = 0.2, t = 0.2)
movej(p[0.399867796406469, -0.0938511871148812, 0.27993429483566, -1.10117170152161, 0.988926144449022, -1.21973059636597], a = 0.2, v = 0.2, t = 0.2)
movej(p[0.400055373992543, -0.093934765813407, 0.279741860716139, -1.10204495600498, 0.99149325958976, -1.21799092426744], a = 0.2, v = 0.2, t = 0.2)
movej(p[0.400120533060539, -0.0937580034978405, 0.279857218722595, -1.09944953314024, 0.991204679162577, -1.21722232520504], a = 0.2, v = 0.2, t = 0.2)
movej(p[0.399140543835798, -0.0937075853149283, 0.279937681796263, -1.08908278880993, 0.992445654707276, -1.22121097137621], a = 0.2, v = 0.2, t = 0.2)
movej(p[0.398170403676446, -0.0937291439277528, 0.280215668733772, -1.08602771445838, 0.996135883775236, -1.22250876510579], a = 0.2, v = 0.2, t = 0.2)
movej(p[0.397057497910072, -0.0936264843668113, 0.28035953599801, -1.08744203052295, 0.99477575704076, -1.22873778562231], a = 0.2, v = 0.2, t = 0.2)
movej(p[0.396165411441533, -0.0932839115214691, 0.28036809685563, -1.08422572492396, 0.995585586736088, -1.23289765752696], a = 0.2, v = 0.2, t = 0.2)
movej(p[0.393104551006309, -0.0923415408238562, 0.280529170951505, -1.08573434276743, 0.993546216161077, -1.23278392242298], a = 0.2, v = 0.2, t = 0.2)
movej(p[0.390285714681571, -0.0918682355785444, 0.280814648549747, -1.08437331980145, 0.988770521931753, -1.23753136619126], a = 0.2, v = 0.2, t = 0.2)
movej(p[0.387659932929108, -0.0912099410401636, 0.28095291112303, -1.08611861979432, 0.981720696834497, -1.23877551947881], a = 0.2, v = 0.2, t = 0.2)
movej(p[0.385145613594369, -0.090399592597106, 0.281066480589831, -1.08239185472753, 0.977634241371291, -1.23770998636129], a = 0.2, v = 0.2, t = 0.2)
movej(p[0.383387580924639, -0.090211040493471, 0.281201764167464, -1.07963198530053, 0.964852483097422, -1.23575366791767], a = 0.2, v = 0.2, t = 0.2)
movej(p[0.382985811693018, -0.0900452103271445, 0.281371365524944, -1.07671690026946, 0.952608712811922, -1.22385700756608], a = 0.2, v = 0.2, t = 0.2)
movej(p[0.383075824499226, -0.0901369994470419, 0.28148743641788, -1.07576141216854, 0.950637051618393, -1.22349036126916], a = 0.2, v = 0.2, t = 0.2)
movej(p[0.383025389730588, -0.0900419033192416, 0.281237318284611, -1.07524160638679, 0.950881365163748, -1.21067593248701], a = 0.2, v = 0.2, t = 0.2)
movej(p[0.384399241771432, -0.089930593378159, 0.281059864355703, -1.07646193868405, 0.957019025118679, -1.2020259587213], a = 0.2, v = 0.2, t = 0.2)
movej(p[0.386707832345333, -0.0904412345082597, 0.280866671942941, -1.08676443870218, 0.973589098249332, -1.19766490096322], a = 0.2, v = 0.2, t = 0.2)
movej(p[0.388459034115385, -0.0906321816700794, 0.280596944910629, -1.08555710909196, 0.977519046830387, -1.20466144012827], a = 0.2, v = 0.2, t = 0.2)
movej(p[0.390629602039725, -0.0909689972387411, 0.280405467840122, -1.08370859597523, 0.977958094451003, -1.20935253159154], a = 0.2, v = 0.2, t = 0.2)
movej(p[0.392948156738825, -0.0916183202252034, 0.280208688098949, -1.08413640619961, 0.982424209686726, -1.21651898547215], a = 0.2, v = 0.2, t = 0.2)
movej(p[0.39503227231236, -0.0924818209784962, 0.280177870162419, -1.08912749047853, 0.98330465638168, -1.21791702070883], a = 0.2, v = 0.2, t = 0.2)
movej(p[0.396347563126711, -0.0927105397696449, 0.280006449806981, -1.0935327733973, 0.98544120580394, -1.21822686378992], a = 0.2, v = 0.2, t = 0.2)
movej(p[0.397636220821593, -0.0929475861176143, 0.279858574912777, -1.09266670886313, 0.983975696546589, -1.21996828540869], a = 0.2, v = 0.2, t = 0.2)
movej(p[0.398387467264315, -0.0931757210387275, 0.279823319699461, -1.09530499030497, 0.986086159391122, -1.2160327559227], a = 0.2, v = 0.2, t = 0.2)
movej(p[0.399111677933077, -0.0937097262132925, 0.27991055862878, -1.09667509840647, 0.988463640129998, -1.2186328848837], a = 0.2, v = 0.2, t = 0.2)
movej(p[0.39922559100255, -0.0937995749686656, 0.279924336646102, -1.09801535128857, 0.990346112206987, -1.21555348696043], a = 0.2, v = 0.2, t = 0.2)
movej(p[0.399400942686904, -0.0935459974241234, 0.279787538891376, -1.09798278203783, 0.99198163880997, -1.21553873764778], a = 0.2, v = 0.2, t = 0.2)
movej(p[0.399479546917692, -0.0935145137679347, 0.279903282549064, -1.09180413995575, 0.99710397916631, -1.219907639735], a = 0.2, v = 0.2, t = 0.2)
movej(p[0.397410012166452, -0.0935656213408998, 0.280177369450243, -1.08743358158483, 0.997391078883852, -1.23040315792963], a = 0.2, v = 0.2, t = 0.2)
movej(p[0.394902708483764, -0.0929387979247819, 0.280370398121124, -1.08691643045171, 0.997144695106095, -1.23459519725552], a = 0.2, v = 0.2, t = 0.2)
movej(p[0.392580244279866, -0.0921486991203286, 0.280505350078564, -1.08474107035576, 0.992719079946147, -1.2352329381807], a = 0.2, v = 0.2, t = 0.2)
movej(p[0.390389270558694, -0.0914312583926987, 0.280615359966623, -1.08008203099835, 0.986394991588236, -1.23814318879408], a = 0.2, v = 0.2, t = 0.2)
movej(p[0.38833986056222, -0.0910731359748868, 0.280826135345198, -1.079826504828, 0.984066126281714, -1.23920734259763], a = 0.2, v = 0.2, t = 0.2)
movej(p[0.386613876389486, -0.0905797549569729, 0.280915026608168, -1.08270070154301, 0.983293521541092, -1.23395718876159], a = 0.2, v = 0.2, t = 0.2)
movej(p[0.385131788377209, -0.090066981879978, 0.280978814266639, -1.08366873352935, 0.978665627656595, -1.23175700981209], a = 0.2, v = 0.2, t = 0.2)
movej(p[0.383738461026923, -0.0897309762585868, 0.281120442926659, -1.08320196994186, 0.974353944940241, -1.22500988762016], a = 0.2, v = 0.2, t = 0.2)
movej(p[0.383589221288885, -0.0896914425861801, 0.281165176351928, -1.08409469646902, 0.968634681199474, -1.21867056123111], a = 0.2, v = 0.2, t = 0.2)
movej(p[0.383679234095093, -0.0897832317060775, 0.281281247244864, -1.08446653370017, 0.96934623106152, -1.20287211392773], a = 0.2, v = 0.2, t = 0.2)
movej(p[0.384591214479388, -0.0895991679475291, 0.280992933246854, -1.08390087008715, 0.972550965655189, -1.19536414198982], a = 0.2, v = 0.2, t = 0.2)
movej(p[0.386304303720548, -0.0896741855358115, 0.280779221026162, -1.08334596104711, 0.975056182556073, -1.18757161984013], a = 0.2, v = 0.2, t = 0.2)
movej(p[0.388422767754633, -0.0904624478475959, 0.280768341499227, -1.08488673873428, 0.976134059627735, -1.18416892504228], a = 0.2, v = 0.2, t = 0.2)
movej(p[0.390693026930141, -0.0908479781384518, 0.280503418187956, -1.08818883834364, 0.987463351632284, -1.19621535870957], a = 0.2, v = 0.2, t = 0.2)
movej(p[0.392561181991487, -0.0912454563284514, 0.28033617511563, -1.09032903897107, 0.992990947929443, -1.1984594186716], a = 0.2, v = 0.2, t = 0.2)
movej(p[0.394435161448781, -0.0917760925940783, 0.280196271086944, -1.08980276758578, 0.991711148826258, -1.20215363768265], a = 0.2, v = 0.2, t = 0.2)
movej(p[0.396105276381247, -0.0923656797181087, 0.280089272556434, -1.0953727562159, 0.993190160555335, -1.2041560265724], a = 0.2, v = 0.2, t = 0.2)
movej(p[0.397223689930131, -0.0928000029499106, 0.279998830508744, -1.09614706100555, 0.99397211629838, -1.20398140789268], a = 0.2, v = 0.2, t = 0.2)
movej(p[0.397745962588126, -0.0928927306856523, 0.279937552227637, -1.09773212155083, 0.993233705153477, -1.20253106855467], a = 0.2, v = 0.2, t = 0.2)
movej(p[0.398492481692542, -0.0930846648796124, 0.279895562801218, -1.09527571066692, 0.992813970957021, -1.20181012135137], a = 0.2, v = 0.2, t = 0.2)
movej(p[0.399446828237778, -0.0935851054631864, 0.279874554852564, -1.10033980189185, 0.991176605828321, -1.20535540707681], a = 0.2, v = 0.2, t = 0.2)
movej(p[0.399872261380307, -0.0936349417933814, 0.279901358610344, -1.10200029932694, 0.994840142410225, -1.20279558630298], a = 0.2, v = 0.2, t = 0.2)
movej(p[0.400048716489197, -0.0936192372917058, 0.279930377796645, -1.09773176450033, 0.996723875437671, -1.20318901395255], a = 0.2, v = 0.2, t = 0.2)
movej(p[0.400129449460633, -0.0936107552601341, 0.280046182513576, -1.09664198995077, 1.00080458567674, -1.20395101169043], a = 0.2, v = 0.2, t = 0.2)
movej(p[0.399057040243818, -0.0935470412246317, 0.280110012626927, -1.09047645503632, 1.00120903167848, -1.20656379287665], a = 0.2, v = 0.2, t = 0.2)
movej(p[0.397704687318429, -0.0936092005998608, 0.280310179325612, -1.08678857037674, 1.00197760887105, -1.21536603633928], a = 0.2, v = 0.2, t = 0.2)
movej(p[0.395695727178619, -0.0930267996440743, 0.280481541933417, -1.08601891100319, 1.00342810963091, -1.21754730504309], a = 0.2, v = 0.2, t = 0.2)
movej(p[0.39345594859368, -0.092160334507904, 0.280586743398464, -1.08716650746025, 1.00132995656312, -1.21734309285031], a = 0.2, v = 0.2, t = 0.2)
movej(p[0.39120129605067, -0.0917491688691462, 0.280733620312246, -1.0838601207623, 0.995718602344383, -1.22204260088362], a = 0.2, v = 0.2, t = 0.2)
movej(p[0.389284424034413, -0.0914908802050253, 0.280935920112741, -1.08289609890655, 0.989520826503233, -1.22358003620709], a = 0.2, v = 0.2, t = 0.2)
movej(p[0.387414316828634, -0.0909690259154329, 0.280999623796513, -1.08144079085443, 0.982894484742218, -1.22406030864219], a = 0.2, v = 0.2, t = 0.2)
movej(p[0.385607788758496, -0.0904141018246049, 0.281127620184049, -1.07938619230018, 0.976597636928894, -1.22075072823675], a = 0.2, v = 0.2, t = 0.2)
movej(p[0.383827981655838, -0.090243069818599, 0.281248187095969, -1.07885715308752, 0.96815513782272, -1.2204649258497], a = 0.2, v = 0.2, t = 0.2)
movej(p[0.383616762582644, -0.0901581477302313, 0.281295462904013, -1.0806941481177, 0.964524094889222, -1.21591965310459], a = 0.2, v = 0.2, t = 0.2)
movej(p[0.383688400025858, -0.0900513860298413, 0.281411006731454, -1.07689581888388, 0.962026645144891, -1.20220160101214], a = 0.2, v = 0.2, t = 0.2)
movej(p[0.384643000740673, -0.0900643302075483, 0.281086167119433, -1.08141622800176, 0.968851402915126, -1.18964374345334], a = 0.2, v = 0.2, t = 0.2)
movej(p[0.385680329625222, -0.0898980169454248, 0.281014942235292, -1.08447225230053, 0.972112657531561, -1.18462493507547], a = 0.2, v = 0.2, t = 0.2)
movej(p[0.388030031619521, -0.0902983291539671, 0.280848426969688, -1.0842107587835, 0.9818281533728, -1.18605914665164], a = 0.2, v = 0.2, t = 0.2)
movej(p[0.391374157273234, -0.0910207210078528, 0.280588311396103, -1.08815477059338, 0.987541866256547, -1.19489874078602], a = 0.2, v = 0.2, t = 0.2)
movej(p[0.393985123488202, -0.0915985137582715, 0.280383561666288, -1.08357854181817, 0.993014408504233, -1.20695775893761], a = 0.2, v = 0.2, t = 0.2)
movej(p[0.395634189008246, -0.0921071208873232, 0.280267067207708, -1.08836876826678, 0.992360788421486, -1.21623543437433], a = 0.2, v = 0.2, t = 0.2)
movej(p[0.397372811916572, -0.0930052353033937, 0.280225666141403, -1.09021869471782, 0.988111191657248, -1.21861355443126], a = 0.2, v = 0.2, t = 0.2)
movej(p[0.397984137826725, -0.093126855777733, 0.28013554365921, -1.09472246436695, 0.993334781233579, -1.2143006090098], a = 0.2, v = 0.2, t = 0.2)
movej(p[0.398544295424089, -0.0932342656996132, 0.280070148974434, -1.09377034871065, 0.991394564129937, -1.21405727484435], a = 0.2, v = 0.2, t = 0.2)
movej(p[0.398978968271702, -0.0934343285769529, 0.280044649745847, -1.09391184212166, 0.991242387348482, -1.21131644900052], a = 0.2, v = 0.2, t = 0.2)
movej(p[0.39907827012801, -0.093626488422452, 0.280160987079114, -1.09129266386555, 0.993189454203567, -1.21821673085089], a = 0.2, v = 0.2, t = 0.2)
movej(p[0.398984464901727, -0.0937357254566711, 0.280112800152702, -1.09173873849323, 0.999500357416331, -1.22426670476625], a = 0.2, v = 0.2, t = 0.2)
movej(p[0.397063680370698, -0.0933140269071157, 0.2803054629635, -1.08750614423863, 1.00360789238296, -1.23248139593686], a = 0.2, v = 0.2, t = 0.2)
movej(p[0.394783366391246, -0.0928800636075676, 0.280552730550864, -1.08134504527477, 1.00236744820595, -1.23954112585724], a = 0.2, v = 0.2, t = 0.2)
movej(p[0.392732882973964, -0.0926695677801095, 0.280801724872233, -1.08592839976446, 0.997991148615749, -1.24331558379966], a = 0.2, v = 0.2, t = 0.2)
movej(p[0.390431991558928, -0.0919320263131163, 0.280890704761416, -1.08319965945029, 0.998825351115392, -1.24329844748805], a = 0.2, v = 0.2, t = 0.2)
movej(p[0.388282479619666, -0.0910512279874442, 0.280978421022521, -1.0801302993378, 0.99140051476812, -1.24173384209819], a = 0.2, v = 0.2, t = 0.2)
movej(p[0.386450359895634, -0.0907204666354898, 0.281163260912339, -1.07648858007266, 0.98430884854795, -1.23865519506338], a = 0.2, v = 0.2, t = 0.2)
movej(p[0.386221364196671, -0.0906166141694624, 0.281130307533812, -1.06964565529064, 0.986115467245504, -1.22922084232216], a = 0.2, v = 0.2, t = 0.2)
movej(p[0.38611266304532, -0.0901344426228196, 0.281219327246815, -1.07059390585943, 0.990385621092026, -1.22466374642339], a = 0.2, v = 0.2, t = 0.2)
movej(p[0.386192064639715, -0.0902278613390206, 0.281091457272736, -1.08163919113681, 0.993277713663702, -1.21407002600865], a = 0.2, v = 0.2, t = 0.2)
movej(p[0.386364235989076, -0.0901903814848011, 0.281036254945005, -1.08839074540709, 0.991116903338774, -1.21030410284503], a = 0.2, v = 0.2, t = 0.2)
movej(p[0.387758448420353, -0.0907109730486879, 0.280939489816551, -1.08736856711177, 0.988992477743782, -1.20911600761971], a = 0.2, v = 0.2, t = 0.2)
movej(p[0.39020500900665, -0.0910351914450529, 0.280713925038634, -1.07958071881346, 1.00006440821622, -1.21055674185827], a = 0.2, v = 0.2, t = 0.2)
movej(p[0.392450093999975, -0.0913351959772927, 0.280517635065943, -1.07629148411284, 1.00083675873895, -1.21097073983168], a = 0.2, v = 0.2, t = 0.2)
movej(p[0.395031158988848, -0.0922217034636659, 0.280296040797474, -1.08436275168317, 1.00010825315658, -1.21554035298932], a = 0.2, v = 0.2, t = 0.2)
movej(p[0.396705151840129, -0.0930517055561105, 0.280246364642248, -1.08335069270451, 1.00340333923637, -1.21787993976906], a = 0.2, v = 0.2, t = 0.2)
movej(p[0.3976175008247, -0.0931925079163465, 0.280140935824063, -1.08680263149264, 1.00608122291649, -1.21675793804686], a = 0.2, v = 0.2, t = 0.2)
movej(p[0.397998063049776, -0.093347785177337, 0.280108384709423, -1.08792206826578, 1.004801435224, -1.21567000774116], a = 0.2, v = 0.2, t = 0.2)
movej(p[0.398136345952239, -0.0933632734749676, 0.280083581856299, -1.08594801216773, 1.00467548031803, -1.21786542695974], a = 0.2, v = 0.2, t = 0.2)
movej(p[0.398814210230576, -0.0934320267807084, 0.28003518667984, -1.08866266215244, 1.0047503173184, -1.21608645725965], a = 0.2, v = 0.2, t = 0.2)
movej(p[0.399319523345795, -0.0937183749095025, 0.279999275056042, -1.0872156635994, 1.00606579064773, -1.21517914984013], a = 0.2, v = 0.2, t = 0.2)
movej(p[0.39984553134033, -0.0939492262515858, 0.279945712125357, -1.09479862196854, 1.00848215141483, -1.21149930663812], a = 0.2, v = 0.2, t = 0.2)
movej(p[0.400225957531585, -0.0939329374962594, 0.279817789455523, -1.0932170395736, 1.00675058943174, -1.20961239695238], a = 0.2, v = 0.2, t = 0.2)
movej(p[0.400326226997278, -0.0941355526256753, 0.279934154542991, -1.0911408204821, 1.01357532046977, -1.21942224825769], a = 0.2, v = 0.2, t = 0.2)
movej(p[0.399684107509968, -0.0942953351612541, 0.279961143899054, -1.08916185199618, 1.01606353830687, -1.2236873487575], a = 0.2, v = 0.2, t = 0.2)
movej(p[0.397397990545791, -0.0936942797591789, 0.280176358489033, -1.08623530036846, 1.01875049008598, -1.22708869257989], a = 0.2, v = 0.2, t = 0.2)
movej(p[0.395077876470637, -0.0929083359427374, 0.280366596276209, -1.08268994430972, 1.01129020162198, -1.23035558067836], a = 0.2, v = 0.2, t = 0.2)
movej(p[0.392616746222918, -0.0926903442321024, 0.280618015960911, -1.08256648544026, 1.00230385285731, -1.23711990667785], a = 0.2, v = 0.2, t = 0.2)
movej(p[0.390602937472574, -0.0921945718842119, 0.280784509762919, -1.08410257829927, 0.998861784583726, -1.23959341082744], a = 0.2, v = 0.2, t = 0.2)
movej(p[0.388263225880162, -0.0913738018826821, 0.280968636564124, -1.07904144109406, 0.988910061353493, -1.2435919191522], a = 0.2, v = 0.2, t = 0.2)
movej(p[0.385902597871132, -0.0908083428862021, 0.281192032236161, -1.07831460358055, 0.982954195855631, -1.2393677629559], a = 0.2, v = 0.2, t = 0.2)
movej(p[0.385735253052943, -0.0903583408774587, 0.281270333219244, -1.07698400500642, 0.976303198880735, -1.22131163936607], a = 0.2, v = 0.2, t = 0.2)
movej(p[0.385863670429124, -0.0904471572063064, 0.28116736527654, -1.0831984969476, 0.983472104868137, -1.20265144980341], a = 0.2, v = 0.2, t = 0.2)
movej(p[0.38870416985244, -0.0905691254580727, 0.28082303534507, -1.08078494749463, 0.988335773563666, -1.19341694712001], a = 0.2, v = 0.2, t = 0.2)
movej(p[0.392087669016075, -0.0912282627295128, 0.280508745658516, -1.07321494656703, 0.999734854785087, -1.20131035417552], a = 0.2, v = 0.2, t = 0.2)
movej(p[0.394692278657646, -0.0920565831780886, 0.280275620650188, -1.08089440152232, 0.998918112687602, -1.21622052093586], a = 0.2, v = 0.2, t = 0.2)
movej(p[0.396305568204144, -0.0929024348974959, 0.280154774640996, -1.08407716680867, 1.00137233894585, -1.21519481346722], a = 0.2, v = 0.2, t = 0.2)
movej(p[0.397056194478158, -0.0930299858449081, 0.2800486863166, -1.08562061916373, 1.00471223033215, -1.21257106342648], a = 0.2, v = 0.2, t = 0.2)
movej(p[0.397891257058213, -0.0931430654340515, 0.279953435889242, -1.08733026206535, 1.00800546907248, -1.21541000061265], a = 0.2, v = 0.2, t = 0.2)
movej(p[0.398488596366137, -0.0934430912739898, 0.279917532872959, -1.08882008487892, 1.00672328824043, -1.21449994756592], a = 0.2, v = 0.2, t = 0.2)
movej(p[0.399312729568894, -0.0938604115837631, 0.279845783565202, -1.0911509771022, 1.00861189603961, -1.21070233792307], a = 0.2, v = 0.2, t = 0.2)
movej(p[0.399670228915784, -0.0939279578561043, 0.279768851854798, -1.09464017804218, 1.01025398425659, -1.20758949526314], a = 0.2, v = 0.2, t = 0.2)
movej(p[0.400003523576525, -0.0937967247491531, 0.279753731644428, -1.09322107167428, 1.01322316996073, -1.20864201355927], a = 0.2, v = 0.2, t = 0.2)
movej(p[0.400259002134623, -0.0938971975442816, 0.279720401571048, -1.09049279427682, 1.01316947218073, -1.20829311184011], a = 0.2, v = 0.2, t = 0.2)
movej(p[0.400366044866013, -0.0941729996611153, 0.279836960937923, -1.09147374067059, 1.01576798999494, -1.21318476804758], a = 0.2, v = 0.2, t = 0.2)
movej(p[0.399884277687767, -0.0943181334109948, 0.279791846410212, -1.08848274945156, 1.01727142509379, -1.21659271916759], a = 0.2, v = 0.2, t = 0.2)
movej(p[0.39886339594037, -0.0941226946846857, 0.279899294360823, -1.08734947497019, 1.01783694034616, -1.21778344611601], a = 0.2, v = 0.2, t = 0.2)
movej(p[0.395809886908396, -0.0931559662732194, 0.280202816337153, -1.08323340066532, 1.01313972177366, -1.23104171595442], a = 0.2, v = 0.2, t = 0.2)
movej(p[0.392861542291528, -0.0926882145630553, 0.280490082934282, -1.08450501759552, 1.00725344091971, -1.23489696374985], a = 0.2, v = 0.2, t = 0.2)
movej(p[0.390690391659665, -0.0919719664121955, 0.280670361968421, -1.08202110864535, 0.99409225981655, -1.23392750437904], a = 0.2, v = 0.2, t = 0.2)
movej(p[0.388610628177662, -0.0912625485644607, 0.280842000065135, -1.07934346645249, 0.989889017402786, -1.23467981458993], a = 0.2, v = 0.2, t = 0.2)
movej(p[0.386178538800128, -0.0906154925530255, 0.281040774202659, -1.07141075233551, 0.972093418082745, -1.23184366481584], a = 0.2, v = 0.2, t = 0.2)
movej(p[0.385075104075907, -0.0905376654625272, 0.281071332562692, -1.07499691987629, 0.963842677689252, -1.22698166376784], a = 0.2, v = 0.2, t = 0.2)
movej(p[0.385144446902578, -0.0904061098031344, 0.281186810573027, -1.08389060571004, 0.966175775982578, -1.19619635200385], a = 0.2, v = 0.2, t = 0.2)
movej(p[0.388075665041196, -0.0902364900871925, 0.280723749382902, -1.0848471676692, 0.977730469637619, -1.18145929182935], a = 0.2, v = 0.2, t = 0.2)
movej(p[0.392042087292354, -0.0910394012471191, 0.280379241770812, -1.07880787445482, 0.992138706471851, -1.18933007154554], a = 0.2, v = 0.2, t = 0.2)
movej(p[0.394903645613806, -0.0921546322162386, 0.280196310777149, -1.08393241992035, 0.996514320118951, -1.20904617739149], a = 0.2, v = 0.2, t = 0.2)
movej(p[0.396711207899389, -0.092903664876532, 0.280076928544157, -1.08932792454939, 0.996067840129148, -1.20906660694518], a = 0.2, v = 0.2, t = 0.2)
movej(p[0.397441814937745, -0.0932143943444663, 0.279988400112215, -1.09468592518293, 1.00113386406174, -1.20780479642909], a = 0.2, v = 0.2, t = 0.2)
movej(p[0.398041140167215, -0.0932175067706155, 0.279939614129358, -1.09849194722369, 1.0019568070614, -1.20244005977074], a = 0.2, v = 0.2, t = 0.2)
movej(p[0.398555847977496, -0.093669164665638, 0.279914477982081, -1.10185811923676, 0.999408978832128, -1.20377640123809], a = 0.2, v = 0.2, t = 0.2)
movej(p[0.398939217927994, -0.0938686289750284, 0.279897963432898, -1.09899253104664, 1.00540962951778, -1.20571219159974], a = 0.2, v = 0.2, t = 0.2)
movej(p[0.399317912658865, -0.0939341503648049, 0.279844879270554, -1.09915454565096, 1.00592508306975, -1.20222842439138], a = 0.2, v = 0.2, t = 0.2)
movej(p[0.399643438109991, -0.0938057218609485, 0.27980074141756, -1.0965854268139, 1.00616455610825, -1.20343064594088], a = 0.2, v = 0.2, t = 0.2)
movej(p[0.399845836671158, -0.0939417154187172, 0.279813568135093, -1.09773345436365, 1.00688144146263, -1.20019380130276], a = 0.2, v = 0.2, t = 0.2)
movej(p[0.399935849477367, -0.0940335045386146, 0.279929639028029, -1.09187019010709, 1.01704382648398, -1.21402928854358], a = 0.2, v = 0.2, t = 0.2)
movej(p[0.398337643630117, -0.0938653867192102, 0.279960571674455, -1.0924384894424, 1.01590959604017, -1.21769079156755], a = 0.2, v = 0.2, t = 0.2)
movej(p[0.396648423957197, -0.0934565303030652, 0.280105224422781, -1.08827445211846, 1.02052812420995, -1.22419109025522], a = 0.2, v = 0.2, t = 0.2)
movej(p[0.394979142276616, -0.0931356827095192, 0.280260707388383, -1.08623088923539, 1.01027496705456, -1.23602419200917], a = 0.2, v = 0.2, t = 0.2)
movej(p[0.393507118179036, -0.0929490991032776, 0.280389657588169, -1.08686460894665, 1.00738201408461, -1.23640258074903], a = 0.2, v = 0.2, t = 0.2)
movej(p[0.391840751955411, -0.0922834642283761, 0.280488496659783, -1.08411555214259, 1.0064583918099, -1.23577109837731], a = 0.2, v = 0.2, t = 0.2)
movej(p[0.391242435340605, -0.0920618438806859, 0.280531388499758, -1.08440167435556, 1.00462536650892, -1.23745252830337], a = 0.2, v = 0.2, t = 0.2)
movej(p[0.390772140924928, -0.0919212825489413, 0.280569938397311, -1.08355854827859, 1.00381426821661, -1.23784017894858], a = 0.2, v = 0.2, t = 0.2)
movej(p[0.389317620646592, -0.0917245287523054, 0.280704126300715, -1.08059200337721, 0.99489056333695, -1.23690298975256], a = 0.2, v = 0.2, t = 0.2)
movej(p[0.389382208364284, -0.0915415928405214, 0.280819467918976, -1.08287545570094, 0.985797106923352, -1.22419968144019], a = 0.2, v = 0.2, t = 0.2)
movej(p[0.390175311075006, -0.091569234690684, 0.280588259034274, -1.07904820060979, 0.994741132707594, -1.21006950332135], a = 0.2, v = 0.2, t = 0.2)
movej(p[0.395362268960517, -0.0921186248960851, 0.280116989476431, -1.07956720766701, 0.999169216659403, -1.20870969052831], a = 0.2, v = 0.2, t = 0.2)
movej(p[0.397670809013693, -0.0933875248312373, 0.279952181778032, -1.08899180399394, 1.00086149348968, -1.20832789650582], a = 0.2, v = 0.2, t = 0.2)
movej(p[0.39857112740212, -0.0935519172381987, 0.279853969222864, -1.09118559258488, 1.004907280861, -1.20800971712558], a = 0.2, v = 0.2, t = 0.2)
movej(p[0.399024779369779, -0.0935919864921341, 0.279814575985775, -1.09232921168719, 1.01103225599457, -1.20670054256372], a = 0.2, v = 0.2, t = 0.2)
movej(p[0.399393265208182, -0.0938312188919451, 0.279787804624639, -1.09474992236184, 1.00865664219511, -1.20741415301668], a = 0.2, v = 0.2, t = 0.2)
movej(p[0.39961816956191, -0.0939108811265041, 0.279769398645735, -1.09481989138981, 1.00924476991453, -1.20759938262208], a = 0.2, v = 0.2, t = 0.2)
movej(p[0.399709425368961, -0.093934518585777, 0.279751876140245, -1.09700205902315, 1.00737804125035, -1.2076484188738], a = 0.2, v = 0.2, t = 0.2)
movej(p[0.399910833026218, -0.0939354036656458, 0.279736105527326, -1.09515853397937, 1.00966725486487, -1.20740641197771], a = 0.2, v = 0.2, t = 0.2)
movej(p[0.40020432971621, -0.0940916777042928, 0.279753054503947, -1.09876090990183, 1.01463071453025, -1.20557978713601], a = 0.2, v = 0.2, t = 0.2)
movej(p[0.400294342522418, -0.0941834668241902, 0.279869125396883, -1.09359191619658, 1.01814215243011, -1.20846353225324], a = 0.2, v = 0.2, t = 0.2)
movej(p[0.399119724644934, -0.0939766020494644, 0.279842146944867, -1.09099092217563, 1.01909471867084, -1.21605216200901], a = 0.2, v = 0.2, t = 0.2)
movej(p[0.397710774409673, -0.0936833621861381, 0.279967154973064, -1.08626091134855, 1.01951157415625, -1.22238233671186], a = 0.2, v = 0.2, t = 0.2)
movej(p[0.396068441194162, -0.0934264913181843, 0.280127306858551, -1.08560835863235, 1.02065798406089, -1.2351743841923], a = 0.2, v = 0.2, t = 0.2)
movej(p[0.39481285545382, -0.0932797083480457, 0.280227261940093, -1.08550191959621, 1.01786081261423, -1.23510938331103], a = 0.2, v = 0.2, t = 0.2)
movej(p[0.393247831324624, -0.0928725628123248, 0.280315688450709, -1.08718118173496, 1.02038131184442, -1.23202692311422], a = 0.2, v = 0.2, t = 0.2)
movej(p[0.392800698319537, -0.0926850717125053, 0.280352539546354, -1.08727756517629, 1.01787142479084, -1.23364799838226], a = 0.2, v = 0.2, t = 0.2)
movej(p[0.391121063284311, -0.0922132661169012, 0.280496376497092, -1.08724324641232, 1.01130867048299, -1.24019420853018], a = 0.2, v = 0.2, t = 0.2)
movej(p[0.389479174915852, -0.0921321302216373, 0.280646098546301, -1.08780066863711, 1.00714459635009, -1.24088171577085], a = 0.2, v = 0.2, t = 0.2)
movej(p[0.387815475932115, -0.0915829461659737, 0.280782509449521, -1.0861303016507, 0.999913621486835, -1.23709499882618], a = 0.2, v = 0.2, t = 0.2)
movej(p[0.38645274859365, -0.091004076575756, 0.280852181025648, -1.08558692292081, 0.99282278407458, -1.22477274606618], a = 0.2, v = 0.2, t = 0.2)
movej(p[0.386542761399858, -0.0910958656956534, 0.280968251918584, -1.0842995778783, 0.988982245281846, -1.21666173155407], a = 0.2, v = 0.2, t = 0.2)
movej(p[0.387568593932777, -0.0909977932322428, 0.280749195450232, -1.08512961710581, 0.990990359904366, -1.21051422282196], a = 0.2, v = 0.2, t = 0.2)
movej(p[0.387976131471877, -0.0911337039870215, 0.280715950887381, -1.08514042292941, 0.995991731668786, -1.2048995507316], a = 0.2, v = 0.2, t = 0.2)
movej(p[0.390327772200238, -0.0911841905978961, 0.280457557917591, -1.08550420471248, 1.00209523599774, -1.19882229675911], a = 0.2, v = 0.2, t = 0.2)
movej(p[0.393675556034488, -0.0919148880063347, 0.280156849543182, -1.08379832584701, 1.00640474934467, -1.19921634368797], a = 0.2, v = 0.2, t = 0.2)
movej(p[0.396214833641171, -0.0927926988328793, 0.279939215425919, -1.08957833591935, 1.01101638122633, -1.21231021443698], a = 0.2, v = 0.2, t = 0.2)
movej(p[0.397827274530521, -0.0934937866290306, 0.279790232673764, -1.09137636123414, 1.01214291688327, -1.21390592729228], a = 0.2, v = 0.2, t = 0.2)
movej(p[0.398597676450373, -0.0936386793159309, 0.279725654804716, -1.09173018980857, 1.01256515567357, -1.21417229363742], a = 0.2, v = 0.2, t = 0.2)
movej(p[0.399135407403634, -0.0937963213902362, 0.279678593054703, -1.09274967065505, 1.01507264618515, -1.21512351464454], a = 0.2, v = 0.2, t = 0.2)
movej(p[0.39979332449546, -0.0942281456702693, 0.279635276990054, -1.09514707970419, 1.01693350383085, -1.21125160745061], a = 0.2, v = 0.2, t = 0.2)
movej(p[0.400065642116366, -0.09425151002743, 0.279612647139004, -1.09734415841309, 1.01696246167037, -1.20989941126556], a = 0.2, v = 0.2, t = 0.2)
movej(p[0.400321944389503, -0.0943283377303498, 0.279567395190437, -1.09855146363627, 1.01624146042305, -1.20824455967], a = 0.2, v = 0.2, t = 0.2)
movej(p[0.400393591048044, -0.0942216756040924, 0.279682939282203, -1.09100110173428, 1.02321295665813, -1.21426434167789], a = 0.2, v = 0.2, t = 0.2)
movej(p[0.399641948849891, -0.094391774364285, 0.279642052270365, -1.09297448182181, 1.02588179850344, -1.22161760460956], a = 0.2, v = 0.2, t = 0.2)
movej(p[0.397775340125864, -0.0941184295322114, 0.279791433139835, -1.09063832650868, 1.02550496521207, -1.22856428027864], a = 0.2, v = 0.2, t = 0.2)
movej(p[0.395498956126213, -0.0935420417006703, 0.279984158835544, -1.08628027145983, 1.02066288472668, -1.23441876102913], a = 0.2, v = 0.2, t = 0.2)
movej(p[0.393098867551957, -0.092934629436784, 0.280173892405063, -1.08593452908218, 1.01350723257856, -1.2388584445406], a = 0.2, v = 0.2, t = 0.2)
movej(p[0.391099019972875, -0.0927455953090797, 0.280333391210715, -1.08188870236217, 1.00629971666279, -1.24456834069696], a = 0.2, v = 0.2, t = 0.2)
movej(p[0.389197371853491, -0.0923104797766455, 0.28048684531942, -1.07926814837681, 0.997707605449629, -1.24577748295017], a = 0.2, v = 0.2, t = 0.2)
movej(p[0.386336098416685, -0.0914364517325999, 0.280706861859816, -1.07558644872431, 0.990281377069973, -1.24351074873684], a = 0.2, v = 0.2, t = 0.2)
movej(p[0.384273063375117, -0.0910594443101507, 0.280864737382568, -1.07553514257052, 0.97930254024747, -1.24194648249123], a = 0.2, v = 0.2, t = 0.2)
movej(p[0.384341549176333, -0.0909186282564316, 0.280980190810611, -1.07191304917207, 0.977676923139766, -1.23270612796503], a = 0.2, v = 0.2, t = 0.2)
movej(p[0.385006464296284, -0.0909561769707844, 0.280805061294791, -1.07327984399658, 0.984727276475116, -1.22312589185982], a = 0.2, v = 0.2, t = 0.2)
movej(p[0.386553028818426, -0.0909138605521657, 0.280659491416155, -1.07471663425773, 0.993936233701136, -1.22064642934323], a = 0.2, v = 0.2, t = 0.2)
movej(p[0.388942253538135, -0.0913479351202251, 0.280470002529678, -1.07442398057042, 0.999338743391789, -1.22030927223331], a = 0.2, v = 0.2, t = 0.2)
movej(p[0.392040110777907, -0.0922443276774162, 0.280223033573325, -1.07455296066774, 1.00985204681212, -1.2329156602231], a = 0.2, v = 0.2, t = 0.2)
movej(p[0.394618429173047, -0.0927324634196308, 0.280012151899256, -1.07806565553871, 1.01350623515294, -1.23419335790016], a = 0.2, v = 0.2, t = 0.2)
movej(p[0.396374754495841, -0.0931867470549998, 0.27986077832446, -1.07659801392547, 1.01664146039691, -1.23764549208578], a = 0.2, v = 0.2, t = 0.2)
movej(p[0.397535958058283, -0.0936336947115222, 0.27976507712853, -1.07746645159517, 1.01701396667428, -1.23815129655104], a = 0.2, v = 0.2, t = 0.2)
movej(p[0.398320790546917, -0.0941122290834648, 0.279681341893099, -1.08392480466308, 1.01974517080177, -1.23536778779754], a = 0.2, v = 0.2, t = 0.2)
movej(p[0.398562496660496, -0.0941099145414891, 0.279655114854494, -1.08367607531433, 1.01948590757616, -1.23291667448737], a = 0.2, v = 0.2, t = 0.2)
movej(p[0.398801531557982, -0.0940715241383016, 0.279616928014786, -1.08524838101256, 1.0193613581578, -1.23096302294133], a = 0.2, v = 0.2, t = 0.2)
movej(p[0.398935018907044, -0.0940756415677338, 0.279578645323978, -1.08790560491831, 1.02001845626106, -1.22854337834151], a = 0.2, v = 0.2, t = 0.2)
movej(p[0.399014314287393, -0.0940516259714857, 0.279694408806096, -1.08630756879226, 1.03341447023665, -1.23196857305274], a = 0.2, v = 0.2, t = 0.2)
movej(p[0.397392129751471, -0.0940370132808465, 0.279671738766653, -1.08598208524758, 1.03149842155815, -1.23401786850191], a = 0.2, v = 0.2, t = 0.2)
movej(p[0.395166916095421, -0.0933939743250221, 0.279846215803026, -1.08460221578815, 1.02555286830831, -1.2445500233202], a = 0.2, v = 0.2, t = 0.2)
movej(p[0.39279870441919, -0.0929409028786229, 0.28002797031059, -1.07921391922926, 1.01453282132171, -1.25058301160816], a = 0.2, v = 0.2, t = 0.2)
movej(p[0.39101260420036, -0.0928753367073549, 0.28013463059129, -1.07862504307777, 1.00915244756384, -1.25110809426787], a = 0.2, v = 0.2, t = 0.2)
movej(p[0.388877486044055, -0.0922176325571381, 0.280309162391846, -1.07596327071039, 1.00578231482108, -1.24954382137026], a = 0.2, v = 0.2, t = 0.2)
movej(p[0.386909569550934, -0.0915936216248739, 0.280461785497949, -1.08071319761223, 0.997998819196728, -1.2415184356211], a = 0.2, v = 0.2, t = 0.2)
movej(p[0.386945755629333, -0.0911037982365975, 0.280576312464326, -1.08238728772307, 0.98752695711619, -1.22183536308759], a = 0.2, v = 0.2, t = 0.2)
movej(p[0.38747846057543, -0.0911552367690484, 0.280459041334956, -1.07672846533177, 0.99375766501878, -1.20875357835261], a = 0.2, v = 0.2, t = 0.2)
movej(p[0.391695677250826, -0.0914289210792876, 0.280175639110033, -1.07903395326611, 0.995543678059934, -1.20495543587652], a = 0.2, v = 0.2, t = 0.2)
movej(p[0.393672575699712, -0.0918548680552572, 0.280020273069815, -1.08091528015723, 1.00433303467909, -1.21276907699571], a = 0.2, v = 0.2, t = 0.2)
movej(p[0.394955061152909, -0.0922775916695288, 0.279903520775296, -1.08195563400735, 1.00957036594969, -1.22085549478936], a = 0.2, v = 0.2, t = 0.2)
movej(p[0.396803220666995, -0.093050618490614, 0.279733766970105, -1.0889344051865, 1.01248379587031, -1.22316281109881], a = 0.2, v = 0.2, t = 0.2)
movej(p[0.397635087136774, -0.0934759312362074, 0.279635140021997, -1.09176237704772, 1.01476328633184, -1.21907719257527], a = 0.2, v = 0.2, t = 0.2)
movej(p[0.398214407881546, -0.0935351162850089, 0.279590005282878, -1.09394235200128, 1.0163752107042, -1.21737624654884], a = 0.2, v = 0.2, t = 0.2)
movej(p[0.398541246615805, -0.0935883812237506, 0.279568304635687, -1.09431537551726, 1.0157751558177, -1.21645501673329], a = 0.2, v = 0.2, t = 0.2)
movej(p[0.399118703382742, -0.0939741415077826, 0.279480538437281, -1.09793556826009, 1.0187485632816, -1.21196764320647], a = 0.2, v = 0.2, t = 0.2)
movej(p[0.399400149028856, -0.0940485606593591, 0.279466025058553, -1.10095578929593, 1.02218878683505, -1.2065348581372], a = 0.2, v = 0.2, t = 0.2)
movej(p[0.399712125896206, -0.0939192899672417, 0.279454857140297, -1.09938690401875, 1.02043843447287, -1.20465950973115], a = 0.2, v = 0.2, t = 0.2)
movej(p[0.399801171093029, -0.0940006238032223, 0.279570900279032, -1.09730814951664, 1.02487468838865, -1.2119787739287], a = 0.2, v = 0.2, t = 0.2)
movej(p[0.399381475382107, -0.0941402210966238, 0.279447393656095, -1.09621101131465, 1.02411407961193, -1.21781810569243], a = 0.2, v = 0.2, t = 0.2)
movej(p[0.397405358762897, -0.0936948665657686, 0.279622756334923, -1.09376608875075, 1.02529719003915, -1.22109507717857], a = 0.2, v = 0.2, t = 0.2)
movej(p[0.39541742442344, -0.0930331376023616, 0.279814010723102, -1.09122382008236, 1.02596402103159, -1.22344344422934], a = 0.2, v = 0.2, t = 0.2)
movej(p[0.393574167259795, -0.0925945030038794, 0.279976227392053, -1.08581686948515, 1.0160791544101, -1.2329452366227], a = 0.2, v = 0.2, t = 0.2)
movej(p[0.392131975399889, -0.0925566997786827, 0.280068891977451, -1.08506888204671, 1.00968146477417, -1.23638055388154], a = 0.2, v = 0.2, t = 0.2)
movej(p[0.390786833754418, -0.092160022595924, 0.280200196418725, -1.08693028021342, 1.00724131833773, -1.23955408845994], a = 0.2, v = 0.2, t = 0.2)
movej(p[0.389200783766055, -0.0917638588478368, 0.280327431866283, -1.07929248562154, 1.00107773165339, -1.24192899329174], a = 0.2, v = 0.2, t = 0.2)
movej(p[0.38798457883642, -0.0914369721618774, 0.280468110200343, -1.08194890803187, 0.985970996757243, -1.23157261312377], a = 0.2, v = 0.2, t = 0.2)
movej(p[0.388060381607655, -0.0913752179693961, 0.280583773503011, -1.07896802618532, 0.980180116089456, -1.21004240781876], a = 0.2, v = 0.2, t = 0.2)
movej(p[0.3905665169974, -0.0912442841981209, 0.280367216337795, -1.08487230637554, 0.99476526920823, -1.19431376204219], a = 0.2, v = 0.2, t = 0.2)
movej(p[0.393403343259176, -0.0915497681539484, 0.280213682617626, -1.08345921020922, 0.998800522736163, -1.19439634091837], a = 0.2, v = 0.2, t = 0.2)
movej(p[0.394365996864735, -0.0917127101959071, 0.280153224229732, -1.08763078454618, 0.996619394226156, -1.20094551310854], a = 0.2, v = 0.2, t = 0.2)
movej(p[0.396574814548048, -0.092534028598331, 0.279937408095664, -1.0892663076693, 1.00115144876123, -1.20984082599001], a = 0.2, v = 0.2, t = 0.2)
movej(p[0.398161943634051, -0.0932844939472368, 0.279775295991075, -1.09734056694069, 1.00702252087363, -1.21041011690159], a = 0.2, v = 0.2, t = 0.2)
movej(p[0.398776828587246, -0.093535415662419, 0.27969328228987, -1.10051303528012, 1.00957043700618, -1.20616986796098], a = 0.2, v = 0.2, t = 0.2)
movej(p[0.399094607461593, -0.0935224534233933, 0.279701860015544, -1.09837875383528, 1.01375667441378, -1.20270445299387], a = 0.2, v = 0.2, t = 0.2)
movej(p[0.399343380810862, -0.0937634380539831, 0.279670219400613, -1.10085401193832, 1.01565133704126, -1.19879915851896], a = 0.2, v = 0.2, t = 0.2)
movej(p[0.399440312372688, -0.0937619295071332, 0.279658703906343, -1.1007994705485, 1.01438699726093, -1.20418972279572], a = 0.2, v = 0.2, t = 0.2)
movej(p[0.399524519522584, -0.0937909869235296, 0.279774608274073, -1.09897697433095, 1.01507319561512, -1.20634041328094], a = 0.2, v = 0.2, t = 0.2)
movej(p[0.399159704994345, -0.0939254451471589, 0.279673688721537, -1.09536464394873, 1.02141146632294, -1.2169161072295], a = 0.2, v = 0.2, t = 0.2)
movej(p[0.397493436758984, -0.0936252431914739, 0.279777941844418, -1.09361821700104, 1.02363685084946, -1.21920174130566], a = 0.2, v = 0.2, t = 0.2)
movej(p[0.395897053012234, -0.0934082201815267, 0.279857680456541, -1.09115204377515, 1.02112072555795, -1.23292932823006], a = 0.2, v = 0.2, t = 0.2)
movej(p[0.394362458294479, -0.0928592072902218, 0.2800062671229, -1.08815272514783, 1.01970970099779, -1.23673651701336], a = 0.2, v = 0.2, t = 0.2)
movej(p[0.393045067262285, -0.0926942263570201, 0.280112284385526, -1.08883922167713, 1.01654968687706, -1.23743386685936], a = 0.2, v = 0.2, t = 0.2)
movej(p[0.392580113594221, -0.0925903786132299, 0.280094311554248, -1.08730512065878, 1.01339399147712, -1.2396422492916], a = 0.2, v = 0.2, t = 0.2)
movej(p[0.392307268256464, -0.0927158196840133, 0.280183872759157, -1.08933596426471, 1.00588489861345, -1.2327477699462], a = 0.2, v = 0.2, t = 0.2)
movej(p[0.392330313277877, -0.092084003582733, 0.28029802279705, -1.08561153552819, 1.00104220302784, -1.2030160440586], a = 0.2, v = 0.2, t = 0.2)
movej(p[0.393952110960745, -0.0920345272693147, 0.280226763129245, -1.08301930232428, 1.00066563766993, -1.20198503906774], a = 0.2, v = 0.2, t = 0.2)
movej(p[0.395026577807441, -0.0920873191258131, 0.280157654553516, -1.08416607768934, 1.00139616097579, -1.19874919176091], a = 0.2, v = 0.2, t = 0.2)
movej(p[0.396592927922142, -0.0926604287738862, 0.280001312174552, -1.09286604205292, 1.01024029784034, -1.20014347169123], a = 0.2, v = 0.2, t = 0.2)
movej(p[0.397947685880817, -0.0930032889298333, 0.279908468936399, -1.09128386564835, 1.01071251878876, -1.20589202755306], a = 0.2, v = 0.2, t = 0.2)
movej(p[0.39859080819115, -0.0934119382475851, 0.27980449105869, -1.0948245967845, 1.01040121372013, -1.20802609300038], a = 0.2, v = 0.2, t = 0.2)
movej(p[0.398832942650639, -0.0936006962842969, 0.279778893459099, -1.0956728285416, 1.01085258438812, -1.20493466497899], a = 0.2, v = 0.2, t = 0.2)
movej(p[0.399352001111327, -0.0939250680443422, 0.279694413131958, -1.09873092961439, 1.01294175881152, -1.20219039895961], a = 0.2, v = 0.2, t = 0.2)
movej(p[0.399858453388364, -0.0939106441088587, 0.279691111440092, -1.09655391366436, 1.01209049874286, -1.20110664425665], a = 0.2, v = 0.2, t = 0.2)
movej(p[0.400004005165032, -0.0939920871463762, 0.27968760402672, -1.10017594999331, 1.01102771867797, -1.20097428211761], a = 0.2, v = 0.2, t = 0.2)
movej(p[0.40009401797124, -0.0940838762662736, 0.279803674919656, -1.09818844431866, 1.02099116979861, -1.21076436477965], a = 0.2, v = 0.2, t = 0.2)
movej(p[0.398910995280433, -0.0939868971982035, 0.279684685704216, -1.09526727230581, 1.02207852005481, -1.21362383624715], a = 0.2, v = 0.2, t = 0.2)
movej(p[0.397129803403924, -0.0934532304568186, 0.279812063717222, -1.09326273936884, 1.02116886209809, -1.21831658384645], a = 0.2, v = 0.2, t = 0.2)
movej(p[0.394942577295228, -0.0932131793917256, 0.27992132828416, -1.09084273774593, 1.01588349101577, -1.22754016479394], a = 0.2, v = 0.2, t = 0.2)
movej(p[0.393210907033102, -0.0929348474660773, 0.280006710088032, -1.0904956722842, 1.01333801276414, -1.22709664234888], a = 0.2, v = 0.2, t = 0.2)
movej(p[0.391020089750686, -0.0923896991568417, 0.280126897799568, -1.09135184916406, 1.0096266512133, -1.22822582567503], a = 0.2, v = 0.2, t = 0.2)
movej(p[0.389169244794179, -0.0920446703273976, 0.280210464322922, -1.08801921610176, 1.00204641460893, -1.23323031295869], a = 0.2, v = 0.2, t = 0.2)
movej(p[0.387390403153969, -0.0918703137987354, 0.280301292952589, -1.07971581978733, 0.992916695906537, -1.2341694898828], a = 0.2, v = 0.2, t = 0.2)
movej(p[0.385746278893408, -0.0917592271567828, 0.280348581152122, -1.07721169333239, 0.986816209516937, -1.23451257058552], a = 0.2, v = 0.2, t = 0.2)
movej(p[0.384129317791589, -0.0911338287911806, 0.280440610872906, -1.07521848292986, 0.977637909409228, -1.22368458576008], a = 0.2, v = 0.2, t = 0.2)
movej(p[0.384179852134875, -0.090799042327271, 0.280555549394437, -1.07169704168415, 0.976804320382326, -1.21737672349264], a = 0.2, v = 0.2, t = 0.2)
movej(p[0.38496629490187, -0.0908269104020552, 0.280471308581002, -1.07895903728947, 0.985868845545181, -1.20827251758671], a = 0.2, v = 0.2, t = 0.2)
movej(p[0.386556667343219, -0.0910757641631979, 0.280375970690507, -1.07789233780721, 0.988801892325987, -1.20973417509473], a = 0.2, v = 0.2, t = 0.2)
movej(p[0.388517791567514, -0.0914085172826622, 0.280277587620975, -1.07810333394089, 1.00344497567857, -1.21467034081057], a = 0.2, v = 0.2, t = 0.2)
movej(p[0.390963326630537, -0.0918828964151529, 0.28015540094339, -1.07298154894898, 1.01067639324785, -1.2189234698916], a = 0.2, v = 0.2, t = 0.2)
movej(p[0.392624881844535, -0.0923946837966469, 0.280032219666482, -1.07638140105137, 1.01503000536317, -1.23573135945784], a = 0.2, v = 0.2, t = 0.2)
movej(p[0.393293994508989, -0.0927401131409069, 0.279949293070074, -1.07925681262091, 1.01239463500859, -1.23691395419508], a = 0.2, v = 0.2, t = 0.2)
movej(p[0.396315153929134, -0.0936153318477342, 0.279721857995188, -1.07717001364183, 1.01137696157684, -1.23570925147518], a = 0.2, v = 0.2, t = 0.2)
movej(p[0.39803518730416, -0.094155524625182, 0.279608747376819, -1.09190135057554, 1.01054696419891, -1.21667173530918], a = 0.2, v = 0.2, t = 0.2)
movej(p[0.399198921744267, -0.0947580456625534, 0.279420708172303, -1.09259855289892, 1.00975191198145, -1.21486097427737], a = 0.2, v = 0.2, t = 0.2)
movej(p[0.39954649563313, -0.09480141774151, 0.279376276825853, -1.08897266817128, 1.01101496296569, -1.21571514615744], a = 0.2, v = 0.2, t = 0.2)
movej(p[0.399636508439338, -0.0948932068614074, 0.279492347718789, -1.09049223251361, 1.01180488468896, -1.2199703541235], a = 0.2, v = 0.2, t = 0.2)
movej(p[0.398076616272695, -0.0945961646575779, 0.279426659534236, -1.08593728794472, 1.01735501645065, -1.24968201695053], a = 0.2, v = 0.2, t = 0.2)
movej(p[0.395762204336146, -0.0941421281564618, 0.279571763302659, -1.08200785119119, 1.02094843262713, -1.25524919154525], a = 0.2, v = 0.2, t = 0.2)
movej(p[0.393641517884903, -0.0936706170071673, 0.279659283366671, -1.08106043204786, 1.01976438531124, -1.25305845495813], a = 0.2, v = 0.2, t = 0.2)
movej(p[0.390882009664155, -0.09299198463303, 0.27982575186339, -1.07765743342627, 1.0119190563257, -1.25866773817589], a = 0.2, v = 0.2, t = 0.2)
movej(p[0.388280752735439, -0.0923820970498739, 0.279978826246355, -1.07219697347076, 1.00551068256877, -1.26123033060342], a = 0.2, v = 0.2, t = 0.2)
movej(p[0.386001424474035, -0.0920994117141547, 0.280027642716263, -1.06867693310244, 0.996619684540349, -1.26457287287308], a = 0.2, v = 0.2, t = 0.2)
movej(p[0.383796643974183, -0.0914453518697643, 0.280160872132789, -1.06697913620918, 0.991626447716549, -1.26156288167373], a = 0.2, v = 0.2, t = 0.2)
movej(p[0.382694957900302, -0.0910990241220191, 0.280227770681044, -1.07217923054864, 0.978615430081096, -1.25158599801082], a = 0.2, v = 0.2, t = 0.2)
movej(p[0.382539172405463, -0.0906229973577157, 0.28032449404567, -1.06352309715862, 0.981062538270349, -1.23760351919406], a = 0.2, v = 0.2, t = 0.2)
movej(p[0.382614394611067, -0.0905549699948843, 0.280440140695818, -1.06614057289261, 0.982216939863136, -1.22908837817052], a = 0.2, v = 0.2, t = 0.2)
movej(p[0.383266609716236, -0.0905554775783142, 0.280398835745174, -1.07005494280482, 0.988583185345981, -1.2178876660171], a = 0.2, v = 0.2, t = 0.2)
movej(p[0.384642934679109, -0.0904527740648187, 0.280373594214121, -1.07399618966919, 0.991759717843681, -1.21341378979128], a = 0.2, v = 0.2, t = 0.2)
movej(p[0.386465765764366, -0.0906348821033616, 0.280331088486054, -1.06996022941819, 1.001100916891, -1.21763091370146], a = 0.2, v = 0.2, t = 0.2)
movej(p[0.387765665558382, -0.0910803642948558, 0.280227030989549, -1.07462619653365, 1.00676524991495, -1.22160308991112], a = 0.2, v = 0.2, t = 0.2)
movej(p[0.388312305853603, -0.0912639120602325, 0.280173767723919, -1.07460824842741, 1.00916677049289, -1.22321295246904], a = 0.2, v = 0.2, t = 0.2)
movej(p[0.392659256907532, -0.0923117647071545, 0.279918038364853, -1.08021002010518, 1.01565478054614, -1.22394155839143], a = 0.2, v = 0.2, t = 0.2)
movej(p[0.395673290876247, -0.0929016002623722, 0.279813342504236, -1.08093543374609, 1.01602040994597, -1.22090513910725], a = 0.2, v = 0.2, t = 0.2)
movej(p[0.397864496442645, -0.0939803523953307, 0.27951641818488, -1.08955477981047, 1.00809769061781, -1.21279164780686], a = 0.2, v = 0.2, t = 0.2)
movej(p[0.398478305885091, -0.094076764709682, 0.279491344613034, -1.08983898346547, 1.00844960333129, -1.21253061321058], a = 0.2, v = 0.2, t = 0.2)
movej(p[0.399025548234088, -0.0941752145002026, 0.279468380723745, -1.09009308156113, 1.00854534084492, -1.21084441723309], a = 0.2, v = 0.2, t = 0.2)
movej(p[0.399290590829278, -0.0943010937065757, 0.279442779392964, -1.09014537643404, 1.0085280876794, -1.21039053219189], a = 0.2, v = 0.2, t = 0.2)
movej(p[0.399380603635486, -0.0943928828264731, 0.2795588502859, -1.0885631996134, 1.00680236025331, -1.20850447853289], a = 0.2, v = 0.2, t = 0.2)
movej(p[0.398995260236772, -0.0940695340499337, 0.27951435799693, -1.08753045512737, 1.01596806905099, -1.21865470986928], a = 0.2, v = 0.2, t = 0.2)
