def moving():
set_payload_mass(0)
set_tcp(p[0,0,0,0,0,0])
movej(p[-0.5154, -0.2277, 0.4123, -0.866, -1.573, 1.671], a = 0.2, v = 0.2, t = 0.2)
movej(p[-0.515393021266937, -0.227690487381658, 0.412519443341038, -0.866, -1.573, 1.671], a = 0.2, v = 0.2, t = 0.2)
movej(p[-0.515386042533873, -0.227680974763317, 0.412738886682077, -0.866, -1.573, 1.671], a = 0.2, v = 0.2, t = 0.2)
movej(p[-0.51537906380081, -0.227671462144975, 0.412958330023115, -0.866, -1.573, 1.671], a = 0.2, v = 0.2, t = 0.2)
movej(p[-0.515372085067747, -0.227661949526634, 0.413177773364154, -0.866, -1.573, 1.671], a = 0.2, v = 0.2, t = 0.2)
movej(p[-0.515365106334683, -0.227652436908292, 0.413397216705192, -0.866, -1.573, 1.671], a = 0.2, v = 0.2, t = 0.2)
movej(p[-0.51535812760162, -0.227642924289951, 0.413616660046231, -0.866, -1.573, 1.671], a = 0.2, v = 0.2, t = 0.2)
movej(p[-0.515351148868556, -0.227633411671609, 0.413836103387269, -0.866, -1.573, 1.671], a = 0.2, v = 0.2, t = 0.2)
movej(p[-0.515344170135493, -0.227623899053268, 0.414055546728308, -0.866, -1.573, 1.671], a = 0.2, v = 0.2, t = 0.2)
movej(p[-0.51533719140243, -0.227614386434927, 0.414274990069346, -0.866, -1.573, 1.671], a = 0.2, v = 0.2, t = 0.2)
movej(p[-0.515330212669367, -0.227604873816585, 0.414494433410385, -0.866, -1.573, 1.671], a = 0.2, v = 0.2, t = 0.2)
movej(p[-0.515348530401771, -0.227629842474314, 0.413918439979692, -0.866, -1.573, 1.671], a = 0.2, v = 0.2, t = 0.2)
movej(p[-0.515358744729254, -0.227643765488432, 0.41359725472599, -0.866, -1.573, 1.671], a = 0.2, v = 0.2, t = 0.2)
movej(p[-0.515367684428633, -0.227655951073911, 0.413316149619701, -0.866, -1.573, 1.671], a = 0.2, v = 0.2, t = 0.2)
movej(p[-0.515370833509834, -0.227660243544667, 0.413217128079034, -0.866, -1.573, 1.671], a = 0.2, v = 0.2, t = 0.2)
movej(p[-0.515371813992991, -0.227661580028236, 0.413186297196409, -0.866, -1.573, 1.671], a = 0.2, v = 0.2, t = 0.2)
movej(p[-0.515372765638409, -0.227662877203464, 0.413156373104449, -0.866, -1.573, 1.671], a = 0.2, v = 0.2, t = 0.2)
movej(p[-0.515376289610229, -0.227667680682643, 0.413045563285131, -0.866, -1.573, 1.671], a = 0.2, v = 0.2, t = 0.2)
movej(p[-0.515373013642972, -0.22766321525519, 0.413148574704726, -0.866, -1.573, 1.671], a = 0.2, v = 0.2, t = 0.2)
movej(p[-0.515351477618792, -0.227633859786688, 0.413825765973683, -0.866, -1.573, 1.671], a = 0.2, v = 0.2, t = 0.2)
movej(p[-0.51532307244496, -0.227595141071538, 0.414718954779149, -0.866, -1.573, 1.671], a = 0.2, v = 0.2, t = 0.2)
movej(p[-0.515292158387753, -0.227553002530786, 0.41569103437251, -0.866, -1.573, 1.671], a = 0.2, v = 0.2, t = 0.2)
movej(p[-0.515250764695856, -0.227496579339185, 0.416992641693694, -0.866, -1.573, 1.671], a = 0.2, v = 0.2, t = 0.2)
movej(p[-0.515216378574762, -0.227449708074266, 0.418073898883174, -0.866, -1.573, 1.671], a = 0.2, v = 0.2, t = 0.2)
movej(p[-0.515209036486176, -0.227439700170837, 0.418304767786598, -0.866, -1.573, 1.671], a = 0.2, v = 0.2, t = 0.2)
movej(p[-0.515244449230811, -0.227487970812669, 0.417191228849427, -0.866, -1.573, 1.671], a = 0.2, v = 0.2, t = 0.2)
movej(p[-0.515293052357691, -0.227554221089334, 0.415662923861881, -0.866, -1.573, 1.671], a = 0.2, v = 0.2, t = 0.2)
movej(p[-0.515328609291026, -0.227602688272867, 0.414544850971383, -0.866, -1.573, 1.671], a = 0.2, v = 0.2, t = 0.2)
movej(p[-0.515355036195899, -0.227638710435876, 0.413713868005567, -0.866, -1.573, 1.671], a = 0.2, v = 0.2, t = 0.2)
movej(p[-0.515364016268114, -0.227650951053031, 0.413431493392346, -0.866, -1.573, 1.671], a = 0.2, v = 0.2, t = 0.2)
movej(p[-0.515368001643772, -0.227656383465654, 0.413306174922381, -0.866, -1.573, 1.671], a = 0.2, v = 0.2, t = 0.2)
movej(p[-0.515372759870861, -0.227662869341796, 0.413156554462582, -0.866, -1.573, 1.671], a = 0.2, v = 0.2, t = 0.2)
movej(p[-0.515373284717728, -0.227663584753589, 0.413140050872471, -0.866, -1.573, 1.671], a = 0.2, v = 0.2, t = 0.2)
movej(p[-0.515364454601761, -0.227651548539803, 0.413417710174231, -0.866, -1.573, 1.671], a = 0.2, v = 0.2, t = 0.2)
movej(p[-0.515338483333179, -0.22761614744857, 0.414234365847534, -0.866, -1.573, 1.671], a = 0.2, v = 0.2, t = 0.2)
movej(p[-0.515305769801001, -0.227571556067386, 0.415263029178418, -0.866, -1.573, 1.671], a = 0.2, v = 0.2, t = 0.2)
movej(p[-0.515267127229493, -0.227518882891445, 0.416478128670119, -0.866, -1.573, 1.671], a = 0.2, v = 0.2, t = 0.2)
movej(p[-0.515230739769248, -0.227469283627712, 0.417622317131781, -0.866, -1.573, 1.671], a = 0.2, v = 0.2, t = 0.2)
movej(p[-0.515211112803451, -0.227442530371335, 0.418239478858685, -0.866, -1.573, 1.671], a = 0.2, v = 0.2, t = 0.2)
movej(p[-0.515227550315211, -0.22746493612528, 0.41772260817938, -0.866, -1.573, 1.671], a = 0.2, v = 0.2, t = 0.2)
movej(p[-0.515271787408266, -0.22752523511923, 0.416331591298582, -0.866, -1.573, 1.671], a = 0.2, v = 0.2, t = 0.2)
movej(p[-0.515315217044602, -0.227584433479653, 0.414965964556417, -0.866, -1.573, 1.671], a = 0.2, v = 0.2, t = 0.2)
movej(p[-0.515348207419083, -0.227629402220904, 0.413928596035145, -0.866, -1.573, 1.671], a = 0.2, v = 0.2, t = 0.2)
movej(p[-0.515360636484994, -0.227646344115553, 0.413537769258337, -0.866, -1.573, 1.671], a = 0.2, v = 0.2, t = 0.2)
movej(p[-0.515367107673834, -0.227655164907106, 0.41333428543301, -0.866, -1.573, 1.671], a = 0.2, v = 0.2, t = 0.2)
movej(p[-0.515370908487957, -0.227660345746352, 0.413214770423304, -0.866, -1.573, 1.671], a = 0.2, v = 0.2, t = 0.2)
movej(p[-0.515373982591034, -0.227664536015423, 0.413118106538367, -0.866, -1.573, 1.671], a = 0.2, v = 0.2, t = 0.2)
movej(p[-0.515371364124248, -0.227660966818128, 0.41320044313079, -0.866, -1.573, 1.671], a = 0.2, v = 0.2, t = 0.2)
movej(p[-0.515352838760117, -0.227635715140348, 0.413782965454274, -0.866, -1.573, 1.671], a = 0.2, v = 0.2, t = 0.2)
movej(p[-0.515325091086755, -0.227597892655356, 0.414655479432568, -0.866, -1.573, 1.671], a = 0.2, v = 0.2, t = 0.2)
movej(p[-0.51528328789895, -0.227540911285323, 0.415969963181202, -0.866, -1.573, 1.671], a = 0.2, v = 0.2, t = 0.2)
movej(p[-0.515246588991114, -0.227490887491516, 0.417123944982051, -0.866, -1.573, 1.671], a = 0.2, v = 0.2, t = 0.2)
movej(p[-0.515220173621337, -0.227454881051843, 0.417954565231601, -0.866, -1.573, 1.671], a = 0.2, v = 0.2, t = 0.2)
movej(p[-0.515210115017649, -0.227441170302763, 0.41827085381571, -0.866, -1.573, 1.671], a = 0.2, v = 0.2, t = 0.2)
movej(p[-0.515233761964393, -0.227473403141771, 0.417527285470042, -0.866, -1.573, 1.671], a = 0.2, v = 0.2, t = 0.2)
movej(p[-0.515284591364795, -0.227542688022303, 0.415928976243123, -0.866, -1.573, 1.671], a = 0.2, v = 0.2, t = 0.2)
movej(p[-0.515329203348469, -0.227603498024676, 0.414526171083675, -0.866, -1.573, 1.671], a = 0.2, v = 0.2, t = 0.2)
movej(p[-0.515349608933244, -0.22763131260624, 0.413884526008804, -0.866, -1.573, 1.671], a = 0.2, v = 0.2, t = 0.2)
movej(p[-0.515361409336424, -0.227647397579072, 0.413513467268503, -0.866, -1.573, 1.671], a = 0.2, v = 0.2, t = 0.2)
movej(p[-0.515368549560831, -0.227657130324119, 0.413288945899738, -0.866, -1.573, 1.671], a = 0.2, v = 0.2, t = 0.2)
movej(p[-0.515372546471585, -0.227662578460078, 0.413163264713507, -0.866, -1.573, 1.671], a = 0.2, v = 0.2, t = 0.2)
movej(p[-0.515373203972056, -0.227663474690236, 0.413142589886334, -0.866, -1.573, 1.671], a = 0.2, v = 0.2, t = 0.2)
movej(p[-0.515365187080355, -0.227652546971645, 0.413394677691329, -0.866, -1.573, 1.671], a = 0.2, v = 0.2, t = 0.2)
movej(p[-0.515339360000473, -0.227617342422114, 0.414206799411304, -0.866, -1.573, 1.671], a = 0.2, v = 0.2, t = 0.2)
movej(p[-0.515297735606656, -0.227560604763791, 0.415515661057812, -0.866, -1.573, 1.671], a = 0.2, v = 0.2, t = 0.2)
movej(p[-0.51525733970056, -0.227505541640763, 0.416785893421972, -0.866, -1.573, 1.671], a = 0.2, v = 0.2, t = 0.2)
movej(p[-0.515231218475731, -0.227469936146161, 0.417607264406735, -0.866, -1.573, 1.671], a = 0.2, v = 0.2, t = 0.2)
movej(p[-0.515206937098709, -0.227436838523667, 0.418370782147042, -0.866, -1.573, 1.671], a = 0.2, v = 0.2, t = 0.2)
movej(p[-0.515214648310366, -0.227447349573851, 0.418128306323101, -0.866, -1.573, 1.671], a = 0.2, v = 0.2, t = 0.2)
movej(p[-0.515266556242242, -0.227518104586308, 0.416496083125295, -0.866, -1.573, 1.671], a = 0.2, v = 0.2, t = 0.2)
movej(p[-0.5153193754467, -0.227590101742318, 0.41483520534246, -0.866, -1.573, 1.671], a = 0.2, v = 0.2, t = 0.2)
movej(p[-0.515345623557586, -0.227625880193617, 0.414009844478769, -0.866, -1.573, 1.671], a = 0.2, v = 0.2, t = 0.2)
movej(p[-0.515358819707378, -0.227643867690117, 0.41359489707026, -0.866, -1.573, 1.671], a = 0.2, v = 0.2, t = 0.2)
movej(p[-0.515368976359382, -0.227657712087555, 0.413275525397889, -0.866, -1.573, 1.671], a = 0.2, v = 0.2, t = 0.2)
movej(p[-0.515371687106935, -0.227661407071538, 0.413190287075337, -0.866, -1.573, 1.671], a = 0.2, v = 0.2, t = 0.2)
movej(p[-0.515372367677598, -0.227662334748368, 0.413168886815632, -0.866, -1.573, 1.671], a = 0.2, v = 0.2, t = 0.2)
movej(p[-0.515365856115921, -0.227653458925139, 0.413373640147891, -0.866, -1.573, 1.671], a = 0.2, v = 0.2, t = 0.2)
movej(p[-0.515344510420824, -0.227624362891683, 0.414044846598455, -0.866, -1.573, 1.671], a = 0.2, v = 0.2, t = 0.2)
movej(p[-0.515306542652431, -0.227572609530904, 0.415238727188584, -0.866, -1.573, 1.671], a = 0.2, v = 0.2, t = 0.2)
movej(p[-0.515269872582334, -0.227522625045437, 0.416391802198768, -0.866, -1.573, 1.671], a = 0.2, v = 0.2, t = 0.2)
movej(p[-0.515240590741208, -0.227482711356743, 0.417312557440464, -0.866, -1.573, 1.671], a = 0.2, v = 0.2, t = 0.2)
movej(p[-0.515212502782515, -0.227444425033336, 0.418195771548611, -0.866, -1.573, 1.671], a = 0.2, v = 0.2, t = 0.2)
movej(p[-0.515211176246479, -0.227442616849684, 0.418237483919221, -0.866, -1.573, 1.671], a = 0.2, v = 0.2, t = 0.2)
movej(p[-0.515253354324902, -0.22750010922814, 0.416911211891937, -0.866, -1.573, 1.671], a = 0.2, v = 0.2, t = 0.2)
movej(p[-0.515307511600493, -0.227573930291137, 0.415208259022225, -0.866, -1.573, 1.671], a = 0.2, v = 0.2, t = 0.2)
movej(p[-0.515339377303117, -0.227617366007118, 0.414206255336905, -0.866, -1.573, 1.671], a = 0.2, v = 0.2, t = 0.2)
movej(p[-0.515357245166778, -0.227641721454739, 0.413644407840593, -0.866, -1.573, 1.671], a = 0.2, v = 0.2, t = 0.2)
movej(p[-0.515369316644713, -0.22765817592597, 0.413264825268037, -0.866, -1.573, 1.671], a = 0.2, v = 0.2, t = 0.2)
movej(p[-0.515371692874483, -0.227661414933207, 0.413190105717204, -0.866, -1.573, 1.671], a = 0.2, v = 0.2, t = 0.2)
movej(p[-0.515371865900923, -0.227661650783248, 0.413184664973211, -0.866, -1.573, 1.671], a = 0.2, v = 0.2, t = 0.2)
movej(p[-0.515368047784156, -0.227656446358998, 0.413304724057317, -0.866, -1.573, 1.671], a = 0.2, v = 0.2, t = 0.2)
movej(p[-0.515346125334261, -0.227626564158737, 0.41399406632119, -0.866, -1.573, 1.671], a = 0.2, v = 0.2, t = 0.2)
movej(p[-0.515308774693502, -0.22757565199644, 0.415168541591079, -0.866, -1.573, 1.671], a = 0.2, v = 0.2, t = 0.2)
movej(p[-0.515274400107504, -0.227528796454857, 0.416249436064293, -0.866, -1.573, 1.671], a = 0.2, v = 0.2, t = 0.2)
movej(p[-0.51524488179691, -0.227488560437773, 0.417177626989445, -0.866, -1.573, 1.671], a = 0.2, v = 0.2, t = 0.2)
movej(p[-0.515215865262991, -0.227449008385809, 0.418090039757019, -0.866, -1.573, 1.671], a = 0.2, v = 0.2, t = 0.2)
movej(p[-0.5152086788982, -0.227439212747418, 0.418316011990849, -0.866, -1.573, 1.671], a = 0.2, v = 0.2, t = 0.2)
movej(p[-0.515250014914618, -0.227495557322338, 0.417016218250996, -0.866, -1.573, 1.671], a = 0.2, v = 0.2, t = 0.2)
movej(p[-0.515296985825418, -0.227559582746944, 0.415539237615114, -0.866, -1.573, 1.671], a = 0.2, v = 0.2, t = 0.2)
movej(p[-0.51533217940323, -0.22760755464539, 0.414432590287001, -0.866, -1.573, 1.671], a = 0.2, v = 0.2, t = 0.2)
movej(p[-0.515354292182209, -0.227637696280697, 0.413737263204735, -0.866, -1.573, 1.671], a = 0.2, v = 0.2, t = 0.2)
movej(p[-0.515368786030298, -0.227657452652509, 0.413281510216281, -0.866, -1.573, 1.671], a = 0.2, v = 0.2, t = 0.2)
movej(p[-0.515371715944675, -0.227661446379879, 0.413189380284672, -0.866, -1.573, 1.671], a = 0.2, v = 0.2, t = 0.2)
movej(p[-0.515373042480712, -0.22766325456353, 0.413147667914061, -0.866, -1.573, 1.671], a = 0.2, v = 0.2, t = 0.2)
movej(p[-0.515375084192699, -0.22766603759402, 0.413083467134947, -0.866, -1.573, 1.671], a = 0.2, v = 0.2, t = 0.2)
movej(p[-0.515367701731277, -0.227655974658915, 0.413315605545302, -0.866, -1.573, 1.671], a = 0.2, v = 0.2, t = 0.2)
movej(p[-0.515336205151724, -0.22761304208969, 0.414306002310104, -0.866, -1.573, 1.671], a = 0.2, v = 0.2, t = 0.2)
movej(p[-0.515300688591225, -0.227564629937833, 0.41542280569367, -0.866, -1.573, 1.671], a = 0.2, v = 0.2, t = 0.2)
movej(p[-0.51527011481935, -0.227522955235495, 0.416384185157178, -0.866, -1.573, 1.671], a = 0.2, v = 0.2, t = 0.2)
movej(p[-0.515232100910573, -0.227471138981372, 0.417579516612372, -0.866, -1.573, 1.671], a = 0.2, v = 0.2, t = 0.2)
movej(p[-0.515205368325656, -0.227434700149957, 0.418420111559243, -0.866, -1.573, 1.671], a = 0.2, v = 0.2, t = 0.2)
movej(p[-0.515219775660526, -0.227454338596748, 0.417967078942785, -0.866, -1.573, 1.671], a = 0.2, v = 0.2, t = 0.2)
movej(p[-0.515266383215803, -0.227517868736267, 0.416501523869287, -0.866, -1.573, 1.671], a = 0.2, v = 0.2, t = 0.2)
movej(p[-0.515309789781947, -0.227577035650017, 0.415136622559655, -0.866, -1.573, 1.671], a = 0.2, v = 0.2, t = 0.2)
movej(p[-0.515341309431692, -0.227619999665915, 0.41414550036232, -0.866, -1.573, 1.671], a = 0.2, v = 0.2, t = 0.2)
movej(p[-0.515362435959966, -0.227648796955985, 0.413481185520813, -0.866, -1.573, 1.671], a = 0.2, v = 0.2, t = 0.2)
movej(p[-0.515368572631023, -0.227657161770791, 0.413288220467205, -0.866, -1.573, 1.671], a = 0.2, v = 0.2, t = 0.2)
movej(p[-0.515371283378577, -0.227660856754775, 0.413202982144653, -0.866, -1.573, 1.671], a = 0.2, v = 0.2, t = 0.2)
movej(p[-0.515375522526346, -0.227666635080792, 0.413069683916832, -0.866, -1.573, 1.671], a = 0.2, v = 0.2, t = 0.2)
movej(p[-0.515375551364086, -0.227666674389133, 0.413068777126167, -0.866, -1.573, 1.671], a = 0.2, v = 0.2, t = 0.2)
movej(p[-0.515368099692088, -0.227656517114011, 0.413303091834119, -0.866, -1.573, 1.671], a = 0.2, v = 0.2, t = 0.2)
movej(p[-0.515343016625896, -0.227622326719658, 0.414091818354925, -0.866, -1.573, 1.671], a = 0.2, v = 0.2, t = 0.2)
movej(p[-0.515316145619828, -0.227585699208209, 0.41493676589699, -0.866, -1.573, 1.671], a = 0.2, v = 0.2, t = 0.2)
movej(p[-0.51528002346679, -0.227536461581207, 0.41607261188453, -0.866, -1.573, 1.671], a = 0.2, v = 0.2, t = 0.2)
movej(p[-0.515248134693974, -0.227492994418554, 0.417075341002383, -0.866, -1.573, 1.671], a = 0.2, v = 0.2, t = 0.2)
movej(p[-0.515232891064647, -0.227472216029895, 0.417554670548139, -0.866, -1.573, 1.671], a = 0.2, v = 0.2, t = 0.2)
movej(p[-0.515251895135261, -0.227498120226123, 0.416957095499609, -0.866, -1.573, 1.671], a = 0.2, v = 0.2, t = 0.2)
movej(p[-0.515295249793474, -0.227557216384861, 0.415593826413174, -0.866, -1.573, 1.671], a = 0.2, v = 0.2, t = 0.2)
movej(p[-0.515330178064079, -0.227604826646577, 0.414495521559183, -0.866, -1.573, 1.671], a = 0.2, v = 0.2, t = 0.2)
movej(p[-0.51535709521053, -0.22764151705137, 0.413649123152054, -0.866, -1.573, 1.671], a = 0.2, v = 0.2, t = 0.2)
movej(p[-0.515365636949098, -0.227653160181753, 0.413380531756948, -0.866, -1.573, 1.671], a = 0.2, v = 0.2, t = 0.2)
movej(p[-0.515370268290131, -0.227659473101198, 0.413234901176077, -0.866, -1.573, 1.671], a = 0.2, v = 0.2, t = 0.2)
movej(p[-0.515375066890055, -0.227666014009016, 0.413084011209346, -0.866, -1.573, 1.671], a = 0.2, v = 0.2, t = 0.2)
movej(p[-0.515375603272018, -0.227666745144145, 0.413067144902969, -0.866, -1.573, 1.671], a = 0.2, v = 0.2, t = 0.2)
movej(p[-0.515375562899182, -0.227666690112469, 0.413068414409901, -0.866, -1.573, 1.671], a = 0.2, v = 0.2, t = 0.2)
movej(p[-0.515368607236311, -0.227657208940799, 0.413287132318407, -0.866, -1.573, 1.671], a = 0.2, v = 0.2, t = 0.2)
movej(p[-0.515347284611406, -0.227628144354015, 0.413957613336439, -0.866, -1.573, 1.671], a = 0.2, v = 0.2, t = 0.2)
movej(p[-0.515315384303494, -0.227584661468026, 0.414960705170558, -0.866, -1.573, 1.671], a = 0.2, v = 0.2, t = 0.2)
movej(p[-0.515284712483303, -0.227542853117332, 0.415925167722329, -0.866, -1.573, 1.671], a = 0.2, v = 0.2, t = 0.2)
movej(p[-0.515261388519247, -0.227511060531735, 0.416658580012543, -0.866, -1.573, 1.671], a = 0.2, v = 0.2, t = 0.2)
movej(p[-0.515235296132157, -0.227475494345473, 0.41747904420664, -0.866, -1.573, 1.671], a = 0.2, v = 0.2, t = 0.2)
movej(p[-0.515234932776634, -0.227474999060385, 0.417490469769025, -0.866, -1.573, 1.671], a = 0.2, v = 0.2, t = 0.2)
movej(p[-0.515273079339015, -0.227526996132874, 0.41629096707677, -0.866, -1.573, 1.671], a = 0.2, v = 0.2, t = 0.2)
movej(p[-0.515316555115735, -0.227586257386641, 0.414923889469541, -0.866, -1.573, 1.671], a = 0.2, v = 0.2, t = 0.2)
movej(p[-0.515343420354255, -0.227622877036421, 0.414079123285609, -0.866, -1.573, 1.671], a = 0.2, v = 0.2, t = 0.2)
movej(p[-0.515358779334542, -0.227643812658441, 0.413596166577192, -0.866, -1.573, 1.671], a = 0.2, v = 0.2, t = 0.2)
movej(p[-0.515370222149747, -0.227659410207854, 0.413236352041142, -0.866, -1.573, 1.671], a = 0.2, v = 0.2, t = 0.2)
movej(p[-0.515373699981183, -0.227664150793688, 0.413126993086889, -0.866, -1.573, 1.671], a = 0.2, v = 0.2, t = 0.2)
movej(p[-0.515375395640291, -0.227666462124095, 0.41307367379576, -0.866, -1.573, 1.671], a = 0.2, v = 0.2, t = 0.2)
movej(p[-0.515376145421529, -0.227667484140942, 0.413050097238459, -0.866, -1.573, 1.671], a = 0.2, v = 0.2, t = 0.2)
movej(p[-0.515380055819064, -0.22767281435188, 0.412927136424224, -0.866, -1.573, 1.671], a = 0.2, v = 0.2, t = 0.2)
movej(p[-0.515379986608488, -0.227672720011864, 0.412929312721821, -0.866, -1.573, 1.671], a = 0.2, v = 0.2, t = 0.2)
movej(p[-0.515371018071369, -0.227660495118045, 0.413211324618775, -0.866, -1.573, 1.671], a = 0.2, v = 0.2, t = 0.2)
movej(p[-0.515351327662544, -0.227633655383319, 0.413830481285143, -0.866, -1.573, 1.671], a = 0.2, v = 0.2, t = 0.2)
movej(p[-0.515326942469658, -0.2276004162508, 0.414597263471846, -0.866, -1.573, 1.671], a = 0.2, v = 0.2, t = 0.2)
movej(p[-0.515296466746099, -0.22755887519682, 0.415555559847092, -0.866, -1.573, 1.671], a = 0.2, v = 0.2, t = 0.2)
movej(p[-0.515270870368136, -0.22752398511401, 0.416360427241744, -0.866, -1.573, 1.671], a = 0.2, v = 0.2, t = 0.2)
movej(p[-0.515249432392271, -0.227494763293865, 0.417034535422438, -0.866, -1.573, 1.671], a = 0.2, v = 0.2, t = 0.2)
movej(p[-0.515235203851389, -0.227475368558784, 0.41748194593677, -0.866, -1.573, 1.671], a = 0.2, v = 0.2, t = 0.2)
movej(p[-0.515262859243983, -0.227513065257087, 0.416612333688605, -0.866, -1.573, 1.671], a = 0.2, v = 0.2, t = 0.2)
movej(p[-0.515305983200276, -0.227571846949103, 0.415256318927494, -0.866, -1.573, 1.671], a = 0.2, v = 0.2, t = 0.2)
movej(p[-0.515343668358818, -0.227623215088148, 0.414071324885886, -0.866, -1.573, 1.671], a = 0.2, v = 0.2, t = 0.2)
movej(p[-0.51535970214222, -0.227645070525329, 0.413567149275897, -0.866, -1.573, 1.671], a = 0.2, v = 0.2, t = 0.2)
movej(p[-0.515368687981983, -0.227657319004152, 0.413284593304544, -0.866, -1.573, 1.671], a = 0.2, v = 0.2, t = 0.2)
movej(p[-0.515375262986687, -0.22766628130573, 0.413077845032821, -0.866, -1.573, 1.671], a = 0.2, v = 0.2, t = 0.2)
movej(p[-0.515376993251083, -0.227668639806145, 0.413023437592895, -0.866, -1.573, 1.671], a = 0.2, v = 0.2, t = 0.2)
movej(p[-0.515377967966693, -0.227669968428046, 0.412992788068402, -0.866, -1.573, 1.671], a = 0.2, v = 0.2, t = 0.2)
movej(p[-0.515377927593857, -0.227669913396369, 0.412994057575334, -0.866, -1.573, 1.671], a = 0.2, v = 0.2, t = 0.2)
movej(p[-0.515380626806314, -0.227673592657017, 0.412909181969048, -0.866, -1.573, 1.671], a = 0.2, v = 0.2, t = 0.2)
movej(p[-0.515375845509034, -0.227667075334203, 0.413059527861379, -0.866, -1.573, 1.671], a = 0.2, v = 0.2, t = 0.2)
movej(p[-0.515353207883188, -0.227636218287104, 0.413771358533756, -0.866, -1.573, 1.671], a = 0.2, v = 0.2, t = 0.2)
movej(p[-0.515328522777807, -0.227602570347846, 0.41454757134338, -0.866, -1.573, 1.671], a = 0.2, v = 0.2, t = 0.2)
movej(p[-0.51529950047634, -0.227563010434214, 0.415460165469087, -0.866, -1.573, 1.671], a = 0.2, v = 0.2, t = 0.2)
movej(p[-0.515266948435505, -0.227518639179735, 0.416483750772245, -0.866, -1.573, 1.671], a = 0.2, v = 0.2, t = 0.2)
movej(p[-0.515242251795028, -0.227484975517142, 0.417260326298134, -0.866, -1.573, 1.671], a = 0.2, v = 0.2, t = 0.2)
movej(p[-0.515240573438564, -0.227482687771739, 0.417313101514863, -0.866, -1.573, 1.671], a = 0.2, v = 0.2, t = 0.2)
movej(p[-0.515275351752921, -0.227530093630086, 0.416219511972333, -0.866, -1.573, 1.671], a = 0.2, v = 0.2, t = 0.2)
movej(p[-0.515312627415556, -0.227580903590698, 0.415047394358175, -0.866, -1.573, 1.671], a = 0.2, v = 0.2, t = 0.2)
movej(p[-0.51534200153745, -0.227620943066081, 0.414123737386349, -0.866, -1.573, 1.671], a = 0.2, v = 0.2, t = 0.2)
movej(p[-0.515362234095786, -0.227648521797603, 0.413487533055471, -0.866, -1.573, 1.671], a = 0.2, v = 0.2, t = 0.2)
movej(p[-0.51537001451802, -0.227659127187804, 0.413242880933933, -0.866, -1.573, 1.671], a = 0.2, v = 0.2, t = 0.2)
movej(p[-0.515373769191759, -0.227664245133705, 0.413124816789292, -0.866, -1.573, 1.671], a = 0.2, v = 0.2, t = 0.2)
movej(p[-0.515379023427974, -0.227671407113299, 0.412959599530047, -0.866, -1.573, 1.671], a = 0.2, v = 0.2, t = 0.2)
movej(p[-0.515378786958507, -0.227671084784909, 0.412967035213504, -0.866, -1.573, 1.671], a = 0.2, v = 0.2, t = 0.2)
movej(p[-0.51537920798951, -0.227671658686677, 0.412953796069788, -0.866, -1.573, 1.671], a = 0.2, v = 0.2, t = 0.2)
movej(p[-0.515377737264773, -0.227669653961324, 0.413000042393726, -0.866, -1.573, 1.671], a = 0.2, v = 0.2, t = 0.2)
movej(p[-0.515362741640009, -0.227649213624392, 0.413471573539759, -0.866, -1.573, 1.671], a = 0.2, v = 0.2, t = 0.2)
movej(p[-0.515333823154406, -0.227609795220785, 0.41438090321907, -0.866, -1.573, 1.671], a = 0.2, v = 0.2, t = 0.2)
movej(p[-0.515305469888506, -0.227571147260647, 0.415272459801339, -0.866, -1.573, 1.671], a = 0.2, v = 0.2, t = 0.2)
movej(p[-0.515283945399421, -0.227541807515481, 0.415949288354029, -0.866, -1.573, 1.671], a = 0.2, v = 0.2, t = 0.2)
movej(p[-0.515252022021317, -0.22749829318282, 0.416953105620681, -0.866, -1.573, 1.671], a = 0.2, v = 0.2, t = 0.2)
movej(p[-0.515223997505652, -0.227460093337761, 0.417834324789363, -0.866, -1.573, 1.671], a = 0.2, v = 0.2, t = 0.2)
movej(p[-0.515238664380181, -0.227480085559614, 0.417373131056916, -0.866, -1.573, 1.671], a = 0.2, v = 0.2, t = 0.2)
movej(p[-0.515286350466931, -0.227545085831058, 0.415873662012531, -0.866, -1.573, 1.671], a = 0.2, v = 0.2, t = 0.2)
movej(p[-0.515320240578898, -0.227591280992525, 0.414808001622496, -0.866, -1.573, 1.671], a = 0.2, v = 0.2, t = 0.2)
movej(p[-0.515347942111876, -0.227629040584173, 0.413936938509267, -0.866, -1.573, 1.671], a = 0.2, v = 0.2, t = 0.2)
movej(p[-0.515367903595457, -0.227656249817297, 0.413309258010644, -0.866, -1.573, 1.671], a = 0.2, v = 0.2, t = 0.2)
movej(p[-0.515372817546341, -0.227662947958476, 0.413154740881251, -0.866, -1.573, 1.671], a = 0.2, v = 0.2, t = 0.2)
movej(p[-0.51537553982899, -0.227666658665796, 0.413069139842433, -0.866, -1.573, 1.671], a = 0.2, v = 0.2, t = 0.2)
movej(p[-0.515376987483535, -0.227668631944477, 0.413023618951028, -0.866, -1.573, 1.671], a = 0.2, v = 0.2, t = 0.2)
movej(p[-0.515380332661367, -0.227673191711947, 0.412918431233836, -0.866, -1.573, 1.671], a = 0.2, v = 0.2, t = 0.2)
movej(p[-0.515379986608488, -0.227672720011864, 0.412929312721821, -0.866, -1.573, 1.671], a = 0.2, v = 0.2, t = 0.2)
movej(p[-0.515377852615733, -0.227669811194685, 0.412996415231064, -0.866, -1.573, 1.671], a = 0.2, v = 0.2, t = 0.2)
movej(p[-0.515363433745767, -0.227650157024558, 0.413449810563788, -0.866, -1.573, 1.671], a = 0.2, v = 0.2, t = 0.2)
movej(p[-0.515336003287545, -0.227612766931308, 0.414312349844763, -0.866, -1.573, 1.671], a = 0.2, v = 0.2, t = 0.2)
movej(p[-0.515306750284159, -0.227572892550954, 0.415232198295793, -0.866, -1.573, 1.671], a = 0.2, v = 0.2, t = 0.2)
movej(p[-0.515282030573489, -0.227539197441688, 0.416009499254215, -0.866, -1.573, 1.671], a = 0.2, v = 0.2, t = 0.2)
movej(p[-0.515260644505556, -0.227510046376556, 0.416681975211712, -0.866, -1.573, 1.671], a = 0.2, v = 0.2, t = 0.2)
movej(p[-0.515239431464063, -0.227481131161465, 0.417349010425215, -0.866, -1.573, 1.671], a = 0.2, v = 0.2, t = 0.2)
movej(p[-0.515251179959311, -0.227497145379285, 0.416979583908112, -0.866, -1.573, 1.671], a = 0.2, v = 0.2, t = 0.2)
movej(p[-0.515297187689597, -0.227559857905326, 0.415532890080456, -0.866, -1.573, 1.671], a = 0.2, v = 0.2, t = 0.2)
movej(p[-0.515330131923695, -0.227604763753232, 0.414496972424248, -0.866, -1.573, 1.671], a = 0.2, v = 0.2, t = 0.2)
movej(p[-0.515353726962506, -0.227636925837228, 0.413755036301778, -0.866, -1.573, 1.671], a = 0.2, v = 0.2, t = 0.2)
movej(p[-0.515365198615451, -0.227652562694981, 0.413394314975063, -0.866, -1.573, 1.671], a = 0.2, v = 0.2, t = 0.2)
movej(p[-0.515376116583789, -0.227667444832602, 0.413051004029124, -0.866, -1.573, 1.671], a = 0.2, v = 0.2, t = 0.2)
movej(p[-0.515378140993132, -0.227670204278087, 0.41298734732441, -0.866, -1.573, 1.671], a = 0.2, v = 0.2, t = 0.2)
movej(p[-0.515378723515479, -0.22767099830656, 0.412969030152968, -0.866, -1.573, 1.671], a = 0.2, v = 0.2, t = 0.2)
movej(p[-0.515382593540177, -0.227676273485823, 0.412847338845664, -0.866, -1.573, 1.671], a = 0.2, v = 0.2, t = 0.2)
movej(p[-0.51538229939523, -0.227675872540752, 0.412856588110452, -0.866, -1.573, 1.671], a = 0.2, v = 0.2, t = 0.2)
movej(p[-0.515381538078896, -0.227674834800569, 0.41288052738402, -0.866, -1.573, 1.671], a = 0.2, v = 0.2, t = 0.2)
movej(p[-0.515366536686584, -0.227654386601969, 0.413352239888186, -0.866, -1.573, 1.671], a = 0.2, v = 0.2, t = 0.2)
movej(p[-0.515345127548459, -0.227625204090164, 0.414025441278215, -0.866, -1.573, 1.671], a = 0.2, v = 0.2, t = 0.2)
movej(p[-0.515315943755648, -0.227585424049827, 0.414943113431648, -0.866, -1.573, 1.671], a = 0.2, v = 0.2, t = 0.2)
movej(p[-0.515286344699383, -0.22754507796939, 0.415873843370664, -0.866, -1.573, 1.671], a = 0.2, v = 0.2, t = 0.2)
movej(p[-0.51526687922493, -0.227518544839719, 0.416485927069842, -0.866, -1.573, 1.671], a = 0.2, v = 0.2, t = 0.2)
movej(p[-0.515246940811541, -0.227491367053267, 0.417112882135933, -0.866, -1.573, 1.671], a = 0.2, v = 0.2, t = 0.2)
movej(p[-0.515244235831536, -0.227487679930951, 0.417197939100352, -0.866, -1.573, 1.671], a = 0.2, v = 0.2, t = 0.2)
movej(p[-0.515286102462368, -0.227544747779332, 0.415881460412254, -0.866, -1.573, 1.671], a = 0.2, v = 0.2, t = 0.2)
movej(p[-0.515327444246333, -0.227601100215921, 0.414581485314267, -0.866, -1.573, 1.671], a = 0.2, v = 0.2, t = 0.2)
movej(p[-0.515350387552222, -0.227632373931427, 0.413860042660837, -0.866, -1.573, 1.671], a = 0.2, v = 0.2, t = 0.2)
movej(p[-0.515364327715705, -0.227651375583106, 0.413421700053159, -0.866, -1.573, 1.671], a = 0.2, v = 0.2, t = 0.2)
movej(p[-0.515371289146125, -0.227660864616443, 0.41320280078652, -0.866, -1.573, 1.671], a = 0.2, v = 0.2, t = 0.2)
movej(p[-0.515378781190959, -0.227671076923241, 0.412967216571637, -0.866, -1.573, 1.671], a = 0.2, v = 0.2, t = 0.2)
movej(p[-0.515379427156333, -0.227671957430063, 0.412946904460731, -0.866, -1.573, 1.671], a = 0.2, v = 0.2, t = 0.2)
movej(p[-0.515379317572921, -0.22767180805837, 0.412950350265259, -0.866, -1.573, 1.671], a = 0.2, v = 0.2, t = 0.2)
movej(p[-0.515381543846444, -0.227674842662237, 0.412880346025887, -0.866, -1.573, 1.671], a = 0.2, v = 0.2, t = 0.2)
movej(p[-0.515365342804151, -0.227652759236683, 0.413389781021736, -0.866, -1.573, 1.671], a = 0.2, v = 0.2, t = 0.2)
movej(p[-0.515337064516374, -0.227614213478229, 0.414278979948274, -0.866, -1.573, 1.671], a = 0.2, v = 0.2, t = 0.2)
movej(p[-0.515307182850257, -0.227573482176058, 0.415218596435811, -0.866, -1.573, 1.671], a = 0.2, v = 0.2, t = 0.2)
movej(p[-0.515282313183341, -0.227539582663423, 0.416000612705694, -0.866, -1.573, 1.671], a = 0.2, v = 0.2, t = 0.2)
movej(p[-0.515250562831676, -0.227496304180803, 0.416998989228352, -0.866, -1.573, 1.671], a = 0.2, v = 0.2, t = 0.2)
movej(p[-0.515227584920499, -0.227464983295289, 0.417721520030581, -0.866, -1.573, 1.671], a = 0.2, v = 0.2, t = 0.2)
movej(p[-0.515248826799733, -0.22749393781872, 0.417053578026412, -0.866, -1.573, 1.671], a = 0.2, v = 0.2, t = 0.2)
movej(p[-0.515292787050484, -0.227553859452603, 0.415671266336003, -0.866, -1.573, 1.671], a = 0.2, v = 0.2, t = 0.2)
movej(p[-0.5153293994451, -0.22760376532139, 0.41452000490715, -0.866, -1.573, 1.671], a = 0.2, v = 0.2, t = 0.2)
movej(p[-0.515353709659862, -0.227636902252224, 0.413755580376177, -0.866, -1.573, 1.671], a = 0.2, v = 0.2, t = 0.2)
movej(p[-0.515370712391326, -0.227660078449638, 0.413220936599829, -0.866, -1.573, 1.671], a = 0.2, v = 0.2, t = 0.2)
movej(p[-0.515374940004, -0.227665841052319, 0.413088001088274, -0.866, -1.573, 1.671], a = 0.2, v = 0.2, t = 0.2)
movej(p[-0.515376854829931, -0.227668451126112, 0.413027790188089, -0.866, -1.573, 1.671], a = 0.2, v = 0.2, t = 0.2)
movej(p[-0.515379404086141, -0.22767192598339, 0.412947629893263, -0.866, -1.573, 1.671], a = 0.2, v = 0.2, t = 0.2)
movej(p[-0.515382114833695, -0.227675620967374, 0.412862391570711, -0.866, -1.573, 1.671], a = 0.2, v = 0.2, t = 0.2)
movej(p[-0.51538135351736, -0.227674583227192, 0.412886330844279, -0.866, -1.573, 1.671], a = 0.2, v = 0.2, t = 0.2)
movej(p[-0.515367707498825, -0.227655982520583, 0.413315424187169, -0.866, -1.573, 1.671], a = 0.2, v = 0.2, t = 0.2)
movej(p[-0.515342710945853, -0.227621910051251, 0.414101430335979, -0.866, -1.573, 1.671], a = 0.2, v = 0.2, t = 0.2)
movej(p[-0.515310631843953, -0.227578183453552, 0.415110144272224, -0.866, -1.573, 1.671], a = 0.2, v = 0.2, t = 0.2)
movej(p[-0.515277975987255, -0.227533670689049, 0.416136994021777, -0.866, -1.573, 1.671], a = 0.2, v = 0.2, t = 0.2)
movej(p[-0.51525484811983, -0.227502145400165, 0.416864240135467, -0.866, -1.573, 1.671], a = 0.2, v = 0.2, t = 0.2)
movej(p[-0.515235642185036, -0.227475966045556, 0.417468162718655, -0.866, -1.573, 1.671], a = 0.2, v = 0.2, t = 0.2)
movej(p[-0.515239708306366, -0.227481508521531, 0.417340305234827, -0.866, -1.573, 1.671], a = 0.2, v = 0.2, t = 0.2)
movej(p[-0.515286529260919, -0.227545329542768, 0.415868039910405, -0.866, -1.573, 1.671], a = 0.2, v = 0.2, t = 0.2)
movej(p[-0.515332848438796, -0.227608466598884, 0.414411552743563, -0.866, -1.573, 1.671], a = 0.2, v = 0.2, t = 0.2)
movej(p[-0.515355082336283, -0.22763877332922, 0.413712417140502, -0.866, -1.573, 1.671], a = 0.2, v = 0.2, t = 0.2)
movej(p[-0.515367401818782, -0.227655565852177, 0.413325036168223, -0.866, -1.573, 1.671], a = 0.2, v = 0.2, t = 0.2)
movej(p[-0.515374963074192, -0.227665872498991, 0.413087275655742, -0.866, -1.573, 1.671], a = 0.2, v = 0.2, t = 0.2)
movej(p[-0.515379231059702, -0.227671690133349, 0.412953070637256, -0.866, -1.573, 1.671], a = 0.2, v = 0.2, t = 0.2)
movej(p[-0.515380044283968, -0.227672798628544, 0.41292749914049, -0.866, -1.573, 1.671], a = 0.2, v = 0.2, t = 0.2)
movej(p[-0.515379946235652, -0.227672664980187, 0.412930582228753, -0.866, -1.573, 1.671], a = 0.2, v = 0.2, t = 0.2)
movej(p[-0.515383372159156, -0.227677334811009, 0.412822855497697, -0.866, -1.573, 1.671], a = 0.2, v = 0.2, t = 0.2)
movej(p[-0.515377927593857, -0.227669913396369, 0.412994057575334, -0.866, -1.573, 1.671], a = 0.2, v = 0.2, t = 0.2)
movej(p[-0.515355589880506, -0.227639465156009, 0.41369645762479, -0.866, -1.573, 1.671], a = 0.2, v = 0.2, t = 0.2)
movej(p[-0.515333413658499, -0.227609237042353, 0.41439377964652, -0.866, -1.573, 1.671], a = 0.2, v = 0.2, t = 0.2)
movej(p[-0.515305210348846, -0.227570793485585, 0.415280620917328, -0.866, -1.573, 1.671], a = 0.2, v = 0.2, t = 0.2)
movej(p[-0.51527406558972, -0.22752834047811, 0.416259954836012, -0.866, -1.573, 1.671], a = 0.2, v = 0.2, t = 0.2)
movej(p[-0.51524983612063, -0.227495313610629, 0.417021840353122, -0.866, -1.573, 1.671], a = 0.2, v = 0.2, t = 0.2)
movej(p[-0.515236391966274, -0.227476988062402, 0.417444586161353, -0.866, -1.573, 1.671], a = 0.2, v = 0.2, t = 0.2)
movej(p[-0.515257316630368, -0.227505510194091, 0.416786618854504, -0.866, -1.573, 1.671], a = 0.2, v = 0.2, t = 0.2)
movej(p[-0.515296016877356, -0.227558261986712, 0.415569705781473, -0.866, -1.573, 1.671], a = 0.2, v = 0.2, t = 0.2)
movej(p[-0.515335714910145, -0.227612373847906, 0.414321417751417, -0.866, -1.573, 1.671], a = 0.2, v = 0.2, t = 0.2)
movej(p[-0.515359465672753, -0.227644748196939, 0.413574584959354, -0.866, -1.573, 1.671], a = 0.2, v = 0.2, t = 0.2)
movej(p[-0.515368739889915, -0.227657389759165, 0.413282961081346, -0.866, -1.573, 1.671], a = 0.2, v = 0.2, t = 0.2)
movej(p[-0.515374559345833, -0.227665322182228, 0.413099970725058, -0.866, -1.573, 1.671], a = 0.2, v = 0.2, t = 0.2)
movej(p[-0.515380794065206, -0.227673820645391, 0.412903922583188, -0.866, -1.573, 1.671], a = 0.2, v = 0.2, t = 0.2)
movej(p[-0.515380938253905, -0.227674017187092, 0.412899388629861, -0.866, -1.573, 1.671], a = 0.2, v = 0.2, t = 0.2)
movej(p[-0.515380453779875, -0.227673356806976, 0.412914622713041, -0.866, -1.573, 1.671], a = 0.2, v = 0.2, t = 0.2)
movej(p[-0.515381445798128, -0.22767470901388, 0.412883429114149, -0.866, -1.573, 1.671], a = 0.2, v = 0.2, t = 0.2)
movej(p[-0.5153679208981, -0.227656273402301, 0.413308713936245, -0.866, -1.573, 1.671], a = 0.2, v = 0.2, t = 0.2)
movej(p[-0.515341753532887, -0.227620605014355, 0.414131535786072, -0.866, -1.573, 1.671], a = 0.2, v = 0.2, t = 0.2)
movej(p[-0.515315488119358, -0.227584802978051, 0.414957440724162, -0.866, -1.573, 1.671], a = 0.2, v = 0.2, t = 0.2)
movej(p[-0.515294061678589, -0.227555596881242, 0.41563118618859, -0.866, -1.573, 1.671], a = 0.2, v = 0.2, t = 0.2)
movej(p[-0.515273598418334, -0.227527703682998, 0.416274644844792, -0.866, -1.573, 1.671], a = 0.2, v = 0.2, t = 0.2)
movej(p[-0.515291235580076, -0.227551744663898, 0.415720051673804, -0.866, -1.573, 1.671], a = 0.2, v = 0.2, t = 0.2)
movej(p[-0.51533037416071, -0.22760509394329, 0.414489355382658, -0.866, -1.573, 1.671], a = 0.2, v = 0.2, t = 0.2)
movej(p[-0.51535649538554, -0.227640699437893, 0.413667984397895, -0.866, -1.573, 1.671], a = 0.2, v = 0.2, t = 0.2)
movej(p[-0.515367903595457, -0.227656249817297, 0.413309258010644, -0.866, -1.573, 1.671], a = 0.2, v = 0.2, t = 0.2)
movej(p[-0.515373988358582, -0.227664543877091, 0.413117925180234, -0.866, -1.573, 1.671], a = 0.2, v = 0.2, t = 0.2)
movej(p[-0.51538084020559, -0.227673883538735, 0.412902471718124, -0.866, -1.573, 1.671], a = 0.2, v = 0.2, t = 0.2)
movej(p[-0.515381088210153, -0.227674221590461, 0.412894673318401, -0.866, -1.573, 1.671], a = 0.2, v = 0.2, t = 0.2)
movej(p[-0.515380338428915, -0.227673199573615, 0.412918249875703, -0.866, -1.573, 1.671], a = 0.2, v = 0.2, t = 0.2)
movej(p[-0.515369270504329, -0.227658113032625, 0.413266276133102, -0.866, -1.573, 1.671], a = 0.2, v = 0.2, t = 0.2)
movej(p[-0.51534552550927, -0.22762574654526, 0.414012927567032, -0.866, -1.573, 1.671], a = 0.2, v = 0.2, t = 0.2)
movej(p[-0.515309461031712, -0.227576587534938, 0.415146959973241, -0.866, -1.573, 1.671], a = 0.2, v = 0.2, t = 0.2)
movej(p[-0.515275807389212, -0.227530714701862, 0.416205184679819, -0.866, -1.573, 1.671], a = 0.2, v = 0.2, t = 0.2)
movej(p[-0.515250141800674, -0.227495730279035, 0.417012228372068, -0.866, -1.573, 1.671], a = 0.2, v = 0.2, t = 0.2)
movej(p[-0.515228732662549, -0.227466547767231, 0.417685429762096, -0.866, -1.573, 1.671], a = 0.2, v = 0.2, t = 0.2)
movej(p[-0.515242938133239, -0.22748591105564, 0.417238744680297, -0.866, -1.573, 1.671], a = 0.2, v = 0.2, t = 0.2)
movej(p[-0.515285369983774, -0.22754374934749, 0.415904492895156, -0.866, -1.573, 1.671], a = 0.2, v = 0.2, t = 0.2)
movej(p[-0.515323101282699, -0.227595180379878, 0.414718047988484, -0.866, -1.573, 1.671], a = 0.2, v = 0.2, t = 0.2)
movej(p[-0.51534632719844, -0.227626839317119, 0.413987718786532, -0.866, -1.573, 1.671], a = 0.2, v = 0.2, t = 0.2)
movej(p[-0.51536213604747, -0.227648388149246, 0.413490616143733, -0.866, -1.573, 1.671], a = 0.2, v = 0.2, t = 0.2)
movej(p[-0.51537496884174, -0.227665880360659, 0.413087094297609, -0.866, -1.573, 1.671], a = 0.2, v = 0.2, t = 0.2)
movej(p[-0.515377189347714, -0.227668907102859, 0.413017271416369, -0.866, -1.573, 1.671], a = 0.2, v = 0.2, t = 0.2)
movej(p[-0.515378169830872, -0.227670243586428, 0.412986440533744, -0.866, -1.573, 1.671], a = 0.2, v = 0.2, t = 0.2)
movej(p[-0.51537634151816, -0.227667751437655, 0.413043931061934, -0.866, -1.573, 1.671], a = 0.2, v = 0.2, t = 0.2)
movej(p[-0.51536228023617, -0.227648584690948, 0.413486082190406, -0.866, -1.573, 1.671], a = 0.2, v = 0.2, t = 0.2)
movej(p[-0.515332323591929, -0.227607751187092, 0.414428056333674, -0.866, -1.573, 1.671], a = 0.2, v = 0.2, t = 0.2)
movej(p[-0.515296587864607, -0.227559040291849, 0.415551751326297, -0.866, -1.573, 1.671], a = 0.2, v = 0.2, t = 0.2)
movej(p[-0.515257876082523, -0.227506272775892, 0.416769027115595, -0.866, -1.573, 1.671], a = 0.2, v = 0.2, t = 0.2)
movej(p[-0.515223513031621, -0.227459432957645, 0.417849558872543, -0.866, -1.573, 1.671], a = 0.2, v = 0.2, t = 0.2)
movej(p[-0.515214209976719, -0.227446752087079, 0.418142089541216, -0.866, -1.573, 1.671], a = 0.2, v = 0.2, t = 0.2)
movej(p[-0.51525427713258, -0.227501367095028, 0.416882194590643, -0.866, -1.573, 1.671], a = 0.2, v = 0.2, t = 0.2)
movej(p[-0.515294863367759, -0.227556689653101, 0.415605977408091, -0.866, -1.573, 1.671], a = 0.2, v = 0.2, t = 0.2)
movej(p[-0.51532871310689, -0.227602829782892, 0.414541586524988, -0.866, -1.573, 1.671], a = 0.2, v = 0.2, t = 0.2)
movej(p[-0.515352746479349, -0.22763558935366, 0.413785867184403, -0.866, -1.573, 1.671], a = 0.2, v = 0.2, t = 0.2)
movej(p[-0.51537049899205, -0.22765978756792, 0.413227646850753, -0.866, -1.573, 1.671], a = 0.2, v = 0.2, t = 0.2)
movej(p[-0.51537476697756, -0.227665605202278, 0.413093441832267, -0.866, -1.573, 1.671], a = 0.2, v = 0.2, t = 0.2)
movej(p[-0.515377218185454, -0.227668946411199, 0.413016364625704, -0.866, -1.573, 1.671], a = 0.2, v = 0.2, t = 0.2)
movej(p[-0.515380188472667, -0.227672995170245, 0.412922965187163, -0.866, -1.573, 1.671], a = 0.2, v = 0.2, t = 0.2)
movej(p[-0.515381947574803, -0.227675392979001, 0.412867650956571, -0.866, -1.573, 1.671], a = 0.2, v = 0.2, t = 0.2)
movej(p[-0.515374288271077, -0.227664952683829, 0.413108494557314, -0.866, -1.573, 1.671], a = 0.2, v = 0.2, t = 0.2)
movej(p[-0.51534878994143, -0.227630196249377, 0.413910278863703, -0.866, -1.573, 1.671], a = 0.2, v = 0.2, t = 0.2)
movej(p[-0.515319508100304, -0.227590282560683, 0.414831034105399, -0.866, -1.573, 1.671], a = 0.2, v = 0.2, t = 0.2)
movej(p[-0.515280565616301, -0.227537200578004, 0.41605556422002, -0.866, -1.573, 1.671], a = 0.2, v = 0.2, t = 0.2)
movej(p[-0.515243059251746, -0.227486076150669, 0.417234936159502, -0.866, -1.573, 1.671], a = 0.2, v = 0.2, t = 0.2)
movej(p[-0.515221517460018, -0.227456712820499, 0.417912308786592, -0.866, -1.573, 1.671], a = 0.2, v = 0.2, t = 0.2)
movej(p[-0.515232654595179, -0.227471893701505, 0.417562106231596, -0.866, -1.573, 1.671], a = 0.2, v = 0.2, t = 0.2)
movej(p[-0.515270708876792, -0.227523764987305, 0.41636550526947, -0.866, -1.573, 1.671], a = 0.2, v = 0.2, t = 0.2)
movej(p[-0.515314761408311, -0.227583812407877, 0.414980291848932, -0.866, -1.573, 1.671], a = 0.2, v = 0.2, t = 0.2)
movej(p[-0.515351327662544, -0.227633655383319, 0.413830481285143, -0.866, -1.573, 1.671], a = 0.2, v = 0.2, t = 0.2)
movej(p[-0.515365510063042, -0.227652987225056, 0.413384521635876, -0.866, -1.573, 1.671], a = 0.2, v = 0.2, t = 0.2)
movej(p[-0.515372529168942, -0.227662554875074, 0.413163808787906, -0.866, -1.573, 1.671], a = 0.2, v = 0.2, t = 0.2)
movej(p[-0.515377120137139, -0.227668812762842, 0.413019447713967, -0.866, -1.573, 1.671], a = 0.2, v = 0.2, t = 0.2)
movej(p[-0.515382264789942, -0.227675825370744, 0.412857676259251, -0.866, -1.573, 1.671], a = 0.2, v = 0.2, t = 0.2)
movej(p[-0.515381486170964, -0.227674764045557, 0.412882159607218, -0.866, -1.573, 1.671], a = 0.2, v = 0.2, t = 0.2)
movej(p[-0.515371000768725, -0.22766047153304, 0.413211868693175, -0.866, -1.573, 1.671], a = 0.2, v = 0.2, t = 0.2)
movej(p[-0.515349280183009, -0.227630864491161, 0.41389486342239, -0.866, -1.573, 1.671], a = 0.2, v = 0.2, t = 0.2)
movej(p[-0.515311762283359, -0.22757972434049, 0.415074598078138, -0.866, -1.573, 1.671], a = 0.2, v = 0.2, t = 0.2)
movej(p[-0.515274653879615, -0.227529142368251, 0.416241456306437, -0.866, -1.573, 1.671], a = 0.2, v = 0.2, t = 0.2)
movej(p[-0.515247794408643, -0.227492530580139, 0.417086041132235, -0.866, -1.573, 1.671], a = 0.2, v = 0.2, t = 0.2)
movej(p[-0.515223985970556, -0.227460077614425, 0.417834687505629, -0.866, -1.573, 1.671], a = 0.2, v = 0.2, t = 0.2)
movej(p[-0.515237637756639, -0.227478686182701, 0.417405412804606, -0.866, -1.573, 1.671], a = 0.2, v = 0.2, t = 0.2)
movej(p[-0.515278639255274, -0.227534574780875, 0.416116137836472, -0.866, -1.573, 1.671], a = 0.2, v = 0.2, t = 0.2)
movej(p[-0.515325921613665, -0.227599024735555, 0.414629363861403, -0.866, -1.573, 1.671], a = 0.2, v = 0.2, t = 0.2)
movej(p[-0.515348570774607, -0.227629897505991, 0.41391717047276, -0.866, -1.573, 1.671], a = 0.2, v = 0.2, t = 0.2)
movej(p[-0.515363745193358, -0.227650581554632, 0.413440017224601, -0.866, -1.573, 1.671], a = 0.2, v = 0.2, t = 0.2)
movej(p[-0.515372067765103, -0.22766192594163, 0.413178317438553, -0.866, -1.573, 1.671], a = 0.2, v = 0.2, t = 0.2)
movej(p[-0.515379727068828, -0.227672366236801, 0.41293747383781, -0.866, -1.573, 1.671], a = 0.2, v = 0.2, t = 0.2)
movej(p[-0.515380770995014, -0.227673789198719, 0.412904648015721, -0.866, -1.573, 1.671], a = 0.2, v = 0.2, t = 0.2)
movej(p[-0.515379415621237, -0.227671941706727, 0.412947267176997, -0.866, -1.573, 1.671], a = 0.2, v = 0.2, t = 0.2)
movej(p[-0.515368855240874, -0.227657546992526, 0.413279333918684, -0.866, -1.573, 1.671], a = 0.2, v = 0.2, t = 0.2)
movej(p[-0.515336412783452, -0.22761332510974, 0.414299473417313, -0.866, -1.573, 1.671], a = 0.2, v = 0.2, t = 0.2)
movej(p[-0.515302124710673, -0.227566587493177, 0.415377647518531, -0.866, -1.573, 1.671], a = 0.2, v = 0.2, t = 0.2)
movej(p[-0.515272018110185, -0.227525549585952, 0.416324336973259, -0.866, -1.573, 1.671], a = 0.2, v = 0.2, t = 0.2)
movej(p[-0.515247465658408, -0.22749208246506, 0.417096378545821, -0.866, -1.573, 1.671], a = 0.2, v = 0.2, t = 0.2)
movej(p[-0.515226154568599, -0.227463033601612, 0.417766496847587, -0.866, -1.573, 1.671], a = 0.2, v = 0.2, t = 0.2)
movej(p[-0.515251341450655, -0.22749736550599, 0.416974505880385, -0.866, -1.573, 1.671], a = 0.2, v = 0.2, t = 0.2)
movej(p[-0.515298848743417, -0.227562122065725, 0.415480658938126, -0.866, -1.573, 1.671], a = 0.2, v = 0.2, t = 0.2)
movej(p[-0.515333967343106, -0.227609991762486, 0.414376369265743, -0.866, -1.573, 1.671], a = 0.2, v = 0.2, t = 0.2)
movej(p[-0.515357002929763, -0.227641391264681, 0.413652024882183, -0.866, -1.573, 1.671], a = 0.2, v = 0.2, t = 0.2)
movej(p[-0.515370193312007, -0.227659370899513, 0.413237258831807, -0.866, -1.573, 1.671], a = 0.2, v = 0.2, t = 0.2)
movej(p[-0.51537909263855, -0.227671501453316, 0.41295742323245, -0.866, -1.573, 1.671], a = 0.2, v = 0.2, t = 0.2)
movej(p[-0.515380649876506, -0.227673624103689, 0.412908456536516, -0.866, -1.573, 1.671], a = 0.2, v = 0.2, t = 0.2)
movej(p[-0.515381117047893, -0.227674260898802, 0.412893766527735, -0.866, -1.573, 1.671], a = 0.2, v = 0.2, t = 0.2)
movej(p[-0.515382085995955, -0.227675581659034, 0.412863298361376, -0.866, -1.573, 1.671], a = 0.2, v = 0.2, t = 0.2)
movej(p[-0.51535993284414, -0.227645384992051, 0.413559894950574, -0.866, -1.573, 1.671], a = 0.2, v = 0.2, t = 0.2)
movej(p[-0.515325783192513, -0.227598836055522, 0.414633716456597, -0.866, -1.573, 1.671], a = 0.2, v = 0.2, t = 0.2)
movej(p[-0.51529514597761, -0.227557074874836, 0.415597090859569, -0.866, -1.573, 1.671], a = 0.2, v = 0.2, t = 0.2)
movej(p[-0.515266688895846, -0.227518285404673, 0.416491911888234, -0.866, -1.573, 1.671], a = 0.2, v = 0.2, t = 0.2)
movej(p[-0.515236732251605, -0.227477451900817, 0.417433886031501, -0.866, -1.573, 1.671], a = 0.2, v = 0.2, t = 0.2)
movej(p[-0.515217901207431, -0.227451783554631, 0.418026020336039, -0.866, -1.573, 1.671], a = 0.2, v = 0.2, t = 0.2)
movej(p[-0.51523898159532, -0.227480517951357, 0.417363156359596, -0.866, -1.573, 1.671], a = 0.2, v = 0.2, t = 0.2)
movej(p[-0.515280634826877, -0.22753729491802, 0.416053387922423, -0.866, -1.573, 1.671], a = 0.2, v = 0.2, t = 0.2)
movej(p[-0.515319611916168, -0.227590424070708, 0.414827769659003, -0.866, -1.573, 1.671], a = 0.2, v = 0.2, t = 0.2)
movej(p[-0.515349476279641, -0.227631131787875, 0.413888697245865, -0.866, -1.573, 1.671], a = 0.2, v = 0.2, t = 0.2)
movej(p[-0.51536915515337, -0.227657955799264, 0.413269903295763, -0.866, -1.573, 1.671], a = 0.2, v = 0.2, t = 0.2)
movej(p[-0.515374893863616, -0.227665778158975, 0.413089451953339, -0.866, -1.573, 1.671], a = 0.2, v = 0.2, t = 0.2)
movej(p[-0.515377823777993, -0.227669771886345, 0.41299732202173, -0.866, -1.573, 1.671], a = 0.2, v = 0.2, t = 0.2)
movej(p[-0.515381912969515, -0.227675345808993, 0.412868739105369, -0.866, -1.573, 1.671], a = 0.2, v = 0.2, t = 0.2)
movej(p[-0.515382143671435, -0.227675660275715, 0.412861484780045, -0.866, -1.573, 1.671], a = 0.2, v = 0.2, t = 0.2)
movej(p[-0.515379127243838, -0.227671548623324, 0.412956335083651, -0.866, -1.573, 1.671], a = 0.2, v = 0.2, t = 0.2)
movej(p[-0.51535652422328, -0.227640738746233, 0.41366707760723, -0.866, -1.573, 1.671], a = 0.2, v = 0.2, t = 0.2)
movej(p[-0.515331700696747, -0.227606902126942, 0.414447643012047, -0.866, -1.573, 1.671], a = 0.2, v = 0.2, t = 0.2)
movej(p[-0.515295215188186, -0.227557169214853, 0.415594914561972, -0.866, -1.573, 1.671], a = 0.2, v = 0.2, t = 0.2)
movej(p[-0.515260696413488, -0.227510117131568, 0.416680342988514, -0.866, -1.573, 1.671], a = 0.2, v = 0.2, t = 0.2)
movej(p[-0.515239102713828, -0.227480683046386, 0.417359347838801, -0.866, -1.573, 1.671], a = 0.2, v = 0.2, t = 0.2)
movej(p[-0.515220369717969, -0.227455148348557, 0.417948399055076, -0.866, -1.573, 1.671], a = 0.2, v = 0.2, t = 0.2)
movej(p[-0.515247679057683, -0.227492373346778, 0.417089668294897, -0.866, -1.573, 1.671], a = 0.2, v = 0.2, t = 0.2)
movej(p[-0.515296316789851, -0.22755867079345, 0.415560275158552, -0.866, -1.573, 1.671], a = 0.2, v = 0.2, t = 0.2)
movej(p[-0.515339388838213, -0.227617381730454, 0.414205892620639, -0.866, -1.573, 1.671], a = 0.2, v = 0.2, t = 0.2)
movej(p[-0.515358525562431, -0.227643466745047, 0.413604146335048, -0.866, -1.573, 1.671], a = 0.2, v = 0.2, t = 0.2)
movej(p[-0.515368832170682, -0.227657515545853, 0.413280059351216, -0.866, -1.573, 1.671], a = 0.2, v = 0.2, t = 0.2)
movej(p[-0.515377679589293, -0.227669575344643, 0.413001855975057, -0.866, -1.573, 1.671], a = 0.2, v = 0.2, t = 0.2)
movej(p[-0.515380055819064, -0.22767281435188, 0.412927136424224, -0.866, -1.573, 1.671], a = 0.2, v = 0.2, t = 0.2)
movej(p[-0.515379888560172, -0.227672586363507, 0.412932395810084, -0.866, -1.573, 1.671], a = 0.2, v = 0.2, t = 0.2)
movej(p[-0.515372788708601, -0.227662908650136, 0.413155647671917, -0.866, -1.573, 1.671], a = 0.2, v = 0.2, t = 0.2)
movej(p[-0.515352296610606, -0.227634976143552, 0.413800013118784, -0.866, -1.573, 1.671], a = 0.2, v = 0.2, t = 0.2)
movej(p[-0.515317818208744, -0.227587979091944, 0.414884172038394, -0.866, -1.573, 1.671], a = 0.2, v = 0.2, t = 0.2)
movej(p[-0.515279262150456, -0.227535423841024, 0.416096551158098, -0.866, -1.573, 1.671], a = 0.2, v = 0.2, t = 0.2)
movej(p[-0.515249697699479, -0.227495124930595, 0.417026192948316, -0.866, -1.573, 1.671], a = 0.2, v = 0.2, t = 0.2)
movej(p[-0.515221061823727, -0.227456091748723, 0.417926636079106, -0.866, -1.573, 1.671], a = 0.2, v = 0.2, t = 0.2)
movej(p[-0.515217318685084, -0.227450989526158, 0.418044337507481, -0.866, -1.573, 1.671], a = 0.2, v = 0.2, t = 0.2)
movej(p[-0.515261325076219, -0.227510974053386, 0.416660574952007, -0.866, -1.573, 1.671], a = 0.2, v = 0.2, t = 0.2)
movej(p[-0.515311081712696, -0.22757879666366, 0.415095998337843, -0.866, -1.573, 1.671], a = 0.2, v = 0.2, t = 0.2)
movej(p[-0.515339233114417, -0.227617169465416, 0.414210789290232, -0.866, -1.573, 1.671], a = 0.2, v = 0.2, t = 0.2)
movej(p[-0.515358283325416, -0.227643136554988, 0.413611763376637, -0.866, -1.573, 1.671], a = 0.2, v = 0.2, t = 0.2)
movej(p[-0.515370372105995, -0.227659614611223, 0.413231636729681, -0.866, -1.573, 1.671], a = 0.2, v = 0.2, t = 0.2)
movej(p[-0.515378354392408, -0.227670495159805, 0.412980637073485, -0.866, -1.573, 1.671], a = 0.2, v = 0.2, t = 0.2)
movej(p[-0.515379686695992, -0.227672311205125, 0.412938743344742, -0.866, -1.573, 1.671], a = 0.2, v = 0.2, t = 0.2)
movej(p[-0.515379375248401, -0.22767188667505, 0.412948536683929, -0.866, -1.573, 1.671], a = 0.2, v = 0.2, t = 0.2)
movej(p[-0.515375551364086, -0.227666674389133, 0.413068777126167, -0.866, -1.573, 1.671], a = 0.2, v = 0.2, t = 0.2)
movej(p[-0.515347498010681, -0.227628435235733, 0.413950903085515, -0.866, -1.573, 1.671], a = 0.2, v = 0.2, t = 0.2)
movej(p[-0.51531602450132, -0.22758553411318, 0.414940574417785, -0.866, -1.573, 1.671], a = 0.2, v = 0.2, t = 0.2)
movej(p[-0.51528520849243, -0.227543529220784, 0.415909570922883, -0.866, -1.573, 1.671], a = 0.2, v = 0.2, t = 0.2)
movej(p[-0.515259121872888, -0.227507970896191, 0.416729853758847, -0.866, -1.573, 1.671], a = 0.2, v = 0.2, t = 0.2)
movej(p[-0.515228905688988, -0.227466783617272, 0.417679989018104, -0.866, -1.573, 1.671], a = 0.2, v = 0.2, t = 0.2)
movej(p[-0.515220317810037, -0.227455077593545, 0.417950031278274, -0.866, -1.573, 1.671], a = 0.2, v = 0.2, t = 0.2)
movej(p[-0.515252183512661, -0.227498513309525, 0.416948027592954, -0.866, -1.573, 1.671], a = 0.2, v = 0.2, t = 0.2)
movej(p[-0.51528755588446, -0.227546728919681, 0.415835758162715, -0.866, -1.573, 1.671], a = 0.2, v = 0.2, t = 0.2)
movej(p[-0.5153212383647, -0.227592641061098, 0.414776626665472, -0.866, -1.573, 1.671], a = 0.2, v = 0.2, t = 0.2)
movej(p[-0.515346742461895, -0.227627405357219, 0.41397466100095, -0.866, -1.573, 1.671], a = 0.2, v = 0.2, t = 0.2)
movej(p[-0.515367886292813, -0.227656226232293, 0.413309802085043, -0.866, -1.573, 1.671], a = 0.2, v = 0.2, t = 0.2)
movej(p[-0.515374322876365, -0.227664999853838, 0.413107406408515, -0.866, -1.573, 1.671], a = 0.2, v = 0.2, t = 0.2)
movej(p[-0.515376866365027, -0.227668466849448, 0.413027427471822, -0.866, -1.573, 1.671], a = 0.2, v = 0.2, t = 0.2)
movej(p[-0.515379634788061, -0.227672240450113, 0.412940375567939, -0.866, -1.573, 1.671], a = 0.2, v = 0.2, t = 0.2)
movej(p[-0.515379577112581, -0.227672161833432, 0.41294218914927, -0.866, -1.573, 1.671], a = 0.2, v = 0.2, t = 0.2)
movej(p[-0.515361461244356, -0.227647468334084, 0.413511835045305, -0.866, -1.573, 1.671], a = 0.2, v = 0.2, t = 0.2)
movej(p[-0.515334780567372, -0.227611100257681, 0.414350797768977, -0.866, -1.573, 1.671], a = 0.2, v = 0.2, t = 0.2)
movej(p[-0.515308278684375, -0.227574975892988, 0.415184138390524, -0.866, -1.573, 1.671], a = 0.2, v = 0.2, t = 0.2)
movej(p[-0.515272912080123, -0.2275267681445, 0.41629622646263, -0.866, -1.573, 1.671], a = 0.2, v = 0.2, t = 0.2)
movej(p[-0.515240025521506, -0.227481940913274, 0.417330330537507, -0.866, -1.573, 1.671], a = 0.2, v = 0.2, t = 0.2)
movej(p[-0.515222013469145, -0.227457388923952, 0.417896711987146, -0.866, -1.573, 1.671], a = 0.2, v = 0.2, t = 0.2)
movej(p[-0.515246185262755, -0.227490337174753, 0.417136640051367, -0.866, -1.573, 1.671], a = 0.2, v = 0.2, t = 0.2)
movej(p[-0.515286979129662, -0.227545942752876, 0.415853893976024, -0.866, -1.573, 1.671], a = 0.2, v = 0.2, t = 0.2)
movej(p[-0.515325367929058, -0.227598270015422, 0.41464677424218, -0.866, -1.573, 1.671], a = 0.2, v = 0.2, t = 0.2)
movej(p[-0.515355728301658, -0.227639653836042, 0.413692105029596, -0.866, -1.573, 1.671], a = 0.2, v = 0.2, t = 0.2)
movej(p[-0.515368134297376, -0.227656564284019, 0.41330200368532, -0.866, -1.573, 1.671], a = 0.2, v = 0.2, t = 0.2)
movej(p[-0.515374305573721, -0.227664976268834, 0.413107950482914, -0.866, -1.573, 1.671], a = 0.2, v = 0.2, t = 0.2)
movej(p[-0.515376981715987, -0.227668624082809, 0.413023800309161, -0.866, -1.573, 1.671], a = 0.2, v = 0.2, t = 0.2)
movej(p[-0.515381930272159, -0.227675369393997, 0.41286819503097, -0.866, -1.573, 1.671], a = 0.2, v = 0.2, t = 0.2)
movej(p[-0.515379703998636, -0.227672334790129, 0.412938199270342, -0.866, -1.573, 1.671], a = 0.2, v = 0.2, t = 0.2)
movej(p[-0.515360048195099, -0.227645542225412, 0.413556267787912, -0.866, -1.573, 1.671], a = 0.2, v = 0.2, t = 0.2)
movej(p[-0.515337750854584, -0.227615149016727, 0.414257398330436, -0.866, -1.573, 1.671], a = 0.2, v = 0.2, t = 0.2)
movej(p[-0.515303843439973, -0.227568930270257, 0.41532360279487, -0.866, -1.573, 1.671], a = 0.2, v = 0.2, t = 0.2)
movej(p[-0.515265679574949, -0.227516909612764, 0.416523649561524, -0.866, -1.573, 1.671], a = 0.2, v = 0.2, t = 0.2)
movej(p[-0.51523468477207, -0.227474661008659, 0.417498268168748, -0.866, -1.573, 1.671], a = 0.2, v = 0.2, t = 0.2)
movej(p[-0.515222820925863, -0.227458489557479, 0.417871321848513, -0.866, -1.573, 1.671], a = 0.2, v = 0.2, t = 0.2)
movej(p[-0.515246577456018, -0.22749087176818, 0.417124307698317, -0.866, -1.573, 1.671], a = 0.2, v = 0.2, t = 0.2)
movej(p[-0.515288542135166, -0.227548073264918, 0.415804745921957, -0.866, -1.573, 1.671], a = 0.2, v = 0.2, t = 0.2)
movej(p[-0.515328286308339, -0.227602248019456, 0.414555007026836, -0.866, -1.573, 1.671], a = 0.2, v = 0.2, t = 0.2)
movej(p[-0.515356876043707, -0.227641218307984, 0.413656014761111, -0.866, -1.573, 1.671], a = 0.2, v = 0.2, t = 0.2)
movej(p[-0.515368013178868, -0.22765639918899, 0.413305812206115, -0.866, -1.573, 1.671], a = 0.2, v = 0.2, t = 0.2)
movej(p[-0.515374069104254, -0.227664653940443, 0.413115386166371, -0.866, -1.573, 1.671], a = 0.2, v = 0.2, t = 0.2)
movej(p[-0.515380448012327, -0.227673348945308, 0.412914804071174, -0.866, -1.573, 1.671], a = 0.2, v = 0.2, t = 0.2)
movej(p[-0.515381572684184, -0.227674881970578, 0.412879439235221, -0.866, -1.573, 1.671], a = 0.2, v = 0.2, t = 0.2)
movej(p[-0.515381370820004, -0.227674606812196, 0.412885786769879, -0.866, -1.573, 1.671], a = 0.2, v = 0.2, t = 0.2)
movej(p[-0.515371865900923, -0.227661650783248, 0.413184664973211, -0.866, -1.573, 1.671], a = 0.2, v = 0.2, t = 0.2)
movej(p[-0.515354667072828, -0.227638207289121, 0.413725474926084, -0.866, -1.573, 1.671], a = 0.2, v = 0.2, t = 0.2)
movej(p[-0.515317708625332, -0.227587829720251, 0.414887617842923, -0.866, -1.573, 1.671], a = 0.2, v = 0.2, t = 0.2)
movej(p[-0.515283830048461, -0.22754165028212, 0.415952915516691, -0.866, -1.573, 1.671], a = 0.2, v = 0.2, t = 0.2)
movej(p[-0.515262397840144, -0.227512436323643, 0.416626842339252, -0.866, -1.573, 1.671], a = 0.2, v = 0.2, t = 0.2)
movej(p[-0.515235221154033, -0.227475392143788, 0.417481401862371, -0.866, -1.573, 1.671], a = 0.2, v = 0.2, t = 0.2)
movej(p[-0.515205108785997, -0.227434346374895, 0.418428272675232, -0.866, -1.573, 1.671], a = 0.2, v = 0.2, t = 0.2)
movej(p[-0.515190211209549, -0.227414039686319, 0.418896720733002, -0.866, -1.573, 1.671], a = 0.2, v = 0.2, t = 0.2)
movej(p[-0.515238249116726, -0.227479519519515, 0.417386188842499, -0.866, -1.573, 1.671], a = 0.2, v = 0.2, t = 0.2)
movej(p[-0.515285485334733, -0.227543906580851, 0.415900865732495, -0.866, -1.573, 1.671], a = 0.2, v = 0.2, t = 0.2)
movej(p[-0.515319917596211, -0.227590840739114, 0.414818157677949, -0.866, -1.573, 1.671], a = 0.2, v = 0.2, t = 0.2)
movej(p[-0.515350168385399, -0.227632075188041, 0.413866934269894, -0.866, -1.573, 1.671], a = 0.2, v = 0.2, t = 0.2)
movej(p[-0.515366934647395, -0.227654929057065, 0.413339726177003, -0.866, -1.573, 1.671], a = 0.2, v = 0.2, t = 0.2)
movej(p[-0.515374242130693, -0.227664889790485, 0.413109945422378, -0.866, -1.573, 1.671], a = 0.2, v = 0.2, t = 0.2)
movej(p[-0.515377806475349, -0.22766974830134, 0.412997866096129, -0.866, -1.573, 1.671], a = 0.2, v = 0.2, t = 0.2)
movej(p[-0.515382755031521, -0.227676493612528, 0.412842260817938, -0.866, -1.573, 1.671], a = 0.2, v = 0.2, t = 0.2)
movej(p[-0.515382368605806, -0.227675966880769, 0.412854411812855, -0.866, -1.573, 1.671], a = 0.2, v = 0.2, t = 0.2)
movej(p[-0.515382760799069, -0.227676501474196, 0.412842079459805, -0.866, -1.573, 1.671], a = 0.2, v = 0.2, t = 0.2)
movej(p[-0.515382495491862, -0.227676139837466, 0.412850421933927, -0.866, -1.573, 1.671], a = 0.2, v = 0.2, t = 0.2)
movej(p[-0.515375758995814, -0.227666957409182, 0.413062248233376, -0.866, -1.573, 1.671], a = 0.2, v = 0.2, t = 0.2)
movej(p[-0.515347036606842, -0.227627806302289, 0.413965411736162, -0.866, -1.573, 1.671], a = 0.2, v = 0.2, t = 0.2)
movej(p[-0.515312344805705, -0.227580518368964, 0.415056280906696, -0.866, -1.573, 1.671], a = 0.2, v = 0.2, t = 0.2)
movej(p[-0.515287417463309, -0.227546540239648, 0.41584011075791, -0.866, -1.573, 1.671], a = 0.2, v = 0.2, t = 0.2)
movej(p[-0.515253734983069, -0.227500628098231, 0.416899242255153, -0.866, -1.573, 1.671], a = 0.2, v = 0.2, t = 0.2)
movej(p[-0.515226068055379, -0.227462915676591, 0.417769217219584, -0.866, -1.573, 1.671], a = 0.2, v = 0.2, t = 0.2)
movej(p[-0.515237908831395, -0.2274790556811, 0.417396888972351, -0.866, -1.573, 1.671], a = 0.2, v = 0.2, t = 0.2)
movej(p[-0.515286310094095, -0.227545030799382, 0.415874931519463, -0.866, -1.573, 1.671], a = 0.2, v = 0.2, t = 0.2)
movej(p[-0.515320973057493, -0.227592279424368, 0.414784969139594, -0.866, -1.573, 1.671], a = 0.2, v = 0.2, t = 0.2)
movej(p[-0.515345537044366, -0.227625762268596, 0.414012564850765, -0.866, -1.573, 1.671], a = 0.2, v = 0.2, t = 0.2)
movej(p[-0.515364160456813, -0.227651147594732, 0.413426959439019, -0.866, -1.573, 1.671], a = 0.2, v = 0.2, t = 0.2)
movej(p[-0.51537565517995, -0.227666815899157, 0.413065512679771, -0.866, -1.573, 1.671], a = 0.2, v = 0.2, t = 0.2)
movej(p[-0.515378971520042, -0.227671336358287, 0.412961231753245, -0.866, -1.573, 1.671], a = 0.2, v = 0.2, t = 0.2)
movej(p[-0.515378769655863, -0.227671061199905, 0.412967579287903, -0.866, -1.573, 1.671], a = 0.2, v = 0.2, t = 0.2)
movej(p[-0.515369299342069, -0.227658152340965, 0.413265369342436, -0.866, -1.573, 1.671], a = 0.2, v = 0.2, t = 0.2)
movej(p[-0.515334780567372, -0.227611100257681, 0.414350797768977, -0.866, -1.573, 1.671], a = 0.2, v = 0.2, t = 0.2)
movej(p[-0.515292302576453, -0.227553199072487, 0.415686500419183, -0.866, -1.573, 1.671], a = 0.2, v = 0.2, t = 0.2)
movej(p[-0.515255943953948, -0.227503639117095, 0.41682978209018, -0.866, -1.573, 1.671], a = 0.2, v = 0.2, t = 0.2)
movej(p[-0.515230261062765, -0.227468631109264, 0.417637369856828, -0.866, -1.573, 1.671], a = 0.2, v = 0.2, t = 0.2)
movej(p[-0.515205743216275, -0.22743521115838, 0.418408323280592, -0.866, -1.573, 1.671], a = 0.2, v = 0.2, t = 0.2)
movej(p[-0.515233952293476, -0.227473662576817, 0.41752130065165, -0.866, -1.573, 1.671], a = 0.2, v = 0.2, t = 0.2)
movej(p[-0.515282763052084, -0.227540195873531, 0.415986466771313, -0.866, -1.573, 1.671], a = 0.2, v = 0.2, t = 0.2)
movej(p[-0.515314697965284, -0.227583725929528, 0.414982286788396, -0.866, -1.573, 1.671], a = 0.2, v = 0.2, t = 0.2)
movej(p[-0.51533701837599, -0.227614150584885, 0.414280430813339, -0.866, -1.573, 1.671], a = 0.2, v = 0.2, t = 0.2)
movej(p[-0.515349510884928, -0.227631178957883, 0.413887609097067, -0.866, -1.573, 1.671], a = 0.2, v = 0.2, t = 0.2)
movej(p[-0.515356483850444, -0.227640683714557, 0.413668347114161, -0.866, -1.573, 1.671], a = 0.2, v = 0.2, t = 0.2)
movej(p[-0.515350698999814, -0.227632798461502, 0.41385024932165, -0.866, -1.573, 1.671], a = 0.2, v = 0.2, t = 0.2)
movej(p[-0.515310724124721, -0.227578309240241, 0.415107242542094, -0.866, -1.573, 1.671], a = 0.2, v = 0.2, t = 0.2)
movej(p[-0.515267207975165, -0.227518992954798, 0.416475589656256, -0.866, -1.573, 1.671], a = 0.2, v = 0.2, t = 0.2)
movej(p[-0.515226765928685, -0.227463866938425, 0.41774727288548, -0.866, -1.573, 1.671], a = 0.2, v = 0.2, t = 0.2)
movej(p[-0.515189772875902, -0.227413442199547, 0.418910503951117, -0.866, -1.573, 1.671], a = 0.2, v = 0.2, t = 0.2)
movej(p[-0.515140794858402, -0.22734668091446, 0.420450597217314, -0.866, -1.573, 1.671], a = 0.2, v = 0.2, t = 0.2)
movej(p[-0.515093062631268, -0.227281617749671, 0.421951517126764, -0.866, -1.573, 1.671], a = 0.2, v = 0.2, t = 0.2)
movej(p[-0.515082438807878, -0.227267136557122, 0.422285578807915, -0.866, -1.573, 1.671], a = 0.2, v = 0.2, t = 0.2)
movej(p[-0.515153304669985, -0.227363732872462, 0.420057231426643, -0.866, -1.573, 1.671], a = 0.2, v = 0.2, t = 0.2)
movej(p[-0.515213494800769, -0.22744577724024, 0.418164577949719, -0.866, -1.573, 1.671], a = 0.2, v = 0.2, t = 0.2)
movej(p[-0.515255984326784, -0.227503694148771, 0.416828512583248, -0.866, -1.573, 1.671], a = 0.2, v = 0.2, t = 0.2)
movej(p[-0.515285577615501, -0.22754403236754, 0.415897964002365, -0.866, -1.573, 1.671], a = 0.2, v = 0.2, t = 0.2)
movej(p[-0.515310908686257, -0.227578560813619, 0.415101439081835, -0.866, -1.573, 1.671], a = 0.2, v = 0.2, t = 0.2)
movej(p[-0.515335057409675, -0.227611477617748, 0.414342092578589, -0.866, -1.573, 1.671], a = 0.2, v = 0.2, t = 0.2)
movej(p[-0.51534881877917, -0.227630235557717, 0.413909372073037, -0.866, -1.573, 1.671], a = 0.2, v = 0.2, t = 0.2)
movej(p[-0.515360180848703, -0.227645723043777, 0.413552096550851, -0.866, -1.573, 1.671], a = 0.2, v = 0.2, t = 0.2)
movej(p[-0.515367690196181, -0.227655958935579, 0.413315968261568, -0.866, -1.573, 1.671], a = 0.2, v = 0.2, t = 0.2)
movej(p[-0.515374547810737, -0.227665306458892, 0.413100333441325, -0.866, -1.573, 1.671], a = 0.2, v = 0.2, t = 0.2)
movej(p[-0.515370579737722, -0.227659897631273, 0.41322510783689, -0.866, -1.573, 1.671], a = 0.2, v = 0.2, t = 0.2)
movej(p[-0.515339336930281, -0.227617310975441, 0.414207524843837, -0.866, -1.573, 1.671], a = 0.2, v = 0.2, t = 0.2)
movej(p[-0.515308947719941, -0.227575887846482, 0.415163100847086, -0.866, -1.573, 1.671], a = 0.2, v = 0.2, t = 0.2)
movej(p[-0.515268148085487, -0.22752027440669, 0.416446028280562, -0.866, -1.573, 1.671], a = 0.2, v = 0.2, t = 0.2)
movej(p[-0.515238081857834, -0.227479291531141, 0.417391448228358, -0.866, -1.573, 1.671], a = 0.2, v = 0.2, t = 0.2)
movej(p[-0.515242315238056, -0.22748506199549, 0.41725833135867, -0.866, -1.573, 1.671], a = 0.2, v = 0.2, t = 0.2)
movej(p[-0.51529531900405, -0.227557310724878, 0.415591650115577, -0.866, -1.573, 1.671], a = 0.2, v = 0.2, t = 0.2)
movej(p[-0.515332692715001, -0.227608254333847, 0.414416449413156, -0.866, -1.573, 1.671], a = 0.2, v = 0.2, t = 0.2)
movej(p[-0.515356426174964, -0.227640605097876, 0.413670160695492, -0.866, -1.573, 1.671], a = 0.2, v = 0.2, t = 0.2)
movej(p[-0.515370683553586, -0.227660039141298, 0.413221843390495, -0.866, -1.573, 1.671], a = 0.2, v = 0.2, t = 0.2)
movej(p[-0.515376929808055, -0.227668553327797, 0.413025432532359, -0.866, -1.573, 1.671], a = 0.2, v = 0.2, t = 0.2)
movej(p[-0.515379011892878, -0.227671391389963, 0.412959962246313, -0.866, -1.573, 1.671], a = 0.2, v = 0.2, t = 0.2)
movej(p[-0.515378215971256, -0.227670306479772, 0.41298498966868, -0.866, -1.573, 1.671], a = 0.2, v = 0.2, t = 0.2)
movej(p[-0.515367603682961, -0.227655841010558, 0.413318688633564, -0.866, -1.573, 1.671], a = 0.2, v = 0.2, t = 0.2)
movej(p[-0.515332767693124, -0.227608356535532, 0.414414091757426, -0.866, -1.573, 1.671], a = 0.2, v = 0.2, t = 0.2)
movej(p[-0.515299886902055, -0.227563537165974, 0.41544801447417, -0.866, -1.573, 1.671], a = 0.2, v = 0.2, t = 0.2)
movej(p[-0.515269895652526, -0.227522656492109, 0.416391076766236, -0.866, -1.573, 1.671], a = 0.2, v = 0.2, t = 0.2)
movej(p[-0.515240648416688, -0.227482789973424, 0.417310743859133, -0.866, -1.573, 1.671], a = 0.2, v = 0.2, t = 0.2)
movej(p[-0.515226754393589, -0.227463851215089, 0.417747635601746, -0.866, -1.573, 1.671], a = 0.2, v = 0.2, t = 0.2)
movej(p[-0.515262732357928, -0.22751289230039, 0.416616323567533, -0.866, -1.573, 1.671], a = 0.2, v = 0.2, t = 0.2)
movej(p[-0.515314801781147, -0.227583867439553, 0.414979022342, -0.866, -1.573, 1.671], a = 0.2, v = 0.2, t = 0.2)
movej(p[-0.515343414586707, -0.227622869174753, 0.414079304643742, -0.866, -1.573, 1.671], a = 0.2, v = 0.2, t = 0.2)
movej(p[-0.515361588130412, -0.227647641290781, 0.413507845166377, -0.866, -1.573, 1.671], a = 0.2, v = 0.2, t = 0.2)
movej(p[-0.515370297127871, -0.227659512409538, 0.413233994385412, -0.866, -1.573, 1.671], a = 0.2, v = 0.2, t = 0.2)
movej(p[-0.515378688910191, -0.227670951136552, 0.412970118301766, -0.866, -1.573, 1.671], a = 0.2, v = 0.2, t = 0.2)
movej(p[-0.51537975013902, -0.227672397683474, 0.412936748405278, -0.866, -1.573, 1.671], a = 0.2, v = 0.2, t = 0.2)
movej(p[-0.515377725729677, -0.227669638237988, 0.413000405109992, -0.866, -1.573, 1.671], a = 0.2, v = 0.2, t = 0.2)
movej(p[-0.515364264272677, -0.227651289104757, 0.413423694992623, -0.866, -1.573, 1.671], a = 0.2, v = 0.2, t = 0.2)
movej(p[-0.515334826707755, -0.227611163151026, 0.414349346903913, -0.866, -1.573, 1.671], a = 0.2, v = 0.2, t = 0.2)
movej(p[-0.515300878920309, -0.227564889372879, 0.415416820875278, -0.866, -1.573, 1.671], a = 0.2, v = 0.2, t = 0.2)
movej(p[-0.515273673396457, -0.227527805884683, 0.416272287189062, -0.866, -1.573, 1.671], a = 0.2, v = 0.2, t = 0.2)
movej(p[-0.515253089017695, -0.227499747591409, 0.416919554366059, -0.866, -1.573, 1.671], a = 0.2, v = 0.2, t = 0.2)
movej(p[-0.515247557939176, -0.227492208251749, 0.417093476815692, -0.866, -1.573, 1.671], a = 0.2, v = 0.2, t = 0.2)
movej(p[-0.515284741321043, -0.227542892425672, 0.415924260931663, -0.866, -1.573, 1.671], a = 0.2, v = 0.2, t = 0.2)
movej(p[-0.515322063124062, -0.227593765279629, 0.41475069245244, -0.866, -1.573, 1.671], a = 0.2, v = 0.2, t = 0.2)
movej(p[-0.515353069462036, -0.22763602960707, 0.41377571112895, -0.866, -1.573, 1.671], a = 0.2, v = 0.2, t = 0.2)
movej(p[-0.515365169777711, -0.227652523386641, 0.413395221765728, -0.866, -1.573, 1.671], a = 0.2, v = 0.2, t = 0.2)
movej(p[-0.515371681339387, -0.22766139920987, 0.41319046843347, -0.866, -1.573, 1.671], a = 0.2, v = 0.2, t = 0.2)
movej(p[-0.515377333536414, -0.22766910364456, 0.413012737463042, -0.866, -1.573, 1.671], a = 0.2, v = 0.2, t = 0.2)
movej(p[-0.515380730622178, -0.227673734167042, 0.412905917522652, -0.866, -1.573, 1.671], a = 0.2, v = 0.2, t = 0.2)
movej(p[-0.515381018999577, -0.227674127250445, 0.412896849615998, -0.866, -1.573, 1.671], a = 0.2, v = 0.2, t = 0.2)
movej(p[-0.515381047837317, -0.227674166558785, 0.412895942825332, -0.866, -1.573, 1.671], a = 0.2, v = 0.2, t = 0.2)
movej(p[-0.515384594879329, -0.227679001484636, 0.412784407573482, -0.866, -1.573, 1.671], a = 0.2, v = 0.2, t = 0.2)
movej(p[-0.515378412067887, -0.227670573776486, 0.412978823492154, -0.866, -1.573, 1.671], a = 0.2, v = 0.2, t = 0.2)
movej(p[-0.515359033106654, -0.227644158571835, 0.413588186819336, -0.866, -1.573, 1.671], a = 0.2, v = 0.2, t = 0.2)
movej(p[-0.515334590238288, -0.227610840822636, 0.414356782587369, -0.866, -1.573, 1.671], a = 0.2, v = 0.2, t = 0.2)
movej(p[-0.515308019144715, -0.227574622117925, 0.415192299506513, -0.866, -1.573, 1.671], a = 0.2, v = 0.2, t = 0.2)
movej(p[-0.515273506137566, -0.227527577896309, 0.416277546574922, -0.866, -1.573, 1.671], a = 0.2, v = 0.2, t = 0.2)
movej(p[-0.51524078683784, -0.227482978653457, 0.417306391263939, -0.866, -1.573, 1.671], a = 0.2, v = 0.2, t = 0.2)
movej(p[-0.515225162550345, -0.227461681394707, 0.417797690446479, -0.866, -1.573, 1.671], a = 0.2, v = 0.2, t = 0.2)
movej(p[-0.515260465711569, -0.227509802664846, 0.416687597313837, -0.866, -1.573, 1.671], a = 0.2, v = 0.2, t = 0.2)
movej(p[-0.515301444140011, -0.227565659816347, 0.415399047778236, -0.866, -1.573, 1.671], a = 0.2, v = 0.2, t = 0.2)
movej(p[-0.51533535732217, -0.227611886424486, 0.414332661955669, -0.866, -1.573, 1.671], a = 0.2, v = 0.2, t = 0.2)
movej(p[-0.515360953700133, -0.227646776507296, 0.413527794561017, -0.866, -1.573, 1.671], a = 0.2, v = 0.2, t = 0.2)
movej(p[-0.515371254540837, -0.227660817446435, 0.413203888935319, -0.866, -1.573, 1.671], a = 0.2, v = 0.2, t = 0.2)
movej(p[-0.515375666715046, -0.227666831622494, 0.413065149963505, -0.866, -1.573, 1.671], a = 0.2, v = 0.2, t = 0.2)
movej(p[-0.515377789172705, -0.227669724716336, 0.412998410170528, -0.866, -1.573, 1.671], a = 0.2, v = 0.2, t = 0.2)
movej(p[-0.51538221288201, -0.227675754615731, 0.412859308482448, -0.866, -1.573, 1.671], a = 0.2, v = 0.2, t = 0.2)
movej(p[-0.515381676500048, -0.227675023480603, 0.412876174788826, -0.866, -1.573, 1.671], a = 0.2, v = 0.2, t = 0.2)
movej(p[-0.515381630359664, -0.227674960587258, 0.41287762565389, -0.866, -1.573, 1.671], a = 0.2, v = 0.2, t = 0.2)
movej(p[-0.515374259433337, -0.227664913375489, 0.413109401347979, -0.866, -1.573, 1.671], a = 0.2, v = 0.2, t = 0.2)
movej(p[-0.515354788191336, -0.22763837238415, 0.41372166640529, -0.866, -1.573, 1.671], a = 0.2, v = 0.2, t = 0.2)
movej(p[-0.515324520099504, -0.227597114350219, 0.414673433887744, -0.866, -1.573, 1.671], a = 0.2, v = 0.2, t = 0.2)
movej(p[-0.515294182797096, -0.227555761976272, 0.415627377667795, -0.866, -1.573, 1.671], a = 0.2, v = 0.2, t = 0.2)
movej(p[-0.515271302934235, -0.227524574739114, 0.416346825381762, -0.866, -1.573, 1.671], a = 0.2, v = 0.2, t = 0.2)
movej(p[-0.51524826158003, -0.227493167375251, 0.417071351123455, -0.866, -1.573, 1.671], a = 0.2, v = 0.2, t = 0.2)
movej(p[-0.515239160389308, -0.227480761663067, 0.41735753425747, -0.866, -1.573, 1.671], a = 0.2, v = 0.2, t = 0.2)
movej(p[-0.515274988397398, -0.227529598344998, 0.416230937534718, -0.866, -1.573, 1.671], a = 0.2, v = 0.2, t = 0.2)
movej(p[-0.515322714856984, -0.227594653648119, 0.414730198983401, -0.866, -1.573, 1.671], a = 0.2, v = 0.2, t = 0.2)
movej(p[-0.515347630664285, -0.227628616054099, 0.413946731848454, -0.866, -1.573, 1.671], a = 0.2, v = 0.2, t = 0.2)
movej(p[-0.515361184402053, -0.227647090974018, 0.413520540235693, -0.866, -1.573, 1.671], a = 0.2, v = 0.2, t = 0.2)
movej(p[-0.515371035374013, -0.227660518703049, 0.413210780544376, -0.866, -1.573, 1.671], a = 0.2, v = 0.2, t = 0.2)
movej(p[-0.515377806475349, -0.22766974830134, 0.412997866096129, -0.866, -1.573, 1.671], a = 0.2, v = 0.2, t = 0.2)
movej(p[-0.515379311805373, -0.227671800196702, 0.412950531623393, -0.866, -1.573, 1.671], a = 0.2, v = 0.2, t = 0.2)
movej(p[-0.515380136564735, -0.227672924415233, 0.412924597410361, -0.866, -1.573, 1.671], a = 0.2, v = 0.2, t = 0.2)
movej(p[-0.515383862400735, -0.227678003052794, 0.412807440056385, -0.866, -1.573, 1.671], a = 0.2, v = 0.2, t = 0.2)
movej(p[-0.515382668518301, -0.227676375687507, 0.412844981189934, -0.866, -1.573, 1.671], a = 0.2, v = 0.2, t = 0.2)
movej(p[-0.515370314430515, -0.227659535994542, 0.413233450311012, -0.866, -1.573, 1.671], a = 0.2, v = 0.2, t = 0.2)
movej(p[-0.51534635603618, -0.227626878625459, 0.413986811995867, -0.866, -1.573, 1.671], a = 0.2, v = 0.2, t = 0.2)
movej(p[-0.515325287183386, -0.22759815995207, 0.414649313256043, -0.866, -1.573, 1.671], a = 0.2, v = 0.2, t = 0.2)
movej(p[-0.515294407731468, -0.227556068581325, 0.415620304700605, -0.866, -1.573, 1.671], a = 0.2, v = 0.2, t = 0.2)
movej(p[-0.515268499905914, -0.227520753968441, 0.416434965434443, -0.866, -1.573, 1.671], a = 0.2, v = 0.2, t = 0.2)
movej(p[-0.515251041538159, -0.227496956699251, 0.416983936503306, -0.866, -1.573, 1.671], a = 0.2, v = 0.2, t = 0.2)
movej(p[-0.515241161728459, -0.22748348966188, 0.417294602985288, -0.866, -1.573, 1.671], a = 0.2, v = 0.2, t = 0.2)
movej(p[-0.51527690322333, -0.227532208418791, 0.416170726634532, -0.866, -1.573, 1.671], a = 0.2, v = 0.2, t = 0.2)
movej(p[-0.515316647396503, -0.227586383173329, 0.414920987739411, -0.866, -1.573, 1.671], a = 0.2, v = 0.2, t = 0.2)
movej(p[-0.515350502903182, -0.227632531164788, 0.413856415498175, -0.866, -1.573, 1.671], a = 0.2, v = 0.2, t = 0.2)
movej(p[-0.515364212364745, -0.227651218349745, 0.413425327215821, -0.866, -1.573, 1.671], a = 0.2, v = 0.2, t = 0.2)
movej(p[-0.51537224655909, -0.227662169653339, 0.413172695336427, -0.866, -1.573, 1.671], a = 0.2, v = 0.2, t = 0.2)
movej(p[-0.515377529633046, -0.227669370941274, 0.413006571286517, -0.866, -1.573, 1.671], a = 0.2, v = 0.2, t = 0.2)
movej(p[-0.515381751478172, -0.227675125682287, 0.412873817133096, -0.866, -1.573, 1.671], a = 0.2, v = 0.2, t = 0.2)
movej(p[-0.515381272771689, -0.227674473163839, 0.412888869858142, -0.866, -1.573, 1.671], a = 0.2, v = 0.2, t = 0.2)
movej(p[-0.515366859669271, -0.22765482685538, 0.413342083832733, -0.866, -1.573, 1.671], a = 0.2, v = 0.2, t = 0.2)
movej(p[-0.515344308556645, -0.227624087733301, 0.414051194133113, -0.866, -1.573, 1.671], a = 0.2, v = 0.2, t = 0.2)
movej(p[-0.515311941077346, -0.2275799680522, 0.415068975976012, -0.866, -1.573, 1.671], a = 0.2, v = 0.2, t = 0.2)
movej(p[-0.515279256382908, -0.227535415979356, 0.416096732516231, -0.866, -1.573, 1.671], a = 0.2, v = 0.2, t = 0.2)
movej(p[-0.515253152460722, -0.227499834069758, 0.416917559426595, -0.866, -1.573, 1.671], a = 0.2, v = 0.2, t = 0.2)
movej(p[-0.515241842299121, -0.22748441733871, 0.417273202725584, -0.866, -1.573, 1.671], a = 0.2, v = 0.2, t = 0.2)
movej(p[-0.51527192006187, -0.227525415937595, 0.416327420061521, -0.866, -1.573, 1.671], a = 0.2, v = 0.2, t = 0.2)
movej(p[-0.515314617219612, -0.227583615866176, 0.414984825802259, -0.866, -1.573, 1.671], a = 0.2, v = 0.2, t = 0.2)
movej(p[-0.515349072551281, -0.227630581471111, 0.413901392315181, -0.866, -1.573, 1.671], a = 0.2, v = 0.2, t = 0.2)
movej(p[-0.515364950610888, -0.227652224643255, 0.413402113374786, -0.866, -1.573, 1.671], a = 0.2, v = 0.2, t = 0.2)
movej(p[-0.515372644519901, -0.227662712108435, 0.413160181625244, -0.866, -1.573, 1.671], a = 0.2, v = 0.2, t = 0.2)
movej(p[-0.515376595290272, -0.22766809735105, 0.413035951304078, -0.866, -1.573, 1.671], a = 0.2, v = 0.2, t = 0.2)
movej(p[-0.515382016785379, -0.227675487319018, 0.412865474658973, -0.866, -1.573, 1.671], a = 0.2, v = 0.2, t = 0.2)
movej(p[-0.51538229939523, -0.227675872540752, 0.412856588110452, -0.866, -1.573, 1.671], a = 0.2, v = 0.2, t = 0.2)
movej(p[-0.515378729283027, -0.227671006168229, 0.412968848794835, -0.866, -1.573, 1.671], a = 0.2, v = 0.2, t = 0.2)
movej(p[-0.51536225139843, -0.227648545382607, 0.413486988981072, -0.866, -1.573, 1.671], a = 0.2, v = 0.2, t = 0.2)
movej(p[-0.515331608415979, -0.227606776340253, 0.414450544742177, -0.866, -1.573, 1.671], a = 0.2, v = 0.2, t = 0.2)
movej(p[-0.515297055035994, -0.227559677086961, 0.415537061317517, -0.866, -1.573, 1.671], a = 0.2, v = 0.2, t = 0.2)
movej(p[-0.515268344182118, -0.227520541703404, 0.416439862104037, -0.866, -1.573, 1.671], a = 0.2, v = 0.2, t = 0.2)
movej(p[-0.515248538422333, -0.227493544735317, 0.417062645933067, -0.866, -1.573, 1.671], a = 0.2, v = 0.2, t = 0.2)
movej(p[-0.515239027735704, -0.227480580844701, 0.417361705494531, -0.866, -1.573, 1.671], a = 0.2, v = 0.2, t = 0.2)
movej(p[-0.515274746160383, -0.22752926815494, 0.416238554576307, -0.866, -1.573, 1.671], a = 0.2, v = 0.2, t = 0.2)
movej(p[-0.515322639878861, -0.227594551446434, 0.414732556639131, -0.866, -1.573, 1.671], a = 0.2, v = 0.2, t = 0.2)
movej(p[-0.515351800601479, -0.227634300040099, 0.41381560991823, -0.866, -1.573, 1.671], a = 0.2, v = 0.2, t = 0.2)
movej(p[-0.51536631751976, -0.227654087858583, 0.413359131497243, -0.866, -1.573, 1.671], a = 0.2, v = 0.2, t = 0.2)
movej(p[-0.515374276735981, -0.227664936960493, 0.41310885727358, -0.866, -1.573, 1.671], a = 0.2, v = 0.2, t = 0.2)
movej(p[-0.515381618824568, -0.227674944863922, 0.412877988370157, -0.866, -1.573, 1.671], a = 0.2, v = 0.2, t = 0.2)
movej(p[-0.515382074460859, -0.227675565935698, 0.412863661077643, -0.866, -1.573, 1.671], a = 0.2, v = 0.2, t = 0.2)
movej(p[-0.51538221288201, -0.227675754615731, 0.412859308482448, -0.866, -1.573, 1.671], a = 0.2, v = 0.2, t = 0.2)
movej(p[-0.515382956895701, -0.22767676877091, 0.41283591328328, -0.866, -1.573, 1.671], a = 0.2, v = 0.2, t = 0.2)
movej(p[-0.515385188936771, -0.227679811236445, 0.412765727685774, -0.866, -1.573, 1.671], a = 0.2, v = 0.2, t = 0.2)
movej(p[-0.515373117458836, -0.227663356765215, 0.413145310258331, -0.866, -1.573, 1.671], a = 0.2, v = 0.2, t = 0.2)
movej(p[-0.515348680358018, -0.227630046877684, 0.413913724668232, -0.866, -1.573, 1.671], a = 0.2, v = 0.2, t = 0.2)
movej(p[-0.5153279690932, -0.227601815627713, 0.414564981724156, -0.866, -1.573, 1.671], a = 0.2, v = 0.2, t = 0.2)
movej(p[-0.515301795960438, -0.227566139378099, 0.415387984932117, -0.866, -1.573, 1.671], a = 0.2, v = 0.2, t = 0.2)
movej(p[-0.515273777212321, -0.227527947394708, 0.416269022742666, -0.866, -1.573, 1.671], a = 0.2, v = 0.2, t = 0.2)
movej(p[-0.515253117855434, -0.22749978689975, 0.416918647575393, -0.866, -1.573, 1.671], a = 0.2, v = 0.2, t = 0.2)
movej(p[-0.515258112551991, -0.227506595104282, 0.416761591432138, -0.866, -1.573, 1.671], a = 0.2, v = 0.2, t = 0.2)
movej(p[-0.515292896633896, -0.227554008824296, 0.415667820531474, -0.866, -1.573, 1.671], a = 0.2, v = 0.2, t = 0.2)
movej(p[-0.515329422515292, -0.227603796768062, 0.414519279474618, -0.866, -1.573, 1.671], a = 0.2, v = 0.2, t = 0.2)
movej(p[-0.51535809876388, -0.227642884981611, 0.413617566836896, -0.866, -1.573, 1.671], a = 0.2, v = 0.2, t = 0.2)
movej(p[-0.515369051337506, -0.227657814289239, 0.413273167742159, -0.866, -1.573, 1.671], a = 0.2, v = 0.2, t = 0.2)
movej(p[-0.515375620574662, -0.227666768729149, 0.41306660082857, -0.866, -1.573, 1.671], a = 0.2, v = 0.2, t = 0.2)
movej(p[-0.515378838866438, -0.227671155539922, 0.412965402990306, -0.866, -1.573, 1.671], a = 0.2, v = 0.2, t = 0.2)
movej(p[-0.515384364177409, -0.227678687017914, 0.412791661898806, -0.866, -1.573, 1.671], a = 0.2, v = 0.2, t = 0.2)
movej(p[-0.515384675625001, -0.227679111547989, 0.412781868559619, -0.866, -1.573, 1.671], a = 0.2, v = 0.2, t = 0.2)
movej(p[-0.515384139243038, -0.22767838041286, 0.412798734865997, -0.866, -1.573, 1.671], a = 0.2, v = 0.2, t = 0.2)
movej(p[-0.515383568255787, -0.227677602107723, 0.412816689321172, -0.866, -1.573, 1.671], a = 0.2, v = 0.2, t = 0.2)
movej(p[-0.515362170652758, -0.227648435319255, 0.413489527994935, -0.866, -1.573, 1.671], a = 0.2, v = 0.2, t = 0.2)
movej(p[-0.515337566293049, -0.22761489744335, 0.414263201790695, -0.866, -1.573, 1.671], a = 0.2, v = 0.2, t = 0.2)
movej(p[-0.515311877634318, -0.227579881573851, 0.415070970915476, -0.866, -1.573, 1.671], a = 0.2, v = 0.2, t = 0.2)
movej(p[-0.515291454746899, -0.227552043407283, 0.415713160064747, -0.866, -1.573, 1.671], a = 0.2, v = 0.2, t = 0.2)
movej(p[-0.515266302470131, -0.227517758672914, 0.416504062883151, -0.866, -1.573, 1.671], a = 0.2, v = 0.2, t = 0.2)
movej(p[-0.515248226974742, -0.227493120205243, 0.417072439272254, -0.866, -1.573, 1.671], a = 0.2, v = 0.2, t = 0.2)
movej(p[-0.515278760373781, -0.227534739875904, 0.416112329315677, -0.866, -1.573, 1.671], a = 0.2, v = 0.2, t = 0.2)
movej(p[-0.515316658931599, -0.227586398896666, 0.414920625023145, -0.866, -1.573, 1.671], a = 0.2, v = 0.2, t = 0.2)
movej(p[-0.51534386445545, -0.227623482384861, 0.414065158709361, -0.866, -1.573, 1.671], a = 0.2, v = 0.2, t = 0.2)
movej(p[-0.515361668876083, -0.227647751354134, 0.413505306152514, -0.866, -1.573, 1.671], a = 0.2, v = 0.2, t = 0.2)
movej(p[-0.515375660947498, -0.227666823760826, 0.413065331321638, -0.866, -1.573, 1.671], a = 0.2, v = 0.2, t = 0.2)
movej(p[-0.515379254129893, -0.227671721580021, 0.412952345204723, -0.866, -1.573, 1.671], a = 0.2, v = 0.2, t = 0.2)
movej(p[-0.515380857508234, -0.227673907123739, 0.412901927643724, -0.866, -1.573, 1.671], a = 0.2, v = 0.2, t = 0.2)
movej(p[-0.515382991500989, -0.227676815940918, 0.412834825134481, -0.866, -1.573, 1.671], a = 0.2, v = 0.2, t = 0.2)
movej(p[-0.51537720088281, -0.227668922826195, 0.413016908700103, -0.866, -1.573, 1.671], a = 0.2, v = 0.2, t = 0.2)
movej(p[-0.515351708320711, -0.22763417425341, 0.413818511648359, -0.866, -1.573, 1.671], a = 0.2, v = 0.2, t = 0.2)
movej(p[-0.51532544867473, -0.227598380078775, 0.414644235228317, -0.866, -1.573, 1.671], a = 0.2, v = 0.2, t = 0.2)
movej(p[-0.515301911311398, -0.22756629661146, 0.415384357769455, -0.866, -1.573, 1.671], a = 0.2, v = 0.2, t = 0.2)
movej(p[-0.515270224402762, -0.227523104607188, 0.41638073935265, -0.866, -1.573, 1.671], a = 0.2, v = 0.2, t = 0.2)
movej(p[-0.515241934579889, -0.227484543125399, 0.417270300995454, -0.866, -1.573, 1.671], a = 0.2, v = 0.2, t = 0.2)
movej(p[-0.515235180781197, -0.227475337112112, 0.417482671369302, -0.866, -1.573, 1.671], a = 0.2, v = 0.2, t = 0.2)
movej(p[-0.515279296755744, -0.227535471011032, 0.4160954630093, -0.866, -1.573, 1.671], a = 0.2, v = 0.2, t = 0.2)
movej(p[-0.515315430443878, -0.227584724361371, 0.414959254305493, -0.866, -1.573, 1.671], a = 0.2, v = 0.2, t = 0.2)
movej(p[-0.515345052570335, -0.22762510188848, 0.414027798933945, -0.866, -1.573, 1.671], a = 0.2, v = 0.2, t = 0.2)
movej(p[-0.515367355678398, -0.227655502958832, 0.413326487033287, -0.866, -1.573, 1.671], a = 0.2, v = 0.2, t = 0.2)
movej(p[-0.515375758995814, -0.227666957409182, 0.413062248233376, -0.866, -1.573, 1.671], a = 0.2, v = 0.2, t = 0.2)
movej(p[-0.515379761674116, -0.22767241340681, 0.412936385689011, -0.866, -1.573, 1.671], a = 0.2, v = 0.2, t = 0.2)
movej(p[-0.515381474635868, -0.227674748322221, 0.412882522323484, -0.866, -1.573, 1.671], a = 0.2, v = 0.2, t = 0.2)
movej(p[-0.515386180955025, -0.22768116344335, 0.412734534086883, -0.866, -1.573, 1.671], a = 0.2, v = 0.2, t = 0.2)
movej(p[-0.515386065604065, -0.227681006209989, 0.412738161249545, -0.866, -1.573, 1.671], a = 0.2, v = 0.2, t = 0.2)
movej(p[-0.515380961324097, -0.227674048633764, 0.412898663197329, -0.866, -1.573, 1.671], a = 0.2, v = 0.2, t = 0.2)
movej(p[-0.515363981662826, -0.227650903883023, 0.413432581541145, -0.866, -1.573, 1.671], a = 0.2, v = 0.2, t = 0.2)
movej(p[-0.515338437192795, -0.227616084555225, 0.414235816712599, -0.866, -1.573, 1.671], a = 0.2, v = 0.2, t = 0.2)
movej(p[-0.515305821708933, -0.227571626822398, 0.415261396955221, -0.866, -1.573, 1.671], a = 0.2, v = 0.2, t = 0.2)
movej(p[-0.515275876599788, -0.227530809041878, 0.416203008382222, -0.866, -1.573, 1.671], a = 0.2, v = 0.2, t = 0.2)
movej(p[-0.515252887153515, -0.227499472433028, 0.416925901900717, -0.866, -1.573, 1.671], a = 0.2, v = 0.2, t = 0.2)
movej(p[-0.515232049002641, -0.22747106822636, 0.41758114883557, -0.866, -1.573, 1.671], a = 0.2, v = 0.2, t = 0.2)
movej(p[-0.515256290006827, -0.227504110817178, 0.416818900602194, -0.866, -1.573, 1.671], a = 0.2, v = 0.2, t = 0.2)
movej(p[-0.515306502279595, -0.227572554499228, 0.415239996695516, -0.866, -1.573, 1.671], a = 0.2, v = 0.2, t = 0.2)
movej(p[-0.51534647138714, -0.22762703585882, 0.413983184833205, -0.866, -1.573, 1.671], a = 0.2, v = 0.2, t = 0.2)
movej(p[-0.515364494974597, -0.227651603571479, 0.4134164406673, -0.866, -1.573, 1.671], a = 0.2, v = 0.2, t = 0.2)
movej(p[-0.515373642305703, -0.227664072177008, 0.41312880666822, -0.866, -1.573, 1.671], a = 0.2, v = 0.2, t = 0.2)
movej(p[-0.515382132136339, -0.227675644552379, 0.412861847496312, -0.866, -1.573, 1.671], a = 0.2, v = 0.2, t = 0.2)
movej(p[-0.515383672071651, -0.227677743617748, 0.412813424874777, -0.866, -1.573, 1.671], a = 0.2, v = 0.2, t = 0.2)
movej(p[-0.515382922290413, -0.227676721600901, 0.412837001432078, -0.866, -1.573, 1.671], a = 0.2, v = 0.2, t = 0.2)
movej(p[-0.515365781137798, -0.227653356723454, 0.413375997803621, -0.866, -1.573, 1.671], a = 0.2, v = 0.2, t = 0.2)
movej(p[-0.515342128423506, -0.227621116022778, 0.414119747507421, -0.866, -1.573, 1.671], a = 0.2, v = 0.2, t = 0.2)
movej(p[-0.5153096398257, -0.227576831246648, 0.415141337871115, -0.866, -1.573, 1.671], a = 0.2, v = 0.2, t = 0.2)
movej(p[-0.515275692038253, -0.227530557468501, 0.416208811842481, -0.866, -1.573, 1.671], a = 0.2, v = 0.2, t = 0.2)
movej(p[-0.515251427963874, -0.227497483431011, 0.416971785508389, -0.866, -1.573, 1.671], a = 0.2, v = 0.2, t = 0.2)
movej(p[-0.515230203387285, -0.227468552492584, 0.417639183438159, -0.866, -1.573, 1.671], a = 0.2, v = 0.2, t = 0.2)
movej(p[-0.515247073465145, -0.227491547871632, 0.417108710898871, -0.866, -1.573, 1.671], a = 0.2, v = 0.2, t = 0.2)
movej(p[-0.515292066106986, -0.227552876744097, 0.415693936102639, -0.866, -1.573, 1.671], a = 0.2, v = 0.2, t = 0.2)
movej(p[-0.515337099121662, -0.227614260648238, 0.414277891799475, -0.866, -1.573, 1.671], a = 0.2, v = 0.2, t = 0.2)
movej(p[-0.515358456351855, -0.22764337240503, 0.413606322632645, -0.866, -1.573, 1.671], a = 0.2, v = 0.2, t = 0.2)
movej(p[-0.515371093049493, -0.227660597319729, 0.413208966963045, -0.866, -1.573, 1.671], a = 0.2, v = 0.2, t = 0.2)
movej(p[-0.515378487046011, -0.22767067597817, 0.412976465836424, -0.866, -1.573, 1.671], a = 0.2, v = 0.2, t = 0.2)
movej(p[-0.515383735514679, -0.227677830096097, 0.412811429935313, -0.866, -1.573, 1.671], a = 0.2, v = 0.2, t = 0.2)
movej(p[-0.515383954681502, -0.227678128839483, 0.412804538326255, -0.866, -1.573, 1.671], a = 0.2, v = 0.2, t = 0.2)
movej(p[-0.515376745246519, -0.227668301754419, 0.413031235992617, -0.866, -1.573, 1.671], a = 0.2, v = 0.2, t = 0.2)
movej(p[-0.515354159528605, -0.227637515462332, 0.413741434441796, -0.866, -1.573, 1.671], a = 0.2, v = 0.2, t = 0.2)
movej(p[-0.515319317771221, -0.227590023125637, 0.414837018923791, -0.866, -1.573, 1.671], a = 0.2, v = 0.2, t = 0.2)
movej(p[-0.515284729785947, -0.227542876702336, 0.415924623647929, -0.866, -1.573, 1.671], a = 0.2, v = 0.2, t = 0.2)
movej(p[-0.515255845905632, -0.227503505468738, 0.416832865178442, -0.866, -1.573, 1.671], a = 0.2, v = 0.2, t = 0.2)
movej(p[-0.515232942972579, -0.227472286784908, 0.417553038324941, -0.866, -1.573, 1.671], a = 0.2, v = 0.2, t = 0.2)
movej(p[-0.515232960275222, -0.227472310369912, 0.417552494250542, -0.866, -1.573, 1.671], a = 0.2, v = 0.2, t = 0.2)
movej(p[-0.515276159209639, -0.227531194263613, 0.4161941218337, -0.866, -1.573, 1.671], a = 0.2, v = 0.2, t = 0.2)
movej(p[-0.515322882115876, -0.227594881636492, 0.414724939597541, -0.866, -1.573, 1.671], a = 0.2, v = 0.2, t = 0.2)
movej(p[-0.51535036448203, -0.227632342484755, 0.413860768093369, -0.866, -1.573, 1.671], a = 0.2, v = 0.2, t = 0.2)
movej(p[-0.515367707498825, -0.227655982520583, 0.413315424187169, -0.866, -1.573, 1.671], a = 0.2, v = 0.2, t = 0.2)
movej(p[-0.515375707087882, -0.22766688665417, 0.413063880456574, -0.866, -1.573, 1.671], a = 0.2, v = 0.2, t = 0.2)
movej(p[-0.515383723979583, -0.227677814372761, 0.412811792651579, -0.866, -1.573, 1.671], a = 0.2, v = 0.2, t = 0.2)
movej(p[-0.515384773673316, -0.227679245196346, 0.412778785471357, -0.866, -1.573, 1.671], a = 0.2, v = 0.2, t = 0.2)
movej(p[-0.515384987072592, -0.227679536078064, 0.412772075220432, -0.866, -1.573, 1.671], a = 0.2, v = 0.2, t = 0.2)
movej(p[-0.515387743960529, -0.227683293955392, 0.412685386032815, -0.866, -1.573, 1.671], a = 0.2, v = 0.2, t = 0.2)
movej(p[-0.515375326429715, -0.227666367784079, 0.413075850093357, -0.866, -1.573, 1.671], a = 0.2, v = 0.2, t = 0.2)
movej(p[-0.515349545490216, -0.227631226127891, 0.413886520948268, -0.866, -1.573, 1.671], a = 0.2, v = 0.2, t = 0.2)
movej(p[-0.515322455317325, -0.227594299873057, 0.41473836009939, -0.866, -1.573, 1.671], a = 0.2, v = 0.2, t = 0.2)
movej(p[-0.515298329664099, -0.2275614145156, 0.415496981170104, -0.866, -1.573, 1.671], a = 0.2, v = 0.2, t = 0.2)
movej(p[-0.515265996790088, -0.227517342004507, 0.416513674864204, -0.866, -1.573, 1.671], a = 0.2, v = 0.2, t = 0.2)
movej(p[-0.51523989863545, -0.227481767956577, 0.417334320416435, -0.866, -1.573, 1.671], a = 0.2, v = 0.2, t = 0.2)
movej(p[-0.515245671950984, -0.227489637486296, 0.417152780925212, -0.866, -1.573, 1.671], a = 0.2, v = 0.2, t = 0.2)
movej(p[-0.515277295416593, -0.227532743012219, 0.416158394281482, -0.866, -1.573, 1.671], a = 0.2, v = 0.2, t = 0.2)
movej(p[-0.515312379410993, -0.227580565538972, 0.415055192757898, -0.866, -1.573, 1.671], a = 0.2, v = 0.2, t = 0.2)
movej(p[-0.5153430050908, -0.227622310996322, 0.414092181071192, -0.866, -1.573, 1.671], a = 0.2, v = 0.2, t = 0.2)
movej(p[-0.515366652037544, -0.22765454383533, 0.413348612725524, -0.866, -1.573, 1.671], a = 0.2, v = 0.2, t = 0.2)
movej(p[-0.51537413831483, -0.22766474828046, 0.413113209868774, -0.866, -1.573, 1.671], a = 0.2, v = 0.2, t = 0.2)
movej(p[-0.515378856169082, -0.227671179124926, 0.412964858915907, -0.866, -1.573, 1.671], a = 0.2, v = 0.2, t = 0.2)
movej(p[-0.515382582005082, -0.227676257762486, 0.412847701561931, -0.866, -1.573, 1.671], a = 0.2, v = 0.2, t = 0.2)
movej(p[-0.515386273235793, -0.227681289230039, 0.412731632356753, -0.866, -1.573, 1.671], a = 0.2, v = 0.2, t = 0.2)
movej(p[-0.515386209792765, -0.22768120275169, 0.412733627296217, -0.866, -1.573, 1.671], a = 0.2, v = 0.2, t = 0.2)
movej(p[-0.515376237702297, -0.227667609927631, 0.413047195508329, -0.866, -1.573, 1.671], a = 0.2, v = 0.2, t = 0.2)
movej(p[-0.515357372052834, -0.227641894411436, 0.413640417961665, -0.866, -1.573, 1.671], a = 0.2, v = 0.2, t = 0.2)
movej(p[-0.515328845760494, -0.227603010601257, 0.414537415287927, -0.866, -1.573, 1.671], a = 0.2, v = 0.2, t = 0.2)
movej(p[-0.515297401088873, -0.227560148787044, 0.415526179829531, -0.866, -1.573, 1.671], a = 0.2, v = 0.2, t = 0.2)
movej(p[-0.515271539403703, -0.227524897067504, 0.416339389698305, -0.866, -1.573, 1.671], a = 0.2, v = 0.2, t = 0.2)
movej(p[-0.515251600990314, -0.227497719281052, 0.416966344764396, -0.866, -1.573, 1.671], a = 0.2, v = 0.2, t = 0.2)
movej(p[-0.515244679932731, -0.227488285279391, 0.417183974524104, -0.866, -1.573, 1.671], a = 0.2, v = 0.2, t = 0.2)
movej(p[-0.51527670135915, -0.227531933260409, 0.41617707416919, -0.866, -1.573, 1.671], a = 0.2, v = 0.2, t = 0.2)
movej(p[-0.515323989485089, -0.227596391076758, 0.414690118835988, -0.866, -1.573, 1.671], a = 0.2, v = 0.2, t = 0.2)
movej(p[-0.515349574327956, -0.227631265436232, 0.413885614157603, -0.866, -1.573, 1.671], a = 0.2, v = 0.2, t = 0.2)
movej(p[-0.515365636949098, -0.227653160181753, 0.413380531756948, -0.866, -1.573, 1.671], a = 0.2, v = 0.2, t = 0.2)
movej(p[-0.515374928468904, -0.227665825328983, 0.413088363804541, -0.866, -1.573, 1.671], a = 0.2, v = 0.2, t = 0.2)
movej(p[-0.515383850865639, -0.227677987329458, 0.412807802772651, -0.866, -1.573, 1.671], a = 0.2, v = 0.2, t = 0.2)
movej(p[-0.515385217774511, -0.227679850544786, 0.412764820895109, -0.866, -1.573, 1.671], a = 0.2, v = 0.2, t = 0.2)
movej(p[-0.515385413871143, -0.227680117841499, 0.412758654718584, -0.866, -1.573, 1.671], a = 0.2, v = 0.2, t = 0.2)
movej(p[-0.515387663214857, -0.227683183892039, 0.412687925046679, -0.866, -1.573, 1.671], a = 0.2, v = 0.2, t = 0.2)
movej(p[-0.515373169366768, -0.227663427520228, 0.413143678035133, -0.866, -1.573, 1.671], a = 0.2, v = 0.2, t = 0.2)
movej(p[-0.515343841385258, -0.227623450938189, 0.414065884141894, -0.866, -1.573, 1.671], a = 0.2, v = 0.2, t = 0.2)
movej(p[-0.515311641164851, -0.227579559245461, 0.415078406598933, -0.866, -1.573, 1.671], a = 0.2, v = 0.2, t = 0.2)
movej(p[-0.515279325593484, -0.227535510319373, 0.416094556218634, -0.866, -1.573, 1.671], a = 0.2, v = 0.2, t = 0.2)
movej(p[-0.515244754910854, -0.227488387481076, 0.417181616868373, -0.866, -1.573, 1.671], a = 0.2, v = 0.2, t = 0.2)
movej(p[-0.515220190923981, -0.227454904636847, 0.417954021157202, -0.866, -1.573, 1.671], a = 0.2, v = 0.2, t = 0.2)
movej(p[-0.515237418589816, -0.227478387439315, 0.417412304413663, -0.866, -1.573, 1.671], a = 0.2, v = 0.2, t = 0.2)
movej(p[-0.515289378429624, -0.227549213206785, 0.415778448992659, -0.866, -1.573, 1.671], a = 0.2, v = 0.2, t = 0.2)
movej(p[-0.515331187384976, -0.227606202438486, 0.414463783885892, -0.866, -1.573, 1.671], a = 0.2, v = 0.2, t = 0.2)
movej(p[-0.51535638003458, -0.227640542204532, 0.413671611560557, -0.866, -1.573, 1.671], a = 0.2, v = 0.2, t = 0.2)
movej(p[-0.515375920487157, -0.227667177535888, 0.413057170205649, -0.866, -1.573, 1.671], a = 0.2, v = 0.2, t = 0.2)
movej(p[-0.515380217310407, -0.227673034478586, 0.412922058396497, -0.866, -1.573, 1.671], a = 0.2, v = 0.2, t = 0.2)
movej(p[-0.515382899220221, -0.227676690154229, 0.412837726864611, -0.866, -1.573, 1.671], a = 0.2, v = 0.2, t = 0.2)
movej(p[-0.515385396568499, -0.227680094256495, 0.412759198792983, -0.866, -1.573, 1.671], a = 0.2, v = 0.2, t = 0.2)
movej(p[-0.515388326482876, -0.227684087983865, 0.412667068861373, -0.866, -1.573, 1.671], a = 0.2, v = 0.2, t = 0.2)
movej(p[-0.515377864150829, -0.227669826918021, 0.412996052514798, -0.866, -1.573, 1.671], a = 0.2, v = 0.2, t = 0.2)
movej(p[-0.515350266433715, -0.227632208836398, 0.413863851181632, -0.866, -1.573, 1.671], a = 0.2, v = 0.2, t = 0.2)
movej(p[-0.515323695340142, -0.227595990131688, 0.414699368100776, -0.866, -1.573, 1.671], a = 0.2, v = 0.2, t = 0.2)
movej(p[-0.515287659700324, -0.227546870429706, 0.41583249371632, -0.866, -1.573, 1.671], a = 0.2, v = 0.2, t = 0.2)
movej(p[-0.515252569938376, -0.227499040041285, 0.416935876598037, -0.866, -1.573, 1.671], a = 0.2, v = 0.2, t = 0.2)
movej(p[-0.515232291239656, -0.227471398416418, 0.41757353179398, -0.866, -1.573, 1.671], a = 0.2, v = 0.2, t = 0.2)
movej(p[-0.515232896832195, -0.227472223891563, 0.417554489190006, -0.866, -1.573, 1.671], a = 0.2, v = 0.2, t = 0.2)
movej(p[-0.515268920936917, -0.227521327870209, 0.416421726290728, -0.866, -1.573, 1.671], a = 0.2, v = 0.2, t = 0.2)
movej(p[-0.51531376362251, -0.227582452339304, 0.415011666805956, -0.866, -1.573, 1.671], a = 0.2, v = 0.2, t = 0.2)
movej(p[-0.515350975842117, -0.227633175821568, 0.413841544131262, -0.866, -1.573, 1.671], a = 0.2, v = 0.2, t = 0.2)
movej(p[-0.515367107673834, -0.227655164907106, 0.41333428543301, -0.866, -1.573, 1.671], a = 0.2, v = 0.2, t = 0.2)
movej(p[-0.515375124565535, -0.227666092625697, 0.413082197628016, -0.866, -1.573, 1.671], a = 0.2, v = 0.2, t = 0.2)
movej(p[-0.515381128582989, -0.227674276622138, 0.412893403811469, -0.866, -1.573, 1.671], a = 0.2, v = 0.2, t = 0.2)
movej(p[-0.515386111744449, -0.227681069103334, 0.41273671038448, -0.866, -1.573, 1.671], a = 0.2, v = 0.2, t = 0.2)
movej(p[-0.515386100209353, -0.227681053379998, 0.412737073100746, -0.866, -1.573, 1.671], a = 0.2, v = 0.2, t = 0.2)
movej(p[-0.515375084192699, -0.22766603759402, 0.413083467134947, -0.866, -1.573, 1.671], a = 0.2, v = 0.2, t = 0.2)
movej(p[-0.515352907970692, -0.227635809480365, 0.413780789156677, -0.866, -1.573, 1.671], a = 0.2, v = 0.2, t = 0.2)
movej(p[-0.515316601256119, -0.227586320279985, 0.414922438604476, -0.866, -1.573, 1.671], a = 0.2, v = 0.2, t = 0.2)
movej(p[-0.515279296755744, -0.227535471011032, 0.4160954630093, -0.866, -1.573, 1.671], a = 0.2, v = 0.2, t = 0.2)
movej(p[-0.515249818817986, -0.227495290025625, 0.417022384427521, -0.866, -1.573, 1.671], a = 0.2, v = 0.2, t = 0.2)
movej(p[-0.515226258384463, -0.227463175111637, 0.417763232401192, -0.866, -1.573, 1.671], a = 0.2, v = 0.2, t = 0.2)
movej(p[-0.515227567617855, -0.227464959710284, 0.417722064104981, -0.866, -1.573, 1.671], a = 0.2, v = 0.2, t = 0.2)
movej(p[-0.51527103185948, -0.227524205240715, 0.416355349214017, -0.866, -1.573, 1.671], a = 0.2, v = 0.2, t = 0.2)
movej(p[-0.515321820887046, -0.227593435089571, 0.41475830949403, -0.866, -1.573, 1.671], a = 0.2, v = 0.2, t = 0.2)
movej(p[-0.515347699874861, -0.227628710394115, 0.413944555550857, -0.866, -1.573, 1.671], a = 0.2, v = 0.2, t = 0.2)
movej(p[-0.515365054426751, -0.22765236615328, 0.41339884892839, -0.866, -1.573, 1.671], a = 0.2, v = 0.2, t = 0.2)
movej(p[-0.515375274521783, -0.227666297029066, 0.413077482316555, -0.866, -1.573, 1.671], a = 0.2, v = 0.2, t = 0.2)
movej(p[-0.515383850865639, -0.227677987329458, 0.412807802772651, -0.866, -1.573, 1.671], a = 0.2, v = 0.2, t = 0.2)
movej(p[-0.51538502167788, -0.227679583248072, 0.412770987071634, -0.866, -1.573, 1.671], a = 0.2, v = 0.2, t = 0.2)
movej(p[-0.515385396568499, -0.227680094256495, 0.412759198792983, -0.866, -1.573, 1.671], a = 0.2, v = 0.2, t = 0.2)
movej(p[-0.51537923682725, -0.227671697995017, 0.412952889279123, -0.866, -1.573, 1.671], a = 0.2, v = 0.2, t = 0.2)
movej(p[-0.515347324984242, -0.227628199385692, 0.413956343829508, -0.866, -1.573, 1.671], a = 0.2, v = 0.2, t = 0.2)
movej(p[-0.515309795549495, -0.227577043511685, 0.415136441201522, -0.866, -1.573, 1.671], a = 0.2, v = 0.2, t = 0.2)
movej(p[-0.515275692038253, -0.227530557468501, 0.416208811842481, -0.866, -1.573, 1.671], a = 0.2, v = 0.2, t = 0.2)
movej(p[-0.51524808855359, -0.227492931525209, 0.417076791867448, -0.866, -1.573, 1.671], a = 0.2, v = 0.2, t = 0.2)
movej(p[-0.515219245046111, -0.227453615323287, 0.417983763891029, -0.866, -1.573, 1.671], a = 0.2, v = 0.2, t = 0.2)
movej(p[-0.515221788534773, -0.227457082318898, 0.417903784954336, -0.866, -1.573, 1.671], a = 0.2, v = 0.2, t = 0.2)
movej(p[-0.515267409839344, -0.22751926811318, 0.416469242121597, -0.866, -1.573, 1.671], a = 0.2, v = 0.2, t = 0.2)
movej(p[-0.515311323949712, -0.227579126853719, 0.415088381296253, -0.866, -1.573, 1.671], a = 0.2, v = 0.2, t = 0.2)
movej(p[-0.515343351143679, -0.227622782696405, 0.414081299583206, -0.866, -1.573, 1.671], a = 0.2, v = 0.2, t = 0.2)
movej(p[-0.515363208811396, -0.227649850419504, 0.413456883530979, -0.866, -1.573, 1.671], a = 0.2, v = 0.2, t = 0.2)
movej(p[-0.515378244808996, -0.227670345788112, 0.412984082878014, -0.866, -1.573, 1.671], a = 0.2, v = 0.2, t = 0.2)
movej(p[-0.515382893452673, -0.227676682292561, 0.412837908222744, -0.866, -1.573, 1.671], a = 0.2, v = 0.2, t = 0.2)
movej(p[-0.515384756370672, -0.227679221611342, 0.412779329545756, -0.866, -1.573, 1.671], a = 0.2, v = 0.2, t = 0.2)
movej(p[-0.515387645912213, -0.227683160307035, 0.412688469121078, -0.866, -1.573, 1.671], a = 0.2, v = 0.2, t = 0.2)
movej(p[-0.515385523454554, -0.227680267213192, 0.412755208914055, -0.866, -1.573, 1.671], a = 0.2, v = 0.2, t = 0.2)
movej(p[-0.515366836599079, -0.227654795408708, 0.413342809265265, -0.866, -1.573, 1.671], a = 0.2, v = 0.2, t = 0.2)
movej(p[-0.515335432300294, -0.227611988626171, 0.414330304299938, -0.866, -1.573, 1.671], a = 0.2, v = 0.2, t = 0.2)
movej(p[-0.515305983200276, -0.227571846949103, 0.415256318927494, -0.866, -1.573, 1.671], a = 0.2, v = 0.2, t = 0.2)
movej(p[-0.515269791836663, -0.227522514982085, 0.416394341212631, -0.866, -1.573, 1.671], a = 0.2, v = 0.2, t = 0.2)
movej(p[-0.515238491353741, -0.227479849709573, 0.417378571800909, -0.866, -1.573, 1.671], a = 0.2, v = 0.2, t = 0.2)
movej(p[-0.515225935401775, -0.227462734858226, 0.417773388456645, -0.866, -1.573, 1.671], a = 0.2, v = 0.2, t = 0.2)
movej(p[-0.515255009611174, -0.22750236552687, 0.41685916210774, -0.866, -1.573, 1.671], a = 0.2, v = 0.2, t = 0.2)
movej(p[-0.515297770211944, -0.227560651933799, 0.415514572909014, -0.866, -1.573, 1.671], a = 0.2, v = 0.2, t = 0.2)
movej(p[-0.515334388374109, -0.227610565664254, 0.414363130122028, -0.866, -1.573, 1.671], a = 0.2, v = 0.2, t = 0.2)
movej(p[-0.515363404908027, -0.227650117716218, 0.413450717354454, -0.866, -1.573, 1.671], a = 0.2, v = 0.2, t = 0.2)
movej(p[-0.515373659608347, -0.227664095762012, 0.41312826259382, -0.866, -1.573, 1.671], a = 0.2, v = 0.2, t = 0.2)
movej(p[-0.515380044283968, -0.227672798628544, 0.41292749914049, -0.866, -1.573, 1.671], a = 0.2, v = 0.2, t = 0.2)
movej(p[-0.515383222202908, -0.22767713040764, 0.412827570809158, -0.866, -1.573, 1.671], a = 0.2, v = 0.2, t = 0.2)
movej(p[-0.515388384158356, -0.227684166600546, 0.412665255280043, -0.866, -1.573, 1.671], a = 0.2, v = 0.2, t = 0.2)
