def moving():
set_payload_mass(0)
set_tcp(p[0,0,0,0,0,0])
movej(p[-0.3136, 0.0799, 0.4912, -1.759, -0.841, 1.762], a = 0.2, v = 0.2, t = 0.2)
movej(p[-0.313655047080716, 0.0799668505870577, 0.491200904386343, -1.7584201726253, -0.839823223091396, 1.7635581614385], a = 0.2, v = 0.2, t = 0.2)
movej(p[-0.3136, 0.0799, 0.4912, -1.759, -0.841, 1.762], a = 0.2, v = 0.2, t = 0.2)
movej(p[-0.313655047080716, 0.0799668505870577, 0.491200904386343, -1.7584201726253, -0.839823223091396, 1.7635581614385], a = 0.2, v = 0.2, t = 0.2)
movej(p[-0.3136, 0.0799, 0.4912, -1.759, -0.841, 1.762], a = 0.2, v = 0.2, t = 0.2)
movej(p[-0.3136, 0.0799, 0.4912, -1.759, -0.841, 1.762], a = 0.2, v = 0.2, t = 0.2)
movej(p[-0.313734238251017, 0.0799063249631345, 0.491175396203438, -1.75918852047752, -0.840796179140539, 1.76222334600109], a = 0.2, v = 0.2, t = 0.2)
movej(p[-0.313868576193787, 0.0799126426706812, 0.491150789421777, -1.75937703470197, -0.840592331920364, 1.76244668273765], a = 0.2, v = 0.2, t = 0.2)
movej(p[-0.313877648143319, 0.0799119824122, 0.491150517777845, -1.75958898515914, -0.840372992266293, 1.76263640049107], a = 0.2, v = 0.2, t = 0.2)
movej(p[-0.313880981635465, 0.0799346547160509, 0.491206737298193, -1.75965348178896, -0.840318586678823, 1.76263538388621], a = 0.2, v = 0.2, t = 0.2)
movej(p[-0.313324066749856, 0.0800622035170775, 0.491704120343284, -1.76632034162917, -0.841814524807874, 1.76309027212256], a = 0.2, v = 0.2, t = 0.2)
movej(p[-0.313324066749856, 0.0800622035170775, 0.491704120343284, -1.76671722321372, -0.841464937086454, 1.76314708310278], a = 0.2, v = 0.2, t = 0.2)
movej(p[-0.313516844682896, 0.0800499956015516, 0.491609297902209, -1.76671054412464, -0.841454227940727, 1.7631483934684], a = 0.2, v = 0.2, t = 0.2)
movej(p[-0.313515304559948, 0.0800383378114967, 0.491586198682474, -1.76449154362406, -0.839872988870503, 1.7633987217834], a = 0.2, v = 0.2, t = 0.2)
movej(p[-0.313511229350208, 0.080003032279886, 0.491535914767519, -1.76140363875504, -0.837323268423147, 1.76397649852732], a = 0.2, v = 0.2, t = 0.2)
movej(p[-0.313782606615016, 0.0798977722726031, 0.491290629197188, -1.75743146068023, -0.835700381436706, 1.76302879098758], a = 0.2, v = 0.2, t = 0.2)
movej(p[-0.314447794324227, 0.0799887759663543, 0.491141033979222, -1.75685886814, -0.836293659366246, 1.76251867960909], a = 0.2, v = 0.2, t = 0.2)
movej(p[-0.314605696156338, 0.0800440593420386, 0.491154566894243, -1.75660549325909, -0.836294467731867, 1.76261751660693], a = 0.2, v = 0.2, t = 0.2)
movej(p[-0.314622194897865, 0.0800605773149067, 0.491162922018441, -1.75496506555731, -0.836982513597885, 1.76152276873129], a = 0.2, v = 0.2, t = 0.2)
movej(p[-0.314621718968494, 0.0800489738838602, 0.491148431197926, -1.75381204099418, -0.835751182387843, 1.76149793756442], a = 0.2, v = 0.2, t = 0.2)
movej(p[-0.314881931909139, 0.0801073156982356, 0.491094087953485, -1.75298416528074, -0.835816848899012, 1.7608669180805], a = 0.2, v = 0.2, t = 0.2)
movej(p[-0.314952725182562, 0.080163701666246, 0.491103599265145, -1.75358388743905, -0.83472702224086, 1.76117674643877], a = 0.2, v = 0.2, t = 0.2)
movej(p[-0.314953730673481, 0.0801732803000272, 0.491113897263149, -1.75488743603092, -0.833681294696103, 1.76090095027654], a = 0.2, v = 0.2, t = 0.2)
movej(p[-0.314901913369385, 0.0801641575908606, 0.49112744212098, -1.75534948753656, -0.834121620981196, 1.76093294968819], a = 0.2, v = 0.2, t = 0.2)
movej(p[-0.314338169342472, 0.0802226969297515, 0.491430491568963, -1.76065534467155, -0.837906253181621, 1.76284847727278], a = 0.2, v = 0.2, t = 0.2)
movej(p[-0.312716664522806, 0.0803577874094757, 0.492274410565127, -1.77248974043495, -0.843886733833171, 1.7660728764587], a = 0.2, v = 0.2, t = 0.2)
movej(p[-0.311173329493865, 0.0802744261701744, 0.492919970618279, -1.78335890278698, -0.839888928668183, 1.77289257633938], a = 0.2, v = 0.2, t = 0.2)
movej(p[-0.309192143479016, 0.0806233726035213, 0.494065755891017, -1.79141815083973, -0.836062197576756, 1.77527334772502], a = 0.2, v = 0.2, t = 0.2)
movej(p[-0.305022068475833, 0.0807399589563619, 0.496096513185761, -1.81829767257352, -0.826198488971111, 1.78700906267759], a = 0.2, v = 0.2, t = 0.2)
movej(p[-0.302682181795192, 0.0809840171652672, 0.49733325945417, -1.8224863104591, -0.821758965057782, 1.79042045056119], a = 0.2, v = 0.2, t = 0.2)
movej(p[-0.302683750646271, 0.0809989625513087, 0.497349327252475, -1.82506017168202, -0.819847358408374, 1.78664342542216], a = 0.2, v = 0.2, t = 0.2)
movej(p[-0.303551425727521, 0.08126307107215, 0.497018948647542, -1.82096269010973, -0.816171598168055, 1.78608294786825], a = 0.2, v = 0.2, t = 0.2)
movej(p[-0.305742736467115, 0.0807512779279855, 0.495745613389205, -1.8075610176259, -0.815319572617213, 1.78256090721629], a = 0.2, v = 0.2, t = 0.2)
movej(p[-0.308014380160056, 0.0803797725406899, 0.49451604983268, -1.79078715199372, -0.826354331831957, 1.77292298606898], a = 0.2, v = 0.2, t = 0.2)
movej(p[-0.310034000642797, 0.0800949814000926, 0.493442662557774, -1.77779948487183, -0.828046724618665, 1.76755830390949], a = 0.2, v = 0.2, t = 0.2)
movej(p[-0.311844473921427, 0.080015614614996, 0.492529830853247, -1.7694420796096, -0.830180659412224, 1.76407803274176], a = 0.2, v = 0.2, t = 0.2)
movej(p[-0.312571295837905, 0.0800699992106137, 0.492175925855421, -1.76380526010074, -0.83465972483504, 1.76223881944651], a = 0.2, v = 0.2, t = 0.2)
movej(p[-0.31314062824957, 0.0799973762025029, 0.491882692222083, -1.76374165134894, -0.834558177628496, 1.76225100663298], a = 0.2, v = 0.2, t = 0.2)
movej(p[-0.313786384329813, 0.0800489704073891, 0.491571884833413, -1.76071926350537, -0.832721288426959, 1.76186248497708], a = 0.2, v = 0.2, t = 0.2)
movej(p[-0.314236481953495, 0.0800935198587882, 0.491339995882544, -1.75813460354766, -0.835178857203072, 1.76064389441307], a = 0.2, v = 0.2, t = 0.2)
movej(p[-0.314449727605383, 0.0800577684034243, 0.491225504068905, -1.75731025174456, -0.835080256884565, 1.76147659096695], a = 0.2, v = 0.2, t = 0.2)
movej(p[-0.314618048837235, 0.0801982677002085, 0.491078384523939, -1.75706481943998, -0.83796577728786, 1.76333152543757], a = 0.2, v = 0.2, t = 0.2)
movej(p[-0.314621364817924, 0.0802298568116144, 0.491112346006719, -1.75984833371087, -0.837148987886944, 1.76525336197899], a = 0.2, v = 0.2, t = 0.2)
movej(p[-0.314326054736098, 0.0801434769717284, 0.491278758202285, -1.76048455706629, -0.837497460574842, 1.76540643879972], a = 0.2, v = 0.2, t = 0.2)
movej(p[-0.313166009357419, 0.0803014102593995, 0.491847296860645, -1.76807282501618, -0.836294533257301, 1.76814090533649], a = 0.2, v = 0.2, t = 0.2)
movej(p[-0.311625613548634, 0.0802738779300119, 0.492676416859871, -1.77991520726468, -0.832693996369932, 1.77520922044962], a = 0.2, v = 0.2, t = 0.2)
movej(p[-0.310823439893047, 0.0803593496077391, 0.493078331525675, -1.78886306280193, -0.829864301296749, 1.78062982937257], a = 0.2, v = 0.2, t = 0.2)
movej(p[-0.308317205331751, 0.0805561619878187, 0.494381837544385, -1.79545525410051, -0.83109693580581, 1.77826172208167], a = 0.2, v = 0.2, t = 0.2)
movej(p[-0.306068996520539, 0.0806179793958728, 0.495592384218105, -1.81147309653992, -0.824089382488866, 1.78791277854433], a = 0.2, v = 0.2, t = 0.2)
movej(p[-0.30356053813726, 0.0809374586180998, 0.496848415501919, -1.82299958253716, -0.82524980828779, 1.79313003364385], a = 0.2, v = 0.2, t = 0.2)
movej(p[-0.30356053813726, 0.0809374586180998, 0.496848415501919, -1.82248612326112, -0.825570862678139, 1.79384632147141], a = 0.2, v = 0.2, t = 0.2)
movej(p[-0.304495575758473, 0.0808613732138691, 0.496395359712662, -1.81475330980766, -0.822234185501384, 1.79134851677887], a = 0.2, v = 0.2, t = 0.2)
movej(p[-0.30753446945251, 0.0805527885840702, 0.494854908758365, -1.7898807238893, -0.834752269234206, 1.77035246475602], a = 0.2, v = 0.2, t = 0.2)
movej(p[-0.30933521483244, 0.0802669523281875, 0.494011845640037, -1.7866270211879, -0.827919979758898, 1.76824503434813], a = 0.2, v = 0.2, t = 0.2)
movej(p[-0.31087745982555, 0.080290039842768, 0.493111236591728, -1.78223466999752, -0.825667426242989, 1.7667522640094], a = 0.2, v = 0.2, t = 0.2)
movej(p[-0.311975716194516, 0.0801921163625756, 0.492564385286477, -1.77382447110039, -0.826119449720068, 1.76296698491165], a = 0.2, v = 0.2, t = 0.2)
movej(p[-0.313023384730416, 0.0801729301415689, 0.491952385418988, -1.76250806130382, -0.836059412050773, 1.76192980343296], a = 0.2, v = 0.2, t = 0.2)
movej(p[-0.313512226393848, 0.0801225819976447, 0.491710781233394, -1.75795643255484, -0.840666560797441, 1.76055157278378], a = 0.2, v = 0.2, t = 0.2)
movej(p[-0.313876176845971, 0.0800871942479622, 0.491529754534888, -1.75795643255484, -0.840666560797441, 1.76055157278378], a = 0.2, v = 0.2, t = 0.2)
movej(p[-0.314119907227137, 0.0800620717056116, 0.491389118553851, -1.7597373409895, -0.837507579812205, 1.76188160777965], a = 0.2, v = 0.2, t = 0.2)
movej(p[-0.31414549876001, 0.0800805664497886, 0.491361338743141, -1.76013406433801, -0.83653883182752, 1.76092105870572], a = 0.2, v = 0.2, t = 0.2)
movej(p[-0.314195972282506, 0.0800778029496666, 0.491335156944235, -1.76037930218575, -0.835023420481025, 1.75777333676642], a = 0.2, v = 0.2, t = 0.2)
movej(p[-0.314195972282506, 0.0800778029496666, 0.491335156944235, -1.76045387617299, -0.834981822973022, 1.75766991466188], a = 0.2, v = 0.2, t = 0.2)
movej(p[-0.313349893339861, 0.0800807379624899, 0.491841542872666, -1.77125130420807, -0.834661901394136, 1.75787077803575], a = 0.2, v = 0.2, t = 0.2)
movej(p[-0.310742586284979, 0.0800636384185536, 0.4933815445146, -1.78251391689766, -0.836277225822971, 1.76248358549175], a = 0.2, v = 0.2, t = 0.2)
movej(p[-0.308825867627455, 0.0802584385814549, 0.494351551867373, -1.7929051504897, -0.837221556046876, 1.76723215356175], a = 0.2, v = 0.2, t = 0.2)
movej(p[-0.306521869494427, 0.0804939000170193, 0.495598403957785, -1.80826129381923, -0.823600670318662, 1.78102607970795], a = 0.2, v = 0.2, t = 0.2)
movej(p[-0.304132650436193, 0.0806733186443135, 0.496892423701819, -1.81662305077304, -0.82026685000161, 1.79111657620156], a = 0.2, v = 0.2, t = 0.2)
movej(p[-0.302432772436523, 0.0809827718791994, 0.497673274764224, -1.81652789235783, -0.823424769766396, 1.79294105237456], a = 0.2, v = 0.2, t = 0.2)
movej(p[-0.302432772436523, 0.0809827718791994, 0.497673274764224, -1.81336258959672, -0.826828516137443, 1.79003219739113], a = 0.2, v = 0.2, t = 0.2)
movej(p[-0.303513545023291, 0.0809294298684611, 0.497134311420776, -1.80524610641852, -0.830635502125122, 1.78372454593098], a = 0.2, v = 0.2, t = 0.2)
movej(p[-0.306070131001925, 0.0806403110197392, 0.495857390371858, -1.79798461127434, -0.826324795687579, 1.78148227487857], a = 0.2, v = 0.2, t = 0.2)
movej(p[-0.30879028483803, 0.080438370037098, 0.494357307418334, -1.78637290606137, -0.83154732754143, 1.77008324491495], a = 0.2, v = 0.2, t = 0.2)
movej(p[-0.311156279462063, 0.0802931747881014, 0.493025233554498, -1.77712748517229, -0.833534489425089, 1.76490261112061], a = 0.2, v = 0.2, t = 0.2)
movej(p[-0.312053760000978, 0.0802586312105082, 0.492456422194278, -1.76775289430847, -0.843309925758561, 1.75659138796718], a = 0.2, v = 0.2, t = 0.2)
movej(p[-0.312887580404948, 0.0802502983904061, 0.491895461528961, -1.76645144473965, -0.844663366203935, 1.75541830953279], a = 0.2, v = 0.2, t = 0.2)
movej(p[-0.313435135416806, 0.080208818860332, 0.491593185847547, -1.7609897883982, -0.842621266615919, 1.7537345694211], a = 0.2, v = 0.2, t = 0.2)
movej(p[-0.313758404450485, 0.0801506500457519, 0.491458954290621, -1.75941149972272, -0.842575064000017, 1.7554040311712], a = 0.2, v = 0.2, t = 0.2)
movej(p[-0.314302090083651, 0.0801222363695494, 0.491122996100822, -1.7583260624269, -0.841436727480367, 1.75594408685216], a = 0.2, v = 0.2, t = 0.2)
movej(p[-0.314302090083651, 0.0801222363695494, 0.491122996100822, -1.76047654098612, -0.839207142479007, 1.75786806862577], a = 0.2, v = 0.2, t = 0.2)
movej(p[-0.314092177139425, 0.0800854544877372, 0.491337489804732, -1.76409352660934, -0.836677317207453, 1.75616977149616], a = 0.2, v = 0.2, t = 0.2)
movej(p[-0.313624416503553, 0.0800762903816381, 0.491687432452445, -1.76843217502838, -0.83591084564128, 1.75762380137851], a = 0.2, v = 0.2, t = 0.2)
movej(p[-0.313038246754821, 0.0800719169771908, 0.492101302177121, -1.77426067091221, -0.832402524322802, 1.75894361781768], a = 0.2, v = 0.2, t = 0.2)
movej(p[-0.310962177822262, 0.0801996934137621, 0.493322687611586, -1.78555117664664, -0.833861844338608, 1.76364127124979], a = 0.2, v = 0.2, t = 0.2)
movej(p[-0.309120830604469, 0.0803368329707674, 0.494404005388851, -1.79556987270282, -0.835119423681761, 1.76504945932478], a = 0.2, v = 0.2, t = 0.2)
movej(p[-0.306940386721495, 0.0805438966653375, 0.495548141289693, -1.80620006983683, -0.827265893835103, 1.77511278411769], a = 0.2, v = 0.2, t = 0.2)
movej(p[-0.304518236687953, 0.0808197967583004, 0.496707165005461, -1.81695143140957, -0.819721439312956, 1.7833399913505], a = 0.2, v = 0.2, t = 0.2)
movej(p[-0.303493403169053, 0.0809615311632773, 0.497137363072618, -1.82102192799853, -0.819181635424717, 1.78717947351458], a = 0.2, v = 0.2, t = 0.2)
movej(p[-0.303493403169053, 0.0809615311632773, 0.497137363072618, -1.81973489094403, -0.819983592636059, 1.78898699603047], a = 0.2, v = 0.2, t = 0.2)
movej(p[-0.306583606171612, 0.0806582912394029, 0.495639234322629, -1.79992760789, -0.823846702762368, 1.78223451973307], a = 0.2, v = 0.2, t = 0.2)
movej(p[-0.308497228839661, 0.0805429206504723, 0.494443119544883, -1.78479920072048, -0.836639021574576, 1.7724910551119], a = 0.2, v = 0.2, t = 0.2)
movej(p[-0.310419607257551, 0.0804073116103271, 0.493253610214672, -1.7758081215579, -0.840553787730503, 1.76660944973302], a = 0.2, v = 0.2, t = 0.2)
movej(p[-0.311748444824108, 0.0803340867460719, 0.492448087632145, -1.76890425672681, -0.842089042706558, 1.76115610148314], a = 0.2, v = 0.2, t = 0.2)
movej(p[-0.312601874674734, 0.0802920063806123, 0.491850196318523, -1.76831438254381, -0.838722208424916, 1.75955389223024], a = 0.2, v = 0.2, t = 0.2)
movej(p[-0.313698601555146, 0.0801588214319615, 0.491465271106003, -1.76174601363858, -0.841068755354665, 1.75552341096685], a = 0.2, v = 0.2, t = 0.2)
movej(p[-0.313986920851631, 0.0801439425543959, 0.491264611413297, -1.75844389888466, -0.842442723247286, 1.75741066903019], a = 0.2, v = 0.2, t = 0.2)
movej(p[-0.314107688846308, 0.0801061164149386, 0.491215709832184, -1.7570273297387, -0.840187692852593, 1.75769352843875], a = 0.2, v = 0.2, t = 0.2)
movej(p[-0.314179566600293, 0.0801008851362027, 0.491213557576408, -1.7565148002156, -0.840559021826108, 1.75798673542435], a = 0.2, v = 0.2, t = 0.2)
movej(p[-0.314180129599081, 0.080092099754415, 0.491253713523654, -1.75809089514319, -0.839897700464879, 1.75704885717885], a = 0.2, v = 0.2, t = 0.2)
movej(p[-0.314178025458217, 0.0800411331340335, 0.491588720025379, -1.76062066157567, -0.843923489809258, 1.75654330619778], a = 0.2, v = 0.2, t = 0.2)
movej(p[-0.31303992053772, 0.0800981049327815, 0.492341446153587, -1.77538735034534, -0.838313035574312, 1.75447125301847], a = 0.2, v = 0.2, t = 0.2)
movej(p[-0.311253984159391, 0.0802332347505402, 0.493261491367103, -1.78696367939395, -0.834388759597732, 1.75912251273063], a = 0.2, v = 0.2, t = 0.2)
movej(p[-0.309577752090244, 0.0803625198279845, 0.494194608824402, -1.80150357803086, -0.831437252828018, 1.76573139610348], a = 0.2, v = 0.2, t = 0.2)
movej(p[-0.307410769992014, 0.0805510742663258, 0.495273863928505, -1.80882901172942, -0.830440792225499, 1.7696526791458], a = 0.2, v = 0.2, t = 0.2)
movej(p[-0.30506786157817, 0.0807497381208887, 0.496345831977109, -1.8149928338164, -0.828328842516622, 1.77921822799916], a = 0.2, v = 0.2, t = 0.2)
movej(p[-0.304769497800083, 0.0808040679189556, 0.496419999483255, -1.81262923032985, -0.829735826334792, 1.78273152056189], a = 0.2, v = 0.2, t = 0.2)
movej(p[-0.304769497800083, 0.0808040679189556, 0.496419999483255, -1.81014142309727, -0.822813671172128, 1.78428435586896], a = 0.2, v = 0.2, t = 0.2)
movej(p[-0.306602673838777, 0.0806659112842156, 0.495446812263119, -1.80463722815179, -0.813825584029318, 1.78517041128403], a = 0.2, v = 0.2, t = 0.2)
movej(p[-0.308469913455013, 0.0805316622854336, 0.494295240814235, -1.78749673712403, -0.828300372760405, 1.77642651304927], a = 0.2, v = 0.2, t = 0.2)
movej(p[-0.310298185116067, 0.0803981774165101, 0.493153609414371, -1.77457349798398, -0.835960952256615, 1.7691159452056], a = 0.2, v = 0.2, t = 0.2)
movej(p[-0.312338358595488, 0.0802411869328005, 0.492030540488662, -1.76472084806877, -0.843207294270927, 1.76149049712663], a = 0.2, v = 0.2, t = 0.2)
movej(p[-0.312905282229461, 0.0801905329408649, 0.491603464223408, -1.76126367567882, -0.845398333139721, 1.75896049759314], a = 0.2, v = 0.2, t = 0.2)
movej(p[-0.313377320387602, 0.0801538695117437, 0.491417314981603, -1.75471617719429, -0.851445865055808, 1.75639439872436], a = 0.2, v = 0.2, t = 0.2)
movej(p[-0.313771825417127, 0.0801232723910402, 0.491283616896786, -1.75388731882625, -0.852158864041387, 1.75570711703364], a = 0.2, v = 0.2, t = 0.2)
movej(p[-0.314112352314797, 0.0800979770805165, 0.491240487913159, -1.75316783330659, -0.849636807540494, 1.75511411579613], a = 0.2, v = 0.2, t = 0.2)
movej(p[-0.31442478626901, 0.0800752380686463, 0.491231132615518, -1.75344757108882, -0.848394757373324, 1.75417108814598], a = 0.2, v = 0.2, t = 0.2)
movej(p[-0.314429975118794, 0.0800720374546906, 0.491251402591054, -1.75494763100819, -0.846851043229778, 1.75551581469704], a = 0.2, v = 0.2, t = 0.2)
movej(p[-0.314426366983757, 0.0800723803772737, 0.491290868826821, -1.75474664706956, -0.84689527887507, 1.75610588205838], a = 0.2, v = 0.2, t = 0.2)
movej(p[-0.314174616606534, 0.0800982667701474, 0.491537005642906, -1.75520007454368, -0.846501561419048, 1.75648156785225], a = 0.2, v = 0.2, t = 0.2)
movej(p[-0.313124929608888, 0.0801713008984977, 0.49236610986016, -1.77177969291661, -0.84379153664284, 1.75612613343187], a = 0.2, v = 0.2, t = 0.2)
movej(p[-0.312233712156768, 0.0802535308807019, 0.493031529504492, -1.78284338191502, -0.845061941687475, 1.75443182594162], a = 0.2, v = 0.2, t = 0.2)
movej(p[-0.310351907059339, 0.080394542518435, 0.493961625732478, -1.79729429217672, -0.840273719997468, 1.76061015611956], a = 0.2, v = 0.2, t = 0.2)
movej(p[-0.30879689450157, 0.0805082109043531, 0.494763388673268, -1.80426574840013, -0.840304995314933, 1.76393800600131], a = 0.2, v = 0.2, t = 0.2)
movej(p[-0.308422877009923, 0.0805413974719095, 0.495012208804439, -1.80726810126072, -0.838764629042452, 1.76601954233084], a = 0.2, v = 0.2, t = 0.2)
movej(p[-0.306992780638055, 0.0806401823162747, 0.495630092500368, -1.81139373906321, -0.836455462332701, 1.76979756647939], a = 0.2, v = 0.2, t = 0.2)
movej(p[-0.304536893482308, 0.0808360028838565, 0.49692234840519, -1.82226510228639, -0.824408450773651, 1.7814566281962], a = 0.2, v = 0.2, t = 0.2)
movej(p[-0.304536893482308, 0.0808360028838565, 0.49692234840519, -1.81608674547323, -0.821316394135963, 1.78631409479341], a = 0.2, v = 0.2, t = 0.2)
movej(p[-0.307461640079645, 0.0805880914118777, 0.494969936593243, -1.79772736120566, -0.820615282759318, 1.78010155686437], a = 0.2, v = 0.2, t = 0.2)
movej(p[-0.30949489048543, 0.0803892926606043, 0.49362683142094, -1.78646524704477, -0.828833001493407, 1.77142880529242], a = 0.2, v = 0.2, t = 0.2)
movej(p[-0.311179119401635, 0.0802422225069962, 0.49256516237282, -1.77660320425632, -0.837729899264927, 1.76313093223544], a = 0.2, v = 0.2, t = 0.2)
movej(p[-0.312284474902787, 0.0801479274342125, 0.491931680316782, -1.76885500658552, -0.840595901929507, 1.75959907867826], a = 0.2, v = 0.2, t = 0.2)
movej(p[-0.313274068678181, 0.0801213280366138, 0.491676188747941, -1.76450069898798, -0.845123791905542, 1.75567816147235], a = 0.2, v = 0.2, t = 0.2)
movej(p[-0.313568561884524, 0.0801246050264148, 0.491620836306661, -1.76306114876043, -0.847361774900165, 1.75406820210116], a = 0.2, v = 0.2, t = 0.2)
movej(p[-0.313776470795212, 0.0801154714923091, 0.491494566740212, -1.75984712097034, -0.850387411020456, 1.75258297871924], a = 0.2, v = 0.2, t = 0.2)
movej(p[-0.313841768893492, 0.0801107190823618, 0.491492611500916, -1.75961244781063, -0.850014243381717, 1.75263162289121], a = 0.2, v = 0.2, t = 0.2)
movej(p[-0.313872808598596, 0.080147515599691, 0.49152189772668, -1.75956542192727, -0.849836654351094, 1.7525855006472], a = 0.2, v = 0.2, t = 0.2)
movej(p[-0.314426614740121, 0.0801435091489932, 0.491491404350982, -1.75966804902131, -0.849124205234714, 1.75223638280918], a = 0.2, v = 0.2, t = 0.2)
movej(p[-0.314428147935494, 0.0801581148671702, 0.491507106972053, -1.76286742223819, -0.846234019488253, 1.75312330614692], a = 0.2, v = 0.2, t = 0.2)
movej(p[-0.313908847542315, 0.0802184352612856, 0.491936698710448, -1.76778319399713, -0.8471519081523, 1.75464674338518], a = 0.2, v = 0.2, t = 0.2)
movej(p[-0.312773402390638, 0.0803336850138584, 0.49268685078974, -1.77886085829029, -0.851598821166828, 1.75395698999499], a = 0.2, v = 0.2, t = 0.2)
movej(p[-0.311277275159432, 0.0804367734780956, 0.493450807599113, -1.79392676289023, -0.84841611009859, 1.75721610661985], a = 0.2, v = 0.2, t = 0.2)
movej(p[-0.310015628209968, 0.0805496210750657, 0.494176220319408, -1.80077857695922, -0.845748258758026, 1.76132773259241], a = 0.2, v = 0.2, t = 0.2)
movej(p[-0.309617432595148, 0.0805807707655558, 0.494399721100436, -1.80338436090068, -0.843093703890356, 1.76316941431148], a = 0.2, v = 0.2, t = 0.2)
movej(p[-0.309179195958414, 0.0806256393996553, 0.494669686460988, -1.80584667126909, -0.840470489267971, 1.76544084573829], a = 0.2, v = 0.2, t = 0.2)
movej(p[-0.307281455197421, 0.0807177759563298, 0.495571630582866, -1.81323532035824, -0.836481534293822, 1.77088056911539], a = 0.2, v = 0.2, t = 0.2)
movej(p[-0.307022256639363, 0.080736640484365, 0.495579391838088, -1.81215120088278, -0.837141743549809, 1.77238779436374], a = 0.2, v = 0.2, t = 0.2)
movej(p[-0.307005643669768, 0.0806211190232186, 0.495305364008743, -1.80079568932063, -0.829800227671704, 1.77682987665202], a = 0.2, v = 0.2, t = 0.2)
movej(p[-0.310340255385198, 0.0803228334928729, 0.493348150195767, -1.7806614858582, -0.834200252080432, 1.76701827232559], a = 0.2, v = 0.2, t = 0.2)
movej(p[-0.311538980009159, 0.0801423060836083, 0.492471392327017, -1.77515432800704, -0.839941862346932, 1.76207679330568], a = 0.2, v = 0.2, t = 0.2)
movej(p[-0.312482025719625, 0.0800771998447007, 0.491974344738123, -1.77014043069646, -0.842770276635932, 1.75873695483537], a = 0.2, v = 0.2, t = 0.2)
movej(p[-0.313115585136359, 0.0800644050860363, 0.491714213406641, -1.76760611137598, -0.845198632276418, 1.75726871197805], a = 0.2, v = 0.2, t = 0.2)
movej(p[-0.313420733523229, 0.0800740268085047, 0.491597288069576, -1.76565469716684, -0.847167050644678, 1.75555027445078], a = 0.2, v = 0.2, t = 0.2)
movej(p[-0.314044207871543, 0.0801159773698965, 0.491470282135096, -1.76207082672009, -0.845640220440395, 1.75452128673984], a = 0.2, v = 0.2, t = 0.2)
movej(p[-0.314267328130285, 0.0801506161727884, 0.491434077253203, -1.76176843471772, -0.845908999787357, 1.75415522892409], a = 0.2, v = 0.2, t = 0.2)
movej(p[-0.314310476531902, 0.0801455368082524, 0.491416789237301, -1.76144524034214, -0.846297579740867, 1.7536084390524], a = 0.2, v = 0.2, t = 0.2)
movej(p[-0.314333458847926, 0.0801666826272668, 0.491412676149847, -1.76168761202756, -0.84646272183926, 1.7528923595528], a = 0.2, v = 0.2, t = 0.2)
movej(p[-0.314389149849212, 0.0801634016370929, 0.491411248746896, -1.76311965198928, -0.84770229374579, 1.75203483473259], a = 0.2, v = 0.2, t = 0.2)
movej(p[-0.314425944839421, 0.0801861778711544, 0.491418920895062, -1.76303380411511, -0.847791232168349, 1.75195745700426], a = 0.2, v = 0.2, t = 0.2)
movej(p[-0.314596077281983, 0.0802041257613752, 0.491385615111412, -1.76205505763316, -0.846363439878905, 1.75186266639179], a = 0.2, v = 0.2, t = 0.2)
movej(p[-0.314607351616328, 0.0803115287401554, 0.491501084152866, -1.76205505763316, -0.846363439878905, 1.75186266639179], a = 0.2, v = 0.2, t = 0.2)
movej(p[-0.313590549986078, 0.0804784067797051, 0.492215454186277, -1.77047503708136, -0.847891683285225, 1.75479575039925], a = 0.2, v = 0.2, t = 0.2)
movej(p[-0.312308407030566, 0.0805334387110572, 0.492872595737363, -1.78207444447498, -0.849859995634856, 1.75916456450646], a = 0.2, v = 0.2, t = 0.2)
movej(p[-0.311237241122222, 0.0805540491312916, 0.493383149140425, -1.794142915051, -0.853388623240729, 1.76373580998926], a = 0.2, v = 0.2, t = 0.2)
movej(p[-0.310027474069737, 0.0805946691846343, 0.493973240065613, -1.79908904481684, -0.84909011401291, 1.76803437191155], a = 0.2, v = 0.2, t = 0.2)
movej(p[-0.309164574888828, 0.0807417952920066, 0.494542260392241, -1.80342739564015, -0.848295148178555, 1.77050460236112], a = 0.2, v = 0.2, t = 0.2)
movej(p[-0.307510689083624, 0.0808541806018111, 0.495425247496044, -1.81024814572849, -0.84135658537849, 1.77683869465282], a = 0.2, v = 0.2, t = 0.2)
movej(p[-0.30717225933685, 0.0808447165045936, 0.495565950684929, -1.81153573318173, -0.839983293447001, 1.77803120615703], a = 0.2, v = 0.2, t = 0.2)
movej(p[-0.30717225933685, 0.0808447165045936, 0.495565950684929, -1.81098880052844, -0.838803749087365, 1.77797639597831], a = 0.2, v = 0.2, t = 0.2)
movej(p[-0.307708004103738, 0.0807478692481238, 0.49517133009035, -1.8054493500612, -0.833296027545668, 1.77626937339488], a = 0.2, v = 0.2, t = 0.2)
movej(p[-0.309356733701204, 0.0804438658616726, 0.494032495578462, -1.78951763493132, -0.833461904471953, 1.76854829766194], a = 0.2, v = 0.2, t = 0.2)
movej(p[-0.311472018733833, 0.080242326863479, 0.492802638898623, -1.77697126002567, -0.835092349247693, 1.76248038308378], a = 0.2, v = 0.2, t = 0.2)
movej(p[-0.312186700912353, 0.0800295411727832, 0.492253847742044, -1.77267156273039, -0.839174082395491, 1.76064148795449], a = 0.2, v = 0.2, t = 0.2)
movej(p[-0.312499478005442, 0.0799888686714368, 0.492095192872364, -1.77164393908583, -0.841161880808101, 1.76054660684434], a = 0.2, v = 0.2, t = 0.2)
movej(p[-0.312746252253749, 0.0799482034523119, 0.491685292615806, -1.76274075847889, -0.845652963944668, 1.75663976662598], a = 0.2, v = 0.2, t = 0.2)
movej(p[-0.313270863080781, 0.0799742808133954, 0.491501099832561, -1.76142460895772, -0.845893614141097, 1.75568701285691], a = 0.2, v = 0.2, t = 0.2)
movej(p[-0.314181190916151, 0.0800211808775372, 0.491190185525823, -1.75738285876992, -0.846125660641189, 1.75356846889818], a = 0.2, v = 0.2, t = 0.2)
movej(p[-0.314352114890515, 0.0800413518767321, 0.491154460803585, -1.75764478399131, -0.846054032775492, 1.75286267537296], a = 0.2, v = 0.2, t = 0.2)
movej(p[-0.314522500938167, 0.0800671935269424, 0.491113787914826, -1.7581930971948, -0.846248918727088, 1.75238092452471], a = 0.2, v = 0.2, t = 0.2)
movej(p[-0.314529938718509, 0.0801380482434937, 0.49118996388588, -1.76028739309317, -0.844500605334336, 1.75227924286857], a = 0.2, v = 0.2, t = 0.2)
movej(p[-0.31435160253542, 0.0803231871723448, 0.49162146109656, -1.76368715306612, -0.841613648675702, 1.75228898806696], a = 0.2, v = 0.2, t = 0.2)
movej(p[-0.313928825504726, 0.0804595953444113, 0.492051227594686, -1.7702367513238, -0.839892457055689, 1.7538038425199], a = 0.2, v = 0.2, t = 0.2)
movej(p[-0.312802597800607, 0.0805544310741955, 0.492709931840028, -1.78166708062505, -0.840769909721829, 1.7569694946327], a = 0.2, v = 0.2, t = 0.2)
movej(p[-0.311095071504311, 0.0805888349389376, 0.493521995520751, -1.79439999056568, -0.84333788698229, 1.761941459503], a = 0.2, v = 0.2, t = 0.2)
movej(p[-0.309669404751692, 0.0805979613700441, 0.494167389531204, -1.80088081916215, -0.839837051677817, 1.76663581947099], a = 0.2, v = 0.2, t = 0.2)
movej(p[-0.307960192432376, 0.0806259430967386, 0.494932055707042, -1.80536782870048, -0.83505503841661, 1.77075900936737], a = 0.2, v = 0.2, t = 0.2)
movej(p[-0.306926910985435, 0.0809315318794541, 0.495767249311715, -1.78919905470229, -0.804269065232524, 1.77424604514485], a = 0.2, v = 0.2, t = 0.2)
movej(p[-0.306783341390043, 0.0809428837797229, 0.49584930042773, -1.78921546686217, -0.804259323370577, 1.77422269464695], a = 0.2, v = 0.2, t = 0.2)
movej(p[-0.306783341390043, 0.0809428837797229, 0.49584930042773, -1.7891642389495, -0.804329357727655, 1.77417130939081], a = 0.2, v = 0.2, t = 0.2)
movej(p[-0.307954180659424, 0.0806862212088746, 0.494966668533903, -1.78911739877028, -0.816704258669363, 1.77152192556528], a = 0.2, v = 0.2, t = 0.2)
movej(p[-0.308988173180211, 0.0803968704312788, 0.494065504545241, -1.78555619404992, -0.827316296382287, 1.76809950845829], a = 0.2, v = 0.2, t = 0.2)
movej(p[-0.309920518641952, 0.0802586144687626, 0.493445853846218, -1.78047543825802, -0.832177773281433, 1.76597254218251], a = 0.2, v = 0.2, t = 0.2)
movej(p[-0.311216437773895, 0.080141495039489, 0.492686153679869, -1.77180449045762, -0.837068688195745, 1.76180736036245], a = 0.2, v = 0.2, t = 0.2)
movej(p[-0.31142373332726, 0.0801500909445154, 0.492613555994148, -1.77058044490092, -0.838173461609915, 1.76154159116203], a = 0.2, v = 0.2, t = 0.2)
movej(p[-0.311957333119137, 0.0800971011021288, 0.492308698734579, -1.76943061518184, -0.841146799092725, 1.75980897060106], a = 0.2, v = 0.2, t = 0.2)
movej(p[-0.312672876030831, 0.0800996362547888, 0.492012337713987, -1.76874565466952, -0.844934997254897, 1.75787195155076], a = 0.2, v = 0.2, t = 0.2)
movej(p[-0.313082580027614, 0.0800207535960156, 0.491719700684265, -1.7685184700771, -0.848698354880192, 1.75584268711257], a = 0.2, v = 0.2, t = 0.2)
movej(p[-0.313758390868448, 0.0800946830899496, 0.491544284529539, -1.7679877656865, -0.849579902237317, 1.75411068018942], a = 0.2, v = 0.2, t = 0.2)
movej(p[-0.314298257597275, 0.0801571808007556, 0.491415914551549, -1.76717697894405, -0.850573763767564, 1.75264427773282], a = 0.2, v = 0.2, t = 0.2)
movej(p[-0.314662996252718, 0.0802158693001957, 0.491320646806433, -1.76685828794353, -0.849949351626946, 1.75264613358751], a = 0.2, v = 0.2, t = 0.2)
movej(p[-0.314662996252718, 0.0802158693001957, 0.491320646806433, -1.76750655944106, -0.849387832780682, 1.75193474758213], a = 0.2, v = 0.2, t = 0.2)
movej(p[-0.314099083984826, 0.0803997323514609, 0.49186286111139, -1.77123771643813, -0.845959758578428, 1.75309409335455], a = 0.2, v = 0.2, t = 0.2)
movej(p[-0.313383463063625, 0.0805290247047397, 0.492365492422117, -1.77528524626522, -0.841469849009159, 1.75542712780961], a = 0.2, v = 0.2, t = 0.2)
movej(p[-0.312851007082424, 0.0806362735910722, 0.492747515398473, -1.77907493676748, -0.837723077731635, 1.75695395800358], a = 0.2, v = 0.2, t = 0.2)
movej(p[-0.311158697488627, 0.0805222096922805, 0.493363337836954, -1.78567912570879, -0.830675054713185, 1.76258027282354], a = 0.2, v = 0.2, t = 0.2)
movej(p[-0.309904293283082, 0.0808688356976247, 0.494352005582725, -1.78555473535482, -0.817462082135, 1.76476271267797], a = 0.2, v = 0.2, t = 0.2)
movej(p[-0.307525650882742, 0.0808076516259007, 0.49532781788572, -1.79229710376364, -0.808071241522822, 1.77156805482669], a = 0.2, v = 0.2, t = 0.2)
movej(p[-0.305447450902399, 0.0805673858453168, 0.495958909397612, -1.79457795921688, -0.804541654477439, 1.77410811071363], a = 0.2, v = 0.2, t = 0.2)
movej(p[-0.305436789846203, 0.0804658251538075, 0.495849721404586, -1.79374980793768, -0.80503712838456, 1.77528669548155], a = 0.2, v = 0.2, t = 0.2)
movej(p[-0.307317240514126, 0.0807925787149892, 0.495355477885901, -1.78917190771742, -0.810048537214595, 1.77132984496934], a = 0.2, v = 0.2, t = 0.2)
movej(p[-0.30844027972291, 0.0805903098861727, 0.494583418434548, -1.78563845303604, -0.816979683380737, 1.76873532314626], a = 0.2, v = 0.2, t = 0.2)
movej(p[-0.309357911788032, 0.0804091343635456, 0.49393515974154, -1.78240432609939, -0.825475318541445, 1.76662456152137], a = 0.2, v = 0.2, t = 0.2)
movej(p[-0.310355694111277, 0.0802383498895769, 0.493268451597843, -1.77913878077916, -0.834053351098825, 1.76424659717943], a = 0.2, v = 0.2, t = 0.2)
movej(p[-0.31149646632951, 0.0800859912761883, 0.492565303399357, -1.77581332527624, -0.842412452378124, 1.76120339026314], a = 0.2, v = 0.2, t = 0.2)
movej(p[-0.312439303532796, 0.0799967330595016, 0.492036246928974, -1.77194403362057, -0.846245174320299, 1.75867930793323], a = 0.2, v = 0.2, t = 0.2)
movej(p[-0.312904160218179, 0.0799609481628331, 0.491768925187949, -1.76908186680253, -0.847712993773153, 1.75705153766403], a = 0.2, v = 0.2, t = 0.2)
movej(p[-0.313440716972416, 0.0799585255934797, 0.491510260538953, -1.76613201443158, -0.849256927931416, 1.75502065925757], a = 0.2, v = 0.2, t = 0.2)
movej(p[-0.313814503807331, 0.0800470489415849, 0.491390055427229, -1.76469502709337, -0.84777152304396, 1.75420847623113], a = 0.2, v = 0.2, t = 0.2)
movej(p[-0.31396605694474, 0.0800476674132465, 0.49137468259293, -1.76322964579833, -0.848915402087255, 1.75234790683131], a = 0.2, v = 0.2, t = 0.2)
movej(p[-0.314884234874742, 0.080184158940503, 0.491161772090972, -1.76399732381951, -0.848487600883093, 1.75129274101311], a = 0.2, v = 0.2, t = 0.2)
movej(p[-0.314895979864411, 0.0802960455350956, 0.491282061471917, -1.76807343716456, -0.849478597432043, 1.75090451920228], a = 0.2, v = 0.2, t = 0.2)
movej(p[-0.314599710011564, 0.0804756854306388, 0.491674325276292, -1.77190668956828, -0.847341673212653, 1.75247337229324], a = 0.2, v = 0.2, t = 0.2)
movej(p[-0.313860169456492, 0.0805806783983959, 0.492133981815597, -1.77866844580606, -0.846415712910089, 1.75566613462264], a = 0.2, v = 0.2, t = 0.2)
movej(p[-0.312941135802808, 0.0806041034362428, 0.49260296521722, -1.7866768451481, -0.845767250382859, 1.75972624171912], a = 0.2, v = 0.2, t = 0.2)
movej(p[-0.311599304445112, 0.080538264739229, 0.493145050582712, -1.7887792909223, -0.84507962693354, 1.76135233016438], a = 0.2, v = 0.2, t = 0.2)
movej(p[-0.310502593530219, 0.0805329507849074, 0.493632646646113, -1.79007990634189, -0.842107529847491, 1.76320691006921], a = 0.2, v = 0.2, t = 0.2)
movej(p[-0.308912819369081, 0.0806047729072434, 0.494380198322802, -1.78741674524795, -0.819486820909384, 1.76740055877667], a = 0.2, v = 0.2, t = 0.2)
movej(p[-0.30724949080963, 0.0807366552106937, 0.495292388194129, -1.79348243981752, -0.810941357531972, 1.77065464622308], a = 0.2, v = 0.2, t = 0.2)
movej(p[-0.30665373706463, 0.0808228807955198, 0.495685221993387, -1.79574559113403, -0.808318529038267, 1.77269049266747], a = 0.2, v = 0.2, t = 0.2)
movej(p[-0.30665373706463, 0.0808228807955198, 0.495685221993387, -1.79578984442212, -0.808292033841526, 1.77262763868735], a = 0.2, v = 0.2, t = 0.2)
movej(p[-0.308483263592831, 0.0807849101825557, 0.494782138140602, -1.78980225208474, -0.814892137910457, 1.76719861541375], a = 0.2, v = 0.2, t = 0.2)
movej(p[-0.309945268787109, 0.0805997625248305, 0.493895472467002, -1.78183362012312, -0.823126199565983, 1.76335063017733], a = 0.2, v = 0.2, t = 0.2)
movej(p[-0.310698085528737, 0.0802071270300558, 0.493107700049505, -1.77929282811443, -0.831310136721508, 1.76321800694668], a = 0.2, v = 0.2, t = 0.2)
movej(p[-0.311423762512138, 0.0799613211916453, 0.492500509457051, -1.77244150324798, -0.842270983225478, 1.7618207807436], a = 0.2, v = 0.2, t = 0.2)
movej(p[-0.312027886840996, 0.0799030424280059, 0.492158497292077, -1.77011173816522, -0.844576694884315, 1.76143354357533], a = 0.2, v = 0.2, t = 0.2)
movej(p[-0.3126756530642, 0.0798379554579653, 0.491786380420103, -1.76663881440267, -0.847724382488408, 1.75935616949147], a = 0.2, v = 0.2, t = 0.2)
movej(p[-0.313282391954461, 0.0798405712807288, 0.491510973836093, -1.76454823553823, -0.849608791295838, 1.75784269844446], a = 0.2, v = 0.2, t = 0.2)
movej(p[-0.313554712329522, 0.0798582926493266, 0.491400262786864, -1.76436901439424, -0.849794063754783, 1.75768073830341], a = 0.2, v = 0.2, t = 0.2)
movej(p[-0.313701523771963, 0.0798870222448457, 0.491359205501154, -1.7649864177929, -0.850780213814031, 1.75672532124671], a = 0.2, v = 0.2, t = 0.2)
movej(p[-0.31416726048909, 0.0800449181311716, 0.491333907291717, -1.76627946228177, -0.850592291776472, 1.75450224023908], a = 0.2, v = 0.2, t = 0.2)
movej(p[-0.314539286966545, 0.0802377218836655, 0.491363744568677, -1.76684064783796, -0.852191711970064, 1.75406475446324], a = 0.2, v = 0.2, t = 0.2)
movej(p[-0.314983198810113, 0.0803166977549439, 0.491246942227536, -1.76725942707223, -0.852442903464604, 1.75375320330401], a = 0.2, v = 0.2, t = 0.2)
movej(p[-0.314989495607853, 0.0803766830998287, 0.491311432527096, -1.76889266570876, -0.853091242197887, 1.75307444822058], a = 0.2, v = 0.2, t = 0.2)
movej(p[-0.314412393859807, 0.0803737938611226, 0.49157228764915, -1.77150172852337, -0.850422447044962, 1.75526042759043], a = 0.2, v = 0.2, t = 0.2)
movej(p[-0.313112275461434, 0.080631029643578, 0.492430725365259, -1.77343916366386, -0.838129543481909, 1.75631021648959], a = 0.2, v = 0.2, t = 0.2)
movej(p[-0.311980631193729, 0.0805129104469399, 0.492839898930821, -1.77661981164225, -0.83491686113904, 1.75857013712787], a = 0.2, v = 0.2, t = 0.2)
movej(p[-0.311365126272942, 0.0806105933479722, 0.493228659529818, -1.77999102181271, -0.831897909236396, 1.76070033931841], a = 0.2, v = 0.2, t = 0.2)
movej(p[-0.310011319593199, 0.0805860915743184, 0.493876682945269, -1.79198349812798, -0.834145433988295, 1.76544169300235], a = 0.2, v = 0.2, t = 0.2)
movej(p[-0.308363041083218, 0.0806094775563809, 0.494711009511655, -1.79810370962902, -0.827631304399297, 1.7710093234612], a = 0.2, v = 0.2, t = 0.2)
movej(p[-0.307483416591876, 0.0806013010213449, 0.495045342890943, -1.79207567407276, -0.813309421497889, 1.76942566089485], a = 0.2, v = 0.2, t = 0.2)
movej(p[-0.307483416591876, 0.0806013010213449, 0.495045342890943, -1.79147365572541, -0.813955415141557, 1.76888592845695], a = 0.2, v = 0.2, t = 0.2)
movej(p[-0.30861393705371, 0.0804567315078115, 0.494362786958339, -1.7850029012593, -0.82031173634745, 1.7658262343962], a = 0.2, v = 0.2, t = 0.2)
movej(p[-0.310078454325472, 0.0804080105863818, 0.49362706347596, -1.78082298979929, -0.828165889681562, 1.76337022562662], a = 0.2, v = 0.2, t = 0.2)
movej(p[-0.311023321271524, 0.0802602287355972, 0.493043393047689, -1.77642783335728, -0.833348461198484, 1.76294404698682], a = 0.2, v = 0.2, t = 0.2)
movej(p[-0.311749102751461, 0.0799279367621166, 0.492381907819024, -1.77114379054264, -0.839653683838478, 1.76189265896865], a = 0.2, v = 0.2, t = 0.2)
movej(p[-0.312472024921141, 0.079853426659209, 0.491963158787803, -1.76716128224486, -0.84578652794053, 1.75988755044576], a = 0.2, v = 0.2, t = 0.2)
movej(p[-0.312761606322109, 0.0799008252617965, 0.491881075326095, -1.76821864299548, -0.84749628886394, 1.75966838066669], a = 0.2, v = 0.2, t = 0.2)
movej(p[-0.313098855048487, 0.0798870284610378, 0.4917072186183, -1.76874122218713, -0.847234826848583, 1.75879210491653], a = 0.2, v = 0.2, t = 0.2)
movej(p[-0.313438474729257, 0.0798968169552847, 0.491558566918633, -1.76923043067626, -0.846940122881078, 1.75791412335811], a = 0.2, v = 0.2, t = 0.2)
movej(p[-0.313843565084388, 0.0799724897856756, 0.49140618225103, -1.76663464763243, -0.848984101855766, 1.75583906186767], a = 0.2, v = 0.2, t = 0.2)
movej(p[-0.314271712218329, 0.0800433820956586, 0.491298438053581, -1.76351270636729, -0.851631695612729, 1.75526387388388], a = 0.2, v = 0.2, t = 0.2)
movej(p[-0.314334117524818, 0.079947445853012, 0.491180307341787, -1.75923716584108, -0.848995418740373, 1.75438221433957], a = 0.2, v = 0.2, t = 0.2)
movej(p[-0.31459339598767, 0.0800129724953409, 0.491094042239654, -1.75978023669, -0.848694577959634, 1.75363703623193], a = 0.2, v = 0.2, t = 0.2)
movej(p[-0.314620487193348, 0.0802710521388487, 0.491371503902198, -1.76631379749739, -0.84479409507925, 1.75508443462258], a = 0.2, v = 0.2, t = 0.2)
movej(p[-0.3141684833385, 0.0805133952560736, 0.491770352280327, -1.77280823314564, -0.848666236219018, 1.7565007100365], a = 0.2, v = 0.2, t = 0.2)
movej(p[-0.312830867848228, 0.0804907714066758, 0.492421894045392, -1.78383546582714, -0.850205603126314, 1.76107462500664], a = 0.2, v = 0.2, t = 0.2)
movej(p[-0.31149252831734, 0.0805243845486903, 0.49312361395871, -1.79062840780178, -0.8469587345816, 1.76358921899272], a = 0.2, v = 0.2, t = 0.2)
movej(p[-0.310396492062581, 0.0804883100327794, 0.493621408683024, -1.79737272326261, -0.844043201092869, 1.76804040521005], a = 0.2, v = 0.2, t = 0.2)
movej(p[-0.309143201160892, 0.0805403870135098, 0.49427779706944, -1.80138862987264, -0.839787630973991, 1.77173344613976], a = 0.2, v = 0.2, t = 0.2)
movej(p[-0.308001533299361, 0.0807739146784944, 0.495045191924539, -1.80707052022932, -0.83315802028534, 1.7737225508444], a = 0.2, v = 0.2, t = 0.2)
movej(p[-0.30666803873811, 0.080564931163022, 0.495416331366496, -1.81193398856573, -0.826074911263983, 1.77209039070596], a = 0.2, v = 0.2, t = 0.2)
movej(p[-0.30666803873811, 0.080564931163022, 0.495416331366496, -1.80999309668012, -0.822937711421754, 1.77241572417087], a = 0.2, v = 0.2, t = 0.2)
movej(p[-0.308011140930052, 0.0803933084385529, 0.49460276878596, -1.79217314693743, -0.821909667825163, 1.76578552989935], a = 0.2, v = 0.2, t = 0.2)
movej(p[-0.309590658527626, 0.0802418762586902, 0.493746384156337, -1.78805655115431, -0.825408572938311, 1.76487677831965], a = 0.2, v = 0.2, t = 0.2)
movej(p[-0.310989000678635, 0.0799813290473673, 0.49284309848758, -1.78201573844347, -0.830548493524481, 1.76385281347732], a = 0.2, v = 0.2, t = 0.2)
movej(p[-0.311748419324734, 0.0798894663544808, 0.492392290528894, -1.77378776927923, -0.836926047682016, 1.76019455493808], a = 0.2, v = 0.2, t = 0.2)
movej(p[-0.312525515026151, 0.0797942997520619, 0.491933519160321, -1.76518030556097, -0.844636091948293, 1.75848863048263], a = 0.2, v = 0.2, t = 0.2)
movej(p[-0.312988262464876, 0.0797547696672414, 0.491712058237476, -1.76466399075007, -0.84667237700405, 1.75739499119667], a = 0.2, v = 0.2, t = 0.2)
movej(p[-0.313499310777262, 0.0798090434657861, 0.491485437172261, -1.76418643028134, -0.847336767650707, 1.75615374939826], a = 0.2, v = 0.2, t = 0.2)
movej(p[-0.31371268194099, 0.0798244574081733, 0.491401523068146, -1.76323557383513, -0.845784310913689, 1.75632657774631], a = 0.2, v = 0.2, t = 0.2)
movej(p[-0.314119899450711, 0.0799170930920018, 0.49127559793222, -1.76280347659324, -0.843526486370652, 1.75554597127265], a = 0.2, v = 0.2, t = 0.2)
movej(p[-0.31428518931989, 0.0800019819628957, 0.491249507728212, -1.76240245872576, -0.844200213310164, 1.7539619148742], a = 0.2, v = 0.2, t = 0.2)
movej(p[-0.314687412303081, 0.0800963646171383, 0.491160235188362, -1.76302418377888, -0.84518820277366, 1.75383652021683], a = 0.2, v = 0.2, t = 0.2)
movej(p[-0.314692161643165, 0.0801416083767004, 0.491208876795957, -1.76430537221995, -0.846640161235799, 1.75360799534174], a = 0.2, v = 0.2, t = 0.2)
movej(p[-0.31447394734804, 0.0803996387923561, 0.491488154732786, -1.76798662409024, -0.844429031666049, 1.75675723037476], a = 0.2, v = 0.2, t = 0.2)
movej(p[-0.312938518192369, 0.0804585256306701, 0.49231664242623, -1.7787961779126, -0.850268444799328, 1.75794738446669], a = 0.2, v = 0.2, t = 0.2)
movej(p[-0.311497694942426, 0.080491304600436, 0.493065017687423, -1.78962722681482, -0.845599177353028, 1.76547722150186], a = 0.2, v = 0.2, t = 0.2)
movej(p[-0.30989042158883, 0.0804935484660916, 0.493872971387759, -1.80050197268467, -0.841609217530063, 1.77236370729451], a = 0.2, v = 0.2, t = 0.2)
movej(p[-0.308498846146216, 0.0805038375330416, 0.494585427465434, -1.80443268622047, -0.838222929434224, 1.77565839764342], a = 0.2, v = 0.2, t = 0.2)
movej(p[-0.307437855253136, 0.0806810247450387, 0.495226063178383, -1.81095610859347, -0.832333723061597, 1.7762781100387], a = 0.2, v = 0.2, t = 0.2)
movej(p[-0.307437855253136, 0.0806810247450387, 0.495226063178383, -1.8111134736276, -0.829106127720938, 1.7743448689217], a = 0.2, v = 0.2, t = 0.2)
movej(p[-0.307796481917414, 0.0807786094963142, 0.495093433083807, -1.80776042124183, -0.824414355285097, 1.77461307474301], a = 0.2, v = 0.2, t = 0.2)
movej(p[-0.308853169872829, 0.0804873806062529, 0.494348436313026, -1.79759611518363, -0.829269623678956, 1.76985970552849], a = 0.2, v = 0.2, t = 0.2)
movej(p[-0.309735178743462, 0.0800891941934991, 0.49362085119579, -1.7874645021622, -0.831196932427516, 1.76742603926911], a = 0.2, v = 0.2, t = 0.2)
movej(p[-0.311203714595218, 0.0799297583025786, 0.492769192315255, -1.77906931378046, -0.831875773592935, 1.76347383281083], a = 0.2, v = 0.2, t = 0.2)
movej(p[-0.311974622322037, 0.0797760987275054, 0.492272737381027, -1.77434049149075, -0.833777135525582, 1.76116933978514], a = 0.2, v = 0.2, t = 0.2)
movej(p[-0.312424597270463, 0.0797225025890678, 0.492027406401057, -1.77033780339467, -0.837630468596867, 1.75919637411038], a = 0.2, v = 0.2, t = 0.2)
movej(p[-0.313016760258573, 0.0797798539971611, 0.491788770440853, -1.76765579685165, -0.840982309048706, 1.75954723959479], a = 0.2, v = 0.2, t = 0.2)
movej(p[-0.313498776635633, 0.0798777017978812, 0.491595515272383, -1.76391157773562, -0.844693219260522, 1.75703415346527], a = 0.2, v = 0.2, t = 0.2)
movej(p[-0.314216077396147, 0.0800508920035608, 0.491381912108497, -1.76214185687512, -0.841872655422097, 1.75738781323218], a = 0.2, v = 0.2, t = 0.2)
movej(p[-0.314397737503564, 0.0800542238654795, 0.491229769694721, -1.76397438733645, -0.841008847647615, 1.7540974857812], a = 0.2, v = 0.2, t = 0.2)
movej(p[-0.314599523708111, 0.0801376592389113, 0.491256920497933, -1.76490088005418, -0.842479739596319, 1.75391333178556], a = 0.2, v = 0.2, t = 0.2)
movej(p[-0.314599523708111, 0.0801376592389113, 0.491256920497933, -1.76572521013702, -0.8444720326093, 1.75412322442225], a = 0.2, v = 0.2, t = 0.2)
movej(p[-0.314442715855172, 0.0802676070017577, 0.491405894778224, -1.77094968940555, -0.845451245766013, 1.75615247877427], a = 0.2, v = 0.2, t = 0.2)
movej(p[-0.313629350771689, 0.0803993578608433, 0.491887714445839, -1.77180856674348, -0.844515073798207, 1.75779760390838], a = 0.2, v = 0.2, t = 0.2)
movej(p[-0.312832441027529, 0.0805278903245613, 0.492390911291449, -1.78141938906306, -0.848808773853925, 1.76005036042199], a = 0.2, v = 0.2, t = 0.2)
movej(p[-0.311321715275484, 0.0805001136027874, 0.493129459120527, -1.78681198046576, -0.843625467702804, 1.76477778642399], a = 0.2, v = 0.2, t = 0.2)
movej(p[-0.309791270646002, 0.080551914041716, 0.493940638219504, -1.79884570866293, -0.835679964651304, 1.77046904772447], a = 0.2, v = 0.2, t = 0.2)
movej(p[-0.30803286855049, 0.0805883325116943, 0.494847668707164, -1.80344987970268, -0.834225980307642, 1.77328088895462], a = 0.2, v = 0.2, t = 0.2)
movej(p[-0.305552971611205, 0.0808049153170711, 0.496249060168869, -1.81944111898161, -0.828945336922039, 1.78320597223471], a = 0.2, v = 0.2, t = 0.2)
movej(p[-0.305552971611205, 0.0808049153170711, 0.496249060168869, -1.82014013011418, -0.828512247675791, 1.78223018724519], a = 0.2, v = 0.2, t = 0.2)
movej(p[-0.306733940676865, 0.0808307640777783, 0.495627750135532, -1.81021971819773, -0.820076381607009, 1.77826911864618], a = 0.2, v = 0.2, t = 0.2)
movej(p[-0.307888957479763, 0.0804908874727967, 0.494854460475437, -1.80177537215978, -0.823804434311319, 1.77271901286673], a = 0.2, v = 0.2, t = 0.2)
movej(p[-0.308950010920605, 0.0802517127389894, 0.494175632181695, -1.79500378527908, -0.824716198864478, 1.76912289175474], a = 0.2, v = 0.2, t = 0.2)
movej(p[-0.309814414256609, 0.0799723155646273, 0.493572996942381, -1.7885353921137, -0.821758569827952, 1.76653515546372], a = 0.2, v = 0.2, t = 0.2)
movej(p[-0.310345144059754, 0.0798749948743717, 0.493253243069375, -1.78471375053812, -0.823110563617935, 1.76419480649283], a = 0.2, v = 0.2, t = 0.2)
movej(p[-0.311608258810384, 0.0798341204556964, 0.492586160077058, -1.77511227707696, -0.830461983842224, 1.7606811565064], a = 0.2, v = 0.2, t = 0.2)
movej(p[-0.312236083480879, 0.0797544683388718, 0.492226662673169, -1.76997236194667, -0.835330851149124, 1.75858253558708], a = 0.2, v = 0.2, t = 0.2)
movej(p[-0.312738692596471, 0.0797555989926174, 0.491991420928263, -1.76971526921326, -0.834921590387773, 1.75863162985903], a = 0.2, v = 0.2, t = 0.2)
movej(p[-0.312978405633149, 0.0798309013960227, 0.491897973306099, -1.77035175382642, -0.834480249428748, 1.75813065659843], a = 0.2, v = 0.2, t = 0.2)
movej(p[-0.312978580564044, 0.0798325736737798, 0.491896400764753, -1.77045997866786, -0.83436512934958, 1.75822308896119], a = 0.2, v = 0.2, t = 0.2)
movej(p[-0.313579004792392, 0.0798883230682864, 0.4916327073613, -1.77050620553022, -0.834338905469743, 1.75815883772767], a = 0.2, v = 0.2, t = 0.2)
movej(p[-0.314281799850958, 0.0800842837613732, 0.49138181492933, -1.76796345235704, -0.837963672823676, 1.75547805165914], a = 0.2, v = 0.2, t = 0.2)
movej(p[-0.314282955095844, 0.0800952890001856, 0.491393646671718, -1.76648121516944, -0.840337191815634, 1.75715117253849], a = 0.2, v = 0.2, t = 0.2)
movej(p[-0.313815642046299, 0.0802305488166478, 0.49168889772722, -1.77004145408134, -0.846459817900483, 1.75668850756824], a = 0.2, v = 0.2, t = 0.2)
movej(p[-0.312722895259626, 0.080401947187878, 0.49235171051267, -1.78000023152139, -0.847029583338625, 1.76144809629887], a = 0.2, v = 0.2, t = 0.2)
movej(p[-0.311732177057337, 0.0804313636226155, 0.492871000659911, -1.78693372008095, -0.843298261436487, 1.76630033136586], a = 0.2, v = 0.2, t = 0.2)
movej(p[-0.310410283150433, 0.0804706180359622, 0.493575588936795, -1.79451432310769, -0.838391024224657, 1.77098211671108], a = 0.2, v = 0.2, t = 0.2)
movej(p[-0.308511021723349, 0.080452145427433, 0.494558246193587, -1.80366244405581, -0.837006916747729, 1.77565781698041], a = 0.2, v = 0.2, t = 0.2)
movej(p[-0.306431935877532, 0.0806104900015068, 0.495705077572468, -1.81951390089823, -0.822365831371671, 1.78208055126249], a = 0.2, v = 0.2, t = 0.2)
movej(p[-0.305819275990353, 0.080775733067835, 0.496084939865505, -1.82067534501736, -0.821406761162096, 1.78164160079004], a = 0.2, v = 0.2, t = 0.2)
movej(p[-0.305819275990353, 0.080775733067835, 0.496084939865505, -1.82065855597714, -0.820431024748831, 1.78111969620604], a = 0.2, v = 0.2, t = 0.2)
movej(p[-0.307499236473959, 0.0806331859173041, 0.495147774403382, -1.8129450270018, -0.814475809515945, 1.77733204367885], a = 0.2, v = 0.2, t = 0.2)
movej(p[-0.308551466866545, 0.0803448192690052, 0.494468052035744, -1.8023917855695, -0.817384409156803, 1.77112528441394], a = 0.2, v = 0.2, t = 0.2)
movej(p[-0.309516680605507, 0.0800386553071913, 0.493843365453043, -1.7946140704152, -0.819763962777278, 1.76902449476283], a = 0.2, v = 0.2, t = 0.2)
movej(p[-0.310412147680797, 0.0798825141824713, 0.493301868420509, -1.7828550595114, -0.826975566904907, 1.76351629357702], a = 0.2, v = 0.2, t = 0.2)
movej(p[-0.311430134362937, 0.0798598170923293, 0.492765724478004, -1.78026520936156, -0.82936459127044, 1.7615473986084], a = 0.2, v = 0.2, t = 0.2)
movej(p[-0.312396730478142, 0.0798541979988127, 0.492270742795658, -1.77223237983297, -0.836440508374761, 1.76090108228727], a = 0.2, v = 0.2, t = 0.2)
movej(p[-0.312607638709882, 0.0798733566676001, 0.49219262273937, -1.76797120598375, -0.840800492549088, 1.75878396600213], a = 0.2, v = 0.2, t = 0.2)
movej(p[-0.312778976812535, 0.0798597193011102, 0.492082054494316, -1.76693943165222, -0.841874761013206, 1.7578554229036], a = 0.2, v = 0.2, t = 0.2)
movej(p[-0.312886292742623, 0.079852196224851, 0.492032842560061, -1.76641532555066, -0.840975106842434, 1.75792362112206], a = 0.2, v = 0.2, t = 0.2)
movej(p[-0.313367576772441, 0.0799010521790281, 0.491806910295028, -1.76812484909708, -0.840014445393013, 1.75555163506002], a = 0.2, v = 0.2, t = 0.2)
movej(p[-0.314182172038753, 0.0800397423684407, 0.491439133890858, -1.76858491914347, -0.840350099516707, 1.75562611926474], a = 0.2, v = 0.2, t = 0.2)
movej(p[-0.31445045324003, 0.080068351456124, 0.491327863692048, -1.76877787489401, -0.841281934303932, 1.75593229186382], a = 0.2, v = 0.2, t = 0.2)
movej(p[-0.31445045324003, 0.080068351456124, 0.491327863692048, -1.76949630163847, -0.840720809861819, 1.75719409247433], a = 0.2, v = 0.2, t = 0.2)
movej(p[-0.314186176955576, 0.0800809736086131, 0.491459267332568, -1.76890043706571, -0.841705020226804, 1.7584549925532], a = 0.2, v = 0.2, t = 0.2)
movej(p[-0.313442368503468, 0.0802024311678134, 0.491890471063866, -1.7715982485265, -0.847031279652036, 1.75943070487204], a = 0.2, v = 0.2, t = 0.2)
movej(p[-0.312567968086906, 0.0801828125018185, 0.492360081923474, -1.77833008968139, -0.847357222644248, 1.76247539485944], a = 0.2, v = 0.2, t = 0.2)
movej(p[-0.311484812014273, 0.0801844211031725, 0.492931788714337, -1.78995931938301, -0.837867268278931, 1.76844227718251], a = 0.2, v = 0.2, t = 0.2)
movej(p[-0.309989166181515, 0.0802406998932391, 0.493748548863183, -1.79782470301975, -0.836089675080098, 1.77146621954567], a = 0.2, v = 0.2, t = 0.2)
movej(p[-0.309589868860318, 0.0802785074385173, 0.493972673513333, -1.80064695222282, -0.834671481866421, 1.77340419483125], a = 0.2, v = 0.2, t = 0.2)
movej(p[-0.308464840308748, 0.0803891063585408, 0.494592911489469, -1.80568044139005, -0.829871402740869, 1.77540830010968], a = 0.2, v = 0.2, t = 0.2)
movej(p[-0.307880347089933, 0.0804940397938807, 0.494924388896403, -1.8105297537502, -0.825523642722205, 1.77558906048455], a = 0.2, v = 0.2, t = 0.2)
movej(p[-0.307880347089933, 0.0804940397938807, 0.494924388896403, -1.80741006016539, -0.819530051133418, 1.77558503208441], a = 0.2, v = 0.2, t = 0.2)
movej(p[-0.309131210046366, 0.0803380992204356, 0.494214918599789, -1.79978626937369, -0.822643050206169, 1.7706912849612], a = 0.2, v = 0.2, t = 0.2)
movej(p[-0.309903742783557, 0.0802095266271121, 0.493772056320729, -1.79413637467215, -0.826328587640543, 1.76887628350064], a = 0.2, v = 0.2, t = 0.2)
movej(p[-0.311062226528002, 0.0800375147042664, 0.493111884735263, -1.78717478732635, -0.829325734539072, 1.76436406986459], a = 0.2, v = 0.2, t = 0.2)
movej(p[-0.311738894585844, 0.0799547973960537, 0.492726097635404, -1.78054682761372, -0.828715265813184, 1.7614978496219], a = 0.2, v = 0.2, t = 0.2)
movej(p[-0.312932440557777, 0.0799804727616395, 0.492076336919074, -1.7722400255874, -0.833283515394949, 1.75527509367534], a = 0.2, v = 0.2, t = 0.2)
movej(p[-0.313450537136368, 0.0799984026187876, 0.491818343575216, -1.76899164270737, -0.836008753114659, 1.75559631883801], a = 0.2, v = 0.2, t = 0.2)
movej(p[-0.313718584014237, 0.0800296712602949, 0.491696133455656, -1.76906651759458, -0.83774637894286, 1.75491120444507], a = 0.2, v = 0.2, t = 0.2)
movej(p[-0.314048689868312, 0.0800204191658569, 0.491510531748084, -1.76372283144191, -0.842205191079448, 1.75588675971133], a = 0.2, v = 0.2, t = 0.2)
movej(p[-0.314248334190988, 0.0799827727073068, 0.491402005905163, -1.76372283144191, -0.842205191079448, 1.75588675971133], a = 0.2, v = 0.2, t = 0.2)
movej(p[-0.314677367023808, 0.0801404151637738, 0.491213484993108, -1.76719006029004, -0.839428506342517, 1.75504411497392], a = 0.2, v = 0.2, t = 0.2)
movej(p[-0.314682109232751, 0.0801855909897629, 0.491262053565256, -1.77026469434924, -0.837083869451364, 1.7571328725226], a = 0.2, v = 0.2, t = 0.2)
movej(p[-0.313254203830742, 0.0801307894616613, 0.491981368103849, -1.77943843519363, -0.834358952985016, 1.76198321823369], a = 0.2, v = 0.2, t = 0.2)
movej(p[-0.311760702736429, 0.0802459129210907, 0.492807126307184, -1.78864567333032, -0.834997010711497, 1.76540907903028], a = 0.2, v = 0.2, t = 0.2)
movej(p[-0.31006935479795, 0.0801864403287314, 0.493724371695158, -1.79580785958799, -0.828626035450976, 1.77023919695526], a = 0.2, v = 0.2, t = 0.2)
movej(p[-0.308257135447832, 0.0803332606923052, 0.494733185408338, -1.81414886044275, -0.811771537002757, 1.77439572622312], a = 0.2, v = 0.2, t = 0.2)
movej(p[-0.306721064836718, 0.0805178884525198, 0.495599771646301, -1.82192578259034, -0.810363623273606, 1.77869692357703], a = 0.2, v = 0.2, t = 0.2)
movej(p[-0.304864465934521, 0.0807334057503129, 0.496647876536431, -1.82858532414142, -0.809133981193318, 1.78435055138197], a = 0.2, v = 0.2, t = 0.2)
movej(p[-0.304864465934521, 0.0807334057503129, 0.496647876536431, -1.82858532414142, -0.809133981193318, 1.78435055138197], a = 0.2, v = 0.2, t = 0.2)
movej(p[-0.305917831683359, 0.0806432573969157, 0.496080376753563, -1.8256086567049, -0.805565523347408, 1.78178169359454], a = 0.2, v = 0.2, t = 0.2)
movej(p[-0.307066628358593, 0.0804578704811344, 0.495417298236021, -1.81561397196474, -0.805559112360394, 1.77696404334866], a = 0.2, v = 0.2, t = 0.2)
movej(p[-0.308861800535882, 0.080332405409713, 0.494420407835955, -1.80295330204016, -0.814074730498554, 1.77103010776481], a = 0.2, v = 0.2, t = 0.2)
movej(p[-0.309679822765252, 0.0802017547979967, 0.493960797185606, -1.79281945861014, -0.823214417151762, 1.76618508389191], a = 0.2, v = 0.2, t = 0.2)
movej(p[-0.310316702616381, 0.0802420684358726, 0.493608771823129, -1.7914191719453, -0.824545850301275, 1.7657117934407], a = 0.2, v = 0.2, t = 0.2)
movej(p[-0.310765615357895, 0.0800903540704171, 0.493355404970876, -1.78719900644309, -0.828669171588795, 1.76367741794392], a = 0.2, v = 0.2, t = 0.2)
movej(p[-0.311860778574338, 0.0800652621550148, 0.492749326935362, -1.77971469014308, -0.831182995098274, 1.75995467410722], a = 0.2, v = 0.2, t = 0.2)
movej(p[-0.312963312729895, 0.080098722517508, 0.492143245769204, -1.77346971091357, -0.834755706491171, 1.75693532352135], a = 0.2, v = 0.2, t = 0.2)
movej(p[-0.313406427249389, 0.0799964187313941, 0.49189103877493, -1.77103399914975, -0.836664013380397, 1.75782333937999], a = 0.2, v = 0.2, t = 0.2)
movej(p[-0.313661639983028, 0.080084766159867, 0.491747523331613, -1.76920083363994, -0.839032458104529, 1.75697338736633], a = 0.2, v = 0.2, t = 0.2)
movej(p[-0.313944317433124, 0.080047414340158, 0.491627466966634, -1.76844905056755, -0.84039879446826, 1.75822824468587], a = 0.2, v = 0.2, t = 0.2)
movej(p[-0.313999250178231, 0.0800852312611938, 0.491564473284424, -1.76779156225826, -0.84152908423013, 1.75955278354476], a = 0.2, v = 0.2, t = 0.2)
movej(p[-0.314099493923559, 0.0800646557090409, 0.491511799114508, -1.76532794703289, -0.843944648763282, 1.7605668624939], a = 0.2, v = 0.2, t = 0.2)
movej(p[-0.314099493923559, 0.0800646557090409, 0.491511799114508, -1.7664073219026, -0.845672702796251, 1.76035133330392], a = 0.2, v = 0.2, t = 0.2)
movej(p[-0.313753053628549, 0.0801709432781533, 0.491699927221515, -1.77269474154205, -0.841206576482278, 1.75795492478298], a = 0.2, v = 0.2, t = 0.2)
movej(p[-0.311857561020912, 0.0801487126182848, 0.492780734379224, -1.79132101321382, -0.825210988515463, 1.76566896963734], a = 0.2, v = 0.2, t = 0.2)
movej(p[-0.309542012342117, 0.0802692426798458, 0.494065240342773, -1.80221326170175, -0.826412765793147, 1.7696280394268], a = 0.2, v = 0.2, t = 0.2)
movej(p[-0.307569157898056, 0.0804456235966159, 0.495175064700383, -1.81497177657382, -0.818174783333747, 1.77881179577711], a = 0.2, v = 0.2, t = 0.2)
movej(p[-0.305861854296046, 0.0806359600940933, 0.496134801210209, -1.82640485286775, -0.811760729221443, 1.78457568032245], a = 0.2, v = 0.2, t = 0.2)
movej(p[-0.305132656249073, 0.0807771474961725, 0.496540339218026, -1.82995443856419, -0.811166424375295, 1.78654640271863], a = 0.2, v = 0.2, t = 0.2)
movej(p[-0.305132656249073, 0.0807771474961725, 0.496540339218026, -1.8294053920711, -0.811514253483508, 1.78732468357618], a = 0.2, v = 0.2, t = 0.2)
movej(p[-0.306997765770947, 0.0805340704405667, 0.495535248268684, -1.81483116930845, -0.81600122013672, 1.78251783952214], a = 0.2, v = 0.2, t = 0.2)
movej(p[-0.308266170383225, 0.0804184211652043, 0.494821229169037, -1.80625961072653, -0.818814313245259, 1.77845881460469], a = 0.2, v = 0.2, t = 0.2)
movej(p[-0.309701250237949, 0.080261194190524, 0.494012679764857, -1.79135281342799, -0.834264863910974, 1.76724239094066], a = 0.2, v = 0.2, t = 0.2)
movej(p[-0.31062454792293, 0.0801884648429691, 0.49359489082662, -1.79566201929033, -0.822195144546155, 1.76690109763713], a = 0.2, v = 0.2, t = 0.2)
movej(p[-0.310642151561075, 0.0801881637641478, 0.493590576747854, -1.79627802758559, -0.821203110060793, 1.76690596683546], a = 0.2, v = 0.2, t = 0.2)
movej(p[-0.310932517372219, 0.0803185366440102, 0.493292812633302, -1.7961207470191, -0.820951195061067, 1.76693274770776], a = 0.2, v = 0.2, t = 0.2)
movej(p[-0.311682155295664, 0.0803205953341306, 0.492802973388724, -1.7917522014622, -0.82463532127979, 1.76681768220887], a = 0.2, v = 0.2, t = 0.2)
movej(p[-0.312413878690012, 0.0802282124349691, 0.492406698378023, -1.78774835462651, -0.828540130220388, 1.7643044161585], a = 0.2, v = 0.2, t = 0.2)
movej(p[-0.312852391627938, 0.080210347473768, 0.492147324774061, -1.77982170037777, -0.834341001288664, 1.76354747535857], a = 0.2, v = 0.2, t = 0.2)
movej(p[-0.313728507132279, 0.0801892817511808, 0.491622831048277, -1.77116835094124, -0.842173764361443, 1.76165864641301], a = 0.2, v = 0.2, t = 0.2)
movej(p[-0.313926387541653, 0.0801335583920256, 0.491509384405179, -1.76931187373969, -0.843339305860184, 1.76427734047078], a = 0.2, v = 0.2, t = 0.2)
movej(p[-0.314077406205225, 0.0800745819626518, 0.49145351487832, -1.77538500012688, -0.837008086382742, 1.76975768488901], a = 0.2, v = 0.2, t = 0.2)
movej(p[-0.314323146783016, 0.0801605995275571, 0.491240523899745, -1.78379017691351, -0.82233664158782, 1.76946239833473], a = 0.2, v = 0.2, t = 0.2)
movej(p[-0.314405304021135, 0.0801346319526541, 0.49121667514132, -1.78696701060095, -0.817267434180123, 1.77008570649188], a = 0.2, v = 0.2, t = 0.2)
movej(p[-0.3144017317975, 0.0800548906303695, 0.491291194942303, -1.78696701060095, -0.817267434180123, 1.77008570649188], a = 0.2, v = 0.2, t = 0.2)
movej(p[-0.313665561898232, 0.0800298993827344, 0.491777362657145, -1.78519869034896, -0.821918337697741, 1.76891867765782], a = 0.2, v = 0.2, t = 0.2)
movej(p[-0.313072670901722, 0.0800583776950207, 0.492118065110888, -1.78736882238259, -0.825400381423026, 1.7685391393367], a = 0.2, v = 0.2, t = 0.2)
movej(p[-0.312494035152415, 0.0800869957815478, 0.492448756651069, -1.78957228008678, -0.828912737363701, 1.76813311138992], a = 0.2, v = 0.2, t = 0.2)
movej(p[-0.310596761209015, 0.0801230667250236, 0.493613113194715, -1.7947270274271, -0.834436067891455, 1.76821037678712], a = 0.2, v = 0.2, t = 0.2)
movej(p[-0.308597663923712, 0.0803101359342602, 0.494745132905167, -1.80840731730024, -0.822951800429993, 1.76991585835489], a = 0.2, v = 0.2, t = 0.2)
movej(p[-0.307595428188446, 0.080560989325909, 0.495182396163231, -1.81019564132759, -0.823439712638095, 1.7705781571443], a = 0.2, v = 0.2, t = 0.2)
movej(p[-0.307595428188446, 0.080560989325909, 0.495182396163231, -1.805386119279, -0.826359906463732, 1.77732253035921], a = 0.2, v = 0.2, t = 0.2)
movej(p[-0.308378582099673, 0.0803888540242232, 0.494858429977893, -1.80056340508666, -0.829165509690329, 1.77511271432526], a = 0.2, v = 0.2, t = 0.2)
movej(p[-0.308880716490244, 0.080328979883801, 0.49459481377749, -1.79875137784378, -0.827812739565345, 1.77621778481106], a = 0.2, v = 0.2, t = 0.2)
movej(p[-0.309763330877157, 0.0803697276887514, 0.493976316954212, -1.79446693841528, -0.830017924066782, 1.77349718829815], a = 0.2, v = 0.2, t = 0.2)
movej(p[-0.311361524221688, 0.0802926567652802, 0.493026897975966, -1.77949259083828, -0.840403652912675, 1.76667450389038], a = 0.2, v = 0.2, t = 0.2)
movej(p[-0.311763433469144, 0.0802717561607617, 0.492765159057308, -1.77138995294374, -0.848371141896143, 1.76166139859056], a = 0.2, v = 0.2, t = 0.2)
movej(p[-0.312282462146902, 0.0802493052748628, 0.49243879564118, -1.76887202070812, -0.850981731592452, 1.75937755592319], a = 0.2, v = 0.2, t = 0.2)
movej(p[-0.312886277815579, 0.080269712632621, 0.492015819663128, -1.76875742134838, -0.847361174901992, 1.75633077353895], a = 0.2, v = 0.2, t = 0.2)
movej(p[-0.313350183351339, 0.0801789627487202, 0.491816831189936, -1.76720159992355, -0.845576133788468, 1.75635134610718], a = 0.2, v = 0.2, t = 0.2)
movej(p[-0.313984847889572, 0.0801201593011601, 0.491407288214823, -1.7654119038193, -0.844489271556495, 1.75767447725708], a = 0.2, v = 0.2, t = 0.2)
movej(p[-0.313991226472204, 0.0801593944748738, 0.491364146531647, -1.76482310316895, -0.845048973621872, 1.75738854111742], a = 0.2, v = 0.2, t = 0.2)
movej(p[-0.314079052022191, 0.0801338357899344, 0.491341007033087, -1.76580254974701, -0.842056840471836, 1.7590944910544], a = 0.2, v = 0.2, t = 0.2)
movej(p[-0.314130784622459, 0.080128085555125, 0.491337333768986, -1.76732741688658, -0.840416991077138, 1.75733767786093], a = 0.2, v = 0.2, t = 0.2)
movej(p[-0.3141259137058, 0.0800193540268449, 0.491438945475639, -1.76915216373706, -0.838515351791412, 1.75858564516811], a = 0.2, v = 0.2, t = 0.2)
movej(p[-0.313907589303403, 0.0799106723609109, 0.491724834546447, -1.7726864349094, -0.835216161494015, 1.75986063013271], a = 0.2, v = 0.2, t = 0.2)
movej(p[-0.313708789978936, 0.0799578675669765, 0.49179482148177, -1.7739210132287, -0.834033031680609, 1.76088683717601], a = 0.2, v = 0.2, t = 0.2)
movej(p[-0.311970046788514, 0.080087278524734, 0.492780615061468, -1.78378971494814, -0.835332589119315, 1.762448714501], a = 0.2, v = 0.2, t = 0.2)
movej(p[-0.310027028174338, 0.080264846417849, 0.493838774108258, -1.79934531271111, -0.825711592396985, 1.76977664232251], a = 0.2, v = 0.2, t = 0.2)
movej(p[-0.308519793014006, 0.0803477605727244, 0.494763197179356, -1.80752001476679, -0.823231576004309, 1.77284456091893], a = 0.2, v = 0.2, t = 0.2)
movej(p[-0.30792210047979, 0.0804464745019826, 0.495047528156763, -1.81114902634169, -0.819354313073105, 1.77614020726738], a = 0.2, v = 0.2, t = 0.2)
movej(p[-0.30792210047979, 0.0804464745019826, 0.495047528156763, -1.81088759444206, -0.819558813740232, 1.7765333065512], a = 0.2, v = 0.2, t = 0.2)
movej(p[-0.307941964462892, 0.0804828876265146, 0.494989264304014, -1.80547142846653, -0.824000040404433, 1.7784807565769], a = 0.2, v = 0.2, t = 0.2)
movej(p[-0.309192811303966, 0.0804222195444826, 0.494248684649962, -1.79373047370944, -0.824404867349926, 1.77832797905285], a = 0.2, v = 0.2, t = 0.2)
movej(p[-0.309988344724582, 0.0804001767383788, 0.493725437154618, -1.78919625305947, -0.827011902878109, 1.77554450331963], a = 0.2, v = 0.2, t = 0.2)
movej(p[-0.311048108135239, 0.0803492757605159, 0.493068503578155, -1.78474857415431, -0.829309621718665, 1.77250011345812], a = 0.2, v = 0.2, t = 0.2)
movej(p[-0.311772292340768, 0.0802947066537387, 0.492663533296471, -1.78027282057497, -0.833243559829877, 1.76877941858992], a = 0.2, v = 0.2, t = 0.2)
movej(p[-0.312322884132771, 0.080295301078116, 0.492239811246964, -1.77078558418616, -0.842955443757978, 1.76126967687295], a = 0.2, v = 0.2, t = 0.2)
movej(p[-0.312752958442426, 0.08025926739987, 0.491973926324099, -1.76442132255401, -0.848951265623214, 1.758441970473], a = 0.2, v = 0.2, t = 0.2)
movej(p[-0.313096998266893, 0.0802416145442388, 0.491738093235096, -1.76369936326309, -0.847796275391405, 1.7585888772933], a = 0.2, v = 0.2, t = 0.2)
movej(p[-0.313833165918389, 0.0801648825310834, 0.491368450316797, -1.76333309218155, -0.844310087221238, 1.75755842990458], a = 0.2, v = 0.2, t = 0.2)
movej(p[-0.314159424626319, 0.0801166800246345, 0.491172490285484, -1.76454350223981, -0.841577951318207, 1.75769448708894], a = 0.2, v = 0.2, t = 0.2)
movej(p[-0.314198603485287, 0.080113828578666, 0.491171317141906, -1.76451554137321, -0.841480561092932, 1.75767102670965], a = 0.2, v = 0.2, t = 0.2)
movej(p[-0.314194616094779, 0.0800070255028242, 0.491297748204971, -1.76824022306329, -0.837959260529287, 1.75991565035714], a = 0.2, v = 0.2, t = 0.2)
movej(p[-0.313484137003418, 0.0800030675195412, 0.491800181041386, -1.77223787191059, -0.839507250676242, 1.76041323924656], a = 0.2, v = 0.2, t = 0.2)
movej(p[-0.312772858074981, 0.080033627707472, 0.492248951729905, -1.77742872459004, -0.838185166045721, 1.76120793794452], a = 0.2, v = 0.2, t = 0.2)
movej(p[-0.311781857300096, 0.0800887720189489, 0.492890569169732, -1.79159135152052, -0.826687329264824, 1.76287569752172], a = 0.2, v = 0.2, t = 0.2)
movej(p[-0.309801415143154, 0.080244978731036, 0.494040574220201, -1.80525492927668, -0.822253173634159, 1.76584128755539], a = 0.2, v = 0.2, t = 0.2)
movej(p[-0.30742774361465, 0.0805466986201768, 0.495161263973553, -1.81916997397639, -0.812780458304904, 1.77628653250288], a = 0.2, v = 0.2, t = 0.2)
movej(p[-0.305132865770271, 0.0807882790439755, 0.496346081490395, -1.82939251527735, -0.811414227197807, 1.7824125041742], a = 0.2, v = 0.2, t = 0.2)
movej(p[-0.303430835549572, 0.0808975535791191, 0.497260213069434, -1.8345140166707, -0.806924415888708, 1.79069223472746], a = 0.2, v = 0.2, t = 0.2)
movej(p[-0.303430835549572, 0.0808975535791191, 0.497260213069434, -1.82973862380963, -0.809970949938544, 1.79746317872156], a = 0.2, v = 0.2, t = 0.2)
movej(p[-0.305658577439515, 0.0806655935762764, 0.496111339830614, -1.82233675405109, -0.803961913803578, 1.7969804648671], a = 0.2, v = 0.2, t = 0.2)
movej(p[-0.307084259795023, 0.0805509324984987, 0.495354482606011, -1.807237937406, -0.813149250318963, 1.78783399732866], a = 0.2, v = 0.2, t = 0.2)
movej(p[-0.308226987051489, 0.0804969606328165, 0.494634935453251, -1.79703033580874, -0.819869982556873, 1.7805592554556], a = 0.2, v = 0.2, t = 0.2)
movej(p[-0.308961265406777, 0.0804273672456513, 0.494245145064172, -1.79441031343067, -0.822666878528119, 1.77819009030167], a = 0.2, v = 0.2, t = 0.2)
movej(p[-0.309774951489989, 0.0804168653191495, 0.493660236244332, -1.79110392631823, -0.8262325100616, 1.77496974419291], a = 0.2, v = 0.2, t = 0.2)
movej(p[-0.310734801427784, 0.0803249684512278, 0.493169762858121, -1.78762975509309, -0.829005492428957, 1.77219585989111], a = 0.2, v = 0.2, t = 0.2)
movej(p[-0.311032578233614, 0.0803172755723558, 0.492945886857789, -1.78104278679386, -0.83260139699725, 1.76620987023489], a = 0.2, v = 0.2, t = 0.2)
movej(p[-0.311580631545223, 0.0802420598658226, 0.492702052190187, -1.78104278679386, -0.83260139699725, 1.76620987023489], a = 0.2, v = 0.2, t = 0.2)
movej(p[-0.312071684616164, 0.0802002134140283, 0.492493537140389, -1.78165478962836, -0.828629218125848, 1.76334854105583], a = 0.2, v = 0.2, t = 0.2)
movej(p[-0.312422540446602, 0.0801701718331676, 0.49227759856193, -1.77960299031536, -0.828786372164987, 1.76232270482243], a = 0.2, v = 0.2, t = 0.2)
movej(p[-0.312878987474785, 0.0801201195992463, 0.492028750065164, -1.77888975972914, -0.829359402337533, 1.76254537880345], a = 0.2, v = 0.2, t = 0.2)
movej(p[-0.312878987474785, 0.0801201195992463, 0.492028750065164, -1.77950099998984, -0.830801838436834, 1.76224279327214], a = 0.2, v = 0.2, t = 0.2)
movej(p[-0.312621285176291, 0.0801443397916633, 0.492207462565092, -1.77965605282619, -0.830712347358395, 1.76202658392677], a = 0.2, v = 0.2, t = 0.2)
movej(p[-0.312527849264039, 0.0801640487631568, 0.492224952755035, -1.78008873832105, -0.830244303726959, 1.76241798509364], a = 0.2, v = 0.2, t = 0.2)
movej(p[-0.312434413351786, 0.0801837577346503, 0.492242442944977, -1.78052579839953, -0.829782663082617, 1.7628114106665], a = 0.2, v = 0.2, t = 0.2)
movej(p[-0.311491223869857, 0.0802312733228049, 0.492837744482066, -1.78683131287723, -0.826896158748124, 1.76635919442552], a = 0.2, v = 0.2, t = 0.2)
movej(p[-0.311490004660889, 0.0802008635860384, 0.492870941190326, -1.78751354715862, -0.827740604621572, 1.76609876759047], a = 0.2, v = 0.2, t = 0.2)
movej(p[-0.31149100157842, 0.0802007910301614, 0.492870911339344, -1.78697475131104, -0.828312491264939, 1.76561218814656], a = 0.2, v = 0.2, t = 0.2)
movej(p[-0.312148464668407, 0.0801730172326141, 0.492500793950568, -1.78190519713268, -0.828874879803685, 1.76614412194522], a = 0.2, v = 0.2, t = 0.2)
movej(p[-0.313489867762353, 0.0800565738375595, 0.491764366346997, -1.77370701086727, -0.833563544550545, 1.76097973029083], a = 0.2, v = 0.2, t = 0.2)
movej(p[-0.314257598999887, 0.0800127833116861, 0.491290076744794, -1.76938701946679, -0.83295437423907, 1.75921638748045], a = 0.2, v = 0.2, t = 0.2)
movej(p[-0.314257598999887, 0.0800127833116861, 0.491290076744794, -1.76938701946679, -0.83295437423907, 1.75921638748045], a = 0.2, v = 0.2, t = 0.2)
movej(p[-0.3140976124934, 0.0799382065033201, 0.491602214979229, -1.77315955710061, -0.8351258117134, 1.75940422259999], a = 0.2, v = 0.2, t = 0.2)
movej(p[-0.311966400103692, 0.0800766927664346, 0.492828607283869, -1.78847598670158, -0.8287513404768, 1.76503135281426], a = 0.2, v = 0.2, t = 0.2)
movej(p[-0.310156420775005, 0.0801614952047089, 0.494022771069197, -1.80061250101684, -0.824066647324546, 1.77190834331888], a = 0.2, v = 0.2, t = 0.2)
movej(p[-0.30841313026543, 0.0803046739132418, 0.494997434917222, -1.81043579330368, -0.821289783005084, 1.77685155575427], a = 0.2, v = 0.2, t = 0.2)
movej(p[-0.304982712020869, 0.0806700725027228, 0.49658679967655, -1.82948856618286, -0.806951042220216, 1.78963741302833], a = 0.2, v = 0.2, t = 0.2)
movej(p[-0.302393468332006, 0.0808970810187623, 0.497902226186595, -1.84012203511681, -0.801602410086073, 1.7969419952453], a = 0.2, v = 0.2, t = 0.2)
movej(p[-0.302393468332006, 0.0808970810187623, 0.497902226186595, -1.83241478693549, -0.806570857911566, 1.80788531617559], a = 0.2, v = 0.2, t = 0.2)
movej(p[-0.303228225420344, 0.0808126017153761, 0.497467180038733, -1.82073381639367, -0.811192465476819, 1.80329456333842], a = 0.2, v = 0.2, t = 0.2)
movej(p[-0.305665366393089, 0.0806094630550587, 0.496159600422169, -1.8092538773236, -0.812238836099338, 1.7972430597265], a = 0.2, v = 0.2, t = 0.2)
movej(p[-0.30701918304395, 0.0805551325267523, 0.495234523712083, -1.80543137686312, -0.812581168619159, 1.79027354094526], a = 0.2, v = 0.2, t = 0.2)
movej(p[-0.308298004491539, 0.0804778296482917, 0.49452393730624, -1.79897866811369, -0.819907505389932, 1.78244963954632], a = 0.2, v = 0.2, t = 0.2)
movej(p[-0.309312962916934, 0.0804017814516777, 0.493952686112358, -1.78854654738772, -0.831006133308019, 1.77300057902845], a = 0.2, v = 0.2, t = 0.2)
movej(p[-0.310660717768236, 0.080306113342031, 0.493190289821976, -1.78352195584245, -0.832650897072283, 1.77098737168262], a = 0.2, v = 0.2, t = 0.2)
movej(p[-0.311968156055466, 0.0801864097051507, 0.492489922622285, -1.77784779784011, -0.833868567426365, 1.76780434524666], a = 0.2, v = 0.2, t = 0.2)
movej(p[-0.31239506839783, 0.0801789958919056, 0.492186224536498, -1.77459087259771, -0.837105435362289, 1.76085990518657], a = 0.2, v = 0.2, t = 0.2)
movej(p[-0.313137278814092, 0.0801025329294885, 0.491843536072481, -1.77379697743015, -0.835889525673497, 1.76065062755782], a = 0.2, v = 0.2, t = 0.2)
movej(p[-0.31342617130435, 0.0800873271957702, 0.491692963250449, -1.77618841547689, -0.83341011231042, 1.75670787008005], a = 0.2, v = 0.2, t = 0.2)
movej(p[-0.313632686971129, 0.0800599350498271, 0.491591343470311, -1.77989424262082, -0.826775597179252, 1.7566941908917], a = 0.2, v = 0.2, t = 0.2)
movej(p[-0.31426420851965, 0.0799538640826893, 0.491406122592212, -1.78307857583155, -0.818142949141932, 1.75671577974924], a = 0.2, v = 0.2, t = 0.2)
movej(p[-0.31426420851965, 0.0799538640826893, 0.491406122592212, -1.78307857583155, -0.818142949141932, 1.75671577974924], a = 0.2, v = 0.2, t = 0.2)
movej(p[-0.313977594738191, 0.0799340805084374, 0.491704441466015, -1.78230092041117, -0.823333193726864, 1.75900776359529], a = 0.2, v = 0.2, t = 0.2)
movej(p[-0.312916164296517, 0.0799843489691912, 0.492421138584289, -1.78285312183411, -0.833772476603521, 1.76316540881016], a = 0.2, v = 0.2, t = 0.2)
movej(p[-0.311581313846964, 0.0800578866916072, 0.493293089529417, -1.78624419040583, -0.839208744847971, 1.7625312113503], a = 0.2, v = 0.2, t = 0.2)
movej(p[-0.310691969300021, 0.0801255796069701, 0.493852043048085, -1.79981561473101, -0.82911998685281, 1.7626210851496], a = 0.2, v = 0.2, t = 0.2)
movej(p[-0.308456992375351, 0.0802986934326521, 0.495053072127479, -1.81456625526568, -0.81949877607258, 1.77344078950776], a = 0.2, v = 0.2, t = 0.2)
movej(p[-0.306125014189483, 0.0805205365880578, 0.496162383718079, -1.82300531080477, -0.820813698228574, 1.77700573367295], a = 0.2, v = 0.2, t = 0.2)
movej(p[-0.30351353326877, 0.0808009278851737, 0.497329007055429, -1.83220452113533, -0.809886016465524, 1.79128948553262], a = 0.2, v = 0.2, t = 0.2)
movej(p[-0.30351353326877, 0.0808009278851737, 0.497329007055429, -1.83013534504881, -0.811202664966373, 1.79421892351903], a = 0.2, v = 0.2, t = 0.2)
movej(p[-0.304696386071288, 0.0806685403250541, 0.496790069701462, -1.8229355178968, -0.803617469684956, 1.79586641122299], a = 0.2, v = 0.2, t = 0.2)
movej(p[-0.307187797836452, 0.0804742371850598, 0.495484581656252, -1.81023388711607, -0.805880551895037, 1.78995042112461], a = 0.2, v = 0.2, t = 0.2)
movej(p[-0.308167769016119, 0.0804378067225747, 0.494811025683503, -1.79802968355998, -0.818053123297199, 1.78373877950609], a = 0.2, v = 0.2, t = 0.2)
movej(p[-0.309540537815762, 0.0803395883117115, 0.494035962572205, -1.78763455643454, -0.828831510707687, 1.77571810002113], a = 0.2, v = 0.2, t = 0.2)
movej(p[-0.310754290571304, 0.0802715017184308, 0.493193493887784, -1.78280537280114, -0.832876426879832, 1.77177895210915], a = 0.2, v = 0.2, t = 0.2)
movej(p[-0.312148911201495, 0.0801646007239767, 0.492432314588782, -1.78281638935161, -0.827752069094132, 1.76893918224296], a = 0.2, v = 0.2, t = 0.2)
movej(p[-0.313249624766172, 0.0800570556105012, 0.491944011693947, -1.78618071022341, -0.817576542785155, 1.76001870943036], a = 0.2, v = 0.2, t = 0.2)
movej(p[-0.313762187927844, 0.0800083456601162, 0.491679946501181, -1.78738901207336, -0.8142868463081, 1.75750836110924], a = 0.2, v = 0.2, t = 0.2)
movej(p[-0.314040496785809, 0.079964666783454, 0.491596871804, -1.78913311847969, -0.812400619356983, 1.75895707613419], a = 0.2, v = 0.2, t = 0.2)
movej(p[-0.314222806827844, 0.0799414799602014, 0.491540941223809, -1.7903530723718, -0.810090256704356, 1.75629752429453], a = 0.2, v = 0.2, t = 0.2)
movej(p[-0.314379883788551, 0.0799191639044185, 0.491524591236978, -1.79116060556572, -0.805203126947465, 1.75692530791387], a = 0.2, v = 0.2, t = 0.2)
movej(p[-0.314480935977073, 0.0798864609036588, 0.491545143096654, -1.79116060556572, -0.805203126947465, 1.75692530791387], a = 0.2, v = 0.2, t = 0.2)
movej(p[-0.3144817541126, 0.0798742456327159, 0.491602156409223, -1.78675369944418, -0.814805243026303, 1.75822173220774], a = 0.2, v = 0.2, t = 0.2)
movej(p[-0.313289800930798, 0.0799681261592989, 0.492312665472586, -1.7925817128548, -0.824034575864193, 1.75721524012396], a = 0.2, v = 0.2, t = 0.2)
movej(p[-0.312183282522073, 0.0800384453327191, 0.492992386190971, -1.79874585757166, -0.822061213442071, 1.76102535290386], a = 0.2, v = 0.2, t = 0.2)
movej(p[-0.310807397664624, 0.0801451014478178, 0.493770174248321, -1.80356049870322, -0.824636002511924, 1.76226279735921], a = 0.2, v = 0.2, t = 0.2)
movej(p[-0.310530027365581, 0.080174027506712, 0.493897001927972, -1.80442744043454, -0.82667570334929, 1.76566101570351], a = 0.2, v = 0.2, t = 0.2)
movej(p[-0.309471696144043, 0.0802640589159238, 0.494510005011873, -1.80678915639563, -0.830317186755556, 1.76649167111173], a = 0.2, v = 0.2, t = 0.2)
movej(p[-0.307182676087157, 0.0804468393414597, 0.495715123921032, -1.82176792763041, -0.816744436593851, 1.77967469269113], a = 0.2, v = 0.2, t = 0.2)
movej(p[-0.303879252102192, 0.0807371599872743, 0.4972860688431, -1.83303433530227, -0.804349130626333, 1.79022104207626], a = 0.2, v = 0.2, t = 0.2)
movej(p[-0.303879252102192, 0.0807371599872743, 0.4972860688431, -1.82996305359745, -0.80564193178478, 1.79421712905918], a = 0.2, v = 0.2, t = 0.2)
movej(p[-0.305449518580951, 0.0806121853959485, 0.496408168804824, -1.82219923137606, -0.800958616166648, 1.79367296067164], a = 0.2, v = 0.2, t = 0.2)
movej(p[-0.307967953072797, 0.0804507862502714, 0.494906776039403, -1.80169576160646, -0.818883390921185, 1.78122672577909], a = 0.2, v = 0.2, t = 0.2)
movej(p[-0.308614592192965, 0.0804429825725706, 0.494310885343988, -1.79599075338965, -0.819131457033423, 1.77878838751652], a = 0.2, v = 0.2, t = 0.2)
movej(p[-0.309578969180292, 0.0803979130613209, 0.493583082915118, -1.79159719445266, -0.823583548539624, 1.7749146700311], a = 0.2, v = 0.2, t = 0.2)
movej(p[-0.310382830623051, 0.0803647965596902, 0.493023180443106, -1.78370972752231, -0.831129863325434, 1.76812131481073], a = 0.2, v = 0.2, t = 0.2)
movej(p[-0.311347368349978, 0.0802892417179177, 0.492515542767967, -1.78606326197067, -0.825803809693185, 1.76263211703468], a = 0.2, v = 0.2, t = 0.2)
movej(p[-0.312438917636655, 0.0801690597088746, 0.492120397668722, -1.79216261868396, -0.810551233743215, 1.76021284015905], a = 0.2, v = 0.2, t = 0.2)
movej(p[-0.312655062627679, 0.0801559739907466, 0.491983992658417, -1.80047390636666, -0.802237635546404, 1.75535143423751], a = 0.2, v = 0.2, t = 0.2)
movej(p[-0.312947996987803, 0.0801298373287253, 0.491897823548191, -1.80144557803409, -0.799341955916172, 1.75442099937085], a = 0.2, v = 0.2, t = 0.2)
movej(p[-0.313283893598777, 0.0800876037872536, 0.491835028686056, -1.80415248907496, -0.794944894556138, 1.75349994812946], a = 0.2, v = 0.2, t = 0.2)
movej(p[-0.313671697036819, 0.0800343961629774, 0.491773676325369, -1.80228669344453, -0.792030431001285, 1.75377781456905], a = 0.2, v = 0.2, t = 0.2)
movej(p[-0.314271538456025, 0.0799625535326737, 0.491666645730324, -1.801780228307, -0.7915570724524, 1.75404397235393], a = 0.2, v = 0.2, t = 0.2)
movej(p[-0.314271538456025, 0.0799625535326737, 0.491666645730324, -1.80087748778038, -0.791897075490813, 1.75359815288641], a = 0.2, v = 0.2, t = 0.2)
movej(p[-0.314262437597802, 0.0799481384891094, 0.491715993890356, -1.79886717319971, -0.79310759819533, 1.75651505619624], a = 0.2, v = 0.2, t = 0.2)
movej(p[-0.31386496857534, 0.0799615618078966, 0.491906346853812, -1.78058757937363, -0.821332735039528, 1.76246549995903], a = 0.2, v = 0.2, t = 0.2)
movej(p[-0.31353928858499, 0.07999268515384, 0.492035847669342, -1.77861319613686, -0.828520015518406, 1.76330362329372], a = 0.2, v = 0.2, t = 0.2)
movej(p[-0.312774389979436, 0.0800450534972131, 0.492577187978052, -1.78213091420226, -0.834144304467816, 1.76265638478482], a = 0.2, v = 0.2, t = 0.2)
movej(p[-0.311343255490396, 0.0801454916280117, 0.493451181414047, -1.79397061870577, -0.826475192986258, 1.76658960719141], a = 0.2, v = 0.2, t = 0.2)
movej(p[-0.308937444901622, 0.0803500185387751, 0.494595720606786, -1.80951584869819, -0.821206446198729, 1.7716794880487], a = 0.2, v = 0.2, t = 0.2)
movej(p[-0.306879780710327, 0.0805301557516378, 0.495597646831817, -1.81727936673133, -0.817262031359594, 1.77699235140819], a = 0.2, v = 0.2, t = 0.2)
movej(p[-0.305683138660569, 0.0806170081994642, 0.496068147498189, -1.82365540430873, -0.810275397792631, 1.78298705330137], a = 0.2, v = 0.2, t = 0.2)
movej(p[-0.305683138660569, 0.0806170081994642, 0.496068147498189, -1.81823513203885, -0.808836728123581, 1.78796003327945], a = 0.2, v = 0.2, t = 0.2)
movej(p[-0.307624597600543, 0.0804470140000473, 0.4950868910299, -1.79973181841283, -0.816022808195928, 1.7837416077448], a = 0.2, v = 0.2, t = 0.2)
movej(p[-0.308692257806502, 0.0803971189856835, 0.494212191251602, -1.79407193436762, -0.816315190645724, 1.78105888396967], a = 0.2, v = 0.2, t = 0.2)
movej(p[-0.309592694670209, 0.0803348827554606, 0.493625172004793, -1.78611498052163, -0.822033984260314, 1.77546525012372], a = 0.2, v = 0.2, t = 0.2)
movej(p[-0.310629145684443, 0.0802720269531678, 0.493042837519114, -1.78149440580662, -0.826910333009149, 1.77138757540471], a = 0.2, v = 0.2, t = 0.2)
movej(p[-0.311324699055245, 0.0802346951342542, 0.492470594761482, -1.77502307437559, -0.833564469422551, 1.76632606842115], a = 0.2, v = 0.2, t = 0.2)
movej(p[-0.312402822046473, 0.0801430735958319, 0.492019935933228, -1.77023112365591, -0.837545121537964, 1.76491530147589], a = 0.2, v = 0.2, t = 0.2)
movej(p[-0.312944551113619, 0.0801055810060098, 0.491727801882632, -1.76694059087083, -0.840483480797052, 1.76277937694976], a = 0.2, v = 0.2, t = 0.2)
movej(p[-0.313182056666248, 0.0800944487160728, 0.491589821903682, -1.76349229494453, -0.843938478504937, 1.76027255644895], a = 0.2, v = 0.2, t = 0.2)
movej(p[-0.313579490814792, 0.0800705863651823, 0.491410277519806, -1.76026909847201, -0.848085085804483, 1.7578320343642], a = 0.2, v = 0.2, t = 0.2)
movej(p[-0.313891816702271, 0.080049784655363, 0.491275355287097, -1.75870849737973, -0.849587222356281, 1.75693669907359], a = 0.2, v = 0.2, t = 0.2)
movej(p[-0.314160300414462, 0.0800285584968461, 0.491258478187746, -1.75787695733868, -0.848361245134556, 1.75706518250621], a = 0.2, v = 0.2, t = 0.2)
movej(p[-0.314680982364205, 0.079976508482716, 0.491139671314034, -1.75658591130169, -0.849717891761079, 1.75577479606022], a = 0.2, v = 0.2, t = 0.2)
movej(p[-0.314733639788802, 0.0799801057205392, 0.491124064087668, -1.75713984131004, -0.850592932040106, 1.75565532485114], a = 0.2, v = 0.2, t = 0.2)
movej(p[-0.314733519918088, 0.079972684787995, 0.491138098167302, -1.76173925976419, -0.846935303150652, 1.75462034637], a = 0.2, v = 0.2, t = 0.2)
movej(p[-0.314453163810743, 0.0799651765324617, 0.49149161584603, -1.76949211778447, -0.839990046575348, 1.7580681642332], a = 0.2, v = 0.2, t = 0.2)
movej(p[-0.313148759918923, 0.0800400898313912, 0.492415588564594, -1.78770139123699, -0.827991080893909, 1.76098567304134], a = 0.2, v = 0.2, t = 0.2)
movej(p[-0.31187934625519, 0.0801422727707946, 0.493202339635277, -1.79522455328756, -0.828011516001793, 1.76272062577964], a = 0.2, v = 0.2, t = 0.2)
movej(p[-0.310445590981135, 0.0802508891081093, 0.494045979514247, -1.80932741591711, -0.817742783378248, 1.76803360232242], a = 0.2, v = 0.2, t = 0.2)
movej(p[-0.308688125714969, 0.0803927316647206, 0.494865401644381, -1.81486773679272, -0.821602409215697, 1.7691425348672], a = 0.2, v = 0.2, t = 0.2)
movej(p[-0.306763199252321, 0.0805272592638983, 0.495875294583488, -1.82456661918099, -0.812396188610961, 1.77825010248304], a = 0.2, v = 0.2, t = 0.2)
movej(p[-0.30659880755146, 0.0805392237280252, 0.495880217010358, -1.82369259769841, -0.812943536491795, 1.77949017105853], a = 0.2, v = 0.2, t = 0.2)
movej(p[-0.306596554675758, 0.0805349247147268, 0.495815428098994, -1.81611362613742, -0.80991467113178, 1.78438081740812], a = 0.2, v = 0.2, t = 0.2)
movej(p[-0.308430201238973, 0.0804000990249794, 0.494910158059395, -1.79778790527621, -0.820043720407589, 1.78128692463961], a = 0.2, v = 0.2, t = 0.2)
movej(p[-0.30917819934205, 0.0803286014956885, 0.494135643765726, -1.79362526714563, -0.820337066528255, 1.77917687565956], a = 0.2, v = 0.2, t = 0.2)
movej(p[-0.3099636258421, 0.0802909109192904, 0.493570842239994, -1.78473979099653, -0.827694564488133, 1.77199691209569], a = 0.2, v = 0.2, t = 0.2)
movej(p[-0.310749512131648, 0.080216525699617, 0.493020136875034, -1.78144454481495, -0.829411874885056, 1.77168569613947], a = 0.2, v = 0.2, t = 0.2)
movej(p[-0.311532965909304, 0.0801743171078479, 0.492544483741904, -1.77498910063145, -0.834665660751439, 1.76711096882668], a = 0.2, v = 0.2, t = 0.2)
movej(p[-0.312508626961719, 0.0801128561554053, 0.491982122361539, -1.7675623926181, -0.840550017304422, 1.76231717205645], a = 0.2, v = 0.2, t = 0.2)
movej(p[-0.312743302356804, 0.0800800001405541, 0.491775627055952, -1.76658728192702, -0.839475098419088, 1.76230596726648], a = 0.2, v = 0.2, t = 0.2)
movej(p[-0.313181657228004, 0.0800410924065753, 0.491555421254183, -1.76577313571959, -0.840510978754817, 1.76067141652472], a = 0.2, v = 0.2, t = 0.2)
movej(p[-0.313446862124538, 0.0800471917665532, 0.491459775027587, -1.76571235316697, -0.840674647355717, 1.76013731987487], a = 0.2, v = 0.2, t = 0.2)
movej(p[-0.313582794057792, 0.0800155909417399, 0.491426468010413, -1.76560261713269, -0.84053872116091, 1.76014252190599], a = 0.2, v = 0.2, t = 0.2)
movej(p[-0.313901408488151, 0.0800043590125383, 0.491273952212762, -1.76419622321528, -0.839778454084259, 1.759912135921], a = 0.2, v = 0.2, t = 0.2)
movej(p[-0.314178451870014, 0.0799841957343037, 0.491265656624969, -1.76158331053716, -0.841702826180028, 1.76131621569033], a = 0.2, v = 0.2, t = 0.2)
movej(p[-0.314186573599229, 0.0799860923290601, 0.491532283874969, -1.76223410431744, -0.842743888121127, 1.76118700008805], a = 0.2, v = 0.2, t = 0.2)
movej(p[-0.31338802593677, 0.0800633524367785, 0.492276251405535, -1.78100188556724, -0.82946985079258, 1.76218310464798], a = 0.2, v = 0.2, t = 0.2)
movej(p[-0.312184836147358, 0.0801682049456284, 0.49298682569584, -1.78959559410315, -0.830693083962416, 1.76314717118691], a = 0.2, v = 0.2, t = 0.2)
movej(p[-0.310990351835598, 0.0802738041982277, 0.4938255184744, -1.8025287566705, -0.828298152314493, 1.76465303569051], a = 0.2, v = 0.2, t = 0.2)
movej(p[-0.310109080065371, 0.0803221097497793, 0.494275750604186, -1.80982498506734, -0.824561888236119, 1.76790058444988], a = 0.2, v = 0.2, t = 0.2)
movej(p[-0.308349714119773, 0.0804385091989012, 0.494979639727353, -1.82030908164806, -0.817519515963961, 1.77299873546499], a = 0.2, v = 0.2, t = 0.2)
movej(p[-0.306426854998238, 0.0805875450910329, 0.495996510885163, -1.82917239769614, -0.811601494898241, 1.77963858420684], a = 0.2, v = 0.2, t = 0.2)
movej(p[-0.306426854998238, 0.0805875450910329, 0.495996510885163, -1.82739550217248, -0.81272229228161, 1.78216069463033], a = 0.2, v = 0.2, t = 0.2)
movej(p[-0.306654729794391, 0.0805251780474191, 0.49571502850712, -1.81571047772342, -0.805909833185685, 1.78587805539813], a = 0.2, v = 0.2, t = 0.2)
movej(p[-0.308354225437109, 0.0803847904794825, 0.494634425623933, -1.798045620044, -0.811995054623153, 1.78300584721102], a = 0.2, v = 0.2, t = 0.2)
movej(p[-0.309647786586406, 0.0802919541398068, 0.493743654555102, -1.7870800422487, -0.823704772347797, 1.77313584987281], a = 0.2, v = 0.2, t = 0.2)
movej(p[-0.310735213130749, 0.0802143810923609, 0.492959860103114, -1.78001293838095, -0.830396586830044, 1.77105366617741], a = 0.2, v = 0.2, t = 0.2)
movej(p[-0.311428983793107, 0.0801411723624554, 0.492472233237656, -1.77535272372976, -0.837716001427168, 1.76497310971456], a = 0.2, v = 0.2, t = 0.2)
movej(p[-0.312178749086144, 0.0800895526889718, 0.491956319732632, -1.77184828136231, -0.841378051091543, 1.76181023432085], a = 0.2, v = 0.2, t = 0.2)
movej(p[-0.312649448711853, 0.0800428053481763, 0.491756678157586, -1.76963555371126, -0.839486856003814, 1.76024672405158], a = 0.2, v = 0.2, t = 0.2)
movej(p[-0.313640181170769, 0.080010689863653, 0.491502372415409, -1.76602738952935, -0.842661911719297, 1.75724160503607], a = 0.2, v = 0.2, t = 0.2)
movej(p[-0.313875075715049, 0.0799755108570669, 0.491365791741216, -1.76402390520302, -0.842618261866757, 1.75720683345197], a = 0.2, v = 0.2, t = 0.2)
movej(p[-0.314091964466481, 0.0799712288166703, 0.491279727093235, -1.76266429083857, -0.84388548150793, 1.75651438112985], a = 0.2, v = 0.2, t = 0.2)
movej(p[-0.314191686269561, 0.0799690119388358, 0.491228648747107, -1.76163483934109, -0.84469280480104, 1.7566314560298], a = 0.2, v = 0.2, t = 0.2)
movej(p[-0.314278318403005, 0.0799627068331194, 0.491226054696804, -1.76208484570558, -0.844442025317098, 1.75601198921632], a = 0.2, v = 0.2, t = 0.2)
movej(p[-0.314282279402442, 0.0799776687445522, 0.49132197164885, -1.76367510343045, -0.843176926352421, 1.75561441372971], a = 0.2, v = 0.2, t = 0.2)
movej(p[-0.31397836766521, 0.0800410413203904, 0.49201632095763, -1.77661889976115, -0.831442863968631, 1.76166860199688], a = 0.2, v = 0.2, t = 0.2)
movej(p[-0.312377669124153, 0.0802030283623697, 0.493188223815759, -1.79655037552684, -0.824208679380912, 1.76439272252329], a = 0.2, v = 0.2, t = 0.2)
movej(p[-0.310529629857319, 0.0803439231984239, 0.494117322526022, -1.80821085005841, -0.822822736488331, 1.76865790540111], a = 0.2, v = 0.2, t = 0.2)
movej(p[-0.308857939195893, 0.0804540341071524, 0.494853414891339, -1.81639306018254, -0.82067081226204, 1.77345469453019], a = 0.2, v = 0.2, t = 0.2)
movej(p[-0.307062056076361, 0.0805860284565554, 0.495864291823862, -1.82221830743883, -0.816736782225272, 1.77940325546568], a = 0.2, v = 0.2, t = 0.2)
movej(p[-0.307062056076361, 0.0805860284565554, 0.495864291823862, -1.82173025877495, -0.817041066138902, 1.78009265892309], a = 0.2, v = 0.2, t = 0.2)
movej(p[-0.307075790696406, 0.0805716141688627, 0.495684670420564, -1.81617687996221, -0.817203571019365, 1.78243799620021], a = 0.2, v = 0.2, t = 0.2)
movej(p[-0.308300954666994, 0.0804645333110369, 0.494895978975789, -1.80316786187422, -0.820353789101917, 1.77845142979548], a = 0.2, v = 0.2, t = 0.2)
movej(p[-0.309230588916439, 0.0803521534851322, 0.494142988579444, -1.78893371793673, -0.826245454103472, 1.77669575148056], a = 0.2, v = 0.2, t = 0.2)
movej(p[-0.310014760396954, 0.0802791413434357, 0.493578576862422, -1.78514000054561, -0.826009088398148, 1.77498511549867], a = 0.2, v = 0.2, t = 0.2)
movej(p[-0.311050279121738, 0.0802233672008182, 0.493132143042424, -1.78182955691043, -0.82785593730531, 1.7710395721026], a = 0.2, v = 0.2, t = 0.2)
movej(p[-0.311794606829641, 0.0801249011238555, 0.492468098996495, -1.77520883368203, -0.83443003393829, 1.76524058495976], a = 0.2, v = 0.2, t = 0.2)
movej(p[-0.312071679101087, 0.0800778183924433, 0.492181151435433, -1.77344526061779, -0.834521760224327, 1.76437474203261], a = 0.2, v = 0.2, t = 0.2)
movej(p[-0.312500776020207, 0.080048267173537, 0.492004217748809, -1.77268580914112, -0.833315080616749, 1.76323705750199], a = 0.2, v = 0.2, t = 0.2)
movej(p[-0.312987648609334, 0.0800318934802069, 0.491765023843947, -1.7713315488765, -0.835030311512622, 1.7596404989127], a = 0.2, v = 0.2, t = 0.2)
movej(p[-0.313653695620139, 0.0800248625807377, 0.491534012164912, -1.76856834285994, -0.837920915649286, 1.75715858366996], a = 0.2, v = 0.2, t = 0.2)
movej(p[-0.314026104493244, 0.0799956020845642, 0.49136932596453, -1.76440262557842, -0.84188678812501, 1.75552010344676], a = 0.2, v = 0.2, t = 0.2)
movej(p[-0.314084041529023, 0.079991892588921, 0.491356850407339, -1.76436491091569, -0.843794804427346, 1.7554220571394], a = 0.2, v = 0.2, t = 0.2)
movej(p[-0.314090521492975, 0.0799914209757201, 0.491356656375958, -1.76436491091569, -0.843794804427346, 1.7554220571394], a = 0.2, v = 0.2, t = 0.2)
movej(p[-0.314102650720015, 0.0800284803767603, 0.4916716531103, -1.77013807170108, -0.837801096884396, 1.76052360771918], a = 0.2, v = 0.2, t = 0.2)
movej(p[-0.313148616723607, 0.0801439199327922, 0.49242308453272, -1.78262859419642, -0.827942680401262, 1.76202415712397], a = 0.2, v = 0.2, t = 0.2)
movej(p[-0.312053571687589, 0.0802837563297781, 0.493253357193459, -1.7928724743739, -0.829890503828021, 1.76480659926553], a = 0.2, v = 0.2, t = 0.2)
movej(p[-0.310502367164049, 0.0803847536863019, 0.494052294556537, -1.80208321838837, -0.832519960218705, 1.76699805575057], a = 0.2, v = 0.2, t = 0.2)
movej(p[-0.308558754388863, 0.0805015158989604, 0.494886657946093, -1.81644928758923, -0.823495918394396, 1.77098122226569], a = 0.2, v = 0.2, t = 0.2)
movej(p[-0.306881601859238, 0.0806130462337593, 0.495872389677748, -1.82777639103481, -0.812458569922543, 1.78086166939898], a = 0.2, v = 0.2, t = 0.2)
movej(p[-0.306168157535802, 0.0806540780568006, 0.496176491793583, -1.82373944605064, -0.813904414484937, 1.78596744589386], a = 0.2, v = 0.2, t = 0.2)
movej(p[-0.306168157535802, 0.0806540780568006, 0.496176491793583, -1.82073895518355, -0.810802722149957, 1.78571707785373], a = 0.2, v = 0.2, t = 0.2)
movej(p[-0.307032247860887, 0.0806194705757464, 0.495809259969866, -1.81607481529381, -0.807638577304802, 1.78486380359301], a = 0.2, v = 0.2, t = 0.2)
movej(p[-0.308486658830791, 0.080492626160882, 0.494862259317786, -1.80051627718754, -0.812870959143087, 1.77866414602272], a = 0.2, v = 0.2, t = 0.2)
movej(p[-0.309599628608186, 0.0803351279030138, 0.493859495201269, -1.79218410214684, -0.820442185355039, 1.7716945522558], a = 0.2, v = 0.2, t = 0.2)
movej(p[-0.310554246003968, 0.0802511504360326, 0.4932956234936, -1.79045869834666, -0.822419537574498, 1.76862037805818], a = 0.2, v = 0.2, t = 0.2)
movej(p[-0.311199483021269, 0.0801899165553232, 0.492886624284117, -1.78654249169592, -0.823824670222903, 1.76620745777539], a = 0.2, v = 0.2, t = 0.2)
movej(p[-0.312374468023744, 0.0801241796253072, 0.49221772662379, -1.77608619973738, -0.833048180319596, 1.7627133175886], a = 0.2, v = 0.2, t = 0.2)
movej(p[-0.31268282697767, 0.0800822791668926, 0.492031755235888, -1.77402793885912, -0.83316271016056, 1.76170270600728], a = 0.2, v = 0.2, t = 0.2)
movej(p[-0.313280529512502, 0.0800490824195364, 0.491735910841282, -1.7725624872956, -0.834700321407866, 1.76038587655392], a = 0.2, v = 0.2, t = 0.2)
movej(p[-0.313474226951816, 0.0800115064730757, 0.49147550830625, -1.77208799792217, -0.839858705366396, 1.7579781214593], a = 0.2, v = 0.2, t = 0.2)
movej(p[-0.31382883089706, 0.0799902207336465, 0.491407011231026, -1.76963221020838, -0.842152857533321, 1.75705384172588], a = 0.2, v = 0.2, t = 0.2)
movej(p[-0.314299337811077, 0.0799907960266552, 0.491414208654219, -1.76938037122657, -0.840469414449179, 1.75947253212396], a = 0.2, v = 0.2, t = 0.2)
movej(p[-0.314310904522214, 0.0801009842819249, 0.491532672148993, -1.76885595630503, -0.839632070502827, 1.75957480260382], a = 0.2, v = 0.2, t = 0.2)
movej(p[-0.313925199592172, 0.0802183255956149, 0.492265317788469, -1.78093917262762, -0.828752894846577, 1.76177376969636], a = 0.2, v = 0.2, t = 0.2)
movej(p[-0.312796737739342, 0.0802851958668346, 0.492860432713113, -1.78778994860776, -0.82556138948965, 1.76449267487776], a = 0.2, v = 0.2, t = 0.2)
movej(p[-0.311562381365419, 0.0803583402038685, 0.493394466736482, -1.79179323791315, -0.825065068421054, 1.76658252966544], a = 0.2, v = 0.2, t = 0.2)
movej(p[-0.310051432009721, 0.080428954638415, 0.494094095542456, -1.79572798793837, -0.820893950404979, 1.77060048463691], a = 0.2, v = 0.2, t = 0.2)
movej(p[-0.308662589861519, 0.0805354022484976, 0.494901958924276, -1.80101066103882, -0.816985854040252, 1.77733576000025], a = 0.2, v = 0.2, t = 0.2)
movej(p[-0.306463065243303, 0.0806037775087767, 0.495766061873956, -1.8040074337318, -0.813509128559782, 1.78701097232859], a = 0.2, v = 0.2, t = 0.2)
movej(p[-0.30488561604983, 0.0808047887425874, 0.496939514018652, -1.80968250088513, -0.807147400300998, 1.79349645004348], a = 0.2, v = 0.2, t = 0.2)
movej(p[-0.30488561604983, 0.0808047887425874, 0.496939514018652, -1.80966817635547, -0.807123895060883, 1.79349858800813], a = 0.2, v = 0.2, t = 0.2)
movej(p[-0.305894080861035, 0.080701458764236, 0.496264609810534, -1.80450476460233, -0.811639797652134, 1.78909699614533], a = 0.2, v = 0.2, t = 0.2)
movej(p[-0.307614129881179, 0.0805372436488585, 0.495174588506071, -1.79751559426392, -0.818116773233562, 1.78198288426124], a = 0.2, v = 0.2, t = 0.2)
movej(p[-0.308777637623681, 0.0803713453849641, 0.494265344034449, -1.7927834345094, -0.823345517046402, 1.77588900135309], a = 0.2, v = 0.2, t = 0.2)
movej(p[-0.30970367702234, 0.0802231953918003, 0.493489291283886, -1.78905403072275, -0.827651380517635, 1.77077814504117], a = 0.2, v = 0.2, t = 0.2)
movej(p[-0.310579347378678, 0.0800742706127243, 0.492734759901366, -1.78530244232969, -0.83187992544219, 1.76587563299968], a = 0.2, v = 0.2, t = 0.2)
movej(p[-0.311134541670548, 0.0800039520346948, 0.492335608832397, -1.78344494129792, -0.833826658569622, 1.76332786060271], a = 0.2, v = 0.2, t = 0.2)
movej(p[-0.311750863582653, 0.079967127374209, 0.492020509125893, -1.78168686514905, -0.835522268086143, 1.76115845615948], a = 0.2, v = 0.2, t = 0.2)
movej(p[-0.313116269086153, 0.0798987620694656, 0.491339023596979, -1.77689490589739, -0.840453486305743, 1.75596570572334], a = 0.2, v = 0.2, t = 0.2)
movej(p[-0.313343160238856, 0.0799066448852173, 0.491309537904836, -1.77683713250264, -0.840280214883394, 1.75530255889167], a = 0.2, v = 0.2, t = 0.2)
movej(p[-0.313588014289766, 0.0799626162336684, 0.491381168568001, -1.77664716546713, -0.839239061723976, 1.75492515031792], a = 0.2, v = 0.2, t = 0.2)
movej(p[-0.313956589709379, 0.080085160415213, 0.491540225204539, -1.77550352410216, -0.837427942433104, 1.75514254568111], a = 0.2, v = 0.2, t = 0.2)
movej(p[-0.314117591890634, 0.0800734426410681, 0.491535404271006, -1.77429566945037, -0.836435191686288, 1.75588784887802], a = 0.2, v = 0.2, t = 0.2)
movej(p[-0.314118668296879, 0.0800822317361334, 0.491549989645788, -1.77463536350915, -0.836078451249919, 1.75619375761582], a = 0.2, v = 0.2, t = 0.2)
