def moving():
set_payload_mass(0)
set_tcp(p[0,0,0,0,0,0])
movej(p[0.433, -0.0914, 0.4446, -1.16, 1.191, -1.238], a = 0.2, v = 0.2, t = 0.2)
movej(p[0.433084041932833, -0.0912575426839286, 0.444461690558445, -1.15948074223281, 1.19321713299669, -1.24629378810101], a = 0.2, v = 0.2, t = 0.2)
movej(p[0.433347979651805, -0.091204163277829, 0.4443395510824, -1.16313825053983, 1.1965976361308, -1.25021475908985], a = 0.2, v = 0.2, t = 0.2)
movej(p[0.433377837510417, -0.0911998701060425, 0.444252255566736, -1.16157616440799, 1.19938163944293, -1.24808063515358], a = 0.2, v = 0.2, t = 0.2)
movej(p[0.433363722930316, -0.0913521062064468, 0.444277204280255, -1.16587590365712, 1.19983452289168, -1.25312300451139], a = 0.2, v = 0.2, t = 0.2)
movej(p[0.433306543185309, -0.0913762369192336, 0.444231561586619, -1.1626206628812, 1.20138932259112, -1.25372956089301], a = 0.2, v = 0.2, t = 0.2)
movej(p[0.433179299555695, -0.0913406506584048, 0.444092433684357, -1.16295066651808, 1.20016764846111, -1.25732599929313], a = 0.2, v = 0.2, t = 0.2)
movej(p[0.43270152452427, -0.0914221574861834, 0.443980027532958, -1.15555753825356, 1.19934681976815, -1.25079212540616], a = 0.2, v = 0.2, t = 0.2)
movej(p[0.431807896807017, -0.0914845837694577, 0.443899529381612, -1.15112360586837, 1.19564246812606, -1.26433141586131], a = 0.2, v = 0.2, t = 0.2)
movej(p[0.430864296822372, -0.0913228323617346, 0.443790728282086, -1.15039891555288, 1.18965004742257, -1.27432711464763], a = 0.2, v = 0.2, t = 0.2)
movej(p[0.429914177120571, -0.0910021026815346, 0.443742023123126, -1.15160808018478, 1.18114714094114, -1.28614483648846], a = 0.2, v = 0.2, t = 0.2)
movej(p[0.429062627038692, -0.0908684974817066, 0.443825635334737, -1.14447673474615, 1.17395806468119, -1.27403120315456], a = 0.2, v = 0.2, t = 0.2)
movej(p[0.428539764692522, -0.0907137289586383, 0.443902981459561, -1.14256580517845, 1.1654933326917, -1.27995715179472], a = 0.2, v = 0.2, t = 0.2)
movej(p[0.428724164488071, -0.0905615247622139, 0.443918568216511, -1.14883503723429, 1.15901437890232, -1.28135608132518], a = 0.2, v = 0.2, t = 0.2)
movej(p[0.429615037689609, -0.0905453480661129, 0.443995893201384, -1.15535281349027, 1.15672244642931, -1.28257670827074], a = 0.2, v = 0.2, t = 0.2)
movej(p[0.430706472074138, -0.090628064462733, 0.444114357390052, -1.15682143930352, 1.16051357454659, -1.27780122216292], a = 0.2, v = 0.2, t = 0.2)
movej(p[0.431884740335643, -0.0906072996980679, 0.444137590751418, -1.1581196159614, 1.17053415910508, -1.27664063542348], a = 0.2, v = 0.2, t = 0.2)
movej(p[0.432802962696469, -0.0906024226332248, 0.444096614899778, -1.15963196052747, 1.18207629392711, -1.27046659142712], a = 0.2, v = 0.2, t = 0.2)
movej(p[0.433311620109697, -0.0907641625299013, 0.444099124838157, -1.16657484929227, 1.19091147058541, -1.26622845420453], a = 0.2, v = 0.2, t = 0.2)
movej(p[0.433370238042687, -0.0909426788685677, 0.44407534141197, -1.16490999993837, 1.19542725556816, -1.263751854975], a = 0.2, v = 0.2, t = 0.2)
movej(p[0.433319718338022, -0.090984032671663, 0.443975647670391, -1.16289810816781, 1.19816083141207, -1.25973080014879], a = 0.2, v = 0.2, t = 0.2)
movej(p[0.432993785895358, -0.0910883387086139, 0.443878319119084, -1.1559988806002, 1.19723897529334, -1.25371556028097], a = 0.2, v = 0.2, t = 0.2)
movej(p[0.432292278325385, -0.0912365835433448, 0.443869247522157, -1.15379514002099, 1.19623480392663, -1.25901615789403], a = 0.2, v = 0.2, t = 0.2)
movej(p[0.431367657631616, -0.0912417586613525, 0.443786826956102, -1.15285509799225, 1.19018575943552, -1.27398926458495], a = 0.2, v = 0.2, t = 0.2)
movej(p[0.430338218684266, -0.0910227103627979, 0.443732065536477, -1.15338790020868, 1.18355835844697, -1.28488962627209], a = 0.2, v = 0.2, t = 0.2)
movej(p[0.42949370216616, -0.0909063424594322, 0.443793811193918, -1.150310439751, 1.17528549701225, -1.28095129508303], a = 0.2, v = 0.2, t = 0.2)
movej(p[0.428742495583679, -0.0907549225830343, 0.443905006596558, -1.15298632236547, 1.16583184985406, -1.28769441922832], a = 0.2, v = 0.2, t = 0.2)
movej(p[0.428596538641372, -0.0906121671591814, 0.443936933125544, -1.15604642837571, 1.15864533804513, -1.28837745878991], a = 0.2, v = 0.2, t = 0.2)
movej(p[0.429023256653582, -0.0905013655413029, 0.443930336851497, -1.15570820445158, 1.15621721835374, -1.28440487763354], a = 0.2, v = 0.2, t = 0.2)
movej(p[0.429993282276512, -0.0906179984174338, 0.444028705617191, -1.15732287167765, 1.15811870160334, -1.27995750875205], a = 0.2, v = 0.2, t = 0.2)
movej(p[0.431169046118657, -0.0906604625016615, 0.444070600785848, -1.15615044726442, 1.16589347586234, -1.27738140898185], a = 0.2, v = 0.2, t = 0.2)
movej(p[0.432267263230717, -0.0906453610452216, 0.444060287712043, -1.16540861998764, 1.17458921063016, -1.27807882669963], a = 0.2, v = 0.2, t = 0.2)
movej(p[0.432927282793664, -0.0907512313383825, 0.444065579616588, -1.1605391325134, 1.18694293802242, -1.26133062077904], a = 0.2, v = 0.2, t = 0.2)
movej(p[0.433149294202707, -0.0908866001944992, 0.444086556214226, -1.16524899017536, 1.19209017534766, -1.26502898364192], a = 0.2, v = 0.2, t = 0.2)
movej(p[0.433187500686083, -0.090960241413635, 0.44401494785178, -1.16715815702674, 1.19435159719448, -1.26709200348474], a = 0.2, v = 0.2, t = 0.2)
movej(p[0.433077041889154, -0.0909898978475757, 0.443899563725459, -1.16951361605721, 1.19332638433005, -1.26992184999778], a = 0.2, v = 0.2, t = 0.2)
movej(p[0.432635729568075, -0.0912016434516451, 0.443851302916094, -1.16243081792957, 1.19184408837342, -1.26594818502571], a = 0.2, v = 0.2, t = 0.2)
movej(p[0.431892981353352, -0.0911970808164503, 0.443743015208174, -1.15404363932715, 1.18877597282763, -1.27174385132439], a = 0.2, v = 0.2, t = 0.2)
movej(p[0.430957904306103, -0.0910494458038481, 0.443635008216913, -1.1503941373661, 1.18381950332554, -1.28079898040905], a = 0.2, v = 0.2, t = 0.2)
movej(p[0.429962349455385, -0.0908738546623568, 0.443624551695385, -1.14634374647083, 1.17857120641817, -1.2798144152099], a = 0.2, v = 0.2, t = 0.2)
movej(p[0.429058601340123, -0.0907767903680384, 0.443716302017063, -1.14475743250769, 1.17246666762591, -1.28238050438322], a = 0.2, v = 0.2, t = 0.2)
movej(p[0.428653279863256, -0.0905828631004344, 0.443759759487888, -1.14905794921647, 1.16491574787852, -1.28240877198968], a = 0.2, v = 0.2, t = 0.2)
movej(p[0.428747927929634, -0.0904995466378527, 0.443824484996722, -1.15666148828065, 1.15752493219641, -1.28529485981632], a = 0.2, v = 0.2, t = 0.2)
movej(p[0.429268493358913, -0.0905703974137808, 0.443963220334287, -1.15721159472469, 1.15640133998858, -1.27838201950459], a = 0.2, v = 0.2, t = 0.2)
movej(p[0.430271520443961, -0.0906449427994084, 0.444061315711559, -1.16084601818131, 1.16030712125628, -1.27983681348345], a = 0.2, v = 0.2, t = 0.2)
movej(p[0.431480259338085, -0.0906835625569227, 0.444118807344528, -1.15981859606848, 1.17134621146245, -1.26951906864512], a = 0.2, v = 0.2, t = 0.2)
movej(p[0.432503912196383, -0.0908189404544188, 0.444162602722927, -1.16226078308154, 1.18170289857093, -1.25952557154845], a = 0.2, v = 0.2, t = 0.2)
movej(p[0.432939621637901, -0.0909937897248007, 0.444216631791436, -1.15963078844927, 1.18960031855496, -1.25210854448255], a = 0.2, v = 0.2, t = 0.2)
movej(p[0.433150187861265, -0.0910850697610404, 0.444186210917232, -1.1560606165099, 1.19593744652769, -1.24506451802246], a = 0.2, v = 0.2, t = 0.2)
movej(p[0.433183205086694, -0.0912096222107884, 0.444146208010004, -1.15409063149531, 1.19789458651437, -1.2426044329916], a = 0.2, v = 0.2, t = 0.2)
movej(p[0.432946111516211, -0.0913783651154249, 0.444086090866497, -1.14848513992545, 1.19903978016767, -1.24094235202317], a = 0.2, v = 0.2, t = 0.2)
movej(p[0.432367497640906, -0.0914279212563042, 0.443942911082626, -1.15374169796808, 1.19333769171462, -1.26060962871918], a = 0.2, v = 0.2, t = 0.2)
movej(p[0.431422341912377, -0.0913291205474102, 0.443779084200062, -1.15161741613397, 1.18853669229455, -1.26745568213844], a = 0.2, v = 0.2, t = 0.2)
movej(p[0.430387294896409, -0.091248924207062, 0.443763313691078, -1.15561441151093, 1.18168820502016, -1.2754005955361], a = 0.2, v = 0.2, t = 0.2)
movej(p[0.429377769658901, -0.0911184988308165, 0.443800630749736, -1.1471497621885, 1.1760271277056, -1.27264011293755], a = 0.2, v = 0.2, t = 0.2)
movej(p[0.428731903763664, -0.0908668930400197, 0.443790244267759, -1.14577905270106, 1.16988809357274, -1.27076782468538], a = 0.2, v = 0.2, t = 0.2)
movej(p[0.428591269408313, -0.0907386921896411, 0.443829087252418, -1.14365455045195, 1.16487300384279, -1.26347642922212], a = 0.2, v = 0.2, t = 0.2)
movej(p[0.428886239975725, -0.0907528795901692, 0.44396811955272, -1.14862128458033, 1.16093754730721, -1.26420151036511], a = 0.2, v = 0.2, t = 0.2)
movej(p[0.429848441326914, -0.0907913758065441, 0.444098332088196, -1.15491460100469, 1.16170352409765, -1.26990849401463], a = 0.2, v = 0.2, t = 0.2)
movej(p[0.431127394397277, -0.0907847311226776, 0.444168088410379, -1.15641642131195, 1.17034570548357, -1.26292172599602], a = 0.2, v = 0.2, t = 0.2)
movej(p[0.432298767031183, -0.0909033359260466, 0.4442393681954, -1.15779735841815, 1.18132132440995, -1.25045396568595], a = 0.2, v = 0.2, t = 0.2)
movej(p[0.432871387753444, -0.0910267619136062, 0.44427132307504, -1.15575533734031, 1.19004906614033, -1.24226743467134], a = 0.2, v = 0.2, t = 0.2)
movej(p[0.433135109916063, -0.091114352378908, 0.444211659914449, -1.15815167109087, 1.19431827898837, -1.2426521097397], a = 0.2, v = 0.2, t = 0.2)
movej(p[0.4331732349811, -0.0912480315408701, 0.444160765037761, -1.15773610185984, 1.19565424787367, -1.24260690526445], a = 0.2, v = 0.2, t = 0.2)
movej(p[0.432925415030109, -0.0913688752850336, 0.444090411255734, -1.1559090188423, 1.19600173656293, -1.24951227449841], a = 0.2, v = 0.2, t = 0.2)
movej(p[0.432455181871094, -0.0913899414352605, 0.443952902355522, -1.15564199883353, 1.19290896322005, -1.26104306458169], a = 0.2, v = 0.2, t = 0.2)
movej(p[0.431601540007613, -0.091290710012936, 0.443819629649243, -1.15184473232161, 1.18913314869474, -1.26651569039536], a = 0.2, v = 0.2, t = 0.2)
movej(p[0.430604599820566, -0.0913025993726349, 0.44384434145019, -1.14860566572994, 1.18530476648479, -1.26588380364061], a = 0.2, v = 0.2, t = 0.2)
movej(p[0.429663159556409, -0.0911439455073986, 0.443879583736069, -1.14095430348839, 1.1795313038433, -1.26669517258186], a = 0.2, v = 0.2, t = 0.2)
movej(p[0.429053901080869, -0.0908767766523881, 0.443867396488851, -1.1450320487556, 1.17179640387362, -1.27190837075075], a = 0.2, v = 0.2, t = 0.2)
movej(p[0.42871145613127, -0.0907277635687998, 0.443870670983268, -1.14631026814908, 1.16420115211717, -1.27057027293897], a = 0.2, v = 0.2, t = 0.2)
movej(p[0.428807967482396, -0.0907557943779761, 0.443957965400849, -1.15842683347536, 1.15824389554331, -1.28366628048378], a = 0.2, v = 0.2, t = 0.2)
movej(p[0.429547548525807, -0.0907991852336606, 0.444055309173485, -1.16410595353807, 1.15901147850567, -1.28628918059533], a = 0.2, v = 0.2, t = 0.2)
movej(p[0.430792296000446, -0.0907778259321058, 0.444104339163444, -1.16563008412123, 1.16611415165451, -1.27933225201091], a = 0.2, v = 0.2, t = 0.2)
movej(p[0.431982453651473, -0.0909215484505226, 0.444238073448884, -1.168154992136, 1.17540454031669, -1.27032142081118], a = 0.2, v = 0.2, t = 0.2)
movej(p[0.432709064242641, -0.0910274641432216, 0.444246816642939, -1.16057832378064, 1.18559713337406, -1.25676657059079], a = 0.2, v = 0.2, t = 0.2)
movej(p[0.433088261019012, -0.0911317430212684, 0.444209387702435, -1.16404113441881, 1.19078420905569, -1.25592096523961], a = 0.2, v = 0.2, t = 0.2)
movej(p[0.433146263617203, -0.0912720074531033, 0.444164197800807, -1.16018017933573, 1.19478955036956, -1.2458544359762], a = 0.2, v = 0.2, t = 0.2)
movej(p[0.432950761759346, -0.0914138367608523, 0.444148696965254, -1.16770120210712, 1.1934915032927, -1.25930047485509], a = 0.2, v = 0.2, t = 0.2)
movej(p[0.432438082810354, -0.0914395454863058, 0.443994436402099, -1.1703247185307, 1.19036435834845, -1.27045957592211], a = 0.2, v = 0.2, t = 0.2)
movej(p[0.431602916137383, -0.0913896160671485, 0.443844474801827, -1.16692079594567, 1.1868690587431, -1.27580491792479], a = 0.2, v = 0.2, t = 0.2)
movej(p[0.430592997753774, -0.0913893843266199, 0.443805033661242, -1.15596601024571, 1.18368578664373, -1.27174008910113], a = 0.2, v = 0.2, t = 0.2)
movej(p[0.429682556483714, -0.0912008627765224, 0.443799326269833, -1.14558788546868, 1.17910595140854, -1.26911152600136], a = 0.2, v = 0.2, t = 0.2)
movej(p[0.429032500797043, -0.0909533237712439, 0.443793445318157, -1.14764326576596, 1.16985790853097, -1.27347908776772], a = 0.2, v = 0.2, t = 0.2)
movej(p[0.428670425175674, -0.0908573050323723, 0.443842672926221, -1.14845362170927, 1.16332120582746, -1.26700068055341], a = 0.2, v = 0.2, t = 0.2)
movej(p[0.428547310507427, -0.0909086905043768, 0.443947644725907, -1.15468576994167, 1.15643909316097, -1.27553718255254], a = 0.2, v = 0.2, t = 0.2)
movej(p[0.429206564232234, -0.0909471925843234, 0.444028270309111, -1.1618289579373, 1.15607312593123, -1.27737460532908], a = 0.2, v = 0.2, t = 0.2)
movej(p[0.430360230395204, -0.0909451422979321, 0.444111744519165, -1.16706526837951, 1.15987043538506, -1.27943051155891], a = 0.2, v = 0.2, t = 0.2)
movej(p[0.431674351451959, -0.0910801217959842, 0.444248639965033, -1.16553018996757, 1.17104358576135, -1.26813119018535], a = 0.2, v = 0.2, t = 0.2)
movej(p[0.432612811519368, -0.0911238285341707, 0.444287154526119, -1.16451848288656, 1.18178966090766, -1.26190892356142], a = 0.2, v = 0.2, t = 0.2)
movej(p[0.433158139413589, -0.0912361186271194, 0.444279550408188, -1.16125180641668, 1.19059744649737, -1.25057448074319], a = 0.2, v = 0.2, t = 0.2)
movej(p[0.433283843736916, -0.0913582356468728, 0.444270182802707, -1.16546877657743, 1.19446833028465, -1.25143011030886], a = 0.2, v = 0.2, t = 0.2)
movej(p[0.433206017933436, -0.0914947829204812, 0.444261152842425, -1.1650623609602, 1.19602810240283, -1.25264927785414], a = 0.2, v = 0.2, t = 0.2)
movej(p[0.432952551625766, -0.0915573850846529, 0.444153271570509, -1.16654705238359, 1.19517026829964, -1.25654658578963], a = 0.2, v = 0.2, t = 0.2)
movej(p[0.432322650089338, -0.0916305268500596, 0.444023039101734, -1.16241471445058, 1.19173523517982, -1.25684310295328], a = 0.2, v = 0.2, t = 0.2)
movej(p[0.431301745341507, -0.0917198829003112, 0.443944828117594, -1.15172218495761, 1.18967949582577, -1.25639793094315], a = 0.2, v = 0.2, t = 0.2)
movej(p[0.430269977209869, -0.0915165321554611, 0.443859249264457, -1.14555408776742, 1.18366922278497, -1.26377898922342], a = 0.2, v = 0.2, t = 0.2)
movej(p[0.429388617269008, -0.0912250082114819, 0.443829839546103, -1.14411984957693, 1.17623556381851, -1.26772031663109], a = 0.2, v = 0.2, t = 0.2)
movej(p[0.428686894902835, -0.0910769486281393, 0.443884142590144, -1.14536068094463, 1.16804942892522, -1.26302651510323], a = 0.2, v = 0.2, t = 0.2)
movej(p[0.428387091560126, -0.0910187421660892, 0.443985059305688, -1.14781130632632, 1.16159727143681, -1.26859274740268], a = 0.2, v = 0.2, t = 0.2)
movej(p[0.428727717947581, -0.0909353945247965, 0.444046268127443, -1.15364308908889, 1.15849523279444, -1.27028996286554], a = 0.2, v = 0.2, t = 0.2)
movej(p[0.429831452212541, -0.0909235746822669, 0.444141241217183, -1.15542175990434, 1.16082769084314, -1.26855619632949], a = 0.2, v = 0.2, t = 0.2)
movej(p[0.431128312126944, -0.0909568961704885, 0.444251459922208, -1.15686310440754, 1.16977595421903, -1.26321251961849], a = 0.2, v = 0.2, t = 0.2)
movej(p[0.432265304698836, -0.0909991270458834, 0.444307280216238, -1.16179397383845, 1.17998086953244, -1.26181085722835], a = 0.2, v = 0.2, t = 0.2)
movej(p[0.433021093364578, -0.0910685132690346, 0.444321953234951, -1.16139936925515, 1.19154560961596, -1.2492971168625], a = 0.2, v = 0.2, t = 0.2)
movej(p[0.433349861125143, -0.0912884892810038, 0.444379971277188, -1.16612263003515, 1.1975747395538, -1.24415487648666], a = 0.2, v = 0.2, t = 0.2)
movej(p[0.433333998501625, -0.0914452912185061, 0.444346454771304, -1.15525545056472, 1.20200876468355, -1.23353711163696], a = 0.2, v = 0.2, t = 0.2)
movej(p[0.433294602940283, -0.0914694910025346, 0.44425852363106, -1.15457281730821, 1.20271673136581, -1.23423519145543], a = 0.2, v = 0.2, t = 0.2)
movej(p[0.433041778890414, -0.0915775763438496, 0.444172914920513, -1.15005151063771, 1.20139968643142, -1.22942439224162], a = 0.2, v = 0.2, t = 0.2)
movej(p[0.432465539249223, -0.0916514695390049, 0.444072917859407, -1.14856176447719, 1.19798560686583, -1.23921837138382], a = 0.2, v = 0.2, t = 0.2)
movej(p[0.431679636441079, -0.091611157636913, 0.443940950842315, -1.15148174606385, 1.19209599002603, -1.25517329718467], a = 0.2, v = 0.2, t = 0.2)
movej(p[0.430675735454516, -0.091448139806694, 0.443814048443448, -1.14732105114897, 1.18677240032833, -1.26086249603485], a = 0.2, v = 0.2, t = 0.2)
movej(p[0.429798989282735, -0.0913776801543983, 0.443898590143893, -1.14954735950718, 1.18001676514577, -1.26326133354242], a = 0.2, v = 0.2, t = 0.2)
movej(p[0.429125298942179, -0.0912206690617163, 0.44393936224117, -1.14466032917762, 1.1741929927294, -1.26443176679919], a = 0.2, v = 0.2, t = 0.2)
movej(p[0.429086031993842, -0.0910338203090569, 0.44397399755982, -1.15076617006589, 1.16775885746713, -1.26676788157224], a = 0.2, v = 0.2, t = 0.2)
movej(p[0.42959351370656, -0.0909756214127926, 0.444003591759091, -1.14819833436149, 1.16612033011819, -1.25849393021683], a = 0.2, v = 0.2, t = 0.2)
movej(p[0.430537045294248, -0.0910451610240786, 0.44415492486187, -1.15276960107024, 1.16930159438032, -1.25935780464378], a = 0.2, v = 0.2, t = 0.2)
movej(p[0.431683387575949, -0.0910985614025467, 0.444236930388906, -1.1573159520956, 1.17673783491335, -1.25750162250895], a = 0.2, v = 0.2, t = 0.2)
movej(p[0.432567333586895, -0.0911141413222452, 0.444282955278197, -1.16487778401349, 1.18598790565269, -1.25567724642458], a = 0.2, v = 0.2, t = 0.2)
movej(p[0.433080800567486, -0.0913434401465474, 0.444355107632615, -1.16560655391421, 1.19346368452543, -1.24679457045056], a = 0.2, v = 0.2, t = 0.2)
movej(p[0.43320371607224, -0.0914609186247282, 0.444323959235986, -1.16012866316443, 1.19985760024618, -1.24159362884329], a = 0.2, v = 0.2, t = 0.2)
movej(p[0.433270318435387, -0.0914972299393068, 0.444240519553503, -1.157722381906, 1.20219658195875, -1.24118743025135], a = 0.2, v = 0.2, t = 0.2)
movej(p[0.433210255163062, -0.091555553827853, 0.44416566136662, -1.15372862839376, 1.20302724054149, -1.23592571806937], a = 0.2, v = 0.2, t = 0.2)
movej(p[0.432963954305459, -0.0916701875791643, 0.444155997309276, -1.16398899809025, 1.19819728182483, -1.25232803990051], a = 0.2, v = 0.2, t = 0.2)
movej(p[0.432470890281001, -0.09163790410588, 0.44402339934082, -1.16591386872021, 1.19409095577695, -1.26214945929162], a = 0.2, v = 0.2, t = 0.2)
movej(p[0.431696875183595, -0.0915426659503738, 0.443926060727088, -1.17085879068633, 1.18822615388387, -1.27688953477807], a = 0.2, v = 0.2, t = 0.2)
movej(p[0.430698430473822, -0.0915384488110656, 0.443948403825838, -1.15432994799714, 1.18718456685899, -1.26404624970165], a = 0.2, v = 0.2, t = 0.2)
movej(p[0.429878684960341, -0.0913738831843935, 0.443980771109363, -1.14869819816727, 1.18174411577564, -1.26884727994669], a = 0.2, v = 0.2, t = 0.2)
movej(p[0.429392432704669, -0.0911210874380105, 0.443955741812531, -1.14986548445304, 1.17423505051472, -1.27217072965748], a = 0.2, v = 0.2, t = 0.2)
movej(p[0.429226441485485, -0.0909638558665171, 0.44397420836011, -1.15560667637712, 1.16662886233895, -1.27442039708457], a = 0.2, v = 0.2, t = 0.2)
movej(p[0.429343320862138, -0.0910403836905079, 0.444103887426919, -1.15972113513287, 1.16239067862158, -1.27670837752157], a = 0.2, v = 0.2, t = 0.2)
movej(p[0.430055106549187, -0.0910569722277892, 0.444155302851087, -1.15862966426336, 1.16505885497026, -1.27121025743671], a = 0.2, v = 0.2, t = 0.2)
movej(p[0.431108047286134, -0.091052481186611, 0.444190839818118, -1.1561560477646, 1.17202148508845, -1.26100731932711], a = 0.2, v = 0.2, t = 0.2)
movej(p[0.432141929887353, -0.091129530028998, 0.444270032549381, -1.15596427498591, 1.18269334233264, -1.24798839177735], a = 0.2, v = 0.2, t = 0.2)
movej(p[0.43273689012311, -0.0912072770577193, 0.444309186543982, -1.15432298891658, 1.1912779890929, -1.24172477723574], a = 0.2, v = 0.2, t = 0.2)
movej(p[0.433110810759671, -0.0911896396037758, 0.444229667074867, -1.15513367297127, 1.19779175303444, -1.23768136969835], a = 0.2, v = 0.2, t = 0.2)
movej(p[0.433238901470376, -0.091265475932986, 0.444134182971065, -1.15129296636285, 1.19887782465106, -1.23113356608251], a = 0.2, v = 0.2, t = 0.2)
movej(p[0.433188909340135, -0.0913394279666473, 0.444068329755385, -1.15217850395023, 1.19931305235481, -1.23830258034447], a = 0.2, v = 0.2, t = 0.2)
movej(p[0.433139090365484, -0.0913313964545895, 0.443977683205672, -1.15865447928275, 1.19735957173191, -1.25420436903582], a = 0.2, v = 0.2, t = 0.2)
movej(p[0.433073760595708, -0.0912437404541937, 0.443857918667233, -1.16192233881152, 1.19678812645846, -1.26192750754595], a = 0.2, v = 0.2, t = 0.2)
movej(p[0.432900646730982, -0.0913570863073984, 0.44380930936991, -1.15799142783411, 1.1964741527832, -1.25503233190718], a = 0.2, v = 0.2, t = 0.2)
movej(p[0.432314367695946, -0.0913915033321166, 0.443724952410462, -1.15286004966143, 1.19288222604165, -1.26672688799807], a = 0.2, v = 0.2, t = 0.2)
movej(p[0.431700192449082, -0.0912461245118099, 0.443579073065831, -1.15161521857974, 1.18857608412878, -1.27656554422814], a = 0.2, v = 0.2, t = 0.2)
movej(p[0.43101631354787, -0.090986764491932, 0.443452026069935, -1.15443026136427, 1.18177025726422, -1.28964901588936], a = 0.2, v = 0.2, t = 0.2)
movej(p[0.430404622906129, -0.0909416957850883, 0.44353296523332, -1.15396669920965, 1.1778468389781, -1.28860733159729], a = 0.2, v = 0.2, t = 0.2)
movej(p[0.429825732897874, -0.0907608925087831, 0.443551287504448, -1.15092865348298, 1.1715998101452, -1.29381211734005], a = 0.2, v = 0.2, t = 0.2)
movej(p[0.429575781290899, -0.09050588913103, 0.443550412744346, -1.15296357393186, 1.16641764543247, -1.29553294844665], a = 0.2, v = 0.2, t = 0.2)
movej(p[0.429671418037142, -0.0903667497356699, 0.443579127343887, -1.1520849832863, 1.16180671026231, -1.28915037858019], a = 0.2, v = 0.2, t = 0.2)
movej(p[0.430130758940997, -0.0904543260089385, 0.443699828022454, -1.1619990342085, 1.15892324290477, -1.29550530969474], a = 0.2, v = 0.2, t = 0.2)
movej(p[0.431076175188095, -0.0905215031751337, 0.443786644499375, -1.16267758782429, 1.16376145594846, -1.29036712245305], a = 0.2, v = 0.2, t = 0.2)
movej(p[0.43204309368106, -0.0905480229673592, 0.443827760772088, -1.16982084939904, 1.17023889296934, -1.29147946110571], a = 0.2, v = 0.2, t = 0.2)
movej(p[0.432783369906951, -0.0907298296001423, 0.443910885706112, -1.15876328256243, 1.18229670462374, -1.26610996929212], a = 0.2, v = 0.2, t = 0.2)
movej(p[0.433046990057833, -0.0908764500463193, 0.443930389994627, -1.16070327203322, 1.1867675226971, -1.27005970157784], a = 0.2, v = 0.2, t = 0.2)
movej(p[0.433162933642433, -0.0909087243541904, 0.443858977785894, -1.1567777838485, 1.19047970933075, -1.26529807419302], a = 0.2, v = 0.2, t = 0.2)
movej(p[0.43319068821073, -0.0909671261531291, 0.443803051774779, -1.15359256106872, 1.1919674145924, -1.2608554677203], a = 0.2, v = 0.2, t = 0.2)
movej(p[0.433124280215616, -0.091106314855922, 0.44377224600039, -1.14587214707147, 1.19425789782792, -1.25579604843252], a = 0.2, v = 0.2, t = 0.2)
movej(p[0.433080120602455, -0.0911194151408281, 0.443718074659472, -1.15050302503428, 1.19255127548063, -1.26642897394881], a = 0.2, v = 0.2, t = 0.2)
movej(p[0.432950237826493, -0.0911163574724947, 0.44360608043742, -1.14936743833309, 1.1919215662512, -1.26821850416057], a = 0.2, v = 0.2, t = 0.2)
movej(p[0.432526754954721, -0.0911916712772784, 0.443589728999422, -1.15237835479593, 1.19019190385787, -1.26926467270957], a = 0.2, v = 0.2, t = 0.2)
movej(p[0.431774359892527, -0.0912453006851883, 0.443541752430218, -1.1468033428718, 1.1870533045923, -1.27603674683843], a = 0.2, v = 0.2, t = 0.2)
movej(p[0.431023907458014, -0.091076116847475, 0.443454794009177, -1.14841056873976, 1.1826952318853, -1.28361900112449], a = 0.2, v = 0.2, t = 0.2)
movej(p[0.430305106512549, -0.0908601079553945, 0.443427664192704, -1.14601548681501, 1.17633335863137, -1.28462118227519], a = 0.2, v = 0.2, t = 0.2)
movej(p[0.429664381120167, -0.0907952736403146, 0.443554196821479, -1.14792690769541, 1.17118358842938, -1.28205126514726], a = 0.2, v = 0.2, t = 0.2)
movej(p[0.429267337850305, -0.090679873821962, 0.443632435429475, -1.14341970124026, 1.16703694900036, -1.28112995632773], a = 0.2, v = 0.2, t = 0.2)
movej(p[0.42951355770082, -0.0905471287494053, 0.443684374900248, -1.14821342671283, 1.1631467806094, -1.28149797202011], a = 0.2, v = 0.2, t = 0.2)
movej(p[0.430194117839607, -0.0905853004812717, 0.443723122102473, -1.14047186604863, 1.16353799461879, -1.26523729005499], a = 0.2, v = 0.2, t = 0.2)
movej(p[0.431061592704944, -0.0907288618510151, 0.443852109351944, -1.14977007457201, 1.16531886564842, -1.27269000198909], a = 0.2, v = 0.2, t = 0.2)
movej(p[0.432009944527224, -0.0908290522581781, 0.443915210879588, -1.15709059744807, 1.1717158285636, -1.27418953039673], a = 0.2, v = 0.2, t = 0.2)
movej(p[0.432703072636726, -0.0908641640978245, 0.443934483570992, -1.16297629702185, 1.17967772056621, -1.27087759049036], a = 0.2, v = 0.2, t = 0.2)
movej(p[0.433106752957076, -0.091109387476878, 0.444003258840736, -1.15675959550157, 1.1890908929765, -1.25344339692683], a = 0.2, v = 0.2, t = 0.2)
movej(p[0.433176156334883, -0.0912419042539861, 0.443985509535572, -1.148879089903, 1.19457548078932, -1.24840329497702], a = 0.2, v = 0.2, t = 0.2)
movej(p[0.433231596856251, -0.0912753845019129, 0.443948497540364, -1.14547433390095, 1.19914127351469, -1.24649558129775], a = 0.2, v = 0.2, t = 0.2)
movej(p[0.43318501097781, -0.0913003980986076, 0.443947500000241, -1.14731912712574, 1.19946702653917, -1.24798858175235], a = 0.2, v = 0.2, t = 0.2)
movej(p[0.433046297936193, -0.0914141665117365, 0.443960584331614, -1.15804515565784, 1.19643234620322, -1.26193170498851], a = 0.2, v = 0.2, t = 0.2)
movej(p[0.432668488219638, -0.0914502108767691, 0.443845633708391, -1.16217709589157, 1.19234131450937, -1.27038224925978], a = 0.2, v = 0.2, t = 0.2)
movej(p[0.432052226356004, -0.0914719255280982, 0.443720961900703, -1.163443267965, 1.18819799926061, -1.27777564968412], a = 0.2, v = 0.2, t = 0.2)
movej(p[0.431105509210069, -0.0915765862519935, 0.443690813950077, -1.14259044250998, 1.18914366734804, -1.25851530481054], a = 0.2, v = 0.2, t = 0.2)
movej(p[0.430247038851002, -0.0914869075421842, 0.443675374063082, -1.1342673125098, 1.18521877864646, -1.25992771786591], a = 0.2, v = 0.2, t = 0.2)
movej(p[0.4296674579091, -0.0912163326588457, 0.443644524675896, -1.1350069682029, 1.17892318884763, -1.26404024512101], a = 0.2, v = 0.2, t = 0.2)
movej(p[0.429194309073488, -0.0909765120289231, 0.4436743068807, -1.14044416265109, 1.17023944352201, -1.26820529517554], a = 0.2, v = 0.2, t = 0.2)
movej(p[0.428887947347144, -0.0909317071944227, 0.443798826566038, -1.14216142986404, 1.1636177388183, -1.27169247047711], a = 0.2, v = 0.2, t = 0.2)
movej(p[0.429219391487617, -0.0908835826818562, 0.443839784450948, -1.14164298452487, 1.16190315037145, -1.26708046575885], a = 0.2, v = 0.2, t = 0.2)
movej(p[0.430142829017368, -0.0908528348981155, 0.443917862783681, -1.1442757517567, 1.16430433143525, -1.26353356294616], a = 0.2, v = 0.2, t = 0.2)
movej(p[0.431319911639065, -0.0908945576638626, 0.443999992238307, -1.14198642300083, 1.17320381656713, -1.25202580093093], a = 0.2, v = 0.2, t = 0.2)
movej(p[0.432287824468613, -0.0909318438398552, 0.444060544178628, -1.14859693060456, 1.18023427919656, -1.25583408637935], a = 0.2, v = 0.2, t = 0.2)
movej(p[0.433011807948282, -0.0909895425047933, 0.444060868133105, -1.15599663282807, 1.18625214141648, -1.25641583812444], a = 0.2, v = 0.2, t = 0.2)
movej(p[0.433301378756965, -0.091131945695216, 0.444083064934506, -1.16302647028182, 1.19069292689743, -1.25625959164691], a = 0.2, v = 0.2, t = 0.2)
movej(p[0.433300459818544, -0.091319894370877, 0.444100321102403, -1.16268648211722, 1.19228806597735, -1.25772711098703], a = 0.2, v = 0.2, t = 0.2)
movej(p[0.433289946196342, -0.0913645248722293, 0.444035142568189, -1.15266155558118, 1.1969949080495, -1.249066606707], a = 0.2, v = 0.2, t = 0.2)
movej(p[0.433277743005141, -0.0914219722893814, 0.444010070636013, -1.15045287149421, 1.19705242495978, -1.24718870317212], a = 0.2, v = 0.2, t = 0.2)
movej(p[0.433205193791302, -0.091564835598742, 0.444061900891751, -1.14793358298652, 1.19890787137724, -1.24020709281968], a = 0.2, v = 0.2, t = 0.2)
movej(p[0.432796029920337, -0.0916323806647116, 0.4439913744594, -1.1544314409255, 1.19500426541534, -1.25641875278122], a = 0.2, v = 0.2, t = 0.2)
movej(p[0.432168296476954, -0.0916131279154975, 0.443846625637622, -1.15579543538647, 1.19201864734725, -1.26475339971601], a = 0.2, v = 0.2, t = 0.2)
movej(p[0.431332826939986, -0.0916387101263165, 0.443783512761852, -1.15298857721712, 1.18878832718493, -1.26715702457372], a = 0.2, v = 0.2, t = 0.2)
movej(p[0.430525455491342, -0.0915962982334563, 0.443821702604198, -1.14839227235186, 1.18429462571833, -1.27146470806924], a = 0.2, v = 0.2, t = 0.2)
movej(p[0.429968762678509, -0.0913898436410606, 0.443820631136047, -1.14551048288716, 1.17913090203167, -1.27282445306469], a = 0.2, v = 0.2, t = 0.2)
movej(p[0.429575806883274, -0.0911411398979788, 0.443779671774563, -1.14546833696419, 1.17239609303414, -1.27208186477346], a = 0.2, v = 0.2, t = 0.2)
movej(p[0.429468409513129, -0.0911300437360339, 0.443878514907233, -1.14932297718004, 1.16727942222519, -1.26727950313335], a = 0.2, v = 0.2, t = 0.2)
movej(p[0.429641795842221, -0.0911726221702915, 0.443992640895159, -1.15069602626762, 1.16445184971457, -1.27103280364138], a = 0.2, v = 0.2, t = 0.2)
movej(p[0.430454172174473, -0.0911351622678147, 0.444084287218614, -1.1573916053159, 1.16577946949504, -1.26970749611981], a = 0.2, v = 0.2, t = 0.2)
movej(p[0.431434207268914, -0.0911553766539156, 0.444142632264335, -1.15223860413787, 1.17278940804413, -1.25646139988876], a = 0.2, v = 0.2, t = 0.2)
movej(p[0.43227567793863, -0.0912224124536774, 0.444220456129935, -1.16446335170827, 1.17858774125402, -1.26207518545325], a = 0.2, v = 0.2, t = 0.2)
movej(p[0.432850374024589, -0.091263757512507, 0.444209197200389, -1.16731655466521, 1.18538761746286, -1.26108632163843], a = 0.2, v = 0.2, t = 0.2)
movej(p[0.433087993686411, -0.0912569068169086, 0.444135527855271, -1.172567457482, 1.18972859682061, -1.2644657002655], a = 0.2, v = 0.2, t = 0.2)
movej(p[0.433151980074174, -0.0913977263446097, 0.444108607461332, -1.15808201495577, 1.1966907142646, -1.24626790798878], a = 0.2, v = 0.2, t = 0.2)
movej(p[0.433080024165876, -0.0914364096104928, 0.444026831773414, -1.14819293596712, 1.19945932005909, -1.24540341056361], a = 0.2, v = 0.2, t = 0.2)
movej(p[0.433115832851905, -0.091385895194167, 0.443945833876848, -1.14655696924351, 1.20049136497584, -1.24712514448259], a = 0.2, v = 0.2, t = 0.2)
movej(p[0.433073169541341, -0.0913783953084458, 0.443866624566789, -1.14593954961304, 1.19976988211747, -1.24614050849539], a = 0.2, v = 0.2, t = 0.2)
movej(p[0.432782460198021, -0.0915421873369325, 0.443852864751219, -1.14501871150152, 1.19830606748571, -1.24976167321189], a = 0.2, v = 0.2, t = 0.2)
movej(p[0.43229209396383, -0.0915149822302939, 0.44370637890604, -1.14573404144751, 1.19442216503227, -1.26202456583082], a = 0.2, v = 0.2, t = 0.2)
movej(p[0.431612594037023, -0.0913965590433808, 0.443564607032623, -1.14723214876617, 1.18855574718026, -1.27284790066956], a = 0.2, v = 0.2, t = 0.2)
movej(p[0.43087705804547, -0.0913360239409131, 0.443555629106322, -1.14890318302565, 1.18264437583309, -1.27652180872519], a = 0.2, v = 0.2, t = 0.2)
movej(p[0.43019482236358, -0.0912634280912573, 0.44359718233567, -1.1431021718906, 1.17895619118999, -1.27316226131057], a = 0.2, v = 0.2, t = 0.2)
movej(p[0.429729819806612, -0.0910620626307291, 0.44356503975051, -1.14075015204333, 1.17545112249792, -1.26804918340235], a = 0.2, v = 0.2, t = 0.2)
movej(p[0.429545185318219, -0.090908636655858, 0.443610075988481, -1.13889877080078, 1.1713783004848, -1.26168976723343], a = 0.2, v = 0.2, t = 0.2)
movej(p[0.429698325714467, -0.0909704971813298, 0.443791642591482, -1.14269680579993, 1.16795949557061, -1.25884504360016], a = 0.2, v = 0.2, t = 0.2)
movej(p[0.430358155872195, -0.0910283116253245, 0.443941905325115, -1.15232253931511, 1.16728087391777, -1.26933127039097], a = 0.2, v = 0.2, t = 0.2)
movej(p[0.431340459585475, -0.091012192431265, 0.444014656425859, -1.1595072037207, 1.17276300123134, -1.26793575294545], a = 0.2, v = 0.2, t = 0.2)
movej(p[0.43225974321485, -0.0911358651113033, 0.444097804509864, -1.15852080131511, 1.18095518602474, -1.25539890216206], a = 0.2, v = 0.2, t = 0.2)
movej(p[0.432716361673771, -0.091265623860853, 0.444153584248909, -1.15424825090245, 1.18811599120231, -1.25072435890498], a = 0.2, v = 0.2, t = 0.2)
movej(p[0.433027005880488, -0.0913211904847241, 0.444126465198165, -1.15589802572405, 1.19120027981274, -1.25222768555349], a = 0.2, v = 0.2, t = 0.2)
movej(p[0.433106212539594, -0.0913199510073195, 0.444026684284615, -1.15730604377092, 1.19331288589653, -1.25207405549216], a = 0.2, v = 0.2, t = 0.2)
movej(p[0.433192412917932, -0.0914882216218643, 0.444054133064264, -1.15738985653984, 1.19537147413505, -1.2453181127995], a = 0.2, v = 0.2, t = 0.2)
movej(p[0.433080102807431, -0.0915724298610811, 0.444022804102449, -1.14762141246082, 1.19765432253755, -1.24118584551118], a = 0.2, v = 0.2, t = 0.2)
movej(p[0.432824217495798, -0.0915541580433771, 0.443897496805503, -1.14489499167, 1.19751493805495, -1.24203036458254], a = 0.2, v = 0.2, t = 0.2)
movej(p[0.4322466458227, -0.0915669495393744, 0.443775736505875, -1.13978434883224, 1.19497217744566, -1.24301994904727], a = 0.2, v = 0.2, t = 0.2)
movej(p[0.431375027168389, -0.0916304712558533, 0.443734695483802, -1.14779758722479, 1.18755434114019, -1.26224397833507], a = 0.2, v = 0.2, t = 0.2)
movej(p[0.43057371150773, -0.0914899641641848, 0.443664499266146, -1.14569065152518, 1.18205701197525, -1.27053879834615], a = 0.2, v = 0.2, t = 0.2)
movej(p[0.429921910352171, -0.0912135118227611, 0.443608883344566, -1.14808049986487, 1.17438214060523, -1.27628848887308], a = 0.2, v = 0.2, t = 0.2)
movej(p[0.429378541359229, -0.0910921283846822, 0.443641419327252, -1.13625682547863, 1.17238993293838, -1.25480996868517], a = 0.2, v = 0.2, t = 0.2)
movej(p[0.429081578040871, -0.0910707307309203, 0.443765901366772, -1.13673645607127, 1.16723935739318, -1.25778968369107], a = 0.2, v = 0.2, t = 0.2)
movej(p[0.429456555256289, -0.0910557039700866, 0.443856406748249, -1.1452029985929, 1.16397922393413, -1.26098465519733], a = 0.2, v = 0.2, t = 0.2)
movej(p[0.430335645786691, -0.0910639754827185, 0.443968404642586, -1.152478451292, 1.16362163859281, -1.26465394856607], a = 0.2, v = 0.2, t = 0.2)
movej(p[0.431466626345205, -0.0912392834169502, 0.444128486550868, -1.14744640167361, 1.17198498502966, -1.25025187172898], a = 0.2, v = 0.2, t = 0.2)
movej(p[0.432401259456797, -0.0912791048126906, 0.444160232631826, -1.14404108457726, 1.18172618088555, -1.24280396768875], a = 0.2, v = 0.2, t = 0.2)
movej(p[0.433048711013381, -0.0913276141471714, 0.444185869464618, -1.14302761643936, 1.19250231256947, -1.23101303971613], a = 0.2, v = 0.2, t = 0.2)
movej(p[0.433233737627955, -0.0914529607542854, 0.444207836836203, -1.14747845329682, 1.1972874555008, -1.22938729410077], a = 0.2, v = 0.2, t = 0.2)
movej(p[0.433196286088539, -0.0915998706359989, 0.444257652366575, -1.14974498177811, 1.20041526746884, -1.23313677172653], a = 0.2, v = 0.2, t = 0.2)
movej(p[0.433212762172961, -0.0916119472855999, 0.444201643047024, -1.1481205770529, 1.20211414019759, -1.23065292829124], a = 0.2, v = 0.2, t = 0.2)
movej(p[0.433175242782418, -0.0916774251362355, 0.444152414325637, -1.14656167531589, 1.20272405099935, -1.22829231753899], a = 0.2, v = 0.2, t = 0.2)
movej(p[0.432896644992945, -0.0918183350904277, 0.444082480295222, -1.14198012348082, 1.20191402388554, -1.22754432022584], a = 0.2, v = 0.2, t = 0.2)
movej(p[0.432335933792665, -0.0918070113842653, 0.443918465817325, -1.14064117543718, 1.19961464299686, -1.23766011923391], a = 0.2, v = 0.2, t = 0.2)
movej(p[0.431485792938991, -0.0917327268508036, 0.443744468030261, -1.14305103762911, 1.19387587215113, -1.25090654930145], a = 0.2, v = 0.2, t = 0.2)
movej(p[0.430569504274344, -0.0916778696754029, 0.443725360394472, -1.14268570508783, 1.18870428284598, -1.25178961161706], a = 0.2, v = 0.2, t = 0.2)
movej(p[0.429720550732105, -0.0916060287524741, 0.443754032412409, -1.13863534956291, 1.18165274554032, -1.25474976055555], a = 0.2, v = 0.2, t = 0.2)
movej(p[0.429205092759996, -0.0913443100905112, 0.443744429628923, -1.13790483304135, 1.17573685940744, -1.25162857608811], a = 0.2, v = 0.2, t = 0.2)
movej(p[0.429069387579206, -0.0911879473195915, 0.443757314604594, -1.13881303949075, 1.16899393719521, -1.25004143099864], a = 0.2, v = 0.2, t = 0.2)
movej(p[0.429359338064033, -0.0912061478587455, 0.443895127032275, -1.14848607743186, 1.1652279642504, -1.25605961809365], a = 0.2, v = 0.2, t = 0.2)
movej(p[0.430188395322496, -0.0912867946876835, 0.444030164065326, -1.15538044346287, 1.16616313902145, -1.26270090465973], a = 0.2, v = 0.2, t = 0.2)
movej(p[0.431305605560061, -0.0912935415310092, 0.444152971855329, -1.15948422862256, 1.17309676575003, -1.25580196942983], a = 0.2, v = 0.2, t = 0.2)
movej(p[0.432301801113222, -0.0914031319524756, 0.44430329199779, -1.15418166136604, 1.18524592757899, -1.23480723828641], a = 0.2, v = 0.2, t = 0.2)
movej(p[0.432858402236856, -0.0914876286364972, 0.444394450063957, -1.14871367661617, 1.19428781422487, -1.22457918487112], a = 0.2, v = 0.2, t = 0.2)
movej(p[0.433170377316614, -0.0915298104832063, 0.444353331839442, -1.14510558000611, 1.20121636621628, -1.21948414393471], a = 0.2, v = 0.2, t = 0.2)
movej(p[0.433228235726872, -0.0916186135731902, 0.444280322997705, -1.14502309647491, 1.20176262702248, -1.22035050449871], a = 0.2, v = 0.2, t = 0.2)
movej(p[0.433218992397456, -0.091784874807924, 0.444285029767943, -1.15182743678923, 1.20096788699921, -1.22735110354479], a = 0.2, v = 0.2, t = 0.2)
movej(p[0.433165033180331, -0.0918506913385179, 0.444258357218612, -1.15514626321606, 1.20071562300654, -1.23487324190339], a = 0.2, v = 0.2, t = 0.2)
movej(p[0.433033965274962, -0.0918346808987504, 0.444145226304227, -1.1541733705395, 1.20179579171561, -1.23256219539251], a = 0.2, v = 0.2, t = 0.2)
movej(p[0.43259115598005, -0.0919362400874105, 0.444062100766588, -1.14529979919722, 1.2034425983987, -1.22532635031706], a = 0.2, v = 0.2, t = 0.2)
movej(p[0.431876415840751, -0.0919368496190158, 0.443968363488272, -1.14050537251572, 1.19945033873052, -1.23547505955336], a = 0.2, v = 0.2, t = 0.2)
movej(p[0.431137984599654, -0.0917988213035529, 0.443878037376308, -1.13738136053851, 1.19412896973077, -1.24275955125665], a = 0.2, v = 0.2, t = 0.2)
movej(p[0.430379017725132, -0.0916112705707546, 0.443817169134958, -1.13503409775653, 1.18768713512647, -1.24572910279837], a = 0.2, v = 0.2, t = 0.2)
movej(p[0.429656494772045, -0.0915709820665306, 0.443860058564773, -1.13654662284705, 1.18088100649188, -1.24819660495533], a = 0.2, v = 0.2, t = 0.2)
movej(p[0.429161706368962, -0.0914257827672386, 0.443865084342668, -1.13542061967218, 1.17616280959883, -1.24797291134837], a = 0.2, v = 0.2, t = 0.2)
movej(p[0.429092350080227, -0.0912379162200028, 0.443909676711562, -1.14144649896485, 1.16984214677755, -1.25018880554408], a = 0.2, v = 0.2, t = 0.2)
movej(p[0.429528832777463, -0.0912415212324744, 0.444037147068066, -1.13765594074114, 1.1699285260511, -1.23744176042775], a = 0.2, v = 0.2, t = 0.2)
movej(p[0.430329485276346, -0.0912990239140246, 0.444197209982097, -1.14253933699917, 1.17172328739592, -1.24335506420382], a = 0.2, v = 0.2, t = 0.2)
movej(p[0.431485793448082, -0.091281116333988, 0.444264613825885, -1.15180082503262, 1.17713454705924, -1.24241107468563], a = 0.2, v = 0.2, t = 0.2)
movej(p[0.432421628567566, -0.0912857515844385, 0.444326785019836, -1.15967796385728, 1.18458845035871, -1.24161703515156], a = 0.2, v = 0.2, t = 0.2)
movej(p[0.432940540712578, -0.0915014055919656, 0.444441649804022, -1.1640356957732, 1.18869009953918, -1.23881349802627], a = 0.2, v = 0.2, t = 0.2)
movej(p[0.433140343988445, -0.091583672833884, 0.444411890959812, -1.15766928707424, 1.19423826434488, -1.23453601297576], a = 0.2, v = 0.2, t = 0.2)
movej(p[0.433246548156332, -0.0916387786212151, 0.44434701850629, -1.1581525140756, 1.19609153121905, -1.23536151992716], a = 0.2, v = 0.2, t = 0.2)
movej(p[0.43324097283923, -0.0917007757850866, 0.444312393551256, -1.15773622497128, 1.19812550760245, -1.23229923739284], a = 0.2, v = 0.2, t = 0.2)
movej(p[0.433128437956766, -0.091805030453288, 0.444298227924302, -1.15875283199014, 1.1993915819879, -1.23509906641038], a = 0.2, v = 0.2, t = 0.2)
movej(p[0.432837893800827, -0.0918110453530479, 0.44415008744391, -1.15403657813925, 1.20072473710018, -1.23356867114149], a = 0.2, v = 0.2, t = 0.2)
movej(p[0.432233943622047, -0.0918635242943793, 0.444040866319725, -1.15031219802742, 1.19899113902096, -1.23663706810485], a = 0.2, v = 0.2, t = 0.2)
movej(p[0.431387581505044, -0.0919443667396143, 0.444012519149651, -1.1382516478588, 1.19699496468983, -1.23443670363599], a = 0.2, v = 0.2, t = 0.2)
movej(p[0.430663696664379, -0.0918189207237546, 0.443997499327406, -1.13628821175461, 1.19080498454503, -1.24457147736993], a = 0.2, v = 0.2, t = 0.2)
movej(p[0.430203575475456, -0.091580671494994, 0.443975525709154, -1.13534722955326, 1.18573365336102, -1.24526886175078], a = 0.2, v = 0.2, t = 0.2)
movej(p[0.430241487249687, -0.0915504193714134, 0.444083176372383, -1.14096931166196, 1.18094340174578, -1.24567178156069], a = 0.2, v = 0.2, t = 0.2)
movej(p[0.430650656414153, -0.0916202396173235, 0.444272271959088, -1.1401694474254, 1.1805804614694, -1.24300932547883], a = 0.2, v = 0.2, t = 0.2)
movej(p[0.431588007469491, -0.0916012922815924, 0.444365093213259, -1.13662284978291, 1.18607323273385, -1.23244310677719], a = 0.2, v = 0.2, t = 0.2)
movej(p[0.432429067706366, -0.091600618062437, 0.444428937680334, -1.13399612476952, 1.19315091636059, -1.22027508669172], a = 0.2, v = 0.2, t = 0.2)
movej(p[0.433046447585783, -0.0916908431951262, 0.444481660057429, -1.1398135691561, 1.19742103100841, -1.21730214354507], a = 0.2, v = 0.2, t = 0.2)
movej(p[0.433282076963069, -0.0917816339569182, 0.44449262520206, -1.1438644957072, 1.20029164426341, -1.21851420289701], a = 0.2, v = 0.2, t = 0.2)
movej(p[0.433380163643342, -0.0917579136849648, 0.444410261377164, -1.14827030088761, 1.20120894912378, -1.22086728464979], a = 0.2, v = 0.2, t = 0.2)
movej(p[0.433333249072274, -0.0918721483854219, 0.444366936534026, -1.1450602534521, 1.20265715631978, -1.21307376504892], a = 0.2, v = 0.2, t = 0.2)
movej(p[0.432959023394655, -0.0919503032932177, 0.444267505977365, -1.14197985216247, 1.20115752514904, -1.22125900376702], a = 0.2, v = 0.2, t = 0.2)
movej(p[0.432351783110297, -0.0919453370908073, 0.444127199949034, -1.14218034424158, 1.19770121211227, -1.23104313717425], a = 0.2, v = 0.2, t = 0.2)
movej(p[0.431346238876769, -0.0918662377978544, 0.443990796991682, -1.13933335659045, 1.19388419451699, -1.23781170422871], a = 0.2, v = 0.2, t = 0.2)
movej(p[0.4302709604769, -0.0918619674563047, 0.444009684698172, -1.14263300194505, 1.18609464822729, -1.24690849857125], a = 0.2, v = 0.2, t = 0.2)
movej(p[0.429381063288497, -0.0916872278780042, 0.444004772239612, -1.13925049860827, 1.17859125429931, -1.25173123055025], a = 0.2, v = 0.2, t = 0.2)
movej(p[0.428856222591523, -0.0914236939125875, 0.443963403581536, -1.14011453077698, 1.17080171878822, -1.25292470526051], a = 0.2, v = 0.2, t = 0.2)
movej(p[0.428657624715891, -0.091331600147216, 0.44398844032652, -1.13645359294931, 1.16660764120292, -1.24464291857177], a = 0.2, v = 0.2, t = 0.2)
movej(p[0.428844473262489, -0.0914051106031726, 0.444115427105925, -1.13844015134638, 1.16500984610948, -1.24609322489129], a = 0.2, v = 0.2, t = 0.2)
movej(p[0.429615499710932, -0.0914374523245962, 0.444246521855189, -1.14501677030344, 1.16682957539612, -1.24702952577716], a = 0.2, v = 0.2, t = 0.2)
movej(p[0.430670698213431, -0.0913889585733911, 0.444322924322707, -1.14966606498592, 1.17130312247703, -1.24613316089375], a = 0.2, v = 0.2, t = 0.2)
movej(p[0.431747487365074, -0.0914686603815752, 0.444430357004893, -1.15367971354346, 1.17778794127871, -1.24132082267551], a = 0.2, v = 0.2, t = 0.2)
movej(p[0.432571485458758, -0.0914700486900314, 0.444421074990318, -1.14819919808064, 1.18679365212089, -1.23164208587126], a = 0.2, v = 0.2, t = 0.2)
movej(p[0.433138734371793, -0.0914781302126311, 0.444393643905878, -1.1515766045441, 1.19335431802114, -1.22952304633733], a = 0.2, v = 0.2, t = 0.2)
movej(p[0.433300371465286, -0.091588552957469, 0.444358606185721, -1.14890999692316, 1.19867123240109, -1.22305806370694], a = 0.2, v = 0.2, t = 0.2)
movej(p[0.433153419438183, -0.0916942526724994, 0.444336543407723, -1.15424065447365, 1.19989890851013, -1.23497631748152], a = 0.2, v = 0.2, t = 0.2)
movej(p[0.432725366932634, -0.0917481039552917, 0.444197001290301, -1.15555622020251, 1.19885142496292, -1.24095365191188], a = 0.2, v = 0.2, t = 0.2)
movej(p[0.431876863534808, -0.0917614398129094, 0.444086453006823, -1.15347741305302, 1.19766082558093, -1.24315237503057], a = 0.2, v = 0.2, t = 0.2)
movej(p[0.430739249862952, -0.0918751944495989, 0.444066342471327, -1.14632816766885, 1.19265417316345, -1.24350099859485], a = 0.2, v = 0.2, t = 0.2)
movej(p[0.429563821888129, -0.0917218804080595, 0.444001768355227, -1.13750107450363, 1.18622963806351, -1.2432525181474], a = 0.2, v = 0.2, t = 0.2)
movej(p[0.428585847808292, -0.0914871355326795, 0.443938071310953, -1.13922473015059, 1.17382457169559, -1.249442849836], a = 0.2, v = 0.2, t = 0.2)
movej(p[0.428055342587575, -0.0913366238433384, 0.443948736543616, -1.14396110843845, 1.16419151912335, -1.24996364880703], a = 0.2, v = 0.2, t = 0.2)
movej(p[0.427980251949927, -0.0913296258861611, 0.444044641565159, -1.15352438745223, 1.15496106845476, -1.26461201745719], a = 0.2, v = 0.2, t = 0.2)
movej(p[0.428763583066745, -0.0913080617405863, 0.444111382867155, -1.15625087478366, 1.15614092365237, -1.25982904698353], a = 0.2, v = 0.2, t = 0.2)
movej(p[0.429932457661989, -0.0913012800175508, 0.444215966955727, -1.15741706424975, 1.16039720509165, -1.25534877150503], a = 0.2, v = 0.2, t = 0.2)
movej(p[0.43118309738826, -0.0913694718939038, 0.4443504378142, -1.15107412049089, 1.17147475557557, -1.24101686182039], a = 0.2, v = 0.2, t = 0.2)
movej(p[0.4321971224657, -0.0913461976249628, 0.44439530192121, -1.1569487822774, 1.18090039590053, -1.24648442032188], a = 0.2, v = 0.2, t = 0.2)
movej(p[0.432895326488809, -0.0913480153120033, 0.444352001378341, -1.157684418335, 1.19094720303993, -1.23903127229287], a = 0.2, v = 0.2, t = 0.2)
movej(p[0.433230974515257, -0.0914830530366597, 0.444354801151568, -1.16289035334824, 1.19689031877647, -1.23434957854179], a = 0.2, v = 0.2, t = 0.2)
movej(p[0.433251922663457, -0.0916245604119551, 0.444358786526455, -1.1559775525502, 1.20050205409873, -1.22815370264794], a = 0.2, v = 0.2, t = 0.2)
movej(p[0.433265803299776, -0.091651128150799, 0.444295033048997, -1.1503251820753, 1.20428967585235, -1.22444473144924], a = 0.2, v = 0.2, t = 0.2)
movej(p[0.433006603899593, -0.0917462695178213, 0.44423595400335, -1.14815396026841, 1.20370801244957, -1.22509162313777], a = 0.2, v = 0.2, t = 0.2)
movej(p[0.432373741279709, -0.0918650656361326, 0.444187971294753, -1.1467566977652, 1.20276659168681, -1.23238806876261], a = 0.2, v = 0.2, t = 0.2)
movej(p[0.431420448860084, -0.0918345884704794, 0.44406391463971, -1.15189274966922, 1.19554199665996, -1.25501252854861], a = 0.2, v = 0.2, t = 0.2)
movej(p[0.430352508888992, -0.0916535993080429, 0.443942881553223, -1.15131349106613, 1.18737971489374, -1.26554682860264], a = 0.2, v = 0.2, t = 0.2)
movej(p[0.429347747392881, -0.0915706423304983, 0.443961103076442, -1.14563015070364, 1.18080104762519, -1.25659583988584], a = 0.2, v = 0.2, t = 0.2)
movej(p[0.428516612485163, -0.0914628681422045, 0.444030973828631, -1.14302704156818, 1.16979338637507, -1.25950345759844], a = 0.2, v = 0.2, t = 0.2)
movej(p[0.428300521901826, -0.091279350539688, 0.444049486511401, -1.1459900854169, 1.16199655474848, -1.2598974551744], a = 0.2, v = 0.2, t = 0.2)
movej(p[0.428674875924526, -0.0911596395394048, 0.444069534859547, -1.14675996919695, 1.15748001790851, -1.25713888741542], a = 0.2, v = 0.2, t = 0.2)
movej(p[0.429550890308401, -0.0912363834327636, 0.444203971133953, -1.15271714456607, 1.15781526472127, -1.25613584220167], a = 0.2, v = 0.2, t = 0.2)
movej(p[0.430685496812593, -0.0912592947124775, 0.444278800561253, -1.15135922121794, 1.16618607020056, -1.25020760752181], a = 0.2, v = 0.2, t = 0.2)
movej(p[0.431910125701007, -0.0912115732038137, 0.444301534193126, -1.1568408489977, 1.17658777085382, -1.24613225897022], a = 0.2, v = 0.2, t = 0.2)
movej(p[0.432829966842747, -0.0913052679280541, 0.444335134652747, -1.14952998869236, 1.18956541513925, -1.22661481796948], a = 0.2, v = 0.2, t = 0.2)
movej(p[0.433167640329703, -0.0914372625425424, 0.444387400597234, -1.15648709410732, 1.19569485175913, -1.23350677740555], a = 0.2, v = 0.2, t = 0.2)
movej(p[0.433326957447999, -0.0914965026966407, 0.444324248585317, -1.16124711429453, 1.19739210550644, -1.24092916851467], a = 0.2, v = 0.2, t = 0.2)
movej(p[0.433249832882501, -0.0914864252922194, 0.444236090083413, -1.16756257390671, 1.19740765094156, -1.24902273726326], a = 0.2, v = 0.2, t = 0.2)
movej(p[0.432914947132514, -0.0917291446624731, 0.444205609705395, -1.15726814957783, 1.19791226294259, -1.23974692956893], a = 0.2, v = 0.2, t = 0.2)
movej(p[0.432245978093705, -0.0917697535236203, 0.444097618848683, -1.14825069511933, 1.19671461294191, -1.2437715292609], a = 0.2, v = 0.2, t = 0.2)
movej(p[0.431327331672797, -0.0916873356891479, 0.443932596376237, -1.14310687213058, 1.19226966379446, -1.24812963494892], a = 0.2, v = 0.2, t = 0.2)
movej(p[0.43032300872396, -0.0915352063246789, 0.443872075644195, -1.14190820124623, 1.18524021360342, -1.25440224624545], a = 0.2, v = 0.2, t = 0.2)
movej(p[0.429375755598367, -0.0914107778822831, 0.443926379142242, -1.13796875783013, 1.17849744235633, -1.25751859689826], a = 0.2, v = 0.2, t = 0.2)
movej(p[0.42884116620371, -0.0911758036102715, 0.443938689413459, -1.14155206358914, 1.17090171394384, -1.26143607933046], a = 0.2, v = 0.2, t = 0.2)
movej(p[0.428724722770317, -0.091014224988338, 0.443950624301552, -1.14525622657865, 1.16363105289445, -1.26264685514181], a = 0.2, v = 0.2, t = 0.2)
movej(p[0.429025934924133, -0.0910990003796935, 0.44403690266219, -1.14069645128383, 1.16253559583752, -1.24814411426607], a = 0.2, v = 0.2, t = 0.2)
movej(p[0.429740785850807, -0.0911936369232733, 0.444161610749148, -1.14257525752121, 1.16386199779268, -1.24786647619353], a = 0.2, v = 0.2, t = 0.2)
movej(p[0.430742750943181, -0.0912188711083741, 0.444260459899707, -1.1457965128653, 1.17035342198695, -1.24413354569109], a = 0.2, v = 0.2, t = 0.2)
movej(p[0.431783629526179, -0.091280758652909, 0.444356880891775, -1.15218323870342, 1.17797398429189, -1.24131266860288], a = 0.2, v = 0.2, t = 0.2)
movej(p[0.432485208278395, -0.0913976578120215, 0.444421119236627, -1.15084863027265, 1.18579681880254, -1.235671097407], a = 0.2, v = 0.2, t = 0.2)
movej(p[0.432992743358478, -0.0914143867479011, 0.444378550988219, -1.15062271600251, 1.19229489210143, -1.23049336692316], a = 0.2, v = 0.2, t = 0.2)
movej(p[0.433175825025908, -0.0914784281295244, 0.444327248600713, -1.15574856780222, 1.19440610595065, -1.23472543395286], a = 0.2, v = 0.2, t = 0.2)
movej(p[0.433124625337494, -0.0915918303607194, 0.444286140217197, -1.15835004672255, 1.19546059000624, -1.23920185918602], a = 0.2, v = 0.2, t = 0.2)
movej(p[0.432775828979433, -0.0916759976272903, 0.44414482688187, -1.16113975744177, 1.19318288665576, -1.25550063902186], a = 0.2, v = 0.2, t = 0.2)
movej(p[0.432150563610662, -0.0916591224455619, 0.443973826113868, -1.16021708630349, 1.1896877254233, -1.26450155383596], a = 0.2, v = 0.2, t = 0.2)
movej(p[0.431251136292104, -0.0916828458836921, 0.443874843290535, -1.15627300430017, 1.186262729514, -1.26576405612405], a = 0.2, v = 0.2, t = 0.2)
movej(p[0.430263925460015, -0.0916035347570491, 0.4438698694594, -1.14827174052925, 1.18170952049763, -1.26920701696803], a = 0.2, v = 0.2, t = 0.2)
movej(p[0.429602836976692, -0.0913349245240892, 0.443823514241395, -1.1451140167702, 1.17677201413906, -1.26900832815111], a = 0.2, v = 0.2, t = 0.2)
movej(p[0.429136235959454, -0.0910955436406703, 0.443807730226975, -1.14086743810949, 1.1724639605526, -1.26342959071667], a = 0.2, v = 0.2, t = 0.2)
movej(p[0.428990283836184, -0.0910487370812045, 0.443909531757925, -1.14635723808325, 1.16707029143918, -1.26245911187305], a = 0.2, v = 0.2, t = 0.2)
movej(p[0.429344825498774, -0.0911215755944304, 0.444020211695037, -1.15090512469555, 1.16466228595371, -1.26690276264775], a = 0.2, v = 0.2, t = 0.2)
movej(p[0.430288922768097, -0.0911121623782021, 0.444117132468957, -1.15421318469559, 1.16812113277052, -1.26228481955931], a = 0.2, v = 0.2, t = 0.2)
movej(p[0.431565133741775, -0.0912345693744166, 0.444240978646696, -1.14598893583403, 1.1777395838074, -1.24093978939554], a = 0.2, v = 0.2, t = 0.2)
movej(p[0.432433101520814, -0.091302533505246, 0.44431604462125, -1.14320273746032, 1.1870078952462, -1.23455529985124], a = 0.2, v = 0.2, t = 0.2)
movej(p[0.433092146445384, -0.0913560404324223, 0.444325101598012, -1.15219056340265, 1.19251343456335, -1.23842408311099], a = 0.2, v = 0.2, t = 0.2)
movej(p[0.433278699343585, -0.0913855702322139, 0.444265151490205, -1.1592407576208, 1.19622383220397, -1.24266424184839], a = 0.2, v = 0.2, t = 0.2)
movej(p[0.433349820311264, -0.0916007743459211, 0.444284273289937, -1.15837670903091, 1.19961973656595, -1.233133203809], a = 0.2, v = 0.2, t = 0.2)
movej(p[0.433164968827687, -0.0917188481663166, 0.444205167426333, -1.14839495355044, 1.20183602412523, -1.22662973262838], a = 0.2, v = 0.2, t = 0.2)
movej(p[0.432723570266518, -0.0917413868412712, 0.444048748354511, -1.14486807006292, 1.20083459609083, -1.22779072733634], a = 0.2, v = 0.2, t = 0.2)
movej(p[0.431895005324288, -0.0917787196513463, 0.443933130281965, -1.14090281121962, 1.19726845236998, -1.23163388568017], a = 0.2, v = 0.2, t = 0.2)
movej(p[0.43089896233976, -0.0917462179101379, 0.443872781724478, -1.14075537853994, 1.19108804764728, -1.24811297180607], a = 0.2, v = 0.2, t = 0.2)
movej(p[0.430044998306544, -0.0915415304959336, 0.443800893565228, -1.1434978052014, 1.18256681660309, -1.25974073890524], a = 0.2, v = 0.2, t = 0.2)
movej(p[0.429372890056757, -0.0912441501082749, 0.443761248679488, -1.1492595307322, 1.1730496463711, -1.27056835145713], a = 0.2, v = 0.2, t = 0.2)
movej(p[0.428829657601787, -0.0912167880024934, 0.443838251697058, -1.14503968939894, 1.16921129244628, -1.26025177075175], a = 0.2, v = 0.2, t = 0.2)
movej(p[0.428576889157343, -0.0911731009112325, 0.443906641552669, -1.14422543309448, 1.1645587373838, -1.26104782058286], a = 0.2, v = 0.2, t = 0.2)
movej(p[0.428952242737988, -0.0911129763161455, 0.443925512860585, -1.14583566136856, 1.16197546219109, -1.2590595849008], a = 0.2, v = 0.2, t = 0.2)
movej(p[0.429869355294688, -0.0911202002647862, 0.44400875313635, -1.15409431971879, 1.16122420310317, -1.26325800461959], a = 0.2, v = 0.2, t = 0.2)
movej(p[0.430961047625885, -0.0912248768037223, 0.444162289168611, -1.1610876576452, 1.16643341065618, -1.26762662066914], a = 0.2, v = 0.2, t = 0.2)
movej(p[0.432066505909949, -0.0912597567040007, 0.444234124369947, -1.1624736093014, 1.17781315579474, -1.25940928561849], a = 0.2, v = 0.2, t = 0.2)
movej(p[0.432816592381091, -0.0913108546358267, 0.444261254238017, -1.16403898048929, 1.18671964978789, -1.25266210967725], a = 0.2, v = 0.2, t = 0.2)
movej(p[0.433168443997976, -0.0914851722551769, 0.444276999625551, -1.15253614173055, 1.19572233594797, -1.23270774243936], a = 0.2, v = 0.2, t = 0.2)
movej(p[0.43323855441334, -0.0915770623598912, 0.444247465848058, -1.15630481745272, 1.1976427079154, -1.24316102070271], a = 0.2, v = 0.2, t = 0.2)
movej(p[0.433270420335079, -0.0915927350145062, 0.444187761808588, -1.15956653677405, 1.19815086550997, -1.24661495672601], a = 0.2, v = 0.2, t = 0.2)
movej(p[0.433168879819837, -0.0916793705857261, 0.444121653127132, -1.15707681266959, 1.19873027818909, -1.24149684650139], a = 0.2, v = 0.2, t = 0.2)
movej(p[0.432662065245042, -0.0918382152423849, 0.44406825119715, -1.1500750159525, 1.19757653629797, -1.24205788079914], a = 0.2, v = 0.2, t = 0.2)
movej(p[0.431975846101361, -0.0917669285173786, 0.443892196145576, -1.14113461984378, 1.19603780430337, -1.24460157579594], a = 0.2, v = 0.2, t = 0.2)
movej(p[0.431022425304354, -0.0916083574909122, 0.443782374947716, -1.14031174246489, 1.19056740131899, -1.25331712639064], a = 0.2, v = 0.2, t = 0.2)
movej(p[0.430068861777908, -0.0914717435311705, 0.443775534638128, -1.14253215060896, 1.18408850805353, -1.2588233289842], a = 0.2, v = 0.2, t = 0.2)
movej(p[0.429285673910875, -0.0913111315515641, 0.443791320206359, -1.14216577841903, 1.17688784463531, -1.26463439839858], a = 0.2, v = 0.2, t = 0.2)
movej(p[0.428812468107405, -0.0910589907994811, 0.443756921755435, -1.14402477102119, 1.17124057297721, -1.26258735975485], a = 0.2, v = 0.2, t = 0.2)
movej(p[0.428879580213916, -0.0910105432753458, 0.443817029467626, -1.14046694530095, 1.16797264960592, -1.24888600432489], a = 0.2, v = 0.2, t = 0.2)
movej(p[0.429374359583227, -0.0911022563124535, 0.443980872669891, -1.14341284533435, 1.16725513506439, -1.24721219868006], a = 0.2, v = 0.2, t = 0.2)
movej(p[0.430490664550223, -0.091150050739745, 0.444103168175045, -1.15223913432161, 1.16959587564119, -1.25573882850724], a = 0.2, v = 0.2, t = 0.2)
movej(p[0.431740693275386, -0.0911195298818111, 0.444175285485716, -1.15885941264916, 1.17765452305723, -1.25640724692442], a = 0.2, v = 0.2, t = 0.2)
movej(p[0.432791196748287, -0.0912850058002864, 0.444283790511992, -1.15795976534019, 1.18785976881927, -1.2431283647676], a = 0.2, v = 0.2, t = 0.2)
movej(p[0.433199860829, -0.0914020731480367, 0.444334025740104, -1.15546288025247, 1.19448178947601, -1.24267126706965], a = 0.2, v = 0.2, t = 0.2)
movej(p[0.433427461203374, -0.091445023471956, 0.444291932131653, -1.15320544634931, 1.19900882511457, -1.2382590070834], a = 0.2, v = 0.2, t = 0.2)
movej(p[0.433398701060127, -0.0914902131050621, 0.444217065639842, -1.15171162840034, 1.20033643394112, -1.23571177497817], a = 0.2, v = 0.2, t = 0.2)
movej(p[0.433154156814187, -0.0916555053748525, 0.444204788040463, -1.15546810736445, 1.19867391211505, -1.24164448313385], a = 0.2, v = 0.2, t = 0.2)
movej(p[0.432594072122776, -0.0917290152366884, 0.444090411074866, -1.15133927741264, 1.19697175678589, -1.24563846354952], a = 0.2, v = 0.2, t = 0.2)
movej(p[0.431647030605058, -0.0916607993170471, 0.443951215712059, -1.14942294254949, 1.19310641789368, -1.25372848290192], a = 0.2, v = 0.2, t = 0.2)
movej(p[0.430530405727294, -0.0916848619806426, 0.443925357526166, -1.13915285834007, 1.18895236405282, -1.24632987521891], a = 0.2, v = 0.2, t = 0.2)
movej(p[0.429417022021016, -0.091598320353133, 0.443965817984685, -1.14366232755031, 1.17809615367365, -1.26245721673872], a = 0.2, v = 0.2, t = 0.2)
movej(p[0.428664584856588, -0.0913763621040044, 0.443962011220104, -1.14956970938724, 1.16720785405016, -1.26982062809447], a = 0.2, v = 0.2, t = 0.2)
movej(p[0.428247367599431, -0.0912187447435878, 0.443944704535579, -1.14843886883242, 1.16010359252116, -1.26444048297208], a = 0.2, v = 0.2, t = 0.2)
movej(p[0.428202587675742, -0.091325886864541, 0.444093716502804, -1.14303075928869, 1.15837576632217, -1.25272152538319], a = 0.2, v = 0.2, t = 0.2)
movej(p[0.428916370508823, -0.0913461953362789, 0.444192651982437, -1.13690009801178, 1.16130947447844, -1.24539499153437], a = 0.2, v = 0.2, t = 0.2)
movej(p[0.430105491558025, -0.0912923575397491, 0.444278437102463, -1.1425754489569, 1.16571077484807, -1.24695035053891], a = 0.2, v = 0.2, t = 0.2)
movej(p[0.43150692940272, -0.0912873629942201, 0.444344826451315, -1.14291428583836, 1.17667094857181, -1.23582262740634], a = 0.2, v = 0.2, t = 0.2)
movej(p[0.432472329575188, -0.091396597017833, 0.444419446796884, -1.1453834011334, 1.18623640532925, -1.23331171621474], a = 0.2, v = 0.2, t = 0.2)
movej(p[0.433059883774369, -0.0914211022428835, 0.444362033501178, -1.14782433287242, 1.19475196253537, -1.22911794686611], a = 0.2, v = 0.2, t = 0.2)
movej(p[0.433311649287049, -0.0914800899374969, 0.444287960841248, -1.14947589380755, 1.19885115581756, -1.22842572491496], a = 0.2, v = 0.2, t = 0.2)
movej(p[0.433277464906847, -0.0916072735804641, 0.44423818973645, -1.14686847543124, 1.2020893329431, -1.22522351374178], a = 0.2, v = 0.2, t = 0.2)
movej(p[0.432997227082692, -0.0917073163651677, 0.444182091571214, -1.15054268869565, 1.20077780684696, -1.23755545153839], a = 0.2, v = 0.2, t = 0.2)
movej(p[0.432422998191626, -0.0916934857962591, 0.444043456740201, -1.14886068562862, 1.19922236674945, -1.24169474843111], a = 0.2, v = 0.2, t = 0.2)
movej(p[0.431572328717582, -0.0917441146012304, 0.444011246266187, -1.14911216414419, 1.19510401386206, -1.24676223763412], a = 0.2, v = 0.2, t = 0.2)
movej(p[0.43057117023401, -0.0917084203562962, 0.44399473102924, -1.14359774068022, 1.18914355558345, -1.25476786936441], a = 0.2, v = 0.2, t = 0.2)
movej(p[0.429800205452449, -0.0914834769963895, 0.443953939218464, -1.14513867554359, 1.18089128487501, -1.26489664317678], a = 0.2, v = 0.2, t = 0.2)
movej(p[0.429170801084114, -0.0912404566928819, 0.443882163676257, -1.14308399220988, 1.17314662241302, -1.26401966170789], a = 0.2, v = 0.2, t = 0.2)
movej(p[0.428799709097769, -0.0911832908707768, 0.443925356308152, -1.14770365249263, 1.16569560298902, -1.26377458671908], a = 0.2, v = 0.2, t = 0.2)
movej(p[0.428667452131167, -0.0911969866542085, 0.443962410809922, -1.14423249937772, 1.16289902047126, -1.26174688909608], a = 0.2, v = 0.2, t = 0.2)
movej(p[0.429130882392601, -0.0911615893749811, 0.443987570508061, -1.15032997840778, 1.16201698909931, -1.26441121252965], a = 0.2, v = 0.2, t = 0.2)
movej(p[0.429968280549321, -0.091211058179295, 0.44406155394285, -1.14606526291704, 1.16696521546882, -1.25144009645067], a = 0.2, v = 0.2, t = 0.2)
movej(p[0.43091716892452, -0.0913448899738961, 0.444234305346241, -1.15515897222117, 1.17058749421367, -1.25836625404027], a = 0.2, v = 0.2, t = 0.2)
movej(p[0.43189940268155, -0.0913856323328039, 0.444301985551722, -1.1551450341332, 1.17966892477707, -1.25048060286346], a = 0.2, v = 0.2, t = 0.2)
movej(p[0.432633540009379, -0.0914024130121915, 0.444298723248466, -1.1577607877136, 1.18798089143628, -1.24498020334618], a = 0.2, v = 0.2, t = 0.2)
movej(p[0.433067401623545, -0.0915713626335832, 0.444326760969379, -1.14937580897709, 1.19658813968019, -1.22677095117764], a = 0.2, v = 0.2, t = 0.2)
movej(p[0.433150692138587, -0.0917005383240249, 0.44429139382498, -1.15237727546638, 1.19792083137472, -1.23658057642854], a = 0.2, v = 0.2, t = 0.2)
movej(p[0.433064219668708, -0.0917088516873442, 0.44421725667421, -1.15378921883317, 1.19907484062779, -1.24020695312947], a = 0.2, v = 0.2, t = 0.2)
movej(p[0.432676672497943, -0.0917359257882425, 0.444117823278344, -1.15887817131091, 1.19619797734497, -1.24858879091163], a = 0.2, v = 0.2, t = 0.2)
movej(p[0.431887627320783, -0.0918876700601251, 0.444137599811214, -1.1512266435903, 1.19594284892004, -1.24555606477459], a = 0.2, v = 0.2, t = 0.2)
movej(p[0.431045040834507, -0.0918179841012782, 0.444041132388812, -1.14197359273398, 1.19315666729568, -1.24927054671479], a = 0.2, v = 0.2, t = 0.2)
movej(p[0.43024299432446, -0.0915745820019665, 0.443927551227209, -1.13524239094993, 1.18905912810204, -1.25022839241891], a = 0.2, v = 0.2, t = 0.2)
movej(p[0.429530408968826, -0.0914290138985198, 0.443926788217306, -1.13486830860509, 1.18183085195699, -1.24757040693849], a = 0.2, v = 0.2, t = 0.2)
movej(p[0.428894823838294, -0.0913695875140923, 0.444001762615747, -1.13641919538526, 1.17322100858178, -1.25316867031331], a = 0.2, v = 0.2, t = 0.2)
movej(p[0.428804553343632, -0.0912300471309297, 0.444025777317003, -1.14174577975346, 1.16754184395588, -1.25648130077059], a = 0.2, v = 0.2, t = 0.2)
movej(p[0.429261574203398, -0.0911445322056725, 0.444057100498467, -1.14417150986767, 1.16501762256191, -1.25654307929677], a = 0.2, v = 0.2, t = 0.2)
movej(p[0.430220070489908, -0.0911584893815793, 0.44414775313267, -1.15004637850185, 1.16716070727315, -1.256738752299], a = 0.2, v = 0.2, t = 0.2)
movej(p[0.431293810739724, -0.0911836968089454, 0.444217241512493, -1.15367908887595, 1.17333316633168, -1.25868279218504], a = 0.2, v = 0.2, t = 0.2)
movej(p[0.432383870424362, -0.0911389751591833, 0.444179821852304, -1.15381213591903, 1.18405375403898, -1.24624756232267], a = 0.2, v = 0.2, t = 0.2)
movej(p[0.433069433111618, -0.0912738356414316, 0.444215520828416, -1.15430543436864, 1.19271139901994, -1.23369013048989], a = 0.2, v = 0.2, t = 0.2)
movej(p[0.433300902776257, -0.0914565122947213, 0.444278224867956, -1.1538589341381, 1.19935967232973, -1.23040322536668], a = 0.2, v = 0.2, t = 0.2)
movej(p[0.433369935791431, -0.0915344448739503, 0.444249829908777, -1.16437585215682, 1.19847691766696, -1.24616144677637], a = 0.2, v = 0.2, t = 0.2)
movej(p[0.433209341914917, -0.0915475736852764, 0.444140911784759, -1.16364489454611, 1.19789287407521, -1.24711522772992], a = 0.2, v = 0.2, t = 0.2)
movej(p[0.432818153322167, -0.09175815550338, 0.444094571511923, -1.1595901222731, 1.19548944706204, -1.24316785552178], a = 0.2, v = 0.2, t = 0.2)
movej(p[0.432030364681521, -0.0918271788603065, 0.444039073696939, -1.14881762163355, 1.19355060141508, -1.24724308807954], a = 0.2, v = 0.2, t = 0.2)
movej(p[0.431178134911653, -0.0916959995052178, 0.443931615583011, -1.14416186226669, 1.19070227598677, -1.25211002915417], a = 0.2, v = 0.2, t = 0.2)
movej(p[0.43024881020459, -0.091458896648783, 0.443871190213227, -1.14128872167119, 1.18490917879917, -1.25599977273029], a = 0.2, v = 0.2, t = 0.2)
movej(p[0.429385938560507, -0.0914031195144108, 0.443999924408844, -1.14617519463416, 1.17738516883296, -1.26234734597528], a = 0.2, v = 0.2, t = 0.2)
movej(p[0.428778372122881, -0.0912468501827317, 0.44405442210002, -1.14659955994814, 1.16889300392908, -1.26715469045323], a = 0.2, v = 0.2, t = 0.2)
movej(p[0.428770572048813, -0.0910657693302136, 0.444071459807021, -1.15069988079686, 1.16226224410394, -1.26768369430282], a = 0.2, v = 0.2, t = 0.2)
movej(p[0.429344713903786, -0.0910229421157333, 0.444123371148441, -1.14726660387854, 1.16288125138108, -1.25632707235692], a = 0.2, v = 0.2, t = 0.2)
movej(p[0.43026042783707, -0.091124156682045, 0.444241184774381, -1.15266255965734, 1.16521796666077, -1.26029106165805], a = 0.2, v = 0.2, t = 0.2)
movej(p[0.431478774177586, -0.0911493056545623, 0.444291116518107, -1.15225198629709, 1.17690723491743, -1.25294212021475], a = 0.2, v = 0.2, t = 0.2)
movej(p[0.43248845220586, -0.091192105583568, 0.444310712795778, -1.15453085063109, 1.18551683624074, -1.24805458773747], a = 0.2, v = 0.2, t = 0.2)
movej(p[0.433112697303001, -0.0913388367457403, 0.444376145270066, -1.14495910237571, 1.1979192716352, -1.22833556911], a = 0.2, v = 0.2, t = 0.2)
movej(p[0.433372782856249, -0.0914106179196378, 0.444374890089227, -1.14941576978757, 1.20134554680766, -1.23806732059243], a = 0.2, v = 0.2, t = 0.2)
movej(p[0.433484625254364, -0.091427714132428, 0.444309238556717, -1.15309516330481, 1.20294052239746, -1.24166511912543], a = 0.2, v = 0.2, t = 0.2)
movej(p[0.433488447917001, -0.0915248703236768, 0.444275465654911, -1.15354129907468, 1.20389264073539, -1.23930802872919], a = 0.2, v = 0.2, t = 0.2)
movej(p[0.433187667717962, -0.0917329979836528, 0.444259042292919, -1.14815468330671, 1.20306673774187, -1.23805790852184], a = 0.2, v = 0.2, t = 0.2)
movej(p[0.432657819607103, -0.0917290911364662, 0.444122921076114, -1.14479932227648, 1.20108113169918, -1.24507016913715], a = 0.2, v = 0.2, t = 0.2)
movej(p[0.431741600483357, -0.0916667054226014, 0.443981885243124, -1.14348639557849, 1.19669204583234, -1.25402245279449], a = 0.2, v = 0.2, t = 0.2)
movej(p[0.430668623265868, -0.0916230412598177, 0.443996542925, -1.14455942297086, 1.19166707754127, -1.26037601234613], a = 0.2, v = 0.2, t = 0.2)
movej(p[0.429773217737277, -0.0915189994784686, 0.444075386983766, -1.14033691192113, 1.1861312536107, -1.26154128422472], a = 0.2, v = 0.2, t = 0.2)
movej(p[0.4291105193014, -0.0912586423421222, 0.444147047028198, -1.14118454035553, 1.17851924309103, -1.26063969299036], a = 0.2, v = 0.2, t = 0.2)
movej(p[0.428558586750064, -0.0911005901037161, 0.444345169202262, -1.14412939017797, 1.17025565775858, -1.25586928043645], a = 0.2, v = 0.2, t = 0.2)
movej(p[0.428040973747607, -0.0910842539078599, 0.444622010976183, -1.1471227655428, 1.1634458835079, -1.25421831531923], a = 0.2, v = 0.2, t = 0.2)
movej(p[0.428053750364257, -0.0910260434892032, 0.444810283297109, -1.15085696740011, 1.15863265926893, -1.26132695714597], a = 0.2, v = 0.2, t = 0.2)
movej(p[0.428787157044364, -0.0908820852396158, 0.44482891039431, -1.15339998449146, 1.15689490911881, -1.26399161783182], a = 0.2, v = 0.2, t = 0.2)
movej(p[0.429911025616379, -0.0909272575256104, 0.444868288604199, -1.15037670808231, 1.16058758032378, -1.25591108818901], a = 0.2, v = 0.2, t = 0.2)
movej(p[0.430938286109569, -0.0909988054928037, 0.444927137698684, -1.15181083720728, 1.16721616056775, -1.26112924091483], a = 0.2, v = 0.2, t = 0.2)
movej(p[0.431907403841911, -0.0910777963804907, 0.444933720625379, -1.1582530328126, 1.17587291251792, -1.26182662311831], a = 0.2, v = 0.2, t = 0.2)
movej(p[0.432649870787595, -0.0911299240717184, 0.444880460037943, -1.16131541569051, 1.18537754345034, -1.25932767789337], a = 0.2, v = 0.2, t = 0.2)
movej(p[0.433109548515518, -0.0913545594426931, 0.444888522492529, -1.16232423527511, 1.19273424140908, -1.25168528924809], a = 0.2, v = 0.2, t = 0.2)
movej(p[0.433266517792742, -0.0914251332483113, 0.444811445461778, -1.15490120064583, 1.19866313600065, -1.24441666756588], a = 0.2, v = 0.2, t = 0.2)
movej(p[0.433364781678652, -0.0914246708626923, 0.444695986324957, -1.1565706572257, 1.20087080187646, -1.2459971803483], a = 0.2, v = 0.2, t = 0.2)
movej(p[0.433363859593038, -0.0914807003232311, 0.444631198059053, -1.15237945924733, 1.20351620283844, -1.23788939912426], a = 0.2, v = 0.2, t = 0.2)
movej(p[0.433283050253261, -0.0916389225485534, 0.444625036967601, -1.15520059053064, 1.20292162318608, -1.24203659984229], a = 0.2, v = 0.2, t = 0.2)
movej(p[0.433042571784496, -0.0916769625790571, 0.444510649974416, -1.15287352458816, 1.2038591519673, -1.24179974290207], a = 0.2, v = 0.2, t = 0.2)
movej(p[0.432461450985762, -0.0917056427248944, 0.44437810408818, -1.15209761087433, 1.20068044070355, -1.24755950585646], a = 0.2, v = 0.2, t = 0.2)
movej(p[0.431493571517134, -0.0917938997677201, 0.444352338293029, -1.14699310258111, 1.19780731353276, -1.2477268148444], a = 0.2, v = 0.2, t = 0.2)
movej(p[0.430519564247342, -0.0917015699004667, 0.444352545671751, -1.14740697258704, 1.1894706358584, -1.26400329124799], a = 0.2, v = 0.2, t = 0.2)
movej(p[0.429787710912208, -0.0914167337149075, 0.444324502566546, -1.15143663068048, 1.18153386787226, -1.27197783256026], a = 0.2, v = 0.2, t = 0.2)
movej(p[0.429234536588565, -0.0911979509167971, 0.444351116976865, -1.15134601262269, 1.17367413609534, -1.27179697684463], a = 0.2, v = 0.2, t = 0.2)
movej(p[0.42887501997495, -0.0911796170356748, 0.444469648561041, -1.14723925117577, 1.16979521308328, -1.26131076940764], a = 0.2, v = 0.2, t = 0.2)
movej(p[0.429096768161268, -0.0911773929319227, 0.444562435138134, -1.14963827863753, 1.16687226195789, -1.26484045633076], a = 0.2, v = 0.2, t = 0.2)
movej(p[0.429864674053418, -0.0911378387815081, 0.444608483319273, -1.15441658824234, 1.16656693367321, -1.26397774178844], a = 0.2, v = 0.2, t = 0.2)
movej(p[0.430985240607001, -0.0912448939241899, 0.444722129929054, -1.1577237210937, 1.17039077631707, -1.25983632856368], a = 0.2, v = 0.2, t = 0.2)
movej(p[0.431887150514351, -0.0913018072603515, 0.44476721174174, -1.15627744856848, 1.1780422634453, -1.25909485300094], a = 0.2, v = 0.2, t = 0.2)
movej(p[0.432751944214963, -0.091293799010267, 0.444734223876749, -1.1646414960067, 1.18577664671688, -1.26334474134063], a = 0.2, v = 0.2, t = 0.2)
movej(p[0.433199727384372, -0.0913027135177069, 0.444647151846154, -1.16349328921634, 1.1939621663323, -1.25500328680942], a = 0.2, v = 0.2, t = 0.2)
movej(p[0.433343913115633, -0.0914963275241324, 0.444637647205674, -1.16506838693438, 1.19775563111169, -1.24915565842055], a = 0.2, v = 0.2, t = 0.2)
movej(p[0.433015534056351, -0.0915977242033085, 0.44451248065064, -1.15042489936839, 1.20033430218089, -1.23936636736234], a = 0.2, v = 0.2, t = 0.2)
movej(p[0.432314207663595, -0.0915671861669882, 0.444310051635983, -1.14716392456365, 1.19704695136343, -1.24568921271612], a = 0.2, v = 0.2, t = 0.2)
movej(p[0.431236377872865, -0.0915363443507956, 0.444196092670177, -1.1385017297337, 1.19262274370863, -1.24398763873866], a = 0.2, v = 0.2, t = 0.2)
movej(p[0.430076396062348, -0.091458861197775, 0.444248824201233, -1.14521650178061, 1.18410581565105, -1.26413864013435], a = 0.2, v = 0.2, t = 0.2)
movej(p[0.429252389329387, -0.0911968355259896, 0.444306336111839, -1.15284467555357, 1.17543483357496, -1.27549375144642], a = 0.2, v = 0.2, t = 0.2)
movej(p[0.428762847564547, -0.0909018592933782, 0.444337194190398, -1.16091888846726, 1.16540976244195, -1.28496739411625], a = 0.2, v = 0.2, t = 0.2)
movej(p[0.428685140895936, -0.0909297916550739, 0.444454170365526, -1.1551144755416, 1.16210934745928, -1.26732551402296], a = 0.2, v = 0.2, t = 0.2)
movej(p[0.428912369076218, -0.0910004811926735, 0.444537054128524, -1.15253671360425, 1.16031664870055, -1.26771837727341], a = 0.2, v = 0.2, t = 0.2)
movej(p[0.429647680249946, -0.0910213076521003, 0.444584844488216, -1.15627413662884, 1.16226455745034, -1.2664484582258], a = 0.2, v = 0.2, t = 0.2)
movej(p[0.430465014526037, -0.0910828437169743, 0.444648734186495, -1.15998648721367, 1.1670759750734, -1.26692393801851], a = 0.2, v = 0.2, t = 0.2)
movej(p[0.431110593541263, -0.09127575839108, 0.444744591210305, -1.15553776240311, 1.1744630421821, -1.25645388889186], a = 0.2, v = 0.2, t = 0.2)
movej(p[0.431523616063596, -0.0913477685382105, 0.444702656702116, -1.15053642900826, 1.18109237859722, -1.25233804839724], a = 0.2, v = 0.2, t = 0.2)
movej(p[0.431589296117214, -0.0913878348391956, 0.44459215117815, -1.14990450084559, 1.18353240354022, -1.25119437943317], a = 0.2, v = 0.2, t = 0.2)
movej(p[0.431051777800079, -0.0914870237381622, 0.444517384867333, -1.14780152104687, 1.18570666405831, -1.24534051233983], a = 0.2, v = 0.2, t = 0.2)
movej(p[0.430020165308191, -0.0914987355203132, 0.44445151804338, -1.14596266483305, 1.18199774699969, -1.25426845100604], a = 0.2, v = 0.2, t = 0.2)
movej(p[0.428937965792881, -0.0912875275701457, 0.444351229614874, -1.14499880557822, 1.17638610293296, -1.25687696529151], a = 0.2, v = 0.2, t = 0.2)
movej(p[0.427968700360353, -0.0910706941479225, 0.44438906261859, -1.14676414663225, 1.16564877328043, -1.25928114590584], a = 0.2, v = 0.2, t = 0.2)
movej(p[0.426963683153631, -0.090975577392434, 0.444633726484167, -1.1469786027144, 1.15819780380946, -1.25202479526358], a = 0.2, v = 0.2, t = 0.2)
movej(p[0.426131533937734, -0.0908771590041758, 0.444991066622177, -1.15122811848721, 1.14805962243784, -1.25738805324556], a = 0.2, v = 0.2, t = 0.2)
movej(p[0.425601678560278, -0.0907013905518094, 0.445269085721222, -1.15872566623905, 1.13750327528368, -1.26467982833352], a = 0.2, v = 0.2, t = 0.2)
movej(p[0.425771358061004, -0.0906294253925947, 0.445400916725892, -1.16548779314471, 1.12779845471952, -1.26768116435723], a = 0.2, v = 0.2, t = 0.2)
movej(p[0.426277840446803, -0.0906257032442071, 0.445276273382761, -1.16726201862777, 1.12509538844023, -1.27300731372475], a = 0.2, v = 0.2, t = 0.2)
movej(p[0.427228394962817, -0.0905890370604479, 0.445042891925799, -1.16754529926289, 1.12860191811568, -1.27310322605045], a = 0.2, v = 0.2, t = 0.2)
movej(p[0.428086419775728, -0.0905919281566455, 0.444877637581252, -1.16182240637313, 1.13719930913958, -1.26514024498263], a = 0.2, v = 0.2, t = 0.2)
movej(p[0.428901191580589, -0.090835026527266, 0.444923234565867, -1.16185526617382, 1.14531949726566, -1.25999036166375], a = 0.2, v = 0.2, t = 0.2)
movej(p[0.429607649136878, -0.0909850300194893, 0.444876068439427, -1.16099988670239, 1.15164529723892, -1.26331057941519], a = 0.2, v = 0.2, t = 0.2)
movej(p[0.430382281590566, -0.0910564838300161, 0.444767474606942, -1.16836888544951, 1.1564719856896, -1.26983937938908], a = 0.2, v = 0.2, t = 0.2)
movej(p[0.431076441559299, -0.0911442705329726, 0.444658469569017, -1.16385085440781, 1.16270588629798, -1.26213368005734], a = 0.2, v = 0.2, t = 0.2)
movej(p[0.431620537436973, -0.0912670563484161, 0.444614244630976, -1.17046391878569, 1.16835841508171, -1.26696814912683], a = 0.2, v = 0.2, t = 0.2)
movej(p[0.43199494841895, -0.0913547485786771, 0.444521049315681, -1.17410203809736, 1.17299291242524, -1.26888276313864], a = 0.2, v = 0.2, t = 0.2)
movej(p[0.432097388483062, -0.091369633377238, 0.444403825320968, -1.18013319808393, 1.17555266191686, -1.27374823090177], a = 0.2, v = 0.2, t = 0.2)
movej(p[0.431762356995848, -0.0915435788514314, 0.444350145737287, -1.17126694701933, 1.17800433568602, -1.2655152008238], a = 0.2, v = 0.2, t = 0.2)
movej(p[0.431151865698909, -0.0914587002189377, 0.444250894021414, -1.16309195175074, 1.17747908351148, -1.27091503419263], a = 0.2, v = 0.2, t = 0.2)
movej(p[0.430409647033593, -0.0911742003454733, 0.44413470715636, -1.16088357962526, 1.17424123270826, -1.278917212984], a = 0.2, v = 0.2, t = 0.2)
movej(p[0.429785728331252, -0.0909262373090028, 0.444126782617711, -1.16041228894221, 1.16901936554745, -1.28097226934371], a = 0.2, v = 0.2, t = 0.2)
movej(p[0.42924613268633, -0.0909827457337209, 0.444258528784326, -1.15874784735257, 1.16466627404858, -1.27845216186032], a = 0.2, v = 0.2, t = 0.2)
movej(p[0.429439252540476, -0.0910195313786498, 0.444327971260966, -1.15355156219763, 1.1627112912856, -1.27037138661285], a = 0.2, v = 0.2, t = 0.2)
movej(p[0.430122339030556, -0.0910388976297774, 0.444352087186988, -1.15249327119973, 1.16422481682697, -1.26299976784056], a = 0.2, v = 0.2, t = 0.2)
movej(p[0.431240989636865, -0.0910893407819501, 0.444419429903016, -1.15171877722414, 1.17140155211393, -1.25019306692776], a = 0.2, v = 0.2, t = 0.2)
movej(p[0.432134560780958, -0.0911451556095148, 0.444456186529206, -1.1571883015846, 1.17940293540535, -1.25188881953713], a = 0.2, v = 0.2, t = 0.2)
movej(p[0.432782199683819, -0.0911478892071639, 0.444410015420871, -1.15967373496575, 1.18790865781473, -1.24800315834833], a = 0.2, v = 0.2, t = 0.2)
movej(p[0.433081379638299, -0.0912545011192993, 0.444356457536743, -1.15873569214294, 1.19288644554321, -1.2434279705511], a = 0.2, v = 0.2, t = 0.2)
movej(p[0.433044349096478, -0.0914352458399649, 0.444346861893932, -1.15514612931784, 1.19738563604121, -1.2413867274573], a = 0.2, v = 0.2, t = 0.2)
movej(p[0.432736073166752, -0.0915245823023748, 0.444267304648174, -1.1592233655565, 1.1955311828342, -1.25444782754764], a = 0.2, v = 0.2, t = 0.2)
movej(p[0.432087557380577, -0.0914893925519766, 0.44414077820608, -1.16059020018688, 1.19262070508119, -1.26536718746225], a = 0.2, v = 0.2, t = 0.2)
movej(p[0.431229970681877, -0.0915078847025697, 0.444128273059986, -1.16265120524219, 1.18874814216698, -1.27197910577833], a = 0.2, v = 0.2, t = 0.2)
movej(p[0.430331381291085, -0.091395380663925, 0.444156824629731, -1.15743197327096, 1.18415098833494, -1.27817696715136], a = 0.2, v = 0.2, t = 0.2)
movej(p[0.429675824039799, -0.0911329184307069, 0.444162813192941, -1.15571058128441, 1.17901092907663, -1.27899550076329], a = 0.2, v = 0.2, t = 0.2)
movej(p[0.429284302530297, -0.090925874232927, 0.444162774946235, -1.15119715597229, 1.17158781237643, -1.27190105775813], a = 0.2, v = 0.2, t = 0.2)
movej(p[0.429231038116518, -0.0909994192901612, 0.444311146147219, -1.15387151516773, 1.16682242415313, -1.26505565094129], a = 0.2, v = 0.2, t = 0.2)
movej(p[0.429637147743255, -0.091108595190101, 0.444439921704373, -1.15691070432728, 1.16535043962747, -1.26915000178782], a = 0.2, v = 0.2, t = 0.2)
movej(p[0.430639294947542, -0.0911256399561132, 0.444482822258579, -1.16331575827868, 1.16843842991072, -1.2704768848107], a = 0.2, v = 0.2, t = 0.2)
movej(p[0.431728523997502, -0.0911903664176957, 0.44449564669501, -1.15904615811852, 1.17650084283171, -1.25762339599222], a = 0.2, v = 0.2, t = 0.2)
movej(p[0.432466918853283, -0.0913506107446067, 0.444564162448599, -1.16728363436744, 1.18169576718012, -1.26088227530051], a = 0.2, v = 0.2, t = 0.2)
movej(p[0.432888224782335, -0.0914365610160479, 0.444527316025346, -1.16894843219323, 1.1879205767813, -1.25641230216684], a = 0.2, v = 0.2, t = 0.2)
movej(p[0.433057208213543, -0.0914725997766164, 0.444439646037431, -1.17241225748563, 1.19070015803545, -1.25716537834755], a = 0.2, v = 0.2, t = 0.2)
movej(p[0.433005547794309, -0.0916302565979915, 0.444383334601013, -1.16518590846602, 1.1927863705112, -1.24833397044903], a = 0.2, v = 0.2, t = 0.2)
movej(p[0.432665942609697, -0.0917196256697194, 0.444270087528365, -1.16717413202441, 1.19073696778419, -1.26388558317574], a = 0.2, v = 0.2, t = 0.2)
movej(p[0.432084521985836, -0.0916459039948089, 0.444119234029574, -1.16947983629191, 1.18703746719046, -1.27685570468521], a = 0.2, v = 0.2, t = 0.2)
movej(p[0.431308638477836, -0.0915318283088428, 0.444028691251921, -1.16600732134454, 1.1846272219312, -1.28043291863312], a = 0.2, v = 0.2, t = 0.2)
movej(p[0.430375579923425, -0.0915101512464272, 0.444114833969574, -1.1515088949927, 1.18341672573935, -1.26642586297552], a = 0.2, v = 0.2, t = 0.2)
movej(p[0.429742796223785, -0.0913042452999362, 0.444138900370101, -1.14457834713611, 1.17935593137689, -1.26753191672152], a = 0.2, v = 0.2, t = 0.2)
movej(p[0.42949251458404, -0.091037310511606, 0.444130413968652, -1.14949446701441, 1.17327528840855, -1.2705981167051], a = 0.2, v = 0.2, t = 0.2)
movej(p[0.42974743944021, -0.0909975801026063, 0.444200513115632, -1.15477271376128, 1.16914010707907, -1.270099915488], a = 0.2, v = 0.2, t = 0.2)
movej(p[0.430316775335153, -0.0911000106679698, 0.44433778674933, -1.15867945075453, 1.16835622936084, -1.27235450316142], a = 0.2, v = 0.2, t = 0.2)
movej(p[0.431230482517247, -0.0911481238344553, 0.444378069065555, -1.16065864970277, 1.17303499214299, -1.27227058543413], a = 0.2, v = 0.2, t = 0.2)
movej(p[0.432185617421182, -0.0911307657144568, 0.44435461510946, -1.16279595770799, 1.18019531513327, -1.26622091767012], a = 0.2, v = 0.2, t = 0.2)
movej(p[0.432909592779922, -0.0912978128468927, 0.444394494543329, -1.16393709556051, 1.18829852648368, -1.25395324285622], a = 0.2, v = 0.2, t = 0.2)
movej(p[0.433105473957109, -0.0913999132545294, 0.444393939745403, -1.16307874620635, 1.19198914021554, -1.25500464919015], a = 0.2, v = 0.2, t = 0.2)
movej(p[0.433296940616553, -0.0914187469858966, 0.444316785254116, -1.1679278561308, 1.19264486641652, -1.26119771913058], a = 0.2, v = 0.2, t = 0.2)
movej(p[0.433344509279939, -0.0914257914660558, 0.444228227374151, -1.16780209885834, 1.19396098295958, -1.26134422135514], a = 0.2, v = 0.2, t = 0.2)
movej(p[0.433386407994892, -0.0916470840348568, 0.444259384386438, -1.16054058246667, 1.19761333137286, -1.25095742847177], a = 0.2, v = 0.2, t = 0.2)
movej(p[0.433310152688943, -0.0917208401253106, 0.444206546204832, -1.15311866325537, 1.19997819497925, -1.25025310349697], a = 0.2, v = 0.2, t = 0.2)
movej(p[0.43316903075435, -0.0916988390367836, 0.444110275946805, -1.15597154193888, 1.19865518037245, -1.2526918948748], a = 0.2, v = 0.2, t = 0.2)
movej(p[0.432690579961996, -0.0917553834184927, 0.444052995074847, -1.15911017969326, 1.19612038176317, -1.25780293873765], a = 0.2, v = 0.2, t = 0.2)
movej(p[0.431854782682447, -0.0919273670666861, 0.444101497424829, -1.15707083557538, 1.19375518120616, -1.26358955677415], a = 0.2, v = 0.2, t = 0.2)
movej(p[0.431004046478909, -0.0918039561099043, 0.444055800458457, -1.15277366557331, 1.19046199119348, -1.27054800231983], a = 0.2, v = 0.2, t = 0.2)
movej(p[0.430235879717605, -0.0915344029245848, 0.444002212798382, -1.15110788218182, 1.1841471408527, -1.27565807542945], a = 0.2, v = 0.2, t = 0.2)
movej(p[0.429620661646892, -0.0913629959115896, 0.44403995718005, -1.14993728454365, 1.17725732433349, -1.26992978212863], a = 0.2, v = 0.2, t = 0.2)
movej(p[0.429020447594021, -0.0913112683138802, 0.444147551162443, -1.14997947115645, 1.16899592504234, -1.27318476400436], a = 0.2, v = 0.2, t = 0.2)
movej(p[0.429046803890575, -0.0911792860779699, 0.444179779384548, -1.150769700494, 1.16470683722102, -1.26907586485985], a = 0.2, v = 0.2, t = 0.2)
movej(p[0.429605465549092, -0.091084207968065, 0.444195353225434, -1.1572917866651, 1.16048492759626, -1.27427413055667], a = 0.2, v = 0.2, t = 0.2)
movej(p[0.430669389484438, -0.0911876016791917, 0.444290659796555, -1.15901266052866, 1.16451676136729, -1.26514970482384], a = 0.2, v = 0.2, t = 0.2)
movej(p[0.431714390661142, -0.0912383856263741, 0.44432298834577, -1.15389385216446, 1.17335967608356, -1.2628569348221], a = 0.2, v = 0.2, t = 0.2)
movej(p[0.432656886804014, -0.091201035708369, 0.44423688036242, -1.15332090938964, 1.18385883793701, -1.25370575052788], a = 0.2, v = 0.2, t = 0.2)
movej(p[0.433206336823679, -0.0912127042540968, 0.444159002163088, -1.15104124297176, 1.19408235788988, -1.24358667028667], a = 0.2, v = 0.2, t = 0.2)
movej(p[0.433366603621517, -0.0914008326002317, 0.444166614925819, -1.1601269323308, 1.19651496083257, -1.24833459739212], a = 0.2, v = 0.2, t = 0.2)
movej(p[0.433372339550093, -0.0914967878065769, 0.444143674227996, -1.15913769424428, 1.19866995226878, -1.2510780204731], a = 0.2, v = 0.2, t = 0.2)
movej(p[0.433393307052482, -0.0914690285403817, 0.444049703124012, -1.15972770367317, 1.19826628125061, -1.25450928529013], a = 0.2, v = 0.2, t = 0.2)
movej(p[0.433368861472426, -0.0915526236944639, 0.443986285340775, -1.1525349075677, 1.20052760973718, -1.24434921476211], a = 0.2, v = 0.2, t = 0.2)
movej(p[0.433130280012298, -0.0916935429771985, 0.443991348860978, -1.15714420629773, 1.19809514537497, -1.25693551247904], a = 0.2, v = 0.2, t = 0.2)
movej(p[0.432664638462356, -0.0916670191250153, 0.443884642096748, -1.15352694932402, 1.19675341445992, -1.25823850068222], a = 0.2, v = 0.2, t = 0.2)
movej(p[0.43192258672505, -0.0916058063361085, 0.443816873952049, -1.15479261547769, 1.19199395128241, -1.2686916803288], a = 0.2, v = 0.2, t = 0.2)
movej(p[0.431024531188964, -0.091580481237385, 0.44388617022381, -1.14733195992191, 1.1899577151467, -1.26478898110392], a = 0.2, v = 0.2, t = 0.2)
movej(p[0.430204578174542, -0.0914617393918467, 0.44398631950068, -1.15148198454256, 1.18297608776697, -1.28231938606965], a = 0.2, v = 0.2, t = 0.2)
movej(p[0.429701557474115, -0.0911641624793142, 0.444002492792539, -1.15854990693323, 1.17520375696178, -1.28948749782503], a = 0.2, v = 0.2, t = 0.2)
movej(p[0.42953199839612, -0.0909928153404213, 0.444025495565476, -1.15996010818108, 1.16853351456144, -1.28851680150052], a = 0.2, v = 0.2, t = 0.2)
movej(p[0.429547510886269, -0.0910437419324084, 0.444174113780638, -1.16221497638313, 1.16532045811026, -1.28355820175941], a = 0.2, v = 0.2, t = 0.2)
movej(p[0.430146200969181, -0.0910692396227424, 0.444272087540439, -1.16448275487142, 1.16588984015809, -1.28530057070373], a = 0.2, v = 0.2, t = 0.2)
movej(p[0.431103509856374, -0.0910457786173102, 0.444314989938118, -1.17042858789318, 1.169979676239, -1.2826985713608], a = 0.2, v = 0.2, t = 0.2)
movej(p[0.432191334506653, -0.0911468652734198, 0.444358955251728, -1.16896058147419, 1.17754155299248, -1.2681657028325], a = 0.2, v = 0.2, t = 0.2)
movej(p[0.432799745988967, -0.0912594418748266, 0.444366658368238, -1.16246944788393, 1.18576964359276, -1.25819811511917], a = 0.2, v = 0.2, t = 0.2)
movej(p[0.433230700509792, -0.0912981857940928, 0.444305858277768, -1.15577439731903, 1.19334575147051, -1.24650204581735], a = 0.2, v = 0.2, t = 0.2)
movej(p[0.433377415953521, -0.0913488836984779, 0.444237130564644, -1.15735858407304, 1.19651917107437, -1.24568174197107], a = 0.2, v = 0.2, t = 0.2)
movej(p[0.433464769181753, -0.0915257746623615, 0.444248148001853, -1.1578010762231, 1.19985641194802, -1.24022669022173], a = 0.2, v = 0.2, t = 0.2)
movej(p[0.43342786995888, -0.0916049164821003, 0.444231559909142, -1.15598626789929, 1.20156645571078, -1.24163739081313], a = 0.2, v = 0.2, t = 0.2)
movej(p[0.433409212327248, -0.0915810197686331, 0.444144513712399, -1.15079810820421, 1.2037903586865, -1.23624542454545], a = 0.2, v = 0.2, t = 0.2)
movej(p[0.43313606337644, -0.0916818398383247, 0.444090056474867, -1.14463299068889, 1.20337823139856, -1.23052756854826], a = 0.2, v = 0.2, t = 0.2)
movej(p[0.432508605879153, -0.0918194594505876, 0.444059072531932, -1.14910864884565, 1.19947708564824, -1.24961471365947], a = 0.2, v = 0.2, t = 0.2)
movej(p[0.431817621366174, -0.0917900431697182, 0.443960395759373, -1.14721471958748, 1.19653780962435, -1.25735052712544], a = 0.2, v = 0.2, t = 0.2)
movej(p[0.431075286890913, -0.091620787289705, 0.44387542390509, -1.14535533857296, 1.1917932904373, -1.26486921196193], a = 0.2, v = 0.2, t = 0.2)
movej(p[0.430334332919843, -0.0915953932897009, 0.443951064002382, -1.13774405287213, 1.18778680404593, -1.25336224804822], a = 0.2, v = 0.2, t = 0.2)
movej(p[0.429682371142432, -0.0914684845133846, 0.444008067947769, -1.13619115621974, 1.18139666991491, -1.25878654345064], a = 0.2, v = 0.2, t = 0.2)
movej(p[0.429432190947106, -0.0912272909139922, 0.444025936609687, -1.14312021007459, 1.17447992118953, -1.26303901133273], a = 0.2, v = 0.2, t = 0.2)
movej(p[0.429648827027126, -0.0910816736015522, 0.444079459514608, -1.14714976573436, 1.17002751216804, -1.2635196017547], a = 0.2, v = 0.2, t = 0.2)
movej(p[0.430227566763141, -0.0911836637037704, 0.444212826594157, -1.14486035992928, 1.17103158349995, -1.25624984650844], a = 0.2, v = 0.2, t = 0.2)
movej(p[0.431228918793163, -0.0912145884630524, 0.444277963853341, -1.14760711872328, 1.17516935799452, -1.25747753262439], a = 0.2, v = 0.2, t = 0.2)
movej(p[0.432270906006518, -0.091201126129495, 0.444276340098716, -1.14935829578764, 1.18393413273848, -1.2495139294008], a = 0.2, v = 0.2, t = 0.2)
movej(p[0.432981047259291, -0.0913276443289993, 0.444322938199826, -1.15612074723047, 1.19069926829016, -1.24454358102906], a = 0.2, v = 0.2, t = 0.2)
movej(p[0.433230966238573, -0.0915203453919056, 0.444367886051289, -1.15595173725368, 1.19649061326576, -1.24133799964853], a = 0.2, v = 0.2, t = 0.2)
movej(p[0.433346492924987, -0.0915774058030953, 0.444296321393803, -1.1562127780665, 1.19964060365044, -1.23870129935332], a = 0.2, v = 0.2, t = 0.2)
movej(p[0.433285681629071, -0.0916404138386627, 0.444220910822641, -1.15490156665357, 1.19953167870667, -1.23882521467766], a = 0.2, v = 0.2, t = 0.2)
movej(p[0.432960974362009, -0.0917298031242678, 0.444149726088099, -1.15486946529524, 1.19900154176953, -1.242700871663], a = 0.2, v = 0.2, t = 0.2)
movej(p[0.432353075203002, -0.0916802163826727, 0.444023291504648, -1.15858032561989, 1.19453136153218, -1.26352971169618], a = 0.2, v = 0.2, t = 0.2)
movej(p[0.431598682992385, -0.0914824197925755, 0.443863175166297, -1.16027343210702, 1.19013124815231, -1.27569574636729], a = 0.2, v = 0.2, t = 0.2)
movej(p[0.430792988533461, -0.0913519346060719, 0.443833200280576, -1.15141115287497, 1.18626474294359, -1.26862153271842], a = 0.2, v = 0.2, t = 0.2)
movej(p[0.429952391733697, -0.0912299577202046, 0.443886134680249, -1.14339855810112, 1.18126638881623, -1.26871603272376], a = 0.2, v = 0.2, t = 0.2)
movej(p[0.429545087006047, -0.0910087119846807, 0.443871564030073, -1.14062097325066, 1.17464686590985, -1.26909999053373], a = 0.2, v = 0.2, t = 0.2)
movej(p[0.429626796962853, -0.0908217001222799, 0.443880299319431, -1.14783866503813, 1.16767165089272, -1.27463904921084], a = 0.2, v = 0.2, t = 0.2)
movej(p[0.430273745035048, -0.0909204451922972, 0.44400805930155, -1.15142034266042, 1.16613313607068, -1.26939845688701], a = 0.2, v = 0.2, t = 0.2)
movej(p[0.431168508458491, -0.0909943852819375, 0.444098453043104, -1.15208571979803, 1.16935479478726, -1.27002122026442], a = 0.2, v = 0.2, t = 0.2)
movej(p[0.432195097265199, -0.0909878230473068, 0.444108000640571, -1.1525001449611, 1.1787276604566, -1.26365052950992], a = 0.2, v = 0.2, t = 0.2)
movej(p[0.432940484294064, -0.0910191410789103, 0.44406562224871, -1.15063816403348, 1.18762499376355, -1.25263940612926], a = 0.2, v = 0.2, t = 0.2)
movej(p[0.433209854080664, -0.091195456593995, 0.444108354275429, -1.15818643537274, 1.19375185542073, -1.25272712905771], a = 0.2, v = 0.2, t = 0.2)
movej(p[0.433304903055992, -0.0913165228443505, 0.444074267413108, -1.15973349494725, 1.19694096389522, -1.2517132115756], a = 0.2, v = 0.2, t = 0.2)
movej(p[0.433351599177365, -0.0913374878834801, 0.443995140965292, -1.16235459485386, 1.197299105155, -1.25499638517432], a = 0.2, v = 0.2, t = 0.2)
movej(p[0.433240978704418, -0.0915032320106873, 0.443967332445998, -1.15565663028857, 1.19740131076735, -1.24559275220619], a = 0.2, v = 0.2, t = 0.2)
movej(p[0.432814171385818, -0.0915868936006892, 0.443886304760929, -1.15597685629201, 1.19491844821635, -1.25930192683681], a = 0.2, v = 0.2, t = 0.2)
movej(p[0.432141176509195, -0.0915176090113192, 0.443743076936069, -1.15476749755741, 1.19225728640902, -1.26796131051122], a = 0.2, v = 0.2, t = 0.2)
movej(p[0.431255177159474, -0.0914199384671288, 0.443654764217012, -1.14879239017951, 1.18968909222513, -1.26897819764514], a = 0.2, v = 0.2, t = 0.2)
movej(p[0.430365775467375, -0.0913925642727918, 0.443709068254402, -1.14152155978613, 1.18518017387472, -1.26598394504782], a = 0.2, v = 0.2, t = 0.2)
movej(p[0.429677340280413, -0.0911990469196972, 0.443742919057642, -1.14283593214761, 1.17738859941934, -1.27280668869421], a = 0.2, v = 0.2, t = 0.2)
movej(p[0.429364959528268, -0.0909746208253364, 0.443774032507458, -1.15333790997752, 1.16775884311447, -1.28065015289533], a = 0.2, v = 0.2, t = 0.2)
movej(p[0.42954423751945, -0.0909122822497998, 0.443857967445821, -1.15815209873384, 1.16449597801563, -1.27864479086983], a = 0.2, v = 0.2, t = 0.2)
movej(p[0.430105762445598, -0.0910182484192086, 0.443991810457051, -1.15987939575887, 1.16407377250212, -1.28017069790234], a = 0.2, v = 0.2, t = 0.2)
movej(p[0.431199750649879, -0.0910512546792477, 0.444051524122098, -1.16038470143916, 1.17197571001525, -1.27259145959441], a = 0.2, v = 0.2, t = 0.2)
movej(p[0.432229328578282, -0.0911341215706367, 0.44408904033002, -1.15890345193858, 1.17954428400476, -1.26193104122456], a = 0.2, v = 0.2, t = 0.2)
movej(p[0.432945129419176, -0.0913055182178389, 0.444163529303966, -1.16248085845043, 1.18826199077952, -1.25364805816715], a = 0.2, v = 0.2, t = 0.2)
movej(p[0.433198750895654, -0.0914301944647119, 0.444166802821946, -1.16841869201845, 1.19166512468378, -1.26045943080476], a = 0.2, v = 0.2, t = 0.2)
movej(p[0.433287310130773, -0.0914690121670259, 0.444111724101272, -1.17241920439559, 1.19423257255939, -1.2630119217983], a = 0.2, v = 0.2, t = 0.2)
movej(p[0.433314980789073, -0.0915828670116902, 0.444105240059574, -1.16453095235331, 1.19879707915242, -1.24968041893845], a = 0.2, v = 0.2, t = 0.2)
movej(p[0.43322461614287, -0.0916738920933804, 0.44410364961313, -1.15132679983199, 1.20227267420964, -1.24009938813664], a = 0.2, v = 0.2, t = 0.2)
movej(p[0.433220688857936, -0.091666434827724, 0.444060882815004, -1.13933444730425, 1.20754968890191, -1.22785985919208], a = 0.2, v = 0.2, t = 0.2)
movej(p[0.432952875200968, -0.0916939266122491, 0.443971867797809, -1.13933560208229, 1.20677559556127, -1.22899807402031], a = 0.2, v = 0.2, t = 0.2)
movej(p[0.432432853087012, -0.0918119673115051, 0.443981611067095, -1.14297217345044, 1.20525788987235, -1.23339638732206], a = 0.2, v = 0.2, t = 0.2)
movej(p[0.431694769199657, -0.0917943787139397, 0.443920489184245, -1.13976715441689, 1.20112464213437, -1.24300612501487], a = 0.2, v = 0.2, t = 0.2)
movej(p[0.431008251264316, -0.091626014695939, 0.443853309208829, -1.14015364703412, 1.19617292787527, -1.25142350513438], a = 0.2, v = 0.2, t = 0.2)
movej(p[0.430359863911699, -0.0915251377789414, 0.443812027033691, -1.13056394513841, 1.19241726602608, -1.24124094256096], a = 0.2, v = 0.2, t = 0.2)
movej(p[0.429772157077822, -0.0914091223755928, 0.443835785436506, -1.13462991918271, 1.18606729864616, -1.25054339949027], a = 0.2, v = 0.2, t = 0.2)
movej(p[0.429557717567531, -0.0912310197346319, 0.443849098124166, -1.13897160020499, 1.18004023829755, -1.25308774430158], a = 0.2, v = 0.2, t = 0.2)
movej(p[0.429788794548897, -0.0910933987507754, 0.443918229427388, -1.14760781298486, 1.17399653398366, -1.26102071691132], a = 0.2, v = 0.2, t = 0.2)
movej(p[0.430499636179533, -0.0912155938305911, 0.444079335678116, -1.15210306003103, 1.17282213951877, -1.25843631931177], a = 0.2, v = 0.2, t = 0.2)
movej(p[0.431360586099175, -0.0912969929837324, 0.44415780945988, -1.15399884834324, 1.1764239532649, -1.26217325067453], a = 0.2, v = 0.2, t = 0.2)
movej(p[0.43230965002422, -0.0913141382705626, 0.444168119233978, -1.15995176610104, 1.18439480206776, -1.25996950393219], a = 0.2, v = 0.2, t = 0.2)
movej(p[0.432903062923334, -0.0913980732263784, 0.44418574730074, -1.15841929461389, 1.19309936527316, -1.24600161180225], a = 0.2, v = 0.2, t = 0.2)
movej(p[0.433163776661602, -0.0916045807351845, 0.444283638923213, -1.1611564992455, 1.19752428879154, -1.24239948980059], a = 0.2, v = 0.2, t = 0.2)
movej(p[0.433290267855537, -0.0916565664839568, 0.44423370680548, -1.15016286085361, 1.2031847522519, -1.22797988912906], a = 0.2, v = 0.2, t = 0.2)
movej(p[0.433355903598956, -0.0917000525367164, 0.44418587657026, -1.15435272339994, 1.20305195427629, -1.2326522196376], a = 0.2, v = 0.2, t = 0.2)
movej(p[0.43332334560742, -0.0917977679517344, 0.444147744648528, -1.14423518623425, 1.20662914893479, -1.22310767205833], a = 0.2, v = 0.2, t = 0.2)
movej(p[0.433168849189965, -0.0918557441742939, 0.444086881484698, -1.15399616945085, 1.20307814795724, -1.24508391652739], a = 0.2, v = 0.2, t = 0.2)
movej(p[0.432822848102422, -0.0919485934420888, 0.44395159975094, -1.1542391952051, 1.20198112352916, -1.24768933552217], a = 0.2, v = 0.2, t = 0.2)
movej(p[0.432201841055295, -0.0918586247843331, 0.443877869812372, -1.15533691058255, 1.1986226048519, -1.25309483955524], a = 0.2, v = 0.2, t = 0.2)
movej(p[0.431349686796457, -0.0919378481790184, 0.443918350448222, -1.14525474306514, 1.19687250313639, -1.25011255227288], a = 0.2, v = 0.2, t = 0.2)
movej(p[0.430718406628456, -0.0917371291504784, 0.443861915204177, -1.1372515139793, 1.19416760265245, -1.25067245839998], a = 0.2, v = 0.2, t = 0.2)
movej(p[0.430176858217813, -0.0914794202576168, 0.443811701381676, -1.13556341400317, 1.18902611815373, -1.25205579045224], a = 0.2, v = 0.2, t = 0.2)
movej(p[0.429762663650817, -0.0913687688219329, 0.443829362833708, -1.14187182251989, 1.18082673973459, -1.25507389749639], a = 0.2, v = 0.2, t = 0.2)
movej(p[0.429613765505066, -0.0913517703594577, 0.443959035521817, -1.14653013196129, 1.17530491750112, -1.26314125948497], a = 0.2, v = 0.2, t = 0.2)
movej(p[0.430056685340637, -0.091280083014629, 0.444067553355765, -1.15315174869605, 1.17264747352694, -1.26599301789851], a = 0.2, v = 0.2, t = 0.2)
movej(p[0.430949690509063, -0.0913066734647741, 0.444170596375559, -1.14727220958952, 1.17704438955296, -1.25064725116797], a = 0.2, v = 0.2, t = 0.2)
movej(p[0.431873249464713, -0.0913753128577062, 0.444263855720036, -1.1448968948496, 1.18384123096515, -1.2405679985926], a = 0.2, v = 0.2, t = 0.2)
