def moving():
set_payload_mass(0.606)
set_tcp(p[0.0005,0.0025,0.058,0,0,0])
movej(p[0.5348, -0.0101, 0.1842, -1.198, 1.201, -1.221], a = 0.2, v = 0.2, t = 0.2)
movej(p[0.534849041975008, -0.0101501210227445, 0.184250820938267, -1.19713837063127, 1.20011968084904, -1.22012440477063], a = 0.2, v = 0.2, t = 0.2)
movej(p[0.5348, -0.0101, 0.1842, -1.198, 1.201, -1.221], a = 0.2, v = 0.2, t = 0.2)
movej(p[0.534849041975008, -0.0101501210227445, 0.184250820938267, -1.19713837063127, 1.20011968084904, -1.22012440477063], a = 0.2, v = 0.2, t = 0.2)
movej(p[0.5348, -0.0101, 0.1842, -1.198, 1.201, -1.221], a = 0.2, v = 0.2, t = 0.2)
movej(p[0.5348, -0.0101, 0.1842, -1.198, 1.201, -1.221], a = 0.2, v = 0.2, t = 0.2)
movej(p[0.534534293474325, -0.00939031542922897, 0.184610143732395, -1.20391098036506, 1.18192161815888, -1.22289886175541], a = 0.2, v = 0.2, t = 0.2)
movej(p[0.534130769956504, -0.00863604601958343, 0.185178095554946, -1.20258336325945, 1.17498711515419, -1.22486394635159], a = 0.2, v = 0.2, t = 0.2)
movej(p[0.533853475811809, -0.00808201270250762, 0.185563375120181, -1.20535747934995, 1.16550856444194, -1.22791858517294], a = 0.2, v = 0.2, t = 0.2)
movej(p[0.53368760261308, -0.00770636771760994, 0.1857790826705, -1.20609964058652, 1.15705539501677, -1.2281629893607], a = 0.2, v = 0.2, t = 0.2)
movej(p[0.533662750470888, -0.00728351924046533, 0.185884499777295, -1.21152032233822, 1.14676109584567, -1.22557825160114], a = 0.2, v = 0.2, t = 0.2)
movej(p[0.533641523718362, -0.00706826841171504, 0.185907120248102, -1.21641693811098, 1.14384406956768, -1.22241255623511], a = 0.2, v = 0.2, t = 0.2)
movej(p[0.533735136700492, -0.00698288101769126, 0.185871972097103, -1.21895196947377, 1.1463188539253, -1.22023180267225], a = 0.2, v = 0.2, t = 0.2)
movej(p[0.534075677715184, -0.00710017588919676, 0.185546589618578, -1.22046216822862, 1.14434811838555, -1.21769966882713], a = 0.2, v = 0.2, t = 0.2)
movej(p[0.534965622843025, -0.00704906508053527, 0.184883940681682, -1.22802912728506, 1.1487255119399, -1.20424673007277], a = 0.2, v = 0.2, t = 0.2)
movej(p[0.536317907086649, -0.00735785887533843, 0.183832449845137, -1.23428363201007, 1.17294747053505, -1.18036438446454], a = 0.2, v = 0.2, t = 0.2)
movej(p[0.537361945090945, -0.00833851775965291, 0.182734844923591, -1.23505212893378, 1.20672681503959, -1.16622271866895], a = 0.2, v = 0.2, t = 0.2)
movej(p[0.538085600065646, -0.00940122849827183, 0.181669582845972, -1.22678301721787, 1.23579808857243, -1.15444180935412], a = 0.2, v = 0.2, t = 0.2)
movej(p[0.538499939983412, -0.0104514554994133, 0.180606949979588, -1.21826423811756, 1.25356882429935, -1.1484423576454], a = 0.2, v = 0.2, t = 0.2)
movej(p[0.538719714166176, -0.0113046622602792, 0.179826715359808, -1.20651434178576, 1.26717363926255, -1.14274769288471], a = 0.2, v = 0.2, t = 0.2)
movej(p[0.538669604986405, -0.0119424536869236, 0.179585883413834, -1.19523804770752, 1.27756347788527, -1.14090075289059], a = 0.2, v = 0.2, t = 0.2)
movej(p[0.538330046930313, -0.0119947220380652, 0.180071172653373, -1.19186116537403, 1.26644814236395, -1.15262379589489], a = 0.2, v = 0.2, t = 0.2)
movej(p[0.537619962246943, -0.0113885351647311, 0.181213549463817, -1.19295551026711, 1.24621122611511, -1.17132354279593], a = 0.2, v = 0.2, t = 0.2)
movej(p[0.536557552659542, -0.0105453245681184, 0.182584563937394, -1.19972555196797, 1.21520438580527, -1.19409788821236], a = 0.2, v = 0.2, t = 0.2)
movej(p[0.535253988862615, -0.00968629564240727, 0.183992463002503, -1.20129732296588, 1.18743811593657, -1.21631360927365], a = 0.2, v = 0.2, t = 0.2)
movej(p[0.534305074489792, -0.00891798389616378, 0.184890413867269, -1.20392902752744, 1.16376988220431, -1.2259386816931], a = 0.2, v = 0.2, t = 0.2)
movej(p[0.534007363727348, -0.00803579950559908, 0.185392565314015, -1.21005494948187, 1.14592651830209, -1.22331230518481], a = 0.2, v = 0.2, t = 0.2)
movej(p[0.533941763360277, -0.00750760425186779, 0.185616476132592, -1.2128768004716, 1.15232764219788, -1.21804172419651], a = 0.2, v = 0.2, t = 0.2)
movej(p[0.533836486369266, -0.00755051104012635, 0.185663463841464, -1.21559187567096, 1.15194874538584, -1.21818196485676], a = 0.2, v = 0.2, t = 0.2)
movej(p[0.533623916671829, -0.00751285530655291, 0.185784539560998, -1.21417072308631, 1.14900678980418, -1.22574000623619], a = 0.2, v = 0.2, t = 0.2)
movej(p[0.533504913347316, -0.00736164782852558, 0.185853602266877, -1.2149171677876, 1.13572464861797, -1.23163924189879], a = 0.2, v = 0.2, t = 0.2)
movej(p[0.533676984899263, -0.00675651181379168, 0.185962244637444, -1.21865936534264, 1.12431402760877, -1.22703056456826], a = 0.2, v = 0.2, t = 0.2)
movej(p[0.534021334060265, -0.00646180960708566, 0.185873928933409, -1.22423997378597, 1.12994298962579, -1.21833582597628], a = 0.2, v = 0.2, t = 0.2)
movej(p[0.534442994009317, -0.00677391286082341, 0.185582947076977, -1.22630017709671, 1.14234171399428, -1.21091517490676], a = 0.2, v = 0.2, t = 0.2)
movej(p[0.535109774160214, -0.00718562803976165, 0.184936819664464, -1.22458395695629, 1.16552791139208, -1.19956168538517], a = 0.2, v = 0.2, t = 0.2)
movej(p[0.536116124578857, -0.0076528612905342, 0.183998552444388, -1.22655556243605, 1.17820183000284, -1.18489346227827], a = 0.2, v = 0.2, t = 0.2)
movej(p[0.537176750178169, -0.00812669648210335, 0.183038047183905, -1.2296278773568, 1.20023958892614, -1.17045533135702], a = 0.2, v = 0.2, t = 0.2)
movej(p[0.538026711849265, -0.00896345180224123, 0.181983799991882, -1.22884140009488, 1.2265709776192, -1.15536295251806], a = 0.2, v = 0.2, t = 0.2)
movej(p[0.538521933251891, -0.0100034806828273, 0.180877701821588, -1.22087965551776, 1.25411231884648, -1.14206186858542], a = 0.2, v = 0.2, t = 0.2)
movej(p[0.538774572973069, -0.010923386741542, 0.179932469698338, -1.21241311471974, 1.267386188869, -1.13458771140098], a = 0.2, v = 0.2, t = 0.2)
movej(p[0.538821746060155, -0.0118003656807602, 0.179212814690697, -1.20028579011808, 1.27988765068576, -1.13175388390746], a = 0.2, v = 0.2, t = 0.2)
movej(p[0.538651854765317, -0.0124626334034551, 0.178954914474693, -1.18588367544143, 1.29067214125334, -1.13472158787654], a = 0.2, v = 0.2, t = 0.2)
movej(p[0.538432216993158, -0.0127272665859949, 0.178974547807057, -1.17666772797341, 1.29241417898486, -1.13624802351817], a = 0.2, v = 0.2, t = 0.2)
movej(p[0.538398550953713, -0.0125701641875114, 0.17913403289783, -1.17529752903507, 1.28717925277647, -1.13471609336666], a = 0.2, v = 0.2, t = 0.2)
movej(p[0.53840302839216, -0.012151712611895, 0.179584017476909, -1.18615602577051, 1.2807581685445, -1.13780231114416], a = 0.2, v = 0.2, t = 0.2)
movej(p[0.537971792730696, -0.0118034498201042, 0.180440041338805, -1.18785213531619, 1.27248716154814, -1.15235672032471], a = 0.2, v = 0.2, t = 0.2)
movej(p[0.537025186590882, -0.0111366997860409, 0.181747703702775, -1.19157976991142, 1.24513074352419, -1.1752818165952], a = 0.2, v = 0.2, t = 0.2)
movej(p[0.535818818231332, -0.0101115695822104, 0.183229198707968, -1.1951029958467, 1.21078519579696, -1.19764784567468], a = 0.2, v = 0.2, t = 0.2)
movej(p[0.534787549324285, -0.0091757016098378, 0.184361870021368, -1.19919398366157, 1.18706018460951, -1.20944299862761], a = 0.2, v = 0.2, t = 0.2)
movej(p[0.534196478688168, -0.00859437406893126, 0.185028711355273, -1.20472225507516, 1.17272243392046, -1.2173999305978], a = 0.2, v = 0.2, t = 0.2)
movej(p[0.533814460099046, -0.00825610118175466, 0.18543828720889, -1.20526865666494, 1.16440612760865, -1.22178667603141], a = 0.2, v = 0.2, t = 0.2)
movej(p[0.533731717448704, -0.00765148629828467, 0.185726589231951, -1.21439896590564, 1.14624013371877, -1.22137493532675], a = 0.2, v = 0.2, t = 0.2)
movej(p[0.533611582789034, -0.00735515111308173, 0.185851720009767, -1.21673425317116, 1.14882945944594, -1.22062893001275], a = 0.2, v = 0.2, t = 0.2)
movej(p[0.533561488045129, -0.00727684320103065, 0.185931935329646, -1.21680502002721, 1.15181121416143, -1.2226388014384], a = 0.2, v = 0.2, t = 0.2)
movej(p[0.533526212557589, -0.00725090881620199, 0.185917469588657, -1.2145281840054, 1.1507871671961, -1.22544008434406], a = 0.2, v = 0.2, t = 0.2)
movej(p[0.533904014133681, -0.00703196913238356, 0.185733792252135, -1.21750861872517, 1.14048726473749, -1.22150126477805], a = 0.2, v = 0.2, t = 0.2)
movej(p[0.534795899652447, -0.00686907069445049, 0.185161993068578, -1.22970986372344, 1.13971512819128, -1.20374871913579], a = 0.2, v = 0.2, t = 0.2)
movej(p[0.535875749259711, -0.0073612440076332, 0.184318806997296, -1.23547068727017, 1.16941360135157, -1.19009401206075], a = 0.2, v = 0.2, t = 0.2)
movej(p[0.536789212482812, -0.00818158513298471, 0.183409390950759, -1.23823257450786, 1.19781664211568, -1.17686467993044], a = 0.2, v = 0.2, t = 0.2)
movej(p[0.537465612439502, -0.00911522025633846, 0.182312810704024, -1.22943066359449, 1.22531515168776, -1.16532469713009], a = 0.2, v = 0.2, t = 0.2)
movej(p[0.538140365320661, -0.0100384872877575, 0.181083719822483, -1.2203503670398, 1.24199089518067, -1.15090666087725], a = 0.2, v = 0.2, t = 0.2)
movej(p[0.5387657281014, -0.0108085321695813, 0.179937888696851, -1.21211678868879, 1.25740741679766, -1.13718197478992], a = 0.2, v = 0.2, t = 0.2)
movej(p[0.539003734408761, -0.0116481703908338, 0.179326903799273, -1.20061001473242, 1.27651449224907, -1.13541188035628], a = 0.2, v = 0.2, t = 0.2)
movej(p[0.538801370225908, -0.0122422640696134, 0.17931151164763, -1.19142088555481, 1.28220445724447, -1.13709830396044], a = 0.2, v = 0.2, t = 0.2)
movej(p[0.538431120170606, -0.0123074191859055, 0.179736182140329, -1.19114085533934, 1.2754686317654, -1.14297548454497], a = 0.2, v = 0.2, t = 0.2)
movej(p[0.538096625696511, -0.0118935812225225, 0.180465236992081, -1.19691175806778, 1.25795662843103, -1.15301350569556], a = 0.2, v = 0.2, t = 0.2)
movej(p[0.537618548557672, -0.0109346262434816, 0.181528256551587, -1.20434397439092, 1.23412533980637, -1.16681359872697], a = 0.2, v = 0.2, t = 0.2)
movej(p[0.536664785125233, -0.0101582007027194, 0.182757064730553, -1.20223410184118, 1.22625166722939, -1.18599283806433], a = 0.2, v = 0.2, t = 0.2)
movej(p[0.535517398793769, -0.00963598575710933, 0.183905096249612, -1.19924615584096, 1.20808383101933, -1.20355688311432], a = 0.2, v = 0.2, t = 0.2)
movej(p[0.534569366854811, -0.00908773611944171, 0.184698316378777, -1.20145179060235, 1.18609157460794, -1.21265065214731], a = 0.2, v = 0.2, t = 0.2)
movej(p[0.534232423152617, -0.00843728146724941, 0.185195667232595, -1.20565113725948, 1.1667335922177, -1.214033572344], a = 0.2, v = 0.2, t = 0.2)
movej(p[0.534029971777923, -0.00795404045578695, 0.185515321877681, -1.20399770766592, 1.16470927747675, -1.21279412167187], a = 0.2, v = 0.2, t = 0.2)
movej(p[0.533909628622169, -0.00769467674074189, 0.185700037882892, -1.20271103073013, 1.1704083797573, -1.21469585197762], a = 0.2, v = 0.2, t = 0.2)
movej(p[0.533841498838431, -0.00741256367221555, 0.18578864338348, -1.20640818257942, 1.1613585412592, -1.21421177878351], a = 0.2, v = 0.2, t = 0.2)
movej(p[0.533874839661018, -0.00709120063554396, 0.185888620763974, -1.21346631738443, 1.15662260631817, -1.2149549515573], a = 0.2, v = 0.2, t = 0.2)
movej(p[0.533959849370389, -0.00701097463243113, 0.185899265299528, -1.21882740646142, 1.14898954638985, -1.21602177360923], a = 0.2, v = 0.2, t = 0.2)
movej(p[0.534035555114121, -0.00708579967652551, 0.185820310304485, -1.21814868194054, 1.15138611059729, -1.2200255491168], a = 0.2, v = 0.2, t = 0.2)
movej(p[0.534410138775844, -0.00708270297885518, 0.185471347583075, -1.22072204602232, 1.14502798648243, -1.21484604230944], a = 0.2, v = 0.2, t = 0.2)
movej(p[0.535265028065188, -0.00704446382188593, 0.184792141832776, -1.22083607810228, 1.15349500104513, -1.19746038243034], a = 0.2, v = 0.2, t = 0.2)
movej(p[0.536453830826259, -0.00752172274973323, 0.183820614297881, -1.22774365871947, 1.17945098716698, -1.17988786851821], a = 0.2, v = 0.2, t = 0.2)
movej(p[0.537375744199646, -0.00850781788272955, 0.182812426512421, -1.22465862859872, 1.21243541996001, -1.1673989725676], a = 0.2, v = 0.2, t = 0.2)
movej(p[0.538050978230059, -0.00953699053935792, 0.181710390649156, -1.22080262807072, 1.24128936883319, -1.15656025986173], a = 0.2, v = 0.2, t = 0.2)
movej(p[0.538571512911197, -0.0105204189627155, 0.180566226665164, -1.21563821109671, 1.25690870589525, -1.14453371402439], a = 0.2, v = 0.2, t = 0.2)
movej(p[0.538913937421093, -0.0114141976365918, 0.179582522365261, -1.20838620843366, 1.27298307082603, -1.13429090061609], a = 0.2, v = 0.2, t = 0.2)
movej(p[0.538982611589931, -0.0122883714204709, 0.179051689958458, -1.20171655279751, 1.27805883001423, -1.13433545240874], a = 0.2, v = 0.2, t = 0.2)
movej(p[0.538805022603785, -0.0126708719113584, 0.179085790053336, -1.1935741646555, 1.27853340281564, -1.13527598942124], a = 0.2, v = 0.2, t = 0.2)
movej(p[0.538513522553044, -0.0125028170148151, 0.179638688572203, -1.19256360761531, 1.26981686283351, -1.14674708106307], a = 0.2, v = 0.2, t = 0.2)
movej(p[0.537923888897625, -0.0119757901607219, 0.180690261521391, -1.1945958087679, 1.25413786371892, -1.16586656856377], a = 0.2, v = 0.2, t = 0.2)
movej(p[0.536935108803372, -0.011169628983772, 0.182096519528297, -1.19456432062436, 1.22866365260245, -1.18914500165249], a = 0.2, v = 0.2, t = 0.2)
movej(p[0.535935365160976, -0.0101948723636191, 0.18337382281445, -1.19687394330986, 1.19817814861739, -1.20459055515258], a = 0.2, v = 0.2, t = 0.2)
movej(p[0.535245606709914, -0.00908720439729771, 0.184324750123152, -1.20469331550336, 1.17345821438826, -1.2074741963567], a = 0.2, v = 0.2, t = 0.2)
movej(p[0.534801047291132, -0.00840421593835488, 0.184882419323227, -1.20813008954143, 1.17491507907149, -1.20901045134903], a = 0.2, v = 0.2, t = 0.2)
movej(p[0.534422352453654, -0.00835051351704365, 0.185128596262534, -1.20642781679581, 1.17158979592072, -1.213296163475], a = 0.2, v = 0.2, t = 0.2)
movej(p[0.534052347653845, -0.00825920386201552, 0.185350302114999, -1.20655643444227, 1.16554444031278, -1.22087893202504], a = 0.2, v = 0.2, t = 0.2)
movej(p[0.533823744903616, -0.00804097339023722, 0.185516652148889, -1.20672012648222, 1.15023182636557, -1.22727072682172], a = 0.2, v = 0.2, t = 0.2)
movej(p[0.533902595310112, -0.0074390613540667, 0.185643764465398, -1.21198155433053, 1.14101506722869, -1.22415395269915], a = 0.2, v = 0.2, t = 0.2)
movej(p[0.534105777811282, -0.00687202148479499, 0.18572913571568, -1.21415511382771, 1.14489197478319, -1.21438807608329], a = 0.2, v = 0.2, t = 0.2)
movej(p[0.534173781201735, -0.0070086957634979, 0.185657407893825, -1.21435439482767, 1.15109646745799, -1.21185403432242], a = 0.2, v = 0.2, t = 0.2)
movej(p[0.534275195320968, -0.00714852687518539, 0.185538962087127, -1.213857261196, 1.15611789573659, -1.21254085848709], a = 0.2, v = 0.2, t = 0.2)
movej(p[0.53460417175053, -0.00725922224372266, 0.185188116165564, -1.21761605240483, 1.15067226209394, -1.21063521772839], a = 0.2, v = 0.2, t = 0.2)
movej(p[0.535362794802406, -0.00728655956418816, 0.184682841212225, -1.22047101322995, 1.16561952092397, -1.19992412073166], a = 0.2, v = 0.2, t = 0.2)
movej(p[0.536193287291326, -0.00755925393839942, 0.183983341871395, -1.22188095397428, 1.18486614741073, -1.18623780774099], a = 0.2, v = 0.2, t = 0.2)
movej(p[0.537061780350693, -0.00826753927926141, 0.182954698907024, -1.21968162357496, 1.20986719876523, -1.17347597630094], a = 0.2, v = 0.2, t = 0.2)
movej(p[0.537742185661663, -0.00923139518727933, 0.181834090628506, -1.21853876126924, 1.2270996050543, -1.16535966185268], a = 0.2, v = 0.2, t = 0.2)
movej(p[0.53835984313474, -0.0101622467274819, 0.180566992346335, -1.21680880543604, 1.24479795734503, -1.15104896528375], a = 0.2, v = 0.2, t = 0.2)
movej(p[0.53883890714042, -0.0111465422440001, 0.179489741614032, -1.21197038887366, 1.26430991290774, -1.13937768736605], a = 0.2, v = 0.2, t = 0.2)
movej(p[0.539224013103725, -0.0119498433295695, 0.178564756153092, -1.20253075647897, 1.28040494886207, -1.12609454611565], a = 0.2, v = 0.2, t = 0.2)
movej(p[0.539212409430719, -0.0128130542223671, 0.178167460344747, -1.19064086022416, 1.29372569520929, -1.12700045212578], a = 0.2, v = 0.2, t = 0.2)
movej(p[0.538934105834106, -0.0132878791185655, 0.178297128328701, -1.17860574959731, 1.3022610966906, -1.12932515596437], a = 0.2, v = 0.2, t = 0.2)
movej(p[0.538564675986106, -0.0132883055405568, 0.178783073639997, -1.17536432285633, 1.29923531212514, -1.13616418220205], a = 0.2, v = 0.2, t = 0.2)
movej(p[0.538332527139464, -0.0126536355217814, 0.179609019594809, -1.18185882940887, 1.2777133222104, -1.14261341239984], a = 0.2, v = 0.2, t = 0.2)
movej(p[0.537845677824961, -0.011704606385309, 0.180743342667437, -1.19353250787635, 1.25657369081701, -1.15665168028996], a = 0.2, v = 0.2, t = 0.2)
movej(p[0.536678259990235, -0.0109434034004876, 0.182157134912132, -1.19369356095059, 1.24261998407904, -1.18145938481793], a = 0.2, v = 0.2, t = 0.2)
movej(p[0.535373839102101, -0.0102998892378914, 0.183450597150676, -1.19107966085317, 1.22348405947612, -1.20139418515969], a = 0.2, v = 0.2, t = 0.2)
movej(p[0.534355128287958, -0.00969359906113656, 0.184336383119248, -1.19061471159294, 1.19716804674178, -1.21804489547274], a = 0.2, v = 0.2, t = 0.2)
movej(p[0.533963832769776, -0.00894175062436726, 0.184907266275137, -1.19645606764569, 1.16681800132169, -1.22455218248181], a = 0.2, v = 0.2, t = 0.2)
movej(p[0.533871841850946, -0.00803078783009253, 0.185288896444411, -1.20803249088894, 1.15102093567363, -1.22250513299758], a = 0.2, v = 0.2, t = 0.2)
movej(p[0.533793950555023, -0.0077496817304173, 0.185446071193162, -1.20620863826119, 1.16090246162008, -1.21984992258818], a = 0.2, v = 0.2, t = 0.2)
movej(p[0.533695198983768, -0.00775094242893553, 0.185528464095246, -1.2061656496701, 1.16010819567629, -1.2203485714612], a = 0.2, v = 0.2, t = 0.2)
movej(p[0.533685568870921, -0.00768635190135452, 0.185502679900991, -1.20886339961436, 1.1541709114803, -1.22097354864672], a = 0.2, v = 0.2, t = 0.2)
movej(p[0.53422522132839, -0.00753752900092175, 0.185245375199412, -1.22016377997939, 1.1490613728508, -1.21573076253113], a = 0.2, v = 0.2, t = 0.2)
movej(p[0.534979024257401, -0.00757037896338236, 0.184770286408363, -1.22612958809162, 1.16259400956464, -1.20259681181224], a = 0.2, v = 0.2, t = 0.2)
movej(p[0.53592784191415, -0.00797664497431191, 0.183877212385504, -1.22147786044711, 1.19159676258499, -1.1869901835996], a = 0.2, v = 0.2, t = 0.2)
movej(p[0.536890237284735, -0.00867344915069962, 0.182672004261177, -1.2205669506937, 1.21277355255484, -1.16936445386783], a = 0.2, v = 0.2, t = 0.2)
movej(p[0.537802693160126, -0.00947676964529318, 0.181392956978028, -1.21724549588582, 1.2367216090209, -1.1539288163757], a = 0.2, v = 0.2, t = 0.2)
movej(p[0.538360829195249, -0.0105962011100323, 0.180358046069568, -1.21276818803577, 1.2547879995667, -1.14683884723347], a = 0.2, v = 0.2, t = 0.2)
movej(p[0.538474484650499, -0.0114189914701673, 0.179977661861614, -1.2047039604718, 1.25921893333554, -1.15232837949988], a = 0.2, v = 0.2, t = 0.2)
movej(p[0.538250281584702, -0.01137333102234, 0.180401284687712, -1.20745960246523, 1.23898576636686, -1.16428800029444], a = 0.2, v = 0.2, t = 0.2)
movej(p[0.537604207595832, -0.0106374471681523, 0.181550594358102, -1.21423949444383, 1.21700240848781, -1.18002468892153], a = 0.2, v = 0.2, t = 0.2)
movej(p[0.536559080155132, -0.0100063998390741, 0.182861320874221, -1.20969665067464, 1.20564252571457, -1.19643910630992], a = 0.2, v = 0.2, t = 0.2)
movej(p[0.535389243344379, -0.00942971529493238, 0.183927350519426, -1.20555371505613, 1.19504174389336, -1.21291690891644], a = 0.2, v = 0.2, t = 0.2)
movej(p[0.534573901704736, -0.00879014767091149, 0.184654447440591, -1.20303663501563, 1.17530316544879, -1.2199948574586], a = 0.2, v = 0.2, t = 0.2)
movej(p[0.534223237387729, -0.00820246009518976, 0.185091083869924, -1.20514019790778, 1.16577412423147, -1.2230760924351], a = 0.2, v = 0.2, t = 0.2)
movej(p[0.534064187026976, -0.00786216177390451, 0.185346691974794, -1.20840886300934, 1.15883660128227, -1.2197681407887], a = 0.2, v = 0.2, t = 0.2)
movej(p[0.533878614692788, -0.00770530707943591, 0.185432287629514, -1.21002614210774, 1.15733975743462, -1.22469351945525], a = 0.2, v = 0.2, t = 0.2)
movej(p[0.533842703700654, -0.00731312742448875, 0.185528312841774, -1.21478400561581, 1.14039619020198, -1.22554259717248], a = 0.2, v = 0.2, t = 0.2)
movej(p[0.533978012202673, -0.00683119794788164, 0.185554591421615, -1.21829378229636, 1.13119557926818, -1.2225948431925], a = 0.2, v = 0.2, t = 0.2)
movej(p[0.534154410702133, -0.00675085322640126, 0.18554034589184, -1.21947052794202, 1.1417246658318, -1.21722553805678], a = 0.2, v = 0.2, t = 0.2)
movej(p[0.534302713584481, -0.00705110002558906, 0.185378124508648, -1.21587597420483, 1.15377464383574, -1.21240032760736], a = 0.2, v = 0.2, t = 0.2)
movej(p[0.534526051518016, -0.0072956317924531, 0.18506026112095, -1.21449191389107, 1.16392203499565, -1.21016978815602], a = 0.2, v = 0.2, t = 0.2)
movej(p[0.535271013935155, -0.00760292649518537, 0.184314114860742, -1.21766985460216, 1.16817668234123, -1.19822672212716], a = 0.2, v = 0.2, t = 0.2)
movej(p[0.536538018050623, -0.00790396517755904, 0.183148989760119, -1.22625902153165, 1.18217226163399, -1.17750847436437], a = 0.2, v = 0.2, t = 0.2)
movej(p[0.537852655556391, -0.00872773834108761, 0.181888667236525, -1.22955412741378, 1.21191477975461, -1.15606795119491], a = 0.2, v = 0.2, t = 0.2)
movej(p[0.538664999670416, -0.0100544755532546, 0.180662947329552, -1.22021770265169, 1.24840643764546, -1.14392941218236], a = 0.2, v = 0.2, t = 0.2)
movej(p[0.538978517655344, -0.0112961823932986, 0.179636494262528, -1.20840985904498, 1.27205179711125, -1.13876741426253], a = 0.2, v = 0.2, t = 0.2)
movej(p[0.539008721667454, -0.0120752726287528, 0.17896708387818, -1.20428172603845, 1.27311507654018, -1.13803110823493], a = 0.2, v = 0.2, t = 0.2)
movej(p[0.538955735088835, -0.012413136927285, 0.178870361190751, -1.19850074039873, 1.2725618663432, -1.14275433888014], a = 0.2, v = 0.2, t = 0.2)
movej(p[0.538668697145665, -0.0124100495945333, 0.179449092101932, -1.19372537071384, 1.26515267940582, -1.15299819957766], a = 0.2, v = 0.2, t = 0.2)
movej(p[0.538136566932633, -0.0119213484951313, 0.180474573277685, -1.19203620730121, 1.25232068484089, -1.16445987833917], a = 0.2, v = 0.2, t = 0.2)
movej(p[0.537364416200798, -0.0110833482787632, 0.18172385609226, -1.19359910424408, 1.23993602925342, -1.1765703583918], a = 0.2, v = 0.2, t = 0.2)
movej(p[0.53641511818485, -0.0102850474370856, 0.182899574334652, -1.19852370076004, 1.22007824633672, -1.19033346829772], a = 0.2, v = 0.2, t = 0.2)
movej(p[0.53544662290433, -0.00954816912165089, 0.183939608579451, -1.19290070839192, 1.20169829630253, -1.20468774781865], a = 0.2, v = 0.2, t = 0.2)
movej(p[0.534753330900133, -0.00893622255712671, 0.184592542152769, -1.19362317055721, 1.17776948089402, -1.21217644322389], a = 0.2, v = 0.2, t = 0.2)
movej(p[0.534494759611347, -0.00815749227509712, 0.185015806767579, -1.1983759376944, 1.15944520656309, -1.21075522520325], a = 0.2, v = 0.2, t = 0.2)
movej(p[0.534479090221557, -0.00761742612140499, 0.185241798773765, -1.20311943434028, 1.16056615809184, -1.20554233258622], a = 0.2, v = 0.2, t = 0.2)
movej(p[0.53431479414308, -0.00768217175549704, 0.185281886321244, -1.20546976643051, 1.1633962739805, -1.20642009976786], a = 0.2, v = 0.2, t = 0.2)
movej(p[0.534105142896617, -0.00768611118494927, 0.185365292159483, -1.20317648272533, 1.16369737486617, -1.21299875358411], a = 0.2, v = 0.2, t = 0.2)
movej(p[0.533916584152819, -0.00758759338934496, 0.185427571723439, -1.20440615240508, 1.1509756703719, -1.22174357823788], a = 0.2, v = 0.2, t = 0.2)
movej(p[0.534099806985733, -0.00703754859824412, 0.185518394483702, -1.21440263141653, 1.13285833689233, -1.21917029165356], a = 0.2, v = 0.2, t = 0.2)
movej(p[0.534294301801682, -0.00667123315710695, 0.185528177747666, -1.22124714727369, 1.1354515676878, -1.21379692267321], a = 0.2, v = 0.2, t = 0.2)
movej(p[0.534477729393138, -0.00687719398448308, 0.185435359337966, -1.22465431323435, 1.14516117050412, -1.21127282000297], a = 0.2, v = 0.2, t = 0.2)
movej(p[0.534645268289599, -0.00707079653210586, 0.185195369749387, -1.22118295308772, 1.15216203956649, -1.21116996006951], a = 0.2, v = 0.2, t = 0.2)
movej(p[0.535210987602334, -0.00727629117707776, 0.184616590703303, -1.22478964832399, 1.14751779085169, -1.20724870838915], a = 0.2, v = 0.2, t = 0.2)
movej(p[0.5362567064948, -0.00742709610410516, 0.183635703323669, -1.23337916400131, 1.1593187617481, -1.18949867948383], a = 0.2, v = 0.2, t = 0.2)
movej(p[0.53742514741025, -0.00807505874575988, 0.182479542054761, -1.23668530267525, 1.19041616189838, -1.16789500318344], a = 0.2, v = 0.2, t = 0.2)
movej(p[0.53820532506111, -0.00928211822738695, 0.181296899414987, -1.22662287523015, 1.23253438914804, -1.14986108722967], a = 0.2, v = 0.2, t = 0.2)
movej(p[0.538628289379339, -0.0105358926611048, 0.180083325550831, -1.21271790177821, 1.25955985355787, -1.13886343061725], a = 0.2, v = 0.2, t = 0.2)
movej(p[0.538833440186848, -0.0115602827950153, 0.179089237607979, -1.20158546368269, 1.27361347076954, -1.13624525214], a = 0.2, v = 0.2, t = 0.2)
movej(p[0.538885701444291, -0.0121789269976027, 0.178627910520572, -1.19729302594134, 1.27203313535744, -1.1401641490105], a = 0.2, v = 0.2, t = 0.2)
movej(p[0.538753189229144, -0.0123599822850187, 0.178826529139376, -1.18906221061449, 1.27019277468426, -1.14313446867391], a = 0.2, v = 0.2, t = 0.2)
movej(p[0.538453535183757, -0.0120035638412308, 0.179576213903801, -1.18909023541952, 1.26038592212021, -1.15159028940921], a = 0.2, v = 0.2, t = 0.2)
movej(p[0.537887384285689, -0.0113579749008802, 0.18066056492202, -1.18820314487513, 1.25300680792564, -1.16161482371825], a = 0.2, v = 0.2, t = 0.2)
movej(p[0.537071216157639, -0.0106830222781487, 0.181857971242499, -1.1925469926977, 1.23347793471616, -1.18186345168662], a = 0.2, v = 0.2, t = 0.2)
movej(p[0.53599510452692, -0.0099623686114791, 0.18309894672757, -1.1890968644723, 1.20783120030097, -1.2010185814309], a = 0.2, v = 0.2, t = 0.2)
movej(p[0.535204633109138, -0.00912750744483728, 0.183992345719904, -1.19389907272287, 1.17597289587357, -1.21020833151613], a = 0.2, v = 0.2, t = 0.2)
movej(p[0.534841866186061, -0.00822569699401109, 0.184606770985496, -1.20207488040484, 1.16603020250582, -1.20975854766931], a = 0.2, v = 0.2, t = 0.2)
movej(p[0.534596903687968, -0.00804626137568109, 0.184833188320738, -1.20454794100964, 1.17047820121665, -1.21086366950681], a = 0.2, v = 0.2, t = 0.2)
movej(p[0.534379719329415, -0.00798433617941096, 0.185022921221857, -1.20605394025139, 1.16974772846867, -1.21420045126834], a = 0.2, v = 0.2, t = 0.2)
movej(p[0.534254718930352, -0.00770717906797228, 0.185147774570683, -1.2132736317092, 1.15175178159631, -1.2199751502792], a = 0.2, v = 0.2, t = 0.2)
movej(p[0.534311384340311, -0.00736593967078107, 0.185287437162735, -1.22141643457677, 1.14409263084033, -1.22045418564001], a = 0.2, v = 0.2, t = 0.2)
movej(p[0.53437865893775, -0.00710896313382713, 0.185374943373341, -1.22344571441252, 1.14235666962931, -1.21889007711659], a = 0.2, v = 0.2, t = 0.2)
movej(p[0.534449965846856, -0.00708143719394059, 0.18530949980798, -1.21900448483671, 1.1434840439965, -1.21732490322777], a = 0.2, v = 0.2, t = 0.2)
movej(p[0.53487568199913, -0.00692117534486479, 0.185054733297182, -1.22262074468473, 1.13493669545624, -1.21078140961107], a = 0.2, v = 0.2, t = 0.2)
movej(p[0.535520465939985, -0.00712076350196402, 0.184511560710925, -1.22850034808606, 1.15039323425878, -1.20100314042377], a = 0.2, v = 0.2, t = 0.2)
movej(p[0.536284863999327, -0.00762323113768592, 0.183728482246065, -1.23253362420948, 1.17626384503696, -1.19052969654529], a = 0.2, v = 0.2, t = 0.2)
movej(p[0.536981514380464, -0.00831972553061364, 0.182740038828777, -1.23118980366321, 1.19705141657004, -1.18131696380507], a = 0.2, v = 0.2, t = 0.2)
movej(p[0.53782007633639, -0.00890448273609628, 0.181565456742795, -1.23037111248457, 1.21102784201474, -1.16442003493126], a = 0.2, v = 0.2, t = 0.2)
movej(p[0.538621197267309, -0.00970982119953636, 0.180426429363735, -1.22475081365305, 1.23251581333207, -1.14917991470734], a = 0.2, v = 0.2, t = 0.2)
movej(p[0.53890905273147, -0.0108563007348325, 0.179594917219627, -1.21365834934033, 1.26205270450282, -1.14241320499378], a = 0.2, v = 0.2, t = 0.2)
movej(p[0.538816549952145, -0.0117047433700545, 0.179118218157162, -1.20240752366701, 1.27275166365992, -1.14301970861259], a = 0.2, v = 0.2, t = 0.2)
movej(p[0.538636445201801, -0.0119938223632683, 0.179016660761636, -1.198780045027, 1.26882589111022, -1.14341825756811], a = 0.2, v = 0.2, t = 0.2)
movej(p[0.538349290496943, -0.0116996051477349, 0.179607246111574, -1.19769048228277, 1.26101416493658, -1.15134497542712], a = 0.2, v = 0.2, t = 0.2)
movej(p[0.537710895699944, -0.0111322440882597, 0.180800944227245, -1.1948072831927, 1.25030617605716, -1.16952076599248], a = 0.2, v = 0.2, t = 0.2)
movej(p[0.536547034558345, -0.0102940972310719, 0.182312227358383, -1.19346433378936, 1.22165842848831, -1.19482490131716], a = 0.2, v = 0.2, t = 0.2)
movej(p[0.535544581038217, -0.00933685898753686, 0.183528184055843, -1.19416081239804, 1.19558454765121, -1.2075076004052], a = 0.2, v = 0.2, t = 0.2)
movej(p[0.534818879702576, -0.00877604907062072, 0.184256653356674, -1.19738123804283, 1.17764252836591, -1.21500535684153], a = 0.2, v = 0.2, t = 0.2)
movej(p[0.534429671232339, -0.00841218641704557, 0.184738716876975, -1.19964363768835, 1.17103954263737, -1.22111306895257], a = 0.2, v = 0.2, t = 0.2)
movej(p[0.534132337475523, -0.00813886750010504, 0.185028840570595, -1.20102136519578, 1.1563866445412, -1.22838255014961], a = 0.2, v = 0.2, t = 0.2)
movej(p[0.534107458394621, -0.00760121695418356, 0.185227522744692, -1.20717971855955, 1.14158968221617, -1.2290889948887], a = 0.2, v = 0.2, t = 0.2)
movej(p[0.534249976975258, -0.00706605485339376, 0.185330895081667, -1.21479474780742, 1.13485663847405, -1.22040705173069], a = 0.2, v = 0.2, t = 0.2)
movej(p[0.534318292040963, -0.0070530126737387, 0.185359650584574, -1.21514726319494, 1.14844600386134, -1.21742510518534], a = 0.2, v = 0.2, t = 0.2)
movej(p[0.534311285503299, -0.00720696399289826, 0.185367991966893, -1.21622180681561, 1.15228512350188, -1.21658489327507], a = 0.2, v = 0.2, t = 0.2)
movej(p[0.534249569048123, -0.00727723856909283, 0.185292353127656, -1.2143565510759, 1.1516116443805, -1.22007157974872], a = 0.2, v = 0.2, t = 0.2)
movej(p[0.534580768436107, -0.00715971149380097, 0.185001919786641, -1.22216459011767, 1.1407310311598, -1.21522201332546], a = 0.2, v = 0.2, t = 0.2)
movej(p[0.535310871689216, -0.00697199205513293, 0.184506139580758, -1.23304348922906, 1.14471867330262, -1.20096269689921], a = 0.2, v = 0.2, t = 0.2)
movej(p[0.536213297618103, -0.00733532370241835, 0.183853479383217, -1.23594026517469, 1.16839426649285, -1.18709858044178], a = 0.2, v = 0.2, t = 0.2)
movej(p[0.536972849183804, -0.00804637813975179, 0.183020738273514, -1.23316322956652, 1.20015962321822, -1.17303636149239], a = 0.2, v = 0.2, t = 0.2)
movej(p[0.537559459335499, -0.00889616187082557, 0.181984638746282, -1.22374199129318, 1.22417674480264, -1.16597562826382], a = 0.2, v = 0.2, t = 0.2)
movej(p[0.538119460509205, -0.0098468649419585, 0.180686752952236, -1.21468725110203, 1.24542249963353, -1.15249113276068], a = 0.2, v = 0.2, t = 0.2)
movej(p[0.538722456494549, -0.0107819268918643, 0.17942245367928, -1.21076837200115, 1.25805086798578, -1.13878364183738], a = 0.2, v = 0.2, t = 0.2)
movej(p[0.539000810812269, -0.0118746187917814, 0.178601386959846, -1.2007811160762, 1.27956507948807, -1.13184555228778], a = 0.2, v = 0.2, t = 0.2)
movej(p[0.538892429344793, -0.0126164219224082, 0.178414954149161, -1.19352246042572, 1.28430706416269, -1.13533076384262], a = 0.2, v = 0.2, t = 0.2)
movej(p[0.538644948531324, -0.0127190958399637, 0.178726259423159, -1.18940943254248, 1.28086394194029, -1.14132806758709], a = 0.2, v = 0.2, t = 0.2)
movej(p[0.538309610021395, -0.0121509287619543, 0.179605676045259, -1.19108451132881, 1.26429096007225, -1.15285164745939], a = 0.2, v = 0.2, t = 0.2)
movej(p[0.537671882331069, -0.0113855751388049, 0.180796144656572, -1.19524153921078, 1.24860475286846, -1.16674609616464], a = 0.2, v = 0.2, t = 0.2)
movej(p[0.536706517438468, -0.0104965414846257, 0.182193554451826, -1.19516924665263, 1.22853968319323, -1.18611927815176], a = 0.2, v = 0.2, t = 0.2)
movej(p[0.535726351374031, -0.00961153421016113, 0.183351025198614, -1.19661247979823, 1.21019378154162, -1.19607229222165], a = 0.2, v = 0.2, t = 0.2)
movej(p[0.535066126961454, -0.00898246418662694, 0.184091455095855, -1.19799370946647, 1.19441272483332, -1.20369401114175], a = 0.2, v = 0.2, t = 0.2)
movej(p[0.53465846074869, -0.00856446009349095, 0.184598796159531, -1.20357197499695, 1.17780877675217, -1.21093292046321], a = 0.2, v = 0.2, t = 0.2)
movej(p[0.534358763291901, -0.00823828019744909, 0.184911821178679, -1.2066918934788, 1.16363081144823, -1.21991955973916], a = 0.2, v = 0.2, t = 0.2)
movej(p[0.534265442164403, -0.00772239250524633, 0.185164974142707, -1.20916005662864, 1.14516649799657, -1.22387635716161], a = 0.2, v = 0.2, t = 0.2)
movej(p[0.534400250991689, -0.00717156544888592, 0.185281682422477, -1.21496283435574, 1.13598250863376, -1.21988446901876], a = 0.2, v = 0.2, t = 0.2)
movej(p[0.53442751257442, -0.00717956112555195, 0.185296593336656, -1.2144808163486, 1.15090868545605, -1.21625376080523], a = 0.2, v = 0.2, t = 0.2)
movej(p[0.534425029065886, -0.00736352700611802, 0.185261661633678, -1.21168922988076, 1.16081887313931, -1.21535079076184], a = 0.2, v = 0.2, t = 0.2)
movej(p[0.534436723243047, -0.00748392307228097, 0.185103569717462, -1.20920969417795, 1.16502721208553, -1.21228425017456], a = 0.2, v = 0.2, t = 0.2)
movej(p[0.534915186733615, -0.0074408453083614, 0.184739159031767, -1.20943980860356, 1.1563770000853, -1.20605978019385], a = 0.2, v = 0.2, t = 0.2)
movej(p[0.535834333915737, -0.00730051378699468, 0.184102674644363, -1.21994891976919, 1.15620695572593, -1.18887493139564], a = 0.2, v = 0.2, t = 0.2)
movej(p[0.53681492094433, -0.00769741180551034, 0.183356921802027, -1.22318976673117, 1.18326317833454, -1.17623785338173], a = 0.2, v = 0.2, t = 0.2)
movej(p[0.537496987848745, -0.00844171110742216, 0.182567395837174, -1.2270560479789, 1.20872381219258, -1.16763941506834], a = 0.2, v = 0.2, t = 0.2)
movej(p[0.537920259404291, -0.0092462856470508, 0.181602957290378, -1.22247777663289, 1.22940606140588, -1.16208202916307], a = 0.2, v = 0.2, t = 0.2)
movej(p[0.538391550482384, -0.0101078789124911, 0.180410410812614, -1.22025793794058, 1.24100836565597, -1.15259665595218], a = 0.2, v = 0.2, t = 0.2)
movej(p[0.538919959418189, -0.0108823986197084, 0.179252195523947, -1.2120222701719, 1.25673204487929, -1.13579383546893], a = 0.2, v = 0.2, t = 0.2)
movej(p[0.539096502847771, -0.0118287762826181, 0.178596659519202, -1.20612735732413, 1.27565958453262, -1.13417828225902], a = 0.2, v = 0.2, t = 0.2)
movej(p[0.538872570656542, -0.0125185212857132, 0.178464457157511, -1.19096068701925, 1.28713098921984, -1.13712028500505], a = 0.2, v = 0.2, t = 0.2)
movej(p[0.538539033373736, -0.012647648978513, 0.178749582059844, -1.18392601367946, 1.28392230291062, -1.14368913121127], a = 0.2, v = 0.2, t = 0.2)
movej(p[0.53830856965932, -0.0122366868719044, 0.17934422351759, -1.17982461406063, 1.27229838257148, -1.14707019212229], a = 0.2, v = 0.2, t = 0.2)
movej(p[0.537851224970543, -0.0116304135624673, 0.180332814575566, -1.18642659940494, 1.25432111646942, -1.15969417980461], a = 0.2, v = 0.2, t = 0.2)
movej(p[0.536995787007992, -0.0108763616265984, 0.18160208908344, -1.19022588777864, 1.23225634513849, -1.17813316854125], a = 0.2, v = 0.2, t = 0.2)
movej(p[0.535996531009075, -0.00993607410631334, 0.182903888345164, -1.19720527509583, 1.20597449979494, -1.19452367011538], a = 0.2, v = 0.2, t = 0.2)
movej(p[0.535210913338929, -0.00925021843448542, 0.183782955741315, -1.198151683126, 1.1916040075071, -1.20240618149706], a = 0.2, v = 0.2, t = 0.2)
movej(p[0.534714238884922, -0.00872244578915343, 0.184402186751098, -1.2020390464416, 1.17773325784688, -1.21217831449705], a = 0.2, v = 0.2, t = 0.2)
movej(p[0.53433577663171, -0.00840789393972795, 0.184763331141358, -1.19809774233947, 1.16876686467798, -1.21844003060191], a = 0.2, v = 0.2, t = 0.2)
movej(p[0.534239064603333, -0.0078809063530416, 0.185008980004262, -1.20537649690371, 1.14919886903819, -1.22230664958903], a = 0.2, v = 0.2, t = 0.2)
movej(p[0.534355210766074, -0.0073035177318395, 0.185160054960118, -1.21339926196463, 1.1403200247595, -1.21693868063339], a = 0.2, v = 0.2, t = 0.2)
movej(p[0.534360150866377, -0.00736545326610336, 0.185154662604005, -1.21549890492957, 1.15385860253444, -1.21704699885667], a = 0.2, v = 0.2, t = 0.2)
movej(p[0.534356017370973, -0.00747016278793311, 0.185141873907671, -1.21303346852501, 1.16308612665673, -1.21594568557737], a = 0.2, v = 0.2, t = 0.2)
movej(p[0.534358213492712, -0.00754524537772617, 0.185015618498839, -1.21082302269134, 1.16221370555486, -1.2160324439415], a = 0.2, v = 0.2, t = 0.2)
movej(p[0.534898959755087, -0.00736890882592064, 0.184627274697359, -1.21765163368909, 1.15310244824669, -1.20623842100219], a = 0.2, v = 0.2, t = 0.2)
movej(p[0.535817807135684, -0.00725572520630573, 0.184014548672136, -1.23195976451238, 1.1528348670763, -1.18950465991237], a = 0.2, v = 0.2, t = 0.2)
movej(p[0.536745449171134, -0.00787266563159914, 0.183228158574472, -1.23012010104094, 1.19169286728074, -1.17302531277542], a = 0.2, v = 0.2, t = 0.2)
movej(p[0.537449360799082, -0.00870659678564964, 0.182378878724926, -1.222599208064, 1.2245266771626, -1.15885323089876], a = 0.2, v = 0.2, t = 0.2)
movej(p[0.537945834669713, -0.00961801350865957, 0.181345521229962, -1.20941150504686, 1.24887668010272, -1.15015625079489], a = 0.2, v = 0.2, t = 0.2)
movej(p[0.538536006318195, -0.0105044775847004, 0.180098531868613, -1.20227209419367, 1.26077615697982, -1.13821812789501], a = 0.2, v = 0.2, t = 0.2)
movej(p[0.539114418501838, -0.0113497238841636, 0.178889786281669, -1.19768680644196, 1.27497170451642, -1.12394036512919], a = 0.2, v = 0.2, t = 0.2)
movej(p[0.539221478962905, -0.0123114758633701, 0.178220584758831, -1.18646000976359, 1.29753086324313, -1.11802645945556], a = 0.2, v = 0.2, t = 0.2)
movej(p[0.539032133504947, -0.0130562274092239, 0.17783527440016, -1.17122024432004, 1.31272186001641, -1.1158184711604], a = 0.2, v = 0.2, t = 0.2)
movej(p[0.538720182323154, -0.0134402311508856, 0.177621721510768, -1.16250673970498, 1.31727795382115, -1.11696052438049], a = 0.2, v = 0.2, t = 0.2)
movej(p[0.538543659324718, -0.0134418710350017, 0.177683995918059, -1.16294297267451, 1.31592602217173, -1.11680167869665], a = 0.2, v = 0.2, t = 0.2)
movej(p[0.538258880518368, -0.0132257764284303, 0.178223183086364, -1.1735886490176, 1.30156094548676, -1.12869226453825], a = 0.2, v = 0.2, t = 0.2)
movej(p[0.537606514224988, -0.012469400994332, 0.179531573762712, -1.17664485646756, 1.27726071442461, -1.14867075845897], a = 0.2, v = 0.2, t = 0.2)
movej(p[0.536666096016347, -0.0114997139525056, 0.18100767151143, -1.17834722780012, 1.25176338858181, -1.17303542899964], a = 0.2, v = 0.2, t = 0.2)
movej(p[0.535619443325019, -0.0106442507452924, 0.182321079100353, -1.17624517032781, 1.23416882362218, -1.1887187834734], a = 0.2, v = 0.2, t = 0.2)
movej(p[0.534708920916013, -0.0100190744173488, 0.183332200617019, -1.17832189474262, 1.21561765441661, -1.20450591760045], a = 0.2, v = 0.2, t = 0.2)
movej(p[0.534099393777478, -0.00954821983575411, 0.184066568756626, -1.18819629818681, 1.1930362237742, -1.21576389345611], a = 0.2, v = 0.2, t = 0.2)
movej(p[0.533860613624399, -0.00880825643506763, 0.184632358640011, -1.19785248570853, 1.1712238752922, -1.21784854173811], a = 0.2, v = 0.2, t = 0.2)
movej(p[0.533788768324823, -0.00814450044861567, 0.185056230473444, -1.20624637406203, 1.16305710024769, -1.21759764075459], a = 0.2, v = 0.2, t = 0.2)
movej(p[0.533586781142418, -0.0080937805542091, 0.185230134845027, -1.2037228262223, 1.16954314327236, -1.21762626152961], a = 0.2, v = 0.2, t = 0.2)
movej(p[0.533359843988505, -0.00801648810404108, 0.185429824642766, -1.2008514053761, 1.1667805788409, -1.22439924604862], a = 0.2, v = 0.2, t = 0.2)
movej(p[0.533144697676442, -0.00788055722766447, 0.185579648610317, -1.19899864182317, 1.15321785963154, -1.23216531053211], a = 0.2, v = 0.2, t = 0.2)
movej(p[0.5332573558722, -0.00731353457245672, 0.185739027308422, -1.20097792246968, 1.13576195821434, -1.22977429151106], a = 0.2, v = 0.2, t = 0.2)
movej(p[0.5334624670302, -0.00680649816435832, 0.185827359543347, -1.20676120483722, 1.13240555702105, -1.22488186702403], a = 0.2, v = 0.2, t = 0.2)
movej(p[0.533534989218313, -0.00686679738448097, 0.185799932070188, -1.20684781804423, 1.14654596230045, -1.221160089798], a = 0.2, v = 0.2, t = 0.2)
movej(p[0.53351129455468, -0.00694358226498386, 0.185802362099302, -1.20382006607091, 1.15436935872521, -1.22139967838166], a = 0.2, v = 0.2, t = 0.2)
movej(p[0.533525156872321, -0.00704202029194538, 0.185675866008463, -1.20067749888391, 1.15133699670267, -1.22329347949353], a = 0.2, v = 0.2, t = 0.2)
movej(p[0.534071941010314, -0.00684098227127161, 0.185347740566623, -1.20659558450587, 1.14382411695831, -1.21515524099967], a = 0.2, v = 0.2, t = 0.2)
movej(p[0.53494860821286, -0.00684050488250417, 0.184827068089358, -1.21563044405394, 1.15095217489944, -1.20389948205714], a = 0.2, v = 0.2, t = 0.2)
movej(p[0.535697801684655, -0.00733401472460196, 0.184270382272347, -1.22012648043281, 1.17305994571382, -1.1945002756947], a = 0.2, v = 0.2, t = 0.2)
movej(p[0.536320130143987, -0.00782639890135572, 0.183588884321847, -1.22228752715479, 1.19548663428659, -1.18519516839031], a = 0.2, v = 0.2, t = 0.2)
movej(p[0.536968739108168, -0.00840170709569736, 0.182628225165014, -1.22745720696, 1.20840024505586, -1.17406593705403], a = 0.2, v = 0.2, t = 0.2)
movej(p[0.537745850166536, -0.0090264948296914, 0.181631567821483, -1.23312437650727, 1.2222310094725, -1.16288916051356], a = 0.2, v = 0.2, t = 0.2)
movej(p[0.538402438931859, -0.0100045574528843, 0.180535151448582, -1.23068862000316, 1.24141964023235, -1.14941899025618], a = 0.2, v = 0.2, t = 0.2)
movej(p[0.538801449662072, -0.0110298267919839, 0.179600756615614, -1.22074919946114, 1.26052327112335, -1.14099956480423], a = 0.2, v = 0.2, t = 0.2)
movej(p[0.538910395092042, -0.0117609817718128, 0.178979376225869, -1.20618927042407, 1.27460512696225, -1.13465271484345], a = 0.2, v = 0.2, t = 0.2)
movej(p[0.538846314110077, -0.012221016236193, 0.178780054051155, -1.19768668727037, 1.27893447950101, -1.13545599866075], a = 0.2, v = 0.2, t = 0.2)
movej(p[0.538618481158503, -0.012208187543845, 0.179181195112167, -1.19322634460881, 1.27530301887057, -1.14130375498027], a = 0.2, v = 0.2, t = 0.2)
movej(p[0.538392579813106, -0.0116584484600531, 0.179913809159193, -1.1993873677629, 1.2549859223544, -1.1495010688051], a = 0.2, v = 0.2, t = 0.2)
movej(p[0.537986418526324, -0.0105791166169896, 0.181098707934856, -1.20461001550377, 1.23700864457132, -1.16455256266528], a = 0.2, v = 0.2, t = 0.2)
movej(p[0.537008631077434, -0.00999419231840866, 0.182434006613288, -1.20329025566474, 1.22237563777011, -1.18537735874837], a = 0.2, v = 0.2, t = 0.2)
movej(p[0.535723046211203, -0.00953418028796112, 0.183722105506255, -1.19924895066154, 1.20218791230218, -1.20487032994868], a = 0.2, v = 0.2, t = 0.2)
movej(p[0.534638260694502, -0.00906835206868061, 0.184608173581901, -1.20044582124952, 1.18047406898827, -1.21484653774607], a = 0.2, v = 0.2, t = 0.2)
movej(p[0.534053543611947, -0.00857627708886366, 0.185134649139363, -1.20124202526528, 1.17193315926022, -1.21547639523387], a = 0.2, v = 0.2, t = 0.2)
movej(p[0.533784841173012, -0.00816201315337124, 0.18541415067775, -1.20062625653308, 1.17063065519514, -1.21809455702436], a = 0.2, v = 0.2, t = 0.2)
movej(p[0.533592419224638, -0.00791100008082446, 0.185557945431461, -1.19715497521299, 1.16471658996591, -1.2210969535291], a = 0.2, v = 0.2, t = 0.2)
movej(p[0.533620316179864, -0.00739875659222722, 0.185682324200866, -1.20512295188557, 1.15051429480139, -1.22246866718229], a = 0.2, v = 0.2, t = 0.2)
movej(p[0.533587370539021, -0.00721974405455984, 0.185708356989947, -1.21070821385032, 1.15209531785577, -1.22378166648029], a = 0.2, v = 0.2, t = 0.2)
movej(p[0.533535037899283, -0.00719154522506554, 0.185733245357375, -1.213155605387, 1.15383460887683, -1.22737501505172], a = 0.2, v = 0.2, t = 0.2)
movej(p[0.533393878549433, -0.00717936936201539, 0.185740191313676, -1.21564450143009, 1.1429427836943, -1.23333334192435], a = 0.2, v = 0.2, t = 0.2)
movej(p[0.533576535044552, -0.00682210088165461, 0.185748924453529, -1.21468616957169, 1.1301901059157, -1.22958355218599], a = 0.2, v = 0.2, t = 0.2)
movej(p[0.534039073268247, -0.00650432925351138, 0.185577946716767, -1.22224774416479, 1.12312391004617, -1.2201278059558], a = 0.2, v = 0.2, t = 0.2)
movej(p[0.534657801825621, -0.00676132332100085, 0.185161760462231, -1.21705920747737, 1.15248797329898, -1.20562766711764], a = 0.2, v = 0.2, t = 0.2)
movej(p[0.53533370002634, -0.00730022298782991, 0.184496963898494, -1.21979695778917, 1.17387086056839, -1.19319647833032], a = 0.2, v = 0.2, t = 0.2)
movej(p[0.536108566555475, -0.00789919907613808, 0.183547212068877, -1.21799319770876, 1.19765671377128, -1.17867421854272], a = 0.2, v = 0.2, t = 0.2)
movej(p[0.5371930094795, -0.00858769896541167, 0.182377132502948, -1.22407907694542, 1.21163561627701, -1.1654240209262], a = 0.2, v = 0.2, t = 0.2)
movej(p[0.538123407461, -0.00944909655118156, 0.181208683344597, -1.22465786580718, 1.23602518314809, -1.15047730707797], a = 0.2, v = 0.2, t = 0.2)
movej(p[0.538660176586852, -0.0105198087981791, 0.180187058937214, -1.21826091580957, 1.25963987978958, -1.14388562386808], a = 0.2, v = 0.2, t = 0.2)
movej(p[0.538832813594051, -0.0113164062395151, 0.179587340803169, -1.21753013067814, 1.26025728939869, -1.1459198472554], a = 0.2, v = 0.2, t = 0.2)
movej(p[0.538673940141807, -0.0115542949380466, 0.179806408836627, -1.20986496264046, 1.24973881535214, -1.15996141302969], a = 0.2, v = 0.2, t = 0.2)
movej(p[0.538028240796466, -0.0111476727802632, 0.180920549808958, -1.20978464375147, 1.22765010899504, -1.17740315271383], a = 0.2, v = 0.2, t = 0.2)
movej(p[0.536868944603756, -0.0102565949963528, 0.182520990642163, -1.2045528172567, 1.20457818828442, -1.1973908042089], a = 0.2, v = 0.2, t = 0.2)
movej(p[0.535732014481543, -0.00924107965873367, 0.18380527362078, -1.20673633488065, 1.17869026605277, -1.20935291359648], a = 0.2, v = 0.2, t = 0.2)
movej(p[0.5350551840923, -0.00840154515309065, 0.18453823779571, -1.20862354191856, 1.1615200738626, -1.21279428494119], a = 0.2, v = 0.2, t = 0.2)
movej(p[0.534626914894943, -0.0079988004865677, 0.184926604137175, -1.20656378093916, 1.16672448495743, -1.21619701215153], a = 0.2, v = 0.2, t = 0.2)
movej(p[0.534293565060583, -0.00802665606486226, 0.185058931174056, -1.20793983860268, 1.16664714618157, -1.2208606953849], a = 0.2, v = 0.2, t = 0.2)
movej(p[0.533958871721496, -0.00795282834352225, 0.185226467303093, -1.20637724832644, 1.15795829924829, -1.22942150881577], a = 0.2, v = 0.2, t = 0.2)
movej(p[0.533864278272189, -0.00766353090207489, 0.185343179694124, -1.20631243433443, 1.14057165500484, -1.23072661101654], a = 0.2, v = 0.2, t = 0.2)
movej(p[0.534033509770517, -0.00709291206220912, 0.185437856280268, -1.20981821187191, 1.12802968860203, -1.22795259251853], a = 0.2, v = 0.2, t = 0.2)
movej(p[0.534226804961186, -0.00679855834257739, 0.185463283429209, -1.21123919149125, 1.13840331893666, -1.22361075258766], a = 0.2, v = 0.2, t = 0.2)
movej(p[0.534298569388539, -0.00698842670748533, 0.18540282870339, -1.21179087151766, 1.14552096634881, -1.22221013492691], a = 0.2, v = 0.2, t = 0.2)
movej(p[0.534299764990811, -0.00708696585847094, 0.185294752821445, -1.21245212300443, 1.1486391072625, -1.22077110928866], a = 0.2, v = 0.2, t = 0.2)
movej(p[0.534633460694381, -0.00717039819968955, 0.184936813530143, -1.21789509909855, 1.14291077284097, -1.21588883694802], a = 0.2, v = 0.2, t = 0.2)
movej(p[0.535530734589092, -0.00710312788007514, 0.184271187749629, -1.22628995732635, 1.14452979806715, -1.19885418390835], a = 0.2, v = 0.2, t = 0.2)
movej(p[0.536725524000838, -0.00747088434542342, 0.183359705903474, -1.23236172522135, 1.17279775627483, -1.17894157757953], a = 0.2, v = 0.2, t = 0.2)
movej(p[0.537698131144741, -0.00839648708287078, 0.182364963719961, -1.23091880326423, 1.20876020941014, -1.16097060783879], a = 0.2, v = 0.2, t = 0.2)
movej(p[0.538378804013518, -0.00937040672332774, 0.18127118442022, -1.22481676516331, 1.23683529646456, -1.14785781598325], a = 0.2, v = 0.2, t = 0.2)
movej(p[0.538978831842102, -0.0103119305559649, 0.180190376212488, -1.22081758854454, 1.25028186411524, -1.14074103564629], a = 0.2, v = 0.2, t = 0.2)
movej(p[0.539347622944514, -0.0112265878730296, 0.179320708990143, -1.21416665256439, 1.26411069670403, -1.13463734548523], a = 0.2, v = 0.2, t = 0.2)
movej(p[0.539487271730352, -0.012027667010005, 0.178801935452926, -1.20917778669902, 1.27768405903908, -1.12995081794127], a = 0.2, v = 0.2, t = 0.2)
movej(p[0.539377234526517, -0.0125361728582371, 0.178562656293603, -1.20007307064222, 1.28522234329866, -1.12838102661711], a = 0.2, v = 0.2, t = 0.2)
movej(p[0.539157620904596, -0.0126309053956759, 0.178767733068049, -1.19112364867905, 1.28590425977521, -1.13239575171859], a = 0.2, v = 0.2, t = 0.2)
movej(p[0.538746758694587, -0.0123514468269882, 0.179526991846578, -1.18669820981923, 1.27661233914994, -1.14843743412898], a = 0.2, v = 0.2, t = 0.2)
movej(p[0.537719769514557, -0.0115724459405281, 0.181008269080251, -1.18678941407078, 1.25124655720134, -1.17382046808247], a = 0.2, v = 0.2, t = 0.2)
movej(p[0.536520697582383, -0.0104420403579457, 0.182496296303368, -1.19440295911002, 1.21697166380766, -1.19127412220172], a = 0.2, v = 0.2, t = 0.2)
movej(p[0.535398701938569, -0.00930065644819186, 0.183653451468727, -1.20338533478257, 1.18972127631141, -1.20455049742407], a = 0.2, v = 0.2, t = 0.2)
movej(p[0.534545907060986, -0.00889295294554315, 0.184312436972434, -1.20238036162215, 1.17926943990702, -1.21204555363802], a = 0.2, v = 0.2, t = 0.2)
movej(p[0.533978101897352, -0.00860799935487111, 0.184774007593589, -1.20285916987025, 1.16187876781079, -1.21860442558703], a = 0.2, v = 0.2, t = 0.2)
movej(p[0.533738387370377, -0.00817928832039762, 0.185091947598272, -1.20549731360621, 1.14991891411561, -1.22079365383818], a = 0.2, v = 0.2, t = 0.2)
movej(p[0.533693146319168, -0.00773200022791451, 0.185357374558486, -1.20986076218822, 1.14373280222091, -1.21987970407286], a = 0.2, v = 0.2, t = 0.2)
movej(p[0.53365944591399, -0.00739695618237475, 0.185535066764953, -1.213146974519, 1.14266272242489, -1.22316612714973], a = 0.2, v = 0.2, t = 0.2)
movej(p[0.533587179519099, -0.00725403322811872, 0.185620120908393, -1.21468836532982, 1.13923928647239, -1.22621631692052], a = 0.2, v = 0.2, t = 0.2)
movej(p[0.533674592738477, -0.00677515318084481, 0.185705224430065, -1.22192551475997, 1.12609476811815, -1.22498682905148], a = 0.2, v = 0.2, t = 0.2)
movej(p[0.533673118255169, -0.00667009529131623, 0.18568176796514, -1.22386757084369, 1.13058895951479, -1.22512507689778], a = 0.2, v = 0.2, t = 0.2)
movej(p[0.533742172249051, -0.00674639442347422, 0.185646925342379, -1.21935878152942, 1.1391486086341, -1.22412028234126], a = 0.2, v = 0.2, t = 0.2)
movej(p[0.533824587346373, -0.0068958365588169, 0.185482022999104, -1.21527110483662, 1.14005719943937, -1.22560378087164], a = 0.2, v = 0.2, t = 0.2)
movej(p[0.534378777886388, -0.00675131293552077, 0.185117145304297, -1.22184863341029, 1.13481141367193, -1.21600393065593], a = 0.2, v = 0.2, t = 0.2)
movej(p[0.535230112990344, -0.0067318769032467, 0.184568463953127, -1.23038435238449, 1.14501854853217, -1.20022124517543], a = 0.2, v = 0.2, t = 0.2)
movej(p[0.536080090996915, -0.00733970454059893, 0.183851465325501, -1.23021249236324, 1.17440270159988, -1.18553365489025], a = 0.2, v = 0.2, t = 0.2)
movej(p[0.536828216787873, -0.00803694153350887, 0.182955332765262, -1.22741138594727, 1.19940947312018, -1.17289612480048], a = 0.2, v = 0.2, t = 0.2)
movej(p[0.537558600637862, -0.00881262909977568, 0.181904432831294, -1.22517370122924, 1.21573813242542, -1.16380593363493], a = 0.2, v = 0.2, t = 0.2)
movej(p[0.538164532448373, -0.0096003870958104, 0.180866173189829, -1.22135217343537, 1.23675756330479, -1.15256509031154], a = 0.2, v = 0.2, t = 0.2)
movej(p[0.538569546169373, -0.0104987497312086, 0.179937884014668, -1.21492320463957, 1.25811146786968, -1.14202873389688], a = 0.2, v = 0.2, t = 0.2)
movej(p[0.538671331579924, -0.0114367482403079, 0.179170243677839, -1.2008938474098, 1.27523831492738, -1.13830669926693], a = 0.2, v = 0.2, t = 0.2)
movej(p[0.538768441233771, -0.0119698518704944, 0.178545754058541, -1.19306326297184, 1.28195555194178, -1.13004514728264], a = 0.2, v = 0.2, t = 0.2)
movej(p[0.538789797157473, -0.0122767313307942, 0.178324517507833, -1.19055848143606, 1.28576062272261, -1.13229250253778], a = 0.2, v = 0.2, t = 0.2)
movej(p[0.53847015259568, -0.0125690831928944, 0.178536595967001, -1.1808204918108, 1.29400397994962, -1.13503130852651], a = 0.2, v = 0.2, t = 0.2)
movej(p[0.538078018413169, -0.0125126029712608, 0.179068893916904, -1.18210558621862, 1.28464538958551, -1.14508974757903], a = 0.2, v = 0.2, t = 0.2)
movej(p[0.537714808318945, -0.012000950178652, 0.179927833226325, -1.18614531817745, 1.26494457022745, -1.15414977677604], a = 0.2, v = 0.2, t = 0.2)
movej(p[0.537159742524053, -0.0111452319748994, 0.181095186612883, -1.19222813131268, 1.24865827483498, -1.16869286678301], a = 0.2, v = 0.2, t = 0.2)
movej(p[0.536292632982746, -0.0105581679277165, 0.182280554631845, -1.19349397324203, 1.23029359527557, -1.18763345638886], a = 0.2, v = 0.2, t = 0.2)
movej(p[0.535171765620265, -0.00998989899493108, 0.183390200994276, -1.19089431730907, 1.21080655310847, -1.20536861533704], a = 0.2, v = 0.2, t = 0.2)
movej(p[0.534371628626409, -0.00934992629989971, 0.18419931070105, -1.19429168726983, 1.18040939352956, -1.21627125496201], a = 0.2, v = 0.2, t = 0.2)
movej(p[0.534093467099771, -0.00852722598238322, 0.18473321154761, -1.19784475290158, 1.16008155237978, -1.21816126770361], a = 0.2, v = 0.2, t = 0.2)
movej(p[0.534017111926962, -0.00790905766481292, 0.185060209382522, -1.20130768975596, 1.15874190297543, -1.21747253805377], a = 0.2, v = 0.2, t = 0.2)
movej(p[0.533857333388614, -0.00788046520600315, 0.18517382275842, -1.19989683432546, 1.16294547506433, -1.22007243553926], a = 0.2, v = 0.2, t = 0.2)
movej(p[0.533667162820394, -0.00780763972510273, 0.185282861041212, -1.19892836355512, 1.16381781570876, -1.22414609057478], a = 0.2, v = 0.2, t = 0.2)
movej(p[0.533512271528532, -0.00756755886734115, 0.185400416387504, -1.20455193932614, 1.14960767614468, -1.22642971538468], a = 0.2, v = 0.2, t = 0.2)
movej(p[0.533611186163473, -0.0071572467057247, 0.185525941345277, -1.20893622389058, 1.14485190788788, -1.22247117089254], a = 0.2, v = 0.2, t = 0.2)
movej(p[0.533729992227377, -0.00696136297336438, 0.185589820704825, -1.21420130943675, 1.13864601128632, -1.22084022679376], a = 0.2, v = 0.2, t = 0.2)
movej(p[0.533923960255901, -0.00698244238072469, 0.185463640494824, -1.21312262924991, 1.14618868196786, -1.21866936192233], a = 0.2, v = 0.2, t = 0.2)
movej(p[0.534437653730994, -0.00697093169836298, 0.185144950680209, -1.21970725516596, 1.14642257050629, -1.21350395494171], a = 0.2, v = 0.2, t = 0.2)
movej(p[0.535091941241881, -0.00721979064445371, 0.184589842537459, -1.22328132787559, 1.16496157342639, -1.20345565496038], a = 0.2, v = 0.2, t = 0.2)
movej(p[0.535905108276273, -0.00773817325123101, 0.183719990753723, -1.22473166918238, 1.19092356223762, -1.18769825052817], a = 0.2, v = 0.2, t = 0.2)
movej(p[0.536735900082315, -0.00853396310768241, 0.182468056518476, -1.22272914405737, 1.21382443072894, -1.17258603323203], a = 0.2, v = 0.2, t = 0.2)
movej(p[0.537699204976743, -0.00929728347025367, 0.181025033734715, -1.21936259773567, 1.23503370874466, -1.15508950093802], a = 0.2, v = 0.2, t = 0.2)
movej(p[0.5385759471882, -0.0103385438932665, 0.179669692623033, -1.21202157696771, 1.25932418916839, -1.14141179073871], a = 0.2, v = 0.2, t = 0.2)
movej(p[0.538916933553657, -0.0116452891649879, 0.17875679026664, -1.19824185597451, 1.28545506871802, -1.13756313635721], a = 0.2, v = 0.2, t = 0.2)
movej(p[0.5387587862757, -0.0125012564731941, 0.178572395755451, -1.19379693244771, 1.28638288194939, -1.14124325798977], a = 0.2, v = 0.2, t = 0.2)
movej(p[0.538347111175247, -0.012497066549241, 0.179160034714509, -1.19514644706199, 1.26763459022027, -1.15414883757553], a = 0.2, v = 0.2, t = 0.2)
movej(p[0.537842656837701, -0.01164974257011, 0.180393840771279, -1.20230091843074, 1.23449805307087, -1.17033317715393], a = 0.2, v = 0.2, t = 0.2)
movej(p[0.537183343359422, -0.0104108600334002, 0.181743266761096, -1.20674818691638, 1.21460646120486, -1.17968351318175], a = 0.2, v = 0.2, t = 0.2)
movej(p[0.536287468369395, -0.00975010407099999, 0.182852450208185, -1.20436522675644, 1.2069219031286, -1.19412361628953], a = 0.2, v = 0.2, t = 0.2)
movej(p[0.53543265671154, -0.00935908660561713, 0.183592752306494, -1.2042784042222, 1.2001459190468, -1.20543838263158], a = 0.2, v = 0.2, t = 0.2)
movej(p[0.53473886098167, -0.00892447341462428, 0.184211539002453, -1.20568672058585, 1.17898197058991, -1.21993272110405], a = 0.2, v = 0.2, t = 0.2)
movej(p[0.534365526677889, -0.00836196924502374, 0.184653205107794, -1.21013496559959, 1.15847894227297, -1.22444197868947], a = 0.2, v = 0.2, t = 0.2)
movej(p[0.534309002111476, -0.00759366489500325, 0.184992706438618, -1.21985378775344, 1.14054616508021, -1.22041584073752], a = 0.2, v = 0.2, t = 0.2)
movej(p[0.534230656125213, -0.0074014920599767, 0.185133960047472, -1.22545848495057, 1.14607519922229, -1.22186531194371], a = 0.2, v = 0.2, t = 0.2)
movej(p[0.534153965248969, -0.00742965088836696, 0.185218909733667, -1.2253027073988, 1.14665397627352, -1.22572179514715], a = 0.2, v = 0.2, t = 0.2)
movej(p[0.534048505621466, -0.00757375053119289, 0.185222914518854, -1.22095954171537, 1.15568581597871, -1.22742780434214], a = 0.2, v = 0.2, t = 0.2)
movej(p[0.534062483187396, -0.0075114488057921, 0.185253780512484, -1.21871146312899, 1.14860044917148, -1.22751092195517], a = 0.2, v = 0.2, t = 0.2)
movej(p[0.534346252409152, -0.00720952487722511, 0.185090100594831, -1.22249060305427, 1.14448051292072, -1.22168000446883], a = 0.2, v = 0.2, t = 0.2)
movej(p[0.534965840795473, -0.00707272518269082, 0.184623918773638, -1.22717475524013, 1.14447201204311, -1.21296235639625], a = 0.2, v = 0.2, t = 0.2)
movej(p[0.535958561674818, -0.00710408603855384, 0.183873099681625, -1.23492225043219, 1.15142068786351, -1.19751415003084], a = 0.2, v = 0.2, t = 0.2)
movej(p[0.536792522645878, -0.00774792636885635, 0.183068991565309, -1.2342515914089, 1.18636648578679, -1.18283921884136], a = 0.2, v = 0.2, t = 0.2)
movej(p[0.537431440491608, -0.00867030766464568, 0.182148416532199, -1.22971255798443, 1.21739555828957, -1.17126458326014], a = 0.2, v = 0.2, t = 0.2)
movej(p[0.537963646455749, -0.00970993583208331, 0.180960340107846, -1.21559631546889, 1.24648894832171, -1.15940515119651], a = 0.2, v = 0.2, t = 0.2)
movej(p[0.538536807457859, -0.0106776611785392, 0.179638978599557, -1.20707403109243, 1.2615850169961, -1.14510651834777], a = 0.2, v = 0.2, t = 0.2)
movej(p[0.539029069767854, -0.0115853178899585, 0.178475438519468, -1.19810303743266, 1.27853404744046, -1.13353755949799], a = 0.2, v = 0.2, t = 0.2)
movej(p[0.539042733720981, -0.0125895911953619, 0.17796540636907, -1.1884126427322, 1.29200395633153, -1.13272156651115], a = 0.2, v = 0.2, t = 0.2)
movej(p[0.538794071044264, -0.0130748472249559, 0.178005613818017, -1.1801014304978, 1.28962689965178, -1.13754513139343], a = 0.2, v = 0.2, t = 0.2)
movej(p[0.538550834180376, -0.0127804224134109, 0.178602330248487, -1.18491577062358, 1.272603738418, -1.14561550043133], a = 0.2, v = 0.2, t = 0.2)
movej(p[0.538091986452962, -0.0120485077987339, 0.179652627815784, -1.1909316845559, 1.25600845378704, -1.15810035190908], a = 0.2, v = 0.2, t = 0.2)
movej(p[0.537323954046261, -0.0111658384035919, 0.18098467954944, -1.19454498989245, 1.23750445692218, -1.1758199053124], a = 0.2, v = 0.2, t = 0.2)
movej(p[0.536270074819892, -0.01030508929653, 0.182303672203634, -1.19291525934913, 1.21664485106864, -1.19595513296005], a = 0.2, v = 0.2, t = 0.2)
movej(p[0.535440135987606, -0.00940759491938364, 0.183330919581219, -1.19553001209552, 1.19012306349857, -1.20629189368488], a = 0.2, v = 0.2, t = 0.2)
movej(p[0.535049612089321, -0.0085452732061077, 0.183955514689974, -1.20758011328988, 1.17040419956505, -1.20887034963067], a = 0.2, v = 0.2, t = 0.2)
movej(p[0.534704108716939, -0.00824102091583941, 0.184342188064852, -1.20896188058121, 1.17683849721978, -1.20976678964825], a = 0.2, v = 0.2, t = 0.2)
movej(p[0.534390270483809, -0.00823050586421337, 0.184596183216607, -1.20744921027878, 1.17896476027337, -1.21316398200819], a = 0.2, v = 0.2, t = 0.2)
movej(p[0.534073181200375, -0.00803014416416691, 0.184863632392126, -1.2036090123442, 1.16919091489031, -1.21556458622285], a = 0.2, v = 0.2, t = 0.2)
movej(p[0.534055032418093, -0.0076154402310141, 0.185102577948957, -1.20673812171265, 1.15447157629255, -1.214287412678], a = 0.2, v = 0.2, t = 0.2)
movej(p[0.534071090690814, -0.00725077135681928, 0.185260427209553, -1.21465500124751, 1.14805200243001, -1.21251808637722], a = 0.2, v = 0.2, t = 0.2)
movej(p[0.534075576901879, -0.00703927314076753, 0.185361133619564, -1.21870291295127, 1.14679615606881, -1.2170490605035], a = 0.2, v = 0.2, t = 0.2)
movej(p[0.534210573687668, -0.00689727227050178, 0.185282449906062, -1.22500886161597, 1.13749379928542, -1.21732819429049], a = 0.2, v = 0.2, t = 0.2)
movej(p[0.534613181022291, -0.00676049538076112, 0.185077558741196, -1.22357761164031, 1.14785448123152, -1.20917691194579], a = 0.2, v = 0.2, t = 0.2)
movej(p[0.535206993522912, -0.00698583527505744, 0.184585576408032, -1.22356654972081, 1.16467788121933, -1.19745098611415], a = 0.2, v = 0.2, t = 0.2)
movej(p[0.535867490215346, -0.0074158564864701, 0.183783462818808, -1.22684961517764, 1.18142679288766, -1.18858651247304], a = 0.2, v = 0.2, t = 0.2)
movej(p[0.536787450921012, -0.00788956500409059, 0.182715095189775, -1.2352379663982, 1.19042786338031, -1.17591684478037], a = 0.2, v = 0.2, t = 0.2)
movej(p[0.537700669146365, -0.00859622598843588, 0.181609062940658, -1.23702167414654, 1.21354282079033, -1.16484504577385], a = 0.2, v = 0.2, t = 0.2)
movej(p[0.538241518285258, -0.00966409783077495, 0.18066629918059, -1.22803643588318, 1.24041412730462, -1.15273422239547], a = 0.2, v = 0.2, t = 0.2)
movej(p[0.53838146352526, -0.0106255858764996, 0.180019371825604, -1.21355190948782, 1.24955814992727, -1.15531462136311], a = 0.2, v = 0.2, t = 0.2)
movej(p[0.538318299203654, -0.0107065297181627, 0.180094551762907, -1.21231916074304, 1.23287524661267, -1.15989439196713], a = 0.2, v = 0.2, t = 0.2)
movej(p[0.537852444466794, -0.0102884679138898, 0.180939422460442, -1.20431816859402, 1.22252523024681, -1.17519616831957], a = 0.2, v = 0.2, t = 0.2)
movej(p[0.53701974388112, -0.00973255857949509, 0.182225664468833, -1.20160214413388, 1.21180524480227, -1.18971708250643], a = 0.2, v = 0.2, t = 0.2)
movej(p[0.535935477603476, -0.00903449399091591, 0.18336568220143, -1.198866280702, 1.19294336552049, -1.20317225590553], a = 0.2, v = 0.2, t = 0.2)
movej(p[0.535307417667542, -0.00842084629782212, 0.184063503825225, -1.20234271951065, 1.17426095323695, -1.20592181007166], a = 0.2, v = 0.2, t = 0.2)
movej(p[0.534960609987404, -0.00798988572586486, 0.184450407705427, -1.20764426745897, 1.1627631366721, -1.20697058886355], a = 0.2, v = 0.2, t = 0.2)
movej(p[0.534772312658062, -0.00777828565648424, 0.184690449216383, -1.21010993298717, 1.15952859086862, -1.21084897516935], a = 0.2, v = 0.2, t = 0.2)
movej(p[0.534654200989077, -0.00750371179372666, 0.184791584742687, -1.21500553966059, 1.15072274708769, -1.21175678362386], a = 0.2, v = 0.2, t = 0.2)
movej(p[0.53467681736134, -0.00721770817048773, 0.184887305969172, -1.21772840260324, 1.15089126817406, -1.21201022798522], a = 0.2, v = 0.2, t = 0.2)
movej(p[0.534724368521082, -0.00712688671892142, 0.184907239903619, -1.21900368638743, 1.1512757349238, -1.21005834845799], a = 0.2, v = 0.2, t = 0.2)
movej(p[0.534642392343613, -0.00713097047503579, 0.184922392941715, -1.21770997971149, 1.14696690236504, -1.21401167342718], a = 0.2, v = 0.2, t = 0.2)
movej(p[0.534706412294298, -0.00690371198135065, 0.184901526804118, -1.22275596032901, 1.13041231225271, -1.21400374867282], a = 0.2, v = 0.2, t = 0.2)
movej(p[0.53498946192926, -0.00658808011951886, 0.184832956220478, -1.22772129779304, 1.13041084036092, -1.20919448141467], a = 0.2, v = 0.2, t = 0.2)
movej(p[0.535422060289241, -0.00694434151314266, 0.184539019038661, -1.22970369812214, 1.15067447303024, -1.20245762937765], a = 0.2, v = 0.2, t = 0.2)
movej(p[0.53586072579864, -0.00727915507328496, 0.184047750638996, -1.22737557232618, 1.16551213842868, -1.19490545109146], a = 0.2, v = 0.2, t = 0.2)
movej(p[0.536543581611588, -0.00762969140326056, 0.183240281542999, -1.22752499862964, 1.17288222018756, -1.18335929827885], a = 0.2, v = 0.2, t = 0.2)
movej(p[0.537452066512717, -0.00801540830510239, 0.182282075711169, -1.22939787747448, 1.19092506617622, -1.16963635312488], a = 0.2, v = 0.2, t = 0.2)
movej(p[0.538228770559612, -0.00885039249501241, 0.181287478528317, -1.22736222525028, 1.22000770084828, -1.15767356430047], a = 0.2, v = 0.2, t = 0.2)
movej(p[0.538662074462658, -0.00993878454232222, 0.180208200899596, -1.21750138453749, 1.24675602111727, -1.14969970009818], a = 0.2, v = 0.2, t = 0.2)
movej(p[0.538916419018678, -0.0107713976489069, 0.179318705716041, -1.21185996720881, 1.25419899191427, -1.14480155026592], a = 0.2, v = 0.2, t = 0.2)
movej(p[0.538972671057271, -0.0112828438753444, 0.178990112431696, -1.20147827532564, 1.25981283773377, -1.14287918170055], a = 0.2, v = 0.2, t = 0.2)
movej(p[0.538720226423358, -0.0115008977541875, 0.179393711828041, -1.19762485024673, 1.25575516230127, -1.15175126052785], a = 0.2, v = 0.2, t = 0.2)
movej(p[0.538093052127707, -0.0110525605250357, 0.180429318182178, -1.19148451016332, 1.23955275033483, -1.16528612953231], a = 0.2, v = 0.2, t = 0.2)
movej(p[0.537412337566667, -0.0100838962831639, 0.18153821012535, -1.20367903714143, 1.20790145315263, -1.17857258143053], a = 0.2, v = 0.2, t = 0.2)
movej(p[0.536613116858093, -0.00923875475033839, 0.182585766935993, -1.20904041531334, 1.19326551578555, -1.19088898875692], a = 0.2, v = 0.2, t = 0.2)
movej(p[0.535897232099215, -0.00884975269729065, 0.18339351635192, -1.20910444236969, 1.1856364945835, -1.2035334371572], a = 0.2, v = 0.2, t = 0.2)
movej(p[0.535342164794781, -0.00853025166329048, 0.183858163725012, -1.2090016754586, 1.17271475327592, -1.21353206075063], a = 0.2, v = 0.2, t = 0.2)
movej(p[0.535213891515312, -0.00796013216639759, 0.184189249647676, -1.21243276708094, 1.15750208813051, -1.21644063220685], a = 0.2, v = 0.2, t = 0.2)
movej(p[0.535117368702411, -0.00766827766978228, 0.184328294015645, -1.21494695769747, 1.15703127691438, -1.21422851366661], a = 0.2, v = 0.2, t = 0.2)
movej(p[0.535018352753622, -0.00758931238610488, 0.184468241421334, -1.21299879761212, 1.16193464758514, -1.21501648744583], a = 0.2, v = 0.2, t = 0.2)
movej(p[0.534848884194364, -0.0074785585440876, 0.184542269347832, -1.21050516310195, 1.15441816889229, -1.21620016361956], a = 0.2, v = 0.2, t = 0.2)
movej(p[0.535048349272603, -0.00704277675742646, 0.184593324435505, -1.21680772258549, 1.14140989781269, -1.21115454038115], a = 0.2, v = 0.2, t = 0.2)
movej(p[0.535407822314681, -0.00702065070058706, 0.184411130094682, -1.22154623355226, 1.15134177813843, -1.20354957210051], a = 0.2, v = 0.2, t = 0.2)
movej(p[0.535948116393947, -0.00730122637605837, 0.183972396979857, -1.2244442957485, 1.1670286520155, -1.1927623282802], a = 0.2, v = 0.2, t = 0.2)
movej(p[0.536568945937459, -0.00771655094603352, 0.18322182643795, -1.22426367490243, 1.18169052575958, -1.18309149030029], a = 0.2, v = 0.2, t = 0.2)
movej(p[0.53749506028431, -0.00800176369495262, 0.18234987025533, -1.22998662378311, 1.18475617651874, -1.16925297909298], a = 0.2, v = 0.2, t = 0.2)
movej(p[0.538230748586251, -0.00879639111114248, 0.181431702513669, -1.23015100888783, 1.20874978026499, -1.16034748666779], a = 0.2, v = 0.2, t = 0.2)
movej(p[0.538732621742256, -0.0097648036928415, 0.180435652823649, -1.22594001048754, 1.23318164172857, -1.15046274481095], a = 0.2, v = 0.2, t = 0.2)
movej(p[0.538970801795619, -0.0107256522900827, 0.17946730126819, -1.21437266117743, 1.25238618537199, -1.14310905797697], a = 0.2, v = 0.2, t = 0.2)
movej(p[0.53912889434978, -0.0111499669130681, 0.179039667408984, -1.21207262381921, 1.25281589057136, -1.1413430885668], a = 0.2, v = 0.2, t = 0.2)
movej(p[0.538964438605653, -0.0113612190242616, 0.179356506553882, -1.20959001293798, 1.24791148264213, -1.1507812118863], a = 0.2, v = 0.2, t = 0.2)
movej(p[0.538272775405501, -0.0109001145603483, 0.180520171742205, -1.21327705852749, 1.22785759586145, -1.17163640555097], a = 0.2, v = 0.2, t = 0.2)
movej(p[0.537386690696211, -0.0100388632535418, 0.181757565081437, -1.21697686556122, 1.19879721886659, -1.18867371371549], a = 0.2, v = 0.2, t = 0.2)
movej(p[0.53650065125176, -0.00914903870766134, 0.182868882434471, -1.21576226977775, 1.18295114207566, -1.20047723725031], a = 0.2, v = 0.2, t = 0.2)
movej(p[0.535762934772119, -0.00874270260681146, 0.183588970558739, -1.21053009653232, 1.17479750378527, -1.20687334421895], a = 0.2, v = 0.2, t = 0.2)
movej(p[0.535165408284087, -0.00853092316303192, 0.184044815771386, -1.20539041453697, 1.17368264298637, -1.21516690322854], a = 0.2, v = 0.2, t = 0.2)
movej(p[0.534969452895757, -0.00804718190805192, 0.184285661299191, -1.21145393379092, 1.15576419406516, -1.21503548924682], a = 0.2, v = 0.2, t = 0.2)
movej(p[0.534921759291411, -0.00762959138262757, 0.184453991579323, -1.21555661084943, 1.15664692248297, -1.21480670853038], a = 0.2, v = 0.2, t = 0.2)
movej(p[0.534933364391972, -0.00753889682301793, 0.184522714573278, -1.21765105600199, 1.15658084115665, -1.21301677085553], a = 0.2, v = 0.2, t = 0.2)
movej(p[0.534830163788881, -0.00749431970118811, 0.1845661978778, -1.21261335535016, 1.15635030312953, -1.21616015197811], a = 0.2, v = 0.2, t = 0.2)
movej(p[0.534948935842128, -0.00718715654958607, 0.184573204148302, -1.21433495915621, 1.1390806013507, -1.21217228088729], a = 0.2, v = 0.2, t = 0.2)
movej(p[0.535267982052936, -0.007018272845083, 0.184421937120096, -1.21489389114182, 1.15327622399377, -1.20294875842249], a = 0.2, v = 0.2, t = 0.2)
movej(p[0.535846189698401, -0.00728287420621433, 0.184007205781861, -1.21802250217284, 1.17187921545234, -1.18857843762533], a = 0.2, v = 0.2, t = 0.2)
movej(p[0.536536898256226, -0.00777339904931793, 0.183129982334816, -1.22203073549521, 1.19240928523732, -1.17604708931772], a = 0.2, v = 0.2, t = 0.2)
movej(p[0.53753686685412, -0.00832120449094564, 0.182051647186846, -1.22765715848986, 1.20520565062206, -1.1623423060624], a = 0.2, v = 0.2, t = 0.2)
movej(p[0.538426543322671, -0.00912115572040247, 0.180945983521079, -1.22118965843222, 1.23319817629146, -1.14830899037426], a = 0.2, v = 0.2, t = 0.2)
movej(p[0.539007244232377, -0.0101379764289976, 0.179870365080578, -1.20846348644161, 1.26339866955979, -1.13683138598326], a = 0.2, v = 0.2, t = 0.2)
movej(p[0.539245028527303, -0.0110866324209034, 0.178870877532175, -1.19864097405348, 1.28087025743104, -1.13000357408056], a = 0.2, v = 0.2, t = 0.2)
movej(p[0.539263300936322, -0.0118854703965338, 0.178078926561874, -1.19484493394866, 1.2873871511673, -1.12975324128494], a = 0.2, v = 0.2, t = 0.2)
movej(p[0.539085717540488, -0.0124603172731631, 0.177953036069965, -1.19079286686944, 1.2868064060583, -1.13030901399099], a = 0.2, v = 0.2, t = 0.2)
movej(p[0.538636486412206, -0.0124829628210027, 0.17853559445549, -1.18426126877229, 1.27962639339161, -1.13843656846782], a = 0.2, v = 0.2, t = 0.2)
movej(p[0.538104045029738, -0.0117543185394354, 0.179625546264138, -1.18682465812022, 1.25710372015742, -1.15185040910008], a = 0.2, v = 0.2, t = 0.2)
movej(p[0.537534664664084, -0.0106194983387886, 0.180835380022557, -1.19237987343149, 1.23492216770923, -1.16532258063707], a = 0.2, v = 0.2, t = 0.2)
movej(p[0.536877424254425, -0.0100518451460342, 0.181733075497798, -1.19064902436835, 1.23508590058469, -1.17635701836964], a = 0.2, v = 0.2, t = 0.2)
movej(p[0.536470060887182, -0.00998572569883624, 0.181999105186612, -1.18622400544865, 1.23730466782431, -1.17404443072578], a = 0.2, v = 0.2, t = 0.2)
movej(p[0.536477564540414, -0.0100693860604577, 0.181777074912346, -1.18822894766244, 1.23658408499185, -1.16863101465759], a = 0.2, v = 0.2, t = 0.2)
movej(p[0.536919540402606, -0.0102461895912427, 0.181391175052085, -1.19052063992412, 1.23558673201288, -1.16395028750812], a = 0.2, v = 0.2, t = 0.2)
movej(p[0.537226122497011, -0.0105518821079278, 0.181129028908239, -1.18968208150712, 1.23866867278292, -1.16622481121394], a = 0.2, v = 0.2, t = 0.2)
movej(p[0.537222079959918, -0.0109277240399663, 0.181135604386584, -1.17801542993247, 1.2455127995677, -1.1764385719956], a = 0.2, v = 0.2, t = 0.2)
movej(p[0.536978884220399, -0.0108865378343782, 0.181362343492935, -1.17609815050549, 1.23227923663735, -1.18015082120096], a = 0.2, v = 0.2, t = 0.2)
movej(p[0.536718141180316, -0.0105228039394965, 0.181654822714697, -1.17886167381563, 1.22622743182713, -1.18230436565708], a = 0.2, v = 0.2, t = 0.2)
movej(p[0.536523942573018, -0.0103266903166582, 0.181827916697148, -1.1837420903205, 1.22397528692406, -1.17948497900023], a = 0.2, v = 0.2, t = 0.2)
movej(p[0.536242846377927, -0.0099885316644851, 0.182115659713511, -1.1909535998284, 1.21132697915241, -1.18835970327976], a = 0.2, v = 0.2, t = 0.2)
movej(p[0.535968676711036, -0.00937821258483029, 0.182635723673872, -1.19928651364294, 1.19114287768252, -1.19598186854843], a = 0.2, v = 0.2, t = 0.2)
movej(p[0.535560047781633, -0.00881146890693792, 0.183349263087937, -1.20099394686499, 1.18389967882286, -1.20561875405586], a = 0.2, v = 0.2, t = 0.2)
movej(p[0.535146555146856, -0.00851688342841235, 0.183929081602411, -1.20071116753666, 1.18436738281085, -1.21172130619524], a = 0.2, v = 0.2, t = 0.2)
movej(p[0.534767942024451, -0.00830103653735866, 0.184241664422883, -1.19970888578359, 1.17557447680315, -1.21666966525983], a = 0.2, v = 0.2, t = 0.2)
movej(p[0.534697654109259, -0.00786513449148304, 0.184412559822143, -1.20573758724966, 1.16085756085074, -1.21716322045365], a = 0.2, v = 0.2, t = 0.2)
movej(p[0.534676383001008, -0.00766876313543186, 0.184491287419442, -1.20656151687364, 1.1614705616691, -1.21604390657756], a = 0.2, v = 0.2, t = 0.2)
movej(p[0.534722700465228, -0.00762953589120921, 0.184558082913444, -1.20404085513817, 1.16964720808044, -1.21556735374182], a = 0.2, v = 0.2, t = 0.2)
movej(p[0.534831549862033, -0.00768084754826441, 0.184417805453578, -1.20639562438498, 1.16430965420844, -1.21244000521181], a = 0.2, v = 0.2, t = 0.2)
movej(p[0.535569481596205, -0.00763052553554145, 0.183941124192925, -1.21145229835467, 1.17134525848738, -1.19930073026171], a = 0.2, v = 0.2, t = 0.2)
movej(p[0.536496026194321, -0.00816176810250223, 0.18305774818026, -1.2175721040751, 1.1936277469611, -1.18237539128882], a = 0.2, v = 0.2, t = 0.2)
movej(p[0.537487374184646, -0.0089809121450087, 0.18185127693746, -1.2142897477253, 1.22822907153783, -1.1644469299853], a = 0.2, v = 0.2, t = 0.2)
movej(p[0.538219827782186, -0.0098679123505248, 0.180585630715775, -1.21300100750361, 1.24428419798001, -1.14905996210964], a = 0.2, v = 0.2, t = 0.2)
movej(p[0.538833026516155, -0.0106432450308137, 0.179491141991514, -1.20532321886754, 1.26265858146218, -1.13464973907423], a = 0.2, v = 0.2, t = 0.2)
movej(p[0.539095152541578, -0.0117294023841565, 0.178674028085026, -1.192953184469, 1.28354037522394, -1.1263689918575], a = 0.2, v = 0.2, t = 0.2)
movej(p[0.539035564220033, -0.0126315688504441, 0.178193120454559, -1.17922014070478, 1.29889905780522, -1.12290143807295], a = 0.2, v = 0.2, t = 0.2)
movej(p[0.538859380988464, -0.013076279588571, 0.178039758796025, -1.17317140644734, 1.30057211796194, -1.12338057986182], a = 0.2, v = 0.2, t = 0.2)
movej(p[0.538629221776068, -0.0130330733690666, 0.178285582715824, -1.16702503369254, 1.30239605787669, -1.125968168898], a = 0.2, v = 0.2, t = 0.2)
movej(p[0.538290308136671, -0.012979446459798, 0.178815951313719, -1.16674674601549, 1.29761478487101, -1.13512592766618], a = 0.2, v = 0.2, t = 0.2)
movej(p[0.537753697780556, -0.012702141605214, 0.179695121122876, -1.16993015278859, 1.27770342563704, -1.15144510514611], a = 0.2, v = 0.2, t = 0.2)
movej(p[0.537072470269901, -0.01184653614666, 0.180907467161769, -1.18398642644443, 1.24316805106711, -1.16726780712069], a = 0.2, v = 0.2, t = 0.2)
movej(p[0.536094669599901, -0.0108563017918771, 0.182249568212345, -1.18715226655944, 1.22161050291249, -1.18443138936761], a = 0.2, v = 0.2, t = 0.2)
movej(p[0.535076284139375, -0.0100242357278306, 0.183440350761592, -1.18969526185631, 1.201202555439, -1.20017910746639], a = 0.2, v = 0.2, t = 0.2)
movej(p[0.534304339502039, -0.00930230984498961, 0.184278810354402, -1.19142225601271, 1.18557215580732, -1.21096790756609], a = 0.2, v = 0.2, t = 0.2)
movej(p[0.533975206082408, -0.00865048053312203, 0.184823255334149, -1.19640943896831, 1.17255813017092, -1.21512050431754], a = 0.2, v = 0.2, t = 0.2)
movej(p[0.533833090262527, -0.00816628520428984, 0.185160006408797, -1.198015364014, 1.16938050931615, -1.2150699690798], a = 0.2, v = 0.2, t = 0.2)
movej(p[0.533705096730126, -0.00789368833705937, 0.185343403050369, -1.19592200212753, 1.16710679895843, -1.21757157472319], a = 0.2, v = 0.2, t = 0.2)
movej(p[0.533668415632069, -0.00754584379723011, 0.185468218486739, -1.20141118446222, 1.14840349421504, -1.21983385596924], a = 0.2, v = 0.2, t = 0.2)
movej(p[0.533842862862571, -0.00705628198742858, 0.185594752984224, -1.20804280047788, 1.14430860975114, -1.21914438394571], a = 0.2, v = 0.2, t = 0.2)
movej(p[0.534216768834558, -0.00723413229026047, 0.185409698817032, -1.21025745806245, 1.15857993404284, -1.21200630510576], a = 0.2, v = 0.2, t = 0.2)
movej(p[0.534798371382661, -0.00756287983574033, 0.184888197114454, -1.21257355086631, 1.17558177915411, -1.20228318227834], a = 0.2, v = 0.2, t = 0.2)
movej(p[0.535720915241733, -0.00802184795099788, 0.183937236331904, -1.21587776178146, 1.19124552972601, -1.18604534760616], a = 0.2, v = 0.2, t = 0.2)
movej(p[0.536835951904523, -0.00854296190487614, 0.182872756486999, -1.21703546569317, 1.21335536124718, -1.16975518424671], a = 0.2, v = 0.2, t = 0.2)
movej(p[0.537826480473669, -0.00945399854080688, 0.181533563083567, -1.20992501388727, 1.24785647056348, -1.14959013467502], a = 0.2, v = 0.2, t = 0.2)
movej(p[0.538615795758391, -0.0107472549552914, 0.180000505700362, -1.20086443215071, 1.27795139943286, -1.13551137731542], a = 0.2, v = 0.2, t = 0.2)
movej(p[0.539098443170769, -0.0117699311187562, 0.178807679285662, -1.19352710785347, 1.28872341378267, -1.12515664275016], a = 0.2, v = 0.2, t = 0.2)
movej(p[0.539274523358681, -0.012475787519812, 0.178331722608523, -1.18949573308967, 1.2935679273035, -1.1268257410849], a = 0.2, v = 0.2, t = 0.2)
movej(p[0.538889580572647, -0.0128543879380045, 0.178751776134665, -1.17510874730966, 1.29758154894678, -1.13668535136184], a = 0.2, v = 0.2, t = 0.2)
movej(p[0.538270010907354, -0.0127596109163811, 0.179484943261602, -1.1697386937778, 1.28899114737717, -1.15150951057586], a = 0.2, v = 0.2, t = 0.2)
movej(p[0.537792807588161, -0.0122382850550498, 0.180269115690637, -1.17424918196585, 1.26496148238138, -1.16263003546842], a = 0.2, v = 0.2, t = 0.2)
movej(p[0.537053708333417, -0.0115036284464031, 0.181286877848023, -1.17851270858862, 1.24885609813406, -1.17687861585417], a = 0.2, v = 0.2, t = 0.2)
movej(p[0.536133089030336, -0.0107421341481958, 0.18243848708409, -1.18201204226521, 1.22816920110171, -1.19490417729636], a = 0.2, v = 0.2, t = 0.2)
movej(p[0.535008569163279, -0.00981661676819269, 0.18359774456494, -1.18531046318714, 1.20333341938052, -1.21306772251654], a = 0.2, v = 0.2, t = 0.2)
movej(p[0.534385390640796, -0.00878921908573747, 0.184443245053527, -1.19771592166315, 1.17352209434066, -1.21907752451733], a = 0.2, v = 0.2, t = 0.2)
movej(p[0.534011649847851, -0.00808796922617242, 0.18495096584082, -1.20247518699922, 1.16854573539705, -1.21741714256822], a = 0.2, v = 0.2, t = 0.2)
movej(p[0.533895293542934, -0.00785408472280505, 0.18520073245166, -1.20485088204012, 1.1637837522674, -1.21694909488838], a = 0.2, v = 0.2, t = 0.2)
movej(p[0.533670707422546, -0.00765548040309865, 0.185363783328147, -1.2026330255668, 1.15698358052389, -1.22163251937913], a = 0.2, v = 0.2, t = 0.2)
movej(p[0.533718290292861, -0.00709549280557698, 0.185504740843287, -1.21306901807475, 1.13299093321941, -1.22414670040637], a = 0.2, v = 0.2, t = 0.2)
movej(p[0.533729658633884, -0.00681779387873551, 0.185527291161545, -1.21740723659722, 1.13894248115549, -1.22269356993568], a = 0.2, v = 0.2, t = 0.2)
movej(p[0.533802141098665, -0.00681815049596206, 0.185519232332636, -1.21805457672809, 1.14395289612562, -1.22226515572765], a = 0.2, v = 0.2, t = 0.2)
movej(p[0.533874468527241, -0.00682234304669731, 0.185401068145194, -1.21684204696218, 1.14650468891309, -1.22054946943933], a = 0.2, v = 0.2, t = 0.2)
movej(p[0.534341747350571, -0.00673588870332379, 0.185187266577661, -1.21929316252205, 1.1409246450404, -1.21456915501497], a = 0.2, v = 0.2, t = 0.2)
movej(p[0.535031474426469, -0.00694647380511477, 0.184650414649588, -1.2239294139817, 1.15723903488204, -1.20121282370941], a = 0.2, v = 0.2, t = 0.2)
movej(p[0.535888155289759, -0.0074301428182608, 0.183788391857606, -1.22436045113189, 1.18073655727858, -1.18896854583855], a = 0.2, v = 0.2, t = 0.2)
movej(p[0.536756003430135, -0.00812297656571714, 0.18264265301824, -1.22643489501788, 1.20066394454095, -1.17686993195273], a = 0.2, v = 0.2, t = 0.2)
movej(p[0.537852101646134, -0.00886176336264106, 0.181271691096969, -1.22711279098847, 1.2189654435116, -1.15708631770821], a = 0.2, v = 0.2, t = 0.2)
movej(p[0.538685867227434, -0.0100868926703881, 0.180070556352496, -1.22347191688401, 1.24836967651392, -1.14532186808595], a = 0.2, v = 0.2, t = 0.2)
movej(p[0.538992422628226, -0.0113198915937979, 0.179197300153345, -1.21199315595914, 1.27480833898377, -1.13452016863581], a = 0.2, v = 0.2, t = 0.2)
movej(p[0.538977366267032, -0.0120896019695166, 0.178792146721299, -1.20104775453273, 1.2831094202088, -1.13697471334638], a = 0.2, v = 0.2, t = 0.2)
movej(p[0.53877926325538, -0.0122103744516908, 0.178932583377211, -1.19600675496765, 1.27922747741799, -1.13994329240352], a = 0.2, v = 0.2, t = 0.2)
movej(p[0.538208786718502, -0.0119884456165604, 0.179749482822069, -1.19370036939542, 1.26607925641332, -1.15869364281781], a = 0.2, v = 0.2, t = 0.2)
movej(p[0.537165060057141, -0.0113115828964635, 0.181130635375014, -1.19446038706576, 1.24301200557069, -1.18241487376737], a = 0.2, v = 0.2, t = 0.2)
movej(p[0.535934007556665, -0.0102324577963191, 0.18265612078111, -1.19863189730997, 1.21214544766695, -1.2015219125345], a = 0.2, v = 0.2, t = 0.2)
movej(p[0.534910784523014, -0.00926795044405565, 0.183784493757672, -1.19888257396787, 1.19352847623761, -1.21178187640254], a = 0.2, v = 0.2, t = 0.2)
movej(p[0.534179328726826, -0.00855555618604958, 0.184580621634576, -1.20082571027018, 1.17830254832328, -1.22084438592533], a = 0.2, v = 0.2, t = 0.2)
movej(p[0.533701791559504, -0.00810204757475085, 0.184984179340244, -1.20173979000671, 1.16246732341624, -1.2297516892472], a = 0.2, v = 0.2, t = 0.2)
movej(p[0.533607694876399, -0.00743122940530143, 0.185248869060039, -1.21243255046386, 1.14063090025935, -1.2314720293281], a = 0.2, v = 0.2, t = 0.2)
movej(p[0.53362510742394, -0.00692777082810676, 0.185404019935761, -1.21890597915679, 1.14164082405491, -1.23004896710943], a = 0.2, v = 0.2, t = 0.2)
movej(p[0.533653674477657, -0.00693898749634916, 0.185458560927642, -1.21609270187615, 1.14727205259781, -1.22848464249113], a = 0.2, v = 0.2, t = 0.2)
movej(p[0.533625428531446, -0.00690141763742551, 0.185522378654201, -1.21216537276866, 1.14821066479893, -1.2297422405198], a = 0.2, v = 0.2, t = 0.2)
movej(p[0.533886703164879, -0.00673671339636055, 0.185394453447539, -1.21480195807192, 1.13867740735943, -1.22497134510141], a = 0.2, v = 0.2, t = 0.2)
movej(p[0.534491205281137, -0.00669716762838376, 0.185010519108524, -1.21963883289092, 1.14906475668959, -1.21481531425758], a = 0.2, v = 0.2, t = 0.2)
movej(p[0.53537169941421, -0.00708751466896427, 0.184256553017486, -1.22413132179454, 1.16931607893075, -1.20163846764933], a = 0.2, v = 0.2, t = 0.2)
movej(p[0.536280930498138, -0.00787669351143459, 0.183134034607697, -1.22389246312779, 1.19228534526194, -1.18907103129334], a = 0.2, v = 0.2, t = 0.2)
movej(p[0.537347991977765, -0.00864468069033464, 0.181839428338694, -1.22643147020305, 1.20906482603366, -1.17163319782205], a = 0.2, v = 0.2, t = 0.2)
movej(p[0.538187138098236, -0.00972672626778592, 0.180609450770436, -1.21675915975462, 1.23930416712499, -1.16046996640741], a = 0.2, v = 0.2, t = 0.2)
movej(p[0.538617468211398, -0.0109273337231641, 0.17961028755219, -1.20798409233366, 1.26669968226419, -1.14916235067331], a = 0.2, v = 0.2, t = 0.2)
movej(p[0.538676631920095, -0.0119403838762777, 0.178889106162421, -1.19176669402658, 1.28444413703136, -1.14357603635911], a = 0.2, v = 0.2, t = 0.2)
movej(p[0.538600598490237, -0.0122136420439848, 0.178698099274259, -1.19196022829369, 1.27716372819281, -1.14178268015577], a = 0.2, v = 0.2, t = 0.2)
movej(p[0.538362094503025, -0.0121128757259881, 0.179139496427899, -1.18655553497048, 1.27158606267927, -1.14869205785804], a = 0.2, v = 0.2, t = 0.2)
movej(p[0.537800317426116, -0.0115225424108319, 0.180207831030388, -1.19296023796166, 1.2545267946772, -1.16713679051962], a = 0.2, v = 0.2, t = 0.2)
movej(p[0.536991103532088, -0.0107074664367239, 0.181495536280142, -1.1950933840563, 1.23144900839717, -1.18313891532078], a = 0.2, v = 0.2, t = 0.2)
movej(p[0.536229319149204, -0.00964899182727772, 0.182609865188119, -1.20502318018235, 1.20753205905787, -1.19270901686173], a = 0.2, v = 0.2, t = 0.2)
movej(p[0.535334448250096, -0.00899204091944299, 0.183523460828939, -1.20623756996285, 1.19344854574242, -1.20300688600125], a = 0.2, v = 0.2, t = 0.2)
movej(p[0.534597806295479, -0.00858166171577945, 0.184186813236008, -1.20381985011834, 1.18881771888662, -1.21258673559837], a = 0.2, v = 0.2, t = 0.2)
movej(p[0.534091878011379, -0.00823604895636103, 0.184624191962145, -1.19870353799905, 1.17437596994439, -1.2219747394512], a = 0.2, v = 0.2, t = 0.2)
movej(p[0.533959942276348, -0.00756363207640817, 0.184991985462055, -1.20376348720923, 1.15993177855877, -1.22367055026749], a = 0.2, v = 0.2, t = 0.2)
movej(p[0.533854877887504, -0.00725900139388454, 0.185194332503452, -1.20764769273053, 1.15533180852604, -1.22499216383444], a = 0.2, v = 0.2, t = 0.2)
movej(p[0.533751713126523, -0.00712793384707165, 0.185325973975505, -1.21189510515678, 1.15376089497696, -1.22683109898429], a = 0.2, v = 0.2, t = 0.2)
movej(p[0.533614980815344, -0.00700251276757875, 0.185409440662863, -1.21217464121423, 1.14423372654227, -1.2306077147537], a = 0.2, v = 0.2, t = 0.2)
movej(p[0.533742056266675, -0.00648099680738195, 0.185504320497017, -1.21951283161682, 1.13260255481297, -1.22606477023429], a = 0.2, v = 0.2, t = 0.2)
movej(p[0.533819449967116, -0.0063879074906127, 0.185481223557059, -1.22200442645232, 1.13808899911388, -1.22214545850614], a = 0.2, v = 0.2, t = 0.2)
movej(p[0.53398478701329, -0.00651056521749012, 0.185396461524876, -1.22293241972574, 1.14852474947984, -1.21853306365769], a = 0.2, v = 0.2, t = 0.2)
movej(p[0.534244237242946, -0.00672845585367936, 0.185083168347815, -1.22314502995615, 1.14906375654149, -1.21745291216086], a = 0.2, v = 0.2, t = 0.2)
movej(p[0.534949888072902, -0.00677177070613584, 0.184519591679438, -1.22745888592037, 1.14758757602433, -1.2089390136208], a = 0.2, v = 0.2, t = 0.2)
movej(p[0.536099395363306, -0.00700429476805738, 0.183570249671026, -1.23688928496996, 1.16156728916474, -1.18875335588395], a = 0.2, v = 0.2, t = 0.2)
movej(p[0.537189535864776, -0.00777620159427037, 0.182596007468697, -1.23704105182306, 1.19600598300396, -1.17139489471675], a = 0.2, v = 0.2, t = 0.2)
movej(p[0.537967007821479, -0.00882473686162054, 0.181673702177774, -1.2324779685429, 1.22725400984063, -1.15941496752625], a = 0.2, v = 0.2, t = 0.2)
movej(p[0.53835714413039, -0.00985693333500862, 0.180707391839842, -1.21820068748706, 1.25415234859379, -1.14808106007637], a = 0.2, v = 0.2, t = 0.2)
movej(p[0.538694707120634, -0.0108734466632429, 0.179632580054812, -1.20694277475964, 1.26938910737179, -1.13904702823076], a = 0.2, v = 0.2, t = 0.2)
movej(p[0.539152719842451, -0.0116494681355025, 0.17853566330713, -1.19907729708098, 1.27936308840332, -1.12534690273697], a = 0.2, v = 0.2, t = 0.2)
movej(p[0.539325609386576, -0.0123295376341302, 0.178046502257405, -1.19483635240817, 1.28748130396439, -1.12486770646049], a = 0.2, v = 0.2, t = 0.2)
movej(p[0.539098944696863, -0.0127710108232812, 0.178219442714494, -1.18729567177861, 1.29097150578308, -1.13087225166399], a = 0.2, v = 0.2, t = 0.2)
movej(p[0.538429739531267, -0.0123179153489737, 0.179362746115827, -1.18888170091155, 1.27091644672521, -1.15080463795409], a = 0.2, v = 0.2, t = 0.2)
movej(p[0.53761994734281, -0.011365513473775, 0.180804655037928, -1.19293944394092, 1.24454306514247, -1.17025283027655], a = 0.2, v = 0.2, t = 0.2)
movej(p[0.536706915535459, -0.0101027957444564, 0.182265395229671, -1.2010098795358, 1.21281049360739, -1.18557833965005], a = 0.2, v = 0.2, t = 0.2)
movej(p[0.535643832044485, -0.00925673013444334, 0.183398998615267, -1.20264516013111, 1.20057389113231, -1.19548768717128], a = 0.2, v = 0.2, t = 0.2)
movej(p[0.534746254192055, -0.00897100771538586, 0.184118899540328, -1.20158239213915, 1.18923946739896, -1.20656328576854], a = 0.2, v = 0.2, t = 0.2)
movej(p[0.534061460542509, -0.00855564833132541, 0.184653266301517, -1.20468455542741, 1.17403701259529, -1.21697492241311], a = 0.2, v = 0.2, t = 0.2)
movej(p[0.533804475469493, -0.00800987823390543, 0.185006882578728, -1.20877003608295, 1.15783622946449, -1.22489129194629], a = 0.2, v = 0.2, t = 0.2)
movej(p[0.533706067337079, -0.0075328963165351, 0.18524650725145, -1.21240191821874, 1.15488876738934, -1.22510994272598], a = 0.2, v = 0.2, t = 0.2)
movej(p[0.533649394868577, -0.00723328471194593, 0.185452350948728, -1.21113020602516, 1.15193677853828, -1.22502029301897], a = 0.2, v = 0.2, t = 0.2)
movej(p[0.53357695853988, -0.00700477958216993, 0.185528212031972, -1.21564417406535, 1.14133374027254, -1.22385013039217], a = 0.2, v = 0.2, t = 0.2)
movej(p[0.533677292844658, -0.00664940558779043, 0.185592872695465, -1.22120474075675, 1.13661017258732, -1.2225320996812], a = 0.2, v = 0.2, t = 0.2)
movej(p[0.53385199186811, -0.00661325937874866, 0.185436285657761, -1.22485893618931, 1.1427701215789, -1.21750259300895], a = 0.2, v = 0.2, t = 0.2)
movej(p[0.534200677019146, -0.00678823071690208, 0.185093416134368, -1.2231052645567, 1.15983054754618, -1.21288739975547], a = 0.2, v = 0.2, t = 0.2)
movej(p[0.534822113311963, -0.00698291419461759, 0.184454997221566, -1.22857909499305, 1.16160088924952, -1.203369839592], a = 0.2, v = 0.2, t = 0.2)
movej(p[0.535814168045955, -0.00704175954944947, 0.183710110091775, -1.23478168917908, 1.17288752359611, -1.18767472122125], a = 0.2, v = 0.2, t = 0.2)
movej(p[0.536685076796255, -0.00772240856398293, 0.182843067659904, -1.23631258160474, 1.20083181232418, -1.17220086498697], a = 0.2, v = 0.2, t = 0.2)
movej(p[0.537316529906129, -0.00864648110216343, 0.181863782939196, -1.22687979072635, 1.23166951042718, -1.16279708887427], a = 0.2, v = 0.2, t = 0.2)
movej(p[0.537813263768235, -0.00971418747522531, 0.18060875209493, -1.21687526563432, 1.2506294073057, -1.15550651388015], a = 0.2, v = 0.2, t = 0.2)
movej(p[0.538323526677596, -0.0106810404699658, 0.179467904173473, -1.20719590709677, 1.26178233684247, -1.1513211455043], a = 0.2, v = 0.2, t = 0.2)
movej(p[0.538603215903383, -0.0116303070677477, 0.178669941244376, -1.19998959448591, 1.27414776891191, -1.14464991053552], a = 0.2, v = 0.2, t = 0.2)
movej(p[0.538606087427488, -0.0123237568788167, 0.178378088329575, -1.19250707804923, 1.2801485414157, -1.14458195573785], a = 0.2, v = 0.2, t = 0.2)
movej(p[0.538516234939157, -0.0122594209848146, 0.178617480294945, -1.19471823826934, 1.27198156364254, -1.14400844157681], a = 0.2, v = 0.2, t = 0.2)
movej(p[0.538062423737069, -0.0117015782087758, 0.179553323860975, -1.19542615236914, 1.25498647679522, -1.16113886648562], a = 0.2, v = 0.2, t = 0.2)
movej(p[0.53706735126439, -0.0109054464420533, 0.181025320645663, -1.1986991884024, 1.23343558640959, -1.18405989540342], a = 0.2, v = 0.2, t = 0.2)
movej(p[0.535701398983772, -0.00999145318875271, 0.182634042897419, -1.19552701076729, 1.2054680190053, -1.21133682270123], a = 0.2, v = 0.2, t = 0.2)
movej(p[0.534746818413199, -0.00898043683772376, 0.183734355916365, -1.20618659019451, 1.17183989169982, -1.21737868357248], a = 0.2, v = 0.2, t = 0.2)
movej(p[0.534196539749757, -0.00838267472531187, 0.184375744131606, -1.2101907157182, 1.15848247785943, -1.2215903249727], a = 0.2, v = 0.2, t = 0.2)
movej(p[0.533909224467207, -0.00805658105737095, 0.184768685657971, -1.21540500855753, 1.15376646643456, -1.22413307021095], a = 0.2, v = 0.2, t = 0.2)
movej(p[0.533628693543144, -0.00777479472875415, 0.185033659308829, -1.21131015558714, 1.14817781232346, -1.22949693872436], a = 0.2, v = 0.2, t = 0.2)
movej(p[0.533620319775446, -0.00719431388742651, 0.185282128935476, -1.21560734427529, 1.13926509337287, -1.22748599500675], a = 0.2, v = 0.2, t = 0.2)
movej(p[0.533617962187243, -0.00694767473611559, 0.185386759575436, -1.21783866889936, 1.13947727388406, -1.22357675163171], a = 0.2, v = 0.2, t = 0.2)
movej(p[0.533616264697271, -0.0068597853513345, 0.185470649292152, -1.21779134219784, 1.14511959052398, -1.22472857103802], a = 0.2, v = 0.2, t = 0.2)
movej(p[0.533622196639995, -0.00680831587263776, 0.185422515366297, -1.21574358185193, 1.14043146161881, -1.22608914127863], a = 0.2, v = 0.2, t = 0.2)
movej(p[0.534068414952001, -0.00651474657395129, 0.185215052966574, -1.21952566714259, 1.1374151803575, -1.21702634100274], a = 0.2, v = 0.2, t = 0.2)
movej(p[0.534699164997618, -0.00671244776970098, 0.184728300558102, -1.22216325575447, 1.15325063298254, -1.20617424536778], a = 0.2, v = 0.2, t = 0.2)
movej(p[0.535407223181098, -0.00707021397186065, 0.184101478606748, -1.22225837128639, 1.17416725502763, -1.19600986006928], a = 0.2, v = 0.2, t = 0.2)
movej(p[0.536207567394385, -0.00756152330935604, 0.183191088343153, -1.22473124801741, 1.18835357716188, -1.18549608912766], a = 0.2, v = 0.2, t = 0.2)
movej(p[0.537254584990225, -0.00800645274479447, 0.182156905761845, -1.22987392140521, 1.19886080984832, -1.17036764348166], a = 0.2, v = 0.2, t = 0.2)
movej(p[0.538055917314936, -0.0090646889062719, 0.18105354560219, -1.22703668774735, 1.22527852244245, -1.15535956762118], a = 0.2, v = 0.2, t = 0.2)
movej(p[0.538535420562015, -0.0103247283231394, 0.179974812064386, -1.21733801772436, 1.25184698483909, -1.14461976898202], a = 0.2, v = 0.2, t = 0.2)
movej(p[0.538727937157944, -0.0113534680123451, 0.179051159706762, -1.20326984509494, 1.26784636163432, -1.13674775432922], a = 0.2, v = 0.2, t = 0.2)
movej(p[0.538775805609414, -0.0117996763300183, 0.178735502790803, -1.19650694493933, 1.26671585679254, -1.13810359694489], a = 0.2, v = 0.2, t = 0.2)
movej(p[0.538541673887306, -0.0118837525474053, 0.179167771395229, -1.19753760240442, 1.2561832796547, -1.15588145207545], a = 0.2, v = 0.2, t = 0.2)
movej(p[0.537556849668031, -0.0112118937147111, 0.18058238472263, -1.19971087698484, 1.23482054790292, -1.17885129964989], a = 0.2, v = 0.2, t = 0.2)
movej(p[0.536377020123715, -0.0101167199451093, 0.182174477434818, -1.2056326026201, 1.20840182376064, -1.20012683170097], a = 0.2, v = 0.2, t = 0.2)
movej(p[0.535191761131465, -0.0091907231363969, 0.183464125092295, -1.20206211887117, 1.19551353130251, -1.2091907111658], a = 0.2, v = 0.2, t = 0.2)
movej(p[0.534440018398787, -0.00866488923434859, 0.184249621831122, -1.20070338281039, 1.18236661535159, -1.21487418477356], a = 0.2, v = 0.2, t = 0.2)
movej(p[0.533932833008537, -0.00834384060844711, 0.184701104221972, -1.19803084189931, 1.17024247529236, -1.22041792786954], a = 0.2, v = 0.2, t = 0.2)
movej(p[0.533853173772853, -0.00769179057342491, 0.185012187830826, -1.20551151240207, 1.15051773613669, -1.22033215783142], a = 0.2, v = 0.2, t = 0.2)
movej(p[0.533778827774791, -0.00724704119761051, 0.185196213716192, -1.21155249936179, 1.15444404124392, -1.22081624771344], a = 0.2, v = 0.2, t = 0.2)
movej(p[0.533797797158639, -0.00722508995694568, 0.185261244443619, -1.21386287692793, 1.15971696896459, -1.22081028526899], a = 0.2, v = 0.2, t = 0.2)
movej(p[0.533681702316952, -0.00710859200072003, 0.185332426069964, -1.21548732657296, 1.1514658034786, -1.22354034697982], a = 0.2, v = 0.2, t = 0.2)
movej(p[0.53374443178385, -0.00681286455517086, 0.185433482548884, -1.21767707682861, 1.13876408924706, -1.22241885591577], a = 0.2, v = 0.2, t = 0.2)
movej(p[0.533824604206674, -0.00659544762276769, 0.185475056851319, -1.21816026865403, 1.14363312643186, -1.22046211543114], a = 0.2, v = 0.2, t = 0.2)
movej(p[0.534000899217738, -0.00656089129016626, 0.185373202045586, -1.21821300407601, 1.14838198015633, -1.21866358785876], a = 0.2, v = 0.2, t = 0.2)
movej(p[0.534292448509584, -0.00675012645782078, 0.184969326912102, -1.21881001324282, 1.14693300387287, -1.21734106230137], a = 0.2, v = 0.2, t = 0.2)
movej(p[0.535098215922412, -0.00676394246826619, 0.184297371630272, -1.22734744205876, 1.14219169812708, -1.2066307673175], a = 0.2, v = 0.2, t = 0.2)
movej(p[0.536086618167975, -0.0071115996426614, 0.183540810797649, -1.23300215158153, 1.16154761680016, -1.19385582399819], a = 0.2, v = 0.2, t = 0.2)
movej(p[0.536931221864248, -0.00791849190307831, 0.182736726888644, -1.22686421647466, 1.19511498443575, -1.18205465406805], a = 0.2, v = 0.2, t = 0.2)
movej(p[0.537630491249057, -0.00871084966599494, 0.181771625990802, -1.21874967954488, 1.21933243718179, -1.16764306461097], a = 0.2, v = 0.2, t = 0.2)
movej(p[0.53828160416087, -0.00950591578940135, 0.180739632245869, -1.2132553828069, 1.23637957066829, -1.15419076844612], a = 0.2, v = 0.2, t = 0.2)
movej(p[0.538772291155371, -0.0104387677188608, 0.179705339021715, -1.20805748033331, 1.25878452282381, -1.14156444718203], a = 0.2, v = 0.2, t = 0.2)
movej(p[0.538983622709952, -0.0115157723046082, 0.178862572445244, -1.20069479952345, 1.27893078259912, -1.13203474292266], a = 0.2, v = 0.2, t = 0.2)
movej(p[0.538910121807753, -0.0122513137712365, 0.17840849855451, -1.19367057188007, 1.29095004469893, -1.12716302200615], a = 0.2, v = 0.2, t = 0.2)
movej(p[0.538753878860833, -0.0125184286627253, 0.178435148813095, -1.18934458798847, 1.28639323745927, -1.13493816577384], a = 0.2, v = 0.2, t = 0.2)
movej(p[0.538322188302207, -0.0122926273372109, 0.179262334465164, -1.1874133592982, 1.27323582017536, -1.15033918320396], a = 0.2, v = 0.2, t = 0.2)
movej(p[0.537310294549838, -0.0115248489671477, 0.180719550876126, -1.18814360714056, 1.2455238983788, -1.17585645222638], a = 0.2, v = 0.2, t = 0.2)
movej(p[0.536155440993759, -0.0103575366353312, 0.182274238567112, -1.19408132567837, 1.21620318813551, -1.19204246359785], a = 0.2, v = 0.2, t = 0.2)
movej(p[0.535010310443997, -0.00946235358379184, 0.183433307169498, -1.19647642955857, 1.19896297540466, -1.20668522111053], a = 0.2, v = 0.2, t = 0.2)
movej(p[0.534311052532847, -0.00897388181142467, 0.184160193470211, -1.19449054652458, 1.18854895543484, -1.21441936711131], a = 0.2, v = 0.2, t = 0.2)
