def moving():
set_payload_mass(0)
set_tcp(p[0,0,0,0,0,0])
movej(p[0.4129, 0.2124, 0.3202, -1.283, 0.713, -0.78], a = 0.2, v = 0.2, t = 0.2)
movej(p[0.412876707961933, 0.212375929202023, 0.320417192656866, -1.283, 0.713, -0.78], a = 0.2, v = 0.2, t = 0.2)
movej(p[0.412853415923866, 0.212351858404046, 0.320634385313732, -1.283, 0.713, -0.78], a = 0.2, v = 0.2, t = 0.2)
movej(p[0.412830123885799, 0.212327787606069, 0.320851577970597, -1.283, 0.713, -0.78], a = 0.2, v = 0.2, t = 0.2)
movej(p[0.412806831847732, 0.212303716808092, 0.321068770627463, -1.283, 0.713, -0.78], a = 0.2, v = 0.2, t = 0.2)
movej(p[0.412783539809665, 0.212279646010114, 0.321285963284329, -1.283, 0.713, -0.78], a = 0.2, v = 0.2, t = 0.2)
movej(p[0.412760247771597, 0.212255575212137, 0.321503155941195, -1.283, 0.713, -0.78], a = 0.2, v = 0.2, t = 0.2)
movej(p[0.41273695573353, 0.21223150441416, 0.321720348598061, -1.283, 0.713, -0.78], a = 0.2, v = 0.2, t = 0.2)
movej(p[0.412713663695463, 0.212207433616183, 0.321937541254926, -1.283, 0.713, -0.78], a = 0.2, v = 0.2, t = 0.2)
movej(p[0.412690371657396, 0.212183362818206, 0.322154733911792, -1.283, 0.713, -0.78], a = 0.2, v = 0.2, t = 0.2)
movej(p[0.412667079619329, 0.212159292020229, 0.322371926568658, -1.283, 0.713, -0.78], a = 0.2, v = 0.2, t = 0.2)
movej(p[0.412728216406851, 0.212222472891613, 0.321801840718901, -1.283, 0.713, -0.78], a = 0.2, v = 0.2, t = 0.2)
movej(p[0.412762307480749, 0.212257703786834, 0.321483949648398, -1.283, 0.713, -0.78], a = 0.2, v = 0.2, t = 0.2)
movej(p[0.412792144389017, 0.212288538280111, 0.321205727649933, -1.283, 0.713, -0.78], a = 0.2, v = 0.2, t = 0.2)
movej(p[0.412802654680574, 0.212299399979033, 0.321107721707248, -1.283, 0.713, -0.78], a = 0.2, v = 0.2, t = 0.2)
movej(p[0.412805927115674, 0.212302781826682, 0.321077207036449, -1.283, 0.713, -0.78], a = 0.2, v = 0.2, t = 0.2)
movej(p[0.412809103302684, 0.212306064208225, 0.321047589855967, -1.283, 0.713, -0.78], a = 0.2, v = 0.2, t = 0.2)
movej(p[0.412820864819427, 0.212318218966542, 0.320937916539153, -1.283, 0.713, -0.78], a = 0.2, v = 0.2, t = 0.2)
movej(p[0.412809931036268, 0.212306919616748, 0.321039871439236, -1.283, 0.713, -0.78], a = 0.2, v = 0.2, t = 0.2)
movej(p[0.41273805296177, 0.212232638327784, 0.32171011720844, -1.283, 0.713, -0.78], a = 0.2, v = 0.2, t = 0.2)
movej(p[0.412643248591951, 0.212134664212051, 0.322594145171302, -1.283, 0.713, -0.78], a = 0.2, v = 0.2, t = 0.2)
movej(p[0.4125400706382, 0.212028036544978, 0.323556254791799, -1.283, 0.713, -0.78], a = 0.2, v = 0.2, t = 0.2)
movej(p[0.412401916128111, 0.211885262894498, 0.324844512393721, -1.283, 0.713, -0.78], a = 0.2, v = 0.2, t = 0.2)
movej(p[0.41228714990418, 0.211766659508101, 0.32591467984846, -1.283, 0.713, -0.78], a = 0.2, v = 0.2, t = 0.2)
movej(p[0.412262645140164, 0.211741335437172, 0.326143180883328, -1.283, 0.713, -0.78], a = 0.2, v = 0.2, t = 0.2)
movej(p[0.412380837796141, 0.211863479816989, 0.325041062773281, -1.283, 0.713, -0.78], a = 0.2, v = 0.2, t = 0.2)
movej(p[0.412543054329026, 0.212031119994306, 0.323528432591952, -1.283, 0.713, -0.78], a = 0.2, v = 0.2, t = 0.2)
movej(p[0.412661728225459, 0.212153761704661, 0.322421827030318, -1.283, 0.713, -0.78], a = 0.2, v = 0.2, t = 0.2)
movej(p[0.412749929976222, 0.21224491244543, 0.321599366903244, -1.283, 0.713, -0.78], a = 0.2, v = 0.2, t = 0.2)
movej(p[0.412779901631818, 0.212275886191257, 0.321319888418335, -1.283, 0.713, -0.78], a = 0.2, v = 0.2, t = 0.2)
movej(p[0.41279320311802, 0.212289632407292, 0.321195855256439, -1.283, 0.713, -0.78], a = 0.2, v = 0.2, t = 0.2)
movej(p[0.412809084053065, 0.212306044315003, 0.321047769354031, -1.283, 0.713, -0.78], a = 0.2, v = 0.2, t = 0.2)
movej(p[0.412810835768325, 0.212307854598157, 0.32103143503025, -1.283, 0.713, -0.78], a = 0.2, v = 0.2, t = 0.2)
movej(p[0.412781364602804, 0.212277398076088, 0.321306246565507, -1.283, 0.713, -0.78], a = 0.2, v = 0.2, t = 0.2)
movej(p[0.412694683571881, 0.212187818899815, 0.322114526345562, -1.283, 0.713, -0.78], a = 0.2, v = 0.2, t = 0.2)
movej(p[0.41258549973724, 0.212074984547645, 0.323132639361879, -1.283, 0.713, -0.78], a = 0.2, v = 0.2, t = 0.2)
movej(p[0.41245652729505, 0.211941699963804, 0.324335276387499, -1.283, 0.713, -0.78], a = 0.2, v = 0.2, t = 0.2)
movej(p[0.412335081453591, 0.211816193629558, 0.325467729670281, -1.283, 0.713, -0.78], a = 0.2, v = 0.2, t = 0.2)
movej(p[0.41226957500273, 0.2117484969969, 0.326078561580459, -1.283, 0.713, -0.78], a = 0.2, v = 0.2, t = 0.2)
movej(p[0.412324436414706, 0.211805192678086, 0.325566992099411, -1.283, 0.713, -0.78], a = 0.2, v = 0.2, t = 0.2)
movej(p[0.412472080986586, 0.211957773686751, 0.324190241952171, -1.283, 0.713, -0.78], a = 0.2, v = 0.2, t = 0.2)
movej(p[0.412617030611912, 0.21210756964441, 0.322838621533824, -1.283, 0.713, -0.78], a = 0.2, v = 0.2, t = 0.2)
movej(p[0.412727138428229, 0.212221358871211, 0.321811892610459, -1.283, 0.713, -0.78], a = 0.2, v = 0.2, t = 0.2)
movej(p[0.412768621355531, 0.212264228763476, 0.321425074283561, -1.283, 0.713, -0.78], a = 0.2, v = 0.2, t = 0.2)
movej(p[0.412790219427193, 0.212286548957964, 0.321223677456286, -1.283, 0.713, -0.78], a = 0.2, v = 0.2, t = 0.2)
movej(p[0.412802904925611, 0.212299658590912, 0.321105388232422, -1.283, 0.713, -0.78], a = 0.2, v = 0.2, t = 0.2)
movej(p[0.412813164972132, 0.212310261677955, 0.321009715764563, -1.283, 0.713, -0.78], a = 0.2, v = 0.2, t = 0.2)
movej(p[0.412804425645452, 0.212301230155408, 0.321091207885404, -1.283, 0.713, -0.78], a = 0.2, v = 0.2, t = 0.2)
movej(p[0.412742595871674, 0.212237333128051, 0.321667755665448, -1.283, 0.713, -0.78], a = 0.2, v = 0.2, t = 0.2)
movej(p[0.412649985958334, 0.212141626839565, 0.322531320849069, -1.283, 0.713, -0.78], a = 0.2, v = 0.2, t = 0.2)
movej(p[0.412510464725351, 0.21199744077036, 0.323832322813501, -1.283, 0.713, -0.78], a = 0.2, v = 0.2, t = 0.2)
movej(p[0.412387979404507, 0.211870860202154, 0.324974468991713, -1.283, 0.713, -0.78], a = 0.2, v = 0.2, t = 0.2)
movej(p[0.412299816152981, 0.211779749247828, 0.32579657012266, -1.283, 0.713, -0.78], a = 0.2, v = 0.2, t = 0.2)
movej(p[0.412266244818775, 0.211745055469586, 0.326109614745448, -1.283, 0.713, -0.78], a = 0.2, v = 0.2, t = 0.2)
movej(p[0.412345168253548, 0.211826617677608, 0.325373672684994, -1.283, 0.713, -0.78], a = 0.2, v = 0.2, t = 0.2)
movej(p[0.412514815139072, 0.212001936638411, 0.323791756251144, -1.283, 0.713, -0.78], a = 0.2, v = 0.2, t = 0.2)
movej(p[0.412663710936138, 0.212155810706472, 0.322403338729775, -1.283, 0.713, -0.78], a = 0.2, v = 0.2, t = 0.2)
movej(p[0.412731816085461, 0.212226192924028, 0.321768274581022, -1.283, 0.713, -0.78], a = 0.2, v = 0.2, t = 0.2)
movej(p[0.412771200804375, 0.212266894455153, 0.321401021543049, -1.283, 0.713, -0.78], a = 0.2, v = 0.2, t = 0.2)
movej(p[0.412795031831752, 0.212291522263331, 0.321178802940404, -1.283, 0.713, -0.78], a = 0.2, v = 0.2, t = 0.2)
movej(p[0.412808371817191, 0.212305308265809, 0.321054410782381, -1.283, 0.713, -0.78], a = 0.2, v = 0.2, t = 0.2)
movej(p[0.41281056627367, 0.212307576093056, 0.321033948003139, -1.283, 0.713, -0.78], a = 0.2, v = 0.2, t = 0.2)
movej(p[0.41278380930432, 0.212279924515215, 0.32128345031144, -1.283, 0.713, -0.78], a = 0.2, v = 0.2, t = 0.2)
movej(p[0.412697609513853, 0.212190842669478, 0.322087242639907, -1.283, 0.713, -0.78], a = 0.2, v = 0.2, t = 0.2)
movej(p[0.412558685019035, 0.212047273290139, 0.32338268016437, -1.283, 0.713, -0.78], a = 0.2, v = 0.2, t = 0.2)
movej(p[0.412423860692901, 0.211907941166972, 0.324639884601302, -1.283, 0.713, -0.78], a = 0.2, v = 0.2, t = 0.2)
movej(p[0.412336679171905, 0.21181784476694, 0.325452831331009, -1.283, 0.713, -0.78], a = 0.2, v = 0.2, t = 0.2)
movej(p[0.412255638279126, 0.211734094304557, 0.326208518178451, -1.283, 0.713, -0.78], a = 0.2, v = 0.2, t = 0.2)
movej(p[0.412281375018709, 0.211760691541661, 0.325968529267517, -1.283, 0.713, -0.78], a = 0.2, v = 0.2, t = 0.2)
movej(p[0.412454621582845, 0.211939730534879, 0.324353046695788, -1.283, 0.713, -0.78], a = 0.2, v = 0.2, t = 0.2)
movej(p[0.412630909586661, 0.212121912657089, 0.322709203430022, -1.283, 0.713, -0.78], a = 0.2, v = 0.2, t = 0.2)
movej(p[0.412718514599259, 0.212212446707993, 0.321892307742918, -1.283, 0.713, -0.78], a = 0.2, v = 0.2, t = 0.2)
movej(p[0.412762557725786, 0.212257962398714, 0.321481616173572, -1.283, 0.713, -0.78], a = 0.2, v = 0.2, t = 0.2)
movej(p[0.412796456303502, 0.21229299436172, 0.321165520083703, -1.283, 0.713, -0.78], a = 0.2, v = 0.2, t = 0.2)
movej(p[0.412805503624073, 0.21230234417581, 0.321081155993846, -1.283, 0.713, -0.78], a = 0.2, v = 0.2, t = 0.2)
movej(p[0.412807775079025, 0.212304691575944, 0.32105997522235, -1.283, 0.713, -0.78], a = 0.2, v = 0.2, t = 0.2)
movej(p[0.412786042260035, 0.212282232128905, 0.321262628536071, -1.283, 0.713, -0.78], a = 0.2, v = 0.2, t = 0.2)
movej(p[0.412714799422939, 0.21220860731625, 0.321926950869178, -1.283, 0.713, -0.78], a = 0.2, v = 0.2, t = 0.2)
movej(p[0.412588079186083, 0.212077650239321, 0.323108586621366, -1.283, 0.713, -0.78], a = 0.2, v = 0.2, t = 0.2)
movej(p[0.412465690113331, 0.211951169137223, 0.324249835309261, -1.283, 0.713, -0.78], a = 0.2, v = 0.2, t = 0.2)
movej(p[0.41236795980154, 0.211850171251827, 0.32516114697778, -1.283, 0.713, -0.78], a = 0.2, v = 0.2, t = 0.2)
movej(p[0.412274214160725, 0.211753291263274, 0.326035302547149, -1.283, 0.713, -0.78], a = 0.2, v = 0.2, t = 0.2)
movej(p[0.41226978674853, 0.211748715822337, 0.32607658710176, -1.283, 0.713, -0.78], a = 0.2, v = 0.2, t = 0.2)
movej(p[0.412410559206699, 0.211894194950937, 0.324763917763198, -1.283, 0.713, -0.78], a = 0.2, v = 0.2, t = 0.2)
movej(p[0.412591313121947, 0.212080992300528, 0.323078430946694, -1.283, 0.713, -0.78], a = 0.2, v = 0.2, t = 0.2)
movej(p[0.412697667262708, 0.212190902349143, 0.322086704145716, -1.283, 0.713, -0.78], a = 0.2, v = 0.2, t = 0.2)
movej(p[0.412757302580007, 0.212252531549253, 0.321530619144914, -1.283, 0.713, -0.78], a = 0.2, v = 0.2, t = 0.2)
movej(p[0.412797592030978, 0.212294168061787, 0.321154929697955, -1.283, 0.713, -0.78], a = 0.2, v = 0.2, t = 0.2)
movej(p[0.412805522873692, 0.212302364069032, 0.321080976495783, -1.283, 0.713, -0.78], a = 0.2, v = 0.2, t = 0.2)
movej(p[0.412806100362239, 0.212302960865676, 0.321075591553877, -1.283, 0.713, -0.78], a = 0.2, v = 0.2, t = 0.2)
movej(p[0.412793357114966, 0.212289791553063, 0.321194419271931, -1.283, 0.713, -0.78], a = 0.2, v = 0.2, t = 0.2)
movej(p[0.412720189316046, 0.212214177418261, 0.321876691411391, -1.283, 0.713, -0.78], a = 0.2, v = 0.2, t = 0.2)
movej(p[0.412595528788341, 0.21208534891603, 0.323039120870782, -1.283, 0.713, -0.78], a = 0.2, v = 0.2, t = 0.2)
movej(p[0.412480801063647, 0.211966785316076, 0.324108929329394, -1.283, 0.713, -0.78], a = 0.2, v = 0.2, t = 0.2)
movej(p[0.412382281517509, 0.2118649718086, 0.325027600418517, -1.283, 0.713, -0.78], a = 0.2, v = 0.2, t = 0.2)
movej(p[0.412285436688157, 0.211764889011391, 0.325930655176114, -1.283, 0.713, -0.78], a = 0.2, v = 0.2, t = 0.2)
movej(p[0.412261451663834, 0.211740102057441, 0.326154309763266, -1.283, 0.713, -0.78], a = 0.2, v = 0.2, t = 0.2)
movej(p[0.41239941367774, 0.211882676775707, 0.324867847141979, -1.283, 0.713, -0.78], a = 0.2, v = 0.2, t = 0.2)
movej(p[0.412556182568664, 0.212044687171348, 0.323406014912628, -1.283, 0.713, -0.78], a = 0.2, v = 0.2, t = 0.2)
movej(p[0.412673643739148, 0.21216607560875, 0.322310717728996, -1.283, 0.713, -0.78], a = 0.2, v = 0.2, t = 0.2)
movej(p[0.41274744677547, 0.212242346219861, 0.321622522153439, -1.283, 0.713, -0.78], a = 0.2, v = 0.2, t = 0.2)
movej(p[0.4127958210661, 0.212292337885411, 0.3211714435198, -1.283, 0.713, -0.78], a = 0.2, v = 0.2, t = 0.2)
movej(p[0.412805599872164, 0.212302443641918, 0.321080258503529, -1.283, 0.713, -0.78], a = 0.2, v = 0.2, t = 0.2)
movej(p[0.412810027284359, 0.212307019082855, 0.321038973948918, -1.283, 0.713, -0.78], a = 0.2, v = 0.2, t = 0.2)
movej(p[0.412816841649215, 0.212314061283255, 0.32097543163443, -1.283, 0.713, -0.78], a = 0.2, v = 0.2, t = 0.2)
movej(p[0.412792202137871, 0.212288597959775, 0.321205189155743, -1.283, 0.713, -0.78], a = 0.2, v = 0.2, t = 0.2)
movej(p[0.412687079972678, 0.212179961077335, 0.322185428080655, -1.283, 0.713, -0.78], a = 0.2, v = 0.2, t = 0.2)
movej(p[0.412568540823573, 0.212057458619531, 0.323290777155845, -1.283, 0.713, -0.78], a = 0.2, v = 0.2, t = 0.2)
movej(p[0.412466498597297, 0.211952004652525, 0.324242296390593, -1.283, 0.713, -0.78], a = 0.2, v = 0.2, t = 0.2)
movej(p[0.412339624363495, 0.211820888429825, 0.325425368127289, -1.283, 0.713, -0.78], a = 0.2, v = 0.2, t = 0.2)
movej(p[0.412250402382966, 0.211728683348318, 0.32625734165173, -1.283, 0.713, -0.78], a = 0.2, v = 0.2, t = 0.2)
movej(p[0.412298487929322, 0.211778376615546, 0.325808955489043, -1.283, 0.713, -0.78], a = 0.2, v = 0.2, t = 0.2)
movej(p[0.412454044094297, 0.211939133738235, 0.324358431637694, -1.283, 0.713, -0.78], a = 0.2, v = 0.2, t = 0.2)
movej(p[0.412598916721151, 0.212088850123008, 0.323007529211602, -1.283, 0.713, -0.78], a = 0.2, v = 0.2, t = 0.2)
movej(p[0.412704115884818, 0.212197566578335, 0.322026572294435, -1.283, 0.713, -0.78], a = 0.2, v = 0.2, t = 0.2)
movej(p[0.412774627236421, 0.212270435448574, 0.321369070887741, -1.283, 0.713, -0.78], a = 0.2, v = 0.2, t = 0.2)
movej(p[0.412795108830225, 0.212291601836217, 0.32117808494815, -1.283, 0.713, -0.78], a = 0.2, v = 0.2, t = 0.2)
movej(p[0.412804156150797, 0.212300951650307, 0.321093720858293, -1.283, 0.713, -0.78], a = 0.2, v = 0.2, t = 0.2)
movej(p[0.412818304620201, 0.212315573168087, 0.320961789781602, -1.283, 0.713, -0.78], a = 0.2, v = 0.2, t = 0.2)
movej(p[0.412818400868292, 0.212315672634194, 0.320960892291284, -1.283, 0.713, -0.78], a = 0.2, v = 0.2, t = 0.2)
movej(p[0.41279353036153, 0.212289970592057, 0.321192803789359, -1.283, 0.713, -0.78], a = 0.2, v = 0.2, t = 0.2)
movej(p[0.412709813771816, 0.212203454971889, 0.321973440867631, -1.283, 0.713, -0.78], a = 0.2, v = 0.2, t = 0.2)
movej(p[0.412620129800448, 0.212110772453067, 0.322809722345597, -1.283, 0.713, -0.78], a = 0.2, v = 0.2, t = 0.2)
movej(p[0.412499569441429, 0.211986181207008, 0.323933918717456, -1.283, 0.713, -0.78], a = 0.2, v = 0.2, t = 0.2)
movej(p[0.412393138302195, 0.211876191585508, 0.324926363510689, -1.283, 0.713, -0.78], a = 0.2, v = 0.2, t = 0.2)
movej(p[0.412342261561194, 0.211823613801166, 0.325400776892586, -1.283, 0.713, -0.78], a = 0.2, v = 0.2, t = 0.2)
movej(p[0.412405689053285, 0.211889161965905, 0.32480933077327, -1.283, 0.713, -0.78], a = 0.2, v = 0.2, t = 0.2)
movej(p[0.412550388433575, 0.212038699311686, 0.323460043829749, -1.283, 0.713, -0.78], a = 0.2, v = 0.2, t = 0.2)
movej(p[0.41266696412162, 0.2121591726609, 0.322373003557039, -1.283, 0.713, -0.78], a = 0.2, v = 0.2, t = 0.2)
movej(p[0.412756802089933, 0.212252014325494, 0.321535286094566, -1.283, 0.713, -0.78], a = 0.2, v = 0.2, t = 0.2)
movej(p[0.412785310774542, 0.21228147618649, 0.321269449462485, -1.283, 0.713, -0.78], a = 0.2, v = 0.2, t = 0.2)
movej(p[0.412800768217987, 0.212297450443329, 0.321125312517474, -1.283, 0.713, -0.78], a = 0.2, v = 0.2, t = 0.2)
movej(p[0.41281678390036, 0.212314001603591, 0.320975970128621, -1.283, 0.713, -0.78], a = 0.2, v = 0.2, t = 0.2)
movej(p[0.412818574114856, 0.212315851673187, 0.320959276808713, -1.283, 0.713, -0.78], a = 0.2, v = 0.2, t = 0.2)
movej(p[0.412818439367529, 0.212315712420637, 0.320960533295157, -1.283, 0.713, -0.78], a = 0.2, v = 0.2, t = 0.2)
movej(p[0.412795224327935, 0.212291721195546, 0.321177007959769, -1.283, 0.713, -0.78], a = 0.2, v = 0.2, t = 0.2)
movej(p[0.412724058489311, 0.212218175955776, 0.321840612300623, -1.283, 0.713, -0.78], a = 0.2, v = 0.2, t = 0.2)
movej(p[0.412617588850841, 0.212108146547833, 0.322833416089982, -1.283, 0.713, -0.78], a = 0.2, v = 0.2, t = 0.2)
movej(p[0.412515219381055, 0.212002354396062, 0.32378798679181, -1.283, 0.713, -0.78], a = 0.2, v = 0.2, t = 0.2)
movej(p[0.412437373924904, 0.211921906208443, 0.324513876960707, -1.283, 0.713, -0.78], a = 0.2, v = 0.2, t = 0.2)
movej(p[0.412350288651999, 0.211831909274519, 0.325325926200096, -1.283, 0.713, -0.78], a = 0.2, v = 0.2, t = 0.2)
movej(p[0.41234907592605, 0.211830656001566, 0.325337234578098, -1.283, 0.713, -0.78], a = 0.2, v = 0.2, t = 0.2)
movej(p[0.412476392901071, 0.21196222976836, 0.324150034385941, -1.283, 0.713, -0.78], a = 0.2, v = 0.2, t = 0.2)
movej(p[0.412621496523343, 0.212112184871791, 0.322796977983086, -1.283, 0.713, -0.78], a = 0.2, v = 0.2, t = 0.2)
movej(p[0.412711161245092, 0.212204847497392, 0.321960876003185, -1.283, 0.713, -0.78], a = 0.2, v = 0.2, t = 0.2)
movej(p[0.412762422978458, 0.212257823146163, 0.321482872660016, -1.283, 0.713, -0.78], a = 0.2, v = 0.2, t = 0.2)
movej(p[0.412800614221041, 0.212297291297557, 0.321126748501982, -1.283, 0.713, -0.78], a = 0.2, v = 0.2, t = 0.2)
movej(p[0.412812221740838, 0.212309286910103, 0.321018511169676, -1.283, 0.713, -0.78], a = 0.2, v = 0.2, t = 0.2)
movej(p[0.4128178811286, 0.212315135517215, 0.320965738739, -1.283, 0.713, -0.78], a = 0.2, v = 0.2, t = 0.2)
movej(p[0.412820383578971, 0.212317721636005, 0.320942403990741, -1.283, 0.713, -0.78], a = 0.2, v = 0.2, t = 0.2)
movej(p[0.412833434820136, 0.212331209240161, 0.320820704303671, -1.283, 0.713, -0.78], a = 0.2, v = 0.2, t = 0.2)
movej(p[0.412833203824717, 0.212330970521504, 0.320822858280433, -1.283, 0.713, -0.78], a = 0.2, v = 0.2, t = 0.2)
movej(p[0.412803270668358, 0.21230003656212, 0.321101977769215, -1.283, 0.713, -0.78], a = 0.2, v = 0.2, t = 0.2)
movej(p[0.412737552471696, 0.212232121104026, 0.321714784158091, -1.283, 0.713, -0.78], a = 0.2, v = 0.2, t = 0.2)
movej(p[0.412656165085789, 0.212148012563656, 0.322473701970677, -1.283, 0.713, -0.78], a = 0.2, v = 0.2, t = 0.2)
movej(p[0.412554450103023, 0.212042896781416, 0.323422169738345, -1.283, 0.713, -0.78], a = 0.2, v = 0.2, t = 0.2)
movej(p[0.412469020297286, 0.211954610664537, 0.324218782144271, -1.283, 0.713, -0.78], a = 0.2, v = 0.2, t = 0.2)
movej(p[0.412397469466298, 0.211880667560338, 0.324885976446395, -1.283, 0.713, -0.78], a = 0.2, v = 0.2, t = 0.2)
movej(p[0.412349980658107, 0.211831590982975, 0.325328798169113, -1.283, 0.713, -0.78], a = 0.2, v = 0.2, t = 0.2)
movej(p[0.412442282577555, 0.211926978979917, 0.324468104954508, -1.283, 0.713, -0.78], a = 0.2, v = 0.2, t = 0.2)
movej(p[0.412586211973114, 0.212075720596839, 0.323125997933528, -1.283, 0.713, -0.78], a = 0.2, v = 0.2, t = 0.2)
movej(p[0.412711988978677, 0.212205702905915, 0.321953157586453, -1.283, 0.713, -0.78], a = 0.2, v = 0.2, t = 0.2)
movej(p[0.412765502917376, 0.212261006061598, 0.321454152969852, -1.283, 0.713, -0.78], a = 0.2, v = 0.2, t = 0.2)
movej(p[0.41279549382259, 0.212291999700646, 0.32117449498688, -1.283, 0.713, -0.78], a = 0.2, v = 0.2, t = 0.2)
movej(p[0.41281743838738, 0.212314677973121, 0.320969867194461, -1.283, 0.713, -0.78], a = 0.2, v = 0.2, t = 0.2)
movej(p[0.412823213272852, 0.212320645939561, 0.320916017775403, -1.283, 0.713, -0.78], a = 0.2, v = 0.2, t = 0.2)
movej(p[0.412826466458334, 0.21232400789399, 0.320885682602667, -1.283, 0.713, -0.78], a = 0.2, v = 0.2, t = 0.2)
movej(p[0.412826331711006, 0.212323868641439, 0.320886939089112, -1.283, 0.713, -0.78], a = 0.2, v = 0.2, t = 0.2)
movej(p[0.412835340532341, 0.212333178669087, 0.320802933995382, -1.283, 0.713, -0.78], a = 0.2, v = 0.2, t = 0.2)
movej(p[0.412819382598822, 0.212316687188489, 0.320951737890045, -1.283, 0.713, -0.78], a = 0.2, v = 0.2, t = 0.2)
movej(p[0.412743827847241, 0.212238606294225, 0.321656267789382, -1.283, 0.713, -0.78], a = 0.2, v = 0.2, t = 0.2)
movej(p[0.412661439481186, 0.212153463306339, 0.322424519501271, -1.283, 0.713, -0.78], a = 0.2, v = 0.2, t = 0.2)
movej(p[0.412564575402216, 0.212053360615908, 0.323327753756931, -1.283, 0.713, -0.78], a = 0.2, v = 0.2, t = 0.2)
movej(p[0.412455930556885, 0.211941083273939, 0.324340840827469, -1.283, 0.713, -0.78], a = 0.2, v = 0.2, t = 0.2)
movej(p[0.412373503691593, 0.21185590049961, 0.325109451535485, -1.283, 0.713, -0.78], a = 0.2, v = 0.2, t = 0.2)
movej(p[0.412367902052686, 0.211850111572162, 0.325161685471971, -1.283, 0.713, -0.78], a = 0.2, v = 0.2, t = 0.2)
movej(p[0.412483977250656, 0.211970067697619, 0.324079312148912, -1.283, 0.713, -0.78], a = 0.2, v = 0.2, t = 0.2)
movej(p[0.412608387533324, 0.212098637587971, 0.322919216164347, -1.283, 0.713, -0.78], a = 0.2, v = 0.2, t = 0.2)
movej(p[0.412706425839006, 0.212199953764911, 0.322005032526812, -1.283, 0.713, -0.78], a = 0.2, v = 0.2, t = 0.2)
movej(p[0.412773953499782, 0.212269739185823, 0.321375353319965, -1.283, 0.713, -0.78], a = 0.2, v = 0.2, t = 0.2)
movej(p[0.412799921234784, 0.212296575141584, 0.321133210432269, -1.283, 0.713, -0.78], a = 0.2, v = 0.2, t = 0.2)
movej(p[0.412812452736257, 0.21230952562876, 0.321016357192914, -1.283, 0.713, -0.78], a = 0.2, v = 0.2, t = 0.2)
movej(p[0.412829989138471, 0.212327648353518, 0.320852834457042, -1.283, 0.713, -0.78], a = 0.2, v = 0.2, t = 0.2)
movej(p[0.412829199904123, 0.212326832731438, 0.320860193877647, -1.283, 0.713, -0.78], a = 0.2, v = 0.2, t = 0.2)
movej(p[0.412830605126255, 0.212328284936605, 0.320847090519009, -1.283, 0.713, -0.78], a = 0.2, v = 0.2, t = 0.2)
movej(p[0.412825696473604, 0.212323212165131, 0.320892862525208, -1.283, 0.713, -0.78], a = 0.2, v = 0.2, t = 0.2)
movej(p[0.412775647466187, 0.212271489789312, 0.321359557490374, -1.283, 0.713, -0.78], a = 0.2, v = 0.2, t = 0.2)
movej(p[0.412679129880346, 0.212171745176868, 0.322259560780891, -1.283, 0.713, -0.78], a = 0.2, v = 0.2, t = 0.2)
movej(p[0.412584498757091, 0.212073950100128, 0.323141973261182, -1.283, 0.713, -0.78], a = 0.2, v = 0.2, t = 0.2)
movej(p[0.41251265918183, 0.211999708597607, 0.323811860034259, -1.283, 0.713, -0.78], a = 0.2, v = 0.2, t = 0.2)
movej(p[0.412406112544887, 0.211889599616778, 0.324805381815872, -1.283, 0.713, -0.78], a = 0.2, v = 0.2, t = 0.2)
movej(p[0.412312578649872, 0.211792938453661, 0.325677562906543, -1.283, 0.713, -0.78], a = 0.2, v = 0.2, t = 0.2)
movej(p[0.412361530429049, 0.211843526915856, 0.325221099330997, -1.283, 0.713, -0.78], a = 0.2, v = 0.2, t = 0.2)
movej(p[0.412520686272635, 0.212008004070959, 0.323737009341769, -1.283, 0.713, -0.78], a = 0.2, v = 0.2, t = 0.2)
movej(p[0.412633797029397, 0.212124896640309, 0.322682278720493, -1.283, 0.713, -0.78], a = 0.2, v = 0.2, t = 0.2)
movej(p[0.412726252945791, 0.212220443783024, 0.321820149521381, -1.283, 0.713, -0.78], a = 0.2, v = 0.2, t = 0.2)
movej(p[0.41279287587451, 0.212289294222527, 0.321198906723519, -1.283, 0.713, -0.78], a = 0.2, v = 0.2, t = 0.2)
movej(p[0.412809276549248, 0.212306243247218, 0.321045974373395, -1.283, 0.713, -0.78], a = 0.2, v = 0.2, t = 0.2)
movej(p[0.412818362369056, 0.212315632847751, 0.320961251287411, -1.283, 0.713, -0.78], a = 0.2, v = 0.2, t = 0.2)
movej(p[0.412823194023233, 0.21232062604634, 0.320916197273467, -1.283, 0.713, -0.78], a = 0.2, v = 0.2, t = 0.2)
movej(p[0.412834358801811, 0.212332164114792, 0.320812088396622, -1.283, 0.713, -0.78], a = 0.2, v = 0.2, t = 0.2)
movej(p[0.412833203824717, 0.212330970521504, 0.320822858280433, -1.283, 0.713, -0.78], a = 0.2, v = 0.2, t = 0.2)
movej(p[0.412826081465969, 0.21232361002956, 0.320889272563938, -1.283, 0.713, -0.78], a = 0.2, v = 0.2, t = 0.2)
movej(p[0.412777957420376, 0.212273876975889, 0.321338017722751, -1.283, 0.713, -0.78], a = 0.2, v = 0.2, t = 0.2)
movej(p[0.412686406236039, 0.212179264814583, 0.322191710512878, -1.283, 0.713, -0.78], a = 0.2, v = 0.2, t = 0.2)
movej(p[0.41258877217234, 0.212078366395294, 0.323102124691079, -1.283, 0.713, -0.78], a = 0.2, v = 0.2, t = 0.2)
movej(p[0.412506268308575, 0.211993104048079, 0.32387145339135, -1.283, 0.713, -0.78], a = 0.2, v = 0.2, t = 0.2)
movej(p[0.412434890724151, 0.211919339982873, 0.324537032210902, -1.283, 0.713, -0.78], a = 0.2, v = 0.2, t = 0.2)
movej(p[0.412364090628275, 0.211846172714312, 0.325197226088549, -1.283, 0.713, -0.78], a = 0.2, v = 0.2, t = 0.2)
movej(p[0.412403302100624, 0.211886695206443, 0.324831588533147, -1.283, 0.713, -0.78], a = 0.2, v = 0.2, t = 0.2)
movej(p[0.412556856305303, 0.212045383434099, 0.323399732480405, -1.283, 0.713, -0.78], a = 0.2, v = 0.2, t = 0.2)
movej(p[0.412666810124674, 0.212159013515128, 0.322374439541547, -1.283, 0.713, -0.78], a = 0.2, v = 0.2, t = 0.2)
movej(p[0.412745560312882, 0.212240396684157, 0.321640112963665, -1.283, 0.713, -0.78], a = 0.2, v = 0.2, t = 0.2)
movej(p[0.412783847803556, 0.212279964301658, 0.321283091315313, -1.283, 0.713, -0.78], a = 0.2, v = 0.2, t = 0.2)
movej(p[0.41282028733088, 0.212317622169898, 0.320943301481059, -1.283, 0.713, -0.78], a = 0.2, v = 0.2, t = 0.2)
movej(p[0.412827043946881, 0.212324604690634, 0.320880297660761, -1.283, 0.713, -0.78], a = 0.2, v = 0.2, t = 0.2)
movej(p[0.412828988158323, 0.212326613906002, 0.320862168356345, -1.283, 0.713, -0.78], a = 0.2, v = 0.2, t = 0.2)
movej(p[0.41284190465216, 0.212339962257607, 0.32074172515572, -1.283, 0.713, -0.78], a = 0.2, v = 0.2, t = 0.2)
movej(p[0.41284092292163, 0.212338947703313, 0.32075087955696, -1.283, 0.713, -0.78], a = 0.2, v = 0.2, t = 0.2)
movej(p[0.412838381972023, 0.212336321798079, 0.320774573301345, -1.283, 0.713, -0.78], a = 0.2, v = 0.2, t = 0.2)
movej(p[0.412788313714987, 0.212284579529039, 0.321241447764575, -1.283, 0.713, -0.78], a = 0.2, v = 0.2, t = 0.2)
movej(p[0.412716859132091, 0.212210735890947, 0.321907744576381, -1.283, 0.713, -0.78], a = 0.2, v = 0.2, t = 0.2)
movej(p[0.41261945606381, 0.212110076190315, 0.32281600477782, -1.283, 0.713, -0.78], a = 0.2, v = 0.2, t = 0.2)
movej(p[0.412520667023017, 0.212007984177738, 0.323737188839833, -1.283, 0.713, -0.78], a = 0.2, v = 0.2, t = 0.2)
movej(p[0.412455699561466, 0.211940844555281, 0.324342994804231, -1.283, 0.713, -0.78], a = 0.2, v = 0.2, t = 0.2)
movej(p[0.41238915363122, 0.211872073688664, 0.324963519609838, -1.283, 0.713, -0.78], a = 0.2, v = 0.2, t = 0.2)
movej(p[0.412380125560266, 0.211862743767795, 0.325047704201632, -1.283, 0.713, -0.78], a = 0.2, v = 0.2, t = 0.2)
movej(p[0.412519858539051, 0.212007148662436, 0.323744727758501, -1.283, 0.713, -0.78], a = 0.2, v = 0.2, t = 0.2)
movej(p[0.412657839802575, 0.212149743273924, 0.32245808563915, -1.283, 0.713, -0.78], a = 0.2, v = 0.2, t = 0.2)
movej(p[0.412734414783923, 0.212228878508926, 0.321744042342446, -1.283, 0.713, -0.78], a = 0.2, v = 0.2, t = 0.2)
movej(p[0.412780941111203, 0.212276960425216, 0.321310195522905, -1.283, 0.713, -0.78], a = 0.2, v = 0.2, t = 0.2)
movej(p[0.412804175400415, 0.212300971543529, 0.32109354136023, -1.283, 0.713, -0.78], a = 0.2, v = 0.2, t = 0.2)
movej(p[0.412829180654505, 0.212326812838217, 0.32086037337571, -1.283, 0.713, -0.78], a = 0.2, v = 0.2, t = 0.2)
movej(p[0.412831336611748, 0.212329040879021, 0.320840269592595, -1.283, 0.713, -0.78], a = 0.2, v = 0.2, t = 0.2)
movej(p[0.412830970869001, 0.212328662907813, 0.320843680055802, -1.283, 0.713, -0.78], a = 0.2, v = 0.2, t = 0.2)
movej(p[0.412838401221641, 0.2123363416913, 0.320774393803281, -1.283, 0.713, -0.78], a = 0.2, v = 0.2, t = 0.2)
movej(p[0.412784329044012, 0.212280461632195, 0.321278603863724, -1.283, 0.713, -0.78], a = 0.2, v = 0.2, t = 0.2)
movej(p[0.412689948165795, 0.212182925167334, 0.32215868286919, -1.283, 0.713, -0.78], a = 0.2, v = 0.2, t = 0.2)
movej(p[0.412590215893708, 0.212079858386904, 0.323088662336315, -1.283, 0.713, -0.78], a = 0.2, v = 0.2, t = 0.2)
movej(p[0.412507211539869, 0.211994078815931, 0.323862657986237, -1.283, 0.713, -0.78], a = 0.2, v = 0.2, t = 0.2)
movej(p[0.412401242391473, 0.211884566631746, 0.324850794825944, -1.283, 0.713, -0.78], a = 0.2, v = 0.2, t = 0.2)
movej(p[0.412324551912415, 0.211805312037415, 0.32556591511103, -1.283, 0.713, -0.78], a = 0.2, v = 0.2, t = 0.2)
movej(p[0.412395448256383, 0.211878578772084, 0.324904823743066, -1.283, 0.713, -0.78], a = 0.2, v = 0.2, t = 0.2)
movej(p[0.412542168846588, 0.212030204906118, 0.323536689502875, -1.283, 0.713, -0.78], a = 0.2, v = 0.2, t = 0.2)
movej(p[0.412664365423158, 0.212156487076002, 0.322397235795615, -1.283, 0.713, -0.78], a = 0.2, v = 0.2, t = 0.2)
movej(p[0.412745502564028, 0.212240337004492, 0.321640651457855, -1.283, 0.713, -0.78], a = 0.2, v = 0.2, t = 0.2)
movej(p[0.412802250438591, 0.212298982221382, 0.321111491166582, -1.283, 0.713, -0.78], a = 0.2, v = 0.2, t = 0.2)
movej(p[0.412816360408759, 0.212313563952719, 0.320979919086018, -1.283, 0.713, -0.78], a = 0.2, v = 0.2, t = 0.2)
movej(p[0.412822751282014, 0.212320168502246, 0.320920325728928, -1.283, 0.713, -0.78], a = 0.2, v = 0.2, t = 0.2)
movej(p[0.412831259613275, 0.212328961306135, 0.320840987584849, -1.283, 0.713, -0.78], a = 0.2, v = 0.2, t = 0.2)
movej(p[0.412840306933846, 0.212338311120226, 0.320756623494992, -1.283, 0.713, -0.78], a = 0.2, v = 0.2, t = 0.2)
movej(p[0.412837765984239, 0.212335685214992, 0.320780317239378, -1.283, 0.713, -0.78], a = 0.2, v = 0.2, t = 0.2)
movej(p[0.41279222138749, 0.212288617852997, 0.321205009657679, -1.283, 0.713, -0.78], a = 0.2, v = 0.2, t = 0.2)
movej(p[0.412708793542049, 0.212202400631152, 0.321982954264998, -1.283, 0.713, -0.78], a = 0.2, v = 0.2, t = 0.2)
movej(p[0.412601727165414, 0.212091754533343, 0.322981322494327, -1.283, 0.713, -0.78], a = 0.2, v = 0.2, t = 0.2)
movej(p[0.412492735826954, 0.211979119113387, 0.323997640530008, -1.283, 0.713, -0.78], a = 0.2, v = 0.2, t = 0.2)
movej(p[0.412415544857823, 0.211899347295297, 0.324717427764745, -1.283, 0.713, -0.78], a = 0.2, v = 0.2, t = 0.2)
movej(p[0.412351443629093, 0.211833102867807, 0.325315156316285, -1.283, 0.713, -0.78], a = 0.2, v = 0.2, t = 0.2)
movej(p[0.41236501460995, 0.211847127588942, 0.325188610181499, -1.283, 0.713, -0.78], a = 0.2, v = 0.2, t = 0.2)
movej(p[0.4125212830108, 0.212008620760825, 0.3237314449018, -1.283, 0.713, -0.78], a = 0.2, v = 0.2, t = 0.2)
movej(p[0.412675876694864, 0.21216838322244, 0.322289895953627, -1.283, 0.713, -0.78], a = 0.2, v = 0.2, t = 0.2)
movej(p[0.412750083973168, 0.212245071591202, 0.321597930918736, -1.283, 0.713, -0.78], a = 0.2, v = 0.2, t = 0.2)
movej(p[0.412791201157723, 0.212287563512259, 0.321214523055046, -1.283, 0.713, -0.78], a = 0.2, v = 0.2, t = 0.2)
movej(p[0.412816437407232, 0.212313643525604, 0.320979201093764, -1.283, 0.713, -0.78], a = 0.2, v = 0.2, t = 0.2)
movej(p[0.412830682124728, 0.212328364509491, 0.320846372526755, -1.283, 0.713, -0.78], a = 0.2, v = 0.2, t = 0.2)
movej(p[0.412833396320899, 0.212331169453718, 0.320821063299798, -1.283, 0.713, -0.78], a = 0.2, v = 0.2, t = 0.2)
movej(p[0.412833069077389, 0.212330831268953, 0.320824114766878, -1.283, 0.713, -0.78], a = 0.2, v = 0.2, t = 0.2)
movej(p[0.412844503350622, 0.212342647842506, 0.320717492917144, -1.283, 0.713, -0.78], a = 0.2, v = 0.2, t = 0.2)
movej(p[0.412826331711006, 0.212323868641439, 0.320886939089112, -1.283, 0.713, -0.78], a = 0.2, v = 0.2, t = 0.2)
movej(p[0.412751777939573, 0.212246822194691, 0.321582135089146, -1.283, 0.713, -0.78], a = 0.2, v = 0.2, t = 0.2)
movej(p[0.412677763157451, 0.212170332758144, 0.322272305143401, -1.283, 0.713, -0.78], a = 0.2, v = 0.2, t = 0.2)
movej(p[0.412583632524271, 0.212073054905162, 0.323150050674041, -1.283, 0.713, -0.78], a = 0.2, v = 0.2, t = 0.2)
movej(p[0.412479684585789, 0.211965631509231, 0.324119340217078, -1.283, 0.713, -0.78], a = 0.2, v = 0.2, t = 0.2)
movej(p[0.412398816939575, 0.211882060085841, 0.324873411581949, -1.283, 0.713, -0.78], a = 0.2, v = 0.2, t = 0.2)
movej(p[0.412353946079464, 0.211835688986598, 0.325291821568026, -1.283, 0.713, -0.78], a = 0.2, v = 0.2, t = 0.2)
movej(p[0.412423783694428, 0.211907861594086, 0.324640602593556, -1.283, 0.713, -0.78], a = 0.2, v = 0.2, t = 0.2)
movej(p[0.4125529486328, 0.212041345110141, 0.3234361705873, -1.283, 0.713, -0.78], a = 0.2, v = 0.2, t = 0.2)
movej(p[0.412685443755128, 0.21217827015351, 0.322200685416055, -1.283, 0.713, -0.78], a = 0.2, v = 0.2, t = 0.2)
movej(p[0.412764713683029, 0.212260190439518, 0.321461512390457, -1.283, 0.713, -0.78], a = 0.2, v = 0.2, t = 0.2)
movej(p[0.412795667069154, 0.21229217873964, 0.321172879504308, -1.283, 0.713, -0.78], a = 0.2, v = 0.2, t = 0.2)
movej(p[0.412815089933955, 0.212312251000102, 0.320991765958211, -1.283, 0.713, -0.78], a = 0.2, v = 0.2, t = 0.2)
movej(p[0.41283589877127, 0.212333755572509, 0.32079772855154, -1.283, 0.713, -0.78], a = 0.2, v = 0.2, t = 0.2)
movej(p[0.412836380011726, 0.212334252903046, 0.320793241099952, -1.283, 0.713, -0.78], a = 0.2, v = 0.2, t = 0.2)
movej(p[0.412834763043794, 0.212332581872443, 0.320808318937288, -1.283, 0.713, -0.78], a = 0.2, v = 0.2, t = 0.2)
movej(p[0.412838073978131, 0.212336003506535, 0.320777445270361, -1.283, 0.713, -0.78], a = 0.2, v = 0.2, t = 0.2)
movej(p[0.412792933623364, 0.212289353902191, 0.321198368229329, -1.283, 0.713, -0.78], a = 0.2, v = 0.2, t = 0.2)
movej(p[0.412705598105422, 0.212199098356388, 0.322012750943544, -1.283, 0.713, -0.78], a = 0.2, v = 0.2, t = 0.2)
movej(p[0.412617935343969, 0.212108504625819, 0.322830185124838, -1.283, 0.713, -0.78], a = 0.2, v = 0.2, t = 0.2)
movej(p[0.412546423012218, 0.212034601308063, 0.323497020430835, -1.283, 0.713, -0.78], a = 0.2, v = 0.2, t = 0.2)
movej(p[0.412478125366712, 0.211964020158292, 0.324133879560224, -1.283, 0.713, -0.78], a = 0.2, v = 0.2, t = 0.2)
movej(p[0.412536990699282, 0.212024853629543, 0.323584974481963, -1.283, 0.713, -0.78], a = 0.2, v = 0.2, t = 0.2)
movej(p[0.41266761860864, 0.21215984903043, 0.322366900622879, -1.283, 0.713, -0.78], a = 0.2, v = 0.2, t = 0.2)
movej(p[0.412754800129636, 0.212249945430462, 0.321553953893172, -1.283, 0.713, -0.78], a = 0.2, v = 0.2, t = 0.2)
movej(p[0.41279287587451, 0.212289294222527, 0.321198906723519, -1.283, 0.713, -0.78], a = 0.2, v = 0.2, t = 0.2)
movej(p[0.41281318422175, 0.212310281571176, 0.3210095362665, -1.283, 0.713, -0.78], a = 0.2, v = 0.2, t = 0.2)
movej(p[0.412836052768216, 0.212333914718281, 0.320796292567032, -1.283, 0.713, -0.78], a = 0.2, v = 0.2, t = 0.2)
movej(p[0.4128368805018, 0.212334770126804, 0.3207885741503, -1.283, 0.713, -0.78], a = 0.2, v = 0.2, t = 0.2)
movej(p[0.412834378051429, 0.212332184008013, 0.320811908898558, -1.283, 0.713, -0.78], a = 0.2, v = 0.2, t = 0.2)
movej(p[0.412797438034032, 0.212294008916015, 0.321156365682464, -1.283, 0.713, -0.78], a = 0.2, v = 0.2, t = 0.2)
movej(p[0.412718187355749, 0.212212108523228, 0.321895359209998, -1.283, 0.713, -0.78], a = 0.2, v = 0.2, t = 0.2)
movej(p[0.412597819492912, 0.212087716209384, 0.323017760601223, -1.283, 0.713, -0.78], a = 0.2, v = 0.2, t = 0.2)
movej(p[0.412485497970497, 0.211971639262115, 0.324065131801894, -1.283, 0.713, -0.78], a = 0.2, v = 0.2, t = 0.2)
movej(p[0.412399837169341, 0.211883114426579, 0.324863898184582, -1.283, 0.713, -0.78], a = 0.2, v = 0.2, t = 0.2)
movej(p[0.412328382586445, 0.211809270788487, 0.325530194996388, -1.283, 0.713, -0.78], a = 0.2, v = 0.2, t = 0.2)
movej(p[0.412375794396163, 0.211858267792965, 0.325088091265925, -1.283, 0.713, -0.78], a = 0.2, v = 0.2, t = 0.2)
movej(p[0.412517413837534, 0.21200462222331, 0.323767524012568, -1.283, 0.713, -0.78], a = 0.2, v = 0.2, t = 0.2)
movej(p[0.412643344840043, 0.212134763678158, 0.322593247680985, -1.283, 0.713, -0.78], a = 0.2, v = 0.2, t = 0.2)
movej(p[0.412720863052684, 0.212214873681012, 0.321870408979168, -1.283, 0.713, -0.78], a = 0.2, v = 0.2, t = 0.2)
movej(p[0.412773626256272, 0.212269401001058, 0.321378404787045, -1.283, 0.713, -0.78], a = 0.2, v = 0.2, t = 0.2)
movej(p[0.41281645665685, 0.212313663418826, 0.3209790215957, -1.283, 0.713, -0.78], a = 0.2, v = 0.2, t = 0.2)
movej(p[0.412823867759872, 0.212321322309091, 0.320909914841243, -1.283, 0.713, -0.78], a = 0.2, v = 0.2, t = 0.2)
movej(p[0.412827140194972, 0.212324704156741, 0.320879400170444, -1.283, 0.713, -0.78], a = 0.2, v = 0.2, t = 0.2)
movej(p[0.412821038065991, 0.212318398005535, 0.320936301056581, -1.283, 0.713, -0.78], a = 0.2, v = 0.2, t = 0.2)
movej(p[0.412774107496728, 0.212269898331595, 0.321373917335456, -1.283, 0.713, -0.78], a = 0.2, v = 0.2, t = 0.2)
movej(p[0.412674124979604, 0.212166572939286, 0.322306230277408, -1.283, 0.713, -0.78], a = 0.2, v = 0.2, t = 0.2)
movej(p[0.412554854345006, 0.212043314539066, 0.323418400279011, -1.283, 0.713, -0.78], a = 0.2, v = 0.2, t = 0.2)
movej(p[0.412425650907397, 0.211909791236569, 0.324623191281394, -1.283, 0.713, -0.78], a = 0.2, v = 0.2, t = 0.2)
movej(p[0.41231096168194, 0.211791267423058, 0.325692640743879, -1.283, 0.713, -0.78], a = 0.2, v = 0.2, t = 0.2)
movej(p[0.412279912047723, 0.211759179656829, 0.325982171120345, -1.283, 0.713, -0.78], a = 0.2, v = 0.2, t = 0.2)
movej(p[0.412413639145617, 0.211897377866372, 0.324735198073034, -1.283, 0.713, -0.78], a = 0.2, v = 0.2, t = 0.2)
movej(p[0.412549098709153, 0.212037366465847, 0.323472070200005, -1.283, 0.713, -0.78], a = 0.2, v = 0.2, t = 0.2)
movej(p[0.412662074718587, 0.212154119782647, 0.322418596065175, -1.283, 0.713, -0.78], a = 0.2, v = 0.2, t = 0.2)
movej(p[0.412742287877782, 0.212237014836507, 0.321670627634464, -1.283, 0.713, -0.78], a = 0.2, v = 0.2, t = 0.2)
movej(p[0.412801538202716, 0.212298246172188, 0.321118132594933, -1.283, 0.713, -0.78], a = 0.2, v = 0.2, t = 0.2)
movej(p[0.412815782920212, 0.212312967156074, 0.320985304027924, -1.283, 0.713, -0.78], a = 0.2, v = 0.2, t = 0.2)
movej(p[0.412823964007963, 0.212321421775199, 0.320909017350926, -1.283, 0.713, -0.78], a = 0.2, v = 0.2, t = 0.2)
movej(p[0.412833877561355, 0.212331666784255, 0.32081657584821, -1.283, 0.713, -0.78], a = 0.2, v = 0.2, t = 0.2)
movej(p[0.412839748694917, 0.212337734216803, 0.320761828938835, -1.283, 0.713, -0.78], a = 0.2, v = 0.2, t = 0.2)
movej(p[0.412814185201898, 0.212311316018693, 0.321000202367196, -1.283, 0.713, -0.78], a = 0.2, v = 0.2, t = 0.2)
movej(p[0.412729082639671, 0.212223368086579, 0.321793763306042, -1.283, 0.713, -0.78], a = 0.2, v = 0.2, t = 0.2)
movej(p[0.412631352327881, 0.212122370201183, 0.322705074974561, -1.283, 0.713, -0.78], a = 0.2, v = 0.2, t = 0.2)
movej(p[0.412501378905543, 0.211988051169826, 0.323917045899485, -1.283, 0.713, -0.78], a = 0.2, v = 0.2, t = 0.2)
movej(p[0.412376198638146, 0.211858685550615, 0.325084321806591, -1.283, 0.713, -0.78], a = 0.2, v = 0.2, t = 0.2)
movej(p[0.41230430131403, 0.21178438436843, 0.325754747073859, -1.283, 0.713, -0.78], a = 0.2, v = 0.2, t = 0.2)
movej(p[0.412341472326846, 0.211822798179086, 0.325408136313191, -1.283, 0.713, -0.78], a = 0.2, v = 0.2, t = 0.2)
movej(p[0.412468481307975, 0.211954053654336, 0.32422380809005, -1.283, 0.713, -0.78], a = 0.2, v = 0.2, t = 0.2)
movej(p[0.412615509892072, 0.212105998079914, 0.322852801880843, -1.283, 0.713, -0.78], a = 0.2, v = 0.2, t = 0.2)
movej(p[0.412737552471696, 0.212232121104026, 0.321714784158091, -1.283, 0.713, -0.78], a = 0.2, v = 0.2, t = 0.2)
movej(p[0.412784887282941, 0.212281038535617, 0.321273398419882, -1.283, 0.713, -0.78], a = 0.2, v = 0.2, t = 0.2)
movej(p[0.412808314068336, 0.212305248586145, 0.321054949276572, -1.283, 0.713, -0.78], a = 0.2, v = 0.2, t = 0.2)
movej(p[0.412823636764453, 0.212321083590434, 0.320912068818005, -1.283, 0.713, -0.78], a = 0.2, v = 0.2, t = 0.2)
movej(p[0.41284080742392, 0.212338828343984, 0.320751956545341, -1.283, 0.713, -0.78], a = 0.2, v = 0.2, t = 0.2)
movej(p[0.412838208725458, 0.212336142759085, 0.320776188783917, -1.283, 0.713, -0.78], a = 0.2, v = 0.2, t = 0.2)
movej(p[0.412803212919503, 0.212299976882455, 0.321102516263406, -1.283, 0.713, -0.78], a = 0.2, v = 0.2, t = 0.2)
movej(p[0.412730718857222, 0.212225059010404, 0.321778505970643, -1.283, 0.713, -0.78], a = 0.2, v = 0.2, t = 0.2)
movej(p[0.412605500090588, 0.21209565360475, 0.322946140873876, -1.283, 0.713, -0.78], a = 0.2, v = 0.2, t = 0.2)
movej(p[0.41248164804685, 0.211967660617821, 0.324101031414599, -1.283, 0.713, -0.78], a = 0.2, v = 0.2, t = 0.2)
movej(p[0.412392002574719, 0.211875017885441, 0.324936953896437, -1.283, 0.713, -0.78], a = 0.2, v = 0.2, t = 0.2)
movej(p[0.412312540150635, 0.211792898667218, 0.32567792190267, -1.283, 0.713, -0.78], a = 0.2, v = 0.2, t = 0.2)
movej(p[0.412358103997003, 0.211839985922435, 0.325253049986305, -1.283, 0.713, -0.78], a = 0.2, v = 0.2, t = 0.2)
movej(p[0.412494949533052, 0.211981406833856, 0.323976998252703, -1.283, 0.713, -0.78], a = 0.2, v = 0.2, t = 0.2)
movej(p[0.412652757903361, 0.212144491463456, 0.322505473127921, -1.283, 0.713, -0.78], a = 0.2, v = 0.2, t = 0.2)
movej(p[0.412728351154178, 0.212222612144164, 0.321800584232456, -1.283, 0.713, -0.78], a = 0.2, v = 0.2, t = 0.2)
movej(p[0.412778996899761, 0.212274951209848, 0.321328324827321, -1.283, 0.713, -0.78], a = 0.2, v = 0.2, t = 0.2)
movej(p[0.412806774098877, 0.212303657128427, 0.321069309121654, -1.283, 0.713, -0.78], a = 0.2, v = 0.2, t = 0.2)
movej(p[0.412832337591896, 0.212330075326538, 0.320830935693292, -1.283, 0.713, -0.78], a = 0.2, v = 0.2, t = 0.2)
movej(p[0.412835821772797, 0.212333675999623, 0.320798446543794, -1.283, 0.713, -0.78], a = 0.2, v = 0.2, t = 0.2)
movej(p[0.412831298112511, 0.212329001092578, 0.320840628588722, -1.283, 0.713, -0.78], a = 0.2, v = 0.2, t = 0.2)
movej(p[0.412796052061519, 0.212292576604069, 0.321169289543037, -1.283, 0.713, -0.78], a = 0.2, v = 0.2, t = 0.2)
movej(p[0.412687772958934, 0.212180677233308, 0.322178966150368, -1.283, 0.713, -0.78], a = 0.2, v = 0.2, t = 0.2)
movej(p[0.412573333978514, 0.212062412031676, 0.323246082138027, -1.283, 0.713, -0.78], a = 0.2, v = 0.2, t = 0.2)
movej(p[0.412472850971315, 0.21195856941561, 0.32418306202963, -1.283, 0.713, -0.78], a = 0.2, v = 0.2, t = 0.2)
movej(p[0.412390905346479, 0.211873883971818, 0.324947185286058, -1.283, 0.713, -0.78], a = 0.2, v = 0.2, t = 0.2)
movej(p[0.412319778007093, 0.211800378518491, 0.325610430630784, -1.283, 0.713, -0.78], a = 0.2, v = 0.2, t = 0.2)
movej(p[0.412403841089935, 0.211887252216644, 0.324826562587368, -1.283, 0.713, -0.78], a = 0.2, v = 0.2, t = 0.2)
movej(p[0.412562400195355, 0.212051112681882, 0.323348037038109, -1.283, 0.713, -0.78], a = 0.2, v = 0.2, t = 0.2)
movej(p[0.412679611120802, 0.212172242507405, 0.322255073329303, -1.283, 0.713, -0.78], a = 0.2, v = 0.2, t = 0.2)
movej(p[0.412756494096041, 0.212251696033951, 0.321538158063582, -1.283, 0.713, -0.78], a = 0.2, v = 0.2, t = 0.2)
movej(p[0.41280051797295, 0.21229719183145, 0.3211276459923, -1.283, 0.713, -0.78], a = 0.2, v = 0.2, t = 0.2)
movej(p[0.41283022013389, 0.212327887072176, 0.32085068048028, -1.283, 0.713, -0.78], a = 0.2, v = 0.2, t = 0.2)
movej(p[0.412835417530814, 0.212333258241973, 0.320802216003128, -1.283, 0.713, -0.78], a = 0.2, v = 0.2, t = 0.2)
movej(p[0.412836976749891, 0.212334869592912, 0.320787676659982, -1.283, 0.713, -0.78], a = 0.2, v = 0.2, t = 0.2)
movej(p[0.412840210685755, 0.212338211654118, 0.32075752098531, -1.283, 0.713, -0.78], a = 0.2, v = 0.2, t = 0.2)
movej(p[0.412766272902106, 0.212261801790457, 0.321446973047311, -1.283, 0.713, -0.78], a = 0.2, v = 0.2, t = 0.2)
movej(p[0.412652295912523, 0.212144014026141, 0.322509781081446, -1.283, 0.713, -0.78], a = 0.2, v = 0.2, t = 0.2)
movej(p[0.412550041940447, 0.212038341233699, 0.323463274794893, -1.283, 0.713, -0.78], a = 0.2, v = 0.2, t = 0.2)
movej(p[0.412455064324064, 0.211940188078973, 0.324348918240327, -1.283, 0.713, -0.78], a = 0.2, v = 0.2, t = 0.2)
movej(p[0.41235508180694, 0.211836862686664, 0.325281231182278, -1.283, 0.713, -0.78], a = 0.2, v = 0.2, t = 0.2)
movej(p[0.412292231803395, 0.211771911318569, 0.325867292359689, -1.283, 0.713, -0.78], a = 0.2, v = 0.2, t = 0.2)
movej(p[0.412362589158052, 0.211844621043037, 0.325211226937504, -1.283, 0.713, -0.78], a = 0.2, v = 0.2, t = 0.2)
movej(p[0.412501609900962, 0.211988289888484, 0.323914891922723, -1.283, 0.713, -0.78], a = 0.2, v = 0.2, t = 0.2)
movej(p[0.412631698821009, 0.212122728279169, 0.322701844009418, -1.283, 0.713, -0.78], a = 0.2, v = 0.2, t = 0.2)
movej(p[0.412731373344242, 0.212225735379934, 0.321772403036483, -1.283, 0.713, -0.78], a = 0.2, v = 0.2, t = 0.2)
movej(p[0.412797053041667, 0.212293611051585, 0.321159955643734, -1.283, 0.713, -0.78], a = 0.2, v = 0.2, t = 0.2)
movej(p[0.412816206411813, 0.212313404806947, 0.320981355070526, -1.283, 0.713, -0.78], a = 0.2, v = 0.2, t = 0.2)
movej(p[0.412825985217878, 0.212323510563453, 0.320890170054255, -1.283, 0.713, -0.78], a = 0.2, v = 0.2, t = 0.2)
movej(p[0.412839633197208, 0.212337614857474, 0.320762905927216, -1.283, 0.713, -0.78], a = 0.2, v = 0.2, t = 0.2)
movej(p[0.412840403181937, 0.212338410586333, 0.320755726004675, -1.283, 0.713, -0.78], a = 0.2, v = 0.2, t = 0.2)
movej(p[0.412830335631599, 0.212328006431505, 0.320849603491899, -1.283, 0.713, -0.78], a = 0.2, v = 0.2, t = 0.2)
movej(p[0.412754896377728, 0.212250044896569, 0.321553056402855, -1.283, 0.713, -0.78], a = 0.2, v = 0.2, t = 0.2)
movej(p[0.412672046020834, 0.212164424471368, 0.322325616068268, -1.283, 0.713, -0.78], a = 0.2, v = 0.2, t = 0.2)
movej(p[0.412550272935865, 0.212038579952357, 0.32346112081813, -1.283, 0.713, -0.78], a = 0.2, v = 0.2, t = 0.2)
movej(p[0.412435063970716, 0.211919519021867, 0.32453541672833, -1.283, 0.713, -0.78], a = 0.2, v = 0.2, t = 0.2)
movej(p[0.412362993400035, 0.211845038800688, 0.325207457478169, -1.283, 0.713, -0.78], a = 0.2, v = 0.2, t = 0.2)
movej(p[0.412300470640001, 0.211780425617358, 0.3257904671885, -1.283, 0.713, -0.78], a = 0.2, v = 0.2, t = 0.2)
movej(p[0.412391617582354, 0.211874620021012, 0.324940543857707, -1.283, 0.713, -0.78], a = 0.2, v = 0.2, t = 0.2)
movej(p[0.412553949612949, 0.212042379557657, 0.323426836687997, -1.283, 0.713, -0.78], a = 0.2, v = 0.2, t = 0.2)
movej(p[0.412697705761945, 0.212190942135586, 0.322086345149589, -1.283, 0.713, -0.78], a = 0.2, v = 0.2, t = 0.2)
movej(p[0.412761575995256, 0.212256947844419, 0.321490770574812, -1.283, 0.713, -0.78], a = 0.2, v = 0.2, t = 0.2)
movej(p[0.412795975063046, 0.212292497031183, 0.321170007535292, -1.283, 0.713, -0.78], a = 0.2, v = 0.2, t = 0.2)
movej(p[0.412825503977422, 0.212323013232916, 0.320894657505844, -1.283, 0.713, -0.78], a = 0.2, v = 0.2, t = 0.2)
movej(p[0.412833434820136, 0.212331209240161, 0.320820704303671, -1.283, 0.713, -0.78], a = 0.2, v = 0.2, t = 0.2)
movej(p[0.412832876581207, 0.212330632336739, 0.320825909747513, -1.283, 0.713, -0.78], a = 0.2, v = 0.2, t = 0.2)
movej(p[0.412809180301157, 0.212306143781111, 0.321046871863713, -1.283, 0.713, -0.78], a = 0.2, v = 0.2, t = 0.2)
movej(p[0.41274078640756, 0.212235463165232, 0.321684628483419, -1.283, 0.713, -0.78], a = 0.2, v = 0.2, t = 0.2)
movej(p[0.412625712189737, 0.212116541487293, 0.322757667907174, -1.283, 0.713, -0.78], a = 0.2, v = 0.2, t = 0.2)
movej(p[0.412497028491821, 0.211983555301774, 0.323957612461842, -1.283, 0.713, -0.78], a = 0.2, v = 0.2, t = 0.2)
movej(p[0.412398354948737, 0.211881582648526, 0.324877719535473, -1.283, 0.713, -0.78], a = 0.2, v = 0.2, t = 0.2)
movej(p[0.412302780594189, 0.211782812803934, 0.325768927420877, -1.283, 0.713, -0.78], a = 0.2, v = 0.2, t = 0.2)
movej(p[0.412290287591953, 0.211769902103201, 0.325885421664105, -1.283, 0.713, -0.78], a = 0.2, v = 0.2, t = 0.2)
movej(p[0.412437162179103, 0.211921687383007, 0.324515851439406, -1.283, 0.713, -0.78], a = 0.2, v = 0.2, t = 0.2)
movej(p[0.412603228635636, 0.212093306204617, 0.322967321645372, -1.283, 0.713, -0.78], a = 0.2, v = 0.2, t = 0.2)
movej(p[0.412697186022252, 0.212190405018606, 0.322091191597304, -1.283, 0.713, -0.78], a = 0.2, v = 0.2, t = 0.2)
movej(p[0.41276076751129, 0.212256112329117, 0.32149830949348, -1.283, 0.713, -0.78], a = 0.2, v = 0.2, t = 0.2)
movej(p[0.412801114711115, 0.212297808521315, 0.32112208155233, -1.283, 0.713, -0.78], a = 0.2, v = 0.2, t = 0.2)
movej(p[0.412827756182756, 0.212325340739828, 0.320873656232411, -1.283, 0.713, -0.78], a = 0.2, v = 0.2, t = 0.2)
movej(p[0.412832202844568, 0.212329936073987, 0.320832192179737, -1.283, 0.713, -0.78], a = 0.2, v = 0.2, t = 0.2)
movej(p[0.412831163365184, 0.212328861840028, 0.320841885075167, -1.283, 0.713, -0.78], a = 0.2, v = 0.2, t = 0.2)
movej(p[0.412818400868292, 0.212315672634194, 0.320960892291284, -1.283, 0.713, -0.78], a = 0.2, v = 0.2, t = 0.2)
movej(p[0.412724770725186, 0.212218912004971, 0.321833970872272, -1.283, 0.713, -0.78], a = 0.2, v = 0.2, t = 0.2)
movej(p[0.412619725558465, 0.212110354695416, 0.322813491804931, -1.283, 0.713, -0.78], a = 0.2, v = 0.2, t = 0.2)
movej(p[0.412516874848224, 0.212004065213109, 0.323772549958347, -1.283, 0.713, -0.78], a = 0.2, v = 0.2, t = 0.2)
movej(p[0.412429808824937, 0.211914088172406, 0.324584419699673, -1.283, 0.713, -0.78], a = 0.2, v = 0.2, t = 0.2)
movej(p[0.412328960074992, 0.211809867585131, 0.325524810054482, -1.283, 0.713, -0.78], a = 0.2, v = 0.2, t = 0.2)
movej(p[0.412300297393436, 0.211780246578364, 0.325792082671072, -1.283, 0.713, -0.78], a = 0.2, v = 0.2, t = 0.2)
movej(p[0.412406651534197, 0.211890156626979, 0.324800355870094, -1.283, 0.713, -0.78], a = 0.2, v = 0.2, t = 0.2)
movej(p[0.412524709442846, 0.212012161754246, 0.323699494246492, -1.283, 0.713, -0.78], a = 0.2, v = 0.2, t = 0.2)
movej(p[0.412637127213352, 0.212128338167624, 0.322651225555504, -1.283, 0.713, -0.78], a = 0.2, v = 0.2, t = 0.2)
movej(p[0.412722249025197, 0.212216305992958, 0.321857485118594, -1.283, 0.713, -0.78], a = 0.2, v = 0.2, t = 0.2)
movej(p[0.412792818125655, 0.212289234542862, 0.32119944521771, -1.283, 0.713, -0.78], a = 0.2, v = 0.2, t = 0.2)
movej(p[0.412814300699608, 0.212311435378021, 0.320999125378815, -1.283, 0.713, -0.78], a = 0.2, v = 0.2, t = 0.2)
movej(p[0.41282278978125, 0.212320208288689, 0.320919966732801, -1.283, 0.713, -0.78], a = 0.2, v = 0.2, t = 0.2)
movej(p[0.412832029598004, 0.212329757034994, 0.320833807662308, -1.283, 0.713, -0.78], a = 0.2, v = 0.2, t = 0.2)
movej(p[0.412831837101822, 0.212329558102779, 0.320835602642944, -1.283, 0.713, -0.78], a = 0.2, v = 0.2, t = 0.2)
movej(p[0.412771374050939, 0.212267073494146, 0.321399406060477, -1.283, 0.713, -0.78], a = 0.2, v = 0.2, t = 0.2)
movej(p[0.412682325316973, 0.212175047451632, 0.322229764102346, -1.283, 0.713, -0.78], a = 0.2, v = 0.2, t = 0.2)
movej(p[0.412593873321173, 0.212083638098983, 0.323054557704245, -1.283, 0.713, -0.78], a = 0.2, v = 0.2, t = 0.2)
movej(p[0.412475834662142, 0.211961652864937, 0.324155239829783, -1.283, 0.713, -0.78], a = 0.2, v = 0.2, t = 0.2)
movej(p[0.412366073338953, 0.211848221716123, 0.325178737788005, -1.283, 0.713, -0.78], a = 0.2, v = 0.2, t = 0.2)
movej(p[0.412305956781198, 0.211786095185476, 0.325739310240395, -1.283, 0.713, -0.78], a = 0.2, v = 0.2, t = 0.2)
movej(p[0.412386631931231, 0.211869467676651, 0.32498703385616, -1.283, 0.713, -0.78], a = 0.2, v = 0.2, t = 0.2)
movej(p[0.412522784481023, 0.2120101724321, 0.323717444052845, -1.283, 0.713, -0.78], a = 0.2, v = 0.2, t = 0.2)
movej(p[0.41265090994001, 0.212142581714195, 0.322522704942019, -1.283, 0.713, -0.78], a = 0.2, v = 0.2, t = 0.2)
movej(p[0.412752239930411, 0.212247299632006, 0.321577827135621, -1.283, 0.713, -0.78], a = 0.2, v = 0.2, t = 0.2)
movej(p[0.412793645859239, 0.212290089951385, 0.321191726800978, -1.283, 0.713, -0.78], a = 0.2, v = 0.2, t = 0.2)
movej(p[0.412814242950753, 0.212311375698357, 0.320999663873006, -1.283, 0.713, -0.78], a = 0.2, v = 0.2, t = 0.2)
movej(p[0.412823174773615, 0.212320606153118, 0.32091637677153, -1.283, 0.713, -0.78], a = 0.2, v = 0.2, t = 0.2)
movej(p[0.412839690946063, 0.212337674537139, 0.320762367433025, -1.283, 0.713, -0.78], a = 0.2, v = 0.2, t = 0.2)
movej(p[0.412832260593423, 0.212329995753652, 0.320831653685546, -1.283, 0.713, -0.78], a = 0.2, v = 0.2, t = 0.2)
movej(p[0.41276665789447, 0.212262199654886, 0.321443383086041, -1.283, 0.713, -0.78], a = 0.2, v = 0.2, t = 0.2)
movej(p[0.412692238870365, 0.212185292460688, 0.32213732259963, -1.283, 0.713, -0.78], a = 0.2, v = 0.2, t = 0.2)
movej(p[0.412579070364748, 0.212068340211674, 0.323192591715096, -1.283, 0.713, -0.78], a = 0.2, v = 0.2, t = 0.2)
movej(p[0.412451695640872, 0.211936706765216, 0.324380330401444, -1.283, 0.713, -0.78], a = 0.2, v = 0.2, t = 0.2)
movej(p[0.412348248192465, 0.211829800593043, 0.32534495299483, -1.283, 0.713, -0.78], a = 0.2, v = 0.2, t = 0.2)
movej(p[0.412308651727751, 0.211788880236482, 0.325714180511502, -1.283, 0.713, -0.78], a = 0.2, v = 0.2, t = 0.2)
movej(p[0.412387940905271, 0.211870820415711, 0.324974827987841, -1.283, 0.713, -0.78], a = 0.2, v = 0.2, t = 0.2)
movej(p[0.412528001127565, 0.212015563495118, 0.323668800077629, -1.283, 0.713, -0.78], a = 0.2, v = 0.2, t = 0.2)
movej(p[0.412660650246838, 0.212152647684258, 0.322431878921875, -1.283, 0.713, -0.78], a = 0.2, v = 0.2, t = 0.2)
movej(p[0.41275607060444, 0.212251258383079, 0.32154210702098, -1.283, 0.713, -0.78], a = 0.2, v = 0.2, t = 0.2)
movej(p[0.412793241617256, 0.212289672193735, 0.321195496260312, -1.283, 0.713, -0.78], a = 0.2, v = 0.2, t = 0.2)
movej(p[0.412813453716405, 0.212310560076277, 0.32100702329361, -1.283, 0.713, -0.78], a = 0.2, v = 0.2, t = 0.2)
movej(p[0.412834743794176, 0.212332561979221, 0.320808498435351, -1.283, 0.713, -0.78], a = 0.2, v = 0.2, t = 0.2)
movej(p[0.412838497469732, 0.212336441157408, 0.320773496312964, -1.283, 0.713, -0.78], a = 0.2, v = 0.2, t = 0.2)
movej(p[0.412837823733094, 0.212335744894656, 0.320779778745187, -1.283, 0.713, -0.78], a = 0.2, v = 0.2, t = 0.2)
movej(p[0.412806100362239, 0.212302960865676, 0.321075591553877, -1.283, 0.713, -0.78], a = 0.2, v = 0.2, t = 0.2)
movej(p[0.412748698000655, 0.212243639279256, 0.32161085477931, -1.283, 0.713, -0.78], a = 0.2, v = 0.2, t = 0.2)
movej(p[0.412625346446991, 0.212116163516085, 0.322761078370381, -1.283, 0.713, -0.78], a = 0.2, v = 0.2, t = 0.2)
movej(p[0.412512274189465, 0.211999310733178, 0.32381544999553, -1.283, 0.713, -0.78], a = 0.2, v = 0.2, t = 0.2)
movej(p[0.412440742608095, 0.2119253875222, 0.32448246479959, -1.283, 0.713, -0.78], a = 0.2, v = 0.2, t = 0.2)
movej(p[0.412350038406962, 0.211831650662639, 0.325328259674922, -1.283, 0.713, -0.78], a = 0.2, v = 0.2, t = 0.2)
movej(p[0.412249536150145, 0.211727788153351, 0.326265419064589, -1.283, 0.713, -0.78], a = 0.2, v = 0.2, t = 0.2)
movej(p[0.412199814386238, 0.211676403962298, 0.326729062562675, -1.283, 0.713, -0.78], a = 0.2, v = 0.2, t = 0.2)
movej(p[0.412360144456536, 0.211842094603911, 0.325234023191571, -1.283, 0.713, -0.78], a = 0.2, v = 0.2, t = 0.2)
movej(p[0.412517798829899, 0.212005020087739, 0.323763934051298, -1.283, 0.713, -0.78], a = 0.2, v = 0.2, t = 0.2)
movej(p[0.412632719050776, 0.212123782619907, 0.322692330612051, -1.283, 0.713, -0.78], a = 0.2, v = 0.2, t = 0.2)
movej(p[0.41273368329843, 0.212228122566511, 0.32175086326886, -1.283, 0.713, -0.78], a = 0.2, v = 0.2, t = 0.2)
movej(p[0.412789641938646, 0.21228595216132, 0.321229062398191, -1.283, 0.713, -0.78], a = 0.2, v = 0.2, t = 0.2)
movej(p[0.412814031204952, 0.212311156872921, 0.321001638351705, -1.283, 0.713, -0.78], a = 0.2, v = 0.2, t = 0.2)
movej(p[0.412825927469023, 0.212323450883788, 0.320890708548446, -1.283, 0.713, -0.78], a = 0.2, v = 0.2, t = 0.2)
movej(p[0.412842443641471, 0.212340519267809, 0.320736699209941, -1.283, 0.713, -0.78], a = 0.2, v = 0.2, t = 0.2)
movej(p[0.412841153917049, 0.21233918642197, 0.320748725580197, -1.283, 0.713, -0.78], a = 0.2, v = 0.2, t = 0.2)
movej(p[0.412842462891089, 0.21234053916103, 0.320736519711878, -1.283, 0.713, -0.78], a = 0.2, v = 0.2, t = 0.2)
movej(p[0.41284157740865, 0.212339624072843, 0.3207447766228, -1.283, 0.713, -0.78], a = 0.2, v = 0.2, t = 0.2)
movej(p[0.412819093854549, 0.212316388790167, 0.320954430360997, -1.283, 0.713, -0.78], a = 0.2, v = 0.2, t = 0.2)
movej(p[0.412723230755727, 0.212217320547253, 0.321848330717354, -1.283, 0.713, -0.78], a = 0.2, v = 0.2, t = 0.2)
movej(p[0.41260744430203, 0.212097662820119, 0.32292801156946, -1.283, 0.713, -0.78], a = 0.2, v = 0.2, t = 0.2)
movej(p[0.412524247452009, 0.212011684316931, 0.323703802200017, -1.283, 0.713, -0.78], a = 0.2, v = 0.2, t = 0.2)
movej(p[0.412411829681503, 0.211895507903554, 0.324752070891005, -1.283, 0.713, -0.78], a = 0.2, v = 0.2, t = 0.2)
movej(p[0.412319489262819, 0.211800080120169, 0.325613123101737, -1.283, 0.713, -0.78], a = 0.2, v = 0.2, t = 0.2)
movej(p[0.41235900872906, 0.211840920903844, 0.325244613577319, -1.283, 0.713, -0.78], a = 0.2, v = 0.2, t = 0.2)
movej(p[0.412520551525307, 0.212007864818409, 0.323738265828214, -1.283, 0.713, -0.78], a = 0.2, v = 0.2, t = 0.2)
movej(p[0.412636241730913, 0.212127423079436, 0.322659482466426, -1.283, 0.713, -0.78], a = 0.2, v = 0.2, t = 0.2)
movej(p[0.412718225854986, 0.212212148309671, 0.321895000213871, -1.283, 0.713, -0.78], a = 0.2, v = 0.2, t = 0.2)
movej(p[0.412780382872274, 0.212276383521794, 0.321315400966747, -1.283, 0.713, -0.78], a = 0.2, v = 0.2, t = 0.2)
movej(p[0.412818747361421, 0.212316030712181, 0.320957661326141, -1.283, 0.713, -0.78], a = 0.2, v = 0.2, t = 0.2)
movej(p[0.412829815891907, 0.212327469314525, 0.320854449939614, -1.283, 0.713, -0.78], a = 0.2, v = 0.2, t = 0.2)
movej(p[0.412829142155269, 0.212326773051774, 0.320860732371837, -1.283, 0.713, -0.78], a = 0.2, v = 0.2, t = 0.2)
movej(p[0.412797534282123, 0.212294108382122, 0.321155468192146, -1.283, 0.713, -0.78], a = 0.2, v = 0.2, t = 0.2)
movej(p[0.412682325316973, 0.212175047451632, 0.322229764102346, -1.283, 0.713, -0.78], a = 0.2, v = 0.2, t = 0.2)
movej(p[0.412540551878656, 0.212028533875515, 0.323551767340211, -1.283, 0.713, -0.78], a = 0.2, v = 0.2, t = 0.2)
movej(p[0.412419202285288, 0.211903127007376, 0.324683323132675, -1.283, 0.713, -0.78], a = 0.2, v = 0.2, t = 0.2)
movej(p[0.412333483735278, 0.211814542492176, 0.325482628009554, -1.283, 0.713, -0.78], a = 0.2, v = 0.2, t = 0.2)
movej(p[0.412251653608151, 0.211729976407713, 0.326245674277601, -1.283, 0.713, -0.78], a = 0.2, v = 0.2, t = 0.2)
movej(p[0.412345803490949, 0.211827274153916, 0.325367749248898, -1.283, 0.713, -0.78], a = 0.2, v = 0.2, t = 0.2)
movej(p[0.412508713010091, 0.211995630487206, 0.323848657137282, -1.283, 0.713, -0.78], a = 0.2, v = 0.2, t = 0.2)
movej(p[0.412615298146271, 0.212105779254478, 0.322854776359541, -1.283, 0.713, -0.78], a = 0.2, v = 0.2, t = 0.2)
movej(p[0.412689794168849, 0.212182766021562, 0.322160118853698, -1.283, 0.713, -0.78], a = 0.2, v = 0.2, t = 0.2)
movej(p[0.412731488841951, 0.212225854739263, 0.321771326048102, -1.283, 0.713, -0.78], a = 0.2, v = 0.2, t = 0.2)
movej(p[0.4127547616304, 0.212249905644019, 0.3215543128893, -1.283, 0.713, -0.78], a = 0.2, v = 0.2, t = 0.2)
movej(p[0.412735454263308, 0.212229952742886, 0.321734349447016, -1.283, 0.713, -0.78], a = 0.2, v = 0.2, t = 0.2)
movej(p[0.412602035159305, 0.212092072824886, 0.32297845052531, -1.283, 0.713, -0.78], a = 0.2, v = 0.2, t = 0.2)
movej(p[0.412456796789705, 0.211941978468905, 0.32433276341461, -1.283, 0.713, -0.78], a = 0.2, v = 0.2, t = 0.2)
movej(p[0.412321818466626, 0.211802487199966, 0.32559140383605, -1.283, 0.713, -0.78], a = 0.2, v = 0.2, t = 0.2)
movej(p[0.412198351415252, 0.211674892077466, 0.326742704415503, -1.283, 0.713, -0.78], a = 0.2, v = 0.2, t = 0.2)
movej(p[0.412034883657181, 0.211505958840754, 0.328267001970961, -1.283, 0.713, -0.78], a = 0.2, v = 0.2, t = 0.2)
movej(p[0.41187557381665, 0.211341322539879, 0.329752527944697, -1.283, 0.713, -0.78], a = 0.2, v = 0.2, t = 0.2)
movej(p[0.411840116019857, 0.211304679225934, 0.330083163377711, -1.283, 0.713, -0.78], a = 0.2, v = 0.2, t = 0.2)
movej(p[0.412076636079138, 0.21154910723812, 0.327877670671174, -1.283, 0.713, -0.78], a = 0.2, v = 0.2, t = 0.2)
movej(p[0.412277525095062, 0.211756712897367, 0.326004428880222, -1.283, 0.713, -0.78], a = 0.2, v = 0.2, t = 0.2)
movej(p[0.412419337032616, 0.211903266259927, 0.324682066646231, -1.283, 0.713, -0.78], a = 0.2, v = 0.2, t = 0.2)
movej(p[0.412518106823791, 0.212005338379283, 0.323761062082281, -1.283, 0.713, -0.78], a = 0.2, v = 0.2, t = 0.2)
movej(p[0.412602651147089, 0.212092709407973, 0.322972706587278, -1.283, 0.713, -0.78], a = 0.2, v = 0.2, t = 0.2)
movej(p[0.412683249298648, 0.212176002326263, 0.322221148195297, -1.283, 0.713, -0.78], a = 0.2, v = 0.2, t = 0.2)
movej(p[0.412729178887763, 0.212223467552687, 0.321792865815725, -1.283, 0.713, -0.78], a = 0.2, v = 0.2, t = 0.2)
movej(p[0.41276710063569, 0.21226265719898, 0.32143925463058, -1.283, 0.713, -0.78], a = 0.2, v = 0.2, t = 0.2)
movej(p[0.412792163638635, 0.212288558173332, 0.32120554815187, -1.283, 0.713, -0.78], a = 0.2, v = 0.2, t = 0.2)
movej(p[0.412815051434719, 0.212312211213659, 0.320992124954338, -1.283, 0.713, -0.78], a = 0.2, v = 0.2, t = 0.2)
movej(p[0.412801807697372, 0.212298524677288, 0.321115619622043, -1.283, 0.713, -0.78], a = 0.2, v = 0.2, t = 0.2)
movej(p[0.41269753251538, 0.212190763096592, 0.322087960632161, -1.283, 0.713, -0.78], a = 0.2, v = 0.2, t = 0.2)
movej(p[0.412596106276888, 0.212085945712674, 0.323033735928876, -1.283, 0.713, -0.78], a = 0.2, v = 0.2, t = 0.2)
movej(p[0.412459934477478, 0.211945221064004, 0.324303505230255, -1.283, 0.713, -0.78], a = 0.2, v = 0.2, t = 0.2)
movej(p[0.412359586217607, 0.211841517700488, 0.325239228635413, -1.283, 0.713, -0.78], a = 0.2, v = 0.2, t = 0.2)
movej(p[0.412373715437393, 0.211856119325046, 0.325107477056786, -1.283, 0.713, -0.78], a = 0.2, v = 0.2, t = 0.2)
movej(p[0.412550619428994, 0.212038938030343, 0.323457889852987, -1.283, 0.713, -0.78], a = 0.2, v = 0.2, t = 0.2)
movej(p[0.412675356955171, 0.21216784610546, 0.322294742401342, -1.283, 0.713, -0.78], a = 0.2, v = 0.2, t = 0.2)
movej(p[0.412754569134217, 0.212249706711804, 0.321556107869935, -1.283, 0.713, -0.78], a = 0.2, v = 0.2, t = 0.2)
movej(p[0.4128021541905, 0.212298882755275, 0.3211123886569, -1.283, 0.713, -0.78], a = 0.2, v = 0.2, t = 0.2)
movej(p[0.412823001527051, 0.212320427114125, 0.320917992254102, -1.283, 0.713, -0.78], a = 0.2, v = 0.2, t = 0.2)
movej(p[0.412829950639235, 0.212327608567075, 0.320853193453169, -1.283, 0.713, -0.78], a = 0.2, v = 0.2, t = 0.2)
movej(p[0.412827294191918, 0.212324863302513, 0.320877964185936, -1.283, 0.713, -0.78], a = 0.2, v = 0.2, t = 0.2)
movej(p[0.412791874894361, 0.21228825977501, 0.321208240622822, -1.283, 0.713, -0.78], a = 0.2, v = 0.2, t = 0.2)
movej(p[0.412675607200208, 0.212168104717339, 0.322292408926516, -1.283, 0.713, -0.78], a = 0.2, v = 0.2, t = 0.2)
movej(p[0.412565865126638, 0.212054693461746, 0.323315727386675, -1.283, 0.713, -0.78], a = 0.2, v = 0.2, t = 0.2)
movej(p[0.412465767111804, 0.211951248710109, 0.324249117317007, -1.283, 0.713, -0.78], a = 0.2, v = 0.2, t = 0.2)
movej(p[0.412368152297723, 0.211850370184042, 0.325159351997145, -1.283, 0.713, -0.78], a = 0.2, v = 0.2, t = 0.2)
movej(p[0.412321779967389, 0.211802447413523, 0.325591762832178, -1.283, 0.713, -0.78], a = 0.2, v = 0.2, t = 0.2)
movej(p[0.412441859085953, 0.211926541329045, 0.324472053911906, -1.283, 0.713, -0.78], a = 0.2, v = 0.2, t = 0.2)
movej(p[0.412615644639399, 0.212106137332465, 0.322851545394398, -1.283, 0.713, -0.78], a = 0.2, v = 0.2, t = 0.2)
movej(p[0.412711141995474, 0.212204827604171, 0.321961055501248, -1.283, 0.713, -0.78], a = 0.2, v = 0.2, t = 0.2)
movej(p[0.41277179754254, 0.212267511145019, 0.321395457103079, -1.283, 0.713, -0.78], a = 0.2, v = 0.2, t = 0.2)
movej(p[0.412800864466078, 0.212297549909436, 0.321124415027156, -1.283, 0.713, -0.78], a = 0.2, v = 0.2, t = 0.2)
movej(p[0.412828872660613, 0.212326494546673, 0.320863245344727, -1.283, 0.713, -0.78], a = 0.2, v = 0.2, t = 0.2)
movej(p[0.412832414590369, 0.212330154899423, 0.320830217701038, -1.283, 0.713, -0.78], a = 0.2, v = 0.2, t = 0.2)
movej(p[0.412825657974368, 0.212323172378688, 0.320893221521335, -1.283, 0.713, -0.78], a = 0.2, v = 0.2, t = 0.2)
movej(p[0.412780729365402, 0.21227674159978, 0.321312170001604, -1.283, 0.713, -0.78], a = 0.2, v = 0.2, t = 0.2)
movej(p[0.412682479313919, 0.212175206597404, 0.322228328117838, -1.283, 0.713, -0.78], a = 0.2, v = 0.2, t = 0.2)
movej(p[0.412569176060974, 0.212058115095839, 0.323284853719748, -1.283, 0.713, -0.78], a = 0.2, v = 0.2, t = 0.2)
movej(p[0.412478375611749, 0.211964278770171, 0.324131546085398, -1.283, 0.713, -0.78], a = 0.2, v = 0.2, t = 0.2)
movej(p[0.412409673724261, 0.21189327986275, 0.32477217467412, -1.283, 0.713, -0.78], a = 0.2, v = 0.2, t = 0.2)
movej(p[0.412391213340371, 0.211874202263361, 0.324944313317041, -1.283, 0.713, -0.78], a = 0.2, v = 0.2, t = 0.2)
movej(p[0.412515315629147, 0.21200245386217, 0.323787089301493, -1.283, 0.713, -0.78], a = 0.2, v = 0.2, t = 0.2)
movej(p[0.41263987990876, 0.212131182898294, 0.322625557332419, -1.283, 0.713, -0.78], a = 0.2, v = 0.2, t = 0.2)
movej(p[0.412743365856403, 0.212238128856909, 0.321660575742907, -1.283, 0.713, -0.78], a = 0.2, v = 0.2, t = 0.2)
movej(p[0.412783751555465, 0.212279864835551, 0.32128398880563, -1.283, 0.713, -0.78], a = 0.2, v = 0.2, t = 0.2)
movej(p[0.412805484374455, 0.212302324282589, 0.32108133549191, -1.283, 0.713, -0.78], a = 0.2, v = 0.2, t = 0.2)
movej(p[0.412824349000328, 0.212321819639628, 0.320905427389655, -1.283, 0.713, -0.78], a = 0.2, v = 0.2, t = 0.2)
movej(p[0.412835687025469, 0.212333536747073, 0.320799703030239, -1.283, 0.713, -0.78], a = 0.2, v = 0.2, t = 0.2)
movej(p[0.412836649506381, 0.212334531408147, 0.320790728127062, -1.283, 0.713, -0.78], a = 0.2, v = 0.2, t = 0.2)
movej(p[0.412836745754472, 0.212334630874254, 0.320789830636745, -1.283, 0.713, -0.78], a = 0.2, v = 0.2, t = 0.2)
movej(p[0.412848584269688, 0.212346865205457, 0.320679439327676, -1.283, 0.713, -0.78], a = 0.2, v = 0.2, t = 0.2)
movej(p[0.412827948678938, 0.212325539672043, 0.320871861251776, -1.283, 0.713, -0.78], a = 0.2, v = 0.2, t = 0.2)
movej(p[0.412763269961661, 0.212258698447908, 0.321474974745221, -1.283, 0.713, -0.78], a = 0.2, v = 0.2, t = 0.2)
movej(p[0.412681690079571, 0.212174390975324, 0.322235687538442, -1.283, 0.713, -0.78], a = 0.2, v = 0.2, t = 0.2)
movej(p[0.412593007088352, 0.212082742904017, 0.323062635117104, -1.283, 0.713, -0.78], a = 0.2, v = 0.2, t = 0.2)
movej(p[0.41247781737282, 0.211963701866749, 0.32413675152924, -1.283, 0.713, -0.78], a = 0.2, v = 0.2, t = 0.2)
movej(p[0.41236861428856, 0.211850847621357, 0.32515504404362, -1.283, 0.713, -0.78], a = 0.2, v = 0.2, t = 0.2)
movej(p[0.412316467072756, 0.211796956884398, 0.32564130429771, -1.283, 0.713, -0.78], a = 0.2, v = 0.2, t = 0.2)
movej(p[0.412434293985986, 0.211918723293008, 0.324542596650871, -1.283, 0.713, -0.78], a = 0.2, v = 0.2, t = 0.2)
movej(p[0.412571062523562, 0.212060064631543, 0.323267262909523, -1.283, 0.713, -0.78], a = 0.2, v = 0.2, t = 0.2)
movej(p[0.412684250278797, 0.212177036773779, 0.322211814295993, -1.283, 0.713, -0.78], a = 0.2, v = 0.2, t = 0.2)
movej(p[0.412769680084534, 0.212265322890657, 0.321415201890067, -1.283, 0.713, -0.78], a = 0.2, v = 0.2, t = 0.2)
movej(p[0.412804059902706, 0.2123008521842, 0.321094618348611, -1.283, 0.713, -0.78], a = 0.2, v = 0.2, t = 0.2)
movej(p[0.412818785860657, 0.212316070498624, 0.320957302330014, -1.283, 0.713, -0.78], a = 0.2, v = 0.2, t = 0.2)
movej(p[0.412825869720168, 0.212323391204124, 0.320891247042637, -1.283, 0.713, -0.78], a = 0.2, v = 0.2, t = 0.2)
movej(p[0.412840634177356, 0.212338649304991, 0.320753572027912, -1.283, 0.713, -0.78], a = 0.2, v = 0.2, t = 0.2)
movej(p[0.41283884396286, 0.212336799235394, 0.32077026534782, -1.283, 0.713, -0.78], a = 0.2, v = 0.2, t = 0.2)
movej(p[0.412838689965914, 0.212336640089622, 0.320771701332329, -1.283, 0.713, -0.78], a = 0.2, v = 0.2, t = 0.2)
movej(p[0.412814088953807, 0.212311216552585, 0.321001099857514, -1.283, 0.713, -0.78], a = 0.2, v = 0.2, t = 0.2)
movej(p[0.412749102242638, 0.212244057036907, 0.321607085319976, -1.283, 0.713, -0.78], a = 0.2, v = 0.2, t = 0.2)
movej(p[0.412648080246129, 0.212139657410639, 0.322549091157358, -1.283, 0.713, -0.78], a = 0.2, v = 0.2, t = 0.2)
movej(p[0.412546827254201, 0.212035019065714, 0.323493250971501, -1.283, 0.713, -0.78], a = 0.2, v = 0.2, t = 0.2)
movej(p[0.412470464018654, 0.211956102656148, 0.324205319789507, -1.283, 0.713, -0.78], a = 0.2, v = 0.2, t = 0.2)
movej(p[0.412393561793796, 0.21187662923638, 0.324922414553291, -1.283, 0.713, -0.78], a = 0.2, v = 0.2, t = 0.2)
movej(p[0.412363185896218, 0.211845237732903, 0.325205662497534, -1.283, 0.713, -0.78], a = 0.2, v = 0.2, t = 0.2)
movej(p[0.412482764524707, 0.211968814424666, 0.324090620526914, -1.283, 0.713, -0.78], a = 0.2, v = 0.2, t = 0.2)
movej(p[0.412642055115621, 0.21213343083232, 0.322605274051241, -1.283, 0.713, -0.78], a = 0.2, v = 0.2, t = 0.2)
movej(p[0.412725213466406, 0.212219369549064, 0.321829842416811, -1.283, 0.713, -0.78], a = 0.2, v = 0.2, t = 0.2)
movej(p[0.412770450069263, 0.212266118619516, 0.321408021967526, -1.283, 0.713, -0.78], a = 0.2, v = 0.2, t = 0.2)
movej(p[0.412803328417212, 0.212300096241784, 0.321101439275025, -1.283, 0.713, -0.78], a = 0.2, v = 0.2, t = 0.2)
movej(p[0.412825927469023, 0.212323450883788, 0.320890708548446, -1.283, 0.713, -0.78], a = 0.2, v = 0.2, t = 0.2)
movej(p[0.412830951619383, 0.212328643014592, 0.320843859553866, -1.283, 0.713, -0.78], a = 0.2, v = 0.2, t = 0.2)
movej(p[0.412833704314791, 0.212331487745262, 0.320818191330782, -1.283, 0.713, -0.78], a = 0.2, v = 0.2, t = 0.2)
movej(p[0.412846139568172, 0.212344338766331, 0.320702235581744, -1.283, 0.713, -0.78], a = 0.2, v = 0.2, t = 0.2)
movej(p[0.412842154897197, 0.212340220869487, 0.320739391680894, -1.283, 0.713, -0.78], a = 0.2, v = 0.2, t = 0.2)
movej(p[0.412800922214933, 0.212297609589101, 0.321123876532965, -1.283, 0.713, -0.78], a = 0.2, v = 0.2, t = 0.2)
movej(p[0.412720959300775, 0.21221497314712, 0.32186951148885, -1.283, 0.713, -0.78], a = 0.2, v = 0.2, t = 0.2)
movej(p[0.412650640445355, 0.212142303209095, 0.322525217914909, -1.283, 0.713, -0.78], a = 0.2, v = 0.2, t = 0.2)
movej(p[0.412547577989312, 0.212035794901351, 0.323486250547024, -1.283, 0.713, -0.78], a = 0.2, v = 0.2, t = 0.2)
movej(p[0.412461108704191, 0.211946434550514, 0.32429255584838, -1.283, 0.713, -0.78], a = 0.2, v = 0.2, t = 0.2)
movej(p[0.412402840109786, 0.211886217769128, 0.324835896486672, -1.283, 0.713, -0.78], a = 0.2, v = 0.2, t = 0.2)
movej(p[0.412369865513746, 0.211852140680752, 0.325143376669491, -1.283, 0.713, -0.78], a = 0.2, v = 0.2, t = 0.2)
movej(p[0.412489155397962, 0.211975418974194, 0.324031027169824, -1.283, 0.713, -0.78], a = 0.2, v = 0.2, t = 0.2)
movej(p[0.412621804517235, 0.212112503163334, 0.32279410601407, -1.283, 0.713, -0.78], a = 0.2, v = 0.2, t = 0.2)
movej(p[0.412734799776288, 0.212229276373356, 0.321740452381175, -1.283, 0.713, -0.78], a = 0.2, v = 0.2, t = 0.2)
movej(p[0.412780556118838, 0.212276562560787, 0.321313785484175, -1.283, 0.713, -0.78], a = 0.2, v = 0.2, t = 0.2)
movej(p[0.412807370837042, 0.212304273818293, 0.321063744681684, -1.283, 0.713, -0.78], a = 0.2, v = 0.2, t = 0.2)
movej(p[0.412825003487348, 0.212322496009158, 0.320899324455495, -1.283, 0.713, -0.78], a = 0.2, v = 0.2, t = 0.2)
movej(p[0.412839094207897, 0.212337057847273, 0.320767931872995, -1.283, 0.713, -0.78], a = 0.2, v = 0.2, t = 0.2)
movej(p[0.412837496489584, 0.212335406709891, 0.320782830212267, -1.283, 0.713, -0.78], a = 0.2, v = 0.2, t = 0.2)
movej(p[0.412789391693609, 0.212285693549441, 0.321231395873017, -1.283, 0.713, -0.78], a = 0.2, v = 0.2, t = 0.2)
movej(p[0.412714125686301, 0.212207911053498, 0.321933233301402, -1.283, 0.713, -0.78], a = 0.2, v = 0.2, t = 0.2)
movej(p[0.412606096828754, 0.212096270294616, 0.322940576433907, -1.283, 0.713, -0.78], a = 0.2, v = 0.2, t = 0.2)
movej(p[0.412497009242203, 0.211983535408553, 0.323957791959905, -1.283, 0.713, -0.78], a = 0.2, v = 0.2, t = 0.2)
movej(p[0.412409885470061, 0.211893498688186, 0.324770200195421, -1.283, 0.713, -0.78], a = 0.2, v = 0.2, t = 0.2)
movej(p[0.412372136968698, 0.211854488080886, 0.325122195897995, -1.283, 0.713, -0.78], a = 0.2, v = 0.2, t = 0.2)
movej(p[0.412472523727805, 0.211958231230845, 0.32418611349671, -1.283, 0.713, -0.78], a = 0.2, v = 0.2, t = 0.2)
movej(p[0.412615028651616, 0.212105500749378, 0.322857289332431, -1.283, 0.713, -0.78], a = 0.2, v = 0.2, t = 0.2)
movej(p[0.412730025870965, 0.212224342854431, 0.32178496790093, -1.283, 0.713, -0.78], a = 0.2, v = 0.2, t = 0.2)
movej(p[0.412783020069972, 0.212279108893135, 0.321290809732044, -1.283, 0.713, -0.78], a = 0.2, v = 0.2, t = 0.2)
movej(p[0.412808699060701, 0.212305646450574, 0.321051359315301, -1.283, 0.713, -0.78], a = 0.2, v = 0.2, t = 0.2)
movej(p[0.412821885049193, 0.21231927330728, 0.320928403141786, -1.283, 0.713, -0.78], a = 0.2, v = 0.2, t = 0.2)
movej(p[0.412839979690336, 0.212337972935461, 0.320759674962072, -1.283, 0.713, -0.78], a = 0.2, v = 0.2, t = 0.2)
movej(p[0.41284092292163, 0.212338947703313, 0.32075087955696, -1.283, 0.713, -0.78], a = 0.2, v = 0.2, t = 0.2)
movej(p[0.412829007407941, 0.212326633799223, 0.320861988858282, -1.283, 0.713, -0.78], a = 0.2, v = 0.2, t = 0.2)
movej(p[0.412774011248637, 0.212269798865487, 0.321374814825774, -1.283, 0.713, -0.78], a = 0.2, v = 0.2, t = 0.2)
movej(p[0.412671738026943, 0.212164106179824, 0.322328488037285, -1.283, 0.713, -0.78], a = 0.2, v = 0.2, t = 0.2)
movej(p[0.412556413564083, 0.212044925890005, 0.323403860935866, -1.283, 0.713, -0.78], a = 0.2, v = 0.2, t = 0.2)
movej(p[0.412460588964498, 0.211945897433534, 0.324297402296095, -1.283, 0.713, -0.78], a = 0.2, v = 0.2, t = 0.2)
movej(p[0.412394485775471, 0.211877584111011, 0.324913798646242, -1.283, 0.713, -0.78], a = 0.2, v = 0.2, t = 0.2)
movej(p[0.412362743154998, 0.211844780188809, 0.325209790952995, -1.283, 0.713, -0.78], a = 0.2, v = 0.2, t = 0.2)
movej(p[0.412481956040741, 0.211967978909364, 0.324098159445582, -1.283, 0.713, -0.78], a = 0.2, v = 0.2, t = 0.2)
movej(p[0.412641804870584, 0.21213317222044, 0.322607607526067, -1.283, 0.713, -0.78], a = 0.2, v = 0.2, t = 0.2)
movej(p[0.412739130940391, 0.212233752348186, 0.321700065316882, -1.283, 0.713, -0.78], a = 0.2, v = 0.2, t = 0.2)
movej(p[0.412787582229494, 0.212283823586623, 0.321248268690989, -1.283, 0.713, -0.78], a = 0.2, v = 0.2, t = 0.2)
movej(p[0.412814146702662, 0.21231127623225, 0.321000561363324, -1.283, 0.713, -0.78], a = 0.2, v = 0.2, t = 0.2)
movej(p[0.412838651466678, 0.212336600303179, 0.320772060328456, -1.283, 0.713, -0.78], a = 0.2, v = 0.2, t = 0.2)
movej(p[0.412840172186519, 0.212338171867675, 0.320757879981437, -1.283, 0.713, -0.78], a = 0.2, v = 0.2, t = 0.2)
movej(p[0.412840634177356, 0.212338649304991, 0.320753572027912, -1.283, 0.713, -0.78], a = 0.2, v = 0.2, t = 0.2)
movej(p[0.412843117378109, 0.21234121553056, 0.320730416777718, -1.283, 0.713, -0.78], a = 0.2, v = 0.2, t = 0.2)
movej(p[0.412850566980367, 0.212348914207268, 0.320660951027133, -1.283, 0.713, -0.78], a = 0.2, v = 0.2, t = 0.2)
movej(p[0.412810277529396, 0.212307277694734, 0.321036640474092, -1.283, 0.713, -0.78], a = 0.2, v = 0.2, t = 0.2)
movej(p[0.412728716896925, 0.212222990115372, 0.321797173769249, -1.283, 0.713, -0.78], a = 0.2, v = 0.2, t = 0.2)
movej(p[0.412659591517835, 0.212151553557078, 0.322441751315369, -1.283, 0.713, -0.78], a = 0.2, v = 0.2, t = 0.2)
movej(p[0.412572236750274, 0.212061278118053, 0.323256313527648, -1.283, 0.713, -0.78], a = 0.2, v = 0.2, t = 0.2)
movej(p[0.412478722104878, 0.211964636848158, 0.324128315120254, -1.283, 0.713, -0.78], a = 0.2, v = 0.2, t = 0.2)
movej(p[0.412409769972352, 0.211893379328857, 0.324771277183803, -1.283, 0.713, -0.78], a = 0.2, v = 0.2, t = 0.2)
movej(p[0.412426440141745, 0.211910606858649, 0.32461583186079, -1.283, 0.713, -0.78], a = 0.2, v = 0.2, t = 0.2)
movej(p[0.412542534589334, 0.212030582877326, 0.323533279039668, -1.283, 0.713, -0.78], a = 0.2, v = 0.2, t = 0.2)
movej(p[0.412664442421631, 0.212156566648888, 0.322396517803361, -1.283, 0.713, -0.78], a = 0.2, v = 0.2, t = 0.2)
movej(p[0.412760151523506, 0.21225547574603, 0.321504053431512, -1.283, 0.713, -0.78], a = 0.2, v = 0.2, t = 0.2)
movej(p[0.412796706548539, 0.212293252973599, 0.321163186608878, -1.283, 0.713, -0.78], a = 0.2, v = 0.2, t = 0.2)
movej(p[0.412818631863711, 0.212315911352852, 0.320958738314522, -1.283, 0.713, -0.78], a = 0.2, v = 0.2, t = 0.2)
movej(p[0.412829373150688, 0.212327011770431, 0.320858578395075, -1.283, 0.713, -0.78], a = 0.2, v = 0.2, t = 0.2)
movej(p[0.412847814284959, 0.212346069476598, 0.320686619250217, -1.283, 0.713, -0.78], a = 0.2, v = 0.2, t = 0.2)
movej(p[0.412848853764344, 0.212347143710558, 0.320676926354787, -1.283, 0.713, -0.78], a = 0.2, v = 0.2, t = 0.2)
movej(p[0.412847063549848, 0.212345293640961, 0.320693619674695, -1.283, 0.713, -0.78], a = 0.2, v = 0.2, t = 0.2)
movej(p[0.412845157837642, 0.212343324212036, 0.320711389982984, -1.283, 0.713, -0.78], a = 0.2, v = 0.2, t = 0.2)
movej(p[0.412773741753982, 0.212269520360387, 0.321377327798663, -1.283, 0.713, -0.78], a = 0.2, v = 0.2, t = 0.2)
movej(p[0.412691622882582, 0.212184655877601, 0.322143066537663, -1.283, 0.713, -0.78], a = 0.2, v = 0.2, t = 0.2)
movej(p[0.412605885082953, 0.21209605146918, 0.322942550912605, -1.283, 0.713, -0.78], a = 0.2, v = 0.2, t = 0.2)
movej(p[0.412537722184775, 0.212025609571959, 0.323578153555549, -1.283, 0.713, -0.78], a = 0.2, v = 0.2, t = 0.2)
movej(p[0.412453774599642, 0.211938855233134, 0.324360944610583, -1.283, 0.713, -0.78], a = 0.2, v = 0.2, t = 0.2)
movej(p[0.412393446296087, 0.211876509877051, 0.324923491541672, -1.283, 0.713, -0.78], a = 0.2, v = 0.2, t = 0.2)
movej(p[0.412495353775035, 0.211981824591507, 0.323973228793368, -1.283, 0.713, -0.78], a = 0.2, v = 0.2, t = 0.2)
movej(p[0.412621843016472, 0.212112542949777, 0.322793747017943, -1.283, 0.713, -0.78], a = 0.2, v = 0.2, t = 0.2)
movej(p[0.412712643465697, 0.212206379275445, 0.321947054652293, -1.283, 0.713, -0.78], a = 0.2, v = 0.2, t = 0.2)
movej(p[0.412772067037195, 0.212267789650119, 0.32139294413019, -1.283, 0.713, -0.78], a = 0.2, v = 0.2, t = 0.2)
movej(p[0.412818766611039, 0.212316050605402, 0.320957481828077, -1.283, 0.713, -0.78], a = 0.2, v = 0.2, t = 0.2)
movej(p[0.412830759123201, 0.212328444082377, 0.320845654534501, -1.283, 0.713, -0.78], a = 0.2, v = 0.2, t = 0.2)
movej(p[0.412836110517071, 0.212333974397945, 0.320795754072841, -1.283, 0.713, -0.78], a = 0.2, v = 0.2, t = 0.2)
movej(p[0.412843232875818, 0.212341334889889, 0.320729339789337, -1.283, 0.713, -0.78], a = 0.2, v = 0.2, t = 0.2)
movej(p[0.412823906259108, 0.212321362095534, 0.320909555845116, -1.283, 0.713, -0.78], a = 0.2, v = 0.2, t = 0.2)
movej(p[0.412738822946499, 0.212233434056643, 0.321702937285899, -1.283, 0.713, -0.78], a = 0.2, v = 0.2, t = 0.2)
movej(p[0.412651179434665, 0.212142860219296, 0.32252019196913, -1.283, 0.713, -0.78], a = 0.2, v = 0.2, t = 0.2)
movej(p[0.412572621742639, 0.212061675982482, 0.323252723566377, -1.283, 0.713, -0.78], a = 0.2, v = 0.2, t = 0.2)
movej(p[0.412466864340043, 0.211952382623733, 0.324238885927386, -1.283, 0.713, -0.78], a = 0.2, v = 0.2, t = 0.2)
movej(p[0.41237244496259, 0.211854806372429, 0.325119323928978, -1.283, 0.713, -0.78], a = 0.2, v = 0.2, t = 0.2)
movej(p[0.412349903659634, 0.211831511410089, 0.325329516161367, -1.283, 0.713, -0.78], a = 0.2, v = 0.2, t = 0.2)
movej(p[0.412497143989531, 0.211983674661103, 0.323956535473461, -1.283, 0.713, -0.78], a = 0.2, v = 0.2, t = 0.2)
movej(p[0.412617742847787, 0.212108305693605, 0.322831980105474, -1.283, 0.713, -0.78], a = 0.2, v = 0.2, t = 0.2)
movej(p[0.412716608887054, 0.212210477279068, 0.321910078051207, -1.283, 0.713, -0.78], a = 0.2, v = 0.2, t = 0.2)
movej(p[0.412791047160777, 0.212287404366487, 0.321215959039554, -1.283, 0.713, -0.78], a = 0.2, v = 0.2, t = 0.2)
movej(p[0.412819093854549, 0.212316388790167, 0.320954430360997, -1.283, 0.713, -0.78], a = 0.2, v = 0.2, t = 0.2)
movej(p[0.412832453089605, 0.212330194685866, 0.320829858704911, -1.283, 0.713, -0.78], a = 0.2, v = 0.2, t = 0.2)
movej(p[0.412838170226222, 0.212336102972643, 0.320776547780044, -1.283, 0.713, -0.78], a = 0.2, v = 0.2, t = 0.2)
movej(p[0.412853877914704, 0.212352335841361, 0.320630077360207, -1.283, 0.713, -0.78], a = 0.2, v = 0.2, t = 0.2)
movej(p[0.412853492922339, 0.212351937976932, 0.320633667321477, -1.283, 0.713, -0.78], a = 0.2, v = 0.2, t = 0.2)
movej(p[0.412836457010199, 0.212334332475932, 0.320792523107698, -1.283, 0.713, -0.78], a = 0.2, v = 0.2, t = 0.2)
movej(p[0.412779786134108, 0.212275766831928, 0.321320965406716, -1.283, 0.713, -0.78], a = 0.2, v = 0.2, t = 0.2)
movej(p[0.412694529574936, 0.212187659754043, 0.322115962330071, -1.283, 0.713, -0.78], a = 0.2, v = 0.2, t = 0.2)
movej(p[0.412585672983804, 0.212075163586638, 0.323131023879307, -1.283, 0.713, -0.78], a = 0.2, v = 0.2, t = 0.2)
movej(p[0.412485728965916, 0.211971877980772, 0.324062977825131, -1.283, 0.713, -0.78], a = 0.2, v = 0.2, t = 0.2)
movej(p[0.412408999987622, 0.211892583599998, 0.324778457106344, -1.283, 0.713, -0.78], a = 0.2, v = 0.2, t = 0.2)
movej(p[0.412339451116931, 0.211820709390832, 0.325426983609861, -1.283, 0.713, -0.78], a = 0.2, v = 0.2, t = 0.2)
movej(p[0.412420357262382, 0.211904320600665, 0.324672553248864, -1.283, 0.713, -0.78], a = 0.2, v = 0.2, t = 0.2)
movej(p[0.412587944438756, 0.212077510986771, 0.323109843107811, -1.283, 0.713, -0.78], a = 0.2, v = 0.2, t = 0.2)
movej(p[0.41272134429314, 0.212215371011549, 0.32186592152758, -1.283, 0.713, -0.78], a = 0.2, v = 0.2, t = 0.2)
movej(p[0.412781499350131, 0.212277537328639, 0.321304990079063, -1.283, 0.713, -0.78], a = 0.2, v = 0.2, t = 0.2)
movej(p[0.412812029244656, 0.212309087977888, 0.321020306150311, -1.283, 0.713, -0.78], a = 0.2, v = 0.2, t = 0.2)
movej(p[0.412840364682701, 0.21233837079989, 0.320756085000802, -1.283, 0.713, -0.78], a = 0.2, v = 0.2, t = 0.2)
movej(p[0.41284550433077, 0.212343682290022, 0.320708159017841, -1.283, 0.713, -0.78], a = 0.2, v = 0.2, t = 0.2)
movej(p[0.412843001880399, 0.212341096171231, 0.320731493766099, -1.283, 0.713, -0.78], a = 0.2, v = 0.2, t = 0.2)
movej(p[0.412785792014998, 0.212281973517026, 0.321264962010896, -1.283, 0.713, -0.78], a = 0.2, v = 0.2, t = 0.2)
movej(p[0.412706849330607, 0.212200391415783, 0.322001083569414, -1.283, 0.713, -0.78], a = 0.2, v = 0.2, t = 0.2)
movej(p[0.412598416231077, 0.21208833289925, 0.323012196161253, -1.283, 0.713, -0.78], a = 0.2, v = 0.2, t = 0.2)
movej(p[0.412485112978132, 0.211971241397685, 0.324068721763164, -1.283, 0.713, -0.78], a = 0.2, v = 0.2, t = 0.2)
movej(p[0.412404129834208, 0.211887550614967, 0.324823870116416, -1.283, 0.713, -0.78], a = 0.2, v = 0.2, t = 0.2)
movej(p[0.412333291239095, 0.211814343559962, 0.325484422990189, -1.283, 0.713, -0.78], a = 0.2, v = 0.2, t = 0.2)
movej(p[0.412389596372439, 0.211872531232758, 0.324959391154377, -1.283, 0.713, -0.78], a = 0.2, v = 0.2, t = 0.2)
movej(p[0.412539762644308, 0.212027718253435, 0.323559126760815, -1.283, 0.713, -0.78], a = 0.2, v = 0.2, t = 0.2)
movej(p[0.412690063663504, 0.212183044526662, 0.322157605880809, -1.283, 0.713, -0.78], a = 0.2, v = 0.2, t = 0.2)
movej(p[0.412761344999837, 0.212256709125761, 0.321492924551574, -1.283, 0.713, -0.78], a = 0.2, v = 0.2, t = 0.2)
movej(p[0.412803520913395, 0.212300295173999, 0.32109964429439, -1.283, 0.713, -0.78], a = 0.2, v = 0.2, t = 0.2)
movej(p[0.412828198923975, 0.212325798283922, 0.32086952777695, -1.283, 0.713, -0.78], a = 0.2, v = 0.2, t = 0.2)
movej(p[0.412845716076571, 0.212343901115458, 0.320706184539142, -1.283, 0.713, -0.78], a = 0.2, v = 0.2, t = 0.2)
movej(p[0.412846447562064, 0.212344657057874, 0.320699363612728, -1.283, 0.713, -0.78], a = 0.2, v = 0.2, t = 0.2)
movej(p[0.412822385539267, 0.212319790531038, 0.320923736192135, -1.283, 0.713, -0.78], a = 0.2, v = 0.2, t = 0.2)
movej(p[0.41274700403425, 0.212241888675767, 0.3216266506089, -1.283, 0.713, -0.78], a = 0.2, v = 0.2, t = 0.2)
movej(p[0.412630717090479, 0.212121713724874, 0.322710998410658, -1.283, 0.713, -0.78], a = 0.2, v = 0.2, t = 0.2)
movej(p[0.41251527712991, 0.212002414075727, 0.32378744829762, -1.283, 0.713, -0.78], a = 0.2, v = 0.2, t = 0.2)
movej(p[0.412418875041778, 0.211902788822612, 0.324686374599755, -1.283, 0.713, -0.78], a = 0.2, v = 0.2, t = 0.2)
movej(p[0.412342434807758, 0.211823792840159, 0.325399161410015, -1.283, 0.713, -0.78], a = 0.2, v = 0.2, t = 0.2)
movej(p[0.412342492556613, 0.211823852519824, 0.325398622915824, -1.283, 0.713, -0.78], a = 0.2, v = 0.2, t = 0.2)
movej(p[0.41248667219721, 0.211972852748624, 0.324054182420018, -1.283, 0.713, -0.78], a = 0.2, v = 0.2, t = 0.2)
movej(p[0.41264261335455, 0.212134007735742, 0.322600068607399, -1.283, 0.713, -0.78], a = 0.2, v = 0.2, t = 0.2)
movej(p[0.41273433778545, 0.21222879893604, 0.3217447603347, -1.283, 0.713, -0.78], a = 0.2, v = 0.2, t = 0.2)
movej(p[0.41279222138749, 0.212288617852997, 0.321205009657679, -1.283, 0.713, -0.78], a = 0.2, v = 0.2, t = 0.2)
movej(p[0.412818920607985, 0.212316209751174, 0.320956045843569, -1.283, 0.713, -0.78], a = 0.2, v = 0.2, t = 0.2)
movej(p[0.412845677577334, 0.212343861329015, 0.320706543535269, -1.283, 0.713, -0.78], a = 0.2, v = 0.2, t = 0.2)
movej(p[0.412849181007854, 0.212347481895323, 0.320673874887707, -1.283, 0.713, -0.78], a = 0.2, v = 0.2, t = 0.2)
movej(p[0.412849893243728, 0.212348217944517, 0.320667233459357, -1.283, 0.713, -0.78], a = 0.2, v = 0.2, t = 0.2)
movej(p[0.412859094561246, 0.212357726904379, 0.320581433384992, -1.283, 0.713, -0.78], a = 0.2, v = 0.2, t = 0.2)
movej(p[0.412817650133181, 0.212314896798557, 0.320967892715762, -1.283, 0.713, -0.78], a = 0.2, v = 0.2, t = 0.2)
movej(p[0.41273160433966, 0.212225974098592, 0.321770249059721, -1.283, 0.713, -0.78], a = 0.2, v = 0.2, t = 0.2)
movej(p[0.4126411888828, 0.212132535637353, 0.3226133514641, -1.283, 0.713, -0.78], a = 0.2, v = 0.2, t = 0.2)
movej(p[0.412560667729714, 0.21204932229195, 0.323364191863827, -1.283, 0.713, -0.78], a = 0.2, v = 0.2, t = 0.2)
movej(p[0.412452754369876, 0.211937800892396, 0.32437045800795, -1.283, 0.713, -0.78], a = 0.2, v = 0.2, t = 0.2)
movej(p[0.412365649847352, 0.211847784065251, 0.325182686745403, -1.283, 0.713, -0.78], a = 0.2, v = 0.2, t = 0.2)
movej(p[0.412384918715207, 0.211867697179941, 0.325003009183814, -1.283, 0.713, -0.78], a = 0.2, v = 0.2, t = 0.2)
movej(p[0.412490464372002, 0.211976771713254, 0.324018821301504, -1.283, 0.713, -0.78], a = 0.2, v = 0.2, t = 0.2)
movej(p[0.41260755979974, 0.212097782179448, 0.322926934581079, -1.283, 0.713, -0.78], a = 0.2, v = 0.2, t = 0.2)
movej(p[0.412709775272579, 0.212203415185446, 0.321973799863759, -1.283, 0.713, -0.78], a = 0.2, v = 0.2, t = 0.2)
movej(p[0.412788698707352, 0.212284977393468, 0.321237857803304, -1.283, 0.713, -0.78], a = 0.2, v = 0.2, t = 0.2)
movej(p[0.412813684711824, 0.212310798794934, 0.321004869316848, -1.283, 0.713, -0.78], a = 0.2, v = 0.2, t = 0.2)
movej(p[0.412829430899542, 0.212327071450096, 0.320858039900884, -1.283, 0.713, -0.78], a = 0.2, v = 0.2, t = 0.2)
movej(p[0.412841866152923, 0.212339922471165, 0.320742084151847, -1.283, 0.713, -0.78], a = 0.2, v = 0.2, t = 0.2)
movej(p[0.412854185908595, 0.212352654132905, 0.320627205391191, -1.283, 0.713, -0.78], a = 0.2, v = 0.2, t = 0.2)
movej(p[0.412853974162795, 0.212352435307468, 0.320629179869889, -1.283, 0.713, -0.78], a = 0.2, v = 0.2, t = 0.2)
movej(p[0.412820691572863, 0.212318039927549, 0.320939532021725, -1.283, 0.713, -0.78], a = 0.2, v = 0.2, t = 0.2)
movej(p[0.412757726071608, 0.212252969200125, 0.321526670187517, -1.283, 0.713, -0.78], a = 0.2, v = 0.2, t = 0.2)
movej(p[0.412662517459807, 0.212154577326741, 0.322414467609713, -1.283, 0.713, -0.78], a = 0.2, v = 0.2, t = 0.2)
movej(p[0.412557568541177, 0.212046119483293, 0.323393091052054, -1.283, 0.713, -0.78], a = 0.2, v = 0.2, t = 0.2)
movej(p[0.412471253253002, 0.211956918278228, 0.324197960368902, -1.283, 0.713, -0.78], a = 0.2, v = 0.2, t = 0.2)
movej(p[0.412404707322755, 0.211888147411611, 0.32481848517451, -1.283, 0.713, -0.78], a = 0.2, v = 0.2, t = 0.2)
movej(p[0.412381607780871, 0.211864275545848, 0.32503388285074, -1.283, 0.713, -0.78], a = 0.2, v = 0.2, t = 0.2)
movej(p[0.412488481661324, 0.211974722711442, 0.324037309602047, -1.283, 0.713, -0.78], a = 0.2, v = 0.2, t = 0.2)
movej(p[0.412646309281251, 0.212137827234264, 0.322565604979202, -1.283, 0.713, -0.78], a = 0.2, v = 0.2, t = 0.2)
movej(p[0.412731700587752, 0.212226073564699, 0.321769351569403, -1.283, 0.713, -0.78], a = 0.2, v = 0.2, t = 0.2)
movej(p[0.412785310774542, 0.21228147618649, 0.321269449462485, -1.283, 0.713, -0.78], a = 0.2, v = 0.2, t = 0.2)
movej(p[0.412816321909523, 0.212313524166276, 0.320980278082145, -1.283, 0.713, -0.78], a = 0.2, v = 0.2, t = 0.2)
movej(p[0.412846101068936, 0.212344298979888, 0.320702594577871, -1.283, 0.713, -0.78], a = 0.2, v = 0.2, t = 0.2)
movej(p[0.412850663228458, 0.212349013673376, 0.320660053536816, -1.283, 0.713, -0.78], a = 0.2, v = 0.2, t = 0.2)
movej(p[0.412851317715478, 0.212349690042906, 0.320653950602656, -1.283, 0.713, -0.78], a = 0.2, v = 0.2, t = 0.2)
movej(p[0.412858825066591, 0.212357448399278, 0.320583946357881, -1.283, 0.713, -0.78], a = 0.2, v = 0.2, t = 0.2)
movej(p[0.41281045077596, 0.212307456733728, 0.32103502499152, -1.283, 0.713, -0.78], a = 0.2, v = 0.2, t = 0.2)
movej(p[0.412712566467224, 0.212206299702559, 0.321947772644547, -1.283, 0.713, -0.78], a = 0.2, v = 0.2, t = 0.2)
movej(p[0.412605095848605, 0.2120952358471, 0.32294991033321, -1.283, 0.713, -0.78], a = 0.2, v = 0.2, t = 0.2)
movej(p[0.412497240237622, 0.211983774127211, 0.323955637983143, -1.283, 0.713, -0.78], a = 0.2, v = 0.2, t = 0.2)
movej(p[0.412381858025908, 0.211864534157727, 0.325031549375915, -1.283, 0.713, -0.78], a = 0.2, v = 0.2, t = 0.2)
movej(p[0.412299873901835, 0.211779808927492, 0.325796031628469, -1.283, 0.713, -0.78], a = 0.2, v = 0.2, t = 0.2)
movej(p[0.41235737251151, 0.211839229980019, 0.325259870912719, -1.283, 0.713, -0.78], a = 0.2, v = 0.2, t = 0.2)
movej(p[0.412530792322209, 0.21201844801223, 0.323642772858418, -1.283, 0.713, -0.78], a = 0.2, v = 0.2, t = 0.2)
movej(p[0.412670332804811, 0.212162653974657, 0.322341591395922, -1.283, 0.713, -0.78], a = 0.2, v = 0.2, t = 0.2)
movej(p[0.412754415137272, 0.212249547566032, 0.321557543854443, -1.283, 0.713, -0.78], a = 0.2, v = 0.2, t = 0.2)
movej(p[0.412819632843859, 0.212316945800368, 0.320949404415219, -1.283, 0.713, -0.78], a = 0.2, v = 0.2, t = 0.2)
movej(p[0.412833973809446, 0.212331766250362, 0.320815678357892, -1.283, 0.713, -0.78], a = 0.2, v = 0.2, t = 0.2)
movej(p[0.412842924881927, 0.212341016598345, 0.320732211758353, -1.283, 0.713, -0.78], a = 0.2, v = 0.2, t = 0.2)
movej(p[0.412851259966623, 0.212349630363241, 0.320654489096846, -1.283, 0.713, -0.78], a = 0.2, v = 0.2, t = 0.2)
movej(p[0.412861038772688, 0.212359736119747, 0.320563304080575, -1.283, 0.713, -0.78], a = 0.2, v = 0.2, t = 0.2)
movej(p[0.412826119965205, 0.212323649816003, 0.320888913567811, -1.283, 0.713, -0.78], a = 0.2, v = 0.2, t = 0.2)
movej(p[0.41273401054194, 0.212228460751275, 0.32174781180178, -1.283, 0.713, -0.78], a = 0.2, v = 0.2, t = 0.2)
movej(p[0.412645327550721, 0.212136812679969, 0.322574759380442, -1.283, 0.713, -0.78], a = 0.2, v = 0.2, t = 0.2)
movej(p[0.412525055935975, 0.212012519832233, 0.323696263281349, -1.283, 0.713, -0.78], a = 0.2, v = 0.2, t = 0.2)
movej(p[0.412407941258619, 0.211891489472817, 0.324788329499838, -1.283, 0.713, -0.78], a = 0.2, v = 0.2, t = 0.2)
movej(p[0.412340259600897, 0.211821544906133, 0.325419444691193, -1.283, 0.713, -0.78], a = 0.2, v = 0.2, t = 0.2)
movej(p[0.412342280810812, 0.211823633694388, 0.325400597394523, -1.283, 0.713, -0.78], a = 0.2, v = 0.2, t = 0.2)
movej(p[0.412462513926322, 0.211947886755681, 0.324279452489743, -1.283, 0.713, -0.78], a = 0.2, v = 0.2, t = 0.2)
movej(p[0.412612179708117, 0.2121025565526, 0.322883855045833, -1.283, 0.713, -0.78], a = 0.2, v = 0.2, t = 0.2)
movej(p[0.412736378244983, 0.212230907617516, 0.321725733539966, -1.283, 0.713, -0.78], a = 0.2, v = 0.2, t = 0.2)
movej(p[0.412790219427193, 0.212286548957964, 0.321223677456286, -1.283, 0.713, -0.78], a = 0.2, v = 0.2, t = 0.2)
movej(p[0.412816976396543, 0.212314200535806, 0.320974175147985, -1.283, 0.713, -0.78], a = 0.2, v = 0.2, t = 0.2)
movej(p[0.412837015249128, 0.212334909379354, 0.320787317663855, -1.283, 0.713, -0.78], a = 0.2, v = 0.2, t = 0.2)
movej(p[0.412853646919285, 0.212352097122703, 0.320632231336969, -1.283, 0.713, -0.78], a = 0.2, v = 0.2, t = 0.2)
movej(p[0.412853608420048, 0.21235205733626, 0.320632590333096, -1.283, 0.713, -0.78], a = 0.2, v = 0.2, t = 0.2)
movej(p[0.412816841649215, 0.212314061283255, 0.32097543163443, -1.283, 0.713, -0.78], a = 0.2, v = 0.2, t = 0.2)
movej(p[0.412742826867093, 0.212237571846708, 0.321665601688685, -1.283, 0.713, -0.78], a = 0.2, v = 0.2, t = 0.2)
movej(p[0.412621650520289, 0.212112344017563, 0.322795541998578, -1.283, 0.713, -0.78], a = 0.2, v = 0.2, t = 0.2)
movej(p[0.412497143989531, 0.211983674661103, 0.323956535473461, -1.283, 0.713, -0.78], a = 0.2, v = 0.2, t = 0.2)
movej(p[0.41239875919072, 0.211882000406177, 0.324873950076139, -1.283, 0.713, -0.78], a = 0.2, v = 0.2, t = 0.2)
movej(p[0.412320124500221, 0.211800736596477, 0.325607199665641, -1.283, 0.713, -0.78], a = 0.2, v = 0.2, t = 0.2)
movej(p[0.412324494163561, 0.211805252357751, 0.32556645360522, -1.283, 0.713, -0.78], a = 0.2, v = 0.2, t = 0.2)
movej(p[0.412469559286597, 0.211955167674739, 0.324213756198493, -1.283, 0.713, -0.78], a = 0.2, v = 0.2, t = 0.2)
movej(p[0.412639071424794, 0.212130347382992, 0.322633096251087, -1.283, 0.713, -0.78], a = 0.2, v = 0.2, t = 0.2)
movej(p[0.412725444461825, 0.212219608267722, 0.321827688440049, -1.283, 0.713, -0.78], a = 0.2, v = 0.2, t = 0.2)
movej(p[0.4127833665631, 0.212279466971121, 0.321287578766901, -1.283, 0.713, -0.78], a = 0.2, v = 0.2, t = 0.2)
movej(p[0.412817476886617, 0.212314717759564, 0.320969508198334, -1.283, 0.713, -0.78], a = 0.2, v = 0.2, t = 0.2)
movej(p[0.412846101068936, 0.212344298979888, 0.320702594577871, -1.283, 0.713, -0.78], a = 0.2, v = 0.2, t = 0.2)
movej(p[0.412850008741438, 0.212348337303846, 0.320666156470976, -1.283, 0.713, -0.78], a = 0.2, v = 0.2, t = 0.2)
movej(p[0.412851259966623, 0.212349630363241, 0.320654489096846, -1.283, 0.713, -0.78], a = 0.2, v = 0.2, t = 0.2)
movej(p[0.412830701374346, 0.212328384402713, 0.320846193028692, -1.283, 0.713, -0.78], a = 0.2, v = 0.2, t = 0.2)
movej(p[0.412724193236639, 0.212218315208326, 0.321839355814178, -1.283, 0.713, -0.78], a = 0.2, v = 0.2, t = 0.2)
movej(p[0.412598935970769, 0.21208887001623, 0.323007349713538, -1.283, 0.713, -0.78], a = 0.2, v = 0.2, t = 0.2)
movej(p[0.412485112978132, 0.211971241397685, 0.324068721763164, -1.283, 0.713, -0.78], a = 0.2, v = 0.2, t = 0.2)
movej(p[0.412392984305249, 0.211876032439736, 0.324927799495197, -1.283, 0.713, -0.78], a = 0.2, v = 0.2, t = 0.2)
movej(p[0.412296716964444, 0.211776546439171, 0.325825469310888, -1.283, 0.713, -0.78], a = 0.2, v = 0.2, t = 0.2)
movej(p[0.412305206046087, 0.211785319349839, 0.325746310664873, -1.283, 0.713, -0.78], a = 0.2, v = 0.2, t = 0.2)
movej(p[0.412457470526344, 0.211942674731656, 0.324326480982387, -1.283, 0.713, -0.78], a = 0.2, v = 0.2, t = 0.2)
movej(p[0.412604037119602, 0.212094141719919, 0.322959782726704, -1.283, 0.713, -0.78], a = 0.2, v = 0.2, t = 0.2)
movej(p[0.412710930249674, 0.212204608778735, 0.321963029979947, -1.283, 0.713, -0.78], a = 0.2, v = 0.2, t = 0.2)
movej(p[0.412777206685265, 0.212273101140251, 0.321345018147229, -1.283, 0.713, -0.78], a = 0.2, v = 0.2, t = 0.2)
movej(p[0.412827390440009, 0.21232496276862, 0.320877066695618, -1.283, 0.713, -0.78], a = 0.2, v = 0.2, t = 0.2)
movej(p[0.412842905632308, 0.212340996705124, 0.320732391256416, -1.283, 0.713, -0.78], a = 0.2, v = 0.2, t = 0.2)
movej(p[0.412849123258999, 0.212347422215658, 0.320674413381898, -1.283, 0.713, -0.78], a = 0.2, v = 0.2, t = 0.2)
movej(p[0.412858767317736, 0.212357388719614, 0.320584484852072, -1.283, 0.713, -0.78], a = 0.2, v = 0.2, t = 0.2)
movej(p[0.412851683458224, 0.212350068014114, 0.320650540139449, -1.283, 0.713, -0.78], a = 0.2, v = 0.2, t = 0.2)
movej(p[0.412789314695136, 0.212285613976555, 0.321232113865271, -1.283, 0.713, -0.78], a = 0.2, v = 0.2, t = 0.2)
movej(p[0.412684500523834, 0.212177295385658, 0.322209480821167, -1.283, 0.713, -0.78], a = 0.2, v = 0.2, t = 0.2)
movej(p[0.412586211973114, 0.212075720596839, 0.323125997933528, -1.283, 0.713, -0.78], a = 0.2, v = 0.2, t = 0.2)
movej(p[0.412465420618676, 0.211950890632123, 0.324252348282151, -1.283, 0.713, -0.78], a = 0.2, v = 0.2, t = 0.2)
movej(p[0.412360952940502, 0.211842930119212, 0.325226484272903, -1.283, 0.713, -0.78], a = 0.2, v = 0.2, t = 0.2)
movej(p[0.4123190465216, 0.211799622576075, 0.325617251557198, -1.283, 0.713, -0.78], a = 0.2, v = 0.2, t = 0.2)
movej(p[0.412416083847134, 0.211899904305499, 0.324712401818966, -1.283, 0.713, -0.78], a = 0.2, v = 0.2, t = 0.2)
movej(p[0.412558800516745, 0.212047392649467, 0.323381603175989, -1.283, 0.713, -0.78], a = 0.2, v = 0.2, t = 0.2)
movej(p[0.412681016342933, 0.212173694712572, 0.322241969970666, -1.283, 0.713, -0.78], a = 0.2, v = 0.2, t = 0.2)
movej(p[0.412777861172285, 0.212273777509781, 0.321338915213069, -1.283, 0.713, -0.78], a = 0.2, v = 0.2, t = 0.2)
movej(p[0.41281208699351, 0.212309147657552, 0.321019767656121, -1.283, 0.713, -0.78], a = 0.2, v = 0.2, t = 0.2)
movej(p[0.412833396320899, 0.212331169453718, 0.320821063299798, -1.283, 0.713, -0.78], a = 0.2, v = 0.2, t = 0.2)
movej(p[0.412844002860548, 0.212342130618748, 0.320722159866796, -1.283, 0.713, -0.78], a = 0.2, v = 0.2, t = 0.2)
movej(p[0.41286123126887, 0.212359935051962, 0.32056150909994, -1.283, 0.713, -0.78], a = 0.2, v = 0.2, t = 0.2)
movej(p[0.412861847256654, 0.212360571635049, 0.320555765161907, -1.283, 0.713, -0.78], a = 0.2, v = 0.2, t = 0.2)
movej(p[0.412855437133781, 0.2123539471923, 0.320615538017061, -1.283, 0.713, -0.78], a = 0.2, v = 0.2, t = 0.2)
movej(p[0.41281514768281, 0.212312310679766, 0.32099122746402, -1.283, 0.713, -0.78], a = 0.2, v = 0.2, t = 0.2)
movej(p[0.412721883282451, 0.21221592802175, 0.321860895581801, -1.283, 0.713, -0.78], a = 0.2, v = 0.2, t = 0.2)
movej(p[0.412607617548594, 0.212097841859112, 0.322926396086888, -1.283, 0.713, -0.78], a = 0.2, v = 0.2, t = 0.2)
movej(p[0.412509136501692, 0.211996068138078, 0.323844708179884, -1.283, 0.713, -0.78], a = 0.2, v = 0.2, t = 0.2)
movej(p[0.412430367063866, 0.211914665075828, 0.32457921425583, -1.283, 0.713, -0.78], a = 0.2, v = 0.2, t = 0.2)
movej(p[0.412340875588681, 0.21182218148922, 0.32541370075316, -1.283, 0.713, -0.78], a = 0.2, v = 0.2, t = 0.2)
movej(p[0.412355004808467, 0.211836783113778, 0.325281949174533, -1.283, 0.713, -0.78], a = 0.2, v = 0.2, t = 0.2)
movej(p[0.412502533882637, 0.211989244763114, 0.323906276015674, -1.283, 0.713, -0.78], a = 0.2, v = 0.2, t = 0.2)
movej(p[0.412650755943064, 0.212142422568423, 0.322524140926528, -1.283, 0.713, -0.78], a = 0.2, v = 0.2, t = 0.2)
movej(p[0.412735589010636, 0.212230091995436, 0.321733092960571, -1.283, 0.713, -0.78], a = 0.2, v = 0.2, t = 0.2)
movej(p[0.412794204098168, 0.212290666854808, 0.321186521357136, -1.283, 0.713, -0.78], a = 0.2, v = 0.2, t = 0.2)
movej(p[0.412839671696444, 0.212337654643917, 0.320762546931089, -1.283, 0.713, -0.78], a = 0.2, v = 0.2, t = 0.2)
movej(p[0.412848719017016, 0.212347004458007, 0.320678182841232, -1.283, 0.713, -0.78], a = 0.2, v = 0.2, t = 0.2)
movej(p[0.412854012662031, 0.212352475093911, 0.320628820873762, -1.283, 0.713, -0.78], a = 0.2, v = 0.2, t = 0.2)
movej(p[0.412858324576516, 0.21235693117552, 0.320588613307533, -1.283, 0.713, -0.78], a = 0.2, v = 0.2, t = 0.2)
movej(p[0.412852357194863, 0.212350764276865, 0.320644257707225, -1.283, 0.713, -0.78], a = 0.2, v = 0.2, t = 0.2)
movej(p[0.412778053668467, 0.212273976441996, 0.321337120232434, -1.283, 0.713, -0.78], a = 0.2, v = 0.2, t = 0.2)
movej(p[0.412668311594896, 0.212160565186403, 0.322360438692592, -1.283, 0.713, -0.78], a = 0.2, v = 0.2, t = 0.2)
movej(p[0.412567886336553, 0.212056782250001, 0.323296880090005, -1.283, 0.713, -0.78], a = 0.2, v = 0.2, t = 0.2)
movej(p[0.41244594000502, 0.211930758691997, 0.324434000322438, -1.283, 0.713, -0.78], a = 0.2, v = 0.2, t = 0.2)
