def moving():
set_payload_mass(0)
set_tcp(p[0,0,0,0,0,0])
movej(p[0.412694011601986, 0.212090467922593, 0.321688316337771, -1.283, 0.713, -0.78], a = 0.2, v = 0.2, t = 0.1)
movej(p[0.41444486257212, 0.213297985974723, 0.320998083743523, -1.283, 0.713, -0.78], a = 0.2, v = 0.2, t = 0.1)
movej(p[0.41526729385818, 0.213846978962084, 0.321147125615284, -1.283, 0.713, -0.78], a = 0.2, v = 0.2, t = 0.1)
movej(p[0.416089725144239, 0.214395971949445, 0.321296167487045, -1.283, 0.713, -0.78], a = 0.2, v = 0.2, t = 0.1)
movej(p[0.416912156430299, 0.214944964936806, 0.321445209358807, -1.283, 0.713, -0.78], a = 0.2, v = 0.2, t = 0.1)
movej(p[0.416089725144239, 0.214395971949445, 0.321296167487045, -1.283, 0.713, -0.78], a = 0.2, v = 0.2, t = 0.1)
movej(p[0.41526729385818, 0.213846978962084, 0.321147125615284, -1.283, 0.713, -0.78], a = 0.2, v = 0.2, t = 0.1)
movej(p[0.41444486257212, 0.213297985974723, 0.320998083743523, -1.283, 0.713, -0.78], a = 0.2, v = 0.2, t = 0.1)
movej(p[0.41362243128606, 0.212748992987361, 0.320849041871761, -1.283, 0.713, -0.78], a = 0.2, v = 0.2, t = 0.1)
movej(p[0.41321121564303, 0.212474496493681, 0.320774520935881, -1.283, 0.713, -0.78], a = 0.2, v = 0.2, t = 0.1)
movej(p[0.4128, 0.2122, 0.3207, -1.283, 0.713, -0.78], a = 0.2, v = 0.2, t = 0.1)
movej(p[0.412799994888375, 0.212200016122594, 0.320700149976442, -1.283, 0.713, -0.78], a = 0.2, v = 0.2, t = 0.1)
movej(p[0.412799890305739, 0.212200270190106, 0.320702314004208, -1.283, 0.713, -0.78], a = 0.2, v = 0.2, t = 0.1)
movej(p[0.412799326588044, 0.212201151989415, 0.320707275814094, -1.283, 0.713, -0.78], a = 0.2, v = 0.2, t = 0.1)
movej(p[0.41279842094344, 0.212203266477398, 0.320713757156348, -1.283, 0.713, -0.78], a = 0.2, v = 0.2, t = 0.1)
movej(p[0.412798986468128, 0.212205556367412, 0.320719733740201, -1.283, 0.713, -0.78], a = 0.2, v = 0.2, t = 0.1)
movej(p[0.412801424876611, 0.212205969478154, 0.32072316755158, -1.283, 0.713, -0.78], a = 0.2, v = 0.2, t = 0.1)
movej(p[0.412803480786535, 0.212203435219963, 0.320723982391934, -1.283, 0.713, -0.78], a = 0.2, v = 0.2, t = 0.1)
movej(p[0.412802679257068, 0.212198275364094, 0.320721774472796, -1.283, 0.713, -0.78], a = 0.2, v = 0.2, t = 0.1)
movej(p[0.412797502157579, 0.212191308483485, 0.320717115226347, -1.283, 0.713, -0.78], a = 0.2, v = 0.2, t = 0.1)
movej(p[0.412787421735483, 0.212183962608406, 0.320711313423293, -1.283, 0.713, -0.78], a = 0.2, v = 0.2, t = 0.1)
movej(p[0.412773761899473, 0.212176351342443, 0.320704676416843, -1.283, 0.713, -0.78], a = 0.2, v = 0.2, t = 0.1)
movej(p[0.41275835580494, 0.212168168413561, 0.320696744583502, -1.283, 0.713, -0.78], a = 0.2, v = 0.2, t = 0.1)
movej(p[0.412742517907757, 0.212159556122007, 0.320687697929922, -1.283, 0.713, -0.78], a = 0.2, v = 0.2, t = 0.1)
movej(p[0.412726816214391, 0.212150957345583, 0.320678178670945, -1.283, 0.713, -0.78], a = 0.2, v = 0.2, t = 0.1)
movej(p[0.412711719300646, 0.212142643115888, 0.320668541298588, -1.283, 0.713, -0.78], a = 0.2, v = 0.2, t = 0.1)
movej(p[0.412698828468727, 0.212134358723007, 0.320659100307855, -1.283, 0.713, -0.78], a = 0.2, v = 0.2, t = 0.1)
movej(p[0.412689374533632, 0.212127586978988, 0.320649799914575, -1.283, 0.713, -0.78], a = 0.2, v = 0.2, t = 0.1)
movej(p[0.412684577788965, 0.212123795358389, 0.32064164493114, -1.283, 0.713, -0.78], a = 0.2, v = 0.2, t = 0.1)
movej(p[0.412684906730076, 0.212123996474731, 0.320635506099739, -1.283, 0.713, -0.78], a = 0.2, v = 0.2, t = 0.1)
movej(p[0.41269004215844, 0.212129489063053, 0.320632024330356, -1.283, 0.713, -0.78], a = 0.2, v = 0.2, t = 0.1)
movej(p[0.412699845337349, 0.212141155888893, 0.320632296424309, -1.283, 0.713, -0.78], a = 0.2, v = 0.2, t = 0.1)
movej(p[0.412713673818376, 0.212157311431792, 0.320636152688322, -1.283, 0.713, -0.78], a = 0.2, v = 0.2, t = 0.1)
movej(p[0.412730181765429, 0.212173077494248, 0.320643968546606, -1.283, 0.713, -0.78], a = 0.2, v = 0.2, t = 0.1)
movej(p[0.412747481457378, 0.212184829245472, 0.320653848743854, -1.283, 0.713, -0.78], a = 0.2, v = 0.2, t = 0.1)
movej(p[0.412764437171437, 0.21219182903443, 0.320663143146916, -1.283, 0.713, -0.78], a = 0.2, v = 0.2, t = 0.1)
movej(p[0.412780437826885, 0.21219465606678, 0.320670896266309, -1.283, 0.713, -0.78], a = 0.2, v = 0.2, t = 0.1)
movej(p[0.412794501584154, 0.21219402947996, 0.32067558298813, -1.283, 0.713, -0.78], a = 0.2, v = 0.2, t = 0.1)
movej(p[0.412805765080011, 0.212191336980075, 0.320676312395051, -1.283, 0.713, -0.78], a = 0.2, v = 0.2, t = 0.1)
movej(p[0.412812120608902, 0.212187814970061, 0.320673350630041, -1.283, 0.713, -0.78], a = 0.2, v = 0.2, t = 0.1)
movej(p[0.412810853382311, 0.212184281596155, 0.320668445996863, -1.283, 0.713, -0.78], a = 0.2, v = 0.2, t = 0.1)
movej(p[0.412801730429115, 0.212181755045568, 0.320662354156327, -1.283, 0.713, -0.78], a = 0.2, v = 0.2, t = 0.1)
movej(p[0.412787867402001, 0.212179652512717, 0.320653045785641, -1.283, 0.713, -0.78], a = 0.2, v = 0.2, t = 0.1)
movej(p[0.412772054009076, 0.212177023805921, 0.320639784885868, -1.283, 0.713, -0.78], a = 0.2, v = 0.2, t = 0.1)
movej(p[0.412754624757658, 0.21217424945725, 0.320624221874288, -1.283, 0.713, -0.78], a = 0.2, v = 0.2, t = 0.1)
movej(p[0.412735703206348, 0.212172150957088, 0.32060840576623, -1.283, 0.713, -0.78], a = 0.2, v = 0.2, t = 0.1)
movej(p[0.412717050132877, 0.212170651460279, 0.320594524327816, -1.283, 0.713, -0.78], a = 0.2, v = 0.2, t = 0.1)
movej(p[0.412700677355802, 0.21216907221683, 0.320584986589879, -1.283, 0.713, -0.78], a = 0.2, v = 0.2, t = 0.1)
movej(p[0.412687896507009, 0.21216745898435, 0.320581866817114, -1.283, 0.713, -0.78], a = 0.2, v = 0.2, t = 0.1)
movej(p[0.412680361362692, 0.212166968128065, 0.320584353467919, -1.283, 0.713, -0.78], a = 0.2, v = 0.2, t = 0.1)
movej(p[0.412678714937474, 0.212168122869823, 0.320590936359493, -1.283, 0.713, -0.78], a = 0.2, v = 0.2, t = 0.1)
movej(p[0.41268417387689, 0.212172274885707, 0.320599074809563, -1.283, 0.713, -0.78], a = 0.2, v = 0.2, t = 0.1)
movej(p[0.412697471382584, 0.21217829556214, 0.320607169220449, -1.283, 0.713, -0.78], a = 0.2, v = 0.2, t = 0.1)
movej(p[0.412718050257355, 0.212183440213959, 0.320615059028675, -1.283, 0.713, -0.78], a = 0.2, v = 0.2, t = 0.1)
movej(p[0.412743701128881, 0.212186175957832, 0.320622567096898, -1.283, 0.713, -0.78], a = 0.2, v = 0.2, t = 0.1)
movej(p[0.412771143940743, 0.212186354553089, 0.320630746847922, -1.283, 0.713, -0.78], a = 0.2, v = 0.2, t = 0.1)
movej(p[0.412798356792129, 0.212184637125449, 0.320639476980954, -1.283, 0.713, -0.78], a = 0.2, v = 0.2, t = 0.1)
movej(p[0.412824516171358, 0.212181875645453, 0.320646681273532, -1.283, 0.713, -0.78], a = 0.2, v = 0.2, t = 0.1)
movej(p[0.412849348058043, 0.212180411178139, 0.320651387748134, -1.283, 0.713, -0.78], a = 0.2, v = 0.2, t = 0.1)
movej(p[0.412872429558397, 0.212181895766291, 0.320652427881977, -1.283, 0.713, -0.78], a = 0.2, v = 0.2, t = 0.1)
movej(p[0.412892045702367, 0.212185649133058, 0.32064999566248, -1.283, 0.713, -0.78], a = 0.2, v = 0.2, t = 0.1)
movej(p[0.412906705364443, 0.212190004168255, 0.320643558219724, -1.283, 0.713, -0.78], a = 0.2, v = 0.2, t = 0.1)
movej(p[0.41291583737249, 0.212194378473976, 0.320633910512872, -1.283, 0.713, -0.78], a = 0.2, v = 0.2, t = 0.1)
movej(p[0.412919837665174, 0.212197956375408, 0.320622845108009, -1.283, 0.713, -0.78], a = 0.2, v = 0.2, t = 0.1)
movej(p[0.412918746069464, 0.212198964180713, 0.320610925534264, -1.283, 0.713, -0.78], a = 0.2, v = 0.2, t = 0.1)
movej(p[0.412912680123777, 0.212196104938212, 0.320596188250178, -1.283, 0.713, -0.78], a = 0.2, v = 0.2, t = 0.1)
movej(p[0.412902478539881, 0.212190158904336, 0.320577699705287, -1.283, 0.713, -0.78], a = 0.2, v = 0.2, t = 0.1)
movej(p[0.412890121060979, 0.212182226788025, 0.320556664364905, -1.283, 0.713, -0.78], a = 0.2, v = 0.2, t = 0.1)
movej(p[0.412878265855868, 0.212173184815483, 0.320533007060719, -1.283, 0.713, -0.78], a = 0.2, v = 0.2, t = 0.1)
movej(p[0.41286767550871, 0.212164668361458, 0.320507640406468, -1.283, 0.713, -0.78], a = 0.2, v = 0.2, t = 0.1)
movej(p[0.412857426451698, 0.212158080044506, 0.3204831847618, -1.283, 0.713, -0.78], a = 0.2, v = 0.2, t = 0.1)
movej(p[0.412847708894669, 0.212154587363872, 0.320463555916129, -1.283, 0.713, -0.78], a = 0.2, v = 0.2, t = 0.1)
movej(p[0.412840022767684, 0.21215436227113, 0.320451068724843, -1.283, 0.713, -0.78], a = 0.2, v = 0.2, t = 0.1)
movej(p[0.41283649440762, 0.21215749249988, 0.320444240845433, -1.283, 0.713, -0.78], a = 0.2, v = 0.2, t = 0.1)
movej(p[0.412838178894221, 0.212162852444726, 0.320441798936929, -1.283, 0.713, -0.78], a = 0.2, v = 0.2, t = 0.1)
movej(p[0.412845040016897, 0.212170023277665, 0.32044339218756, -1.283, 0.713, -0.78], a = 0.2, v = 0.2, t = 0.1)
movej(p[0.412855940154649, 0.212179186411795, 0.320447417159225, -1.283, 0.713, -0.78], a = 0.2, v = 0.2, t = 0.1)
movej(p[0.412869625197084, 0.212189649594067, 0.320451763449629, -1.283, 0.713, -0.78], a = 0.2, v = 0.2, t = 0.1)
movej(p[0.41288371697032, 0.212200679901327, 0.320455996645802, -1.283, 0.713, -0.78], a = 0.2, v = 0.2, t = 0.1)
movej(p[0.412896428591945, 0.212210979236378, 0.320461211971887, -1.283, 0.713, -0.78], a = 0.2, v = 0.2, t = 0.1)
movej(p[0.41290717524251, 0.212220021802057, 0.320467937016316, -1.283, 0.713, -0.78], a = 0.2, v = 0.2, t = 0.1)
movej(p[0.412915867085495, 0.212227724134991, 0.32047416365328, -1.283, 0.713, -0.78], a = 0.2, v = 0.2, t = 0.1)
movej(p[0.412923189773373, 0.212234186860463, 0.320478005536247, -1.283, 0.713, -0.78], a = 0.2, v = 0.2, t = 0.1)
movej(p[0.41292975104338, 0.212240758276888, 0.320480730574058, -1.283, 0.713, -0.78], a = 0.2, v = 0.2, t = 0.1)
movej(p[0.412936839734617, 0.212247175293909, 0.320481690983389, -1.283, 0.713, -0.78], a = 0.2, v = 0.2, t = 0.1)
movej(p[0.412944452031553, 0.212252197835712, 0.320479081438949, -1.283, 0.713, -0.78], a = 0.2, v = 0.2, t = 0.1)
movej(p[0.412951148784455, 0.212253828248828, 0.320472273255075, -1.283, 0.713, -0.78], a = 0.2, v = 0.2, t = 0.1)
movej(p[0.412955074263834, 0.212250778733174, 0.320464179728531, -1.283, 0.713, -0.78], a = 0.2, v = 0.2, t = 0.1)
movej(p[0.412953466203152, 0.212244011622105, 0.32045626662297, -1.283, 0.713, -0.78], a = 0.2, v = 0.2, t = 0.1)
movej(p[0.412945644368561, 0.21223598526821, 0.320446144188935, -1.283, 0.713, -0.78], a = 0.2, v = 0.2, t = 0.1)
movej(p[0.412933285058517, 0.212227994872378, 0.320431513096061, -1.283, 0.713, -0.78], a = 0.2, v = 0.2, t = 0.1)
movej(p[0.412918107775435, 0.212219836549535, 0.32041334460761, -1.283, 0.713, -0.78], a = 0.2, v = 0.2, t = 0.1)
movej(p[0.412901147650894, 0.212211705066595, 0.320395280315878, -1.283, 0.713, -0.78], a = 0.2, v = 0.2, t = 0.1)
movej(p[0.412882567093276, 0.21220331221957, 0.320380410978051, -1.283, 0.713, -0.78], a = 0.2, v = 0.2, t = 0.1)
movej(p[0.412863334147488, 0.212195113777808, 0.320369626514551, -1.283, 0.713, -0.78], a = 0.2, v = 0.2, t = 0.1)
movej(p[0.412844820594817, 0.212187260095913, 0.320361707540045, -1.283, 0.713, -0.78], a = 0.2, v = 0.2, t = 0.1)
movej(p[0.41282787843474, 0.212179771843706, 0.320354962861271, -1.283, 0.713, -0.78], a = 0.2, v = 0.2, t = 0.1)
movej(p[0.412813100633728, 0.212172371278801, 0.320348814147068, -1.283, 0.713, -0.78], a = 0.2, v = 0.2, t = 0.1)
movej(p[0.412800764163709, 0.212164815357771, 0.320343674964169, -1.283, 0.713, -0.78], a = 0.2, v = 0.2, t = 0.1)
movej(p[0.412792660090419, 0.212158435392797, 0.320341109238534, -1.283, 0.713, -0.78], a = 0.2, v = 0.2, t = 0.1)
movej(p[0.412791816230268, 0.212154041847752, 0.320342800323094, -1.283, 0.713, -0.78], a = 0.2, v = 0.2, t = 0.1)
movej(p[0.41279895979501, 0.212151668542514, 0.320349106180532, -1.283, 0.713, -0.78], a = 0.2, v = 0.2, t = 0.1)
movej(p[0.412812190032541, 0.212151514869746, 0.320358535772281, -1.283, 0.713, -0.78], a = 0.2, v = 0.2, t = 0.1)
movej(p[0.412829720096453, 0.212154069078724, 0.320369388321001, -1.283, 0.713, -0.78], a = 0.2, v = 0.2, t = 0.1)
movej(p[0.412850677875147, 0.212158903179434, 0.320379350486055, -1.283, 0.713, -0.78], a = 0.2, v = 0.2, t = 0.1)
movej(p[0.412873920213353, 0.212164328529178, 0.320386833584066, -1.283, 0.713, -0.78], a = 0.2, v = 0.2, t = 0.1)
movej(p[0.412897916628401, 0.212169077631866, 0.320392492218309, -1.283, 0.713, -0.78], a = 0.2, v = 0.2, t = 0.1)
movej(p[0.412921043084742, 0.212172721528209, 0.320395911426782, -1.283, 0.713, -0.78], a = 0.2, v = 0.2, t = 0.1)
movej(p[0.412941454350842, 0.212175123938438, 0.320396295411508, -1.283, 0.713, -0.78], a = 0.2, v = 0.2, t = 0.1)
movej(p[0.412957027658742, 0.212176413487912, 0.320393142409891, -1.283, 0.713, -0.78], a = 0.2, v = 0.2, t = 0.1)
movej(p[0.412965906410419, 0.212177163303009, 0.320387688865998, -1.283, 0.713, -0.78], a = 0.2, v = 0.2, t = 0.1)
movej(p[0.412967865583982, 0.212177375012636, 0.320380150630463, -1.283, 0.713, -0.78], a = 0.2, v = 0.2, t = 0.1)
movej(p[0.41296353218915, 0.212176864427376, 0.32036965175005, -1.283, 0.713, -0.78], a = 0.2, v = 0.2, t = 0.1)
movej(p[0.412953873811818, 0.212176302736777, 0.320356995681744, -1.283, 0.713, -0.78], a = 0.2, v = 0.2, t = 0.1)
movej(p[0.412940191033438, 0.212175847948597, 0.320344313477498, -1.283, 0.713, -0.78], a = 0.2, v = 0.2, t = 0.1)
movej(p[0.412923262869621, 0.212175505973514, 0.320332028295374, -1.283, 0.713, -0.78], a = 0.2, v = 0.2, t = 0.1)
movej(p[0.412902977030764, 0.212174715829236, 0.320319860521507, -1.283, 0.713, -0.78], a = 0.2, v = 0.2, t = 0.1)
movej(p[0.412879669887202, 0.212172998560271, 0.320307335804094, -1.283, 0.713, -0.78], a = 0.2, v = 0.2, t = 0.1)
movej(p[0.412854782198417, 0.212170119433717, 0.32029501063804, -1.283, 0.713, -0.78], a = 0.2, v = 0.2, t = 0.1)
movej(p[0.412831613074252, 0.212165518401399, 0.320283228358888, -1.283, 0.713, -0.78], a = 0.2, v = 0.2, t = 0.1)
movej(p[0.41281279001895, 0.212160090810111, 0.320273481964481, -1.283, 0.713, -0.78], a = 0.2, v = 0.2, t = 0.1)
movej(p[0.412799072054403, 0.212154697836973, 0.320267609706363, -1.283, 0.713, -0.78], a = 0.2, v = 0.2, t = 0.1)
movej(p[0.412789623865729, 0.212149307984695, 0.320266465578663, -1.283, 0.713, -0.78], a = 0.2, v = 0.2, t = 0.1)
movej(p[0.412783640796617, 0.212145394592197, 0.32027112928997, -1.283, 0.713, -0.78], a = 0.2, v = 0.2, t = 0.1)
movej(p[0.412782293679844, 0.212143496333996, 0.32028100598705, -1.283, 0.713, -0.78], a = 0.2, v = 0.2, t = 0.1)
movej(p[0.412787523418845, 0.212142843590669, 0.320294010725346, -1.283, 0.713, -0.78], a = 0.2, v = 0.2, t = 0.1)
movej(p[0.4127994640837, 0.212143516952865, 0.320307295264109, -1.283, 0.713, -0.78], a = 0.2, v = 0.2, t = 0.1)
movej(p[0.41281653005588, 0.212146305874571, 0.320319280567789, -1.283, 0.713, -0.78], a = 0.2, v = 0.2, t = 0.1)
movej(p[0.412836736123801, 0.212151038240535, 0.32032912251239, -1.283, 0.713, -0.78], a = 0.2, v = 0.2, t = 0.1)
movej(p[0.412857513936818, 0.212156115595516, 0.320336477789316, -1.283, 0.713, -0.78], a = 0.2, v = 0.2, t = 0.1)
movej(p[0.412876490545028, 0.212160795336033, 0.320342415040153, -1.283, 0.713, -0.78], a = 0.2, v = 0.2, t = 0.1)
movej(p[0.412892454017991, 0.212165008860745, 0.320347419975165, -1.283, 0.713, -0.78], a = 0.2, v = 0.2, t = 0.1)
movej(p[0.412904641475358, 0.212168091546371, 0.320349904384203, -1.283, 0.713, -0.78], a = 0.2, v = 0.2, t = 0.1)
movej(p[0.412911957239953, 0.212168660709389, 0.320347903737096, -1.283, 0.713, -0.78], a = 0.2, v = 0.2, t = 0.1)
movej(p[0.412913681724325, 0.212166841296008, 0.320342493011211, -1.283, 0.713, -0.78], a = 0.2, v = 0.2, t = 0.1)
movej(p[0.412909249019996, 0.212164020258503, 0.320336382812383, -1.283, 0.713, -0.78], a = 0.2, v = 0.2, t = 0.1)
movej(p[0.412898144424876, 0.212161159004812, 0.320331005629891, -1.283, 0.713, -0.78], a = 0.2, v = 0.2, t = 0.1)
movej(p[0.412880352471522, 0.212158151903602, 0.320327674596546, -1.283, 0.713, -0.78], a = 0.2, v = 0.2, t = 0.1)
movej(p[0.412857859710349, 0.212154557085229, 0.320326904883835, -1.283, 0.713, -0.78], a = 0.2, v = 0.2, t = 0.1)
movej(p[0.412832569743524, 0.212150894284425, 0.320327858386993, -1.283, 0.713, -0.78], a = 0.2, v = 0.2, t = 0.1)
movej(p[0.412805775433996, 0.212147351048959, 0.320328346101399, -1.283, 0.713, -0.78], a = 0.2, v = 0.2, t = 0.1)
movej(p[0.412779649465468, 0.212143204069755, 0.320325410526333, -1.283, 0.713, -0.78], a = 0.2, v = 0.2, t = 0.1)
movej(p[0.412755852361624, 0.21213785436787, 0.32031893873119, -1.283, 0.713, -0.78], a = 0.2, v = 0.2, t = 0.1)
movej(p[0.412735042179784, 0.21213241868328, 0.320312330503226, -1.283, 0.713, -0.78], a = 0.2, v = 0.2, t = 0.1)
movej(p[0.412718326474076, 0.212128839548598, 0.320308106449887, -1.283, 0.713, -0.78], a = 0.2, v = 0.2, t = 0.1)
movej(p[0.412708254097783, 0.212127566945935, 0.320306821491021, -1.283, 0.713, -0.78], a = 0.2, v = 0.2, t = 0.1)
movej(p[0.412706552955879, 0.212127379351519, 0.320308190638769, -1.283, 0.713, -0.78], a = 0.2, v = 0.2, t = 0.1)
movej(p[0.41271247422241, 0.212127256165149, 0.320310745582564, -1.283, 0.713, -0.78], a = 0.2, v = 0.2, t = 0.1)
movej(p[0.412724950591551, 0.21212819083316, 0.320312959171901, -1.283, 0.713, -0.78], a = 0.2, v = 0.2, t = 0.1)
movej(p[0.41274201669467, 0.21213205709235, 0.320314923409723, -1.283, 0.713, -0.78], a = 0.2, v = 0.2, t = 0.1)
movej(p[0.412761552141938, 0.212139078076366, 0.320318237686337, -1.283, 0.713, -0.78], a = 0.2, v = 0.2, t = 0.1)
movej(p[0.41278263639108, 0.212147723850977, 0.320324069498707, -1.283, 0.713, -0.78], a = 0.2, v = 0.2, t = 0.1)
movej(p[0.412805363169747, 0.212156199987501, 0.320331016852952, -1.283, 0.713, -0.78], a = 0.2, v = 0.2, t = 0.1)
movej(p[0.412829575267049, 0.212164973545883, 0.320337327775116, -1.283, 0.713, -0.78], a = 0.2, v = 0.2, t = 0.1)
movej(p[0.412854554559636, 0.212175457685419, 0.320343054549603, -1.283, 0.713, -0.78], a = 0.2, v = 0.2, t = 0.1)
movej(p[0.412879361297171, 0.21218712731205, 0.320348600774642, -1.283, 0.713, -0.78], a = 0.2, v = 0.2, t = 0.1)
movej(p[0.412902169096805, 0.212197785296334, 0.320354807039853, -1.283, 0.713, -0.78], a = 0.2, v = 0.2, t = 0.1)
movej(p[0.412921555979862, 0.212205358695592, 0.320360824662556, -1.283, 0.713, -0.78], a = 0.2, v = 0.2, t = 0.1)
movej(p[0.412936326536179, 0.212209617877416, 0.320363930980359, -1.283, 0.713, -0.78], a = 0.2, v = 0.2, t = 0.1)
movej(p[0.412946772540427, 0.212210600048693, 0.320363130360706, -1.283, 0.713, -0.78], a = 0.2, v = 0.2, t = 0.1)
movej(p[0.41295282179427, 0.21220752375974, 0.320359713639291, -1.283, 0.713, -0.78], a = 0.2, v = 0.2, t = 0.1)
movej(p[0.412954520855002, 0.212200770266407, 0.320354938201257, -1.283, 0.713, -0.78], a = 0.2, v = 0.2, t = 0.1)
movej(p[0.412952869219937, 0.212191442628825, 0.32034665974894, -1.283, 0.713, -0.78], a = 0.2, v = 0.2, t = 0.1)
movej(p[0.412948350984515, 0.21218059500348, 0.320335664237626, -1.283, 0.713, -0.78], a = 0.2, v = 0.2, t = 0.1)
movej(p[0.412940563649433, 0.212169857548464, 0.320324656160042, -1.283, 0.713, -0.78], a = 0.2, v = 0.2, t = 0.1)
movej(p[0.412929424271124, 0.212160700912628, 0.320315392334425, -1.283, 0.713, -0.78], a = 0.2, v = 0.2, t = 0.1)
movej(p[0.412916775077649, 0.21215309313147, 0.320307406061685, -1.283, 0.713, -0.78], a = 0.2, v = 0.2, t = 0.1)
movej(p[0.412904515264261, 0.212145778958539, 0.320299430341528, -1.283, 0.713, -0.78], a = 0.2, v = 0.2, t = 0.1)
movej(p[0.412893357622344, 0.212137556632164, 0.320293226670854, -1.283, 0.713, -0.78], a = 0.2, v = 0.2, t = 0.1)
movej(p[0.412883953010478, 0.21212934467771, 0.320290696861236, -1.283, 0.713, -0.78], a = 0.2, v = 0.2, t = 0.1)
movej(p[0.412876715594949, 0.212121903749416, 0.320293100846173, -1.283, 0.713, -0.78], a = 0.2, v = 0.2, t = 0.1)
movej(p[0.412872108903023, 0.212116416057305, 0.320300014286257, -1.283, 0.713, -0.78], a = 0.2, v = 0.2, t = 0.1)
movej(p[0.412871347208825, 0.212114769582684, 0.320311664328887, -1.283, 0.713, -0.78], a = 0.2, v = 0.2, t = 0.1)
movej(p[0.412875204156458, 0.21211862185323, 0.320326700748228, -1.283, 0.713, -0.78], a = 0.2, v = 0.2, t = 0.1)
movej(p[0.412883703244901, 0.21212770096147, 0.320342848673487, -1.283, 0.713, -0.78], a = 0.2, v = 0.2, t = 0.1)
movej(p[0.412896354388962, 0.212139686752722, 0.320358120811092, -1.283, 0.713, -0.78], a = 0.2, v = 0.2, t = 0.1)
movej(p[0.412912151212948, 0.212152515798416, 0.320372245309049, -1.283, 0.713, -0.78], a = 0.2, v = 0.2, t = 0.1)
movej(p[0.412929432679006, 0.212165714055621, 0.320386646839094, -1.283, 0.713, -0.78], a = 0.2, v = 0.2, t = 0.1)
movej(p[0.412946353140658, 0.21217845791744, 0.320401949868808, -1.283, 0.713, -0.78], a = 0.2, v = 0.2, t = 0.1)
movej(p[0.412962666402872, 0.212190096720979, 0.320417011684838, -1.283, 0.713, -0.78], a = 0.2, v = 0.2, t = 0.1)
movej(p[0.41297894103627, 0.212199748523948, 0.320429655515436, -1.283, 0.713, -0.78], a = 0.2, v = 0.2, t = 0.1)
movej(p[0.412994965985827, 0.212207921497027, 0.320438751450723, -1.283, 0.713, -0.78], a = 0.2, v = 0.2, t = 0.1)
movej(p[0.413009544283166, 0.212214856284867, 0.320445039631806, -1.283, 0.713, -0.78], a = 0.2, v = 0.2, t = 0.1)
movej(p[0.413019532312237, 0.212219791076826, 0.320448685360484, -1.283, 0.713, -0.78], a = 0.2, v = 0.2, t = 0.1)
movej(p[0.413021564797393, 0.212222050784846, 0.320447322366077, -1.283, 0.713, -0.78], a = 0.2, v = 0.2, t = 0.1)
movej(p[0.41301523269193, 0.212221427778748, 0.320439584591668, -1.283, 0.713, -0.78], a = 0.2, v = 0.2, t = 0.1)
movej(p[0.413002356175558, 0.21221867376969, 0.320427366425061, -1.283, 0.713, -0.78], a = 0.2, v = 0.2, t = 0.1)
movej(p[0.412984432277278, 0.212214140573643, 0.32041327553623, -1.283, 0.713, -0.78], a = 0.2, v = 0.2, t = 0.1)
movej(p[0.412962151583014, 0.212207688233562, 0.320398062559645, -1.283, 0.713, -0.78], a = 0.2, v = 0.2, t = 0.1)
movej(p[0.412936909953352, 0.21219972468763, 0.320382358495038, -1.283, 0.713, -0.78], a = 0.2, v = 0.2, t = 0.1)
movej(p[0.412909116123461, 0.212190786943119, 0.320367055911594, -1.283, 0.713, -0.78], a = 0.2, v = 0.2, t = 0.1)
movej(p[0.412879379911265, 0.212181241438879, 0.32035250567919, -1.283, 0.713, -0.78], a = 0.2, v = 0.2, t = 0.1)
movej(p[0.412849731521021, 0.212171949420252, 0.320338395663038, -1.283, 0.713, -0.78], a = 0.2, v = 0.2, t = 0.1)
movej(p[0.412822150718401, 0.212163699132527, 0.320323545239466, -1.283, 0.713, -0.78], a = 0.2, v = 0.2, t = 0.1)
movej(p[0.41279806901012, 0.212157423789703, 0.320309546955223, -1.283, 0.713, -0.78], a = 0.2, v = 0.2, t = 0.1)
movej(p[0.412778789433065, 0.212152548219865, 0.320298340580952, -1.283, 0.713, -0.78], a = 0.2, v = 0.2, t = 0.1)
movej(p[0.41276567912549, 0.21214873603336, 0.320291927556131, -1.283, 0.713, -0.78], a = 0.2, v = 0.2, t = 0.1)
movej(p[0.4127592753607, 0.212146004864439, 0.320290203537907, -1.283, 0.713, -0.78], a = 0.2, v = 0.2, t = 0.1)
movej(p[0.412758256880302, 0.212145096083089, 0.320290918402327, -1.283, 0.713, -0.78], a = 0.2, v = 0.2, t = 0.1)
movej(p[0.412761502264938, 0.212145864582479, 0.3202927701864, -1.283, 0.713, -0.78], a = 0.2, v = 0.2, t = 0.1)
movej(p[0.41276849777605, 0.212147504439422, 0.32029483942261, -1.283, 0.713, -0.78], a = 0.2, v = 0.2, t = 0.1)
movej(p[0.412778300792834, 0.212149943725211, 0.320296178251115, -1.283, 0.713, -0.78], a = 0.2, v = 0.2, t = 0.1)
movej(p[0.41279020668923, 0.212154517209119, 0.32029823410105, -1.283, 0.713, -0.78], a = 0.2, v = 0.2, t = 0.1)
movej(p[0.412803937213459, 0.212162250135691, 0.320302228044718, -1.283, 0.713, -0.78], a = 0.2, v = 0.2, t = 0.1)
movej(p[0.41281968540422, 0.212172372276579, 0.320309261040495, -1.283, 0.713, -0.78], a = 0.2, v = 0.2, t = 0.1)
movej(p[0.412836842342857, 0.21218430457539, 0.320319693333804, -1.283, 0.713, -0.78], a = 0.2, v = 0.2, t = 0.1)
movej(p[0.412854216076675, 0.212197318480285, 0.32033307048214, -1.283, 0.713, -0.78], a = 0.2, v = 0.2, t = 0.1)
movej(p[0.412870363933197, 0.212210919116611, 0.320347816966477, -1.283, 0.713, -0.78], a = 0.2, v = 0.2, t = 0.1)
movej(p[0.412885108235864, 0.212223995432433, 0.320361497809887, -1.283, 0.713, -0.78], a = 0.2, v = 0.2, t = 0.1)
movej(p[0.412897638102542, 0.212235359380628, 0.320372584075418, -1.283, 0.713, -0.78], a = 0.2, v = 0.2, t = 0.1)
movej(p[0.412906585311781, 0.212243340727393, 0.32038052031361, -1.283, 0.713, -0.78], a = 0.2, v = 0.2, t = 0.1)
movej(p[0.412910367859057, 0.212246553443703, 0.320384971116911, -1.283, 0.713, -0.78], a = 0.2, v = 0.2, t = 0.1)
movej(p[0.41290857024372, 0.212246002711443, 0.320385211071238, -1.283, 0.713, -0.78], a = 0.2, v = 0.2, t = 0.1)
movej(p[0.412902321082192, 0.212243003328404, 0.32038197135218, -1.283, 0.713, -0.78], a = 0.2, v = 0.2, t = 0.1)
movej(p[0.412892598225308, 0.212238792257017, 0.320377558031004, -1.283, 0.713, -0.78], a = 0.2, v = 0.2, t = 0.1)
movej(p[0.412879919236918, 0.212234135431481, 0.320373902422667, -1.283, 0.713, -0.78], a = 0.2, v = 0.2, t = 0.1)
movej(p[0.412865809006577, 0.212229182856135, 0.320371034933315, -1.283, 0.713, -0.78], a = 0.2, v = 0.2, t = 0.1)
movej(p[0.412851734723582, 0.212224077831929, 0.320367490648474, -1.283, 0.713, -0.78], a = 0.2, v = 0.2, t = 0.1)
movej(p[0.412838477504724, 0.21221842105984, 0.320362060495007, -1.283, 0.713, -0.78], a = 0.2, v = 0.2, t = 0.1)
movej(p[0.412825851861974, 0.212212163921768, 0.320354920545266, -1.283, 0.713, -0.78], a = 0.2, v = 0.2, t = 0.1)
movej(p[0.412814348483225, 0.2122054216845, 0.320346407364194, -1.283, 0.713, -0.78], a = 0.2, v = 0.2, t = 0.1)
movej(p[0.41280487002701, 0.212198667015876, 0.320337675889314, -1.283, 0.713, -0.78], a = 0.2, v = 0.2, t = 0.1)
movej(p[0.412798437539655, 0.212192792303546, 0.320330425944937, -1.283, 0.713, -0.78], a = 0.2, v = 0.2, t = 0.1)
movej(p[0.41279661509485, 0.212188701729641, 0.320325659043002, -1.283, 0.713, -0.78], a = 0.2, v = 0.2, t = 0.1)
movej(p[0.412800222419923, 0.212186851495388, 0.320323880942885, -1.283, 0.713, -0.78], a = 0.2, v = 0.2, t = 0.1)
movej(p[0.412809213028128, 0.21218775801388, 0.320324499361291, -1.283, 0.713, -0.78], a = 0.2, v = 0.2, t = 0.1)
movej(p[0.412822108668749, 0.212191223233733, 0.320328765546984, -1.283, 0.713, -0.78], a = 0.2, v = 0.2, t = 0.1)
movej(p[0.412837606961637, 0.212196609796615, 0.320338316781034, -1.283, 0.713, -0.78], a = 0.2, v = 0.2, t = 0.1)
movej(p[0.412854595418545, 0.212203487840246, 0.320353072123208, -1.283, 0.713, -0.78], a = 0.2, v = 0.2, t = 0.1)
movej(p[0.412872184096638, 0.212212410496168, 0.320371221689463, -1.283, 0.713, -0.78], a = 0.2, v = 0.2, t = 0.1)
movej(p[0.412889391152401, 0.212224152390521, 0.320390143629374, -1.283, 0.713, -0.78], a = 0.2, v = 0.2, t = 0.1)
movej(p[0.41290615782504, 0.212237774631056, 0.320408682374892, -1.283, 0.713, -0.78], a = 0.2, v = 0.2, t = 0.1)
movej(p[0.4129222146479, 0.212250841894095, 0.320424936402864, -1.283, 0.713, -0.78], a = 0.2, v = 0.2, t = 0.1)
movej(p[0.412935220756695, 0.212261362092925, 0.320437945188995, -1.283, 0.713, -0.78], a = 0.2, v = 0.2, t = 0.1)
movej(p[0.412943580520882, 0.212268129371718, 0.320448442103517, -1.283, 0.713, -0.78], a = 0.2, v = 0.2, t = 0.1)
movej(p[0.412946857372554, 0.212270956269831, 0.320456782494106, -1.283, 0.713, -0.78], a = 0.2, v = 0.2, t = 0.1)
movej(p[0.412946051205238, 0.212270886217859, 0.320463193278222, -1.283, 0.713, -0.78], a = 0.2, v = 0.2, t = 0.1)
movej(p[0.41294217406354, 0.212268313573005, 0.320468359924398, -1.283, 0.713, -0.78], a = 0.2, v = 0.2, t = 0.1)
movej(p[0.412935485210194, 0.212263542631819, 0.320471522361293, -1.283, 0.713, -0.78], a = 0.2, v = 0.2, t = 0.1)
movej(p[0.412926312573969, 0.212257199927068, 0.320471461730253, -1.283, 0.713, -0.78], a = 0.2, v = 0.2, t = 0.1)
movej(p[0.412914963533723, 0.212250698264774, 0.320466645451304, -1.283, 0.713, -0.78], a = 0.2, v = 0.2, t = 0.1)
movej(p[0.412900984961115, 0.212245018402562, 0.320456605453739, -1.283, 0.713, -0.78], a = 0.2, v = 0.2, t = 0.1)
movej(p[0.412884742013154, 0.212240243148846, 0.320443174928526, -1.283, 0.713, -0.78], a = 0.2, v = 0.2, t = 0.1)
movej(p[0.412866949674533, 0.212237424349024, 0.320428329954395, -1.283, 0.713, -0.78], a = 0.2, v = 0.2, t = 0.1)
movej(p[0.412848692771958, 0.212237498017767, 0.320413472413135, -1.283, 0.713, -0.78], a = 0.2, v = 0.2, t = 0.1)
movej(p[0.41283159122618, 0.212240870088915, 0.320399292524625, -1.283, 0.713, -0.78], a = 0.2, v = 0.2, t = 0.1)
movej(p[0.412817720612757, 0.212246545003276, 0.320387169342523, -1.283, 0.713, -0.78], a = 0.2, v = 0.2, t = 0.1)
movej(p[0.412809576883912, 0.212252764702662, 0.320378192576845, -1.283, 0.713, -0.78], a = 0.2, v = 0.2, t = 0.1)
movej(p[0.412808019751255, 0.212259238737938, 0.320372116664474, -1.283, 0.713, -0.78], a = 0.2, v = 0.2, t = 0.1)
movej(p[0.412811910170013, 0.21226617446817, 0.32036547913805, -1.283, 0.713, -0.78], a = 0.2, v = 0.2, t = 0.1)
movej(p[0.412819692005391, 0.212273852494157, 0.320357708118484, -1.283, 0.713, -0.78], a = 0.2, v = 0.2, t = 0.1)
movej(p[0.412830282708528, 0.212281251884776, 0.320351372052313, -1.283, 0.713, -0.78], a = 0.2, v = 0.2, t = 0.1)
movej(p[0.412842772778749, 0.212287525711337, 0.320347269102625, -1.283, 0.713, -0.78], a = 0.2, v = 0.2, t = 0.1)
movej(p[0.412856046584853, 0.212292167143321, 0.320344002188233, -1.283, 0.713, -0.78], a = 0.2, v = 0.2, t = 0.1)
movej(p[0.412869462552626, 0.212295407836031, 0.320339642143681, -1.283, 0.713, -0.78], a = 0.2, v = 0.2, t = 0.1)
movej(p[0.412882622397619, 0.212296797934583, 0.320334883597709, -1.283, 0.713, -0.78], a = 0.2, v = 0.2, t = 0.1)
movej(p[0.412894560371388, 0.2122958357238, 0.320330603484076, -1.283, 0.713, -0.78], a = 0.2, v = 0.2, t = 0.1)
movej(p[0.412904153886019, 0.212292667528955, 0.320325244655618, -1.283, 0.713, -0.78], a = 0.2, v = 0.2, t = 0.1)
movej(p[0.412909593701718, 0.212287732286843, 0.320318183141301, -1.283, 0.713, -0.78], a = 0.2, v = 0.2, t = 0.1)
movej(p[0.412909926833765, 0.212281696607566, 0.32030992081471, -1.283, 0.713, -0.78], a = 0.2, v = 0.2, t = 0.1)
movej(p[0.4129042823467, 0.212275218690071, 0.320300671964364, -1.283, 0.713, -0.78], a = 0.2, v = 0.2, t = 0.1)
movej(p[0.412892693194927, 0.212268881620577, 0.320289911818437, -1.283, 0.713, -0.78], a = 0.2, v = 0.2, t = 0.1)
movej(p[0.412876587254143, 0.212262692269402, 0.320277243834639, -1.283, 0.713, -0.78], a = 0.2, v = 0.2, t = 0.1)
movej(p[0.412857942919507, 0.212254989081893, 0.320264158116234, -1.283, 0.713, -0.78], a = 0.2, v = 0.2, t = 0.1)
movej(p[0.412838214826291, 0.212245416986288, 0.320251852946272, -1.283, 0.713, -0.78], a = 0.2, v = 0.2, t = 0.1)
movej(p[0.412818521165804, 0.212235095234643, 0.320240877854582, -1.283, 0.713, -0.78], a = 0.2, v = 0.2, t = 0.1)
movej(p[0.412800174409513, 0.212224662023704, 0.32023213337243, -1.283, 0.713, -0.78], a = 0.2, v = 0.2, t = 0.1)
movej(p[0.412785561458959, 0.212214280140318, 0.320228132677183, -1.283, 0.713, -0.78], a = 0.2, v = 0.2, t = 0.1)
movej(p[0.412776699530527, 0.212204355304869, 0.320229447691929, -1.283, 0.713, -0.78], a = 0.2, v = 0.2, t = 0.1)
movej(p[0.412773878222206, 0.212196633626429, 0.32023385235712, -1.283, 0.713, -0.78], a = 0.2, v = 0.2, t = 0.1)
movej(p[0.412776206568222, 0.21219260047177, 0.320239033914542, -1.283, 0.713, -0.78], a = 0.2, v = 0.2, t = 0.1)
movej(p[0.412783040715521, 0.21219159233442, 0.320245272723626, -1.283, 0.713, -0.78], a = 0.2, v = 0.2, t = 0.1)
movej(p[0.412793599963553, 0.212192968816987, 0.320253613096504, -1.283, 0.713, -0.78], a = 0.2, v = 0.2, t = 0.1)
movej(p[0.412806603247575, 0.212195423399484, 0.320263980275889, -1.283, 0.713, -0.78], a = 0.2, v = 0.2, t = 0.1)
movej(p[0.41282133162899, 0.21219898848848, 0.320276102436271, -1.283, 0.713, -0.78], a = 0.2, v = 0.2, t = 0.1)
movej(p[0.412837441945423, 0.212201457169209, 0.320289756876498, -1.283, 0.713, -0.78], a = 0.2, v = 0.2, t = 0.1)
movej(p[0.412854388669451, 0.212201922434265, 0.320302330904777, -1.283, 0.713, -0.78], a = 0.2, v = 0.2, t = 0.1)
movej(p[0.412871624306548, 0.212202224126127, 0.32031211504183, -1.283, 0.713, -0.78], a = 0.2, v = 0.2, t = 0.1)
movej(p[0.412889244572015, 0.212205577906692, 0.320318417568687, -1.283, 0.713, -0.78], a = 0.2, v = 0.2, t = 0.1)
movej(p[0.412906963264108, 0.212212211810827, 0.320323561267012, -1.283, 0.713, -0.78], a = 0.2, v = 0.2, t = 0.1)
movej(p[0.412923691201106, 0.212219867228368, 0.320329765233087, -1.283, 0.713, -0.78], a = 0.2, v = 0.2, t = 0.1)
movej(p[0.412937333299013, 0.212225725340597, 0.320336771648989, -1.283, 0.713, -0.78], a = 0.2, v = 0.2, t = 0.1)
movej(p[0.412946785219677, 0.212229035920693, 0.320341615653344, -1.283, 0.713, -0.78], a = 0.2, v = 0.2, t = 0.1)
movej(p[0.412952544932774, 0.21222952629643, 0.32034229880975, -1.283, 0.713, -0.78], a = 0.2, v = 0.2, t = 0.1)
movej(p[0.412955254080607, 0.212227879083686, 0.320338475859293, -1.283, 0.713, -0.78], a = 0.2, v = 0.2, t = 0.1)
movej(p[0.412954780266506, 0.21222557878923, 0.320331743020248, -1.283, 0.713, -0.78], a = 0.2, v = 0.2, t = 0.1)
movej(p[0.41294964753441, 0.212223282631329, 0.320324153837807, -1.283, 0.713, -0.78], a = 0.2, v = 0.2, t = 0.1)
movej(p[0.412939387384904, 0.212221135470196, 0.320316840754381, -1.283, 0.713, -0.78], a = 0.2, v = 0.2, t = 0.1)
movej(p[0.412925333998418, 0.212218675407646, 0.320309973568823, -1.283, 0.713, -0.78], a = 0.2, v = 0.2, t = 0.1)
movej(p[0.412908566010138, 0.212215141118658, 0.320303135343072, -1.283, 0.713, -0.78], a = 0.2, v = 0.2, t = 0.1)
movej(p[0.412889234761706, 0.212210533266344, 0.320296327203378, -1.283, 0.713, -0.78], a = 0.2, v = 0.2, t = 0.1)
movej(p[0.412868038734559, 0.212205893118993, 0.320290789727439, -1.283, 0.713, -0.78], a = 0.2, v = 0.2, t = 0.1)
movej(p[0.412846933327519, 0.212202048668085, 0.32028773906556, -1.283, 0.713, -0.78], a = 0.2, v = 0.2, t = 0.1)
movej(p[0.412828361029542, 0.212198666956628, 0.32028698742971, -1.283, 0.713, -0.78], a = 0.2, v = 0.2, t = 0.1)
movej(p[0.41281418667506, 0.212196173660838, 0.320287297641123, -1.283, 0.713, -0.78], a = 0.2, v = 0.2, t = 0.1)
movej(p[0.412805148137607, 0.212196092045619, 0.320288581724328, -1.283, 0.713, -0.78], a = 0.2, v = 0.2, t = 0.1)
movej(p[0.412801564633812, 0.212199186254275, 0.320292006847587, -1.283, 0.713, -0.78], a = 0.2, v = 0.2, t = 0.1)
movej(p[0.412803237797961, 0.212205485786165, 0.320297908133015, -1.283, 0.713, -0.78], a = 0.2, v = 0.2, t = 0.1)
movej(p[0.41280991485006, 0.21221492329532, 0.320305016585815, -1.283, 0.713, -0.78], a = 0.2, v = 0.2, t = 0.1)
movej(p[0.412820355488363, 0.212226524888645, 0.320313826855173, -1.283, 0.713, -0.78], a = 0.2, v = 0.2, t = 0.1)
movej(p[0.412833307885919, 0.212238758373664, 0.320322236877933, -1.283, 0.713, -0.78], a = 0.2, v = 0.2, t = 0.1)
movej(p[0.412846157032065, 0.21224954102214, 0.320328059817496, -1.283, 0.713, -0.78], a = 0.2, v = 0.2, t = 0.1)
movej(p[0.412855506855759, 0.212257695738156, 0.320330834410727, -1.283, 0.713, -0.78], a = 0.2, v = 0.2, t = 0.1)
movej(p[0.412859067992174, 0.212262865832537, 0.320331658772614, -1.283, 0.713, -0.78], a = 0.2, v = 0.2, t = 0.1)
movej(p[0.412855600597224, 0.212264990396362, 0.320330768576112, -1.283, 0.713, -0.78], a = 0.2, v = 0.2, t = 0.1)
movej(p[0.41284507763686, 0.212264979576957, 0.320327402754203, -1.283, 0.713, -0.78], a = 0.2, v = 0.2, t = 0.1)
movej(p[0.412829093568309, 0.212264651437817, 0.320320484860286, -1.283, 0.713, -0.78], a = 0.2, v = 0.2, t = 0.1)
movej(p[0.412809823879393, 0.212264809860261, 0.320311011161672, -1.283, 0.713, -0.78], a = 0.2, v = 0.2, t = 0.1)
movej(p[0.412789779956746, 0.212266220746095, 0.320299827610847, -1.283, 0.713, -0.78], a = 0.2, v = 0.2, t = 0.1)
movej(p[0.412771563661285, 0.212269188218548, 0.320288539036405, -1.283, 0.713, -0.78], a = 0.2, v = 0.2, t = 0.1)
movej(p[0.412757809403248, 0.212273804552715, 0.320277613227844, -1.283, 0.713, -0.78], a = 0.2, v = 0.2, t = 0.1)
movej(p[0.412749984651517, 0.212279520049669, 0.320267666713484, -1.283, 0.713, -0.78], a = 0.2, v = 0.2, t = 0.1)
movej(p[0.412747580781145, 0.212285657566981, 0.320259853903907, -1.283, 0.713, -0.78], a = 0.2, v = 0.2, t = 0.1)
movej(p[0.412749738031457, 0.212291367108618, 0.320254199865494, -1.283, 0.713, -0.78], a = 0.2, v = 0.2, t = 0.1)
movej(p[0.412755485902081, 0.212295847022511, 0.320250605775232, -1.283, 0.713, -0.78], a = 0.2, v = 0.2, t = 0.1)
movej(p[0.412762392556869, 0.212298566446706, 0.320249564498767, -1.283, 0.713, -0.78], a = 0.2, v = 0.2, t = 0.1)
movej(p[0.41276915972237, 0.212300490571118, 0.320251001280008, -1.283, 0.713, -0.78], a = 0.2, v = 0.2, t = 0.1)
movej(p[0.412776810309352, 0.21230367076467, 0.320254819092707, -1.283, 0.713, -0.78], a = 0.2, v = 0.2, t = 0.1)
movej(p[0.412787279305049, 0.212309173345559, 0.320261046148725, -1.283, 0.713, -0.78], a = 0.2, v = 0.2, t = 0.1)
movej(p[0.412801041040946, 0.212316494145052, 0.320269458887036, -1.283, 0.713, -0.78], a = 0.2, v = 0.2, t = 0.1)
movej(p[0.412816031110227, 0.212323919895264, 0.320279080433208, -1.283, 0.713, -0.78], a = 0.2, v = 0.2, t = 0.1)
movej(p[0.412829281222247, 0.212329310822496, 0.32028793775679, -1.283, 0.713, -0.78], a = 0.2, v = 0.2, t = 0.1)
movej(p[0.412838651321332, 0.212331137920908, 0.320292766420947, -1.283, 0.713, -0.78], a = 0.2, v = 0.2, t = 0.1)
movej(p[0.412842977795004, 0.21232915586424, 0.320291745955401, -1.283, 0.713, -0.78], a = 0.2, v = 0.2, t = 0.1)
movej(p[0.412841886400647, 0.212323116705072, 0.320284352414984, -1.283, 0.713, -0.78], a = 0.2, v = 0.2, t = 0.1)
movej(p[0.412834729099419, 0.212313675802795, 0.320271989295946, -1.283, 0.713, -0.78], a = 0.2, v = 0.2, t = 0.1)
movej(p[0.4128225784124, 0.212301797744012, 0.320256135201759, -1.283, 0.713, -0.78], a = 0.2, v = 0.2, t = 0.1)
movej(p[0.412805829630935, 0.212288018091552, 0.320239365783059, -1.283, 0.713, -0.78], a = 0.2, v = 0.2, t = 0.1)
movej(p[0.412784629789893, 0.212272823876465, 0.320224208499343, -1.283, 0.713, -0.78], a = 0.2, v = 0.2, t = 0.1)
movej(p[0.412759825910154, 0.212257208352358, 0.320210737787826, -1.283, 0.713, -0.78], a = 0.2, v = 0.2, t = 0.1)
movej(p[0.412734625350056, 0.212242594961298, 0.320198173387542, -1.283, 0.713, -0.78], a = 0.2, v = 0.2, t = 0.1)
movej(p[0.412712504038638, 0.212230482783178, 0.320187033963888, -1.283, 0.713, -0.78], a = 0.2, v = 0.2, t = 0.1)
movej(p[0.412695608692206, 0.212222040153569, 0.320177937231275, -1.283, 0.713, -0.78], a = 0.2, v = 0.2, t = 0.1)
movej(p[0.412684857688078, 0.21221733223337, 0.320172083690497, -1.283, 0.713, -0.78], a = 0.2, v = 0.2, t = 0.1)
movej(p[0.412682392718067, 0.212215543882994, 0.320171493656788, -1.283, 0.713, -0.78], a = 0.2, v = 0.2, t = 0.1)
movej(p[0.412688015301467, 0.212215866900249, 0.320176441778327, -1.283, 0.713, -0.78], a = 0.2, v = 0.2, t = 0.1)
movej(p[0.412699867960867, 0.21221815014958, 0.320184704652381, -1.283, 0.713, -0.78], a = 0.2, v = 0.2, t = 0.1)
movej(p[0.412715635397299, 0.212222748460257, 0.320194211555678, -1.283, 0.713, -0.78], a = 0.2, v = 0.2, t = 0.1)
movej(p[0.412732849314037, 0.212229325846265, 0.320205428521125, -1.283, 0.713, -0.78], a = 0.2, v = 0.2, t = 0.1)
movej(p[0.412751606488518, 0.212237463308952, 0.320219022707069, -1.283, 0.713, -0.78], a = 0.2, v = 0.2, t = 0.1)
movej(p[0.412771855976075, 0.212245741262536, 0.320233640407544, -1.283, 0.713, -0.78], a = 0.2, v = 0.2, t = 0.1)
movej(p[0.412791909215923, 0.212252023982133, 0.320246270543887, -1.283, 0.713, -0.78], a = 0.2, v = 0.2, t = 0.1)
movej(p[0.412809227954092, 0.2122545794398, 0.32025435954292, -1.283, 0.713, -0.78], a = 0.2, v = 0.2, t = 0.1)
movej(p[0.412821813392921, 0.212253770543104, 0.320257535965533, -1.283, 0.713, -0.78], a = 0.2, v = 0.2, t = 0.1)
movej(p[0.412829927963565, 0.212250800106743, 0.3202566776293, -1.283, 0.713, -0.78], a = 0.2, v = 0.2, t = 0.1)
movej(p[0.412834023334147, 0.212246691013858, 0.320253347707911, -1.283, 0.713, -0.78], a = 0.2, v = 0.2, t = 0.1)
movej(p[0.412833751585204, 0.212241581334721, 0.320247675965179, -1.283, 0.713, -0.78], a = 0.2, v = 0.2, t = 0.1)
movej(p[0.412828840967893, 0.212235657802032, 0.320240521084668, -1.283, 0.713, -0.78], a = 0.2, v = 0.2, t = 0.1)
movej(p[0.412820156678331, 0.212228767616711, 0.320232797717201, -1.283, 0.713, -0.78], a = 0.2, v = 0.2, t = 0.1)
movej(p[0.412809680371182, 0.212221472153412, 0.320225646713021, -1.283, 0.713, -0.78], a = 0.2, v = 0.2, t = 0.1)
movej(p[0.412799420602961, 0.212215513643961, 0.320220226318648, -1.283, 0.713, -0.78], a = 0.2, v = 0.2, t = 0.1)
movej(p[0.412791128869721, 0.212213169914428, 0.320217334996327, -1.283, 0.713, -0.78], a = 0.2, v = 0.2, t = 0.1)
movej(p[0.412785402703125, 0.21221600450874, 0.320217423603361, -1.283, 0.713, -0.78], a = 0.2, v = 0.2, t = 0.1)
movej(p[0.412782085685258, 0.212224093132201, 0.320219452709068, -1.283, 0.713, -0.78], a = 0.2, v = 0.2, t = 0.1)
movej(p[0.412780658938072, 0.212235832662072, 0.320223904357065, -1.283, 0.713, -0.78], a = 0.2, v = 0.2, t = 0.1)
movej(p[0.412780708743092, 0.212249229080589, 0.320232724019324, -1.283, 0.713, -0.78], a = 0.2, v = 0.2, t = 0.1)
movej(p[0.412782824217493, 0.212263736125179, 0.320246786523345, -1.283, 0.713, -0.78], a = 0.2, v = 0.2, t = 0.1)
movej(p[0.412786657422861, 0.212279423952657, 0.320263157390659, -1.283, 0.713, -0.78], a = 0.2, v = 0.2, t = 0.1)
movej(p[0.412791731046706, 0.212295735022806, 0.320278237917098, -1.283, 0.713, -0.78], a = 0.2, v = 0.2, t = 0.1)
movej(p[0.412797722562682, 0.212310449903905, 0.320290140768671, -1.283, 0.713, -0.78], a = 0.2, v = 0.2, t = 0.1)
movej(p[0.412803878561065, 0.212320222320196, 0.320299326954427, -1.283, 0.713, -0.78], a = 0.2, v = 0.2, t = 0.1)
movej(p[0.412810087768434, 0.212325463392543, 0.32030645945767, -1.283, 0.713, -0.78], a = 0.2, v = 0.2, t = 0.1)
movej(p[0.412817069140806, 0.212329323903726, 0.320310598612439, -1.283, 0.713, -0.78], a = 0.2, v = 0.2, t = 0.1)
movej(p[0.412825558249004, 0.212333773478955, 0.320311024709004, -1.283, 0.713, -0.78], a = 0.2, v = 0.2, t = 0.1)
movej(p[0.412835314440356, 0.212338865463579, 0.320307339430198, -1.283, 0.713, -0.78], a = 0.2, v = 0.2, t = 0.1)
movej(p[0.412845009017617, 0.212344761141975, 0.32029997364952, -1.283, 0.713, -0.78], a = 0.2, v = 0.2, t = 0.1)
movej(p[0.4128533592811, 0.212352234145251, 0.320290559219118, -1.283, 0.713, -0.78], a = 0.2, v = 0.2, t = 0.1)
movej(p[0.412860350369401, 0.212360952182444, 0.320281542752744, -1.283, 0.713, -0.78], a = 0.2, v = 0.2, t = 0.1)
movej(p[0.412867498193801, 0.212369828548183, 0.320273949873343, -1.283, 0.713, -0.78], a = 0.2, v = 0.2, t = 0.1)
movej(p[0.412875963430217, 0.212378618889707, 0.32026637541717, -1.283, 0.713, -0.78], a = 0.2, v = 0.2, t = 0.1)
movej(p[0.412886818882178, 0.212386696798352, 0.320256582340245, -1.283, 0.713, -0.78], a = 0.2, v = 0.2, t = 0.1)
movej(p[0.412899378777083, 0.212392673203966, 0.320245534067218, -1.283, 0.713, -0.78], a = 0.2, v = 0.2, t = 0.1)
movej(p[0.412912135848612, 0.212396093828008, 0.320234861137949, -1.283, 0.713, -0.78], a = 0.2, v = 0.2, t = 0.1)
movej(p[0.412924348695523, 0.212398538280019, 0.320225244951663, -1.283, 0.713, -0.78], a = 0.2, v = 0.2, t = 0.1)
movej(p[0.412936525486675, 0.212400899996284, 0.320216582019161, -1.283, 0.713, -0.78], a = 0.2, v = 0.2, t = 0.1)
movej(p[0.412948818569521, 0.212402740304783, 0.320208265346943, -1.283, 0.713, -0.78], a = 0.2, v = 0.2, t = 0.1)
movej(p[0.412959351871042, 0.212403201692047, 0.320200326537029, -1.283, 0.713, -0.78], a = 0.2, v = 0.2, t = 0.1)
movej(p[0.41296482212304, 0.212402495250438, 0.320193106586798, -1.283, 0.713, -0.78], a = 0.2, v = 0.2, t = 0.1)
movej(p[0.412964028960947, 0.212400847571059, 0.320187463110603, -1.283, 0.713, -0.78], a = 0.2, v = 0.2, t = 0.1)
movej(p[0.412957715763209, 0.212398798049494, 0.320181970320631, -1.283, 0.713, -0.78], a = 0.2, v = 0.2, t = 0.1)
movej(p[0.412947180034966, 0.212396568469332, 0.320176139317657, -1.283, 0.713, -0.78], a = 0.2, v = 0.2, t = 0.1)
movej(p[0.412933584388002, 0.212394311214704, 0.320170393968305, -1.283, 0.713, -0.78], a = 0.2, v = 0.2, t = 0.1)
movej(p[0.412917809990736, 0.212392005411547, 0.320165229161947, -1.283, 0.713, -0.78], a = 0.2, v = 0.2, t = 0.1)
movej(p[0.412901044877013, 0.212389586507142, 0.320161130418441, -1.283, 0.713, -0.78], a = 0.2, v = 0.2, t = 0.1)
movej(p[0.41288520453447, 0.212387583921145, 0.320159097425706, -1.283, 0.713, -0.78], a = 0.2, v = 0.2, t = 0.1)
movej(p[0.412872561623913, 0.212387610743475, 0.32016099756233, -1.283, 0.713, -0.78], a = 0.2, v = 0.2, t = 0.1)
movej(p[0.412864860248779, 0.212390664018107, 0.32016691284965, -1.283, 0.713, -0.78], a = 0.2, v = 0.2, t = 0.1)
movej(p[0.412863192433333, 0.212396576512274, 0.320174050077288, -1.283, 0.713, -0.78], a = 0.2, v = 0.2, t = 0.1)
movej(p[0.412868316965189, 0.212403459783938, 0.320180085675141, -1.283, 0.713, -0.78], a = 0.2, v = 0.2, t = 0.1)
movej(p[0.412878746443397, 0.212409862626215, 0.320185683802069, -1.283, 0.713, -0.78], a = 0.2, v = 0.2, t = 0.1)
movej(p[0.412891405514252, 0.212416121934089, 0.320192067698999, -1.283, 0.713, -0.78], a = 0.2, v = 0.2, t = 0.1)
movej(p[0.41290347222815, 0.212422844096418, 0.320199498744909, -1.283, 0.713, -0.78], a = 0.2, v = 0.2, t = 0.1)
movej(p[0.412913987520942, 0.212429365012126, 0.320206919191381, -1.283, 0.713, -0.78], a = 0.2, v = 0.2, t = 0.1)
movej(p[0.412923622176274, 0.212434851994931, 0.320210970690033, -1.283, 0.713, -0.78], a = 0.2, v = 0.2, t = 0.1)
movej(p[0.412931962104033, 0.212438675580859, 0.320210466540614, -1.283, 0.713, -0.78], a = 0.2, v = 0.2, t = 0.1)
movej(p[0.412938041049198, 0.212440791419881, 0.320205742395197, -1.283, 0.713, -0.78], a = 0.2, v = 0.2, t = 0.1)
movej(p[0.412940139761839, 0.212441403653441, 0.320197455067261, -1.283, 0.713, -0.78], a = 0.2, v = 0.2, t = 0.1)
movej(p[0.412936681260026, 0.212440251756689, 0.320185651426802, -1.283, 0.713, -0.78], a = 0.2, v = 0.2, t = 0.1)
movej(p[0.412928998875057, 0.212437219889183, 0.320170995865755, -1.283, 0.713, -0.78], a = 0.2, v = 0.2, t = 0.1)
movej(p[0.412918223993173, 0.212432019270574, 0.320155890735485, -1.283, 0.713, -0.78], a = 0.2, v = 0.2, t = 0.1)
movej(p[0.412905118151333, 0.212425096737878, 0.320142009242239, -1.283, 0.713, -0.78], a = 0.2, v = 0.2, t = 0.1)
movej(p[0.41288919967207, 0.212417494019209, 0.320130091078757, -1.283, 0.713, -0.78], a = 0.2, v = 0.2, t = 0.1)
movej(p[0.412872392776067, 0.212409965425225, 0.320118769846784, -1.283, 0.713, -0.78], a = 0.2, v = 0.2, t = 0.1)
movej(p[0.412857747984062, 0.212402938858588, 0.32010705415208, -1.283, 0.713, -0.78], a = 0.2, v = 0.2, t = 0.1)
movej(p[0.412846942606933, 0.212396591523815, 0.320095026139468, -1.283, 0.713, -0.78], a = 0.2, v = 0.2, t = 0.1)
movej(p[0.412840505910396, 0.212390508723074, 0.320084486521171, -1.283, 0.713, -0.78], a = 0.2, v = 0.2, t = 0.1)
movej(p[0.412838643569329, 0.212384840321246, 0.320076995743076, -1.283, 0.713, -0.78], a = 0.2, v = 0.2, t = 0.1)
movej(p[0.412841309978485, 0.212380073673921, 0.320071446414244, -1.283, 0.713, -0.78], a = 0.2, v = 0.2, t = 0.1)
movej(p[0.412848059405359, 0.212377477576137, 0.320067228134244, -1.283, 0.713, -0.78], a = 0.2, v = 0.2, t = 0.1)
movej(p[0.412858633043635, 0.212376861619146, 0.320064940623676, -1.283, 0.713, -0.78], a = 0.2, v = 0.2, t = 0.1)
movej(p[0.412873341488029, 0.21237746695425, 0.320062934411845, -1.283, 0.713, -0.78], a = 0.2, v = 0.2, t = 0.1)
movej(p[0.412890623359823, 0.212378974126905, 0.32006099147286, -1.283, 0.713, -0.78], a = 0.2, v = 0.2, t = 0.1)
movej(p[0.412908061992778, 0.212381665082498, 0.320058412378317, -1.283, 0.713, -0.78], a = 0.2, v = 0.2, t = 0.1)
movej(p[0.412924184796889, 0.21238482377433, 0.320054359838063, -1.283, 0.713, -0.78], a = 0.2, v = 0.2, t = 0.1)
movej(p[0.412937720160205, 0.212387238677875, 0.320049215838182, -1.283, 0.713, -0.78], a = 0.2, v = 0.2, t = 0.1)
movej(p[0.412948196205601, 0.212387184801559, 0.320043846543238, -1.283, 0.713, -0.78], a = 0.2, v = 0.2, t = 0.1)
movej(p[0.412955245191679, 0.212383488587757, 0.320039189387368, -1.283, 0.713, -0.78], a = 0.2, v = 0.2, t = 0.1)
movej(p[0.412959470438786, 0.212376535219486, 0.32003464955581, -1.283, 0.713, -0.78], a = 0.2, v = 0.2, t = 0.1)
movej(p[0.412960600439951, 0.212367268970077, 0.320029092443856, -1.283, 0.713, -0.78], a = 0.2, v = 0.2, t = 0.1)
movej(p[0.412958274928465, 0.212356829859571, 0.320021232718786, -1.283, 0.713, -0.78], a = 0.2, v = 0.2, t = 0.1)
movej(p[0.412951648502683, 0.212346557572011, 0.320010424975515, -1.283, 0.713, -0.78], a = 0.2, v = 0.2, t = 0.1)
movej(p[0.412940314279159, 0.212337111200358, 0.31999671481371, -1.283, 0.713, -0.78], a = 0.2, v = 0.2, t = 0.1)
movej(p[0.412925707641773, 0.212328186312822, 0.31998162278801, -1.283, 0.713, -0.78], a = 0.2, v = 0.2, t = 0.1)
movej(p[0.412910354561094, 0.212319729052662, 0.319966478254698, -1.283, 0.713, -0.78], a = 0.2, v = 0.2, t = 0.1)
movej(p[0.412895745647006, 0.212312595209805, 0.319952973712156, -1.283, 0.713, -0.78], a = 0.2, v = 0.2, t = 0.1)
movej(p[0.41288304796375, 0.212307929232487, 0.319943020541375, -1.283, 0.713, -0.78], a = 0.2, v = 0.2, t = 0.1)
movej(p[0.412873131503154, 0.212305392421578, 0.319937963565435, -1.283, 0.713, -0.78], a = 0.2, v = 0.2, t = 0.1)
movej(p[0.412867554798751, 0.212304421822281, 0.319936409024986, -1.283, 0.713, -0.78], a = 0.2, v = 0.2, t = 0.1)
movej(p[0.412867504714921, 0.212304887412772, 0.31993607076162, -1.283, 0.713, -0.78], a = 0.2, v = 0.2, t = 0.1)
movej(p[0.412872696718952, 0.212306768179856, 0.319935644072848, -1.283, 0.713, -0.78], a = 0.2, v = 0.2, t = 0.1)
movej(p[0.412882101617485, 0.212310001490958, 0.319935087531821, -1.283, 0.713, -0.78], a = 0.2, v = 0.2, t = 0.1)
movej(p[0.41289402469814, 0.212315106312056, 0.319935272543311, -1.283, 0.713, -0.78], a = 0.2, v = 0.2, t = 0.1)
movej(p[0.412906660005303, 0.212321848924918, 0.319935236854695, -1.283, 0.713, -0.78], a = 0.2, v = 0.2, t = 0.1)
movej(p[0.412918814694294, 0.21232857814079, 0.319933742718724, -1.283, 0.713, -0.78], a = 0.2, v = 0.2, t = 0.1)
movej(p[0.412928584351921, 0.212334160064084, 0.319930231565612, -1.283, 0.713, -0.78], a = 0.2, v = 0.2, t = 0.1)
movej(p[0.412933238099877, 0.212337880250451, 0.319925885510807, -1.283, 0.713, -0.78], a = 0.2, v = 0.2, t = 0.1)
movej(p[0.41293071160647, 0.212339600671385, 0.319922573476406, -1.283, 0.713, -0.78], a = 0.2, v = 0.2, t = 0.1)
movej(p[0.412920754354454, 0.212339249212874, 0.319921165173096, -1.283, 0.713, -0.78], a = 0.2, v = 0.2, t = 0.1)
movej(p[0.412906752801252, 0.212336639334618, 0.319921669194329, -1.283, 0.713, -0.78], a = 0.2, v = 0.2, t = 0.1)
movej(p[0.412890750314076, 0.212331774810013, 0.319922954309717, -1.283, 0.713, -0.78], a = 0.2, v = 0.2, t = 0.1)
movej(p[0.412873923257436, 0.212325835818204, 0.319923407623191, -1.283, 0.713, -0.78], a = 0.2, v = 0.2, t = 0.1)
movej(p[0.412857102604887, 0.212320004652032, 0.319921046543371, -1.283, 0.713, -0.78], a = 0.2, v = 0.2, t = 0.1)
movej(p[0.412840865109434, 0.212315041319733, 0.31991582692893, -1.283, 0.713, -0.78], a = 0.2, v = 0.2, t = 0.1)
movej(p[0.412825584833128, 0.212311089550255, 0.319909127274908, -1.283, 0.713, -0.78], a = 0.2, v = 0.2, t = 0.1)
movej(p[0.412811187191731, 0.212309371103549, 0.319903736078, -1.283, 0.713, -0.78], a = 0.2, v = 0.2, t = 0.1)
movej(p[0.412799139093444, 0.212311113624935, 0.319901804412423, -1.283, 0.713, -0.78], a = 0.2, v = 0.2, t = 0.1)
movej(p[0.41279202164779, 0.212315835512969, 0.319904450155939, -1.283, 0.713, -0.78], a = 0.2, v = 0.2, t = 0.1)
movej(p[0.412792707778021, 0.212322481893085, 0.319911917110985, -1.283, 0.713, -0.78], a = 0.2, v = 0.2, t = 0.1)
movej(p[0.412802305519533, 0.212330117982903, 0.319923573951602, -1.283, 0.713, -0.78], a = 0.2, v = 0.2, t = 0.1)
movej(p[0.412818798434632, 0.212337945066426, 0.319937534435549, -1.283, 0.713, -0.78], a = 0.2, v = 0.2, t = 0.1)
movej(p[0.412839084626219, 0.212344764008119, 0.319951634165833, -1.283, 0.713, -0.78], a = 0.2, v = 0.2, t = 0.1)
movej(p[0.412860411120188, 0.21235037072809, 0.319964351224265, -1.283, 0.713, -0.78], a = 0.2, v = 0.2, t = 0.1)
movej(p[0.412881655801876, 0.212356045918552, 0.319974577004001, -1.283, 0.713, -0.78], a = 0.2, v = 0.2, t = 0.1)
movej(p[0.412902269181874, 0.212363208648665, 0.319981089420711, -1.283, 0.713, -0.78], a = 0.2, v = 0.2, t = 0.1)
movej(p[0.412921822585092, 0.212372396793266, 0.319983440722981, -1.283, 0.713, -0.78], a = 0.2, v = 0.2, t = 0.1)
movej(p[0.412939382691932, 0.212381447123067, 0.319982598349997, -1.283, 0.713, -0.78], a = 0.2, v = 0.2, t = 0.1)
movej(p[0.412953747070492, 0.212387737066166, 0.31998044560607, -1.283, 0.713, -0.78], a = 0.2, v = 0.2, t = 0.1)
movej(p[0.412963745341748, 0.212390083272388, 0.319978312367628, -1.283, 0.713, -0.78], a = 0.2, v = 0.2, t = 0.1)
movej(p[0.412968799204261, 0.212389525217015, 0.31997527237521, -1.283, 0.713, -0.78], a = 0.2, v = 0.2, t = 0.1)
movej(p[0.412969314884774, 0.212386405412471, 0.31997029819606, -1.283, 0.713, -0.78], a = 0.2, v = 0.2, t = 0.1)
movej(p[0.4129668421172, 0.21238141314509, 0.31996367187831, -1.283, 0.713, -0.78], a = 0.2, v = 0.2, t = 0.1)
movej(p[0.412962201576695, 0.212376625388831, 0.319957451950431, -1.283, 0.713, -0.78], a = 0.2, v = 0.2, t = 0.1)
movej(p[0.412956775870168, 0.212372790897999, 0.319951899010062, -1.283, 0.713, -0.78], a = 0.2, v = 0.2, t = 0.1)
movej(p[0.412951986586664, 0.212369004554855, 0.319946716120413, -1.283, 0.713, -0.78], a = 0.2, v = 0.2, t = 0.1)
movej(p[0.412948329165519, 0.212364772815345, 0.319942557375616, -1.283, 0.713, -0.78], a = 0.2, v = 0.2, t = 0.1)
movej(p[0.412945937421327, 0.212362054948684, 0.319940686324166, -1.283, 0.713, -0.78], a = 0.2, v = 0.2, t = 0.1)
movej(p[0.41294622872277, 0.212362695063871, 0.319941451249009, -1.283, 0.713, -0.78], a = 0.2, v = 0.2, t = 0.1)
movej(p[0.412950882841825, 0.212366709043992, 0.319944810438853, -1.283, 0.713, -0.78], a = 0.2, v = 0.2, t = 0.1)
movej(p[0.412960078519998, 0.212373568399901, 0.319949033737144, -1.283, 0.713, -0.78], a = 0.2, v = 0.2, t = 0.1)
movej(p[0.412973445835276, 0.212382629266975, 0.319953079239351, -1.283, 0.713, -0.78], a = 0.2, v = 0.2, t = 0.1)
movej(p[0.412991306625099, 0.212393367046304, 0.319956902071811, -1.283, 0.713, -0.78], a = 0.2, v = 0.2, t = 0.1)
movej(p[0.413012046027832, 0.212405304518208, 0.319962160177915, -1.283, 0.713, -0.78], a = 0.2, v = 0.2, t = 0.1)
movej(p[0.413033267774213, 0.212418398216326, 0.319969911176826, -1.283, 0.713, -0.78], a = 0.2, v = 0.2, t = 0.1)
movej(p[0.413053355814055, 0.212431544993232, 0.319978301297106, -1.283, 0.713, -0.78], a = 0.2, v = 0.2, t = 0.1)
movej(p[0.413071232136245, 0.212442849797002, 0.319982338386487, -1.283, 0.713, -0.78], a = 0.2, v = 0.2, t = 0.1)
movej(p[0.41308510720823, 0.212450850136446, 0.319981322406572, -1.283, 0.713, -0.78], a = 0.2, v = 0.2, t = 0.1)
movej(p[0.413093294787086, 0.212455170110859, 0.31997716681822, -1.283, 0.713, -0.78], a = 0.2, v = 0.2, t = 0.1)
movej(p[0.413095673173095, 0.212456732061694, 0.319971963185779, -1.283, 0.713, -0.78], a = 0.2, v = 0.2, t = 0.1)
movej(p[0.413093019493565, 0.212456381218512, 0.31996571044302, -1.283, 0.713, -0.78], a = 0.2, v = 0.2, t = 0.1)
movej(p[0.413086750409987, 0.21245452812775, 0.319958834685991, -1.283, 0.713, -0.78], a = 0.2, v = 0.2, t = 0.1)
movej(p[0.413077082691819, 0.212451328560298, 0.319952216237038, -1.283, 0.713, -0.78], a = 0.2, v = 0.2, t = 0.1)
movej(p[0.413064364177075, 0.212447410446792, 0.319946359636379, -1.283, 0.713, -0.78], a = 0.2, v = 0.2, t = 0.1)
movej(p[0.413049890632153, 0.212443890199381, 0.319942052707829, -1.283, 0.713, -0.78], a = 0.2, v = 0.2, t = 0.1)
movej(p[0.413036827370911, 0.212441188183369, 0.319940918949825, -1.283, 0.713, -0.78], a = 0.2, v = 0.2, t = 0.1)
movej(p[0.413027737692899, 0.212438603691327, 0.319943029119137, -1.283, 0.713, -0.78], a = 0.2, v = 0.2, t = 0.1)
movej(p[0.413022844190348, 0.212436241977894, 0.3199479816449, -1.283, 0.713, -0.78], a = 0.2, v = 0.2, t = 0.1)
movej(p[0.413021831468019, 0.212434784485131, 0.319955590565936, -1.283, 0.713, -0.78], a = 0.2, v = 0.2, t = 0.1)
movej(p[0.413023873367092, 0.212434569074571, 0.319965426306654, -1.283, 0.713, -0.78], a = 0.2, v = 0.2, t = 0.1)
movej(p[0.413029421542043, 0.212435407575267, 0.319976810197083, -1.283, 0.713, -0.78], a = 0.2, v = 0.2, t = 0.1)
movej(p[0.413038638021886, 0.212437525427799, 0.319988668558898, -1.283, 0.713, -0.78], a = 0.2, v = 0.2, t = 0.1)
movej(p[0.413050994263752, 0.212441250918685, 0.319998260304653, -1.283, 0.713, -0.78], a = 0.2, v = 0.2, t = 0.1)
movej(p[0.413064981333095, 0.21244631277684, 0.320003404308366, -1.283, 0.713, -0.78], a = 0.2, v = 0.2, t = 0.1)
movej(p[0.413078747267114, 0.212452720282838, 0.320003543794816, -1.283, 0.713, -0.78], a = 0.2, v = 0.2, t = 0.1)
movej(p[0.413090962123749, 0.212459698282369, 0.320000465780204, -1.283, 0.713, -0.78], a = 0.2, v = 0.2, t = 0.1)
movej(p[0.41310055355059, 0.212465714255545, 0.31999650704974, -1.283, 0.713, -0.78], a = 0.2, v = 0.2, t = 0.1)
movej(p[0.413106899501253, 0.212468880124532, 0.319992916459852, -1.283, 0.713, -0.78], a = 0.2, v = 0.2, t = 0.1)
movej(p[0.413109399080283, 0.212468433353458, 0.319988565616683, -1.283, 0.713, -0.78], a = 0.2, v = 0.2, t = 0.1)
movej(p[0.413108370238076, 0.212465287557025, 0.319980904495778, -1.283, 0.713, -0.78], a = 0.2, v = 0.2, t = 0.1)
movej(p[0.413103784501575, 0.212460914427727, 0.31996960747237, -1.283, 0.713, -0.78], a = 0.2, v = 0.2, t = 0.1)
movej(p[0.413095158383825, 0.212456087004661, 0.319955716144712, -1.283, 0.713, -0.78], a = 0.2, v = 0.2, t = 0.1)
movej(p[0.413082376069966, 0.212450150326377, 0.319940390046078, -1.283, 0.713, -0.78], a = 0.2, v = 0.2, t = 0.1)
movej(p[0.413065183804626, 0.21244229460491, 0.319924073778161, -1.283, 0.713, -0.78], a = 0.2, v = 0.2, t = 0.1)
movej(p[0.413044638529949, 0.212432686428542, 0.319907071161059, -1.283, 0.713, -0.78], a = 0.2, v = 0.2, t = 0.1)
movej(p[0.413022871669357, 0.212422279401542, 0.319890043275019, -1.283, 0.713, -0.78], a = 0.2, v = 0.2, t = 0.1)
movej(p[0.413002341276134, 0.212412521733534, 0.319874488780422, -1.283, 0.713, -0.78], a = 0.2, v = 0.2, t = 0.1)
movej(p[0.412984467008808, 0.212405105485658, 0.31986245742817, -1.283, 0.713, -0.78], a = 0.2, v = 0.2, t = 0.1)
movej(p[0.412970156456107, 0.212401017913127, 0.319855617034454, -1.283, 0.713, -0.78], a = 0.2, v = 0.2, t = 0.1)
movej(p[0.412959745750748, 0.212400124163266, 0.319856118586152, -1.283, 0.713, -0.78], a = 0.2, v = 0.2, t = 0.1)
movej(p[0.412954123137865, 0.212402234400318, 0.319863389746854, -1.283, 0.713, -0.78], a = 0.2, v = 0.2, t = 0.1)
movej(p[0.412953646219297, 0.212406712380066, 0.319875049914909, -1.283, 0.713, -0.78], a = 0.2, v = 0.2, t = 0.1)
movej(p[0.412958417906642, 0.212412027655573, 0.319888110446413, -1.283, 0.713, -0.78], a = 0.2, v = 0.2, t = 0.1)
movej(p[0.412966870747933, 0.212416393002558, 0.319900278664393, -1.283, 0.713, -0.78], a = 0.2, v = 0.2, t = 0.1)
movej(p[0.41297698283166, 0.212418554673163, 0.319909824733264, -1.283, 0.713, -0.78], a = 0.2, v = 0.2, t = 0.1)
movej(p[0.412987005383427, 0.212418502667167, 0.319914613258658, -1.283, 0.713, -0.78], a = 0.2, v = 0.2, t = 0.1)
movej(p[0.412995925134453, 0.212416434127414, 0.319914309528645, -1.283, 0.713, -0.78], a = 0.2, v = 0.2, t = 0.1)
movej(p[0.41300202824489, 0.212413104062417, 0.319908678851678, -1.283, 0.713, -0.78], a = 0.2, v = 0.2, t = 0.1)
movej(p[0.413003781097079, 0.21240849592515, 0.319899776887281, -1.283, 0.713, -0.78], a = 0.2, v = 0.2, t = 0.1)
movej(p[0.412999784834858, 0.212402921548016, 0.319890732080272, -1.283, 0.713, -0.78], a = 0.2, v = 0.2, t = 0.1)
movej(p[0.412989336516757, 0.212397159465021, 0.319883112522515, -1.283, 0.713, -0.78], a = 0.2, v = 0.2, t = 0.1)
movej(p[0.41297259936521, 0.212392188980449, 0.319876597026277, -1.283, 0.713, -0.78], a = 0.2, v = 0.2, t = 0.1)
movej(p[0.41295097971601, 0.212387653196195, 0.319868825986213, -1.283, 0.713, -0.78], a = 0.2, v = 0.2, t = 0.1)
movej(p[0.412926673325445, 0.212382806341726, 0.319858488120647, -1.283, 0.713, -0.78], a = 0.2, v = 0.2, t = 0.1)
movej(p[0.412901085121956, 0.212376834092955, 0.31984733864847, -1.283, 0.713, -0.78], a = 0.2, v = 0.2, t = 0.1)
movej(p[0.412875805979231, 0.212369110562737, 0.319836969225484, -1.283, 0.713, -0.78], a = 0.2, v = 0.2, t = 0.1)
movej(p[0.412852551763242, 0.212360434649319, 0.319828038918878, -1.283, 0.713, -0.78], a = 0.2, v = 0.2, t = 0.1)
movej(p[0.412832860923845, 0.212352225604096, 0.319820793106959, -1.283, 0.713, -0.78], a = 0.2, v = 0.2, t = 0.1)
movej(p[0.412817019404672, 0.212346801076971, 0.319815650849597, -1.283, 0.713, -0.78], a = 0.2, v = 0.2, t = 0.1)
movej(p[0.412804996971788, 0.212344768818362, 0.319813505953446, -1.283, 0.713, -0.78], a = 0.2, v = 0.2, t = 0.1)
movej(p[0.412796828723309, 0.212346311981636, 0.319815764629361, -1.283, 0.713, -0.78], a = 0.2, v = 0.2, t = 0.1)
movej(p[0.412793332545979, 0.212351120235779, 0.319821431948231, -1.283, 0.713, -0.78], a = 0.2, v = 0.2, t = 0.1)
movej(p[0.412794735135445, 0.212359261288199, 0.319828457395781, -1.283, 0.713, -0.78], a = 0.2, v = 0.2, t = 0.1)
movej(p[0.412799883608253, 0.212370066019995, 0.319835495772907, -1.283, 0.713, -0.78], a = 0.2, v = 0.2, t = 0.1)
movej(p[0.412807289227747, 0.212382173017435, 0.319842391352861, -1.283, 0.713, -0.78], a = 0.2, v = 0.2, t = 0.1)
movej(p[0.412815429062924, 0.21239359377634, 0.319849098383076, -1.283, 0.713, -0.78], a = 0.2, v = 0.2, t = 0.1)
movej(p[0.412822995585117, 0.212401354100287, 0.319855262368974, -1.283, 0.713, -0.78], a = 0.2, v = 0.2, t = 0.1)
movej(p[0.412828058442775, 0.212404177787509, 0.319861153082582, -1.283, 0.713, -0.78], a = 0.2, v = 0.2, t = 0.1)
movej(p[0.412828951707268, 0.212402828695573, 0.319868211457076, -1.283, 0.713, -0.78], a = 0.2, v = 0.2, t = 0.1)
movej(p[0.412824951823437, 0.212398291635961, 0.319875232594833, -1.283, 0.713, -0.78], a = 0.2, v = 0.2, t = 0.1)
movej(p[0.412816286949384, 0.212391837077252, 0.319879921015412, -1.283, 0.713, -0.78], a = 0.2, v = 0.2, t = 0.1)
movej(p[0.412804271251997, 0.212384027899132, 0.319881244599704, -1.283, 0.713, -0.78], a = 0.2, v = 0.2, t = 0.1)
movej(p[0.412791256932261, 0.212373916187547, 0.319879269600808, -1.283, 0.713, -0.78], a = 0.2, v = 0.2, t = 0.1)
movej(p[0.412779224633906, 0.212361322435058, 0.319874959539609, -1.283, 0.713, -0.78], a = 0.2, v = 0.2, t = 0.1)
movej(p[0.412768352108639, 0.21234767774741, 0.319870650299383, -1.283, 0.713, -0.78], a = 0.2, v = 0.2, t = 0.1)
movej(p[0.412758520757682, 0.21233601496386, 0.319867271362982, -1.283, 0.713, -0.78], a = 0.2, v = 0.2, t = 0.1)
movej(p[0.412750136337741, 0.212326909948701, 0.319866440715515, -1.283, 0.713, -0.78], a = 0.2, v = 0.2, t = 0.1)
movej(p[0.412743299019951, 0.212319445789099, 0.319868809146193, -1.283, 0.713, -0.78], a = 0.2, v = 0.2, t = 0.1)
movej(p[0.412738181187072, 0.212313910585418, 0.319875242599219, -1.283, 0.713, -0.78], a = 0.2, v = 0.2, t = 0.1)
movej(p[0.412735285043704, 0.212311129129669, 0.319885842832542, -1.283, 0.713, -0.78], a = 0.2, v = 0.2, t = 0.1)
movej(p[0.412735098291724, 0.212311313738093, 0.31989878041792, -1.283, 0.713, -0.78], a = 0.2, v = 0.2, t = 0.1)
movej(p[0.412738212383784, 0.212313203128781, 0.319911317908238, -1.283, 0.713, -0.78], a = 0.2, v = 0.2, t = 0.1)
movej(p[0.412743999325081, 0.212315151487847, 0.31992238193302, -1.283, 0.713, -0.78], a = 0.2, v = 0.2, t = 0.1)
movej(p[0.412751309911902, 0.212316269294409, 0.319932874801209, -1.283, 0.713, -0.78], a = 0.2, v = 0.2, t = 0.1)
movej(p[0.412758384973861, 0.212316035708606, 0.319942808148427, -1.283, 0.713, -0.78], a = 0.2, v = 0.2, t = 0.1)
movej(p[0.41276463301069, 0.212314702853123, 0.319950880694311, -1.283, 0.713, -0.78], a = 0.2, v = 0.2, t = 0.1)
movej(p[0.412770700126814, 0.212313123652237, 0.319955504791465, -1.283, 0.713, -0.78], a = 0.2, v = 0.2, t = 0.1)
movej(p[0.412774562255157, 0.21231295095578, 0.319957594633467, -1.283, 0.713, -0.78], a = 0.2, v = 0.2, t = 0.1)
movej(p[0.412773815199045, 0.212314464790928, 0.319959133244305, -1.283, 0.713, -0.78], a = 0.2, v = 0.2, t = 0.1)
movej(p[0.412767672205021, 0.212315840564395, 0.319961474200476, -1.283, 0.713, -0.78], a = 0.2, v = 0.2, t = 0.1)
movej(p[0.412757640573929, 0.212315860325778, 0.319964355796062, -1.283, 0.713, -0.78], a = 0.2, v = 0.2, t = 0.1)
movej(p[0.412744728508704, 0.212314246635924, 0.319966222324034, -1.283, 0.713, -0.78], a = 0.2, v = 0.2, t = 0.1)
movej(p[0.412729233458988, 0.212311581791635, 0.319966501403274, -1.283, 0.713, -0.78], a = 0.2, v = 0.2, t = 0.1)
movej(p[0.412711754818245, 0.212307932550836, 0.319966155115305, -1.283, 0.713, -0.78], a = 0.2, v = 0.2, t = 0.1)
movej(p[0.412693805160194, 0.212304132862151, 0.319966103873314, -1.283, 0.713, -0.78], a = 0.2, v = 0.2, t = 0.1)
movej(p[0.412676734561245, 0.212301207725669, 0.319965696431187, -1.283, 0.713, -0.78], a = 0.2, v = 0.2, t = 0.1)
movej(p[0.412662271027577, 0.212299572705502, 0.319962971540566, -1.283, 0.713, -0.78], a = 0.2, v = 0.2, t = 0.1)
movej(p[0.41265139434777, 0.212298911943386, 0.319958127771084, -1.283, 0.713, -0.78], a = 0.2, v = 0.2, t = 0.1)
movej(p[0.412643328968821, 0.212299252857426, 0.319952633077367, -1.283, 0.713, -0.78], a = 0.2, v = 0.2, t = 0.1)
movej(p[0.412636772859545, 0.212300798040709, 0.31994816221696, -1.283, 0.713, -0.78], a = 0.2, v = 0.2, t = 0.1)
movej(p[0.412631946329877, 0.212303216598561, 0.319946355460952, -1.283, 0.713, -0.78], a = 0.2, v = 0.2, t = 0.1)
movej(p[0.412630510154236, 0.212305395909741, 0.319948440306104, -1.283, 0.713, -0.78], a = 0.2, v = 0.2, t = 0.1)
movej(p[0.412632847805993, 0.212307434635769, 0.31995503037207, -1.283, 0.713, -0.78], a = 0.2, v = 0.2, t = 0.1)
movej(p[0.412638209832368, 0.212309924065294, 0.31996412461106, -1.283, 0.713, -0.78], a = 0.2, v = 0.2, t = 0.1)
movej(p[0.41264572238856, 0.212313241189352, 0.319974036999341, -1.283, 0.713, -0.78], a = 0.2, v = 0.2, t = 0.1)
movej(p[0.412655700556843, 0.212317029207453, 0.319982565118569, -1.283, 0.713, -0.78], a = 0.2, v = 0.2, t = 0.1)
movej(p[0.412667612505747, 0.21232095106581, 0.319989114739806, -1.283, 0.713, -0.78], a = 0.2, v = 0.2, t = 0.1)
movej(p[0.412679518533898, 0.212324470350959, 0.319993697660568, -1.283, 0.713, -0.78], a = 0.2, v = 0.2, t = 0.1)
movej(p[0.412689829711109, 0.212327589173286, 0.319996633437436, -1.283, 0.713, -0.78], a = 0.2, v = 0.2, t = 0.1)
movej(p[0.41269839960764, 0.212329481678501, 0.319997498139961, -1.283, 0.713, -0.78], a = 0.2, v = 0.2, t = 0.1)
movej(p[0.412705439454206, 0.212329122210153, 0.319996227057811, -1.283, 0.713, -0.78], a = 0.2, v = 0.2, t = 0.1)
movej(p[0.41271080122562, 0.212326317248463, 0.319993215929082, -1.283, 0.713, -0.78], a = 0.2, v = 0.2, t = 0.1)
movej(p[0.412713582438398, 0.212321388045508, 0.319988383337157, -1.283, 0.713, -0.78], a = 0.2, v = 0.2, t = 0.1)
movej(p[0.412713206753894, 0.212314388189495, 0.319981806974184, -1.283, 0.713, -0.78], a = 0.2, v = 0.2, t = 0.1)
movej(p[0.41270953142174, 0.212305513638585, 0.319972948888742, -1.283, 0.713, -0.78], a = 0.2, v = 0.2, t = 0.1)
movej(p[0.412701931379308, 0.212295220313261, 0.319962149749619, -1.283, 0.713, -0.78], a = 0.2, v = 0.2, t = 0.1)
movej(p[0.412690939748983, 0.212284719957775, 0.319950189903781, -1.283, 0.713, -0.78], a = 0.2, v = 0.2, t = 0.1)
movej(p[0.412677693828004, 0.212274529694871, 0.319937544079633, -1.283, 0.713, -0.78], a = 0.2, v = 0.2, t = 0.1)
movej(p[0.412663650056285, 0.212265071496244, 0.319925195348215, -1.283, 0.713, -0.78], a = 0.2, v = 0.2, t = 0.1)
movej(p[0.41264999506439, 0.212257709143644, 0.319914716229238, -1.283, 0.713, -0.78], a = 0.2, v = 0.2, t = 0.1)
movej(p[0.412638220696905, 0.212253202958903, 0.319907855553294, -1.283, 0.713, -0.78], a = 0.2, v = 0.2, t = 0.1)
movej(p[0.412629599289678, 0.212251554520769, 0.319904450443143, -1.283, 0.713, -0.78], a = 0.2, v = 0.2, t = 0.1)
movej(p[0.412624727946531, 0.212252824564572, 0.319903102498898, -1.283, 0.713, -0.78], a = 0.2, v = 0.2, t = 0.1)
movej(p[0.412623862704394, 0.212256241497367, 0.319904986063955, -1.283, 0.713, -0.78], a = 0.2, v = 0.2, t = 0.1)
movej(p[0.412627316353218, 0.21226041463716, 0.319910733352713, -1.283, 0.713, -0.78], a = 0.2, v = 0.2, t = 0.1)
movej(p[0.412634613249514, 0.21226442681694, 0.319918812596605, -1.283, 0.713, -0.78], a = 0.2, v = 0.2, t = 0.1)
movej(p[0.412644379364949, 0.21226865407156, 0.31992641655358, -1.283, 0.713, -0.78], a = 0.2, v = 0.2, t = 0.1)
movej(p[0.412655019628564, 0.212273451372659, 0.319932961222126, -1.283, 0.713, -0.78], a = 0.2, v = 0.2, t = 0.1)
movej(p[0.412665159141122, 0.212278034000179, 0.319939349475729, -1.283, 0.713, -0.78], a = 0.2, v = 0.2, t = 0.1)
movej(p[0.412673873773716, 0.212282075565307, 0.319946112827418, -1.283, 0.713, -0.78], a = 0.2, v = 0.2, t = 0.1)
movej(p[0.412680017979032, 0.212285358024985, 0.319954236490661, -1.283, 0.713, -0.78], a = 0.2, v = 0.2, t = 0.1)
movej(p[0.412682709231551, 0.212287817266011, 0.319963277732802, -1.283, 0.713, -0.78], a = 0.2, v = 0.2, t = 0.1)
movej(p[0.412681237497171, 0.212289074477314, 0.31997163914289, -1.283, 0.713, -0.78], a = 0.2, v = 0.2, t = 0.1)
movej(p[0.412676108401433, 0.212288491327157, 0.319976546986185, -1.283, 0.713, -0.78], a = 0.2, v = 0.2, t = 0.1)
movej(p[0.41266796830335, 0.212285515414666, 0.319976777971101, -1.283, 0.713, -0.78], a = 0.2, v = 0.2, t = 0.1)
movej(p[0.412656699747776, 0.212280555510559, 0.3199733867444, -1.283, 0.713, -0.78], a = 0.2, v = 0.2, t = 0.1)
movej(p[0.412642393430432, 0.212274388089878, 0.319966978033126, -1.283, 0.713, -0.78], a = 0.2, v = 0.2, t = 0.1)
movej(p[0.41262662655135, 0.212267027471105, 0.319957665903225, -1.283, 0.713, -0.78], a = 0.2, v = 0.2, t = 0.1)
movej(p[0.412610589712617, 0.212258480310204, 0.319946545063959, -1.283, 0.713, -0.78], a = 0.2, v = 0.2, t = 0.1)
movej(p[0.412594219637529, 0.212250149542379, 0.319936378759957, -1.283, 0.713, -0.78], a = 0.2, v = 0.2, t = 0.1)
movej(p[0.412578402365349, 0.212243393389055, 0.319929291491862, -1.283, 0.713, -0.78], a = 0.2, v = 0.2, t = 0.1)
movej(p[0.412563655170751, 0.212237332988003, 0.31992582717612, -1.283, 0.713, -0.78], a = 0.2, v = 0.2, t = 0.1)
movej(p[0.412551968190087, 0.212232223705361, 0.31992506697954, -1.283, 0.713, -0.78], a = 0.2, v = 0.2, t = 0.1)
movej(p[0.412545729052866, 0.212228639140277, 0.319927141314347, -1.283, 0.713, -0.78], a = 0.2, v = 0.2, t = 0.1)
movej(p[0.412546261126798, 0.212226670739758, 0.319930697656109, -1.283, 0.713, -0.78], a = 0.2, v = 0.2, t = 0.1)
movej(p[0.412553300646361, 0.212225627774431, 0.319934636546011, -1.283, 0.713, -0.78], a = 0.2, v = 0.2, t = 0.1)
movej(p[0.412564440965846, 0.212225396855653, 0.319937982085769, -1.283, 0.713, -0.78], a = 0.2, v = 0.2, t = 0.1)
movej(p[0.412577450323414, 0.212226714864731, 0.319940485540529, -1.283, 0.713, -0.78], a = 0.2, v = 0.2, t = 0.1)
movej(p[0.412591440110468, 0.212228665831157, 0.319942533921646, -1.283, 0.713, -0.78], a = 0.2, v = 0.2, t = 0.1)
movej(p[0.412605612350276, 0.21222969285767, 0.319945603369378, -1.283, 0.713, -0.78], a = 0.2, v = 0.2, t = 0.1)
movej(p[0.412618683346702, 0.212229254272573, 0.31994986246606, -1.283, 0.713, -0.78], a = 0.2, v = 0.2, t = 0.1)
movej(p[0.412628663052422, 0.212227875067538, 0.319953704015252, -1.283, 0.713, -0.78], a = 0.2, v = 0.2, t = 0.1)
movej(p[0.412634249324099, 0.212225858325305, 0.319956064779646, -1.283, 0.713, -0.78], a = 0.2, v = 0.2, t = 0.1)
movej(p[0.412635170199184, 0.212222982946501, 0.319955697140131, -1.283, 0.713, -0.78], a = 0.2, v = 0.2, t = 0.1)
movej(p[0.412631227868963, 0.212218771866004, 0.319951370499463, -1.283, 0.713, -0.78], a = 0.2, v = 0.2, t = 0.1)
movej(p[0.412623515215114, 0.212213692626511, 0.319939491922705, -1.283, 0.713, -0.78], a = 0.2, v = 0.2, t = 0.1)
movej(p[0.412613409069466, 0.212207459843129, 0.319920217907725, -1.283, 0.713, -0.78], a = 0.2, v = 0.2, t = 0.1)
movej(p[0.412602219191594, 0.212199630571096, 0.319897124538945, -1.283, 0.713, -0.78], a = 0.2, v = 0.2, t = 0.1)
movej(p[0.412590576543144, 0.212190121216434, 0.319873814628799, -1.283, 0.713, -0.78], a = 0.2, v = 0.2, t = 0.1)
movej(p[0.41257876810621, 0.212180852928793, 0.319853564298669, -1.283, 0.713, -0.78], a = 0.2, v = 0.2, t = 0.1)
movej(p[0.412567159259729, 0.212173856048772, 0.31983793591608, -1.283, 0.713, -0.78], a = 0.2, v = 0.2, t = 0.1)
movej(p[0.412556920233181, 0.212169085159107, 0.319826919419579, -1.283, 0.713, -0.78], a = 0.2, v = 0.2, t = 0.1)
movej(p[0.412549345749138, 0.212165921454422, 0.319821185086998, -1.283, 0.713, -0.78], a = 0.2, v = 0.2, t = 0.1)
movej(p[0.412546247550368, 0.212164399577277, 0.319819820071124, -1.283, 0.713, -0.78], a = 0.2, v = 0.2, t = 0.1)
movej(p[0.412548258253128, 0.212165074435462, 0.319820308811181, -1.283, 0.713, -0.78], a = 0.2, v = 0.2, t = 0.1)
movej(p[0.412555319962164, 0.212166525426155, 0.319820293015887, -1.283, 0.713, -0.78], a = 0.2, v = 0.2, t = 0.1)
movej(p[0.412566203213462, 0.212167055173577, 0.319820504003704, -1.283, 0.713, -0.78], a = 0.2, v = 0.2, t = 0.1)
movej(p[0.412579641878774, 0.212165777878296, 0.319820858584306, -1.283, 0.713, -0.78], a = 0.2, v = 0.2, t = 0.1)
movej(p[0.412595681906773, 0.212163329302055, 0.319818405785867, -1.283, 0.713, -0.78], a = 0.2, v = 0.2, t = 0.1)
movej(p[0.412613488809758, 0.212160622927488, 0.31981147368382, -1.283, 0.713, -0.78], a = 0.2, v = 0.2, t = 0.1)
movej(p[0.412630685238693, 0.212158573923019, 0.319801503384448, -1.283, 0.713, -0.78], a = 0.2, v = 0.2, t = 0.1)
movej(p[0.41264541479066, 0.212158047064659, 0.319791406873956, -1.283, 0.713, -0.78], a = 0.2, v = 0.2, t = 0.1)
movej(p[0.412656911944109, 0.212159288290457, 0.319784079785647, -1.283, 0.713, -0.78], a = 0.2, v = 0.2, t = 0.1)
movej(p[0.412663935294194, 0.212162248643739, 0.319781520531455, -1.283, 0.713, -0.78], a = 0.2, v = 0.2, t = 0.1)
movej(p[0.412666130598597, 0.212166254173955, 0.319782959757731, -1.283, 0.713, -0.78], a = 0.2, v = 0.2, t = 0.1)
movej(p[0.412664249186545, 0.21216977122133, 0.319784627059578, -1.283, 0.713, -0.78], a = 0.2, v = 0.2, t = 0.1)
movej(p[0.412659145501967, 0.212171547552637, 0.319784427360265, -1.283, 0.713, -0.78], a = 0.2, v = 0.2, t = 0.1)
movej(p[0.412650825309472, 0.212170441158609, 0.319783160529532, -1.283, 0.713, -0.78], a = 0.2, v = 0.2, t = 0.1)
movej(p[0.41263864036961, 0.212166592479069, 0.319781745986367, -1.283, 0.713, -0.78], a = 0.2, v = 0.2, t = 0.1)
movej(p[0.41262306291838, 0.212160432226004, 0.319780090874178, -1.283, 0.713, -0.78], a = 0.2, v = 0.2, t = 0.1)
movej(p[0.412605182608134, 0.21215252292084, 0.319777376735029, -1.283, 0.713, -0.78], a = 0.2, v = 0.2, t = 0.1)
movej(p[0.412586159574002, 0.212144127697505, 0.319773250761381, -1.283, 0.713, -0.78], a = 0.2, v = 0.2, t = 0.1)
movej(p[0.41256687956506, 0.212136840851349, 0.319767775185949, -1.283, 0.713, -0.78], a = 0.2, v = 0.2, t = 0.1)
movej(p[0.412548670860317, 0.212132094856356, 0.319760649177941, -1.283, 0.713, -0.78], a = 0.2, v = 0.2, t = 0.1)
movej(p[0.412533745895212, 0.212129967207437, 0.319752039668392, -1.283, 0.713, -0.78], a = 0.2, v = 0.2, t = 0.1)
movej(p[0.412524362732325, 0.212130029375368, 0.319743142014185, -1.283, 0.713, -0.78], a = 0.2, v = 0.2, t = 0.1)
movej(p[0.412521287068682, 0.212131798487035, 0.319735870850175, -1.283, 0.713, -0.78], a = 0.2, v = 0.2, t = 0.1)
movej(p[0.412523635301958, 0.212135605403691, 0.319730696256948, -1.283, 0.713, -0.78], a = 0.2, v = 0.2, t = 0.1)
movej(p[0.412529892410055, 0.21214179036774, 0.319727941706536, -1.283, 0.713, -0.78], a = 0.2, v = 0.2, t = 0.1)
movej(p[0.412539039703895, 0.212149442028961, 0.319727601339168, -1.283, 0.713, -0.78], a = 0.2, v = 0.2, t = 0.1)
movej(p[0.412551037988936, 0.212156819925137, 0.319730310790791, -1.283, 0.713, -0.78], a = 0.2, v = 0.2, t = 0.1)
movej(p[0.412565896272947, 0.212162726522724, 0.319735077248092, -1.283, 0.713, -0.78], a = 0.2, v = 0.2, t = 0.1)
movej(p[0.412583480520987, 0.212168314288392, 0.31973980424256, -1.283, 0.713, -0.78], a = 0.2, v = 0.2, t = 0.1)
movej(p[0.412602208022381, 0.212174050529347, 0.319743808223987, -1.283, 0.713, -0.78], a = 0.2, v = 0.2, t = 0.1)
movej(p[0.412620641165033, 0.212178974236028, 0.319747491258398, -1.283, 0.713, -0.78], a = 0.2, v = 0.2, t = 0.1)
movej(p[0.412638787104068, 0.212182297833384, 0.319750997523952, -1.283, 0.713, -0.78], a = 0.2, v = 0.2, t = 0.1)
movej(p[0.412657047680575, 0.212184146592163, 0.319754633917993, -1.283, 0.713, -0.78], a = 0.2, v = 0.2, t = 0.1)
movej(p[0.412675423083469, 0.212185444200697, 0.319758673828213, -1.283, 0.713, -0.78], a = 0.2, v = 0.2, t = 0.1)
movej(p[0.412691642883965, 0.212187359706125, 0.319762187804282, -1.283, 0.713, -0.78], a = 0.2, v = 0.2, t = 0.1)
movej(p[0.412703058964087, 0.212189853442908, 0.319764261144705, -1.283, 0.713, -0.78], a = 0.2, v = 0.2, t = 0.1)
movej(p[0.412708524710246, 0.212191513157116, 0.319764466643306, -1.283, 0.713, -0.78], a = 0.2, v = 0.2, t = 0.1)
movej(p[0.412707936540251, 0.212191536100536, 0.319764098516077, -1.283, 0.713, -0.78], a = 0.2, v = 0.2, t = 0.1)
movej(p[0.412702057675023, 0.212190512548054, 0.319762105021421, -1.283, 0.713, -0.78], a = 0.2, v = 0.2, t = 0.1)
movej(p[0.412692019218996, 0.212189258824627, 0.319758792030753, -1.283, 0.713, -0.78], a = 0.2, v = 0.2, t = 0.1)
movej(p[0.412680307562733, 0.212187167481598, 0.319753908605631, -1.283, 0.713, -0.78], a = 0.2, v = 0.2, t = 0.1)
movej(p[0.412669150924943, 0.212183983994432, 0.319747180832473, -1.283, 0.713, -0.78], a = 0.2, v = 0.2, t = 0.1)
movej(p[0.412659189572157, 0.212179963912929, 0.319738737062616, -1.283, 0.713, -0.78], a = 0.2, v = 0.2, t = 0.1)
movej(p[0.412650052756001, 0.212175419827859, 0.319730545232454, -1.283, 0.713, -0.78], a = 0.2, v = 0.2, t = 0.1)
movej(p[0.412641342832451, 0.212170624945821, 0.319724215938892, -1.283, 0.713, -0.78], a = 0.2, v = 0.2, t = 0.1)
movej(p[0.412632783963647, 0.212166594678664, 0.319721456109651, -1.283, 0.713, -0.78], a = 0.2, v = 0.2, t = 0.1)
movej(p[0.412624644290745, 0.212164352767466, 0.319722785368177, -1.283, 0.713, -0.78], a = 0.2, v = 0.2, t = 0.1)
movej(p[0.412618156036306, 0.212163488665013, 0.319727478878941, -1.283, 0.713, -0.78], a = 0.2, v = 0.2, t = 0.1)
movej(p[0.412614580776925, 0.212163121717395, 0.319734120347062, -1.283, 0.713, -0.78], a = 0.2, v = 0.2, t = 0.1)
movej(p[0.412615423902638, 0.212163121435393, 0.319740593305578, -1.283, 0.713, -0.78], a = 0.2, v = 0.2, t = 0.1)
movej(p[0.412621876476345, 0.212163362071726, 0.319746894178193, -1.283, 0.713, -0.78], a = 0.2, v = 0.2, t = 0.1)
movej(p[0.412633023398947, 0.212164241072789, 0.31975337461673, -1.283, 0.713, -0.78], a = 0.2, v = 0.2, t = 0.1)
movej(p[0.412646756052975, 0.21216656323086, 0.319759050787996, -1.283, 0.713, -0.78], a = 0.2, v = 0.2, t = 0.1)
movej(p[0.412661361699325, 0.212170873185385, 0.319763215555059, -1.283, 0.713, -0.78], a = 0.2, v = 0.2, t = 0.1)
movej(p[0.412676389234741, 0.212176459454399, 0.319765631401042, -1.283, 0.713, -0.78], a = 0.2, v = 0.2, t = 0.1)
movej(p[0.412690613708829, 0.21218226776322, 0.319766642034293, -1.283, 0.713, -0.78], a = 0.2, v = 0.2, t = 0.1)
movej(p[0.412702178812184, 0.212188158148359, 0.319766042988138, -1.283, 0.713, -0.78], a = 0.2, v = 0.2, t = 0.1)
movej(p[0.412709782993032, 0.212193593236048, 0.319763233433644, -1.283, 0.713, -0.78], a = 0.2, v = 0.2, t = 0.1)
movej(p[0.412712651758619, 0.212197844061585, 0.319758469430258, -1.283, 0.713, -0.78], a = 0.2, v = 0.2, t = 0.1)
movej(p[0.412710920428862, 0.212199931924485, 0.319752804429395, -1.283, 0.713, -0.78], a = 0.2, v = 0.2, t = 0.1)
movej(p[0.412706338123024, 0.212198730479062, 0.319746015845809, -1.283, 0.713, -0.78], a = 0.2, v = 0.2, t = 0.1)
movej(p[0.412699405069036, 0.212193555879411, 0.319737922680059, -1.283, 0.713, -0.78], a = 0.2, v = 0.2, t = 0.1)
movej(p[0.412689751522846, 0.212185426757421, 0.319727718899013, -1.283, 0.713, -0.78], a = 0.2, v = 0.2, t = 0.1)
movej(p[0.412675959865307, 0.212176419440385, 0.319715693047187, -1.283, 0.713, -0.78], a = 0.2, v = 0.2, t = 0.1)
movej(p[0.412658504291176, 0.212167766789497, 0.319703771933759, -1.283, 0.713, -0.78], a = 0.2, v = 0.2, t = 0.1)
movej(p[0.412639153058552, 0.212159442439549, 0.319693245152919, -1.283, 0.713, -0.78], a = 0.2, v = 0.2, t = 0.1)
movej(p[0.412619803158722, 0.212151867698345, 0.319683834661896, -1.283, 0.713, -0.78], a = 0.2, v = 0.2, t = 0.1)
movej(p[0.412602348494242, 0.212145203147464, 0.319674582589781, -1.283, 0.713, -0.78], a = 0.2, v = 0.2, t = 0.1)
movej(p[0.412587681435376, 0.212139430855019, 0.319665978270566, -1.283, 0.713, -0.78], a = 0.2, v = 0.2, t = 0.1)
movej(p[0.412577273740321, 0.212133667451656, 0.319659669184871, -1.283, 0.713, -0.78], a = 0.2, v = 0.2, t = 0.1)
movej(p[0.412571970135409, 0.212128106645284, 0.319656050700459, -1.283, 0.713, -0.78], a = 0.2, v = 0.2, t = 0.1)
movej(p[0.412571138042628, 0.212123311575857, 0.319654740992173, -1.283, 0.713, -0.78], a = 0.2, v = 0.2, t = 0.1)
movej(p[0.412572883174119, 0.212119851869448, 0.319655372384003, -1.283, 0.713, -0.78], a = 0.2, v = 0.2, t = 0.1)
movej(p[0.41257664641942, 0.212118166393746, 0.319657407407212, -1.283, 0.713, -0.78], a = 0.2, v = 0.2, t = 0.1)
movej(p[0.412582771054805, 0.212118076753032, 0.319661400381535, -1.283, 0.713, -0.78], a = 0.2, v = 0.2, t = 0.1)
movej(p[0.412591527622991, 0.212119061001729, 0.319667874929404, -1.283, 0.713, -0.78], a = 0.2, v = 0.2, t = 0.1)
movej(p[0.412601596566091, 0.212121101584319, 0.319676957750416, -1.283, 0.713, -0.78], a = 0.2, v = 0.2, t = 0.1)
movej(p[0.412611668760102, 0.21212436435216, 0.319687391569076, -1.283, 0.713, -0.78], a = 0.2, v = 0.2, t = 0.1)
movej(p[0.412620707042746, 0.212128186551911, 0.319696746475217, -1.283, 0.713, -0.78], a = 0.2, v = 0.2, t = 0.1)
movej(p[0.412627669513913, 0.212131738989238, 0.319702695023046, -1.283, 0.713, -0.78], a = 0.2, v = 0.2, t = 0.1)
movej(p[0.412631309448939, 0.212133809791644, 0.319704590782632, -1.283, 0.713, -0.78], a = 0.2, v = 0.2, t = 0.1)
movej(p[0.412631196765555, 0.212132691782713, 0.319703600815215, -1.283, 0.713, -0.78], a = 0.2, v = 0.2, t = 0.1)
movej(p[0.412627254544051, 0.212127553530841, 0.319701165731375, -1.283, 0.713, -0.78], a = 0.2, v = 0.2, t = 0.1)
movej(p[0.412619920249619, 0.212119346225387, 0.319696386580051, -1.283, 0.713, -0.78], a = 0.2, v = 0.2, t = 0.1)
movej(p[0.412609602290091, 0.212109948919577, 0.31968789143522, -1.283, 0.713, -0.78], a = 0.2, v = 0.2, t = 0.1)
movej(p[0.412596517939437, 0.212100315693029, 0.319676428570297, -1.283, 0.713, -0.78], a = 0.2, v = 0.2, t = 0.1)
movej(p[0.412580167108369, 0.212089903613571, 0.319664925719793, -1.283, 0.713, -0.78], a = 0.2, v = 0.2, t = 0.1)
movej(p[0.412561235166839, 0.212077930178308, 0.319655811187281, -1.283, 0.713, -0.78], a = 0.2, v = 0.2, t = 0.1)
movej(p[0.412542509765168, 0.212063654493693, 0.319649145992682, -1.283, 0.713, -0.78], a = 0.2, v = 0.2, t = 0.1)
movej(p[0.412525595661985, 0.212048017222036, 0.319644881688441, -1.283, 0.713, -0.78], a = 0.2, v = 0.2, t = 0.1)
movej(p[0.412510503563857, 0.212032986300866, 0.319643090809088, -1.283, 0.713, -0.78], a = 0.2, v = 0.2, t = 0.1)
movej(p[0.412496997234997, 0.212020745920838, 0.319643902059046, -1.283, 0.713, -0.78], a = 0.2, v = 0.2, t = 0.1)
movej(p[0.412485937937684, 0.212011464555262, 0.319647088524171, -1.283, 0.713, -0.78], a = 0.2, v = 0.2, t = 0.1)
movej(p[0.412478513200234, 0.212004906462242, 0.319651836743177, -1.283, 0.713, -0.78], a = 0.2, v = 0.2, t = 0.1)
movej(p[0.412475468189344, 0.212001289035758, 0.319657561671239, -1.283, 0.713, -0.78], a = 0.2, v = 0.2, t = 0.1)
movej(p[0.412477838859237, 0.212000262038638, 0.319662326111729, -1.283, 0.713, -0.78], a = 0.2, v = 0.2, t = 0.1)
movej(p[0.412485978456706, 0.212001239558096, 0.319665124580728, -1.283, 0.713, -0.78], a = 0.2, v = 0.2, t = 0.1)
movej(p[0.412498308996348, 0.212003304305192, 0.319666180973446, -1.283, 0.713, -0.78], a = 0.2, v = 0.2, t = 0.1)
movej(p[0.412512192936932, 0.212005701579057, 0.319666129486902, -1.283, 0.713, -0.78], a = 0.2, v = 0.2, t = 0.1)
movej(p[0.412525210082737, 0.212008117756412, 0.319666356454065, -1.283, 0.713, -0.78], a = 0.2, v = 0.2, t = 0.1)
movej(p[0.412535390340227, 0.212009872228854, 0.31966776709572, -1.283, 0.713, -0.78], a = 0.2, v = 0.2, t = 0.1)
movej(p[0.412541381661528, 0.212011080978931, 0.319669772938766, -1.283, 0.713, -0.78], a = 0.2, v = 0.2, t = 0.1)
movej(p[0.412542705691582, 0.212011457615773, 0.319671620106086, -1.283, 0.713, -0.78], a = 0.2, v = 0.2, t = 0.1)
movej(p[0.412539181681382, 0.212011136942005, 0.319673380040303, -1.283, 0.713, -0.78], a = 0.2, v = 0.2, t = 0.1)
movej(p[0.412531916046099, 0.21201045913935, 0.319674880254117, -1.283, 0.713, -0.78], a = 0.2, v = 0.2, t = 0.1)
movej(p[0.412521280735206, 0.212009561550521, 0.319676091875965, -1.283, 0.713, -0.78], a = 0.2, v = 0.2, t = 0.1)
movej(p[0.412507470202465, 0.212007433020596, 0.319676969228105, -1.283, 0.713, -0.78], a = 0.2, v = 0.2, t = 0.1)
movej(p[0.412491138952911, 0.212004103499361, 0.319677480590333, -1.283, 0.713, -0.78], a = 0.2, v = 0.2, t = 0.1)
movej(p[0.412473230284427, 0.212000117959874, 0.319677834064706, -1.283, 0.713, -0.78], a = 0.2, v = 0.2, t = 0.1)
movej(p[0.412455185184847, 0.211996540402524, 0.319678303116463, -1.283, 0.713, -0.78], a = 0.2, v = 0.2, t = 0.1)
movej(p[0.412437892216036, 0.21199444122553, 0.319679535736703, -1.283, 0.713, -0.78], a = 0.2, v = 0.2, t = 0.1)
movej(p[0.412423316074055, 0.21199428556239, 0.31968196011022, -1.283, 0.713, -0.78], a = 0.2, v = 0.2, t = 0.1)
movej(p[0.412413470337916, 0.211995224730565, 0.319683589482495, -1.283, 0.713, -0.78], a = 0.2, v = 0.2, t = 0.1)
movej(p[0.41240895139773, 0.211996697499837, 0.319683871133457, -1.283, 0.713, -0.78], a = 0.2, v = 0.2, t = 0.1)
movej(p[0.412408921392189, 0.211999218574404, 0.319683533142784, -1.283, 0.713, -0.78], a = 0.2, v = 0.2, t = 0.1)
movej(p[0.41241213890413, 0.212003586953112, 0.319685274990475, -1.283, 0.713, -0.78], a = 0.2, v = 0.2, t = 0.1)
movej(p[0.412419121978436, 0.212009012762447, 0.319691073159348, -1.283, 0.713, -0.78], a = 0.2, v = 0.2, t = 0.1)
movej(p[0.412429932667758, 0.212014948569443, 0.319699870918306, -1.283, 0.713, -0.78], a = 0.2, v = 0.2, t = 0.1)
movej(p[0.412443548917393, 0.212021676942207, 0.319709148450997, -1.283, 0.713, -0.78], a = 0.2, v = 0.2, t = 0.1)
movej(p[0.412458045207858, 0.212029147613905, 0.319717196194913, -1.283, 0.713, -0.78], a = 0.2, v = 0.2, t = 0.1)
movej(p[0.412472610002954, 0.212036623666095, 0.319722699055302, -1.283, 0.713, -0.78], a = 0.2, v = 0.2, t = 0.1)
movej(p[0.412487093157429, 0.212042389777249, 0.319728241431022, -1.283, 0.713, -0.78], a = 0.2, v = 0.2, t = 0.1)
movej(p[0.412501296764389, 0.212045647870619, 0.319735600697488, -1.283, 0.713, -0.78], a = 0.2, v = 0.2, t = 0.1)
movej(p[0.412513066673448, 0.212046275514798, 0.319744353179509, -1.283, 0.713, -0.78], a = 0.2, v = 0.2, t = 0.1)
movej(p[0.412520862106825, 0.212045621272274, 0.319750686743686, -1.283, 0.713, -0.78], a = 0.2, v = 0.2, t = 0.1)
movej(p[0.412524185048651, 0.212045018121178, 0.31975391559741, -1.283, 0.713, -0.78], a = 0.2, v = 0.2, t = 0.1)
movej(p[0.412523263225234, 0.212044595187934, 0.319754957746181, -1.283, 0.713, -0.78], a = 0.2, v = 0.2, t = 0.1)
movej(p[0.412518581151656, 0.212043615055805, 0.31975446640412, -1.283, 0.713, -0.78], a = 0.2, v = 0.2, t = 0.1)
movej(p[0.412510526607797, 0.212041249469652, 0.319752097935972, -1.283, 0.713, -0.78], a = 0.2, v = 0.2, t = 0.1)
movej(p[0.412500826066716, 0.212037578054425, 0.31974750600283, -1.283, 0.713, -0.78], a = 0.2, v = 0.2, t = 0.1)
movej(p[0.412491686380348, 0.212033244912728, 0.319741371004858, -1.283, 0.713, -0.78], a = 0.2, v = 0.2, t = 0.1)
movej(p[0.412483958757867, 0.212028746670851, 0.319734828828171, -1.283, 0.713, -0.78], a = 0.2, v = 0.2, t = 0.1)
movej(p[0.412477195726536, 0.212024848390586, 0.319728818819669, -1.283, 0.713, -0.78], a = 0.2, v = 0.2, t = 0.1)
movej(p[0.412470535368485, 0.212021909285001, 0.319723862059538, -1.283, 0.713, -0.78], a = 0.2, v = 0.2, t = 0.1)
movej(p[0.412464373978281, 0.212020793145803, 0.319720420561312, -1.283, 0.713, -0.78], a = 0.2, v = 0.2, t = 0.1)
movej(p[0.41246031681577, 0.212022297813849, 0.319720566058514, -1.283, 0.713, -0.78], a = 0.2, v = 0.2, t = 0.1)
movej(p[0.412459275040878, 0.212026197187295, 0.319724035282174, -1.283, 0.713, -0.78], a = 0.2, v = 0.2, t = 0.1)
movej(p[0.412460961625623, 0.21203083506136, 0.319728663106507, -1.283, 0.713, -0.78], a = 0.2, v = 0.2, t = 0.1)
movej(p[0.412464506641883, 0.212035497494924, 0.319732580290186, -1.283, 0.713, -0.78], a = 0.2, v = 0.2, t = 0.1)
movej(p[0.412469871780513, 0.212040033868227, 0.319737586299549, -1.283, 0.713, -0.78], a = 0.2, v = 0.2, t = 0.1)
movej(p[0.412478045344253, 0.212044337783708, 0.319744356115523, -1.283, 0.713, -0.78], a = 0.2, v = 0.2, t = 0.1)
movej(p[0.412489847088298, 0.212047614035144, 0.319752704356117, -1.283, 0.713, -0.78], a = 0.2, v = 0.2, t = 0.1)
movej(p[0.412504363991355, 0.212049983675299, 0.319760386284076, -1.283, 0.713, -0.78], a = 0.2, v = 0.2, t = 0.1)
movej(p[0.4125199929936, 0.212051362045728, 0.319765589545917, -1.283, 0.713, -0.78], a = 0.2, v = 0.2, t = 0.1)
movej(p[0.412534963176761, 0.212050850375668, 0.319768501185983, -1.283, 0.713, -0.78], a = 0.2, v = 0.2, t = 0.1)
movej(p[0.412546829447172, 0.212048369831951, 0.31976927015828, -1.283, 0.713, -0.78], a = 0.2, v = 0.2, t = 0.1)
movej(p[0.41255337913746, 0.212044916162662, 0.319769628245662, -1.283, 0.713, -0.78], a = 0.2, v = 0.2, t = 0.1)
movej(p[0.412554461851008, 0.212040833365105, 0.319767722537791, -1.283, 0.713, -0.78], a = 0.2, v = 0.2, t = 0.1)
movej(p[0.412549695549571, 0.212034957854398, 0.319763479230879, -1.283, 0.713, -0.78], a = 0.2, v = 0.2, t = 0.1)
movej(p[0.412538978224287, 0.212026817484862, 0.319757375371726, -1.283, 0.713, -0.78], a = 0.2, v = 0.2, t = 0.1)
movej(p[0.41252248926877, 0.212017610527581, 0.31975095830171, -1.283, 0.713, -0.78], a = 0.2, v = 0.2, t = 0.1)
movej(p[0.412501782365885, 0.212007996136119, 0.319745236676439, -1.283, 0.713, -0.78], a = 0.2, v = 0.2, t = 0.1)
movej(p[0.412478588766733, 0.211997725787503, 0.319740791556116, -1.283, 0.713, -0.78], a = 0.2, v = 0.2, t = 0.1)
movej(p[0.412455971608803, 0.211986655571527, 0.319739198240262, -1.283, 0.713, -0.78], a = 0.2, v = 0.2, t = 0.1)
movej(p[0.412436491513907, 0.211975606615087, 0.319739539346428, -1.283, 0.713, -0.78], a = 0.2, v = 0.2, t = 0.1)
movej(p[0.412420713377278, 0.211966211966573, 0.319740076305281, -1.283, 0.713, -0.78], a = 0.2, v = 0.2, t = 0.1)
movej(p[0.412409247252041, 0.211960633887355, 0.319740535414508, -1.283, 0.713, -0.78], a = 0.2, v = 0.2, t = 0.1)
movej(p[0.412403847946078, 0.21195967542938, 0.319742526431192, -1.283, 0.713, -0.78], a = 0.2, v = 0.2, t = 0.1)
movej(p[0.412405244400394, 0.211962682160307, 0.319747356202044, -1.283, 0.713, -0.78], a = 0.2, v = 0.2, t = 0.1)
movej(p[0.412411482769799, 0.211968789469843, 0.319754693064547, -1.283, 0.713, -0.78], a = 0.2, v = 0.2, t = 0.1)
movej(p[0.412420902977093, 0.211977134199639, 0.319762511865041, -1.283, 0.713, -0.78], a = 0.2, v = 0.2, t = 0.1)
movej(p[0.412432417756499, 0.211985958020056, 0.319769474134247, -1.283, 0.713, -0.78], a = 0.2, v = 0.2, t = 0.1)
movej(p[0.412445201384985, 0.211993801775051, 0.319774406825225, -1.283, 0.713, -0.78], a = 0.2, v = 0.2, t = 0.1)
movej(p[0.412458042263564, 0.211999924932808, 0.319778484129409, -1.283, 0.713, -0.78], a = 0.2, v = 0.2, t = 0.1)
movej(p[0.412470211323723, 0.212003931523889, 0.319782007929738, -1.283, 0.713, -0.78], a = 0.2, v = 0.2, t = 0.1)
movej(p[0.412481778777371, 0.212006292919972, 0.319785437666119, -1.283, 0.713, -0.78], a = 0.2, v = 0.2, t = 0.1)
movej(p[0.412492677673178, 0.212008161421112, 0.319789957289187, -1.283, 0.713, -0.78], a = 0.2, v = 0.2, t = 0.1)
movej(p[0.41250278414372, 0.212010381831878, 0.319795151349661, -1.283, 0.713, -0.78], a = 0.2, v = 0.2, t = 0.1)
movej(p[0.412512558383562, 0.212012876715686, 0.319799181664325, -1.283, 0.713, -0.78], a = 0.2, v = 0.2, t = 0.1)
movej(p[0.412523114256086, 0.212014699688427, 0.31980062904909, -1.283, 0.713, -0.78], a = 0.2, v = 0.2, t = 0.1)
movej(p[0.412534414939986, 0.212014756549689, 0.319798869460162, -1.283, 0.713, -0.78], a = 0.2, v = 0.2, t = 0.1)
movej(p[0.412545436473655, 0.212011641767152, 0.319792753995231, -1.283, 0.713, -0.78], a = 0.2, v = 0.2, t = 0.1)
movej(p[0.412552992934271, 0.212004393900026, 0.31978306784878, -1.283, 0.713, -0.78], a = 0.2, v = 0.2, t = 0.1)
movej(p[0.412554183188061, 0.211994356829603, 0.319771315307981, -1.283, 0.713, -0.78], a = 0.2, v = 0.2, t = 0.1)
movej(p[0.412547640161115, 0.21198243863627, 0.319758514842244, -1.283, 0.713, -0.78], a = 0.2, v = 0.2, t = 0.1)
movej(p[0.41253217594236, 0.211969971845653, 0.31974544762808, -1.283, 0.713, -0.78], a = 0.2, v = 0.2, t = 0.1)
movej(p[0.412508648141659, 0.211958017275502, 0.319733095223954, -1.283, 0.713, -0.78], a = 0.2, v = 0.2, t = 0.1)
movej(p[0.412481983347277, 0.211945831616935, 0.31972344560169, -1.283, 0.713, -0.78], a = 0.2, v = 0.2, t = 0.1)
movej(p[0.412455970396842, 0.211932995359684, 0.319716191797829, -1.283, 0.713, -0.78], a = 0.2, v = 0.2, t = 0.1)
movej(p[0.412431671024531, 0.211920566230432, 0.319709576669007, -1.283, 0.713, -0.78], a = 0.2, v = 0.2, t = 0.1)
movej(p[0.412408788108129, 0.211912508532084, 0.319702566868778, -1.283, 0.713, -0.78], a = 0.2, v = 0.2, t = 0.1)
movej(p[0.412387576923841, 0.211910238027471, 0.319694771963204, -1.283, 0.713, -0.78], a = 0.2, v = 0.2, t = 0.1)
movej(p[0.412369948171147, 0.211911745625559, 0.319686745876208, -1.283, 0.713, -0.78], a = 0.2, v = 0.2, t = 0.1)
movej(p[0.412357192156576, 0.211914361684216, 0.319680973992256, -1.283, 0.713, -0.78], a = 0.2, v = 0.2, t = 0.1)
movej(p[0.412349944902458, 0.211917205362145, 0.319679975677379, -1.283, 0.713, -0.78], a = 0.2, v = 0.2, t = 0.1)
movej(p[0.412348602889067, 0.21192025243672, 0.319684336138088, -1.283, 0.713, -0.78], a = 0.2, v = 0.2, t = 0.1)
movej(p[0.412353603267615, 0.21192370812377, 0.319691524616535, -1.283, 0.713, -0.78], a = 0.2, v = 0.2, t = 0.1)
movej(p[0.412366061358617, 0.211927958411803, 0.319698453527577, -1.283, 0.713, -0.78], a = 0.2, v = 0.2, t = 0.1)
movej(p[0.412385646889254, 0.21193288009968, 0.319704856256614, -1.283, 0.713, -0.78], a = 0.2, v = 0.2, t = 0.1)
movej(p[0.412409382709215, 0.211938255705934, 0.319712308853088, -1.283, 0.713, -0.78], a = 0.2, v = 0.2, t = 0.1)
movej(p[0.412433813839075, 0.211943742033804, 0.319719757222525, -1.283, 0.713, -0.78], a = 0.2, v = 0.2, t = 0.1)
movej(p[0.412456744342281, 0.211949333524284, 0.319725705535473, -1.283, 0.713, -0.78], a = 0.2, v = 0.2, t = 0.1)
movej(p[0.412478010888001, 0.211954421470276, 0.31973034504231, -1.283, 0.713, -0.78], a = 0.2, v = 0.2, t = 0.1)
movej(p[0.412496634288959, 0.211959159652674, 0.319734406340541, -1.283, 0.713, -0.78], a = 0.2, v = 0.2, t = 0.1)
movej(p[0.412511772463853, 0.211964387298245, 0.319737982185288, -1.283, 0.713, -0.78], a = 0.2, v = 0.2, t = 0.1)
movej(p[0.412522526950376, 0.211970755458901, 0.319739861511363, -1.283, 0.713, -0.78], a = 0.2, v = 0.2, t = 0.1)
movej(p[0.412529487868016, 0.211977428713353, 0.319740046383277, -1.283, 0.713, -0.78], a = 0.2, v = 0.2, t = 0.1)
movej(p[0.412532255801383, 0.211982049136917, 0.319738053553138, -1.283, 0.713, -0.78], a = 0.2, v = 0.2, t = 0.1)
movej(p[0.412529497303008, 0.211982618410106, 0.31973408922006, -1.283, 0.713, -0.78], a = 0.2, v = 0.2, t = 0.1)
movej(p[0.412520967511934, 0.211979354662755, 0.319726943184273, -1.283, 0.713, -0.78], a = 0.2, v = 0.2, t = 0.1)
movej(p[0.412507255001303, 0.21197363207449, 0.319714210242871, -1.283, 0.713, -0.78], a = 0.2, v = 0.2, t = 0.1)
movej(p[0.41248708681786, 0.211966547177804, 0.319695386698025, -1.283, 0.713, -0.78], a = 0.2, v = 0.2, t = 0.1)
movej(p[0.41246072621749, 0.211959070647032, 0.319672818177301, -1.283, 0.713, -0.78], a = 0.2, v = 0.2, t = 0.1)
movej(p[0.412430871540645, 0.211952776510808, 0.319650293345587, -1.283, 0.713, -0.78], a = 0.2, v = 0.2, t = 0.1)
movej(p[0.412400875567841, 0.211949095491127, 0.319630080773889, -1.283, 0.713, -0.78], a = 0.2, v = 0.2, t = 0.1)
movej(p[0.41237434601706, 0.211947705795152, 0.319614814365456, -1.283, 0.713, -0.78], a = 0.2, v = 0.2, t = 0.1)
movej(p[0.412354075549531, 0.211947917073705, 0.319605461800646, -1.283, 0.713, -0.78], a = 0.2, v = 0.2, t = 0.1)
movej(p[0.412342712187043, 0.211948563160267, 0.319600402067044, -1.283, 0.713, -0.78], a = 0.2, v = 0.2, t = 0.1)
movej(p[0.412340578151068, 0.211949360582381, 0.319598129677459, -1.283, 0.713, -0.78], a = 0.2, v = 0.2, t = 0.1)
movej(p[0.412345811489006, 0.211950603288789, 0.319596913254502, -1.283, 0.713, -0.78], a = 0.2, v = 0.2, t = 0.1)
movej(p[0.412357289466274, 0.211952971332394, 0.319595310436881, -1.283, 0.713, -0.78], a = 0.2, v = 0.2, t = 0.1)
movej(p[0.412373218665945, 0.21195742776499, 0.319592745906449, -1.283, 0.713, -0.78], a = 0.2, v = 0.2, t = 0.1)
movej(p[0.412391530836363, 0.21196311786897, 0.31959048258913, -1.283, 0.713, -0.78], a = 0.2, v = 0.2, t = 0.1)
movej(p[0.412411480825811, 0.211967853626163, 0.319588883085819, -1.283, 0.713, -0.78], a = 0.2, v = 0.2, t = 0.1)
movej(p[0.412431485200001, 0.211971085408103, 0.31958758513638, -1.283, 0.713, -0.78], a = 0.2, v = 0.2, t = 0.1)
movej(p[0.412450043137164, 0.211974090191571, 0.319586590562318, -1.283, 0.713, -0.78], a = 0.2, v = 0.2, t = 0.1)
movej(p[0.412465768324348, 0.211977792801424, 0.319586365170867, -1.283, 0.713, -0.78], a = 0.2, v = 0.2, t = 0.1)
movej(p[0.41247653937849, 0.21198178579371, 0.319587911201683, -1.283, 0.713, -0.78], a = 0.2, v = 0.2, t = 0.1)
movej(p[0.412480766247781, 0.21198529595809, 0.319590257084891, -1.283, 0.713, -0.78], a = 0.2, v = 0.2, t = 0.1)
movej(p[0.412478272061854, 0.211988267789943, 0.319591463334449, -1.283, 0.713, -0.78], a = 0.2, v = 0.2, t = 0.1)
movej(p[0.412471199700951, 0.211990131322839, 0.319588675288287, -1.283, 0.713, -0.78], a = 0.2, v = 0.2, t = 0.1)
movej(p[0.412460506916998, 0.211990384869148, 0.319580576120762, -1.283, 0.713, -0.78], a = 0.2, v = 0.2, t = 0.1)
movej(p[0.412445103447094, 0.211988669128083, 0.319568118047054, -1.283, 0.713, -0.78], a = 0.2, v = 0.2, t = 0.1)
movej(p[0.412424504959827, 0.211984777489127, 0.319555016513192, -1.283, 0.713, -0.78], a = 0.2, v = 0.2, t = 0.1)
movej(p[0.412399740730908, 0.211979286700376, 0.319545578099504, -1.283, 0.713, -0.78], a = 0.2, v = 0.2, t = 0.1)
movej(p[0.412372819463757, 0.211974835997941, 0.319542648028888, -1.283, 0.713, -0.78], a = 0.2, v = 0.2, t = 0.1)
movej(p[0.412346136768576, 0.211972522514998, 0.319546283042449, -1.283, 0.713, -0.78], a = 0.2, v = 0.2, t = 0.1)
movej(p[0.41232196235909, 0.211971571406815, 0.319554213313265, -1.283, 0.713, -0.78], a = 0.2, v = 0.2, t = 0.1)
movej(p[0.412302211868536, 0.211972037374414, 0.319564536643109, -1.283, 0.713, -0.78], a = 0.2, v = 0.2, t = 0.1)
movej(p[0.412287115288712, 0.211973382274725, 0.319574571130079, -1.283, 0.713, -0.78], a = 0.2, v = 0.2, t = 0.1)
movej(p[0.412277590172311, 0.211974786887065, 0.319583176976157, -1.283, 0.713, -0.78], a = 0.2, v = 0.2, t = 0.1)
movej(p[0.412274560154799, 0.21197575871322, 0.319590050584511, -1.283, 0.713, -0.78], a = 0.2, v = 0.2, t = 0.1)
movej(p[0.412278505603285, 0.211976494610818, 0.319594419404485, -1.283, 0.713, -0.78], a = 0.2, v = 0.2, t = 0.1)
movej(p[0.412289133205141, 0.211977782050341, 0.319596269438074, -1.283, 0.713, -0.78], a = 0.2, v = 0.2, t = 0.1)
movej(p[0.412304608395769, 0.211980424736235, 0.319597409406621, -1.283, 0.713, -0.78], a = 0.2, v = 0.2, t = 0.1)
movej(p[0.412321898794923, 0.211984440225707, 0.319600994702619, -1.283, 0.713, -0.78], a = 0.2, v = 0.2, t = 0.1)
movej(p[0.412338924623999, 0.211988808846629, 0.319607825556482, -1.283, 0.713, -0.78], a = 0.2, v = 0.2, t = 0.1)
movej(p[0.412353913993174, 0.211992309390183, 0.31961390773969, -1.283, 0.713, -0.78], a = 0.2, v = 0.2, t = 0.1)
movej(p[0.412366679806588, 0.211994985406954, 0.319614235709366, -1.283, 0.713, -0.78], a = 0.2, v = 0.2, t = 0.1)
