def moving():
set_payload_mass(0)
set_tcp(p[0,0,0,0,0,0])
movej(p[-0.4025, -0.1161, 0.3402, -1.113, -1.287, 1.334], a = 0.2, v = 0.2, t = 0.2)
movej(p[-0.402554929322023, -0.116057477575295, 0.340251716660558, -1.11260983990136, -1.28658824067133, 1.33570893381171], a = 0.2, v = 0.2, t = 0.2)
movej(p[-0.4025, -0.1161, 0.3402, -1.113, -1.287, 1.334], a = 0.2, v = 0.2, t = 0.2)
movej(p[-0.402554929322023, -0.116057477575295, 0.340251716660558, -1.11260983990136, -1.28658824067133, 1.33570893381171], a = 0.2, v = 0.2, t = 0.2)
movej(p[-0.4025, -0.1161, 0.3402, -1.113, -1.287, 1.334], a = 0.2, v = 0.2, t = 0.2)
movej(p[-0.4025, -0.1161, 0.3402, -1.113, -1.287, 1.334], a = 0.2, v = 0.2, t = 0.2)
movej(p[-0.401803113366775, -0.11618777166593, 0.34038972173068, -1.10305533915842, -1.27950494122174, 1.33039832488912], a = 0.2, v = 0.2, t = 0.2)
movej(p[-0.401106142321572, -0.11627542992235, 0.340579439869585, -1.09307869382969, -1.27209683667432, 1.32677982371333], a = 0.2, v = 0.2, t = 0.2)
movej(p[-0.400056572092238, -0.116386835222173, 0.340916843800902, -1.08354386103122, -1.26725881738199, 1.32463777753519], a = 0.2, v = 0.2, t = 0.2)
movej(p[-0.398221970506466, -0.116551019971374, 0.341582875879419, -1.07504136114677, -1.26796754682846, 1.32583153425124], a = 0.2, v = 0.2, t = 0.2)
movej(p[-0.395949705951331, -0.116838653388046, 0.342055060693968, -1.0676865265156, -1.26775657406648, 1.32944936228449], a = 0.2, v = 0.2, t = 0.2)
movej(p[-0.393397590051774, -0.117205274292212, 0.342403316085681, -1.06107897963042, -1.26694635486855, 1.33461410994589], a = 0.2, v = 0.2, t = 0.2)
movej(p[-0.390913787640405, -0.117479084087768, 0.343004701375766, -1.05487377084702, -1.26955228568841, 1.33705686245213], a = 0.2, v = 0.2, t = 0.2)
movej(p[-0.388531700279018, -0.11773087942607, 0.343614628461844, -1.04787316356371, -1.27141651523487, 1.34010148118296], a = 0.2, v = 0.2, t = 0.2)
movej(p[-0.386301073790831, -0.118047622385521, 0.343926432804078, -1.03855538119201, -1.26725677975186, 1.34797047012936], a = 0.2, v = 0.2, t = 0.2)
movej(p[-0.384364434931255, -0.118365057261091, 0.344164583528102, -1.02447142804118, -1.25897828314171, 1.36508187842731], a = 0.2, v = 0.2, t = 0.2)
movej(p[-0.384095156658328, -0.118413067562184, 0.344210657411357, -1.02684896501024, -1.26146771131655, 1.37744770191268], a = 0.2, v = 0.2, t = 0.2)
movej(p[-0.384766427292999, -0.11830187549912, 0.344159695169059, -1.0339530750884, -1.26676381643104, 1.37176010553231], a = 0.2, v = 0.2, t = 0.2)
movej(p[-0.385710289689215, -0.11826493798933, 0.343857831247103, -1.03963800532401, -1.2642748993446, 1.37781080413844], a = 0.2, v = 0.2, t = 0.2)
movej(p[-0.387578384765176, -0.118111011747513, 0.343394856399783, -1.05436902287235, -1.26710826226601, 1.36094949208678], a = 0.2, v = 0.2, t = 0.2)
movej(p[-0.389606025485372, -0.117853022023802, 0.34305555996263, -1.06350448774638, -1.26162854702038, 1.34561749140729], a = 0.2, v = 0.2, t = 0.2)
movej(p[-0.392031351109965, -0.117460059850028, 0.342735137172131, -1.07296917535092, -1.27101265231705, 1.32482812941441], a = 0.2, v = 0.2, t = 0.2)
movej(p[-0.394200788336386, -0.11726664341441, 0.342247571819533, -1.07224838293941, -1.26052187429144, 1.31848757175363], a = 0.2, v = 0.2, t = 0.2)
movej(p[-0.396284112435347, -0.116953194401384, 0.341980458819248, -1.07117166949469, -1.25721422799727, 1.31206351463385], a = 0.2, v = 0.2, t = 0.2)
movej(p[-0.398117351940024, -0.116381451728393, 0.342087281496485, -1.07541298487774, -1.258330472957, 1.30329040504249], a = 0.2, v = 0.2, t = 0.2)
movej(p[-0.398921358608775, -0.116256466892057, 0.341949933117208, -1.08260508914047, -1.26555262609204, 1.29911818787071], a = 0.2, v = 0.2, t = 0.2)
movej(p[-0.399285403690746, -0.116266721437679, 0.341829455473693, -1.08416751216298, -1.26242602372069, 1.30061628424735], a = 0.2, v = 0.2, t = 0.2)
movej(p[-0.399651138351845, -0.116075713190381, 0.3418934253661, -1.07843054769953, -1.25938444141671, 1.29791964153804], a = 0.2, v = 0.2, t = 0.2)
movej(p[-0.399878787664306, -0.115955887266138, 0.341919337494834, -1.08224500456017, -1.26000166994379, 1.29269185334037], a = 0.2, v = 0.2, t = 0.2)
movej(p[-0.398977353160224, -0.116015971256118, 0.34209133435236, -1.08669705913807, -1.26131299930427, 1.29121794810403], a = 0.2, v = 0.2, t = 0.2)
movej(p[-0.397125367449077, -0.116223354784421, 0.34242278982131, -1.08787961191367, -1.2591779636798, 1.29525213583746], a = 0.2, v = 0.2, t = 0.2)
movej(p[-0.39547587175157, -0.116396505996408, 0.342709612086301, -1.08371068215253, -1.2565493342957, 1.29666738843102], a = 0.2, v = 0.2, t = 0.2)
movej(p[-0.394101573894007, -0.116277547827997, 0.343129512744631, -1.08313558780624, -1.25864904758003, 1.2926609382549], a = 0.2, v = 0.2, t = 0.2)
movej(p[-0.39240958009082, -0.116442465353545, 0.343408296513422, -1.07469733515277, -1.26383938032938, 1.29796807252039], a = 0.2, v = 0.2, t = 0.2)
movej(p[-0.390520368959927, -0.116921704637386, 0.343570265651639, -1.06381891207193, -1.2600536215532, 1.299105595942], a = 0.2, v = 0.2, t = 0.2)
movej(p[-0.388661373057567, -0.117255638014215, 0.343834842700624, -1.06193614956758, -1.25484335666747, 1.30225090715307], a = 0.2, v = 0.2, t = 0.2)
movej(p[-0.387271269808484, -0.117196057409835, 0.344171270402323, -1.05223439862346, -1.25472387440129, 1.30872379079995], a = 0.2, v = 0.2, t = 0.2)
movej(p[-0.385491312179733, -0.117521250169667, 0.344410648782305, -1.04560272690824, -1.25882998414687, 1.31028006216701], a = 0.2, v = 0.2, t = 0.2)
movej(p[-0.383649415546829, -0.117824325976012, 0.34469086121833, -1.03402440655249, -1.25724628962052, 1.32545764453329], a = 0.2, v = 0.2, t = 0.2)
movej(p[-0.381847566488597, -0.118265576900411, 0.344920717636704, -1.02469636923569, -1.25747293128045, 1.34175401570324], a = 0.2, v = 0.2, t = 0.2)
movej(p[-0.380844838275342, -0.118407262854802, 0.345086022417852, -1.01774637665244, -1.2513011096485, 1.3457050857162], a = 0.2, v = 0.2, t = 0.2)
movej(p[-0.380087964429708, -0.118408761663633, 0.345238938327316, -1.01111146051089, -1.253824508735, 1.35503015237343], a = 0.2, v = 0.2, t = 0.2)
movej(p[-0.379178112949702, -0.118622872884009, 0.345361472402745, -1.0094162232596, -1.24846155048972, 1.36447110416872], a = 0.2, v = 0.2, t = 0.2)
movej(p[-0.37897730625802, -0.118779054466294, 0.345360919292881, -1.01377608181694, -1.25484723090322, 1.3605182809719], a = 0.2, v = 0.2, t = 0.2)
movej(p[-0.37933624474808, -0.118688784662032, 0.345296535033997, -1.01896091667681, -1.25881418846595, 1.35677793026365], a = 0.2, v = 0.2, t = 0.2)
movej(p[-0.380123160448475, -0.118734032384122, 0.345130424094814, -1.0267193644525, -1.26150426155583, 1.35585889482819], a = 0.2, v = 0.2, t = 0.2)
movej(p[-0.38129983092616, -0.118970030886105, 0.34489667963176, -1.03929837385632, -1.27087793132172, 1.36032612612209], a = 0.2, v = 0.2, t = 0.2)
movej(p[-0.382896781219709, -0.119089655798362, 0.34461316063716, -1.04866632376983, -1.27212276561087, 1.3600334928048], a = 0.2, v = 0.2, t = 0.2)
movej(p[-0.384780794638659, -0.118900789846163, 0.344308546653044, -1.04972807254739, -1.27291028379028, 1.35893194915177], a = 0.2, v = 0.2, t = 0.2)
movej(p[-0.386112045253633, -0.118710262920475, 0.344089732049516, -1.06126635876331, -1.27899669020492, 1.35901552712137], a = 0.2, v = 0.2, t = 0.2)
movej(p[-0.387610024594362, -0.118754542389632, 0.343864463846341, -1.06488095706642, -1.28513072157624, 1.36018445337859], a = 0.2, v = 0.2, t = 0.2)
movej(p[-0.389285539448654, -0.118703121632823, 0.343613356560873, -1.06896786182454, -1.28338331757998, 1.362566951454], a = 0.2, v = 0.2, t = 0.2)
movej(p[-0.391764161258511, -0.11819288746953, 0.343190177470759, -1.07811871516691, -1.28376010560481, 1.34978151780634], a = 0.2, v = 0.2, t = 0.2)
movej(p[-0.394250735551114, -0.117352762544884, 0.342700586908804, -1.07662947254455, -1.27618985079534, 1.34227951259922], a = 0.2, v = 0.2, t = 0.2)
movej(p[-0.395363116151269, -0.117095449675437, 0.342492745195915, -1.08389387466724, -1.28163309849209, 1.34257973567089], a = 0.2, v = 0.2, t = 0.2)
movej(p[-0.396933798466799, -0.116866196231118, 0.342215756564471, -1.07945510306974, -1.27565337694742, 1.33625164404774], a = 0.2, v = 0.2, t = 0.2)
movej(p[-0.398266346732892, -0.116283983370473, 0.341891526902918, -1.07236799605572, -1.27408910658358, 1.33702532335262], a = 0.2, v = 0.2, t = 0.2)
movej(p[-0.398292096357197, -0.116110711422957, 0.341837823652993, -1.07035080984852, -1.27205376789372, 1.33354190117002], a = 0.2, v = 0.2, t = 0.2)
movej(p[-0.3976857376706, -0.116185796098223, 0.341934884328493, -1.07010867888794, -1.27150731422478, 1.33414507044686], a = 0.2, v = 0.2, t = 0.2)
movej(p[-0.39707947786918, -0.116260895235921, 0.342031948547955, -1.06986552461889, -1.27096393199095, 1.33474710369664], a = 0.2, v = 0.2, t = 0.2)
movej(p[-0.395681981540116, -0.116447485053789, 0.342267032894772, -1.06931788532625, -1.27043012958061, 1.32783134943134], a = 0.2, v = 0.2, t = 0.2)
movej(p[-0.393688570202652, -0.116813949921924, 0.34265046267986, -1.07028512911218, -1.27233923741137, 1.32757125521911], a = 0.2, v = 0.2, t = 0.2)
movej(p[-0.39150493924362, -0.117238447665453, 0.343132822546036, -1.06835777849652, -1.27451316475368, 1.33230079930639], a = 0.2, v = 0.2, t = 0.2)
movej(p[-0.389508833986305, -0.117614396972839, 0.343569644729534, -1.06045307660969, -1.27125120050907, 1.3406127061518], a = 0.2, v = 0.2, t = 0.2)
movej(p[-0.387667768708443, -0.117826319010964, 0.343879794423083, -1.04392456479234, -1.26621146818141, 1.34611921939356], a = 0.2, v = 0.2, t = 0.2)
movej(p[-0.386182265268941, -0.118113386235481, 0.344205018268819, -1.04515975602161, -1.26632593511285, 1.35846714226361], a = 0.2, v = 0.2, t = 0.2)
movej(p[-0.386352167140064, -0.11825586743316, 0.34422437472761, -1.05757037737772, -1.27548188041939, 1.35995905377195], a = 0.2, v = 0.2, t = 0.2)
movej(p[-0.387793216446857, -0.118271870658878, 0.344080506864072, -1.0657445470199, -1.28366447058572, 1.35538563671632], a = 0.2, v = 0.2, t = 0.2)
movej(p[-0.390478493706222, -0.117618026902019, 0.343463133644735, -1.08217777737249, -1.28403141423836, 1.3558929004857], a = 0.2, v = 0.2, t = 0.2)
movej(p[-0.392707867654285, -0.117398108174433, 0.343180546237096, -1.07426132409495, -1.28208809760588, 1.37098280860353], a = 0.2, v = 0.2, t = 0.2)
movej(p[-0.395119534139133, -0.116666087359295, 0.342466298554522, -1.06917792737272, -1.27095196628337, 1.34349958448846], a = 0.2, v = 0.2, t = 0.2)
movej(p[-0.396976425306917, -0.11630867941108, 0.342040214866074, -1.07269289055045, -1.27223310130326, 1.34749483332794], a = 0.2, v = 0.2, t = 0.2)
movej(p[-0.39841452589107, -0.115874560588415, 0.341594832763081, -1.07253968706104, -1.27228606647927, 1.34795560471738], a = 0.2, v = 0.2, t = 0.2)
movej(p[-0.39930830850741, -0.115683415854871, 0.341366998820116, -1.06822735075984, -1.2694317087489, 1.34635478222728], a = 0.2, v = 0.2, t = 0.2)
movej(p[-0.398842769419132, -0.115904177971608, 0.341542553213678, -1.05923470839754, -1.2628705611712, 1.34320583544128], a = 0.2, v = 0.2, t = 0.2)
movej(p[-0.390778831387985, -0.11568371720486, 0.342022903690044, -1.060209869414, -1.26432097601845, 1.34520615349258], a = 0.2, v = 0.2, t = 0.2)
movej(p[-0.386289728533222, -0.115569167138565, 0.342288822440173, -1.06114376966565, -1.26540003277016, 1.34655535623846], a = 0.2, v = 0.2, t = 0.2)
movej(p[-0.387162623993491, -0.115613496440409, 0.342233084764946, -1.0620187544648, -1.2659154555993, 1.34692944697589], a = 0.2, v = 0.2, t = 0.2)
movej(p[-0.388035618338937, -0.115657840204685, 0.342177350633682, -1.06289246975581, -1.26643477999314, 1.34730262061683], a = 0.2, v = 0.2, t = 0.2)
movej(p[-0.388908612684384, -0.115702183968962, 0.342121616502419, -1.06376710384012, -1.26695135910666, 1.34767661515477], a = 0.2, v = 0.2, t = 0.2)
movej(p[-0.389781490171721, -0.115746611657679, 0.342065978812175, -1.06464183840813, -1.2674711298828, 1.34805095130118], a = 0.2, v = 0.2, t = 0.2)
movej(p[-0.390654484517168, -0.115790955421956, 0.342010244680911, -1.06551595315516, -1.26799096827369, 1.34842270760603], a = 0.2, v = 0.2, t = 0.2)
movej(p[-0.391527478862615, -0.115835299186232, 0.341954510549647, -1.06638912949506, -1.26851050917595, 1.34879782433327], a = 0.2, v = 0.2, t = 0.2)
movej(p[-0.392400374322884, -0.115879628488076, 0.341898772874421, -1.06726426222238, -1.26903079379511, 1.34917074378698], a = 0.2, v = 0.2, t = 0.2)
movej(p[-0.393273368668331, -0.115923972252352, 0.341843038743157, -1.06813571233322, -1.26955220549623, 1.34954449844013], a = 0.2, v = 0.2, t = 0.2)
movej(p[-0.394146363013777, -0.115968316016628, 0.341787304611893, -1.06900956002395, -1.27007487840682, 1.34991858468032], a = 0.2, v = 0.2, t = 0.2)
movej(p[-0.395019258474047, -0.116012645318472, 0.341731566936666, -1.06988295675765, -1.27059550943081, 1.35029223498648], a = 0.2, v = 0.2, t = 0.2)
movej(p[-0.395892252819493, -0.116056989082748, 0.341675832805403, -1.07075644771091, -1.27111934397333, 1.35066621996827], a = 0.2, v = 0.2, t = 0.2)
movej(p[-0.39676524716494, -0.116101332847025, 0.341620098674139, -1.07162811584722, -1.27164184327611, 1.35103850605338], a = 0.2, v = 0.2, t = 0.2)
movej(p[-0.395285248581478, -0.116219292951449, 0.341784867016716, -1.08244941827809, -1.27477167492605, 1.35486252814655], a = 0.2, v = 0.2, t = 0.2)
movej(p[-0.393144349127232, -0.116605061504736, 0.342279813316938, -1.07633514421876, -1.27303454814558, 1.35105957887835], a = 0.2, v = 0.2, t = 0.2)
movej(p[-0.390821934443483, -0.116980148737845, 0.342770144331932, -1.06777313566846, -1.26966146109106, 1.34333368422458], a = 0.2, v = 0.2, t = 0.2)
movej(p[-0.389277776171402, -0.117230545963363, 0.343084202973299, -1.08495597528137, -1.2724693910334, 1.34581069448533], a = 0.2, v = 0.2, t = 0.2)
movej(p[-0.388602939970299, -0.117403498142912, 0.343290183810442, -1.07847349015903, -1.27115197944025, 1.34644807202565], a = 0.2, v = 0.2, t = 0.2)
movej(p[-0.386654813283142, -0.117535235126434, 0.343486465898158, -1.04852169966806, -1.26277842395045, 1.34221777394847], a = 0.2, v = 0.2, t = 0.2)
movej(p[-0.384015343347413, -0.117534096476698, 0.343509299466881, -1.05992118862881, -1.26581638980615, 1.34431407329465], a = 0.2, v = 0.2, t = 0.2)
movej(p[-0.383107999255511, -0.118031037893769, 0.344072482578213, -1.0276819072075, -1.25580352521402, 1.35928614580382], a = 0.2, v = 0.2, t = 0.2)
movej(p[-0.382512119069205, -0.118044540042256, 0.344066400181103, -1.05174581919531, -1.26413878935432, 1.34701053386447], a = 0.2, v = 0.2, t = 0.2)
movej(p[-0.382295922169942, -0.118139502735425, 0.344163827064739, -1.06191505962044, -1.26799808506473, 1.34091611589104], a = 0.2, v = 0.2, t = 0.2)
movej(p[-0.382643915498416, -0.118150886479011, 0.344167772152755, -1.06160124800504, -1.26795974254083, 1.34264250220957], a = 0.2, v = 0.2, t = 0.2)
movej(p[-0.383303123086507, -0.118051518627426, 0.344021394026402, -1.06292986412431, -1.27013295564453, 1.35292560317396], a = 0.2, v = 0.2, t = 0.2)
movej(p[-0.384267784762922, -0.117887727727599, 0.343778184237967, -1.06728096728852, -1.2752522627346, 1.37059231157761], a = 0.2, v = 0.2, t = 0.2)
movej(p[-0.385063185671991, -0.117808574791017, 0.343651598194179, -1.09017815223128, -1.28443907946167, 1.37050832011538], a = 0.2, v = 0.2, t = 0.2)
movej(p[-0.385939491030065, -0.117879297114236, 0.34375983073277, -1.08315308159796, -1.27825279566167, 1.35916208048125], a = 0.2, v = 0.2, t = 0.2)
movej(p[-0.38755076133573, -0.1176947537585, 0.343556159105055, -1.07319493985005, -1.27663140519909, 1.36285329808374], a = 0.2, v = 0.2, t = 0.2)
movej(p[-0.388794283651588, -0.117391365890377, 0.343076978406947, -1.07086628252218, -1.2723536415911, 1.35702071542975], a = 0.2, v = 0.2, t = 0.2)
movej(p[-0.390274805034047, -0.11710312465243, 0.342627495554294, -1.06842654102945, -1.26798633580338, 1.36078996174822], a = 0.2, v = 0.2, t = 0.2)
movej(p[-0.391800313871817, -0.116955156462712, 0.342418624132802, -1.06966834521285, -1.26791309161783, 1.36387061957774], a = 0.2, v = 0.2, t = 0.2)
movej(p[-0.393242130333373, -0.116733066650308, 0.342059614137938, -1.05288322520232, -1.25853331770162, 1.38519838842561], a = 0.2, v = 0.2, t = 0.2)
movej(p[-0.393352424988142, -0.116723650957229, 0.342017194757305, -1.06891871515286, -1.25929533827441, 1.39086267799539], a = 0.2, v = 0.2, t = 0.2)
movej(p[-0.393195740924771, -0.116929969416928, 0.342386799258729, -1.09732295095544, -1.27265725152298, 1.36176095153423], a = 0.2, v = 0.2, t = 0.2)
movej(p[-0.39412976288866, -0.116404768233802, 0.341454159361333, -1.07295184466589, -1.27074643616881, 1.35808916196308], a = 0.2, v = 0.2, t = 0.2)
movej(p[-0.393948252512551, -0.116419660984782, 0.341440982133521, -1.07371917854164, -1.27108411641243, 1.35764277303524], a = 0.2, v = 0.2, t = 0.2)
movej(p[-0.393966683264695, -0.116408334708331, 0.341387730252453, -1.07344813325349, -1.27054315532232, 1.35887770262498], a = 0.2, v = 0.2, t = 0.2)
movej(p[-0.394120747140338, -0.116348468280757, 0.341249800041581, -1.07259248246017, -1.26952272166658, 1.36099242431467], a = 0.2, v = 0.2, t = 0.2)
movej(p[-0.394144614723497, -0.116345824789219, 0.341187181191172, -1.07272332919668, -1.269457185919, 1.36137807236506], a = 0.2, v = 0.2, t = 0.2)
movej(p[-0.394139940453263, -0.11635587611638, 0.341141144987809, -1.07307319203896, -1.26959977004872, 1.36138267399409], a = 0.2, v = 0.2, t = 0.2)
movej(p[-0.394665617004232, -0.116327278540845, 0.341096554042146, -1.07331871777901, -1.26793835216599, 1.35969825237142], a = 0.2, v = 0.2, t = 0.2)
movej(p[-0.395303922472053, -0.116290495646296, 0.341052259139297, -1.07353922361522, -1.2658980482916, 1.35765368762251], a = 0.2, v = 0.2, t = 0.2)
movej(p[-0.396286700508082, -0.116231835476723, 0.341014501406268, -1.10013387961282, -1.2693215848054, 1.35034041673958], a = 0.2, v = 0.2, t = 0.2)
movej(p[-0.396988274501587, -0.116252931749552, 0.34115265960874, -1.12028717875873, -1.27164675640425, 1.34543577483344], a = 0.2, v = 0.2, t = 0.2)
movej(p[-0.396072437935528, -0.116649321520154, 0.342058397437271, -1.08329233316819, -1.26362592786189, 1.35626779504208], a = 0.2, v = 0.2, t = 0.2)
movej(p[-0.394156139661576, -0.116763418620936, 0.341963411612834, -1.09507006225155, -1.27703345757172, 1.34843125835273], a = 0.2, v = 0.2, t = 0.2)
movej(p[-0.391490027159913, -0.117096649131023, 0.342395042758164, -1.08046306159711, -1.27131460260098, 1.33966998976716], a = 0.2, v = 0.2, t = 0.2)
movej(p[-0.388975598462501, -0.117476943685574, 0.343004457787033, -1.05696537089849, -1.26045375789018, 1.337647980472], a = 0.2, v = 0.2, t = 0.2)
movej(p[-0.387020889406176, -0.1176203230876, 0.343049079443167, -1.06496624922563, -1.2641481522345, 1.35046534070447], a = 0.2, v = 0.2, t = 0.2)
movej(p[-0.384622988305384, -0.117983536222491, 0.343589133356644, -1.05557105197417, -1.26289474663071, 1.34314127634114], a = 0.2, v = 0.2, t = 0.2)
movej(p[-0.382458260553708, -0.118267425210585, 0.343996519983284, -1.04974974494012, -1.25918617817434, 1.34614006983053], a = 0.2, v = 0.2, t = 0.2)
movej(p[-0.380864796152914, -0.118540950022239, 0.344477387408684, -1.04455210674148, -1.26334008023163, 1.37922852780994], a = 0.2, v = 0.2, t = 0.2)
movej(p[-0.379525937172281, -0.118789352221842, 0.344974234645982, -1.02637586047611, -1.254658599298, 1.38589539358067], a = 0.2, v = 0.2, t = 0.2)
movej(p[-0.378476514428755, -0.11894296715365, 0.345219922574249, -1.02490182555786, -1.25208633909898, 1.37641879573529], a = 0.2, v = 0.2, t = 0.2)
movej(p[-0.377924309181515, -0.118945649707484, 0.34506081192462, -1.05249557417266, -1.26163030439449, 1.34636017042201], a = 0.2, v = 0.2, t = 0.2)
movej(p[-0.376553725497318, -0.119204582870103, 0.345742423963765, -1.04414621262244, -1.26901518171716, 1.3839421680244], a = 0.2, v = 0.2, t = 0.2)
movej(p[-0.377052755160039, -0.119151170887686, 0.345690456802418, -1.04645738791079, -1.26761784070931, 1.36295173460402], a = 0.2, v = 0.2, t = 0.2)
movej(p[-0.37755178482276, -0.119097758905268, 0.34563848964107, -1.04888130724262, -1.26620072312686, 1.34190762843945], a = 0.2, v = 0.2, t = 0.2)
movej(p[-0.377964051480147, -0.119010944055288, 0.345364359297931, -1.05497735357311, -1.27368887013348, 1.35131432036463], a = 0.2, v = 0.2, t = 0.2)
movej(p[-0.37834662475683, -0.118912748102745, 0.345014278288917, -1.062304218231, -1.28447666167103, 1.37107237503917], a = 0.2, v = 0.2, t = 0.2)
movej(p[-0.378729216006445, -0.118814453763328, 0.34466409729492, -1.06962238398678, -1.29554908747848, 1.39073357766238], a = 0.2, v = 0.2, t = 0.2)
movej(p[-0.379253810676981, -0.118727279414687, 0.34441751342565, -1.07607638643163, -1.30405424979025, 1.40634240738947], a = 0.2, v = 0.2, t = 0.2)
movej(p[-0.38048759063448, -0.11861052206339, 0.344407932330016, -1.07720383772759, -1.30325280995475, 1.41658204045721], a = 0.2, v = 0.2, t = 0.2)
movej(p[-0.382694236950464, -0.11835377350514, 0.34423541234859, -1.08334061508634, -1.30857778345403, 1.42234495421369], a = 0.2, v = 0.2, t = 0.2)
movej(p[-0.384349763689767, -0.118140537421919, 0.343814092092413, -1.08232098196984, -1.29898029684996, 1.40994482293794], a = 0.2, v = 0.2, t = 0.2)
movej(p[-0.38582451765314, -0.117943884562763, 0.343450874677495, -1.08087399593349, -1.29338230720338, 1.41687711164737], a = 0.2, v = 0.2, t = 0.2)
movej(p[-0.387964238223651, -0.117699984538739, 0.34307015363997, -1.08735638532121, -1.3036593931629, 1.43050630025508], a = 0.2, v = 0.2, t = 0.2)
movej(p[-0.389875814500235, -0.117486249286827, 0.342549429182228, -1.08915348588492, -1.30831969427396, 1.4230062267934], a = 0.2, v = 0.2, t = 0.2)
movej(p[-0.391214684047517, -0.117360571288209, 0.341988829765509, -1.09288736690323, -1.30246168734156, 1.41548893825706], a = 0.2, v = 0.2, t = 0.2)
movej(p[-0.39268704510302, -0.117184283546822, 0.341631846608379, -1.09594555069386, -1.29406507017281, 1.40716531844277], a = 0.2, v = 0.2, t = 0.2)
movej(p[-0.394110560193185, -0.116987140294513, 0.341413624322299, -1.09753295640808, -1.29456617371777, 1.39124517850036], a = 0.2, v = 0.2, t = 0.2)
movej(p[-0.395351440465557, -0.116832038736502, 0.341128203604166, -1.1010076465446, -1.29753357710789, 1.38695020749355], a = 0.2, v = 0.2, t = 0.2)
movej(p[-0.395894044972754, -0.116782854853939, 0.340915384069194, -1.10012853225351, -1.29559938043123, 1.38908458625774], a = 0.2, v = 0.2, t = 0.2)
movej(p[-0.396295442820385, -0.116703787436929, 0.340768997008684, -1.06115620281576, -1.26610808030214, 1.38003361153784], a = 0.2, v = 0.2, t = 0.2)
movej(p[-0.395297320777196, -0.116734143087144, 0.341195203239751, -1.06119771515251, -1.26591331287218, 1.37903138670866], a = 0.2, v = 0.2, t = 0.2)
movej(p[-0.394299202233739, -0.116764499297563, 0.341621309533647, -1.06124035710776, -1.26571741081705, 1.37802776343911], a = 0.2, v = 0.2, t = 0.2)
movej(p[-0.39330108019055, -0.116794854947777, 0.342047515764714, -1.06128439862355, -1.26552301704875, 1.37702313843476], a = 0.2, v = 0.2, t = 0.2)
movej(p[-0.392302958147361, -0.116825210597992, 0.34247372199578, -1.06132745510274, -1.26532730260709, 1.37601925863839], a = 0.2, v = 0.2, t = 0.2)
movej(p[-0.391304836104172, -0.116855566248207, 0.342899928226847, -1.06136979585352, -1.26513291004489, 1.37501652127709], a = 0.2, v = 0.2, t = 0.2)
movej(p[-0.390306714060983, -0.116885921898422, 0.343326134457914, -1.06141326583121, -1.2649373833021, 1.3740123856235], a = 0.2, v = 0.2, t = 0.2)
movej(p[-0.389308592017794, -0.116916277548637, 0.34375234068898, -1.06145813710249, -1.26474336062003, 1.37300724878617], a = 0.2, v = 0.2, t = 0.2)
movej(p[-0.388310469974605, -0.116946633198851, 0.344178546920047, -1.06150202068403, -1.26454802034413, 1.3720028577312], a = 0.2, v = 0.2, t = 0.2)
movej(p[-0.387312347931416, -0.116976988849066, 0.344604753151114, -1.06154518800978, -1.26435400036232, 1.37099961008569], a = 0.2, v = 0.2, t = 0.2)
movej(p[-0.387719099091026, -0.116831959252491, 0.344547139695452, -1.07150737942403, -1.26694975080705, 1.37359895098102], a = 0.2, v = 0.2, t = 0.2)
movej(p[-0.389712194877507, -0.116520057855813, 0.343882127616869, -1.07700009373274, -1.26765295944908, 1.36599217492877], a = 0.2, v = 0.2, t = 0.2)
movej(p[-0.391175698203068, -0.116288832544821, 0.343477296637782, -1.07399639571208, -1.26363539890552, 1.36210466639071], a = 0.2, v = 0.2, t = 0.2)
movej(p[-0.393108521321181, -0.11601880232169, 0.343118302010128, -1.07357283192358, -1.25909578986687, 1.3503824682025], a = 0.2, v = 0.2, t = 0.2)
movej(p[-0.394762439720305, -0.115779715003806, 0.342793741440331, -1.06746971841495, -1.26683868987308, 1.35311204426508], a = 0.2, v = 0.2, t = 0.2)
movej(p[-0.39567952444264, -0.115683233423572, 0.342787892788009, -1.06782500474513, -1.26627490863783, 1.35209941482359], a = 0.2, v = 0.2, t = 0.2)
movej(p[-0.396311050765674, -0.115544655043251, 0.342414183401155, -1.0682049797546, -1.26590943781381, 1.35179463688874], a = 0.2, v = 0.2, t = 0.2)
movej(p[-0.396703438442835, -0.115503816186194, 0.342413987017611, -1.06844435858503, -1.26558861854446, 1.35132601658701], a = 0.2, v = 0.2, t = 0.2)
movej(p[-0.397115157628534, -0.115440992797582, 0.342311179556937, -1.06854317202657, -1.26545006386944, 1.35112305261797], a = 0.2, v = 0.2, t = 0.2)
movej(p[-0.39742030213598, -0.115383010641618, 0.342176949645347, -1.06854317202657, -1.26545006386944, 1.35112305261797], a = 0.2, v = 0.2, t = 0.2)
movej(p[-0.39742030213598, -0.115383010641618, 0.342176949645347, -1.06854317202657, -1.26545006386944, 1.35112305261797], a = 0.2, v = 0.2, t = 0.2)
movej(p[-0.39742030213598, -0.115383010641618, 0.342176949645347, -1.06770539240678, -1.26645152914157, 1.35237628984769], a = 0.2, v = 0.2, t = 0.2)
movej(p[-0.396668167644225, -0.115503013803575, 0.342391233843161, -1.07609707051514, -1.26516511161255, 1.33980749384228], a = 0.2, v = 0.2, t = 0.2)
movej(p[-0.395439477211054, -0.115692216907321, 0.342722200827867, -1.08610002082726, -1.2628320356627, 1.3252407045018], a = 0.2, v = 0.2, t = 0.2)
movej(p[-0.3940457480257, -0.115886391639363, 0.343041312299503, -1.08484632906489, -1.26163519655386, 1.32853950697609], a = 0.2, v = 0.2, t = 0.2)
movej(p[-0.392430321980916, -0.116056599002093, 0.343210636596362, -1.08186451132447, -1.26067443898259, 1.32857421995592], a = 0.2, v = 0.2, t = 0.2)
movej(p[-0.390816866903801, -0.116292605724297, 0.343544601925712, -1.07378058550671, -1.25760546480085, 1.32913928316782], a = 0.2, v = 0.2, t = 0.2)
movej(p[-0.389722263511259, -0.116418187328937, 0.343788350389526, -1.06975249964811, -1.25570567413199, 1.32167056150435], a = 0.2, v = 0.2, t = 0.2)
movej(p[-0.388387514511247, -0.116590918591444, 0.343802114034328, -1.06286360139244, -1.25506255675229, 1.33353929031051], a = 0.2, v = 0.2, t = 0.2)
movej(p[-0.387379050893143, -0.116738995063866, 0.343855883814645, -1.07175064923482, -1.26407946688022, 1.351093819466], a = 0.2, v = 0.2, t = 0.2)
movej(p[-0.387788399662618, -0.116715862821967, 0.343928125729861, -1.07560965579287, -1.2641261195184, 1.3592043462934], a = 0.2, v = 0.2, t = 0.2)
movej(p[-0.388448166466044, -0.116643953371026, 0.344015267717229, -1.06957186368807, -1.26137128213422, 1.34994182109449], a = 0.2, v = 0.2, t = 0.2)
movej(p[-0.38845212458295, -0.116627388495123, 0.343938565251839, -1.07053530916568, -1.26599808423818, 1.36099683796362], a = 0.2, v = 0.2, t = 0.2)
movej(p[-0.388461083444422, -0.11663174296849, 0.343913487425721, -1.06756966522924, -1.26210605102221, 1.35244866260384], a = 0.2, v = 0.2, t = 0.2)
movej(p[-0.388565029158751, -0.116601712100471, 0.343827603053226, -1.0699293032852, -1.26416252671875, 1.35916115141752], a = 0.2, v = 0.2, t = 0.2)
movej(p[-0.388439639366831, -0.116617838577161, 0.343817999052407, -1.07353557621113, -1.26687853570161, 1.36048708343362], a = 0.2, v = 0.2, t = 0.2)
movej(p[-0.387514438064966, -0.116779000020358, 0.344088292134552, -1.07494027176051, -1.26803560086841, 1.3492020787449], a = 0.2, v = 0.2, t = 0.2)
movej(p[-0.386055335453974, -0.116992427168274, 0.344383708676281, -1.07508341585734, -1.26871785618799, 1.34377198477788], a = 0.2, v = 0.2, t = 0.2)
movej(p[-0.384200186355607, -0.117280242972883, 0.344624747211476, -1.06332374024616, -1.26393015047339, 1.35731964061752], a = 0.2, v = 0.2, t = 0.2)
movej(p[-0.383205601240834, -0.117455199307866, 0.34491240023218, -1.04943190150298, -1.25450322524527, 1.35548490632765], a = 0.2, v = 0.2, t = 0.2)
movej(p[-0.382685665044994, -0.117552742469862, 0.345398655806753, -1.0489182548563, -1.25439125771595, 1.35897008868377], a = 0.2, v = 0.2, t = 0.2)
movej(p[-0.382352163517291, -0.117619624230946, 0.345511829925058, -1.05367966544115, -1.26194492968245, 1.36149701188013], a = 0.2, v = 0.2, t = 0.2)
movej(p[-0.382818746028925, -0.117538922775453, 0.345263250792952, -1.06246246986246, -1.26909162386321, 1.38578668706322], a = 0.2, v = 0.2, t = 0.2)
movej(p[-0.384095823813523, -0.117353831663367, 0.345004445610791, -1.07385212651461, -1.27249106548063, 1.3821389750537], a = 0.2, v = 0.2, t = 0.2)
movej(p[-0.385840566790633, -0.117063030667635, 0.344709992873148, -1.07234103878888, -1.27205647042659, 1.37814946387497], a = 0.2, v = 0.2, t = 0.2)
movej(p[-0.387717034326733, -0.116761498871908, 0.344169935716792, -1.07842004200922, -1.27268863803402, 1.37650260128071], a = 0.2, v = 0.2, t = 0.2)
movej(p[-0.390086413713769, -0.116377953849808, 0.343608556320744, -1.07850118114601, -1.26785282082631, 1.36988627379463], a = 0.2, v = 0.2, t = 0.2)
movej(p[-0.392508111351333, -0.116016298113183, 0.343284179455996, -1.07359368029892, -1.2625836795425, 1.36152323842624], a = 0.2, v = 0.2, t = 0.2)
movej(p[-0.394453544253089, -0.115690607292394, 0.343133445173164, -1.08100617078519, -1.26784151976228, 1.34785414517557], a = 0.2, v = 0.2, t = 0.2)
movej(p[-0.395885547880947, -0.115445314364631, 0.34285511245969, -1.07417858065662, -1.27132263694079, 1.35450783745504], a = 0.2, v = 0.2, t = 0.2)
movej(p[-0.397020127697542, -0.11524700428783, 0.342503788046625, -1.07491059400136, -1.27028352968852, 1.35499746607142], a = 0.2, v = 0.2, t = 0.2)
movej(p[-0.397694486979796, -0.115141484742215, 0.342315279256563, -1.07427179520866, -1.26986148220292, 1.35425446707163], a = 0.2, v = 0.2, t = 0.2)
movej(p[-0.398118755861365, -0.115081805086245, 0.342433567526464, -1.08225983208043, -1.26833473487074, 1.34123310020296], a = 0.2, v = 0.2, t = 0.2)
movej(p[-0.397235957606573, -0.115225879976556, 0.342795306337374, -1.08871149536498, -1.26529834673653, 1.32904443538696], a = 0.2, v = 0.2, t = 0.2)
movej(p[-0.395397850920697, -0.115518089575394, 0.343076190960819, -1.08125127837573, -1.26136242985166, 1.33144169783181], a = 0.2, v = 0.2, t = 0.2)
movej(p[-0.393052330823431, -0.115877877556491, 0.343554119848814, -1.06730138148997, -1.25461904258758, 1.33646435843315], a = 0.2, v = 0.2, t = 0.2)
movej(p[-0.390671016088574, -0.116262367793206, 0.344193535864738, -1.05962504976228, -1.25453328803212, 1.33325364581765], a = 0.2, v = 0.2, t = 0.2)
movej(p[-0.388587117763794, -0.11657016357705, 0.344482811023414, -1.04682020606142, -1.24743896729145, 1.34211181731872], a = 0.2, v = 0.2, t = 0.2)
movej(p[-0.386556736930661, -0.116899213770445, 0.344594466621898, -1.0523378453683, -1.25388294990442, 1.35002671813295], a = 0.2, v = 0.2, t = 0.2)
movej(p[-0.384354081770585, -0.117258136510703, 0.344932802848624, -1.04301631310913, -1.24936607748113, 1.35412574436682], a = 0.2, v = 0.2, t = 0.2)
movej(p[-0.383180022869867, -0.117449903293404, 0.34541068846119, -1.03735261310047, -1.25059037440617, 1.37303794372677], a = 0.2, v = 0.2, t = 0.2)
movej(p[-0.384072250323093, -0.117309561779674, 0.345196693388273, -1.04765468307694, -1.26031781769073, 1.37958823888692], a = 0.2, v = 0.2, t = 0.2)
movej(p[-0.384565289767851, -0.11723743118583, 0.34504965198817, -1.05643016705096, -1.25935056987121, 1.39373801946737], a = 0.2, v = 0.2, t = 0.2)
movej(p[-0.387831221340558, -0.116791460548985, 0.344337905338392, -1.06983150318727, -1.26629750800536, 1.39257049542077], a = 0.2, v = 0.2, t = 0.2)
movej(p[-0.392321922813183, -0.11604914594481, 0.343599145260837, -1.0577850362272, -1.2535338286253, 1.36037235803146], a = 0.2, v = 0.2, t = 0.2)
movej(p[-0.394634391935756, -0.115660206634084, 0.343039344930613, -1.06687855990445, -1.26308681631989, 1.365331443711], a = 0.2, v = 0.2, t = 0.2)
movej(p[-0.395879986572452, -0.115432164243902, 0.342869253045697, -1.072964475741, -1.26618825563304, 1.35231951823833], a = 0.2, v = 0.2, t = 0.2)
movej(p[-0.396502576948235, -0.115342408456309, 0.342700833413302, -1.07128779386682, -1.26585389870784, 1.35014235881441], a = 0.2, v = 0.2, t = 0.2)
movej(p[-0.397039279191689, -0.115239878254856, 0.342551548385045, -1.07142684818026, -1.26499560098154, 1.35089044014491], a = 0.2, v = 0.2, t = 0.2)
movej(p[-0.397276206769456, -0.115213958745478, 0.342211881604322, -1.06994789166049, -1.26458901325089, 1.34953202653775], a = 0.2, v = 0.2, t = 0.2)
movej(p[-0.397483017020611, -0.115182664902028, 0.341995207966379, -1.06974434754282, -1.26396612072054, 1.3495133014889], a = 0.2, v = 0.2, t = 0.2)
movej(p[-0.397731260254767, -0.115139496208982, 0.34187577894714, -1.0702896428866, -1.26335369718092, 1.35064062713517], a = 0.2, v = 0.2, t = 0.2)
movej(p[-0.39814331134622, -0.115088982968263, 0.341705009363945, -1.06940965608264, -1.26356569966538, 1.35149095668075], a = 0.2, v = 0.2, t = 0.2)
movej(p[-0.397195843242783, -0.115208937171585, 0.342499521687371, -1.07482678482106, -1.26253680308662, 1.34907168922771], a = 0.2, v = 0.2, t = 0.2)
movej(p[-0.397441075488489, -0.115675604867139, 0.341325981122417, -1.0729605540133, -1.25911086233447, 1.33930833630017], a = 0.2, v = 0.2, t = 0.2)
movej(p[-0.396687181466309, -0.116041647950237, 0.340695351211427, -1.07684975228746, -1.26248864590352, 1.33777300442133], a = 0.2, v = 0.2, t = 0.2)
movej(p[-0.394568212046943, -0.116395605246721, 0.341086321468683, -1.0713166490458, -1.25916168324146, 1.33176745854934], a = 0.2, v = 0.2, t = 0.2)
movej(p[-0.392855703124623, -0.116658870718261, 0.341403562374732, -1.07865804456179, -1.26934206984753, 1.33859726471706], a = 0.2, v = 0.2, t = 0.2)
movej(p[-0.390930470182639, -0.117018817872626, 0.341612732222379, -1.07040123405091, -1.2622321184002, 1.34309406088486], a = 0.2, v = 0.2, t = 0.2)
movej(p[-0.389828339348878, -0.117213556342747, 0.34160934939399, -1.07804061519561, -1.26822083959808, 1.35147628579195], a = 0.2, v = 0.2, t = 0.2)
movej(p[-0.389348702845231, -0.117312333064348, 0.341702575321921, -1.07261484717733, -1.26938645244454, 1.35411186123703], a = 0.2, v = 0.2, t = 0.2)
movej(p[-0.388869051868384, -0.117411208733027, 0.341795801297664, -1.06718333051694, -1.2705401724979, 1.35675401884019], a = 0.2, v = 0.2, t = 0.2)
movej(p[-0.388389415364736, -0.117509985454628, 0.341889027225594, -1.06174865864738, -1.27168266946896, 1.35940311342136], a = 0.2, v = 0.2, t = 0.2)
movej(p[-0.387359269677608, -0.117544168295498, 0.342688068405184, -1.05821980955813, -1.26126789893562, 1.35846288159662], a = 0.2, v = 0.2, t = 0.2)
movej(p[-0.386305116073888, -0.117766577632485, 0.342610072786173, -1.06215593492133, -1.26584980165581, 1.3657583754092], a = 0.2, v = 0.2, t = 0.2)
movej(p[-0.385562752232182, -0.11791451879633, 0.342762216397829, -1.0633718047093, -1.26819213887717, 1.38132647346951], a = 0.2, v = 0.2, t = 0.2)
movej(p[-0.386759284718582, -0.117767045964838, 0.342545929798704, -1.07534042439967, -1.28060017703075, 1.39149865356094], a = 0.2, v = 0.2, t = 0.2)
movej(p[-0.389624795985925, -0.117283199668583, 0.342091919261019, -1.07592312407861, -1.27927072326294, 1.39389745668646], a = 0.2, v = 0.2, t = 0.2)
movej(p[-0.39188882515804, -0.116949048328186, 0.341486301799645, -1.07909120078665, -1.28134520591644, 1.38998674356624], a = 0.2, v = 0.2, t = 0.2)
movej(p[-0.394967648069487, -0.116389258566083, 0.341067553316426, -1.07337289772972, -1.27214193970161, 1.37649867324904], a = 0.2, v = 0.2, t = 0.2)
movej(p[-0.398230906714381, -0.11587469979743, 0.340521232824289, -1.08310133167173, -1.28005608095451, 1.36488422214328], a = 0.2, v = 0.2, t = 0.2)
movej(p[-0.399378536734222, -0.115649933375556, 0.340099972983861, -1.07401497571594, -1.27319463659939, 1.3621917352504], a = 0.2, v = 0.2, t = 0.2)
movej(p[-0.400402699131684, -0.115368447824144, 0.340206205784679, -1.07187477778147, -1.26862792779214, 1.35933089683967], a = 0.2, v = 0.2, t = 0.2)
movej(p[-0.400926208100584, -0.115305125334238, 0.340047772922703, -1.0706026532782, -1.26859710122516, 1.35971746847653], a = 0.2, v = 0.2, t = 0.2)
movej(p[-0.400407736586255, -0.115363504160915, 0.340249481577512, -1.07783204281116, -1.26862897255709, 1.35049167807118], a = 0.2, v = 0.2, t = 0.2)
movej(p[-0.398795262540707, -0.115610746825046, 0.340634376183177, -1.07851880129489, -1.26616600082085, 1.34883061798831], a = 0.2, v = 0.2, t = 0.2)
movej(p[-0.396580948529163, -0.115978734186448, 0.341063512210707, -1.06958358994442, -1.26167258611681, 1.35336757203995], a = 0.2, v = 0.2, t = 0.2)
movej(p[-0.394290791601675, -0.116278150959313, 0.341642604020015, -1.05682899459176, -1.25672181146649, 1.34980309181612], a = 0.2, v = 0.2, t = 0.2)
movej(p[-0.392186127452447, -0.11657725799538, 0.341914692957551, -1.05017768379173, -1.25414412904882, 1.35047603347082], a = 0.2, v = 0.2, t = 0.2)
movej(p[-0.390577780099922, -0.116937411039986, 0.342039701229629, -1.04540367386764, -1.25401501017595, 1.34925895210749], a = 0.2, v = 0.2, t = 0.2)
movej(p[-0.388449022276351, -0.11733994877909, 0.342251588551524, -1.04009355742644, -1.25434397108782, 1.35731035525105], a = 0.2, v = 0.2, t = 0.2)
movej(p[-0.386318727197762, -0.117652538473174, 0.342836752709083, -1.04089649993539, -1.25769365409693, 1.36565614831221], a = 0.2, v = 0.2, t = 0.2)
movej(p[-0.386245510945027, -0.117646103414662, 0.342984347019127, -1.05397448462963, -1.2647553489857, 1.38317539630504], a = 0.2, v = 0.2, t = 0.2)
movej(p[-0.387973059334527, -0.117605530462875, 0.342309355213607, -1.06113378778097, -1.26797656968588, 1.38400339848575], a = 0.2, v = 0.2, t = 0.2)
movej(p[-0.390776318207025, -0.117157381202787, 0.34179032513313, -1.06447589613947, -1.26654113679872, 1.39139134340202], a = 0.2, v = 0.2, t = 0.2)
movej(p[-0.393933409401696, -0.1165818387322, 0.341193315582887, -1.06356615919667, -1.26306437630379, 1.36562363007925], a = 0.2, v = 0.2, t = 0.2)
movej(p[-0.395919087628996, -0.116146209528469, 0.340845149854413, -1.07225286642016, -1.26931855870912, 1.35386433289662], a = 0.2, v = 0.2, t = 0.2)
movej(p[-0.39654469971813, -0.116143901349807, 0.340489508228276, -1.07749943782779, -1.2678448239088, 1.35433235299516], a = 0.2, v = 0.2, t = 0.2)
movej(p[-0.396949508067436, -0.116084484726787, 0.340447115950201, -1.07424778023292, -1.26593801594206, 1.36259594969984], a = 0.2, v = 0.2, t = 0.2)
movej(p[-0.398305126681472, -0.115821133721011, 0.340404256750061, -1.08126414816124, -1.27575264885616, 1.35274306508246], a = 0.2, v = 0.2, t = 0.2)
movej(p[-0.399506620704776, -0.115592587142194, 0.340058708398486, -1.06884625490657, -1.26921113740407, 1.36061790359879], a = 0.2, v = 0.2, t = 0.2)
movej(p[-0.40016254854824, -0.115423981089228, 0.339984472941509, -1.06443741040585, -1.26763496648615, 1.35815780181201], a = 0.2, v = 0.2, t = 0.2)
movej(p[-0.400606661066684, -0.115380531450174, 0.339711400716947, -1.06560901761598, -1.26540667249768, 1.35778758313837], a = 0.2, v = 0.2, t = 0.2)
movej(p[-0.400802487205734, -0.11530888403345, 0.339785299167143, -1.06933347318276, -1.26181958036905, 1.35360031844172], a = 0.2, v = 0.2, t = 0.2)
movej(p[-0.399863705808761, -0.11548897402795, 0.34006662995568, -1.07731929484642, -1.26803478443017, 1.34321818172543], a = 0.2, v = 0.2, t = 0.2)
movej(p[-0.398500998794549, -0.115728644080505, 0.340330547308888, -1.07962736336287, -1.26292317585542, 1.33945980952831], a = 0.2, v = 0.2, t = 0.2)
movej(p[-0.396598319642663, -0.116067979390402, 0.340663268637383, -1.08142096239433, -1.25854070467345, 1.33125883640854], a = 0.2, v = 0.2, t = 0.2)
movej(p[-0.394970655667244, -0.116168082741487, 0.341448859110992, -1.06442611098684, -1.25932980920231, 1.32738146781967], a = 0.2, v = 0.2, t = 0.2)
movej(p[-0.393249275417139, -0.116532268833432, 0.3414691683449, -1.0635368747515, -1.25538104633535, 1.31720978536282], a = 0.2, v = 0.2, t = 0.2)
movej(p[-0.391475572044143, -0.116963706204526, 0.341456002121172, -1.05871754241294, -1.25283671062483, 1.31879417222179], a = 0.2, v = 0.2, t = 0.2)
movej(p[-0.389497166472791, -0.117412696454194, 0.34166240815535, -1.05075452574807, -1.25108297869947, 1.32790617792461], a = 0.2, v = 0.2, t = 0.2)
movej(p[-0.388714884688333, -0.117564176413868, 0.341858602246804, -1.0510850866755, -1.25887570326621, 1.34929175932868], a = 0.2, v = 0.2, t = 0.2)
movej(p[-0.388601697709377, -0.117491097080392, 0.342126499930284, -1.05488197546724, -1.26297428425827, 1.36367880929434], a = 0.2, v = 0.2, t = 0.2)
movej(p[-0.391410128942721, -0.117126466111921, 0.341418600075494, -1.06009166338745, -1.2603860062878, 1.36506312487384], a = 0.2, v = 0.2, t = 0.2)
movej(p[-0.394488676103723, -0.116775855872666, 0.340546128701975, -1.06658105333795, -1.26189527021175, 1.36346203705054], a = 0.2, v = 0.2, t = 0.2)
movej(p[-0.39665624362192, -0.116456455034585, 0.340241106836051, -1.06365823995438, -1.26054414738822, 1.35144711272187], a = 0.2, v = 0.2, t = 0.2)
movej(p[-0.397896935209007, -0.116076727670056, 0.340025464993263, -1.07141663925208, -1.26971556812178, 1.34925434474928], a = 0.2, v = 0.2, t = 0.2)
movej(p[-0.398655681552943, -0.116082874234124, 0.339676234102141, -1.06490794318612, -1.2683640582379, 1.34653238200541], a = 0.2, v = 0.2, t = 0.2)
movej(p[-0.398909743168202, -0.115870622817168, 0.339649920006069, -1.07913902814374, -1.2805318422042, 1.33818884431257], a = 0.2, v = 0.2, t = 0.2)
movej(p[-0.399550511493602, -0.115840348234879, 0.339431338252872, -1.07886652524664, -1.28245497077973, 1.35266703466779], a = 0.2, v = 0.2, t = 0.2)
movej(p[-0.399961969415384, -0.115874903244286, 0.339347579134394, -1.07564085339844, -1.27559670063213, 1.33800874927058], a = 0.2, v = 0.2, t = 0.2)
movej(p[-0.400041270890169, -0.115856826842581, 0.339271305286987, -1.07528405016311, -1.28294884350809, 1.35010771982688], a = 0.2, v = 0.2, t = 0.2)
movej(p[-0.400141296163294, -0.115899900944272, 0.339179889771346, -1.07058606072853, -1.28029269493061, 1.3528310851348], a = 0.2, v = 0.2, t = 0.2)
movej(p[-0.400572729459886, -0.115848950590199, 0.339088045653344, -1.07967732501746, -1.28292443330887, 1.34911078706901], a = 0.2, v = 0.2, t = 0.2)
movej(p[-0.400712120872059, -0.115833412685678, 0.339189900931732, -1.06898565701853, -1.27025531000195, 1.3551262007696], a = 0.2, v = 0.2, t = 0.2)
movej(p[-0.401153861741863, -0.115360503056211, 0.339533527322312, -1.06178241198394, -1.26615309032959, 1.35582360903032], a = 0.2, v = 0.2, t = 0.2)
movej(p[-0.401420272574861, -0.115380348581793, 0.339369559144986, -1.06296715845351, -1.26529131003664, 1.3580743111335], a = 0.2, v = 0.2, t = 0.2)
movej(p[-0.401655144469228, -0.115342575237369, 0.339304926818033, -1.06414668617264, -1.26532666918659, 1.35961896527124], a = 0.2, v = 0.2, t = 0.2)
movej(p[-0.40182102876076, -0.115179393442871, 0.339456313289579, -1.06531695010254, -1.26731099055339, 1.35962696948305], a = 0.2, v = 0.2, t = 0.2)
movej(p[-0.401618096965243, -0.115160558382412, 0.339594392458412, -1.07294245700234, -1.2690367017286, 1.35781502086931], a = 0.2, v = 0.2, t = 0.2)
movej(p[-0.401113268831823, -0.115260080690346, 0.339721562250154, -1.08583826844573, -1.2705265910713, 1.35454422917043], a = 0.2, v = 0.2, t = 0.2)
movej(p[-0.399995619629813, -0.115456252826618, 0.340001422311965, -1.07939401413495, -1.26455681924624, 1.35079116698975], a = 0.2, v = 0.2, t = 0.2)
movej(p[-0.398717296986944, -0.115642444709096, 0.340324330369509, -1.07349338549943, -1.25954473508184, 1.34641862290186], a = 0.2, v = 0.2, t = 0.2)
movej(p[-0.396740510392032, -0.115895919239932, 0.340721917894959, -1.07563002826182, -1.26174039811906, 1.34010428288114], a = 0.2, v = 0.2, t = 0.2)
movej(p[-0.394797778006837, -0.116346569999054, 0.340970208013199, -1.0712899147865, -1.26239429762626, 1.33748692434658], a = 0.2, v = 0.2, t = 0.2)
movej(p[-0.392586175650643, -0.116853066406386, 0.341277638407659, -1.05715519627854, -1.25369813023057, 1.34684677353649], a = 0.2, v = 0.2, t = 0.2)
movej(p[-0.390490067032881, -0.117156917926473, 0.341850342219664, -1.05626466370051, -1.25322035108106, 1.35483558908692], a = 0.2, v = 0.2, t = 0.2)
movej(p[-0.388275381487361, -0.117654903204862, 0.342315215951956, -1.05117220195653, -1.25604020554777, 1.35519224989771], a = 0.2, v = 0.2, t = 0.2)
movej(p[-0.386113253313983, -0.118073414781318, 0.342662209773598, -1.0449321007233, -1.25078985749874, 1.35178830362636], a = 0.2, v = 0.2, t = 0.2)
movej(p[-0.384929859124429, -0.118255532372203, 0.342923578584322, -1.03792407068859, -1.25062070609175, 1.37219125058802], a = 0.2, v = 0.2, t = 0.2)
movej(p[-0.38490533858864, -0.118131355829673, 0.343174882682199, -1.03549760854062, -1.25078386772354, 1.38154764747658], a = 0.2, v = 0.2, t = 0.2)
movej(p[-0.385217996759242, -0.118097510161317, 0.343051357668177, -1.03488688683319, -1.25272506239607, 1.3958616623656], a = 0.2, v = 0.2, t = 0.2)
movej(p[-0.386398401316086, -0.118001394845897, 0.342728427337727, -1.04643594126202, -1.25956591186844, 1.39330116168925], a = 0.2, v = 0.2, t = 0.2)
movej(p[-0.387649856055316, -0.117915484160805, 0.342376322410403, -1.05218931908195, -1.26161267040741, 1.39189949742175], a = 0.2, v = 0.2, t = 0.2)
movej(p[-0.389280488896652, -0.117539253521332, 0.342112716923592, -1.05579234378347, -1.25666853681385, 1.36961406623548], a = 0.2, v = 0.2, t = 0.2)
movej(p[-0.393320799531568, -0.116946673704745, 0.341072443750643, -1.05831251342707, -1.25554025663657, 1.35596168128061], a = 0.2, v = 0.2, t = 0.2)
movej(p[-0.395864691494744, -0.116385851220474, 0.340654168624887, -1.05632261565863, -1.25321450987358, 1.35014380130099], a = 0.2, v = 0.2, t = 0.2)
movej(p[-0.397411022854059, -0.116106993570631, 0.340288394106469, -1.05359081413587, -1.247001303427, 1.34398104237941], a = 0.2, v = 0.2, t = 0.2)
movej(p[-0.39877680763715, -0.115584488930715, 0.340237834067482, -1.06351881579954, -1.2511997093074, 1.33237509922728], a = 0.2, v = 0.2, t = 0.2)
movej(p[-0.399263660978055, -0.1155770596474, 0.340058618414708, -1.06827870886353, -1.26013531637384, 1.34125775565937], a = 0.2, v = 0.2, t = 0.2)
movej(p[-0.399712208018415, -0.115604550813795, 0.339885861827699, -1.07132017627786, -1.26202051077493, 1.33653980206026], a = 0.2, v = 0.2, t = 0.2)
movej(p[-0.400075783263352, -0.115456214900676, 0.339875448463808, -1.06710475616446, -1.25320946436532, 1.33930452152244], a = 0.2, v = 0.2, t = 0.2)
movej(p[-0.400545303082697, -0.115247658981625, 0.339905831154128, -1.07485908793926, -1.26280534685612, 1.33901603913815], a = 0.2, v = 0.2, t = 0.2)
movej(p[-0.400730517182417, -0.115258827019564, 0.339813717842422, -1.06813315688702, -1.25434743532506, 1.33871506818628], a = 0.2, v = 0.2, t = 0.2)
movej(p[-0.401066220025346, -0.115242400152703, 0.339689996788052, -1.07654658470975, -1.26123164786133, 1.33212691858104], a = 0.2, v = 0.2, t = 0.2)
movej(p[-0.401239667429029, -0.115230588694299, 0.339670088307293, -1.07626040633766, -1.25866891630532, 1.34217174137452], a = 0.2, v = 0.2, t = 0.2)
movej(p[-0.400387557646189, -0.115053262587544, 0.340154177503466, -1.07679413609107, -1.25230814743456, 1.334304604709], a = 0.2, v = 0.2, t = 0.2)
movej(p[-0.398756695754741, -0.115261734501432, 0.34054161298473, -1.07449467562266, -1.24586495892019, 1.334619878892], a = 0.2, v = 0.2, t = 0.2)
movej(p[-0.396334962576324, -0.115698083421414, 0.341050322855466, -1.07078456676703, -1.24653238588354, 1.32922497310359], a = 0.2, v = 0.2, t = 0.2)
movej(p[-0.393871252858599, -0.116166198011135, 0.341545333004534, -1.06113599493273, -1.2368612097589, 1.34030383867822], a = 0.2, v = 0.2, t = 0.2)
movej(p[-0.391692435761711, -0.116564215417731, 0.342024010685604, -1.05145755807208, -1.23184740576694, 1.33744600727913], a = 0.2, v = 0.2, t = 0.2)
movej(p[-0.389426589832403, -0.117145862163894, 0.342310850758324, -1.04683635260566, -1.23655003491985, 1.33562001184543], a = 0.2, v = 0.2, t = 0.2)
movej(p[-0.386993795448843, -0.117720530879321, 0.34268506388587, -1.03889392313955, -1.23557577918297, 1.33951924701439], a = 0.2, v = 0.2, t = 0.2)
movej(p[-0.384857455150833, -0.118067637596874, 0.343210572361278, -1.03127516792821, -1.23102640644405, 1.35584495731355], a = 0.2, v = 0.2, t = 0.2)
movej(p[-0.38454178416773, -0.1180695146213, 0.343325707573991, -1.03295763086479, -1.23333984682876, 1.35927726814437], a = 0.2, v = 0.2, t = 0.2)
movej(p[-0.384226003325984, -0.118071476690574, 0.343440739353382, -1.03463981916, -1.23566652277319, 1.36270518201286], a = 0.2, v = 0.2, t = 0.2)
movej(p[-0.384870139504997, -0.118195508151595, 0.343234947930911, -1.04118512330868, -1.24129467724278, 1.37961327913198], a = 0.2, v = 0.2, t = 0.2)
movej(p[-0.386968412092398, -0.11812292496227, 0.342620289066507, -1.05070214331367, -1.23876949417538, 1.37906158396741], a = 0.2, v = 0.2, t = 0.2)
movej(p[-0.391384057917991, -0.117174220584341, 0.341784685191326, -1.05567685486179, -1.23993879565232, 1.35809147030158], a = 0.2, v = 0.2, t = 0.2)
movej(p[-0.395986025914869, -0.11637387461631, 0.340678162987676, -1.05787641522515, -1.24334961862251, 1.35483722239787], a = 0.2, v = 0.2, t = 0.2)
movej(p[-0.397795488439348, -0.116072474407859, 0.340288756224956, -1.05918264748927, -1.24836758796749, 1.35556482250465], a = 0.2, v = 0.2, t = 0.2)
movej(p[-0.398520167672606, -0.115825019442535, 0.340150144721025, -1.06402883112763, -1.25214864296348, 1.34925417531732], a = 0.2, v = 0.2, t = 0.2)
movej(p[-0.399264033808082, -0.115697605835228, 0.340010576582958, -1.0694814677566, -1.25636946929739, 1.34683400504058], a = 0.2, v = 0.2, t = 0.2)
movej(p[-0.399517949855333, -0.115713475052562, 0.339901083072239, -1.06935536407915, -1.25870636166117, 1.35127905037141], a = 0.2, v = 0.2, t = 0.2)
movej(p[-0.399682698936829, -0.115802888542984, 0.33984341351461, -1.07642777568884, -1.26503599234416, 1.35574432587977], a = 0.2, v = 0.2, t = 0.2)
movej(p[-0.399964056567274, -0.115794627411471, 0.339834208217437, -1.07318293335826, -1.25903312538283, 1.35271368241603], a = 0.2, v = 0.2, t = 0.2)
movej(p[-0.400470493258367, -0.115562227664354, 0.339730364992065, -1.07707230566347, -1.26162993297916, 1.34613741880066], a = 0.2, v = 0.2, t = 0.2)
movej(p[-0.400641923836008, -0.115722275139136, 0.339624094427628, -1.08479813004469, -1.26707964628689, 1.34629142370467], a = 0.2, v = 0.2, t = 0.2)
movej(p[-0.40098671354027, -0.115696741486169, 0.339554874615427, -1.08644774964228, -1.27178933046803, 1.35388701867578], a = 0.2, v = 0.2, t = 0.2)
movej(p[-0.401206966155931, -0.115538634525423, 0.339596323189078, -1.08674235333653, -1.26978704215563, 1.35609546351533], a = 0.2, v = 0.2, t = 0.2)
movej(p[-0.401687922551223, -0.115222812453554, 0.339609894657245, -1.08709028297306, -1.27018850194723, 1.35527377200215], a = 0.2, v = 0.2, t = 0.2)
movej(p[-0.40190969164865, -0.115337374680418, 0.339486720375828, -1.0920047562496, -1.27714481775503, 1.35488218121644], a = 0.2, v = 0.2, t = 0.2)
movej(p[-0.401811715975056, -0.115393481599069, 0.339494310571035, -1.0929664613436, -1.27005373867931, 1.35622193321477], a = 0.2, v = 0.2, t = 0.2)
movej(p[-0.40094613038305, -0.11540850996555, 0.339812101242881, -1.0935492991378, -1.25791513917819, 1.3625579207356], a = 0.2, v = 0.2, t = 0.2)
movej(p[-0.400025840943782, -0.115341614601504, 0.340221375965093, -1.09440177525846, -1.25545681932144, 1.35544256343936], a = 0.2, v = 0.2, t = 0.2)
movej(p[-0.398939305898802, -0.115389117375925, 0.340516301553087, -1.09043630599792, -1.25378715061261, 1.35322371455704], a = 0.2, v = 0.2, t = 0.2)
movej(p[-0.398039802686431, -0.115685287650012, 0.340644461022816, -1.09184696121788, -1.25077771672174, 1.34840204547734], a = 0.2, v = 0.2, t = 0.2)
movej(p[-0.394984014294828, -0.116471016736875, 0.341216877923162, -1.09077287768953, -1.25038137452578, 1.34912951206504], a = 0.2, v = 0.2, t = 0.2)
movej(p[-0.392209747261428, -0.116802967922595, 0.341883664528973, -1.08088279230093, -1.25020390150624, 1.35236745252563], a = 0.2, v = 0.2, t = 0.2)
movej(p[-0.38959635196494, -0.117327109298714, 0.342376248422471, -1.07661249883941, -1.25052573362403, 1.3497917073505], a = 0.2, v = 0.2, t = 0.2)
movej(p[-0.387081690865614, -0.118008415234096, 0.342827542249093, -1.07195435220509, -1.24917730384562, 1.35559223541282], a = 0.2, v = 0.2, t = 0.2)
movej(p[-0.385313832445814, -0.118364317806287, 0.343202201102787, -1.0623577540281, -1.24716390359326, 1.36697562182911], a = 0.2, v = 0.2, t = 0.2)
movej(p[-0.384997489014851, -0.118056384569186, 0.343423744067413, -1.05516498912626, -1.24842626884144, 1.38517929377519], a = 0.2, v = 0.2, t = 0.2)
movej(p[-0.384714895249133, -0.118218879743087, 0.343455984601471, -1.05335488671869, -1.252259210828, 1.38309527095079], a = 0.2, v = 0.2, t = 0.2)
movej(p[-0.384970528427567, -0.118384503370183, 0.343285651891074, -1.05769657588228, -1.25024150487863, 1.39827642954877], a = 0.2, v = 0.2, t = 0.2)
movej(p[-0.386317475892211, -0.118438089108645, 0.342919361506104, -1.06612975631034, -1.25529626617926, 1.40350889950666], a = 0.2, v = 0.2, t = 0.2)
movej(p[-0.388601709580949, -0.11804408353025, 0.342414679260099, -1.08231629342906, -1.26413677345425, 1.38979312745996], a = 0.2, v = 0.2, t = 0.2)
movej(p[-0.390307042311779, -0.117939238069591, 0.341907955630754, -1.08805355289584, -1.26562987194673, 1.37988449975258], a = 0.2, v = 0.2, t = 0.2)
movej(p[-0.392445701726396, -0.11771170697495, 0.341422323239701, -1.08506665416045, -1.26003075871152, 1.37823061806616], a = 0.2, v = 0.2, t = 0.2)
movej(p[-0.394746711171815, -0.11717967782013, 0.340914052632131, -1.08218659050903, -1.2533166757589, 1.37170425065072], a = 0.2, v = 0.2, t = 0.2)
movej(p[-0.396850046598084, -0.116424494238146, 0.340604538719519, -1.08479320184506, -1.26023010741947, 1.36787251312125], a = 0.2, v = 0.2, t = 0.2)
movej(p[-0.398139720155705, -0.116261097639843, 0.340255639283525, -1.08625669075871, -1.26371245731405, 1.3632093480686], a = 0.2, v = 0.2, t = 0.2)
movej(p[-0.399406725386073, -0.116088409432395, 0.339933811473619, -1.08647031324325, -1.26563647714987, 1.36100139880073], a = 0.2, v = 0.2, t = 0.2)
movej(p[-0.400157145035907, -0.115898787756107, 0.339797526261564, -1.08474206679706, -1.26124458680059, 1.35667103840277], a = 0.2, v = 0.2, t = 0.2)
movej(p[-0.400913973106899, -0.115404423684704, 0.339789238568072, -1.08797827057986, -1.2666550623756, 1.35887766143244], a = 0.2, v = 0.2, t = 0.2)
movej(p[-0.401035001614199, -0.11530944085893, 0.339788041392769, -1.09073498218734, -1.26972070666164, 1.36196594377195], a = 0.2, v = 0.2, t = 0.2)
movej(p[-0.401174461878496, -0.115580759499177, 0.339625940220235, -1.09066833134959, -1.26944412650959, 1.3574906118873], a = 0.2, v = 0.2, t = 0.2)
movej(p[-0.401322793365913, -0.115626536770229, 0.339569552444118, -1.09623871542105, -1.26326736794031, 1.35367561852767], a = 0.2, v = 0.2, t = 0.2)
movej(p[-0.399259740333091, -0.115465003288982, 0.340286696758883, -1.09256663023856, -1.25281258722437, 1.34996512016015], a = 0.2, v = 0.2, t = 0.2)
movej(p[-0.396772726261864, -0.115964761062044, 0.340817491067237, -1.09262815342443, -1.25243854772619, 1.34597372345413], a = 0.2, v = 0.2, t = 0.2)
movej(p[-0.394451845311211, -0.116636110780789, 0.341263707716453, -1.08757732792961, -1.24825147614889, 1.34543431269129], a = 0.2, v = 0.2, t = 0.2)
movej(p[-0.392261484626797, -0.11724127421068, 0.341667794978434, -1.08147443188801, -1.24437832417064, 1.35214692006519], a = 0.2, v = 0.2, t = 0.2)
movej(p[-0.390244171391925, -0.117496660216356, 0.342155631590957, -1.08253943746623, -1.25078666813628, 1.35187345888676], a = 0.2, v = 0.2, t = 0.2)
movej(p[-0.388522813264939, -0.117901736172473, 0.342476859731746, -1.07832824424151, -1.24947525295138, 1.35339165932465], a = 0.2, v = 0.2, t = 0.2)
movej(p[-0.387038214458413, -0.118338338781455, 0.342739413565257, -1.07828573492169, -1.25272203934641, 1.36214112643467], a = 0.2, v = 0.2, t = 0.2)
movej(p[-0.385650404101212, -0.118680422724792, 0.343068567082867, -1.07363544814697, -1.25249145906286, 1.36569469912906], a = 0.2, v = 0.2, t = 0.2)
movej(p[-0.38522194219444, -0.11853996694993, 0.343203970294623, -1.06855422761966, -1.25277417127309, 1.37862743818563], a = 0.2, v = 0.2, t = 0.2)
movej(p[-0.385517942890991, -0.118636861867857, 0.343133027764914, -1.07660491873662, -1.26082719428471, 1.38896876433593], a = 0.2, v = 0.2, t = 0.2)
movej(p[-0.386479348364448, -0.118785420236053, 0.342823412088882, -1.08360447110885, -1.26161667377509, 1.39513150059497], a = 0.2, v = 0.2, t = 0.2)
movej(p[-0.388149585166275, -0.118787694660084, 0.342376297737938, -1.08830515656167, -1.26662131699368, 1.40012266098283], a = 0.2, v = 0.2, t = 0.2)
movej(p[-0.390285608320783, -0.118109748457317, 0.342081069471066, -1.08972981580943, -1.26510391000357, 1.39890996282604], a = 0.2, v = 0.2, t = 0.2)
movej(p[-0.392515402540801, -0.117837477534938, 0.341509421877528, -1.09576672151647, -1.26500753418241, 1.38273960299995], a = 0.2, v = 0.2, t = 0.2)
movej(p[-0.394361509979328, -0.117534175309502, 0.341090068118201, -1.10038078348183, -1.26582729468412, 1.37699027684425], a = 0.2, v = 0.2, t = 0.2)
movej(p[-0.396224245245233, -0.117098674538475, 0.340698273021768, -1.10102772647938, -1.2678202275215, 1.3730080189884], a = 0.2, v = 0.2, t = 0.2)
movej(p[-0.39789300115879, -0.116594344741406, 0.340367742075021, -1.0921896427415, -1.26263660600742, 1.37322600969763], a = 0.2, v = 0.2, t = 0.2)
movej(p[-0.399010038582242, -0.116216855672389, 0.340128170170615, -1.09858795369709, -1.27031907956271, 1.3634335872261], a = 0.2, v = 0.2, t = 0.2)
movej(p[-0.399523172393418, -0.116150183561595, 0.339996372175676, -1.10072609333668, -1.27293546058471, 1.36682078809045], a = 0.2, v = 0.2, t = 0.2)
movej(p[-0.400266057679252, -0.115996351300769, 0.33985371977429, -1.09819483054573, -1.27206743228763, 1.36983567515295], a = 0.2, v = 0.2, t = 0.2)
movej(p[-0.401233873081498, -0.115545549101972, 0.339706172613235, -1.09617270982995, -1.27172666263387, 1.36736776989472], a = 0.2, v = 0.2, t = 0.2)
movej(p[-0.401687931628984, -0.115334155250537, 0.339674459287482, -1.09570397899336, -1.27673335073797, 1.36187689439994], a = 0.2, v = 0.2, t = 0.2)
movej(p[-0.401860634836041, -0.11554742648845, 0.33961175879824, -1.10283199756956, -1.27523453965209, 1.36355016992575], a = 0.2, v = 0.2, t = 0.2)
movej(p[-0.401838685179137, -0.115543476016472, 0.339678810616507, -1.10625632212907, -1.27174028180268, 1.36404505613742], a = 0.2, v = 0.2, t = 0.2)
movej(p[-0.400869590766716, -0.115628967093907, 0.339992771084548, -1.10380297312592, -1.26395300195138, 1.36427344681837], a = 0.2, v = 0.2, t = 0.2)
movej(p[-0.399580753223672, -0.115377398056239, 0.340377997948781, -1.100831660755, -1.25795982936159, 1.35622993658536], a = 0.2, v = 0.2, t = 0.2)
movej(p[-0.397577053709465, -0.115919697730522, 0.340819088937169, -1.10353695099575, -1.25756366235005, 1.36110553799568], a = 0.2, v = 0.2, t = 0.2)
movej(p[-0.395329795310532, -0.116671065405177, 0.341223704305034, -1.10380114375792, -1.25617563657749, 1.35570270131731], a = 0.2, v = 0.2, t = 0.2)
movej(p[-0.393097876026312, -0.116967742789901, 0.34167603928944, -1.09386482890905, -1.25494164819291, 1.36070745534592], a = 0.2, v = 0.2, t = 0.2)
movej(p[-0.391215830204167, -0.117130139502134, 0.342138172821226, -1.08679478646119, -1.2532972681155, 1.3596551057312], a = 0.2, v = 0.2, t = 0.2)
movej(p[-0.38934694256297, -0.117555782329393, 0.342454049677275, -1.08411590665998, -1.25036758788144, 1.36683389094676], a = 0.2, v = 0.2, t = 0.2)
movej(p[-0.387547992430731, -0.118018814935561, 0.342824517917938, -1.07709371931396, -1.2510659059095, 1.37191630544484], a = 0.2, v = 0.2, t = 0.2)
movej(p[-0.385779933620923, -0.118202581535292, 0.343187698233877, -1.06819538154642, -1.25178495178448, 1.37625708093416], a = 0.2, v = 0.2, t = 0.2)
movej(p[-0.385556476861214, -0.118064826488447, 0.343319989252502, -1.0639145359951, -1.24808927866384, 1.38661422917615], a = 0.2, v = 0.2, t = 0.2)
movej(p[-0.385573612519778, -0.118272823952569, 0.343262818244776, -1.07248756468061, -1.25544668493454, 1.39720860367147], a = 0.2, v = 0.2, t = 0.2)
movej(p[-0.386524337749732, -0.118625201711724, 0.342913245488426, -1.08108114779446, -1.26595260757632, 1.40377327278979], a = 0.2, v = 0.2, t = 0.2)
movej(p[-0.38757670426661, -0.118535976282708, 0.34269794038637, -1.0863228741297, -1.26313368481773, 1.40381404976407], a = 0.2, v = 0.2, t = 0.2)
movej(p[-0.389899363759139, -0.118254709788611, 0.342212946880163, -1.09293282585568, -1.26516829625109, 1.39518274192498], a = 0.2, v = 0.2, t = 0.2)
movej(p[-0.393209989224622, -0.117701579449144, 0.341501264124398, -1.09926187355599, -1.26192716759867, 1.38166844473776], a = 0.2, v = 0.2, t = 0.2)
movej(p[-0.395795308218157, -0.117255931891361, 0.340944096783366, -1.09783972187368, -1.26581191819876, 1.37698949926885], a = 0.2, v = 0.2, t = 0.2)
movej(p[-0.397437613359479, -0.116831215572036, 0.340606281551492, -1.09422246233514, -1.2584279287132, 1.36250482956308], a = 0.2, v = 0.2, t = 0.2)
movej(p[-0.399199618480664, -0.116023459101595, 0.340334251024939, -1.09447013559909, -1.26325749241113, 1.35573305400347], a = 0.2, v = 0.2, t = 0.2)
movej(p[-0.399798423273107, -0.115932045206357, 0.340161887193741, -1.090459267957, -1.26457927049047, 1.36104837992409], a = 0.2, v = 0.2, t = 0.2)
movej(p[-0.400349249402955, -0.115852598249509, 0.340020931010039, -1.09542759852726, -1.26565688397082, 1.36329261252824], a = 0.2, v = 0.2, t = 0.2)
movej(p[-0.400786382112487, -0.115674833415896, 0.33993768133624, -1.0926349638343, -1.26218843665522, 1.35628207384963], a = 0.2, v = 0.2, t = 0.2)
movej(p[-0.401170012599184, -0.115371053322085, 0.339948412332522, -1.09411691102028, -1.26375532520403, 1.35709656948529], a = 0.2, v = 0.2, t = 0.2)
movej(p[-0.400802802310788, -0.115474264789745, 0.340007376194671, -1.09635019450071, -1.25908912512279, 1.35114605136307], a = 0.2, v = 0.2, t = 0.2)
movej(p[-0.398921304077234, -0.115700518199213, 0.340458879939769, -1.10113449084257, -1.25561587107189, 1.34247373427072], a = 0.2, v = 0.2, t = 0.2)
movej(p[-0.396676554259538, -0.116020333090398, 0.341013960061314, -1.09623049295558, -1.24450563549491, 1.34133337802427], a = 0.2, v = 0.2, t = 0.2)
movej(p[-0.394671311804841, -0.11612890139823, 0.341541221410562, -1.09005588363601, -1.24737974774338, 1.33530414038094], a = 0.2, v = 0.2, t = 0.2)
movej(p[-0.392368272054128, -0.116748107223673, 0.341939440185074, -1.09006519138159, -1.24730363056726, 1.33851272565459], a = 0.2, v = 0.2, t = 0.2)
movej(p[-0.390207132509368, -0.117518149981772, 0.342314155315242, -1.08512667830129, -1.24437047741686, 1.34692434431974], a = 0.2, v = 0.2, t = 0.2)
movej(p[-0.38840264730838, -0.117756991288078, 0.342746612862081, -1.07832653787393, -1.24485600547992, 1.35824964879089], a = 0.2, v = 0.2, t = 0.2)
movej(p[-0.388055278594686, -0.117832061300686, 0.342840835629784, -1.08623690897774, -1.23797962453243, 1.36524795228759], a = 0.2, v = 0.2, t = 0.2)
movej(p[-0.388095171541705, -0.118333056098886, 0.342744778017103, -1.09226702565016, -1.23946155205637, 1.3684709538883], a = 0.2, v = 0.2, t = 0.2)
movej(p[-0.388025729285292, -0.118491290780814, 0.342704809048398, -1.09428990774622, -1.25418792209059, 1.36587308469569], a = 0.2, v = 0.2, t = 0.2)
movej(p[-0.388271709385592, -0.118279701018566, 0.342627583840286, -1.09238507603898, -1.26299672201276, 1.36910299216889], a = 0.2, v = 0.2, t = 0.2)
movej(p[-0.38966528457882, -0.117830198340481, 0.342344559295033, -1.09931351970383, -1.25290373952008, 1.36946531780705], a = 0.2, v = 0.2, t = 0.2)
movej(p[-0.392071581033107, -0.117628913634063, 0.341786995324672, -1.10318022441576, -1.25430327121091, 1.36937085002836], a = 0.2, v = 0.2, t = 0.2)
movej(p[-0.39428131808036, -0.117441903764546, 0.341285967789797, -1.1050638897174, -1.25086384981484, 1.36856775082992], a = 0.2, v = 0.2, t = 0.2)
movej(p[-0.396851251272024, -0.116686168993257, 0.340719218845513, -1.10195201267179, -1.25285761963355, 1.35763222193455], a = 0.2, v = 0.2, t = 0.2)
movej(p[-0.398544554963616, -0.115942948716534, 0.340447245522726, -1.10260802877378, -1.25540550326129, 1.36076892415696], a = 0.2, v = 0.2, t = 0.2)
movej(p[-0.399440029131723, -0.115847658558951, 0.340218407129703, -1.10459690947162, -1.25791976854759, 1.35531840575151], a = 0.2, v = 0.2, t = 0.2)
movej(p[-0.399824346749005, -0.115683897122278, 0.340135187535222, -1.10593852688941, -1.25492568320456, 1.35553815877105], a = 0.2, v = 0.2, t = 0.2)
movej(p[-0.39995041499741, -0.115730757409161, 0.34009173479932, -1.10484641434946, -1.25178694803101, 1.35498904554035], a = 0.2, v = 0.2, t = 0.2)
movej(p[-0.400621998013944, -0.115668468390534, 0.339951001043376, -1.10681892187229, -1.25709553872982, 1.35558303522743], a = 0.2, v = 0.2, t = 0.2)
movej(p[-0.401132184968634, -0.115408015390228, 0.339848532775627, -1.10441901632148, -1.25852535939459, 1.35500092467814], a = 0.2, v = 0.2, t = 0.2)
movej(p[-0.401657454071595, -0.115203746816236, 0.339725193977376, -1.10953427048529, -1.26627173182485, 1.3551204163938], a = 0.2, v = 0.2, t = 0.2)
movej(p[-0.402015318967246, -0.115237482250652, 0.339545894627336, -1.11041319865802, -1.2651063258793, 1.35556098769066], a = 0.2, v = 0.2, t = 0.2)
movej(p[-0.402286633465492, -0.115063636508583, 0.339510693902819, -1.11273734087977, -1.26041712014638, 1.3466300834009], a = 0.2, v = 0.2, t = 0.2)
movej(p[-0.401505450744134, -0.114938636097116, 0.339766114816185, -1.11246051709872, -1.25643368532456, 1.34287866196124], a = 0.2, v = 0.2, t = 0.2)
movej(p[-0.399254587516519, -0.115335897217879, 0.340288594358849, -1.1149995402674, -1.25168256507851, 1.33958537483078], a = 0.2, v = 0.2, t = 0.2)
movej(p[-0.396943836299751, -0.116004154427456, 0.34078928242147, -1.108322557432, -1.24754733200769, 1.34247824505433], a = 0.2, v = 0.2, t = 0.2)
movej(p[-0.394532352807558, -0.116099054563172, 0.341375486883347, -1.09648083376343, -1.24715500108215, 1.3434310037122], a = 0.2, v = 0.2, t = 0.2)
movej(p[-0.392536822121796, -0.116492975819548, 0.341813230433795, -1.09119396779906, -1.24920533841182, 1.3428810516273], a = 0.2, v = 0.2, t = 0.2)
movej(p[-0.390203987313627, -0.117194893002909, 0.342310231877954, -1.08439716816346, -1.24161835250448, 1.34921336503833], a = 0.2, v = 0.2, t = 0.2)
movej(p[-0.387869495966699, -0.117641460648458, 0.342851472664542, -1.07610157157494, -1.24494348934818, 1.35271417358668], a = 0.2, v = 0.2, t = 0.2)
movej(p[-0.386451039542534, -0.118075292216395, 0.343144945207391, -1.07775843693865, -1.24773329891336, 1.37468715865894], a = 0.2, v = 0.2, t = 0.2)
movej(p[-0.387694946305072, -0.118084171582283, 0.342825427613236, -1.09025728750719, -1.25907318030103, 1.38290740716001], a = 0.2, v = 0.2, t = 0.2)
movej(p[-0.390577148316275, -0.118018676866097, 0.342097472711634, -1.10385591893415, -1.25696502956854, 1.38973492364076], a = 0.2, v = 0.2, t = 0.2)
movej(p[-0.393915906877488, -0.117529823613824, 0.341326097117215, -1.10731499179588, -1.25004504637218, 1.37958354432212], a = 0.2, v = 0.2, t = 0.2)
movej(p[-0.396504436667615, -0.116833210147226, 0.34074412063678, -1.09823864995123, -1.24927523517817, 1.36342337671599], a = 0.2, v = 0.2, t = 0.2)
movej(p[-0.398128783685232, -0.116069826960897, 0.340410182128682, -1.10342163879503, -1.25410233638431, 1.36076096507873], a = 0.2, v = 0.2, t = 0.2)
movej(p[-0.398863498301812, -0.115979410785668, 0.340202858402495, -1.10688409153233, -1.25853584094915, 1.35756423348872], a = 0.2, v = 0.2, t = 0.2)
movej(p[-0.399682442429129, -0.115907985777913, 0.339994488216046, -1.10995858056912, -1.25681450372847, 1.35785833190262], a = 0.2, v = 0.2, t = 0.2)
movej(p[-0.400284385227098, -0.115638624990383, 0.339879473373026, -1.10664884280892, -1.25766091235657, 1.35408935642667], a = 0.2, v = 0.2, t = 0.2)
movej(p[-0.401120571626747, -0.115204665041227, 0.339698793081988, -1.1107815847347, -1.26566184466795, 1.35513388529687], a = 0.2, v = 0.2, t = 0.2)
movej(p[-0.401444192951399, -0.115311892064161, 0.339574041273251, -1.111085808188, -1.26637977730732, 1.35365722682131], a = 0.2, v = 0.2, t = 0.2)
movej(p[-0.401778170703982, -0.115368252517481, 0.339511806234235, -1.11385318791496, -1.26860518255239, 1.36168353396116], a = 0.2, v = 0.2, t = 0.2)
movej(p[-0.402032735398628, -0.115273227797862, 0.339444540723747, -1.11538509874215, -1.26413667053782, 1.35484978653309], a = 0.2, v = 0.2, t = 0.2)
movej(p[-0.402346592311679, -0.115008493426894, 0.339386105109962, -1.11481015414837, -1.25991461003744, 1.34843185040221], a = 0.2, v = 0.2, t = 0.2)
movej(p[-0.401679917771576, -0.114933728641016, 0.339571070659107, -1.11663578056986, -1.25924369554442, 1.34963193037066], a = 0.2, v = 0.2, t = 0.2)
movej(p[-0.400688923201147, -0.114979060078788, 0.339816296518533, -1.1158947218608, -1.25447361667418, 1.34926542909386], a = 0.2, v = 0.2, t = 0.2)
movej(p[-0.397658642743331, -0.115791899574155, 0.340528545858122, -1.111080042163, -1.24510366277871, 1.33819594554034], a = 0.2, v = 0.2, t = 0.2)
movej(p[-0.394756820543749, -0.116111651589306, 0.341215012398329, -1.1008562360132, -1.24896251364667, 1.33868724354094], a = 0.2, v = 0.2, t = 0.2)
movej(p[-0.392595769008419, -0.11671783576467, 0.341685973136806, -1.09054655149969, -1.24778355158273, 1.35153543069947], a = 0.2, v = 0.2, t = 0.2)
movej(p[-0.390524288865253, -0.117321770182041, 0.342135842780125, -1.08664962622556, -1.24533391774381, 1.35461932639437], a = 0.2, v = 0.2, t = 0.2)
movej(p[-0.388111376357557, -0.117845709768202, 0.342661762850347, -1.06428512726778, -1.23981252928258, 1.36780623871436], a = 0.2, v = 0.2, t = 0.2)
movej(p[-0.386512759758043, -0.117792696296322, 0.343047260761568, -1.06575104027359, -1.24683234300467, 1.37614387618868], a = 0.2, v = 0.2, t = 0.2)
movej(p[-0.386994087671399, -0.118044104405193, 0.342843486321026, -1.07574798462614, -1.26303035929775, 1.3979634034221], a = 0.2, v = 0.2, t = 0.2)
movej(p[-0.389909620603891, -0.118415651179317, 0.342082625562285, -1.09496129669895, -1.2656384179346, 1.40563354835959], a = 0.2, v = 0.2, t = 0.2)
movej(p[-0.393842964465669, -0.11771386350133, 0.341202297543852, -1.10257389877645, -1.25826319057435, 1.38961371175017], a = 0.2, v = 0.2, t = 0.2)
movej(p[-0.396707863073045, -0.116744873374857, 0.340637378085652, -1.10070780016324, -1.25638422742468, 1.36910697260534], a = 0.2, v = 0.2, t = 0.2)
movej(p[-0.398519392354764, -0.11608821776812, 0.34027717184526, -1.10077216747965, -1.25903701235277, 1.36225622737504], a = 0.2, v = 0.2, t = 0.2)
movej(p[-0.399246504866999, -0.115814157212902, 0.340091767053992, -1.10600472712348, -1.27126424955032, 1.36287927512549], a = 0.2, v = 0.2, t = 0.2)
movej(p[-0.399832775543362, -0.115841156207056, 0.339960853959338, -1.10542181701051, -1.26989256046097, 1.36246851791703], a = 0.2, v = 0.2, t = 0.2)
movej(p[-0.400362568265641, -0.115416304552736, 0.339869357766844, -1.10252853931389, -1.27442442924219, 1.36127175687779], a = 0.2, v = 0.2, t = 0.2)
movej(p[-0.400750157361333, -0.11523664155349, 0.339802073596322, -1.11188372002393, -1.26937668456714, 1.36234209056187], a = 0.2, v = 0.2, t = 0.2)
movej(p[-0.401106763516422, -0.115286832114931, 0.339697969620919, -1.11422997272517, -1.27178064321607, 1.35672209390818], a = 0.2, v = 0.2, t = 0.2)
movej(p[-0.401409774492609, -0.11547248522105, 0.339608157803774, -1.11033984571354, -1.27215288878814, 1.36196286314543], a = 0.2, v = 0.2, t = 0.2)
movej(p[-0.40176532527685, -0.115227491577298, 0.339552994008158, -1.1112166609389, -1.27059060247256, 1.36144507647309], a = 0.2, v = 0.2, t = 0.2)
movej(p[-0.401673038853638, -0.114977886987613, 0.339594091756254, -1.11994615064545, -1.26491932134614, 1.34717253106651], a = 0.2, v = 0.2, t = 0.2)
movej(p[-0.400163551073117, -0.115209889896865, 0.339946985126204, -1.11913451926243, -1.26186332432381, 1.34837329440092], a = 0.2, v = 0.2, t = 0.2)
movej(p[-0.39849072294215, -0.115533406568633, 0.340319186815259, -1.11712639438585, -1.25493930761046, 1.34077018446382], a = 0.2, v = 0.2, t = 0.2)
movej(p[-0.396843804960775, -0.115770256514533, 0.340700215325677, -1.10474480757989, -1.24908017465993, 1.33656867745868], a = 0.2, v = 0.2, t = 0.2)
movej(p[-0.395395532363774, -0.115882772611253, 0.341029066588034, -1.10153561340818, -1.24991556782368, 1.33715372773077], a = 0.2, v = 0.2, t = 0.2)
movej(p[-0.393725300568415, -0.116463093388615, 0.341350265724293, -1.09956674329673, -1.24930430138001, 1.34049644865535], a = 0.2, v = 0.2, t = 0.2)
movej(p[-0.393127540310244, -0.11665423217104, 0.341473093651102, -1.09854899948517, -1.24850820117197, 1.34114358948922], a = 0.2, v = 0.2, t = 0.2)
movej(p[-0.392660144392469, -0.116770965533855, 0.341574753859903, -1.09760239825887, -1.24772018425738, 1.34147819100951], a = 0.2, v = 0.2, t = 0.2)
movej(p[-0.391229359762638, -0.116894628790291, 0.341906281282669, -1.08922846005138, -1.24534347258364, 1.34902964362953], a = 0.2, v = 0.2, t = 0.2)
movej(p[-0.390024853631953, -0.116896065341612, 0.342215829320077, -1.08520657598721, -1.25242070612039, 1.36296225785869], a = 0.2, v = 0.2, t = 0.2)
movej(p[-0.391989252398106, -0.117531325503865, 0.341671995095528, -1.10139193561221, -1.25721761823706, 1.38668610387826], a = 0.2, v = 0.2, t = 0.2)
movej(p[-0.397148685575692, -0.116803156124122, 0.340495242895435, -1.10169208606388, -1.25079111568292, 1.36917871350673], a = 0.2, v = 0.2, t = 0.2)
movej(p[-0.399477289824572, -0.115652488378946, 0.340025996912704, -1.10431132579924, -1.26050830754483, 1.36257907354123], a = 0.2, v = 0.2, t = 0.2)
movej(p[-0.400363115097116, -0.115533144127605, 0.339806191757633, -1.10706548160005, -1.26422930111403, 1.36222153053554], a = 0.2, v = 0.2, t = 0.2)
movej(p[-0.400808563128331, -0.115515881316893, 0.339705020977006, -1.11270399930431, -1.2650774196176, 1.35687840606968], a = 0.2, v = 0.2, t = 0.2)
movej(p[-0.401182148931905, -0.115295567261686, 0.339630014147676, -1.10773811167271, -1.2642615777718, 1.36082935518176], a = 0.2, v = 0.2, t = 0.2)
movej(p[-0.401410953190836, -0.115195754790793, 0.339581532071101, -1.11075200772894, -1.26677874934716, 1.35611387637537], a = 0.2, v = 0.2, t = 0.2)
movej(p[-0.401475615052129, -0.115343786251886, 0.339551905727739, -1.11015925132687, -1.26904708755801, 1.35778934930143], a = 0.2, v = 0.2, t = 0.2)
movej(p[-0.401692555415667, -0.115217374213803, 0.339508462600599, -1.11073226104563, -1.26750729621052, 1.35580624735008], a = 0.2, v = 0.2, t = 0.2)
movej(p[-0.401993531881925, -0.115076765233574, 0.339486294347682, -1.12028600253123, -1.26948598715353, 1.35655659306464], a = 0.2, v = 0.2, t = 0.2)
movej(p[-0.402098000062569, -0.114897814712657, 0.339457429831463, -1.11811762174669, -1.26578608067413, 1.35047066652062], a = 0.2, v = 0.2, t = 0.2)
movej(p[-0.400926812557129, -0.115137200001015, 0.339722949267323, -1.11903708077473, -1.26069399456563, 1.3464631770768], a = 0.2, v = 0.2, t = 0.2)
movej(p[-0.399534685415802, -0.115359403581623, 0.340038171381307, -1.11718781037494, -1.25352896987542, 1.3440105750741], a = 0.2, v = 0.2, t = 0.2)
movej(p[-0.39791848212251, -0.115533841040907, 0.340420726145427, -1.11298116746007, -1.24819089877896, 1.33343797119703], a = 0.2, v = 0.2, t = 0.2)
movej(p[-0.396682440126248, -0.115617295512378, 0.340691405558513, -1.11117740733554, -1.24935255893902, 1.33123914819257], a = 0.2, v = 0.2, t = 0.2)
movej(p[-0.395124833819949, -0.115944562762743, 0.340990814979569, -1.11428213779707, -1.25405986858867, 1.33253889964763], a = 0.2, v = 0.2, t = 0.2)
movej(p[-0.394677605680927, -0.116109323284624, 0.341087146709008, -1.11375276408032, -1.2524841052323, 1.33529752005367], a = 0.2, v = 0.2, t = 0.2)
movej(p[-0.393010781380659, -0.116496177102122, 0.341456611613865, -1.10105160133272, -1.24751151225952, 1.33464279897665], a = 0.2, v = 0.2, t = 0.2)
movej(p[-0.391402980143796, -0.116494985528219, 0.341830471083312, -1.09687857767562, -1.25016787852004, 1.33351277017365], a = 0.2, v = 0.2, t = 0.2)
movej(p[-0.389746764003269, -0.11695980047979, 0.342189637516395, -1.09572522041025, -1.2533922184585, 1.34101491234917], a = 0.2, v = 0.2, t = 0.2)
movej(p[-0.388301785653073, -0.117457561470112, 0.342493846743699, -1.09058435122246, -1.25311645234606, 1.35804888853868], a = 0.2, v = 0.2, t = 0.2)
movej(p[-0.388347279807095, -0.117675263416809, 0.3424410253053, -1.09047380907485, -1.25754450677396, 1.36810834691878], a = 0.2, v = 0.2, t = 0.2)
movej(p[-0.389466727116387, -0.117530784400895, 0.342185032755254, -1.0955873395005, -1.25647526981007, 1.36925397403624], a = 0.2, v = 0.2, t = 0.2)
movej(p[-0.389872528987181, -0.117415545517148, 0.342097234000523, -1.10077069853245, -1.25987771309755, 1.37335456638727], a = 0.2, v = 0.2, t = 0.2)
movej(p[-0.392165806545232, -0.117482134412624, 0.341517601443861, -1.10915145547452, -1.26128549381096, 1.37392656397824], a = 0.2, v = 0.2, t = 0.2)
movej(p[-0.395474926447029, -0.116920213032023, 0.340765291223571, -1.11688685772167, -1.26263219652961, 1.36975653448467], a = 0.2, v = 0.2, t = 0.2)
movej(p[-0.398003605872963, -0.116171072362172, 0.340208141479217, -1.11019233951778, -1.25900508192915, 1.3556265977183], a = 0.2, v = 0.2, t = 0.2)
movej(p[-0.399615516873583, -0.115551719751836, 0.339845056296169, -1.11283381908798, -1.26110699349421, 1.35249755307908], a = 0.2, v = 0.2, t = 0.2)
movej(p[-0.400376412239535, -0.115445710148852, 0.339676285694022, -1.11287114451077, -1.26138863170217, 1.35166885949985], a = 0.2, v = 0.2, t = 0.2)
movej(p[-0.400910255433801, -0.115315257779301, 0.339557063073627, -1.11456152412763, -1.26217499527784, 1.34901031586589], a = 0.2, v = 0.2, t = 0.2)
movej(p[-0.401594310156147, -0.114806770317335, 0.339427573236731, -1.1181858565007, -1.26470932866886, 1.34779755387393], a = 0.2, v = 0.2, t = 0.2)
movej(p[-0.401838648722137, -0.114955427692995, 0.339367919738664, -1.11560830761176, -1.26630283285613, 1.34523922354012], a = 0.2, v = 0.2, t = 0.2)
movej(p[-0.402082575488206, -0.114942331766477, 0.339288533281987, -1.12198906002089, -1.26979964615621, 1.34647051892399], a = 0.2, v = 0.2, t = 0.2)
movej(p[-0.402266090130393, -0.114968487184841, 0.33924757659519, -1.12238398345893, -1.2613266601069, 1.34464024774111], a = 0.2, v = 0.2, t = 0.2)
movej(p[-0.401437107817136, -0.114752937321613, 0.339456788355781, -1.12163611266723, -1.25894223133112, 1.33782316920908], a = 0.2, v = 0.2, t = 0.2)
movej(p[-0.399597698672463, -0.114925338709707, 0.339859432727253, -1.12205213861486, -1.25796201315603, 1.33154390109893], a = 0.2, v = 0.2, t = 0.2)
movej(p[-0.397341742657401, -0.115386648278041, 0.340358578177267, -1.11404031635646, -1.25021336197006, 1.33359279275108], a = 0.2, v = 0.2, t = 0.2)
movej(p[-0.394961361165636, -0.115872501328875, 0.340871515226675, -1.10485718672996, -1.25026479499704, 1.3346638053566], a = 0.2, v = 0.2, t = 0.2)
movej(p[-0.392995074565593, -0.115960739351026, 0.341303366089749, -1.09761878039819, -1.24424283746537, 1.33524109802822], a = 0.2, v = 0.2, t = 0.2)
movej(p[-0.391111935999483, -0.11629966153347, 0.341713317495501, -1.09012259531084, -1.24165953198306, 1.34090757609752], a = 0.2, v = 0.2, t = 0.2)
movej(p[-0.388265297663779, -0.117028446678654, 0.342317254891144, -1.08119487357703, -1.241177128673, 1.34611696750309], a = 0.2, v = 0.2, t = 0.2)
movej(p[-0.386206906397939, -0.11743328520615, 0.342754459309429, -1.07167443300225, -1.23761595552289, 1.35778458828511], a = 0.2, v = 0.2, t = 0.2)
movej(p[-0.386196309344719, -0.117296707598097, 0.342766630974946, -1.07687777406449, -1.24224090180926, 1.36677700888709], a = 0.2, v = 0.2, t = 0.2)
movej(p[-0.386911607589631, -0.117621132971405, 0.342593273027393, -1.08650403220591, -1.24270187351466, 1.36926068767034], a = 0.2, v = 0.2, t = 0.2)
movej(p[-0.388430962777092, -0.11765960848193, 0.342235437116081, -1.09651487927628, -1.247561066697, 1.36743754906694], a = 0.2, v = 0.2, t = 0.2)
movej(p[-0.390805841022904, -0.117247333647299, 0.341722519668241, -1.09974929322231, -1.24423876491379, 1.36297638929078], a = 0.2, v = 0.2, t = 0.2)
movej(p[-0.393883984192487, -0.11650797154526, 0.341059487942288, -1.10380548092165, -1.23878360918828, 1.34727830919997], a = 0.2, v = 0.2, t = 0.2)
movej(p[-0.396431378009573, -0.116150059957909, 0.340499883290492, -1.10938226564815, -1.24264649594723, 1.3424141643904], a = 0.2, v = 0.2, t = 0.2)
movej(p[-0.398172086850479, -0.115784532855713, 0.340112212181495, -1.10945243264292, -1.24038632320288, 1.33514007555886], a = 0.2, v = 0.2, t = 0.2)
movej(p[-0.399331401504604, -0.115396557494731, 0.339861654220133, -1.11340771738329, -1.24388279508946, 1.33503206261503], a = 0.2, v = 0.2, t = 0.2)
movej(p[-0.400128114211424, -0.114914480604697, 0.339675119223718, -1.11094081641631, -1.24451364216665, 1.33279744551929], a = 0.2, v = 0.2, t = 0.2)
movej(p[-0.400354246578161, -0.11499185220323, 0.339615829439993, -1.11060058355599, -1.24987723202096, 1.33376552943792], a = 0.2, v = 0.2, t = 0.2)
movej(p[-0.40058862694883, -0.115006058143191, 0.33954466699825, -1.11378747069751, -1.2506787150339, 1.33785715355977], a = 0.2, v = 0.2, t = 0.2)
movej(p[-0.400710910890436, -0.115040445514648, 0.339488403899245, -1.11736605607184, -1.25214572808139, 1.33955770714669], a = 0.2, v = 0.2, t = 0.2)
movej(p[-0.40093109267297, -0.114742001029773, 0.339424497623439, -1.12571316714706, -1.24995551173594, 1.3248057377578], a = 0.2, v = 0.2, t = 0.2)
movej(p[-0.399197894081409, -0.114984832412379, 0.339792932138426, -1.12860461316347, -1.25160495796981, 1.32707978706941], a = 0.2, v = 0.2, t = 0.2)
movej(p[-0.396986485557792, -0.115515027055949, 0.340266306336711, -1.11577450900908, -1.24457512940664, 1.32206419143916], a = 0.2, v = 0.2, t = 0.2)
movej(p[-0.39464478842398, -0.115848277350254, 0.340768435557971, -1.10454635297467, -1.23722565662628, 1.32284053118048], a = 0.2, v = 0.2, t = 0.2)
movej(p[-0.39288927215599, -0.11582336776694, 0.34111967831659, -1.09786505756682, -1.23981051144879, 1.33047505626595], a = 0.2, v = 0.2, t = 0.2)
movej(p[-0.390766201283303, -0.116372856830426, 0.341580544326031, -1.09401719764714, -1.23799183052528, 1.33037489477944], a = 0.2, v = 0.2, t = 0.2)
movej(p[-0.388807306285722, -0.116896961356366, 0.341996985935793, -1.09021378249463, -1.24347372096943, 1.34373880042777], a = 0.2, v = 0.2, t = 0.2)
movej(p[-0.387517511213293, -0.117377819313207, 0.342269911816722, -1.08512832218344, -1.24880684008055, 1.36660790295509], a = 0.2, v = 0.2, t = 0.2)
movej(p[-0.389331719294537, -0.117462961030117, 0.3419116561315, -1.09640860153919, -1.25471032053173, 1.3789199809632], a = 0.2, v = 0.2, t = 0.2)
movej(p[-0.393493220699463, -0.117303596377635, 0.341052164785219, -1.10159575793935, -1.25241262245635, 1.37366478085662], a = 0.2, v = 0.2, t = 0.2)
movej(p[-0.395450037502174, -0.116977680648878, 0.340629857020221, -1.10706888888138, -1.25228097246995, 1.36332304042618], a = 0.2, v = 0.2, t = 0.2)
movej(p[-0.396725130612047, -0.11661979705194, 0.340341495819299, -1.10891701194182, -1.25057190769623, 1.35314123310369], a = 0.2, v = 0.2, t = 0.2)
movej(p[-0.398571188189569, -0.115940426036684, 0.339926036008843, -1.11061953608035, -1.25475076139691, 1.34296027968574], a = 0.2, v = 0.2, t = 0.2)
movej(p[-0.399403196050323, -0.115557006658968, 0.339717775281783, -1.11196354711217, -1.25993246320427, 1.34333023923624], a = 0.2, v = 0.2, t = 0.2)
movej(p[-0.399973177947291, -0.115527045088923, 0.33959377737273, -1.11670047898279, -1.26325015532671, 1.35083513286743], a = 0.2, v = 0.2, t = 0.2)
movej(p[-0.40029632633928, -0.115490360311595, 0.339527739702668, -1.1153804553933, -1.26049693125932, 1.34375410658392], a = 0.2, v = 0.2, t = 0.2)
movej(p[-0.400888909569492, -0.115045722234958, 0.339364885331907, -1.11846766793505, -1.26706617628787, 1.34506284661534], a = 0.2, v = 0.2, t = 0.2)
movej(p[-0.401141964945405, -0.115172406366875, 0.339312518382006, -1.12717400172002, -1.27380825042748, 1.3498337461525], a = 0.2, v = 0.2, t = 0.2)
movej(p[-0.401455431776034, -0.11522626864384, 0.33925715583857, -1.12252907315186, -1.27019321498198, 1.34912478490565], a = 0.2, v = 0.2, t = 0.2)
movej(p[-0.401730305066439, -0.115168068368846, 0.339195310772375, -1.12412367736446, -1.26620304395071, 1.34469701195611], a = 0.2, v = 0.2, t = 0.2)
movej(p[-0.40115585566877, -0.114874386093752, 0.339297425515743, -1.12187965734257, -1.26387343315172, 1.3387528965273], a = 0.2, v = 0.2, t = 0.2)
movej(p[-0.399185973457993, -0.115326328449644, 0.33973929432276, -1.12192520428365, -1.26095416952746, 1.33998547776675], a = 0.2, v = 0.2, t = 0.2)
movej(p[-0.397210561510712, -0.115887715562424, 0.340196392286161, -1.12542079999025, -1.25895824495511, 1.3355007418366], a = 0.2, v = 0.2, t = 0.2)
movej(p[-0.395386191571414, -0.11623331345107, 0.340606938208013, -1.11023521548946, -1.25001213815292, 1.33727304980419], a = 0.2, v = 0.2, t = 0.2)
movej(p[-0.393970401161726, -0.116198194742419, 0.340897174942659, -1.10073725908, -1.24773150682651, 1.33173322302156], a = 0.2, v = 0.2, t = 0.2)
movej(p[-0.392636722592264, -0.116527082706454, 0.341208838014695, -1.1031165792862, -1.24903760017581, 1.33956441416217], a = 0.2, v = 0.2, t = 0.2)
movej(p[-0.391064229567785, -0.116842955584579, 0.341549688645954, -1.09076908270998, -1.24440376800408, 1.33802804364055], a = 0.2, v = 0.2, t = 0.2)
movej(p[-0.389663251967327, -0.117079740616183, 0.341846371054976, -1.07922453682491, -1.24685283240636, 1.35818613805438], a = 0.2, v = 0.2, t = 0.2)
movej(p[-0.389825679934866, -0.117363733829022, 0.341857953818998, -1.08498772361561, -1.25652245853134, 1.38196545030613], a = 0.2, v = 0.2, t = 0.2)
movej(p[-0.392378297559528, -0.11753187056029, 0.341395840183772, -1.10479369919785, -1.26050632670075, 1.38080862094761], a = 0.2, v = 0.2, t = 0.2)
movej(p[-0.395193959802131, -0.11727170594533, 0.340855583949467, -1.10858843208008, -1.2617173258147, 1.37925986935295], a = 0.2, v = 0.2, t = 0.2)
movej(p[-0.396146542116439, -0.117157665657937, 0.340664562910523, -1.10095164777712, -1.2598249757898, 1.37559916876276], a = 0.2, v = 0.2, t = 0.2)
movej(p[-0.398345591757562, -0.116447909316012, 0.34015422704957, -1.10248836978023, -1.2625868909047, 1.36028984608797], a = 0.2, v = 0.2, t = 0.2)
movej(p[-0.399933304978182, -0.115777723600682, 0.339782104561624, -1.10667072075268, -1.26848089531171, 1.3559592913765], a = 0.2, v = 0.2, t = 0.2)
movej(p[-0.400543653117918, -0.115557520141513, 0.339618528753845, -1.11314736795475, -1.26915254712213, 1.35026208954987], a = 0.2, v = 0.2, t = 0.2)
movej(p[-0.400858453711715, -0.115587009301257, 0.339583088866674, -1.11796142450898, -1.27133768283865, 1.35998619404524], a = 0.2, v = 0.2, t = 0.2)
movej(p[-0.401113056999802, -0.115358684731738, 0.339519780441885, -1.12058157722374, -1.27565760566324, 1.36242959078056], a = 0.2, v = 0.2, t = 0.2)
movej(p[-0.401207272427137, -0.11536499905243, 0.339494997532323, -1.11579775077619, -1.27360495814358, 1.35576142711178], a = 0.2, v = 0.2, t = 0.2)
movej(p[-0.401404103219388, -0.115338016613207, 0.339465816593421, -1.12068984354532, -1.27333455344638, 1.35349332037118], a = 0.2, v = 0.2, t = 0.2)
movej(p[-0.400926043799584, -0.11528644276666, 0.339550149857849, -1.11782223512536, -1.26225505755839, 1.34317509918597], a = 0.2, v = 0.2, t = 0.2)
movej(p[-0.399290656290462, -0.115403019543311, 0.339880176084313, -1.12373023086226, -1.26055300769953, 1.3419624840735], a = 0.2, v = 0.2, t = 0.2)
movej(p[-0.397711001977847, -0.115538679435241, 0.340177138954649, -1.12059168932775, -1.25683638041966, 1.33252578375474], a = 0.2, v = 0.2, t = 0.2)
movej(p[-0.396184162790648, -0.116010192642066, 0.340530567154176, -1.11117386068936, -1.25165851777372, 1.33041722638135], a = 0.2, v = 0.2, t = 0.2)
movej(p[-0.394861982742519, -0.116278721975932, 0.340815677829499, -1.10919410934651, -1.25149296605283, 1.33127236920572], a = 0.2, v = 0.2, t = 0.2)
movej(p[-0.394440118103281, -0.116043364954661, 0.34086082357901, -1.10383906692749, -1.24782956629038, 1.33058307201426], a = 0.2, v = 0.2, t = 0.2)
movej(p[-0.393854261302388, -0.116105470757054, 0.340977741533818, -1.0984844528121, -1.25476699214022, 1.34051287457742], a = 0.2, v = 0.2, t = 0.2)
movej(p[-0.394075841010438, -0.11667016023102, 0.341031993731679, -1.10747482677864, -1.26062824728566, 1.37029981903573], a = 0.2, v = 0.2, t = 0.2)
movej(p[-0.395739529575157, -0.11698659303122, 0.340797643816844, -1.10580422707451, -1.25994850189427, 1.38150148205893], a = 0.2, v = 0.2, t = 0.2)
movej(p[-0.396820556080345, -0.116817778006179, 0.340581495343796, -1.10628825569137, -1.2594640807119, 1.37288541968547], a = 0.2, v = 0.2, t = 0.2)
movej(p[-0.398379028833014, -0.116323711372907, 0.340216240458714, -1.11667320638583, -1.26616404065244, 1.36485764464769], a = 0.2, v = 0.2, t = 0.2)
movej(p[-0.399724617981788, -0.116049707810209, 0.339940824463666, -1.11067630572684, -1.26595911261653, 1.35706054052431], a = 0.2, v = 0.2, t = 0.2)
movej(p[-0.400368313374275, -0.11567309543566, 0.339753124354376, -1.11451050833061, -1.26524223714289, 1.35837985675667], a = 0.2, v = 0.2, t = 0.2)
movej(p[-0.400614387580396, -0.115496679939007, 0.339696212250014, -1.1131073927928, -1.26697316573291, 1.35432069718897], a = 0.2, v = 0.2, t = 0.2)
movej(p[-0.401138215456277, -0.115166187492532, 0.339544097821796, -1.11745229518584, -1.27192655177845, 1.3579195667324], a = 0.2, v = 0.2, t = 0.2)
movej(p[-0.401628576744125, -0.115270592763543, 0.339470898048807, -1.1178197242366, -1.27196879593275, 1.35896632203621], a = 0.2, v = 0.2, t = 0.2)
movej(p[-0.40178108952174, -0.115164762821543, 0.339448128419023, -1.10878021542068, -1.26718881040992, 1.36372327460097], a = 0.2, v = 0.2, t = 0.2)
movej(p[-0.401905898742539, -0.115067419836489, 0.339410327338825, -1.12095303740021, -1.2681188302897, 1.34634593224122], a = 0.2, v = 0.2, t = 0.2)
movej(p[-0.400699309679956, -0.115113484103634, 0.339595874576336, -1.12515334216799, -1.26759414183327, 1.34332456044251], a = 0.2, v = 0.2, t = 0.2)
movej(p[-0.398926471057512, -0.115556587910711, 0.339962442557649, -1.1191296760998, -1.2612841069235, 1.34263808896129], a = 0.2, v = 0.2, t = 0.2)
movej(p[-0.396765230324277, -0.115685247108012, 0.340369881649976, -1.11115593790437, -1.25655917974616, 1.33940132672406], a = 0.2, v = 0.2, t = 0.2)
movej(p[-0.395049260576143, -0.115875238557415, 0.340690493069986, -1.11119243736014, -1.25860562230229, 1.34183025507581], a = 0.2, v = 0.2, t = 0.2)
movej(p[-0.392869659279994, -0.11630854408091, 0.341106301491181, -1.10605629465746, -1.25604002123837, 1.34001434533711], a = 0.2, v = 0.2, t = 0.2)
movej(p[-0.391031999390986, -0.116558952529515, 0.341440901328595, -1.09707945631276, -1.25352165045731, 1.34469919146039], a = 0.2, v = 0.2, t = 0.2)
movej(p[-0.389275676518927, -0.116642779594252, 0.341774413865541, -1.07900870495105, -1.24650497565852, 1.34766016141786], a = 0.2, v = 0.2, t = 0.2)
movej(p[-0.387650012882654, -0.116669646692456, 0.342046841655484, -1.09016493513558, -1.24523187453371, 1.35799346438532], a = 0.2, v = 0.2, t = 0.2)
movej(p[-0.386029864532395, -0.11721222504367, 0.342354873871245, -1.07995104192892, -1.24743051609464, 1.37091233713952], a = 0.2, v = 0.2, t = 0.2)
movej(p[-0.385822015879432, -0.117533909433757, 0.342397428549435, -1.07964230687059, -1.24515698463141, 1.38166131076436], a = 0.2, v = 0.2, t = 0.2)
movej(p[-0.386831056532691, -0.117661354165148, 0.342266974264295, -1.09345985357506, -1.25121119294547, 1.37909798591193], a = 0.2, v = 0.2, t = 0.2)
movej(p[-0.388418799876986, -0.117394389342771, 0.341955649889631, -1.09328894943592, -1.25227026416177, 1.37510220872539], a = 0.2, v = 0.2, t = 0.2)
movej(p[-0.390362849223168, -0.117161679547277, 0.3415910537011, -1.10630395274669, -1.24954771456141, 1.36346348809481], a = 0.2, v = 0.2, t = 0.2)
movej(p[-0.39279033666019, -0.116812151250908, 0.341137466219858, -1.11639199562711, -1.24717886089441, 1.35623307483952], a = 0.2, v = 0.2, t = 0.2)
movej(p[-0.394444248225039, -0.116384790887701, 0.340791337146222, -1.10866037080483, -1.23739948348695, 1.34019484696909], a = 0.2, v = 0.2, t = 0.2)
movej(p[-0.395113159300121, -0.11607300261278, 0.340620293130673, -1.11349924790382, -1.24130567743673, 1.33159157371938], a = 0.2, v = 0.2, t = 0.2)
movej(p[-0.398116987847478, -0.115351155013576, 0.339986977378774, -1.09688376357376, -1.23963206555165, 1.34078518007027], a = 0.2, v = 0.2, t = 0.2)
movej(p[-0.399831640006426, -0.114898619639096, 0.339643034405795, -1.10962292275467, -1.26189860671786, 1.35182237352921], a = 0.2, v = 0.2, t = 0.2)
movej(p[-0.400989107713501, -0.114353869422938, 0.339302176812258, -1.1115960771905, -1.26197070689483, 1.35073789134352], a = 0.2, v = 0.2, t = 0.2)
movej(p[-0.401345769290853, -0.114217099672333, 0.339197627137173, -1.11278800640137, -1.26109696725418, 1.35112424138857], a = 0.2, v = 0.2, t = 0.2)
movej(p[-0.401371441671655, -0.114333938547047, 0.339212189287405, -1.10910758494529, -1.25762832753877, 1.34883690521893], a = 0.2, v = 0.2, t = 0.2)
movej(p[-0.399871193247802, -0.11445768851992, 0.339461234325382, -1.09587822625766, -1.23501506280083, 1.32828164168713], a = 0.2, v = 0.2, t = 0.2)
movej(p[-0.397577631055155, -0.114794059241959, 0.339919638149334, -1.10746679028777, -1.23620491706623, 1.31235092014481], a = 0.2, v = 0.2, t = 0.2)
movej(p[-0.395466851523417, -0.115156903324706, 0.340294134464423, -1.10768478327567, -1.23809290499734, 1.3165229398075], a = 0.2, v = 0.2, t = 0.2)
movej(p[-0.392723968411219, -0.115694927771812, 0.340832893415285, -1.1006157143237, -1.23478446441773, 1.32451336488521], a = 0.2, v = 0.2, t = 0.2)
movej(p[-0.390139449619191, -0.116172249911184, 0.341337233012104, -1.09101729060462, -1.23253813530393, 1.32924741659568], a = 0.2, v = 0.2, t = 0.2)
movej(p[-0.387876540225881, -0.116337704578358, 0.341697090207083, -1.08278579071518, -1.22670209301549, 1.33102374450067], a = 0.2, v = 0.2, t = 0.2)
movej(p[-0.385679095589325, -0.116879260801615, 0.342126689248428, -1.08617468984872, -1.22870742334668, 1.33651633887508], a = 0.2, v = 0.2, t = 0.2)
movej(p[-0.384580077282564, -0.117169349399671, 0.342341486587054, -1.06856518520831, -1.23238689493063, 1.35145801271061], a = 0.2, v = 0.2, t = 0.2)
movej(p[-0.384100367569839, -0.117653542197301, 0.342500510409927, -1.08282868255344, -1.23072761817211, 1.36554236089821], a = 0.2, v = 0.2, t = 0.2)
movej(p[-0.384413813231632, -0.117638269157873, 0.342454165492512, -1.07140687072922, -1.23419784943585, 1.36831289773], a = 0.2, v = 0.2, t = 0.2)
movej(p[-0.38511552629013, -0.117911216428624, 0.34242693552882, -1.09141723466256, -1.24207970365662, 1.37445636346845], a = 0.2, v = 0.2, t = 0.2)
movej(p[-0.386492292862487, -0.117917649520269, 0.342211119124038, -1.0973481012087, -1.24509725318364, 1.37407496321937], a = 0.2, v = 0.2, t = 0.2)
movej(p[-0.388299168322631, -0.117829170027154, 0.341919476035955, -1.10174544662227, -1.24218056230345, 1.36657625926031], a = 0.2, v = 0.2, t = 0.2)
movej(p[-0.389594443696666, -0.117449674928691, 0.341641506620979, -1.10860217407083, -1.24562970122008, 1.3566803303487], a = 0.2, v = 0.2, t = 0.2)
movej(p[-0.390137633156861, -0.117293710040251, 0.341515163699109, -1.11358155685367, -1.24774564749939, 1.35275410139805], a = 0.2, v = 0.2, t = 0.2)
movej(p[-0.394458155579294, -0.116467430575614, 0.34067271228593, -1.11454263417257, -1.24337224726442, 1.34371662711474], a = 0.2, v = 0.2, t = 0.2)
movej(p[-0.397456518417291, -0.116032253051809, 0.340159186449683, -1.11390838066203, -1.249077627243, 1.3468549151844], a = 0.2, v = 0.2, t = 0.2)
movej(p[-0.399640782077136, -0.115063162173499, 0.339573432931675, -1.10924656179125, -1.26033567865295, 1.35637516418185], a = 0.2, v = 0.2, t = 0.2)
movej(p[-0.400249618286845, -0.114998147586518, 0.339464908173083, -1.1116083739456, -1.2602176754105, 1.35613159423353], a = 0.2, v = 0.2, t = 0.2)
movej(p[-0.400793010881009, -0.114927698598405, 0.339367669710113, -1.10933851686122, -1.26171462810616, 1.35752759564081], a = 0.2, v = 0.2, t = 0.2)
movej(p[-0.40105838240887, -0.114815251379623, 0.339306988945542, -1.11053861889328, -1.26167655308121, 1.35815478779947], a = 0.2, v = 0.2, t = 0.2)
movej(p[-0.401276979616006, -0.114815200357851, 0.339282923858194, -1.11050796527933, -1.26072695301059, 1.35868925664226], a = 0.2, v = 0.2, t = 0.2)
movej(p[-0.400763710823623, -0.115032437480881, 0.339416361630745, -1.11400150359158, -1.25510054231669, 1.34904736162749], a = 0.2, v = 0.2, t = 0.2)
movej(p[-0.399185725921655, -0.115463128157955, 0.339749458403231, -1.12031234580479, -1.2500744121961, 1.33627663593352], a = 0.2, v = 0.2, t = 0.2)
movej(p[-0.397407618508121, -0.115907487636253, 0.340105542438233, -1.11407761868345, -1.24972795926853, 1.33188554125304], a = 0.2, v = 0.2, t = 0.2)
movej(p[-0.395511917400719, -0.115797972761981, 0.340300406887804, -1.097786093313, -1.24732611519279, 1.33008551871111], a = 0.2, v = 0.2, t = 0.2)
movej(p[-0.393135973950613, -0.116213064287573, 0.340727148691801, -1.08703266925742, -1.2453868086054, 1.34266375235407], a = 0.2, v = 0.2, t = 0.2)
movej(p[-0.39055282050633, -0.116742839512112, 0.341224825730409, -1.0798478994753, -1.24185133283931, 1.34450026554373], a = 0.2, v = 0.2, t = 0.2)
movej(p[-0.388065209632045, -0.117104812526343, 0.341646058439378, -1.09246811517759, -1.24275260238284, 1.35497860875543], a = 0.2, v = 0.2, t = 0.2)
movej(p[-0.386366895945086, -0.117692797573128, 0.342076186159298, -1.07678806069487, -1.24398181605815, 1.36844857791222], a = 0.2, v = 0.2, t = 0.2)
movej(p[-0.386466861426896, -0.11770712230821, 0.342064257437181, -1.07399576330169, -1.25170945994179, 1.37824631536358], a = 0.2, v = 0.2, t = 0.2)
movej(p[-0.389066571074591, -0.118119919316509, 0.341877235332558, -1.08254277614116, -1.25563209569222, 1.3901373558867], a = 0.2, v = 0.2, t = 0.2)
movej(p[-0.392632222238221, -0.117784403717578, 0.341347411142681, -1.09466808602818, -1.25481298653158, 1.37862662914249], a = 0.2, v = 0.2, t = 0.2)
movej(p[-0.395337252860935, -0.116916562765722, 0.340736134247598, -1.09997942557655, -1.25697150036579, 1.37132083655889], a = 0.2, v = 0.2, t = 0.2)
movej(p[-0.396173230331333, -0.116663986807296, 0.340546256986684, -1.11468888350642, -1.25328533983802, 1.36830786892342], a = 0.2, v = 0.2, t = 0.2)
movej(p[-0.398685340933152, -0.1164236077609, 0.340192405212236, -1.10628992526027, -1.25674057389771, 1.38067953017687], a = 0.2, v = 0.2, t = 0.2)
movej(p[-0.399421107164408, -0.116101173627342, 0.340041954248594, -1.10567693547146, -1.25958875002505, 1.36094890479756], a = 0.2, v = 0.2, t = 0.2)
movej(p[-0.400515501987101, -0.115333979015226, 0.339645808392624, -1.10637580252269, -1.25984322644847, 1.35993998868776], a = 0.2, v = 0.2, t = 0.2)
movej(p[-0.400818111949261, -0.115238808997947, 0.339573220179996, -1.10762736882976, -1.25971492307206, 1.35954057923195], a = 0.2, v = 0.2, t = 0.2)
movej(p[-0.400920622273668, -0.115153165091765, 0.339528599952254, -1.10761683046934, -1.2600255681052, 1.35928750459273], a = 0.2, v = 0.2, t = 0.2)
movej(p[-0.401295021614071, -0.115255534990283, 0.33951927054801, -1.10682560682184, -1.26053204627104, 1.35767031847529], a = 0.2, v = 0.2, t = 0.2)
movej(p[-0.401529328892339, -0.115016891785714, 0.339398457882019, -1.10842167947468, -1.26011713705702, 1.35778205704619], a = 0.2, v = 0.2, t = 0.2)
movej(p[-0.40163193740135, -0.114933284773693, 0.339351250875978, -1.107792323117, -1.25879543699887, 1.35823968800935], a = 0.2, v = 0.2, t = 0.2)
movej(p[-0.400616133393265, -0.115220686122689, 0.339571749020536, -1.10682532068074, -1.25797432249618, 1.35530611897118], a = 0.2, v = 0.2, t = 0.2)
movej(p[-0.398725782063503, -0.115711768863973, 0.339976797327877, -1.11606748176707, -1.25918061422763, 1.35068650020673], a = 0.2, v = 0.2, t = 0.2)
