def moving():
set_payload_mass(0)
set_tcp(p[0,0,0,0,0,0])
movej(p[0.419319968811454, 0.247408731550036, 0.313199762475092, -1.45, 0.776, -0.754], a = 0.2, v = 0.2, t = 0.1)
movej(p[0.420959364907714, 0.248515647257424, 0.312157112938429, -1.45, 0.776, -0.754], a = 0.2, v = 0.2, t = 0.1)
movej(p[0.421789047361571, 0.249073470886135, 0.312135669407643, -1.45, 0.776, -0.754], a = 0.2, v = 0.2, t = 0.1)
movej(p[0.422618729815428, 0.249631294514847, 0.312114225876857, -1.45, 0.776, -0.754], a = 0.2, v = 0.2, t = 0.1)
movej(p[0.423448412269285, 0.250189118143559, 0.312092782346072, -1.45, 0.776, -0.754], a = 0.2, v = 0.2, t = 0.1)
movej(p[0.422618729815428, 0.249631294514847, 0.312114225876857, -1.45, 0.776, -0.754], a = 0.2, v = 0.2, t = 0.1)
movej(p[0.421789047361571, 0.249073470886135, 0.312135669407643, -1.45, 0.776, -0.754], a = 0.2, v = 0.2, t = 0.1)
movej(p[0.420959364907714, 0.248515647257424, 0.312157112938429, -1.45, 0.776, -0.754], a = 0.2, v = 0.2, t = 0.1)
movej(p[0.420129682453857, 0.247957823628712, 0.312178556469214, -1.45, 0.776, -0.754], a = 0.2, v = 0.2, t = 0.1)
movej(p[0.419714841226929, 0.247678911814356, 0.312189278234607, -1.45, 0.776, -0.754], a = 0.2, v = 0.2, t = 0.1)
movej(p[0.4193, 0.2474, 0.3122, -1.45, 0.776, -0.754], a = 0.2, v = 0.2, t = 0.1)
movej(p[0.419300013621396, 0.247400033772961, 0.312200146467896, -1.45, 0.776, -0.754], a = 0.2, v = 0.2, t = 0.1)
movej(p[0.419300179392928, 0.247400542553787, 0.312202261217496, -1.45, 0.776, -0.754], a = 0.2, v = 0.2, t = 0.1)
movej(p[0.419300235454245, 0.247402008212155, 0.312207115453551, -1.45, 0.776, -0.754], a = 0.2, v = 0.2, t = 0.1)
movej(p[0.419300132109669, 0.247404879608217, 0.31221336392965, -1.45, 0.776, -0.754], a = 0.2, v = 0.2, t = 0.1)
movej(p[0.419301423254924, 0.247407856669986, 0.312218909469854, -1.45, 0.776, -0.754], a = 0.2, v = 0.2, t = 0.1)
movej(p[0.419304269834397, 0.247408658267237, 0.312221936346817, -1.45, 0.776, -0.754], a = 0.2, v = 0.2, t = 0.1)
movej(p[0.419306434445709, 0.247406225852289, 0.312222779561139, -1.45, 0.776, -0.754], a = 0.2, v = 0.2, t = 0.1)
movej(p[0.419305408246708, 0.247400846028313, 0.31222131467937, -1.45, 0.776, -0.754], a = 0.2, v = 0.2, t = 0.1)
movej(p[0.419299749622209, 0.247393408278993, 0.312218198878376, -1.45, 0.776, -0.754], a = 0.2, v = 0.2, t = 0.1)
movej(p[0.419289086596825, 0.247385488503596, 0.31221461910795, -1.45, 0.776, -0.754], a = 0.2, v = 0.2, t = 0.1)
movej(p[0.419274770126384, 0.247377227910428, 0.312210698187315, -1.45, 0.776, -0.754], a = 0.2, v = 0.2, t = 0.1)
movej(p[0.419258563793194, 0.247368257045152, 0.312205788972025, -1.45, 0.776, -0.754], a = 0.2, v = 0.2, t = 0.1)
movej(p[0.419241792923611, 0.247358730610219, 0.312199886644951, -1.45, 0.776, -0.754], a = 0.2, v = 0.2, t = 0.1)
movej(p[0.419225097693802, 0.247349160898217, 0.312193500070296, -1.45, 0.776, -0.754], a = 0.2, v = 0.2, t = 0.1)
movej(p[0.419208985043753, 0.247339856140115, 0.312186887495076, -1.45, 0.776, -0.754], a = 0.2, v = 0.2, t = 0.1)
movej(p[0.419195085314205, 0.247330591002375, 0.31218018736372, -1.45, 0.776, -0.754], a = 0.2, v = 0.2, t = 0.1)
movej(p[0.419184599222276, 0.247322823893199, 0.31217301487377, -1.45, 0.776, -0.754], a = 0.2, v = 0.2, t = 0.1)
movej(p[0.419178850394809, 0.247318123458444, 0.312166033054748, -1.45, 0.776, -0.754], a = 0.2, v = 0.2, t = 0.1)
movej(p[0.419178403883469, 0.24731759533702, 0.312159921130633, -1.45, 0.776, -0.754], a = 0.2, v = 0.2, t = 0.1)
movej(p[0.419183011883585, 0.247322606824514, 0.31215519723425, -1.45, 0.776, -0.754], a = 0.2, v = 0.2, t = 0.1)
movej(p[0.419192666604993, 0.247334164994823, 0.312152854963849, -1.45, 0.776, -0.754], a = 0.2, v = 0.2, t = 0.1)
movej(p[0.419206724511831, 0.247350579969112, 0.31215300695209, -1.45, 0.776, -0.754], a = 0.2, v = 0.2, t = 0.1)
movej(p[0.419223941370829, 0.247367060317001, 0.312156768146274, -1.45, 0.776, -0.754], a = 0.2, v = 0.2, t = 0.1)
movej(p[0.419242238944038, 0.24737979392526, 0.312162937046614, -1.45, 0.776, -0.754], a = 0.2, v = 0.2, t = 0.1)
movej(p[0.419260164308075, 0.247387741790099, 0.312169133172954, -1.45, 0.776, -0.754], a = 0.2, v = 0.2, t = 0.1)
movej(p[0.419276986044402, 0.247391369730986, 0.312174423841991, -1.45, 0.776, -0.754], a = 0.2, v = 0.2, t = 0.1)
movej(p[0.41929153212778, 0.247391217385931, 0.312177345398146, -1.45, 0.776, -0.754], a = 0.2, v = 0.2, t = 0.1)
movej(p[0.419302821726376, 0.247388562536223, 0.312176965048891, -1.45, 0.776, -0.754], a = 0.2, v = 0.2, t = 0.1)
movej(p[0.419308786252485, 0.247384676994591, 0.312173664087134, -1.45, 0.776, -0.754], a = 0.2, v = 0.2, t = 0.1)
movej(p[0.419306944775455, 0.247380596148093, 0.312169409480782, -1.45, 0.776, -0.754], a = 0.2, v = 0.2, t = 0.1)
movej(p[0.419297151959671, 0.247377421768653, 0.312164854667045, -1.45, 0.776, -0.754], a = 0.2, v = 0.2, t = 0.1)
movej(p[0.419282249003534, 0.247374316523832, 0.312157677670251, -1.45, 0.776, -0.754], a = 0.2, v = 0.2, t = 0.1)
movej(p[0.419264919489357, 0.247370233154832, 0.312146914817748, -1.45, 0.776, -0.754], a = 0.2, v = 0.2, t = 0.1)
movej(p[0.419245699140881, 0.24736574265609, 0.312134104791577, -1.45, 0.776, -0.754], a = 0.2, v = 0.2, t = 0.1)
movej(p[0.419224960522051, 0.247361902273816, 0.312121153373351, -1.45, 0.776, -0.754], a = 0.2, v = 0.2, t = 0.1)
movej(p[0.419204725866044, 0.247358883826445, 0.312110003142649, -1.45, 0.776, -0.754], a = 0.2, v = 0.2, t = 0.1)
movej(p[0.419187299636011, 0.247356286117812, 0.3121028541077, -1.45, 0.776, -0.754], a = 0.2, v = 0.2, t = 0.1)
movej(p[0.419174243139308, 0.247354391979394, 0.312101579066331, -1.45, 0.776, -0.754], a = 0.2, v = 0.2, t = 0.1)
movej(p[0.419167084692258, 0.24735424377235, 0.312105034126751, -1.45, 0.776, -0.754], a = 0.2, v = 0.2, t = 0.1)
movej(p[0.419166267822817, 0.247356178620549, 0.312111589101408, -1.45, 0.776, -0.754], a = 0.2, v = 0.2, t = 0.1)
movej(p[0.419172668266471, 0.247361230990836, 0.312118428801731, -1.45, 0.776, -0.754], a = 0.2, v = 0.2, t = 0.1)
movej(p[0.419186822600271, 0.247368086675891, 0.312124018623473, -1.45, 0.776, -0.754], a = 0.2, v = 0.2, t = 0.1)
movej(p[0.419208182504172, 0.247374004649623, 0.312128594505381, -1.45, 0.776, -0.754], a = 0.2, v = 0.2, t = 0.1)
movej(p[0.41923454768672, 0.247377455111193, 0.312132440809737, -1.45, 0.776, -0.754], a = 0.2, v = 0.2, t = 0.1)
movej(p[0.419262797836827, 0.247378435084167, 0.312137025220045, -1.45, 0.776, -0.754], a = 0.2, v = 0.2, t = 0.1)
movej(p[0.419290905983949, 0.247377598824439, 0.312142404513314, -1.45, 0.776, -0.754], a = 0.2, v = 0.2, t = 0.1)
movej(p[0.419317786760872, 0.247375551756959, 0.312146536591692, -1.45, 0.776, -0.754], a = 0.2, v = 0.2, t = 0.1)
movej(p[0.419343025258903, 0.24737450519908, 0.312148222147317, -1.45, 0.776, -0.754], a = 0.2, v = 0.2, t = 0.1)
movej(p[0.41936604037277, 0.24737596394497, 0.312146168337904, -1.45, 0.776, -0.754], a = 0.2, v = 0.2, t = 0.1)
movej(p[0.41938516124657, 0.247379285721241, 0.312140862252197, -1.45, 0.776, -0.754], a = 0.2, v = 0.2, t = 0.1)
movej(p[0.419398856642651, 0.247382761076372, 0.312132163359975, -1.45, 0.776, -0.754], a = 0.2, v = 0.2, t = 0.1)
movej(p[0.419406665002919, 0.247385909128342, 0.312120995296234, -1.45, 0.776, -0.754], a = 0.2, v = 0.2, t = 0.1)
movej(p[0.419409211572427, 0.247388129516855, 0.312109170248091, -1.45, 0.776, -0.754], a = 0.2, v = 0.2, t = 0.1)
movej(p[0.419406622542727, 0.247387727416906, 0.312097447674489, -1.45, 0.776, -0.754], a = 0.2, v = 0.2, t = 0.1)
movej(p[0.419398779526308, 0.247383182125757, 0.312084031791036, -1.45, 0.776, -0.754], a = 0.2, v = 0.2, t = 0.1)
movej(p[0.419386390310509, 0.247375153001443, 0.312067805441489, -1.45, 0.776, -0.754], a = 0.2, v = 0.2, t = 0.1)
movej(p[0.41937156029161, 0.24736486355717, 0.312049576092213, -1.45, 0.776, -0.754], a = 0.2, v = 0.2, t = 0.1)
movej(p[0.419356909183624, 0.247353159031682, 0.312028831928821, -1.45, 0.776, -0.754], a = 0.2, v = 0.2, t = 0.1)
movej(p[0.419343293461606, 0.247341766632896, 0.312006182912201, -1.45, 0.776, -0.754], a = 0.2, v = 0.2, t = 0.1)
movej(p[0.419330113447506, 0.247332394481574, 0.311984160704003, -1.45, 0.776, -0.754], a = 0.2, v = 0.2, t = 0.1)
movej(p[0.41931803918864, 0.247326663725771, 0.311966460646778, -1.45, 0.776, -0.754], a = 0.2, v = 0.2, t = 0.1)
movej(p[0.419308847878289, 0.247325009821738, 0.311955153941843, -1.45, 0.776, -0.754], a = 0.2, v = 0.2, t = 0.1)
movej(p[0.419304461961562, 0.247327331866379, 0.311948502668495, -1.45, 0.776, -0.754], a = 0.2, v = 0.2, t = 0.1)
movej(p[0.419305778282186, 0.247332355285935, 0.311945252748961, -1.45, 0.776, -0.754], a = 0.2, v = 0.2, t = 0.1)
movej(p[0.419312720611385, 0.247339622935371, 0.311945112627771, -1.45, 0.776, -0.754], a = 0.2, v = 0.2, t = 0.1)
movej(p[0.419323957366208, 0.247349132183153, 0.311946624571784, -1.45, 0.776, -0.754], a = 0.2, v = 0.2, t = 0.1)
movej(p[0.419337985560576, 0.247359953631391, 0.311947949272048, -1.45, 0.776, -0.754], a = 0.2, v = 0.2, t = 0.1)
movej(p[0.419352397959046, 0.247371322405293, 0.311949044466698, -1.45, 0.776, -0.754], a = 0.2, v = 0.2, t = 0.1)
movej(p[0.419365571099534, 0.247382089748992, 0.311951366950787, -1.45, 0.776, -0.754], a = 0.2, v = 0.2, t = 0.1)
movej(p[0.419376995796282, 0.247391799451235, 0.311955572031232, -1.45, 0.776, -0.754], a = 0.2, v = 0.2, t = 0.1)
movej(p[0.419386331457564, 0.247400131734867, 0.31195970283659, -1.45, 0.776, -0.754], a = 0.2, v = 0.2, t = 0.1)
movej(p[0.419394020453016, 0.247406959366325, 0.311961803179568, -1.45, 0.776, -0.754], a = 0.2, v = 0.2, t = 0.1)
movej(p[0.419400812841894, 0.247413767434429, 0.311962886355929, -1.45, 0.776, -0.754], a = 0.2, v = 0.2, t = 0.1)
movej(p[0.419407908202809, 0.247420210378403, 0.311962183246111, -1.45, 0.776, -0.754], a = 0.2, v = 0.2, t = 0.1)
movej(p[0.419415087122054, 0.247424843406324, 0.311958062459322, -1.45, 0.776, -0.754], a = 0.2, v = 0.2, t = 0.1)
movej(p[0.419420860853338, 0.247425617207274, 0.311950321569634, -1.45, 0.776, -0.754], a = 0.2, v = 0.2, t = 0.1)
movej(p[0.419423765891256, 0.247421608630499, 0.311942215635207, -1.45, 0.776, -0.754], a = 0.2, v = 0.2, t = 0.1)
movej(p[0.4194212374255, 0.247413963113423, 0.311935422269285, -1.45, 0.776, -0.754], a = 0.2, v = 0.2, t = 0.1)
movej(p[0.419412278444811, 0.247404843235167, 0.311927382890601, -1.45, 0.776, -0.754], a = 0.2, v = 0.2, t = 0.1)
movej(p[0.419398251498939, 0.24739525316599, 0.311915468898338, -1.45, 0.776, -0.754], a = 0.2, v = 0.2, t = 0.1)
movej(p[0.419380986221768, 0.24738509498689, 0.311900444793452, -1.45, 0.776, -0.754], a = 0.2, v = 0.2, t = 0.1)
movej(p[0.419361965139889, 0.247374986468162, 0.311885744393176, -1.45, 0.776, -0.754], a = 0.2, v = 0.2, t = 0.1)
movej(p[0.419341740149037, 0.247365005907997, 0.311874425719498, -1.45, 0.776, -0.754], a = 0.2, v = 0.2, t = 0.1)
movej(p[0.41932137927573, 0.247355705289955, 0.311867189792037, -1.45, 0.776, -0.754], a = 0.2, v = 0.2, t = 0.1)
movej(p[0.419302088881017, 0.24734708150737, 0.311862645217832, -1.45, 0.776, -0.754], a = 0.2, v = 0.2, t = 0.1)
movej(p[0.419284501585443, 0.247338950010987, 0.31185901655389, -1.45, 0.776, -0.754], a = 0.2, v = 0.2, t = 0.1)
movej(p[0.419269135488232, 0.247330963075155, 0.311855692345336, -1.45, 0.776, -0.754], a = 0.2, v = 0.2, t = 0.1)
movej(p[0.419256319479464, 0.247322926605008, 0.311853073814673, -1.45, 0.776, -0.754], a = 0.2, v = 0.2, t = 0.1)
movej(p[0.419248014860028, 0.247316336728771, 0.311852319008602, -1.45, 0.776, -0.754], a = 0.2, v = 0.2, t = 0.1)
movej(p[0.419247429507493, 0.247312179095452, 0.311854609544039, -1.45, 0.776, -0.754], a = 0.2, v = 0.2, t = 0.1)
movej(p[0.419255329501949, 0.247310525252308, 0.311860202559634, -1.45, 0.776, -0.754], a = 0.2, v = 0.2, t = 0.1)
movej(p[0.419269640159489, 0.247311408286343, 0.311867844897802, -1.45, 0.776, -0.754], a = 0.2, v = 0.2, t = 0.1)
movej(p[0.419288370862412, 0.247315122627359, 0.311876028379753, -1.45, 0.776, -0.754], a = 0.2, v = 0.2, t = 0.1)
movej(p[0.419310369724712, 0.247320974996374, 0.311882634557498, -1.45, 0.776, -0.754], a = 0.2, v = 0.2, t = 0.1)
movej(p[0.419334318293285, 0.247327107635876, 0.311886441689888, -1.45, 0.776, -0.754], a = 0.2, v = 0.2, t = 0.1)
movej(p[0.419358791849084, 0.247332348539931, 0.311888436694714, -1.45, 0.776, -0.754], a = 0.2, v = 0.2, t = 0.1)
movej(p[0.419382131010178, 0.24733623243825, 0.311888465733852, -1.45, 0.776, -0.754], a = 0.2, v = 0.2, t = 0.1)
movej(p[0.419402406502472, 0.247338540978065, 0.311885993111929, -1.45, 0.776, -0.754], a = 0.2, v = 0.2, t = 0.1)
movej(p[0.419417448279885, 0.24733935527918, 0.311880776396301, -1.45, 0.776, -0.754], a = 0.2, v = 0.2, t = 0.1)
movej(p[0.419425564679338, 0.247339401764774, 0.311874199353348, -1.45, 0.776, -0.754], a = 0.2, v = 0.2, t = 0.1)
movej(p[0.419426559566005, 0.24733870892345, 0.311866502708077, -1.45, 0.776, -0.754], a = 0.2, v = 0.2, t = 0.1)
movej(p[0.41942094659156, 0.247336986529834, 0.311856766519084, -1.45, 0.776, -0.754], a = 0.2, v = 0.2, t = 0.1)
movej(p[0.419409780535985, 0.247334990252018, 0.311845581265766, -1.45, 0.776, -0.754], a = 0.2, v = 0.2, t = 0.1)
movej(p[0.419394617870148, 0.247333121162914, 0.311834863820566, -1.45, 0.776, -0.754], a = 0.2, v = 0.2, t = 0.1)
movej(p[0.419376284504373, 0.247331430494929, 0.311824932319264, -1.45, 0.776, -0.754], a = 0.2, v = 0.2, t = 0.1)
movej(p[0.419354638953355, 0.247329328823033, 0.311815591687411, -1.45, 0.776, -0.754], a = 0.2, v = 0.2, t = 0.1)
movej(p[0.419329959626314, 0.247326282456466, 0.311806388917855, -1.45, 0.776, -0.754], a = 0.2, v = 0.2, t = 0.1)
movej(p[0.419303747814926, 0.247322115474646, 0.311797718661383, -1.45, 0.776, -0.754], a = 0.2, v = 0.2, t = 0.1)
movej(p[0.419279324514, 0.247316292584033, 0.31178957027309, -1.45, 0.776, -0.754], a = 0.2, v = 0.2, t = 0.1)
movej(p[0.419259475805725, 0.247309863612207, 0.31178297819731, -1.45, 0.776, -0.754], a = 0.2, v = 0.2, t = 0.1)
movej(p[0.419245177831862, 0.247303896482497, 0.311779556000289, -1.45, 0.776, -0.754], a = 0.2, v = 0.2, t = 0.1)
movej(p[0.419235709469368, 0.247298465902959, 0.311780253655321, -1.45, 0.776, -0.754], a = 0.2, v = 0.2, t = 0.1)
movej(p[0.419230394866914, 0.247295167338897, 0.311786061962811, -1.45, 0.776, -0.754], a = 0.2, v = 0.2, t = 0.1)
movej(p[0.419230315995407, 0.24729445832155, 0.311796184132869, -1.45, 0.776, -0.754], a = 0.2, v = 0.2, t = 0.1)
movej(p[0.419237143343257, 0.247295316485063, 0.31180841321046, -1.45, 0.776, -0.754], a = 0.2, v = 0.2, t = 0.1)
movej(p[0.419250651454672, 0.247297484275471, 0.311819917273861, -1.45, 0.776, -0.754], a = 0.2, v = 0.2, t = 0.1)
movej(p[0.41926906192822, 0.247301568397121, 0.311829247193962, -1.45, 0.776, -0.754], a = 0.2, v = 0.2, t = 0.1)
movej(p[0.419290300875518, 0.247307310039012, 0.311835841510309, -1.45, 0.776, -0.754], a = 0.2, v = 0.2, t = 0.1)
movej(p[0.419311791601018, 0.247313096793854, 0.311839873796492, -1.45, 0.776, -0.754], a = 0.2, v = 0.2, t = 0.1)
movej(p[0.419331320920618, 0.247318331863409, 0.31184278279988, -1.45, 0.776, -0.754], a = 0.2, v = 0.2, t = 0.1)
movej(p[0.419347748169944, 0.247323011825021, 0.311845207479839, -1.45, 0.776, -0.754], a = 0.2, v = 0.2, t = 0.1)
movej(p[0.419360123022136, 0.247326293514698, 0.311845757845236, -1.45, 0.776, -0.754], a = 0.2, v = 0.2, t = 0.1)
movej(p[0.41936712417508, 0.247326578257782, 0.311842799851688, -1.45, 0.776, -0.754], a = 0.2, v = 0.2, t = 0.1)
movej(p[0.419368171664639, 0.247324121540624, 0.311837468119096, -1.45, 0.776, -0.754], a = 0.2, v = 0.2, t = 0.1)
movej(p[0.41936303210062, 0.247320624454171, 0.311832340067026, -1.45, 0.776, -0.754], a = 0.2, v = 0.2, t = 0.1)
movej(p[0.419351366176917, 0.247317214107252, 0.31182877795318, -1.45, 0.776, -0.754], a = 0.2, v = 0.2, t = 0.1)
movej(p[0.419333324424447, 0.247313940968081, 0.311828089641621, -1.45, 0.776, -0.754], a = 0.2, v = 0.2, t = 0.1)
movej(p[0.419310946248647, 0.247310415277759, 0.311830584884618, -1.45, 0.776, -0.754], a = 0.2, v = 0.2, t = 0.1)
movej(p[0.419286010175056, 0.247307042605706, 0.311835137358351, -1.45, 0.776, -0.754], a = 0.2, v = 0.2, t = 0.1)
movej(p[0.419259522157844, 0.247303742602891, 0.311839406120649, -1.45, 0.776, -0.754], a = 0.2, v = 0.2, t = 0.1)
movej(p[0.419233272613456, 0.247299434328029, 0.311840290120742, -1.45, 0.776, -0.754], a = 0.2, v = 0.2, t = 0.1)
movej(p[0.419208900035228, 0.247293499706219, 0.311837539977381, -1.45, 0.776, -0.754], a = 0.2, v = 0.2, t = 0.1)
movej(p[0.419187474239919, 0.247287445666507, 0.311834289914227, -1.45, 0.776, -0.754], a = 0.2, v = 0.2, t = 0.1)
movej(p[0.419170393135211, 0.247283492474219, 0.311832654132544, -1.45, 0.776, -0.754], a = 0.2, v = 0.2, t = 0.1)
movej(p[0.419160250949829, 0.247282137278358, 0.311832805528852, -1.45, 0.776, -0.754], a = 0.2, v = 0.2, t = 0.1)
movej(p[0.419158736993587, 0.247282123089615, 0.311834390261062, -1.45, 0.776, -0.754], a = 0.2, v = 0.2, t = 0.1)
movej(p[0.419164933133106, 0.247282267363235, 0.311836176696111, -1.45, 0.776, -0.754], a = 0.2, v = 0.2, t = 0.1)
movej(p[0.419177579841909, 0.24728338238853, 0.311836677539431, -1.45, 0.776, -0.754], a = 0.2, v = 0.2, t = 0.1)
movej(p[0.419194722150151, 0.247287351386157, 0.311836009413712, -1.45, 0.776, -0.754], a = 0.2, v = 0.2, t = 0.1)
movej(p[0.419214455426291, 0.247294597744134, 0.311835988086638, -1.45, 0.776, -0.754], a = 0.2, v = 0.2, t = 0.1)
movej(p[0.419236026808852, 0.247303745851379, 0.311838059946729, -1.45, 0.776, -0.754], a = 0.2, v = 0.2, t = 0.1)
movej(p[0.419259369279262, 0.247312847566651, 0.311841044062058, -1.45, 0.776, -0.754], a = 0.2, v = 0.2, t = 0.1)
movej(p[0.419284102644113, 0.247322160455459, 0.31184317935739, -1.45, 0.776, -0.754], a = 0.2, v = 0.2, t = 0.1)
movej(p[0.419309508392414, 0.247333098225996, 0.311844440830733, -1.45, 0.776, -0.754], a = 0.2, v = 0.2, t = 0.1)
movej(p[0.419334709653214, 0.247345192832649, 0.311845406216148, -1.45, 0.776, -0.754], a = 0.2, v = 0.2, t = 0.1)
movej(p[0.419358019857259, 0.247356372939195, 0.311847392591232, -1.45, 0.776, -0.754], a = 0.2, v = 0.2, t = 0.1)
movej(p[0.419377940336284, 0.24736448835977, 0.311849987559111, -1.45, 0.776, -0.754], a = 0.2, v = 0.2, t = 0.1)
movej(p[0.419392945290117, 0.247368996318385, 0.311850686732622, -1.45, 0.776, -0.754], a = 0.2, v = 0.2, t = 0.1)
movej(p[0.419403198787026, 0.247369814288008, 0.311848468313403, -1.45, 0.776, -0.754], a = 0.2, v = 0.2, t = 0.1)
movej(p[0.419408798337464, 0.247366319375247, 0.311844705119189, -1.45, 0.776, -0.754], a = 0.2, v = 0.2, t = 0.1)
movej(p[0.419409944636135, 0.247359038547797, 0.311840584823203, -1.45, 0.776, -0.754], a = 0.2, v = 0.2, t = 0.1)
movej(p[0.419407350013275, 0.247348807575223, 0.311833739341015, -1.45, 0.776, -0.754], a = 0.2, v = 0.2, t = 0.1)
movej(p[0.419401583974849, 0.247336763228551, 0.311824757514357, -1.45, 0.776, -0.754], a = 0.2, v = 0.2, t = 0.1)
movej(p[0.419392572290818, 0.247324846391551, 0.311816161477662, -1.45, 0.776, -0.754], a = 0.2, v = 0.2, t = 0.1)
movej(p[0.419380440146595, 0.247314725592298, 0.311809518534563, -1.45, 0.776, -0.754], a = 0.2, v = 0.2, t = 0.1)
movej(p[0.419366956776819, 0.24730630286378, 0.31180414104762, -1.45, 0.776, -0.754], a = 0.2, v = 0.2, t = 0.1)
movej(p[0.419353858380796, 0.247298170591741, 0.311798690319677, -1.45, 0.776, -0.754], a = 0.2, v = 0.2, t = 0.1)
movej(p[0.419342084093719, 0.247289339471064, 0.311794953660018, -1.45, 0.776, -0.754], a = 0.2, v = 0.2, t = 0.1)
movej(p[0.419332510223849, 0.247280942533783, 0.311794614076439, -1.45, 0.776, -0.754], a = 0.2, v = 0.2, t = 0.1)
movej(p[0.419325699067316, 0.247273881574987, 0.311798770727563, -1.45, 0.776, -0.754], a = 0.2, v = 0.2, t = 0.1)
movej(p[0.419322046565698, 0.247269277537564, 0.311806807773061, -1.45, 0.776, -0.754], a = 0.2, v = 0.2, t = 0.1)
movej(p[0.419322768930072, 0.24726902470223, 0.311818573350565, -1.45, 0.776, -0.754], a = 0.2, v = 0.2, t = 0.1)
movej(p[0.419328449198405, 0.247274604651149, 0.311832444495497, -1.45, 0.776, -0.754], a = 0.2, v = 0.2, t = 0.1)
movej(p[0.419338827399068, 0.247285478269143, 0.311846209581175, -1.45, 0.776, -0.754], a = 0.2, v = 0.2, t = 0.1)
movej(p[0.419353188548053, 0.247299109681222, 0.311858246641844, -1.45, 0.776, -0.754], a = 0.2, v = 0.2, t = 0.1)
movej(p[0.419370518636168, 0.24731342386102, 0.311868658068578, -1.45, 0.776, -0.754], a = 0.2, v = 0.2, t = 0.1)
movej(p[0.419389353034066, 0.247328128510536, 0.311879112056737, -1.45, 0.776, -0.754], a = 0.2, v = 0.2, t = 0.1)
movej(p[0.419407946602501, 0.247342490717521, 0.311890553078474, -1.45, 0.776, -0.754], a = 0.2, v = 0.2, t = 0.1)
movej(p[0.419425917416194, 0.247355730757616, 0.311901963326829, -1.45, 0.776, -0.754], a = 0.2, v = 0.2, t = 0.1)
movej(p[0.419443564027404, 0.247366712102346, 0.311911231262181, -1.45, 0.776, -0.754], a = 0.2, v = 0.2, t = 0.1)
movej(p[0.419460530589186, 0.247375807014075, 0.311917210467642, -1.45, 0.776, -0.754], a = 0.2, v = 0.2, t = 0.1)
movej(p[0.419475720463708, 0.247383349135237, 0.311920752130726, -1.45, 0.776, -0.754], a = 0.2, v = 0.2, t = 0.1)
movej(p[0.419486042648416, 0.247388620405806, 0.31192250439881, -1.45, 0.776, -0.754], a = 0.2, v = 0.2, t = 0.1)
movej(p[0.419487867504926, 0.247390690876026, 0.311920639437206, -1.45, 0.776, -0.754], a = 0.2, v = 0.2, t = 0.1)
movej(p[0.419480619528542, 0.247389195306808, 0.311913887625594, -1.45, 0.776, -0.754], a = 0.2, v = 0.2, t = 0.1)
movej(p[0.419466335604768, 0.247385093200695, 0.311903797279611, -1.45, 0.776, -0.754], a = 0.2, v = 0.2, t = 0.1)
movej(p[0.41944682521347, 0.247379033252939, 0.311892707157493, -1.45, 0.776, -0.754], a = 0.2, v = 0.2, t = 0.1)
movej(p[0.419422868977694, 0.247370961104873, 0.311881286304676, -1.45, 0.776, -0.754], a = 0.2, v = 0.2, t = 0.1)
movej(p[0.419395927243146, 0.247361348065703, 0.311869932539023, -1.45, 0.776, -0.754], a = 0.2, v = 0.2, t = 0.1)
movej(p[0.419366512782695, 0.247350830452119, 0.311859410246601, -1.45, 0.776, -0.754], a = 0.2, v = 0.2, t = 0.1)
movej(p[0.419335271343881, 0.247339809956241, 0.3118499450788, -1.45, 0.776, -0.754], a = 0.2, v = 0.2, t = 0.1)
movej(p[0.419304170045981, 0.247329092687543, 0.311840872558172, -1.45, 0.776, -0.754], a = 0.2, v = 0.2, t = 0.1)
movej(p[0.419275017544325, 0.247319309881737, 0.311830687698882, -1.45, 0.776, -0.754], a = 0.2, v = 0.2, t = 0.1)
movej(p[0.419249425606753, 0.247311567908527, 0.311820668959184, -1.45, 0.776, -0.754], a = 0.2, v = 0.2, t = 0.1)
movej(p[0.419228935688953, 0.247305517185892, 0.311812631041471, -1.45, 0.776, -0.754], a = 0.2, v = 0.2, t = 0.1)
movej(p[0.419215158442403, 0.247301052142082, 0.311808413141607, -1.45, 0.776, -0.754], a = 0.2, v = 0.2, t = 0.1)
movej(p[0.419208613600552, 0.247298174728664, 0.311807842823134, -1.45, 0.776, -0.754], a = 0.2, v = 0.2, t = 0.1)
movej(p[0.419207701161044, 0.24729736297015, 0.311808782354539, -1.45, 0.776, -0.754], a = 0.2, v = 0.2, t = 0.1)
movej(p[0.419211146406154, 0.247298325560552, 0.31181010746693, -1.45, 0.776, -0.754], a = 0.2, v = 0.2, t = 0.1)
movej(p[0.419218331428084, 0.247300156607658, 0.311811072231858, -1.45, 0.776, -0.754], a = 0.2, v = 0.2, t = 0.1)
movej(p[0.419228202703416, 0.247302678265859, 0.311810870048214, -1.45, 0.776, -0.754], a = 0.2, v = 0.2, t = 0.1)
movej(p[0.419240231042636, 0.247307391284655, 0.311810857701684, -1.45, 0.776, -0.754], a = 0.2, v = 0.2, t = 0.1)
movej(p[0.419254284581819, 0.247315459745083, 0.311812151926454, -1.45, 0.776, -0.754], a = 0.2, v = 0.2, t = 0.1)
movej(p[0.419270700008309, 0.247326247854967, 0.311815903824146, -1.45, 0.776, -0.754], a = 0.2, v = 0.2, t = 0.1)
movej(p[0.419288923688365, 0.247339226876362, 0.31182261318558, -1.45, 0.776, -0.754], a = 0.2, v = 0.2, t = 0.1)
movej(p[0.41930772261121, 0.247353626794739, 0.311832068305653, -1.45, 0.776, -0.754], a = 0.2, v = 0.2, t = 0.1)
movej(p[0.41932547214064, 0.247368778577203, 0.311842957156473, -1.45, 0.776, -0.754], a = 0.2, v = 0.2, t = 0.1)
movej(p[0.419341700145315, 0.247383292141107, 0.311853034770282, -1.45, 0.776, -0.754], a = 0.2, v = 0.2, t = 0.1)
movej(p[0.419355420816319, 0.247395811876061, 0.311861037368914, -1.45, 0.776, -0.754], a = 0.2, v = 0.2, t = 0.1)
movej(p[0.419365222033851, 0.247404621822228, 0.311866787091466, -1.45, 0.776, -0.754], a = 0.2, v = 0.2, t = 0.1)
movej(p[0.419369504685494, 0.24740831552509, 0.311870316158493, -1.45, 0.776, -0.754], a = 0.2, v = 0.2, t = 0.1)
movej(p[0.41936775645402, 0.247407807815807, 0.311870843626973, -1.45, 0.776, -0.754], a = 0.2, v = 0.2, t = 0.1)
movej(p[0.419361177019177, 0.247404483932274, 0.31186879254594, -1.45, 0.776, -0.754], a = 0.2, v = 0.2, t = 0.1)
movej(p[0.419351014998325, 0.247399838942921, 0.311866165403363, -1.45, 0.776, -0.754], a = 0.2, v = 0.2, t = 0.1)
movej(p[0.419338019539668, 0.247394858649416, 0.311864709046988, -1.45, 0.776, -0.754], a = 0.2, v = 0.2, t = 0.1)
movej(p[0.419323705869564, 0.247389686453799, 0.311864243924774, -1.45, 0.776, -0.754], a = 0.2, v = 0.2, t = 0.1)
movej(p[0.419309344222706, 0.24738428264214, 0.311863125627821, -1.45, 0.776, -0.754], a = 0.2, v = 0.2, t = 0.1)
movej(p[0.41929556122038, 0.247378103080499, 0.311860112099359, -1.45, 0.776, -0.754], a = 0.2, v = 0.2, t = 0.1)
movej(p[0.419282195401356, 0.247371121423476, 0.311855405841714, -1.45, 0.776, -0.754], a = 0.2, v = 0.2, t = 0.1)
movej(p[0.41926977478667, 0.247363488980461, 0.311849263050619, -1.45, 0.776, -0.754], a = 0.2, v = 0.2, t = 0.1)
movej(p[0.419259335671277, 0.247355806242121, 0.311842652019275, -1.45, 0.776, -0.754], a = 0.2, v = 0.2, t = 0.1)
movej(p[0.419252096469655, 0.247349154184295, 0.311837013320972, -1.45, 0.776, -0.754], a = 0.2, v = 0.2, t = 0.1)
movej(p[0.41924972648838, 0.247344539670644, 0.311833029992398, -1.45, 0.776, -0.754], a = 0.2, v = 0.2, t = 0.1)
movej(p[0.419253098362801, 0.247342470579881, 0.311831043254544, -1.45, 0.776, -0.754], a = 0.2, v = 0.2, t = 0.1)
movej(p[0.41926208695584, 0.247343389940726, 0.311830414586254, -1.45, 0.776, -0.754], a = 0.2, v = 0.2, t = 0.1)
movej(p[0.419275384714119, 0.247347257904372, 0.311832585788223, -1.45, 0.776, -0.754], a = 0.2, v = 0.2, t = 0.1)
movej(p[0.419291910979091, 0.24735364299444, 0.311839408647219, -1.45, 0.776, -0.754], a = 0.2, v = 0.2, t = 0.1)
movej(p[0.419310555805402, 0.247362115471506, 0.311850994106176, -1.45, 0.776, -0.754], a = 0.2, v = 0.2, t = 0.1)
movej(p[0.419330204054659, 0.247373015913206, 0.311865606046939, -1.45, 0.776, -0.754], a = 0.2, v = 0.2, t = 0.1)
movej(p[0.419349545451192, 0.247386809378667, 0.311880693967661, -1.45, 0.776, -0.754], a = 0.2, v = 0.2, t = 0.1)
movej(p[0.419368384981815, 0.247402427297583, 0.31189523785052, -1.45, 0.776, -0.754], a = 0.2, v = 0.2, t = 0.1)
movej(p[0.419386238330343, 0.247417228254663, 0.311907686061833, -1.45, 0.776, -0.754], a = 0.2, v = 0.2, t = 0.1)
movej(p[0.41940068048455, 0.247429134636487, 0.311917622068059, -1.45, 0.776, -0.754], a = 0.2, v = 0.2, t = 0.1)
movej(p[0.419410231436444, 0.247437045347815, 0.311926111290531, -1.45, 0.776, -0.754], a = 0.2, v = 0.2, t = 0.1)
movej(p[0.419414504405029, 0.247440818879931, 0.311933580789835, -1.45, 0.776, -0.754], a = 0.2, v = 0.2, t = 0.1)
movej(p[0.419414510470476, 0.247441512160679, 0.311940005141243, -1.45, 0.776, -0.754], a = 0.2, v = 0.2, t = 0.1)
movej(p[0.419411336180459, 0.247439591755333, 0.311945885692934, -1.45, 0.776, -0.754], a = 0.2, v = 0.2, t = 0.1)
movej(p[0.419405140541615, 0.247435268395612, 0.311950405235614, -1.45, 0.776, -0.754], a = 0.2, v = 0.2, t = 0.1)
movej(p[0.419396090167683, 0.24742901812479, 0.311952247973073, -1.45, 0.776, -0.754], a = 0.2, v = 0.2, t = 0.1)
movej(p[0.41938428483326, 0.247422060758579, 0.311949698854682, -1.45, 0.776, -0.754], a = 0.2, v = 0.2, t = 0.1)
movej(p[0.419369207433979, 0.247415317529356, 0.31194223803914, -1.45, 0.776, -0.754], a = 0.2, v = 0.2, t = 0.1)
movej(p[0.419351449724896, 0.247409085229056, 0.311931615534017, -1.45, 0.776, -0.754], a = 0.2, v = 0.2, t = 0.1)
movej(p[0.419331959762513, 0.247404637668935, 0.311919563696883, -1.45, 0.776, -0.754], a = 0.2, v = 0.2, t = 0.1)
movej(p[0.419311981421595, 0.247403063534112, 0.311907216452465, -1.45, 0.776, -0.754], a = 0.2, v = 0.2, t = 0.1)
movej(p[0.419293204780583, 0.247404837802335, 0.311895002006322, -1.45, 0.776, -0.754], a = 0.2, v = 0.2, t = 0.1)
movej(p[0.419277871028571, 0.247409122530311, 0.311884135209673, -1.45, 0.776, -0.754], a = 0.2, v = 0.2, t = 0.1)
movej(p[0.419268608880642, 0.247414285906214, 0.311875583048132, -1.45, 0.776, -0.754], a = 0.2, v = 0.2, t = 0.1)
movej(p[0.419266242967277, 0.247420005333987, 0.31186902979658, -1.45, 0.776, -0.754], a = 0.2, v = 0.2, t = 0.1)
movej(p[0.419269206568243, 0.2474260841438, 0.31186118367591, -1.45, 0.776, -0.754], a = 0.2, v = 0.2, t = 0.1)
movej(p[0.41927588159138, 0.247432742674268, 0.311851643978424, -1.45, 0.776, -0.754], a = 0.2, v = 0.2, t = 0.1)
movej(p[0.41928552585225, 0.247439277356232, 0.311843197329805, -1.45, 0.776, -0.754], a = 0.2, v = 0.2, t = 0.1)
movej(p[0.419297344931314, 0.247444947044615, 0.311836844302674, -1.45, 0.776, -0.754], a = 0.2, v = 0.2, t = 0.1)
movej(p[0.419310061149389, 0.247449089972321, 0.311831408909691, -1.45, 0.776, -0.754], a = 0.2, v = 0.2, t = 0.1)
movej(p[0.419322793660562, 0.247451711908829, 0.311825044251241, -1.45, 0.776, -0.754], a = 0.2, v = 0.2, t = 0.1)
movej(p[0.419335238628563, 0.247452450683415, 0.311818537743917, -1.45, 0.776, -0.754], a = 0.2, v = 0.2, t = 0.1)
movej(p[0.41934655263212, 0.247450917587665, 0.311812933871956, -1.45, 0.776, -0.754], a = 0.2, v = 0.2, t = 0.1)
movej(p[0.419355425130401, 0.247447080532269, 0.311806822750608, -1.45, 0.776, -0.754], a = 0.2, v = 0.2, t = 0.1)
movej(p[0.419359978978485, 0.247441312436448, 0.31179976550382, -1.45, 0.776, -0.754], a = 0.2, v = 0.2, t = 0.1)
movej(p[0.419359325834865, 0.247434340276888, 0.31179229765028, -1.45, 0.776, -0.754], a = 0.2, v = 0.2, t = 0.1)
movej(p[0.419352622709248, 0.247426848182492, 0.311784662107698, -1.45, 0.776, -0.754], a = 0.2, v = 0.2, t = 0.1)
movej(p[0.419339831154984, 0.247419352892414, 0.311776268991759, -1.45, 0.776, -0.754], a = 0.2, v = 0.2, t = 0.1)
movej(p[0.41932231781579, 0.247411805780895, 0.311766547301166, -1.45, 0.776, -0.754], a = 0.2, v = 0.2, t = 0.1)
movej(p[0.419302247392882, 0.247402721306185, 0.311756912116606, -1.45, 0.776, -0.754], a = 0.2, v = 0.2, t = 0.1)
movej(p[0.419281216630188, 0.247391879856568, 0.311748402717406, -1.45, 0.776, -0.754], a = 0.2, v = 0.2, t = 0.1)
movej(p[0.419260393804058, 0.247380451084306, 0.31174128762538, -1.45, 0.776, -0.754], a = 0.2, v = 0.2, t = 0.1)
movej(p[0.419241188323203, 0.247369167306947, 0.311736213455631, -1.45, 0.776, -0.754], a = 0.2, v = 0.2, t = 0.1)
movej(p[0.419226282283811, 0.247358473012056, 0.311735336280942, -1.45, 0.776, -0.754], a = 0.2, v = 0.2, t = 0.1)
movej(p[0.419217745041671, 0.247348826596097, 0.311738917838393, -1.45, 0.776, -0.754], a = 0.2, v = 0.2, t = 0.1)
movej(p[0.419215568643307, 0.247341696943785, 0.311744522882735, -1.45, 0.776, -0.754], a = 0.2, v = 0.2, t = 0.1)
movej(p[0.419218565416637, 0.247338290858246, 0.311749810036971, -1.45, 0.776, -0.754], a = 0.2, v = 0.2, t = 0.1)
movej(p[0.419226137795157, 0.247337986509177, 0.311755214766769, -1.45, 0.776, -0.754], a = 0.2, v = 0.2, t = 0.1)
movej(p[0.419237648198593, 0.247340276162534, 0.311761939522767, -1.45, 0.776, -0.754], a = 0.2, v = 0.2, t = 0.1)
movej(p[0.419251828083537, 0.247343861328467, 0.311770226031515, -1.45, 0.776, -0.754], a = 0.2, v = 0.2, t = 0.1)
movej(p[0.419267929802159, 0.247348746355589, 0.311779893141652, -1.45, 0.776, -0.754], a = 0.2, v = 0.2, t = 0.1)
movej(p[0.419285604739581, 0.247352715575714, 0.311791025180852, -1.45, 0.776, -0.754], a = 0.2, v = 0.2, t = 0.1)
movej(p[0.419303991691209, 0.247354562708267, 0.311801224309498, -1.45, 0.776, -0.754], a = 0.2, v = 0.2, t = 0.1)
movej(p[0.419322316315382, 0.247355915811049, 0.311808658339616, -1.45, 0.776, -0.754], a = 0.2, v = 0.2, t = 0.1)
movej(p[0.419340557854782, 0.24735988556807, 0.311812254269746, -1.45, 0.776, -0.754], a = 0.2, v = 0.2, t = 0.1)
movej(p[0.419358722080155, 0.24736697477045, 0.311814309140112, -1.45, 0.776, -0.754], a = 0.2, v = 0.2, t = 0.1)
movej(p[0.419376027445967, 0.247375209607387, 0.311817412406737, -1.45, 0.776, -0.754], a = 0.2, v = 0.2, t = 0.1)
movej(p[0.419390388435694, 0.247381773161764, 0.311821906392271, -1.45, 0.776, -0.754], a = 0.2, v = 0.2, t = 0.1)
movej(p[0.419400343843988, 0.247385576541042, 0.311825098143324, -1.45, 0.776, -0.754], a = 0.2, v = 0.2, t = 0.1)
movej(p[0.419406139120141, 0.247386109711367, 0.311824988737157, -1.45, 0.776, -0.754], a = 0.2, v = 0.2, t = 0.1)
movej(p[0.419408361314858, 0.247384005817642, 0.311821076803641, -1.45, 0.776, -0.754], a = 0.2, v = 0.2, t = 0.1)
movej(p[0.41940706625862, 0.247380928455663, 0.311814776037926, -1.45, 0.776, -0.754], a = 0.2, v = 0.2, t = 0.1)
movej(p[0.419401041773734, 0.2473777818804, 0.311808217256334, -1.45, 0.776, -0.754], a = 0.2, v = 0.2, t = 0.1)
movej(p[0.419389964024587, 0.247374846641369, 0.311802557750731, -1.45, 0.776, -0.754], a = 0.2, v = 0.2, t = 0.1)
movej(p[0.419375182040236, 0.247371676166678, 0.311797851494695, -1.45, 0.776, -0.754], a = 0.2, v = 0.2, t = 0.1)
movej(p[0.41935772032958, 0.247367458720225, 0.31179364200929, -1.45, 0.776, -0.754], a = 0.2, v = 0.2, t = 0.1)
movej(p[0.419337729165175, 0.247362194186251, 0.311789911290486, -1.45, 0.776, -0.754], a = 0.2, v = 0.2, t = 0.1)
movej(p[0.419316047948272, 0.247357059007108, 0.311787670544459, -1.45, 0.776, -0.754], a = 0.2, v = 0.2, t = 0.1)
movej(p[0.41929476183734, 0.247353007424143, 0.311787774003968, -1.45, 0.776, -0.754], a = 0.2, v = 0.2, t = 0.1)
movej(p[0.419276273279827, 0.247349671974091, 0.311789768795949, -1.45, 0.776, -0.754], a = 0.2, v = 0.2, t = 0.1)
movej(p[0.419262273062141, 0.24734731787557, 0.311792151484533, -1.45, 0.776, -0.754], a = 0.2, v = 0.2, t = 0.1)
movej(p[0.419253468477568, 0.2473474428543, 0.311794562783108, -1.45, 0.776, -0.754], a = 0.2, v = 0.2, t = 0.1)
movej(p[0.419250315945821, 0.247350941770678, 0.311798022006108, -1.45, 0.776, -0.754], a = 0.2, v = 0.2, t = 0.1)
movej(p[0.419252660506576, 0.247357884730506, 0.311802880719281, -1.45, 0.776, -0.754], a = 0.2, v = 0.2, t = 0.1)
movej(p[0.419260092611171, 0.24736805633195, 0.311807928694158, -1.45, 0.776, -0.754], a = 0.2, v = 0.2, t = 0.1)
movej(p[0.419271452689298, 0.24738055545452, 0.311813924134252, -1.45, 0.776, -0.754], a = 0.2, v = 0.2, t = 0.1)
movej(p[0.419285248598419, 0.247393619640494, 0.311819134813417, -1.45, 0.776, -0.754], a = 0.2, v = 0.2, t = 0.1)
movej(p[0.419298630151074, 0.247404937917751, 0.311821981449758, -1.45, 0.776, -0.754], a = 0.2, v = 0.2, t = 0.1)
movej(p[0.41930818092663, 0.247413307290679, 0.311822575795695, -1.45, 0.776, -0.754], a = 0.2, v = 0.2, t = 0.1)
movej(p[0.419311770902495, 0.247418517145, 0.311822329559553, -1.45, 0.776, -0.754], a = 0.2, v = 0.2, t = 0.1)
movej(p[0.419308200249422, 0.247420542299497, 0.311821638014254, -1.45, 0.776, -0.754], a = 0.2, v = 0.2, t = 0.1)
movej(p[0.419297338398921, 0.247420196674505, 0.311819647457534, -1.45, 0.776, -0.754], a = 0.2, v = 0.2, t = 0.1)
movej(p[0.419280615615916, 0.247419148709216, 0.311814882410178, -1.45, 0.776, -0.754], a = 0.2, v = 0.2, t = 0.1)
movej(p[0.419260307995185, 0.247418301386018, 0.311807955682402, -1.45, 0.776, -0.754], a = 0.2, v = 0.2, t = 0.1)
movej(p[0.419239006317891, 0.247418500187882, 0.311799294258428, -1.45, 0.776, -0.754], a = 0.2, v = 0.2, t = 0.1)
movej(p[0.419219490573733, 0.247420221253419, 0.31179011575695, -1.45, 0.776, -0.754], a = 0.2, v = 0.2, t = 0.1)
movej(p[0.419204432131112, 0.247423595725165, 0.311780538716998, -1.45, 0.776, -0.754], a = 0.2, v = 0.2, t = 0.1)
movej(p[0.419195369142632, 0.247428141869831, 0.311771050745587, -1.45, 0.776, -0.754], a = 0.2, v = 0.2, t = 0.1)
movej(p[0.419191948095767, 0.24743332685349, 0.311762932858682, -1.45, 0.776, -0.754], a = 0.2, v = 0.2, t = 0.1)
movej(p[0.419193326842404, 0.247438314776663, 0.311756418227062, -1.45, 0.776, -0.754], a = 0.2, v = 0.2, t = 0.1)
movej(p[0.419198537382322, 0.247442303759177, 0.311751626210549, -1.45, 0.776, -0.754], a = 0.2, v = 0.2, t = 0.1)
movej(p[0.419205233898522, 0.247444839528861, 0.31174941082167, -1.45, 0.776, -0.754], a = 0.2, v = 0.2, t = 0.1)
movej(p[0.419212110407894, 0.24744687943221, 0.311749747774467, -1.45, 0.776, -0.754], a = 0.2, v = 0.2, t = 0.1)
movej(p[0.419220151100487, 0.247450442805718, 0.311752170673118, -1.45, 0.776, -0.754], a = 0.2, v = 0.2, t = 0.1)
movej(p[0.419231269544941, 0.247456580202667, 0.311756338051864, -1.45, 0.776, -0.754], a = 0.2, v = 0.2, t = 0.1)
movej(p[0.419245912738661, 0.24746476172256, 0.311762029559214, -1.45, 0.776, -0.754], a = 0.2, v = 0.2, t = 0.1)
movej(p[0.419261925373006, 0.247473183019141, 0.311768744870019, -1.45, 0.776, -0.754], a = 0.2, v = 0.2, t = 0.1)
movej(p[0.419276134157748, 0.247479503874418, 0.311775166471902, -1.45, 0.776, -0.754], a = 0.2, v = 0.2, t = 0.1)
movej(p[0.419286019769873, 0.247481832882045, 0.311778528530704, -1.45, 0.776, -0.754], a = 0.2, v = 0.2, t = 0.1)
movej(p[0.419290201408943, 0.247479718166473, 0.311777213180658, -1.45, 0.776, -0.754], a = 0.2, v = 0.2, t = 0.1)
movej(p[0.419288244227201, 0.247472853816964, 0.311770780671781, -1.45, 0.776, -0.754], a = 0.2, v = 0.2, t = 0.1)
movej(p[0.419279675745602, 0.24746206041754, 0.3117606176033, -1.45, 0.776, -0.754], a = 0.2, v = 0.2, t = 0.1)
movej(p[0.419265737011218, 0.247448464169603, 0.311747931646347, -1.45, 0.776, -0.754], a = 0.2, v = 0.2, t = 0.1)
movej(p[0.419247138866392, 0.247432899042536, 0.311735146900185, -1.45, 0.776, -0.754], a = 0.2, v = 0.2, t = 0.1)
movej(p[0.419224340255342, 0.247416146605612, 0.311724676949217, -1.45, 0.776, -0.754], a = 0.2, v = 0.2, t = 0.1)
movej(p[0.419198181900894, 0.247399196849976, 0.311716371325312, -1.45, 0.776, -0.754], a = 0.2, v = 0.2, t = 0.1)
movej(p[0.419171734870108, 0.247383351719331, 0.311708890016637, -1.45, 0.776, -0.754], a = 0.2, v = 0.2, t = 0.1)
movej(p[0.419148499128755, 0.247370140237176, 0.311702129757763, -1.45, 0.776, -0.754], a = 0.2, v = 0.2, t = 0.1)
movej(p[0.419130671415549, 0.247360782689623, 0.311696291075069, -1.45, 0.776, -0.754], a = 0.2, v = 0.2, t = 0.1)
movej(p[0.419119312995514, 0.247355480219509, 0.311692433271675, -1.45, 0.776, -0.754], a = 0.2, v = 0.2, t = 0.1)
movej(p[0.419116809571924, 0.247353649460185, 0.311692373233175, -1.45, 0.776, -0.754], a = 0.2, v = 0.2, t = 0.1)
movej(p[0.419123005985727, 0.247354521557724, 0.311696501864046, -1.45, 0.776, -0.754], a = 0.2, v = 0.2, t = 0.1)
movej(p[0.419135781641891, 0.247357694682484, 0.311702880558178, -1.45, 0.776, -0.754], a = 0.2, v = 0.2, t = 0.1)
movej(p[0.419152576407737, 0.247363290208807, 0.311709718953336, -1.45, 0.776, -0.754], a = 0.2, v = 0.2, t = 0.1)
movej(p[0.419171003178472, 0.247371044415817, 0.311717826212055, -1.45, 0.776, -0.754], a = 0.2, v = 0.2, t = 0.1)
movej(p[0.419191245512394, 0.247380619555773, 0.311727896782903, -1.45, 0.776, -0.754], a = 0.2, v = 0.2, t = 0.1)
movej(p[0.419213095574196, 0.24739044627099, 0.311738771243639, -1.45, 0.776, -0.754], a = 0.2, v = 0.2, t = 0.1)
movej(p[0.419234519203484, 0.247398057953055, 0.311747948157187, -1.45, 0.776, -0.754], a = 0.2, v = 0.2, t = 0.1)
movej(p[0.419252693152431, 0.247401448040801, 0.311753435947794, -1.45, 0.776, -0.754], a = 0.2, v = 0.2, t = 0.1)
movej(p[0.419265584626455, 0.247400944954633, 0.311755077302964, -1.45, 0.776, -0.754], a = 0.2, v = 0.2, t = 0.1)
movej(p[0.419273553436499, 0.24739784526901, 0.311753561880409, -1.45, 0.776, -0.754], a = 0.2, v = 0.2, t = 0.1)
movej(p[0.419277234817562, 0.247393346793743, 0.311750251860054, -1.45, 0.776, -0.754], a = 0.2, v = 0.2, t = 0.1)
movej(p[0.419276298679687, 0.247387604057204, 0.311745302521015, -1.45, 0.776, -0.754], a = 0.2, v = 0.2, t = 0.1)
movej(p[0.419270581612548, 0.247380905638235, 0.311739571810444, -1.45, 0.776, -0.754], a = 0.2, v = 0.2, t = 0.1)
movej(p[0.419261058175017, 0.247373202772748, 0.311733869885779, -1.45, 0.776, -0.754], a = 0.2, v = 0.2, t = 0.1)
movej(p[0.419249832505299, 0.247365175899528, 0.31172900498057, -1.45, 0.776, -0.754], a = 0.2, v = 0.2, t = 0.1)
movej(p[0.419239027026732, 0.247358679905228, 0.311725659678641, -1.45, 0.776, -0.754], a = 0.2, v = 0.2, t = 0.1)
movej(p[0.419230459157576, 0.247356060504503, 0.3117241312772, -1.45, 0.776, -0.754], a = 0.2, v = 0.2, t = 0.1)
movej(p[0.419224764282001, 0.24735891997145, 0.311724604141835, -1.45, 0.776, -0.754], a = 0.2, v = 0.2, t = 0.1)
movej(p[0.419221655996866, 0.247367211515192, 0.311726065159594, -1.45, 0.776, -0.754], a = 0.2, v = 0.2, t = 0.1)
movej(p[0.419220694471859, 0.247379403395155, 0.311729243661069, -1.45, 0.776, -0.754], a = 0.2, v = 0.2, t = 0.1)
movej(p[0.419221731509123, 0.247393748129159, 0.311736343387266, -1.45, 0.776, -0.754], a = 0.2, v = 0.2, t = 0.1)
movej(p[0.419225466312037, 0.247409803203399, 0.311748216442153, -1.45, 0.776, -0.754], a = 0.2, v = 0.2, t = 0.1)
movej(p[0.419231184515001, 0.247427293396669, 0.311762007815733, -1.45, 0.776, -0.754], a = 0.2, v = 0.2, t = 0.1)
movej(p[0.419237965609924, 0.247445242443387, 0.311774298601696, -1.45, 0.776, -0.754], a = 0.2, v = 0.2, t = 0.1)
movej(p[0.419245272489714, 0.247461225297693, 0.311783532330139, -1.45, 0.776, -0.754], a = 0.2, v = 0.2, t = 0.1)
movej(p[0.419252445646282, 0.247471978244571, 0.311790652892145, -1.45, 0.776, -0.754], a = 0.2, v = 0.2, t = 0.1)
movej(p[0.419259454275815, 0.24747798857131, 0.311796278794967, -1.45, 0.776, -0.754], a = 0.2, v = 0.2, t = 0.1)
movej(p[0.419266865340886, 0.247482269485356, 0.311799022077389, -1.45, 0.776, -0.754], a = 0.2, v = 0.2, t = 0.1)
movej(p[0.419275300503152, 0.247486687251484, 0.311797848784591, -1.45, 0.776, -0.754], a = 0.2, v = 0.2, t = 0.1)
movej(p[0.419284470518867, 0.247491249185964, 0.311792390541049, -1.45, 0.776, -0.754], a = 0.2, v = 0.2, t = 0.1)
movej(p[0.419293109937658, 0.247496174351297, 0.311783219839526, -1.45, 0.776, -0.754], a = 0.2, v = 0.2, t = 0.1)
movej(p[0.419300144292018, 0.247502431577192, 0.311772014074901, -1.45, 0.776, -0.754], a = 0.2, v = 0.2, t = 0.1)
movej(p[0.419305869110377, 0.247509980284686, 0.311761224282321, -1.45, 0.776, -0.754], a = 0.2, v = 0.2, t = 0.1)
movej(p[0.41931192679883, 0.247517853591421, 0.311751798332413, -1.45, 0.776, -0.754], a = 0.2, v = 0.2, t = 0.1)
movej(p[0.419319294498688, 0.247525635758709, 0.311742234986288, -1.45, 0.776, -0.754], a = 0.2, v = 0.2, t = 0.1)
movej(p[0.419328761120471, 0.24753243384485, 0.311730269749231, -1.45, 0.776, -0.754], a = 0.2, v = 0.2, t = 0.1)
movej(p[0.419339779809485, 0.247536986575214, 0.311717101839008, -1.45, 0.776, -0.754], a = 0.2, v = 0.2, t = 0.1)
movej(p[0.419351064163604, 0.247539044696949, 0.311704580559159, -1.45, 0.776, -0.754], a = 0.2, v = 0.2, t = 0.1)
movej(p[0.41936195010302, 0.247540261723512, 0.311693283870114, -1.45, 0.776, -0.754], a = 0.2, v = 0.2, t = 0.1)
movej(p[0.419372920743186, 0.247541509524444, 0.311682940447413, -1.45, 0.776, -0.754], a = 0.2, v = 0.2, t = 0.1)
movej(p[0.419384054914307, 0.247542279828999, 0.311672985020634, -1.45, 0.776, -0.754], a = 0.2, v = 0.2, t = 0.1)
movej(p[0.419393503133462, 0.247541736139234, 0.311663785913165, -1.45, 0.776, -0.754], a = 0.2, v = 0.2, t = 0.1)
movej(p[0.419398029360843, 0.247540148187052, 0.311656069562242, -1.45, 0.776, -0.754], a = 0.2, v = 0.2, t = 0.1)
movej(p[0.419396548469984, 0.247537849570494, 0.311650804953882, -1.45, 0.776, -0.754], a = 0.2, v = 0.2, t = 0.1)
movej(p[0.419389614008736, 0.247535202850484, 0.311646430497757, -1.45, 0.776, -0.754], a = 0.2, v = 0.2, t = 0.1)
movej(p[0.419378449761084, 0.247532362664475, 0.311642275246764, -1.45, 0.776, -0.754], a = 0.2, v = 0.2, t = 0.1)
movej(p[0.419364260956042, 0.247529523472103, 0.311638592496142, -1.45, 0.776, -0.754], a = 0.2, v = 0.2, t = 0.1)
movej(p[0.4193479840932, 0.24752671777841, 0.311635761351335, -1.45, 0.776, -0.754], a = 0.2, v = 0.2, t = 0.1)
movej(p[0.419330859309921, 0.247523931769308, 0.311634118248803, -1.45, 0.776, -0.754], a = 0.2, v = 0.2, t = 0.1)
movej(p[0.419314907660695, 0.247521797859094, 0.311634344470356, -1.45, 0.776, -0.754], a = 0.2, v = 0.2, t = 0.1)
movej(p[0.419302603795195, 0.247522124964599, 0.311637803129306, -1.45, 0.776, -0.754], a = 0.2, v = 0.2, t = 0.1)
movej(p[0.419295679297117, 0.247525902358936, 0.311644237949225, -1.45, 0.776, -0.754], a = 0.2, v = 0.2, t = 0.1)
movej(p[0.419294868173826, 0.247532627170966, 0.311650779982256, -1.45, 0.776, -0.754], a = 0.2, v = 0.2, t = 0.1)
movej(p[0.419300648267092, 0.247540144953362, 0.311655267984783, -1.45, 0.776, -0.754], a = 0.2, v = 0.2, t = 0.1)
movej(p[0.419311640444001, 0.247547102152979, 0.311658714555584, -1.45, 0.776, -0.754], a = 0.2, v = 0.2, t = 0.1)
movej(p[0.419324944446135, 0.247553996368966, 0.311662671633187, -1.45, 0.776, -0.754], a = 0.2, v = 0.2, t = 0.1)
movej(p[0.419337788177046, 0.247561477549829, 0.311667680026459, -1.45, 0.776, -0.754], a = 0.2, v = 0.2, t = 0.1)
movej(p[0.419349093308366, 0.247568766947757, 0.31167289686781, -1.45, 0.776, -0.754], a = 0.2, v = 0.2, t = 0.1)
movej(p[0.419359110945355, 0.247574636622253, 0.311675028082366, -1.45, 0.776, -0.754], a = 0.2, v = 0.2, t = 0.1)
movej(p[0.419367286889219, 0.247578323704425, 0.311673031150221, -1.45, 0.776, -0.754], a = 0.2, v = 0.2, t = 0.1)
movej(p[0.419372705130978, 0.247579829636636, 0.311667363459032, -1.45, 0.776, -0.754], a = 0.2, v = 0.2, t = 0.1)
movej(p[0.419373740769728, 0.247579445093598, 0.311658864117409, -1.45, 0.776, -0.754], a = 0.2, v = 0.2, t = 0.1)
movej(p[0.419368837598092, 0.247576926379448, 0.311647808394188, -1.45, 0.776, -0.754], a = 0.2, v = 0.2, t = 0.1)
movej(p[0.419359402820403, 0.247572229031651, 0.311634696696257, -1.45, 0.776, -0.754], a = 0.2, v = 0.2, t = 0.1)
movej(p[0.419346863139836, 0.247565343569932, 0.31162178715319, -1.45, 0.776, -0.754], a = 0.2, v = 0.2, t = 0.1)
movej(p[0.41933218017865, 0.247556906961634, 0.31161057935701, -1.45, 0.776, -0.754], a = 0.2, v = 0.2, t = 0.1)
movej(p[0.419314959657799, 0.247548043957093, 0.31160173951843, -1.45, 0.776, -0.754], a = 0.2, v = 0.2, t = 0.1)
movej(p[0.419296932100892, 0.247539330463218, 0.311593590654064, -1.45, 0.776, -0.754], a = 0.2, v = 0.2, t = 0.1)
movej(p[0.419280995393586, 0.247531055861981, 0.311584722034744, -1.45, 0.776, -0.754], a = 0.2, v = 0.2, t = 0.1)
movej(p[0.419268822224828, 0.247523395768001, 0.311574982689613, -1.45, 0.776, -0.754], a = 0.2, v = 0.2, t = 0.1)
movej(p[0.419261167533501, 0.247516148141729, 0.311566128724675, -1.45, 0.776, -0.754], a = 0.2, v = 0.2, t = 0.1)
movej(p[0.419258430004183, 0.247509645066955, 0.311559653633809, -1.45, 0.776, -0.754], a = 0.2, v = 0.2, t = 0.1)
movej(p[0.419260420937804, 0.247504239808006, 0.311554414829173, -1.45, 0.776, -0.754], a = 0.2, v = 0.2, t = 0.1)
movej(p[0.41926661010796, 0.247501122735605, 0.311549717339904, -1.45, 0.776, -0.754], a = 0.2, v = 0.2, t = 0.1)
movej(p[0.419276817799788, 0.24750017724237, 0.311546206926242, -1.45, 0.776, -0.754], a = 0.2, v = 0.2, t = 0.1)
movej(p[0.419291151767812, 0.247500452922118, 0.311542309361056, -1.45, 0.776, -0.754], a = 0.2, v = 0.2, t = 0.1)
movej(p[0.419308038541379, 0.247501616149088, 0.311538043982351, -1.45, 0.776, -0.754], a = 0.2, v = 0.2, t = 0.1)
movej(p[0.419324990314102, 0.247503878675029, 0.311532992520391, -1.45, 0.776, -0.754], a = 0.2, v = 0.2, t = 0.1)
movej(p[0.419340447474203, 0.247506439317535, 0.31152659998251, -1.45, 0.776, -0.754], a = 0.2, v = 0.2, t = 0.1)
movej(p[0.419353207370609, 0.247508147862457, 0.311519545588705, -1.45, 0.776, -0.754], a = 0.2, v = 0.2, t = 0.1)
movej(p[0.41936292613771, 0.247507396693885, 0.311512945507659, -1.45, 0.776, -0.754], a = 0.2, v = 0.2, t = 0.1)
movej(p[0.419369367224003, 0.247503133554156, 0.311507907914086, -1.45, 0.776, -0.754], a = 0.2, v = 0.2, t = 0.1)
movej(p[0.41937305098607, 0.247495666969595, 0.311503725555178, -1.45, 0.776, -0.754], a = 0.2, v = 0.2, t = 0.1)
movej(p[0.41937355710643, 0.247485802045448, 0.311499203510536, -1.45, 0.776, -0.754], a = 0.2, v = 0.2, t = 0.1)
movej(p[0.419370356527987, 0.247474520967172, 0.311492986446876, -1.45, 0.776, -0.754], a = 0.2, v = 0.2, t = 0.1)
movej(p[0.419362517504191, 0.247463082753237, 0.311484386813574, -1.45, 0.776, -0.754], a = 0.2, v = 0.2, t = 0.1)
movej(p[0.419349636208013, 0.247452149692381, 0.311473422896113, -1.45, 0.776, -0.754], a = 0.2, v = 0.2, t = 0.1)
movej(p[0.419333330308167, 0.247441590677302, 0.311461447857751, -1.45, 0.776, -0.754], a = 0.2, v = 0.2, t = 0.1)
movej(p[0.419316273118645, 0.24743149426765, 0.311449459779392, -1.45, 0.776, -0.754], a = 0.2, v = 0.2, t = 0.1)
movej(p[0.419300148288034, 0.247422901417436, 0.311438837278887, -1.45, 0.776, -0.754], a = 0.2, v = 0.2, t = 0.1)
movej(p[0.419286343397844, 0.247417167529208, 0.311431181193357, -1.45, 0.776, -0.754], a = 0.2, v = 0.2, t = 0.1)
movej(p[0.41927589346047, 0.247414110080775, 0.311427746746684, -1.45, 0.776, -0.754], a = 0.2, v = 0.2, t = 0.1)
movej(p[0.419270174597082, 0.247412995935211, 0.311427031503918, -1.45, 0.776, -0.754], a = 0.2, v = 0.2, t = 0.1)
movej(p[0.419270078251875, 0.247413418555472, 0.311426649646987, -1.45, 0.776, -0.754], a = 0.2, v = 0.2, t = 0.1)
movej(p[0.419275158475934, 0.247415204514962, 0.311425354299079, -1.45, 0.776, -0.754], a = 0.2, v = 0.2, t = 0.1)
movej(p[0.419284389626079, 0.247418292893879, 0.311423241495803, -1.45, 0.776, -0.754], a = 0.2, v = 0.2, t = 0.1)
movej(p[0.41929619527339, 0.247423312203323, 0.311421321468652, -1.45, 0.776, -0.754], a = 0.2, v = 0.2, t = 0.1)
movej(p[0.419308665074171, 0.247429927420387, 0.311418901125561, -1.45, 0.776, -0.754], a = 0.2, v = 0.2, t = 0.1)
movej(p[0.419320475022816, 0.247436359770445, 0.311415106229155, -1.45, 0.776, -0.754], a = 0.2, v = 0.2, t = 0.1)
movej(p[0.419329675874853, 0.247441428705635, 0.311409759969544, -1.45, 0.776, -0.754], a = 0.2, v = 0.2, t = 0.1)
movej(p[0.419333713366403, 0.24744458095185, 0.311404454561474, -1.45, 0.776, -0.754], a = 0.2, v = 0.2, t = 0.1)
movej(p[0.419330775568968, 0.247445912808151, 0.311401306848967, -1.45, 0.776, -0.754], a = 0.2, v = 0.2, t = 0.1)
movej(p[0.419320723840638, 0.24744545700367, 0.311401213527749, -1.45, 0.776, -0.754], a = 0.2, v = 0.2, t = 0.1)
movej(p[0.419306920436428, 0.247443009022504, 0.311403779149394, -1.45, 0.776, -0.754], a = 0.2, v = 0.2, t = 0.1)
movej(p[0.419291250344291, 0.247438426604547, 0.311407631989266, -1.45, 0.776, -0.754], a = 0.2, v = 0.2, t = 0.1)
movej(p[0.419274667405957, 0.247432683868137, 0.311410896049121, -1.45, 0.776, -0.754], a = 0.2, v = 0.2, t = 0.1)
movej(p[0.419257736369006, 0.247426715388734, 0.311411374369495, -1.45, 0.776, -0.754], a = 0.2, v = 0.2, t = 0.1)
movej(p[0.419241017037493, 0.247421267152275, 0.311408861209285, -1.45, 0.776, -0.754], a = 0.2, v = 0.2, t = 0.1)
movej(p[0.419225052345072, 0.247416642626459, 0.311404650384321, -1.45, 0.776, -0.754], a = 0.2, v = 0.2, t = 0.1)
movej(p[0.419210107579259, 0.247414385135709, 0.31140135374189, -1.45, 0.776, -0.754], a = 0.2, v = 0.2, t = 0.1)
movej(p[0.419197897138227, 0.247415959237974, 0.311400760684666, -1.45, 0.776, -0.754], a = 0.2, v = 0.2, t = 0.1)
movej(p[0.419191126309706, 0.247421003420855, 0.31140370454577, -1.45, 0.776, -0.754], a = 0.2, v = 0.2, t = 0.1)
movej(p[0.419192685229462, 0.247428481831014, 0.311410188658021, -1.45, 0.776, -0.754], a = 0.2, v = 0.2, t = 0.1)
movej(p[0.419203602200902, 0.247437384969565, 0.311419562147314, -1.45, 0.776, -0.754], a = 0.2, v = 0.2, t = 0.1)
movej(p[0.41922164708716, 0.247446708799507, 0.311430314954954, -1.45, 0.776, -0.754], a = 0.2, v = 0.2, t = 0.1)
movej(p[0.41924348158579, 0.247455025299527, 0.311440846831615, -1.45, 0.776, -0.754], a = 0.2, v = 0.2, t = 0.1)
movej(p[0.419266185313156, 0.247461968380021, 0.311450029022308, -1.45, 0.776, -0.754], a = 0.2, v = 0.2, t = 0.1)
movej(p[0.419288494363411, 0.247468685372908, 0.311456759485983, -1.45, 0.776, -0.754], a = 0.2, v = 0.2, t = 0.1)
movej(p[0.419309697404849, 0.247476444163159, 0.311459736047188, -1.45, 0.776, -0.754], a = 0.2, v = 0.2, t = 0.1)
movej(p[0.419329308114684, 0.247485728471072, 0.311458508086551, -1.45, 0.776, -0.754], a = 0.2, v = 0.2, t = 0.1)
movej(p[0.419346541506872, 0.247494510266373, 0.311454401302043, -1.45, 0.776, -0.754], a = 0.2, v = 0.2, t = 0.1)
movej(p[0.419360464775243, 0.247500415311438, 0.311449731601555, -1.45, 0.776, -0.754], a = 0.2, v = 0.2, t = 0.1)
movej(p[0.419370094497361, 0.247502432839269, 0.311446095827718, -1.45, 0.776, -0.754], a = 0.2, v = 0.2, t = 0.1)
movej(p[0.419374731317555, 0.2475014889615, 0.31144253163086, -1.45, 0.776, -0.754], a = 0.2, v = 0.2, t = 0.1)
movej(p[0.419374646113754, 0.247497799863197, 0.311437935452118, -1.45, 0.776, -0.754], a = 0.2, v = 0.2, t = 0.1)
movej(p[0.419371405529714, 0.247492074040657, 0.311432308821571, -1.45, 0.776, -0.754], a = 0.2, v = 0.2, t = 0.1)
movej(p[0.419366063635485, 0.247486612339127, 0.311427330999613, -1.45, 0.776, -0.754], a = 0.2, v = 0.2, t = 0.1)
movej(p[0.419360018050703, 0.247482180770364, 0.311422996387642, -1.45, 0.776, -0.754], a = 0.2, v = 0.2, t = 0.1)
movej(p[0.419354649869691, 0.24747783694951, 0.311418940548763, -1.45, 0.776, -0.754], a = 0.2, v = 0.2, t = 0.1)
movej(p[0.419350537167047, 0.247473165172805, 0.311415803721324, -1.45, 0.776, -0.754], a = 0.2, v = 0.2, t = 0.1)
movej(p[0.419347953825925, 0.247470259528783, 0.311414582388255, -1.45, 0.776, -0.754], a = 0.2, v = 0.2, t = 0.1)
movej(p[0.419348333143307, 0.247470983839732, 0.311415223641694, -1.45, 0.776, -0.754], a = 0.2, v = 0.2, t = 0.1)
movej(p[0.419353336139847, 0.247475338873988, 0.311417473245937, -1.45, 0.776, -0.754], a = 0.2, v = 0.2, t = 0.1)
movej(p[0.41936292756687, 0.247482594215099, 0.31141966688721, -1.45, 0.776, -0.754], a = 0.2, v = 0.2, t = 0.1)
movej(p[0.419376615357445, 0.247491989550539, 0.311420900815548, -1.45, 0.776, -0.754], a = 0.2, v = 0.2, t = 0.1)
movej(p[0.419394717854829, 0.247502996735467, 0.311421152280134, -1.45, 0.776, -0.754], a = 0.2, v = 0.2, t = 0.1)
movej(p[0.419415845565526, 0.247515347622504, 0.311422313818368, -1.45, 0.776, -0.754], a = 0.2, v = 0.2, t = 0.1)
movej(p[0.419437754518824, 0.247529138470049, 0.311425733719447, -1.45, 0.776, -0.754], a = 0.2, v = 0.2, t = 0.1)
movej(p[0.419458618586332, 0.247543064389521, 0.311429919488179, -1.45, 0.776, -0.754], a = 0.2, v = 0.2, t = 0.1)
movej(p[0.419476758318978, 0.247554659851488, 0.311430313106415, -1.45, 0.776, -0.754], a = 0.2, v = 0.2, t = 0.1)
movej(p[0.419490323616407, 0.247562400607569, 0.3114266227582, -1.45, 0.776, -0.754], a = 0.2, v = 0.2, t = 0.1)
movej(p[0.419497885356302, 0.247566149756959, 0.311420989685361, -1.45, 0.776, -0.754], a = 0.2, v = 0.2, t = 0.1)
movej(p[0.41949957723629, 0.247567071189076, 0.311415380522682, -1.45, 0.776, -0.754], a = 0.2, v = 0.2, t = 0.1)
movej(p[0.419496162485962, 0.247565999403643, 0.311409596695733, -1.45, 0.776, -0.754], a = 0.2, v = 0.2, t = 0.1)
movej(p[0.419489096327281, 0.247563383947396, 0.311403831266077, -1.45, 0.776, -0.754], a = 0.2, v = 0.2, t = 0.1)
movej(p[0.419478702975309, 0.247559482284744, 0.311398905706583, -1.45, 0.776, -0.754], a = 0.2, v = 0.2, t = 0.1)
movej(p[0.4194653852392, 0.247554975501114, 0.311395199116743, -1.45, 0.776, -0.754], a = 0.2, v = 0.2, t = 0.1)
movej(p[0.419450517511943, 0.247551057539887, 0.311393192740896, -1.45, 0.776, -0.754], a = 0.2, v = 0.2, t = 0.1)
movej(p[0.419437440054107, 0.247548318793534, 0.311394037996456, -1.45, 0.776, -0.754], a = 0.2, v = 0.2, t = 0.1)
movej(p[0.419428710932361, 0.247546056480562, 0.311397564897868, -1.45, 0.776, -0.754], a = 0.2, v = 0.2, t = 0.1)
movej(p[0.419424499586622, 0.24754432629934, 0.311403337471731, -1.45, 0.776, -0.754], a = 0.2, v = 0.2, t = 0.1)
movej(p[0.419424463665681, 0.247543784802409, 0.311411131768477, -1.45, 0.776, -0.754], a = 0.2, v = 0.2, t = 0.1)
movej(p[0.419427726602942, 0.247544721635675, 0.311420588677743, -1.45, 0.776, -0.754], a = 0.2, v = 0.2, t = 0.1)
movej(p[0.419434652904841, 0.24754686699822, 0.311431005109548, -1.45, 0.776, -0.754], a = 0.2, v = 0.2, t = 0.1)
movej(p[0.41944526643652, 0.247550316822679, 0.311441276487328, -1.45, 0.776, -0.754], a = 0.2, v = 0.2, t = 0.1)
movej(p[0.419458695640761, 0.24755507615137, 0.311448730536286, -1.45, 0.776, -0.754], a = 0.2, v = 0.2, t = 0.1)
movej(p[0.419473172078249, 0.247560626773099, 0.311451440637221, -1.45, 0.776, -0.754], a = 0.2, v = 0.2, t = 0.1)
movej(p[0.419486788513121, 0.247566923173963, 0.311449090197573, -1.45, 0.776, -0.754], a = 0.2, v = 0.2, t = 0.1)
movej(p[0.419498456986353, 0.247573414920548, 0.311443698228294, -1.45, 0.776, -0.754], a = 0.2, v = 0.2, t = 0.1)
movej(p[0.419507420919268, 0.247578863000314, 0.311437882277593, -1.45, 0.776, -0.754], a = 0.2, v = 0.2, t = 0.1)
movej(p[0.419513237000201, 0.247581544007636, 0.311433173609594, -1.45, 0.776, -0.754], a = 0.2, v = 0.2, t = 0.1)
movej(p[0.419515174228227, 0.247580570951719, 0.31142862634165, -1.45, 0.776, -0.754], a = 0.2, v = 0.2, t = 0.1)
movej(p[0.419513219551074, 0.247576547602444, 0.311421580830821, -1.45, 0.776, -0.754], a = 0.2, v = 0.2, t = 0.1)
movej(p[0.419507290629, 0.247570896971002, 0.311411546179639, -1.45, 0.776, -0.754], a = 0.2, v = 0.2, t = 0.1)
movej(p[0.419497031715967, 0.24756451271634, 0.311399517925368, -1.45, 0.776, -0.754], a = 0.2, v = 0.2, t = 0.1)
movej(p[0.419482479427523, 0.247556882280111, 0.311386730105383, -1.45, 0.776, -0.754], a = 0.2, v = 0.2, t = 0.1)
movej(p[0.419463445130116, 0.247547255660359, 0.311373748169458, -1.45, 0.776, -0.754], a = 0.2, v = 0.2, t = 0.1)
movej(p[0.419441014019109, 0.247535827860299, 0.311360718779687, -1.45, 0.776, -0.754], a = 0.2, v = 0.2, t = 0.1)
movej(p[0.419417375034036, 0.247523611164177, 0.311347912450995, -1.45, 0.776, -0.754], a = 0.2, v = 0.2, t = 0.1)
movej(p[0.419395141909108, 0.24751220605962, 0.311336325252067, -1.45, 0.776, -0.754], a = 0.2, v = 0.2, t = 0.1)
movej(p[0.419375965278852, 0.247503526557059, 0.311327597899128, -1.45, 0.776, -0.754], a = 0.2, v = 0.2, t = 0.1)
movej(p[0.419360946132437, 0.247498744728316, 0.311323142508142, -1.45, 0.776, -0.754], a = 0.2, v = 0.2, t = 0.1)
movej(p[0.419350689298038, 0.247497978985022, 0.311325051464485, -1.45, 0.776, -0.754], a = 0.2, v = 0.2, t = 0.1)
movej(p[0.419346005768054, 0.24750096782837, 0.311332671701773, -1.45, 0.776, -0.754], a = 0.2, v = 0.2, t = 0.1)
movej(p[0.419346957001397, 0.247506795864138, 0.311343688435736, -1.45, 0.776, -0.754], a = 0.2, v = 0.2, t = 0.1)
movej(p[0.419353283441833, 0.247513589416795, 0.3113553255501, -1.45, 0.776, -0.754], a = 0.2, v = 0.2, t = 0.1)
movej(p[0.419363158179708, 0.247519312144742, 0.311365732867032, -1.45, 0.776, -0.754], a = 0.2, v = 0.2, t = 0.1)
movej(p[0.419374369372234, 0.247522526705575, 0.311373608795473, -1.45, 0.776, -0.754], a = 0.2, v = 0.2, t = 0.1)
movej(p[0.419384914050524, 0.247522981166699, 0.31137707108501, -1.45, 0.776, -0.754], a = 0.2, v = 0.2, t = 0.1)
movej(p[0.419393743203773, 0.247520837783439, 0.311375894212836, -1.45, 0.776, -0.754], a = 0.2, v = 0.2, t = 0.1)
movej(p[0.419399120386894, 0.247516828779973, 0.311369973435362, -1.45, 0.776, -0.754], a = 0.2, v = 0.2, t = 0.1)
movej(p[0.419399782526077, 0.247511189980256, 0.311361528442795, -1.45, 0.776, -0.754], a = 0.2, v = 0.2, t = 0.1)
movej(p[0.419394732032893, 0.247504609315603, 0.311353779914075, -1.45, 0.776, -0.754], a = 0.2, v = 0.2, t = 0.1)
movej(p[0.419383461531324, 0.247498049469211, 0.31134826894123, -1.45, 0.776, -0.754], a = 0.2, v = 0.2, t = 0.1)
movej(p[0.419366083823366, 0.247492443902325, 0.311344543013691, -1.45, 0.776, -0.754], a = 0.2, v = 0.2, t = 0.1)
movej(p[0.419343700887067, 0.247487150797072, 0.311340143146261, -1.45, 0.776, -0.754], a = 0.2, v = 0.2, t = 0.1)
movej(p[0.419318332992662, 0.247481261418142, 0.311333589579733, -1.45, 0.776, -0.754], a = 0.2, v = 0.2, t = 0.1)
movej(p[0.419291601641116, 0.247474166281125, 0.311326530647923, -1.45, 0.776, -0.754], a = 0.2, v = 0.2, t = 0.1)
movej(p[0.419265290565745, 0.247465422558863, 0.31132040794078, -1.45, 0.776, -0.754], a = 0.2, v = 0.2, t = 0.1)
movej(p[0.419241177590481, 0.247455891171085, 0.311315560520643, -1.45, 0.776, -0.754], a = 0.2, v = 0.2, t = 0.1)
movej(p[0.419220807014292, 0.247447001177168, 0.311311869043447, -1.45, 0.776, -0.754], a = 0.2, v = 0.2, t = 0.1)
movej(p[0.419204494358353, 0.247441101762011, 0.311309436721099, -1.45, 0.776, -0.754], a = 0.2, v = 0.2, t = 0.1)
movej(p[0.41919231644151, 0.247438902266086, 0.311309076018957, -1.45, 0.776, -0.754], a = 0.2, v = 0.2, t = 0.1)
movej(p[0.41918448305904, 0.247440750613606, 0.311312146032561, -1.45, 0.776, -0.754], a = 0.2, v = 0.2, t = 0.1)
movej(p[0.419181683408105, 0.247446216112715, 0.311317600511558, -1.45, 0.776, -0.754], a = 0.2, v = 0.2, t = 0.1)
movej(p[0.419183884230388, 0.247455122184098, 0.311323383173471, -1.45, 0.776, -0.754], a = 0.2, v = 0.2, t = 0.1)
movej(p[0.419189778862374, 0.247466652271494, 0.311328392979095, -1.45, 0.776, -0.754], a = 0.2, v = 0.2, t = 0.1)
movej(p[0.419197883064183, 0.247479445048703, 0.311332824499639, -1.45, 0.776, -0.754], a = 0.2, v = 0.2, t = 0.1)
movej(p[0.419206698108887, 0.247491529717668, 0.311337058961572, -1.45, 0.776, -0.754], a = 0.2, v = 0.2, t = 0.1)
movej(p[0.419214909017424, 0.247499918923543, 0.31134126274722, -1.45, 0.776, -0.754], a = 0.2, v = 0.2, t = 0.1)
movej(p[0.419220646128233, 0.247503388911194, 0.311346095033354, -1.45, 0.776, -0.754], a = 0.2, v = 0.2, t = 0.1)
movej(p[0.419222430903542, 0.247502878529064, 0.31135309451249, -1.45, 0.776, -0.754], a = 0.2, v = 0.2, t = 0.1)
movej(p[0.41921938538354, 0.247499227534328, 0.31136104909616, -1.45, 0.776, -0.754], a = 0.2, v = 0.2, t = 0.1)
movej(p[0.419211436209283, 0.247493424676461, 0.311367519036438, -1.45, 0.776, -0.754], a = 0.2, v = 0.2, t = 0.1)
movej(p[0.419199752407751, 0.247485898960257, 0.311371255946844, -1.45, 0.776, -0.754], a = 0.2, v = 0.2, t = 0.1)
movej(p[0.419186684278069, 0.247475702869337, 0.311372141139795, -1.45, 0.776, -0.754], a = 0.2, v = 0.2, t = 0.1)
movej(p[0.419174319325898, 0.247462760209754, 0.311370895766867, -1.45, 0.776, -0.754], a = 0.2, v = 0.2, t = 0.1)
movej(p[0.41916311444147, 0.247448767149822, 0.311369629395399, -1.45, 0.776, -0.754], a = 0.2, v = 0.2, t = 0.1)
movej(p[0.419153041519709, 0.247436845811395, 0.311368914461623, -1.45, 0.776, -0.754], a = 0.2, v = 0.2, t = 0.1)
movej(p[0.419144701141852, 0.247427756885432, 0.311370225680915, -1.45, 0.776, -0.754], a = 0.2, v = 0.2, t = 0.1)
movej(p[0.419138282641222, 0.247420666256003, 0.311374299730618, -1.45, 0.776, -0.754], a = 0.2, v = 0.2, t = 0.1)
movej(p[0.419134063207134, 0.247415961352385, 0.311381933882104, -1.45, 0.776, -0.754], a = 0.2, v = 0.2, t = 0.1)
movej(p[0.419132546432552, 0.247414470186653, 0.311393067835069, -1.45, 0.776, -0.754], a = 0.2, v = 0.2, t = 0.1)
movej(p[0.419133984459553, 0.247416184347481, 0.311405813179435, -1.45, 0.776, -0.754], a = 0.2, v = 0.2, t = 0.1)
movej(p[0.419138631521186, 0.24741952420361, 0.31141754800833, -1.45, 0.776, -0.754], a = 0.2, v = 0.2, t = 0.1)
movej(p[0.419145744563214, 0.247422732366701, 0.31142748831817, -1.45, 0.776, -0.754], a = 0.2, v = 0.2, t = 0.1)
movej(p[0.419154304833448, 0.247425039150314, 0.311436772443162, -1.45, 0.776, -0.754], a = 0.2, v = 0.2, t = 0.1)
movej(p[0.419162573294751, 0.247425939300595, 0.311445694591342, -1.45, 0.776, -0.754], a = 0.2, v = 0.2, t = 0.1)
movej(p[0.419169797454823, 0.247425532850931, 0.31145301762179, -1.45, 0.776, -0.754], a = 0.2, v = 0.2, t = 0.1)
movej(p[0.419176411221244, 0.247424475130947, 0.311456995733171, -1.45, 0.776, -0.754], a = 0.2, v = 0.2, t = 0.1)
movej(p[0.419180506639719, 0.247424527595002, 0.311458588872849, -1.45, 0.776, -0.754], a = 0.2, v = 0.2, t = 0.1)
movej(p[0.4191799452047, 0.247426217186663, 0.311460019671135, -1.45, 0.776, -0.754], a = 0.2, v = 0.2, t = 0.1)
movej(p[0.419174132791958, 0.247427896907904, 0.311462935764184, -1.45, 0.776, -0.754], a = 0.2, v = 0.2, t = 0.1)
movej(p[0.41916454275521, 0.247428317393134, 0.311467033567662, -1.45, 0.776, -0.754], a = 0.2, v = 0.2, t = 0.1)
movej(p[0.41915198236495, 0.247427013163993, 0.311470686639365, -1.45, 0.776, -0.754], a = 0.2, v = 0.2, t = 0.1)
movej(p[0.419136669591935, 0.247424492960693, 0.311473225025453, -1.45, 0.776, -0.754], a = 0.2, v = 0.2, t = 0.1)
movej(p[0.419119319296725, 0.247420933233818, 0.311475513115638, -1.45, 0.776, -0.754], a = 0.2, v = 0.2, t = 0.1)
movej(p[0.419101540139626, 0.247417261827183, 0.311478168832144, -1.45, 0.776, -0.754], a = 0.2, v = 0.2, t = 0.1)
movej(p[0.419084580465224, 0.247414411434768, 0.311480259881705, -1.45, 0.776, -0.754], a = 0.2, v = 0.2, t = 0.1)
movej(p[0.419069904468998, 0.247412552441077, 0.311479588016218, -1.45, 0.776, -0.754], a = 0.2, v = 0.2, t = 0.1)
movej(p[0.4190585119131, 0.247411388813648, 0.311476262882488, -1.45, 0.776, -0.754], a = 0.2, v = 0.2, t = 0.1)
movej(p[0.419049817545282, 0.247411125997542, 0.311471824739302, -1.45, 0.776, -0.754], a = 0.2, v = 0.2, t = 0.1)
movej(p[0.419042738229197, 0.24741217098955, 0.311468063086944, -1.45, 0.776, -0.754], a = 0.2, v = 0.2, t = 0.1)
movej(p[0.419037701504436, 0.247414387845802, 0.311466604961418, -1.45, 0.776, -0.754], a = 0.2, v = 0.2, t = 0.1)
movej(p[0.419036519074718, 0.247416806951225, 0.311468581920171, -1.45, 0.776, -0.754], a = 0.2, v = 0.2, t = 0.1)
movej(p[0.4190396475466, 0.247419596528289, 0.311474538505812, -1.45, 0.776, -0.754], a = 0.2, v = 0.2, t = 0.1)
movej(p[0.419046086801436, 0.247423111597998, 0.311482528127273, -1.45, 0.776, -0.754], a = 0.2, v = 0.2, t = 0.1)
movej(p[0.419054754806744, 0.247427532384919, 0.311490955438884, -1.45, 0.776, -0.754], a = 0.2, v = 0.2, t = 0.1)
movej(p[0.419065690714459, 0.247432242296432, 0.311497653527939, -1.45, 0.776, -0.754], a = 0.2, v = 0.2, t = 0.1)
movej(p[0.419078295313641, 0.247436839576638, 0.311502143754233, -1.45, 0.776, -0.754], a = 0.2, v = 0.2, t = 0.1)
movej(p[0.419090650633054, 0.247440804609127, 0.311504745030178, -1.45, 0.776, -0.754], a = 0.2, v = 0.2, t = 0.1)
movej(p[0.419101220506547, 0.247444186800073, 0.311505971721967, -1.45, 0.776, -0.754], a = 0.2, v = 0.2, t = 0.1)
movej(p[0.419109813829233, 0.247446116856081, 0.311505522164365, -1.45, 0.776, -0.754], a = 0.2, v = 0.2, t = 0.1)
movej(p[0.419116641219016, 0.247445567416363, 0.311503427129343, -1.45, 0.776, -0.754], a = 0.2, v = 0.2, t = 0.1)
movej(p[0.419121607268308, 0.247442394001449, 0.311500117886045, -1.45, 0.776, -0.754], a = 0.2, v = 0.2, t = 0.1)
movej(p[0.419123803570688, 0.247436911388282, 0.31149558982468, -1.45, 0.776, -0.754], a = 0.2, v = 0.2, t = 0.1)
movej(p[0.41912266765242, 0.247429185429909, 0.311489985636076, -1.45, 0.776, -0.754], a = 0.2, v = 0.2, t = 0.1)
movej(p[0.419117988576229, 0.247419347955188, 0.311482770254236, -1.45, 0.776, -0.754], a = 0.2, v = 0.2, t = 0.1)
movej(p[0.419109184954508, 0.247407895706146, 0.311474304037046, -1.45, 0.776, -0.754], a = 0.2, v = 0.2, t = 0.1)
movej(p[0.419096872812614, 0.247396120976206, 0.311465145532157, -1.45, 0.776, -0.754], a = 0.2, v = 0.2, t = 0.1)
movej(p[0.41908223538445, 0.247384586564052, 0.311455558260281, -1.45, 0.776, -0.754], a = 0.2, v = 0.2, t = 0.1)
movej(p[0.419066837206851, 0.247373818979166, 0.311446277556894, -1.45, 0.776, -0.754], a = 0.2, v = 0.2, t = 0.1)
movej(p[0.419052040744739, 0.247365351231012, 0.311438542123865, -1.45, 0.776, -0.754], a = 0.2, v = 0.2, t = 0.1)
movej(p[0.419039538802808, 0.247360136130208, 0.311433797181658, -1.45, 0.776, -0.754], a = 0.2, v = 0.2, t = 0.1)
movej(p[0.419030573118473, 0.247358148357572, 0.311431722079166, -1.45, 0.776, -0.754], a = 0.2, v = 0.2, t = 0.1)
movej(p[0.419025559860779, 0.247359279295506, 0.31143085710767, -1.45, 0.776, -0.754], a = 0.2, v = 0.2, t = 0.1)
movej(p[0.41902490744319, 0.247362900096118, 0.311432417891197, -1.45, 0.776, -0.754], a = 0.2, v = 0.2, t = 0.1)
movej(p[0.419029018040355, 0.24736770273529, 0.311437151997441, -1.45, 0.776, -0.754], a = 0.2, v = 0.2, t = 0.1)
movej(p[0.419037235629342, 0.247372598232907, 0.311443718716433, -1.45, 0.776, -0.754], a = 0.2, v = 0.2, t = 0.1)
movej(p[0.419047841159988, 0.247377636290871, 0.311449481315297, -1.45, 0.776, -0.754], a = 0.2, v = 0.2, t = 0.1)
movej(p[0.419059175724506, 0.247383109895684, 0.311454023263286, -1.45, 0.776, -0.754], a = 0.2, v = 0.2, t = 0.1)
movej(p[0.419069995802858, 0.247388354844588, 0.311458499465858, -1.45, 0.776, -0.754], a = 0.2, v = 0.2, t = 0.1)
movej(p[0.41907945430557, 0.247393115430625, 0.311463588232214, -1.45, 0.776, -0.754], a = 0.2, v = 0.2, t = 0.1)
movej(p[0.419086540500018, 0.247397298503351, 0.311470429829674, -1.45, 0.776, -0.754], a = 0.2, v = 0.2, t = 0.1)
movej(p[0.41909032385314, 0.24740079334328, 0.31147870673121, -1.45, 0.776, -0.754], a = 0.2, v = 0.2, t = 0.1)
movej(p[0.419089902745498, 0.247403039183782, 0.311486979495547, -1.45, 0.776, -0.754], a = 0.2, v = 0.2, t = 0.1)
movej(p[0.419085436123117, 0.247403071186535, 0.311492527727097, -1.45, 0.776, -0.754], a = 0.2, v = 0.2, t = 0.1)
movej(p[0.419077416508985, 0.247400192319272, 0.311494130386905, -1.45, 0.776, -0.754], a = 0.2, v = 0.2, t = 0.1)
movej(p[0.419065856180377, 0.247394933882743, 0.311492792829526, -1.45, 0.776, -0.754], a = 0.2, v = 0.2, t = 0.1)
movej(p[0.419050914102374, 0.247388137849798, 0.31148900764589, -1.45, 0.776, -0.754], a = 0.2, v = 0.2, t = 0.1)
movej(p[0.419034169119592, 0.247379822469141, 0.311482687128176, -1.45, 0.776, -0.754], a = 0.2, v = 0.2, t = 0.1)
movej(p[0.419016939792319, 0.247370116649291, 0.311474759041098, -1.45, 0.776, -0.754], a = 0.2, v = 0.2, t = 0.1)
movej(p[0.418999497829555, 0.247360740562143, 0.311467787548234, -1.45, 0.776, -0.754], a = 0.2, v = 0.2, t = 0.1)
movej(p[0.418982976875558, 0.247353288763988, 0.311463593521612, -1.45, 0.776, -0.754], a = 0.2, v = 0.2, t = 0.1)
movej(p[0.418967966283016, 0.247346949784576, 0.311462751414399, -1.45, 0.776, -0.754], a = 0.2, v = 0.2, t = 0.1)
movej(p[0.418956322653809, 0.247341856619934, 0.31146407570961, -1.45, 0.776, -0.754], a = 0.2, v = 0.2, t = 0.1)
movej(p[0.41895042585005, 0.247338579939847, 0.311467326844494, -1.45, 0.776, -0.754], a = 0.2, v = 0.2, t = 0.1)
movej(p[0.418951418010582, 0.247337042692334, 0.311470995326137, -1.45, 0.776, -0.754], a = 0.2, v = 0.2, t = 0.1)
movej(p[0.418958905571447, 0.247336430588075, 0.311474112893565, -1.45, 0.776, -0.754], a = 0.2, v = 0.2, t = 0.1)
movej(p[0.41897037948725, 0.247336530075478, 0.311476034360821, -1.45, 0.776, -0.754], a = 0.2, v = 0.2, t = 0.1)
movej(p[0.418983587911975, 0.247338056823749, 0.311476708433508, -1.45, 0.776, -0.754], a = 0.2, v = 0.2, t = 0.1)
movej(p[0.418997706130654, 0.247340152392008, 0.311476736218502, -1.45, 0.776, -0.754], a = 0.2, v = 0.2, t = 0.1)
movej(p[0.419012141878839, 0.247341450154701, 0.311477855888237, -1.45, 0.776, -0.754], a = 0.2, v = 0.2, t = 0.1)
movej(p[0.41902564770827, 0.247341439879192, 0.311480458900877, -1.45, 0.776, -0.754], a = 0.2, v = 0.2, t = 0.1)
movej(p[0.419036042841928, 0.247340464762508, 0.31148315047601, -1.45, 0.776, -0.754], a = 0.2, v = 0.2, t = 0.1)
movej(p[0.419041899241812, 0.247338707846424, 0.31148501131326, -1.45, 0.776, -0.754], a = 0.2, v = 0.2, t = 0.1)
movej(p[0.419042792392705, 0.247335803699499, 0.311484872802903, -1.45, 0.776, -0.754], a = 0.2, v = 0.2, t = 0.1)
movej(p[0.419038375775916, 0.247331134292803, 0.311481603992225, -1.45, 0.776, -0.754], a = 0.2, v = 0.2, t = 0.1)
movej(p[0.419029278113412, 0.247324732502292, 0.31147147315296, -1.45, 0.776, -0.754], a = 0.2, v = 0.2, t = 0.1)
movej(p[0.419016887492963, 0.247316325199534, 0.311454494954963, -1.45, 0.776, -0.754], a = 0.2, v = 0.2, t = 0.1)
movej(p[0.419002956373261, 0.247305887536005, 0.311434079430652, -1.45, 0.776, -0.754], a = 0.2, v = 0.2, t = 0.1)
movej(p[0.41898856395299, 0.24729375871672, 0.311413705894349, -1.45, 0.776, -0.754], a = 0.2, v = 0.2, t = 0.1)
movej(p[0.418974389182592, 0.247282232025636, 0.31139633846835, -1.45, 0.776, -0.754], a = 0.2, v = 0.2, t = 0.1)
movej(p[0.41896097256059, 0.247273506066632, 0.311383230460014, -1.45, 0.776, -0.754], a = 0.2, v = 0.2, t = 0.1)
movej(p[0.418949474145616, 0.247267527536053, 0.311374230133732, -1.45, 0.776, -0.754], a = 0.2, v = 0.2, t = 0.1)
movej(p[0.418941268089414, 0.247263753471195, 0.311369907925725, -1.45, 0.776, -0.754], a = 0.2, v = 0.2, t = 0.1)
movej(p[0.418938036751024, 0.247262099474196, 0.311369132709537, -1.45, 0.776, -0.754], a = 0.2, v = 0.2, t = 0.1)
movej(p[0.41894008678424, 0.24726281531917, 0.311369281557729, -1.45, 0.776, -0.754], a = 0.2, v = 0.2, t = 0.1)
movej(p[0.418947077292705, 0.247264211898754, 0.31136820651593, -1.45, 0.776, -0.754], a = 0.2, v = 0.2, t = 0.1)
movej(p[0.418957895669736, 0.247264697616638, 0.311366982954102, -1.45, 0.776, -0.754], a = 0.2, v = 0.2, t = 0.1)
movej(p[0.418971283358181, 0.247263390657939, 0.311365792746947, -1.45, 0.776, -0.754], a = 0.2, v = 0.2, t = 0.1)
movej(p[0.418986909601658, 0.247260573116769, 0.311361648326536, -1.45, 0.776, -0.754], a = 0.2, v = 0.2, t = 0.1)
movej(p[0.419003728372192, 0.247256959367269, 0.311352899951356, -1.45, 0.776, -0.754], a = 0.2, v = 0.2, t = 0.1)
movej(p[0.419019554039194, 0.247253642790386, 0.311341158101471, -1.45, 0.776, -0.754], a = 0.2, v = 0.2, t = 0.1)
movej(p[0.419032902964622, 0.24725183752153, 0.311329422514597, -1.45, 0.776, -0.754], a = 0.2, v = 0.2, t = 0.1)
movej(p[0.419043377203598, 0.247252134736448, 0.311320612668789, -1.45, 0.776, -0.754], a = 0.2, v = 0.2, t = 0.1)
movej(p[0.419049996669623, 0.247254729556493, 0.311316858937514, -1.45, 0.776, -0.754], a = 0.2, v = 0.2, t = 0.1)
movej(p[0.419052319352524, 0.247258863927022, 0.311317527615662, -1.45, 0.776, -0.754], a = 0.2, v = 0.2, t = 0.1)
movej(p[0.419050630793081, 0.247262564659782, 0.311318991368732, -1.45, 0.776, -0.754], a = 0.2, v = 0.2, t = 0.1)
movej(p[0.419045526722305, 0.247264335485204, 0.311319226884849, -1.45, 0.776, -0.754], a = 0.2, v = 0.2, t = 0.1)
movej(p[0.419037123560997, 0.247263136967219, 0.311319156134107, -1.45, 0.776, -0.754], a = 0.2, v = 0.2, t = 0.1)
movej(p[0.419024892448239, 0.247259221155943, 0.311319749706982, -1.45, 0.776, -0.754], a = 0.2, v = 0.2, t = 0.1)
movej(p[0.419009286336853, 0.247253001923571, 0.311320805896888, -1.45, 0.776, -0.754], a = 0.2, v = 0.2, t = 0.1)
movej(p[0.418991278365133, 0.247244934528389, 0.311321315056483, -1.45, 0.776, -0.754], a = 0.2, v = 0.2, t = 0.1)
movej(p[0.418971963796688, 0.247236224549399, 0.311320634635459, -1.45, 0.776, -0.754], a = 0.2, v = 0.2, t = 0.1)
movej(p[0.418952214852485, 0.247228457117129, 0.311318526319348, -1.45, 0.776, -0.754], a = 0.2, v = 0.2, t = 0.1)
movej(p[0.418933298611613, 0.247223011097253, 0.311314357616219, -1.45, 0.776, -0.754], a = 0.2, v = 0.2, t = 0.1)
movej(p[0.418917430171348, 0.247219969912743, 0.311308005535588, -1.45, 0.776, -0.754], a = 0.2, v = 0.2, t = 0.1)
movej(p[0.418907003599204, 0.247219035848083, 0.311300414094518, -1.45, 0.776, -0.754], a = 0.2, v = 0.2, t = 0.1)
movej(p[0.418903023303347, 0.24721995122052, 0.311293429924761, -1.45, 0.776, -0.754], a = 0.2, v = 0.2, t = 0.1)
movej(p[0.418904668789571, 0.247223105444036, 0.311287588137526, -1.45, 0.776, -0.754], a = 0.2, v = 0.2, t = 0.1)
movej(p[0.418910474671637, 0.247228883698595, 0.311283357743019, -1.45, 0.776, -0.754], a = 0.2, v = 0.2, t = 0.1)
movej(p[0.418919437803817, 0.247236386458203, 0.31128096868174, -1.45, 0.776, -0.754], a = 0.2, v = 0.2, t = 0.1)
movej(p[0.418931614743724, 0.247243960893407, 0.311281257454754, -1.45, 0.776, -0.754], a = 0.2, v = 0.2, t = 0.1)
movej(p[0.418946900468141, 0.24725030044932, 0.311283386368525, -1.45, 0.776, -0.754], a = 0.2, v = 0.2, t = 0.1)
movej(p[0.418964888361633, 0.247256302405985, 0.311285171189226, -1.45, 0.776, -0.754], a = 0.2, v = 0.2, t = 0.1)
movej(p[0.4189839182679, 0.247262359450742, 0.311286082513689, -1.45, 0.776, -0.754], a = 0.2, v = 0.2, t = 0.1)
movej(p[0.419002623132897, 0.247267573492043, 0.311286810646053, -1.45, 0.776, -0.754], a = 0.2, v = 0.2, t = 0.1)
movej(p[0.419021035224816, 0.247271179498453, 0.311287589677475, -1.45, 0.776, -0.754], a = 0.2, v = 0.2, t = 0.1)
movej(p[0.419039590609142, 0.247273335737771, 0.311288656574607, -1.45, 0.776, -0.754], a = 0.2, v = 0.2, t = 0.1)
movej(p[0.419058315528735, 0.247274991726094, 0.311290171560721, -1.45, 0.776, -0.754], a = 0.2, v = 0.2, t = 0.1)
movej(p[0.41907483040643, 0.247277212003559, 0.311291366675648, -1.45, 0.776, -0.754], a = 0.2, v = 0.2, t = 0.1)
movej(p[0.419086393671797, 0.247279864906805, 0.311291678681133, -1.45, 0.776, -0.754], a = 0.2, v = 0.2, t = 0.1)
movej(p[0.41909182684321, 0.247281504476241, 0.311290997709427, -1.45, 0.776, -0.754], a = 0.2, v = 0.2, t = 0.1)
movej(p[0.419091196912589, 0.247281487257586, 0.311290706369538, -1.45, 0.776, -0.754], a = 0.2, v = 0.2, t = 0.1)
movej(p[0.419085123635972, 0.247280270441231, 0.311289603008271, -1.45, 0.776, -0.754], a = 0.2, v = 0.2, t = 0.1)
movej(p[0.419074760212839, 0.247278693995393, 0.31128775027826, -1.45, 0.776, -0.754], a = 0.2, v = 0.2, t = 0.1)
movej(p[0.419062547172274, 0.247276110165559, 0.311284659984982, -1.45, 0.776, -0.754], a = 0.2, v = 0.2, t = 0.1)
movej(p[0.419050662876437, 0.247272220470549, 0.311279812111821, -1.45, 0.776, -0.754], a = 0.2, v = 0.2, t = 0.1)
movej(p[0.419039756325252, 0.247267290000322, 0.311273222388109, -1.45, 0.776, -0.754], a = 0.2, v = 0.2, t = 0.1)
movej(p[0.419029704089439, 0.247261864057467, 0.311266838979984, -1.45, 0.776, -0.754], a = 0.2, v = 0.2, t = 0.1)
movej(p[0.419020311529782, 0.247256406747072, 0.311262266102843, -1.45, 0.776, -0.754], a = 0.2, v = 0.2, t = 0.1)
movej(p[0.419011510288174, 0.247252129819362, 0.311261099920388, -1.45, 0.776, -0.754], a = 0.2, v = 0.2, t = 0.1)
movej(p[0.419003622456859, 0.24725010964774, 0.311263697687269, -1.45, 0.776, -0.754], a = 0.2, v = 0.2, t = 0.1)
movej(p[0.418997783092961, 0.247249845480478, 0.311269238915195, -1.45, 0.776, -0.754], a = 0.2, v = 0.2, t = 0.1)
movej(p[0.418995073742364, 0.247250287831737, 0.31127627382626, -1.45, 0.776, -0.754], a = 0.2, v = 0.2, t = 0.1)
movej(p[0.418996723156902, 0.247251047854831, 0.311282543742494, -1.45, 0.776, -0.754], a = 0.2, v = 0.2, t = 0.1)
movej(p[0.41900391359757, 0.247251993122941, 0.311287910178946, -1.45, 0.776, -0.754], a = 0.2, v = 0.2, t = 0.1)
movej(p[0.41901577785255, 0.247253565352806, 0.311292787694403, -1.45, 0.776, -0.754], a = 0.2, v = 0.2, t = 0.1)
movej(p[0.419030093303537, 0.247256459991159, 0.311296377409829, -1.45, 0.776, -0.754], a = 0.2, v = 0.2, t = 0.1)
movej(p[0.419045067144929, 0.247261144504418, 0.311298133914165, -1.45, 0.776, -0.754], a = 0.2, v = 0.2, t = 0.1)
movej(p[0.419060228411248, 0.247266887035223, 0.311297963980138, -1.45, 0.776, -0.754], a = 0.2, v = 0.2, t = 0.1)
movej(p[0.419074414524029, 0.247272688707644, 0.311296484691366, -1.45, 0.776, -0.754], a = 0.2, v = 0.2, t = 0.1)
movej(p[0.419085759523126, 0.247278397496117, 0.311293744647817, -1.45, 0.776, -0.754], a = 0.2, v = 0.2, t = 0.1)
movej(p[0.41909290157094, 0.247283416568111, 0.311289379168422, -1.45, 0.776, -0.754], a = 0.2, v = 0.2, t = 0.1)
movej(p[0.419095111035931, 0.247287057005499, 0.311283823941867, -1.45, 0.776, -0.754], a = 0.2, v = 0.2, t = 0.1)
movej(p[0.419092663248396, 0.247288470739013, 0.311278215144961, -1.45, 0.776, -0.754], a = 0.2, v = 0.2, t = 0.1)
movej(p[0.41908727554793, 0.247286502539297, 0.311272246498667, -1.45, 0.776, -0.754], a = 0.2, v = 0.2, t = 0.1)
movej(p[0.419079427578942, 0.247280448969534, 0.311265757529036, -1.45, 0.776, -0.754], a = 0.2, v = 0.2, t = 0.1)
movej(p[0.419068642170338, 0.247271228409623, 0.311257880539626, -1.45, 0.776, -0.754], a = 0.2, v = 0.2, t = 0.1)
movej(p[0.419053530610991, 0.24726094520079, 0.311248832938827, -1.45, 0.776, -0.754], a = 0.2, v = 0.2, t = 0.1)
movej(p[0.419034794272828, 0.247251048515075, 0.311240307469626, -1.45, 0.776, -0.754], a = 0.2, v = 0.2, t = 0.1)
movej(p[0.419014349547754, 0.247241654051767, 0.311233355103353, -1.45, 0.776, -0.754], a = 0.2, v = 0.2, t = 0.1)
movej(p[0.418994039628769, 0.247233135906564, 0.31122741363366, -1.45, 0.776, -0.754], a = 0.2, v = 0.2, t = 0.1)
movej(p[0.418975621596653, 0.247225528918738, 0.311221282384341, -1.45, 0.776, -0.754], a = 0.2, v = 0.2, t = 0.1)
movej(p[0.418960042339556, 0.24721886779079, 0.311215333232489, -1.45, 0.776, -0.754], a = 0.2, v = 0.2, t = 0.1)
movej(p[0.418948976743512, 0.247212461339061, 0.311211108133977, -1.45, 0.776, -0.754], a = 0.2, v = 0.2, t = 0.1)
movej(p[0.41894331073233, 0.247206543592543, 0.31120886741636, -1.45, 0.776, -0.754], a = 0.2, v = 0.2, t = 0.1)
movej(p[0.418942363756994, 0.247201632376546, 0.311208248061748, -1.45, 0.776, -0.754], a = 0.2, v = 0.2, t = 0.1)
movej(p[0.418944205320092, 0.247198261194487, 0.311209058916165, -1.45, 0.776, -0.754], a = 0.2, v = 0.2, t = 0.1)
movej(p[0.418948209320946, 0.247196805629751, 0.31121078908132, -1.45, 0.776, -0.754], a = 0.2, v = 0.2, t = 0.1)
movej(p[0.418954787525042, 0.247197152025523, 0.311213962451585, -1.45, 0.776, -0.754], a = 0.2, v = 0.2, t = 0.1)
movej(p[0.41896427876794, 0.247198842397758, 0.311219122388789, -1.45, 0.776, -0.754], a = 0.2, v = 0.2, t = 0.1)
movej(p[0.41897539006542, 0.247201882206732, 0.311226561734171, -1.45, 0.776, -0.754], a = 0.2, v = 0.2, t = 0.1)
movej(p[0.418986663313792, 0.247206295326892, 0.311235187136168, -1.45, 0.776, -0.754], a = 0.2, v = 0.2, t = 0.1)
movej(p[0.41899677035395, 0.24721114257348, 0.311242813798134, -1.45, 0.776, -0.754], a = 0.2, v = 0.2, t = 0.1)
movej(p[0.419004392688397, 0.247215331635041, 0.311247378096309, -1.45, 0.776, -0.754], a = 0.2, v = 0.2, t = 0.1)
movej(p[0.419008223190355, 0.247217590203494, 0.311248543161666, -1.45, 0.776, -0.754], a = 0.2, v = 0.2, t = 0.1)
movej(p[0.419007997089001, 0.247216363680028, 0.311247714189191, -1.45, 0.776, -0.754], a = 0.2, v = 0.2, t = 0.1)
movej(p[0.419003826470706, 0.247210997278435, 0.311246418020613, -1.45, 0.776, -0.754], a = 0.2, v = 0.2, t = 0.1)
movej(p[0.418996023882991, 0.247202326584207, 0.31124360186871, -1.45, 0.776, -0.754], a = 0.2, v = 0.2, t = 0.1)
movej(p[0.418984805322906, 0.247192052771041, 0.311237641180523, -1.45, 0.776, -0.754], a = 0.2, v = 0.2, t = 0.1)
movej(p[0.418970471763173, 0.247181210381197, 0.311229133054652, -1.45, 0.776, -0.754], a = 0.2, v = 0.2, t = 0.1)
movej(p[0.418952899683363, 0.247169609472515, 0.311221088331293, -1.45, 0.776, -0.754], a = 0.2, v = 0.2, t = 0.1)
movej(p[0.418933081006678, 0.247156756057186, 0.311215905085801, -1.45, 0.776, -0.754], a = 0.2, v = 0.2, t = 0.1)
movej(p[0.418913795502227, 0.247141904953848, 0.311213380267848, -1.45, 0.776, -0.754], a = 0.2, v = 0.2, t = 0.1)
movej(p[0.418896620636755, 0.247125974859372, 0.311213153269997, -1.45, 0.776, -0.754], a = 0.2, v = 0.2, t = 0.1)
movej(p[0.418881558497381, 0.24711092838308, 0.31121506187542, -1.45, 0.776, -0.754], a = 0.2, v = 0.2, t = 0.1)
movej(p[0.418868371310349, 0.247098950988559, 0.311219004725617, -1.45, 0.776, -0.754], a = 0.2, v = 0.2, t = 0.1)
movej(p[0.418857883472068, 0.247090177970353, 0.311224630093494, -1.45, 0.776, -0.754], a = 0.2, v = 0.2, t = 0.1)
movej(p[0.418851173002549, 0.247084271941573, 0.311231015178997, -1.45, 0.776, -0.754], a = 0.2, v = 0.2, t = 0.1)
movej(p[0.418848903707198, 0.247081375124309, 0.311237464319665, -1.45, 0.776, -0.754], a = 0.2, v = 0.2, t = 0.1)
movej(p[0.418851863124904, 0.247080904480722, 0.311241980405742, -1.45, 0.776, -0.754], a = 0.2, v = 0.2, t = 0.1)
movej(p[0.418860280656336, 0.247082157213111, 0.311243597763511, -1.45, 0.776, -0.754], a = 0.2, v = 0.2, t = 0.1)
movej(p[0.418872627221354, 0.247084258417883, 0.311242843691396, -1.45, 0.776, -0.754], a = 0.2, v = 0.2, t = 0.1)
movej(p[0.418886372693186, 0.247086549502433, 0.311240763711895, -1.45, 0.776, -0.754], a = 0.2, v = 0.2, t = 0.1)
movej(p[0.418899293073442, 0.247088897478595, 0.311239064802253, -1.45, 0.776, -0.754], a = 0.2, v = 0.2, t = 0.1)
movej(p[0.418909553746546, 0.247090745369098, 0.311238966750568, -1.45, 0.776, -0.754], a = 0.2, v = 0.2, t = 0.1)
movej(p[0.418915738474617, 0.247092146866389, 0.311240046268068, -1.45, 0.776, -0.754], a = 0.2, v = 0.2, t = 0.1)
movej(p[0.418917280591596, 0.247092731323865, 0.31124165475266, -1.45, 0.776, -0.754], a = 0.2, v = 0.2, t = 0.1)
movej(p[0.418914008551617, 0.247092642127101, 0.311243869396269, -1.45, 0.776, -0.754], a = 0.2, v = 0.2, t = 0.1)
movej(p[0.418906995249126, 0.247092190037003, 0.311246340978093, -1.45, 0.776, -0.754], a = 0.2, v = 0.2, t = 0.1)
movej(p[0.418896604815442, 0.247091505786571, 0.311248978063645, -1.45, 0.776, -0.754], a = 0.2, v = 0.2, t = 0.1)
movej(p[0.418883033485507, 0.247089578765545, 0.311251830570395, -1.45, 0.776, -0.754], a = 0.2, v = 0.2, t = 0.1)
movej(p[0.418866926302315, 0.247086431038395, 0.311254781397131, -1.45, 0.776, -0.754], a = 0.2, v = 0.2, t = 0.1)
movej(p[0.418849240306834, 0.247082622695668, 0.31125785254765, -1.45, 0.776, -0.754], a = 0.2, v = 0.2, t = 0.1)
movej(p[0.418831429824612, 0.247079233949517, 0.31126100653997, -1.45, 0.776, -0.754], a = 0.2, v = 0.2, t = 0.1)
movej(p[0.418814448134933, 0.247077398960697, 0.311264643530302, -1.45, 0.776, -0.754], a = 0.2, v = 0.2, t = 0.1)
movej(p[0.418800293905209, 0.247077618440307, 0.311268883264092, -1.45, 0.776, -0.754], a = 0.2, v = 0.2, t = 0.1)
movej(p[0.41879072276242, 0.247078802689616, 0.311271615697126, -1.45, 0.776, -0.754], a = 0.2, v = 0.2, t = 0.1)
movej(p[0.418786261960651, 0.247080325496614, 0.311272287637173, -1.45, 0.776, -0.754], a = 0.2, v = 0.2, t = 0.1)
movej(p[0.418786167138736, 0.247082789056654, 0.311271660871083, -1.45, 0.776, -0.754], a = 0.2, v = 0.2, t = 0.1)
movej(p[0.418789538648644, 0.247087313376839, 0.311272456230627, -1.45, 0.776, -0.754], a = 0.2, v = 0.2, t = 0.1)
movej(p[0.418797145738172, 0.247093344730807, 0.311276648658828, -1.45, 0.776, -0.754], a = 0.2, v = 0.2, t = 0.1)
movej(p[0.418808922149977, 0.247100214216484, 0.311283254085577, -1.45, 0.776, -0.754], a = 0.2, v = 0.2, t = 0.1)
movej(p[0.418823534944417, 0.24710791060112, 0.311289885659236, -1.45, 0.776, -0.754], a = 0.2, v = 0.2, t = 0.1)
movej(p[0.418838859659393, 0.247116193378442, 0.311295107561739, -1.45, 0.776, -0.754], a = 0.2, v = 0.2, t = 0.1)
movej(p[0.418853932650684, 0.24712418018244, 0.311297813477562, -1.45, 0.776, -0.754], a = 0.2, v = 0.2, t = 0.1)
movej(p[0.418868944945554, 0.247130474233111, 0.311300770445411, -1.45, 0.776, -0.754], a = 0.2, v = 0.2, t = 0.1)
movej(p[0.418883930604447, 0.247134494408746, 0.311305848303367, -1.45, 0.776, -0.754], a = 0.2, v = 0.2, t = 0.1)
movej(p[0.418896700507313, 0.247136081959214, 0.311312915120353, -1.45, 0.776, -0.754], a = 0.2, v = 0.2, t = 0.1)
movej(p[0.418905235248756, 0.247136134456392, 0.311318250500615, -1.45, 0.776, -0.754], a = 0.2, v = 0.2, t = 0.1)
movej(p[0.418908942690507, 0.247135897401845, 0.31132108421034, -1.45, 0.776, -0.754], a = 0.2, v = 0.2, t = 0.1)
movej(p[0.418908162889126, 0.247135606192845, 0.311322276607977, -1.45, 0.776, -0.754], a = 0.2, v = 0.2, t = 0.1)
movej(p[0.418903465157938, 0.247134602929541, 0.311322497228532, -1.45, 0.776, -0.754], a = 0.2, v = 0.2, t = 0.1)
movej(p[0.418895198456197, 0.247132022225748, 0.311321456591107, -1.45, 0.776, -0.754], a = 0.2, v = 0.2, t = 0.1)
movej(p[0.418885031301495, 0.247127891844419, 0.311318587000134, -1.45, 0.776, -0.754], a = 0.2, v = 0.2, t = 0.1)
movej(p[0.418875232663059, 0.247122918576991, 0.311314205050809, -1.45, 0.776, -0.754], a = 0.2, v = 0.2, t = 0.1)
movej(p[0.418866785188342, 0.247117724759924, 0.311309263913269, -1.45, 0.776, -0.754], a = 0.2, v = 0.2, t = 0.1)
movej(p[0.418859356087729, 0.247113183824914, 0.311304654818205, -1.45, 0.776, -0.754], a = 0.2, v = 0.2, t = 0.1)
movej(p[0.41885215253017, 0.247109719238509, 0.311300957037582, -1.45, 0.776, -0.754], a = 0.2, v = 0.2, t = 0.1)
movej(p[0.418845617939648, 0.247108240969554, 0.311298473843347, -1.45, 0.776, -0.754], a = 0.2, v = 0.2, t = 0.1)
movej(p[0.418841597853291, 0.247109776583653, 0.311298949824459, -1.45, 0.776, -0.754], a = 0.2, v = 0.2, t = 0.1)
movej(p[0.41884096513962, 0.247114064977501, 0.311302037748133, -1.45, 0.776, -0.754], a = 0.2, v = 0.2, t = 0.1)
movej(p[0.418843177967112, 0.24711920731228, 0.311305836562357, -1.45, 0.776, -0.754], a = 0.2, v = 0.2, t = 0.1)
movej(p[0.418847144958119, 0.247124278865889, 0.311308698743577, -1.45, 0.776, -0.754], a = 0.2, v = 0.2, t = 0.1)
movej(p[0.418853055470037, 0.247129343075201, 0.311312419383027, -1.45, 0.776, -0.754], a = 0.2, v = 0.2, t = 0.1)
movej(p[0.418861975670171, 0.247134368174819, 0.311317551599353, -1.45, 0.776, -0.754], a = 0.2, v = 0.2, t = 0.1)
movej(p[0.418874702634948, 0.247138537716873, 0.311323903559176, -1.45, 0.776, -0.754], a = 0.2, v = 0.2, t = 0.1)
movej(p[0.418890047588098, 0.247141711960651, 0.311329364719793, -1.45, 0.776, -0.754], a = 0.2, v = 0.2, t = 0.1)
movej(p[0.418906193358496, 0.247143602162894, 0.311332361515366, -1.45, 0.776, -0.754], a = 0.2, v = 0.2, t = 0.1)
movej(p[0.418921414674309, 0.247143348607458, 0.311333407026048, -1.45, 0.776, -0.754], a = 0.2, v = 0.2, t = 0.1)
movej(p[0.418933305318697, 0.247140905287465, 0.311332964812946, -1.45, 0.776, -0.754], a = 0.2, v = 0.2, t = 0.1)
movej(p[0.418939878818176, 0.247137478978849, 0.311332901449909, -1.45, 0.776, -0.754], a = 0.2, v = 0.2, t = 0.1)
movej(p[0.418940750165245, 0.247133193074475, 0.311331370109001, -1.45, 0.776, -0.754], a = 0.2, v = 0.2, t = 0.1)
movej(p[0.418935541525467, 0.247126885736931, 0.31132848350654, -1.45, 0.776, -0.754], a = 0.2, v = 0.2, t = 0.1)
movej(p[0.418924215851758, 0.247118145158404, 0.311324780105931, -1.45, 0.776, -0.754], a = 0.2, v = 0.2, t = 0.1)
movej(p[0.41890713471071, 0.24710834306358, 0.311321620032902, -1.45, 0.776, -0.754], a = 0.2, v = 0.2, t = 0.1)
movej(p[0.418885960194939, 0.247098243917791, 0.31131972359356, -1.45, 0.776, -0.754], a = 0.2, v = 0.2, t = 0.1)
movej(p[0.418862484984612, 0.2470876592703, 0.311319474726876, -1.45, 0.776, -0.754], a = 0.2, v = 0.2, t = 0.1)
movej(p[0.418839946982744, 0.247076614120193, 0.311322056838583, -1.45, 0.776, -0.754], a = 0.2, v = 0.2, t = 0.1)
movej(p[0.418820763845544, 0.247065799996449, 0.311326147298681, -1.45, 0.776, -0.754], a = 0.2, v = 0.2, t = 0.1)
movej(p[0.418805262967557, 0.247056629508204, 0.311329769765794, -1.45, 0.776, -0.754], a = 0.2, v = 0.2, t = 0.1)
movej(p[0.418793995782701, 0.247051213689742, 0.311332322652948, -1.45, 0.776, -0.754], a = 0.2, v = 0.2, t = 0.1)
movej(p[0.418788898115323, 0.247050529760716, 0.311335076073073, -1.45, 0.776, -0.754], a = 0.2, v = 0.2, t = 0.1)
movej(p[0.418790863110737, 0.247054078041641, 0.311339302856424, -1.45, 0.776, -0.754], a = 0.2, v = 0.2, t = 0.1)
movej(p[0.418797918570843, 0.247060972501803, 0.311345024126892, -1.45, 0.776, -0.754], a = 0.2, v = 0.2, t = 0.1)
movej(p[0.418808171013495, 0.247070126553711, 0.311350555782642, -1.45, 0.776, -0.754], a = 0.2, v = 0.2, t = 0.1)
movej(p[0.418820389481681, 0.247079642493072, 0.311354923742953, -1.45, 0.776, -0.754], a = 0.2, v = 0.2, t = 0.1)
movej(p[0.418833620573901, 0.247087937676442, 0.311357248656183, -1.45, 0.776, -0.754], a = 0.2, v = 0.2, t = 0.1)
movej(p[0.418846816451659, 0.2470944228799, 0.31135892692294, -1.45, 0.776, -0.754], a = 0.2, v = 0.2, t = 0.1)
movej(p[0.418859295315857, 0.247098744984434, 0.311360394344731, -1.45, 0.776, -0.754], a = 0.2, v = 0.2, t = 0.1)
movej(p[0.41887118029844, 0.247101425949475, 0.31136203899742, -1.45, 0.776, -0.754], a = 0.2, v = 0.2, t = 0.1)
movej(p[0.418882543352479, 0.247103750361891, 0.311364899474448, -1.45, 0.776, -0.754], a = 0.2, v = 0.2, t = 0.1)
movej(p[0.418893201841947, 0.247106508704983, 0.311368482403505, -1.45, 0.776, -0.754], a = 0.2, v = 0.2, t = 0.1)
movej(p[0.418903382118855, 0.247109403982164, 0.311370928416207, -1.45, 0.776, -0.754], a = 0.2, v = 0.2, t = 0.1)
movej(p[0.418914019418038, 0.247111321983673, 0.311370811227023, -1.45, 0.776, -0.754], a = 0.2, v = 0.2, t = 0.1)
movej(p[0.418925008642576, 0.24711110263884, 0.311367649949609, -1.45, 0.776, -0.754], a = 0.2, v = 0.2, t = 0.1)
movej(p[0.41893520228201, 0.247107220594201, 0.311360607618283, -1.45, 0.776, -0.754], a = 0.2, v = 0.2, t = 0.1)
movej(p[0.418941547011531, 0.247098833112902, 0.311350971868557, -1.45, 0.776, -0.754], a = 0.2, v = 0.2, t = 0.1)
movej(p[0.418941341676461, 0.247087469884468, 0.311340430683658, -1.45, 0.776, -0.754], a = 0.2, v = 0.2, t = 0.1)
movej(p[0.418933349860918, 0.247074161222234, 0.311330052010773, -1.45, 0.776, -0.754], a = 0.2, v = 0.2, t = 0.1)
movej(p[0.418916479276498, 0.247060329768136, 0.311320597420625, -1.45, 0.776, -0.754], a = 0.2, v = 0.2, t = 0.1)
movej(p[0.418891694478468, 0.247047139796185, 0.311312800660559, -1.45, 0.776, -0.754], a = 0.2, v = 0.2, t = 0.1)
movej(p[0.418864139194045, 0.247034058744048, 0.311308088005327, -1.45, 0.776, -0.754], a = 0.2, v = 0.2, t = 0.1)
movej(p[0.418837537310909, 0.247020611040614, 0.311305730072543, -1.45, 0.776, -0.754], a = 0.2, v = 0.2, t = 0.1)
movej(p[0.418812711933443, 0.247007632844536, 0.311303737652344, -1.45, 0.776, -0.754], a = 0.2, v = 0.2, t = 0.1)
movej(p[0.418789202973204, 0.246998940177136, 0.311300662268319, -1.45, 0.776, -0.754], a = 0.2, v = 0.2, t = 0.1)
movej(p[0.418767201942727, 0.246995891149072, 0.311295920099106, -1.45, 0.776, -0.754], a = 0.2, v = 0.2, t = 0.1)
movej(p[0.418748691919191, 0.246996544839107, 0.311290053621114, -1.45, 0.776, -0.754], a = 0.2, v = 0.2, t = 0.1)
movej(p[0.418735289036786, 0.246998536514671, 0.311285663827645, -1.45, 0.776, -0.754], a = 0.2, v = 0.2, t = 0.1)
movej(p[0.418727948582927, 0.247001285604194, 0.311285256307175, -1.45, 0.776, -0.754], a = 0.2, v = 0.2, t = 0.1)
movej(p[0.418727137600659, 0.247004834872701, 0.311289360485757, -1.45, 0.776, -0.754], a = 0.2, v = 0.2, t = 0.1)
movej(p[0.418732970061117, 0.247009086236748, 0.31129540433302, -1.45, 0.776, -0.754], a = 0.2, v = 0.2, t = 0.1)
movej(p[0.418746161149144, 0.247014051209343, 0.311300160700519, -1.45, 0.776, -0.754], a = 0.2, v = 0.2, t = 0.1)
movej(p[0.418766350838797, 0.247019577911653, 0.311303423054626, -1.45, 0.776, -0.754], a = 0.2, v = 0.2, t = 0.1)
movej(p[0.41879078557633, 0.247025654592342, 0.311307143946922, -1.45, 0.776, -0.754], a = 0.2, v = 0.2, t = 0.1)
movej(p[0.418815908565856, 0.24703183654739, 0.31131076015157, -1.45, 0.776, -0.754], a = 0.2, v = 0.2, t = 0.1)
movej(p[0.418839353524377, 0.247037954556867, 0.311313075113769, -1.45, 0.776, -0.754], a = 0.2, v = 0.2, t = 0.1)
movej(p[0.418860987899595, 0.247043427787259, 0.311314369618702, -1.45, 0.776, -0.754], a = 0.2, v = 0.2, t = 0.1)
movej(p[0.418879930681515, 0.247048501194013, 0.311315468316124, -1.45, 0.776, -0.754], a = 0.2, v = 0.2, t = 0.1)
movej(p[0.418895350616777, 0.247054024117667, 0.311316469412445, -1.45, 0.776, -0.754], a = 0.2, v = 0.2, t = 0.1)
movej(p[0.418906198448422, 0.247060505222559, 0.311316216143891, -1.45, 0.776, -0.754], a = 0.2, v = 0.2, t = 0.1)
movej(p[0.418913067348603, 0.247067111668922, 0.31131473494378, -1.45, 0.776, -0.754], a = 0.2, v = 0.2, t = 0.1)
movej(p[0.418915521526707, 0.2470714473711, 0.311311878400859, -1.45, 0.776, -0.754], a = 0.2, v = 0.2, t = 0.1)
movej(p[0.418912281964042, 0.247071560439297, 0.311308253242749, -1.45, 0.776, -0.754], a = 0.2, v = 0.2, t = 0.1)
movej(p[0.418902951792979, 0.247067525844142, 0.31130267245787, -1.45, 0.776, -0.754], a = 0.2, v = 0.2, t = 0.1)
movej(p[0.418887800490013, 0.247060420182371, 0.311292530645891, -1.45, 0.776, -0.754], a = 0.2, v = 0.2, t = 0.1)
movej(p[0.418865492138431, 0.247051280349751, 0.311277362319208, -1.45, 0.776, -0.754], a = 0.2, v = 0.2, t = 0.1)
movej(p[0.418836573804169, 0.247041345960899, 0.311259330243518, -1.45, 0.776, -0.754], a = 0.2, v = 0.2, t = 0.1)
movej(p[0.418804184090238, 0.247032611765458, 0.311241641089059, -1.45, 0.776, -0.754], a = 0.2, v = 0.2, t = 0.1)
movej(p[0.41877192119336, 0.247026746555745, 0.311225938823456, -1.45, 0.776, -0.754], a = 0.2, v = 0.2, t = 0.1)
movej(p[0.418743697816953, 0.247023720602772, 0.311214402091737, -1.45, 0.776, -0.754], a = 0.2, v = 0.2, t = 0.1)
movej(p[0.418722412123608, 0.247022946086925, 0.311207714315945, -1.45, 0.776, -0.754], a = 0.2, v = 0.2, t = 0.1)
movej(p[0.418710497916684, 0.247023057499622, 0.311204083393256, -1.45, 0.776, -0.754], a = 0.2, v = 0.2, t = 0.1)
movej(p[0.418708088306883, 0.247023593422412, 0.311202019340599, -1.45, 0.776, -0.754], a = 0.2, v = 0.2, t = 0.1)
movej(p[0.418713116066875, 0.24702465218325, 0.311200016221794, -1.45, 0.776, -0.754], a = 0.2, v = 0.2, t = 0.1)
movej(p[0.418724280141925, 0.247026745239843, 0.311196714228551, -1.45, 0.776, -0.754], a = 0.2, v = 0.2, t = 0.1)
movej(p[0.418739720495585, 0.247030771598146, 0.31119165854584, -1.45, 0.776, -0.754], a = 0.2, v = 0.2, t = 0.1)
movej(p[0.418757551623903, 0.247036044279506, 0.311186454204559, -1.45, 0.776, -0.754], a = 0.2, v = 0.2, t = 0.1)
movej(p[0.418777099466184, 0.24704043799528, 0.311181810390411, -1.45, 0.776, -0.754], a = 0.2, v = 0.2, t = 0.1)
movej(p[0.418796752619818, 0.247043373642669, 0.311177634315618, -1.45, 0.776, -0.754], a = 0.2, v = 0.2, t = 0.1)
movej(p[0.418815010988137, 0.247046128431114, 0.311173965792765, -1.45, 0.776, -0.754], a = 0.2, v = 0.2, t = 0.1)
movej(p[0.418830549505402, 0.247049684069613, 0.311171328834465, -1.45, 0.776, -0.754], a = 0.2, v = 0.2, t = 0.1)
movej(p[0.418841393206968, 0.247053767202695, 0.31117102557452, -1.45, 0.776, -0.754], a = 0.2, v = 0.2, t = 0.1)
movej(p[0.418845849601313, 0.247057504713451, 0.31117239027551, -1.45, 0.776, -0.754], a = 0.2, v = 0.2, t = 0.1)
movej(p[0.41884350012601, 0.247060613224578, 0.311173541323021, -1.45, 0.776, -0.754], a = 0.2, v = 0.2, t = 0.1)
movej(p[0.418836117172826, 0.247062176397241, 0.31117146460963, -1.45, 0.776, -0.754], a = 0.2, v = 0.2, t = 0.1)
movej(p[0.418824489976676, 0.247061534629385, 0.311164801811965, -1.45, 0.776, -0.754], a = 0.2, v = 0.2, t = 0.1)
movej(p[0.418807659771281, 0.247058450273142, 0.311154670415915, -1.45, 0.776, -0.754], a = 0.2, v = 0.2, t = 0.1)
movej(p[0.418785614588987, 0.247053160386652, 0.31114481548012, -1.45, 0.776, -0.754], a = 0.2, v = 0.2, t = 0.1)
movej(p[0.418759911244114, 0.247046740697758, 0.311139281484741, -1.45, 0.776, -0.754], a = 0.2, v = 0.2, t = 0.1)
movej(p[0.418732876145753, 0.247042136254823, 0.311140306790982, -1.45, 0.776, -0.754], a = 0.2, v = 0.2, t = 0.1)
movej(p[0.418706883126177, 0.247040428820987, 0.311147516461709, -1.45, 0.776, -0.754], a = 0.2, v = 0.2, t = 0.1)
movej(p[0.418683905692755, 0.247040567010082, 0.311158480691418, -1.45, 0.776, -0.754], a = 0.2, v = 0.2, t = 0.1)
movej(p[0.41866560482675, 0.247042368738584, 0.311171078398347, -1.45, 0.776, -0.754], a = 0.2, v = 0.2, t = 0.1)
movej(p[0.418651876670152, 0.247044981163036, 0.311182702483813, -1.45, 0.776, -0.754], a = 0.2, v = 0.2, t = 0.1)
movej(p[0.418643495660096, 0.247047450554166, 0.311192211539648, -1.45, 0.776, -0.754], a = 0.2, v = 0.2, t = 0.1)
movej(p[0.418641344364713, 0.247049246442725, 0.31119924848902, -1.45, 0.776, -0.754], a = 0.2, v = 0.2, t = 0.1)
movej(p[0.418645800531058, 0.247050470075938, 0.311202968704103, -1.45, 0.776, -0.754], a = 0.2, v = 0.2, t = 0.1)
movej(p[0.418656564362518, 0.247051903489479, 0.311203302326504, -1.45, 0.776, -0.754], a = 0.2, v = 0.2, t = 0.1)
movej(p[0.418672035864162, 0.24705456959651, 0.311202166830049, -1.45, 0.776, -0.754], a = 0.2, v = 0.2, t = 0.1)
movej(p[0.418689602948455, 0.247058877102901, 0.311203049634735, -1.45, 0.776, -0.754], a = 0.2, v = 0.2, t = 0.1)
movej(p[0.418707312041136, 0.247063920595917, 0.311207120934726, -1.45, 0.776, -0.754], a = 0.2, v = 0.2, t = 0.1)
movej(p[0.418722914633849, 0.247068025804092, 0.311210813401716, -1.45, 0.776, -0.754], a = 0.2, v = 0.2, t = 0.1)
movej(p[0.418735596038275, 0.247070645241565, 0.311209214917713, -1.45, 0.776, -0.754], a = 0.2, v = 0.2, t = 0.1)
