def moving():
set_payload_mass(0)
set_tcp(p[0,0,0,0,0,0])
movej(p[-0.4359, -0.1135, 0.2958, -1.195, -1.235, 1.247], a = 0.2, v = 0.2, t = 0.2)
movej(p[-0.436004015350504, -0.113403378020676, 0.295899221973227, -1.19419942383743, -1.23415207416468, 1.25040689974637], a = 0.2, v = 0.2, t = 0.2)
movej(p[-0.4359, -0.1135, 0.2958, -1.195, -1.235, 1.247], a = 0.2, v = 0.2, t = 0.2)
movej(p[-0.436004015350504, -0.113403378020676, 0.295899221973227, -1.19419942383743, -1.23415207416468, 1.25040689974637], a = 0.2, v = 0.2, t = 0.2)
movej(p[-0.4359, -0.1135, 0.2958, -1.195, -1.235, 1.247], a = 0.2, v = 0.2, t = 0.2)
movej(p[-0.436004015350504, -0.113403378020676, 0.295899221973227, -1.19419942383743, -1.23415207416468, 1.25040689974637], a = 0.2, v = 0.2, t = 0.2)
movej(p[-0.4359, -0.1135, 0.2958, -1.195, -1.235, 1.247], a = 0.2, v = 0.2, t = 0.2)
movej(p[-0.435968970246753, -0.113646978150995, 0.29565812976636, -1.19425722119511, -1.23176182062435, 1.23935273943597], a = 0.2, v = 0.2, t = 0.2)
movej(p[-0.436223371508647, -0.113715767080494, 0.295524045415202, -1.19544867322777, -1.23358966334362, 1.23217276099662], a = 0.2, v = 0.2, t = 0.2)
movej(p[-0.436248878006504, -0.113721685823503, 0.295435474442823, -1.19885970967465, -1.23262619243251, 1.2330665676134], a = 0.2, v = 0.2, t = 0.2)
movej(p[-0.436245010084508, -0.11356892080589, 0.295460878743976, -1.19697064730932, -1.23490348654882, 1.22639352378052], a = 0.2, v = 0.2, t = 0.2)
movej(p[-0.436187330996312, -0.113541355579752, 0.295417886289826, -1.19859201484821, -1.23164964231247, 1.22678448666282], a = 0.2, v = 0.2, t = 0.2)
movej(p[-0.436051936564712, -0.113569078902615, 0.295284793609014, -1.19624837140874, -1.23091947079388, 1.22447260016108], a = 0.2, v = 0.2, t = 0.2)
movej(p[-0.435575199653593, -0.11345910332015, 0.295194379144805, -1.19873366565858, -1.22632722726747, 1.23425976624999], a = 0.2, v = 0.2, t = 0.2)
movej(p[-0.434684117874696, -0.113343482775384, 0.295154975551034, -1.19147815953653, -1.21839564622379, 1.22811157838164], a = 0.2, v = 0.2, t = 0.2)
movej(p[-0.433728562874377, -0.113448622463157, 0.295089841722631, -1.18290787069992, -1.21510761259997, 1.22407375782901], a = 0.2, v = 0.2, t = 0.2)
movej(p[-0.43275980655533, -0.113712169324848, 0.295085214194221, -1.17127638996473, -1.21319156927931, 1.2189465728354], a = 0.2, v = 0.2, t = 0.2)
movej(p[-0.431906557621, -0.113795005994914, 0.295208028018594, -1.16983859653199, -1.21100386588349, 1.23679963018719], a = 0.2, v = 0.2, t = 0.2)
movej(p[-0.431379518523968, -0.113918515768618, 0.295309496623589, -1.16058587965531, -1.20806788695814, 1.23800788761366], a = 0.2, v = 0.2, t = 0.2)
movej(p[-0.431555054177016, -0.114081447859053, 0.295316757299547, -1.15351937211472, -1.21378086370813, 1.23722578789392], a = 0.2, v = 0.2, t = 0.2)
movej(p[-0.432445995955236, -0.11415073171233, 0.29535306701585, -1.15021769545496, -1.21946042568647, 1.2339984041254], a = 0.2, v = 0.2, t = 0.2)
movej(p[-0.433544707160378, -0.114133299222076, 0.295421144750669, -1.15496813130531, -1.22199256822295, 1.23484937633132], a = 0.2, v = 0.2, t = 0.2)
movej(p[-0.434719471819698, -0.114224174741126, 0.295390214250337, -1.16411630891804, -1.22278904902251, 1.22923744847494], a = 0.2, v = 0.2, t = 0.2)
movej(p[-0.435632921766672, -0.114283611970579, 0.295307078697003, -1.17622909150086, -1.22521111998182, 1.22658059893228], a = 0.2, v = 0.2, t = 0.2)
movej(p[-0.436149880522343, -0.114152429159937, 0.295286027019468, -1.18455208737831, -1.2321227930042, 1.22089485883364], a = 0.2, v = 0.2, t = 0.2)
movej(p[-0.436217863984305, -0.113977678174971, 0.295259378590751, -1.18961404347988, -1.23104803783718, 1.22110364095563], a = 0.2, v = 0.2, t = 0.2)
movej(p[-0.436165367399358, -0.113933227881926, 0.295162067236239, -1.1936645859618, -1.2302767689822, 1.22378934310841], a = 0.2, v = 0.2, t = 0.2)
movej(p[-0.435842092968016, -0.113809553237307, 0.295079709615194, -1.19581170261348, -1.22598047340556, 1.2329515036346], a = 0.2, v = 0.2, t = 0.2)
movej(p[-0.435150977088086, -0.113619815207871, 0.29510273169849, -1.19343169650288, -1.22241480518664, 1.23053747309824], a = 0.2, v = 0.2, t = 0.2)
movej(p[-0.434225494445449, -0.113559497007604, 0.295062895134962, -1.18316662735559, -1.21738980752593, 1.22268298140583], a = 0.2, v = 0.2, t = 0.2)
movej(p[-0.433183416655074, -0.113716813176528, 0.29505575242516, -1.17359232917099, -1.21500251474993, 1.21756520673732], a = 0.2, v = 0.2, t = 0.2)
movej(p[-0.432337202451635, -0.113782825701116, 0.295156380617014, -1.16796155887402, -1.21405420981854, 1.2272712642608], a = 0.2, v = 0.2, t = 0.2)
movej(p[-0.43158422021459, -0.113889461422775, 0.295302155442211, -1.15698093000606, -1.21508145215096, 1.22589167827631], a = 0.2, v = 0.2, t = 0.2)
movej(p[-0.431431647463156, -0.114023331429658, 0.295340913926144, -1.1499543163691, -1.21815080998011, 1.2278261901852], a = 0.2, v = 0.2, t = 0.2)
movej(p[-0.431850260111577, -0.114159316346101, 0.295314830897538, -1.14912489697654, -1.21925144798586, 1.23261939980077], a = 0.2, v = 0.2, t = 0.2)
movej(p[-0.432829001353198, -0.1141007704277, 0.295368378151338, -1.15205871650096, -1.22195051916031, 1.23422230733223], a = 0.2, v = 0.2, t = 0.2)
movej(p[-0.434005889258461, -0.114128410855317, 0.295356135549176, -1.15999714267842, -1.22112304918692, 1.23243088518116], a = 0.2, v = 0.2, t = 0.2)
movej(p[-0.435099624924889, -0.114208814784335, 0.295295367639217, -1.16627839081907, -1.22860932469089, 1.22168915714678], a = 0.2, v = 0.2, t = 0.2)
movej(p[-0.435764320134513, -0.114142413443028, 0.295270198474032, -1.18347982933621, -1.22850729091426, 1.2305087098877], a = 0.2, v = 0.2, t = 0.2)
movej(p[-0.435994723413767, -0.114020529220907, 0.295280799224321, -1.18617938676112, -1.23121189433399, 1.22188633002317], a = 0.2, v = 0.2, t = 0.2)
movej(p[-0.436033913985741, -0.113949174297334, 0.295207429638999, -1.1872344691014, -1.23211309907597, 1.21783449271835], a = 0.2, v = 0.2, t = 0.2)
movej(p[-0.435920230824786, -0.113912808353578, 0.295097212564324, -1.18505847334135, -1.23342663627125, 1.21487983380548], a = 0.2, v = 0.2, t = 0.2)
movej(p[-0.435490552078751, -0.113675099923644, 0.295069056768398, -1.18603564986737, -1.22840186632695, 1.22285950771058], a = 0.2, v = 0.2, t = 0.2)
movej(p[-0.434744658912486, -0.113635281501251, 0.294995030870517, -1.1825063417525, -1.21926364124447, 1.22466671558457], a = 0.2, v = 0.2, t = 0.2)
movej(p[-0.433798479345857, -0.113726838261773, 0.294930283062078, -1.17558051664777, -1.21354491701255, 1.22233184662671], a = 0.2, v = 0.2, t = 0.2)
movej(p[-0.432794811935507, -0.113842863294509, 0.294965793198357, -1.17178459071843, -1.21057794840241, 1.22842026193862], a = 0.2, v = 0.2, t = 0.2)
movej(p[-0.431892061403415, -0.11388613133153, 0.295099095892927, -1.16571610442272, -1.20880283412656, 1.23079467562958], a = 0.2, v = 0.2, t = 0.2)
movej(p[-0.431478342701975, -0.114055668663135, 0.295161351541434, -1.15841336329897, -1.21323142742531, 1.23283188624515], a = 0.2, v = 0.2, t = 0.2)
movej(p[-0.431570738506156, -0.114144575487224, 0.295221749164733, -1.14987736009705, -1.21974119686772, 1.23062347434665], a = 0.2, v = 0.2, t = 0.2)
movej(p[-0.43210042205448, -0.114105052996342, 0.295336331030003, -1.15105168689582, -1.22246396305202, 1.23654661454392], a = 0.2, v = 0.2, t = 0.2)
movej(p[-0.433109553953762, -0.114090483146388, 0.295388134313926, -1.15358679069679, -1.2250081965408, 1.23111306829309], a = 0.2, v = 0.2, t = 0.2)
movej(p[-0.434319811448978, -0.114123948791942, 0.295389960112608, -1.16695992211485, -1.22647816179944, 1.23354657221056], a = 0.2, v = 0.2, t = 0.2)
movej(p[-0.435350636011088, -0.114049792361473, 0.295386506046777, -1.1791810705209, -1.23102624827153, 1.23410499835743], a = 0.2, v = 0.2, t = 0.2)
movej(p[-0.435798000859022, -0.1139012675093, 0.295420257878495, -1.1890571199372, -1.23035941883897, 1.23679496415496], a = 0.2, v = 0.2, t = 0.2)
movej(p[-0.436012005644558, -0.113822628475205, 0.295380089942161, -1.19756371947408, -1.22883023087779, 1.24059472494758], a = 0.2, v = 0.2, t = 0.2)
movej(p[-0.436050503921302, -0.113700195749339, 0.295338475127193, -1.2004091957856, -1.22765512595207, 1.24246682130735], a = 0.2, v = 0.2, t = 0.2)
movej(p[-0.435821361727696, -0.113517545727386, 0.295289135239038, -1.20275688840839, -1.22298099630037, 1.24619210815393], a = 0.2, v = 0.2, t = 0.2)
movej(p[-0.435240755803699, -0.113433413498644, 0.29517265001504, -1.19032810803946, -1.22209340677201, 1.23102585199776], a = 0.2, v = 0.2, t = 0.2)
movej(p[-0.43428486745216, -0.113475531136201, 0.295052551127875, -1.18405231585768, -1.21841456219826, 1.22957367470038], a = 0.2, v = 0.2, t = 0.2)
movej(p[-0.433247252874501, -0.113493971922802, 0.29508446370915, -1.17478421959427, -1.22008243770511, 1.22506452174629], a = 0.2, v = 0.2, t = 0.2)
movej(p[-0.432234537902664, -0.113564158498715, 0.295168289583322, -1.17178936792555, -1.21370185653893, 1.23524690916937], a = 0.2, v = 0.2, t = 0.2)
movej(p[-0.431575048794531, -0.113776870726355, 0.295187878663583, -1.16711182533498, -1.21348642851616, 1.2411023143029], a = 0.2, v = 0.2, t = 0.2)
movej(p[-0.431428967593014, -0.113896540035724, 0.295233285671395, -1.16530800780942, -1.21416820991777, 1.25106782223631], a = 0.2, v = 0.2, t = 0.2)
movej(p[-0.431730336228719, -0.113900157572613, 0.295358596314758, -1.16088458111023, -1.21874637148722, 1.25006242220802], a = 0.2, v = 0.2, t = 0.2)
movej(p[-0.432698088329891, -0.113919196521198, 0.295444398951164, -1.15886696118145, -1.22263115997866, 1.24156421227462], a = 0.2, v = 0.2, t = 0.2)
movej(p[-0.433976230921167, -0.114002044385624, 0.295455298502774, -1.16869765521869, -1.22552715042251, 1.24130648254975], a = 0.2, v = 0.2, t = 0.2)
movej(p[-0.435154621796052, -0.113953466095512, 0.295472527847443, -1.18246672024887, -1.22984291031307, 1.24405757570989], a = 0.2, v = 0.2, t = 0.2)
movej(p[-0.435734435587038, -0.11386438358241, 0.295477991723506, -1.19329063676183, -1.22987729668234, 1.24652433423113], a = 0.2, v = 0.2, t = 0.2)
movej(p[-0.435999882538408, -0.113792542422418, 0.295406173027198, -1.19664848360034, -1.23160787834149, 1.24233075012742], a = 0.2, v = 0.2, t = 0.2)
movej(p[-0.436043516869805, -0.113661285199812, 0.295353432966171, -1.19791267560129, -1.23114122796268, 1.24179476575711], a = 0.2, v = 0.2, t = 0.2)
movej(p[-0.435800357571422, -0.113525794345, 0.29529441282444, -1.19614049982224, -1.22730206101004, 1.23709489919848], a = 0.2, v = 0.2, t = 0.2)
movej(p[-0.435326390575669, -0.113476559783386, 0.295178641718199, -1.18954462666343, -1.22371193546244, 1.22988968074861], a = 0.2, v = 0.2, t = 0.2)
movej(p[-0.434463135402641, -0.113524602833709, 0.295084858499769, -1.18486630696335, -1.21886596031464, 1.22984748968277], a = 0.2, v = 0.2, t = 0.2)
movej(p[-0.433470860442458, -0.113453455148875, 0.295155357981076, -1.18210608855261, -1.21641543888401, 1.23440019053367], a = 0.2, v = 0.2, t = 0.2)
movej(p[-0.432524262364498, -0.113555867948146, 0.295234012516813, -1.17770957198138, -1.20965168394417, 1.24133774298575], a = 0.2, v = 0.2, t = 0.2)
movej(p[-0.431900268071425, -0.113786290902828, 0.295250137040621, -1.1685382292128, -1.21231830281478, 1.23947367081022], a = 0.2, v = 0.2, t = 0.2)
movej(p[-0.431550074505312, -0.113914668956606, 0.295269312714309, -1.16202185805303, -1.21444336063154, 1.24429338789127], a = 0.2, v = 0.2, t = 0.2)
movej(p[-0.43165199218321, -0.11389257389509, 0.29535204769898, -1.15081658743299, -1.22178638172372, 1.2305523489525], a = 0.2, v = 0.2, t = 0.2)
movej(p[-0.432396535105066, -0.113893426512617, 0.295415244271343, -1.14989727611866, -1.22603065262589, 1.22486623757524], a = 0.2, v = 0.2, t = 0.2)
movej(p[-0.433638740793164, -0.113988893547411, 0.295407027883814, -1.15829472031702, -1.22904929045183, 1.22550596262415], a = 0.2, v = 0.2, t = 0.2)
movej(p[-0.434840228240771, -0.113916462436248, 0.29548575464596, -1.16919460795875, -1.23344708822897, 1.22590660193587], a = 0.2, v = 0.2, t = 0.2)
movej(p[-0.435571487268204, -0.113853983750301, 0.295460972047213, -1.18380054047036, -1.23006926851139, 1.23493368410819], a = 0.2, v = 0.2, t = 0.2)
movej(p[-0.435954096846663, -0.113772391277083, 0.29540603768648, -1.18823395620174, -1.23306999637293, 1.23060114270616], a = 0.2, v = 0.2, t = 0.2)
movej(p[-0.436018206513227, -0.113635752588709, 0.29535807562922, -1.19571209904085, -1.23241253432685, 1.23837200612836], a = 0.2, v = 0.2, t = 0.2)
movej(p[-0.435830986715365, -0.11348251653596, 0.295351422487753, -1.18900921097558, -1.23510884115129, 1.22425747997871], a = 0.2, v = 0.2, t = 0.2)
movej(p[-0.435314200625779, -0.113426094496877, 0.295220863475181, -1.18214434337749, -1.23421621930575, 1.21576000216175], a = 0.2, v = 0.2, t = 0.2)
movej(p[-0.434471535661697, -0.113425994858243, 0.295109505725214, -1.17772732610156, -1.22975106410463, 1.21544850357868], a = 0.2, v = 0.2, t = 0.2)
movej(p[-0.433462649955342, -0.113366069152276, 0.295116529976187, -1.17772858124412, -1.22138436879665, 1.22662781215895], a = 0.2, v = 0.2, t = 0.2)
movej(p[-0.432543303868848, -0.113500073902718, 0.295152885931732, -1.17591149061236, -1.21314580743388, 1.23712310603899], a = 0.2, v = 0.2, t = 0.2)
movej(p[-0.431880085897456, -0.113708484656956, 0.295177163914354, -1.16594422560501, -1.21434317064029, 1.23791926784307], a = 0.2, v = 0.2, t = 0.2)
movej(p[-0.431515582770415, -0.113782869766251, 0.295243088394574, -1.16212415652229, -1.21755495318436, 1.24651044029918], a = 0.2, v = 0.2, t = 0.2)
movej(p[-0.431400698379305, -0.113724422293226, 0.295353552128787, -1.15234537014831, -1.22106020417448, 1.24020768421012], a = 0.2, v = 0.2, t = 0.2)
movej(p[-0.432064082195262, -0.113725347909092, 0.29540374599754, -1.1504764435498, -1.22697164236267, 1.23500293546597], a = 0.2, v = 0.2, t = 0.2)
movej(p[-0.433218196323763, -0.113796177229675, 0.295434103018808, -1.15250458510495, -1.23077264365409, 1.22825473377233], a = 0.2, v = 0.2, t = 0.2)
movej(p[-0.434542921187629, -0.11373985490909, 0.295510298891786, -1.16638295314506, -1.23209331193548, 1.2316759848776], a = 0.2, v = 0.2, t = 0.2)
movej(p[-0.435483095681432, -0.113752129265772, 0.295505586156745, -1.17816036595645, -1.23231569971909, 1.23089566403394], a = 0.2, v = 0.2, t = 0.2)
movej(p[-0.436033213371462, -0.113672473928834, 0.295472799662384, -1.19024067518102, -1.23223155910933, 1.23652485082626], a = 0.2, v = 0.2, t = 0.2)
movej(p[-0.436165399156213, -0.113558037720664, 0.295457529822217, -1.19282612864453, -1.23548344964984, 1.2311851897068], a = 0.2, v = 0.2, t = 0.2)
movej(p[-0.436095505286029, -0.113417086936393, 0.295451937226744, -1.19385896661531, -1.23461267963783, 1.22950643370432], a = 0.2, v = 0.2, t = 0.2)
movej(p[-0.435841524953428, -0.113339336764269, 0.295355752663017, -1.19158267146419, -1.23479995082764, 1.22609059703527], a = 0.2, v = 0.2, t = 0.2)
movej(p[-0.435211775186476, -0.113228630281787, 0.29525453277799, -1.18899211327026, -1.23123754672251, 1.23020078834929], a = 0.2, v = 0.2, t = 0.2)
movej(p[-0.434195484481785, -0.113078558231719, 0.295223235026539, -1.18875852360055, -1.22184633883885, 1.23768559309438], a = 0.2, v = 0.2, t = 0.2)
movej(p[-0.433150602237027, -0.113220015459091, 0.295185397341441, -1.18175946846621, -1.21441893180656, 1.23872566998837], a = 0.2, v = 0.2, t = 0.2)
movej(p[-0.432253035854624, -0.113458531420666, 0.29519685212446, -1.17400799906578, -1.21245375991779, 1.24073318016216], a = 0.2, v = 0.2, t = 0.2)
movej(p[-0.431546983470511, -0.113564663750695, 0.295283516415903, -1.16807745554894, -1.21562740263569, 1.24863936109209], a = 0.2, v = 0.2, t = 0.2)
movej(p[-0.431249201905529, -0.113605093882128, 0.295398171394117, -1.16014180142777, -1.21660505552083, 1.24658341231035], a = 0.2, v = 0.2, t = 0.2)
movej(p[-0.431586716273526, -0.113708662271742, 0.29544374907581, -1.15603734639962, -1.2215946136288, 1.24381979904821], a = 0.2, v = 0.2, t = 0.2)
movej(p[-0.432690986804754, -0.11378629166588, 0.295487898765803, -1.15845874301714, -1.22357471898001, 1.24288302845048], a = 0.2, v = 0.2, t = 0.2)
movej(p[-0.433991223418265, -0.113830376196354, 0.295538350972475, -1.16803247365761, -1.22588374629938, 1.24116065937897], a = 0.2, v = 0.2, t = 0.2)
movej(p[-0.43513007580232, -0.113855965326421, 0.295541801241458, -1.17694843970588, -1.23002047821931, 1.23355359750672], a = 0.2, v = 0.2, t = 0.2)
movej(p[-0.435888528751774, -0.113831697235265, 0.295521640985467, -1.19149496890111, -1.23269187234833, 1.23689485602325], a = 0.2, v = 0.2, t = 0.2)
movej(p[-0.43623212364585, -0.1136317689609, 0.295564243958698, -1.19795436289201, -1.23811690699949, 1.23474550522669], a = 0.2, v = 0.2, t = 0.2)
movej(p[-0.436224097816016, -0.113474246135535, 0.295531320226524, -1.20699761064775, -1.23122354798373, 1.24655275671479], a = 0.2, v = 0.2, t = 0.2)
movej(p[-0.43618221347463, -0.113447600679311, 0.295445266482653, -1.20748573327081, -1.23032872451642, 1.2459475728375], a = 0.2, v = 0.2, t = 0.2)
movej(p[-0.435932603948499, -0.113324522787449, 0.295371251554968, -1.20856553729895, -1.22780641084727, 1.25307138013995], a = 0.2, v = 0.2, t = 0.2)
movej(p[-0.435357798247152, -0.113216308876346, 0.295297767572066, -1.20238981604446, -1.2236665267845, 1.24815956105019], a = 0.2, v = 0.2, t = 0.2)
movej(p[-0.434565656949643, -0.113209569640072, 0.295202110296462, -1.19135515030069, -1.22182437093211, 1.23735447367208], a = 0.2, v = 0.2, t = 0.2)
movej(p[-0.433549064497973, -0.11331235573097, 0.29512166758795, -1.18526363858367, -1.21669027350412, 1.23825645966219], a = 0.2, v = 0.2, t = 0.2)
movej(p[-0.43267449159477, -0.113330661128824, 0.295246498917523, -1.17814131527857, -1.21847424668266, 1.23911759119197], a = 0.2, v = 0.2, t = 0.2)
movej(p[-0.431995237375057, -0.113447374828809, 0.295318367821353, -1.17320247468819, -1.21410733066583, 1.24428469966935], a = 0.2, v = 0.2, t = 0.2)
movej(p[-0.431946552876435, -0.1136316127056, 0.295354976280067, -1.16586700907719, -1.21940125014507, 1.2428389095424], a = 0.2, v = 0.2, t = 0.2)
movej(p[-0.432450494231448, -0.113719953240054, 0.295361275294268, -1.16746822469646, -1.2197504922555, 1.25186179307937], a = 0.2, v = 0.2, t = 0.2)
movej(p[-0.433402447471249, -0.113706927649013, 0.295469000341079, -1.16942683946822, -1.22340380581354, 1.24679024916068], a = 0.2, v = 0.2, t = 0.2)
movej(p[-0.43455249109037, -0.113721966429132, 0.295498166124322, -1.17608728625405, -1.22755345989287, 1.2413958135411], a = 0.2, v = 0.2, t = 0.2)
movej(p[-0.435436976994482, -0.113759086370326, 0.295503492473329, -1.18393013413779, -1.23427131286408, 1.23318581920051], a = 0.2, v = 0.2, t = 0.2)
movej(p[-0.43596595260196, -0.113560865022587, 0.295551714431245, -1.19347221166363, -1.23714048047966, 1.23540043475087], a = 0.2, v = 0.2, t = 0.2)
movej(p[-0.43609408054791, -0.113450857406197, 0.295514820115151, -1.20167650748341, -1.23330517701331, 1.23874369327388], a = 0.2, v = 0.2, t = 0.2)
movej(p[-0.436158821277788, -0.113418436370531, 0.295428367345981, -1.20422795218561, -1.23106452163581, 1.23899035324298], a = 0.2, v = 0.2, t = 0.2)
movej(p[-0.436098959333131, -0.113356519023989, 0.295356285374725, -1.20730333100768, -1.22900858013087, 1.24488305288598], a = 0.2, v = 0.2, t = 0.2)
movej(p[-0.435859734007975, -0.113227417249028, 0.295357827744924, -1.19604247840934, -1.23357389798304, 1.22905803985654], a = 0.2, v = 0.2, t = 0.2)
movej(p[-0.435360051353973, -0.113230087297508, 0.295248070320433, -1.18882945334465, -1.23255767852034, 1.22262205288793], a = 0.2, v = 0.2, t = 0.2)
movej(p[-0.434578086415299, -0.113278941156642, 0.295186518568777, -1.17803579396041, -1.23284655276242, 1.21159523859173], a = 0.2, v = 0.2, t = 0.2)
movej(p[-0.433583243773808, -0.113223777997416, 0.295254738663586, -1.1836249014107, -1.22202707966445, 1.23161733460781], a = 0.2, v = 0.2, t = 0.2)
movej(p[-0.432757512011567, -0.113339328441949, 0.295324933713208, -1.1779356229476, -1.21585047134552, 1.23407948383018], a = 0.2, v = 0.2, t = 0.2)
movej(p[-0.432256441040325, -0.113562701800294, 0.295322559730112, -1.16998666531393, -1.21643806892959, 1.23519284144065], a = 0.2, v = 0.2, t = 0.2)
movej(p[-0.43208241067895, -0.11370980809131, 0.295348809258931, -1.16169743219318, -1.22149607934924, 1.23468425199019], a = 0.2, v = 0.2, t = 0.2)
movej(p[-0.432209472634208, -0.113640583583302, 0.295472894648551, -1.15661806338519, -1.22481386549018, 1.23304388647892], a = 0.2, v = 0.2, t = 0.2)
movej(p[-0.43292259328812, -0.113666461655657, 0.295491518505181, -1.16094784953285, -1.22534237774062, 1.23651703953792], a = 0.2, v = 0.2, t = 0.2)
movej(p[-0.433973919085634, -0.113733655273907, 0.295478621755727, -1.17086386372706, -1.2257623338493, 1.24200286237244], a = 0.2, v = 0.2, t = 0.2)
movej(p[-0.435013099549636, -0.113718391317608, 0.295510121291852, -1.18476502540146, -1.22884288211156, 1.2462283637585], a = 0.2, v = 0.2, t = 0.2)
movej(p[-0.435612801856558, -0.113676247841793, 0.295521799837047, -1.19476654104947, -1.22864904705536, 1.24701372554227], a = 0.2, v = 0.2, t = 0.2)
movej(p[-0.435980960311337, -0.113715972429006, 0.295425195605557, -1.20184205064362, -1.23014653669182, 1.2458715486166], a = 0.2, v = 0.2, t = 0.2)
movej(p[-0.436108814192209, -0.113647735359182, 0.295323841372671, -1.20555877832201, -1.22860284809431, 1.25255189053095], a = 0.2, v = 0.2, t = 0.2)
movej(p[-0.436060338773622, -0.113570831627271, 0.295260274776136, -1.20339315244476, -1.22714448204458, 1.24609392775779], a = 0.2, v = 0.2, t = 0.2)
movej(p[-0.436006017514153, -0.113575735639641, 0.295172022955597, -1.19539292565579, -1.22822479018977, 1.23102262713504], a = 0.2, v = 0.2, t = 0.2)
movej(p[-0.43593015253602, -0.113659152189236, 0.295055484197073, -1.19184051475294, -1.22881639827654, 1.22339989325065], a = 0.2, v = 0.2, t = 0.2)
movej(p[-0.435762040799594, -0.113535626822012, 0.295014759706736, -1.19441687354405, -1.22743468586745, 1.23125974653681], a = 0.2, v = 0.2, t = 0.2)
movej(p[-0.435175593394078, -0.113466247414294, 0.294957404031615, -1.18798936558602, -1.21943553949524, 1.22689065174638], a = 0.2, v = 0.2, t = 0.2)
movej(p[-0.434547801228193, -0.113574584083427, 0.294840070400382, -1.18104531148238, -1.21559631908031, 1.22225100129005], a = 0.2, v = 0.2, t = 0.2)
movej(p[-0.433844584538941, -0.113792583272522, 0.294744878215237, -1.17029343776178, -1.21460602237241, 1.21422286848502], a = 0.2, v = 0.2, t = 0.2)
movej(p[-0.433235662449685, -0.113801308181901, 0.294853899052108, -1.16722349452153, -1.21480112070405, 1.21761449502193], a = 0.2, v = 0.2, t = 0.2)
movej(p[-0.432648492625084, -0.11394737581056, 0.2948990102141, -1.16037181318234, -1.21092256275911, 1.21872746645865], a = 0.2, v = 0.2, t = 0.2)
movej(p[-0.432384031935534, -0.114187052948284, 0.294909905489901, -1.15494071611042, -1.21260167742663, 1.21924066056625], a = 0.2, v = 0.2, t = 0.2)
movej(p[-0.432472436593508, -0.114331683386582, 0.294934346021113, -1.15303997428118, -1.21411168289401, 1.2275422818833], a = 0.2, v = 0.2, t = 0.2)
movej(p[-0.432941235626447, -0.114271792439646, 0.295033708310692, -1.14710118848584, -1.22127711576679, 1.21864644124], a = 0.2, v = 0.2, t = 0.2)
movej(p[-0.433891962974179, -0.114261131249307, 0.295076900924588, -1.15298595024474, -1.223129081581, 1.2196219825818], a = 0.2, v = 0.2, t = 0.2)
movej(p[-0.434859612011074, -0.1142922596863, 0.295073497822121, -1.15742457201628, -1.22871433393718, 1.21102702130265], a = 0.2, v = 0.2, t = 0.2)
movej(p[-0.43561243254278, -0.114154959965623, 0.295122306947741, -1.17799025408721, -1.22576514109782, 1.23041894877824], a = 0.2, v = 0.2, t = 0.2)
movej(p[-0.435884928759687, -0.114024317491872, 0.295129511965608, -1.18038908130581, -1.22594972768444, 1.22354145120796], a = 0.2, v = 0.2, t = 0.2)
movej(p[-0.435999183453606, -0.113998881969864, 0.295052810280802, -1.18580617848016, -1.22360305063183, 1.2273105136853], a = 0.2, v = 0.2, t = 0.2)
movej(p[-0.436027765351305, -0.113942143298859, 0.294995603609543, -1.18904732151715, -1.2219863824634, 1.23172902787346], a = 0.2, v = 0.2, t = 0.2)
movej(p[-0.435968413547391, -0.113799199376152, 0.294967730488628, -1.19382749303559, -1.21637394392364, 1.23864001591962], a = 0.2, v = 0.2, t = 0.2)
movej(p[-0.435922669360428, -0.113783405731896, 0.294915631993101, -1.18811266177909, -1.21742031570286, 1.22861809970707], a = 0.2, v = 0.2, t = 0.2)
movej(p[-0.435787826006554, -0.113778545685137, 0.294809729960725, -1.18710609902603, -1.21588782990218, 1.2281819167652], a = 0.2, v = 0.2, t = 0.2)
movej(p[-0.435369272820628, -0.113678140451864, 0.294812779728386, -1.18481561474492, -1.21841871314626, 1.22672458331635], a = 0.2, v = 0.2, t = 0.2)
movej(p[-0.434619994763646, -0.113579758250513, 0.294799380848484, -1.18051354059211, -1.21152606526404, 1.22620295714648], a = 0.2, v = 0.2, t = 0.2)
movej(p[-0.43385760191776, -0.11370384575482, 0.294747196231815, -1.17391092422501, -1.21097092625244, 1.22180941827061], a = 0.2, v = 0.2, t = 0.2)
movej(p[-0.43312673338208, -0.113876656908301, 0.294753373317292, -1.16824921633809, -1.2089697140878, 1.22604248361438], a = 0.2, v = 0.2, t = 0.2)
movej(p[-0.432489777463566, -0.113903459657331, 0.2949092957131, -1.16426440603832, -1.2118629626962, 1.23008512913484], a = 0.2, v = 0.2, t = 0.2)
movej(p[-0.432090585304947, -0.113995158495757, 0.295005829124562, -1.1614658936063, -1.20837011044665, 1.23569870694092], a = 0.2, v = 0.2, t = 0.2)
movej(p[-0.43233059456915, -0.114142404113105, 0.295046541026608, -1.15724472173822, -1.21287651765859, 1.23505495105019], a = 0.2, v = 0.2, t = 0.2)
movej(p[-0.433013280463344, -0.114144858463682, 0.295053921767166, -1.1639503596532, -1.21082645891103, 1.25216316323055], a = 0.2, v = 0.2, t = 0.2)
movej(p[-0.433892770840196, -0.114053380122025, 0.295142739611279, -1.16186839647585, -1.21684511003713, 1.24004228054815], a = 0.2, v = 0.2, t = 0.2)
movej(p[-0.434847300494657, -0.114009899939532, 0.29516207123782, -1.16611354786528, -1.22253343087939, 1.23108259124715], a = 0.2, v = 0.2, t = 0.2)
movej(p[-0.435541441797077, -0.114016124581597, 0.295149423700257, -1.17351005213929, -1.22828171150985, 1.22581879072545], a = 0.2, v = 0.2, t = 0.2)
movej(p[-0.435961734087415, -0.113795468833958, 0.295199301311629, -1.18854437750114, -1.22737880850446, 1.23762150348192], a = 0.2, v = 0.2, t = 0.2)
movej(p[-0.436038012090003, -0.113667287515482, 0.295178235253269, -1.19619697364259, -1.22136871758173, 1.24270851388924], a = 0.2, v = 0.2, t = 0.2)
movej(p[-0.436093587492548, -0.113637104651383, 0.29513867725096, -1.20137371377658, -1.21851208355385, 1.24335561073513], a = 0.2, v = 0.2, t = 0.2)
movej(p[-0.436048576325111, -0.11360936181286, 0.295139794789584, -1.20090834393389, -1.21970458351306, 1.24095655219943], a = 0.2, v = 0.2, t = 0.2)
movej(p[-0.435917628076054, -0.113487562913752, 0.29515911689385, -1.1920500659163, -1.22533979065834, 1.22575095874284], a = 0.2, v = 0.2, t = 0.2)
movej(p[-0.435537750897396, -0.113428913144329, 0.295061615316252, -1.18502731963695, -1.22675348154341, 1.21916188731474], a = 0.2, v = 0.2, t = 0.2)
movej(p[-0.434918797044415, -0.1133703633115, 0.294965379588791, -1.1787182302799, -1.22590798293155, 1.21500839156124], a = 0.2, v = 0.2, t = 0.2)
movej(p[-0.433979603340788, -0.113209507005965, 0.294978667045222, -1.18879736644085, -1.21293849655109, 1.24131011567031], a = 0.2, v = 0.2, t = 0.2)
movej(p[-0.433117516426309, -0.113247920568324, 0.295002803503352, -1.18593220426248, -1.20522121921306, 1.24703574923588], a = 0.2, v = 0.2, t = 0.2)
movej(p[-0.432522055400554, -0.113483478725961, 0.294998925156196, -1.17883814571538, -1.20510023423133, 1.24705932577957], a = 0.2, v = 0.2, t = 0.2)
movej(p[-0.432037341620622, -0.113694769707217, 0.295050688151518, -1.16897640562735, -1.20940432869271, 1.24586604608672], a = 0.2, v = 0.2, t = 0.2)
movej(p[-0.431734902415301, -0.113721470515153, 0.295189207921011, -1.16167695386355, -1.21037336600607, 1.24598998400411], a = 0.2, v = 0.2, t = 0.2)
movej(p[-0.43206442626676, -0.113789298598976, 0.295214939568153, -1.16172435523249, -1.21144342437283, 1.25099211674982], a = 0.2, v = 0.2, t = 0.2)
movej(p[-0.432987007615291, -0.113875066585582, 0.295250520903395, -1.16469734078968, -1.21475703746572, 1.25101482270806], a = 0.2, v = 0.2, t = 0.2)
movej(p[-0.434167015261339, -0.113903591589559, 0.295278410224214, -1.17679015037491, -1.21557012304862, 1.25629919015061], a = 0.2, v = 0.2, t = 0.2)
movej(p[-0.435137189669999, -0.113924063830006, 0.29529436472678, -1.18093679619144, -1.21989277744915, 1.24546633194745], a = 0.2, v = 0.2, t = 0.2)
movej(p[-0.435862572528471, -0.113909546524007, 0.295261345396414, -1.18512084043785, -1.22597755997152, 1.23735758474361], a = 0.2, v = 0.2, t = 0.2)
movej(p[-0.436160818678737, -0.113784662369628, 0.295270051814288, -1.18817716439719, -1.23205338524084, 1.23094867281137], a = 0.2, v = 0.2, t = 0.2)
movej(p[-0.436171880984809, -0.113597020630907, 0.29528712599758, -1.18915033495291, -1.23116457423073, 1.22901507381113], a = 0.2, v = 0.2, t = 0.2)
movej(p[-0.436161058261454, -0.113551736600731, 0.295222450774386, -1.19761687412373, -1.22441604367347, 1.23864577136325], a = 0.2, v = 0.2, t = 0.2)
movej(p[-0.436151156492723, -0.11349362374094, 0.295197903352955, -1.19860242490477, -1.22298723257528, 1.24132525236725], a = 0.2, v = 0.2, t = 0.2)
movej(p[-0.436089696772068, -0.113346782077613, 0.295252857130334, -1.20296345396447, -1.22271648480747, 1.2471611439861], a = 0.2, v = 0.2, t = 0.2)
movej(p[-0.435682470293467, -0.113254894812177, 0.295201139507833, -1.193125954827, -1.22389133752849, 1.23299756141255], a = 0.2, v = 0.2, t = 0.2)
movej(p[-0.435048716610225, -0.113236524169767, 0.295085420217417, -1.18748828429015, -1.22276696022535, 1.22737062581485], a = 0.2, v = 0.2, t = 0.2)
movej(p[-0.434214234491551, -0.113161171461735, 0.295060750503091, -1.18419164531245, -1.21972848615711, 1.22891142091827], a = 0.2, v = 0.2, t = 0.2)
movej(p[-0.433408379257668, -0.113155530620361, 0.295136059279022, -1.1793746501678, -1.21457633256446, 1.2306383151971], a = 0.2, v = 0.2, t = 0.2)
movej(p[-0.432840925998604, -0.113328492997469, 0.295160804975777, -1.17471092058086, -1.21193133611764, 1.23416636824305], a = 0.2, v = 0.2, t = 0.2)
movej(p[-0.432432398916485, -0.113553306769007, 0.295138224687311, -1.16895846983185, -1.21261664316789, 1.23874464573185], a = 0.2, v = 0.2, t = 0.2)
movej(p[-0.432329187138753, -0.113558155282187, 0.295241912225894, -1.16546083216703, -1.21796886626014, 1.24349881029567], a = 0.2, v = 0.2, t = 0.2)
movej(p[-0.432509860919782, -0.113526156693958, 0.295347900708758, -1.16151520543608, -1.2182597755316, 1.24137529302555], a = 0.2, v = 0.2, t = 0.2)
movej(p[-0.433321919454431, -0.113612038817502, 0.295402148245662, -1.16224995540992, -1.22463692817951, 1.23798784300451], a = 0.2, v = 0.2, t = 0.2)
movej(p[-0.434303064381526, -0.113650270250753, 0.295415359666717, -1.17358000313629, -1.22356261604737, 1.24735776287839], a = 0.2, v = 0.2, t = 0.2)
movej(p[-0.435149718762245, -0.113633550424688, 0.295454347453591, -1.17525855906293, -1.23245671036048, 1.23268448178466], a = 0.2, v = 0.2, t = 0.2)
movej(p[-0.435724731297117, -0.113626455787913, 0.29541663778017, -1.18125926338694, -1.23482594225653, 1.22786778229938], a = 0.2, v = 0.2, t = 0.2)
movej(p[-0.435957885403027, -0.113647312164482, 0.295332131078787, -1.18327586902626, -1.23816459756433, 1.21966987580784], a = 0.2, v = 0.2, t = 0.2)
movej(p[-0.436028834462623, -0.113510505427982, 0.295302143538018, -1.19755336369103, -1.23023234841857, 1.2380646443723], a = 0.2, v = 0.2, t = 0.2)
movej(p[-0.435955626774741, -0.113467474876466, 0.295223719581194, -1.20165865430133, -1.22130027522293, 1.24254343780658], a = 0.2, v = 0.2, t = 0.2)
movej(p[-0.435984605796133, -0.113519897339022, 0.295141216676768, -1.20221666051349, -1.21919973353141, 1.24144638831795], a = 0.2, v = 0.2, t = 0.2)
movej(p[-0.435937977139222, -0.113524715235181, 0.295064060488518, -1.20199128037847, -1.21899732572038, 1.24300522185012], a = 0.2, v = 0.2, t = 0.2)
movej(p[-0.435657206471293, -0.113343893223052, 0.295063498906444, -1.19958533895214, -1.21715254677463, 1.24150055785823], a = 0.2, v = 0.2, t = 0.2)
movej(p[-0.435159878043432, -0.113341631616949, 0.294939738717856, -1.19189554707075, -1.21431629604927, 1.23363444167853], a = 0.2, v = 0.2, t = 0.2)
movej(p[-0.434468739114712, -0.113419180244098, 0.294829481484729, -1.18285448020809, -1.21278241668719, 1.22763777798875], a = 0.2, v = 0.2, t = 0.2)
movej(p[-0.433731269976748, -0.113435827341847, 0.294854390144831, -1.1761569816798, -1.21360316865284, 1.22727401995836], a = 0.2, v = 0.2, t = 0.2)
movej(p[-0.433048554443983, -0.113467768299213, 0.294927339651093, -1.17476263002659, -1.20965812425884, 1.23530855547706], a = 0.2, v = 0.2, t = 0.2)
movej(p[-0.432571407010501, -0.113641055280786, 0.294916826744731, -1.17364495767608, -1.20935018171633, 1.24276465823509], a = 0.2, v = 0.2, t = 0.2)
movej(p[-0.432380233552477, -0.11378329706223, 0.29497047067597, -1.17235561972518, -1.20991528757233, 1.25128544521378], a = 0.2, v = 0.2, t = 0.2)
movej(p[-0.43254496525631, -0.113730956698689, 0.295144737967786, -1.16973082376722, -1.21449918356265, 1.25351293386951], a = 0.2, v = 0.2, t = 0.2)
movej(p[-0.433213273152818, -0.113712752902756, 0.295264447672397, -1.16438886829435, -1.2200534075152, 1.24020213641247], a = 0.2, v = 0.2, t = 0.2)
movej(p[-0.434195179871664, -0.113787412146263, 0.295291985447255, -1.16878821480664, -1.22658427935735, 1.23415876575962], a = 0.2, v = 0.2, t = 0.2)
movej(p[-0.435123042321112, -0.113718794646403, 0.295332652885295, -1.18039283712762, -1.22898398885509, 1.23991950580139], a = 0.2, v = 0.2, t = 0.2)
movej(p[-0.435588653896413, -0.113616527367999, 0.295367241815804, -1.18892639445004, -1.22602005723861, 1.24176149918886], a = 0.2, v = 0.2, t = 0.2)
movej(p[-0.435900479619656, -0.113579498692373, 0.29532581101478, -1.19094958116655, -1.2268148351494, 1.23780919705358], a = 0.2, v = 0.2, t = 0.2)
movej(p[-0.435974803243955, -0.113585284998927, 0.295222496062389, -1.19269265098403, -1.22797799667986, 1.23589083667523], a = 0.2, v = 0.2, t = 0.2)
movej(p[-0.436072035482489, -0.113422486954418, 0.295245768985341, -1.19679233653771, -1.23000215795684, 1.23999685204247], a = 0.2, v = 0.2, t = 0.2)
movej(p[-0.435963615316376, -0.113331693875042, 0.295219543489378, -1.20155498353667, -1.22222468358522, 1.24730814759929], a = 0.2, v = 0.2, t = 0.2)
movej(p[-0.435701608893122, -0.113334501715932, 0.295106151157613, -1.2015140949651, -1.21948842693117, 1.24821584307374], a = 0.2, v = 0.2, t = 0.2)
movej(p[-0.435120838436749, -0.113287166146082, 0.295011055146491, -1.19959806705519, -1.2147127320036, 1.25175303264374], a = 0.2, v = 0.2, t = 0.2)
movej(p[-0.434253581715163, -0.11317182652078, 0.295010054047487, -1.18543405097932, -1.21663760286362, 1.23642407930689], a = 0.2, v = 0.2, t = 0.2)
movej(p[-0.433442946554886, -0.113264289199623, 0.294976920533582, -1.17805208350912, -1.21258123467526, 1.23417864993255], a = 0.2, v = 0.2, t = 0.2)
movej(p[-0.432773981906709, -0.113501376451494, 0.29495162807048, -1.16899332422399, -1.21354163116459, 1.23276982956431], a = 0.2, v = 0.2, t = 0.2)
movej(p[-0.432226422034521, -0.113590266529591, 0.295009239979714, -1.17589429917271, -1.20954378893361, 1.25766396004551], a = 0.2, v = 0.2, t = 0.2)
movej(p[-0.431934745973085, -0.113594160824598, 0.295147264469756, -1.17022055311189, -1.20944138446415, 1.25803274335946], a = 0.2, v = 0.2, t = 0.2)
movej(p[-0.432311926236133, -0.113631621556019, 0.295220453830102, -1.16512273571076, -1.21641092446412, 1.2527509629906], a = 0.2, v = 0.2, t = 0.2)
movej(p[-0.433194166985752, -0.113675856423324, 0.295291914610442, -1.16263189840909, -1.22191319055578, 1.24601597845794], a = 0.2, v = 0.2, t = 0.2)
movej(p[-0.434339735357179, -0.113568418030421, 0.295399646736649, -1.17555870556135, -1.2211873794752, 1.25545047454427], a = 0.2, v = 0.2, t = 0.2)
movej(p[-0.435275551473743, -0.113584332008215, 0.295388352853834, -1.18723887269871, -1.21966240852065, 1.25751997214195], a = 0.2, v = 0.2, t = 0.2)
movej(p[-0.435925235309904, -0.113574475517798, 0.295384147680982, -1.20101297631902, -1.22157345412849, 1.26105055640879], a = 0.2, v = 0.2, t = 0.2)
movej(p[-0.436118207546286, -0.113460396729399, 0.295397449239278, -1.20524883069626, -1.22578407843555, 1.25700984857544], a = 0.2, v = 0.2, t = 0.2)
movej(p[-0.43609189439828, -0.113311600743273, 0.295448772635216, -1.20646408017566, -1.22644771385935, 1.25088346263017], a = 0.2, v = 0.2, t = 0.2)
movej(p[-0.43610646888514, -0.113300433849211, 0.295392051955479, -1.20904988427886, -1.22560539680184, 1.25272728966932], a = 0.2, v = 0.2, t = 0.2)
movej(p[-0.436070690476243, -0.113232758740951, 0.295344528216372, -1.21061296109834, -1.22486680806527, 1.25509461496689], a = 0.2, v = 0.2, t = 0.2)
movej(p[-0.435798053985826, -0.113075406601372, 0.295287320171808, -1.21076808138273, -1.22096892399564, 1.25870213016233], a = 0.2, v = 0.2, t = 0.2)
movej(p[-0.435230719436075, -0.113053077285601, 0.2951492660675, -1.20544867195522, -1.21679486775141, 1.25276650789703], a = 0.2, v = 0.2, t = 0.2)
movej(p[-0.434370568701641, -0.113076359090884, 0.295014612569605, -1.19551502255264, -1.21534452449681, 1.24432141660702], a = 0.2, v = 0.2, t = 0.2)
movej(p[-0.433452731005684, -0.113076566528483, 0.295037704759849, -1.19065112575591, -1.2151290139278, 1.24690747381123], a = 0.2, v = 0.2, t = 0.2)
movej(p[-0.432603222572973, -0.113097812676627, 0.295105449454421, -1.1838972327006, -1.21105242618686, 1.2509400407998], a = 0.2, v = 0.2, t = 0.2)
movej(p[-0.432073206382181, -0.113328380672795, 0.295119837961021, -1.17973690182934, -1.21178087870538, 1.25734927757868], a = 0.2, v = 0.2, t = 0.2)
movej(p[-0.43192917155313, -0.113476412615656, 0.295139118695809, -1.17408919059662, -1.21359235769762, 1.26210849743398], a = 0.2, v = 0.2, t = 0.2)
movej(p[-0.432225717102873, -0.113475723420411, 0.295263437119373, -1.16743235080196, -1.2208318581057, 1.25418410204314], a = 0.2, v = 0.2, t = 0.2)
movej(p[-0.433063432281178, -0.113444772073564, 0.295360133258333, -1.16516548139774, -1.2249660040331, 1.24450439315339], a = 0.2, v = 0.2, t = 0.2)
movej(p[-0.434183524665627, -0.113504715282584, 0.295431448404639, -1.17310318687612, -1.23032333925764, 1.24370397156682], a = 0.2, v = 0.2, t = 0.2)
movej(p[-0.435190329855455, -0.113454841849098, 0.295535696839691, -1.1917118734429, -1.23113944143458, 1.25622028959175], a = 0.2, v = 0.2, t = 0.2)
movej(p[-0.435754572988617, -0.113403763678836, 0.295601080328982, -1.20402341648307, -1.22864088728457, 1.2619675528569], a = 0.2, v = 0.2, t = 0.2)
movej(p[-0.436066285948227, -0.113380152236882, 0.295545618652221, -1.21246777092672, -1.22638664300219, 1.26381740694537], a = 0.2, v = 0.2, t = 0.2)
movej(p[-0.436125910817076, -0.113294829356511, 0.29546993010289, -1.21267308340641, -1.22599950065714, 1.26284216866813], a = 0.2, v = 0.2, t = 0.2)
movej(p[-0.436126804915954, -0.113128320666862, 0.295474874580481, -1.20864215938739, -1.23010796243102, 1.25399890042372], a = 0.2, v = 0.2, t = 0.2)
movej(p[-0.436075689857268, -0.11305936633372, 0.295450638483095, -1.20540382787328, -1.23080759802132, 1.24633341748769], a = 0.2, v = 0.2, t = 0.2)
movej(p[-0.435938841616635, -0.113067363705765, 0.29534366963312, -1.2072873335942, -1.23055842483346, 1.24805618369079], a = 0.2, v = 0.2, t = 0.2)
movej(p[-0.435499510351178, -0.11293949995853, 0.295280875550567, -1.21244073489292, -1.22457762301955, 1.25771240203195], a = 0.2, v = 0.2, t = 0.2)
movej(p[-0.43478252240563, -0.112896208984374, 0.295220091563408, -1.20606294363834, -1.21735736612693, 1.2546830894638], a = 0.2, v = 0.2, t = 0.2)
movej(p[-0.434033816184928, -0.112989905963493, 0.295163956089894, -1.19925587357947, -1.21266138226329, 1.25377926068476], a = 0.2, v = 0.2, t = 0.2)
movej(p[-0.433263038776902, -0.11313186403286, 0.295138245574195, -1.19280452882081, -1.2100861256883, 1.256541026203], a = 0.2, v = 0.2, t = 0.2)
movej(p[-0.432542134177252, -0.113129159950383, 0.295214346366849, -1.18567659066277, -1.21121585834841, 1.25779547636684], a = 0.2, v = 0.2, t = 0.2)
movej(p[-0.432040335855118, -0.11324466910845, 0.295242270139694, -1.18166802937165, -1.21060241690375, 1.2613871069009], a = 0.2, v = 0.2, t = 0.2)
movej(p[-0.431962044156513, -0.113428148955764, 0.295290209364554, -1.17445355693243, -1.21589071892761, 1.26005221386538], a = 0.2, v = 0.2, t = 0.2)
movej(p[-0.432403363242699, -0.113450731385779, 0.295397476931466, -1.17927211275319, -1.21634857807061, 1.272316552317], a = 0.2, v = 0.2, t = 0.2)
movej(p[-0.433212526621669, -0.113441234121613, 0.295520503542031, -1.1782702202195, -1.2188620874281, 1.26383376610003], a = 0.2, v = 0.2, t = 0.2)
movej(p[-0.434367593085993, -0.113528023420621, 0.295534703125719, -1.18220765532724, -1.22720956726768, 1.25629093759937], a = 0.2, v = 0.2, t = 0.2)
movej(p[-0.435303911786804, -0.11357918266108, 0.29555378548383, -1.18809092387251, -1.23406635334852, 1.24812913401838], a = 0.2, v = 0.2, t = 0.2)
movej(p[-0.435839467765491, -0.113394976107775, 0.295644439348946, -1.19210893439329, -1.23859210673321, 1.24548734529403], a = 0.2, v = 0.2, t = 0.2)
movej(p[-0.436042234098536, -0.113324694556779, 0.295605437365379, -1.19938401778778, -1.23371312136885, 1.24910823188098], a = 0.2, v = 0.2, t = 0.2)
movej(p[-0.436148436263037, -0.113275899268311, 0.295535691194312, -1.20069583066211, -1.23375124807393, 1.24706733655222], a = 0.2, v = 0.2, t = 0.2)
movej(p[-0.436144975410254, -0.113213623406538, 0.29550129120102, -1.2036085220516, -1.23417266250914, 1.24850721272897], a = 0.2, v = 0.2, t = 0.2)
movej(p[-0.436038312840687, -0.11310283426772, 0.295492199249996, -1.20365066939442, -1.23412325674146, 1.24495236538945], a = 0.2, v = 0.2, t = 0.2)
movej(p[-0.435742141887584, -0.113079298669177, 0.295357564449001, -1.20600714124089, -1.23020298202065, 1.2479799377505], a = 0.2, v = 0.2, t = 0.2)
movej(p[-0.435138005771735, -0.112990797051861, 0.295276163411169, -1.20392521198727, -1.22598667288055, 1.24864459894753], a = 0.2, v = 0.2, t = 0.2)
movej(p[-0.434297548227266, -0.112859691081854, 0.295286662776525, -1.20452383590871, -1.2158024765688, 1.2582276415523], a = 0.2, v = 0.2, t = 0.2)
movej(p[-0.433567556475248, -0.112941817336101, 0.295305071493179, -1.19581739669197, -1.21135516312449, 1.25491981001128], a = 0.2, v = 0.2, t = 0.2)
movej(p[-0.433093548743118, -0.113152229843164, 0.295304532835338, -1.19116785643588, -1.21065895042891, 1.25790644668878], a = 0.2, v = 0.2, t = 0.2)
movej(p[-0.433134499430439, -0.113184861016566, 0.295410360084335, -1.18598766273528, -1.21602923425221, 1.25737039790905], a = 0.2, v = 0.2, t = 0.2)
movej(p[-0.43355535483229, -0.113139821658352, 0.29558037067149, -1.18666062285448, -1.21614650753047, 1.26015788133044], a = 0.2, v = 0.2, t = 0.2)
movej(p[-0.434493190075128, -0.113214662226387, 0.295630026832906, -1.19562083236986, -1.21574730402617, 1.26727961666852], a = 0.2, v = 0.2, t = 0.2)
movej(p[-0.435334763075938, -0.113265484969043, 0.295655143077374, -1.20646133407366, -1.21655316980512, 1.27418008762864], a = 0.2, v = 0.2, t = 0.2)
movej(p[-0.435958187675452, -0.113212241822259, 0.295679331404447, -1.21052599131506, -1.22249754500439, 1.27077338114751], a = 0.2, v = 0.2, t = 0.2)
movej(p[-0.436199057285331, -0.113135650499103, 0.295679354160095, -1.21213882118161, -1.22562108051805, 1.26583521446073], a = 0.2, v = 0.2, t = 0.2)
movej(p[-0.436291669885245, -0.113165029753429, 0.295592594644464, -1.21155572304347, -1.22885692515997, 1.26097407850427], a = 0.2, v = 0.2, t = 0.2)
movej(p[-0.436249695928969, -0.113048134916499, 0.295551346979155, -1.21595961112197, -1.22822755847558, 1.26805871453697], a = 0.2, v = 0.2, t = 0.2)
movej(p[-0.435876612004012, -0.112947688029639, 0.295469138154452, -1.21223570712895, -1.22297353114112, 1.26416402488872], a = 0.2, v = 0.2, t = 0.2)
movej(p[-0.43526434787924, -0.112916282857539, 0.295356899282476, -1.2057771457453, -1.22039246614009, 1.25835598587226], a = 0.2, v = 0.2, t = 0.2)
movej(p[-0.434250674653423, -0.112935185827619, 0.295266949632759, -1.20044845569897, -1.21598758322581, 1.25681560630047], a = 0.2, v = 0.2, t = 0.2)
movej(p[-0.433179053873868, -0.112875498335555, 0.295335249900816, -1.18996484113301, -1.21678192414208, 1.25240171487521], a = 0.2, v = 0.2, t = 0.2)
movej(p[-0.432281050471147, -0.112996969273427, 0.295371440484601, -1.1820827368884, -1.21276760879692, 1.2548437405414], a = 0.2, v = 0.2, t = 0.2)
movej(p[-0.431740110398527, -0.113228738873423, 0.295354530004075, -1.17458420552272, -1.21376109844551, 1.25801500965401], a = 0.2, v = 0.2, t = 0.2)
movej(p[-0.431537744245191, -0.113308893489494, 0.295388770242559, -1.17404445351571, -1.21326937684145, 1.26914325362254], a = 0.2, v = 0.2, t = 0.2)
movej(p[-0.431734274012971, -0.113246839886556, 0.295506953191341, -1.17186134235329, -1.21475775359026, 1.26783152697922], a = 0.2, v = 0.2, t = 0.2)
movej(p[-0.43251106663784, -0.113260648563709, 0.295602431685324, -1.17231774795975, -1.22034869759232, 1.26240789187268], a = 0.2, v = 0.2, t = 0.2)
movej(p[-0.433563902822138, -0.113371968348721, 0.295630301653468, -1.17601763903081, -1.22453993322503, 1.25793574025858], a = 0.2, v = 0.2, t = 0.2)
movej(p[-0.434647323928377, -0.113356655555793, 0.295688036057887, -1.18290509419542, -1.22921331342464, 1.25573687691379], a = 0.2, v = 0.2, t = 0.2)
movej(p[-0.435468645585921, -0.113404284053246, 0.295640885207751, -1.19497715339232, -1.22654370044632, 1.2611289671957], a = 0.2, v = 0.2, t = 0.2)
movej(p[-0.436033509231057, -0.113429924278807, 0.295587399265886, -1.2011201046447, -1.22978973390066, 1.25700990747592], a = 0.2, v = 0.2, t = 0.2)
movej(p[-0.436199650515553, -0.113329257509609, 0.295544847537727, -1.20844601743944, -1.22895661508646, 1.26041823143077], a = 0.2, v = 0.2, t = 0.2)
movej(p[-0.436058391345946, -0.113214965020364, 0.295529447274615, -1.20476341339265, -1.23001392167192, 1.24724668437162], a = 0.2, v = 0.2, t = 0.2)
movej(p[-0.435628343367595, -0.113135509955638, 0.295409670232968, -1.20162163004856, -1.22942835066967, 1.24239440083814], a = 0.2, v = 0.2, t = 0.2)
movej(p[-0.434777955732369, -0.113071528411004, 0.295338227836591, -1.20009881471066, -1.22694490404287, 1.24250977862602], a = 0.2, v = 0.2, t = 0.2)
movej(p[-0.433649408337535, -0.112890252069694, 0.295370307161647, -1.19648083259796, -1.22071009969603, 1.24917701761785], a = 0.2, v = 0.2, t = 0.2)
movej(p[-0.432465216026443, -0.112973247768377, 0.295360000845593, -1.19200236450587, -1.21321122055632, 1.25805265261382], a = 0.2, v = 0.2, t = 0.2)
movej(p[-0.431473112639766, -0.113149280267047, 0.295341583452828, -1.17857351245248, -1.21379932771204, 1.25951624739323], a = 0.2, v = 0.2, t = 0.2)
movej(p[-0.430935641580372, -0.113267976435984, 0.295376788350453, -1.16911340288342, -1.21866946929733, 1.2621769988993], a = 0.2, v = 0.2, t = 0.2)
movej(p[-0.430864753976054, -0.113270651501614, 0.295476051334501, -1.15473834793017, -1.22350670294109, 1.25050995577697], a = 0.2, v = 0.2, t = 0.2)
movej(p[-0.431647651130276, -0.113338896886345, 0.295506737906723, -1.15700111572877, -1.22738576343636, 1.25217365055324], a = 0.2, v = 0.2, t = 0.2)
movej(p[-0.432817619074017, -0.113415388869286, 0.295557488570955, -1.16213983746277, -1.22953129221715, 1.25265440049189], a = 0.2, v = 0.2, t = 0.2)
movej(p[-0.434074956052517, -0.113421954490459, 0.295634253692081, -1.17768360334925, -1.22740392300934, 1.26115881759906], a = 0.2, v = 0.2, t = 0.2)
movej(p[-0.435086787067281, -0.11350559779211, 0.295632483657854, -1.18353001315062, -1.23034300556349, 1.24795072894066], a = 0.2, v = 0.2, t = 0.2)
movej(p[-0.435781133109261, -0.113545256774317, 0.295557132227868, -1.194921064811, -1.23257447973229, 1.24749674823121], a = 0.2, v = 0.2, t = 0.2)
movej(p[-0.436123996373828, -0.11343043484739, 0.29554435215056, -1.20110259076031, -1.23831686032882, 1.24475293704492], a = 0.2, v = 0.2, t = 0.2)
movej(p[-0.436153490118967, -0.113290431394651, 0.295547215297065, -1.20738307071991, -1.23368170831265, 1.25134155143513], a = 0.2, v = 0.2, t = 0.2)
movej(p[-0.436165983083726, -0.113264631948837, 0.295482862075489, -1.21281167276785, -1.22938293383135, 1.25512304495596], a = 0.2, v = 0.2, t = 0.2)
movej(p[-0.435910464968059, -0.113154139319316, 0.295435655997525, -1.21236793005409, -1.22724140758036, 1.25616313314636], a = 0.2, v = 0.2, t = 0.2)
movej(p[-0.435284259078207, -0.112997818377125, 0.29541668496054, -1.20922804917587, -1.22377057068816, 1.25170286427264], a = 0.2, v = 0.2, t = 0.2)
movej(p[-0.434326150810719, -0.112971314810547, 0.295336613384254, -1.19442168639299, -1.22198461218018, 1.23519539857859], a = 0.2, v = 0.2, t = 0.2)
movej(p[-0.43324490079775, -0.113088239558055, 0.295264997187243, -1.18370236986853, -1.21881681338284, 1.23195620605063], a = 0.2, v = 0.2, t = 0.2)
movej(p[-0.432238883685165, -0.113111293984599, 0.295329476724337, -1.18158611925455, -1.21691709689108, 1.24614569010984], a = 0.2, v = 0.2, t = 0.2)
movej(p[-0.431406898021865, -0.113169537614767, 0.29543759688022, -1.17111357789634, -1.21446307983862, 1.25172641592622], a = 0.2, v = 0.2, t = 0.2)
movej(p[-0.431181347831391, -0.113339902387027, 0.295466224244995, -1.16359692993305, -1.21760738264579, 1.25435366560814], a = 0.2, v = 0.2, t = 0.2)
movej(p[-0.431548438833691, -0.113481708897485, 0.295469174462987, -1.16034179047086, -1.21948954704215, 1.25878654582054], a = 0.2, v = 0.2, t = 0.2)
movej(p[-0.432432718325573, -0.113457446624901, 0.295563116254361, -1.16018464602828, -1.22520115703471, 1.25612269911209], a = 0.2, v = 0.2, t = 0.2)
movej(p[-0.433568915089613, -0.113502210348488, 0.295585686405396, -1.16984328060887, -1.22519499868434, 1.2567436873978], a = 0.2, v = 0.2, t = 0.2)
movej(p[-0.434788281855386, -0.113622752544989, 0.295552155164196, -1.17979805879776, -1.23068045993996, 1.25084903726594], a = 0.2, v = 0.2, t = 0.2)
movej(p[-0.435712639338389, -0.113584011614616, 0.29554333460832, -1.19898266230553, -1.22911561369362, 1.26273957865864], a = 0.2, v = 0.2, t = 0.2)
movej(p[-0.436059614250104, -0.113472429190621, 0.295579878613239, -1.20119676955343, -1.23284541070922, 1.24970673863688], a = 0.2, v = 0.2, t = 0.2)
movej(p[-0.436219104126769, -0.113422670023493, 0.295509405063751, -1.1995500308618, -1.23472062992816, 1.24013559412332], a = 0.2, v = 0.2, t = 0.2)
movej(p[-0.436137547140228, -0.113427995648975, 0.295424896071326, -1.19596550868047, -1.23790433891699, 1.23017248431086], a = 0.2, v = 0.2, t = 0.2)
movej(p[-0.435816654122487, -0.113165730188171, 0.295409575793294, -1.20095848604713, -1.23143440099033, 1.24297233813975], a = 0.2, v = 0.2, t = 0.2)
movej(p[-0.435147033287898, -0.113085210867724, 0.295332405484621, -1.19975541749465, -1.22206856806691, 1.24546557086907], a = 0.2, v = 0.2, t = 0.2)
movej(p[-0.434218499284899, -0.113112550074938, 0.295209875751401, -1.19501050179616, -1.21637285955297, 1.24747393214888], a = 0.2, v = 0.2, t = 0.2)
movej(p[-0.433205184405981, -0.113204550960207, 0.295195751963911, -1.18678418129159, -1.2138751811349, 1.2473031789736], a = 0.2, v = 0.2, t = 0.2)
movej(p[-0.432255702721378, -0.113272484463129, 0.295293677246183, -1.18023838843231, -1.20982725968156, 1.25094835072699], a = 0.2, v = 0.2, t = 0.2)
movej(p[-0.431709207878941, -0.113475253134098, 0.295330805745032, -1.17166203891486, -1.2124440920554, 1.25032505959572], a = 0.2, v = 0.2, t = 0.2)
movej(p[-0.431584026194631, -0.113629636232334, 0.295348257698864, -1.16425604382724, -1.21597147826703, 1.25158648834379], a = 0.2, v = 0.2, t = 0.2)
movej(p[-0.431893395661797, -0.113563075659022, 0.295420505930441, -1.16865543692648, -1.21636903425, 1.26639943842188], a = 0.2, v = 0.2, t = 0.2)
movej(p[-0.432617585764722, -0.113511346920523, 0.295512118495839, -1.16969338038525, -1.2180760069128, 1.26481669023676], a = 0.2, v = 0.2, t = 0.2)
movej(p[-0.433622758575015, -0.11354593888159, 0.295564777613547, -1.1763448573871, -1.22169899382791, 1.26222974485232], a = 0.2, v = 0.2, t = 0.2)
movej(p[-0.434668804556605, -0.11354625391988, 0.295613182216364, -1.18327642532807, -1.22783741466199, 1.25646054357653], a = 0.2, v = 0.2, t = 0.2)
movej(p[-0.435378306350238, -0.113471412971617, 0.295644974687264, -1.19236735869755, -1.22778610005939, 1.2570461478198], a = 0.2, v = 0.2, t = 0.2)
movej(p[-0.435883444274997, -0.113484843151091, 0.29557910301025, -1.19997189331305, -1.22869704054817, 1.25740262059637], a = 0.2, v = 0.2, t = 0.2)
movej(p[-0.436067461676931, -0.113431724777888, 0.295519368893645, -1.19973248548262, -1.23189114331801, 1.24992268945239], a = 0.2, v = 0.2, t = 0.2)
movej(p[-0.436021267038302, -0.113315409602244, 0.295480533232123, -1.19880636214868, -1.23277843902957, 1.24428154854797], a = 0.2, v = 0.2, t = 0.2)
movej(p[-0.435671973708168, -0.113210405304136, 0.295355310415502, -1.19090400811901, -1.23039204977106, 1.23111380444405], a = 0.2, v = 0.2, t = 0.2)
movej(p[-0.435039616304714, -0.113189765035429, 0.29521325088782, -1.1849044155058, -1.22701893487925, 1.22652147630454], a = 0.2, v = 0.2, t = 0.2)
movej(p[-0.434139598562263, -0.113112403251708, 0.295155691180622, -1.18196973150902, -1.22332164789414, 1.22972026930279], a = 0.2, v = 0.2, t = 0.2)
movej(p[-0.433150233559201, -0.113132824484519, 0.295196189140637, -1.1778419994811, -1.21535576657995, 1.23404430853608], a = 0.2, v = 0.2, t = 0.2)
movej(p[-0.432472900134318, -0.11336154613279, 0.295180565907374, -1.17392747649803, -1.21292001041882, 1.23883966607025], a = 0.2, v = 0.2, t = 0.2)
movej(p[-0.431992647986392, -0.11357271289379, 0.295186509408526, -1.17249081495736, -1.21109389487454, 1.24817556712395], a = 0.2, v = 0.2, t = 0.2)
movej(p[-0.431849001244574, -0.113610919256639, 0.29529496361731, -1.16725562180583, -1.21678021248925, 1.24912435885472], a = 0.2, v = 0.2, t = 0.2)
movej(p[-0.432211960119915, -0.113559487701779, 0.295389149274262, -1.16303308787708, -1.21971236425941, 1.24446320246775], a = 0.2, v = 0.2, t = 0.2)
movej(p[-0.433157278277556, -0.113625219204873, 0.295442580064396, -1.16721115671412, -1.22389202401213, 1.24433612952713], a = 0.2, v = 0.2, t = 0.2)
movej(p[-0.434442852495008, -0.113579169925371, 0.29550749688102, -1.18402292537301, -1.22231685437977, 1.26031306097076], a = 0.2, v = 0.2, t = 0.2)
movej(p[-0.435315857498989, -0.113563095516203, 0.295542510670567, -1.19486278267275, -1.22105264420625, 1.26142510391981], a = 0.2, v = 0.2, t = 0.2)
movej(p[-0.43597663745085, -0.113548912884492, 0.295521204782588, -1.19727423980062, -1.22764058048725, 1.25008347908944], a = 0.2, v = 0.2, t = 0.2)
movej(p[-0.436161664939143, -0.113530437236016, 0.295452710349835, -1.19819603110425, -1.23244620881774, 1.24057225160758], a = 0.2, v = 0.2, t = 0.2)
movej(p[-0.436246271049761, -0.113319877976564, 0.295468306827971, -1.20457307157813, -1.23437853653331, 1.24658592033511], a = 0.2, v = 0.2, t = 0.2)
movej(p[-0.436065334950431, -0.113190884509172, 0.295397652394071, -1.21013474154846, -1.22712848761287, 1.25594415850215], a = 0.2, v = 0.2, t = 0.2)
movej(p[-0.43561933962043, -0.113141864684035, 0.295261664048759, -1.20932419503658, -1.22361918883288, 1.25757262330978], a = 0.2, v = 0.2, t = 0.2)
movej(p[-0.434790029207394, -0.113055106787716, 0.295184214406043, -1.2053620565639, -1.2190735116483, 1.25884731742446], a = 0.2, v = 0.2, t = 0.2)
movej(p[-0.433792098363178, -0.113028185127737, 0.29516975090076, -1.19427686710157, -1.21432328149879, 1.24947993134462], a = 0.2, v = 0.2, t = 0.2)
movej(p[-0.432925066448431, -0.113181578859491, 0.295137417684566, -1.18239851434673, -1.21387681272964, 1.24374172762728], a = 0.2, v = 0.2, t = 0.2)
movej(p[-0.432235340553235, -0.113438374973776, 0.295129035766857, -1.16953952641537, -1.2164714036575, 1.23750839239267], a = 0.2, v = 0.2, t = 0.2)
movej(p[-0.431695555793753, -0.113433491616043, 0.295230958364597, -1.17007771737396, -1.21610678939102, 1.25036622464678], a = 0.2, v = 0.2, t = 0.2)
movej(p[-0.431444045449703, -0.113462173356444, 0.295310942896871, -1.16575101978347, -1.21545949334419, 1.25289590847285], a = 0.2, v = 0.2, t = 0.2)
movej(p[-0.431815625358691, -0.1135445566605, 0.295312606071087, -1.16387404618583, -1.21772732799284, 1.2551253574142], a = 0.2, v = 0.2, t = 0.2)
movej(p[-0.432734396710881, -0.113592052376787, 0.295353593019379, -1.16072712024452, -1.22398868488281, 1.24764750315902], a = 0.2, v = 0.2, t = 0.2)
movej(p[-0.433836283676195, -0.113552771652341, 0.295456669580037, -1.16302613941584, -1.22858039940378, 1.23723763529381], a = 0.2, v = 0.2, t = 0.2)
movej(p[-0.434943989451847, -0.113583848678954, 0.295477575426251, -1.17572056692659, -1.2315496199494, 1.23637868024614], a = 0.2, v = 0.2, t = 0.2)
movej(p[-0.435696240333971, -0.113577517624253, 0.295470141002368, -1.18570445255686, -1.23440076193067, 1.23562325241163], a = 0.2, v = 0.2, t = 0.2)
movej(p[-0.436058193916588, -0.113424470868547, 0.295469504961525, -1.2020315983134, -1.2294903343384, 1.25251610210424], a = 0.2, v = 0.2, t = 0.2)
movej(p[-0.436132217562034, -0.113336866893567, 0.295436678917253, -1.1996943471902, -1.22951400697288, 1.24095060038012], a = 0.2, v = 0.2, t = 0.2)
movej(p[-0.436162182559474, -0.11332302002785, 0.295375556052151, -1.19853423634383, -1.23135796150887, 1.23608808354789], a = 0.2, v = 0.2, t = 0.2)
movej(p[-0.436063047794482, -0.113230387593018, 0.295314089910358, -1.20112191106312, -1.23065065410956, 1.2411930204505], a = 0.2, v = 0.2, t = 0.2)
movej(p[-0.435564667593342, -0.113041580341785, 0.295283867380795, -1.20085694472549, -1.22419534155274, 1.24530934562018], a = 0.2, v = 0.2, t = 0.2)
movej(p[-0.434868058425602, -0.113071619955685, 0.295139620437959, -1.1998327811884, -1.2153772879509, 1.24911070756276], a = 0.2, v = 0.2, t = 0.2)
movej(p[-0.433902852817856, -0.113172998866919, 0.295073915542916, -1.19211914933812, -1.21235680309144, 1.2458670847676], a = 0.2, v = 0.2, t = 0.2)
movej(p[-0.432943543747408, -0.113252620343071, 0.295111065114799, -1.18419243837426, -1.21316793315725, 1.24410187733566], a = 0.2, v = 0.2, t = 0.2)
movej(p[-0.432153739495934, -0.113366372164088, 0.295163011190626, -1.17587417976159, -1.21157999180838, 1.24389491873178], a = 0.2, v = 0.2, t = 0.2)
movej(p[-0.431665286503409, -0.113589852587593, 0.295150677532277, -1.17125690385941, -1.21431461923641, 1.24785065714519], a = 0.2, v = 0.2, t = 0.2)
movej(p[-0.431732087315159, -0.11364230626839, 0.295207689789033, -1.1733348790445, -1.21553449618414, 1.26273557431998], a = 0.2, v = 0.2, t = 0.2)
movej(p[-0.432238453144557, -0.113580465435212, 0.295348515420824, -1.17285328203309, -1.21879582022345, 1.2628907263926], a = 0.2, v = 0.2, t = 0.2)
movej(p[-0.433360062213953, -0.113599379137485, 0.295419315452712, -1.17095778544152, -1.22402430790968, 1.24981556535108], a = 0.2, v = 0.2, t = 0.2)
movej(p[-0.434608049845783, -0.113704343659939, 0.295433929241591, -1.17706272752922, -1.22922539478275, 1.24087746404885], a = 0.2, v = 0.2, t = 0.2)
movej(p[-0.435670413774272, -0.113601846558236, 0.295493849142201, -1.19074427003391, -1.23178093157961, 1.24592520624788], a = 0.2, v = 0.2, t = 0.2)
movej(p[-0.436087196617323, -0.11350938568349, 0.295525117677457, -1.19715433215506, -1.22914510884607, 1.24370673289586], a = 0.2, v = 0.2, t = 0.2)
movej(p[-0.436314774631719, -0.113479985054678, 0.295472559300375, -1.20299622777321, -1.22811677929842, 1.24574473074647], a = 0.2, v = 0.2, t = 0.2)
movej(p[-0.436285345142111, -0.113433041261706, 0.295399044500377, -1.20525005608758, -1.22744630969366, 1.24779597399476], a = 0.2, v = 0.2, t = 0.2)
movej(p[-0.436050766285199, -0.113253471022589, 0.29539783982862, -1.20124136931971, -1.22914657664036, 1.24200020171852], a = 0.2, v = 0.2, t = 0.2)
movej(p[-0.435491386215029, -0.113146577392852, 0.295309248967818, -1.19893423797927, -1.22428057165334, 1.24212206806386], a = 0.2, v = 0.2, t = 0.2)
movej(p[-0.434536569503738, -0.113158092732766, 0.29521380871537, -1.19301929346501, -1.22032587665283, 1.23903603188591], a = 0.2, v = 0.2, t = 0.2)
movej(p[-0.43342334939001, -0.113067588759169, 0.295239279960998, -1.19318319896953, -1.21357011324231, 1.25305966759088], a = 0.2, v = 0.2, t = 0.2)
movej(p[-0.432309826117233, -0.113087794769996, 0.295330971931806, -1.17747858712073, -1.21352102984376, 1.24411591408844], a = 0.2, v = 0.2, t = 0.2)
movej(p[-0.43154613422691, -0.113264581624798, 0.295362000093999, -1.16452723569723, -1.2174122800558, 1.24136021920044], a = 0.2, v = 0.2, t = 0.2)
movej(p[-0.431119922205252, -0.113397065777824, 0.295364062882206, -1.16008207362518, -1.21856719489731, 1.25045541213709], a = 0.2, v = 0.2, t = 0.2)
movej(p[-0.431088492848355, -0.113287693956536, 0.295514858247709, -1.16309105829515, -1.21738951143104, 1.26386767220409], a = 0.2, v = 0.2, t = 0.2)
movej(p[-0.431806009989038, -0.113310055597119, 0.295580856018972, -1.16895928054844, -1.21383062711564, 1.27140585250045], a = 0.2, v = 0.2, t = 0.2)
movej(p[-0.432992502712496, -0.113434694035649, 0.295611948488004, -1.17166113857088, -1.21822453633747, 1.26446802209496], a = 0.2, v = 0.2, t = 0.2)
movej(p[-0.43439272684402, -0.113523177253867, 0.295613852500298, -1.18518520527021, -1.22117034484437, 1.26673671286724], a = 0.2, v = 0.2, t = 0.2)
movej(p[-0.435365324120136, -0.113471702827604, 0.295643897180711, -1.19429498056574, -1.22349156328948, 1.26168169662536], a = 0.2, v = 0.2, t = 0.2)
movej(p[-0.435950035304521, -0.113482107420557, 0.295559509356624, -1.20302124335209, -1.22637877493906, 1.25856422098019], a = 0.2, v = 0.2, t = 0.2)
movej(p[-0.436201195034403, -0.113438083194387, 0.295473877364731, -1.20670348687826, -1.22778856315243, 1.25572693848231], a = 0.2, v = 0.2, t = 0.2)
movej(p[-0.436172389671333, -0.113309009257579, 0.295425590889854, -1.21104986900816, -1.22614988609285, 1.25775120189071], a = 0.2, v = 0.2, t = 0.2)
movej(p[-0.43589632136767, -0.113192376968993, 0.295382324251747, -1.20517740534716, -1.22577344139266, 1.24670713325728], a = 0.2, v = 0.2, t = 0.2)
movej(p[-0.435316524422607, -0.11317178743733, 0.29527024707288, -1.20261364898193, -1.22307574912368, 1.24527568660863], a = 0.2, v = 0.2, t = 0.2)
movej(p[-0.434469796036205, -0.113070578889847, 0.295277118330211, -1.19719077749932, -1.22204892905016, 1.24357333323543], a = 0.2, v = 0.2, t = 0.2)
movej(p[-0.433468588366577, -0.113046611705171, 0.295306680429875, -1.18992037787734, -1.21500849879098, 1.24376222145652], a = 0.2, v = 0.2, t = 0.2)
movej(p[-0.432684544141277, -0.11322521518207, 0.295301617603302, -1.1789652144584, -1.21390398200661, 1.23969964415133], a = 0.2, v = 0.2, t = 0.2)
movej(p[-0.432039160022815, -0.113430235782779, 0.295259116448279, -1.17261253626391, -1.21287841309134, 1.24609166936417], a = 0.2, v = 0.2, t = 0.2)
movej(p[-0.431667701057716, -0.113465290460672, 0.295319384215798, -1.16541196053134, -1.21769796860013, 1.24813270829662], a = 0.2, v = 0.2, t = 0.2)
movej(p[-0.431538336277593, -0.113443810276711, 0.295362464038924, -1.1640305811542, -1.21537075437384, 1.25329860964939], a = 0.2, v = 0.2, t = 0.2)
movej(p[-0.431999504140271, -0.113506761187053, 0.295366333188746, -1.16155795825313, -1.22015520824937, 1.24832729629768], a = 0.2, v = 0.2, t = 0.2)
movej(p[-0.432840875570132, -0.113507328574633, 0.295401691061764, -1.17084047128687, -1.21992975474495, 1.25820821037193], a = 0.2, v = 0.2, t = 0.2)
movej(p[-0.433802980957716, -0.113430478730041, 0.295530495059285, -1.17058738959261, -1.2257862809176, 1.24551457437115], a = 0.2, v = 0.2, t = 0.2)
movej(p[-0.43478796900063, -0.113448364752095, 0.295552908202814, -1.18133725040474, -1.22754986872553, 1.24648317367105], a = 0.2, v = 0.2, t = 0.2)
movej(p[-0.435520876951296, -0.113475291160126, 0.295515884503164, -1.19025770185227, -1.23101217410553, 1.24448583105244], a = 0.2, v = 0.2, t = 0.2)
movej(p[-0.435964853753432, -0.113332502844257, 0.295523763882912, -1.20525223562875, -1.22838692970713, 1.25846740186618], a = 0.2, v = 0.2, t = 0.2)
movej(p[-0.436053971177615, -0.113208454056638, 0.295484463923658, -1.20270661609348, -1.22796909938619, 1.2481949999124], a = 0.2, v = 0.2, t = 0.2)
movej(p[-0.435964831566568, -0.113194888340801, 0.295414370997644, -1.20231512427328, -1.22803639080312, 1.24383148828507], a = 0.2, v = 0.2, t = 0.2)
movej(p[-0.435575423671085, -0.113144639024776, 0.295332827672378, -1.19622256647237, -1.23026840655536, 1.23607070322011], a = 0.2, v = 0.2, t = 0.2)
movej(p[-0.434798551855937, -0.112946246489827, 0.295388687423591, -1.1980597598326, -1.22428259399693, 1.24286821063857], a = 0.2, v = 0.2, t = 0.2)
movej(p[-0.433949770400153, -0.112965514752279, 0.295331129994188, -1.19557014987336, -1.21492151207496, 1.24664953661521], a = 0.2, v = 0.2, t = 0.2)
movej(p[-0.433130289107708, -0.113160575222806, 0.295254803781975, -1.19248964809196, -1.20879461282054, 1.25200163924419], a = 0.2, v = 0.2, t = 0.2)
movej(p[-0.432411022413007, -0.113263483650522, 0.295286956874949, -1.18696134160179, -1.20980374178383, 1.25864647671331], a = 0.2, v = 0.2, t = 0.2)
movej(p[-0.431777144894125, -0.113285109207578, 0.295391133360195, -1.17716409773984, -1.2101351916962, 1.25840596571035], a = 0.2, v = 0.2, t = 0.2)
movej(p[-0.431679928739427, -0.113419070334999, 0.295419425094356, -1.17026348884058, -1.21439146808443, 1.25617967534929], a = 0.2, v = 0.2, t = 0.2)
movej(p[-0.43213200582869, -0.113531678777778, 0.295429800757145, -1.16765568325889, -1.21676756315531, 1.25628371216297], a = 0.2, v = 0.2, t = 0.2)
movej(p[-0.433092785095761, -0.113574927801637, 0.295476282538527, -1.16873546632954, -1.22189935185239, 1.25164823184316], a = 0.2, v = 0.2, t = 0.2)
movej(p[-0.434168179130116, -0.113613769005794, 0.295496312644231, -1.17313795495085, -1.22414040974593, 1.24446206045721], a = 0.2, v = 0.2, t = 0.2)
movej(p[-0.435250772044944, -0.11372321068835, 0.295408874255156, -1.18685536681105, -1.2273251984687, 1.2480002516302], a = 0.2, v = 0.2, t = 0.2)
movej(p[-0.435944060655077, -0.113629440388101, 0.295412874076887, -1.19876260725827, -1.23102958716658, 1.25256657812083], a = 0.2, v = 0.2, t = 0.2)
movej(p[-0.436188628349357, -0.113460963594781, 0.295464671518014, -1.20588698754322, -1.23113484660911, 1.25142078857805], a = 0.2, v = 0.2, t = 0.2)
movej(p[-0.436260799297154, -0.11338723015968, 0.295433047909139, -1.1983196298733, -1.23583415437952, 1.23358105454092], a = 0.2, v = 0.2, t = 0.2)
movej(p[-0.436096436461726, -0.113364390014348, 0.295331612694882, -1.19757777351291, -1.23491851336995, 1.23358023320476], a = 0.2, v = 0.2, t = 0.2)
movej(p[-0.435716758544389, -0.113130828927796, 0.295303072617183, -1.19732316995638, -1.23266287104286, 1.24041870357404], a = 0.2, v = 0.2, t = 0.2)
movej(p[-0.434932757655076, -0.113014961725357, 0.295283770530368, -1.19568233214886, -1.22175030295214, 1.24428329477378], a = 0.2, v = 0.2, t = 0.2)
movej(p[-0.434070195419478, -0.113095022493479, 0.295215744702708, -1.19212887777814, -1.21622410904416, 1.24465069155476], a = 0.2, v = 0.2, t = 0.2)
movej(p[-0.433126613693785, -0.113276308905728, 0.295198361818245, -1.18603613165137, -1.21284408985486, 1.24655710846435], a = 0.2, v = 0.2, t = 0.2)
movej(p[-0.432268780566044, -0.113280855988726, 0.295366685034083, -1.17654557813716, -1.21589081463496, 1.24325121464187], a = 0.2, v = 0.2, t = 0.2)
movej(p[-0.431656137921495, -0.113400786302447, 0.295449224651396, -1.16730597288695, -1.21541761091187, 1.24414551250102], a = 0.2, v = 0.2, t = 0.2)
movej(p[-0.431638365865216, -0.113581109939082, 0.295466801336247, -1.16065445742865, -1.21945948051788, 1.24534609796655], a = 0.2, v = 0.2, t = 0.2)
movej(p[-0.432210719003465, -0.113658109130519, 0.295492312842556, -1.16539808362855, -1.21981006122579, 1.25601151224335], a = 0.2, v = 0.2, t = 0.2)
movej(p[-0.433135278197998, -0.113611754471191, 0.295567797860042, -1.16547374150791, -1.22331769346708, 1.24849127660661], a = 0.2, v = 0.2, t = 0.2)
movej(p[-0.434353966848056, -0.113659226258325, 0.295561644897788, -1.17843408458303, -1.22436130815461, 1.24774301163979], a = 0.2, v = 0.2, t = 0.2)
movej(p[-0.435364234415488, -0.113676612351022, 0.295534761170794, -1.18746148322685, -1.22730518451255, 1.24528782095688], a = 0.2, v = 0.2, t = 0.2)
movej(p[-0.4359984517803, -0.113567392746071, 0.295571268649674, -1.20651530850762, -1.22375761463798, 1.25885390675295], a = 0.2, v = 0.2, t = 0.2)
movej(p[-0.436262015448787, -0.113511212419544, 0.295557980648406, -1.20566387693625, -1.22454362570267, 1.24657779171963], a = 0.2, v = 0.2, t = 0.2)
movej(p[-0.436371541956508, -0.113500693514587, 0.295487238702052, -1.20536149570019, -1.22665191770128, 1.24072057129531], a = 0.2, v = 0.2, t = 0.2)
movej(p[-0.436379584110473, -0.113403881567502, 0.295453219328082, -1.20695006998837, -1.22771728866098, 1.24177332777328], a = 0.2, v = 0.2, t = 0.2)
movej(p[-0.436091287321899, -0.113178198925683, 0.295450411360956, -1.20737469850216, -1.22326426952565, 1.24623864373684], a = 0.2, v = 0.2, t = 0.2)
movej(p[-0.435556451636205, -0.113150348146825, 0.295338794188777, -1.20367745063324, -1.21818937458695, 1.24369337161862], a = 0.2, v = 0.2, t = 0.2)
movej(p[-0.434632632478979, -0.113157874591445, 0.295240092195016, -1.19691445425234, -1.2145676854861, 1.23990348159784], a = 0.2, v = 0.2, t = 0.2)
movej(p[-0.433560767483115, -0.113137641044146, 0.295304104304857, -1.1901565936533, -1.21396552817529, 1.23724058616794], a = 0.2, v = 0.2, t = 0.2)
movej(p[-0.432665327600799, -0.113188349392992, 0.29542413854587, -1.18539848903269, -1.21018431232745, 1.24190372093197], a = 0.2, v = 0.2, t = 0.2)
movej(p[-0.431992302903855, -0.113408930674481, 0.295526470715244, -1.17879092135479, -1.2117956276123, 1.24667714004527], a = 0.2, v = 0.2, t = 0.2)
movej(p[-0.431441630267566, -0.113534187030485, 0.295749927512116, -1.17258531196437, -1.21655432689891, 1.25377496095487], a = 0.2, v = 0.2, t = 0.2)
movej(p[-0.430937231471902, -0.11352015004589, 0.296050287758141, -1.16661952839383, -1.22029095052925, 1.2574568902628], a = 0.2, v = 0.2, t = 0.2)
movej(p[-0.43095515888669, -0.113579326801606, 0.296237837434179, -1.15946330063438, -1.22183674705518, 1.25249210427847], a = 0.2, v = 0.2, t = 0.2)
movej(p[-0.431678777779375, -0.113766699608942, 0.296222889724622, -1.15669406902, -1.22344613132152, 1.24995666835041], a = 0.2, v = 0.2, t = 0.2)
movej(p[-0.432803962838016, -0.113788544625597, 0.296210515353615, -1.16306153439367, -1.22293850999892, 1.25597687417488], a = 0.2, v = 0.2, t = 0.2)
movej(p[-0.43383527774236, -0.113778344338118, 0.296222003199923, -1.16710150816329, -1.22213693244141, 1.24711683119068], a = 0.2, v = 0.2, t = 0.2)
movej(p[-0.434806655743863, -0.113757168843137, 0.296183944679078, -1.17375364117842, -1.22711996153716, 1.23792254463354], a = 0.2, v = 0.2, t = 0.2)
movej(p[-0.435547675917506, -0.113749224401265, 0.29609655394789, -1.18264985303115, -1.22995352818122, 1.23260924129267], a = 0.2, v = 0.2, t = 0.2)
movej(p[-0.436019791985191, -0.113552352370342, 0.296083231459763, -1.19162552510993, -1.232691254268, 1.23376713279227], a = 0.2, v = 0.2, t = 0.2)
movej(p[-0.43617697531406, -0.113491117068899, 0.295998943123181, -1.2003706462334, -1.22776836918961, 1.24011275988213], a = 0.2, v = 0.2, t = 0.2)
movej(p[-0.43626962803391, -0.11349723584779, 0.295879089665161, -1.20157411586616, -1.22862142785729, 1.23660153159888], a = 0.2, v = 0.2, t = 0.2)
movej(p[-0.436269066034281, -0.113441144428206, 0.295814350906335, -1.20725601450895, -1.2271306032034, 1.24377130985042], a = 0.2, v = 0.2, t = 0.2)
movej(p[-0.43619761887883, -0.113278384312363, 0.295811737537314, -1.20493068576847, -1.22845186179487, 1.23927312260499], a = 0.2, v = 0.2, t = 0.2)
movej(p[-0.435954828866937, -0.113225914835928, 0.295708484032589, -1.20616429016124, -1.2263372341378, 1.24018036324981], a = 0.2, v = 0.2, t = 0.2)
movej(p[-0.435370969328608, -0.113162489889186, 0.295602759574313, -1.20148522621821, -1.22408829403704, 1.23794089128938], a = 0.2, v = 0.2, t = 0.2)
movej(p[-0.434409898313546, -0.113016756175746, 0.29562141530735, -1.19956224662107, -1.21961577748505, 1.24234301185938], a = 0.2, v = 0.2, t = 0.2)
movej(p[-0.433433162773543, -0.113050967216425, 0.295666496329857, -1.18660311704715, -1.21559664480716, 1.2340886233273], a = 0.2, v = 0.2, t = 0.2)
movej(p[-0.432685140596677, -0.113291705476192, 0.295672436506715, -1.17634198376849, -1.21737818489296, 1.23019255082184], a = 0.2, v = 0.2, t = 0.2)
movej(p[-0.432121734357151, -0.113477229042458, 0.295724690573992, -1.16941335761244, -1.21793524772382, 1.23501187051893], a = 0.2, v = 0.2, t = 0.2)
movej(p[-0.431767590982675, -0.113474333170533, 0.295859642963187, -1.16995890965861, -1.21773731571514, 1.24796802004261], a = 0.2, v = 0.2, t = 0.2)
movej(p[-0.431992842740747, -0.113489900249284, 0.295942140631068, -1.1658583527127, -1.2190393830807, 1.24552666728263], a = 0.2, v = 0.2, t = 0.2)
movej(p[-0.432758336792666, -0.113575151909272, 0.295952884743235, -1.16523477306478, -1.22366510456261, 1.24377318391697], a = 0.2, v = 0.2, t = 0.2)
movej(p[-0.433887324839348, -0.11353514933915, 0.296014784188555, -1.16958247634095, -1.22766987932119, 1.24303434656732], a = 0.2, v = 0.2, t = 0.2)
movej(p[-0.434792140397116, -0.113532076494699, 0.296018297405367, -1.17686293832687, -1.22601776245115, 1.23992291422775], a = 0.2, v = 0.2, t = 0.2)
movej(p[-0.435652493633751, -0.113591473365009, 0.295945600803433, -1.18121493993448, -1.23167403762588, 1.22731901153929], a = 0.2, v = 0.2, t = 0.2)
movej(p[-0.436095538715951, -0.113609075637375, 0.295838027624122, -1.19144396465955, -1.23261663584959, 1.22973942161337], a = 0.2, v = 0.2, t = 0.2)
movej(p[-0.43625040241415, -0.11342436867577, 0.295821692995601, -1.19657208236644, -1.2355786974288, 1.23124741867731], a = 0.2, v = 0.2, t = 0.2)
movej(p[-0.435923235952874, -0.1133034069154, 0.295711642467359, -1.20418274865866, -1.2251376470186, 1.24559812690813], a = 0.2, v = 0.2, t = 0.2)
movej(p[-0.435212775530188, -0.11329182785168, 0.295541699241861, -1.19955045736512, -1.22045969429372, 1.24433270364826], a = 0.2, v = 0.2, t = 0.2)
movej(p[-0.434130924725926, -0.113258294647257, 0.295477439745915, -1.19734326788113, -1.21342067682066, 1.25309058798385], a = 0.2, v = 0.2, t = 0.2)
movej(p[-0.43297203823951, -0.113266705722608, 0.295583521881608, -1.18207363913564, -1.21396921855657, 1.2383626932028], a = 0.2, v = 0.2, t = 0.2)
movej(p[-0.432137412444577, -0.113479331158585, 0.295679137648659, -1.16956100218518, -1.21801750723587, 1.23018635621471], a = 0.2, v = 0.2, t = 0.2)
movej(p[-0.431633119010603, -0.113744706296605, 0.295732789367299, -1.15644916703678, -1.22310395665014, 1.22398295066559], a = 0.2, v = 0.2, t = 0.2)
movej(p[-0.431562669891522, -0.113712391939991, 0.295853183190652, -1.16005063217316, -1.22358494409947, 1.24329712971086], a = 0.2, v = 0.2, t = 0.2)
movej(p[-0.431797270515419, -0.113655484467002, 0.295925456709965, -1.15865719145124, -1.22125675198591, 1.24544176542734], a = 0.2, v = 0.2, t = 0.2)
movej(p[-0.43253393570343, -0.113678525991232, 0.295939373284066, -1.16032349943134, -1.22489723125431, 1.24327349786507], a = 0.2, v = 0.2, t = 0.2)
movej(p[-0.433355554408315, -0.113665837089749, 0.295965557158158, -1.16397851375145, -1.2277558690289, 1.23803558527682], a = 0.2, v = 0.2, t = 0.2)
movej(p[-0.43401519194057, -0.113511835261917, 0.296031425727788, -1.17463920959607, -1.22643673857506, 1.24455905521783], a = 0.2, v = 0.2, t = 0.2)
movej(p[-0.434429404013612, -0.113464459601297, 0.29597047104341, -1.18261058606502, -1.22267554312463, 1.24669320126089], a = 0.2, v = 0.2, t = 0.2)
movej(p[-0.434891472477518, -0.113485238820574, 0.295767382117848, -1.1667198402934, -1.23943811289945, 1.22516008525665], a = 0.2, v = 0.2, t = 0.2)
movej(p[-0.434989121838925, -0.113476283220164, 0.29564555688098, -1.16657833691008, -1.24312966072566, 1.21639423303307], a = 0.2, v = 0.2, t = 0.2)
movej(p[-0.434662924410117, -0.113282622921199, 0.295607144003392, -1.17267931912417, -1.23756296342218, 1.2264920266335], a = 0.2, v = 0.2, t = 0.2)
movej(p[-0.434044549009372, -0.113330862488372, 0.295536153039824, -1.17152576605048, -1.22853995708885, 1.22701879539424], a = 0.2, v = 0.2, t = 0.2)
movej(p[-0.433282160548101, -0.113570503459444, 0.295454518783165, -1.1662976831306, -1.22429900803701, 1.22371835728602], a = 0.2, v = 0.2, t = 0.2)
movej(p[-0.432644886432153, -0.113780889340241, 0.295475554353151, -1.16103860820427, -1.22362304818982, 1.22537668450612], a = 0.2, v = 0.2, t = 0.2)
movej(p[-0.432116235227275, -0.113692590505789, 0.295631903110471, -1.15820715047535, -1.22322598899689, 1.23085444089292], a = 0.2, v = 0.2, t = 0.2)
movej(p[-0.432314188655649, -0.11366747520889, 0.295692354589832, -1.1597975054469, -1.22117915981126, 1.24135463974989], a = 0.2, v = 0.2, t = 0.2)
movej(p[-0.432997602223152, -0.113688827979818, 0.295685024008226, -1.16371434822511, -1.22239580547538, 1.24698657876501], a = 0.2, v = 0.2, t = 0.2)
movej(p[-0.434119182783307, -0.113705146940483, 0.295700818646713, -1.17448399122304, -1.22514095793905, 1.25349012860591], a = 0.2, v = 0.2, t = 0.2)
movej(p[-0.435015235253187, -0.113702660805369, 0.295696399998244, -1.18035465065538, -1.2289870931547, 1.24438424205476], a = 0.2, v = 0.2, t = 0.2)
movej(p[-0.43565908191684, -0.113738392055458, 0.295620504387238, -1.18891902618258, -1.23181043361477, 1.24105631253134], a = 0.2, v = 0.2, t = 0.2)
movej(p[-0.435961298887282, -0.113649683019539, 0.295553133758274, -1.19502911227178, -1.23200646386438, 1.24224771924437], a = 0.2, v = 0.2, t = 0.2)
movej(p[-0.435934689199405, -0.113467039631016, 0.295545052386051, -1.20022332591383, -1.22903369886637, 1.24315941638063], a = 0.2, v = 0.2, t = 0.2)
movej(p[-0.435628947003307, -0.113359387813512, 0.295479652054018, -1.19360762561617, -1.22880497655834, 1.23160956991251], a = 0.2, v = 0.2, t = 0.2)
movej(p[-0.434974358662097, -0.113355719258971, 0.295383108647927, -1.18716884878968, -1.22686221032788, 1.22387835502799], a = 0.2, v = 0.2, t = 0.2)
movej(p[-0.434119725513429, -0.113286211167455, 0.295410017577903, -1.18124405930822, -1.22695778161559, 1.21975697628989], a = 0.2, v = 0.2, t = 0.2)
movej(p[-0.433218296153102, -0.113345094694974, 0.295479968150561, -1.1758054902363, -1.22067690730194, 1.22038739427559], a = 0.2, v = 0.2, t = 0.2)
movej(p[-0.43254924945831, -0.113568094362059, 0.295516372341762, -1.17120130773125, -1.21925599835945, 1.22370203326906], a = 0.2, v = 0.2, t = 0.2)
movej(p[-0.432146512329798, -0.113751475031384, 0.29553455830163, -1.16753772389711, -1.2179221430816, 1.23623274148496], a = 0.2, v = 0.2, t = 0.2)
movej(p[-0.432104593538558, -0.113675134803034, 0.295685140408722, -1.16518092525716, -1.22281718861395, 1.24305735006189], a = 0.2, v = 0.2, t = 0.2)
movej(p[-0.432521968524169, -0.113590528424436, 0.295794992273809, -1.16211349648243, -1.22440669032922, 1.23895138856631], a = 0.2, v = 0.2, t = 0.2)
movej(p[-0.433524264635254, -0.113633214199585, 0.295791762573684, -1.16358238216978, -1.22955516157957, 1.23254508245461], a = 0.2, v = 0.2, t = 0.2)
movej(p[-0.434614851810403, -0.113633434964114, 0.295754433376814, -1.17560255098022, -1.22910198150664, 1.2404813733247], a = 0.2, v = 0.2, t = 0.2)
movej(p[-0.435363841715034, -0.113517523368347, 0.295788758885827, -1.17804414600006, -1.23514236598251, 1.23023531398119], a = 0.2, v = 0.2, t = 0.2)
movej(p[-0.435787377191825, -0.113456733540873, 0.295732490860297, -1.18485246778384, -1.23757175588925, 1.22918416123671], a = 0.2, v = 0.2, t = 0.2)
movej(p[-0.435953998564926, -0.11343066951151, 0.295637106357016, -1.18660077144175, -1.24024626857265, 1.22499585340073], a = 0.2, v = 0.2, t = 0.2)
movej(p[-0.43590927969808, -0.113270125824556, 0.295583056401971, -1.19240824080789, -1.23632883945361, 1.23481473241642], a = 0.2, v = 0.2, t = 0.2)
movej(p[-0.435570750785487, -0.113160521949838, 0.295485441967356, -1.18509914220769, -1.23340961087557, 1.22253560200999], a = 0.2, v = 0.2, t = 0.2)
movej(p[-0.434979656604433, -0.113199269329608, 0.295361555265146, -1.17718117417789, -1.23170977854659, 1.21309042092032], a = 0.2, v = 0.2, t = 0.2)
movej(p[-0.43419501971178, -0.113266827307862, 0.295306898692232, -1.17432710805176, -1.22765657583475, 1.21357390246725], a = 0.2, v = 0.2, t = 0.2)
movej(p[-0.433267270680735, -0.113233088542575, 0.295435864423771, -1.17985567761857, -1.21901938150303, 1.23349372188628], a = 0.2, v = 0.2, t = 0.2)
movej(p[-0.432625129697622, -0.113401016981033, 0.295489218508232, -1.17679357398515, -1.21269779142546, 1.23879548039331], a = 0.2, v = 0.2, t = 0.2)
movej(p[-0.432359280051648, -0.113652572229862, 0.295492538439776, -1.16969984047998, -1.21665844294271, 1.23722351970478], a = 0.2, v = 0.2, t = 0.2)
movej(p[-0.432614339874729, -0.113707515915472, 0.295550888728221, -1.16547160666068, -1.22189716982274, 1.23715118214374], a = 0.2, v = 0.2, t = 0.2)
movej(p[-0.43319446812461, -0.113639369173769, 0.295661733970719, -1.16350988614824, -1.22478791849838, 1.23364623115543], a = 0.2, v = 0.2, t = 0.2)
movej(p[-0.434110303280137, -0.113645774971837, 0.295659920120303, -1.16744594237592, -1.22625427222437, 1.22988490509396], a = 0.2, v = 0.2, t = 0.2)
movej(p[-0.435060623626014, -0.113719896285517, 0.295592604831034, -1.17553972646007, -1.22953289190561, 1.22934240042703], a = 0.2, v = 0.2, t = 0.2)
movej(p[-0.435794323845166, -0.113596288909241, 0.295598979680926, -1.18669370304277, -1.23378294942228, 1.23370983087933], a = 0.2, v = 0.2, t = 0.2)
movej(p[-0.435995701507127, -0.113506023967401, 0.295589309409256, -1.18974460187068, -1.23239339790272, 1.23114721205913], a = 0.2, v = 0.2, t = 0.2)
movej(p[-0.436184201712047, -0.113498489534724, 0.295503414638107, -1.18759039528319, -1.23478411964336, 1.22312419865242], a = 0.2, v = 0.2, t = 0.2)
movej(p[-0.436227985628985, -0.113494142484973, 0.295412756090154, -1.18872685919013, -1.2345229564729, 1.22229245339302], a = 0.2, v = 0.2, t = 0.2)
movej(p[-0.436284367592861, -0.113275786554757, 0.295441711653092, -1.19645660587624, -1.23092623234775, 1.23241335044923], a = 0.2, v = 0.2, t = 0.2)
movej(p[-0.436210289738256, -0.113197537088073, 0.295392353792313, -1.19980948587566, -1.22423331212367, 1.2356544982463], a = 0.2, v = 0.2, t = 0.2)
movej(p[-0.436063834164905, -0.113210943951801, 0.295302696489546, -1.1974203399099, -1.22616503118568, 1.23293274887047], a = 0.2, v = 0.2, t = 0.2)
movej(p[-0.435587470846986, -0.113125936910726, 0.295267407420293, -1.19301745457882, -1.22761165238498, 1.22864381062205], a = 0.2, v = 0.2, t = 0.2)
movej(p[-0.434766503798804, -0.112904606234958, 0.295354089503012, -1.18924845148539, -1.22414892030552, 1.22656330229544], a = 0.2, v = 0.2, t = 0.2)
movej(p[-0.433908731234004, -0.112977102719199, 0.295347682331318, -1.18457300159085, -1.21835888297643, 1.22531980945073], a = 0.2, v = 0.2, t = 0.2)
movej(p[-0.433124234185208, -0.113200382385984, 0.295329757459491, -1.17748511352142, -1.21574973618406, 1.22587610110284], a = 0.2, v = 0.2, t = 0.2)
movej(p[-0.432502290818883, -0.113334940726747, 0.295395929802648, -1.17341346785909, -1.21697176920439, 1.23517816635913], a = 0.2, v = 0.2, t = 0.2)
movej(p[-0.4319056413503, -0.113351039392553, 0.295531057014104, -1.16496262218047, -1.21661319735334, 1.23738308592543], a = 0.2, v = 0.2, t = 0.2)
movej(p[-0.431925549086022, -0.113484408804601, 0.295562184257034, -1.16237651461314, -1.21891347688485, 1.2427620942116], a = 0.2, v = 0.2, t = 0.2)
movej(p[-0.432477686402515, -0.11361258543789, 0.295552165543865, -1.15603311505418, -1.2235153453868, 1.23744841743453], a = 0.2, v = 0.2, t = 0.2)
movej(p[-0.433549131517009, -0.113572837322372, 0.295598352080228, -1.16240231752504, -1.22761689291561, 1.24149332881219], a = 0.2, v = 0.2, t = 0.2)
movej(p[-0.434595682470781, -0.113584376272709, 0.295582554691757, -1.17175041514653, -1.2230367117001, 1.24097860885463], a = 0.2, v = 0.2, t = 0.2)
movej(p[-0.435529331000131, -0.113677598966682, 0.29545325452365, -1.18425190776079, -1.22457328585231, 1.24242304728862], a = 0.2, v = 0.2, t = 0.2)
movej(p[-0.436074341511323, -0.113698516577237, 0.295350189062615, -1.1970895928441, -1.22486797673094, 1.24565859303291], a = 0.2, v = 0.2, t = 0.2)
movej(p[-0.436245700842454, -0.113520270528448, 0.295350220538199, -1.19642030876902, -1.23145564118173, 1.23539087866377], a = 0.2, v = 0.2, t = 0.2)
movej(p[-0.436256077122919, -0.113424789076593, 0.295326935279486, -1.19754714395928, -1.22953587789901, 1.23245984439467], a = 0.2, v = 0.2, t = 0.2)
movej(p[-0.436271015103093, -0.113453592342475, 0.29523213016347, -1.19594985890426, -1.22903133313024, 1.22964213380113], a = 0.2, v = 0.2, t = 0.2)
movej(p[-0.436248699736608, -0.113368586662958, 0.295169811544507, -1.20237741513807, -1.22549462369583, 1.24034954658887], a = 0.2, v = 0.2, t = 0.2)
movej(p[-0.436019413081489, -0.113213729481861, 0.29518568226746, -1.19533124864476, -1.22595055266124, 1.22923824005519], a = 0.2, v = 0.2, t = 0.2)
movej(p[-0.435548607789331, -0.113212324353602, 0.295100521808381, -1.19419077433952, -1.22237335232568, 1.23099538106591], a = 0.2, v = 0.2, t = 0.2)
movej(p[-0.4348018995368, -0.113229163647358, 0.295067002685676, -1.18628218748417, -1.22064159382623, 1.22478698151855], a = 0.2, v = 0.2, t = 0.2)
movej(p[-0.433908063212886, -0.113201121524322, 0.295177534785937, -1.18678322828151, -1.21524977895233, 1.23321038713519], a = 0.2, v = 0.2, t = 0.2)
movej(p[-0.433087966387752, -0.11327102845563, 0.295315399457845, -1.17418277095908, -1.21412059041083, 1.22101377966127], a = 0.2, v = 0.2, t = 0.2)
movej(p[-0.432569402611684, -0.113538173511402, 0.29535500436444, -1.16398133364857, -1.21884777898335, 1.21594374006789], a = 0.2, v = 0.2, t = 0.2)
movej(p[-0.432391182853049, -0.113699165498241, 0.295385964795733, -1.15819234015183, -1.22090939900054, 1.21983805858947], a = 0.2, v = 0.2, t = 0.2)
movej(p[-0.432416511495125, -0.113649496402875, 0.29553365694128, -1.15665874064724, -1.22471565475313, 1.22445504084961], a = 0.2, v = 0.2, t = 0.2)
movej(p[-0.433019526328037, -0.113659828189074, 0.295603978848829, -1.15629439573406, -1.22617186222025, 1.22147154085653], a = 0.2, v = 0.2, t = 0.2)
movej(p[-0.433974700446041, -0.113740279942304, 0.295602856486155, -1.15999022840502, -1.23202418040334, 1.21789304635606], a = 0.2, v = 0.2, t = 0.2)
movej(p[-0.435067482122312, -0.113704172582804, 0.295596659939113, -1.17170138846292, -1.23468715951044, 1.22592870726433], a = 0.2, v = 0.2, t = 0.2)
movej(p[-0.435681225263151, -0.113628009998404, 0.295576264380517, -1.18322014344358, -1.23132049727041, 1.23263955749274], a = 0.2, v = 0.2, t = 0.2)
movej(p[-0.43611047184911, -0.113614877575145, 0.295495676234972, -1.19480612763827, -1.22832149130387, 1.24116215848013], a = 0.2, v = 0.2, t = 0.2)
movej(p[-0.43625663112428, -0.113572886524617, 0.295420221510492, -1.19769706005636, -1.22977175677473, 1.23903521307453], a = 0.2, v = 0.2, t = 0.2)
movej(p[-0.436354770946536, -0.113401525017472, 0.295427018029119, -1.20245731082441, -1.23161814276076, 1.24112325455259], a = 0.2, v = 0.2, t = 0.2)
movej(p[-0.436321924032281, -0.113320300696284, 0.295412056913804, -1.20375150464437, -1.22939561241662, 1.23997458040114], a = 0.2, v = 0.2, t = 0.2)
movej(p[-0.436297897134001, -0.113342901857982, 0.295325986616087, -1.20827626157807, -1.22618023253708, 1.24578587688356], a = 0.2, v = 0.2, t = 0.2)
movej(p[-0.436029019299231, -0.113225918161253, 0.295284032460522, -1.21069873553405, -1.22235965968178, 1.25398108327036], a = 0.2, v = 0.2, t = 0.2)
movej(p[-0.43541010461889, -0.113051156646197, 0.29528177312139, -1.20012415051445, -1.22082774126329, 1.23867087116392], a = 0.2, v = 0.2, t = 0.2)
movej(p[-0.434714791101461, -0.113039243637376, 0.295214995783155, -1.19515157554801, -1.21694064932787, 1.23529722809923], a = 0.2, v = 0.2, t = 0.2)
movej(p[-0.433960580232383, -0.113163889355433, 0.295164422548792, -1.1886535462138, -1.21329511235595, 1.23313226503044], a = 0.2, v = 0.2, t = 0.2)
movej(p[-0.433223688162357, -0.113145274302625, 0.295274070274451, -1.18996473961794, -1.21021067590777, 1.24888894943841], a = 0.2, v = 0.2, t = 0.2)
movej(p[-0.432568638399457, -0.113233258625141, 0.295361122061427, -1.18264412850079, -1.20760510982345, 1.24917821258551], a = 0.2, v = 0.2, t = 0.2)
movej(p[-0.432305632935625, -0.1134591676643, 0.295390736308354, -1.1741252119597, -1.21311537976457, 1.24607612590126], a = 0.2, v = 0.2, t = 0.2)
movej(p[-0.432515448847613, -0.113617505002696, 0.295434403968542, -1.16944857263964, -1.21695641115018, 1.24610443510506], a = 0.2, v = 0.2, t = 0.2)
movej(p[-0.433104748593682, -0.113550351072943, 0.295540915000373, -1.17305795034629, -1.2170456999221, 1.25261266237763], a = 0.2, v = 0.2, t = 0.2)
movej(p[-0.4341080996478, -0.113579170685316, 0.295559919827196, -1.17599158810405, -1.21886079885675, 1.24768445918535], a = 0.2, v = 0.2, t = 0.2)
movej(p[-0.435146261425373, -0.113654606878383, 0.295510414997496, -1.18625480344066, -1.22226622158497, 1.24791398284363], a = 0.2, v = 0.2, t = 0.2)
movej(p[-0.435864063364738, -0.113570644450704, 0.295524181743801, -1.19305605820501, -1.22944972477699, 1.24411745061818], a = 0.2, v = 0.2, t = 0.2)
movej(p[-0.436126808829265, -0.113393229622966, 0.295557382722266, -1.19933123528849, -1.22985064574728, 1.243290937275], a = 0.2, v = 0.2, t = 0.2)
movej(p[-0.436242115936453, -0.113343026890844, 0.295480520750397, -1.20299922108435, -1.23066700631796, 1.24334723082626], a = 0.2, v = 0.2, t = 0.2)
movej(p[-0.43618176147838, -0.113276388286586, 0.295407916230475, -1.20303926859226, -1.22944382370873, 1.24404046481278], a = 0.2, v = 0.2, t = 0.2)
movej(p[-0.435860022328811, -0.113167719796411, 0.295351634803932, -1.20125748060656, -1.22824777499008, 1.24129286478537], a = 0.2, v = 0.2, t = 0.2)
movej(p[-0.435245083027805, -0.113180839629148, 0.295253331892362, -1.18975326063666, -1.22547237339672, 1.22531580974439], a = 0.2, v = 0.2, t = 0.2)
movej(p[-0.43447369698609, -0.113333134532147, 0.295128279193602, -1.18155098925617, -1.2235546597854, 1.21727525378061], a = 0.2, v = 0.2, t = 0.2)
movej(p[-0.433661140091603, -0.113415398609761, 0.295135514770232, -1.18167079104875, -1.21803839847184, 1.23010054127365], a = 0.2, v = 0.2, t = 0.2)
movej(p[-0.432818095806172, -0.113487228926226, 0.295227166990967, -1.17825947439398, -1.21112205908952, 1.23735885035488], a = 0.2, v = 0.2, t = 0.2)
movej(p[-0.432398107156956, -0.113683822941603, 0.295231576996438, -1.17259548315737, -1.20896923740655, 1.24246212040443], a = 0.2, v = 0.2, t = 0.2)
movej(p[-0.432468857262016, -0.113875379463419, 0.295236751992436, -1.16358456701207, -1.21432222404411, 1.23815568887213], a = 0.2, v = 0.2, t = 0.2)
movej(p[-0.433125721482969, -0.113815514137119, 0.29533453004692, -1.16346015810764, -1.219299151435, 1.24131338142531], a = 0.2, v = 0.2, t = 0.2)
movej(p[-0.434026506265744, -0.113795093944394, 0.295383617113961, -1.1660462358074, -1.21947278829462, 1.23856462995954], a = 0.2, v = 0.2, t = 0.2)
movej(p[-0.43505023721994, -0.113862744390266, 0.295345972085158, -1.1764669905012, -1.22112737506701, 1.23794630842212], a = 0.2, v = 0.2, t = 0.2)
movej(p[-0.435793430780824, -0.113875764338676, 0.295269340616399, -1.18833301409328, -1.22218269517044, 1.24251200741838], a = 0.2, v = 0.2, t = 0.2)
movej(p[-0.436074494991977, -0.113715859727285, 0.29529945196583, -1.19274427088982, -1.22853888135103, 1.23462044548976], a = 0.2, v = 0.2, t = 0.2)
movej(p[-0.436174913790988, -0.113600607756506, 0.295260899314743, -1.19571360691182, -1.23001120075269, 1.23266189759322], a = 0.2, v = 0.2, t = 0.2)
movej(p[-0.436219089498828, -0.113582328408458, 0.295179687076547, -1.19456805638508, -1.23133085752533, 1.22837905133572], a = 0.2, v = 0.2, t = 0.2)
movej(p[-0.436117368536542, -0.113410250338867, 0.295156811275326, -1.19874532747822, -1.22818577446152, 1.23951753113322], a = 0.2, v = 0.2, t = 0.2)
movej(p[-0.435693025178973, -0.113301208052185, 0.29509539686983, -1.19187029570078, -1.22440221649831, 1.22989563808734], a = 0.2, v = 0.2, t = 0.2)
movej(p[-0.435011230450423, -0.11333008988481, 0.29498333235285, -1.1867638994347, -1.22082514122676, 1.22522831188366], a = 0.2, v = 0.2, t = 0.2)
movej(p[-0.434117868247917, -0.113374723353484, 0.294935947251152, -1.18494604589709, -1.21530119227371, 1.22921554907929], a = 0.2, v = 0.2, t = 0.2)
movej(p[-0.433231850408651, -0.113349216983074, 0.29503110742387, -1.18290728065452, -1.20996769634361, 1.23825803936511], a = 0.2, v = 0.2, t = 0.2)
movej(p[-0.432535402382209, -0.11350148349153, 0.295096780145325, -1.17351929220646, -1.20964110889254, 1.2366622833457], a = 0.2, v = 0.2, t = 0.2)
movej(p[-0.432211978962686, -0.113706975455583, 0.295142465999956, -1.16095987056384, -1.21743388521412, 1.23025555455241], a = 0.2, v = 0.2, t = 0.2)
movej(p[-0.432390896312783, -0.11378000880568, 0.295218139519815, -1.1580711259208, -1.22264094719272, 1.23112626818175], a = 0.2, v = 0.2, t = 0.2)
movej(p[-0.432963288483907, -0.113707862324046, 0.295325912944293, -1.15696609841773, -1.22375627406206, 1.22919239412002], a = 0.2, v = 0.2, t = 0.2)
movej(p[-0.434058888140628, -0.113740107260228, 0.295335239378964, -1.16643267137315, -1.22598594110817, 1.23039896565337], a = 0.2, v = 0.2, t = 0.2)
movej(p[-0.435092207290285, -0.113718710962617, 0.295325297970552, -1.17690822013798, -1.22740057467458, 1.23531420595473], a = 0.2, v = 0.2, t = 0.2)
movej(p[-0.435819605341464, -0.113590332244418, 0.295366616750676, -1.18696117859549, -1.23256296050837, 1.23478383105869], a = 0.2, v = 0.2, t = 0.2)
movej(p[-0.436080079362877, -0.113480973451259, 0.295358091827633, -1.18690062488447, -1.2355340780548, 1.22402353497122], a = 0.2, v = 0.2, t = 0.2)
movej(p[-0.436168167197111, -0.113447403546654, 0.295298957974607, -1.18777836248825, -1.23813868583906, 1.21823018729724], a = 0.2, v = 0.2, t = 0.2)
movej(p[-0.436202237609318, -0.113335386394637, 0.295291084065348, -1.19739490541561, -1.23484667886652, 1.23050341723568], a = 0.2, v = 0.2, t = 0.2)
movej(p[-0.436117473007667, -0.113239143219202, 0.295293549382617, -1.20553971113362, -1.22558143692343, 1.24334615286664], a = 0.2, v = 0.2, t = 0.2)
movej(p[-0.436111147837633, -0.113246283317272, 0.2952510165174, -1.21606216497576, -1.21801465501083, 1.25647524812708], a = 0.2, v = 0.2, t = 0.2)
movej(p[-0.435841638114358, -0.113202758567109, 0.295174376243755, -1.21498032027462, -1.21772413378319, 1.25604036922532], a = 0.2, v = 0.2, t = 0.2)
movej(p[-0.435330560925417, -0.11305400078833, 0.29520788396194, -1.21162544102671, -1.21980885870842, 1.25146899788682], a = 0.2, v = 0.2, t = 0.2)
movej(p[-0.434590710973437, -0.113027540258509, 0.295180773871279, -1.20509844754289, -1.21423453084959, 1.24806619244816], a = 0.2, v = 0.2, t = 0.2)
movej(p[-0.433893029278067, -0.113154646126625, 0.295145406973799, -1.1977785110295, -1.21237331878674, 1.24411151958693], a = 0.2, v = 0.2, t = 0.2)
movej(p[-0.433238576733758, -0.113216695956877, 0.295134083758152, -1.1991524696415, -1.2070178368135, 1.25972997373786], a = 0.2, v = 0.2, t = 0.2)
movej(p[-0.432646720666878, -0.113297574904298, 0.295184959588029, -1.18978982103215, -1.2083610086166, 1.25386751193163], a = 0.2, v = 0.2, t = 0.2)
movej(p[-0.432422900199244, -0.113462624015672, 0.295208310627545, -1.18296473911657, -1.21198898624083, 1.25304773589132], a = 0.2, v = 0.2, t = 0.2)
movej(p[-0.432648309257249, -0.113613864111444, 0.295266897602209, -1.17376613854677, -1.21785257599741, 1.24552985734533], a = 0.2, v = 0.2, t = 0.2)
movej(p[-0.433371814089698, -0.113534446941011, 0.295395023929962, -1.17297285610913, -1.22282383563549, 1.24582828568715], a = 0.2, v = 0.2, t = 0.2)
movej(p[-0.434238777273778, -0.113504549353734, 0.29543374979228, -1.17470062677823, -1.22311609564409, 1.23966567186616], a = 0.2, v = 0.2, t = 0.2)
movej(p[-0.43518664876869, -0.113543922676723, 0.295400403777597, -1.1817443534734, -1.22859410476867, 1.23343385635517], a = 0.2, v = 0.2, t = 0.2)
movej(p[-0.435784187249284, -0.113495474810661, 0.295390643507971, -1.1943951413301, -1.23089862480385, 1.2402446397362], a = 0.2, v = 0.2, t = 0.2)
movej(p[-0.43606095143114, -0.113305007311808, 0.295476220921976, -1.19918322191781, -1.23416763246387, 1.23893689670256], a = 0.2, v = 0.2, t = 0.2)
movej(p[-0.436187884032295, -0.113260558195601, 0.295420470160257, -1.21063894035536, -1.22821932556708, 1.25307558690644], a = 0.2, v = 0.2, t = 0.2)
movej(p[-0.436253724177633, -0.113220976131853, 0.295369625745702, -1.2083539026147, -1.23059598477616, 1.24712441226947], a = 0.2, v = 0.2, t = 0.2)
movej(p[-0.436225321642158, -0.113121434066713, 0.295332923677009, -1.21619722412894, -1.22404440482404, 1.25812291420233], a = 0.2, v = 0.2, t = 0.2)
movej(p[-0.436071916266848, -0.113054267794772, 0.295279163163251, -1.20420003674377, -1.22639685302435, 1.23741927123807], a = 0.2, v = 0.2, t = 0.2)
movej(p[-0.435722023950868, -0.113040681762786, 0.295160716240314, -1.202306998393, -1.22589235743603, 1.23587288932286], a = 0.2, v = 0.2, t = 0.2)
movej(p[-0.435098212601962, -0.112993509912618, 0.295114820343682, -1.1973416212125, -1.22546696984281, 1.23298121657517], a = 0.2, v = 0.2, t = 0.2)
movej(p[-0.434255045674817, -0.112863788557361, 0.295194342742785, -1.19815751260746, -1.21736809901153, 1.24195268058741], a = 0.2, v = 0.2, t = 0.2)
movej(p[-0.433611013517739, -0.113026496479572, 0.295167205528493, -1.19663352693074, -1.21010984587421, 1.24749576940519], a = 0.2, v = 0.2, t = 0.2)
movej(p[-0.433053353258284, -0.11325144266026, 0.295142220866824, -1.19180236887057, -1.20853006850969, 1.25038202343702], a = 0.2, v = 0.2, t = 0.2)
movej(p[-0.43263455735915, -0.113337281473763, 0.295179024391113, -1.18261879658814, -1.21396336580708, 1.24940561708503], a = 0.2, v = 0.2, t = 0.2)
movej(p[-0.432491027666203, -0.113345603090454, 0.295315423033021, -1.17437590733814, -1.21612196466423, 1.24364568894285], a = 0.2, v = 0.2, t = 0.2)
movej(p[-0.432933413778516, -0.113443696256961, 0.29540354473723, -1.17017546517099, -1.2214437495436, 1.23928714115527], a = 0.2, v = 0.2, t = 0.2)
movej(p[-0.433830208535269, -0.113470457906875, 0.295465400417292, -1.17998788335273, -1.22053089186476, 1.25224043353027], a = 0.2, v = 0.2, t = 0.2)
movej(p[-0.434759523545727, -0.113457047113648, 0.295516032206898, -1.18977089755411, -1.22097773932703, 1.25757954904945], a = 0.2, v = 0.2, t = 0.2)
movej(p[-0.435495944771577, -0.113456013304694, 0.295468851220263, -1.19582235587726, -1.22265994914047, 1.25347820212265], a = 0.2, v = 0.2, t = 0.2)
movej(p[-0.435931505100035, -0.113484781373104, 0.295392282167341, -1.19783583316595, -1.22835935362638, 1.24391547336442], a = 0.2, v = 0.2, t = 0.2)
movej(p[-0.436199968953473, -0.113317033594122, 0.295390242455381, -1.20253533316282, -1.23166834951435, 1.24540115209611], a = 0.2, v = 0.2, t = 0.2)
movej(p[-0.436172772104278, -0.113213176122546, 0.295367253347268, -1.20452347205045, -1.22816016531779, 1.2426141770955], a = 0.2, v = 0.2, t = 0.2)
movej(p[-0.436036417457747, -0.113185221785542, 0.295265854164273, -1.20196363442395, -1.2289008332063, 1.23638194263953], a = 0.2, v = 0.2, t = 0.2)
movej(p[-0.435480111826717, -0.11315950141722, 0.295164819812997, -1.20051117614118, -1.2266934821534, 1.23688693575544], a = 0.2, v = 0.2, t = 0.2)
movej(p[-0.43464287601177, -0.11299260346759, 0.295216273803898, -1.19373065467969, -1.22650740189282, 1.23113072927185], a = 0.2, v = 0.2, t = 0.2)
movej(p[-0.433783474571753, -0.112996369555638, 0.295209811816794, -1.1960334212235, -1.21487176720023, 1.24481938840786], a = 0.2, v = 0.2, t = 0.2)
movej(p[-0.43303487436248, -0.113172955184264, 0.295179727413208, -1.18941636790515, -1.21267142793242, 1.24575080815533], a = 0.2, v = 0.2, t = 0.2)
movej(p[-0.432388723424208, -0.113308611656243, 0.295194018735054, -1.18761235662693, -1.21003247380102, 1.26115462140462], a = 0.2, v = 0.2, t = 0.2)
movej(p[-0.431923683217346, -0.113353663017727, 0.295325466149461, -1.17661084862404, -1.21443623376345, 1.25293912563749], a = 0.2, v = 0.2, t = 0.2)
movej(p[-0.432001758344593, -0.113451441698041, 0.295418453192566, -1.1718810235276, -1.21800197671586, 1.25236676465981], a = 0.2, v = 0.2, t = 0.2)
