def moving():
set_payload_mass(0.606)
set_tcp(p[0.0005,0.0025,0.058,0,0,0])
movej(p[0.5348, -0.0101, 0.1842, -1.198, 1.201, -1.221], a = 0.2, v = 0.2, t = 0.2)
movej(p[0.534849041975008, -0.0101501210227445, 0.184250820938267, -1.19713837063127, 1.20011968084904, -1.22012440477063], a = 0.2, v = 0.2, t = 0.2)
movej(p[0.5348, -0.0101, 0.1842, -1.198, 1.201, -1.221], a = 0.2, v = 0.2, t = 0.2)
movej(p[0.534849041975008, -0.0101501210227445, 0.184250820938267, -1.19713837063127, 1.20011968084904, -1.22012440477063], a = 0.2, v = 0.2, t = 0.2)
movej(p[0.5348, -0.0101, 0.1842, -1.198, 1.201, -1.221], a = 0.2, v = 0.2, t = 0.2)
movej(p[0.5348, -0.0101, 0.1842, -1.198, 1.201, -1.221], a = 0.2, v = 0.2, t = 0.2)
movej(p[0.535662629902839, -0.0102264707581955, 0.184083169849145, -1.19148860471023, 1.23516828961492, -1.21078386991102], a = 0.2, v = 0.2, t = 0.2)
movej(p[0.537145537886707, -0.0103994187791666, 0.183639158606016, -1.19145763211074, 1.25064365736585, -1.20405038774467], a = 0.2, v = 0.2, t = 0.2)
movej(p[0.538461923384611, -0.0105666468505115, 0.18321393452725, -1.18910894584667, 1.24945822849239, -1.19815104712949], a = 0.2, v = 0.2, t = 0.2)
movej(p[0.539488160245619, -0.0106251574946942, 0.182838866760541, -1.17742281095652, 1.2171507748296, -1.2060574097459], a = 0.2, v = 0.2, t = 0.2)
movej(p[0.540490531785853, -0.0106738310246915, 0.182596548386481, -1.18760224761906, 1.19385899883842, -1.23670651402221], a = 0.2, v = 0.2, t = 0.2)
movej(p[0.541522692993121, -0.0107248403010417, 0.18258398739778, -1.19158885806175, 1.19656073567186, -1.24819234216771], a = 0.2, v = 0.2, t = 0.2)
movej(p[0.542008876387246, -0.0106614680183874, 0.182275598556917, -1.19421114468993, 1.20238050665085, -1.24893928633581], a = 0.2, v = 0.2, t = 0.2)
movej(p[0.54124452418165, -0.0105446635820581, 0.18177530672263, -1.15725897052044, 1.19110149201458, -1.23820405156585], a = 0.2, v = 0.2, t = 0.2)
movej(p[0.5389140540287, -0.0102581731368108, 0.181485663371259, -1.15161424795748, 1.18104685633921, -1.20535255237375], a = 0.2, v = 0.2, t = 0.2)
movej(p[0.535893005254599, -0.0101146390434913, 0.18139323727433, -1.15219609064352, 1.17121849371686, -1.17918262337278], a = 0.2, v = 0.2, t = 0.2)
movej(p[0.532810238206738, -0.00978490345106705, 0.181737458086484, -1.19659121201643, 1.16334723651496, -1.16321417173111], a = 0.2, v = 0.2, t = 0.2)
movej(p[0.529933355589822, -0.00970017774332587, 0.182346007349434, -1.20682834279709, 1.16876576288636, -1.14638918446644], a = 0.2, v = 0.2, t = 0.2)
movej(p[0.527817131609818, -0.00950380499282806, 0.183069148398896, -1.21630227731793, 1.16018456106461, -1.15589126968697], a = 0.2, v = 0.2, t = 0.2)
movej(p[0.527061687241066, -0.00960047425759165, 0.183821029862273, -1.20232193097277, 1.19826279825534, -1.12965787230844], a = 0.2, v = 0.2, t = 0.2)
movej(p[0.528236868205944, -0.00969600227686507, 0.184092951100544, -1.20243228068102, 1.23613248013633, -1.12309552450293], a = 0.2, v = 0.2, t = 0.2)
movej(p[0.5304626871939, -0.00991060523813266, 0.184297273792556, -1.20558535081776, 1.28196369077066, -1.10113712610449], a = 0.2, v = 0.2, t = 0.2)
movej(p[0.532957780603911, -0.0102206335417687, 0.183890320575635, -1.18541677236593, 1.27556908473054, -1.13465219328516], a = 0.2, v = 0.2, t = 0.2)
movej(p[0.535039650324826, -0.0103393895134093, 0.183741854729938, -1.17652325858183, 1.26634365059455, -1.15585878771029], a = 0.2, v = 0.2, t = 0.2)
movej(p[0.536763205337424, -0.0105085268686249, 0.183450058088901, -1.17375386233299, 1.25657980737184, -1.17684101909616], a = 0.2, v = 0.2, t = 0.2)
movej(p[0.53818381715872, -0.0104589339780152, 0.183441774829039, -1.17867564569371, 1.23291141945066, -1.19369826328774], a = 0.2, v = 0.2, t = 0.2)
movej(p[0.539382683029966, -0.0105555609957623, 0.183039818553801, -1.17240858711489, 1.21407593496992, -1.21681478872519], a = 0.2, v = 0.2, t = 0.2)
movej(p[0.540443376054564, -0.0105875071798747, 0.182704491092222, -1.153154838837, 1.22414277508479, -1.22598192999024], a = 0.2, v = 0.2, t = 0.2)
movej(p[0.54112549157043, -0.0107194362969848, 0.182255734828785, -1.15463505054186, 1.24245068835796, -1.20667030899094], a = 0.2, v = 0.2, t = 0.2)
movej(p[0.541095464757278, -0.0106350940552602, 0.181818570401649, -1.13882220717731, 1.22159009587793, -1.21152625378193], a = 0.2, v = 0.2, t = 0.2)
movej(p[0.539741464619287, -0.0104884353171261, 0.181208330327786, -1.11737770686805, 1.17661513879652, -1.21414041677165], a = 0.2, v = 0.2, t = 0.2)
movej(p[0.537495735026904, -0.0103309974733118, 0.180860884170615, -1.13603511015425, 1.13619608238548, -1.23944563903225], a = 0.2, v = 0.2, t = 0.2)
movej(p[0.534824073816368, -0.0101206470870006, 0.180848037473794, -1.15801893116393, 1.150389588303, -1.21062929307134], a = 0.2, v = 0.2, t = 0.2)
movej(p[0.53224581842023, -0.00993702971666947, 0.181539066177596, -1.18417353527172, 1.14859694558985, -1.1964627884898], a = 0.2, v = 0.2, t = 0.2)
movej(p[0.53021184847126, -0.00973175773201468, 0.182310674230369, -1.17147103411105, 1.17082447929337, -1.16605714152878], a = 0.2, v = 0.2, t = 0.2)
movej(p[0.529163164705136, -0.00971542886345961, 0.183162123340075, -1.18352876548925, 1.21040203541029, -1.14908028657879], a = 0.2, v = 0.2, t = 0.2)
movej(p[0.529656098707875, -0.00974762836842542, 0.183501071644134, -1.20837470055265, 1.23387140521967, -1.15475608007044], a = 0.2, v = 0.2, t = 0.2)
movej(p[0.531105077193429, -0.00985095275828093, 0.183668473300227, -1.21667748259965, 1.25076670438841, -1.15025105238346], a = 0.2, v = 0.2, t = 0.2)
movej(p[0.533307285138839, -0.00995093214871721, 0.183152215686373, -1.22016538808784, 1.23486928219393, -1.1754185170599], a = 0.2, v = 0.2, t = 0.2)
movej(p[0.53527065311106, -0.010165164570531, 0.182873965390452, -1.19371211244283, 1.23638839709892, -1.18513330267387], a = 0.2, v = 0.2, t = 0.2)
movej(p[0.536894278171037, -0.0103116072393893, 0.182514975836684, -1.17741391217745, 1.25165233301628, -1.18934209389512], a = 0.2, v = 0.2, t = 0.2)
movej(p[0.538165164920277, -0.010449731638027, 0.182634351194297, -1.14125797395789, 1.2566436435839, -1.18867108887607], a = 0.2, v = 0.2, t = 0.2)
movej(p[0.539275228302723, -0.0105279475600774, 0.182439550330618, -1.12160028181897, 1.25501456031389, -1.18793452839117], a = 0.2, v = 0.2, t = 0.2)
movej(p[0.540261415231173, -0.0106310810178966, 0.182115811540181, -1.15050124488465, 1.25904647803872, -1.21110818775738], a = 0.2, v = 0.2, t = 0.2)
movej(p[0.541140123210419, -0.0107391068128085, 0.182059467872018, -1.14136434565862, 1.26853815273949, -1.2217836918909], a = 0.2, v = 0.2, t = 0.2)
movej(p[0.541835407368595, -0.0108929996588101, 0.181800669518585, -1.14977960174346, 1.27684169958004, -1.22445627676041], a = 0.2, v = 0.2, t = 0.2)
movej(p[0.541765931260663, -0.0108302701211139, 0.181867439520285, -1.1387083186372, 1.25104646967801, -1.23329549356604], a = 0.2, v = 0.2, t = 0.2)
movej(p[0.540501395630046, -0.0105840581832762, 0.181341272905069, -1.1482877531391, 1.20787238628427, -1.23105974260867], a = 0.2, v = 0.2, t = 0.2)
movej(p[0.538095885130544, -0.0102634786015428, 0.181203992131987, -1.16196121045983, 1.17608139869286, -1.2156064955012], a = 0.2, v = 0.2, t = 0.2)
movej(p[0.535272810627671, -0.0100691150363772, 0.181189105549026, -1.16635338336419, 1.18884958476716, -1.16753674925583], a = 0.2, v = 0.2, t = 0.2)
movej(p[0.53243847697053, -0.0100352007481752, 0.181664764598482, -1.15383068288797, 1.19518301381323, -1.1278858616795], a = 0.2, v = 0.2, t = 0.2)
movej(p[0.530079968696245, -0.00981984940391338, 0.182460590784438, -1.16043715604767, 1.19726567434079, -1.11296942342254], a = 0.2, v = 0.2, t = 0.2)
movej(p[0.529003411442504, -0.00970833893898131, 0.182916426769995, -1.18733854984228, 1.20601341386309, -1.1257328695614], a = 0.2, v = 0.2, t = 0.2)
movej(p[0.529530150469562, -0.00975173035491282, 0.183328193186908, -1.21950972357333, 1.23025852565173, -1.13462056108245], a = 0.2, v = 0.2, t = 0.2)
movej(p[0.531378889462084, -0.010023052622296, 0.183217620434927, -1.23659967978523, 1.25143274052986, -1.14475880141983], a = 0.2, v = 0.2, t = 0.2)
movej(p[0.533648343441892, -0.0102422589422564, 0.183195765263688, -1.22213663001474, 1.24023271014959, -1.16646166039683], a = 0.2, v = 0.2, t = 0.2)
movej(p[0.535807009049758, -0.0103226935796248, 0.182959028369583, -1.21888535896775, 1.24006127558801, -1.18425618292042], a = 0.2, v = 0.2, t = 0.2)
movej(p[0.537413448956622, -0.0105012108475168, 0.18276588054226, -1.19947827094122, 1.23245125208485, -1.20823378093946], a = 0.2, v = 0.2, t = 0.2)
movej(p[0.538599306715019, -0.0105911432985142, 0.182644802239059, -1.17847949549695, 1.2416920694403, -1.20004318086607], a = 0.2, v = 0.2, t = 0.2)
movej(p[0.539517265493927, -0.0107638405098943, 0.182557362445448, -1.17557478674556, 1.24444321244636, -1.20486491171117], a = 0.2, v = 0.2, t = 0.2)
movej(p[0.540264866403472, -0.0108384636132772, 0.182309541137669, -1.17033641273317, 1.25253618868347, -1.20645658590894], a = 0.2, v = 0.2, t = 0.2)
movej(p[0.540861789666438, -0.0108501727345772, 0.182079317743964, -1.15245906488543, 1.25316910058878, -1.20449696240014], a = 0.2, v = 0.2, t = 0.2)
movej(p[0.541158463298838, -0.010839611601565, 0.181627808447595, -1.15101100157248, 1.23464264611029, -1.2091357025347], a = 0.2, v = 0.2, t = 0.2)
movej(p[0.540450452312151, -0.0107548950139695, 0.181274712627572, -1.14202493394402, 1.21358366681759, -1.21027491471201], a = 0.2, v = 0.2, t = 0.2)
movej(p[0.538845982543414, -0.0106249813907322, 0.180912337774546, -1.16407804512439, 1.17856230892862, -1.21601689089014], a = 0.2, v = 0.2, t = 0.2)
movej(p[0.536499158799576, -0.0104640579702906, 0.180905667646018, -1.14153696483091, 1.18621340709511, -1.18697404517394], a = 0.2, v = 0.2, t = 0.2)
movej(p[0.534101981033588, -0.0100689851888123, 0.181170083936116, -1.13910584531662, 1.1780144604881, -1.17899522229007], a = 0.2, v = 0.2, t = 0.2)
movej(p[0.531964771309555, -0.00979618901385564, 0.181843048866104, -1.15120441837369, 1.21099233939073, -1.15464727991096], a = 0.2, v = 0.2, t = 0.2)
movej(p[0.530548046298404, -0.00966925167212201, 0.182403275082959, -1.1843358412149, 1.2069454535211, -1.15737762707474], a = 0.2, v = 0.2, t = 0.2)
movej(p[0.53022375398544, -0.0097242502991506, 0.1831962621754, -1.21684480564621, 1.22498518422474, -1.14690087484038], a = 0.2, v = 0.2, t = 0.2)
movej(p[0.531147743125488, -0.00989439000929899, 0.18333018672768, -1.2285600084851, 1.22481654820791, -1.16285507491557], a = 0.2, v = 0.2, t = 0.2)
movej(p[0.532920812788159, -0.0100394901218445, 0.183202055403317, -1.22748389122021, 1.25008447606607, -1.1688375818428], a = 0.2, v = 0.2, t = 0.2)
movej(p[0.534790673307784, -0.0102636818932427, 0.182802381087216, -1.21251654896137, 1.26041056427443, -1.16946629277387], a = 0.2, v = 0.2, t = 0.2)
movej(p[0.536423004702479, -0.0104470538713398, 0.18243079710643, -1.17812558583293, 1.25087068666026, -1.1858362205072], a = 0.2, v = 0.2, t = 0.2)
movej(p[0.537722489327161, -0.0106354661299296, 0.18242298128093, -1.18369912719751, 1.25184328078928, -1.19909820913048], a = 0.2, v = 0.2, t = 0.2)
movej(p[0.538783878198357, -0.0107089593160279, 0.182067553759065, -1.16105938014741, 1.25746882975607, -1.20137370756072], a = 0.2, v = 0.2, t = 0.2)
movej(p[0.539722274609462, -0.0107173451102161, 0.1818986348407, -1.18668849296129, 1.27541085340207, -1.20195847856929], a = 0.2, v = 0.2, t = 0.2)
movej(p[0.540387913072094, -0.0107418538967806, 0.181371595568876, -1.17794867468662, 1.26085601619229, -1.1985422601396], a = 0.2, v = 0.2, t = 0.2)
movej(p[0.540737476659893, -0.0107994785021002, 0.181205227273076, -1.17031632594228, 1.20869470915679, -1.22160151444208], a = 0.2, v = 0.2, t = 0.2)
movej(p[0.539986489790159, -0.0109007574433433, 0.180873428502812, -1.15525301519067, 1.1440384014271, -1.23982415108668], a = 0.2, v = 0.2, t = 0.2)
movej(p[0.538380153586137, -0.010656294662963, 0.180636186219156, -1.16147886641108, 1.14574331229214, -1.23081864222492], a = 0.2, v = 0.2, t = 0.2)
movej(p[0.536118393525742, -0.0104136538446183, 0.180547848344614, -1.19045219186049, 1.14882182818351, -1.20194373738214], a = 0.2, v = 0.2, t = 0.2)
movej(p[0.533639687914883, -0.0100484331520771, 0.180716249471192, -1.20188532490308, 1.19113955375067, -1.14631437249861], a = 0.2, v = 0.2, t = 0.2)
movej(p[0.531278061156597, -0.00995686024980352, 0.181348087825047, -1.19483942228094, 1.18029475533256, -1.13348306041856], a = 0.2, v = 0.2, t = 0.2)
movej(p[0.528933024751097, -0.00975090301026374, 0.182254240010532, -1.20146963388861, 1.18901742331162, -1.1287096906516], a = 0.2, v = 0.2, t = 0.2)
movej(p[0.527582191786346, -0.00966561428437025, 0.183205536391833, -1.20846873108105, 1.20507976959178, -1.12763655700841], a = 0.2, v = 0.2, t = 0.2)
movej(p[0.527684455938811, -0.00966914425015998, 0.184000717273433, -1.20672741040036, 1.2310890380107, -1.11096529031268], a = 0.2, v = 0.2, t = 0.2)
movej(p[0.529378520900656, -0.00989209794555186, 0.183930579671095, -1.20289055495842, 1.26081700412363, -1.12028374126364], a = 0.2, v = 0.2, t = 0.2)
movej(p[0.531878959165102, -0.010060008371008, 0.183587385040644, -1.22511502849297, 1.26170577191731, -1.1514322196708], a = 0.2, v = 0.2, t = 0.2)
movej(p[0.534316128388536, -0.0102210086067899, 0.183333505654201, -1.23364648115601, 1.25995433092796, -1.1747013939826], a = 0.2, v = 0.2, t = 0.2)
movej(p[0.536350727333292, -0.0103516868202373, 0.183029910781008, -1.22326338154438, 1.24870311057722, -1.20589103805308], a = 0.2, v = 0.2, t = 0.2)
movej(p[0.53794008309752, -0.010509219386448, 0.182973785508638, -1.18698439060444, 1.24156722709719, -1.21490079332201], a = 0.2, v = 0.2, t = 0.2)
movej(p[0.539039597026529, -0.0105803270836252, 0.182568995163624, -1.16756872494468, 1.24183676744845, -1.22149261913386], a = 0.2, v = 0.2, t = 0.2)
movej(p[0.540069745717025, -0.0106047047982535, 0.182371126673465, -1.1592209232516, 1.24834728023699, -1.21173607262127], a = 0.2, v = 0.2, t = 0.2)
movej(p[0.540890929080554, -0.0107661100400607, 0.182110953401624, -1.14060775930764, 1.24869238751614, -1.2122396619101], a = 0.2, v = 0.2, t = 0.2)
movej(p[0.541229744974881, -0.0108044139090653, 0.181981891838907, -1.1151046227858, 1.22532741596029, -1.21528690005054], a = 0.2, v = 0.2, t = 0.2)
movej(p[0.540661782301411, -0.0107874148714353, 0.1814933436055, -1.11046556403855, 1.16850270160115, -1.23930964535813], a = 0.2, v = 0.2, t = 0.2)
movej(p[0.538862889310242, -0.010584029974851, 0.181293930210101, -1.10388639513403, 1.16239466063592, -1.21119908033568], a = 0.2, v = 0.2, t = 0.2)
movej(p[0.536412542971764, -0.0102941359078628, 0.180912347546669, -1.13517305268777, 1.13636202209715, -1.21868614746265], a = 0.2, v = 0.2, t = 0.2)
movej(p[0.533731989349672, -0.00997355655569934, 0.181381079718016, -1.14010981979627, 1.15858246437976, -1.18102587421855], a = 0.2, v = 0.2, t = 0.2)
movej(p[0.531323123049076, -0.00971969414835473, 0.181754752559404, -1.16250250293274, 1.13964278226056, -1.17866105861385], a = 0.2, v = 0.2, t = 0.2)
movej(p[0.529367560026521, -0.00960755134647215, 0.182698111466925, -1.1953730652567, 1.16339163805109, -1.14622603511782], a = 0.2, v = 0.2, t = 0.2)
movej(p[0.528191997806297, -0.00955348019797067, 0.183287966658716, -1.21865710735975, 1.18213413285013, -1.14058066730558], a = 0.2, v = 0.2, t = 0.2)
movej(p[0.528616087273813, -0.00962290017117774, 0.183867853923331, -1.24400413177316, 1.22747329582096, -1.14409861914478], a = 0.2, v = 0.2, t = 0.2)
movej(p[0.53032666030957, -0.00975099477291325, 0.183814054985149, -1.22099563492419, 1.26384384405266, -1.14257295282104], a = 0.2, v = 0.2, t = 0.2)
movej(p[0.532717073280736, -0.0101090255220545, 0.18362589748869, -1.1890880822808, 1.27649520689531, -1.13651343611247], a = 0.2, v = 0.2, t = 0.2)
movej(p[0.535007741981561, -0.0103381982469249, 0.183356493006989, -1.16576677610996, 1.28282241827684, -1.14414748355296], a = 0.2, v = 0.2, t = 0.2)
movej(p[0.536839769931116, -0.0104873052971992, 0.183007834218334, -1.16683294591204, 1.26965526799983, -1.18721113404391], a = 0.2, v = 0.2, t = 0.2)
movej(p[0.538234567788627, -0.0104658681173756, 0.182754696658687, -1.18136109056789, 1.25174934517404, -1.22674348549007], a = 0.2, v = 0.2, t = 0.2)
movej(p[0.539334673366895, -0.0106276018272294, 0.18236291701225, -1.16713519374737, 1.2474690135967, -1.22320275454075], a = 0.2, v = 0.2, t = 0.2)
movej(p[0.540315055729351, -0.0109024013893275, 0.182290001742551, -1.14143824116177, 1.25823040997139, -1.20653881052462], a = 0.2, v = 0.2, t = 0.2)
movej(p[0.541251431623354, -0.0110828856689053, 0.18194161620546, -1.11982888924861, 1.25489069282563, -1.20618316609029], a = 0.2, v = 0.2, t = 0.2)
movej(p[0.541856778233077, -0.0110199690384389, 0.181643541278959, -1.09827240839473, 1.23406774736382, -1.21305117592205], a = 0.2, v = 0.2, t = 0.2)
movej(p[0.541367955351591, -0.0107820680714803, 0.181154740372601, -1.11561991003328, 1.19183791662222, -1.22726181227109], a = 0.2, v = 0.2, t = 0.2)
movej(p[0.539672760790316, -0.0105103317850967, 0.180790547763555, -1.13309511423183, 1.1742142015097, -1.2190222024159], a = 0.2, v = 0.2, t = 0.2)
movej(p[0.537020933302165, -0.0101711830494816, 0.180707193121686, -1.17624290467322, 1.15803791744329, -1.21673395613717], a = 0.2, v = 0.2, t = 0.2)
movej(p[0.534049646084483, -0.00984110581206689, 0.18122563302252, -1.18820434542838, 1.15227815204888, -1.20204269270798], a = 0.2, v = 0.2, t = 0.2)
movej(p[0.531154343983487, -0.00959018567345716, 0.182106878209632, -1.20962196543411, 1.17470619379428, -1.17336120609112], a = 0.2, v = 0.2, t = 0.2)
movej(p[0.528703605735103, -0.00946569379560949, 0.183111182850794, -1.21447204967878, 1.20201191716147, -1.14774640890946], a = 0.2, v = 0.2, t = 0.2)
movej(p[0.527514709921555, -0.00948857499646452, 0.183685335367095, -1.2238919587714, 1.2254923094225, -1.12913615296084], a = 0.2, v = 0.2, t = 0.2)
movej(p[0.527789590359627, -0.00961300079721683, 0.184128617659876, -1.23134307003822, 1.24141705364395, -1.13396302727841], a = 0.2, v = 0.2, t = 0.2)
movej(p[0.529569834871315, -0.00977039229726692, 0.184130486775223, -1.24855922390654, 1.26001636252267, -1.13991518456713], a = 0.2, v = 0.2, t = 0.2)
movej(p[0.532101383117981, -0.0099586798031205, 0.184058505455455, -1.24679087730282, 1.28503837584084, -1.15173200262814], a = 0.2, v = 0.2, t = 0.2)
movej(p[0.534614291782504, -0.0101840069667909, 0.183608465912731, -1.22033819592015, 1.28087227119185, -1.16969182324975], a = 0.2, v = 0.2, t = 0.2)
movej(p[0.536602627255333, -0.0105343252548957, 0.183543258351336, -1.21786174610731, 1.24791828342711, -1.1990891217398], a = 0.2, v = 0.2, t = 0.2)
movej(p[0.538205862721196, -0.0106615009098579, 0.183213266263119, -1.18251431626365, 1.22865949690939, -1.2208068786053], a = 0.2, v = 0.2, t = 0.2)
movej(p[0.539366522142241, -0.0106788509584411, 0.18328925595619, -1.17996890083464, 1.2333900301928, -1.22890577510587], a = 0.2, v = 0.2, t = 0.2)
movej(p[0.540344190013689, -0.0106780664776789, 0.182763873205494, -1.12773932103395, 1.24262781109572, -1.22229091332544], a = 0.2, v = 0.2, t = 0.2)
movej(p[0.541181198911735, -0.0107582612058068, 0.182444841093831, -1.11855750427831, 1.25283873691005, -1.20914353289743], a = 0.2, v = 0.2, t = 0.2)
movej(p[0.541962774838362, -0.0108516768822429, 0.182130342447231, -1.1213506312931, 1.25708756421822, -1.21005752356182], a = 0.2, v = 0.2, t = 0.2)
movej(p[0.542741160139175, -0.0108394901523836, 0.181967579983829, -1.11466853805915, 1.23875094723218, -1.22335930181882], a = 0.2, v = 0.2, t = 0.2)
movej(p[0.542698462349208, -0.0109035324750183, 0.182050717316258, -1.11036381052408, 1.20759187473706, -1.23084596223668], a = 0.2, v = 0.2, t = 0.2)
movej(p[0.541734494577015, -0.0107720858774091, 0.181763347991784, -1.1111474652082, 1.17842542062891, -1.22917950284934], a = 0.2, v = 0.2, t = 0.2)
movej(p[0.539631104437754, -0.0106237827289269, 0.181202644296585, -1.15868851294791, 1.16901377232881, -1.20600187289577], a = 0.2, v = 0.2, t = 0.2)
movej(p[0.537263504339978, -0.0103254153976398, 0.180807330080377, -1.19341504338693, 1.15258854472051, -1.21380672914353], a = 0.2, v = 0.2, t = 0.2)
movej(p[0.534929347084675, -0.0101038576379318, 0.180652691914008, -1.19692139233848, 1.16750840830004, -1.20011785422788], a = 0.2, v = 0.2, t = 0.2)
movej(p[0.533004129708233, -0.00990692643015859, 0.181498388539653, -1.16441852625748, 1.18563218406976, -1.19133306831535], a = 0.2, v = 0.2, t = 0.2)
movej(p[0.532105408608376, -0.0098335585344067, 0.182038172585866, -1.16546313495947, 1.23052222813768, -1.16124166191057], a = 0.2, v = 0.2, t = 0.2)
movej(p[0.532673881150673, -0.00992238209481015, 0.18247498183917, -1.17748698648957, 1.24493306313911, -1.1582540931468], a = 0.2, v = 0.2, t = 0.2)
movej(p[0.534508258524817, -0.0101146992678715, 0.182469958855492, -1.19573598743776, 1.24130010458161, -1.19608675104643], a = 0.2, v = 0.2, t = 0.2)
movej(p[0.536757912055302, -0.0102290915594194, 0.18236431812849, -1.1990774017103, 1.24615759639616, -1.21566358084525], a = 0.2, v = 0.2, t = 0.2)
movej(p[0.538662284842502, -0.0103766348100917, 0.182444910476464, -1.17270378646298, 1.25024187016764, -1.21483445174494], a = 0.2, v = 0.2, t = 0.2)
movej(p[0.54028503604486, -0.0104518732333794, 0.182290772223562, -1.17162857887101, 1.27763905011238, -1.19946695272766], a = 0.2, v = 0.2, t = 0.2)
movej(p[0.541670120463792, -0.0106610584863897, 0.182151718232779, -1.1879104493688, 1.26233032909384, -1.21954458410374], a = 0.2, v = 0.2, t = 0.2)
movej(p[0.542864760068726, -0.0108154327703817, 0.181732877428696, -1.19104385006326, 1.2589863391504, -1.23014032269034], a = 0.2, v = 0.2, t = 0.2)
movej(p[0.543811706758891, -0.0109107380409034, 0.181601977965376, -1.18493758204265, 1.2620441339994, -1.22224823917824], a = 0.2, v = 0.2, t = 0.2)
movej(p[0.544455617606625, -0.0110657103675702, 0.181250134181663, -1.1397124536703, 1.27108841118456, -1.21649585435137], a = 0.2, v = 0.2, t = 0.2)
movej(p[0.544903189170826, -0.0110533637114745, 0.181106621159598, -1.11698899100811, 1.28445428139089, -1.21505626684376], a = 0.2, v = 0.2, t = 0.2)
movej(p[0.545015227103737, -0.0109536502677156, 0.180997998180341, -1.10388863128464, 1.25590518545687, -1.23744397862881], a = 0.2, v = 0.2, t = 0.2)
movej(p[0.54436723542622, -0.0109374307863875, 0.180726224934428, -1.12228542126396, 1.20494299752765, -1.26472369146072], a = 0.2, v = 0.2, t = 0.2)
movej(p[0.542720394553085, -0.0107866896256937, 0.180437803067113, -1.13218690035735, 1.15821896595628, -1.28190620236967], a = 0.2, v = 0.2, t = 0.2)
movej(p[0.540303603084895, -0.0107170914567314, 0.180002284901525, -1.13670697055906, 1.14675011444955, -1.26959164097724], a = 0.2, v = 0.2, t = 0.2)
movej(p[0.537578121605837, -0.0103187263958738, 0.180240374934286, -1.15588570097405, 1.17085415739917, -1.22979423129219], a = 0.2, v = 0.2, t = 0.2)
movej(p[0.535126352593123, -0.0101546116020272, 0.180591127922526, -1.18110749549122, 1.16818831555021, -1.19875115893042], a = 0.2, v = 0.2, t = 0.2)
movej(p[0.533331154815749, -0.00998768304074244, 0.181528768516626, -1.1770520197416, 1.19698997722001, -1.15603024024537], a = 0.2, v = 0.2, t = 0.2)
movej(p[0.532881860563385, -0.0100198894470541, 0.181952630416996, -1.15762484016638, 1.21859730839597, -1.14145827010702], a = 0.2, v = 0.2, t = 0.2)
movej(p[0.533801198771655, -0.009979015436366, 0.182165268871812, -1.1726866035843, 1.28989512033263, -1.12602415228352], a = 0.2, v = 0.2, t = 0.2)
movej(p[0.535793790052286, -0.0101257403285522, 0.181840683887609, -1.19774693295658, 1.29083865136501, -1.16920245349667], a = 0.2, v = 0.2, t = 0.2)
movej(p[0.538172615889818, -0.0102768906645621, 0.181886796245585, -1.21625143562662, 1.30600125872683, -1.19979791970635], a = 0.2, v = 0.2, t = 0.2)
movej(p[0.540254550015795, -0.0105934860255004, 0.181916808586774, -1.18517481310273, 1.27301973138065, -1.22504416305429], a = 0.2, v = 0.2, t = 0.2)
movej(p[0.541789122788669, -0.0107387417762856, 0.181842167179243, -1.17440968365304, 1.26724498256227, -1.23371605186086], a = 0.2, v = 0.2, t = 0.2)
movej(p[0.5429292025681, -0.0107200166341201, 0.181698688112889, -1.17432370386218, 1.27412679592916, -1.23672333440794], a = 0.2, v = 0.2, t = 0.2)
movej(p[0.543649092607008, -0.0106491457088316, 0.181484549877558, -1.17820261256822, 1.27993858723113, -1.24661188205254], a = 0.2, v = 0.2, t = 0.2)
movej(p[0.544169242511446, -0.0107107625849123, 0.18143745355185, -1.16190094549918, 1.24777707739369, -1.2596437764401], a = 0.2, v = 0.2, t = 0.2)
movej(p[0.544320147331217, -0.0108782871345813, 0.180890234765414, -1.14019329331673, 1.17417319241424, -1.27948525632581], a = 0.2, v = 0.2, t = 0.2)
movej(p[0.543566255350662, -0.0109445115722395, 0.180521412671291, -1.11089306699244, 1.10516087377801, -1.2968523842411], a = 0.2, v = 0.2, t = 0.2)
movej(p[0.541878582468508, -0.0107790293847675, 0.180190967134825, -1.11903455597016, 1.09094370767656, -1.30435567517092], a = 0.2, v = 0.2, t = 0.2)
movej(p[0.539209576629687, -0.0105288510141528, 0.179972848640162, -1.11474976371501, 1.12606748964305, -1.2680294584456], a = 0.2, v = 0.2, t = 0.2)
movej(p[0.536238036105837, -0.0102141507480966, 0.180318200691845, -1.13805591365507, 1.15591914160503, -1.22662937425657], a = 0.2, v = 0.2, t = 0.2)
movej(p[0.533338561265459, -0.0100932346750835, 0.180826434616384, -1.1513983451088, 1.17673487880756, -1.16948053626992], a = 0.2, v = 0.2, t = 0.2)
movej(p[0.530826400647142, -0.0098463044901913, 0.181808803269454, -1.19088879185533, 1.17225807420235, -1.15220108044346], a = 0.2, v = 0.2, t = 0.2)
movej(p[0.529579087957839, -0.00968899451838224, 0.182636724119519, -1.21164355098085, 1.19648353439207, -1.12813188696206], a = 0.2, v = 0.2, t = 0.2)
movej(p[0.530063584507922, -0.00972196621417928, 0.183193605951089, -1.22735551528918, 1.21866095556272, -1.13642773551816], a = 0.2, v = 0.2, t = 0.2)
movej(p[0.532123338323542, -0.00992237825930961, 0.183190088664182, -1.22386661797541, 1.24854369247215, -1.14967088410994], a = 0.2, v = 0.2, t = 0.2)
movej(p[0.534707597201955, -0.0102409165945948, 0.182823839493816, -1.24010254173561, 1.25045808683982, -1.18096014202517], a = 0.2, v = 0.2, t = 0.2)
movej(p[0.537152853045015, -0.0103101314238756, 0.182247958863225, -1.22685669955366, 1.26928889644149, -1.19855952175086], a = 0.2, v = 0.2, t = 0.2)
movej(p[0.539163967577599, -0.0104667492082446, 0.182191390207154, -1.21693145731652, 1.27256888134249, -1.2088436647442], a = 0.2, v = 0.2, t = 0.2)
movej(p[0.540783234494413, -0.0105524509355949, 0.182004921672435, -1.19705025064566, 1.27744529829417, -1.21919309049199], a = 0.2, v = 0.2, t = 0.2)
movej(p[0.541919796083444, -0.0107715876187142, 0.182119646438951, -1.18168708600005, 1.25674670754212, -1.23267017295847], a = 0.2, v = 0.2, t = 0.2)
movej(p[0.542837723892761, -0.0108432114568234, 0.181795757245559, -1.16907400834336, 1.22731378678709, -1.25913490986184], a = 0.2, v = 0.2, t = 0.2)
movej(p[0.543500600926102, -0.0108636643724366, 0.18182382796006, -1.1395454934067, 1.21870160452816, -1.26389227126062], a = 0.2, v = 0.2, t = 0.2)
movej(p[0.543289040968049, -0.0107910419971979, 0.181815026979232, -1.13164438537147, 1.21081500972781, -1.25567066883889], a = 0.2, v = 0.2, t = 0.2)
movej(p[0.541983407758856, -0.0108220586091019, 0.181671724762783, -1.1260953637589, 1.20631113406294, -1.21827805652749], a = 0.2, v = 0.2, t = 0.2)
movej(p[0.539521714378847, -0.0107051651737626, 0.180973028960239, -1.13469949426505, 1.16865084972525, -1.20940913935004], a = 0.2, v = 0.2, t = 0.2)
movej(p[0.536652533312849, -0.0105456388377289, 0.18041619998943, -1.14000464264061, 1.15423508752519, -1.1976437001653], a = 0.2, v = 0.2, t = 0.2)
movej(p[0.533599399107254, -0.0102065289759629, 0.180538802300883, -1.17222559623493, 1.16912329530438, -1.17259665561281], a = 0.2, v = 0.2, t = 0.2)
movej(p[0.530799672609061, -0.00985203640714968, 0.181363484970809, -1.1766154646082, 1.20030307316377, -1.12448368336627], a = 0.2, v = 0.2, t = 0.2)
movej(p[0.529013708549937, -0.00970680875074686, 0.182687647131473, -1.20311458377496, 1.23233722915768, -1.08666230790641], a = 0.2, v = 0.2, t = 0.2)
movej(p[0.528459799196838, -0.00976021276811671, 0.183480512160262, -1.19936536502201, 1.26822281514292, -1.07122897447084], a = 0.2, v = 0.2, t = 0.2)
movej(p[0.529660384925898, -0.00988792794064919, 0.183762761762535, -1.23210572378835, 1.29602548480184, -1.10225880583141], a = 0.2, v = 0.2, t = 0.2)
movej(p[0.531967434443023, -0.00996069923128323, 0.183385414611373, -1.22921699658615, 1.32142253942599, -1.12946216626206], a = 0.2, v = 0.2, t = 0.2)
movej(p[0.5346732088035, -0.0100535916410967, 0.183206120771867, -1.22431233224971, 1.31284370945777, -1.17663927072388], a = 0.2, v = 0.2, t = 0.2)
movej(p[0.537034582786978, -0.0103942493968249, 0.18296902245341, -1.17962807705403, 1.27188307235066, -1.20461305030955], a = 0.2, v = 0.2, t = 0.2)
movej(p[0.538787225920929, -0.0105713212584561, 0.183013096736545, -1.14211829176962, 1.27104667627608, -1.20478224853807], a = 0.2, v = 0.2, t = 0.2)
movej(p[0.540132767713876, -0.0107288697544501, 0.182976871141426, -1.1154385946044, 1.26834412378359, -1.20321017533429], a = 0.2, v = 0.2, t = 0.2)
movej(p[0.541166614822658, -0.0106904888966768, 0.182646402700694, -1.11136946611635, 1.29262936322632, -1.18903661755293], a = 0.2, v = 0.2, t = 0.2)
movej(p[0.542014631958562, -0.0108151469730193, 0.182215115396434, -1.10994133234763, 1.28459242365221, -1.19719393315889], a = 0.2, v = 0.2, t = 0.2)
movej(p[0.542692288737264, -0.0108266345045432, 0.181579808478953, -1.11525746968532, 1.25669231381415, -1.22107451488254], a = 0.2, v = 0.2, t = 0.2)
movej(p[0.542464962891526, -0.0107222642023571, 0.181307482824669, -1.11816394434672, 1.24577930131656, -1.21336741304142], a = 0.2, v = 0.2, t = 0.2)
movej(p[0.541118188558167, -0.010511465419999, 0.181098846845125, -1.12017102171536, 1.21876956041758, -1.20021981176385], a = 0.2, v = 0.2, t = 0.2)
movej(p[0.538444763976346, -0.0104473851482897, 0.180780066628371, -1.12362239972895, 1.19097655680939, -1.17986398793926], a = 0.2, v = 0.2, t = 0.2)
movej(p[0.535454633900584, -0.0103464717218435, 0.180926704389161, -1.13376870869814, 1.15775188734361, -1.17697409483979], a = 0.2, v = 0.2, t = 0.2)
movej(p[0.532305826753095, -0.0100979541674919, 0.181194748445237, -1.15219516531231, 1.1396023213977, -1.1629527242561], a = 0.2, v = 0.2, t = 0.2)
movej(p[0.529503785569416, -0.00972804752704437, 0.18220628344624, -1.14782211184405, 1.14984654621113, -1.14680305725565], a = 0.2, v = 0.2, t = 0.2)
movej(p[0.527678335494413, -0.00940512235199178, 0.182967525137552, -1.18207571619829, 1.17604387787096, -1.1440291496965], a = 0.2, v = 0.2, t = 0.2)
movej(p[0.527771496051327, -0.00944862557758867, 0.183471703080939, -1.21757651693569, 1.21487235004567, -1.14417239256276], a = 0.2, v = 0.2, t = 0.2)
movej(p[0.529566435136263, -0.00965875431769228, 0.183749172867492, -1.23939221248199, 1.25382537076584, -1.15215202189322], a = 0.2, v = 0.2, t = 0.2)
movej(p[0.532167959401614, -0.0100029485828579, 0.183837676613312, -1.22134628628299, 1.27589418265997, -1.15483905184516], a = 0.2, v = 0.2, t = 0.2)
movej(p[0.53476558503451, -0.0101839203821757, 0.183698648620528, -1.2052175025601, 1.28270256957814, -1.16489684848421], a = 0.2, v = 0.2, t = 0.2)
movej(p[0.536965272770847, -0.0103653166133338, 0.183312428958158, -1.18097647349261, 1.2790324239484, -1.17293950175995], a = 0.2, v = 0.2, t = 0.2)
movej(p[0.538702905928102, -0.0104946461536455, 0.183101224854714, -1.1659758293845, 1.27809067120605, -1.1866960048087], a = 0.2, v = 0.2, t = 0.2)
movej(p[0.540066893489534, -0.0105629592630457, 0.183083868488633, -1.13081508525321, 1.28474435555365, -1.18354050721848], a = 0.2, v = 0.2, t = 0.2)
movej(p[0.541098213925785, -0.0105923935498696, 0.183122853057753, -1.12071744676853, 1.26621282423426, -1.19800044379826], a = 0.2, v = 0.2, t = 0.2)
movej(p[0.542043784585971, -0.0106786478256265, 0.182756688916814, -1.11189698461604, 1.27201430476895, -1.18725910444401], a = 0.2, v = 0.2, t = 0.2)
movej(p[0.542488474969707, -0.0107369632819243, 0.182275955466585, -1.1163062494029, 1.2078261244611, -1.23479761765138], a = 0.2, v = 0.2, t = 0.2)
movej(p[0.541905518714814, -0.0108252136416087, 0.181592804517675, -1.1097737839716, 1.16646909840783, -1.24742754312849], a = 0.2, v = 0.2, t = 0.2)
movej(p[0.539767522661253, -0.0106054941128676, 0.181257069207424, -1.11882058705651, 1.11026456407037, -1.26730642407725], a = 0.2, v = 0.2, t = 0.2)
movej(p[0.536573235536873, -0.0103645162788536, 0.181183540553581, -1.12695623828982, 1.13428775795855, -1.22692964425308], a = 0.2, v = 0.2, t = 0.2)
movej(p[0.533500565282591, -0.0100386443982804, 0.181589421484947, -1.16597929456423, 1.15815978083887, -1.18209843286467], a = 0.2, v = 0.2, t = 0.2)
movej(p[0.530864146854455, -0.00972209688385919, 0.182173008739433, -1.1770981114426, 1.15418807103664, -1.15812112590985], a = 0.2, v = 0.2, t = 0.2)
movej(p[0.529074542836562, -0.00957636613686592, 0.182853149460625, -1.20015493003269, 1.18099865991198, -1.13397973546745], a = 0.2, v = 0.2, t = 0.2)
movej(p[0.528562673604031, -0.00947591139229895, 0.183442896003456, -1.19840324292818, 1.1955953371817, -1.13497356738288], a = 0.2, v = 0.2, t = 0.2)
movej(p[0.529674916136992, -0.00970953814685982, 0.183700148585999, -1.21700173191901, 1.25971591042472, -1.13096936813821], a = 0.2, v = 0.2, t = 0.2)
movej(p[0.532003019963141, -0.00988556775205103, 0.183807513909864, -1.2297985492476, 1.26909175370218, -1.14991088982685], a = 0.2, v = 0.2, t = 0.2)
movej(p[0.534476932291963, -0.0101231929429518, 0.183508057333123, -1.21948620407154, 1.24482106428077, -1.19779541011853], a = 0.2, v = 0.2, t = 0.2)
movej(p[0.536703949266775, -0.0102964707799328, 0.183369038387964, -1.19446797831178, 1.21050742798212, -1.22626207363104], a = 0.2, v = 0.2, t = 0.2)
movej(p[0.538396250180396, -0.0105123667257725, 0.183312581249986, -1.1820453788048, 1.19905109139602, -1.24711421957085], a = 0.2, v = 0.2, t = 0.2)
movej(p[0.539591724660886, -0.0106325230915875, 0.183201509126341, -1.15767820188224, 1.21401452260933, -1.24003933772683], a = 0.2, v = 0.2, t = 0.2)
movej(p[0.540574811374825, -0.0107070668585367, 0.182893964157131, -1.17010881465003, 1.24342905884146, -1.23559954678958], a = 0.2, v = 0.2, t = 0.2)
movej(p[0.541462495224684, -0.0108542260569709, 0.182478898252586, -1.17883218303478, 1.25328593343523, -1.23254957654496], a = 0.2, v = 0.2, t = 0.2)
movej(p[0.542022817872942, -0.0109348282315462, 0.182233100100024, -1.18891902093519, 1.24955820941969, -1.22773595983753], a = 0.2, v = 0.2, t = 0.2)
movej(p[0.541830228470844, -0.0110097618792407, 0.18183095706385, -1.1807268389648, 1.22111150204158, -1.22124121909696], a = 0.2, v = 0.2, t = 0.2)
movej(p[0.540404816522373, -0.0109099266319185, 0.18122669552929, -1.1526202212805, 1.17997458841805, -1.22958788689392], a = 0.2, v = 0.2, t = 0.2)
movej(p[0.537890572697669, -0.0107066076870374, 0.181011204353858, -1.13927410492444, 1.18949068381827, -1.20805388118248], a = 0.2, v = 0.2, t = 0.2)
movej(p[0.534999351717689, -0.0103799375366544, 0.18130057778107, -1.12911666329516, 1.18660100885597, -1.18808858864617], a = 0.2, v = 0.2, t = 0.2)
movej(p[0.532036408582379, -0.00998523363588098, 0.18191900489895, -1.14771601365471, 1.21348044314996, -1.14489731755512], a = 0.2, v = 0.2, t = 0.2)
movej(p[0.529437043772902, -0.00972491643024592, 0.18270357027628, -1.17499438960476, 1.21640379899454, -1.12116106753127], a = 0.2, v = 0.2, t = 0.2)
movej(p[0.527445487424499, -0.00954636311821195, 0.183452014373856, -1.21699933087417, 1.22548437859301, -1.12032258492526], a = 0.2, v = 0.2, t = 0.2)
movej(p[0.527158856213314, -0.00951808558866953, 0.184003646444274, -1.22784884693047, 1.25876277730717, -1.10801664064347], a = 0.2, v = 0.2, t = 0.2)
movej(p[0.528573687606766, -0.00966186160983356, 0.184063580853959, -1.2373493442723, 1.28215204802081, -1.11978626047058], a = 0.2, v = 0.2, t = 0.2)
movej(p[0.531189467004258, -0.00995156104101991, 0.183630354503386, -1.22070052845607, 1.29402381813937, -1.13388886533198], a = 0.2, v = 0.2, t = 0.2)
movej(p[0.534025256345443, -0.0102381553137417, 0.183460048555573, -1.19673138928992, 1.26952051582613, -1.16732830206544], a = 0.2, v = 0.2, t = 0.2)
movej(p[0.536305215217217, -0.0104966124017834, 0.183254811896177, -1.18176837256664, 1.23724097870607, -1.19755740748697], a = 0.2, v = 0.2, t = 0.2)
movej(p[0.538055888502978, -0.0105055097404926, 0.183253780446438, -1.16570779409094, 1.24902612015076, -1.19913392055885], a = 0.2, v = 0.2, t = 0.2)
movej(p[0.539494490140959, -0.0106017220983505, 0.183143537945137, -1.15783601669609, 1.26362793488785, -1.19363376512002], a = 0.2, v = 0.2, t = 0.2)
movej(p[0.540738155635158, -0.0106383607708169, 0.182796148061695, -1.1639337940239, 1.27686728922989, -1.20066517416025], a = 0.2, v = 0.2, t = 0.2)
movej(p[0.541872252172496, -0.0108838278769267, 0.182635566680721, -1.16756370536873, 1.26416958274757, -1.21347850066961], a = 0.2, v = 0.2, t = 0.2)
movej(p[0.542465421031059, -0.0108903075479783, 0.182396876871146, -1.17639842473922, 1.23642068767615, -1.23950152884958], a = 0.2, v = 0.2, t = 0.2)
movej(p[0.542033832008487, -0.0108008698217949, 0.182004237295542, -1.14340696380473, 1.22753841561475, -1.23216735187644], a = 0.2, v = 0.2, t = 0.2)
movej(p[0.540077477263977, -0.0105857690846891, 0.181282980824769, -1.13230011106722, 1.19732416873315, -1.22352225117773], a = 0.2, v = 0.2, t = 0.2)
movej(p[0.537149735647345, -0.0104356916981232, 0.180650323542207, -1.13039458590819, 1.18359500784835, -1.19482648380512], a = 0.2, v = 0.2, t = 0.2)
movej(p[0.533763876272597, -0.0102067615004883, 0.181035518053516, -1.13046526582636, 1.16324493114646, -1.16344422743476], a = 0.2, v = 0.2, t = 0.2)
movej(p[0.530507707703401, -0.00988299050827837, 0.181842610017103, -1.14659787284492, 1.169409790748, -1.12777674698626], a = 0.2, v = 0.2, t = 0.2)
movej(p[0.527667200913215, -0.00955416494737174, 0.182803378119717, -1.16412468635353, 1.19584859622399, -1.08852152686633], a = 0.2, v = 0.2, t = 0.2)
movej(p[0.526428411458998, -0.00938097881764743, 0.183210551778973, -1.21691158541958, 1.23084451621674, -1.07608135553946], a = 0.2, v = 0.2, t = 0.2)
movej(p[0.527224313703342, -0.00953712987904817, 0.183576629851482, -1.22972271848667, 1.26342419243913, -1.08285271204063], a = 0.2, v = 0.2, t = 0.2)
movej(p[0.529492511708141, -0.00975187735867082, 0.183768789365998, -1.23647430594596, 1.26439366388167, -1.12155286134439], a = 0.2, v = 0.2, t = 0.2)
movej(p[0.532280528839958, -0.00999601628799758, 0.184135102765639, -1.21389464057159, 1.26427503006061, -1.15305532976225], a = 0.2, v = 0.2, t = 0.2)
movej(p[0.534727774834797, -0.0101827988605359, 0.184063721547428, -1.2007787852935, 1.25916672887079, -1.17601404433072], a = 0.2, v = 0.2, t = 0.2)
movej(p[0.536827193219363, -0.010397676109488, 0.183640301749147, -1.19407902440936, 1.27024330020371, -1.19190487904209], a = 0.2, v = 0.2, t = 0.2)
movej(p[0.538449558199372, -0.0106591249398469, 0.183188459135459, -1.1731289973139, 1.28432619575074, -1.1819721729865], a = 0.2, v = 0.2, t = 0.2)
movej(p[0.539828672607169, -0.0107088823612622, 0.182890149271692, -1.17315209795978, 1.30101546399196, -1.19151894929569], a = 0.2, v = 0.2, t = 0.2)
movej(p[0.541176193167891, -0.0107039676067965, 0.183012308819905, -1.14536318012402, 1.29995666051182, -1.18536926323579], a = 0.2, v = 0.2, t = 0.2)
movej(p[0.542238628681902, -0.0106586956314241, 0.182977266998969, -1.11098633397642, 1.27915122154978, -1.20525811263649], a = 0.2, v = 0.2, t = 0.2)
movej(p[0.542534878031469, -0.0107691401671253, 0.182564823880084, -1.06104590762352, 1.22767001302684, -1.21682927932223], a = 0.2, v = 0.2, t = 0.2)
movej(p[0.541401620523554, -0.0107500460555878, 0.181689509516807, -1.04492213321062, 1.17880772380632, -1.22436312751421], a = 0.2, v = 0.2, t = 0.2)
movej(p[0.538910456658118, -0.010620230017053, 0.18093705604676, -1.09171015528348, 1.15324507963678, -1.21038037927338], a = 0.2, v = 0.2, t = 0.2)
movej(p[0.535922252060223, -0.0102681915573171, 0.18083273846971, -1.14277219081374, 1.16573445016439, -1.18319782822037], a = 0.2, v = 0.2, t = 0.2)
movej(p[0.532545396725813, -0.00984515770417315, 0.181447456445343, -1.19557141241902, 1.19134147302553, -1.14865003502826], a = 0.2, v = 0.2, t = 0.2)
movej(p[0.529654096951758, -0.00958674152681043, 0.182433253561093, -1.18105636013141, 1.21228368000916, -1.10816389118982], a = 0.2, v = 0.2, t = 0.2)
movej(p[0.527993642881004, -0.00943496219115311, 0.183231158597037, -1.21900211744361, 1.23900556957601, -1.0937618444605], a = 0.2, v = 0.2, t = 0.2)
movej(p[0.527936016147527, -0.00957688870983826, 0.183694464221742, -1.22919714056396, 1.25589757190533, -1.10525161219947], a = 0.2, v = 0.2, t = 0.2)
movej(p[0.529548741712193, -0.00977301092178245, 0.184010739518208, -1.2356341450483, 1.27518676605832, -1.12392965119552], a = 0.2, v = 0.2, t = 0.2)
movej(p[0.531879530779326, -0.0100633885029386, 0.183901303905272, -1.21519189847281, 1.25091266651143, -1.15906044275452], a = 0.2, v = 0.2, t = 0.2)
movej(p[0.534392758706148, -0.0103356754679007, 0.183795769404657, -1.17885490818858, 1.23947563504067, -1.17368257540495], a = 0.2, v = 0.2, t = 0.2)
movej(p[0.536623145281767, -0.0105147592720218, 0.183478932945737, -1.17956644759458, 1.2247113863934, -1.19778509795373], a = 0.2, v = 0.2, t = 0.2)
movej(p[0.538284351001579, -0.0106202428032206, 0.183471519626077, -1.1347707125687, 1.24243885726879, -1.18553469173714], a = 0.2, v = 0.2, t = 0.2)
movej(p[0.539717752828673, -0.0107757875011814, 0.183279425259894, -1.13652203054867, 1.25035650508685, -1.20292265674487], a = 0.2, v = 0.2, t = 0.2)
movej(p[0.540907559734892, -0.0107960853649295, 0.183038356702963, -1.13305073656015, 1.26820088004309, -1.20304662991886], a = 0.2, v = 0.2, t = 0.2)
movej(p[0.54195419781009, -0.0108465638004007, 0.182415538033768, -1.16235642664199, 1.268184981835, -1.22416339812135], a = 0.2, v = 0.2, t = 0.2)
movej(p[0.542701274575565, -0.0108473619630218, 0.181977625520789, -1.14117838602816, 1.24871954615538, -1.21969181570502], a = 0.2, v = 0.2, t = 0.2)
movej(p[0.5422044124837, -0.0107823612415579, 0.181588602811971, -1.11720540739375, 1.1930037120595, -1.23677285472039], a = 0.2, v = 0.2, t = 0.2)
movej(p[0.540402732512927, -0.0106066530450787, 0.181128883212428, -1.10923472723663, 1.14399353073771, -1.24553128286251], a = 0.2, v = 0.2, t = 0.2)
movej(p[0.537329348783111, -0.0103658740835252, 0.180965582328844, -1.13803341098873, 1.12808255910713, -1.23513593154536], a = 0.2, v = 0.2, t = 0.2)
movej(p[0.533971937186298, -0.0101867643018515, 0.180967055364694, -1.16731796225095, 1.15040272676731, -1.20592644987352], a = 0.2, v = 0.2, t = 0.2)
movej(p[0.530762371016812, -0.00999222820026088, 0.181818807884804, -1.18218721531048, 1.18710328675963, -1.15462598077445], a = 0.2, v = 0.2, t = 0.2)
movej(p[0.52812924805141, -0.0097357864503084, 0.1828563236262, -1.21496390034008, 1.20176499891636, -1.12109350217729], a = 0.2, v = 0.2, t = 0.2)
movej(p[0.527267387109731, -0.00945226699583072, 0.183648008100368, -1.23324047979874, 1.22157361242192, -1.10704004855602], a = 0.2, v = 0.2, t = 0.2)
movej(p[0.528119173907964, -0.00951097128906321, 0.183901041089349, -1.25432706608664, 1.2401056553675, -1.1216359395274], a = 0.2, v = 0.2, t = 0.2)
movej(p[0.530704602468796, -0.00975153758547962, 0.183598302647192, -1.24825319346552, 1.26201448616872, -1.15388458357441], a = 0.2, v = 0.2, t = 0.2)
movej(p[0.533508709348368, -0.0101462420219504, 0.183422860598111, -1.24057068722915, 1.25488975671203, -1.18717156555496], a = 0.2, v = 0.2, t = 0.2)
movej(p[0.536014380419383, -0.0103147427475931, 0.183425048933432, -1.20770000993088, 1.26136996484598, -1.1925623688451], a = 0.2, v = 0.2, t = 0.2)
movej(p[0.537694685210709, -0.0103657014422225, 0.183414618833302, -1.18410223948489, 1.24960780120463, -1.19180166391807], a = 0.2, v = 0.2, t = 0.2)
movej(p[0.5390711173605, -0.0104318097644672, 0.182998464221946, -1.16757929707708, 1.25910177792537, -1.19021614148922], a = 0.2, v = 0.2, t = 0.2)
movej(p[0.540193703511848, -0.0105816216148923, 0.182563376521966, -1.16430364755889, 1.24796487454306, -1.20471052232804], a = 0.2, v = 0.2, t = 0.2)
movej(p[0.541255866650489, -0.0106830143275226, 0.18220072118375, -1.1357140534233, 1.26985936179558, -1.20571200195472], a = 0.2, v = 0.2, t = 0.2)
movej(p[0.541998883064785, -0.0107490929315927, 0.182038024076613, -1.10752221919541, 1.29075360542391, -1.19198849242313], a = 0.2, v = 0.2, t = 0.2)
movej(p[0.541701789291641, -0.0106792056286381, 0.181640459368238, -1.07444778766022, 1.26745197012875, -1.1962016863669], a = 0.2, v = 0.2, t = 0.2)
movej(p[0.540116242181405, -0.0106390063717644, 0.18113634017542, -1.06421760128495, 1.19686625815982, -1.21453360185047], a = 0.2, v = 0.2, t = 0.2)
movej(p[0.537476001798884, -0.010455693950765, 0.180843575192521, -1.05319539519626, 1.15096480574214, -1.20742301283973], a = 0.2, v = 0.2, t = 0.2)
movej(p[0.534660994514554, -0.0101578087579407, 0.181199114228728, -1.08006068233, 1.16579351102686, -1.16572679046368], a = 0.2, v = 0.2, t = 0.2)
movej(p[0.532352622170883, -0.00984373118192075, 0.182091552063714, -1.12165756265865, 1.21860495758189, -1.12320185615325], a = 0.2, v = 0.2, t = 0.2)
movej(p[0.530980156242305, -0.0096583611021033, 0.183126034691312, -1.17395238254542, 1.24012821182839, -1.10516131955686], a = 0.2, v = 0.2, t = 0.2)
movej(p[0.530945751883668, -0.00976139544008431, 0.183426640540396, -1.20999386159417, 1.2371918118493, -1.14315850249742], a = 0.2, v = 0.2, t = 0.2)
movej(p[0.532101089157337, -0.00990068486022489, 0.183617726152645, -1.22460391896772, 1.24881424368351, -1.17115535900461], a = 0.2, v = 0.2, t = 0.2)
movej(p[0.533990301964583, -0.0100979626639186, 0.183367686004879, -1.21750996698147, 1.27344125005109, -1.19838735893043], a = 0.2, v = 0.2, t = 0.2)
movej(p[0.536036139509211, -0.0102518972122354, 0.183260574869837, -1.21182895112848, 1.29064723551026, -1.19731042932002], a = 0.2, v = 0.2, t = 0.2)
movej(p[0.53777084077043, -0.0105254903931939, 0.182990992166092, -1.19971890022897, 1.28347342115629, -1.20183485429019], a = 0.2, v = 0.2, t = 0.2)
movej(p[0.5392285607847, -0.0107336235310697, 0.182787772497227, -1.19052971619155, 1.26813803026346, -1.21419763920426], a = 0.2, v = 0.2, t = 0.2)
movej(p[0.540373212135892, -0.0108681855818926, 0.182805415804544, -1.15249804514547, 1.29572383786707, -1.19146611938699], a = 0.2, v = 0.2, t = 0.2)
movej(p[0.541282815170745, -0.0108465504204184, 0.182457697846458, -1.15307195851515, 1.29127082232136, -1.20905448466809], a = 0.2, v = 0.2, t = 0.2)
movej(p[0.54206742016543, -0.0108161808088571, 0.182035156994576, -1.14590348536363, 1.28755240424358, -1.19966969359887], a = 0.2, v = 0.2, t = 0.2)
movej(p[0.541851583393951, -0.0107917503266237, 0.181230017241418, -1.15073646354171, 1.22912279488714, -1.2321893791127], a = 0.2, v = 0.2, t = 0.2)
movej(p[0.540365491513482, -0.0106463096680755, 0.180896011511457, -1.14231927518529, 1.21455814552059, -1.20909793359729], a = 0.2, v = 0.2, t = 0.2)
movej(p[0.537335129762295, -0.0104369070768491, 0.180749199922584, -1.13460099535493, 1.19770134397046, -1.18706753514196], a = 0.2, v = 0.2, t = 0.2)
movej(p[0.533679917942869, -0.0101318873701226, 0.181090951904116, -1.14209519957435, 1.18676400891331, -1.15520167054139], a = 0.2, v = 0.2, t = 0.2)
movej(p[0.530300293620379, -0.00992189363225817, 0.18183631599545, -1.16186525903979, 1.16195269866394, -1.14553689858254], a = 0.2, v = 0.2, t = 0.2)
movej(p[0.527753829799497, -0.00970017590267036, 0.182643529239226, -1.20483697402987, 1.1788666695526, -1.1254980998528], a = 0.2, v = 0.2, t = 0.2)
movej(p[0.526867451541456, -0.00954557236895735, 0.183603214937116, -1.26360851191461, 1.23351702603559, -1.11390193811153], a = 0.2, v = 0.2, t = 0.2)
movej(p[0.528055969503991, -0.00940463052158841, 0.183935241103842, -1.28468726178199, 1.29356851345012, -1.10414865677145], a = 0.2, v = 0.2, t = 0.2)
movej(p[0.53042580825086, -0.00962875385874819, 0.183997127732279, -1.26624351678682, 1.30601027874729, -1.13572770617647], a = 0.2, v = 0.2, t = 0.2)
movej(p[0.533049027529592, -0.00995342593532132, 0.183848994874061, -1.22301872000821, 1.29187866779461, -1.15117030422772], a = 0.2, v = 0.2, t = 0.2)
movej(p[0.535113182195248, -0.0103632123512035, 0.183765906368794, -1.16734690471583, 1.28497279263604, -1.14801334931965], a = 0.2, v = 0.2, t = 0.2)
movej(p[0.536869600711345, -0.0105022083406247, 0.183508918706567, -1.13757781326241, 1.25759915495222, -1.16675003181757], a = 0.2, v = 0.2, t = 0.2)
movej(p[0.538215549205296, -0.010628744064062, 0.182981408330153, -1.14924509809094, 1.24751529130928, -1.18742798995137], a = 0.2, v = 0.2, t = 0.2)
movej(p[0.539380509062326, -0.0108035024392844, 0.18256128620291, -1.17342052633237, 1.22249599409435, -1.23185211534921], a = 0.2, v = 0.2, t = 0.2)
movej(p[0.540469779607567, -0.0109415407027009, 0.18246472958738, -1.17270184519183, 1.23310228325571, -1.22816881260001], a = 0.2, v = 0.2, t = 0.2)
movej(p[0.541282141649877, -0.0109351529681093, 0.182288066591931, -1.15745033945379, 1.22944380544718, -1.23182448883549], a = 0.2, v = 0.2, t = 0.2)
movej(p[0.541646699280413, -0.0107706980754362, 0.182027111575321, -1.13326814210578, 1.22325503915944, -1.22636534558398], a = 0.2, v = 0.2, t = 0.2)
movej(p[0.541046206037732, -0.010747597291928, 0.181389366747904, -1.12253724921582, 1.1752903247704, -1.23314095200695], a = 0.2, v = 0.2, t = 0.2)
movej(p[0.539457944829445, -0.010685997493149, 0.180809653157291, -1.09723268496395, 1.13335276232862, -1.22614218822002], a = 0.2, v = 0.2, t = 0.2)
movej(p[0.537050181468569, -0.0104770728186414, 0.18053557299383, -1.11539873387625, 1.1254448404863, -1.21082602543162], a = 0.2, v = 0.2, t = 0.2)
movej(p[0.534284656497045, -0.0100931693637682, 0.180924035722076, -1.15071890296483, 1.13280944249951, -1.19577906224995], a = 0.2, v = 0.2, t = 0.2)
movej(p[0.531667737582025, -0.00975541034070483, 0.181939701734273, -1.19545603600715, 1.17658704447611, -1.16833231172033], a = 0.2, v = 0.2, t = 0.2)
movej(p[0.530045335326705, -0.00962268920922658, 0.182658577279547, -1.21524428804522, 1.18974175756329, -1.15792513505204], a = 0.2, v = 0.2, t = 0.2)
movej(p[0.530075323829762, -0.00962346109308089, 0.183090655429283, -1.23359575918622, 1.22553944224756, -1.14679569809347], a = 0.2, v = 0.2, t = 0.2)
movej(p[0.531551804409955, -0.00972124354545929, 0.183044277296296, -1.22708120488615, 1.2583650296181, -1.14350902305372], a = 0.2, v = 0.2, t = 0.2)
movej(p[0.533816047401003, -0.00996488822909038, 0.183015240663768, -1.21096384138528, 1.27579156441726, -1.15392638056787], a = 0.2, v = 0.2, t = 0.2)
movej(p[0.5359466002764, -0.010312859294397, 0.182888104354056, -1.18059718878662, 1.29572367877041, -1.16425166710826], a = 0.2, v = 0.2, t = 0.2)
movej(p[0.537840729876815, -0.0106085018803713, 0.18274285388145, -1.16482190129727, 1.27069231649434, -1.19943132466915], a = 0.2, v = 0.2, t = 0.2)
movej(p[0.539243433483903, -0.0107231585227245, 0.182403622375505, -1.16156825063503, 1.24766937847432, -1.215161927549], a = 0.2, v = 0.2, t = 0.2)
movej(p[0.540365929715901, -0.0108228430633086, 0.182269254071512, -1.15315295932387, 1.23242865690118, -1.22564797254477], a = 0.2, v = 0.2, t = 0.2)
movej(p[0.541193812111962, -0.0108556483138626, 0.182050796465947, -1.16416906431812, 1.23070303752008, -1.2285085108359], a = 0.2, v = 0.2, t = 0.2)
movej(p[0.542019022422313, -0.0109410630537764, 0.181882922400068, -1.16735380795961, 1.2297363621, -1.24444489922969], a = 0.2, v = 0.2, t = 0.2)
movej(p[0.542526169590096, -0.0109325472443144, 0.181594258354335, -1.17479651958489, 1.21168662534905, -1.25707383209915], a = 0.2, v = 0.2, t = 0.2)
movej(p[0.542116204499257, -0.0109938159562123, 0.181186161741588, -1.13983999522194, 1.18620515057398, -1.25260186163337], a = 0.2, v = 0.2, t = 0.2)
movej(p[0.540306997210747, -0.0108737732553568, 0.180745059329928, -1.11553395867631, 1.16434240349199, -1.23958751391698], a = 0.2, v = 0.2, t = 0.2)
movej(p[0.537755620827936, -0.0106015716943258, 0.180449473630833, -1.1186339674718, 1.15997125596524, -1.21729709339905], a = 0.2, v = 0.2, t = 0.2)
movej(p[0.535343244758887, -0.0102550058492573, 0.18052335895487, -1.1590245196527, 1.16686715720593, -1.19923435561219], a = 0.2, v = 0.2, t = 0.2)
movej(p[0.533171133760092, -0.00995121886888568, 0.181019035113741, -1.1892712554346, 1.16822839202957, -1.18981517384445], a = 0.2, v = 0.2, t = 0.2)
movej(p[0.531651738905634, -0.00980686546447582, 0.181665456960045, -1.20142367077057, 1.18196016463189, -1.17558058150291], a = 0.2, v = 0.2, t = 0.2)
movej(p[0.531143749321962, -0.00968650228800578, 0.182346564770184, -1.1988770949282, 1.2000353462136, -1.17274891882082], a = 0.2, v = 0.2, t = 0.2)
movej(p[0.532146115504241, -0.0097665522583099, 0.182776186833488, -1.20528080894343, 1.24556332481521, -1.15579070428999], a = 0.2, v = 0.2, t = 0.2)
movej(p[0.534136471631584, -0.0101183082412675, 0.182731353637674, -1.19869697355677, 1.27776834041235, -1.15136187525242], a = 0.2, v = 0.2, t = 0.2)
movej(p[0.536401020711317, -0.0103742883725921, 0.182613039305781, -1.18966848150181, 1.29215192469588, -1.16763542707316], a = 0.2, v = 0.2, t = 0.2)
movej(p[0.538300590643948, -0.0106270180452565, 0.182624988498114, -1.16378449343393, 1.28148352518614, -1.1901308718513], a = 0.2, v = 0.2, t = 0.2)
movej(p[0.539759521900324, -0.0105988187357666, 0.182852207994886, -1.13945430017061, 1.26994833547576, -1.19836794413837], a = 0.2, v = 0.2, t = 0.2)
movej(p[0.540904021443758, -0.0108232382560547, 0.182475706605123, -1.15094181903311, 1.25630586947647, -1.20872374853494], a = 0.2, v = 0.2, t = 0.2)
movej(p[0.541887882506976, -0.010921808304192, 0.182092618020727, -1.15175049591025, 1.23277413725351, -1.22150513787156], a = 0.2, v = 0.2, t = 0.2)
movej(p[0.542334877732122, -0.0110739718120085, 0.181595123874444, -1.15909765637142, 1.20576381384038, -1.25339781259374], a = 0.2, v = 0.2, t = 0.2)
movej(p[0.541941657858953, -0.0108367490046587, 0.181287516978197, -1.16325804628463, 1.19353782866906, -1.25537665371841], a = 0.2, v = 0.2, t = 0.2)
movej(p[0.540298738893116, -0.0106874953098315, 0.180976252333284, -1.17135690422628, 1.19760704153071, -1.236623678436], a = 0.2, v = 0.2, t = 0.2)
movej(p[0.537839290459447, -0.0104745936306421, 0.180653315724145, -1.17045502011393, 1.18888894909961, -1.20625600314194], a = 0.2, v = 0.2, t = 0.2)
movej(p[0.534806974462216, -0.0104040770108431, 0.180900525454744, -1.1533406569154, 1.19382455220527, -1.17547758543373], a = 0.2, v = 0.2, t = 0.2)
movej(p[0.531608404822339, -0.0101565633138975, 0.181331774123544, -1.16809344797234, 1.19944772074938, -1.15582310773331], a = 0.2, v = 0.2, t = 0.2)
movej(p[0.528742674479336, -0.0098241900252458, 0.182288171558915, -1.19062964318811, 1.21382985278994, -1.13980829440738], a = 0.2, v = 0.2, t = 0.2)
movej(p[0.526905471183425, -0.00958588634842116, 0.182935219867161, -1.2203391044978, 1.22368001602235, -1.12490808735339], a = 0.2, v = 0.2, t = 0.2)
movej(p[0.526760480431614, -0.00953843436495961, 0.183825265905495, -1.23067068421695, 1.2392929205063, -1.10172737885164], a = 0.2, v = 0.2, t = 0.2)
movej(p[0.528371314416538, -0.0097737453313449, 0.183933488891108, -1.23336251021394, 1.2544682367925, -1.10394309693537], a = 0.2, v = 0.2, t = 0.2)
movej(p[0.530895480890658, -0.0100226506879846, 0.183924049864638, -1.2332766616844, 1.25864155760325, -1.12391441637936], a = 0.2, v = 0.2, t = 0.2)
movej(p[0.533624071458815, -0.0102911165908962, 0.183456072355998, -1.21795759189963, 1.26863645518336, -1.15438550197278], a = 0.2, v = 0.2, t = 0.2)
movej(p[0.53584558086211, -0.0105008704693094, 0.183106092836652, -1.21192103134819, 1.26186665245819, -1.17824837399444], a = 0.2, v = 0.2, t = 0.2)
movej(p[0.537620380634268, -0.0106592991814771, 0.182915919347414, -1.1884552722075, 1.25110602250224, -1.20406652023907], a = 0.2, v = 0.2, t = 0.2)
movej(p[0.538961441252347, -0.0108418164543507, 0.182758971955784, -1.18117056872886, 1.26449992534542, -1.18645296500888], a = 0.2, v = 0.2, t = 0.2)
movej(p[0.539938156902974, -0.0109166173808495, 0.18276926961166, -1.1631573388032, 1.27479443536567, -1.1847740387736], a = 0.2, v = 0.2, t = 0.2)
movej(p[0.540911975913812, -0.0109334326836343, 0.182589377069786, -1.17065723785446, 1.26876923104176, -1.19488053119898], a = 0.2, v = 0.2, t = 0.2)
movej(p[0.541745510605072, -0.0109168415591675, 0.182306784424704, -1.16611435639451, 1.26631442522761, -1.21612287673154], a = 0.2, v = 0.2, t = 0.2)
movej(p[0.542326063891121, -0.0108606997294329, 0.181957162902037, -1.16236388730243, 1.26655194123973, -1.21915790369694], a = 0.2, v = 0.2, t = 0.2)
movej(p[0.54207782704763, -0.0107228537647718, 0.181320624197747, -1.16701571334982, 1.25704452180577, -1.20255813246294], a = 0.2, v = 0.2, t = 0.2)
movej(p[0.540654230513867, -0.0106148446307775, 0.180870986963819, -1.15904720204147, 1.20111866879486, -1.22084450790798], a = 0.2, v = 0.2, t = 0.2)
movej(p[0.53846528190174, -0.0103557306697535, 0.180412119399952, -1.16229448765436, 1.14589670504465, -1.23092218073097], a = 0.2, v = 0.2, t = 0.2)
movej(p[0.535964514656475, -0.0101639045341649, 0.180507680147429, -1.16263662137558, 1.13943847134829, -1.21726756238132], a = 0.2, v = 0.2, t = 0.2)
movej(p[0.533569989237279, -0.00989058519389025, 0.181135342715707, -1.17645246513693, 1.14598648484291, -1.19187031533151], a = 0.2, v = 0.2, t = 0.2)
movej(p[0.531352272969305, -0.00981887472152593, 0.181976814547273, -1.18377048865024, 1.17029530693351, -1.1564454273812], a = 0.2, v = 0.2, t = 0.2)
movej(p[0.530214456575042, -0.00992539227681706, 0.18279009143214, -1.1821473014596, 1.19758886291848, -1.13421049101661], a = 0.2, v = 0.2, t = 0.2)
movej(p[0.530455803717022, -0.0100049481468857, 0.183145592305158, -1.18986460689974, 1.22821909978579, -1.12688714403508], a = 0.2, v = 0.2, t = 0.2)
movej(p[0.532148783817016, -0.0101226442024749, 0.182934530982836, -1.21455919195729, 1.24724542260235, -1.14152312341228], a = 0.2, v = 0.2, t = 0.2)
movej(p[0.534381283777344, -0.010253710953329, 0.182781175749216, -1.22593406362802, 1.24304709439306, -1.16846179367961], a = 0.2, v = 0.2, t = 0.2)
movej(p[0.53648422451005, -0.0105290355854274, 0.182424257525686, -1.20718597221079, 1.24852215006145, -1.18460804087012], a = 0.2, v = 0.2, t = 0.2)
movej(p[0.538153179825311, -0.0106822952810347, 0.182231051774574, -1.18800878801375, 1.2497946891915, -1.20150506141028], a = 0.2, v = 0.2, t = 0.2)
movej(p[0.539406769055249, -0.0108523059834625, 0.182207634222501, -1.15666080126952, 1.26383623877681, -1.20253657827672], a = 0.2, v = 0.2, t = 0.2)
movej(p[0.540477461283348, -0.0108643658333572, 0.182045824665591, -1.16190506491507, 1.25800763232832, -1.21971350385197], a = 0.2, v = 0.2, t = 0.2)
movej(p[0.541400939125341, -0.0110419245643944, 0.181885967277644, -1.16492600015698, 1.26418712811904, -1.22491104519385], a = 0.2, v = 0.2, t = 0.2)
movej(p[0.542123486762731, -0.0110609619398146, 0.18145094311919, -1.19069550245002, 1.25108619320091, -1.24284260822358], a = 0.2, v = 0.2, t = 0.2)
movej(p[0.54257708505808, -0.0111041721008037, 0.181336342839767, -1.18090019998297, 1.25782634338586, -1.23563323976166], a = 0.2, v = 0.2, t = 0.2)
movej(p[0.542243907907302, -0.0109001443861582, 0.18103637284134, -1.15976200924935, 1.22761094372252, -1.23801999706793], a = 0.2, v = 0.2, t = 0.2)
movej(p[0.541089520603881, -0.0107329512269884, 0.180732587135903, -1.13675202794621, 1.18455829782456, -1.24926671740129], a = 0.2, v = 0.2, t = 0.2)
movej(p[0.538994131329694, -0.0106092486178203, 0.180254361602804, -1.12265981905122, 1.16522386850369, -1.23215565471068], a = 0.2, v = 0.2, t = 0.2)
movej(p[0.5364959805522, -0.0104466104390678, 0.180422832318709, -1.12828942018387, 1.16782041515986, -1.21264568111968], a = 0.2, v = 0.2, t = 0.2)
movej(p[0.534034043876088, -0.0101845124471863, 0.180775122279587, -1.15341028307308, 1.19900638949523, -1.18408355908282], a = 0.2, v = 0.2, t = 0.2)
movej(p[0.53173784747592, -0.00982442316860966, 0.181305094773421, -1.18500715295939, 1.20431997858511, -1.17240766207515], a = 0.2, v = 0.2, t = 0.2)
movej(p[0.530517814827664, -0.00959460949612515, 0.181942426708937, -1.21585753805159, 1.21880090933394, -1.15174074818286], a = 0.2, v = 0.2, t = 0.2)
movej(p[0.530716405096788, -0.00969547621675872, 0.182656378458411, -1.22608242768363, 1.24423365866154, -1.12988629631618], a = 0.2, v = 0.2, t = 0.2)
movej(p[0.532429540139845, -0.00985657519901308, 0.183234546223138, -1.24237560169576, 1.26393987652523, -1.14132108499087], a = 0.2, v = 0.2, t = 0.2)
movej(p[0.534503191542221, -0.0101885063953048, 0.183261113200375, -1.22924354671601, 1.27372094467002, -1.15563996105962], a = 0.2, v = 0.2, t = 0.2)
movej(p[0.536454358170101, -0.0104408145929443, 0.183229318039388, -1.20682319310134, 1.2685491648716, -1.17634051315568], a = 0.2, v = 0.2, t = 0.2)
movej(p[0.538103688677516, -0.0106788897445423, 0.183093724407159, -1.18060082764069, 1.27079045557712, -1.17719803750594], a = 0.2, v = 0.2, t = 0.2)
movej(p[0.539453142793192, -0.010806294817634, 0.182774258294658, -1.17286436180189, 1.251948286201, -1.19391544016265], a = 0.2, v = 0.2, t = 0.2)
movej(p[0.54038113331181, -0.0109284405425725, 0.182401920492074, -1.16687967112098, 1.24004213051193, -1.19942055423925], a = 0.2, v = 0.2, t = 0.2)
movej(p[0.541085778799479, -0.0110446171358046, 0.181831140080363, -1.1709237419129, 1.23195558159472, -1.21051108903781], a = 0.2, v = 0.2, t = 0.2)
movej(p[0.541704017371569, -0.01109064752802, 0.181623701349474, -1.18119688027829, 1.25064112799896, -1.2204824643355], a = 0.2, v = 0.2, t = 0.2)
movej(p[0.542388614585415, -0.0110862293168769, 0.181275989268717, -1.19676839554779, 1.25209722596616, -1.2336884246723], a = 0.2, v = 0.2, t = 0.2)
movej(p[0.543073729363937, -0.0110302098004767, 0.18097157484982, -1.18356342427526, 1.25219864276737, -1.23312251654513], a = 0.2, v = 0.2, t = 0.2)
movej(p[0.542912856503288, -0.0109827170258248, 0.180594218755974, -1.15300489664706, 1.24489511496292, -1.22395561814667], a = 0.2, v = 0.2, t = 0.2)
movej(p[0.541593312165673, -0.0108720147545416, 0.180233079643996, -1.11897574410389, 1.25159769313743, -1.20781488739704], a = 0.2, v = 0.2, t = 0.2)
movej(p[0.539333394103125, -0.0106623710463417, 0.179978123749222, -1.11775429556463, 1.20993933071229, -1.22158823447584], a = 0.2, v = 0.2, t = 0.2)
movej(p[0.536702397839504, -0.0103509459331036, 0.180175959494363, -1.13445340302293, 1.16871273990117, -1.21195514168373], a = 0.2, v = 0.2, t = 0.2)
movej(p[0.534236888856537, -0.0100669655660244, 0.1807559737044, -1.16591369430242, 1.12950944527101, -1.21465126537034], a = 0.2, v = 0.2, t = 0.2)
movej(p[0.531683703179093, -0.00983157547324498, 0.181493252701129, -1.18052362304754, 1.15119520411162, -1.1736474914838], a = 0.2, v = 0.2, t = 0.2)
movej(p[0.529901277086763, -0.00972696310354788, 0.182036473188121, -1.2214043577059, 1.17099464857854, -1.17611453877344], a = 0.2, v = 0.2, t = 0.2)
movej(p[0.529447270442219, -0.00960894009031757, 0.182621051467445, -1.2424079162564, 1.23590932762668, -1.15003365433077], a = 0.2, v = 0.2, t = 0.2)
movej(p[0.530779289782992, -0.00967338198307274, 0.182720739654632, -1.25365380004477, 1.27125582852117, -1.15848372592697], a = 0.2, v = 0.2, t = 0.2)
movej(p[0.533203667934129, -0.00996586503207024, 0.182897333359048, -1.23109951136522, 1.30924120468637, -1.14656155184478], a = 0.2, v = 0.2, t = 0.2)
movej(p[0.53567052633484, -0.010285081835514, 0.182815869284528, -1.2145038965993, 1.29126105294409, -1.18108848809118], a = 0.2, v = 0.2, t = 0.2)
movej(p[0.53766575637547, -0.0106021657922801, 0.182811233518148, -1.19851081412986, 1.28830797152078, -1.18537642981003], a = 0.2, v = 0.2, t = 0.2)
movej(p[0.539127236785877, -0.0107819006389085, 0.182647809142661, -1.18307653440327, 1.28079369995553, -1.20306650866987], a = 0.2, v = 0.2, t = 0.2)
movej(p[0.540211963820463, -0.0108225205569327, 0.182363151510409, -1.17707660842105, 1.25607489056478, -1.22199048171434], a = 0.2, v = 0.2, t = 0.2)
movej(p[0.541194740985161, -0.0108596992142937, 0.181964009617863, -1.17111792172103, 1.24110601693044, -1.23969298056731], a = 0.2, v = 0.2, t = 0.2)
movej(p[0.542053796305279, -0.010889517714751, 0.181616479566634, -1.15762625970844, 1.22704757531276, -1.24308410225742], a = 0.2, v = 0.2, t = 0.2)
movej(p[0.542848697392767, -0.0110139771645558, 0.181408552390527, -1.12982058071582, 1.26952297630147, -1.20892697054767], a = 0.2, v = 0.2, t = 0.2)
movej(p[0.543458222507596, -0.0109957310229362, 0.181445371856964, -1.11783783126483, 1.27101922765001, -1.21177997825826], a = 0.2, v = 0.2, t = 0.2)
movej(p[0.54364067155737, -0.0109945174082595, 0.181304675239108, -1.11920022844717, 1.2346890244269, -1.23690912843022], a = 0.2, v = 0.2, t = 0.2)
movej(p[0.542951030997133, -0.0109391630833026, 0.180972110550686, -1.12430741332576, 1.16413905611768, -1.2690047161769], a = 0.2, v = 0.2, t = 0.2)
movej(p[0.541294039747637, -0.0108447311644838, 0.180564555064526, -1.114776063206, 1.1326015543837, -1.26842266369751], a = 0.2, v = 0.2, t = 0.2)
movej(p[0.538968280039153, -0.0105680982386653, 0.180542329474576, -1.12778102764084, 1.1351813058577, -1.24188484745299], a = 0.2, v = 0.2, t = 0.2)
movej(p[0.536604199838694, -0.0103109981817384, 0.180626207892692, -1.13220343550438, 1.16811850137162, -1.2034396289559], a = 0.2, v = 0.2, t = 0.2)
movej(p[0.534564723023566, -0.0101121538320151, 0.181070616515248, -1.14560138045156, 1.19216837561244, -1.17001957721155], a = 0.2, v = 0.2, t = 0.2)
movej(p[0.533221725626818, -0.0100482501726363, 0.181371214104616, -1.14467765903925, 1.2288654844851, -1.14497452346957], a = 0.2, v = 0.2, t = 0.2)
movej(p[0.532942066967319, -0.0101158438200529, 0.182144228173029, -1.16103259508153, 1.24960671538275, -1.12878008962479], a = 0.2, v = 0.2, t = 0.2)
movej(p[0.533840638288789, -0.0101080997025716, 0.182334639372189, -1.19057734667297, 1.26090267755422, -1.15871811848311], a = 0.2, v = 0.2, t = 0.2)
movej(p[0.53550965105578, -0.0103254105877942, 0.182233586117309, -1.19263497023511, 1.2646929042541, -1.18633580670632], a = 0.2, v = 0.2, t = 0.2)
movej(p[0.537345896808258, -0.0104478962223735, 0.181568865536967, -1.19914441586644, 1.27417288034608, -1.19996585120896], a = 0.2, v = 0.2, t = 0.2)
movej(p[0.538945498999811, -0.0107950262718752, 0.18123957874341, -1.18676350092486, 1.26036076361186, -1.21277746763326], a = 0.2, v = 0.2, t = 0.2)
movej(p[0.540259297677456, -0.0108485796040926, 0.180968441881976, -1.17914775708576, 1.25131803624006, -1.20764439772943], a = 0.2, v = 0.2, t = 0.2)
movej(p[0.541333258971279, -0.0110586416645731, 0.180925630625106, -1.17411910548911, 1.24158246641516, -1.22135824619396], a = 0.2, v = 0.2, t = 0.2)
movej(p[0.542196566424642, -0.0110852246652432, 0.181139013743097, -1.1505338299354, 1.26800113685265, -1.19762008614373], a = 0.2, v = 0.2, t = 0.2)
movej(p[0.542914020832503, -0.011095306864444, 0.181235052676875, -1.16174287646605, 1.25350013755571, -1.21368239022026], a = 0.2, v = 0.2, t = 0.2)
movej(p[0.543192224388925, -0.0111151945891774, 0.181307100835763, -1.14579389738533, 1.21521611714509, -1.22866758733312], a = 0.2, v = 0.2, t = 0.2)
movej(p[0.542470299852917, -0.0110489676883143, 0.180747124260884, -1.14317085650527, 1.17327825902225, -1.24053594965832], a = 0.2, v = 0.2, t = 0.2)
movej(p[0.540590610182025, -0.0109278492612929, 0.180457622980443, -1.12631937878491, 1.16388620799793, -1.2212228143134], a = 0.2, v = 0.2, t = 0.2)
movej(p[0.538026281297054, -0.010703219115088, 0.180282369343905, -1.13659988758964, 1.18801269301462, -1.18989105915925], a = 0.2, v = 0.2, t = 0.2)
movej(p[0.535565305201913, -0.0103918695251515, 0.180680468802949, -1.14068979573524, 1.18184245965911, -1.17160616587034], a = 0.2, v = 0.2, t = 0.2)
movej(p[0.533328995198152, -0.010169057602907, 0.181349020425489, -1.15629415525472, 1.20337810230539, -1.15322838153852], a = 0.2, v = 0.2, t = 0.2)
movej(p[0.531507743375028, -0.00995001778870699, 0.181868127053628, -1.17440617917329, 1.20327577466853, -1.14591976668537], a = 0.2, v = 0.2, t = 0.2)
movej(p[0.530620961255178, -0.00988787884259464, 0.182332099481032, -1.20353052196699, 1.21555691674919, -1.14141510575965], a = 0.2, v = 0.2, t = 0.2)
movej(p[0.53086483464058, -0.00994914722990151, 0.18252475891685, -1.23559706810697, 1.19955418937014, -1.17065517367324], a = 0.2, v = 0.2, t = 0.2)
movej(p[0.532516665241218, -0.0099907462239504, 0.182633591634772, -1.22292675799541, 1.21766469805863, -1.18076330308908], a = 0.2, v = 0.2, t = 0.2)
movej(p[0.534737056307289, -0.0101929713066971, 0.182327103961117, -1.20897689241156, 1.24888234773802, -1.18601025457053], a = 0.2, v = 0.2, t = 0.2)
movej(p[0.536875336572788, -0.0103877801410112, 0.182291348907818, -1.19390029175925, 1.26165720402842, -1.17747381006869], a = 0.2, v = 0.2, t = 0.2)
movej(p[0.538436985311708, -0.0106372719000393, 0.182115316727786, -1.18819654392356, 1.25438579767986, -1.19445132807242], a = 0.2, v = 0.2, t = 0.2)
movej(p[0.539562121396802, -0.0108162217821375, 0.182077772224639, -1.18839560355684, 1.23961886266395, -1.21323554739681], a = 0.2, v = 0.2, t = 0.2)
movej(p[0.540556543574107, -0.0109619935543252, 0.181661336428727, -1.18643231174951, 1.24635842701665, -1.23061108115584], a = 0.2, v = 0.2, t = 0.2)
movej(p[0.541493015713416, -0.0111230093944798, 0.181382116439441, -1.18809502159504, 1.25939013422977, -1.23248610137321], a = 0.2, v = 0.2, t = 0.2)
movej(p[0.542373244748075, -0.0111757340991755, 0.181050042947336, -1.19333686561291, 1.2561114631729, -1.24111985615971], a = 0.2, v = 0.2, t = 0.2)
movej(p[0.543114921737485, -0.0111814021034798, 0.180819185530069, -1.18103810839847, 1.24290227497164, -1.2466625955198], a = 0.2, v = 0.2, t = 0.2)
movej(p[0.543118549997006, -0.0110761013477048, 0.180538274631444, -1.17257404433414, 1.20389869488732, -1.26022461775766], a = 0.2, v = 0.2, t = 0.2)
movej(p[0.542152783343144, -0.0109806208713282, 0.180086141759581, -1.13905662223882, 1.16857701403173, -1.27059099329547], a = 0.2, v = 0.2, t = 0.2)
movej(p[0.540100132790843, -0.0108550033648919, 0.179787044861044, -1.10869726661275, 1.13598635089684, -1.26032808741544], a = 0.2, v = 0.2, t = 0.2)
movej(p[0.537432899113008, -0.0106075972449545, 0.179729974980693, -1.10373501677323, 1.13165772558802, -1.24289737944498], a = 0.2, v = 0.2, t = 0.2)
movej(p[0.534650688833231, -0.0103627166995383, 0.180215616356792, -1.11852813990597, 1.15399689346001, -1.20540901761734], a = 0.2, v = 0.2, t = 0.2)
movej(p[0.532048479441651, -0.00998494208931873, 0.180801259573816, -1.168863570959, 1.18481379723388, -1.17356673106524], a = 0.2, v = 0.2, t = 0.2)
movej(p[0.530129209075332, -0.00988835837648537, 0.181726472397702, -1.18200287647337, 1.21045044517806, -1.1340365611094], a = 0.2, v = 0.2, t = 0.2)
movej(p[0.529594645088565, -0.00983665340730583, 0.182341643637776, -1.1994643700638, 1.22316450103445, -1.13708001041293], a = 0.2, v = 0.2, t = 0.2)
movej(p[0.530609513742473, -0.00999283986264735, 0.18286482390293, -1.18444098767153, 1.22925300465949, -1.1618203129245], a = 0.2, v = 0.2, t = 0.2)
movej(p[0.532796317855111, -0.0101538805862846, 0.182801988219041, -1.1887902076914, 1.23562407289507, -1.19606759759682], a = 0.2, v = 0.2, t = 0.2)
movej(p[0.535152619630042, -0.0103320166553885, 0.182877039869032, -1.19285523074524, 1.22576804533941, -1.20978467677036], a = 0.2, v = 0.2, t = 0.2)
movej(p[0.53731130083236, -0.0106254949603925, 0.182686480176414, -1.20349090330638, 1.24868134870491, -1.21118408452581], a = 0.2, v = 0.2, t = 0.2)
movej(p[0.539002457080806, -0.0107453257937307, 0.182657236592075, -1.18328546511152, 1.26935587133612, -1.19498452069405], a = 0.2, v = 0.2, t = 0.2)
movej(p[0.540334375710265, -0.0109040305870566, 0.182281281968917, -1.16860329430039, 1.29456683453762, -1.18904983559201], a = 0.2, v = 0.2, t = 0.2)
movej(p[0.541362860108083, -0.0108636252467675, 0.182136651637305, -1.13488970645915, 1.3001624288604, -1.17807302572306], a = 0.2, v = 0.2, t = 0.2)
movej(p[0.542281483391731, -0.010991206854338, 0.181871502640988, -1.13420314718379, 1.26266592503537, -1.20344474580236], a = 0.2, v = 0.2, t = 0.2)
movej(p[0.543171021812831, -0.0110936425187212, 0.181647984507161, -1.13754107892081, 1.23263441003612, -1.23773760169655], a = 0.2, v = 0.2, t = 0.2)
movej(p[0.543879914515416, -0.0111821792816709, 0.181472445612813, -1.16169313619962, 1.2130694185323, -1.2598203924318], a = 0.2, v = 0.2, t = 0.2)
movej(p[0.543815161725723, -0.0111064936127911, 0.181207919757265, -1.17038655638578, 1.19279275711767, -1.26782942804443], a = 0.2, v = 0.2, t = 0.2)
movej(p[0.54248419498486, -0.0108685448950282, 0.180931143496485, -1.15115669968293, 1.20128313350365, -1.24179945962748], a = 0.2, v = 0.2, t = 0.2)
movej(p[0.540191289303693, -0.0107038937380591, 0.180347478701692, -1.14612334854013, 1.18464063228002, -1.21230823391841], a = 0.2, v = 0.2, t = 0.2)
movej(p[0.537310465835565, -0.0105422916820845, 0.179981998098943, -1.16813642025502, 1.17189214647877, -1.19799490164311], a = 0.2, v = 0.2, t = 0.2)
movej(p[0.534414840504811, -0.010264251743404, 0.180317820926625, -1.19671052106885, 1.14551706710479, -1.19618054854809], a = 0.2, v = 0.2, t = 0.2)
movej(p[0.531631703394274, -0.0100059302894354, 0.181005140509457, -1.19041461912519, 1.14796652361045, -1.18017340969811], a = 0.2, v = 0.2, t = 0.2)
movej(p[0.529299778772973, -0.00978719940241231, 0.181845145755677, -1.19985058967246, 1.20071955127255, -1.1421973748223], a = 0.2, v = 0.2, t = 0.2)
movej(p[0.528324002972965, -0.00981124954558603, 0.182572258553758, -1.20379515134707, 1.24656975610568, -1.09961316935272], a = 0.2, v = 0.2, t = 0.2)
movej(p[0.529014526524911, -0.00996859345998258, 0.182977369596821, -1.20563501967699, 1.26825517243942, -1.09396301474905], a = 0.2, v = 0.2, t = 0.2)
movej(p[0.531231004821972, -0.0100777118449656, 0.183406387093099, -1.19373470418674, 1.26025950881902, -1.11216247695782], a = 0.2, v = 0.2, t = 0.2)
movej(p[0.533815687494367, -0.0102499039058297, 0.18339050672469, -1.17405555638659, 1.26184980390184, -1.12775804420522], a = 0.2, v = 0.2, t = 0.2)
movej(p[0.536178281486285, -0.0104865623478505, 0.183141144176628, -1.15699058860383, 1.25425536058406, -1.15117936414802], a = 0.2, v = 0.2, t = 0.2)
movej(p[0.538197066204782, -0.0105776726820489, 0.182787909201909, -1.13673521957398, 1.25901862981511, -1.18345774061935], a = 0.2, v = 0.2, t = 0.2)
movej(p[0.53983725554841, -0.0106720589233081, 0.182249423281008, -1.15741800121951, 1.25114805644729, -1.22895881590494], a = 0.2, v = 0.2, t = 0.2)
movej(p[0.541146841937031, -0.0106977469091449, 0.18210637769169, -1.17043145955302, 1.25465550654286, -1.24768340061707], a = 0.2, v = 0.2, t = 0.2)
movej(p[0.542171450470085, -0.010866310581163, 0.181955054044931, -1.17618827646366, 1.24499680002519, -1.24983294163549], a = 0.2, v = 0.2, t = 0.2)
movej(p[0.543114358927279, -0.0110492301622328, 0.182041913726682, -1.16876075711647, 1.2519734073467, -1.23844201426768], a = 0.2, v = 0.2, t = 0.2)
movej(p[0.543618108315502, -0.0110650456604491, 0.181689548058829, -1.14307025325318, 1.2342771393302, -1.23463406227685], a = 0.2, v = 0.2, t = 0.2)
movej(p[0.543277572350732, -0.0110711225235482, 0.181172615014776, -1.15350102595861, 1.19832508422947, -1.25187744830375], a = 0.2, v = 0.2, t = 0.2)
movej(p[0.541628888596803, -0.0108851845233208, 0.180641163004522, -1.13066295863758, 1.17643060502809, -1.24627871503337], a = 0.2, v = 0.2, t = 0.2)
movej(p[0.538967390871651, -0.0107594791105798, 0.180187503312003, -1.12869035964412, 1.16055598226924, -1.22643503733739], a = 0.2, v = 0.2, t = 0.2)
movej(p[0.53609106686407, -0.0105268610521107, 0.18030418091176, -1.11554098128067, 1.19141098766504, -1.17914068817111], a = 0.2, v = 0.2, t = 0.2)
movej(p[0.533350490032789, -0.0102517323283974, 0.181009776571919, -1.13258393039264, 1.18096987095205, -1.16516051288099], a = 0.2, v = 0.2, t = 0.2)
movej(p[0.53116149469057, -0.00988849615670125, 0.181770406434479, -1.17929871671962, 1.20955768695808, -1.15395632186053], a = 0.2, v = 0.2, t = 0.2)
movej(p[0.52980096716921, -0.00970106759410875, 0.18233690656082, -1.22312918636703, 1.23329491756887, -1.15871772339651], a = 0.2, v = 0.2, t = 0.2)
movej(p[0.530133246321896, -0.00976945957360218, 0.182576256689986, -1.24404877421946, 1.2843038331074, -1.12726900865971], a = 0.2, v = 0.2, t = 0.2)
movej(p[0.53184567289678, -0.00996314593647473, 0.18299142927105, -1.22943267065321, 1.30220623887518, -1.12458432546392], a = 0.2, v = 0.2, t = 0.2)
movej(p[0.53421681933609, -0.0101392420077341, 0.183136497045107, -1.21417723475536, 1.30276723823318, -1.13411733778658], a = 0.2, v = 0.2, t = 0.2)
movej(p[0.53652187239372, -0.0102979084260317, 0.183010748134856, -1.20046731169285, 1.29710568497844, -1.16986597258719], a = 0.2, v = 0.2, t = 0.2)
movej(p[0.538450133346442, -0.0104962688704298, 0.18260984538704, -1.2095151365519, 1.28099470183273, -1.19544083917803], a = 0.2, v = 0.2, t = 0.2)
movej(p[0.539967473469276, -0.0108529232323789, 0.182350705390434, -1.1994515798221, 1.28516035247735, -1.21603319714001], a = 0.2, v = 0.2, t = 0.2)
movej(p[0.541146713142456, -0.0109441195002276, 0.182432156212583, -1.18224984306808, 1.27869433495926, -1.21937939661546], a = 0.2, v = 0.2, t = 0.2)
movej(p[0.542168807200225, -0.011028438167445, 0.182114292166281, -1.15293327745542, 1.27294099982794, -1.23589846272322], a = 0.2, v = 0.2, t = 0.2)
movej(p[0.542970806843564, -0.0108653825229651, 0.182089949231227, -1.15173332982788, 1.2487110919034, -1.24323592739429], a = 0.2, v = 0.2, t = 0.2)
movej(p[0.543185193686709, -0.0108449222590485, 0.18159833168731, -1.14897245779771, 1.22339015986875, -1.25201632732156], a = 0.2, v = 0.2, t = 0.2)
movej(p[0.542350183670654, -0.0108452505337319, 0.181460122646638, -1.14347371829186, 1.20511084422111, -1.24865798690975], a = 0.2, v = 0.2, t = 0.2)
movej(p[0.540344271910597, -0.0106552150034612, 0.181019539469244, -1.13883040638742, 1.18867157452645, -1.22992184105048], a = 0.2, v = 0.2, t = 0.2)
movej(p[0.537690905150016, -0.0104855418217807, 0.180689312188634, -1.14391564797373, 1.17559501126524, -1.20491117959183], a = 0.2, v = 0.2, t = 0.2)
movej(p[0.534929569080532, -0.0102714236155646, 0.18075417714597, -1.14386935241706, 1.16043057810109, -1.1822356925151], a = 0.2, v = 0.2, t = 0.2)
movej(p[0.532689669843846, -0.0102261940040672, 0.180993325362971, -1.15105946918635, 1.17086029052964, -1.16127235066613], a = 0.2, v = 0.2, t = 0.2)
movej(p[0.531202144402927, -0.0101361985747301, 0.181408901091763, -1.17459540749084, 1.20795577705364, -1.14532405211692], a = 0.2, v = 0.2, t = 0.2)
movej(p[0.53091468724837, -0.0100803075039621, 0.181964306504991, -1.19759292766836, 1.24879016519521, -1.12265969908775], a = 0.2, v = 0.2, t = 0.2)
movej(p[0.531901396928033, -0.0100669913006161, 0.182323589330202, -1.20368993264349, 1.27449293477324, -1.13180074045274], a = 0.2, v = 0.2, t = 0.2)
movej(p[0.53385724292365, -0.010216436748475, 0.18237662240995, -1.18556109462182, 1.28660889572962, -1.14541893673971], a = 0.2, v = 0.2, t = 0.2)
movej(p[0.536207697328945, -0.0104387855076585, 0.182133154385934, -1.19362689405167, 1.29632874151971, -1.17366298663637], a = 0.2, v = 0.2, t = 0.2)
movej(p[0.538140652143222, -0.0106364535453225, 0.182018147735043, -1.17856518258627, 1.28301612074527, -1.19288129085911], a = 0.2, v = 0.2, t = 0.2)
movej(p[0.539683580617474, -0.0107781428327529, 0.181773900539009, -1.19674086968156, 1.27322780482316, -1.218100583187], a = 0.2, v = 0.2, t = 0.2)
movej(p[0.540824862141751, -0.0108225564172767, 0.182034221307971, -1.1687243449148, 1.27111407316807, -1.21342377187879], a = 0.2, v = 0.2, t = 0.2)
movej(p[0.541744303745591, -0.0108590265351896, 0.181999006457018, -1.16440386118151, 1.28074221704954, -1.21638976839055], a = 0.2, v = 0.2, t = 0.2)
movej(p[0.542667136826097, -0.0109242067902113, 0.181989906705399, -1.15293448609971, 1.27511703973926, -1.21627837204577], a = 0.2, v = 0.2, t = 0.2)
movej(p[0.543384765748998, -0.0110299142521377, 0.181451593035121, -1.15007068122684, 1.26780363492007, -1.22323658545954], a = 0.2, v = 0.2, t = 0.2)
movej(p[0.544005334195963, -0.0110898199078573, 0.181251519298853, -1.15054226622838, 1.2473410154328, -1.24321026641112], a = 0.2, v = 0.2, t = 0.2)
movej(p[0.544091052199766, -0.0110562684163592, 0.181233974460797, -1.15367901621615, 1.25634356370665, -1.22682128955157], a = 0.2, v = 0.2, t = 0.2)
movej(p[0.543540809483827, -0.0110073588966871, 0.180956232336981, -1.15539954368493, 1.23036082628261, -1.23325459128417], a = 0.2, v = 0.2, t = 0.2)
movej(p[0.541966711283548, -0.0108465449141055, 0.180487814103578, -1.16291313146829, 1.21914958455934, -1.22183394054046], a = 0.2, v = 0.2, t = 0.2)
movej(p[0.539601671801313, -0.0106904006646899, 0.180223165637784, -1.15464385799751, 1.19971457411971, -1.21182388299424], a = 0.2, v = 0.2, t = 0.2)
movej(p[0.537018593599234, -0.0104404369219814, 0.180622847260293, -1.15112225543124, 1.21334233219053, -1.18969453817442], a = 0.2, v = 0.2, t = 0.2)
movej(p[0.534923475216979, -0.0101609828312948, 0.181140785713902, -1.15736989686796, 1.22281307934995, -1.1711687835049], a = 0.2, v = 0.2, t = 0.2)
movej(p[0.533933760664804, -0.0100309250309612, 0.181713240440115, -1.15919912664288, 1.2509946245992, -1.15834126819622], a = 0.2, v = 0.2, t = 0.2)
movej(p[0.53425927108016, -0.0100596129836744, 0.181759384940684, -1.1658160123411, 1.26221171654877, -1.16606218837376], a = 0.2, v = 0.2, t = 0.2)
movej(p[0.535830113483797, -0.0103264638609333, 0.182036671187084, -1.19014039244357, 1.2819298787413, -1.17192945337967], a = 0.2, v = 0.2, t = 0.2)
movej(p[0.537899220420965, -0.0104240849224401, 0.181760181641142, -1.20448112720443, 1.28087588983251, -1.20051017420426], a = 0.2, v = 0.2, t = 0.2)
movej(p[0.539948222210282, -0.010557119671618, 0.181559389751407, -1.22108642739129, 1.21311412822976, -1.25522720626258], a = 0.2, v = 0.2, t = 0.2)
movej(p[0.541486449115859, -0.0107179357045576, 0.181357721898466, -1.20128355097042, 1.19865730130634, -1.27286161620607], a = 0.2, v = 0.2, t = 0.2)
movej(p[0.542679458526782, -0.0108912801671059, 0.181456554401492, -1.18301931909958, 1.21901616321291, -1.26136139837462], a = 0.2, v = 0.2, t = 0.2)
movej(p[0.543461813967333, -0.010997893800447, 0.181549639257001, -1.16087078332344, 1.26403724383595, -1.23452277691121], a = 0.2, v = 0.2, t = 0.2)
movej(p[0.544012432941951, -0.0110751386129548, 0.181416406160019, -1.13222391747635, 1.28965925900507, -1.20232702587927], a = 0.2, v = 0.2, t = 0.2)
movej(p[0.544429186163045, -0.0113278745810041, 0.18136904799745, -1.11499251344573, 1.27800756781859, -1.19733949158259], a = 0.2, v = 0.2, t = 0.2)
movej(p[0.544710846246435, -0.0113767710356379, 0.181239988847641, -1.11104452023953, 1.29755345702053, -1.18412451187967], a = 0.2, v = 0.2, t = 0.2)
movej(p[0.544314847042823, -0.0112781935678764, 0.181157373028402, -1.12093283422361, 1.29152003736466, -1.17530869400459], a = 0.2, v = 0.2, t = 0.2)
movej(p[0.543019450468685, -0.0110098826225616, 0.180600610883554, -1.13800974550968, 1.28449055996569, -1.17738195745738], a = 0.2, v = 0.2, t = 0.2)
movej(p[0.540538410675463, -0.0106799217133301, 0.180057381435778, -1.1423320026268, 1.25551346913182, -1.18450591617573], a = 0.2, v = 0.2, t = 0.2)
movej(p[0.537635489990309, -0.0105009637924307, 0.179571932266094, -1.16938332710078, 1.21677391312755, -1.20848575545738], a = 0.2, v = 0.2, t = 0.2)
movej(p[0.534452086761659, -0.0102763138112364, 0.17989083760216, -1.17745411041701, 1.17521890368636, -1.20713672136795], a = 0.2, v = 0.2, t = 0.2)
movej(p[0.531441350490501, -0.0101231147804147, 0.180725936215481, -1.20324086801249, 1.15760035532974, -1.18573327740767], a = 0.2, v = 0.2, t = 0.2)
movej(p[0.529146086576864, -0.00984862045492785, 0.181580046023382, -1.21480747070665, 1.18943082637743, -1.15665568007297], a = 0.2, v = 0.2, t = 0.2)
movej(p[0.52839919477169, -0.00975272529601233, 0.182286278806719, -1.23002919152701, 1.24901347687185, -1.12665942109067], a = 0.2, v = 0.2, t = 0.2)
movej(p[0.529366345585959, -0.00984797908242644, 0.182656122366934, -1.2294245645557, 1.28233675629398, -1.12321983791443], a = 0.2, v = 0.2, t = 0.2)
movej(p[0.531398943638662, -0.0101354459902663, 0.183059400865334, -1.22150184002057, 1.30024333117308, -1.1256911833346], a = 0.2, v = 0.2, t = 0.2)
movej(p[0.533817661480196, -0.0104013825560839, 0.183010130570736, -1.20388062008315, 1.28579014526729, -1.14626277468248], a = 0.2, v = 0.2, t = 0.2)
movej(p[0.536113405154804, -0.0106039204535508, 0.182968854070295, -1.17426440289068, 1.31200747270203, -1.14515034248345], a = 0.2, v = 0.2, t = 0.2)
movej(p[0.538100685107675, -0.0107502079924361, 0.182702197937829, -1.16120997420952, 1.30048706924785, -1.16925662650942], a = 0.2, v = 0.2, t = 0.2)
movej(p[0.539677417531129, -0.0108817537068234, 0.18250991935775, -1.16731775005148, 1.29542782137332, -1.19585822427207], a = 0.2, v = 0.2, t = 0.2)
movej(p[0.540944960739299, -0.0111444068946362, 0.182278985629698, -1.15736168900256, 1.25133992671022, -1.22424412700804], a = 0.2, v = 0.2, t = 0.2)
movej(p[0.541888706183535, -0.011082533965624, 0.181962472268149, -1.14206168514799, 1.24831423967361, -1.23119050017438], a = 0.2, v = 0.2, t = 0.2)
movej(p[0.542631383709582, -0.0111152627879656, 0.181980215452558, -1.11972353776807, 1.23512549610147, -1.24424634567178], a = 0.2, v = 0.2, t = 0.2)
movej(p[0.542620894003979, -0.0109018163835818, 0.181665858563924, -1.12963882924664, 1.21757699285377, -1.24848456619838], a = 0.2, v = 0.2, t = 0.2)
movej(p[0.541158294630853, -0.0109325589693528, 0.181275574783002, -1.11358253238849, 1.18717070464038, -1.25224362859061], a = 0.2, v = 0.2, t = 0.2)
movej(p[0.538685199522625, -0.0107131086311068, 0.180498779677261, -1.09010228679987, 1.16097924236954, -1.2402039853641], a = 0.2, v = 0.2, t = 0.2)
movej(p[0.535559196504495, -0.0104619421583748, 0.180224288137106, -1.10787577019143, 1.16776690486899, -1.22162814629392], a = 0.2, v = 0.2, t = 0.2)
movej(p[0.532643911211581, -0.0101276325382644, 0.180695018103252, -1.14763889978124, 1.19255899574803, -1.1845362045598], a = 0.2, v = 0.2, t = 0.2)
movej(p[0.530059888564089, -0.00991106643833664, 0.181497402709074, -1.2015191043206, 1.20908988876552, -1.16049767030209], a = 0.2, v = 0.2, t = 0.2)
movej(p[0.528378685132358, -0.00990696404446541, 0.182452543533195, -1.19885167086644, 1.21120089076639, -1.14397991277637], a = 0.2, v = 0.2, t = 0.2)
movej(p[0.528307269440252, -0.0100239866508786, 0.183110846488839, -1.21302852557508, 1.21891099196712, -1.15441010707579], a = 0.2, v = 0.2, t = 0.2)
movej(p[0.530125342233687, -0.0103151999882221, 0.18325558425732, -1.22013121840553, 1.24042228821112, -1.15525985721463], a = 0.2, v = 0.2, t = 0.2)
movej(p[0.532985742410798, -0.0105225535548108, 0.183315560583568, -1.21669959018733, 1.27044799245796, -1.17210153919807], a = 0.2, v = 0.2, t = 0.2)
movej(p[0.535782966303838, -0.0107237132795869, 0.183058182112382, -1.20123114312392, 1.28350071958267, -1.18094738870468], a = 0.2, v = 0.2, t = 0.2)
movej(p[0.537854005864276, -0.0107893365410543, 0.183124385625545, -1.18250569902736, 1.28432133067802, -1.18046632885174], a = 0.2, v = 0.2, t = 0.2)
movej(p[0.539501594494771, -0.0109366523009858, 0.182923658969517, -1.19432125525259, 1.27083285088425, -1.19990441431754], a = 0.2, v = 0.2, t = 0.2)
movej(p[0.540826417633325, -0.0111226846491907, 0.18262197082031, -1.16807566090937, 1.24218443951656, -1.21139885516654], a = 0.2, v = 0.2, t = 0.2)
movej(p[0.541916405071377, -0.0112354330385332, 0.182149828783957, -1.17663007410524, 1.20413104750538, -1.26915109794021], a = 0.2, v = 0.2, t = 0.2)
movej(p[0.542801936944497, -0.0112172576280205, 0.181833576027224, -1.16455045061413, 1.22107393948521, -1.26429565410483], a = 0.2, v = 0.2, t = 0.2)
movej(p[0.542962812366904, -0.0110613817045145, 0.181594816410587, -1.16233178611885, 1.17748085690586, -1.27852504480333], a = 0.2, v = 0.2, t = 0.2)
movej(p[0.541883857562183, -0.0108801961321684, 0.181405195369181, -1.15135447820447, 1.17466056394394, -1.24516411421541], a = 0.2, v = 0.2, t = 0.2)
movej(p[0.539384388592804, -0.0106616541376466, 0.180869548883299, -1.16450895606214, 1.11508575295566, -1.24032025035234], a = 0.2, v = 0.2, t = 0.2)
movej(p[0.536146288956494, -0.0103229392158733, 0.180605554145665, -1.19895220457148, 1.14856298538238, -1.20122226854053], a = 0.2, v = 0.2, t = 0.2)
movej(p[0.532884537436757, -0.00998212441993426, 0.180978682295187, -1.19776823577341, 1.15553035590114, -1.17292094997285], a = 0.2, v = 0.2, t = 0.2)
movej(p[0.529874574237556, -0.00962375338320515, 0.181847240892857, -1.19086413688958, 1.17889989793323, -1.13754998142299], a = 0.2, v = 0.2, t = 0.2)
movej(p[0.527985707892378, -0.00952755327339559, 0.182897504540199, -1.21802018206882, 1.21125581883158, -1.12248987247194], a = 0.2, v = 0.2, t = 0.2)
movej(p[0.527728201235447, -0.00965026281674839, 0.183482299080278, -1.24541591933711, 1.25236635206789, -1.1142664944431], a = 0.2, v = 0.2, t = 0.2)
movej(p[0.529159771026261, -0.00986879342567731, 0.183898112191893, -1.25652927796479, 1.31018508657378, -1.10949012087136], a = 0.2, v = 0.2, t = 0.2)
movej(p[0.531805524498601, -0.0100984904459439, 0.184049794254789, -1.22421300664292, 1.31927012687462, -1.12068823132053], a = 0.2, v = 0.2, t = 0.2)
movej(p[0.534459226074922, -0.0103338578111771, 0.183799850631466, -1.17943923830218, 1.304628287907, -1.14640658396904], a = 0.2, v = 0.2, t = 0.2)
movej(p[0.53668982006631, -0.0105913015136417, 0.183567759748302, -1.14671613175779, 1.29456422308668, -1.14492429923195], a = 0.2, v = 0.2, t = 0.2)
movej(p[0.538348906049879, -0.0108125674194226, 0.183280783015166, -1.13311361434091, 1.2701774033204, -1.16953642947918], a = 0.2, v = 0.2, t = 0.2)
movej(p[0.539693532163936, -0.0108796746215655, 0.183191418236776, -1.13878594123097, 1.25400729076155, -1.1938086818339], a = 0.2, v = 0.2, t = 0.2)
movej(p[0.540833306186014, -0.0109250040046915, 0.183222395151123, -1.13704453239562, 1.25419612792638, -1.21717665738253], a = 0.2, v = 0.2, t = 0.2)
movej(p[0.541678212829743, -0.0108539539746223, 0.183070759022479, -1.13211196035868, 1.25175258292413, -1.23103686149984], a = 0.2, v = 0.2, t = 0.2)
movej(p[0.542229797514062, -0.0109357404563005, 0.182813236732299, -1.1342712900616, 1.27546030844856, -1.21561009879428], a = 0.2, v = 0.2, t = 0.2)
movej(p[0.541872778314915, -0.010944328131618, 0.182078549461637, -1.13731712799687, 1.21177401702199, -1.24045326208993], a = 0.2, v = 0.2, t = 0.2)
movej(p[0.540510131632567, -0.0109239336024512, 0.181708890391189, -1.12224755226833, 1.15751303958187, -1.24870613173229], a = 0.2, v = 0.2, t = 0.2)
movej(p[0.538160801086589, -0.0108487602803448, 0.181278429501697, -1.09828165640482, 1.12456010412523, -1.24063613746108], a = 0.2, v = 0.2, t = 0.2)
movej(p[0.535343562287965, -0.0103968400889648, 0.181649096742155, -1.10914408530971, 1.13164253414663, -1.21233741681875], a = 0.2, v = 0.2, t = 0.2)
movej(p[0.532372531062028, -0.0101104235575859, 0.182178738254734, -1.14674022543379, 1.1735126865689, -1.17745718633631], a = 0.2, v = 0.2, t = 0.2)
movej(p[0.529577270488377, -0.0096872340352402, 0.182888920752335, -1.18811264447978, 1.18302027583992, -1.14349379056572], a = 0.2, v = 0.2, t = 0.2)
movej(p[0.527620894240344, -0.00961884480912812, 0.183596440019906, -1.23435289043403, 1.20724903556657, -1.1391700343708], a = 0.2, v = 0.2, t = 0.2)
movej(p[0.526937633141685, -0.00972467874964468, 0.184214924633856, -1.25032434787769, 1.2083659109381, -1.13726603747935], a = 0.2, v = 0.2, t = 0.2)
movej(p[0.528067267007381, -0.00998003087096595, 0.184758055391587, -1.26972284956367, 1.25665649772773, -1.13858930273102], a = 0.2, v = 0.2, t = 0.2)
movej(p[0.530326831336702, -0.0101710430824958, 0.184939297130674, -1.25081232029771, 1.27515378301956, -1.14101214481496], a = 0.2, v = 0.2, t = 0.2)
movej(p[0.533011406139657, -0.0103218164438282, 0.184844035893246, -1.21744204180748, 1.28709176705142, -1.15832681972122], a = 0.2, v = 0.2, t = 0.2)
movej(p[0.535503712593303, -0.0105091810877165, 0.184715820267711, -1.20269334922882, 1.26788407721778, -1.19027454138409], a = 0.2, v = 0.2, t = 0.2)
movej(p[0.537424050145226, -0.0107077586044752, 0.184299021499627, -1.19220130602938, 1.26749423779015, -1.19840214277461], a = 0.2, v = 0.2, t = 0.2)
movej(p[0.538942152784549, -0.0108261253333935, 0.183876098115237, -1.20092765112639, 1.26843484105231, -1.20368410275969], a = 0.2, v = 0.2, t = 0.2)
movej(p[0.540073000699094, -0.0107955330387008, 0.183613387537269, -1.18579882711736, 1.26362278963149, -1.21244674677724], a = 0.2, v = 0.2, t = 0.2)
movej(p[0.540945619830241, -0.0108777185416976, 0.183529796261091, -1.15241903927001, 1.25824092429829, -1.21583520033864], a = 0.2, v = 0.2, t = 0.2)
movej(p[0.541718981756418, -0.0109704788139542, 0.183279024897832, -1.13374340068947, 1.23510268776606, -1.22165633710067], a = 0.2, v = 0.2, t = 0.2)
movej(p[0.541613960800346, -0.0110005038392071, 0.182824734783208, -1.11834185157772, 1.20864078400235, -1.2333674578318], a = 0.2, v = 0.2, t = 0.2)
movej(p[0.540463650413224, -0.010850581574122, 0.182259618308302, -1.13258743604623, 1.16329309876586, -1.24579322171617], a = 0.2, v = 0.2, t = 0.2)
movej(p[0.537842435906482, -0.0105110926770125, 0.182224407763262, -1.14422632047477, 1.14883502376547, -1.24069081216689], a = 0.2, v = 0.2, t = 0.2)
movej(p[0.53479530629719, -0.0101963662738655, 0.1823516508559, -1.15880464736279, 1.15472797387435, -1.20977048149619], a = 0.2, v = 0.2, t = 0.2)
movej(p[0.531869549500391, -0.0100839604670055, 0.18291243164198, -1.1783877865085, 1.16795910893236, -1.17815621737543], a = 0.2, v = 0.2, t = 0.2)
movej(p[0.529274644785471, -0.00989587734889077, 0.183606881638811, -1.19600820810089, 1.18009470581287, -1.14927567084986], a = 0.2, v = 0.2, t = 0.2)
movej(p[0.527681076813644, -0.00979403357108531, 0.184431871030615, -1.22027652486426, 1.18801735159264, -1.14340368246477], a = 0.2, v = 0.2, t = 0.2)
movej(p[0.527517347038857, -0.00976334322196403, 0.185047766058862, -1.2165609544475, 1.21708985906625, -1.14038115840618], a = 0.2, v = 0.2, t = 0.2)
movej(p[0.529088806535902, -0.00993949214484651, 0.185131299708459, -1.22001034270058, 1.26060942825001, -1.15129589868108], a = 0.2, v = 0.2, t = 0.2)
movej(p[0.531607775881042, -0.0101866994822329, 0.184850873633374, -1.21371826655119, 1.27610971899877, -1.16297358949713], a = 0.2, v = 0.2, t = 0.2)
movej(p[0.534147429587361, -0.0103763133540721, 0.184616761962408, -1.20760268625271, 1.28479172583667, -1.17100203039617], a = 0.2, v = 0.2, t = 0.2)
movej(p[0.536289717262481, -0.0104816444428069, 0.184560213999784, -1.20443977606487, 1.27790975750002, -1.18264351035862], a = 0.2, v = 0.2, t = 0.2)
movej(p[0.538008116301492, -0.0106335867356175, 0.18455260520994, -1.17842821756613, 1.27257643501482, -1.19130124507323], a = 0.2, v = 0.2, t = 0.2)
movej(p[0.539320850257893, -0.0106264187025669, 0.184479509417905, -1.18801499153391, 1.26503313674311, -1.21068643237029], a = 0.2, v = 0.2, t = 0.2)
movej(p[0.540529644918401, -0.0107974504750584, 0.184246339482564, -1.17802911949027, 1.24533627773848, -1.22670907069403], a = 0.2, v = 0.2, t = 0.2)
movej(p[0.541413776076414, -0.0108377218819287, 0.184189472522735, -1.16478501438093, 1.22064180556043, -1.24924669945426], a = 0.2, v = 0.2, t = 0.2)
movej(p[0.541350010286402, -0.0108865720337346, 0.183878621920045, -1.16073284406501, 1.20890552215585, -1.24040149078291], a = 0.2, v = 0.2, t = 0.2)
movej(p[0.540257371444395, -0.0107777898187142, 0.183462630833201, -1.15097322130347, 1.18867817440251, -1.22445315700015], a = 0.2, v = 0.2, t = 0.2)
movej(p[0.537830606741483, -0.0106217984554217, 0.183122678049747, -1.15043805753843, 1.19554828139281, -1.19566404227468], a = 0.2, v = 0.2, t = 0.2)
movej(p[0.535122729509234, -0.0103619567326793, 0.183109901434881, -1.13568510440058, 1.18531506765301, -1.17321222797234], a = 0.2, v = 0.2, t = 0.2)
movej(p[0.532178968835707, -0.010033562150964, 0.183708949006973, -1.14588657637096, 1.16933191527633, -1.17316177269939], a = 0.2, v = 0.2, t = 0.2)
movej(p[0.529601969684441, -0.00973386954304743, 0.184550554444586, -1.18201068561217, 1.16456557281281, -1.15064391534924], a = 0.2, v = 0.2, t = 0.2)
movej(p[0.527547718953785, -0.00958559590660239, 0.185260490949661, -1.20927202073512, 1.1796207778674, -1.14014521007413], a = 0.2, v = 0.2, t = 0.2)
movej(p[0.526710722517122, -0.00968249431094822, 0.185625720554496, -1.21918256874487, 1.23036992096079, -1.10875601924416], a = 0.2, v = 0.2, t = 0.2)
movej(p[0.527629852650787, -0.00984098438924261, 0.185781391787778, -1.2219335401888, 1.2641578687204, -1.11860529846836], a = 0.2, v = 0.2, t = 0.2)
movej(p[0.529704815302615, -0.0101627479029856, 0.185772911367716, -1.21239220394139, 1.29070133900167, -1.1228612233777], a = 0.2, v = 0.2, t = 0.2)
movej(p[0.532401378512172, -0.0103598639848836, 0.185489655181469, -1.21018302935258, 1.28323833444796, -1.16442900360837], a = 0.2, v = 0.2, t = 0.2)
movej(p[0.534951919089878, -0.0105349550945545, 0.185289761336418, -1.19685469679625, 1.27337475511275, -1.1874541085627], a = 0.2, v = 0.2, t = 0.2)
movej(p[0.536948895672218, -0.0106231188145509, 0.18492465529763, -1.20608760816206, 1.26347393738361, -1.20390946815433], a = 0.2, v = 0.2, t = 0.2)
movej(p[0.538310436689859, -0.0107418637119944, 0.184817686074892, -1.18741019419602, 1.24787422591332, -1.21682485872728], a = 0.2, v = 0.2, t = 0.2)
movej(p[0.539437873085135, -0.0108762205190982, 0.184488484988182, -1.18428655527096, 1.23167506231552, -1.23188149431651], a = 0.2, v = 0.2, t = 0.2)
movej(p[0.540417862867989, -0.0109518775811654, 0.184382074245839, -1.17845595011632, 1.20281927224792, -1.26833823525134], a = 0.2, v = 0.2, t = 0.2)
movej(p[0.540969045349781, -0.0110411767676345, 0.184066621706006, -1.1953915507359, 1.17318636553134, -1.27972719797811], a = 0.2, v = 0.2, t = 0.2)
movej(p[0.54053457190491, -0.0109352972998899, 0.183817319402744, -1.18895755758182, 1.16284845811557, -1.28174039962802], a = 0.2, v = 0.2, t = 0.2)
movej(p[0.539245498453783, -0.0108286906422338, 0.183450166454582, -1.18256446521152, 1.14211513769145, -1.26483912047766], a = 0.2, v = 0.2, t = 0.2)
movej(p[0.53744868830493, -0.0106548727065255, 0.18308936144976, -1.16189410549303, 1.16238502316266, -1.23002801239898], a = 0.2, v = 0.2, t = 0.2)
movej(p[0.53535681335956, -0.0104705304121595, 0.183134807346636, -1.15983544595594, 1.17849789957002, -1.18600775900096], a = 0.2, v = 0.2, t = 0.2)
movej(p[0.533049824327493, -0.010204478965487, 0.183357600735555, -1.13078236252726, 1.2034717887721, -1.14763409597634], a = 0.2, v = 0.2, t = 0.2)
movej(p[0.530653926197425, -0.00987184741522959, 0.183884281482222, -1.14192550615306, 1.20641500939117, -1.12654528531768], a = 0.2, v = 0.2, t = 0.2)
movej(p[0.52835911136093, -0.00973710086154323, 0.184467178767316, -1.16562792553821, 1.20361838541772, -1.12536322900829], a = 0.2, v = 0.2, t = 0.2)
movej(p[0.526976575422491, -0.00971167086806555, 0.185350375177157, -1.21202284204017, 1.2338237428264, -1.10915095074199], a = 0.2, v = 0.2, t = 0.2)
movej(p[0.526734030833056, -0.00987024972551834, 0.185898500263433, -1.23214746359028, 1.23689512722206, -1.11614721238432], a = 0.2, v = 0.2, t = 0.2)
movej(p[0.528022732885085, -0.0100368285317695, 0.186126006020485, -1.24833348284633, 1.25562457279204, -1.11981675324634], a = 0.2, v = 0.2, t = 0.2)
movej(p[0.530332091782674, -0.0102300862942954, 0.185973392780432, -1.23704180697152, 1.25485995350957, -1.14553302162793], a = 0.2, v = 0.2, t = 0.2)
movej(p[0.532822298264683, -0.0103423904035708, 0.185859002116479, -1.22441515648869, 1.25549692620939, -1.17024956838631], a = 0.2, v = 0.2, t = 0.2)
movej(p[0.535267295459136, -0.0105280327756501, 0.185526401471252, -1.20920249491121, 1.26009160739902, -1.19158656127328], a = 0.2, v = 0.2, t = 0.2)
