def moving():
set_payload_mass(0.606)
set_tcp(p[0,0.005,0.058,0,0,0])
movej(p[0.4367, -0.1169, 0.2993, -1.163, 1.157, -1.203], a = 0.2, v = 0.2, t = 0.2)
movej(p[0.436748268749694, -0.116949789887891, 0.29935187576377, -1.16215046100945, 1.1561155017201, -1.20211671348898], a = 0.2, v = 0.2, t = 0.2)
movej(p[0.4367, -0.1169, 0.2993, -1.163, 1.157, -1.203], a = 0.2, v = 0.2, t = 0.2)
movej(p[0.436748268749694, -0.116949789887891, 0.29935187576377, -1.16215046100945, 1.1561155017201, -1.20211671348898], a = 0.2, v = 0.2, t = 0.2)
movej(p[0.4367, -0.1169, 0.2993, -1.163, 1.157, -1.203], a = 0.2, v = 0.2, t = 0.2)
movej(p[0.4367, -0.1169, 0.2993, -1.163, 1.157, -1.203], a = 0.2, v = 0.2, t = 0.2)
movej(p[0.436014335041861, -0.116733302684609, 0.2994772702745, -1.15998149112272, 1.14853535448936, -1.21434117977945], a = 0.2, v = 0.2, t = 0.2)
movej(p[0.435328572874224, -0.116566707783816, 0.299654532702746, -1.15699013799325, 1.13998657052245, -1.22561088482914], a = 0.2, v = 0.2, t = 0.2)
movej(p[0.434292237539997, -0.116337294849801, 0.299972697755415, -1.15514421920532, 1.13206560101814, -1.23478672398251], a = 0.2, v = 0.2, t = 0.2)
movej(p[0.432475374914419, -0.115968110079841, 0.300604386876271, -1.15524641806991, 1.12656185085712, -1.24027750869044], a = 0.2, v = 0.2, t = 0.2)
movej(p[0.430243246829949, -0.115420268841354, 0.301036071809911, -1.15449967935943, 1.11975875211652, -1.24223492787086], a = 0.2, v = 0.2, t = 0.2)
movej(p[0.427745594538094, -0.114758139819756, 0.301339891588312, -1.15310414855852, 1.11228108509647, -1.2420502364976], a = 0.2, v = 0.2, t = 0.2)
movej(p[0.425298866021526, -0.114201272186859, 0.301896064668969, -1.1555093052355, 1.10585849782243, -1.24175967433964], a = 0.2, v = 0.2, t = 0.2)
movej(p[0.42295028365517, -0.11367858212687, 0.302462375634454, -1.15699313954552, 1.09871722851039, -1.24162662034131], a = 0.2, v = 0.2, t = 0.2)
movej(p[0.42076664907729, -0.113103674542457, 0.30273525634039, -1.15189066988348, 1.08839683157899, -1.24229020178553], a = 0.2, v = 0.2, t = 0.2)
movej(p[0.418876612185431, -0.112561773498207, 0.302940572062276, -1.14437325574159, 1.07317360046596, -1.23960741871756], a = 0.2, v = 0.2, t = 0.2)
movej(p[0.418876612185431, -0.112561773498207, 0.302940572062276, -1.14113770273065, 1.07309897516137, -1.22931120425253], a = 0.2, v = 0.2, t = 0.2)
movej(p[0.419268227046242, -0.112672442470036, 0.302942539158262, -1.14237846199806, 1.0749320331059, -1.22801875653132], a = 0.2, v = 0.2, t = 0.2)
movej(p[0.420207682318793, -0.112815998705665, 0.30265938226167, -1.14174695677321, 1.07938219561615, -1.22449322830513], a = 0.2, v = 0.2, t = 0.2)
movej(p[0.422054332169338, -0.113182989435372, 0.30223157349155, -1.14605849808534, 1.09556758108915, -1.22712487778978], a = 0.2, v = 0.2, t = 0.2)
movej(p[0.424044108604785, -0.113674774777626, 0.301928349854466, -1.14457508086873, 1.11117041608098, -1.23517820430708], a = 0.2, v = 0.2, t = 0.2)
movej(p[0.426412128581409, -0.114348442740419, 0.301649159442358, -1.15415847675391, 1.1219233383382, -1.24335233336467], a = 0.2, v = 0.2, t = 0.2)
movej(p[0.428553761057929, -0.114790168326679, 0.301202083820167, -1.15113147992157, 1.12839269294568, -1.25235363810746], a = 0.2, v = 0.2, t = 0.2)
movej(p[0.43058786598456, -0.115346038516173, 0.301016632748749, -1.15289036751403, 1.129474087731, -1.26030822447173], a = 0.2, v = 0.2, t = 0.2)
movej(p[0.432342388534294, -0.116132864188713, 0.301056929566314, -1.15236407359589, 1.13637701609314, -1.26332005286019], a = 0.2, v = 0.2, t = 0.2)
movej(p[0.433126068109051, -0.116351293739755, 0.300979093293663, -1.15787064833084, 1.14271916572839, -1.25998300705975], a = 0.2, v = 0.2, t = 0.2)
movej(p[0.433488373367545, -0.116383358508051, 0.300918476874256, -1.15752503748243, 1.14327587569195, -1.26050853194531], a = 0.2, v = 0.2, t = 0.2)
movej(p[0.43383024164, -0.11661683476284, 0.300933583916936, -1.15793526897485, 1.143205519292, -1.26146415954757], a = 0.2, v = 0.2, t = 0.2)
movej(p[0.433829154625452, -0.11661722523975, 0.300952148020124, -1.15656158593026, 1.14727824021382, -1.26601907850988], a = 0.2, v = 0.2, t = 0.2)
movej(p[0.433149754802714, -0.116599486829668, 0.301116231839167, -1.15749220300293, 1.14822752230735, -1.26546108940765], a = 0.2, v = 0.2, t = 0.2)
movej(p[0.431328491969884, -0.11617877643382, 0.301414101251119, -1.15612236697602, 1.14930837884397, -1.26455611605679], a = 0.2, v = 0.2, t = 0.2)
movej(p[0.429705177325809, -0.115815372975729, 0.301670756473122, -1.15402178210236, 1.14692674466561, -1.26573318432142], a = 0.2, v = 0.2, t = 0.2)
movej(p[0.428317180949459, -0.1157774333586, 0.30205958658344, -1.15580585220215, 1.14482116042674, -1.26851013366672], a = 0.2, v = 0.2, t = 0.2)
movej(p[0.426650886820132, -0.115416965573742, 0.302307150839041, -1.15926240994411, 1.13885062674838, -1.26764275230021], a = 0.2, v = 0.2, t = 0.2)
movej(p[0.424828949218951, -0.114718625007011, 0.302440892456566, -1.15802402276729, 1.12661391874289, -1.27295977150771], a = 0.2, v = 0.2, t = 0.2)
movej(p[0.423017337474209, -0.114170145951984, 0.302674584331712, -1.15478482906009, 1.12192973595724, -1.27465793324273], a = 0.2, v = 0.2, t = 0.2)
movej(p[0.421622646373829, -0.114069738407668, 0.302980975502548, -1.15246206433831, 1.11434749073477, -1.27414487926647], a = 0.2, v = 0.2, t = 0.2)
movej(p[0.419889029594887, -0.113538888107422, 0.303190909593399, -1.15492000676055, 1.10649609803825, -1.27114264822612], a = 0.2, v = 0.2, t = 0.2)
movej(p[0.418090356370046, -0.113023390112228, 0.303439894747954, -1.15125073960618, 1.09174501904108, -1.26881311145963], a = 0.2, v = 0.2, t = 0.2)
movej(p[0.416349047994448, -0.112374532691469, 0.303642442442583, -1.14818926352958, 1.07824719542959, -1.2619351934584], a = 0.2, v = 0.2, t = 0.2)
movej(p[0.415366781261477, -0.112117282913281, 0.303790222911252, -1.14249499957088, 1.06980502121455, -1.26296539680016], a = 0.2, v = 0.2, t = 0.2)
movej(p[0.41461214796368, -0.112028330805879, 0.303927553346499, -1.14033606854906, 1.06000662449887, -1.2596682124114], a = 0.2, v = 0.2, t = 0.2)
movej(p[0.413731681767934, -0.111709450662664, 0.30403610131936, -1.1379273653707, 1.06071902127396, -1.25423854979088], a = 0.2, v = 0.2, t = 0.2)
movej(p[0.413730587854839, -0.111667172862677, 0.304036926535914, -1.14049500219305, 1.06332729364585, -1.25276260732995], a = 0.2, v = 0.2, t = 0.2)
movej(p[0.41389799109308, -0.111661650388094, 0.303975908029696, -1.14535456105722, 1.06758468481771, -1.24981574502362], a = 0.2, v = 0.2, t = 0.2)
movej(p[0.414686682816614, -0.111644465049014, 0.303828276327987, -1.14716005704281, 1.07398129578138, -1.24440163399807], a = 0.2, v = 0.2, t = 0.2)
movej(p[0.415891419008797, -0.111672392208585, 0.303621597928044, -1.15074675551036, 1.08587105344672, -1.23159306424705], a = 0.2, v = 0.2, t = 0.2)
movej(p[0.417495728283949, -0.111675892662334, 0.303374906812508, -1.15100656749402, 1.09201177538287, -1.2257692461272], a = 0.2, v = 0.2, t = 0.2)
movej(p[0.419350368557341, -0.112082576799552, 0.303104936334772, -1.15218207665618, 1.09563307468859, -1.22268981664011], a = 0.2, v = 0.2, t = 0.2)
movej(p[0.420654150757443, -0.112426524469202, 0.302909333381734, -1.15799443277206, 1.10426801826244, -1.21359614017923], a = 0.2, v = 0.2, t = 0.2)
movej(p[0.422151537562337, -0.112557196275831, 0.302715926620005, -1.1589926991953, 1.10771378927874, -1.20820405438604], a = 0.2, v = 0.2, t = 0.2)
movej(p[0.423814350216558, -0.112803576537356, 0.302498211591373, -1.15868995684423, 1.10835798660175, -1.20744678144517], a = 0.2, v = 0.2, t = 0.2)
movej(p[0.426223678231931, -0.113598006381918, 0.302114798946289, -1.15750669512347, 1.11881461153083, -1.21259961970895], a = 0.2, v = 0.2, t = 0.2)
movej(p[0.428603151538489, -0.114719545031118, 0.301657832468606, -1.15547512076581, 1.12426550858039, -1.22066850744674], a = 0.2, v = 0.2, t = 0.2)
movej(p[0.429681474334378, -0.115103841721009, 0.301467215858612, -1.15746674700807, 1.12558783731997, -1.2209236613655], a = 0.2, v = 0.2, t = 0.2)
movej(p[0.431219650731228, -0.115513707136723, 0.301217523061009, -1.15865597152815, 1.12513451369476, -1.22317270827407], a = 0.2, v = 0.2, t = 0.2)
movej(p[0.432479016816689, -0.116244579813534, 0.300907781211913, -1.15578029200161, 1.1228512059089, -1.23132203631338], a = 0.2, v = 0.2, t = 0.2)
movej(p[0.432479355593558, -0.116257672938353, 0.300907525648394, -1.15651584987135, 1.12095228183942, -1.23442875199695], a = 0.2, v = 0.2, t = 0.2)
movej(p[0.431891500106514, -0.116273460533588, 0.300937096042197, -1.15658978124129, 1.12076619397251, -1.23476601613181], a = 0.2, v = 0.2, t = 0.2)
movej(p[0.431296419902531, -0.116128355980839, 0.301023331241501, -1.15670158441008, 1.12052321106268, -1.23504878580964], a = 0.2, v = 0.2, t = 0.2)
movej(p[0.429926037175819, -0.115780717717086, 0.301233748018167, -1.15694428124048, 1.12026909410963, -1.23524527785443], a = 0.2, v = 0.2, t = 0.2)
movej(p[0.427982136051659, -0.115186213458822, 0.301584200249429, -1.15793626729488, 1.11947986496318, -1.23599146331839], a = 0.2, v = 0.2, t = 0.2)
movej(p[0.425854048883076, -0.114513309309545, 0.302030920014829, -1.15853793295319, 1.11869959012974, -1.235602311357], a = 0.2, v = 0.2, t = 0.2)
movej(p[0.423907372312566, -0.113910116438679, 0.302434895744749, -1.15519955351794, 1.10944824234436, -1.23520459556008], a = 0.2, v = 0.2, t = 0.2)
movej(p[0.422097980794101, -0.113485788030846, 0.302711794417932, -1.14919905019077, 1.09915392120836, -1.23655588903169], a = 0.2, v = 0.2, t = 0.2)
movej(p[0.420839039483007, -0.113024992143256, 0.303023895820046, -1.14895459594597, 1.09614302709108, -1.22730858214901], a = 0.2, v = 0.2, t = 0.2)
movej(p[0.420839039483007, -0.113024992143256, 0.303023895820046, -1.15287699253225, 1.10068476018197, -1.21863501575718], a = 0.2, v = 0.2, t = 0.2)
movej(p[0.422270926844959, -0.113062450735389, 0.302924900231478, -1.16029214097384, 1.10889854764808, -1.21332913522182], a = 0.2, v = 0.2, t = 0.2)
movej(p[0.424872761849441, -0.114020321754151, 0.302348434247338, -1.15268690256198, 1.11481020531941, -1.20526344194389], a = 0.2, v = 0.2, t = 0.2)
movej(p[0.427066008302668, -0.114499541774582, 0.302106884547636, -1.14938068207563, 1.12009435712954, -1.21039953624809], a = 0.2, v = 0.2, t = 0.2)
movej(p[0.429389176789447, -0.115500409309109, 0.301426229113245, -1.15191769826529, 1.11715482416832, -1.22382156229065], a = 0.2, v = 0.2, t = 0.2)
movej(p[0.431199627020989, -0.116068768472962, 0.301030539361075, -1.15191769826529, 1.11715482416832, -1.22382156229065], a = 0.2, v = 0.2, t = 0.2)
movej(p[0.432585689000093, -0.116662838729157, 0.300605250775775, -1.15191769826529, 1.11715482416832, -1.22382156229065], a = 0.2, v = 0.2, t = 0.2)
movej(p[0.433015502993951, -0.116683599319139, 0.300562451376385, -1.15069232153257, 1.11475385415724, -1.22608669486732], a = 0.2, v = 0.2, t = 0.2)
movej(p[0.433015502993951, -0.116683599319139, 0.300562451376385, -1.14779618242198, 1.10832412416946, -1.2340623444126], a = 0.2, v = 0.2, t = 0.2)
movej(p[0.424973766557135, -0.115948018494247, 0.300872018866341, -1.14730927776059, 1.10817884151656, -1.23702393786807], a = 0.2, v = 0.2, t = 0.2)
movej(p[0.421371046257489, -0.115589618463805, 0.301006253067264, -1.1471632336777, 1.10841656998664, -1.23725555504291], a = 0.2, v = 0.2, t = 0.2)
movej(p[0.421371046257489, -0.115589618463805, 0.301006253067264, -1.1476782089489, 1.10935855286259, -1.23653393655872], a = 0.2, v = 0.2, t = 0.2)
movej(p[0.422244161231388, -0.115648852383917, 0.300969464821034, -1.1481489459385, 1.11026027448482, -1.2349164571721], a = 0.2, v = 0.2, t = 0.2)
movej(p[0.423117276205288, -0.11570808630403, 0.300932676574803, -1.14862057109132, 1.11116274093055, -1.23329588787476], a = 0.2, v = 0.2, t = 0.2)
movej(p[0.423990282953359, -0.115767224843043, 0.300895984191058, -1.14909379619088, 1.11206253501748, -1.23167301001238], a = 0.2, v = 0.2, t = 0.2)
movej(p[0.424863397927259, -0.115826458763155, 0.300859195944828, -1.14956825269291, 1.11296140060123, -1.23005163322905], a = 0.2, v = 0.2, t = 0.2)
movej(p[0.425736512901158, -0.115885692683268, 0.300822407698597, -1.15004308218483, 1.11385843384665, -1.2284266581576], a = 0.2, v = 0.2, t = 0.2)
movej(p[0.426609528079477, -0.11594492907046, 0.300785613556979, -1.15051913834593, 1.1147545391741, -1.22680318786075], a = 0.2, v = 0.2, t = 0.2)
movej(p[0.427482643053376, -0.116004162990573, 0.300748825310749, -1.15099556870785, 1.11564880811109, -1.22517612102682], a = 0.2, v = 0.2, t = 0.2)
movej(p[0.428355758027276, -0.116063396910685, 0.300712037064518, -1.15147322100888, 1.11654214972249, -1.22355056265444], a = 0.2, v = 0.2, t = 0.2)
movej(p[0.429228773205594, -0.116122633297878, 0.3006752429229, -1.15195044479696, 1.11743494525866, -1.22192266300579], a = 0.2, v = 0.2, t = 0.2)
movej(p[0.430101888179494, -0.11618186721799, 0.30063845467667, -1.15242926955879, 1.11832506088748, -1.22029246796619], a = 0.2, v = 0.2, t = 0.2)
movej(p[0.430101888179494, -0.11618186721799, 0.30063845467667, -1.15223805553463, 1.11821354534342, -1.2194040062651], a = 0.2, v = 0.2, t = 0.2)
movej(p[0.429516176377361, -0.115950345982986, 0.300738578363104, -1.1529093091705, 1.11921425009254, -1.21866378690309], a = 0.2, v = 0.2, t = 0.2)
movej(p[0.427425603785565, -0.115321240417571, 0.301197895373448, -1.15093272033956, 1.12142560012776, -1.21897456029496], a = 0.2, v = 0.2, t = 0.2)
movej(p[0.42515369039163, -0.11468095122919, 0.301648632753418, -1.15091026152646, 1.12877755371878, -1.21707773398258], a = 0.2, v = 0.2, t = 0.2)
movej(p[0.423643505323149, -0.114253995623187, 0.301936393660142, -1.15078722571728, 1.12897302111154, -1.21726638261632], a = 0.2, v = 0.2, t = 0.2)
movej(p[0.422989495493577, -0.114005699694864, 0.302132262837916, -1.15001544504599, 1.12428622329842, -1.22177751997706], a = 0.2, v = 0.2, t = 0.2)
movej(p[0.42106691005563, -0.113645934378522, 0.302291363532296, -1.15001907702623, 1.11421176504762, -1.23165158597023], a = 0.2, v = 0.2, t = 0.2)
movej(p[0.418446261306669, -0.113332028710558, 0.302259937807338, -1.15065505002531, 1.11102803268726, -1.23512136649148], a = 0.2, v = 0.2, t = 0.2)
movej(p[0.417591802880941, -0.112741349579852, 0.302815273969722, -1.15139864995361, 1.11027494024451, -1.23606706602697], a = 0.2, v = 0.2, t = 0.2)
movej(p[0.417002069013787, -0.112656604550798, 0.302797253259928, -1.15102422651194, 1.11077584929855, -1.23551425829837], a = 0.2, v = 0.2, t = 0.2)
movej(p[0.416994223568437, -0.112572467254576, 0.302894849440036, -1.15095979958372, 1.11065522095374, -1.23552837312866], a = 0.2, v = 0.2, t = 0.2)
movej(p[0.417143218370362, -0.112568783903918, 0.302903651253895, -1.15070737880948, 1.11046816671104, -1.2342531731723], a = 0.2, v = 0.2, t = 0.2)
movej(p[0.417789102604898, -0.112743339162534, 0.30276867278425, -1.1498275103493, 1.10796911190308, -1.22457063506865], a = 0.2, v = 0.2, t = 0.2)
movej(p[0.418732747523786, -0.113016452086163, 0.302541749431543, -1.14801426279979, 1.10401852794274, -1.20705012297577], a = 0.2, v = 0.2, t = 0.2)
movej(p[0.419511264657026, -0.113189226921553, 0.302506752581581, -1.14820587255533, 1.10420710407855, -1.20693435805337], a = 0.2, v = 0.2, t = 0.2)
movej(p[0.42039603928607, -0.113222653414071, 0.302480608071672, -1.14878107960909, 1.10800544877396, -1.20791251622436], a = 0.2, v = 0.2, t = 0.2)
movej(p[0.421973631780523, -0.113596046895499, 0.302382977956075, -1.14736442091774, 1.11180989104584, -1.21453736089708], a = 0.2, v = 0.2, t = 0.2)
movej(p[0.423182896633036, -0.114036428283641, 0.301922816202499, -1.14736442091774, 1.11180989104584, -1.21453736089708], a = 0.2, v = 0.2, t = 0.2)
movej(p[0.424628530092227, -0.114490684919316, 0.301497544265247, -1.14630426436263, 1.11240280176867, -1.21304963340817], a = 0.2, v = 0.2, t = 0.2)
movej(p[0.426129974783142, -0.114815801196127, 0.301316817076714, -1.14334415213553, 1.11046258256231, -1.21386443356946], a = 0.2, v = 0.2, t = 0.2)
movej(p[0.427542980098161, -0.115201543047293, 0.300982652485553, -1.14014204153622, 1.11266700936004, -1.21046727983603], a = 0.2, v = 0.2, t = 0.2)
movej(p[0.427542980098161, -0.115201543047293, 0.300982652485553, -1.14182066902872, 1.11688692725747, -1.21052945113013], a = 0.2, v = 0.2, t = 0.2)
movej(p[0.427652317287691, -0.115223239835896, 0.300942308981117, -1.14238534986595, 1.11729604885147, -1.21099091049944], a = 0.2, v = 0.2, t = 0.2)
movej(p[0.428220429924209, -0.115585043127231, 0.300378727265119, -1.14699887790694, 1.11532784947434, -1.21470107015877], a = 0.2, v = 0.2, t = 0.2)
movej(p[0.428235862587431, -0.115598428317072, 0.300372436033221, -1.14699887790694, 1.11532784947434, -1.21470107015877], a = 0.2, v = 0.2, t = 0.2)
movej(p[0.428239006747791, -0.115597298873106, 0.300318739863786, -1.14645189475685, 1.11483792061361, -1.2141911757357], a = 0.2, v = 0.2, t = 0.2)
movej(p[0.428387984568144, -0.115672431785981, 0.3001827065427, -1.14554207003873, 1.11409087974946, -1.21333153888206], a = 0.2, v = 0.2, t = 0.2)
movej(p[0.428407856652339, -0.115670701138561, 0.300120383953462, -1.14520480095741, 1.11379383866686, -1.2132727174661], a = 0.2, v = 0.2, t = 0.2)
movej(p[0.428415487062657, -0.115675715921047, 0.300074736513282, -1.14514430955428, 1.11374225921227, -1.21330128272537], a = 0.2, v = 0.2, t = 0.2)
movej(p[0.428929841835922, -0.115755583469062, 0.300040253010073, -1.1441244469204, 1.11533030578345, -1.21477654673313], a = 0.2, v = 0.2, t = 0.2)
movej(p[0.429560077045896, -0.115867519929928, 0.300008273347212, -1.14294027869163, 1.11721868382284, -1.21662390165939], a = 0.2, v = 0.2, t = 0.2)
movej(p[0.430525290456026, -0.116043981496882, 0.300061079391313, -1.14315604473938, 1.11764534687755, -1.21705406101079], a = 0.2, v = 0.2, t = 0.2)
movej(p[0.430522859283703, -0.116044854821584, 0.300102599105969, -1.14434873485671, 1.11946031642171, -1.21662667385681], a = 0.2, v = 0.2, t = 0.2)
movej(p[0.430344118270158, -0.115622343465685, 0.301009272952626, -1.14282484958061, 1.12188342514298, -1.21899109320292], a = 0.2, v = 0.2, t = 0.2)
movej(p[0.428454408550757, -0.115279372077192, 0.300934390824737, -1.14105810481846, 1.12070819435607, -1.22089749200401], a = 0.2, v = 0.2, t = 0.2)
movej(p[0.425839369170254, -0.114637800279416, 0.301290018729601, -1.13867388978826, 1.11144485085296, -1.22915580839115], a = 0.2, v = 0.2, t = 0.2)
movej(p[0.423374734225853, -0.113971728909534, 0.301855956730675, -1.14131414337456, 1.10963378482583, -1.23192611612885], a = 0.2, v = 0.2, t = 0.2)
movej(p[0.421450497029048, -0.113596643345095, 0.301863590195297, -1.14221098726992, 1.10933599120177, -1.23371997980492], a = 0.2, v = 0.2, t = 0.2)
movej(p[0.419101094478544, -0.112960094231875, 0.302362212880444, -1.14348071488227, 1.10846301620829, -1.2350515666749], a = 0.2, v = 0.2, t = 0.2)
movej(p[0.416976757186572, -0.112427551389667, 0.30273125522375, -1.1387862055423, 1.1026577226963, -1.2372122333558], a = 0.2, v = 0.2, t = 0.2)
movej(p[0.415416538724344, -0.111975019263731, 0.303185249854905, -1.14282415489739, 1.07778975744831, -1.22558887219403], a = 0.2, v = 0.2, t = 0.2)
movej(p[0.414105686704582, -0.111578170280246, 0.303659888735101, -1.1448500174852, 1.07485319449995, -1.2234786140711], a = 0.2, v = 0.2, t = 0.2)
movej(p[0.413084801925555, -0.11130214315161, 0.303747891133971, -1.14656512390128, 1.07421325332927, -1.22463789661784], a = 0.2, v = 0.2, t = 0.2)
movej(p[0.412524331073488, -0.111236220237854, 0.303856429714327, -1.14866585143703, 1.07609800201834, -1.22360373204913], a = 0.2, v = 0.2, t = 0.2)
movej(p[0.411677332191448, -0.110937465205558, 0.304333021378649, -1.14908000318717, 1.08895687233291, -1.22858984247344], a = 0.2, v = 0.2, t = 0.2)
movej(p[0.411677332191448, -0.110937465205558, 0.304333021378649, -1.14467157687437, 1.09207903647287, -1.22393370540478], a = 0.2, v = 0.2, t = 0.2)
movej(p[0.412167516513541, -0.111049110706662, 0.304290141984325, -1.14561268291413, 1.08578207164467, -1.2086451651668], a = 0.2, v = 0.2, t = 0.2)
movej(p[0.412572721953129, -0.111179182118314, 0.304022676024623, -1.14644614969017, 1.08538726945043, -1.19577872932144], a = 0.2, v = 0.2, t = 0.2)
movej(p[0.412948848742692, -0.11131551095722, 0.303678431117827, -1.15139270055676, 1.09074257317349, -1.18146353865302], a = 0.2, v = 0.2, t = 0.2)
movej(p[0.413324983962503, -0.111451937644305, 0.303334084453157, -1.15640712007663, 1.09600546911764, -1.16709475722987], a = 0.2, v = 0.2, t = 0.2)
movej(p[0.413841010519442, -0.111596332657954, 0.303096451937354, -1.15960429823004, 1.10029902768416, -1.15512115008174], a = 0.2, v = 0.2, t = 0.2)
movej(p[0.415052002243191, -0.111859510512304, 0.303109624711915, -1.15830906490728, 1.10021499106811, -1.14551704904106], a = 0.2, v = 0.2, t = 0.2)
movej(p[0.417215766523797, -0.112374733058682, 0.302976806054804, -1.15639140035284, 1.10024985466999, -1.13927906888954], a = 0.2, v = 0.2, t = 0.2)
movej(p[0.418843395077582, -0.112776007184068, 0.302584946976563, -1.15416043044791, 1.10063428269757, -1.13725731929842], a = 0.2, v = 0.2, t = 0.2)
movej(p[0.420292220465328, -0.113140353662089, 0.302247819211793, -1.15058396002946, 1.10227830888601, -1.13246068909622], a = 0.2, v = 0.2, t = 0.2)
movej(p[0.422395881908102, -0.113630736370412, 0.301905805785795, -1.15058396002946, 1.10227830888601, -1.13246068909622], a = 0.2, v = 0.2, t = 0.2)
movej(p[0.424279901828279, -0.11406115934711, 0.30141983708155, -1.15491061015079, 1.10549685457416, -1.13327447150028], a = 0.2, v = 0.2, t = 0.2)
movej(p[0.425606846300092, -0.114334937672865, 0.300884204626341, -1.15320202816203, 1.11187770350962, -1.14027262599043], a = 0.2, v = 0.2, t = 0.2)
movej(p[0.427055577567292, -0.114678905332085, 0.300553711986714, -1.14980995984042, 1.11897032227631, -1.1493695814295], a = 0.2, v = 0.2, t = 0.2)
movej(p[0.428450141755511, -0.115040460201593, 0.300360449364172, -1.15320542623556, 1.12435213980416, -1.1608890083528], a = 0.2, v = 0.2, t = 0.2)
movej(p[0.429669973965311, -0.115337134427522, 0.300097202116127, -1.15489244494686, 1.12701463898338, -1.16179624468161], a = 0.2, v = 0.2, t = 0.2)
movej(p[0.429669973965311, -0.115337134427522, 0.300097202116127, -1.15557889741701, 1.12684749210602, -1.16344946238024], a = 0.2, v = 0.2, t = 0.2)
movej(p[0.427369858117514, -0.115113190657664, 0.301070659616305, -1.14110441088399, 1.10586419434723, -1.20260213466947], a = 0.2, v = 0.2, t = 0.2)
movej(p[0.423971729075938, -0.115026838266734, 0.302727076982605, -1.13927471265288, 1.1095296039774, -1.20767440403903], a = 0.2, v = 0.2, t = 0.2)
movej(p[0.423971729075938, -0.115026838266734, 0.302727076982605, -1.13868145010098, 1.11364882003002, -1.20985398824753], a = 0.2, v = 0.2, t = 0.2)
movej(p[0.425406229611872, -0.115423341112957, 0.302347354774482, -1.13966421654872, 1.11511601753026, -1.21531021113518], a = 0.2, v = 0.2, t = 0.2)
movej(p[0.427300908748001, -0.115915358538861, 0.302022226347974, -1.14290909370285, 1.11415863262041, -1.22236905092314], a = 0.2, v = 0.2, t = 0.2)
movej(p[0.428921632469597, -0.116344000519491, 0.301726474677313, -1.14571525481968, 1.11275248068575, -1.22484690767311], a = 0.2, v = 0.2, t = 0.2)
movej(p[0.429820594776902, -0.116549271977927, 0.301737323105571, -1.14584248795115, 1.11271732480573, -1.22492983533649], a = 0.2, v = 0.2, t = 0.2)
movej(p[0.430439573381921, -0.116754978385766, 0.301373676944718, -1.14571226545829, 1.11306156367249, -1.22533408761304], a = 0.2, v = 0.2, t = 0.2)
movej(p[0.430824206618766, -0.116842413050397, 0.301380633419007, -1.14550510483348, 1.11346843423648, -1.22573520715298], a = 0.2, v = 0.2, t = 0.2)
movej(p[0.431227776221773, -0.116951966935812, 0.30128493408923, -1.14541555987452, 1.11364415214206, -1.22590752581914], a = 0.2, v = 0.2, t = 0.2)
movej(p[0.431526858545176, -0.117043360076757, 0.301155744973527, -1.14541555987452, 1.11364415214206, -1.22590752581914], a = 0.2, v = 0.2, t = 0.2)
movej(p[0.431526858545176, -0.117043360076757, 0.301155744973527, -1.14541555987452, 1.11364415214206, -1.22590752581914], a = 0.2, v = 0.2, t = 0.2)
movej(p[0.431526858545176, -0.117043360076757, 0.301155744973527, -1.14541555987452, 1.11364415214206, -1.22590752581914], a = 0.2, v = 0.2, t = 0.2)
movej(p[0.430789625094634, -0.116838547164109, 0.301357148251094, -1.14596111303376, 1.12349693829053, -1.23117993445982], a = 0.2, v = 0.2, t = 0.2)
movej(p[0.429584903286544, -0.116510373458472, 0.301666929664419, -1.14657481598706, 1.13515312230837, -1.23736927763961], a = 0.2, v = 0.2, t = 0.2)
movej(p[0.428217226179684, -0.116157305681663, 0.301961581113336, -1.14669748505793, 1.13507191291177, -1.2374979373321], a = 0.2, v = 0.2, t = 0.2)
movej(p[0.426630087528923, -0.11579859034201, 0.302101426665135, -1.14637937968113, 1.13294931559053, -1.23948197582801], a = 0.2, v = 0.2, t = 0.2)
movej(p[0.425048944872255, -0.115378027272536, 0.302407341528881, -1.14368314899866, 1.12805696876579, -1.24791753578117], a = 0.2, v = 0.2, t = 0.2)
movej(p[0.423971755490342, -0.115127321529591, 0.302631284168741, -1.14524824567165, 1.12575609806057, -1.2507750548709], a = 0.2, v = 0.2, t = 0.2)
movej(p[0.422667108288477, -0.114796595609293, 0.302621462544097, -1.14684888122275, 1.1190461896779, -1.24672291193648], a = 0.2, v = 0.2, t = 0.2)
movej(p[0.422087777602877, -0.114602217538117, 0.302679999132379, -1.14287262029729, 1.11569866909521, -1.22556359010503], a = 0.2, v = 0.2, t = 0.2)
movej(p[0.422084387987619, -0.114603435154289, 0.302737887196082, -1.14028674117423, 1.11746056143223, -1.2228386494414], a = 0.2, v = 0.2, t = 0.2)
movej(p[0.42273128014571, -0.114754062189721, 0.302772597453892, -1.14131939484211, 1.11486091849585, -1.22026395506101], a = 0.2, v = 0.2, t = 0.2)
movej(p[0.422733558576495, -0.114767767018635, 0.302760118815441, -1.14293398695079, 1.11193841827356, -1.21760003753953], a = 0.2, v = 0.2, t = 0.2)
movej(p[0.422742505449669, -0.114770049648326, 0.302735145568514, -1.14277288271181, 1.11178456030387, -1.2176918863305], a = 0.2, v = 0.2, t = 0.2)
movej(p[0.422747923416722, -0.114775870898152, 0.302645867695088, -1.14138423262988, 1.11404507949674, -1.21998280480574], a = 0.2, v = 0.2, t = 0.2)
movej(p[0.422721377792267, -0.11477652714147, 0.302644299521956, -1.14162317833722, 1.11603567653087, -1.22213317069882], a = 0.2, v = 0.2, t = 0.2)
movej(p[0.421816274358702, -0.114511161163071, 0.302893756155575, -1.14463895182324, 1.11717938485711, -1.2241112439987], a = 0.2, v = 0.2, t = 0.2)
movej(p[0.420386544884433, -0.11413070384525, 0.303163808686991, -1.14510053571168, 1.1168647708674, -1.22459850307405], a = 0.2, v = 0.2, t = 0.2)
movej(p[0.418573803007969, -0.11362800058022, 0.303373026292949, -1.1450086214612, 1.11090783961737, -1.22663692777405], a = 0.2, v = 0.2, t = 0.2)
movej(p[0.417600760548446, -0.113341100147579, 0.303644006077647, -1.13697359219181, 1.09450938880647, -1.23640202912236], a = 0.2, v = 0.2, t = 0.2)
movej(p[0.417085068211213, -0.11319167374739, 0.30412152672039, -1.13697359219181, 1.09450938880647, -1.23640202912236], a = 0.2, v = 0.2, t = 0.2)
movej(p[0.417085068211213, -0.11319167374739, 0.30412152672039, -1.13758577381463, 1.09522308057294, -1.22813644215088], a = 0.2, v = 0.2, t = 0.2)
movej(p[0.417218642489025, -0.113218640538029, 0.303988610376362, -1.13878943728432, 1.0983481213262, -1.19944602838658], a = 0.2, v = 0.2, t = 0.2)
movej(p[0.418470220748033, -0.113549932444917, 0.303752043168136, -1.1418594982866, 1.10320035931336, -1.19573427461029], a = 0.2, v = 0.2, t = 0.2)
movej(p[0.420174247222574, -0.114041354154585, 0.303487101349369, -1.14264266678678, 1.10833386126583, -1.19689727756812], a = 0.2, v = 0.2, t = 0.2)
movej(p[0.422013409457226, -0.114554351382785, 0.302979135121665, -1.14241667119176, 1.11158166326948, -1.19839343712385], a = 0.2, v = 0.2, t = 0.2)
movej(p[0.424332571511951, -0.115207255031082, 0.302458158653898, -1.14065709936594, 1.11574794787259, -1.204957697197], a = 0.2, v = 0.2, t = 0.2)
movej(p[0.426700809003656, -0.115849335815629, 0.302175637647602, -1.14204249530879, 1.11785688601218, -1.21492730272397], a = 0.2, v = 0.2, t = 0.2)
movej(p[0.428596577051812, -0.116402198939644, 0.302057695357918, -1.1475289908557, 1.11829587981781, -1.21657204957792], a = 0.2, v = 0.2, t = 0.2)
movej(p[0.429995219608244, -0.116811383712593, 0.301803453483077, -1.14781759694647, 1.11798141546533, -1.21654274794265], a = 0.2, v = 0.2, t = 0.2)
movej(p[0.43110591036723, -0.117136949138135, 0.301471188104812, -1.14824067060203, 1.11717983821698, -1.21750311066873], a = 0.2, v = 0.2, t = 0.2)
movej(p[0.431761012705466, -0.117320771884278, 0.301397772612995, -1.14818706602029, 1.11743547167792, -1.21807082724286], a = 0.2, v = 0.2, t = 0.2)
movej(p[0.431761012705466, -0.117320771884278, 0.301397772612995, -1.14732092537458, 1.12699937750451, -1.22591688795263], a = 0.2, v = 0.2, t = 0.2)
movej(p[0.431310912394616, -0.117189437022686, 0.301766536866013, -1.1450343558393, 1.13256039758765, -1.23483828576664], a = 0.2, v = 0.2, t = 0.2)
movej(p[0.429514691834939, -0.116685191417258, 0.302016030113215, -1.1464918557705, 1.13103593409999, -1.23691870743776], a = 0.2, v = 0.2, t = 0.2)
movej(p[0.427218307804614, -0.116057083717506, 0.30245355616133, -1.140766146716, 1.11815731782087, -1.24534554769961], a = 0.2, v = 0.2, t = 0.2)
movej(p[0.424885612294208, -0.115403346937534, 0.303052309305993, -1.14230983612771, 1.11081762822095, -1.25125116995902], a = 0.2, v = 0.2, t = 0.2)
movej(p[0.422847076796974, -0.11485441621399, 0.303305486471765, -1.13827656674915, 1.10269036009222, -1.25190665763473], a = 0.2, v = 0.2, t = 0.2)
movej(p[0.420868288615185, -0.114287297967158, 0.303382697583157, -1.13667505523283, 1.09753672222605, -1.2457180224644], a = 0.2, v = 0.2, t = 0.2)
movej(p[0.418716829576964, -0.113674385224332, 0.303683610637937, -1.13341430919351, 1.09054896395422, -1.24304268559425], a = 0.2, v = 0.2, t = 0.2)
movej(p[0.418437118826189, -0.11359483217736, 0.30394273406146, -1.13471565824695, 1.08486074097395, -1.23071104816722], a = 0.2, v = 0.2, t = 0.2)
movej(p[0.418437118826189, -0.11359483217736, 0.30394273406146, -1.13493834410528, 1.08645089901034, -1.21686135930814], a = 0.2, v = 0.2, t = 0.2)
movej(p[0.418921319838822, -0.113722476365412, 0.303804284682185, -1.1278760615559, 1.09096049874215, -1.20367631822116], a = 0.2, v = 0.2, t = 0.2)
movej(p[0.42212644935279, -0.114541555484387, 0.303150039823167, -1.12900714113911, 1.09201385135685, -1.20304812806822], a = 0.2, v = 0.2, t = 0.2)
movej(p[0.426512645920168, -0.115800657698933, 0.302487364619434, -1.13305459775677, 1.0979064809641, -1.21604856631235], a = 0.2, v = 0.2, t = 0.2)
movej(p[0.428774639107598, -0.116452144681076, 0.301966677408029, -1.13942815082362, 1.11037024938054, -1.22595014818005], a = 0.2, v = 0.2, t = 0.2)
movej(p[0.42998780765565, -0.116824049842987, 0.301817180904524, -1.14570449766043, 1.11583881340581, -1.22360724372079], a = 0.2, v = 0.2, t = 0.2)
movej(p[0.430598997509354, -0.116984254487163, 0.301659632547775, -1.14517870013256, 1.11671819754666, -1.22453208280903], a = 0.2, v = 0.2, t = 0.2)
movej(p[0.431122971135814, -0.117147249235467, 0.301519161515888, -1.14514816612637, 1.11593543799553, -1.22532903937], a = 0.2, v = 0.2, t = 0.2)
movej(p[0.431362893030312, -0.117194629823808, 0.301183941313052, -1.14425087043301, 1.11592824215469, -1.22617485341617], a = 0.2, v = 0.2, t = 0.2)
movej(p[0.431569444993767, -0.117246159494209, 0.300970919648753, -1.14371354845474, 1.11580991030602, -1.22663755099369], a = 0.2, v = 0.2, t = 0.2)
movej(p[0.431813468697509, -0.117316337598042, 0.300855685123742, -1.14352125753228, 1.11564061863291, -1.22674301067694], a = 0.2, v = 0.2, t = 0.2)
movej(p[0.431813468697509, -0.117316337598042, 0.300855685123742, -1.14356548231324, 1.11561044407961, -1.22678960006002], a = 0.2, v = 0.2, t = 0.2)
movej(p[0.431275894661424, -0.11719565472758, 0.301469686940111, -1.1426813376904, 1.11742417987147, -1.22852883914813], a = 0.2, v = 0.2, t = 0.2)
movej(p[0.429562207093018, -0.11668675850186, 0.301631331641038, -1.1419898591331, 1.12066751555063, -1.23250340642977], a = 0.2, v = 0.2, t = 0.2)
movej(p[0.427784111484546, -0.116193167604247, 0.301697206089243, -1.14479012326559, 1.12172438290162, -1.23924852194934], a = 0.2, v = 0.2, t = 0.2)
movej(p[0.425713916022976, -0.115596219430287, 0.302052337809175, -1.14481759397, 1.12175131299152, -1.23923262687861], a = 0.2, v = 0.2, t = 0.2)
movej(p[0.424038081812747, -0.115136430582497, 0.302340107205176, -1.14549657871947, 1.12104107600973, -1.23226811789463], a = 0.2, v = 0.2, t = 0.2)
movej(p[0.422165096491212, -0.114553124735837, 0.302517635046847, -1.14590217014853, 1.12029026142982, -1.23135377979758], a = 0.2, v = 0.2, t = 0.2)
movej(p[0.421094365971553, -0.114228020909817, 0.302495942961285, -1.14514061884285, 1.11312374030091, -1.2280150589067], a = 0.2, v = 0.2, t = 0.2)
movej(p[0.420627882108282, -0.114074472491267, 0.302581469439461, -1.14537530347508, 1.11205465189007, -1.22727990174405], a = 0.2, v = 0.2, t = 0.2)
movej(p[0.420161395658929, -0.1139208241252, 0.302666997868503, -1.14560682889818, 1.11098543627363, -1.22654380424916], a = 0.2, v = 0.2, t = 0.2)
movej(p[0.419694911795658, -0.11376727570665, 0.302752524346679, -1.14583948395335, 1.10991823723397, -1.22580911170966], a = 0.2, v = 0.2, t = 0.2)
movej(p[0.418660494228826, -0.11362501137256, 0.303488578432106, -1.14486876146071, 1.10083487246444, -1.22044390682515], a = 0.2, v = 0.2, t = 0.2)
movej(p[0.417637457170135, -0.113278486463552, 0.303478345447051, -1.14192308953877, 1.10279230710419, -1.21704682339316], a = 0.2, v = 0.2, t = 0.2)
movej(p[0.417639929251608, -0.113277598443482, 0.303436127083351, -1.14017442247804, 1.10039326532115, -1.20218963325557], a = 0.2, v = 0.2, t = 0.2)
movej(p[0.418092279745145, -0.113330159320788, 0.303381354050079, -1.14147671145848, 1.10420138361775, -1.18573598990116], a = 0.2, v = 0.2, t = 0.2)
movej(p[0.420889494024693, -0.11414403360783, 0.302975658906918, -1.14374977730784, 1.1071302604292, -1.18236271776326], a = 0.2, v = 0.2, t = 0.2)
movej(p[0.423110984376714, -0.114734446908307, 0.302409398833724, -1.14441915179753, 1.10774611604036, -1.18198422497942], a = 0.2, v = 0.2, t = 0.2)
movej(p[0.426110080558179, -0.11564989381224, 0.302041642867894, -1.14399351286013, 1.11007795437468, -1.1875838950074], a = 0.2, v = 0.2, t = 0.2)
movej(p[0.429300577163855, -0.116539983555296, 0.301551168150423, -1.14578180654671, 1.11312978348864, -1.19948087270037], a = 0.2, v = 0.2, t = 0.2)
movej(p[0.430418481769686, -0.116893507094772, 0.301220440393352, -1.14664670096333, 1.11584639395691, -1.21001075595605], a = 0.2, v = 0.2, t = 0.2)
movej(p[0.431407523815871, -0.117294399960555, 0.30119788200148, -1.14582061440824, 1.1134349461512, -1.2161309846666], a = 0.2, v = 0.2, t = 0.2)
movej(p[0.431409254826108, -0.117301363355083, 0.30126987592303, -1.14573894698733, 1.11356465023068, -1.21627230382404], a = 0.2, v = 0.2, t = 0.2)
movej(p[0.431406735991321, -0.117302268169859, 0.301312892742782, -1.14357311692007, 1.11591987011915, -1.21977902810787], a = 0.2, v = 0.2, t = 0.2)
movej(p[0.429826731035643, -0.116871668785731, 0.301669983558152, -1.14157812324784, 1.11757612832269, -1.2231540581194], a = 0.2, v = 0.2, t = 0.2)
movej(p[0.427662685562277, -0.116250146851246, 0.30206161686133, -1.14085466634971, 1.1150781564274, -1.22746771190377], a = 0.2, v = 0.2, t = 0.2)
movej(p[0.42541173597471, -0.115690568790762, 0.302600054256443, -1.14004149511749, 1.10399096448914, -1.23799632313921], a = 0.2, v = 0.2, t = 0.2)
movej(p[0.42335194953099, -0.115147443462692, 0.302835433257792, -1.13858584805991, 1.09817409918612, -1.24299177497226], a = 0.2, v = 0.2, t = 0.2)
movej(p[0.421795475176095, -0.114600157244856, 0.302935352566836, -1.13694893319738, 1.09616365768627, -1.24373916548579], a = 0.2, v = 0.2, t = 0.2)
movej(p[0.419725475797102, -0.113950301318277, 0.303112362695531, -1.1367328662615, 1.09010713808881, -1.23897133731758], a = 0.2, v = 0.2, t = 0.2)
movej(p[0.417634636547475, -0.113396874092039, 0.303660446692267, -1.13868211105002, 1.08577196695491, -1.23254947143039], a = 0.2, v = 0.2, t = 0.2)
movej(p[0.417634636547475, -0.113396874092039, 0.303660446692267, -1.13675420021208, 1.09066005206375, -1.20832962752281], a = 0.2, v = 0.2, t = 0.2)
movej(p[0.419283316776174, -0.113630919198417, 0.30316623106961, -1.1378373994894, 1.09611803376563, -1.19980930116024], a = 0.2, v = 0.2, t = 0.2)
movej(p[0.422024487238591, -0.11440064232808, 0.302695061153724, -1.13935601970571, 1.09753205587797, -1.19896171693904], a = 0.2, v = 0.2, t = 0.2)
movej(p[0.425103507270894, -0.115337582107136, 0.302150383413129, -1.14000809812309, 1.10678939796098, -1.21670601543499], a = 0.2, v = 0.2, t = 0.2)
movej(p[0.4270306842987, -0.11600050930838, 0.301833482120379, -1.14411488703709, 1.11620156238036, -1.21774363737486], a = 0.2, v = 0.2, t = 0.2)
movej(p[0.427659601219587, -0.116070596592267, 0.301490804342782, -1.14458703237885, 1.11665343920512, -1.21747280698242], a = 0.2, v = 0.2, t = 0.2)
movej(p[0.428055324057027, -0.116177128603236, 0.301455426290718, -1.14541443919317, 1.11789701754091, -1.21557351478458], a = 0.2, v = 0.2, t = 0.2)
movej(p[0.429370567610666, -0.116599730406132, 0.301434579209394, -1.14594369682688, 1.11705245840521, -1.21474944074589], a = 0.2, v = 0.2, t = 0.2)
movej(p[0.430543945328603, -0.11696342103517, 0.301108789480584, -1.14492239269892, 1.11186214999394, -1.21720308028145], a = 0.2, v = 0.2, t = 0.2)
movej(p[0.431176667109189, -0.117207728702951, 0.301044313501829, -1.14520290098953, 1.10842040560909, -1.22071316273638], a = 0.2, v = 0.2, t = 0.2)
movej(p[0.431614683374286, -0.117299996314979, 0.300846793681858, -1.14436684432431, 1.10931976676222, -1.2219982653357], a = 0.2, v = 0.2, t = 0.2)
movej(p[0.431614683374286, -0.117299996314979, 0.300846793681858, -1.14199352064052, 1.11331658984487, -1.2262533144032], a = 0.2, v = 0.2, t = 0.2)
movej(p[0.43088587508006, -0.117109107534723, 0.301121738956123, -1.14678285459121, 1.12347179947252, -1.22563697335376], a = 0.2, v = 0.2, t = 0.2)
movej(p[0.429555680402366, -0.116713504007855, 0.301362870619252, -1.14611098166702, 1.12644665532311, -1.23203589721244], a = 0.2, v = 0.2, t = 0.2)
movej(p[0.427699780315343, -0.116155779064721, 0.301663898267144, -1.14311974876439, 1.12342255627672, -1.23438449529676], a = 0.2, v = 0.2, t = 0.2)
movej(p[0.426077941955237, -0.11587728489165, 0.302417917112568, -1.14641007561384, 1.12014960253376, -1.25552475816689], a = 0.2, v = 0.2, t = 0.2)
movej(p[0.424412162576709, -0.115310429969214, 0.30241095299161, -1.14853849936069, 1.11853655045074, -1.26009027252645], a = 0.2, v = 0.2, t = 0.2)
movej(p[0.422703225352415, -0.114669907926551, 0.302370949413235, -1.14558944309342, 1.11558703497836, -1.26178663062308], a = 0.2, v = 0.2, t = 0.2)
movej(p[0.420788125740595, -0.113991804865097, 0.302546602522669, -1.14270765849834, 1.1040216234892, -1.25710194494652], a = 0.2, v = 0.2, t = 0.2)
movej(p[0.420026575405753, -0.113807559186124, 0.302728916063809, -1.14221449356107, 1.09862013127362, -1.24054507119822], a = 0.2, v = 0.2, t = 0.2)
movej(p[0.420026575405753, -0.113807559186124, 0.302728916063809, -1.14162941631014, 1.09891496802244, -1.22454583551976], a = 0.2, v = 0.2, t = 0.2)
movej(p[0.422658506858302, -0.114499790156171, 0.30233583957864, -1.14094625688827, 1.10354422781205, -1.21975965057694], a = 0.2, v = 0.2, t = 0.2)
movej(p[0.425692694176532, -0.115198659077776, 0.301519214812724, -1.14098306487161, 1.10462823138281, -1.22015765161259], a = 0.2, v = 0.2, t = 0.2)
movej(p[0.427813262446325, -0.11576880093907, 0.301251758926367, -1.14113595632737, 1.11153930143905, -1.22855176407158], a = 0.2, v = 0.2, t = 0.2)
movej(p[0.429004553310508, -0.116289794137677, 0.301053259420272, -1.149337324901, 1.11744825868776, -1.22584158148188], a = 0.2, v = 0.2, t = 0.2)
movej(p[0.429766480681505, -0.116367527706069, 0.300719912478377, -1.15685742225324, 1.12292600984056, -1.22255522802056], a = 0.2, v = 0.2, t = 0.2)
movej(p[0.429994001245236, -0.116608066696758, 0.300694109628962, -1.15961538466651, 1.12297009657297, -1.22357950025098], a = 0.2, v = 0.2, t = 0.2)
movej(p[0.430631473392242, -0.116710416238276, 0.30048811833511, -1.1599161723489, 1.12248429468517, -1.22311396479907], a = 0.2, v = 0.2, t = 0.2)
movej(p[0.43104593920008, -0.116723651367579, 0.300413618768095, -1.15939219112202, 1.11904210258239, -1.21382890829211], a = 0.2, v = 0.2, t = 0.2)
movej(p[0.431123534434205, -0.116721490871861, 0.300339155207212, -1.15791692025077, 1.11853355846957, -1.21376804037799], a = 0.2, v = 0.2, t = 0.2)
movej(p[0.431231510620402, -0.116745065699012, 0.30024969795072, -1.1577400452506, 1.11865463868471, -1.21357886612066], a = 0.2, v = 0.2, t = 0.2)
movej(p[0.43164941427407, -0.116819356604146, 0.300262986956159, -1.15689978484881, 1.11981949516316, -1.21435166656711], a = 0.2, v = 0.2, t = 0.2)
movej(p[0.431789247781801, -0.116851403797367, 0.30027050077823, -1.14937561970733, 1.11267649992301, -1.21867985209337], a = 0.2, v = 0.2, t = 0.2)
movej(p[0.432173627094578, -0.11737673730098, 0.300439562287424, -1.14343007080678, 1.10700094451033, -1.22206366810122], a = 0.2, v = 0.2, t = 0.2)
movej(p[0.432434085937961, -0.117389300585564, 0.300454549107776, -1.14336523507141, 1.10704578916641, -1.22199518338916], a = 0.2, v = 0.2, t = 0.2)
movej(p[0.432659973479781, -0.117455124518275, 0.300466391334473, -1.14366556408414, 1.10778739956278, -1.22141183364694], a = 0.2, v = 0.2, t = 0.2)
movej(p[0.432660175787432, -0.117631182195793, 0.300536642692173, -1.14445481407097, 1.10903517353458, -1.22053796364204], a = 0.2, v = 0.2, t = 0.2)
movej(p[0.43259909778995, -0.117635530586136, 0.300678455596117, -1.1443027463373, 1.11084489151276, -1.22139182323621], a = 0.2, v = 0.2, t = 0.2)
movej(p[0.432106914612838, -0.117478897277425, 0.300797409439143, -1.14320022323429, 1.11323468173169, -1.22347498226838], a = 0.2, v = 0.2, t = 0.2)
movej(p[0.431014422197632, -0.117156074990033, 0.301058543491842, -1.14402955217682, 1.11853821862005, -1.22580409453541], a = 0.2, v = 0.2, t = 0.2)
movej(p[0.429760261757236, -0.116824799836256, 0.301359183097079, -1.14366679795534, 1.12240513668456, -1.22906430769225], a = 0.2, v = 0.2, t = 0.2)
movej(p[0.427819082841986, -0.116344718946755, 0.301721615405964, -1.14441503968506, 1.12308144572012, -1.2331826499202], a = 0.2, v = 0.2, t = 0.2)
movej(p[0.425938625377234, -0.115670053560086, 0.301939903173115, -1.14624223927666, 1.12001042723555, -1.23691089186711], a = 0.2, v = 0.2, t = 0.2)
movej(p[0.423796568802569, -0.114908977684347, 0.302213022528531, -1.13708952792813, 1.1068618725172, -1.24051368889449], a = 0.2, v = 0.2, t = 0.2)
movej(p[0.421738910447953, -0.114368065877791, 0.302749159874003, -1.13829019297249, 1.10081530975244, -1.23887454847562], a = 0.2, v = 0.2, t = 0.2)
movej(p[0.419589150957716, -0.113618160241617, 0.303179397786056, -1.13658179580507, 1.09915766167541, -1.23983455854288], a = 0.2, v = 0.2, t = 0.2)
movej(p[0.41748481529663, -0.112951111351958, 0.3034911221744, -1.13303815054383, 1.09456102427231, -1.24134786249963], a = 0.2, v = 0.2, t = 0.2)
movej(p[0.416328898582306, -0.112753156416248, 0.303729784850523, -1.13064911159163, 1.08076023588827, -1.23346010283544], a = 0.2, v = 0.2, t = 0.2)
movej(p[0.416321973247683, -0.112755644132048, 0.303848056153088, -1.12783407745904, 1.07674407624546, -1.22604617844336], a = 0.2, v = 0.2, t = 0.2)
movej(p[0.4165900660991, -0.112827825540328, 0.303862235973888, -1.12672865636784, 1.0741869332237, -1.21497040675897], a = 0.2, v = 0.2, t = 0.2)
movej(p[0.417757756938436, -0.11305798320229, 0.303561565682086, -1.12988197619664, 1.08188466862684, -1.20865745869583], a = 0.2, v = 0.2, t = 0.2)
movej(p[0.418997861025528, -0.113285931043406, 0.303233420706643, -1.13258550869124, 1.08663127787872, -1.2081121549261], a = 0.2, v = 0.2, t = 0.2)
movej(p[0.42057773673091, -0.113849119777965, 0.302995067995715, -1.13374899393714, 1.09695547947133, -1.22287091438483], a = 0.2, v = 0.2, t = 0.2)
movej(p[0.424541645453397, -0.114899838376242, 0.302025095208967, -1.1357513721179, 1.10264417812514, -1.23371617573516], a = 0.2, v = 0.2, t = 0.2)
movej(p[0.42700962537067, -0.115752381770641, 0.301646800154014, -1.13682095268998, 1.10380136546267, -1.24023434375644], a = 0.2, v = 0.2, t = 0.2)
movej(p[0.428519770829479, -0.116206832909709, 0.301306758810293, -1.13648923679839, 1.10695603394546, -1.24815237064515], a = 0.2, v = 0.2, t = 0.2)
movej(p[0.429814426230085, -0.116887744185633, 0.301272660159296, -1.14131815708815, 1.11169615740913, -1.24540196883063], a = 0.2, v = 0.2, t = 0.2)
movej(p[0.430300932247115, -0.116949792539768, 0.301103363032497, -1.14371306732271, 1.1180141067805, -1.23990065005408], a = 0.2, v = 0.2, t = 0.2)
movej(p[0.430753423729099, -0.116972725757137, 0.300940511639277, -1.14349701288195, 1.11816052683242, -1.23967467732265], a = 0.2, v = 0.2, t = 0.2)
movej(p[0.431096010834248, -0.117163538625428, 0.300949344231213, -1.14449190939913, 1.1202881219535, -1.23902019831975], a = 0.2, v = 0.2, t = 0.2)
movej(p[0.431538297295656, -0.117426640933615, 0.300954578873615, -1.14288540112819, 1.12212547074735, -1.23944880864713], a = 0.2, v = 0.2, t = 0.2)
movej(p[0.431724714752802, -0.117436201943528, 0.300881631915071, -1.14299721998139, 1.12255776339381, -1.23950612794346], a = 0.2, v = 0.2, t = 0.2)
movej(p[0.432058835503168, -0.11749020453326, 0.300764498723885, -1.14311491684558, 1.12267318225838, -1.23943790995273], a = 0.2, v = 0.2, t = 0.2)
movej(p[0.432059787181699, -0.117526985219774, 0.300763780804992, -1.14043017863312, 1.12512458778023, -1.23844898250781], a = 0.2, v = 0.2, t = 0.2)
movej(p[0.431350620890966, -0.117554070172285, 0.301211331100975, -1.13730433219219, 1.12771958123653, -1.2423984317013], a = 0.2, v = 0.2, t = 0.2)
movej(p[0.429749031089766, -0.117211680889157, 0.301568709188568, -1.13438752667123, 1.12492432104262, -1.24795331637191], a = 0.2, v = 0.2, t = 0.2)
movej(p[0.42738540295825, -0.116499070720307, 0.302037139015927, -1.13542463213129, 1.12118760444278, -1.25199114854353], a = 0.2, v = 0.2, t = 0.2)
movej(p[0.42498420617482, -0.115749642602355, 0.302491719474447, -1.12689465108497, 1.11117584591903, -1.25678091862912], a = 0.2, v = 0.2, t = 0.2)
movej(p[0.422857829261278, -0.115103526923183, 0.302934268760608, -1.12530335883915, 1.10446492614475, -1.26124366836565], a = 0.2, v = 0.2, t = 0.2)
movej(p[0.420671352084197, -0.114260966394156, 0.30318736409646, -1.12860135432497, 1.09942924440773, -1.26575450877755], a = 0.2, v = 0.2, t = 0.2)
movej(p[0.418316313957217, -0.113407092868432, 0.3035242075802, -1.12618768050975, 1.09437296903179, -1.26603540934235], a = 0.2, v = 0.2, t = 0.2)
movej(p[0.416224959037437, -0.1128175092849, 0.304013306647407, -1.12174278268118, 1.08352022787077, -1.25994797566932], a = 0.2, v = 0.2, t = 0.2)
movej(p[0.415909187773569, -0.112780175204668, 0.304121945891553, -1.12046769191612, 1.08178918779826, -1.25604754067276], a = 0.2, v = 0.2, t = 0.2)
movej(p[0.415907954211994, -0.112732500238724, 0.304122876454901, -1.11996497134712, 1.08081646850006, -1.25172088146572], a = 0.2, v = 0.2, t = 0.2)
movej(p[0.416252973444497, -0.112721959348434, 0.3040402016774, -1.117504751388, 1.08465572527054, -1.23417651479081], a = 0.2, v = 0.2, t = 0.2)
movej(p[0.418340523107263, -0.113003356219056, 0.303467889510229, -1.12011958625582, 1.08715597770685, -1.23273019029416], a = 0.2, v = 0.2, t = 0.2)
movej(p[0.422629875982631, -0.114456456659441, 0.302702283272841, -1.12044204309643, 1.09779007946244, -1.24258055582978], a = 0.2, v = 0.2, t = 0.2)
movej(p[0.427128085071109, -0.115779243717361, 0.301673009793278, -1.12695565892872, 1.10451512175965, -1.2411275949494], a = 0.2, v = 0.2, t = 0.2)
movej(p[0.428897280047805, -0.116287058481267, 0.301314251323007, -1.12919953573384, 1.10645311845601, -1.24008929017438], a = 0.2, v = 0.2, t = 0.2)
movej(p[0.429590341262589, -0.11661658847886, 0.301185087731976, -1.13492385286841, 1.11188146766063, -1.23677125213162], a = 0.2, v = 0.2, t = 0.2)
movej(p[0.43031676283269, -0.116829235521048, 0.301058031610747, -1.13937264269553, 1.11621284971057, -1.23419799303786], a = 0.2, v = 0.2, t = 0.2)
movej(p[0.430572672296894, -0.116820594539623, 0.300954569107537, -1.14017669120766, 1.11553877543818, -1.22882010413147], a = 0.2, v = 0.2, t = 0.2)
movej(p[0.43074999108551, -0.116820362443159, 0.300900933267512, -1.13942388210211, 1.11837101259641, -1.22552986365355], a = 0.2, v = 0.2, t = 0.2)
movej(p[0.431027235848401, -0.116813137158132, 0.300898282474107, -1.13975526540252, 1.1186907119632, -1.22533889717411], a = 0.2, v = 0.2, t = 0.2)
movej(p[0.431501204219051, -0.116968889722164, 0.300802327003075, -1.14207115156421, 1.12280508112328, -1.22471821790838], a = 0.2, v = 0.2, t = 0.2)
movej(p[0.431698272555062, -0.117037015589545, 0.300699114614597, -1.14648576254856, 1.12943610153069, -1.21978196768214], a = 0.2, v = 0.2, t = 0.2)
movej(p[0.432035105695482, -0.117027779612941, 0.300672442114698, -1.14708127554836, 1.1277127308004, -1.21086485853471], a = 0.2, v = 0.2, t = 0.2)
movej(p[0.432236061472588, -0.117211103953292, 0.300678850069344, -1.14639728613456, 1.12817324194195, -1.21013678848573], a = 0.2, v = 0.2, t = 0.2)
movej(p[0.432673363175394, -0.117501227721107, 0.300698353660595, -1.14569444273681, 1.12860991035225, -1.20928467860563], a = 0.2, v = 0.2, t = 0.2)
movej(p[0.432823130606138, -0.11749516379592, 0.300586217201315, -1.14641504496813, 1.13121672460151, -1.20745062873385], a = 0.2, v = 0.2, t = 0.2)
movej(p[0.43282132810631, -0.117425500376083, 0.300587576955307, -1.14504531010151, 1.13217191093363, -1.20609905524999], a = 0.2, v = 0.2, t = 0.2)
movej(p[0.431956596061627, -0.117313360657331, 0.300887774147794, -1.13344563953717, 1.1320352541953, -1.21164427519881], a = 0.2, v = 0.2, t = 0.2)
movej(p[0.431025700788464, -0.117277798612527, 0.301276467820718, -1.13159975406148, 1.13488538407345, -1.21445162840622], a = 0.2, v = 0.2, t = 0.2)
movej(p[0.429946043905632, -0.117106565690172, 0.301549993544656, -1.1322632845424, 1.13427081925483, -1.21932848903641], a = 0.2, v = 0.2, t = 0.2)
movej(p[0.429085490496366, -0.116707577984713, 0.301666201765931, -1.12927011143188, 1.13500750699787, -1.2237492295148], a = 0.2, v = 0.2, t = 0.2)
movej(p[0.426132618773926, -0.115573624744891, 0.302193053396579, -1.13001097311369, 1.13425111208749, -1.22479267199448], a = 0.2, v = 0.2, t = 0.2)
movej(p[0.423402984926692, -0.114925609563314, 0.302809923662097, -1.12986611090296, 1.12810296244237, -1.22845031398195], a = 0.2, v = 0.2, t = 0.2)
movej(p[0.420859934356266, -0.114102628304874, 0.303260249871093, -1.13185326796484, 1.12101742251963, -1.22962105135235], a = 0.2, v = 0.2, t = 0.2)
movej(p[0.418434554120988, -0.113134630494915, 0.303674828324751, -1.12929742919255, 1.11605870198004, -1.23013808649411], a = 0.2, v = 0.2, t = 0.2)
movej(p[0.416720178336987, -0.112836062121162, 0.304015863524439, -1.12534943045436, 1.10405538613813, -1.22716696090238], a = 0.2, v = 0.2, t = 0.2)
movej(p[0.416352489620591, -0.112648007073197, 0.304232942051175, -1.12177546010109, 1.09187953004012, -1.21548492112227], a = 0.2, v = 0.2, t = 0.2)
movej(p[0.416352489620591, -0.112648007073197, 0.304232942051175, -1.122144299245, 1.09114614607739, -1.21445959216727], a = 0.2, v = 0.2, t = 0.2)
movej(p[0.416376474662043, -0.112644698826656, 0.304095247485954, -1.11938709725214, 1.09029443360989, -1.20233754880812], a = 0.2, v = 0.2, t = 0.2)
movej(p[0.417725023920477, -0.112618579281001, 0.303760461140787, -1.11911240607916, 1.09783131301747, -1.19477614738838], a = 0.2, v = 0.2, t = 0.2)
movej(p[0.41995711638648, -0.113272802229948, 0.303294174033645, -1.13099554580254, 1.11251795049157, -1.18953790954837], a = 0.2, v = 0.2, t = 0.2)
movej(p[0.421649057653764, -0.113570760595398, 0.302820384322359, -1.12897013852133, 1.11721141350358, -1.19534460217462], a = 0.2, v = 0.2, t = 0.2)
movej(p[0.423756032999364, -0.114042708862459, 0.302373849848607, -1.12873688919161, 1.11882556219428, -1.19943614113568], a = 0.2, v = 0.2, t = 0.2)
movej(p[0.425988425976951, -0.114835873831315, 0.301901251260162, -1.12826737908339, 1.1219853245271, -1.20735386586939], a = 0.2, v = 0.2, t = 0.2)
movej(p[0.427993452241755, -0.11583082425901, 0.301618294825573, -1.13342303195313, 1.12289215540121, -1.20838725403368], a = 0.2, v = 0.2, t = 0.2)
movej(p[0.429262193093304, -0.116140318534057, 0.301292415867485, -1.13788495513029, 1.12506905327542, -1.20835930553338], a = 0.2, v = 0.2, t = 0.2)
movej(p[0.430506702609535, -0.116456857922286, 0.300992923814652, -1.13847171759828, 1.12482432992727, -1.20942066704929], a = 0.2, v = 0.2, t = 0.2)
movej(p[0.431232146685969, -0.116732102750461, 0.300867900350736, -1.13993055563697, 1.12621278462408, -1.20857235808284], a = 0.2, v = 0.2, t = 0.2)
movej(p[0.43192471659599, -0.117313124486437, 0.300864170463886, -1.141054314889, 1.12812466361173, -1.20851510536597], a = 0.2, v = 0.2, t = 0.2)
movej(p[0.432030686479957, -0.11731040898099, 0.300865523136164, -1.14216782329783, 1.13006352355116, -1.20530238340336], a = 0.2, v = 0.2, t = 0.2)
movej(p[0.43220804250237, -0.117166016863348, 0.300710219666542, -1.14210478031526, 1.13170655184245, -1.20527852754189], a = 0.2, v = 0.2, t = 0.2)
movej(p[0.432207427014624, -0.117142229354135, 0.300710683972783, -1.13858496967206, 1.13719468267033, -1.21062613743583], a = 0.2, v = 0.2, t = 0.2)
movej(p[0.430278441037252, -0.117065031940418, 0.301328764354624, -1.13232496109696, 1.13687775938589, -1.22098814663499], a = 0.2, v = 0.2, t = 0.2)
movej(p[0.427857054767377, -0.116282110530723, 0.301819337507477, -1.13209727951254, 1.13657388379222, -1.22524939444847], a = 0.2, v = 0.2, t = 0.2)
movej(p[0.425622955872177, -0.115347057655785, 0.302232600592615, -1.12918849910727, 1.1333812731172, -1.22733827533182], a = 0.2, v = 0.2, t = 0.2)
movej(p[0.423511504264222, -0.114492477337615, 0.302604963059925, -1.12558831521753, 1.12567430881995, -1.22939875711479], a = 0.2, v = 0.2, t = 0.2)
movej(p[0.421528245197537, -0.114007426486882, 0.303056813042346, -1.12675604316758, 1.12459007123879, -1.22974020026083], a = 0.2, v = 0.2, t = 0.2)
movej(p[0.419860420222178, -0.113405891848329, 0.303351539661755, -1.12924815272908, 1.12180064162885, -1.22630280733775], a = 0.2, v = 0.2, t = 0.2)
movej(p[0.418432713193436, -0.112800209815248, 0.303593183790351, -1.13024191455883, 1.11928121806176, -1.22199515906563], a = 0.2, v = 0.2, t = 0.2)
movej(p[0.417090279639141, -0.112378086067617, 0.303899783291311, -1.12805589630384, 1.11376545865008, -1.21602583542057], a = 0.2, v = 0.2, t = 0.2)
movej(p[0.41695013497546, -0.112329899282824, 0.303962024732596, -1.1299475470627, 1.1093553547043, -1.20886169959996], a = 0.2, v = 0.2, t = 0.2)
movej(p[0.41695013497546, -0.112329899282824, 0.303962024732596, -1.12788323515508, 1.10901360946441, -1.19367978501592], a = 0.2, v = 0.2, t = 0.2)
movej(p[0.417929468177579, -0.112298966084299, 0.303675454904357, -1.12672655879671, 1.11231716090114, -1.18614104367044], a = 0.2, v = 0.2, t = 0.2)
movej(p[0.419597753947135, -0.112479872471038, 0.303263058529086, -1.12557380095848, 1.11491978416003, -1.17831934168675], a = 0.2, v = 0.2, t = 0.2)
movej(p[0.421644093837084, -0.113402341629233, 0.302996770326225, -1.12727867131092, 1.11648250683678, -1.17734010021379], a = 0.2, v = 0.2, t = 0.2)
movej(p[0.42383818688041, -0.11392790494069, 0.302465137358025, -1.13087714275793, 1.12732156836144, -1.18657700298512], a = 0.2, v = 0.2, t = 0.2)
movej(p[0.425644220091973, -0.114441399921373, 0.302077156129682, -1.13311098780752, 1.13286489894818, -1.18863914781204], a = 0.2, v = 0.2, t = 0.2)
movej(p[0.427450382607681, -0.115088648452684, 0.30171412266626, -1.13418044165231, 1.1327723894965, -1.19162989635177], a = 0.2, v = 0.2, t = 0.2)
movej(p[0.42905439016924, -0.115782236230394, 0.301406809654703, -1.13863304817858, 1.13303703421219, -1.19400143737695], a = 0.2, v = 0.2, t = 0.2)
movej(p[0.430123757713888, -0.116285758082069, 0.301181900563421, -1.13939411899631, 1.13383056131739, -1.19376283654306], a = 0.2, v = 0.2, t = 0.2)
movej(p[0.430628203333731, -0.116410684965231, 0.30105922179393, -1.14009041424471, 1.13439892822755, -1.19344271682064], a = 0.2, v = 0.2, t = 0.2)
movej(p[0.431350576782713, -0.11664937836814, 0.300928475170213, -1.14092278774219, 1.1331090418482, -1.19218185045452], a = 0.2, v = 0.2, t = 0.2)
movej(p[0.432260973384852, -0.11720964396758, 0.300790852770513, -1.14380193715324, 1.13103785105295, -1.19485635670047], a = 0.2, v = 0.2, t = 0.2)
movej(p[0.432682431062909, -0.117287228092431, 0.300767409452115, -1.14646786557219, 1.13394323343645, -1.19344183996018], a = 0.2, v = 0.2, t = 0.2)
movej(p[0.432861704960224, -0.11728345523009, 0.300775882069863, -1.14222214356143, 1.13785974252303, -1.19204838510312], a = 0.2, v = 0.2, t = 0.2)
movej(p[0.432861686857643, -0.117282755597467, 0.300775895725929, -1.13977432798688, 1.14069838521912, -1.19364662760263], a = 0.2, v = 0.2, t = 0.2)
movej(p[0.43190431479091, -0.117151091838801, 0.301070477922427, -1.13491132492263, 1.1402150099205, -1.19803871745817], a = 0.2, v = 0.2, t = 0.2)
movej(p[0.430582940406296, -0.117129986090892, 0.301425883624535, -1.13053462429568, 1.14166465925504, -1.20586101475419], a = 0.2, v = 0.2, t = 0.2)
movej(p[0.428650042711973, -0.116423011112998, 0.301836456083322, -1.12987900243396, 1.14308957130972, -1.20810417313158], a = 0.2, v = 0.2, t = 0.2)
movej(p[0.426499509383559, -0.115416512674145, 0.302211428863621, -1.13023719619488, 1.14227057859212, -1.20908103712868], a = 0.2, v = 0.2, t = 0.2)
movej(p[0.424308963147667, -0.114864126736107, 0.302624303013789, -1.12813584602871, 1.13527238421931, -1.21284439207268], a = 0.2, v = 0.2, t = 0.2)
movej(p[0.422449493477987, -0.114487043919304, 0.303051172627153, -1.12737383798805, 1.1290190097132, -1.21450636031845], a = 0.2, v = 0.2, t = 0.2)
movej(p[0.420637800162599, -0.113847355259543, 0.303337977037078, -1.12604636215605, 1.1223439679765, -1.21514234393922], a = 0.2, v = 0.2, t = 0.2)
movej(p[0.418898721688859, -0.11317998295775, 0.303681616038023, -1.12506812341261, 1.11520527761541, -1.21329499385269], a = 0.2, v = 0.2, t = 0.2)
movej(p[0.417159909925811, -0.112897215176646, 0.304010367744723, -1.12343314873736, 1.10755877870911, -1.21181161957585], a = 0.2, v = 0.2, t = 0.2)
movej(p[0.416961627464876, -0.112799806121002, 0.304082864651995, -1.12504774395948, 1.10398133941959, -1.20712475651024], a = 0.2, v = 0.2, t = 0.2)
movej(p[0.416959056898408, -0.112700458288407, 0.304084803813354, -1.12160894220875, 1.1028409434243, -1.19285853638655], a = 0.2, v = 0.2, t = 0.2)
movej(p[0.417958232901987, -0.112668238920199, 0.303758644226367, -1.1238690092082, 1.10864742357706, -1.1805910081795], a = 0.2, v = 0.2, t = 0.2)
movej(p[0.418991716346082, -0.112667576760265, 0.303567187097157, -1.1257500303161, 1.11326674682218, -1.17655767044374], a = 0.2, v = 0.2, t = 0.2)
movej(p[0.421274920716433, -0.113214870029235, 0.30312387621194, -1.12744245116828, 1.12091777630754, -1.17798865098646], a = 0.2, v = 0.2, t = 0.2)
movej(p[0.424511653502865, -0.114145663159578, 0.30246823034126, -1.13074912197446, 1.12741550375385, -1.18525328502957], a = 0.2, v = 0.2, t = 0.2)
movej(p[0.427037669735038, -0.114886105063578, 0.301954519068654, -1.12816349852995, 1.13397953570202, -1.19691589508963], a = 0.2, v = 0.2, t = 0.2)
movej(p[0.428625069053716, -0.11549736103161, 0.30164115218367, -1.13237290604666, 1.13200498524428, -1.20668751856134], a = 0.2, v = 0.2, t = 0.2)
movej(p[0.430284160800742, -0.116504435287405, 0.30138748076576, -1.1349932951332, 1.13025533316072, -1.20946014031576], a = 0.2, v = 0.2, t = 0.2)
movej(p[0.430871634130266, -0.116663365428932, 0.301225464509747, -1.13990737982924, 1.13223609695529, -1.20556861062791], a = 0.2, v = 0.2, t = 0.2)
movej(p[0.431412183873019, -0.116805298536492, 0.301094121985833, -1.13904776614638, 1.1323542355621, -1.20332868876517], a = 0.2, v = 0.2, t = 0.2)
movej(p[0.431826842807151, -0.117032369008593, 0.301015937466619, -1.13808767819297, 1.13144299285255, -1.20389190736181], a = 0.2, v = 0.2, t = 0.2)
movej(p[0.431832035661747, -0.117233063624136, 0.301012020126569, -1.13678596012581, 1.13409168325277, -1.20768628639694], a = 0.2, v = 0.2, t = 0.2)
movej(p[0.431817654113644, -0.117234791468827, 0.301081477420116, -1.13623500716163, 1.13910610750067, -1.21447616577349], a = 0.2, v = 0.2, t = 0.2)
movej(p[0.429966576268261, -0.116794178935616, 0.301499153426022, -1.13374107397571, 1.14436838681873, -1.22225133157494], a = 0.2, v = 0.2, t = 0.2)
movej(p[0.42776368084653, -0.116219308955131, 0.302014976570573, -1.12668587422792, 1.14171560587562, -1.2306056429532], a = 0.2, v = 0.2, t = 0.2)
movej(p[0.425774013493566, -0.115882211391365, 0.302503216232064, -1.13086662386501, 1.13858992795716, -1.23535106562094], a = 0.2, v = 0.2, t = 0.2)
movej(p[0.423552521815437, -0.115000108855924, 0.302867710376012, -1.13014270962484, 1.1373070015081, -1.23557151950593], a = 0.2, v = 0.2, t = 0.2)
movej(p[0.421490384460256, -0.113984779358828, 0.303214981092734, -1.12579960087951, 1.13065868631306, -1.23297738133347], a = 0.2, v = 0.2, t = 0.2)
movej(p[0.419717689007448, -0.113540502799201, 0.303615481667217, -1.12200807864068, 1.12354283400988, -1.23019300893737], a = 0.2, v = 0.2, t = 0.2)
movej(p[0.419493784988614, -0.113421535167386, 0.303610584430238, -1.11567328525907, 1.12668200199557, -1.22041526488182], a = 0.2, v = 0.2, t = 0.2)
movej(p[0.41943401225409, -0.112933056739998, 0.303617359102507, -1.11492730144138, 1.12977511833646, -1.2164978991457], a = 0.2, v = 0.2, t = 0.2)
movej(p[0.419483359927229, -0.11293108613229, 0.303581815835057, -1.12659586778217, 1.13207959148979, -1.20629700116159], a = 0.2, v = 0.2, t = 0.2)
movej(p[0.419652698988954, -0.11300365500663, 0.303505441424086, -1.13200232281437, 1.13082694583906, -1.20072217778328], a = 0.2, v = 0.2, t = 0.2)
movej(p[0.420988990161922, -0.113610860679679, 0.303241179164835, -1.13141540290355, 1.13121935402763, -1.20009930403546], a = 0.2, v = 0.2, t = 0.2)
movej(p[0.423366410124807, -0.114087333401581, 0.302728827912901, -1.12290403915425, 1.13974304743, -1.20156293621553], a = 0.2, v = 0.2, t = 0.2)
movej(p[0.42554911807039, -0.114527252215558, 0.302269266642341, -1.12212714561785, 1.14092554668932, -1.20273380496039], a = 0.2, v = 0.2, t = 0.2)
movej(p[0.428023161604549, -0.115573471123193, 0.301738766304552, -1.12811366603983, 1.13976543088813, -1.20622875780748], a = 0.2, v = 0.2, t = 0.2)
movej(p[0.429621741884629, -0.116508273905993, 0.301485175876094, -1.12718977123542, 1.14303964964093, -1.20863616976047], a = 0.2, v = 0.2, t = 0.2)
movej(p[0.430504534951252, -0.116705402858805, 0.301272719321743, -1.13057353121746, 1.14577070286142, -1.20723252617428], a = 0.2, v = 0.2, t = 0.2)
movej(p[0.430867708611784, -0.116884175624447, 0.301194339473823, -1.13082348092607, 1.14578504133076, -1.2073140763869], a = 0.2, v = 0.2, t = 0.2)
movej(p[0.431000880803374, -0.116908046358125, 0.301153442218891, -1.13111934661269, 1.14559487806014, -1.20763521610162], a = 0.2, v = 0.2, t = 0.2)
movej(p[0.431662607210786, -0.117019300507234, 0.30102573252451, -1.13160684611133, 1.14573519161425, -1.20767886569577], a = 0.2, v = 0.2, t = 0.2)
movej(p[0.432140378658635, -0.117336804946881, 0.300928000163314, -1.13211888798087, 1.14497024460415, -1.20691895217809], a = 0.2, v = 0.2, t = 0.2)
movej(p[0.432640291736306, -0.117599931696808, 0.300810966115934, -1.13829313423274, 1.14830758817529, -1.20132888360674], a = 0.2, v = 0.2, t = 0.2)
movej(p[0.433003664739074, -0.117605699367091, 0.300639850906677, -1.13829313423274, 1.14830758817529, -1.20132888360674], a = 0.2, v = 0.2, t = 0.2)
movej(p[0.433009129132382, -0.117816888471993, 0.300635728725639, -1.13503886005873, 1.15330118802866, -1.20954181459592], a = 0.2, v = 0.2, t = 0.2)
movej(p[0.432456629561626, -0.117835230850852, 0.300843054800826, -1.13328133213972, 1.1557340390439, -1.21396582335787], a = 0.2, v = 0.2, t = 0.2)
movej(p[0.430257910173404, -0.117192608767363, 0.301327684143385, -1.13049597284318, 1.15836939885486, -1.21758854303084], a = 0.2, v = 0.2, t = 0.2)
movej(p[0.428032242450861, -0.116262905558486, 0.301795532999569, -1.12641388354417, 1.15208512365098, -1.22244301353774], a = 0.2, v = 0.2, t = 0.2)
movej(p[0.425636346622161, -0.115891976278648, 0.302334039255221, -1.12775938704368, 1.14169181188993, -1.22807762340616], a = 0.2, v = 0.2, t = 0.2)
movej(p[0.423692359020233, -0.115271030545291, 0.302739347396981, -1.12955591966588, 1.13821426124754, -1.23047868505724], a = 0.2, v = 0.2, t = 0.2)
movej(p[0.421448863502206, -0.114305203283672, 0.303203806190961, -1.12486711325156, 1.12812389350007, -1.23494521093326], a = 0.2, v = 0.2, t = 0.2)
movej(p[0.419172300109684, -0.113593515773955, 0.30370677150621, -1.12517741922313, 1.12135574346888, -1.23207277574737], a = 0.2, v = 0.2, t = 0.2)
movej(p[0.419051042626478, -0.113133160377206, 0.303709354421428, -1.12276332719788, 1.11697312366289, -1.21198584485352], a = 0.2, v = 0.2, t = 0.2)
movej(p[0.419052351719268, -0.113132690125443, 0.303686997651998, -1.12632585925487, 1.12319693229695, -1.1934533266383], a = 0.2, v = 0.2, t = 0.2)
movej(p[0.421922260081724, -0.113527911110851, 0.303017129983126, -1.12231287696175, 1.12943444545224, -1.18556016195621], a = 0.2, v = 0.2, t = 0.2)
movej(p[0.425195947542208, -0.114397091393792, 0.302303825989855, -1.11702536680062, 1.13865763340939, -1.19402490147154], a = 0.2, v = 0.2, t = 0.2)
movej(p[0.427695840829972, -0.115386548184598, 0.301759801882928, -1.12465617694147, 1.13853401218826, -1.20717783650546], a = 0.2, v = 0.2, t = 0.2)
movej(p[0.429225000991283, -0.116331907082008, 0.301442409686828, -1.12777663630729, 1.14103730405647, -1.20589290463291], a = 0.2, v = 0.2, t = 0.2)
movej(p[0.429948305560544, -0.116505405354235, 0.301248263789058, -1.1303376844233, 1.1436280940044, -1.20441931128875], a = 0.2, v = 0.2, t = 0.2)
movej(p[0.430757503258431, -0.116670099328501, 0.301055224594655, -1.13098154103359, 1.14772423270447, -1.20582232324959], a = 0.2, v = 0.2, t = 0.2)
movej(p[0.431325581831187, -0.117007166872129, 0.300946638287013, -1.1316188343751, 1.14773762512849, -1.20605459735028], a = 0.2, v = 0.2, t = 0.2)
movej(p[0.432106559168092, -0.117475161932845, 0.300774723301086, -1.13575978991353, 1.14761503285778, -1.2021052671342], a = 0.2, v = 0.2, t = 0.2)
movej(p[0.432444965464007, -0.117464125734464, 0.30065790655909, -1.1369867104763, 1.15141537344133, -1.19863619462891], a = 0.2, v = 0.2, t = 0.2)
movej(p[0.43278481457605, -0.11745427370205, 0.30060367005385, -1.13640530643138, 1.15309229142729, -1.19853333509565], a = 0.2, v = 0.2, t = 0.2)
movej(p[0.433027544964713, -0.117570309345887, 0.300539696170281, -1.13615511120804, 1.15347311716544, -1.19890322324404], a = 0.2, v = 0.2, t = 0.2)
movej(p[0.433034910129001, -0.117854959876299, 0.300534140102322, -1.13490174792126, 1.15558145784668, -1.20321912661155], a = 0.2, v = 0.2, t = 0.2)
movej(p[0.432633991780021, -0.117867621605558, 0.300651370209646, -1.13207232172251, 1.15702799926854, -1.20686153575333], a = 0.2, v = 0.2, t = 0.2)
movej(p[0.43165005719404, -0.117708988054721, 0.3008771334198, -1.13099325754984, 1.15757304712992, -1.20814041082367], a = 0.2, v = 0.2, t = 0.2)
movej(p[0.428722509937559, -0.116553917498585, 0.301544880296556, -1.12781936242486, 1.15266008734365, -1.22183154655894], a = 0.2, v = 0.2, t = 0.2)
movej(p[0.42586435631467, -0.115903151841671, 0.302178529779905, -1.12865444630913, 1.14798933106523, -1.22691181187579], a = 0.2, v = 0.2, t = 0.2)
movej(p[0.423780577609209, -0.115052374078376, 0.302618359876816, -1.12712724188021, 1.13347678862491, -1.22495908123301], a = 0.2, v = 0.2, t = 0.2)
movej(p[0.421785927409182, -0.114214121602792, 0.303038898610716, -1.12453244437843, 1.12922276753163, -1.22594249805869], a = 0.2, v = 0.2, t = 0.2)
movej(p[0.419441087347622, -0.113415957787664, 0.303526659812459, -1.11782320554043, 1.11047202385802, -1.22507220373534], a = 0.2, v = 0.2, t = 0.2)
movej(p[0.418356108562043, -0.113267952286527, 0.303686267038098, -1.12136666129918, 1.10436988824315, -1.2179342714759], a = 0.2, v = 0.2, t = 0.2)
movej(p[0.418352894060916, -0.113143717522025, 0.30368869196523, -1.12688876643345, 1.10590302229849, -1.18702362810711], a = 0.2, v = 0.2, t = 0.2)
movej(p[0.421307268666798, -0.11305378164497, 0.302997404386769, -1.12580383179736, 1.11894925708358, -1.17330081766103], a = 0.2, v = 0.2, t = 0.2)
movej(p[0.425148310320364, -0.114203258156379, 0.302182677398576, -1.12200162488209, 1.13120414808247, -1.18160652962081], a = 0.2, v = 0.2, t = 0.2)
movej(p[0.42788970804094, -0.11549645405263, 0.30165532286741, -1.12728588933826, 1.13622921522674, -1.1997462499486], a = 0.2, v = 0.2, t = 0.2)
movej(p[0.429617982056976, -0.116357728677706, 0.301317893755305, -1.13195161337218, 1.13709890256772, -1.20062603713123], a = 0.2, v = 0.2, t = 0.2)
movej(p[0.430311369317611, -0.116713040751058, 0.301141416653903, -1.13804961113938, 1.14096861691149, -1.19766956920651], a = 0.2, v = 0.2, t = 0.2)
movej(p[0.430899544738739, -0.116753745314902, 0.301023207929763, -1.14275465100063, 1.14107721041409, -1.19329320804673], a = 0.2, v = 0.2, t = 0.2)
movej(p[0.431376949784276, -0.117236996705431, 0.300933189453619, -1.14425897347922, 1.14062377460643, -1.19434304734011], a = 0.2, v = 0.2, t = 0.2)
movej(p[0.431741836791159, -0.117460343009991, 0.300869903116644, -1.14343416282297, 1.14451413556406, -1.19652691756571], a = 0.2, v = 0.2, t = 0.2)
movej(p[0.4321041346333, -0.117449103243462, 0.300774327904228, -1.1412807465591, 1.14716572654654, -1.19293531790828], a = 0.2, v = 0.2, t = 0.2)
movej(p[0.43243275144977, -0.117440997394743, 0.300692144370906, -1.14090329027773, 1.14733367583062, -1.19229974125289], a = 0.2, v = 0.2, t = 0.2)
movej(p[0.432625849735673, -0.117589940643269, 0.300679778664298, -1.14090329027773, 1.14733367583062, -1.19229974125289], a = 0.2, v = 0.2, t = 0.2)
movej(p[0.432625849735673, -0.117589940643269, 0.300679778664298, -1.135341551262, 1.15685616376664, -1.20403112286817], a = 0.2, v = 0.2, t = 0.2)
movej(p[0.43115303501995, -0.117419627576785, 0.301002102465052, -1.13619599666048, 1.1556771563697, -1.20768520814056], a = 0.2, v = 0.2, t = 0.2)
movej(p[0.429522495810376, -0.116905852791899, 0.301346962503994, -1.13233536831296, 1.16020653665533, -1.21450658781975], a = 0.2, v = 0.2, t = 0.2)
movej(p[0.42790715284307, -0.116481376791027, 0.301699250287856, -1.13126772648283, 1.14974332963374, -1.22664852253001], a = 0.2, v = 0.2, t = 0.2)
movej(p[0.426475387537068, -0.116203038244962, 0.302000700619259, -1.13115800927785, 1.14812062148053, -1.22825194172283], a = 0.2, v = 0.2, t = 0.2)
movej(p[0.424879178146304, -0.115433659431724, 0.302300345680252, -1.13041069398235, 1.14508675929267, -1.22787646984743], a = 0.2, v = 0.2, t = 0.2)
movej(p[0.424305757445892, -0.11517489122683, 0.302415087897743, -1.12960770741049, 1.14403465921896, -1.22826120912893], a = 0.2, v = 0.2, t = 0.2)
movej(p[0.423853367457471, -0.115005146991146, 0.30250969557623, -1.12879188131873, 1.14320820521431, -1.22871941445174], a = 0.2, v = 0.2, t = 0.2)
movej(p[0.422440226611457, -0.114717886147614, 0.302814427995084, -1.12586836893492, 1.13423021575721, -1.2280553395809], a = 0.2, v = 0.2, t = 0.2)
movej(p[0.422435677691519, -0.114542078463978, 0.30281785956936, -1.12877947161903, 1.12652847820454, -1.21438876190234], a = 0.2, v = 0.2, t = 0.2)
movej(p[0.423284616507273, -0.114515924859666, 0.302603307929682, -1.12159443308562, 1.13566388065902, -1.20240796065826], a = 0.2, v = 0.2, t = 0.2)
movej(p[0.428337492455091, -0.115488500159924, 0.301523604895841, -1.12401046737865, 1.13805233863321, -1.20101306731173], a = 0.2, v = 0.2, t = 0.2)
movej(p[0.430522717248634, -0.116899812995429, 0.301076822530447, -1.13146879288392, 1.14192112637608, -1.19987097909005], a = 0.2, v = 0.2, t = 0.2)
movej(p[0.431392860363494, -0.117119842948515, 0.300872661933353, -1.13443838043431, 1.1447299928275, -1.19810729227001], a = 0.2, v = 0.2, t = 0.2)
movej(p[0.431835296905083, -0.117188235298433, 0.300780304621031, -1.13663398175993, 1.15010576334919, -1.19797281371845], a = 0.2, v = 0.2, t = 0.2)
movej(p[0.432181621771024, -0.117450108017108, 0.300708107485042, -1.13711552766776, 1.14981339224935, -1.19846376265317], a = 0.2, v = 0.2, t = 0.2)
movej(p[0.4323945591738, -0.117443751151653, 0.300664701578062, -1.13802818473752, 1.14912020231447, -1.19739418009453], a = 0.2, v = 0.2, t = 0.2)
movej(p[0.432484008933435, -0.117572815695337, 0.300634461305828, -1.13944593511627, 1.14854510251334, -1.19854214286476], a = 0.2, v = 0.2, t = 0.2)
movej(p[0.432681752243687, -0.117586346141599, 0.300595358233385, -1.13958307472223, 1.14874632788971, -1.19848511070626], a = 0.2, v = 0.2, t = 0.2)
movej(p[0.432964276086183, -0.117761459090941, 0.300576256312178, -1.14179917018762, 1.15458452266033, -1.19502944264748], a = 0.2, v = 0.2, t = 0.2)
movej(p[0.432964276086183, -0.117761459090941, 0.300576256312178, -1.13922962328344, 1.15849676267695, -1.19880872440005], a = 0.2, v = 0.2, t = 0.2)
movej(p[0.431907171580687, -0.117578614141232, 0.300792232743355, -1.13455294496483, 1.15888560642692, -1.20611855756236], a = 0.2, v = 0.2, t = 0.2)
movej(p[0.43054451166868, -0.117197839034779, 0.301083652839638, -1.13017877879583, 1.1591915369096, -1.21284076477178], a = 0.2, v = 0.2, t = 0.2)
movej(p[0.428952190189245, -0.11683901713018, 0.301436709218861, -1.13039151521739, 1.16018139837409, -1.225765495671], a = 0.2, v = 0.2, t = 0.2)
movej(p[0.427728969488244, -0.11661375141477, 0.301683728011874, -1.13078619047147, 1.1599304765859, -1.22617827412274], a = 0.2, v = 0.2, t = 0.2)
movej(p[0.426214926042349, -0.116108596852743, 0.301958279596113, -1.13302250170274, 1.15916014418453, -1.22378857870266], a = 0.2, v = 0.2, t = 0.2)
movej(p[0.425788396263309, -0.115893485055458, 0.302049043588203, -1.13333238151263, 1.15868674689557, -1.22333092887286], a = 0.2, v = 0.2, t = 0.2)
movej(p[0.424171421048981, -0.115317503364449, 0.302392699939624, -1.1325714908822, 1.15073754414794, -1.23076639407963], a = 0.2, v = 0.2, t = 0.2)
movej(p[0.422566728316842, -0.115133850940713, 0.302733331944396, -1.1332602011289, 1.14654924268055, -1.23144640302047], a = 0.2, v = 0.2, t = 0.2)
movej(p[0.420969802980283, -0.114481547944628, 0.303068646186198, -1.13266566380343, 1.13850334954577, -1.22910401971853], a = 0.2, v = 0.2, t = 0.2)
movej(p[0.41966544262746, -0.113817703429285, 0.30330300586582, -1.1301341645555, 1.13234308860643, -1.21548618712829], a = 0.2, v = 0.2, t = 0.2)
movej(p[0.41966544262746, -0.113817703429285, 0.30330300586582, -1.12964475307351, 1.12982598851395, -1.20666785820476], a = 0.2, v = 0.2, t = 0.2)
movej(p[0.420759924960253, -0.113881206182597, 0.303070988294232, -1.12870410876373, 1.130671641788, -1.20117519436534], a = 0.2, v = 0.2, t = 0.2)
movej(p[0.42115103399021, -0.114042376952804, 0.302989003603484, -1.12823332241839, 1.13576297465273, -1.19548531426929], a = 0.2, v = 0.2, t = 0.2)
movej(p[0.423448673033291, -0.114239006594751, 0.302458229120661, -1.12806959644978, 1.14196859524376, -1.18929466707075], a = 0.2, v = 0.2, t = 0.2)
movej(p[0.426683801108905, -0.115177548649482, 0.301761747982455, -1.12751743657778, 1.14547436444556, -1.19109550907488], a = 0.2, v = 0.2, t = 0.2)
movej(p[0.429117459270266, -0.116212479541267, 0.30124014159554, -1.13299708848989, 1.15080367809645, -1.20251281885932], a = 0.2, v = 0.2, t = 0.2)
movej(p[0.430652096410856, -0.117012809834847, 0.300896563587079, -1.13491722675783, 1.15193026398048, -1.20397898531857], a = 0.2, v = 0.2, t = 0.2)
movej(p[0.431398643153294, -0.117205672710947, 0.300741144211266, -1.13528822190351, 1.15235399410599, -1.20421806140991], a = 0.2, v = 0.2, t = 0.2)
movej(p[0.431915761268879, -0.117396632374197, 0.300630042134122, -1.13634731418213, 1.15486952908562, -1.20508258624376], a = 0.2, v = 0.2, t = 0.2)
movej(p[0.432534318432096, -0.117868954903975, 0.300505535693743, -1.13887321747082, 1.15729363973921, -1.20354982860237], a = 0.2, v = 0.2, t = 0.2)
movej(p[0.432800066449016, -0.117909341932468, 0.300451113552726, -1.14062016498437, 1.15686525281334, -1.19946760109454], a = 0.2, v = 0.2, t = 0.2)
movej(p[0.433041214173478, -0.11790166406896, 0.300377425593067, -1.14090014834983, 1.15745678915093, -1.19895880027016], a = 0.2, v = 0.2, t = 0.2)
movej(p[0.433041232276058, -0.117902363701583, 0.300377411937001, -1.13691251230788, 1.16351271172591, -1.2048011369794], a = 0.2, v = 0.2, t = 0.2)
movej(p[0.432371671723436, -0.117922665560025, 0.30052994990249, -1.13684089102677, 1.16565248805887, -1.21152816728474], a = 0.2, v = 0.2, t = 0.2)
movej(p[0.430559496704171, -0.117632731336985, 0.300896637802292, -1.13495856338087, 1.16517158926006, -1.21870092491264], a = 0.2, v = 0.2, t = 0.2)
movej(p[0.428363614526394, -0.116914971180083, 0.301359468287986, -1.13102183845847, 1.16020091922828, -1.22495473238738], a = 0.2, v = 0.2, t = 0.2)
movej(p[0.426046829744975, -0.116158246929448, 0.301834073740003, -1.13027131358997, 1.15423798638566, -1.23074913157196], a = 0.2, v = 0.2, t = 0.2)
movej(p[0.424095609241043, -0.115844113464714, 0.302227294824599, -1.12752135739763, 1.14560741359765, -1.23560155500931], a = 0.2, v = 0.2, t = 0.2)
movej(p[0.422257276150778, -0.115290650078258, 0.302605909389942, -1.1250939303355, 1.13693774595084, -1.23707070306245], a = 0.2, v = 0.2, t = 0.2)
movej(p[0.419504503930527, -0.114238838967581, 0.303167297375982, -1.12256801492605, 1.128650460201, -1.2363975792673], a = 0.2, v = 0.2, t = 0.2)
movej(p[0.417502887076425, -0.113733062201829, 0.303568411689611, -1.12135896006405, 1.1184628751277, -1.23361000224778], a = 0.2, v = 0.2, t = 0.2)
movej(p[0.417499432069581, -0.113599532318181, 0.303571018047333, -1.11837565499249, 1.11818028311441, -1.22382236516931], a = 0.2, v = 0.2, t = 0.2)
movej(p[0.418229720157732, -0.113676038180068, 0.303425009378404, -1.1168334297246, 1.12539530603752, -1.21605479434253], a = 0.2, v = 0.2, t = 0.2)
movej(p[0.419745982990359, -0.113630519650535, 0.303102956314667, -1.11877402363109, 1.1334253707462, -1.21212467230149], a = 0.2, v = 0.2, t = 0.2)
movej(p[0.422066065473238, -0.114313550041298, 0.302629893646586, -1.11959541544857, 1.13804118514993, -1.21306685118232], a = 0.2, v = 0.2, t = 0.2)
movej(p[0.425048736447425, -0.115402371072245, 0.302013959086498, -1.11918147094681, 1.14926443770795, -1.22438209940394], a = 0.2, v = 0.2, t = 0.2)
movej(p[0.427547610132063, -0.116051142130952, 0.301498983600083, -1.12277816590225, 1.15294838196864, -1.22538447198963], a = 0.2, v = 0.2, t = 0.2)
movej(p[0.429240883487486, -0.116614427872921, 0.301139121492174, -1.12147168035943, 1.15604387869343, -1.22894773317266], a = 0.2, v = 0.2, t = 0.2)
movej(p[0.430351220848871, -0.117133196382098, 0.300903866698816, -1.12238375685094, 1.15641879287661, -1.22939054958356], a = 0.2, v = 0.2, t = 0.2)
movej(p[0.431087819907949, -0.117659512989279, 0.300723918302959, -1.12786571278745, 1.1605318244605, -1.22733616601204], a = 0.2, v = 0.2, t = 0.2)
movej(p[0.43132450950968, -0.117672242497161, 0.300669779111411, -1.12953695565294, 1.15822139118352, -1.22494800234005], a = 0.2, v = 0.2, t = 0.2)
movej(p[0.431559555422628, -0.117648577820846, 0.300604486371376, -1.12975301047148, 1.1589279012525, -1.22155941172035], a = 0.2, v = 0.2, t = 0.2)
movej(p[0.431687171086282, -0.117660538255627, 0.30055088991263, -1.1314299240257, 1.1609230692341, -1.2201649852555], a = 0.2, v = 0.2, t = 0.2)
movej(p[0.431686749554758, -0.117644246810241, 0.300551207903879, -1.13065307539832, 1.17304327452937, -1.22239271198673], a = 0.2, v = 0.2, t = 0.2)
movej(p[0.430171259859719, -0.117524583542091, 0.300823277410596, -1.13179507874643, 1.17236623702557, -1.22368944485206], a = 0.2, v = 0.2, t = 0.2)
movej(p[0.428028392355577, -0.116743264230521, 0.301262795491065, -1.12993952174676, 1.16497450320773, -1.23524910746515], a = 0.2, v = 0.2, t = 0.2)
movej(p[0.425732085472386, -0.116142430768723, 0.301723999165588, -1.12424106504507, 1.15506500775494, -1.2430488554975], a = 0.2, v = 0.2, t = 0.2)
movej(p[0.42397846533067, -0.115964222078804, 0.302038462822323, -1.12461017264748, 1.14836455426715, -1.24240939303902], a = 0.2, v = 0.2, t = 0.2)
movej(p[0.421925869072938, -0.115174063506627, 0.302467722270163, -1.12310529807916, 1.14416699063405, -1.24234595436415], a = 0.2, v = 0.2, t = 0.2)
movej(p[0.420034238349113, -0.114427853818583, 0.302855385895163, -1.12625965118991, 1.13729604148214, -1.23267317649389], a = 0.2, v = 0.2, t = 0.2)
movej(p[0.420021719121472, -0.113944007885393, 0.302864830040173, -1.12808715552634, 1.1282897650771, -1.21203024881749], a = 0.2, v = 0.2, t = 0.2)
movej(p[0.420624139487741, -0.113927027455376, 0.302793455203564, -1.1199912022843, 1.13340553109339, -1.20000190815384], a = 0.2, v = 0.2, t = 0.2)
movej(p[0.424755759243161, -0.114565754394987, 0.302016304958606, -1.12243818236341, 1.13571405781774, -1.19855547236422], a = 0.2, v = 0.2, t = 0.2)
movej(p[0.426669060180667, -0.115114870994771, 0.301627142534443, -1.12433943458043, 1.14401575759655, -1.20366210420949], a = 0.2, v = 0.2, t = 0.2)
movej(p[0.427898775707522, -0.11561686578542, 0.301357149491621, -1.1258698867638, 1.1491884591022, -1.21169195970054], a = 0.2, v = 0.2, t = 0.2)
movej(p[0.429659892083651, -0.11650373106428, 0.300964696313668, -1.1330764961562, 1.15214216828209, -1.21347995077652], a = 0.2, v = 0.2, t = 0.2)
movej(p[0.430444906159959, -0.116979685819067, 0.300765096710979, -1.1360241378431, 1.15499003885565, -1.21169518486051], a = 0.2, v = 0.2, t = 0.2)
movej(p[0.43100997148614, -0.117075120357166, 0.300652198676956, -1.13769508154778, 1.15616021098496, -1.2072538921816], a = 0.2, v = 0.2, t = 0.2)
movej(p[0.431327888787791, -0.117148863331628, 0.300592014019207, -1.13802042314017, 1.15557128866265, -1.20630283382306], a = 0.2, v = 0.2, t = 0.2)
movej(p[0.431864615894333, -0.117569206462835, 0.300433250405146, -1.14172628597208, 1.15913421215666, -1.2040511825247], a = 0.2, v = 0.2, t = 0.2)
movej(p[0.432134388245617, -0.117561327269724, 0.30038719286723, -1.14396543516125, 1.16218232407241, -1.19577300395192], a = 0.2, v = 0.2, t = 0.2)
movej(p[0.432453434902723, -0.117552138071364, 0.300339339035382, -1.14396543516125, 1.16218232407241, -1.19577300395192], a = 0.2, v = 0.2, t = 0.2)
movej(p[0.432455749446978, -0.117641591099706, 0.300337593009812, -1.14059036284149, 1.16478890501011, -1.20150619209777], a = 0.2, v = 0.2, t = 0.2)
movej(p[0.432107676250083, -0.117651226147016, 0.300369810946846, -1.13989725523666, 1.1639468508688, -1.20747469638822], a = 0.2, v = 0.2, t = 0.2)
movej(p[0.430201324678756, -0.117183124289004, 0.300777013546326, -1.13761964418518, 1.1650774911727, -1.21094759594178], a = 0.2, v = 0.2, t = 0.2)
movej(p[0.428296800936824, -0.11639873032779, 0.301205804672669, -1.13518689404536, 1.16569963684891, -1.21349611588764], a = 0.2, v = 0.2, t = 0.2)
movej(p[0.426517583832769, -0.115845676409732, 0.30158636924059, -1.13052815646439, 1.15561012089693, -1.22353728881229], a = 0.2, v = 0.2, t = 0.2)
movej(p[0.425101372504351, -0.115717010172256, 0.301846606906185, -1.12928729415584, 1.15041613018149, -1.22834615549923], a = 0.2, v = 0.2, t = 0.2)
movej(p[0.42380951441343, -0.115237252431559, 0.30213804278792, -1.13228019902003, 1.14665641103981, -1.23017296122464], a = 0.2, v = 0.2, t = 0.2)
movej(p[0.422278382210587, -0.114742442410641, 0.302453457373214, -1.12478892208342, 1.14037323974535, -1.23317057410307], a = 0.2, v = 0.2, t = 0.2)
movej(p[0.421110787556736, -0.11434078549289, 0.302738403288647, -1.12826946754006, 1.12451760428857, -1.2239407350364], a = 0.2, v = 0.2, t = 0.2)
movej(p[0.421109385899768, -0.114286613938296, 0.302739460658322, -1.12392576440513, 1.12101198787705, -1.20046206103951], a = 0.2, v = 0.2, t = 0.2)
movej(p[0.423668324129355, -0.114212644827117, 0.30234199498968, -1.12641060382314, 1.13592031217638, -1.18611144260212], a = 0.2, v = 0.2, t = 0.2)
movej(p[0.426444678541945, -0.114796833319381, 0.301854043894591, -1.12696692426523, 1.13788143076523, -1.18632028162384], a = 0.2, v = 0.2, t = 0.2)
movej(p[0.427381053988785, -0.1150201425082, 0.301680143581925, -1.13047735222568, 1.13645968063365, -1.1913155314502], a = 0.2, v = 0.2, t = 0.2)
movej(p[0.429491125836809, -0.115977498734993, 0.301199433761766, -1.1326817421283, 1.14092020041023, -1.20011996240067], a = 0.2, v = 0.2, t = 0.2)
movej(p[0.430995899549714, -0.116825218216462, 0.300845195051733, -1.14082719981022, 1.14687356052745, -1.20005465080032], a = 0.2, v = 0.2, t = 0.2)
movej(p[0.431579293798337, -0.11711354187165, 0.300689335882822, -1.14410248935772, 1.14999236767194, -1.19809092329401], a = 0.2, v = 0.2, t = 0.2)
movej(p[0.431896098806492, -0.117121200940041, 0.30066103507932, -1.14122456441374, 1.15373734139999, -1.19216827563343], a = 0.2, v = 0.2, t = 0.2)
movej(p[0.432123095977102, -0.11737703335724, 0.300597908548881, -1.14381880049265, 1.1561956647815, -1.19059956303847], a = 0.2, v = 0.2, t = 0.2)
movej(p[0.432217939038567, -0.117381540240813, 0.300575212917312, -1.14509311168637, 1.15561919252504, -1.19268606532255], a = 0.2, v = 0.2, t = 0.2)
movej(p[0.432218895889265, -0.117418520822362, 0.300574491096685, -1.14206438308428, 1.15502169950145, -1.1957762696603], a = 0.2, v = 0.2, t = 0.2)
movej(p[0.431928161511456, -0.117426986644982, 0.30062281563918, -1.13902068944208, 1.16123613930044, -1.20664857379757], a = 0.2, v = 0.2, t = 0.2)
movej(p[0.430311118882268, -0.117122275365744, 0.300921686734627, -1.13736567233161, 1.16343112112671, -1.20906358290497], a = 0.2, v = 0.2, t = 0.2)
movej(p[0.428752432352001, -0.116804634052435, 0.301189078949257, -1.13586436995239, 1.16071692789073, -1.22309128093898], a = 0.2, v = 0.2, t = 0.2)
movej(p[0.427284858792707, -0.116161033342007, 0.301521464378537, -1.13310569422051, 1.15922890680184, -1.22715773837357], a = 0.2, v = 0.2, t = 0.2)
movej(p[0.426002282519822, -0.115913752848258, 0.301781902397351, -1.13306952700492, 1.15733786657278, -1.2290760168699], a = 0.2, v = 0.2, t = 0.2)
movej(p[0.425546241521281, -0.115779906417191, 0.301819332739866, -1.13255887052275, 1.1528402329235, -1.23019140630668], a = 0.2, v = 0.2, t = 0.2)
movej(p[0.425275273661236, -0.115789283266747, 0.301940533991984, -1.13551450680877, 1.14458836837931, -1.224452896932], a = 0.2, v = 0.2, t = 0.2)
movej(p[0.425261652762252, -0.115262859691017, 0.301950809206147, -1.12849062545053, 1.14086255140982, -1.19351763566909], a = 0.2, v = 0.2, t = 0.2)
movej(p[0.426955476210509, -0.115216081360873, 0.301799589220821, -1.12710997843573, 1.14171699050177, -1.19188712989811], a = 0.2, v = 0.2, t = 0.2)
movej(p[0.428011537890308, -0.115436459039965, 0.301603402098364, -1.12710997843573, 1.14171699050177, -1.19188712989811], a = 0.2, v = 0.2, t = 0.2)
movej(p[0.429508098739205, -0.116105996003241, 0.301259343716172, -1.13550211922466, 1.15019280489069, -1.19002232067357], a = 0.2, v = 0.2, t = 0.2)
movej(p[0.43081747894412, -0.116533408527867, 0.301005603508933, -1.13560217109064, 1.15183517024253, -1.19513260719142], a = 0.2, v = 0.2, t = 0.2)
movej(p[0.431415907137393, -0.116980501810164, 0.30082283790927, -1.13804244939767, 1.15027693800696, -1.19781515233789], a = 0.2, v = 0.2, t = 0.2)
movej(p[0.431640471432787, -0.11718391346026, 0.300767083915335, -1.13907141359327, 1.15125556631689, -1.19719572882496], a = 0.2, v = 0.2, t = 0.2)
movej(p[0.432123752731909, -0.117539314587429, 0.300619080960211, -1.14156099357116, 1.15292738868711, -1.19163053975568], a = 0.2, v = 0.2, t = 0.2)
movej(p[0.432626283600202, -0.117557418080553, 0.300557049920004, -1.14183228473453, 1.15251358215889, -1.19123008161401], a = 0.2, v = 0.2, t = 0.2)
movej(p[0.43276475924092, -0.117647968009812, 0.300535700511602, -1.14213717950075, 1.15231529337831, -1.19155682718443], a = 0.2, v = 0.2, t = 0.2)
movej(p[0.43276475924092, -0.117647968009812, 0.300535700511602, -1.14146860903195, 1.1609085715569, -1.20024665357237], a = 0.2, v = 0.2, t = 0.2)
movej(p[0.43168145329281, -0.117572468791075, 0.300660015236233, -1.13998665637861, 1.16320186851878, -1.20253466142452], a = 0.2, v = 0.2, t = 0.2)
movej(p[0.429966010616676, -0.116927922992771, 0.300999849002635, -1.13698548774156, 1.16095960968753, -1.20821633588021], a = 0.2, v = 0.2, t = 0.2)
movej(p[0.427826650564917, -0.116549884815273, 0.30136556339296, -1.13526402201932, 1.15551903155513, -1.21772346101872], a = 0.2, v = 0.2, t = 0.2)
movej(p[0.426138578826307, -0.116162482978559, 0.301655001179395, -1.13408621300381, 1.15424960674573, -1.21856602700614], a = 0.2, v = 0.2, t = 0.2)
movej(p[0.42401707431439, -0.115480011276426, 0.302035478657971, -1.13594018463023, 1.14922827342143, -1.21842080611577], a = 0.2, v = 0.2, t = 0.2)
movej(p[0.422215081952052, -0.115018366768596, 0.302337742093514, -1.13303608067206, 1.14152449910474, -1.22375983774021], a = 0.2, v = 0.2, t = 0.2)
movej(p[0.420474016849071, -0.114731777630757, 0.302636885191807, -1.12606134972401, 1.13145275739584, -1.22667445018658], a = 0.2, v = 0.2, t = 0.2)
movej(p[0.418857272455636, -0.114516147214672, 0.302876389033017, -1.12240832337882, 1.12612027735073, -1.22595184177069], a = 0.2, v = 0.2, t = 0.2)
movej(p[0.417306586423186, -0.113789960744665, 0.303163062766631, -1.11978925869737, 1.11701702554646, -1.21525783264079], a = 0.2, v = 0.2, t = 0.2)
movej(p[0.417298093726724, -0.113461733096536, 0.303169469412409, -1.11710679617893, 1.11747743654938, -1.20840772518861], a = 0.2, v = 0.2, t = 0.2)
movej(p[0.418157367271599, -0.11343817614855, 0.303101650423323, -1.12154416860134, 1.12676909696892, -1.20067105918059], a = 0.2, v = 0.2, t = 0.2)
movej(p[0.419708780003688, -0.113886840563769, 0.302817149479161, -1.12133169713442, 1.12842448583612, -1.20093840063075], a = 0.2, v = 0.2, t = 0.2)
movej(p[0.42161917527036, -0.114343044222891, 0.30248748262235, -1.12162924570695, 1.14307828134263, -1.20579038244757], a = 0.2, v = 0.2, t = 0.2)
movej(p[0.423997582127219, -0.114971242743983, 0.302076198862225, -1.117833323127, 1.14944861103763, -1.21170134219545], a = 0.2, v = 0.2, t = 0.2)
movej(p[0.425596379012465, -0.115586347368194, 0.301754701582297, -1.12114592030007, 1.15444683501, -1.2270470430931], a = 0.2, v = 0.2, t = 0.2)
movej(p[0.426227171281902, -0.115972434689398, 0.301590544026197, -1.12336252418334, 1.15308537350565, -1.22929456667693], a = 0.2, v = 0.2, t = 0.2)
movej(p[0.429137476635009, -0.117035570943802, 0.301003174639655, -1.1245622526993, 1.15125355614995, -1.22750324110755], a = 0.2, v = 0.2, t = 0.2)
movej(p[0.43079351784496, -0.117682968179872, 0.300684550425769, -1.13567298149036, 1.15029777693881, -1.20673726087733], a = 0.2, v = 0.2, t = 0.2)
movej(p[0.431885436511682, -0.118355364066131, 0.300355513061014, -1.13543077831545, 1.15080901706588, -1.20611456195056], a = 0.2, v = 0.2, t = 0.2)
movej(p[0.432221936889016, -0.118420136507034, 0.300270454745998, -1.13516734119019, 1.15121179560039, -1.20650598794384], a = 0.2, v = 0.2, t = 0.2)
movej(p[0.432221936889016, -0.118420136507034, 0.300270454745998, -1.13444896801205, 1.15151088101563, -1.21015446898175], a = 0.2, v = 0.2, t = 0.2)
movej(p[0.430784469052784, -0.118121812012714, 0.300493840725605, -1.13180232470034, 1.15668244371842, -1.24037705235786], a = 0.2, v = 0.2, t = 0.2)
movej(p[0.4285373212224, -0.117522776212283, 0.300912397290721, -1.12813275012587, 1.16019119760897, -1.24625007979972], a = 0.2, v = 0.2, t = 0.2)
movej(p[0.426476693049214, -0.116917662235103, 0.301251428493557, -1.12745490141772, 1.15951253906582, -1.24666583541651], a = 0.2, v = 0.2, t = 0.2)
movej(p[0.423805699152378, -0.116066329346254, 0.301745557217098, -1.12410733100484, 1.15103924006358, -1.2500759743396], a = 0.2, v = 0.2, t = 0.2)
movej(p[0.42128546631469, -0.115293504819665, 0.302207185785256, -1.11884721855021, 1.14452223361369, -1.25310241636564], a = 0.2, v = 0.2, t = 0.2)
movej(p[0.419050665977468, -0.114865856153787, 0.302524069740875, -1.11566052598399, 1.13551479629581, -1.25678624674116], a = 0.2, v = 0.2, t = 0.2)
movej(p[0.416924021104162, -0.114074068739614, 0.302920372256131, -1.11506687656641, 1.12969835972678, -1.25519293936475], a = 0.2, v = 0.2, t = 0.2)
movej(p[0.415862704166302, -0.113658971306546, 0.303118944682392, -1.11863454343679, 1.11762093533999, -1.24356707876178], a = 0.2, v = 0.2, t = 0.2)
movej(p[0.415750903245464, -0.11317584302253, 0.303238584246432, -1.11012474351017, 1.1214547947872, -1.22934470399437], a = 0.2, v = 0.2, t = 0.2)
movej(p[0.415749338665269, -0.113115374774321, 0.3032397645207, -1.11085656178677, 1.12147601480948, -1.22133591705788], a = 0.2, v = 0.2, t = 0.2)
movej(p[0.416484921017756, -0.113156655180268, 0.303228564931654, -1.11393827475489, 1.12804248786998, -1.20972674495574], a = 0.2, v = 0.2, t = 0.2)
movej(p[0.417852908088707, -0.113142180633789, 0.303044561096874, -1.11674823108008, 1.1325836935066, -1.20617159502892], a = 0.2, v = 0.2, t = 0.2)
movej(p[0.419642633580677, -0.11344025208415, 0.30278820331198, -1.11483944496802, 1.13980968094979, -1.21068537612094], a = 0.2, v = 0.2, t = 0.2)
movej(p[0.420889569637471, -0.113966315518962, 0.302528531301898, -1.11851935625011, 1.14630237718695, -1.21300498084136], a = 0.2, v = 0.2, t = 0.2)
movej(p[0.421413091440889, -0.114183577214981, 0.302409936838332, -1.11857082637431, 1.1486954981981, -1.2146106696737], a = 0.2, v = 0.2, t = 0.2)
movej(p[0.425622757730448, -0.115503650065173, 0.301638254558673, -1.12420273007101, 1.15525011316555, -1.21488545840162], a = 0.2, v = 0.2, t = 0.2)
movej(p[0.428559009650228, -0.116283924915543, 0.301176882917292, -1.1251219627241, 1.15613941731387, -1.2143258491151], a = 0.2, v = 0.2, t = 0.2)
movej(p[0.430625264717751, -0.117495458620544, 0.300614719126588, -1.13305849185855, 1.14786556240329, -1.2030204955768], a = 0.2, v = 0.2, t = 0.2)
movej(p[0.431224367221725, -0.117630635873474, 0.300517305831691, -1.13332296520909, 1.14822442516033, -1.2027340880318], a = 0.2, v = 0.2, t = 0.2)
movej(p[0.431757601966951, -0.117763606857352, 0.300429708377789, -1.13346158733383, 1.14834267800441, -1.20101645961418], a = 0.2, v = 0.2, t = 0.2)
movej(p[0.432009024555779, -0.117905753774403, 0.300372006421151, -1.13348329147544, 1.14833115039134, -1.20055561356083], a = 0.2, v = 0.2, t = 0.2)
movej(p[0.432009024555779, -0.117905753774403, 0.300372006421151, -1.13348329147544, 1.14833115039134, -1.20055561356083], a = 0.2, v = 0.2, t = 0.2)
movej(p[0.431739866833529, -0.11765709277752, 0.300480105261027, -1.13127136774664, 1.1556864027361, -1.20901813301285], a = 0.2, v = 0.2, t = 0.2)
movej(p[0.430217133091532, -0.117047501738881, 0.300790210060401, -1.12789680208832, 1.16274030501363, -1.21956454354259], a = 0.2, v = 0.2, t = 0.2)
movej(p[0.4284968516813, -0.116400873980713, 0.30111948437154, -1.13017560497905, 1.15807603346058, -1.22580739381473], a = 0.2, v = 0.2, t = 0.2)
movej(p[0.426597612257952, -0.116286822576497, 0.30127288006899, -1.13212302734554, 1.1469986655914, -1.23780108271267], a = 0.2, v = 0.2, t = 0.2)
movej(p[0.424278794167592, -0.115599177459472, 0.301659847350359, -1.1282136190574, 1.13416725536113, -1.23686948964811], a = 0.2, v = 0.2, t = 0.2)
movej(p[0.421766315632024, -0.114774318476583, 0.302116010924813, -1.12394547912338, 1.12733988530355, -1.23639906757194], a = 0.2, v = 0.2, t = 0.2)
movej(p[0.419330456678078, -0.114125945520417, 0.302493996356005, -1.11909988935205, 1.1271138390789, -1.23010103869406], a = 0.2, v = 0.2, t = 0.2)
movej(p[0.417805982593151, -0.113345235444836, 0.30289256253906, -1.11989575478813, 1.11807849756147, -1.21879343418609], a = 0.2, v = 0.2, t = 0.2)
movej(p[0.417805974834903, -0.113344935602283, 0.30289256839166, -1.12413800025706, 1.11050903913436, -1.20939606442117], a = 0.2, v = 0.2, t = 0.2)
movej(p[0.420440794386702, -0.113274621850261, 0.302767586490037, -1.11900683776036, 1.11929409071488, -1.19868380985992], a = 0.2, v = 0.2, t = 0.2)
movej(p[0.423951559276068, -0.113991370973221, 0.302304420487046, -1.12365727955963, 1.12816046836664, -1.19653281201795], a = 0.2, v = 0.2, t = 0.2)
movej(p[0.426547381194722, -0.115164144234268, 0.301729694922269, -1.12516878607625, 1.13412446640953, -1.19481811092513], a = 0.2, v = 0.2, t = 0.2)
movej(p[0.4273514910428, -0.115511054259094, 0.301551461628804, -1.12370734334378, 1.13895883364917, -1.18927301788341], a = 0.2, v = 0.2, t = 0.2)
movej(p[0.429824593638424, -0.116042979429715, 0.301244033581323, -1.12383312105339, 1.13926095672953, -1.1892667267377], a = 0.2, v = 0.2, t = 0.2)
movej(p[0.430520005328735, -0.116448029325056, 0.301101596320525, -1.13157349313294, 1.14337410737198, -1.20180319277587], a = 0.2, v = 0.2, t = 0.2)
movej(p[0.431524105172256, -0.117332607748802, 0.30071105354888, -1.1318875721211, 1.14435229816581, -1.20186237822122], a = 0.2, v = 0.2, t = 0.2)
movej(p[0.431814822944097, -0.117461821900121, 0.300642598817602, -1.13207194774229, 1.14533202032935, -1.20191627648421], a = 0.2, v = 0.2, t = 0.2)
movej(p[0.431906189641493, -0.117511136734532, 0.300599119239476, -1.13213407861098, 1.14568493780646, -1.20196317219955], a = 0.2, v = 0.2, t = 0.2)
movej(p[0.432292665443144, -0.117548238310257, 0.300597924326398, -1.13213707260655, 1.14616287490935, -1.20213292400045], a = 0.2, v = 0.2, t = 0.2)
movej(p[0.43249839523682, -0.11776368352155, 0.300477592356729, -1.13235359262558, 1.14623815994171, -1.20299486836247], a = 0.2, v = 0.2, t = 0.2)
movej(p[0.43249839523682, -0.11776368352155, 0.300477592356729, -1.13246213189258, 1.14624482784727, -1.2035360087106], a = 0.2, v = 0.2, t = 0.2)
movej(p[0.431612211344105, -0.117455640863115, 0.300636576000151, -1.13145069455804, 1.14770116010801, -1.20512780788135], a = 0.2, v = 0.2, t = 0.2)
movej(p[0.429784949131453, -0.116750178915441, 0.30101352531584, -1.12979543442809, 1.1506498019632, -1.20882710350268], a = 0.2, v = 0.2, t = 0.2)
movej(p[0.428053087062732, -0.116027565300578, 0.3013866025713, -1.13080657544715, 1.15815502218982, -1.21051357272481], a = 0.2, v = 0.2, t = 0.2)
movej(p[0.42641875652835, -0.115851197942482, 0.301522955310123, -1.1299502084359, 1.15945275210496, -1.21177486819596], a = 0.2, v = 0.2, t = 0.2)
movej(p[0.424592492887589, -0.114991316924515, 0.301971042053259, -1.12522916497098, 1.1534505404077, -1.21613028819891], a = 0.2, v = 0.2, t = 0.2)
movej(p[0.42245071245037, -0.114435156262583, 0.302326935431764, -1.13065472005575, 1.13513607695299, -1.22903971355061], a = 0.2, v = 0.2, t = 0.2)
movej(p[0.421078643724915, -0.114406272577565, 0.302339680445288, -1.13408256400953, 1.1244990242416, -1.22179821022508], a = 0.2, v = 0.2, t = 0.2)
movej(p[0.421054108666523, -0.113975062804454, 0.302574552415695, -1.12554818664533, 1.12347092144338, -1.1928415854838], a = 0.2, v = 0.2, t = 0.2)
movej(p[0.421683918576067, -0.113959493061654, 0.302611758207564, -1.12726174053913, 1.12507056198447, -1.19184474125521], a = 0.2, v = 0.2, t = 0.2)
movej(p[0.424756391282142, -0.114356055779701, 0.302279151456155, -1.12902815516112, 1.13136653293321, -1.19090972308052], a = 0.2, v = 0.2, t = 0.2)
movej(p[0.428092050126859, -0.115684970922208, 0.301586156978777, -1.12679182822431, 1.13380705844817, -1.19106110885366], a = 0.2, v = 0.2, t = 0.2)
movej(p[0.429049862667447, -0.116007865214266, 0.301416727485332, -1.1292124894675, 1.13804612456214, -1.19036640624249], a = 0.2, v = 0.2, t = 0.2)
movej(p[0.430293119815487, -0.116338727408757, 0.301244507184253, -1.13590376399309, 1.15001267493565, -1.19846935444008], a = 0.2, v = 0.2, t = 0.2)
movej(p[0.431598474967154, -0.117151242094374, 0.300826530182884, -1.1375867535843, 1.14898208266214, -1.2001927708782], a = 0.2, v = 0.2, t = 0.2)
movej(p[0.432188936482374, -0.117552323751284, 0.300633845794483, -1.13875831774772, 1.14765708783198, -1.19945565887311], a = 0.2, v = 0.2, t = 0.2)
movej(p[0.432545982376124, -0.117671062061867, 0.300598451114703, -1.13875831774772, 1.14765708783198, -1.19945565887311], a = 0.2, v = 0.2, t = 0.2)
