def moving():
set_payload_mass(0.606)
set_tcp(p[0.0005,0.0025,0.058,0,0,0])
movej(p[0.5359, 0.0125, 0.1626, -1.263, 1.183, -1.155], a = 0.2, v = 0.2, t = 0.2)
movej(p[0.536008715768837, 0.0124068925151484, 0.162697528856605, -1.2611951163603, 1.18136264918527, -1.15321089796327], a = 0.2, v = 0.2, t = 0.2)
movej(p[0.5359, 0.0125, 0.1626, -1.263, 1.183, -1.155], a = 0.2, v = 0.2, t = 0.2)
movej(p[0.536008715768837, 0.0124068925151484, 0.162697528856605, -1.2611951163603, 1.18136264918527, -1.15321089796327], a = 0.2, v = 0.2, t = 0.2)
movej(p[0.5359, 0.0125, 0.1626, -1.263, 1.183, -1.155], a = 0.2, v = 0.2, t = 0.2)
movej(p[0.536008715768837, 0.0124068925151484, 0.162697528856605, -1.2611951163603, 1.18136264918527, -1.15321089796327], a = 0.2, v = 0.2, t = 0.2)
movej(p[0.5359, 0.0125, 0.1626, -1.263, 1.183, -1.155], a = 0.2, v = 0.2, t = 0.2)
movej(p[0.535865679578724, 0.0123826750279782, 0.162662844353394, -1.26261837659516, 1.18454219553329, -1.16110590186558], a = 0.2, v = 0.2, t = 0.2)
movej(p[0.535767569474352, 0.0123236992822971, 0.162630777250088, -1.26840767545384, 1.18381430845369, -1.17439908561107], a = 0.2, v = 0.2, t = 0.2)
movej(p[0.535388381228157, 0.0124014040712312, 0.162458001095328, -1.2665407997379, 1.18404652609927, -1.17756850034195], a = 0.2, v = 0.2, t = 0.2)
movej(p[0.534727647048877, 0.0123725643808, 0.162362211325328, -1.26546156922322, 1.17927640404227, -1.18426853981352], a = 0.2, v = 0.2, t = 0.2)
movej(p[0.533865118595381, 0.0121749012240326, 0.162440822157631, -1.25360004217655, 1.17638273731943, -1.17707915661364], a = 0.2, v = 0.2, t = 0.2)
movej(p[0.532955807660781, 0.0121445343717415, 0.162597425614895, -1.25490884071308, 1.17049157091544, -1.19580371842831], a = 0.2, v = 0.2, t = 0.2)
movej(p[0.532325973032459, 0.0123902099055336, 0.162592943730087, -1.26149833920358, 1.16395573482303, -1.2036949174763], a = 0.2, v = 0.2, t = 0.2)
movej(p[0.531734010368984, 0.0126834688089354, 0.162535773727224, -1.26490740729783, 1.15566664441412, -1.20961575578229], a = 0.2, v = 0.2, t = 0.2)
movej(p[0.531307892597135, 0.0127330970411499, 0.1625809037658, -1.26875271973864, 1.1469000509829, -1.20778972889757], a = 0.2, v = 0.2, t = 0.2)
movej(p[0.530865302885784, 0.0126194793704425, 0.162691981918171, -1.2647081222918, 1.14319547424933, -1.20541520869395], a = 0.2, v = 0.2, t = 0.2)
movej(p[0.53094281200538, 0.0126845445351255, 0.1626971361907, -1.26995550396444, 1.13961352321489, -1.2126756960208], a = 0.2, v = 0.2, t = 0.2)
movej(p[0.531382037965829, 0.0128768907604536, 0.162585471652618, -1.2716932266981, 1.1411796357875, -1.20926190588255], a = 0.2, v = 0.2, t = 0.2)
movej(p[0.532166654325336, 0.0129445062241171, 0.162572678874659, -1.27330219070572, 1.14270301277364, -1.20561155615412], a = 0.2, v = 0.2, t = 0.2)
movej(p[0.532988518540215, 0.0128449290485556, 0.162685756583333, -1.2675978392617, 1.15172312764137, -1.19297475203937], a = 0.2, v = 0.2, t = 0.2)
movej(p[0.533844847504538, 0.0128244848822547, 0.162749531691321, -1.26666474859007, 1.15972679486493, -1.19575730336159], a = 0.2, v = 0.2, t = 0.2)
movej(p[0.534658186106387, 0.012915504895018, 0.162664165295619, -1.27331146658058, 1.16936759449035, -1.19179143629323], a = 0.2, v = 0.2, t = 0.2)
movej(p[0.535303802704809, 0.012917975237286, 0.162560927158039, -1.28022848056062, 1.17548093836418, -1.19300773420668], a = 0.2, v = 0.2, t = 0.2)
movej(p[0.535764628489531, 0.0126937397705796, 0.162608996317851, -1.27907029987615, 1.18220960065109, -1.17884332482066], a = 0.2, v = 0.2, t = 0.2)
movej(p[0.535850234140866, 0.012556151518234, 0.162654899241695, -1.26898374929586, 1.18796351052482, -1.17624183779418], a = 0.2, v = 0.2, t = 0.2)
movej(p[0.535946827439276, 0.0125820006160479, 0.162592794133229, -1.27065793346194, 1.19164858609842, -1.17643007907619], a = 0.2, v = 0.2, t = 0.2)
movej(p[0.535716399959036, 0.0125902302191459, 0.162474942944577, -1.27272920754872, 1.18975021839769, -1.18179506385505], a = 0.2, v = 0.2, t = 0.2)
movej(p[0.535275670915701, 0.0123730545169402, 0.16246400170477, -1.27595538566819, 1.18664087356312, -1.1848603557038], a = 0.2, v = 0.2, t = 0.2)
movej(p[0.534361956408592, 0.012132791277664, 0.162566242924178, -1.26331947244991, 1.18505206134764, -1.18569261268345], a = 0.2, v = 0.2, t = 0.2)
movej(p[0.533441003326968, 0.0122386208528089, 0.16255895941724, -1.2604858412506, 1.18018986762265, -1.19508333042906], a = 0.2, v = 0.2, t = 0.2)
movej(p[0.532498991322825, 0.0125236720509052, 0.162527060749345, -1.26010738679904, 1.17246872791518, -1.20055051289773], a = 0.2, v = 0.2, t = 0.2)
movej(p[0.531699141650551, 0.0126776073131404, 0.16258532860329, -1.26364483207455, 1.16076708123442, -1.20377314731735], a = 0.2, v = 0.2, t = 0.2)
movej(p[0.530946806678756, 0.0126044511074605, 0.162791178289919, -1.26168746533607, 1.1527073623308, -1.19839064724265], a = 0.2, v = 0.2, t = 0.2)
movej(p[0.530549744874653, 0.0126801183208073, 0.162882505754829, -1.25782353071665, 1.14591887213213, -1.20025910694157], a = 0.2, v = 0.2, t = 0.2)
movej(p[0.530753459093476, 0.0129238954126851, 0.162822311508352, -1.26314009561021, 1.13993647099404, -1.20224054147486], a = 0.2, v = 0.2, t = 0.2)
movej(p[0.531350621685043, 0.0131316052167813, 0.162738086663414, -1.26618673696301, 1.13756305966744, -1.20461684692375], a = 0.2, v = 0.2, t = 0.2)
movej(p[0.532285367465493, 0.013016331594203, 0.162796165440714, -1.26456180908089, 1.14399564229449, -1.1922486216217], a = 0.2, v = 0.2, t = 0.2)
movej(p[0.533139592112596, 0.0129297121639546, 0.162833308226622, -1.25982316308929, 1.15473577134356, -1.1907349197753], a = 0.2, v = 0.2, t = 0.2)
movej(p[0.534193742415073, 0.0130002416438876, 0.162718598196088, -1.26768071157685, 1.16417443106032, -1.19197454030988], a = 0.2, v = 0.2, t = 0.2)
movej(p[0.53498409786627, 0.0130538301947618, 0.162606880436627, -1.27588581004222, 1.17143832607122, -1.19237782205117], a = 0.2, v = 0.2, t = 0.2)
movej(p[0.53564151135067, 0.0129476201469042, 0.16257128519904, -1.28313841854566, 1.17710323933737, -1.18809447154802], a = 0.2, v = 0.2, t = 0.2)
movej(p[0.535927097900084, 0.0126910986092586, 0.162610067193027, -1.27559646674004, 1.18417960646331, -1.17906160972688], a = 0.2, v = 0.2, t = 0.2)
movej(p[0.536073806318134, 0.0126730224714678, 0.162514643720297, -1.27271678102814, 1.18666319542216, -1.18277221262985], a = 0.2, v = 0.2, t = 0.2)
movej(p[0.535875143729028, 0.0126922826097007, 0.162360279244168, -1.27393868636121, 1.18569397397753, -1.18702853643995], a = 0.2, v = 0.2, t = 0.2)
movej(p[0.535267427499001, 0.0126018776273684, 0.162305442824189, -1.27130324235552, 1.18146602668232, -1.19024414638873], a = 0.2, v = 0.2, t = 0.2)
movej(p[0.534288240232503, 0.0123139938323607, 0.162455914806953, -1.26467622847791, 1.17905319846937, -1.18947420431463], a = 0.2, v = 0.2, t = 0.2)
movej(p[0.533341075024717, 0.0123537828393613, 0.162542909655885, -1.25619129493533, 1.17388765707306, -1.19700349804296], a = 0.2, v = 0.2, t = 0.2)
movej(p[0.532581606158487, 0.0126499971563284, 0.162541797695037, -1.2577277423707, 1.16629418000982, -1.20113442209446], a = 0.2, v = 0.2, t = 0.2)
movej(p[0.531922238566708, 0.0129252008375915, 0.162544485897073, -1.2591448854086, 1.15570996623683, -1.20576865061608], a = 0.2, v = 0.2, t = 0.2)
movej(p[0.53140388899335, 0.0129244953113529, 0.162686413969463, -1.26268778763113, 1.14710750608878, -1.20274228187296], a = 0.2, v = 0.2, t = 0.2)
movej(p[0.530962744169574, 0.0128567468753292, 0.162814591543154, -1.2665733816945, 1.13858306388399, -1.21487512170481], a = 0.2, v = 0.2, t = 0.2)
movej(p[0.531199024829711, 0.0130472981781192, 0.162730226244754, -1.27064598083691, 1.13553753036813, -1.21594523292696], a = 0.2, v = 0.2, t = 0.2)
movej(p[0.531788186041525, 0.0132520697474368, 0.162589524520149, -1.27258161132323, 1.13425576483615, -1.21720043579828], a = 0.2, v = 0.2, t = 0.2)
movej(p[0.532711763897871, 0.0133117326928047, 0.162524708729504, -1.27063745245552, 1.14034714621266, -1.20592136913612], a = 0.2, v = 0.2, t = 0.2)
movej(p[0.533640672618758, 0.0131272511444016, 0.162596740346611, -1.27325897720737, 1.14824602017614, -1.20692541021369], a = 0.2, v = 0.2, t = 0.2)
movej(p[0.534604833333148, 0.0130968991331169, 0.162524215423992, -1.27610571022891, 1.15856767358841, -1.20772216523115], a = 0.2, v = 0.2, t = 0.2)
movej(p[0.535399061828489, 0.0130931901978516, 0.162411320722664, -1.2772595410283, 1.16952293245362, -1.19882553363298], a = 0.2, v = 0.2, t = 0.2)
movej(p[0.535934533730497, 0.0129982285985531, 0.162350261099975, -1.2759617241147, 1.17670765102446, -1.1888416967418], a = 0.2, v = 0.2, t = 0.2)
movej(p[0.536183039725369, 0.0127326372951531, 0.162434924672749, -1.27759253901691, 1.18275123389221, -1.18139372424934], a = 0.2, v = 0.2, t = 0.2)
movej(p[0.536213593504405, 0.0126168465641479, 0.162469121102444, -1.27649391629361, 1.18561860092635, -1.18268224261837], a = 0.2, v = 0.2, t = 0.2)
movej(p[0.536154560542895, 0.0126708240323275, 0.162351040358933, -1.27075095336437, 1.1884995926311, -1.17492070518136], a = 0.2, v = 0.2, t = 0.2)
movej(p[0.535779008587356, 0.0126119690722062, 0.162258478854189, -1.26381907024371, 1.1867415371488, -1.17310759051203], a = 0.2, v = 0.2, t = 0.2)
movej(p[0.535113302222456, 0.0123994961682876, 0.162286694724781, -1.25304309085897, 1.18522803122933, -1.16775450047944], a = 0.2, v = 0.2, t = 0.2)
movej(p[0.534112022732174, 0.0122928266997501, 0.162442451125601, -1.25792450935291, 1.17793495931572, -1.19263988824734], a = 0.2, v = 0.2, t = 0.2)
movej(p[0.533244034548322, 0.0125633713930846, 0.162478053293063, -1.25183722075155, 1.17367673035594, -1.19476350257161], a = 0.2, v = 0.2, t = 0.2)
movej(p[0.532492229074757, 0.0128809331299238, 0.162498411213231, -1.25619602541698, 1.16465069239962, -1.20614211799682], a = 0.2, v = 0.2, t = 0.2)
movej(p[0.531897719458342, 0.0129652236692827, 0.162610651328896, -1.25027629454104, 1.15834738147874, -1.19360545511279], a = 0.2, v = 0.2, t = 0.2)
movej(p[0.53138529176385, 0.0129310638263133, 0.162711583853494, -1.25419681082325, 1.15044872630118, -1.20280269112726], a = 0.2, v = 0.2, t = 0.2)
movej(p[0.531391945123987, 0.0130478574805696, 0.162679902340189, -1.25748135633478, 1.14477577200286, -1.20303589599897], a = 0.2, v = 0.2, t = 0.2)
movej(p[0.531855058227479, 0.013258206920522, 0.162562018359889, -1.26214336237911, 1.14142969631653, -1.2070369247153], a = 0.2, v = 0.2, t = 0.2)
movej(p[0.532813483141978, 0.0133549820339353, 0.16251090103708, -1.26552231809019, 1.14282178674775, -1.20202454395613], a = 0.2, v = 0.2, t = 0.2)
movej(p[0.533779668460683, 0.0132299654386208, 0.162568382890949, -1.26319290471423, 1.15209676522544, -1.19669150650328], a = 0.2, v = 0.2, t = 0.2)
movej(p[0.534783296435312, 0.0132072163410085, 0.162497091189276, -1.26204615750398, 1.1631428296985, -1.19195282185697], a = 0.2, v = 0.2, t = 0.2)
movej(p[0.535605323011404, 0.0132125121702636, 0.16238615817664, -1.26873656511761, 1.17221842200533, -1.18726285805162], a = 0.2, v = 0.2, t = 0.2)
movej(p[0.536121102860231, 0.0130892449928946, 0.162335860245994, -1.27372339783749, 1.17891573678643, -1.18211573614322], a = 0.2, v = 0.2, t = 0.2)
movej(p[0.536357759485759, 0.0127691747343155, 0.162441272701455, -1.27707513952162, 1.18451728420147, -1.17725562904138], a = 0.2, v = 0.2, t = 0.2)
movej(p[0.536398033946799, 0.0126122192723319, 0.162427539357889, -1.2720635920755, 1.18902010309424, -1.17654265515324], a = 0.2, v = 0.2, t = 0.2)
movej(p[0.536452693929809, 0.0126491773482805, 0.162328613471573, -1.27191922929769, 1.19044773605529, -1.17804509340633], a = 0.2, v = 0.2, t = 0.2)
movej(p[0.536475837444505, 0.0125896637011344, 0.162240822726435, -1.26651253577792, 1.19122505942722, -1.17171642530798], a = 0.2, v = 0.2, t = 0.2)
movej(p[0.536413686320366, 0.012407784120601, 0.162278938183592, -1.2649221565204, 1.19261597654303, -1.16831246882243], a = 0.2, v = 0.2, t = 0.2)
movej(p[0.536147753879498, 0.012279836310513, 0.162325992472321, -1.26816011939566, 1.19074491973416, -1.18144634712796], a = 0.2, v = 0.2, t = 0.2)
movej(p[0.535843242264576, 0.0124264369903508, 0.162207030090412, -1.26790250151692, 1.18921988767157, -1.187800963488], a = 0.2, v = 0.2, t = 0.2)
movej(p[0.535307022639222, 0.0125347369446153, 0.16211783254298, -1.26537160229875, 1.18565356719246, -1.195512744088], a = 0.2, v = 0.2, t = 0.2)
movej(p[0.534689155222079, 0.0124329883068634, 0.162159191907648, -1.25425422453099, 1.18399666869968, -1.1855533975812], a = 0.2, v = 0.2, t = 0.2)
movej(p[0.53398682469888, 0.0123583416652858, 0.162286885209825, -1.25132790024602, 1.18056715486519, -1.19457917716213], a = 0.2, v = 0.2, t = 0.2)
movej(p[0.533578234437806, 0.0125892032013203, 0.162240075898019, -1.25102438748096, 1.17637077512842, -1.19743817547507], a = 0.2, v = 0.2, t = 0.2)
movej(p[0.533200626027707, 0.0128773015611702, 0.162174814211143, -1.25103572763296, 1.16994030786353, -1.1978491425274], a = 0.2, v = 0.2, t = 0.2)
movej(p[0.532908723356875, 0.0129936124980209, 0.16219026442894, -1.24939769225646, 1.16399688044143, -1.1914757593397], a = 0.2, v = 0.2, t = 0.2)
movej(p[0.532501040969695, 0.0128915235264427, 0.162400768863253, -1.24917100277051, 1.15961378481316, -1.19030105913986], a = 0.2, v = 0.2, t = 0.2)
movej(p[0.532534695841878, 0.0129476287366739, 0.162548960898002, -1.25636745741838, 1.15556422914063, -1.19908555980689], a = 0.2, v = 0.2, t = 0.2)
movej(p[0.532894195387303, 0.0131496766987085, 0.162584814984769, -1.26551590905076, 1.15265145015575, -1.20513602273096], a = 0.2, v = 0.2, t = 0.2)
movej(p[0.533609204762219, 0.0133106285665039, 0.162553912640252, -1.27091235987849, 1.15056628206611, -1.20657375348149], a = 0.2, v = 0.2, t = 0.2)
movej(p[0.534281066230573, 0.0132439121087121, 0.162568757091248, -1.26959761915548, 1.1540314118671, -1.20125424569389], a = 0.2, v = 0.2, t = 0.2)
movej(p[0.534811790178293, 0.0132159246294206, 0.162481917092139, -1.26938986529597, 1.1588130728899, -1.20497920930763], a = 0.2, v = 0.2, t = 0.2)
movej(p[0.535307143923889, 0.0132049818330042, 0.162320758435127, -1.27412502196722, 1.16404828388779, -1.2019541776871], a = 0.2, v = 0.2, t = 0.2)
movej(p[0.535650368116204, 0.0131140586596188, 0.162185039526895, -1.27422518532863, 1.16861195184119, -1.19636596517688], a = 0.2, v = 0.2, t = 0.2)
movej(p[0.53589257715138, 0.0128153354659096, 0.162228606051063, -1.27066049895553, 1.17503591271185, -1.18179073085991], a = 0.2, v = 0.2, t = 0.2)
movej(p[0.53597528304707, 0.0125821377245014, 0.162295792420463, -1.26358212332662, 1.18167806328862, -1.17831632597591], a = 0.2, v = 0.2, t = 0.2)
movej(p[0.536124572401577, 0.0125873669540546, 0.162228771983944, -1.26059194582498, 1.18706238242322, -1.17229582840192], a = 0.2, v = 0.2, t = 0.2)
movej(p[0.536194721805116, 0.0125833897513262, 0.162187694360137, -1.2597508949532, 1.18805929048545, -1.17050508208269], a = 0.2, v = 0.2, t = 0.2)
movej(p[0.536247143711212, 0.0124510559397931, 0.162215877237675, -1.25341572259296, 1.19086069662026, -1.15479032710084], a = 0.2, v = 0.2, t = 0.2)
movej(p[0.536105006364056, 0.0122243074300142, 0.162309188980004, -1.25605624592651, 1.18928795451088, -1.16461543329589], a = 0.2, v = 0.2, t = 0.2)
movej(p[0.536034988218153, 0.0122322877601024, 0.162198617654263, -1.25027977912599, 1.19039171265894, -1.16080218131746], a = 0.2, v = 0.2, t = 0.2)
movej(p[0.53582746909912, 0.0122418843304627, 0.162112238225757, -1.24963582771812, 1.18852254875211, -1.16520310496313], a = 0.2, v = 0.2, t = 0.2)
movej(p[0.535612404112042, 0.0120614157376002, 0.162132955977552, -1.24088295290592, 1.1903599475741, -1.15306228789904], a = 0.2, v = 0.2, t = 0.2)
movej(p[0.535236294104454, 0.0117877658572489, 0.162347018125714, -1.24149634794295, 1.19219584706727, -1.15624930568788], a = 0.2, v = 0.2, t = 0.2)
movej(p[0.534997301782931, 0.0118046235002995, 0.162316717419058, -1.23935407711542, 1.19276488501426, -1.16095131011745], a = 0.2, v = 0.2, t = 0.2)
movej(p[0.53464029928249, 0.0120157720313891, 0.162235390821946, -1.23784698116578, 1.19205201674131, -1.16231024468026], a = 0.2, v = 0.2, t = 0.2)
movej(p[0.53417812552151, 0.0121703346625869, 0.16220028853002, -1.24219262903279, 1.18400379303412, -1.17197304752554], a = 0.2, v = 0.2, t = 0.2)
movej(p[0.533521359714455, 0.0121711378074295, 0.162375739971284, -1.2450967838808, 1.17665257002038, -1.17677526306568], a = 0.2, v = 0.2, t = 0.2)
movej(p[0.532918085458946, 0.0123229195717567, 0.162512390120727, -1.25469815674984, 1.16586154762347, -1.20131990493029], a = 0.2, v = 0.2, t = 0.2)
movej(p[0.532766770411425, 0.0127214435826699, 0.162478830925254, -1.25943285113074, 1.16045484705857, -1.20226464634443], a = 0.2, v = 0.2, t = 0.2)
movej(p[0.532907657838744, 0.013004455382751, 0.162445034075723, -1.26596680099692, 1.15416534818612, -1.20712158042357], a = 0.2, v = 0.2, t = 0.2)
movej(p[0.533327194769029, 0.0130132270305199, 0.16249342412452, -1.2592981201531, 1.15638561981542, -1.18945192629661], a = 0.2, v = 0.2, t = 0.2)
movej(p[0.533729352134684, 0.0130033393564199, 0.162519237370163, -1.25511041049872, 1.1591002396172, -1.18950114152043], a = 0.2, v = 0.2, t = 0.2)
movej(p[0.534281489557627, 0.0131248355391169, 0.162414141906054, -1.25978596863513, 1.16232360185615, -1.19022050983607], a = 0.2, v = 0.2, t = 0.2)
movej(p[0.534727038182078, 0.0132426909056701, 0.162303313738046, -1.26644407619036, 1.16388296159925, -1.19237042466749], a = 0.2, v = 0.2, t = 0.2)
movej(p[0.535169859137706, 0.0131051438836957, 0.162296061751938, -1.27517487796513, 1.16521150519978, -1.19269669612561], a = 0.2, v = 0.2, t = 0.2)
movej(p[0.535385341885199, 0.0128488389219958, 0.162377388626593, -1.26712038698704, 1.17168782564061, -1.18503718790915], a = 0.2, v = 0.2, t = 0.2)
movej(p[0.535645963999636, 0.0127505214267491, 0.162340262914549, -1.27291336533145, 1.17429416240027, -1.19344102805724], a = 0.2, v = 0.2, t = 0.2)
movej(p[0.535848087427218, 0.0127624408216805, 0.162239977529413, -1.27515228666098, 1.17808736033076, -1.19005436308911], a = 0.2, v = 0.2, t = 0.2)
movej(p[0.536013493256037, 0.0126492879905597, 0.162210662130266, -1.27958906895741, 1.17820232317893, -1.18997454725226], a = 0.2, v = 0.2, t = 0.2)
movej(p[0.536075931736136, 0.0123726173356713, 0.162307759995982, -1.26702839076639, 1.18336047082874, -1.17410554811233], a = 0.2, v = 0.2, t = 0.2)
movej(p[0.536095530547885, 0.0122870638853177, 0.162313713449656, -1.2583619976551, 1.18605935440508, -1.17433873474038], a = 0.2, v = 0.2, t = 0.2)
movej(p[0.53610763724039, 0.0123652338169941, 0.162211487472633, -1.2589049799075, 1.18557603559281, -1.17623010178736], a = 0.2, v = 0.2, t = 0.2)
movej(p[0.535931201283135, 0.0123501843440025, 0.162125645721519, -1.25772391798445, 1.1831932248382, -1.17721843645912], a = 0.2, v = 0.2, t = 0.2)
movej(p[0.535624303170608, 0.0121015045695642, 0.162216141152655, -1.25971836644066, 1.18194246141753, -1.17769107200927], a = 0.2, v = 0.2, t = 0.2)
movej(p[0.535177235175125, 0.0119306747951592, 0.162292793442848, -1.25327044676331, 1.18314543596026, -1.18122872878865], a = 0.2, v = 0.2, t = 0.2)
movej(p[0.53495819736689, 0.012094041621714, 0.162214822038186, -1.2554532142056, 1.18368033570181, -1.1853520391346], a = 0.2, v = 0.2, t = 0.2)
movej(p[0.534667413621941, 0.012250058163424, 0.162118236123653, -1.2523870133648, 1.18150117806931, -1.18358443445672], a = 0.2, v = 0.2, t = 0.2)
movej(p[0.534362110764175, 0.0122334742260872, 0.162104108471263, -1.25046373070554, 1.17965515309936, -1.17871482018945], a = 0.2, v = 0.2, t = 0.2)
movej(p[0.533852586476262, 0.0120753428607579, 0.162213020965158, -1.24948587683776, 1.17756452837474, -1.18701620664533], a = 0.2, v = 0.2, t = 0.2)
movej(p[0.53362152832224, 0.0122543526048685, 0.162142814173654, -1.25038650717301, 1.17494972860953, -1.19337923459492], a = 0.2, v = 0.2, t = 0.2)
movej(p[0.533481186887831, 0.012525315625134, 0.162115058411431, -1.25469871562709, 1.17107678407334, -1.19464497665413], a = 0.2, v = 0.2, t = 0.2)
movej(p[0.53363964913054, 0.0126620360936569, 0.162174111235432, -1.25709061166671, 1.16663686791808, -1.19369467564127], a = 0.2, v = 0.2, t = 0.2)
movej(p[0.533889894284172, 0.0126083916114434, 0.162366441009029, -1.26509042243197, 1.16332553923524, -1.19859907451282], a = 0.2, v = 0.2, t = 0.2)
movej(p[0.534360763867951, 0.0126951049280062, 0.16237771674858, -1.26451263333949, 1.1650841868985, -1.20146134936118], a = 0.2, v = 0.2, t = 0.2)
movej(p[0.534870148030772, 0.0128902554345758, 0.162260929589816, -1.26980931627474, 1.16775464395803, -1.20123190618273], a = 0.2, v = 0.2, t = 0.2)
movej(p[0.53529328459585, 0.0129042175180785, 0.162185294103314, -1.26948452956575, 1.17094683183862, -1.1930087635529], a = 0.2, v = 0.2, t = 0.2)
movej(p[0.535589842569851, 0.0126577398560036, 0.162269500531542, -1.27417529077754, 1.17333076383619, -1.19042029048325], a = 0.2, v = 0.2, t = 0.2)
movej(p[0.535742412531752, 0.0124647453778895, 0.162347746182199, -1.27259294721875, 1.17636216340667, -1.19069734199719], a = 0.2, v = 0.2, t = 0.2)
movej(p[0.535956120085676, 0.0125058328408752, 0.162293854022724, -1.26979624277251, 1.1808716796394, -1.18201643535679], a = 0.2, v = 0.2, t = 0.2)
movej(p[0.536085845717969, 0.0124955098314486, 0.162240374863038, -1.26965890403803, 1.1816732575486, -1.17980158256444], a = 0.2, v = 0.2, t = 0.2)
movej(p[0.536162596207275, 0.0123192553071047, 0.162269584639408, -1.26412504027378, 1.18458884641153, -1.16901663005987], a = 0.2, v = 0.2, t = 0.2)
movej(p[0.536114179071615, 0.012110768325008, 0.162357076771459, -1.26923001500866, 1.18316107661293, -1.18169320525707], a = 0.2, v = 0.2, t = 0.2)
movej(p[0.536071490835274, 0.0121340132212581, 0.162277030290734, -1.26516951480449, 1.185282420178, -1.17826743536927], a = 0.2, v = 0.2, t = 0.2)
movej(p[0.535835246195408, 0.0122157070085056, 0.162143666897197, -1.26171007382063, 1.18400396269269, -1.17750213805072], a = 0.2, v = 0.2, t = 0.2)
movej(p[0.535510147768909, 0.0121184446970019, 0.162073975484348, -1.25051687710412, 1.18472105775127, -1.16532977533547], a = 0.2, v = 0.2, t = 0.2)
movej(p[0.535026934255808, 0.011864753051122, 0.16218423349298, -1.24299621295038, 1.18665604232001, -1.16225164138024], a = 0.2, v = 0.2, t = 0.2)
movej(p[0.534679993645977, 0.0118869283218217, 0.162199660709823, -1.23853285109367, 1.18710158882694, -1.16846284928621], a = 0.2, v = 0.2, t = 0.2)
movej(p[0.534396605675968, 0.0121249978078314, 0.16210029311508, -1.23700829961449, 1.18696024114828, -1.16707947340616], a = 0.2, v = 0.2, t = 0.2)
movej(p[0.534139580683578, 0.0122153642839734, 0.162035383761543, -1.23725491420853, 1.18183447239835, -1.16988405415307], a = 0.2, v = 0.2, t = 0.2)
movej(p[0.533793416424463, 0.0121200840256131, 0.162119678898877, -1.23828522515352, 1.17826856902656, -1.16766370147636], a = 0.2, v = 0.2, t = 0.2)
movej(p[0.533399460217446, 0.0120998291851573, 0.162222052442777, -1.24251847740226, 1.17310172866154, -1.18559289365644], a = 0.2, v = 0.2, t = 0.2)
movej(p[0.533256631450344, 0.0123918844031504, 0.162176875721336, -1.24530883546134, 1.16963324892068, -1.1880639698095], a = 0.2, v = 0.2, t = 0.2)
movej(p[0.533287882590585, 0.0126635715601776, 0.162113426972971, -1.25049003307263, 1.16378974273579, -1.19169830302971], a = 0.2, v = 0.2, t = 0.2)
movej(p[0.53361553248771, 0.0126969106676882, 0.162175361565279, -1.24736462433274, 1.1628207731569, -1.17701006990926], a = 0.2, v = 0.2, t = 0.2)
movej(p[0.533943566874349, 0.0126411241846509, 0.162302568535186, -1.25276902708191, 1.16315668522356, -1.18458518621898], a = 0.2, v = 0.2, t = 0.2)
movej(p[0.534463200453713, 0.0127527350913824, 0.16222380668404, -1.25517724932068, 1.16638113820839, -1.18722569164644], a = 0.2, v = 0.2, t = 0.2)
movej(p[0.534773237954825, 0.0128956239076781, 0.162061957693367, -1.25978897720132, 1.16918417252157, -1.18670260325663], a = 0.2, v = 0.2, t = 0.2)
movej(p[0.534982976590638, 0.0127950477333288, 0.161973632125153, -1.2579713378735, 1.17037452333586, -1.17571878040666], a = 0.2, v = 0.2, t = 0.2)
movej(p[0.534983533854116, 0.0125286332090159, 0.162098798468846, -1.25859358671166, 1.17114831122442, -1.1735851018511], a = 0.2, v = 0.2, t = 0.2)
movej(p[0.535103692230874, 0.0124183226548812, 0.162176985086693, -1.26209537869569, 1.17087301164305, -1.1830029482509], a = 0.2, v = 0.2, t = 0.2)
movej(p[0.53538580582782, 0.0125147513299438, 0.162141413407608, -1.26387831241112, 1.1749969834332, -1.18329334080128], a = 0.2, v = 0.2, t = 0.2)
movej(p[0.535664113358155, 0.0125246322468576, 0.162105258674184, -1.26010348564833, 1.17856767231553, -1.17525238539037], a = 0.2, v = 0.2, t = 0.2)
movej(p[0.535845015058487, 0.0123340680029103, 0.162175591448981, -1.25078089058013, 1.18379372109045, -1.15882266727969], a = 0.2, v = 0.2, t = 0.2)
movej(p[0.535900779245241, 0.0121982632313864, 0.162274642777914, -1.25754354759241, 1.18196903836243, -1.17237110076585], a = 0.2, v = 0.2, t = 0.2)
movej(p[0.536048609148782, 0.0122802757633559, 0.162217629794925, -1.26048157220218, 1.18417579572915, -1.17279025690782], a = 0.2, v = 0.2, t = 0.2)
movej(p[0.536052000275734, 0.0123439801594325, 0.162144089376932, -1.26462615201195, 1.18252125677906, -1.17777979161935], a = 0.2, v = 0.2, t = 0.2)
movej(p[0.535921421161109, 0.0121480060785057, 0.162163370389084, -1.25459226197485, 1.18416557384742, -1.16311806290587], a = 0.2, v = 0.2, t = 0.2)
movej(p[0.53554916806069, 0.0119083955726568, 0.162259333274287, -1.24524093338246, 1.18563111564561, -1.16521305610913], a = 0.2, v = 0.2, t = 0.2)
movej(p[0.535305929652681, 0.0119549515986561, 0.1622505006579, -1.24420023220706, 1.18609305327637, -1.17134470287616], a = 0.2, v = 0.2, t = 0.2)
movej(p[0.534993698001657, 0.0121545003720757, 0.162176727501362, -1.24454788800454, 1.18557580554556, -1.17632799041088], a = 0.2, v = 0.2, t = 0.2)
movej(p[0.534624763590321, 0.0122266009378676, 0.162139795770495, -1.25188176181735, 1.17981799520012, -1.18532111463162], a = 0.2, v = 0.2, t = 0.2)
movej(p[0.534003338900648, 0.0121056106382406, 0.162207432782268, -1.24661488447876, 1.17814809407992, -1.18118959693114], a = 0.2, v = 0.2, t = 0.2)
movej(p[0.533355723179185, 0.0121726809200396, 0.162210024695321, -1.24313880123396, 1.17334655735794, -1.1903813198581], a = 0.2, v = 0.2, t = 0.2)
movej(p[0.532872892664776, 0.0125384427564862, 0.162151195493776, -1.2467068009019, 1.16870912464877, -1.19084258400779], a = 0.2, v = 0.2, t = 0.2)
movej(p[0.532478020852476, 0.012823728837864, 0.162160977851529, -1.25236057080469, 1.15964610545875, -1.19702612164004], a = 0.2, v = 0.2, t = 0.2)
movej(p[0.532370987352035, 0.0128194984710723, 0.162363454853383, -1.25749047582857, 1.15551829971659, -1.19303390305476], a = 0.2, v = 0.2, t = 0.2)
movej(p[0.532641167133737, 0.0127846942135942, 0.162519179640495, -1.25221719358388, 1.15456938276327, -1.19508848976303], a = 0.2, v = 0.2, t = 0.2)
movej(p[0.533521682070952, 0.0129070937756518, 0.162509136018168, -1.25767938102327, 1.15671688454352, -1.19473394159806], a = 0.2, v = 0.2, t = 0.2)
movej(p[0.534505019278158, 0.0130329426282565, 0.162437825940185, -1.26251776583965, 1.16048604201469, -1.19509676995617], a = 0.2, v = 0.2, t = 0.2)
movej(p[0.535468511340471, 0.0129488412579626, 0.162445154567233, -1.27093485849859, 1.1675584491463, -1.18852806905469], a = 0.2, v = 0.2, t = 0.2)
movej(p[0.535952269030549, 0.0127226866353088, 0.162539992372282, -1.269048420327, 1.17623472064207, -1.18199115702075], a = 0.2, v = 0.2, t = 0.2)
movej(p[0.53629484983719, 0.0126788832629614, 0.162474836706245, -1.27097704200209, 1.18245416816875, -1.17944734372823], a = 0.2, v = 0.2, t = 0.2)
movej(p[0.536415462794937, 0.0127051139311572, 0.162363974554591, -1.27231252440788, 1.18543655598657, -1.17623736356653], a = 0.2, v = 0.2, t = 0.2)
movej(p[0.536442168675253, 0.0125935547701938, 0.162331343769086, -1.27508673835926, 1.18591056212214, -1.17423613930342], a = 0.2, v = 0.2, t = 0.2)
movej(p[0.536295474425486, 0.0123164620047668, 0.162419652685931, -1.26819273814145, 1.18805012049309, -1.16901813169766], a = 0.2, v = 0.2, t = 0.2)
movej(p[0.53596412380186, 0.0122746939892481, 0.162359664521672, -1.26153158111283, 1.18754150857918, -1.1772492723544], a = 0.2, v = 0.2, t = 0.2)
movej(p[0.535355433565514, 0.0123992867687959, 0.162208281093715, -1.26101855284633, 1.18431407650845, -1.18750072536705], a = 0.2, v = 0.2, t = 0.2)
movej(p[0.534558341697064, 0.012461450929407, 0.162158973676274, -1.2605143286102, 1.17787774564409, -1.19827569093576], a = 0.2, v = 0.2, t = 0.2)
movej(p[0.533609475506572, 0.0123586181286576, 0.162324816325802, -1.2597378500361, 1.17160896262914, -1.19861323131307], a = 0.2, v = 0.2, t = 0.2)
movej(p[0.532791467642858, 0.0124009059651597, 0.162480444500306, -1.25675608743063, 1.16466328567233, -1.2066005479469], a = 0.2, v = 0.2, t = 0.2)
movej(p[0.532300814677767, 0.0126981749024381, 0.162458090884471, -1.25590863263558, 1.1598813006508, -1.20296577776322], a = 0.2, v = 0.2, t = 0.2)
movej(p[0.532000548559815, 0.012907208400704, 0.162420360975746, -1.25379641302103, 1.15281220538274, -1.20033303118492], a = 0.2, v = 0.2, t = 0.2)
movej(p[0.531988180342392, 0.0128535037813683, 0.162533530745383, -1.25168315942117, 1.15038484348671, -1.18807254226685], a = 0.2, v = 0.2, t = 0.2)
movej(p[0.532367961233313, 0.0127707282540434, 0.16261330823451, -1.25294300807929, 1.14948593017095, -1.1952903933723], a = 0.2, v = 0.2, t = 0.2)
movej(p[0.533303828331784, 0.0128753830327879, 0.162544065467312, -1.25691114406053, 1.15656868470837, -1.19226673216139], a = 0.2, v = 0.2, t = 0.2)
movej(p[0.534328785601797, 0.0129993031133671, 0.162445898309994, -1.26062862694867, 1.16421259001398, -1.18988177245439], a = 0.2, v = 0.2, t = 0.2)
movej(p[0.535204740421183, 0.0128601985561516, 0.162457599696946, -1.26392194743583, 1.17161962427073, -1.17992095705022], a = 0.2, v = 0.2, t = 0.2)
movej(p[0.535745685992496, 0.0126327345095463, 0.162554499028806, -1.2707644118824, 1.17621149307949, -1.18556933587637], a = 0.2, v = 0.2, t = 0.2)
movej(p[0.536080397893507, 0.0125713340152529, 0.162502253904368, -1.27686708316876, 1.18091812454077, -1.18840023473661], a = 0.2, v = 0.2, t = 0.2)
movej(p[0.536180635176451, 0.012599493018475, 0.162426638752379, -1.27736143987133, 1.18600000746507, -1.18389737320233], a = 0.2, v = 0.2, t = 0.2)
movej(p[0.536185555186379, 0.0125047532575645, 0.16239453478208, -1.27814498458921, 1.18800813080169, -1.18007953157992], a = 0.2, v = 0.2, t = 0.2)
movej(p[0.535973425115215, 0.0122661140065527, 0.162457937384619, -1.26706407275764, 1.19051212673771, -1.17148534030675], a = 0.2, v = 0.2, t = 0.2)
movej(p[0.535595361034061, 0.0122254236557471, 0.162381530778121, -1.2634317510778, 1.18954769418567, -1.18437600538445], a = 0.2, v = 0.2, t = 0.2)
movej(p[0.535039338820215, 0.0123871982536876, 0.162239495978511, -1.25958357993669, 1.18683639095841, -1.18693247396092], a = 0.2, v = 0.2, t = 0.2)
movej(p[0.53434735206206, 0.0124699577688428, 0.162182661545592, -1.26036452774492, 1.18019588469735, -1.19541218882598], a = 0.2, v = 0.2, t = 0.2)
movej(p[0.533550151528414, 0.0123509269908542, 0.16233659703809, -1.25924206683167, 1.17427839744677, -1.19278241859154], a = 0.2, v = 0.2, t = 0.2)
movej(p[0.53276537516295, 0.0123606424102255, 0.162468284260166, -1.25871748384138, 1.16826902325895, -1.20420761415356], a = 0.2, v = 0.2, t = 0.2)
movej(p[0.532299644615968, 0.0126305661411653, 0.162453428904789, -1.26477488476862, 1.1623777315541, -1.20969780423687], a = 0.2, v = 0.2, t = 0.2)
movej(p[0.532039978751138, 0.0128880315145025, 0.162406322103004, -1.26618024873335, 1.15503458495936, -1.21241380357377], a = 0.2, v = 0.2, t = 0.2)
movej(p[0.532136927317234, 0.012930995231813, 0.162474931599627, -1.26542499749216, 1.15150032473867, -1.2034996510131], a = 0.2, v = 0.2, t = 0.2)
movej(p[0.532481694519549, 0.0128201743835855, 0.162628757027352, -1.26231600425446, 1.1517538563749, -1.20453006491583], a = 0.2, v = 0.2, t = 0.2)
movej(p[0.533410031165165, 0.0129278310676087, 0.162616225463531, -1.26535697794703, 1.15592818316496, -1.20482060036442], a = 0.2, v = 0.2, t = 0.2)
movej(p[0.534401243978255, 0.0130843452664535, 0.162514428723531, -1.27144208329473, 1.16276686764732, -1.20254679757948], a = 0.2, v = 0.2, t = 0.2)
movej(p[0.535290352796294, 0.0130297416065274, 0.162438736682946, -1.27000024584493, 1.17077651552921, -1.18565398989053], a = 0.2, v = 0.2, t = 0.2)
movej(p[0.535816244137425, 0.0127507141457989, 0.162502530863128, -1.27081890865446, 1.17808467672682, -1.17684411336868], a = 0.2, v = 0.2, t = 0.2)
movej(p[0.53609487007798, 0.0126069932522076, 0.162466404895994, -1.26698465308048, 1.18296429078818, -1.17396829230632], a = 0.2, v = 0.2, t = 0.2)
movej(p[0.536298469530967, 0.0126011306235157, 0.162366029212127, -1.2699882725186, 1.18590466503893, -1.17420064676626], a = 0.2, v = 0.2, t = 0.2)
movej(p[0.536338537592746, 0.0125284372496919, 0.162297056319608, -1.27013546230779, 1.18644341028158, -1.17214703292199], a = 0.2, v = 0.2, t = 0.2)
movej(p[0.536351555788228, 0.0123186297002176, 0.162356921510671, -1.26680762477039, 1.1882823208245, -1.16525862819497], a = 0.2, v = 0.2, t = 0.2)
movej(p[0.536219338219596, 0.0121256473453077, 0.162429823349046, -1.26260430617646, 1.19019351791774, -1.17105006139048], a = 0.2, v = 0.2, t = 0.2)
movej(p[0.536147188088277, 0.0122381514759903, 0.162303756390132, -1.2632220466422, 1.19012490133681, -1.17625266852715], a = 0.2, v = 0.2, t = 0.2)
movej(p[0.535821222902087, 0.0122638663040389, 0.162189932629734, -1.26168090202378, 1.18794284556687, -1.17944262050219], a = 0.2, v = 0.2, t = 0.2)
movej(p[0.535336692037843, 0.0121399926608109, 0.162194766912505, -1.26094565668554, 1.18444625670616, -1.17933330871827], a = 0.2, v = 0.2, t = 0.2)
movej(p[0.534659133108376, 0.0119240182512205, 0.162363583675598, -1.25412472181163, 1.1855304465041, -1.18405141829494], a = 0.2, v = 0.2, t = 0.2)
movej(p[0.534199646012458, 0.0120597538489208, 0.162360707532069, -1.25301030842298, 1.18373122362826, -1.19242018775139], a = 0.2, v = 0.2, t = 0.2)
movej(p[0.5337632775185, 0.0123492217095114, 0.162273482688733, -1.25625721191283, 1.17854988545872, -1.19781665179511], a = 0.2, v = 0.2, t = 0.2)
movej(p[0.533383926108845, 0.0125263755704821, 0.162241651397757, -1.25793062646196, 1.16918682758997, -1.19964791709691], a = 0.2, v = 0.2, t = 0.2)
movej(p[0.533081509623137, 0.0124090606415888, 0.162421981029418, -1.25698582174027, 1.16480972701857, -1.19337818020442], a = 0.2, v = 0.2, t = 0.2)
movej(p[0.533088395866264, 0.0124096393226369, 0.162541230210898, -1.25379775706604, 1.16367933636751, -1.1969814059838], a = 0.2, v = 0.2, t = 0.2)
movej(p[0.533574514296351, 0.0125976018927167, 0.162508595595491, -1.25816893997368, 1.16603986142491, -1.19574473801908], a = 0.2, v = 0.2, t = 0.2)
movej(p[0.534242587334227, 0.0127845902216616, 0.162417698795755, -1.26340624362645, 1.16717771283893, -1.19706316047535], a = 0.2, v = 0.2, t = 0.2)
movej(p[0.534965144198388, 0.012717109635341, 0.162443616533372, -1.26860035194533, 1.17008197280113, -1.18873944345846], a = 0.2, v = 0.2, t = 0.2)
movej(p[0.535396875792815, 0.0125596743090907, 0.162513868156994, -1.26186683064293, 1.17634260543737, -1.18181047593329], a = 0.2, v = 0.2, t = 0.2)
movej(p[0.535853231630519, 0.0125766247789019, 0.162453524374108, -1.26482106354907, 1.1826212533286, -1.181183096244], a = 0.2, v = 0.2, t = 0.2)
movej(p[0.536074111608032, 0.0126269499338605, 0.162349708043994, -1.26445586063061, 1.18853251804677, -1.17554504757704], a = 0.2, v = 0.2, t = 0.2)
movej(p[0.536244332525539, 0.0125312085275566, 0.162341392151812, -1.27140628609023, 1.18850910165533, -1.1765614779843], a = 0.2, v = 0.2, t = 0.2)
movej(p[0.53612871164832, 0.0122517862053524, 0.162429474830393, -1.26986976379176, 1.18818246793735, -1.1748724890815], a = 0.2, v = 0.2, t = 0.2)
movej(p[0.535826840532839, 0.012143800173031, 0.162401441512312, -1.27050864046555, 1.18671598926241, -1.19006342583399], a = 0.2, v = 0.2, t = 0.2)
movej(p[0.535360120945056, 0.0122865903869393, 0.162218936722202, -1.263947703322, 1.18745282760399, -1.18966572913699], a = 0.2, v = 0.2, t = 0.2)
movej(p[0.534680542033684, 0.0123976989483527, 0.162083741684293, -1.25819279719215, 1.18345238091572, -1.19219393265029], a = 0.2, v = 0.2, t = 0.2)
movej(p[0.533960157734675, 0.0122903493715735, 0.162178039763357, -1.24680576446168, 1.18020570636526, -1.18032358899755], a = 0.2, v = 0.2, t = 0.2)
movej(p[0.533075443773763, 0.0121950108184328, 0.162383315681336, -1.25297892891056, 1.17089868543414, -1.19859173458565], a = 0.2, v = 0.2, t = 0.2)
movej(p[0.532440285919934, 0.012398064928379, 0.162440852825451, -1.25751730429234, 1.16399484237077, -1.20411378608156], a = 0.2, v = 0.2, t = 0.2)
movej(p[0.531905013993656, 0.0126933770002665, 0.162437666724959, -1.2649452782618, 1.15496263841227, -1.21173816892217], a = 0.2, v = 0.2, t = 0.2)
movej(p[0.53164643254334, 0.0128531097808166, 0.162455161020318, -1.25881680879331, 1.15029131753908, -1.19835157825223], a = 0.2, v = 0.2, t = 0.2)
movej(p[0.531643156850851, 0.012769179752143, 0.162607542644294, -1.25649971735308, 1.1476812053637, -1.19632715931029], a = 0.2, v = 0.2, t = 0.2)
movej(p[0.532160744720331, 0.0128154271742009, 0.162655473258269, -1.26053375859182, 1.1479327826519, -1.20453937895306], a = 0.2, v = 0.2, t = 0.2)
movej(p[0.533067272653204, 0.0130130633365738, 0.162576829096251, -1.26429060808627, 1.15325931715637, -1.20391264895705], a = 0.2, v = 0.2, t = 0.2)
movej(p[0.53413350200187, 0.0130963509320714, 0.162500213363011, -1.26606466771293, 1.15962849922714, -1.19867805191748], a = 0.2, v = 0.2, t = 0.2)
movej(p[0.53501686366906, 0.0129441542483657, 0.162538180656964, -1.26208079911541, 1.16869237156392, -1.18274552115332], a = 0.2, v = 0.2, t = 0.2)
movej(p[0.535603985800328, 0.0127915305848168, 0.162587380051103, -1.26423300131416, 1.17445234635967, -1.18636180469403], a = 0.2, v = 0.2, t = 0.2)
movej(p[0.536033345846206, 0.0127997107711188, 0.162473355635044, -1.26590292525766, 1.18262668782407, -1.18025858169108], a = 0.2, v = 0.2, t = 0.2)
movej(p[0.536235705086349, 0.0127692502384853, 0.162367943305688, -1.26341980873048, 1.18821115318842, -1.17259844344895], a = 0.2, v = 0.2, t = 0.2)
movej(p[0.5363383005733, 0.012553411689606, 0.16236294035907, -1.25946962336502, 1.19266500722561, -1.16110896132875], a = 0.2, v = 0.2, t = 0.2)
movej(p[0.536236863787932, 0.0123404336063426, 0.162463668746446, -1.26323352472606, 1.19092396123945, -1.16920526432673], a = 0.2, v = 0.2, t = 0.2)
movej(p[0.536030305108761, 0.0123702422635901, 0.16236500661079, -1.26410707422946, 1.19010740958368, -1.1796476277287], a = 0.2, v = 0.2, t = 0.2)
movej(p[0.535550821027109, 0.0124818812933824, 0.162200125049552, -1.25973446439048, 1.18818509578324, -1.18320045032148], a = 0.2, v = 0.2, t = 0.2)
movej(p[0.53488950025979, 0.0124650189348707, 0.162127319970422, -1.25038911940157, 1.186208527998, -1.18186468837783], a = 0.2, v = 0.2, t = 0.2)
movej(p[0.534035277895143, 0.0122914374839969, 0.162314682044158, -1.24525110217825, 1.18229226203107, -1.18272947167481], a = 0.2, v = 0.2, t = 0.2)
movej(p[0.533363509963813, 0.012364671338532, 0.1624286122954, -1.25024688003924, 1.17540188917247, -1.19943631313671], a = 0.2, v = 0.2, t = 0.2)
movej(p[0.532860078282608, 0.0126731217591687, 0.162417247506634, -1.25850484484463, 1.16852232297925, -1.20708411980755], a = 0.2, v = 0.2, t = 0.2)
movej(p[0.532498187998409, 0.012881704324839, 0.162389284280774, -1.2639765937196, 1.1601986497106, -1.21178490039436], a = 0.2, v = 0.2, t = 0.2)
movej(p[0.532266575827606, 0.0128432791322543, 0.162497972340425, -1.26298566003618, 1.15665145651884, -1.20303061849227], a = 0.2, v = 0.2, t = 0.2)
movej(p[0.532399361127507, 0.0127548649846156, 0.162632850627496, -1.26314124601047, 1.15450791858309, -1.20927460250954], a = 0.2, v = 0.2, t = 0.2)
movej(p[0.533144756097238, 0.0128669698397972, 0.162611373023955, -1.26507676937139, 1.15786500942462, -1.20460030045259], a = 0.2, v = 0.2, t = 0.2)
movej(p[0.534054945388958, 0.0130173267117778, 0.162512564540069, -1.26552967467266, 1.16205653269791, -1.19896803164266], a = 0.2, v = 0.2, t = 0.2)
movej(p[0.534970068059291, 0.0129356371222889, 0.162455072049162, -1.2610212676658, 1.16974472602301, -1.18017910877994], a = 0.2, v = 0.2, t = 0.2)
movej(p[0.535491871273805, 0.0127107457965068, 0.162484465366625, -1.25588824670014, 1.17761601885005, -1.170269204443], a = 0.2, v = 0.2, t = 0.2)
movej(p[0.535941717974375, 0.0125909963334494, 0.162441300693364, -1.26176699039786, 1.18276788085274, -1.17315055605968], a = 0.2, v = 0.2, t = 0.2)
movej(p[0.53621548479516, 0.012594499570683, 0.162352168173014, -1.26659930570386, 1.18617323465775, -1.1727852799378], a = 0.2, v = 0.2, t = 0.2)
movej(p[0.536372288708818, 0.0124601618789317, 0.162335003995272, -1.27149501034276, 1.18684720367892, -1.1728896984545], a = 0.2, v = 0.2, t = 0.2)
movej(p[0.536347554585554, 0.0122356869000867, 0.162415605663418, -1.26564030798738, 1.18841941682034, -1.16656574397413], a = 0.2, v = 0.2, t = 0.2)
movej(p[0.536297841477495, 0.0121258640671606, 0.162439006645346, -1.26877460976064, 1.18864308474336, -1.17991355243506], a = 0.2, v = 0.2, t = 0.2)
movej(p[0.536328155569325, 0.0122363406847221, 0.162320832186986, -1.27008415933425, 1.19087384636914, -1.17806724966278], a = 0.2, v = 0.2, t = 0.2)
movej(p[0.536331189561083, 0.0122657895024461, 0.16221979606558, -1.26971063217691, 1.19080893482193, -1.17666898211824], a = 0.2, v = 0.2, t = 0.2)
movej(p[0.536343785953497, 0.0120936170716233, 0.16224579894932, -1.26055301501134, 1.19355119599071, -1.16095889072102], a = 0.2, v = 0.2, t = 0.2)
movej(p[0.536178123258117, 0.0119817374030707, 0.162286108175611, -1.25531175916881, 1.19264608921674, -1.16802434451853], a = 0.2, v = 0.2, t = 0.2)
movej(p[0.536070382568333, 0.012103680960587, 0.162171864755472, -1.25411208471902, 1.19239542682553, -1.17298965596535], a = 0.2, v = 0.2, t = 0.2)
movej(p[0.535707093452662, 0.012212343324113, 0.162098650884601, -1.25347353429796, 1.1901985820438, -1.17763882120866], a = 0.2, v = 0.2, t = 0.2)
movej(p[0.535366601572799, 0.012108043816959, 0.162148818310837, -1.24956710079925, 1.18906926085339, -1.17196506184703], a = 0.2, v = 0.2, t = 0.2)
movej(p[0.534884308988998, 0.0119333300827835, 0.162317000869982, -1.24471125079943, 1.18881946952733, -1.17299204227502], a = 0.2, v = 0.2, t = 0.2)
movej(p[0.534608616007348, 0.0120430611604217, 0.162321470922509, -1.24638719950423, 1.18670560127086, -1.17994237515718], a = 0.2, v = 0.2, t = 0.2)
movej(p[0.534273833833208, 0.0122908163607882, 0.162235854877464, -1.24836322534791, 1.18332944350418, -1.18552628283179], a = 0.2, v = 0.2, t = 0.2)
movej(p[0.533914559026352, 0.0124402693498137, 0.162182392021252, -1.25299844884384, 1.17698681872905, -1.19221509973897], a = 0.2, v = 0.2, t = 0.2)
movej(p[0.533449775333726, 0.0123503527453876, 0.1622962774085, -1.25027857310151, 1.17410813791793, -1.18995985752226], a = 0.2, v = 0.2, t = 0.2)
movej(p[0.533287985694427, 0.0124215803572278, 0.162397008670597, -1.25154211967205, 1.17085820678242, -1.1986692252083], a = 0.2, v = 0.2, t = 0.2)
movej(p[0.533609587556958, 0.0127019681680142, 0.162412554942271, -1.25359321018987, 1.17037884674981, -1.1952566686824], a = 0.2, v = 0.2, t = 0.2)
movej(p[0.534201058291979, 0.0129461712016636, 0.162386756778181, -1.25766102979187, 1.16867822725658, -1.19436363322823], a = 0.2, v = 0.2, t = 0.2)
movej(p[0.534847009011511, 0.0128989601202602, 0.162402334381583, -1.25992727590354, 1.17089575149331, -1.18370351383092], a = 0.2, v = 0.2, t = 0.2)
movej(p[0.53527729005126, 0.0127703696329474, 0.162427649238992, -1.26160249756538, 1.17332481416482, -1.18744672026267], a = 0.2, v = 0.2, t = 0.2)
movej(p[0.535730917838466, 0.0127489203706416, 0.162313615496525, -1.26467686058393, 1.17668842526371, -1.18705971014123], a = 0.2, v = 0.2, t = 0.2)
movej(p[0.536006267418181, 0.0126838027142933, 0.16223746590636, -1.26432804120028, 1.18011700098364, -1.18275721293616], a = 0.2, v = 0.2, t = 0.2)
movej(p[0.536231095175064, 0.0125077449399932, 0.162236281446672, -1.26224333289126, 1.18413044167758, -1.17100897945554], a = 0.2, v = 0.2, t = 0.2)
movej(p[0.536225604179535, 0.0122465087912268, 0.162379375680752, -1.26041972767216, 1.18816192283928, -1.16953157701777], a = 0.2, v = 0.2, t = 0.2)
movej(p[0.536263936263812, 0.0122360314288234, 0.162351662622601, -1.25833192509222, 1.19003794271865, -1.16957916742893], a = 0.2, v = 0.2, t = 0.2)
movej(p[0.536118376687043, 0.012304495793545, 0.162241737885739, -1.25593841315918, 1.18951129621289, -1.16930054769043], a = 0.2, v = 0.2, t = 0.2)
movej(p[0.535831582333824, 0.0122165997446057, 0.162157753394155, -1.2493521140299, 1.18758248713863, -1.1656068967223], a = 0.2, v = 0.2, t = 0.2)
movej(p[0.535309200722995, 0.0120115720029101, 0.162244442620173, -1.25216464955476, 1.1851074952143, -1.18024169182038], a = 0.2, v = 0.2, t = 0.2)
movej(p[0.534920616351332, 0.0120790893390735, 0.162207793139733, -1.24836725527722, 1.18513934567648, -1.18569289948374], a = 0.2, v = 0.2, t = 0.2)
movej(p[0.534557320027943, 0.0123090403915455, 0.162159194223295, -1.25132689863226, 1.1831951238779, -1.19130614109204], a = 0.2, v = 0.2, t = 0.2)
movej(p[0.534227826997419, 0.0124324056899324, 0.162103845689567, -1.24924583263638, 1.17868791642563, -1.19035473499664], a = 0.2, v = 0.2, t = 0.2)
movej(p[0.53372989991531, 0.0123609250146601, 0.162185101739745, -1.24542585027109, 1.17489476758496, -1.18732471771606], a = 0.2, v = 0.2, t = 0.2)
movej(p[0.533306348583536, 0.0124502102510032, 0.162180831849291, -1.24461567861581, 1.16949382660827, -1.19910860273739], a = 0.2, v = 0.2, t = 0.2)
movej(p[0.533091225500311, 0.0127601165036532, 0.16208607900167, -1.24899221144359, 1.16543995809082, -1.19985693944505], a = 0.2, v = 0.2, t = 0.2)
movej(p[0.53305846595105, 0.0129936200989327, 0.162074835273473, -1.25612490125963, 1.15942074080071, -1.20516379496648], a = 0.2, v = 0.2, t = 0.2)
movej(p[0.533280838124421, 0.0129290587377166, 0.162254664022143, -1.25781554346132, 1.15700970373774, -1.19787262307618], a = 0.2, v = 0.2, t = 0.2)
movej(p[0.533641465173691, 0.0128928984200908, 0.162392103927788, -1.25934868021829, 1.1571379997005, -1.20395060206557], a = 0.2, v = 0.2, t = 0.2)
movej(p[0.534274104658778, 0.0130508529413985, 0.162382792429123, -1.27230429128178, 1.15778740623403, -1.21206731196699], a = 0.2, v = 0.2, t = 0.2)
movej(p[0.534784855015898, 0.0131529234940492, 0.162302753704226, -1.28139478605546, 1.15929934766136, -1.21437422954124], a = 0.2, v = 0.2, t = 0.2)
movej(p[0.535221850805395, 0.0130390433092082, 0.16230817332258, -1.28557123907636, 1.16272287103344, -1.20852549408069], a = 0.2, v = 0.2, t = 0.2)
movej(p[0.535438981457712, 0.012779364110304, 0.162349057602943, -1.28448439480088, 1.16630272768936, -1.20750220081624], a = 0.2, v = 0.2, t = 0.2)
movej(p[0.535718538531412, 0.0127202776165291, 0.162262399588901, -1.28097297844215, 1.17142381463893, -1.20263546178648], a = 0.2, v = 0.2, t = 0.2)
movej(p[0.535890840595839, 0.0126899225571789, 0.162168644417834, -1.282466896511, 1.17400098490395, -1.20141867114455], a = 0.2, v = 0.2, t = 0.2)
movej(p[0.536037392633771, 0.0125280421438064, 0.162169755928719, -1.27508561853221, 1.17928793824357, -1.18712837478838], a = 0.2, v = 0.2, t = 0.2)
movej(p[0.535992732990284, 0.0122806798428041, 0.16227347421412, -1.27652808295791, 1.18170001511619, -1.1915680454222], a = 0.2, v = 0.2, t = 0.2)
movej(p[0.535903987743009, 0.0122582583357361, 0.162216410053468, -1.27372856439533, 1.1825185513072, -1.19481681802005], a = 0.2, v = 0.2, t = 0.2)
movej(p[0.535607641490381, 0.0123715118055643, 0.162096690167646, -1.26880866557982, 1.18162422723569, -1.19521450041134], a = 0.2, v = 0.2, t = 0.2)
movej(p[0.535112810770758, 0.012346516106495, 0.162054380796983, -1.26152656231221, 1.18020024662727, -1.19217768805718], a = 0.2, v = 0.2, t = 0.2)
movej(p[0.53443501452978, 0.0122008754480033, 0.162191795553139, -1.25481471602825, 1.17998527303988, -1.18991759109692], a = 0.2, v = 0.2, t = 0.2)
movej(p[0.533766285546668, 0.0122249542512172, 0.162270800912336, -1.25624834227104, 1.17547640027896, -1.20614538970049], a = 0.2, v = 0.2, t = 0.2)
movej(p[0.533315847569333, 0.0125340799621236, 0.162171513666774, -1.25438645268804, 1.17237467298895, -1.20289812904222], a = 0.2, v = 0.2, t = 0.2)
movej(p[0.532976573885873, 0.0127878916544621, 0.16212614419859, -1.25514656194582, 1.16575262360928, -1.20533562809581], a = 0.2, v = 0.2, t = 0.2)
movej(p[0.532659262221606, 0.0128057936134375, 0.162220665843124, -1.24881294337179, 1.16312338138248, -1.19020041658706], a = 0.2, v = 0.2, t = 0.2)
movej(p[0.532545993301705, 0.0127919062403132, 0.162412845880724, -1.24873008791547, 1.15824374996777, -1.19827624651967], a = 0.2, v = 0.2, t = 0.2)
movej(p[0.532941040369837, 0.012939196825888, 0.16247154656097, -1.25218044106867, 1.15749519091676, -1.19693320530527], a = 0.2, v = 0.2, t = 0.2)
movej(p[0.533607215217574, 0.0131739948626461, 0.162434529249103, -1.25893717935365, 1.15723584128993, -1.20211501412326], a = 0.2, v = 0.2, t = 0.2)
movej(p[0.534342342668745, 0.0131880822220558, 0.162397931799193, -1.26375860699973, 1.16027857417258, -1.19792345019871], a = 0.2, v = 0.2, t = 0.2)
movej(p[0.534758652689821, 0.0131092780781344, 0.162381990674623, -1.26226891922924, 1.16453187745053, -1.19851781529614], a = 0.2, v = 0.2, t = 0.2)
movej(p[0.535205043644334, 0.0131027650314855, 0.16223592980905, -1.26539466873695, 1.16633837204673, -1.19985214347476], a = 0.2, v = 0.2, t = 0.2)
movej(p[0.535512864557354, 0.0131074191112692, 0.162096108036964, -1.26803687056512, 1.16966370843464, -1.19780476920507], a = 0.2, v = 0.2, t = 0.2)
movej(p[0.535798780370584, 0.0129696983578278, 0.162043812843518, -1.27644724538995, 1.1699098051005, -1.19907255118989], a = 0.2, v = 0.2, t = 0.2)
movej(p[0.535952781452343, 0.0126487173030499, 0.162149371502337, -1.27055373780994, 1.17488180682249, -1.18978435157163], a = 0.2, v = 0.2, t = 0.2)
movej(p[0.536089492515902, 0.0125401238733908, 0.162186767516569, -1.27234873654542, 1.17595443082747, -1.19878379913006], a = 0.2, v = 0.2, t = 0.2)
movej(p[0.536203345693998, 0.0125867835358582, 0.162120640708572, -1.27442956959021, 1.17731036163123, -1.19798921369238], a = 0.2, v = 0.2, t = 0.2)
movej(p[0.536247094321152, 0.0125582755304684, 0.162081329529809, -1.27504986897079, 1.17777561709226, -1.19533478774495], a = 0.2, v = 0.2, t = 0.2)
movej(p[0.536170483265251, 0.0122411776666362, 0.162138945762441, -1.26710733626974, 1.18007700134775, -1.18170206953178], a = 0.2, v = 0.2, t = 0.2)
movej(p[0.535950501241315, 0.0120465808914278, 0.162168357555652, -1.2551749348906, 1.18359526849657, -1.18295379293379], a = 0.2, v = 0.2, t = 0.2)
movej(p[0.535810586661853, 0.0121223255579101, 0.162088862277998, -1.2504549245104, 1.18538712033926, -1.18434024955134], a = 0.2, v = 0.2, t = 0.2)
movej(p[0.535519786625163, 0.0122273363611313, 0.162042740967652, -1.24562390544363, 1.18634361792573, -1.18400615681571], a = 0.2, v = 0.2, t = 0.2)
movej(p[0.535169401311366, 0.0121817265521735, 0.162102485277026, -1.24121343086548, 1.18612262372935, -1.17538479993216], a = 0.2, v = 0.2, t = 0.2)
movej(p[0.534571247145421, 0.0119827856469359, 0.162249589459445, -1.23969320332801, 1.18431523736672, -1.1788268223251], a = 0.2, v = 0.2, t = 0.2)
movej(p[0.534131438285266, 0.0120996627254638, 0.162182043186089, -1.23642312284805, 1.18217283567097, -1.18241961409592], a = 0.2, v = 0.2, t = 0.2)
movej(p[0.53370917985888, 0.0123409030535854, 0.162090579278464, -1.23911663814044, 1.17735078685332, -1.18745565999943], a = 0.2, v = 0.2, t = 0.2)
movej(p[0.533407990798701, 0.0125002137987482, 0.162072787857281, -1.24056891269457, 1.17146826679463, -1.18882093993319], a = 0.2, v = 0.2, t = 0.2)
movej(p[0.533011889450032, 0.0124866061123603, 0.16225203209137, -1.25224518760821, 1.16365858565963, -1.20395074662788], a = 0.2, v = 0.2, t = 0.2)
movej(p[0.532933310026224, 0.0126324447151915, 0.162346450177446, -1.25703855908506, 1.16055339377952, -1.2103878024718], a = 0.2, v = 0.2, t = 0.2)
movej(p[0.533144272338561, 0.0129013039914866, 0.162379516093789, -1.26360104651507, 1.1570503372776, -1.21407123396908], a = 0.2, v = 0.2, t = 0.2)
movej(p[0.53361860764474, 0.0131089046495619, 0.162391968281493, -1.26338425597118, 1.15743169974042, -1.20599776962707], a = 0.2, v = 0.2, t = 0.2)
movej(p[0.534088123670229, 0.0130787361476677, 0.162427529971595, -1.26510245143092, 1.15715835936674, -1.20306276589951], a = 0.2, v = 0.2, t = 0.2)
movej(p[0.534498239854449, 0.0130472855530918, 0.162362960548171, -1.26470043687722, 1.16148947314203, -1.20403892300086], a = 0.2, v = 0.2, t = 0.2)
movej(p[0.535003384165794, 0.0130944754540797, 0.162202747256085, -1.26288423238231, 1.16824207765153, -1.19423306285208], a = 0.2, v = 0.2, t = 0.2)
movej(p[0.535417340515645, 0.0130529767080184, 0.162133983744006, -1.26109004026518, 1.17252933975193, -1.18667129368373], a = 0.2, v = 0.2, t = 0.2)
movej(p[0.535743076819797, 0.0128059239490516, 0.162195676933614, -1.25832603765284, 1.17666642915348, -1.17530125832531], a = 0.2, v = 0.2, t = 0.2)
movej(p[0.535830000380541, 0.0125736935941675, 0.162274749469503, -1.26366933528058, 1.17629664332659, -1.18592971746325], a = 0.2, v = 0.2, t = 0.2)
movej(p[0.535985941222906, 0.0125216279274912, 0.162209251604927, -1.26590110045482, 1.17886492258568, -1.18481574888002], a = 0.2, v = 0.2, t = 0.2)
movej(p[0.536049557341093, 0.0125239015509857, 0.162134995799147, -1.26665866185251, 1.18002734358235, -1.18329836394336], a = 0.2, v = 0.2, t = 0.2)
movej(p[0.536119512907575, 0.0123720044625041, 0.162125987910714, -1.26233944855732, 1.18075108185958, -1.17528074897878], a = 0.2, v = 0.2, t = 0.2)
movej(p[0.535957476747146, 0.0121204139681231, 0.162222209971986, -1.25525233087143, 1.18362468602136, -1.17340488521554], a = 0.2, v = 0.2, t = 0.2)
movej(p[0.535850040141472, 0.0120978331848504, 0.162174773890908, -1.25114015343226, 1.18545605862013, -1.1783414957757], a = 0.2, v = 0.2, t = 0.2)
movej(p[0.535616397485472, 0.0121868935945553, 0.162097148985461, -1.24747553059303, 1.18712762258119, -1.17614923629082], a = 0.2, v = 0.2, t = 0.2)
movej(p[0.535392005928326, 0.0121762637195337, 0.162071045733967, -1.24833173229114, 1.18475084249155, -1.17796017850119], a = 0.2, v = 0.2, t = 0.2)
movej(p[0.534932162568425, 0.0119990083013259, 0.162203708196145, -1.24398972229593, 1.18417584656426, -1.17388533019305], a = 0.2, v = 0.2, t = 0.2)
movej(p[0.534534974570268, 0.0120378540938283, 0.162219779671645, -1.24277564211325, 1.18146683461294, -1.18580857191889], a = 0.2, v = 0.2, t = 0.2)
movej(p[0.534216868605592, 0.0123242895172643, 0.162119436204382, -1.24175350881814, 1.18022222585683, -1.18523710133154], a = 0.2, v = 0.2, t = 0.2)
movej(p[0.533940205854481, 0.012519354113483, 0.162031004711724, -1.24007958079174, 1.17636708653202, -1.18536234774193], a = 0.2, v = 0.2, t = 0.2)
movej(p[0.533633994806503, 0.0124479564118601, 0.162111933673261, -1.23873159546349, 1.17492031365509, -1.17892167908946], a = 0.2, v = 0.2, t = 0.2)
movej(p[0.53321422927947, 0.0124062567191968, 0.162250290452675, -1.23882404950828, 1.17055786333718, -1.18843863775839], a = 0.2, v = 0.2, t = 0.2)
movej(p[0.533070330058737, 0.0126333203951455, 0.162280626522314, -1.24383560469006, 1.16689562625121, -1.18986725637462], a = 0.2, v = 0.2, t = 0.2)
movej(p[0.533102744844632, 0.0128247263254329, 0.16236782457508, -1.24574088675145, 1.16266226987193, -1.19019085626315], a = 0.2, v = 0.2, t = 0.2)
movej(p[0.533444514921949, 0.0128890077936228, 0.162492723907735, -1.24734659591795, 1.16113695875855, -1.1841123386585], a = 0.2, v = 0.2, t = 0.2)
movej(p[0.533965319355509, 0.0127462056668199, 0.16266412701155, -1.24840085101612, 1.16155489452238, -1.18941894619897], a = 0.2, v = 0.2, t = 0.2)
movej(p[0.534618411579374, 0.0128122858434678, 0.162555369310886, -1.25511177261283, 1.16496999507535, -1.196652469071], a = 0.2, v = 0.2, t = 0.2)
movej(p[0.535204749718128, 0.0128492834923639, 0.162417536837637, -1.260185441959, 1.16936455043879, -1.19074425915165], a = 0.2, v = 0.2, t = 0.2)
movej(p[0.535493179261537, 0.0126499494732435, 0.162357089817771, -1.26336092950208, 1.1736510379443, -1.18355712760193], a = 0.2, v = 0.2, t = 0.2)
movej(p[0.535624873282, 0.0122885787026503, 0.162451179506553, -1.26361298455991, 1.17657751349374, -1.17841395249091], a = 0.2, v = 0.2, t = 0.2)
movej(p[0.53565083872102, 0.0121259055995286, 0.162446935263717, -1.26210074357736, 1.17812681264757, -1.1840005407558], a = 0.2, v = 0.2, t = 0.2)
movej(p[0.535738234762992, 0.0121858499310311, 0.162390059153896, -1.26324673776025, 1.1802249266165, -1.18450656658251], a = 0.2, v = 0.2, t = 0.2)
movej(p[0.53581212680928, 0.0121902994422824, 0.162376517030389, -1.26301640786701, 1.18100590128937, -1.18146617356404], a = 0.2, v = 0.2, t = 0.2)
movej(p[0.535832364100239, 0.0119994058372742, 0.16246136334363, -1.26155085449536, 1.18243242941849, -1.17602462022739], a = 0.2, v = 0.2, t = 0.2)
movej(p[0.535643238962781, 0.0117971460795029, 0.162498235378407, -1.25442802996052, 1.18375514556885, -1.17692146639921], a = 0.2, v = 0.2, t = 0.2)
movej(p[0.535463091204112, 0.0118767191538423, 0.162373961911864, -1.24874357497641, 1.18400526330339, -1.17907161368225], a = 0.2, v = 0.2, t = 0.2)
movej(p[0.535111424470862, 0.0119259840169999, 0.162314386177846, -1.24643453221137, 1.18362906189788, -1.1842923364631], a = 0.2, v = 0.2, t = 0.2)
movej(p[0.534735483547664, 0.0118956122712129, 0.162372736801857, -1.24311567405878, 1.18356347787548, -1.18169937465533], a = 0.2, v = 0.2, t = 0.2)
movej(p[0.534191067777031, 0.0118504392812223, 0.162508395478179, -1.24829626329607, 1.18187566044921, -1.19610730158343], a = 0.2, v = 0.2, t = 0.2)
movej(p[0.533874104065043, 0.0121078630303175, 0.162458851489798, -1.24477326965847, 1.18123796156627, -1.19367628343865], a = 0.2, v = 0.2, t = 0.2)
movej(p[0.533531542695235, 0.0124379538780202, 0.162373043565901, -1.24545547541469, 1.17669515940622, -1.19505381940251], a = 0.2, v = 0.2, t = 0.2)
movej(p[0.533282454038703, 0.0126179962642015, 0.162369923038674, -1.24492020608365, 1.1716799594734, -1.1886278261145], a = 0.2, v = 0.2, t = 0.2)
movej(p[0.532912730503469, 0.0125620961910233, 0.162538038032986, -1.24831388261106, 1.16724550495757, -1.18942967401725], a = 0.2, v = 0.2, t = 0.2)
movej(p[0.532697235722922, 0.012626913092482, 0.162632973211563, -1.25007089675312, 1.16475068263216, -1.19292242397919], a = 0.2, v = 0.2, t = 0.2)
movej(p[0.532786972479107, 0.0128444398460181, 0.162654366556474, -1.25315012532518, 1.16212317443696, -1.19277677932681], a = 0.2, v = 0.2, t = 0.2)
movej(p[0.533200762319059, 0.0129746490064942, 0.162654302645637, -1.25489867106648, 1.15826051586431, -1.19355576345734], a = 0.2, v = 0.2, t = 0.2)
movej(p[0.533811674918354, 0.0129324759711309, 0.162756413366205, -1.25701444041412, 1.15675397142638, -1.19204615971719], a = 0.2, v = 0.2, t = 0.2)
movej(p[0.534341039735399, 0.0128883803806646, 0.162818373155426, -1.25886257159462, 1.15834495378651, -1.19995147023677], a = 0.2, v = 0.2, t = 0.2)
movej(p[0.534880934020154, 0.01296270109901, 0.162732827119199, -1.26241510644551, 1.16344678637178, -1.19669853893042], a = 0.2, v = 0.2, t = 0.2)
movej(p[0.535262020926584, 0.0129882418761206, 0.162609628109935, -1.26667081541821, 1.16679062227004, -1.19559084277659], a = 0.2, v = 0.2, t = 0.2)
movej(p[0.535569894359625, 0.0128130739341599, 0.162529276470913, -1.26153705916647, 1.17300988942391, -1.17829484813634], a = 0.2, v = 0.2, t = 0.2)
movej(p[0.535705764482761, 0.0125797409056, 0.162547637433418, -1.26352704612691, 1.17520368781341, -1.18011860336246], a = 0.2, v = 0.2, t = 0.2)
movej(p[0.535878677926773, 0.0125363063874877, 0.162484997544487, -1.26068927588635, 1.18013999469366, -1.17623061203734], a = 0.2, v = 0.2, t = 0.2)
movej(p[0.535969889098639, 0.0125799323892383, 0.162373228722846, -1.26138381837745, 1.18271216940424, -1.17598366773001], a = 0.2, v = 0.2, t = 0.2)
movej(p[0.536077468870224, 0.0124673737380054, 0.162309032640664, -1.2604871781709, 1.18483999002072, -1.17044612334822], a = 0.2, v = 0.2, t = 0.2)
movej(p[0.536017479096365, 0.0121901028434594, 0.162354446264159, -1.26117240477313, 1.18432165237139, -1.17370099288471], a = 0.2, v = 0.2, t = 0.2)
movej(p[0.535895284203374, 0.0120543569786734, 0.162331129633687, -1.2602794105371, 1.18421634766754, -1.18069976364939], a = 0.2, v = 0.2, t = 0.2)
movej(p[0.53565365373152, 0.0121155924268184, 0.162243444006941, -1.25427403411254, 1.18518264966619, -1.17763132104655], a = 0.2, v = 0.2, t = 0.2)
movej(p[0.535246865684562, 0.012080972752648, 0.162191120256953, -1.25308463065215, 1.18426312521022, -1.18152382480995], a = 0.2, v = 0.2, t = 0.2)
movej(p[0.534659463717632, 0.0119771518212274, 0.162282901817439, -1.24550580112847, 1.18423031699503, -1.17427582905528], a = 0.2, v = 0.2, t = 0.2)
movej(p[0.533921128884632, 0.0119809637516569, 0.162393561971359, -1.24846448088595, 1.17879287344618, -1.1933310569058], a = 0.2, v = 0.2, t = 0.2)
movej(p[0.533450760478028, 0.0123093003661156, 0.162337500197718, -1.24631484309526, 1.17482116473246, -1.19277756005008], a = 0.2, v = 0.2, t = 0.2)
movej(p[0.533021415087148, 0.0126662618755944, 0.162256058687238, -1.24956853264974, 1.1665495692024, -1.1989235627678], a = 0.2, v = 0.2, t = 0.2)
movej(p[0.532714803101517, 0.0127813995679281, 0.162263110330427, -1.24368738382185, 1.16252986399644, -1.18715385203518], a = 0.2, v = 0.2, t = 0.2)
movej(p[0.532277259213323, 0.012747925983976, 0.16241360198495, -1.24445845778689, 1.15689832158019, -1.19248601025978], a = 0.2, v = 0.2, t = 0.2)
movej(p[0.532259365215757, 0.0128437079149266, 0.162475228611131, -1.24978913732242, 1.1526969820451, -1.19771128226673], a = 0.2, v = 0.2, t = 0.2)
movej(p[0.532532981849393, 0.0130481300374587, 0.162492472604788, -1.25904109973351, 1.14836398499948, -1.20483580281926], a = 0.2, v = 0.2, t = 0.2)
movej(p[0.53318682920738, 0.013156020687267, 0.162511963336897, -1.26451905664175, 1.14686233620908, -1.2058296779907], a = 0.2, v = 0.2, t = 0.2)
movej(p[0.533880404266156, 0.0131020613071678, 0.162558535523138, -1.263053875038, 1.15227298311365, -1.20150970583264], a = 0.2, v = 0.2, t = 0.2)
movej(p[0.534573305793303, 0.0130952510386539, 0.162484894659554, -1.26250971482796, 1.15960236169076, -1.2032818566996], a = 0.2, v = 0.2, t = 0.2)
movej(p[0.535171640249436, 0.0131335897820096, 0.162373258300502, -1.26894760050153, 1.16680616415894, -1.19901529072417], a = 0.2, v = 0.2, t = 0.2)
movej(p[0.535640381490969, 0.0130357508142828, 0.162315397428747, -1.274393750052, 1.16934361821419, -1.19627787648493], a = 0.2, v = 0.2, t = 0.2)
movej(p[0.535985908352815, 0.0126947774962507, 0.162413579790873, -1.27284744498582, 1.17404511351224, -1.18095910444676], a = 0.2, v = 0.2, t = 0.2)
movej(p[0.536076200164681, 0.0124924289169618, 0.162434292521882, -1.26968097067545, 1.17696589816357, -1.18421457574362], a = 0.2, v = 0.2, t = 0.2)
movej(p[0.536214741573685, 0.0124818783324676, 0.162341941657788, -1.2756234254285, 1.17852597989081, -1.18762659800781], a = 0.2, v = 0.2, t = 0.2)
movej(p[0.536200827004068, 0.0124778560451597, 0.162261477555225, -1.27526071769296, 1.17994684852412, -1.18717265118989], a = 0.2, v = 0.2, t = 0.2)
movej(p[0.536168118106492, 0.0123024865704777, 0.162292720228897, -1.27205132887822, 1.18120099390447, -1.17767058873328], a = 0.2, v = 0.2, t = 0.2)
movej(p[0.535852764219172, 0.0120477450004421, 0.162379281209272, -1.26120579817083, 1.18334216571414, -1.17742205808445], a = 0.2, v = 0.2, t = 0.2)
movej(p[0.53563305257023, 0.0121080213496877, 0.162271997065351, -1.25951135470575, 1.18125926835194, -1.18569838270949], a = 0.2, v = 0.2, t = 0.2)
movej(p[0.535247798522166, 0.0121810220185775, 0.162163671164053, -1.25821751105822, 1.17929161284567, -1.19305030459827], a = 0.2, v = 0.2, t = 0.2)
movej(p[0.534881369033568, 0.0121825547306578, 0.162142440222486, -1.2532913181804, 1.17735328411976, -1.18816797005833], a = 0.2, v = 0.2, t = 0.2)
movej(p[0.534337668698237, 0.0120412757782659, 0.162289285705467, -1.25006494804767, 1.17737199067575, -1.1891345240737], a = 0.2, v = 0.2, t = 0.2)
movej(p[0.533964328502969, 0.0121984692993377, 0.162287941075209, -1.24901366322683, 1.1761454330515, -1.19549566904541], a = 0.2, v = 0.2, t = 0.2)
movej(p[0.533668478542498, 0.0125112547928939, 0.162190731143565, -1.2499590822786, 1.17271925819893, -1.19807530720756], a = 0.2, v = 0.2, t = 0.2)
movej(p[0.533466758534585, 0.0126601509278329, 0.162108944994325, -1.24878824092329, 1.16816021454003, -1.19525555666804], a = 0.2, v = 0.2, t = 0.2)
movej(p[0.533084934882823, 0.0125767481579218, 0.162218264739234, -1.2496913127297, 1.16280265853776, -1.193529379546], a = 0.2, v = 0.2, t = 0.2)
movej(p[0.532846305022067, 0.0125519570911202, 0.162368411018116, -1.25210624358528, 1.15728687694243, -1.19951590865781], a = 0.2, v = 0.2, t = 0.2)
movej(p[0.533034271702131, 0.0127088750639167, 0.162442904823222, -1.25949972987941, 1.15430770310658, -1.20218038882909], a = 0.2, v = 0.2, t = 0.2)
movej(p[0.533659865315971, 0.0128556022198771, 0.162460607335103, -1.26327224609812, 1.15244601069164, -1.20060244838892], a = 0.2, v = 0.2, t = 0.2)
movej(p[0.534441248190757, 0.0127873771416367, 0.162468124029116, -1.26314250274582, 1.15671395078055, -1.19065982599493], a = 0.2, v = 0.2, t = 0.2)
movej(p[0.535011986440106, 0.0126858940115897, 0.162483349404205, -1.26410070888014, 1.16135454619715, -1.19358214493111], a = 0.2, v = 0.2, t = 0.2)
movej(p[0.535547516663906, 0.0126597953937988, 0.162405325761342, -1.26364977595666, 1.16800878696166, -1.18713205947613], a = 0.2, v = 0.2, t = 0.2)
movej(p[0.535867948674907, 0.0126326827600702, 0.162351315063858, -1.26635282098746, 1.172809672978, -1.18481626152559], a = 0.2, v = 0.2, t = 0.2)
movej(p[0.536087095652277, 0.0124374110694309, 0.162370657153516, -1.26223900813249, 1.17895558769549, -1.17086262305364], a = 0.2, v = 0.2, t = 0.2)
movej(p[0.53608148322835, 0.0122040664853964, 0.162472174099409, -1.26349180107123, 1.18321546222326, -1.17401052208911], a = 0.2, v = 0.2, t = 0.2)
movej(p[0.536112577783623, 0.0121756749213961, 0.16243971257255, -1.26416512246451, 1.18650399452148, -1.17574974522229], a = 0.2, v = 0.2, t = 0.2)
movej(p[0.536018768979958, 0.0122594524239056, 0.162292923286401, -1.26104952656907, 1.18706509800346, -1.17341280114791], a = 0.2, v = 0.2, t = 0.2)
movej(p[0.535697401874068, 0.0121642784524467, 0.16220944299766, -1.25982245118693, 1.18491343578314, -1.17438943647788], a = 0.2, v = 0.2, t = 0.2)
movej(p[0.535070990192917, 0.0119306073721431, 0.162257062759819, -1.25136042899433, 1.18305328177371, -1.17238899622799], a = 0.2, v = 0.2, t = 0.2)
movej(p[0.534287553514285, 0.0118487400381676, 0.162326974984078, -1.25032528192089, 1.17982530253083, -1.18968154456682], a = 0.2, v = 0.2, t = 0.2)
movej(p[0.533757396780019, 0.0121910216847139, 0.162205783982557, -1.24686995523955, 1.17708837404892, -1.19093853952585], a = 0.2, v = 0.2, t = 0.2)
movej(p[0.533324518583656, 0.012506365409857, 0.162109715462081, -1.24772389351402, 1.17289815985218, -1.1961130076901], a = 0.2, v = 0.2, t = 0.2)
movej(p[0.532993061762058, 0.0126393201678426, 0.162146819006995, -1.24558233748492, 1.16949490585685, -1.18786945772535], a = 0.2, v = 0.2, t = 0.2)
movej(p[0.532610142927914, 0.012636245734826, 0.162298405555276, -1.24952185421328, 1.16444081694154, -1.198464158058], a = 0.2, v = 0.2, t = 0.2)
movej(p[0.532481065515604, 0.0128920960625825, 0.162271637381668, -1.24768931352549, 1.16076142714195, -1.19736540062661], a = 0.2, v = 0.2, t = 0.2)
movej(p[0.532442557146151, 0.0131629836096645, 0.162274489103589, -1.25670142088143, 1.15225312997105, -1.20471205344315], a = 0.2, v = 0.2, t = 0.2)
movej(p[0.532574451866087, 0.0132181880924205, 0.162319439027243, -1.2575702325926, 1.14647471001933, -1.20020276689812], a = 0.2, v = 0.2, t = 0.2)
movej(p[0.53262863080392, 0.0129956838028602, 0.162505302790851, -1.26479902305217, 1.14131044866971, -1.20469057096607], a = 0.2, v = 0.2, t = 0.2)
movej(p[0.532901755863593, 0.0129495564959103, 0.162475877670082, -1.26361064169165, 1.14419281417984, -1.20767685705866], a = 0.2, v = 0.2, t = 0.2)
movej(p[0.533442934028171, 0.0131346800525222, 0.162340008021259, -1.26719945055508, 1.14840533216579, -1.20909238778962], a = 0.2, v = 0.2, t = 0.2)
movej(p[0.534181021714402, 0.0132754230380258, 0.162251618336533, -1.26941405138337, 1.15136783535485, -1.20767758628877], a = 0.2, v = 0.2, t = 0.2)
movej(p[0.534802458825429, 0.0131560030941622, 0.162301040592101, -1.26792880136058, 1.15499671006505, -1.19903451090138], a = 0.2, v = 0.2, t = 0.2)
movej(p[0.535181093760912, 0.0130170605605745, 0.162335090227817, -1.2712509363204, 1.15714568145243, -1.20519135408986], a = 0.2, v = 0.2, t = 0.2)
movej(p[0.535507642973787, 0.0130094682399093, 0.162241159560103, -1.26928497263186, 1.16249408302221, -1.19696988601585], a = 0.2, v = 0.2, t = 0.2)
movej(p[0.535722194316791, 0.0129904732176718, 0.162168568809003, -1.27187703303168, 1.16540143342895, -1.19806037081588], a = 0.2, v = 0.2, t = 0.2)
movej(p[0.535904774142765, 0.0128014506112769, 0.162182677191193, -1.26407484832438, 1.17079756452469, -1.18433550337331], a = 0.2, v = 0.2, t = 0.2)
movej(p[0.535896352670816, 0.0126052348049377, 0.162230045598268, -1.26339925157052, 1.17344387295536, -1.18991480605525], a = 0.2, v = 0.2, t = 0.2)
movej(p[0.535863754312953, 0.012577272714574, 0.1621096512373, -1.26338470610573, 1.1748380746927, -1.19440321318612], a = 0.2, v = 0.2, t = 0.2)
movej(p[0.535665117531877, 0.0125899279725885, 0.161935933929707, -1.26187607365966, 1.17335099301296, -1.195577080263], a = 0.2, v = 0.2, t = 0.2)
movej(p[0.535464684883595, 0.0124462477179846, 0.161849155329347, -1.25699572742921, 1.17217305515264, -1.18956800595175], a = 0.2, v = 0.2, t = 0.2)
movej(p[0.535141024991697, 0.0121787062894574, 0.16196184735577, -1.24917631660296, 1.17424154943647, -1.18096476540575], a = 0.2, v = 0.2, t = 0.2)
movej(p[0.534909528935674, 0.0121697581027997, 0.162009311549658, -1.24918574013899, 1.17402537740685, -1.1920582267316], a = 0.2, v = 0.2, t = 0.2)
movej(p[0.5346997404158, 0.0123928682209284, 0.161943064922254, -1.25081204206988, 1.17547707332208, -1.19417871653973], a = 0.2, v = 0.2, t = 0.2)
movej(p[0.534487931973712, 0.0125441250756585, 0.161894490200611, -1.25361333237244, 1.17154997458919, -1.20258875062753], a = 0.2, v = 0.2, t = 0.2)
movej(p[0.534128765019984, 0.0125208533204447, 0.16194003914965, -1.24739893640438, 1.17151879496068, -1.19095112861617], a = 0.2, v = 0.2, t = 0.2)
movej(p[0.533573458348871, 0.0125415665282717, 0.162058672206339, -1.25080564923341, 1.16593428150531, -1.20909648543019], a = 0.2, v = 0.2, t = 0.2)
movej(p[0.533285436619462, 0.0128551304432834, 0.162011041700453, -1.25088276625929, 1.16281780080012, -1.21093666788334], a = 0.2, v = 0.2, t = 0.2)
movej(p[0.533185296236395, 0.013230855583066, 0.161997462760347, -1.25887268613796, 1.15662992107288, -1.21990440202276], a = 0.2, v = 0.2, t = 0.2)
movej(p[0.533519478813745, 0.0133420908189834, 0.162063032248569, -1.25872133879397, 1.15511208532809, -1.20962873637724], a = 0.2, v = 0.2, t = 0.2)
movej(p[0.533880304539832, 0.0132500601871256, 0.16226289938317, -1.27085626797702, 1.15185198193788, -1.218613749766], a = 0.2, v = 0.2, t = 0.2)
movej(p[0.534380906142207, 0.0132400102979369, 0.162272158099439, -1.27286872773541, 1.1544136166004, -1.21963580742959], a = 0.2, v = 0.2, t = 0.2)
movej(p[0.534823695628745, 0.0133382016763114, 0.162153282029413, -1.27625101657701, 1.1567082139781, -1.21769403755287], a = 0.2, v = 0.2, t = 0.2)
movej(p[0.535176019215225, 0.013265661875666, 0.162050746961111, -1.27200413197765, 1.16167302652778, -1.20740492143716], a = 0.2, v = 0.2, t = 0.2)
movej(p[0.535354705860632, 0.0129946095669083, 0.162108903546038, -1.27367719601509, 1.16502232181638, -1.20110662283446], a = 0.2, v = 0.2, t = 0.2)
movej(p[0.535333063420482, 0.0127031405827266, 0.162185495549175, -1.27535168852199, 1.16725504948062, -1.20661433326626], a = 0.2, v = 0.2, t = 0.2)
movej(p[0.535478021504476, 0.01267362934383, 0.162139099570215, -1.2737961607253, 1.17093223516528, -1.20232859335367], a = 0.2, v = 0.2, t = 0.2)
movej(p[0.535654936026849, 0.0126380619018614, 0.16209576887272, -1.2711223956454, 1.17319888520783, -1.19714526882497], a = 0.2, v = 0.2, t = 0.2)
movej(p[0.535900444457934, 0.0124997762670874, 0.162134821463371, -1.26411952458503, 1.17752267258763, -1.18093767659617], a = 0.2, v = 0.2, t = 0.2)
movej(p[0.536003072923951, 0.0122470314729016, 0.162271375051509, -1.26142104661954, 1.18009452332649, -1.17941182856327], a = 0.2, v = 0.2, t = 0.2)
movej(p[0.53610125222765, 0.0122603084272642, 0.162213987373101, -1.26010099364929, 1.18115091919227, -1.18253332017573], a = 0.2, v = 0.2, t = 0.2)
movej(p[0.536016588590259, 0.0122932974402781, 0.162073575560478, -1.26225605913515, 1.17976575032208, -1.18744299924146], a = 0.2, v = 0.2, t = 0.2)
movej(p[0.535734379542033, 0.0121878722838208, 0.161996661939543, -1.26026611779797, 1.17748241022593, -1.18723915748416], a = 0.2, v = 0.2, t = 0.2)
movej(p[0.535311920487005, 0.0118666586081979, 0.162094115799489, -1.25636485332354, 1.17892797490668, -1.18218828691668], a = 0.2, v = 0.2, t = 0.2)
movej(p[0.534900732467744, 0.0117602174581464, 0.162142369762967, -1.25223583699321, 1.17966379114137, -1.18993768559424], a = 0.2, v = 0.2, t = 0.2)
movej(p[0.534663973605814, 0.0119658729744729, 0.162021682298405, -1.24897860733169, 1.18177009110005, -1.18617838012956], a = 0.2, v = 0.2, t = 0.2)
movej(p[0.534347949485219, 0.0121498217641146, 0.161918213581918, -1.24836863825509, 1.17718316942404, -1.19015296567542], a = 0.2, v = 0.2, t = 0.2)
movej(p[0.533758385314129, 0.0122273489979283, 0.161970149881215, -1.24897439635677, 1.17225099805744, -1.1881148337538], a = 0.2, v = 0.2, t = 0.2)
movej(p[0.532814429835425, 0.0122686598848708, 0.162189610040399, -1.25449467003723, 1.1615362641613, -1.20882258327941], a = 0.2, v = 0.2, t = 0.2)
movej(p[0.532316404237967, 0.0126711440597633, 0.162241318069392, -1.25913692501035, 1.15354216000127, -1.21605469332345], a = 0.2, v = 0.2, t = 0.2)
movej(p[0.532325356937516, 0.0130535149697091, 0.162283800819986, -1.2644999618071, 1.1452803005193, -1.21830459293709], a = 0.2, v = 0.2, t = 0.2)
movej(p[0.532956479265914, 0.013240668838462, 0.162303194842469, -1.26574333505893, 1.14380310444378, -1.20851113917358], a = 0.2, v = 0.2, t = 0.2)
movej(p[0.533615430834045, 0.0131732644101246, 0.162388715345263, -1.2706815768231, 1.14508504185879, -1.20910709989994], a = 0.2, v = 0.2, t = 0.2)
movej(p[0.534247567137336, 0.0131765532384845, 0.162310964308807, -1.26588192298728, 1.15222695999144, -1.20301189140366], a = 0.2, v = 0.2, t = 0.2)
movej(p[0.534796948329831, 0.0132111446636043, 0.162169091650621, -1.26563293782191, 1.15899563042651, -1.19651074196263], a = 0.2, v = 0.2, t = 0.2)
movej(p[0.535234307797893, 0.0131036029470751, 0.16209166011052, -1.26166137069669, 1.16460776042762, -1.18487814699176], a = 0.2, v = 0.2, t = 0.2)
movej(p[0.535568582506383, 0.0128145418533465, 0.162189090932422, -1.25890305944585, 1.16992357640556, -1.17291801322885], a = 0.2, v = 0.2, t = 0.2)
movej(p[0.535753101785906, 0.0125986963745068, 0.162259583043672, -1.2581987307536, 1.17229721929824, -1.17463813574646], a = 0.2, v = 0.2, t = 0.2)
movej(p[0.535995772564667, 0.0126083645032672, 0.162212899781983, -1.25903506453227, 1.17557050404126, -1.17478585755383], a = 0.2, v = 0.2, t = 0.2)
movej(p[0.536115145366317, 0.0125516018741631, 0.162134590327685, -1.2613459834465, 1.17549130374073, -1.17545358494816], a = 0.2, v = 0.2, t = 0.2)
movej(p[0.536209841048139, 0.0123684143838685, 0.162155893352656, -1.25709297222269, 1.17960529097197, -1.16399300800209], a = 0.2, v = 0.2, t = 0.2)
movej(p[0.536140937603786, 0.0121291519986361, 0.162272205308056, -1.25857882068673, 1.18034959459611, -1.16866711920021], a = 0.2, v = 0.2, t = 0.2)
movej(p[0.536152243583598, 0.012131949599667, 0.162207879108503, -1.25384084313885, 1.18334253252797, -1.16730530664751], a = 0.2, v = 0.2, t = 0.2)
movej(p[0.535997008333511, 0.0121495993100094, 0.162133581505209, -1.25560541320529, 1.18232845221037, -1.17391385004265], a = 0.2, v = 0.2, t = 0.2)
movej(p[0.535693077234447, 0.0119847670519083, 0.162113843614979, -1.24604041596486, 1.18337067204872, -1.16279192685137], a = 0.2, v = 0.2, t = 0.2)
movej(p[0.53518083121667, 0.0116577890247016, 0.162284696822136, -1.24512531715445, 1.18336574511962, -1.16399685193757], a = 0.2, v = 0.2, t = 0.2)
movej(p[0.534753665110406, 0.0116531458912656, 0.162302859458809, -1.24204393504855, 1.18267937316518, -1.17233738942451], a = 0.2, v = 0.2, t = 0.2)
movej(p[0.53439156995048, 0.0118905374654267, 0.16221807825467, -1.24430495310757, 1.18017761068488, -1.17893249234009], a = 0.2, v = 0.2, t = 0.2)
movej(p[0.534122083313871, 0.012068245882354, 0.162181191024593, -1.24361835559405, 1.1756286411467, -1.18314040659618], a = 0.2, v = 0.2, t = 0.2)
movej(p[0.5337645194456, 0.0120321989502043, 0.162326425903289, -1.24248096301745, 1.17327233322209, -1.17711646660964], a = 0.2, v = 0.2, t = 0.2)
movej(p[0.53347939697349, 0.0120575670788372, 0.162412997936577, -1.24237292350874, 1.17121923310042, -1.18732720349897], a = 0.2, v = 0.2, t = 0.2)
movej(p[0.533447197767977, 0.0123788382668766, 0.162314744079446, -1.2455280961833, 1.17040003078065, -1.18676867365595], a = 0.2, v = 0.2, t = 0.2)
movej(p[0.533476364730693, 0.0126223414689565, 0.162218095370485, -1.24936229911633, 1.16538181654353, -1.1914112140012], a = 0.2, v = 0.2, t = 0.2)
movej(p[0.533708367755035, 0.0126673332094284, 0.162224561975882, -1.24631422868382, 1.1648895768482, -1.1776261768317], a = 0.2, v = 0.2, t = 0.2)
movej(p[0.533972139025043, 0.0126313645395338, 0.162316872616137, -1.24825072500031, 1.16429126152123, -1.1828877238669], a = 0.2, v = 0.2, t = 0.2)
movej(p[0.534513792503142, 0.0127745143778207, 0.162267667149345, -1.25246083187083, 1.16754253037208, -1.18398707494378], a = 0.2, v = 0.2, t = 0.2)
movej(p[0.534975638363395, 0.0129431886349569, 0.162157165577651, -1.26263400065264, 1.16962517119199, -1.18991834029124], a = 0.2, v = 0.2, t = 0.2)
movej(p[0.535355334733542, 0.0128546798146734, 0.162124366911078, -1.26483801696648, 1.17141758765697, -1.18580671743864], a = 0.2, v = 0.2, t = 0.2)
movej(p[0.535530646471492, 0.0126058366655021, 0.162206318962593, -1.26827655252612, 1.17181349411639, -1.18861904945095], a = 0.2, v = 0.2, t = 0.2)
movej(p[0.535670674721381, 0.0125071585789423, 0.162238427948731, -1.2686229677494, 1.17211499312169, -1.19483383580174], a = 0.2, v = 0.2, t = 0.2)
movej(p[0.535823272020544, 0.0125797507212368, 0.162176759421884, -1.26949171625807, 1.17365724624603, -1.19352737244341], a = 0.2, v = 0.2, t = 0.2)
movej(p[0.535996600845878, 0.012536823928498, 0.162094186094432, -1.26719099861824, 1.17646056846089, -1.19028242335782], a = 0.2, v = 0.2, t = 0.2)
movej(p[0.536160984691753, 0.0124161063398119, 0.162133242973432, -1.25009538982695, 1.18419920592878, -1.16319977814314], a = 0.2, v = 0.2, t = 0.2)
movej(p[0.536029659062231, 0.0121710928055357, 0.162231588972598, -1.25579185171804, 1.18684301580158, -1.17474886988608], a = 0.2, v = 0.2, t = 0.2)
movej(p[0.53601456844937, 0.0122339271641738, 0.162177009604903, -1.25419821410414, 1.19129618015737, -1.1676230829365], a = 0.2, v = 0.2, t = 0.2)
movej(p[0.535806719155953, 0.0122123040526235, 0.162117446948299, -1.26383727122317, 1.18714474974421, -1.18041293015963], a = 0.2, v = 0.2, t = 0.2)
movej(p[0.535737424420383, 0.0120572854203417, 0.162117337601143, -1.25005244489612, 1.18900118911607, -1.15687367232504], a = 0.2, v = 0.2, t = 0.2)
movej(p[0.535471102385307, 0.0118490853559102, 0.162251835440172, -1.24962541439812, 1.18775303662034, -1.16276511056975], a = 0.2, v = 0.2, t = 0.2)
movej(p[0.535090723139134, 0.0117855617250454, 0.162299848888314, -1.24815588516042, 1.18782836136503, -1.15313141197006], a = 0.2, v = 0.2, t = 0.2)
movej(p[0.534811212403653, 0.0117853747695995, 0.162240859347725, -1.2500574571974, 1.18669430913352, -1.16812220376601], a = 0.2, v = 0.2, t = 0.2)
movej(p[0.534703044927029, 0.011994558193044, 0.162246540259336, -1.23532563279962, 1.19027958407946, -1.15235313347535], a = 0.2, v = 0.2, t = 0.2)
movej(p[0.534412765475977, 0.0116205616518537, 0.16232343110648, -1.23637126999559, 1.18865737040257, -1.1598497734611], a = 0.2, v = 0.2, t = 0.2)
movej(p[0.534001502198785, 0.0118362440422446, 0.162409943432822, -1.23767167350976, 1.18715510410815, -1.17119003544333], a = 0.2, v = 0.2, t = 0.2)
movej(p[0.533397854380084, 0.0119506320498318, 0.16234169098087, -1.2510409428303, 1.17597633337522, -1.18532958642274], a = 0.2, v = 0.2, t = 0.2)
movej(p[0.532936051384758, 0.0123502193029049, 0.162283418297305, -1.25433570337955, 1.16808874391697, -1.19823120417884], a = 0.2, v = 0.2, t = 0.2)
movej(p[0.532631607452863, 0.0124688966917679, 0.162293063743199, -1.2491817151, 1.16134476507481, -1.18732459848773], a = 0.2, v = 0.2, t = 0.2)
movej(p[0.532566844052647, 0.0124553270682709, 0.162397334106729, -1.25417419953539, 1.15724671187296, -1.20270402159167], a = 0.2, v = 0.2, t = 0.2)
movej(p[0.533051007825338, 0.0126818364899429, 0.162380687605369, -1.2562714562345, 1.15865535904013, -1.19857965037969], a = 0.2, v = 0.2, t = 0.2)
movej(p[0.53384380060288, 0.0128653675985422, 0.162338485158128, -1.26586011881689, 1.15988321206671, -1.20216515636152], a = 0.2, v = 0.2, t = 0.2)
movej(p[0.534708861548898, 0.0128695251335644, 0.162361210040475, -1.26425194629428, 1.16540144093009, -1.18558299146239], a = 0.2, v = 0.2, t = 0.2)
movej(p[0.535327412154442, 0.0126893753069505, 0.162454664413041, -1.26675247758372, 1.1711105694803, -1.18249818919968], a = 0.2, v = 0.2, t = 0.2)
movej(p[0.535860900966579, 0.0126175753367386, 0.162510300654176, -1.26869049130986, 1.17932738699787, -1.17711976129008], a = 0.2, v = 0.2, t = 0.2)
movej(p[0.536145582215528, 0.0125963975057695, 0.162622556092739, -1.26976601967108, 1.18584631990915, -1.1696015586847], a = 0.2, v = 0.2, t = 0.2)
movej(p[0.536316416234827, 0.0124573608651369, 0.162798461941879, -1.26935596839014, 1.18834922135307, -1.16547575681128], a = 0.2, v = 0.2, t = 0.2)
movej(p[0.536312977588713, 0.0121595102935051, 0.163033529984997, -1.26024979364576, 1.19116263133131, -1.15655181232962], a = 0.2, v = 0.2, t = 0.2)
movej(p[0.536261370726229, 0.0120423523180955, 0.163069141961108, -1.26019697177193, 1.19175816974042, -1.16787585509035], a = 0.2, v = 0.2, t = 0.2)
movej(p[0.536092959002421, 0.0121344078719808, 0.162898300945884, -1.25775538895529, 1.19392440884127, -1.1658773956438], a = 0.2, v = 0.2, t = 0.2)
movej(p[0.535668912320365, 0.0121280370881561, 0.162804835207505, -1.25541623613086, 1.1919094661253, -1.17076137879283], a = 0.2, v = 0.2, t = 0.2)
movej(p[0.535058933144946, 0.0119172313547795, 0.162835172520032, -1.2439225136459, 1.19064131500185, -1.16242661708375], a = 0.2, v = 0.2, t = 0.2)
movej(p[0.534390297394974, 0.0118480458607136, 0.162928094375213, -1.24029951295351, 1.18560878826958, -1.17643386330246], a = 0.2, v = 0.2, t = 0.2)
movej(p[0.533961428631717, 0.012090438505688, 0.162886766779542, -1.24718196238385, 1.17870594127568, -1.18872194379282], a = 0.2, v = 0.2, t = 0.2)
movej(p[0.533541292560246, 0.012406220416228, 0.162815866486413, -1.24654444796188, 1.17219525233015, -1.19096795684017], a = 0.2, v = 0.2, t = 0.2)
movej(p[0.533184768342834, 0.0125435653043399, 0.162847975357606, -1.24216909704568, 1.1673988241296, -1.18341131213087], a = 0.2, v = 0.2, t = 0.2)
movej(p[0.532716265643611, 0.0125183877525016, 0.162961392176042, -1.23450557391403, 1.16441135040923, -1.17937437894913], a = 0.2, v = 0.2, t = 0.2)
movej(p[0.532524370533504, 0.0127696937997253, 0.162926115421003, -1.23682997612306, 1.16059513410877, -1.1859788187232], a = 0.2, v = 0.2, t = 0.2)
movej(p[0.532438259127201, 0.0130751237191025, 0.162880769655448, -1.248090370555, 1.15464717102748, -1.19407716133104], a = 0.2, v = 0.2, t = 0.2)
movej(p[0.532567081001649, 0.0132454391689877, 0.16300269945613, -1.25987803959858, 1.14823736979489, -1.20112252215119], a = 0.2, v = 0.2, t = 0.2)
movej(p[0.532866539176609, 0.0132073707160921, 0.163237211755047, -1.26675825052947, 1.14568173087215, -1.20294199066637], a = 0.2, v = 0.2, t = 0.2)
movej(p[0.533376004568614, 0.0132907718411866, 0.163272630474428, -1.26661069026237, 1.14775210737228, -1.20658755781521], a = 0.2, v = 0.2, t = 0.2)
movej(p[0.534060328635144, 0.0134769858385333, 0.163058182147877, -1.27182865141963, 1.15088757171313, -1.20771774738086], a = 0.2, v = 0.2, t = 0.2)
movej(p[0.534537963893489, 0.0134929012089749, 0.162834364859516, -1.27161535679568, 1.15459303658372, -1.20259752248887], a = 0.2, v = 0.2, t = 0.2)
movej(p[0.534873486393251, 0.0132302348340454, 0.162781910722077, -1.27219605616373, 1.15977138793487, -1.19243674322138], a = 0.2, v = 0.2, t = 0.2)
movej(p[0.535015392827673, 0.0129432419230207, 0.162834042418686, -1.26311921419152, 1.16715940745019, -1.18368588230788], a = 0.2, v = 0.2, t = 0.2)
movej(p[0.535319712223615, 0.0128512023306238, 0.162784909349526, -1.27339733412361, 1.17096479018458, -1.191199932318], a = 0.2, v = 0.2, t = 0.2)
movej(p[0.535468268003294, 0.0127462469653733, 0.162771113577382, -1.27605394816702, 1.17120635507107, -1.19440448904449], a = 0.2, v = 0.2, t = 0.2)
movej(p[0.535709577896999, 0.0125766066426418, 0.162758751344879, -1.27734746802397, 1.17151585671438, -1.18979849179879], a = 0.2, v = 0.2, t = 0.2)
movej(p[0.535891060965509, 0.0123482555041741, 0.162819033283117, -1.26403590307096, 1.17636596834081, -1.1793360334684], a = 0.2, v = 0.2, t = 0.2)
movej(p[0.536289249634627, 0.0123864767040839, 0.162741574079998, -1.26189890664773, 1.17920595203643, -1.18109217890949], a = 0.2, v = 0.2, t = 0.2)
movej(p[0.536608097108221, 0.0124593802116223, 0.162629304887157, -1.26428444205373, 1.1803767301614, -1.18324705833277], a = 0.2, v = 0.2, t = 0.2)
movej(p[0.537060369676544, 0.0123890421515886, 0.162575651845069, -1.26234568872398, 1.1793611297912, -1.1797224836642], a = 0.2, v = 0.2, t = 0.2)
movej(p[0.537383581071122, 0.0120619231617343, 0.162708143487017, -1.25216289036398, 1.18305456984175, -1.16511708033669], a = 0.2, v = 0.2, t = 0.2)
movej(p[0.537543583415721, 0.0119992214073386, 0.162734291844871, -1.24162863620368, 1.1846067718564, -1.16848259533653], a = 0.2, v = 0.2, t = 0.2)
movej(p[0.537446856973035, 0.0121983773254862, 0.1626893471594, -1.24965808705022, 1.18228874777996, -1.18338118500322], a = 0.2, v = 0.2, t = 0.2)
movej(p[0.536961589002604, 0.0124284609416118, 0.162593135504448, -1.25421072122906, 1.17587632115264, -1.1970257879592], a = 0.2, v = 0.2, t = 0.2)
movej(p[0.536442397866516, 0.0124492085593646, 0.162641234315427, -1.25605299230782, 1.17227562846754, -1.19630353852812], a = 0.2, v = 0.2, t = 0.2)
movej(p[0.535817082921016, 0.0124470205164541, 0.162725798742617, -1.24766922451938, 1.16998591818363, -1.19528224401838], a = 0.2, v = 0.2, t = 0.2)
movej(p[0.535516945396496, 0.0127694158120105, 0.162643981899424, -1.25363836471371, 1.16462336362504, -1.20279305604611], a = 0.2, v = 0.2, t = 0.2)
movej(p[0.535223200863638, 0.0130892532138301, 0.162551030115313, -1.25468479614981, 1.15849106849691, -1.20068813727935], a = 0.2, v = 0.2, t = 0.2)
movej(p[0.535135409212607, 0.0132473114414463, 0.162599321882864, -1.25773030820771, 1.15267521923398, -1.19710566004541], a = 0.2, v = 0.2, t = 0.2)
movej(p[0.53513732955657, 0.0131336662383135, 0.162865853350629, -1.25372750675636, 1.1515266770266, -1.19209263967789], a = 0.2, v = 0.2, t = 0.2)
movej(p[0.53557674620072, 0.0132209084598036, 0.162985626983929, -1.25750478002102, 1.15075361619242, -1.20220281722447], a = 0.2, v = 0.2, t = 0.2)
movej(p[0.537013201370004, 0.0135071442800249, 0.162872966677882, -1.2716935021532, 1.14833765904153, -1.21770487544711], a = 0.2, v = 0.2, t = 0.2)
movej(p[0.539268300653765, 0.0137319130783306, 0.162640407866632, -1.27483576709476, 1.14994720135353, -1.216279825431], a = 0.2, v = 0.2, t = 0.2)
movej(p[0.54145111158286, 0.0136291515312518, 0.162590137231444, -1.27451536953999, 1.15461613776733, -1.20450980241554], a = 0.2, v = 0.2, t = 0.2)
movej(p[0.542818513565271, 0.0135181763696492, 0.162551033153557, -1.2674759256256, 1.16326675280868, -1.19636701758678], a = 0.2, v = 0.2, t = 0.2)
movej(p[0.543262503483573, 0.0134893094710455, 0.162508682306921, -1.27677428260464, 1.166476420291, -1.19898759972271], a = 0.2, v = 0.2, t = 0.2)
movej(p[0.542930474116271, 0.0134282807639857, 0.162482928888264, -1.28068089592161, 1.16894962760181, -1.19792286841687], a = 0.2, v = 0.2, t = 0.2)
movej(p[0.542156186939547, 0.0131700355869167, 0.162575024367684, -1.28355191929342, 1.17003355468728, -1.19160172087468], a = 0.2, v = 0.2, t = 0.2)
movej(p[0.5408181711101, 0.0128301108400293, 0.162718860580691, -1.27282611154776, 1.17690335302193, -1.18050101871716], a = 0.2, v = 0.2, t = 0.2)
movej(p[0.539459665998521, 0.0126970313654004, 0.162720082091027, -1.27213622055113, 1.17984748587668, -1.18311933878625], a = 0.2, v = 0.2, t = 0.2)
movej(p[0.538105226655737, 0.0126656227508397, 0.162666079995712, -1.26645887223279, 1.18427785538421, -1.17415232698751], a = 0.2, v = 0.2, t = 0.2)
movej(p[0.536755790682824, 0.012441413474371, 0.162702792283787, -1.2661806911365, 1.1823902752796, -1.16963398626883], a = 0.2, v = 0.2, t = 0.2)
movej(p[0.535014571227712, 0.0120274501207703, 0.162910084010624, -1.2571407281097, 1.18518048895229, -1.16063421514901], a = 0.2, v = 0.2, t = 0.2)
movej(p[0.533330147688758, 0.0117818501513682, 0.16305215688153, -1.25322002027161, 1.185098097242, -1.1745264586242], a = 0.2, v = 0.2, t = 0.2)
movej(p[0.531992106823593, 0.0118696868190531, 0.163009701678564, -1.24944047311471, 1.18720896213626, -1.17382845246758], a = 0.2, v = 0.2, t = 0.2)
movej(p[0.531228452801573, 0.0119564280847773, 0.162907060212905, -1.24740076902741, 1.1833324360857, -1.17826719716738], a = 0.2, v = 0.2, t = 0.2)
movej(p[0.530686572563001, 0.0118779254042821, 0.162904053304065, -1.23970043368376, 1.18341689560587, -1.1632604431447], a = 0.2, v = 0.2, t = 0.2)
movej(p[0.530122339556672, 0.0117753767732199, 0.16298438829666, -1.24080399913253, 1.1803723708182, -1.17225488268321], a = 0.2, v = 0.2, t = 0.2)
movej(p[0.529933023164688, 0.0119933089032382, 0.162910469554571, -1.23846698239267, 1.1799625527312, -1.172353804805], a = 0.2, v = 0.2, t = 0.2)
movej(p[0.529823654680223, 0.0122743404267991, 0.162804796391152, -1.24138498720274, 1.17583774294016, -1.17612061973089], a = 0.2, v = 0.2, t = 0.2)
movej(p[0.529815369028432, 0.0123985813733232, 0.162737153262971, -1.24076461124037, 1.17230385623342, -1.17445611028337], a = 0.2, v = 0.2, t = 0.2)
movej(p[0.529645994472873, 0.0122502579695434, 0.162886070890676, -1.24452054055496, 1.16860096512617, -1.17577097315034], a = 0.2, v = 0.2, t = 0.2)
movej(p[0.529691369867776, 0.0122668431827682, 0.163044989872046, -1.25052579746276, 1.16711784249404, -1.18704377788088], a = 0.2, v = 0.2, t = 0.2)
movej(p[0.529994299527114, 0.0125255164470464, 0.163089881059836, -1.25921952925543, 1.16605891890493, -1.19098742462495], a = 0.2, v = 0.2, t = 0.2)
movej(p[0.530513568182386, 0.0127123004132624, 0.163098230324273, -1.26405467025754, 1.16532988744988, -1.19048658655397], a = 0.2, v = 0.2, t = 0.2)
movej(p[0.530981339104813, 0.0126817044566236, 0.163104302495936, -1.26679253460533, 1.16585103497386, -1.18297705813081], a = 0.2, v = 0.2, t = 0.2)
movej(p[0.531306995564728, 0.0125290927491474, 0.163129430600856, -1.27153012894769, 1.1652832284592, -1.19149085753086], a = 0.2, v = 0.2, t = 0.2)
movej(p[0.531620505727936, 0.0125156955851388, 0.163047774002456, -1.27186803369358, 1.16887039338669, -1.18919455740627], a = 0.2, v = 0.2, t = 0.2)
movej(p[0.531830195896648, 0.012530823999863, 0.162933130402053, -1.27300821013866, 1.1709760921794, -1.19005123320672], a = 0.2, v = 0.2, t = 0.2)
movej(p[0.53200036215259, 0.0123581430980006, 0.162912371009708, -1.26262624414487, 1.17662438814978, -1.17148521362556], a = 0.2, v = 0.2, t = 0.2)
movej(p[0.532059182640828, 0.0120976355246775, 0.163007871775175, -1.26454314630999, 1.17849798440812, -1.17587293115359], a = 0.2, v = 0.2, t = 0.2)
movej(p[0.532127811653048, 0.0120291089140374, 0.163012973893945, -1.26321413747554, 1.18116068448216, -1.17775259519094], a = 0.2, v = 0.2, t = 0.2)
movej(p[0.53221194813619, 0.0121283049082862, 0.1629183549961, -1.2653791430084, 1.18277214651585, -1.18013610588016], a = 0.2, v = 0.2, t = 0.2)
movej(p[0.532255538830882, 0.0120817753933363, 0.16285685276789, -1.26428225124318, 1.18292747541976, -1.17744155771667], a = 0.2, v = 0.2, t = 0.2)
movej(p[0.532252263993459, 0.0119000196663847, 0.162873588408307, -1.25814995471079, 1.1850856917434, -1.16997059668606], a = 0.2, v = 0.2, t = 0.2)
movej(p[0.532438485596701, 0.0117683512621465, 0.162852419917304, -1.25432944358601, 1.18336606225757, -1.1802681442564], a = 0.2, v = 0.2, t = 0.2)
movej(p[0.532973038534797, 0.0119242201143525, 0.162605271763489, -1.2460535876763, 1.18525883228028, -1.17289118963431], a = 0.2, v = 0.2, t = 0.2)
movej(p[0.533337417179397, 0.0119927557466177, 0.162424492199715, -1.24326898755078, 1.18303091684887, -1.17360023185958], a = 0.2, v = 0.2, t = 0.2)
movej(p[0.533374828484189, 0.0119041739465813, 0.162366500877294, -1.23415001784519, 1.18612480820019, -1.15719618748738], a = 0.2, v = 0.2, t = 0.2)
movej(p[0.532759845790224, 0.0117435887983587, 0.162527485407277, -1.2366336477056, 1.18420968932773, -1.16859689747486], a = 0.2, v = 0.2, t = 0.2)
movej(p[0.532153407621796, 0.0119762225400734, 0.162565826206561, -1.2415954879663, 1.17841841145792, -1.18221700045522], a = 0.2, v = 0.2, t = 0.2)
movej(p[0.531471348446136, 0.0123706816625163, 0.162597013739642, -1.24952529126159, 1.16800755246308, -1.19641901133073], a = 0.2, v = 0.2, t = 0.2)
movej(p[0.531025844436902, 0.0126248726043158, 0.162651351402682, -1.25119934673247, 1.15924166838872, -1.19981680103482], a = 0.2, v = 0.2, t = 0.2)
movej(p[0.53067196769294, 0.0126289782003366, 0.162840664029277, -1.25518222691604, 1.15450286570071, -1.20065209333684], a = 0.2, v = 0.2, t = 0.2)
movej(p[0.530509020527801, 0.0127132661519289, 0.162918645723913, -1.25663493078897, 1.15138255594846, -1.20552859264038], a = 0.2, v = 0.2, t = 0.2)
movej(p[0.530560418661757, 0.012974980696322, 0.162953894730692, -1.26395222791111, 1.14804799305172, -1.2056959085157], a = 0.2, v = 0.2, t = 0.2)
movej(p[0.530914545312923, 0.0131636104149069, 0.162970409714816, -1.26504724886409, 1.14483505431858, -1.2049882009511], a = 0.2, v = 0.2, t = 0.2)
movej(p[0.531463072845112, 0.0132186716008338, 0.163045577376978, -1.26854543153876, 1.1433775275124, -1.20155547588313], a = 0.2, v = 0.2, t = 0.2)
movej(p[0.532063188216325, 0.0132297920116779, 0.163053630270646, -1.27216297637984, 1.14433691252071, -1.21113743248334], a = 0.2, v = 0.2, t = 0.2)
movej(p[0.532778939331997, 0.0133398451854621, 0.16289605989445, -1.27367804080048, 1.15150911828246, -1.2055450137403], a = 0.2, v = 0.2, t = 0.2)
movej(p[0.533295907194451, 0.0133302892771883, 0.16274065168253, -1.27452943184028, 1.15793615469678, -1.20123889461703], a = 0.2, v = 0.2, t = 0.2)
movej(p[0.533701148547764, 0.0131060751217387, 0.162745237593239, -1.26936718023363, 1.16460007213533, -1.18685139636638], a = 0.2, v = 0.2, t = 0.2)
movej(p[0.533850126561222, 0.0128660082226948, 0.162809626900974, -1.27126743219382, 1.16732896075823, -1.19317558543012], a = 0.2, v = 0.2, t = 0.2)
movej(p[0.534046252304553, 0.0127757416144599, 0.162797779557796, -1.27072581719485, 1.17034323474893, -1.19283742962491], a = 0.2, v = 0.2, t = 0.2)
movej(p[0.534191744564318, 0.0127690143754514, 0.162704591146688, -1.27110928756939, 1.17276546573586, -1.19002260823574], a = 0.2, v = 0.2, t = 0.2)
movej(p[0.534340577814154, 0.0126140678457812, 0.162666225036609, -1.26638379184493, 1.1747056007337, -1.17832945104899], a = 0.2, v = 0.2, t = 0.2)
movej(p[0.534136759850294, 0.0123338682017, 0.162733361500165, -1.2584144523073, 1.17784014167928, -1.17009244968317], a = 0.2, v = 0.2, t = 0.2)
movej(p[0.533833513843242, 0.0122374549886117, 0.162720833218626, -1.25596682557663, 1.17807214386773, -1.18145292997883], a = 0.2, v = 0.2, t = 0.2)
movej(p[0.53343645761716, 0.0123582273739715, 0.162550933204965, -1.25088942836591, 1.18023289017044, -1.18185058563681], a = 0.2, v = 0.2, t = 0.2)
movej(p[0.533074110806346, 0.0124295864493059, 0.162427196658973, -1.24916342112777, 1.17705037337249, -1.18765742298714], a = 0.2, v = 0.2, t = 0.2)
movej(p[0.532642123096809, 0.0123128875122772, 0.162452985246541, -1.24107207402557, 1.17721151693005, -1.17686757970814], a = 0.2, v = 0.2, t = 0.2)
movej(p[0.532259734006297, 0.0123182466810678, 0.162507154882901, -1.24245465074212, 1.17324657453698, -1.19049407506882], a = 0.2, v = 0.2, t = 0.2)
movej(p[0.532117980875786, 0.0126057200543591, 0.162417668786311, -1.24268603230886, 1.17304642988528, -1.18831422541475], a = 0.2, v = 0.2, t = 0.2)
movej(p[0.531965595124122, 0.0129042173612205, 0.16229262956412, -1.24508379958, 1.16911926168366, -1.19038455102215], a = 0.2, v = 0.2, t = 0.2)
movej(p[0.531800015884354, 0.0129521579132278, 0.162315706821999, -1.24246047522872, 1.16691167241825, -1.17897112330702], a = 0.2, v = 0.2, t = 0.2)
movej(p[0.531433048655826, 0.012808349155544, 0.162584462691516, -1.24317862580335, 1.16504118025993, -1.178052038003], a = 0.2, v = 0.2, t = 0.2)
movej(p[0.531576059308127, 0.0128639839039707, 0.162783061333534, -1.24700641935083, 1.16419095226509, -1.17719785646304], a = 0.2, v = 0.2, t = 0.2)
movej(p[0.531907394479644, 0.0130523457494049, 0.162920117587668, -1.25427714269327, 1.16324593048683, -1.18142953342543], a = 0.2, v = 0.2, t = 0.2)
movej(p[0.532572783990395, 0.0131797855128501, 0.162929163767821, -1.25734697595348, 1.1617676821795, -1.18324478952242], a = 0.2, v = 0.2, t = 0.2)
movej(p[0.533010185475791, 0.0130633989949036, 0.162984040913461, -1.25836774831152, 1.16322488963505, -1.18773296768895], a = 0.2, v = 0.2, t = 0.2)
movej(p[0.533399020902556, 0.0130001670991777, 0.16293151384277, -1.26250517471458, 1.16492536797929, -1.19478282943737], a = 0.2, v = 0.2, t = 0.2)
movej(p[0.533709106530882, 0.0129874970492316, 0.162826961463841, -1.26968758681192, 1.16947279871101, -1.19499473178558], a = 0.2, v = 0.2, t = 0.2)
movej(p[0.533912189513334, 0.0128891738926898, 0.16275240974001, -1.27488268675667, 1.17073227691317, -1.19587904181846], a = 0.2, v = 0.2, t = 0.2)
movej(p[0.534108358624683, 0.0125885492468649, 0.16280795145114, -1.26959390465796, 1.17521863053718, -1.18398193857364], a = 0.2, v = 0.2, t = 0.2)
movej(p[0.534179891663667, 0.0123962616374198, 0.162835092331062, -1.26189432835678, 1.17848652714953, -1.18487777719332], a = 0.2, v = 0.2, t = 0.2)
movej(p[0.534242576920052, 0.0124146405649933, 0.162724563360486, -1.26520928407008, 1.17764036199263, -1.1888931247808], a = 0.2, v = 0.2, t = 0.2)
movej(p[0.533988235295675, 0.0123849122257886, 0.162583061971758, -1.26240789295103, 1.17590362146354, -1.18767329757108], a = 0.2, v = 0.2, t = 0.2)
movej(p[0.533608302364169, 0.0121527394916651, 0.162577795473329, -1.25927508422244, 1.17455753648608, -1.18034888429598], a = 0.2, v = 0.2, t = 0.2)
movej(p[0.533045970300231, 0.0118872107336511, 0.162701886417072, -1.24779470262409, 1.17709860350807, -1.17702235400152], a = 0.2, v = 0.2, t = 0.2)
movej(p[0.53273175555297, 0.0120203604606167, 0.162657862872301, -1.24437746387732, 1.17719790177818, -1.18100494239514], a = 0.2, v = 0.2, t = 0.2)
movej(p[0.532378185936942, 0.012281449602984, 0.162587805309587, -1.24316505957996, 1.17477172084454, -1.18358614374997], a = 0.2, v = 0.2, t = 0.2)
movej(p[0.532069589942967, 0.012432357733516, 0.162563343905439, -1.23967083576359, 1.17102985273085, -1.18132155980457], a = 0.2, v = 0.2, t = 0.2)
movej(p[0.531589781500735, 0.012392500993739, 0.162752824060749, -1.24035361596948, 1.1682004684473, -1.18307689196675], a = 0.2, v = 0.2, t = 0.2)
