def moving():
set_payload_mass(0)
set_tcp(p[0,0,0,0,0,0])
movej(p[-0.446188785490907, -0.121025264627859, 0.307811820776424, -1.23398842594801, -1.21324886635853, 1.16975259658466], a = 0.2, v = 0.2, t = 0.2)
movej(p[-0.446143138304553, -0.121035843151307, 0.307800845840453, -1.2346533985925, -1.21156776206942, 1.16923560668203], a = 0.2, v = 0.2, t = 0.2)
movej(p[-0.446103664270596, -0.12104387385711, 0.307791231350999, -1.23518230523154, -1.21026693956714, 1.1688261062706], a = 0.2, v = 0.2, t = 0.2)
movej(p[-0.446070363484083, -0.121049257919748, 0.307783078468863, -1.23557630834929, -1.20933853149731, 1.16852694429502], a = 0.2, v = 0.2, t = 0.2)
movej(p[-0.44604343041992, -0.121051888900252, 0.307776283029479, -1.23583660994509, -1.20878734529327, 1.16833677694649], a = 0.2, v = 0.2, t = 0.2)
movej(p[-0.446022570580572, -0.121051974737539, 0.307770850743189, -1.23596231032342, -1.20861222451794, 1.16825659598989], a = 0.2, v = 0.2, t = 0.2)
movej(p[-0.445994858052166, -0.121062434833591, 0.307764488183961, -1.23536089856088, -1.20942888360021, 1.168122479023], a = 0.2, v = 0.2, t = 0.2)
movej(p[-0.445996043441263, -0.121063836024645, 0.307758837386113, -1.2356662547337, -1.21050777552246, 1.16815456618314], a = 0.2, v = 0.2, t = 0.2)
movej(p[-0.445962064395187, -0.121044069625142, 0.307754189388859, -1.23602103927036, -1.21054537690556, 1.16792240239797], a = 0.2, v = 0.2, t = 0.2)
movej(p[-0.445922647068864, -0.121048707520823, 0.307753715775934, -1.23542001964512, -1.2101076561749, 1.16841976364541], a = 0.2, v = 0.2, t = 0.2)
movej(p[-0.445860014391559, -0.121045658213021, 0.307720250279441, -1.23587611486149, -1.208427595361, 1.16856883113717], a = 0.2, v = 0.2, t = 0.2)
movej(p[-0.445762000426083, -0.121040828578088, 0.307693876671458, -1.23635411565996, -1.20732724621628, 1.16921150375133], a = 0.2, v = 0.2, t = 0.2)
movej(p[-0.445652934518986, -0.121049033353491, 0.307678863025341, -1.23613313311953, -1.20685093444278, 1.16934387315658], a = 0.2, v = 0.2, t = 0.2)
movej(p[-0.445546221980415, -0.121082860813187, 0.307669997525793, -1.23493712623885, -1.20657693806619, 1.16943316147117], a = 0.2, v = 0.2, t = 0.2)
movej(p[-0.445492713102847, -0.121083931336629, 0.307666348690227, -1.2341884605231, -1.20601948407324, 1.17079367796399], a = 0.2, v = 0.2, t = 0.2)
movej(p[-0.445499203593077, -0.121094608932801, 0.307670051726355, -1.23383563593303, -1.20622150823197, 1.1711337948388], a = 0.2, v = 0.2, t = 0.2)
movej(p[-0.445541198328646, -0.121150729122347, 0.307687174124253, -1.23439011110896, -1.20772787782379, 1.16946218500994], a = 0.2, v = 0.2, t = 0.2)
movej(p[-0.445574998056826, -0.121151669604415, 0.307681635724803, -1.23435738849478, -1.20805446500053, 1.16873768121018], a = 0.2, v = 0.2, t = 0.2)
movej(p[-0.445588868469016, -0.121144258943837, 0.307661631130944, -1.23393201174162, -1.20902629849093, 1.16859727586868], a = 0.2, v = 0.2, t = 0.2)
movej(p[-0.445532997668543, -0.121152602940382, 0.307600539385379, -1.23399201601254, -1.20846421318412, 1.16860024455847], a = 0.2, v = 0.2, t = 0.2)
movej(p[-0.445449123723709, -0.121141869118557, 0.30755523721714, -1.23399279606882, -1.20831562724618, 1.16887624637474], a = 0.2, v = 0.2, t = 0.2)
movej(p[-0.445438093325739, -0.121150484650812, 0.307523727807044, -1.23417824116526, -1.20885976134589, 1.16869534945281], a = 0.2, v = 0.2, t = 0.2)
movej(p[-0.445436358019223, -0.121135310948841, 0.307489432071453, -1.23401727349588, -1.20814141316998, 1.16961111787684], a = 0.2, v = 0.2, t = 0.2)
movej(p[-0.445424996790996, -0.121127806695511, 0.30747272073772, -1.23412426493716, -1.2071175416962, 1.17114288935326], a = 0.2, v = 0.2, t = 0.2)
movej(p[-0.44546050113382, -0.121123925469153, 0.307460987548784, -1.23482614211207, -1.20654549792934, 1.17142482634517], a = 0.2, v = 0.2, t = 0.2)
movej(p[-0.445524154282998, -0.12114054528597, 0.307485467505659, -1.23487889388004, -1.20694935008281, 1.17084822746562], a = 0.2, v = 0.2, t = 0.2)
movej(p[-0.445574288803442, -0.12113246786832, 0.307489688309372, -1.23581917022076, -1.20715963762788, 1.170756959602], a = 0.2, v = 0.2, t = 0.2)
movej(p[-0.445521090984338, -0.121129372435922, 0.307531197950913, -1.23617773747814, -1.20749895065811, 1.17025804876761], a = 0.2, v = 0.2, t = 0.2)
movej(p[-0.445472309393316, -0.121160077995845, 0.307539789514631, -1.23586960792562, -1.20686648441984, 1.17022193756974], a = 0.2, v = 0.2, t = 0.2)
movej(p[-0.445477155671958, -0.121182742844584, 0.307563310531084, -1.23623660628679, -1.20756809402753, 1.16980251484325], a = 0.2, v = 0.2, t = 0.2)
movej(p[-0.445488488890801, -0.121199517951792, 0.307577216426553, -1.23695607256339, -1.2088396111254, 1.16909451785786], a = 0.2, v = 0.2, t = 0.2)
movej(p[-0.44547042416016, -0.121205272736542, 0.307558537616116, -1.2374143251905, -1.20870166049477, 1.16911096781261], a = 0.2, v = 0.2, t = 0.2)
movej(p[-0.445431175166103, -0.121260336185394, 0.307558788745669, -1.237247725892, -1.20873884603221, 1.16852809170292], a = 0.2, v = 0.2, t = 0.2)
movej(p[-0.445430933991012, -0.121276373696049, 0.307552511000328, -1.23704740391618, -1.20860265161137, 1.16755841734227], a = 0.2, v = 0.2, t = 0.2)
movej(p[-0.445384495190039, -0.121276090856436, 0.307559988818589, -1.23684586472824, -1.20865125747454, 1.16688442239384], a = 0.2, v = 0.2, t = 0.2)
movej(p[-0.445406744217722, -0.121271998075924, 0.307576333233991, -1.23683621677383, -1.2084019401051, 1.16662680621854], a = 0.2, v = 0.2, t = 0.2)
movej(p[-0.445375019229282, -0.121231247367537, 0.307586967841386, -1.23695031088122, -1.20809862605631, 1.16677309078245], a = 0.2, v = 0.2, t = 0.2)
movej(p[-0.445433266015055, -0.121190840023308, 0.307582728917053, -1.23679581573795, -1.2074300653761, 1.16763088005706], a = 0.2, v = 0.2, t = 0.2)
movej(p[-0.445430755901763, -0.12115465112582, 0.307596013232238, -1.23693303822654, -1.20739199289609, 1.16828707908474], a = 0.2, v = 0.2, t = 0.2)
movej(p[-0.445445700193819, -0.121115124362583, 0.307603054760688, -1.23749377192804, -1.20715886904295, 1.16869538985337], a = 0.2, v = 0.2, t = 0.2)
movej(p[-0.445413774941381, -0.121097260032408, 0.307561512806423, -1.23822013145955, -1.20631071579646, 1.16915566007011], a = 0.2, v = 0.2, t = 0.2)
movej(p[-0.445455148479828, -0.121109335864418, 0.307525327524918, -1.23816491269323, -1.20605188259892, 1.16886418588845], a = 0.2, v = 0.2, t = 0.2)
movej(p[-0.445430364665682, -0.121111436774359, 0.307487565656137, -1.23790987374947, -1.20599898559337, 1.16819818931316], a = 0.2, v = 0.2, t = 0.2)
movej(p[-0.445426339630951, -0.121104787096952, 0.307474845558426, -1.23867466417014, -1.20653795636418, 1.16805498210717], a = 0.2, v = 0.2, t = 0.2)
movej(p[-0.445450238640535, -0.12110182648866, 0.307514042014126, -1.2389139527064, -1.2068691708282, 1.16768654080065], a = 0.2, v = 0.2, t = 0.2)
movej(p[-0.445446596739177, -0.121112889793513, 0.307527522364277, -1.23919360620332, -1.2077460213424, 1.16748381113064], a = 0.2, v = 0.2, t = 0.2)
movej(p[-0.445502092839265, -0.121135423521907, 0.307551658518896, -1.23855664169694, -1.20735315659306, 1.16739819588747], a = 0.2, v = 0.2, t = 0.2)
movej(p[-0.445500690909138, -0.121173425006244, 0.307580579303465, -1.2377239003497, -1.20761327634291, 1.16698225629209], a = 0.2, v = 0.2, t = 0.2)
movej(p[-0.445517311115068, -0.121205455776682, 0.307593567317168, -1.23710131345904, -1.20684728000314, 1.16727358830336], a = 0.2, v = 0.2, t = 0.2)
movej(p[-0.445453585518764, -0.121256595868048, 0.307588130458635, -1.23538455675966, -1.20635532558775, 1.16765323590494], a = 0.2, v = 0.2, t = 0.2)
movej(p[-0.445390107300652, -0.121273289279906, 0.307555665002749, -1.23461969911465, -1.20560343251541, 1.16861047446928], a = 0.2, v = 0.2, t = 0.2)
movej(p[-0.445277999716445, -0.121282907110456, 0.307526712508921, -1.23349721940268, -1.20500059784623, 1.16963476215852], a = 0.2, v = 0.2, t = 0.2)
movej(p[-0.445282804306372, -0.12130758687352, 0.307543008680579, -1.23391131897107, -1.20545180117262, 1.16991282590316], a = 0.2, v = 0.2, t = 0.2)
movej(p[-0.445274659064325, -0.121300247507778, 0.30759683840046, -1.23455025547106, -1.20558269980775, 1.16970019279655], a = 0.2, v = 0.2, t = 0.2)
movej(p[-0.445233880276372, -0.121292755697876, 0.307591337197187, -1.23571412891614, -1.20584439568669, 1.16950481388199], a = 0.2, v = 0.2, t = 0.2)
movej(p[-0.445288537375148, -0.121289017534694, 0.307591983486122, -1.23628491891061, -1.20658594456409, 1.16924501322498], a = 0.2, v = 0.2, t = 0.2)
movej(p[-0.445342375862131, -0.121262377899651, 0.307599814652326, -1.23700744091048, -1.20770052125642, 1.16899249958372], a = 0.2, v = 0.2, t = 0.2)
movej(p[-0.445394465373054, -0.121259754551484, 0.307604320303914, -1.23658767777259, -1.20693981601414, 1.16893451640775], a = 0.2, v = 0.2, t = 0.2)
movej(p[-0.445405354243116, -0.121277147649604, 0.307593820654084, -1.2357317469337, -1.20662044804392, 1.16958479567491], a = 0.2, v = 0.2, t = 0.2)
movej(p[-0.445346003552748, -0.12128618629165, 0.307566130971838, -1.23545884534056, -1.20504581216616, 1.16954600961161], a = 0.2, v = 0.2, t = 0.2)
movej(p[-0.445323186499349, -0.121279794760118, 0.307517006432157, -1.23484586071903, -1.20394924379628, 1.16995689519421], a = 0.2, v = 0.2, t = 0.2)
movej(p[-0.445344222021098, -0.121310451394332, 0.307483768838932, -1.23428918048304, -1.20393610803039, 1.16910775339319], a = 0.2, v = 0.2, t = 0.2)
movej(p[-0.445326891624883, -0.121314213716309, 0.307475697141441, -1.23396214282487, -1.20354734941202, 1.1690367535751], a = 0.2, v = 0.2, t = 0.2)
movej(p[-0.445307407918352, -0.121291974340953, 0.307447069788025, -1.23489204533176, -1.20340013617927, 1.16964662600561], a = 0.2, v = 0.2, t = 0.2)
movej(p[-0.445301409839389, -0.121260321039368, 0.307463799747604, -1.23549351442969, -1.20365782424847, 1.16998459397147], a = 0.2, v = 0.2, t = 0.2)
movej(p[-0.445243401027298, -0.121237739027045, 0.307479950612571, -1.23524653999497, -1.20349129207699, 1.17025681232629], a = 0.2, v = 0.2, t = 0.2)
movej(p[-0.445252968596601, -0.121249084098562, 0.307537485479998, -1.23478944370997, -1.20356381497591, 1.16982228744625], a = 0.2, v = 0.2, t = 0.2)
movej(p[-0.445235328122689, -0.121256805361386, 0.30755839016322, -1.23512415759727, -1.20391378688806, 1.17004503284956], a = 0.2, v = 0.2, t = 0.2)
movej(p[-0.445145721385674, -0.121265653681472, 0.307581353175065, -1.23522234738233, -1.20305389499721, 1.16976775379997], a = 0.2, v = 0.2, t = 0.2)
movej(p[-0.445163615398684, -0.121276228411837, 0.307551730559109, -1.23596102305446, -1.20365993515428, 1.16970854209426], a = 0.2, v = 0.2, t = 0.2)
movej(p[-0.44508287596664, -0.121296185868666, 0.307536408221493, -1.23524243927551, -1.2027926259521, 1.16944415712027], a = 0.2, v = 0.2, t = 0.2)
movej(p[-0.445078744295068, -0.121314088300341, 0.307543521745947, -1.23531448628195, -1.20301673708032, 1.16973800668556], a = 0.2, v = 0.2, t = 0.2)
movej(p[-0.445103595837958, -0.121305027984499, 0.307535240351569, -1.23652198022882, -1.20275937139982, 1.16930355044404], a = 0.2, v = 0.2, t = 0.2)
movej(p[-0.445115616520454, -0.121302643040296, 0.307538039500274, -1.23707377541197, -1.20307149598129, 1.1687246602103], a = 0.2, v = 0.2, t = 0.2)
movej(p[-0.445182197985007, -0.121314166045469, 0.307527881797296, -1.23689158555104, -1.20390605421952, 1.16807016098263], a = 0.2, v = 0.2, t = 0.2)
movej(p[-0.445225237630622, -0.121325985173607, 0.30749065335232, -1.23641286483423, -1.20504060732034, 1.16820646934074], a = 0.2, v = 0.2, t = 0.2)
movej(p[-0.445273968146026, -0.121311285447051, 0.307456970939882, -1.23614170161959, -1.20560367249806, 1.16857473942351], a = 0.2, v = 0.2, t = 0.2)
movej(p[-0.445315168420375, -0.121294091342367, 0.307432226846492, -1.23572777189552, -1.20625341731734, 1.1692390103808], a = 0.2, v = 0.2, t = 0.2)
movej(p[-0.44533591771691, -0.121278766584763, 0.307393215200824, -1.23644869370337, -1.20630757881356, 1.16956622043371], a = 0.2, v = 0.2, t = 0.2)
movej(p[-0.445334877034398, -0.121252038693978, 0.3074144556536, -1.23604055738598, -1.20606338834956, 1.16986096051618], a = 0.2, v = 0.2, t = 0.2)
movej(p[-0.4453447547383, -0.121220394368513, 0.307433551926312, -1.23621201223846, -1.20604762800409, 1.1700626135299], a = 0.2, v = 0.2, t = 0.2)
movej(p[-0.445247338145051, -0.12121530662789, 0.307436877923173, -1.23627895937583, -1.20563079615827, 1.17002452560558], a = 0.2, v = 0.2, t = 0.2)
movej(p[-0.445101735525282, -0.121243278919469, 0.307413036823777, -1.23633825085063, -1.20593915039433, 1.16997581364301], a = 0.2, v = 0.2, t = 0.2)
movej(p[-0.445299654496479, -0.121221556107062, 0.307555526999795, -1.23763408791657, -1.20720419225839, 1.16868448165071], a = 0.2, v = 0.2, t = 0.2)
movej(p[-0.445637876646554, -0.121177200134485, 0.307879312013184, -1.23787887049696, -1.20854940098372, 1.16763154629318], a = 0.2, v = 0.2, t = 0.2)
movej(p[-0.446417765274788, -0.121048508620747, 0.30842485799827, -1.23866669139157, -1.21295904287719, 1.16556436438136], a = 0.2, v = 0.2, t = 0.2)
movej(p[-0.447426166071339, -0.120864468255992, 0.309037904454631, -1.24148670997763, -1.21787164929327, 1.16264932180837], a = 0.2, v = 0.2, t = 0.2)
movej(p[-0.448458151440134, -0.120766832197364, 0.30960870835147, -1.2458060069134, -1.22231986586869, 1.15959277707604], a = 0.2, v = 0.2, t = 0.2)
movej(p[-0.449314216765084, -0.120722963864279, 0.310104486586946, -1.24842718239196, -1.22579397899015, 1.15678528216976], a = 0.2, v = 0.2, t = 0.2)
movej(p[-0.449723465203204, -0.120715273848646, 0.310239629176665, -1.25062962424339, -1.22625178730464, 1.15606964446974], a = 0.2, v = 0.2, t = 0.2)
movej(p[-0.449526223585438, -0.120816950431934, 0.310017280089345, -1.25048879121116, -1.22505304115264, 1.15635990767278], a = 0.2, v = 0.2, t = 0.2)
movej(p[-0.448801291185467, -0.121005873055327, 0.309468246066863, -1.24886273010397, -1.2216912998329, 1.15799256919834], a = 0.2, v = 0.2, t = 0.2)
movej(p[-0.448092683837015, -0.121118775961052, 0.308972649346132, -1.24691899822141, -1.2178270621194, 1.16055698555863], a = 0.2, v = 0.2, t = 0.2)
movej(p[-0.447321817841704, -0.121239859448887, 0.308579309307176, -1.24298331381193, -1.21372056814988, 1.16273570630992], a = 0.2, v = 0.2, t = 0.2)
movej(p[-0.446888747601141, -0.121282023862311, 0.308313871331409, -1.24077904871859, -1.2126080356962, 1.1640478549936], a = 0.2, v = 0.2, t = 0.2)
movej(p[-0.446636533867259, -0.121257245038612, 0.308145082551161, -1.24014303697441, -1.21144821679475, 1.1647147025696], a = 0.2, v = 0.2, t = 0.2)
movej(p[-0.44659730775551, -0.121278591859215, 0.308053874681944, -1.24042046684009, -1.21172845469226, 1.16587618770993], a = 0.2, v = 0.2, t = 0.2)
movej(p[-0.446608861763237, -0.121322492971024, 0.308086075416212, -1.24047096716558, -1.21182440295138, 1.16501813697242], a = 0.2, v = 0.2, t = 0.2)
movej(p[-0.446568544861071, -0.121324056301286, 0.308044343133764, -1.24061792994341, -1.21213953075949, 1.16545778284089], a = 0.2, v = 0.2, t = 0.2)
movej(p[-0.446531381653944, -0.121311389041178, 0.308007487787376, -1.24014196328169, -1.21315526612766, 1.16529099986629], a = 0.2, v = 0.2, t = 0.2)
movej(p[-0.446542942286267, -0.121328795371123, 0.307966356151642, -1.23977040632231, -1.21269508982737, 1.16474356987883], a = 0.2, v = 0.2, t = 0.2)
movej(p[-0.446486884267815, -0.121316926657405, 0.307929408997464, -1.23884837827827, -1.21163629661345, 1.16518134288546], a = 0.2, v = 0.2, t = 0.2)
movej(p[-0.446456219194426, -0.121327166827226, 0.307906622549823, -1.23848147659444, -1.21036110794725, 1.16500771600012], a = 0.2, v = 0.2, t = 0.2)
movej(p[-0.446489405796259, -0.121327578835984, 0.307864190725593, -1.23857130705629, -1.20985550063947, 1.16491908876659], a = 0.2, v = 0.2, t = 0.2)
movej(p[-0.446507085764786, -0.121305967115964, 0.307869553772365, -1.23902122558542, -1.20899732385755, 1.16496124174261], a = 0.2, v = 0.2, t = 0.2)
movej(p[-0.446484068025146, -0.121285881800267, 0.307804382737732, -1.2391624443084, -1.20799520890696, 1.16564962017845], a = 0.2, v = 0.2, t = 0.2)
movej(p[-0.446442402481454, -0.121294447391414, 0.307842643201884, -1.23970005761935, -1.2084662848479, 1.16460542175608], a = 0.2, v = 0.2, t = 0.2)
movej(p[-0.446378637291817, -0.121262436056719, 0.307877266532771, -1.24066036598457, -1.20969129610179, 1.16547627537637], a = 0.2, v = 0.2, t = 0.2)
movej(p[-0.446313894344101, -0.121226384614504, 0.307898256393066, -1.24086684117128, -1.21092344554685, 1.16685311115297], a = 0.2, v = 0.2, t = 0.2)
movej(p[-0.446297001540894, -0.12129106466363, 0.307890483076855, -1.24100849933272, -1.21098886106953, 1.1661671695057], a = 0.2, v = 0.2, t = 0.2)
movej(p[-0.44621709117331, -0.121330215056578, 0.307875720967095, -1.24055595229985, -1.21059373304148, 1.16672212360409], a = 0.2, v = 0.2, t = 0.2)
movej(p[-0.446127645006282, -0.121385519105892, 0.307843929532188, -1.24057257118379, -1.20877577870952, 1.1667493915552], a = 0.2, v = 0.2, t = 0.2)
movej(p[-0.446065857041861, -0.121461626463674, 0.307822549926388, -1.24045042016742, -1.20810499837695, 1.16617810398862], a = 0.2, v = 0.2, t = 0.2)
movej(p[-0.446071162641688, -0.121519281709111, 0.307828454440265, -1.24074289817002, -1.20651044587058, 1.16575588301908], a = 0.2, v = 0.2, t = 0.2)
movej(p[-0.445991742985664, -0.121581856858668, 0.307782800098797, -1.23990901319878, -1.20482457007619, 1.16541990573094], a = 0.2, v = 0.2, t = 0.2)
movej(p[-0.446015258813989, -0.121559931154542, 0.307808115693136, -1.2397988107374, -1.20488475878159, 1.16494354103444], a = 0.2, v = 0.2, t = 0.2)
movej(p[-0.44603886075074, -0.121558066621204, 0.307813092850663, -1.24047575572916, -1.20509979160336, 1.16505952561957], a = 0.2, v = 0.2, t = 0.2)
movej(p[-0.446007367380668, -0.121568899158989, 0.307829339504678, -1.23971667266876, -1.20614197536168, 1.16480912033833], a = 0.2, v = 0.2, t = 0.2)
movej(p[-0.446057966029069, -0.121559002677378, 0.307808157048924, -1.23983129436452, -1.20709116324461, 1.16395577449345], a = 0.2, v = 0.2, t = 0.2)
movej(p[-0.446077734920178, -0.121529860536852, 0.307790938262967, -1.24018564630493, -1.20743438972531, 1.16354290898066], a = 0.2, v = 0.2, t = 0.2)
movej(p[-0.44609107835933, -0.121523792045581, 0.307764930263327, -1.2393335195353, -1.20715689294684, 1.16321633176817], a = 0.2, v = 0.2, t = 0.2)
movej(p[-0.446045921895288, -0.12150774743177, 0.307754043384854, -1.23912985253825, -1.20767410327513, 1.16309422459058], a = 0.2, v = 0.2, t = 0.2)
movej(p[-0.446082867139574, -0.121517280861197, 0.307737916926842, -1.23823998643378, -1.20727831250044, 1.16341758857846], a = 0.2, v = 0.2, t = 0.2)
movej(p[-0.446031697790294, -0.121541034966379, 0.30772064121611, -1.23766228714303, -1.20655338674838, 1.16380959220894], a = 0.2, v = 0.2, t = 0.2)
movej(p[-0.446059790267524, -0.121499203827388, 0.307698135915982, -1.23873118944425, -1.20623441505068, 1.16476413705357], a = 0.2, v = 0.2, t = 0.2)
movej(p[-0.446032455299573, -0.121525605307042, 0.307678876855796, -1.23946056071743, -1.2061579861074, 1.16548902329965], a = 0.2, v = 0.2, t = 0.2)
movej(p[-0.445995673298988, -0.121532979565893, 0.307695407576874, -1.24020706123429, -1.20703607036752, 1.16582829193261], a = 0.2, v = 0.2, t = 0.2)
movej(p[-0.445986126110451, -0.121508253331586, 0.307714657369809, -1.24137864238145, -1.2069207740306, 1.16652622593697], a = 0.2, v = 0.2, t = 0.2)
movej(p[-0.445985275928677, -0.1215041014092, 0.307716928653907, -1.24282846050449, -1.20679333850912, 1.16634600723143], a = 0.2, v = 0.2, t = 0.2)
movej(p[-0.445972656342822, -0.121510369840147, 0.307736211621166, -1.24267141755898, -1.20673968578733, 1.16615486061995], a = 0.2, v = 0.2, t = 0.2)
movej(p[-0.446031039691127, -0.121543982475001, 0.307756241484345, -1.24246218820307, -1.20718393552958, 1.16532775415289], a = 0.2, v = 0.2, t = 0.2)
movej(p[-0.446067165243112, -0.121605368400936, 0.307765761599405, -1.24156051448994, -1.20733481055065, 1.16390717765681], a = 0.2, v = 0.2, t = 0.2)
movej(p[-0.44604428390129, -0.121674606498554, 0.307791015114698, -1.24103509413231, -1.20700352199468, 1.1629428836171], a = 0.2, v = 0.2, t = 0.2)
movej(p[-0.446046990975305, -0.121731210447884, 0.307786998316156, -1.24057671594691, -1.20659751366765, 1.1623089096001], a = 0.2, v = 0.2, t = 0.2)
movej(p[-0.446031277064904, -0.121759786080921, 0.307799310351588, -1.23954094185787, -1.20685933320495, 1.1623174417691], a = 0.2, v = 0.2, t = 0.2)
movej(p[-0.446009907875819, -0.121754036810565, 0.307773449113253, -1.23902858811249, -1.20632655167405, 1.16317327926075], a = 0.2, v = 0.2, t = 0.2)
movej(p[-0.445954966255205, -0.121764533828684, 0.307751924919077, -1.23858015539043, -1.20499891938068, 1.16364250703399], a = 0.2, v = 0.2, t = 0.2)
movej(p[-0.445904715167522, -0.121747933670665, 0.307708669596394, -1.23829848626515, -1.20416991275539, 1.16476679164719], a = 0.2, v = 0.2, t = 0.2)
movej(p[-0.445829872695284, -0.121728945100635, 0.307687224117675, -1.23739634292491, -1.20288269376421, 1.16582987468192], a = 0.2, v = 0.2, t = 0.2)
movej(p[-0.445847379468573, -0.121693288074186, 0.307655734764651, -1.23770485534681, -1.20195327182119, 1.16690049009699], a = 0.2, v = 0.2, t = 0.2)
movej(p[-0.445779358462318, -0.12170411833355, 0.307649771695804, -1.23732995875391, -1.20221841985301, 1.16676306604652], a = 0.2, v = 0.2, t = 0.2)
movej(p[-0.445711620661932, -0.121699631957956, 0.307676788779898, -1.23675302042885, -1.20162433720641, 1.16728271614094], a = 0.2, v = 0.2, t = 0.2)
movej(p[-0.445673804518169, -0.121700328298077, 0.307676516050457, -1.2363534860884, -1.20116137175577, 1.16731857163049], a = 0.2, v = 0.2, t = 0.2)
movej(p[-0.445656500112669, -0.12173475063229, 0.307705612793533, -1.23649981462637, -1.20159423995598, 1.16678066681387], a = 0.2, v = 0.2, t = 0.2)
movej(p[-0.44567531211283, -0.121730314696512, 0.307702546668337, -1.23764474849203, -1.20176480840059, 1.16642198502873], a = 0.2, v = 0.2, t = 0.2)
movej(p[-0.445698784245893, -0.121738525275937, 0.30772972304328, -1.23836290994213, -1.20324634875175, 1.16635057406081], a = 0.2, v = 0.2, t = 0.2)
movej(p[-0.445732123115824, -0.121734793662171, 0.3077339544509, -1.23886586783177, -1.20517048930319, 1.16614926860805], a = 0.2, v = 0.2, t = 0.2)
movej(p[-0.445817083171259, -0.12174194437173, 0.307774865529269, -1.23992297324781, -1.20696526205715, 1.16583786979521], a = 0.2, v = 0.2, t = 0.2)
movej(p[-0.445853744368215, -0.121755139475824, 0.307763107303822, -1.24116160004156, -1.20881041072645, 1.16519863960494], a = 0.2, v = 0.2, t = 0.2)
movej(p[-0.445901633366543, -0.121804081865338, 0.307786952562214, -1.2408721646895, -1.20950859708604, 1.16385333673197], a = 0.2, v = 0.2, t = 0.2)
movej(p[-0.445861703248553, -0.121795072908083, 0.307773641876039, -1.24059381536902, -1.20826448286755, 1.16337231753693], a = 0.2, v = 0.2, t = 0.2)
movej(p[-0.445808427483248, -0.121783770858125, 0.307731709949086, -1.23925621982768, -1.20730249948637, 1.16424370900719], a = 0.2, v = 0.2, t = 0.2)
movej(p[-0.445803223013872, -0.121773271960501, 0.307679248280725, -1.23866540897557, -1.20625769150682, 1.16537053076852], a = 0.2, v = 0.2, t = 0.2)
movej(p[-0.445803114657212, -0.121722727761572, 0.307643908045675, -1.23861706054274, -1.2065240094154, 1.16605853039536], a = 0.2, v = 0.2, t = 0.2)
movej(p[-0.445807014751848, -0.121696644926592, 0.307654801391406, -1.23896131190497, -1.20605692146063, 1.1666696170894], a = 0.2, v = 0.2, t = 0.2)
movej(p[-0.445754758567519, -0.121671769775375, 0.307667619271548, -1.23912232549476, -1.20586476181853, 1.16621429616047], a = 0.2, v = 0.2, t = 0.2)
movej(p[-0.445753609488511, -0.121649456824646, 0.307673105786577, -1.2394283106086, -1.20704128492107, 1.1664572060588], a = 0.2, v = 0.2, t = 0.2)
movej(p[-0.44572684104009, -0.121626889333569, 0.307634477189454, -1.24000506464666, -1.20771858329538, 1.16603466084013], a = 0.2, v = 0.2, t = 0.2)
movej(p[-0.445705814096642, -0.12167184671476, 0.307641346798293, -1.23943151685359, -1.20710578769193, 1.16517687600772], a = 0.2, v = 0.2, t = 0.2)
movej(p[-0.445656065932198, -0.121659464602324, 0.307642049241246, -1.24021883864707, -1.20625313658273, 1.16539292053736], a = 0.2, v = 0.2, t = 0.2)
movej(p[-0.445709835863298, -0.121666191796728, 0.3076624099722, -1.24054897375341, -1.20745775277419, 1.16571509308887], a = 0.2, v = 0.2, t = 0.2)
movej(p[-0.445768487833802, -0.121647174827287, 0.307640910176171, -1.24147845901449, -1.20800846931461, 1.16660930069635], a = 0.2, v = 0.2, t = 0.2)
movej(p[-0.445817367936494, -0.12166439490414, 0.307666188121381, -1.24138291329944, -1.20904965146031, 1.16637588173454], a = 0.2, v = 0.2, t = 0.2)
movej(p[-0.445824644004069, -0.121685701652242, 0.307706865526976, -1.24286490162856, -1.20755882703541, 1.16520437266231], a = 0.2, v = 0.2, t = 0.2)
movej(p[-0.445810951951927, -0.121734413299934, 0.307725897160835, -1.24255960765643, -1.20736797240458, 1.16386608484875], a = 0.2, v = 0.2, t = 0.2)
movej(p[-0.445772592433552, -0.121721856452874, 0.307703879828073, -1.2427208183794, -1.20690960906073, 1.16431094148164], a = 0.2, v = 0.2, t = 0.2)
movej(p[-0.445752174142681, -0.121763044682327, 0.307714777220075, -1.24266037053139, -1.20628132724551, 1.16389380142251], a = 0.2, v = 0.2, t = 0.2)
movej(p[-0.445723319382579, -0.121826245669472, 0.307732359257596, -1.24111618088402, -1.20661958902754, 1.16374565437582], a = 0.2, v = 0.2, t = 0.2)
movej(p[-0.44566133229351, -0.121819750518953, 0.307729828682854, -1.24094277504556, -1.20581862030667, 1.16372935808288], a = 0.2, v = 0.2, t = 0.2)
movej(p[-0.445666892179113, -0.121850421391174, 0.307738533007601, -1.23987478094832, -1.20663583671369, 1.16282559580208], a = 0.2, v = 0.2, t = 0.2)
movej(p[-0.445677455474842, -0.12183874500231, 0.30772256902544, -1.23965114214301, -1.20581559612423, 1.16323391863596], a = 0.2, v = 0.2, t = 0.2)
movej(p[-0.445614823876331, -0.121812769773018, 0.307671155210845, -1.23849427361218, -1.20458211974278, 1.16348199879908], a = 0.2, v = 0.2, t = 0.2)
movej(p[-0.445657488259675, -0.121822204387916, 0.307659375209335, -1.23816501359727, -1.20410906648947, 1.16244675947928], a = 0.2, v = 0.2, t = 0.2)
movej(p[-0.445727870501236, -0.121818159723719, 0.307627580229159, -1.23794512323137, -1.20412197642132, 1.1630333631518], a = 0.2, v = 0.2, t = 0.2)
movej(p[-0.44574193804306, -0.121798933085101, 0.307582192889134, -1.23852706188377, -1.20368259300714, 1.16467281993274], a = 0.2, v = 0.2, t = 0.2)
movej(p[-0.445800832053033, -0.121797801619979, 0.307592597954055, -1.23863306984654, -1.20444215275313, 1.1656204287307], a = 0.2, v = 0.2, t = 0.2)
movej(p[-0.445823055879687, -0.121817470562823, 0.307621479509003, -1.23813451540881, -1.20620957094412, 1.16616711393558], a = 0.2, v = 0.2, t = 0.2)
movej(p[-0.445773134572031, -0.121850462676247, 0.30762637476117, -1.23792100841607, -1.20649076851126, 1.16610468351696], a = 0.2, v = 0.2, t = 0.2)
movej(p[-0.445704555471366, -0.121878639500414, 0.307663949666783, -1.23820342067708, -1.20626988044266, 1.16566051464674], a = 0.2, v = 0.2, t = 0.2)
movej(p[-0.445676584879043, -0.121911875806199, 0.307695753030486, -1.23883508707102, -1.20611774640036, 1.16520409696042], a = 0.2, v = 0.2, t = 0.2)
movej(p[-0.445666630857426, -0.121891881124383, 0.307724864714613, -1.23907075192681, -1.20629051336046, 1.16494902572828], a = 0.2, v = 0.2, t = 0.2)
movej(p[-0.445707095587948, -0.12190470348117, 0.307765229460991, -1.23958376375343, -1.20684497081933, 1.16352669454196], a = 0.2, v = 0.2, t = 0.2)
movej(p[-0.445717636842704, -0.121887305527048, 0.307739326504779, -1.24037921354686, -1.20691511407351, 1.1638201024369], a = 0.2, v = 0.2, t = 0.2)
movej(p[-0.445666426088275, -0.121856478810865, 0.307700560511949, -1.24104972143037, -1.20672693631055, 1.16424576095919], a = 0.2, v = 0.2, t = 0.2)
movej(p[-0.44565994912468, -0.121847520660513, 0.307706741974954, -1.24065650101158, -1.20605590901646, 1.16423590319222], a = 0.2, v = 0.2, t = 0.2)
movej(p[-0.445616977627772, -0.121848482699773, 0.307700604798572, -1.24014928731541, -1.20536942678697, 1.16423295969765], a = 0.2, v = 0.2, t = 0.2)
movej(p[-0.445600167552159, -0.121869454122607, 0.307702128209948, -1.23957588486914, -1.20489196089865, 1.16397756837353], a = 0.2, v = 0.2, t = 0.2)
movej(p[-0.445565786038593, -0.121882993599879, 0.307712520711097, -1.23996986955444, -1.20435752476721, 1.16333631448232], a = 0.2, v = 0.2, t = 0.2)
movej(p[-0.44562008662839, -0.121894553773561, 0.30773661382904, -1.23993274570906, -1.20594254575669, 1.16301636868257], a = 0.2, v = 0.2, t = 0.2)
movej(p[-0.445668210097451, -0.121895620821372, 0.307764696619757, -1.23990691715611, -1.20717938854132, 1.16232954290815], a = 0.2, v = 0.2, t = 0.2)
movej(p[-0.445730913894277, -0.121935861865461, 0.307771427313204, -1.23918728494509, -1.20741771497383, 1.16124256895565], a = 0.2, v = 0.2, t = 0.2)
movej(p[-0.445732957656844, -0.121942417288596, 0.307722175516667, -1.23865194441443, -1.20801330139971, 1.1610448964289], a = 0.2, v = 0.2, t = 0.2)
movej(p[-0.445725675180459, -0.121928994782874, 0.307654997381252, -1.23870541957865, -1.20846151497963, 1.1618665336401], a = 0.2, v = 0.2, t = 0.2)
movej(p[-0.445696715446345, -0.121962623752366, 0.307642503934531, -1.23748645912735, -1.20785755759259, 1.16189960820268], a = 0.2, v = 0.2, t = 0.2)
movej(p[-0.445665011911349, -0.121936260740079, 0.307610156176464, -1.23749392136113, -1.20627905421679, 1.16251352394303], a = 0.2, v = 0.2, t = 0.2)
movej(p[-0.445674005843978, -0.121905448701353, 0.307621663888897, -1.23855697743565, -1.20560974682191, 1.16288899038421], a = 0.2, v = 0.2, t = 0.2)
movej(p[-0.445650098517715, -0.121858720864123, 0.30763495331999, -1.24005186291232, -1.20449439910014, 1.16311833611257], a = 0.2, v = 0.2, t = 0.2)
movej(p[-0.445644143008888, -0.121832841623313, 0.307666023028867, -1.24048098904477, -1.20518071463402, 1.16389753195912], a = 0.2, v = 0.2, t = 0.2)
movej(p[-0.445627947165325, -0.121818695194849, 0.307710145961827, -1.24169471062748, -1.20520574898805, 1.16310013268603], a = 0.2, v = 0.2, t = 0.2)
movej(p[-0.445550763705737, -0.121833376558294, 0.307713094034674, -1.24169322864908, -1.2049814878191, 1.16341160929849], a = 0.2, v = 0.2, t = 0.2)
movej(p[-0.445475175521215, -0.121827152594097, 0.307703229520988, -1.24183912659173, -1.20525969973623, 1.16375877459901], a = 0.2, v = 0.2, t = 0.2)
movej(p[-0.445455311856924, -0.121843534539745, 0.30770738965293, -1.24141033475272, -1.20629877971381, 1.16363227065198], a = 0.2, v = 0.2, t = 0.2)
movej(p[-0.445463814285833, -0.121901258740113, 0.307775833318776, -1.24049976316085, -1.20742099596936, 1.16235148282283], a = 0.2, v = 0.2, t = 0.2)
movej(p[-0.44546382962975, -0.121886687951492, 0.307787102830013, -1.24084700731174, -1.20617338510526, 1.16224277450327], a = 0.2, v = 0.2, t = 0.2)
movej(p[-0.445518117472811, -0.121904504486548, 0.307815627401428, -1.2401439241446, -1.20589769073715, 1.16196027287395], a = 0.2, v = 0.2, t = 0.2)
movej(p[-0.445551598434192, -0.121931293448073, 0.307820809752767, -1.23963670855079, -1.20548953730448, 1.16145568013188], a = 0.2, v = 0.2, t = 0.2)
movej(p[-0.445563124528387, -0.121953937349262, 0.307832342874268, -1.23811014402616, -1.20538738418892, 1.16208800362988], a = 0.2, v = 0.2, t = 0.2)
movej(p[-0.445534004786977, -0.121943943588728, 0.307794236504583, -1.23839242053483, -1.20489581187219, 1.16268144733247], a = 0.2, v = 0.2, t = 0.2)
movej(p[-0.445433341990185, -0.121915598369852, 0.307711777060558, -1.23803516710191, -1.20497955837543, 1.16440615052204], a = 0.2, v = 0.2, t = 0.2)
movej(p[-0.445445301789448, -0.121878803829372, 0.307665045754216, -1.2377347845275, -1.20495977969635, 1.1656039286142], a = 0.2, v = 0.2, t = 0.2)
movej(p[-0.445495865364172, -0.121858105136695, 0.30762737933638, -1.23776019739581, -1.20550028738182, 1.16587185624314], a = 0.2, v = 0.2, t = 0.2)
movej(p[-0.445548238412254, -0.121850886114743, 0.307624726120102, -1.23790863104909, -1.20514772226482, 1.1651378570791], a = 0.2, v = 0.2, t = 0.2)
movej(p[-0.445540908413911, -0.121784441548483, 0.307615575123493, -1.23926751878443, -1.2041133802003, 1.1654288595942], a = 0.2, v = 0.2, t = 0.2)
movej(p[-0.445603497856582, -0.121794042057894, 0.307644665704189, -1.23908187451143, -1.20461243454297, 1.16455375625037], a = 0.2, v = 0.2, t = 0.2)
movej(p[-0.445590601671891, -0.12183072419129, 0.307671715279231, -1.24019143232893, -1.20478199143971, 1.16302727910234], a = 0.2, v = 0.2, t = 0.2)
movej(p[-0.445561228418313, -0.12183177675717, 0.307694617551592, -1.24117942549539, -1.20467514191157, 1.16257522447152], a = 0.2, v = 0.2, t = 0.2)
movej(p[-0.445550081122663, -0.121858689959048, 0.307703521896844, -1.24218132177991, -1.20456027395802, 1.16202469765533], a = 0.2, v = 0.2, t = 0.2)
movej(p[-0.445537523364736, -0.12185900806759, 0.307727272507842, -1.24264869779593, -1.20525522583643, 1.16139096735794], a = 0.2, v = 0.2, t = 0.2)
movej(p[-0.445510106142125, -0.121869721734136, 0.307709393938173, -1.24229560000841, -1.20587654999568, 1.16193074003204], a = 0.2, v = 0.2, t = 0.2)
movej(p[-0.445497736960463, -0.121878751645207, 0.307709330290088, -1.24238593752716, -1.20593213938223, 1.16175359807406], a = 0.2, v = 0.2, t = 0.2)
movej(p[-0.445458251121301, -0.121899300735246, 0.30770907848811, -1.24153194502364, -1.20586057902192, 1.16157074202827], a = 0.2, v = 0.2, t = 0.2)
movej(p[-0.44544024186041, -0.121886107852559, 0.307737033172307, -1.24103803470877, -1.20537911872317, 1.16227879613813], a = 0.2, v = 0.2, t = 0.2)
movej(p[-0.445459469562197, -0.121913931499583, 0.307746996111146, -1.24032988432173, -1.20596655087251, 1.16273706741855], a = 0.2, v = 0.2, t = 0.2)
movej(p[-0.445446222574486, -0.121913360497082, 0.307753568117897, -1.24038508424149, -1.20553755888299, 1.1629245262845], a = 0.2, v = 0.2, t = 0.2)
movej(p[-0.445443194012902, -0.121922534438329, 0.307736139503015, -1.23988626281441, -1.20562289471787, 1.16317257864384], a = 0.2, v = 0.2, t = 0.2)
movej(p[-0.445485456845942, -0.121986125515565, 0.307759472694814, -1.23825219485398, -1.20417317583083, 1.1619847028322], a = 0.2, v = 0.2, t = 0.2)
movej(p[-0.445462738131242, -0.121968690940332, 0.307732280129858, -1.23818891396129, -1.20323221426302, 1.16167863582639], a = 0.2, v = 0.2, t = 0.2)
movej(p[-0.445441352155372, -0.121954035727478, 0.307648094592073, -1.23770487092387, -1.20271860888385, 1.16251748033821], a = 0.2, v = 0.2, t = 0.2)
movej(p[-0.445438648870814, -0.121920259683719, 0.307603831615212, -1.23779618369849, -1.20314885330987, 1.1634922391068], a = 0.2, v = 0.2, t = 0.2)
movej(p[-0.44543442178829, -0.121949008640351, 0.307589315442648, -1.23744254593902, -1.20411803501097, 1.16380095659545], a = 0.2, v = 0.2, t = 0.2)
movej(p[-0.445464761767421, -0.121927912604605, 0.307607131529259, -1.2378961715549, -1.20391595160629, 1.16466541645463], a = 0.2, v = 0.2, t = 0.2)
movej(p[-0.445489272721095, -0.121940297685214, 0.307609421273421, -1.23852088087698, -1.20500494870773, 1.16495836972221], a = 0.2, v = 0.2, t = 0.2)
movej(p[-0.445570988633397, -0.121954754186499, 0.307660042704131, -1.23953594921698, -1.20706364557033, 1.16526990364784], a = 0.2, v = 0.2, t = 0.2)
movej(p[-0.445595399334592, -0.121989365265436, 0.307688394968274, -1.23979880305944, -1.20853882940697, 1.16465328723605], a = 0.2, v = 0.2, t = 0.2)
movej(p[-0.445531489594379, -0.122034751059174, 0.307744655388043, -1.23895595377952, -1.20876074303639, 1.16330023747244], a = 0.2, v = 0.2, t = 0.2)
movej(p[-0.445485966445699, -0.122014237880496, 0.30773573000655, -1.23974769857272, -1.20886040617103, 1.16270581262164], a = 0.2, v = 0.2, t = 0.2)
movej(p[-0.445482543489171, -0.121973310521501, 0.307727383471086, -1.24034445449791, -1.20856346778748, 1.16261596890316], a = 0.2, v = 0.2, t = 0.2)
movej(p[-0.445418112818195, -0.121972913861048, 0.307735755525678, -1.24033785341286, -1.20806057475733, 1.16271268529733], a = 0.2, v = 0.2, t = 0.2)
movej(p[-0.445349550033616, -0.12200210721075, 0.307724897215317, -1.2395395244131, -1.20721410358058, 1.16275635389618], a = 0.2, v = 0.2, t = 0.2)
movej(p[-0.445324437383537, -0.121962746031694, 0.307682711881499, -1.23974282261513, -1.20606171917456, 1.16400195828787], a = 0.2, v = 0.2, t = 0.2)
movej(p[-0.44529483882654, -0.12196667019209, 0.307627953718739, -1.23921443258009, -1.20470260608774, 1.16469714676767], a = 0.2, v = 0.2, t = 0.2)
movej(p[-0.445300035586263, -0.121984128696931, 0.307577191485759, -1.23998205347991, -1.20399146058837, 1.16536685603863], a = 0.2, v = 0.2, t = 0.2)
movej(p[-0.445269090600332, -0.121986002726545, 0.307515390305684, -1.23909514146682, -1.2027061223904, 1.16577361134357], a = 0.2, v = 0.2, t = 0.2)
movej(p[-0.445280728394737, -0.121978504739785, 0.307483242491824, -1.23886417996462, -1.20381413662706, 1.16633978412504], a = 0.2, v = 0.2, t = 0.2)
movej(p[-0.44534249134322, -0.121973318288947, 0.307503819394468, -1.2392419421657, -1.20392682351255, 1.16554660322455], a = 0.2, v = 0.2, t = 0.2)
movej(p[-0.445436240049421, -0.121953515210281, 0.307518983765902, -1.23948480778017, -1.20443664631241, 1.16541595382485], a = 0.2, v = 0.2, t = 0.2)
movej(p[-0.445455345615373, -0.121989055241123, 0.307546370323871, -1.2391139905086, -1.20520071326668, 1.16513998057192], a = 0.2, v = 0.2, t = 0.2)
movej(p[-0.445483903188216, -0.122011438619612, 0.307573647042895, -1.23831760648513, -1.20612170965297, 1.16576279056097], a = 0.2, v = 0.2, t = 0.2)
movej(p[-0.445484064342627, -0.122020755145176, 0.307599948685062, -1.23845134991081, -1.20712679002033, 1.16618550990295], a = 0.2, v = 0.2, t = 0.2)
movej(p[-0.445450010760113, -0.122019094768423, 0.307611604870845, -1.23753491926316, -1.20684188572506, 1.16662409847705], a = 0.2, v = 0.2, t = 0.2)
movej(p[-0.44537533899074, -0.122026750312227, 0.307618165321114, -1.23774571268628, -1.20625701417757, 1.16674097598321], a = 0.2, v = 0.2, t = 0.2)
movej(p[-0.445348692265617, -0.122039364494998, 0.307626855800575, -1.23683481740174, -1.20523972996906, 1.16665526327117], a = 0.2, v = 0.2, t = 0.2)
movej(p[-0.445347644973633, -0.122046764530933, 0.307632603204133, -1.23779700550383, -1.20571313556289, 1.16602111478068], a = 0.2, v = 0.2, t = 0.2)
movej(p[-0.445345879785469, -0.122062415188689, 0.307673892440291, -1.2382148927341, -1.20611860570706, 1.16474649320682], a = 0.2, v = 0.2, t = 0.2)
movej(p[-0.445390391787252, -0.122099691507354, 0.30767695312062, -1.23864889345466, -1.20762679861677, 1.16368844461502], a = 0.2, v = 0.2, t = 0.2)
movej(p[-0.445427150131094, -0.122130338439811, 0.307677399986293, -1.23962585775684, -1.2088532831195, 1.16312059849585], a = 0.2, v = 0.2, t = 0.2)
movej(p[-0.445416976310677, -0.122168429956862, 0.307677947441223, -1.23857182642679, -1.20954746807121, 1.16376642439605], a = 0.2, v = 0.2, t = 0.2)
movej(p[-0.445390342285129, -0.122176138717352, 0.307669785719908, -1.23866758611167, -1.21012140454612, 1.16391518959942], a = 0.2, v = 0.2, t = 0.2)
movej(p[-0.445438242515899, -0.122178255224524, 0.307651642448715, -1.23799855637577, -1.21048313190651, 1.16439506845559], a = 0.2, v = 0.2, t = 0.2)
movej(p[-0.445438363775154, -0.122181457614266, 0.307627092092381, -1.23754835268086, -1.2091763920027, 1.16455965050111], a = 0.2, v = 0.2, t = 0.2)
movej(p[-0.445439499411983, -0.122185935604234, 0.307594395946816, -1.23699700452607, -1.20744615310712, 1.16424375423008], a = 0.2, v = 0.2, t = 0.2)
movej(p[-0.445372355302802, -0.122175662860875, 0.307582545236029, -1.23686387232063, -1.20648807935064, 1.16415656003621], a = 0.2, v = 0.2, t = 0.2)
movej(p[-0.445367126445759, -0.122151060792466, 0.307580065864325, -1.23696440926858, -1.20618997870239, 1.16366804539907], a = 0.2, v = 0.2, t = 0.2)
movej(p[-0.445325480848623, -0.12215402046699, 0.307576570930013, -1.23675383935684, -1.20543018812586, 1.16369329375173], a = 0.2, v = 0.2, t = 0.2)
movej(p[-0.445268175614077, -0.122167364799441, 0.307586893181953, -1.23688937986376, -1.20562474229027, 1.16298025804631], a = 0.2, v = 0.2, t = 0.2)
movej(p[-0.445205827742117, -0.122176055915377, 0.307581899449304, -1.2365973316039, -1.2057717402424, 1.16360026735006], a = 0.2, v = 0.2, t = 0.2)
movej(p[-0.445159372714172, -0.122201350644519, 0.307578283228026, -1.2378875915699, -1.20567769878518, 1.16309932982466], a = 0.2, v = 0.2, t = 0.2)
movej(p[-0.445138485170107, -0.122219177270479, 0.307583855652077, -1.23800189015177, -1.20599650766947, 1.16278664379436], a = 0.2, v = 0.2, t = 0.2)
movej(p[-0.445124632291818, -0.122207787989312, 0.307571358370868, -1.23859952903983, -1.2056836057872, 1.16284606489968], a = 0.2, v = 0.2, t = 0.2)
movej(p[-0.445119173830119, -0.122223154088686, 0.307572634374751, -1.23837954129732, -1.20582233441694, 1.16282117355604], a = 0.2, v = 0.2, t = 0.2)
movej(p[-0.445091152478218, -0.122224390890359, 0.307563983700831, -1.23756961650375, -1.20599412178801, 1.16285395383726], a = 0.2, v = 0.2, t = 0.2)
movej(p[-0.445117592331043, -0.122190358052405, 0.307554040858007, -1.23738324446952, -1.20583705481303, 1.16349349850583], a = 0.2, v = 0.2, t = 0.2)
movej(p[-0.445100728540552, -0.122156611548675, 0.307522670871455, -1.23683045185183, -1.20470577957366, 1.16496557406191], a = 0.2, v = 0.2, t = 0.2)
movej(p[-0.4451122940634, -0.122160552573072, 0.307509803975638, -1.23675842484446, -1.20507447425834, 1.16398138696391], a = 0.2, v = 0.2, t = 0.2)
movej(p[-0.445156409040479, -0.122138421189454, 0.307471930229369, -1.23747978914508, -1.20518815677461, 1.16449875244816], a = 0.2, v = 0.2, t = 0.2)
movej(p[-0.445212382235367, -0.122168434511174, 0.307461953658147, -1.2378904897964, -1.20491142995223, 1.16333066520735], a = 0.2, v = 0.2, t = 0.2)
movej(p[-0.445178010758415, -0.122156568713248, 0.307431315537909, -1.23809532351026, -1.20474891046468, 1.16308444038194], a = 0.2, v = 0.2, t = 0.2)
movej(p[-0.445130396905532, -0.122163907368906, 0.307421131474537, -1.23757651124599, -1.20414138014759, 1.16285813775401], a = 0.2, v = 0.2, t = 0.2)
movej(p[-0.445066412248489, -0.122209733625325, 0.307422464848325, -1.23616949511264, -1.20447491609106, 1.16306866641617], a = 0.2, v = 0.2, t = 0.2)
movej(p[-0.445064417152635, -0.122238086760833, 0.307446408935265, -1.23541849623845, -1.20474009614055, 1.16328344014547], a = 0.2, v = 0.2, t = 0.2)
movej(p[-0.445056339849778, -0.122243990233248, 0.307478577338894, -1.23547267829044, -1.20521546574627, 1.16382918753324], a = 0.2, v = 0.2, t = 0.2)
movej(p[-0.445070981228939, -0.122240677020533, 0.307468209473262, -1.23604780183536, -1.20486179585516, 1.1644837076205], a = 0.2, v = 0.2, t = 0.2)
movej(p[-0.44506615272075, -0.122237123309967, 0.307478186278857, -1.23676290071869, -1.20513589612077, 1.16421414144595], a = 0.2, v = 0.2, t = 0.2)
movej(p[-0.445105626854675, -0.12221466923566, 0.307494667094913, -1.23774602950923, -1.20551488131021, 1.16491537751877], a = 0.2, v = 0.2, t = 0.2)
movej(p[-0.445131897164743, -0.122203635511706, 0.307500075213313, -1.23872826834647, -1.20502330014156, 1.16415486410855], a = 0.2, v = 0.2, t = 0.2)
movej(p[-0.445173086274948, -0.122179824283672, 0.307507320392404, -1.23862647379866, -1.20550639475747, 1.16512641178906], a = 0.2, v = 0.2, t = 0.2)
movej(p[-0.445109280329756, -0.122232007800186, 0.307505275407692, -1.23747511813737, -1.20619117461662, 1.16484384566736], a = 0.2, v = 0.2, t = 0.2)
movej(p[-0.445092400434192, -0.122286114650937, 0.307508426253213, -1.23657070811624, -1.20715710717067, 1.16410724269164], a = 0.2, v = 0.2, t = 0.2)
movej(p[-0.445050377313837, -0.122333463380377, 0.307509941237056, -1.2366844314468, -1.20767015987077, 1.16346929960145], a = 0.2, v = 0.2, t = 0.2)
movej(p[-0.445041234030553, -0.122337234403968, 0.307512249862592, -1.23679225384267, -1.20819150280543, 1.16296289491868], a = 0.2, v = 0.2, t = 0.2)
movej(p[-0.4450538423741, -0.122364378218609, 0.307492788798908, -1.23626677727029, -1.20792512793397, 1.16308766577319], a = 0.2, v = 0.2, t = 0.2)
movej(p[-0.444998691773843, -0.122384367835531, 0.307461558581062, -1.23622273788722, -1.20754476279944, 1.16261463464039], a = 0.2, v = 0.2, t = 0.2)
movej(p[-0.44498756304383, -0.122379936544344, 0.307443005278749, -1.235008117248, -1.20653934941204, 1.16278666494954], a = 0.2, v = 0.2, t = 0.2)
movej(p[-0.445051058422857, -0.122347353538918, 0.307410521673658, -1.23465798325963, -1.20538161039077, 1.16315942509877], a = 0.2, v = 0.2, t = 0.2)
movej(p[-0.445046121827656, -0.122333329729144, 0.307389906563005, -1.23395659126718, -1.20403719399915, 1.1635591186416], a = 0.2, v = 0.2, t = 0.2)
movej(p[-0.444994270003299, -0.122382122396414, 0.30734855545744, -1.23394479380381, -1.20344752388689, 1.16269606601148], a = 0.2, v = 0.2, t = 0.2)
movej(p[-0.444958628362686, -0.122384914183258, 0.307352601366567, -1.23379946375981, -1.20252007488379, 1.16233126370617], a = 0.2, v = 0.2, t = 0.2)
movej(p[-0.444875083174435, -0.122393431561818, 0.30737800325198, -1.23447008462225, -1.20232023895821, 1.16242214296038], a = 0.2, v = 0.2, t = 0.2)
movej(p[-0.444884237541707, -0.122404496011943, 0.307427949277881, -1.23508495868732, -1.20256313642811, 1.16249667784475], a = 0.2, v = 0.2, t = 0.2)
movej(p[-0.444845502652179, -0.122453291020931, 0.30745706998239, -1.23548102538208, -1.2036642992099, 1.16329452736641], a = 0.2, v = 0.2, t = 0.2)
movej(p[-0.444792485959135, -0.12248398341016, 0.307471880367331, -1.23523279140726, -1.20480039207466, 1.16359221823075], a = 0.2, v = 0.2, t = 0.2)
movej(p[-0.444816005830513, -0.122496662651651, 0.307496403672279, -1.23399880117796, -1.20551414696973, 1.16381154281534], a = 0.2, v = 0.2, t = 0.2)
movej(p[-0.444875105951583, -0.122506106962132, 0.307496578855059, -1.23366552668519, -1.20599323996002, 1.16352425837657], a = 0.2, v = 0.2, t = 0.2)
movej(p[-0.444822438141076, -0.122525199863586, 0.307487700631674, -1.23304883310806, -1.2060534885336, 1.16264635910617], a = 0.2, v = 0.2, t = 0.2)
movej(p[-0.444805866311797, -0.122542698671335, 0.307442336260173, -1.23327779862406, -1.20548025391162, 1.16195205034418], a = 0.2, v = 0.2, t = 0.2)
movej(p[-0.444763300331174, -0.122518737894341, 0.307427766481197, -1.23319207682049, -1.20520691619959, 1.1630265742386], a = 0.2, v = 0.2, t = 0.2)
movej(p[-0.444726251070644, -0.122490189669229, 0.307418199813171, -1.23407867433902, -1.20514971420479, 1.16378343101866], a = 0.2, v = 0.2, t = 0.2)
movej(p[-0.444773549860983, -0.122502977138153, 0.307404254022733, -1.23391219421442, -1.20607757512544, 1.16446806692386], a = 0.2, v = 0.2, t = 0.2)
movej(p[-0.444794710109354, -0.12248465867623, 0.307383372982489, -1.23416908960675, -1.20704836725993, 1.16570114530492], a = 0.2, v = 0.2, t = 0.2)
movej(p[-0.444829529006389, -0.122490435874146, 0.307366346873318, -1.23389084855005, -1.20745315543055, 1.16583234364581], a = 0.2, v = 0.2, t = 0.2)
movej(p[-0.444910283050257, -0.12248221622672, 0.307359526184562, -1.23309280409334, -1.20766323986454, 1.16570295014026], a = 0.2, v = 0.2, t = 0.2)
movej(p[-0.444970690156257, -0.122444656815047, 0.30738050694097, -1.23278137618902, -1.20821487264223, 1.16496928927658], a = 0.2, v = 0.2, t = 0.2)
movej(p[-0.444952002634895, -0.122427712278121, 0.307394516552447, -1.23188783841917, -1.20770294175016, 1.16428039805714], a = 0.2, v = 0.2, t = 0.2)
movej(p[-0.444907526463792, -0.122429008645753, 0.307387916580098, -1.23246208474163, -1.20644573569152, 1.16358517735629], a = 0.2, v = 0.2, t = 0.2)
movej(p[-0.444853333148734, -0.122420382796948, 0.307416610470307, -1.23299355372454, -1.2057978404053, 1.16311391403264], a = 0.2, v = 0.2, t = 0.2)
movej(p[-0.444827436330999, -0.122424738468922, 0.30743897993505, -1.23344232573045, -1.20548484011929, 1.16374959508892], a = 0.2, v = 0.2, t = 0.2)
movej(p[-0.444834859900197, -0.122483389121058, 0.307440813408366, -1.23354139601064, -1.20587839545745, 1.16360458254687], a = 0.2, v = 0.2, t = 0.2)
movej(p[-0.444815091273068, -0.122522264128901, 0.307452119386723, -1.23422367008759, -1.20603422661748, 1.16282806274836], a = 0.2, v = 0.2, t = 0.2)
movej(p[-0.444790858732189, -0.122575861636236, 0.307479888095191, -1.23349490452077, -1.20617577701163, 1.16266496231082], a = 0.2, v = 0.2, t = 0.2)
movej(p[-0.444786488753163, -0.122611132012063, 0.307483209822511, -1.23312358906574, -1.20572472083999, 1.16188826222658], a = 0.2, v = 0.2, t = 0.2)
movej(p[-0.444767276370891, -0.122658421153485, 0.307521517151719, -1.2332261159284, -1.20539828407111, 1.16087541253753], a = 0.2, v = 0.2, t = 0.2)
movej(p[-0.44476498253933, -0.122657869045241, 0.307503878458081, -1.23232230939704, -1.20519236740505, 1.1617281188509], a = 0.2, v = 0.2, t = 0.2)
movej(p[-0.444737471912394, -0.122618275575874, 0.307462061564496, -1.23253299535631, -1.20496374158132, 1.16204115976357], a = 0.2, v = 0.2, t = 0.2)
movej(p[-0.444700941338678, -0.122572023887796, 0.307404159936419, -1.23208805182779, -1.20420662575807, 1.16255178208497], a = 0.2, v = 0.2, t = 0.2)
movej(p[-0.444715613946481, -0.122549828388252, 0.307354487767348, -1.23126255004147, -1.20470291956289, 1.16403859733099], a = 0.2, v = 0.2, t = 0.2)
movej(p[-0.444771351391377, -0.122493664337129, 0.307332288069196, -1.231818276789, -1.20428150795178, 1.16496569234595], a = 0.2, v = 0.2, t = 0.2)
movej(p[-0.444784127597924, -0.122427877175648, 0.307322178769989, -1.23180805129002, -1.20466821673803, 1.16540809297513], a = 0.2, v = 0.2, t = 0.2)
movej(p[-0.444814787962935, -0.122383723838851, 0.307345049381418, -1.23198766247135, -1.20452811240276, 1.16563645024112], a = 0.2, v = 0.2, t = 0.2)
movej(p[-0.444835399251056, -0.122410680189106, 0.307377394087058, -1.23301188395376, -1.20427507792816, 1.16406240755494], a = 0.2, v = 0.2, t = 0.2)
movej(p[-0.444861878702442, -0.122472565527457, 0.30744039609934, -1.2336611657854, -1.20412704471791, 1.16228487976528], a = 0.2, v = 0.2, t = 0.2)
movej(p[-0.444880976699601, -0.122517439726642, 0.307461974624591, -1.23423711469775, -1.20476272164738, 1.16207407482642], a = 0.2, v = 0.2, t = 0.2)
movej(p[-0.444873114516031, -0.122567592185754, 0.307480530133598, -1.23461865170088, -1.20532468555458, 1.1607859197163], a = 0.2, v = 0.2, t = 0.2)
movej(p[-0.444842952397449, -0.122612039607272, 0.30748315374239, -1.23442660535869, -1.2054536991382, 1.16037340452494], a = 0.2, v = 0.2, t = 0.2)
movej(p[-0.444824848634499, -0.122673429457482, 0.30748195371817, -1.23350763059754, -1.20600458756018, 1.16013484796358], a = 0.2, v = 0.2, t = 0.2)
movej(p[-0.444784547060863, -0.122709823006481, 0.307491349076268, -1.23403265311764, -1.20490679037494, 1.15966554760572], a = 0.2, v = 0.2, t = 0.2)
movej(p[-0.444724136229427, -0.122721071394187, 0.307470366340051, -1.23385932716222, -1.2047116387513, 1.16028808369788], a = 0.2, v = 0.2, t = 0.2)
movej(p[-0.444701881234966, -0.122721360838601, 0.307453865084235, -1.23364209473631, -1.20452713178134, 1.16139108670121], a = 0.2, v = 0.2, t = 0.2)
movej(p[-0.44471217697434, -0.122739564145686, 0.307476086860985, -1.23345367768296, -1.20479536514933, 1.16138919762394], a = 0.2, v = 0.2, t = 0.2)
movej(p[-0.444723884578956, -0.122736610248051, 0.307464194574286, -1.23297013118575, -1.20472309301055, 1.16153322659037], a = 0.2, v = 0.2, t = 0.2)
movej(p[-0.444760550012404, -0.122713588844607, 0.307444042627147, -1.23329292551379, -1.20505070850539, 1.16204516960522], a = 0.2, v = 0.2, t = 0.2)
movej(p[-0.444762142002329, -0.122664450238677, 0.307429449033506, -1.23284947389611, -1.20460794413586, 1.16213465365264], a = 0.2, v = 0.2, t = 0.2)
movej(p[-0.444767419689487, -0.122595324020152, 0.307374863303406, -1.23292150457179, -1.20412408517339, 1.1634548165689], a = 0.2, v = 0.2, t = 0.2)
movej(p[-0.444787859075603, -0.122570522928745, 0.307337468151845, -1.23264918488082, -1.20485887274191, 1.16339227047676], a = 0.2, v = 0.2, t = 0.2)
movej(p[-0.444808648129987, -0.122506374805874, 0.30731491546797, -1.23407331602988, -1.2044972934282, 1.16315499832442], a = 0.2, v = 0.2, t = 0.2)
movej(p[-0.44480900890959, -0.122486717327169, 0.307303323083875, -1.23420606564899, -1.20506633867688, 1.16330290805698], a = 0.2, v = 0.2, t = 0.2)
movej(p[-0.444792233463241, -0.122504308519395, 0.307298380983527, -1.23448430578836, -1.20586613692922, 1.16396327305875], a = 0.2, v = 0.2, t = 0.2)
movej(p[-0.444844365251879, -0.122538272954114, 0.307342188446219, -1.23417202796267, -1.20639144003257, 1.16347457741602], a = 0.2, v = 0.2, t = 0.2)
movej(p[-0.444855100806984, -0.122564721081222, 0.307368806756254, -1.23349999651718, -1.2060750719624, 1.16272175343716], a = 0.2, v = 0.2, t = 0.2)
movej(p[-0.44483964606304, -0.122581496121461, 0.30739865301087, -1.23414464876554, -1.20597815541033, 1.16203749680478], a = 0.2, v = 0.2, t = 0.2)
movej(p[-0.444796942251871, -0.122602397867099, 0.3074455059888, -1.23366098160735, -1.20573181998318, 1.16171883169301], a = 0.2, v = 0.2, t = 0.2)
movej(p[-0.444753803650115, -0.122603565674876, 0.307447774746947, -1.23392680646068, -1.20519521455169, 1.16224387072253], a = 0.2, v = 0.2, t = 0.2)
movej(p[-0.444705067863896, -0.122623095577986, 0.307417374483359, -1.23378446801843, -1.20636246684121, 1.16227618109467], a = 0.2, v = 0.2, t = 0.2)
movej(p[-0.444726514877101, -0.122598777540744, 0.307438872127167, -1.23466932827223, -1.20702038365095, 1.1628901325447], a = 0.2, v = 0.2, t = 0.2)
movej(p[-0.444738492767823, -0.122602889703414, 0.307474313208584, -1.2343245827577, -1.20765962253538, 1.16346741776053], a = 0.2, v = 0.2, t = 0.2)
movej(p[-0.444759538355659, -0.122597288818896, 0.307462495284686, -1.23453749655124, -1.20774549154967, 1.1644368108477], a = 0.2, v = 0.2, t = 0.2)
movej(p[-0.444762127185888, -0.12259678683433, 0.307451425236378, -1.23355182889666, -1.20773640905984, 1.1645480323029], a = 0.2, v = 0.2, t = 0.2)
movej(p[-0.444772790998098, -0.122614680037176, 0.307432122221041, -1.23397853673764, -1.20677933387286, 1.16363278645933], a = 0.2, v = 0.2, t = 0.2)
movej(p[-0.444754091182983, -0.122658927746372, 0.307385212550977, -1.23325833842423, -1.20650035159689, 1.16314516784311], a = 0.2, v = 0.2, t = 0.2)
movej(p[-0.444745531537846, -0.122659961616138, 0.307319406293004, -1.2334488476215, -1.20528604437798, 1.16301032900022], a = 0.2, v = 0.2, t = 0.2)
movej(p[-0.444700295800239, -0.122641565154304, 0.307237717136837, -1.23412167556778, -1.20533602405127, 1.16291291558909], a = 0.2, v = 0.2, t = 0.2)
movej(p[-0.44465980106034, -0.122633014722403, 0.307203107367193, -1.23427753723311, -1.20448674289894, 1.16212688584343], a = 0.2, v = 0.2, t = 0.2)
movej(p[-0.444709623218759, -0.12259376455419, 0.307226598148911, -1.23497132515585, -1.20467294755547, 1.1614740140946], a = 0.2, v = 0.2, t = 0.2)
movej(p[-0.444713477043122, -0.122583734709304, 0.30728273085105, -1.23398010871263, -1.20490409661662, 1.16178776773599], a = 0.2, v = 0.2, t = 0.2)
movej(p[-0.44470757403069, -0.122554691795305, 0.307333643654849, -1.23343456076435, -1.20507331548874, 1.16229245538491], a = 0.2, v = 0.2, t = 0.2)
movej(p[-0.444731304436668, -0.122555122303721, 0.307396516721377, -1.23323874960839, -1.2055091755824, 1.16193616002563], a = 0.2, v = 0.2, t = 0.2)
movej(p[-0.444768289586598, -0.122577756127315, 0.307413255261162, -1.23364883641144, -1.20617227951128, 1.16197078993708], a = 0.2, v = 0.2, t = 0.2)
movej(p[-0.444723999246103, -0.122615677358062, 0.307432746951635, -1.23293556185913, -1.2069412591922, 1.1620066113568], a = 0.2, v = 0.2, t = 0.2)
movej(p[-0.444687108070675, -0.122633727286184, 0.307405140407658, -1.23369983967517, -1.20635734221019, 1.16288197950314], a = 0.2, v = 0.2, t = 0.2)
movej(p[-0.444666845618781, -0.122650218593712, 0.3073759955999, -1.23437978097412, -1.20693727862048, 1.16355049780732], a = 0.2, v = 0.2, t = 0.2)
movej(p[-0.444621531983373, -0.122670019783269, 0.307375611753278, -1.23473588671283, -1.20600603428603, 1.16262638514456], a = 0.2, v = 0.2, t = 0.2)
movej(p[-0.444614054053359, -0.122674236700578, 0.307368765720039, -1.23458975394187, -1.20618780626051, 1.1621560936078], a = 0.2, v = 0.2, t = 0.2)
movej(p[-0.444624659482963, -0.122719393614449, 0.307386872017081, -1.2333995288822, -1.20590471532127, 1.16204147166426], a = 0.2, v = 0.2, t = 0.2)
movej(p[-0.444634605760562, -0.122714976917775, 0.307407458768947, -1.23289505064661, -1.20599179484866, 1.16189724261203], a = 0.2, v = 0.2, t = 0.2)
movej(p[-0.444662456249622, -0.122712076754087, 0.307418834150685, -1.23233962596803, -1.20578643355355, 1.16125071908889], a = 0.2, v = 0.2, t = 0.2)
movej(p[-0.444694141972651, -0.122708958076978, 0.307387288171398, -1.23181616977259, -1.20613863702876, 1.16162232185922], a = 0.2, v = 0.2, t = 0.2)
movej(p[-0.444724691006865, -0.122702536497197, 0.307394627777775, -1.23197290236822, -1.20587995824268, 1.16170121505631], a = 0.2, v = 0.2, t = 0.2)
movej(p[-0.444695342743685, -0.12268362695623, 0.307338420672274, -1.23136579265588, -1.20525770114018, 1.16276658662449], a = 0.2, v = 0.2, t = 0.2)
movej(p[-0.44470258846135, -0.122678643652885, 0.307322671822688, -1.2307933521703, -1.20569416200147, 1.16334758045779], a = 0.2, v = 0.2, t = 0.2)
movej(p[-0.444649168042533, -0.122622561721034, 0.307308563110018, -1.23057925379448, -1.20561815118447, 1.1635873719372], a = 0.2, v = 0.2, t = 0.2)
movej(p[-0.444638367944743, -0.122582268115997, 0.307311716406845, -1.23160109791052, -1.20562268441676, 1.16383444952038], a = 0.2, v = 0.2, t = 0.2)
movej(p[-0.444659608061304, -0.122551119986274, 0.307347103148193, -1.23300573376608, -1.20586965688529, 1.16445151094506], a = 0.2, v = 0.2, t = 0.2)
movej(p[-0.444639580103867, -0.122511574767804, 0.30736720803857, -1.23364202940343, -1.20597564158361, 1.1648886259982], a = 0.2, v = 0.2, t = 0.2)
movej(p[-0.444620929984381, -0.122534741982008, 0.307405773220136, -1.23461848515328, -1.20586050644826, 1.16382187161064], a = 0.2, v = 0.2, t = 0.2)
movej(p[-0.444630898147716, -0.122570704919996, 0.307431604457253, -1.23429796304505, -1.2059895927668, 1.16338802976545], a = 0.2, v = 0.2, t = 0.2)
movej(p[-0.444643256285395, -0.122627098995461, 0.307481149332725, -1.23443085046255, -1.20480679958018, 1.16227414456455], a = 0.2, v = 0.2, t = 0.2)
movej(p[-0.444562768954629, -0.122678644325171, 0.307480869027277, -1.23304300805315, -1.20450400216622, 1.16107414242063], a = 0.2, v = 0.2, t = 0.2)
movej(p[-0.444566598167482, -0.122715521091371, 0.307486048915649, -1.23242142176902, -1.20464984975222, 1.16054436669904], a = 0.2, v = 0.2, t = 0.2)
movej(p[-0.444567213833983, -0.122695672439774, 0.307484055931826, -1.23160932674846, -1.20477929229504, 1.16100350069269], a = 0.2, v = 0.2, t = 0.2)
movej(p[-0.444624653973006, -0.122702991793641, 0.307461990857885, -1.23228364953023, -1.20473813160042, 1.16057663205964], a = 0.2, v = 0.2, t = 0.2)
movej(p[-0.444639260628663, -0.122672728398077, 0.307440024007873, -1.23270493637558, -1.20452990496755, 1.16090852562148], a = 0.2, v = 0.2, t = 0.2)
movej(p[-0.444670185050186, -0.122642282452999, 0.307388899702677, -1.23245268690698, -1.20436425140763, 1.16204331047868], a = 0.2, v = 0.2, t = 0.2)
movej(p[-0.44476265181495, -0.122621477130736, 0.307376198286235, -1.23314486552808, -1.20522776377748, 1.16228077344988], a = 0.2, v = 0.2, t = 0.2)
movej(p[-0.444814378453566, -0.122575355732515, 0.307340088571702, -1.23383062370456, -1.20588578856027, 1.1628326479008], a = 0.2, v = 0.2, t = 0.2)
movej(p[-0.444831386874915, -0.12257457991124, 0.307329627132768, -1.23380046828423, -1.2053687323094, 1.16278254666862], a = 0.2, v = 0.2, t = 0.2)
movej(p[-0.444852206130343, -0.122562261471574, 0.307316090713463, -1.23334236306816, -1.20497247225569, 1.16226411709131], a = 0.2, v = 0.2, t = 0.2)
movej(p[-0.444835173229365, -0.122535443297685, 0.307319662244441, -1.23296332968252, -1.20466735463701, 1.16334086638916], a = 0.2, v = 0.2, t = 0.2)
movej(p[-0.444838599601177, -0.122539868652878, 0.307345729776115, -1.23309508820393, -1.20428287567448, 1.16278196421403], a = 0.2, v = 0.2, t = 0.2)
movej(p[-0.444852771563177, -0.122573163046291, 0.307400088665548, -1.23278250901171, -1.20451514008619, 1.16186800192662], a = 0.2, v = 0.2, t = 0.2)
movej(p[-0.444771655387996, -0.12262148350466, 0.307446282490103, -1.23229775841823, -1.20433824342129, 1.16091260016195], a = 0.2, v = 0.2, t = 0.2)
movej(p[-0.44472734516906, -0.122635569506906, 0.307455340030529, -1.2319188404107, -1.20522627702177, 1.16176344412529], a = 0.2, v = 0.2, t = 0.2)
movej(p[-0.444718311959002, -0.122643352088101, 0.307483611616017, -1.23213577700937, -1.20622616909151, 1.16191591613327], a = 0.2, v = 0.2, t = 0.2)
movej(p[-0.444657003479668, -0.12264585942794, 0.307482461134095, -1.23302322493303, -1.2069127830555, 1.16182173693959], a = 0.2, v = 0.2, t = 0.2)
movej(p[-0.444662106749102, -0.122699015220839, 0.307496425672121, -1.23280999057887, -1.20695683688908, 1.16126272028564], a = 0.2, v = 0.2, t = 0.2)
movej(p[-0.444681675311285, -0.122717641384824, 0.307457862122111, -1.23267349416378, -1.20620729268151, 1.16095130925246], a = 0.2, v = 0.2, t = 0.2)
movej(p[-0.444644655192407, -0.122721522021967, 0.307424717115644, -1.233175939049, -1.20561969748939, 1.16160952401265], a = 0.2, v = 0.2, t = 0.2)
movej(p[-0.444631675867518, -0.122718622671159, 0.307421303775593, -1.23395186013578, -1.20521372902344, 1.16108867906166], a = 0.2, v = 0.2, t = 0.2)
movej(p[-0.444670412670225, -0.122707134808672, 0.307432978497497, -1.23357670287002, -1.20527767058148, 1.16193813059941], a = 0.2, v = 0.2, t = 0.2)
movej(p[-0.444637083889818, -0.122681419148906, 0.307417575340696, -1.23266413884749, -1.20467791979101, 1.16206205701398], a = 0.2, v = 0.2, t = 0.2)
movej(p[-0.444648738185663, -0.122665062719054, 0.307372621758071, -1.23203689860704, -1.20483987954072, 1.16264131013743], a = 0.2, v = 0.2, t = 0.2)
movej(p[-0.444640579540261, -0.122597297630392, 0.307326792299599, -1.23224749074529, -1.20390761507995, 1.16353925408663], a = 0.2, v = 0.2, t = 0.2)
movej(p[-0.44462092901485, -0.122586601030736, 0.307317547322215, -1.23266931808166, -1.204193755189, 1.16290152883958], a = 0.2, v = 0.2, t = 0.2)
movej(p[-0.444663289833911, -0.122578333862106, 0.307297272339323, -1.23299530442312, -1.20461317325606, 1.1623153613836], a = 0.2, v = 0.2, t = 0.2)
movej(p[-0.444676032305405, -0.122589604476477, 0.307272585041538, -1.23289885438003, -1.20457667715162, 1.16171617468901], a = 0.2, v = 0.2, t = 0.2)
movej(p[-0.444642276334898, -0.122615903070417, 0.307263907575783, -1.23270609620521, -1.20512532264694, 1.1617054017999], a = 0.2, v = 0.2, t = 0.2)
movej(p[-0.444637416914107, -0.122583226309201, 0.307297825495914, -1.2329519446957, -1.20593983972737, 1.16240491505859], a = 0.2, v = 0.2, t = 0.2)
movej(p[-0.444682121839391, -0.122570589383206, 0.307335161105681, -1.2325301439614, -1.2067480706842, 1.16400382515159], a = 0.2, v = 0.2, t = 0.2)
movej(p[-0.44468676147242, -0.122596333019926, 0.307381262829877, -1.23196697237178, -1.20733500132308, 1.16406557491903], a = 0.2, v = 0.2, t = 0.2)
movej(p[-0.44472904623432, -0.122649815805091, 0.307404309751625, -1.23119272336877, -1.20804994800691, 1.16402496579226], a = 0.2, v = 0.2, t = 0.2)
movej(p[-0.444690193968547, -0.122628805953611, 0.307402010276664, -1.23252569155941, -1.20805020105548, 1.164428979098], a = 0.2, v = 0.2, t = 0.2)
movej(p[-0.444649468105809, -0.122663673057401, 0.307408333185612, -1.23315241279518, -1.20803207472098, 1.16357508427284], a = 0.2, v = 0.2, t = 0.2)
movej(p[-0.444666404949287, -0.122666130170858, 0.307392034537617, -1.23445696718426, -1.20758672765928, 1.16320208515182], a = 0.2, v = 0.2, t = 0.2)
movej(p[-0.444643243948472, -0.122654653722875, 0.307368488217672, -1.23473133480162, -1.20642545061008, 1.16310104345651], a = 0.2, v = 0.2, t = 0.2)
movej(p[-0.444635429235098, -0.122641374558022, 0.307336938668774, -1.23389024569385, -1.20499484058058, 1.16321296476153], a = 0.2, v = 0.2, t = 0.2)
movej(p[-0.444645996695893, -0.122576388871771, 0.307322078677022, -1.23380003055987, -1.2041592005658, 1.1641957709154], a = 0.2, v = 0.2, t = 0.2)
movej(p[-0.444620494934472, -0.122547984786062, 0.307324899683844, -1.23283132055261, -1.20316746635284, 1.16502479654127], a = 0.2, v = 0.2, t = 0.2)
movej(p[-0.444584110659557, -0.122576043425219, 0.30733198116021, -1.23147292963018, -1.20272448007384, 1.16546867014218], a = 0.2, v = 0.2, t = 0.2)
movej(p[-0.444573396123556, -0.122581275051443, 0.307352424222733, -1.23035247907972, -1.2025780316994, 1.1656206270837], a = 0.2, v = 0.2, t = 0.2)
movej(p[-0.444541984079644, -0.122568325074684, 0.307354531732926, -1.2301254372094, -1.20237748612417, 1.16573871970089], a = 0.2, v = 0.2, t = 0.2)
movej(p[-0.444535744614256, -0.122595968570317, 0.307351788337061, -1.23136004588734, -1.2021374555762, 1.16451508775715], a = 0.2, v = 0.2, t = 0.2)
movej(p[-0.444610668848315, -0.122588605484971, 0.307428154063175, -1.23167482642718, -1.20223718653676, 1.16436375979539], a = 0.2, v = 0.2, t = 0.2)
movej(p[-0.44462952594592, -0.122578772929282, 0.307450558989386, -1.23277766329695, -1.20214129390331, 1.16354032234089], a = 0.2, v = 0.2, t = 0.2)
movej(p[-0.444692336785048, -0.122600141914325, 0.307468805494975, -1.23220859540651, -1.20220492445247, 1.16329757449756], a = 0.2, v = 0.2, t = 0.2)
movej(p[-0.444655076012001, -0.122570946167372, 0.307463153667676, -1.2320365895308, -1.20251757289156, 1.16376159193954], a = 0.2, v = 0.2, t = 0.2)
movej(p[-0.444633278452639, -0.122532196598294, 0.307454085189186, -1.23105881530126, -1.20235150874731, 1.16464764192137], a = 0.2, v = 0.2, t = 0.2)
movej(p[-0.4445856482168, -0.122555105116724, 0.307424216636872, -1.22991423061358, -1.20228435845657, 1.16565611752463], a = 0.2, v = 0.2, t = 0.2)
movej(p[-0.444588236457302, -0.122513397382278, 0.307405809956061, -1.22936110439185, -1.20324037120369, 1.1666182462974], a = 0.2, v = 0.2, t = 0.2)
movej(p[-0.444591603206477, -0.122503175191039, 0.307337003329881, -1.22935324378393, -1.20219771090196, 1.16705095698513], a = 0.2, v = 0.2, t = 0.2)
movej(p[-0.44460912007488, -0.122501444415109, 0.307298226355578, -1.23061260257498, -1.20218367370805, 1.1664210292416], a = 0.2, v = 0.2, t = 0.2)
movej(p[-0.444656453544933, -0.122513971926582, 0.307304291342723, -1.23088876660021, -1.20218378558041, 1.16590649770475], a = 0.2, v = 0.2, t = 0.2)
movej(p[-0.444681144941549, -0.122542304871945, 0.307293789955185, -1.23211868905334, -1.20253038935406, 1.16439847536603], a = 0.2, v = 0.2, t = 0.2)
movej(p[-0.444684039432755, -0.122587671741865, 0.307304101552267, -1.23196757195498, -1.20244624356953, 1.16318423144862], a = 0.2, v = 0.2, t = 0.2)
movej(p[-0.444609802300342, -0.122588860814979, 0.30731462506291, -1.23279514509959, -1.20265782521697, 1.16209328445664], a = 0.2, v = 0.2, t = 0.2)
movej(p[-0.444669991601243, -0.122590472677168, 0.307347973675434, -1.23207822541588, -1.20370105882934, 1.16149260184702], a = 0.2, v = 0.2, t = 0.2)
movej(p[-0.444698876779415, -0.12260824604179, 0.307391900933396, -1.23145704889256, -1.20408281333088, 1.16137501391435], a = 0.2, v = 0.2, t = 0.2)
movej(p[-0.444700513208057, -0.122605407741814, 0.307458817643974, -1.23159883679201, -1.20543570800324, 1.1611220669613], a = 0.2, v = 0.2, t = 0.2)
movej(p[-0.444743974334444, -0.122646325168403, 0.307437955364745, -1.23188867979721, -1.20516805179593, 1.1608578879909], a = 0.2, v = 0.2, t = 0.2)
movej(p[-0.44476824692061, -0.122602510131037, 0.307416777686367, -1.23176177637302, -1.20553481995367, 1.16226789564116], a = 0.2, v = 0.2, t = 0.2)
movej(p[-0.44480186677193, -0.12260383739088, 0.30739313188381, -1.23131154216853, -1.20573422455175, 1.16309371110818], a = 0.2, v = 0.2, t = 0.2)
movej(p[-0.444767032729076, -0.122584519137662, 0.307349084925334, -1.23108924488013, -1.20473756732634, 1.16374708402337], a = 0.2, v = 0.2, t = 0.2)
movej(p[-0.444708585131979, -0.122553516130823, 0.307313020234007, -1.23060174016994, -1.20335341788339, 1.16439409912098], a = 0.2, v = 0.2, t = 0.2)
movej(p[-0.444657463730611, -0.122548244935667, 0.307278164146678, -1.23072563343748, -1.20204087593439, 1.1645780167802], a = 0.2, v = 0.2, t = 0.2)
movej(p[-0.444691604493123, -0.122502462792904, 0.307231627454282, -1.23071210352214, -1.20165490617663, 1.16572700504437], a = 0.2, v = 0.2, t = 0.2)
movej(p[-0.444717911589237, -0.12247262623434, 0.307212636760058, -1.23129384529067, -1.20142035252578, 1.16581768060041], a = 0.2, v = 0.2, t = 0.2)
movej(p[-0.444692454495394, -0.122522829055752, 0.307246580140788, -1.2316895368213, -1.20260794042444, 1.16469943063884], a = 0.2, v = 0.2, t = 0.2)
movej(p[-0.44477177219185, -0.12254836718102, 0.307256824026121, -1.23232564176075, -1.20378261716787, 1.16415388788792], a = 0.2, v = 0.2, t = 0.2)
movej(p[-0.444785856050148, -0.122524216069518, 0.307276020347348, -1.23277424116129, -1.20497287951553, 1.16504383302576], a = 0.2, v = 0.2, t = 0.2)
movej(p[-0.444827710168862, -0.122537217037717, 0.30733425287754, -1.23318227989766, -1.2063996727811, 1.16423229615719], a = 0.2, v = 0.2, t = 0.2)
movej(p[-0.444763722871856, -0.122551779204257, 0.307381160330333, -1.23304865081319, -1.20708813839873, 1.16351597272464], a = 0.2, v = 0.2, t = 0.2)
movej(p[-0.444669441291883, -0.122540901244082, 0.307417280458518, -1.23302626799598, -1.20649126966012, 1.16328684714152], a = 0.2, v = 0.2, t = 0.2)
movej(p[-0.44460345809548, -0.122550969631585, 0.307435580878337, -1.23359759608635, -1.20662266413586, 1.16324878864921], a = 0.2, v = 0.2, t = 0.2)
movej(p[-0.444557421565246, -0.122541668433381, 0.307392927794087, -1.23440061187237, -1.20616823356462, 1.16319161762961], a = 0.2, v = 0.2, t = 0.2)
movej(p[-0.444548621019773, -0.122560487509971, 0.307374547566786, -1.23462826086338, -1.20530094374244, 1.16268505229167], a = 0.2, v = 0.2, t = 0.2)
movej(p[-0.444551121418057, -0.122595387146504, 0.30736217851758, -1.23477881701097, -1.2046170100784, 1.16230009952048], a = 0.2, v = 0.2, t = 0.2)
movej(p[-0.444562002756701, -0.122574317545475, 0.307322901954826, -1.23444804290045, -1.20378480202088, 1.16304081701681], a = 0.2, v = 0.2, t = 0.2)
movej(p[-0.444629671615267, -0.122615257111836, 0.307290571667377, -1.23350225804116, -1.20322831898302, 1.1633141844403], a = 0.2, v = 0.2, t = 0.2)
movej(p[-0.444697947582285, -0.122572103475217, 0.307271382712889, -1.23326123517872, -1.20375944640696, 1.16385067415003], a = 0.2, v = 0.2, t = 0.2)
movej(p[-0.444692837813755, -0.122578670790525, 0.307224027453041, -1.2323176778152, -1.20300640659157, 1.16441091881248], a = 0.2, v = 0.2, t = 0.2)
movej(p[-0.444685059165107, -0.122564912217938, 0.307194283137524, -1.23208788053253, -1.20326799967957, 1.1646210488114], a = 0.2, v = 0.2, t = 0.2)
movej(p[-0.444688773807608, -0.122553637264642, 0.307180002841335, -1.23163435599564, -1.20346905891082, 1.16486497751345], a = 0.2, v = 0.2, t = 0.2)
movej(p[-0.444660041132327, -0.122537333958854, 0.307191979301227, -1.23159464611594, -1.20350318521297, 1.16418345344138], a = 0.2, v = 0.2, t = 0.2)
movej(p[-0.44467248734712, -0.122531764775772, 0.307280140324005, -1.23144122858848, -1.20382013587035, 1.16421550924959], a = 0.2, v = 0.2, t = 0.2)
movej(p[-0.444666861630522, -0.122510636017871, 0.307340860229327, -1.23190312120672, -1.20355774353975, 1.16444347954848], a = 0.2, v = 0.2, t = 0.2)
movej(p[-0.444601298888156, -0.122514990420516, 0.307384024751692, -1.23215389620449, -1.20272177541576, 1.16378581641487], a = 0.2, v = 0.2, t = 0.2)
movej(p[-0.444595580579366, -0.122559217607042, 0.307413693538601, -1.23136964770469, -1.20323378761629, 1.1634896069275], a = 0.2, v = 0.2, t = 0.2)
movej(p[-0.444559026802438, -0.122533917413312, 0.307433989636489, -1.23203478346325, -1.20351024541147, 1.16284896241049], a = 0.2, v = 0.2, t = 0.2)
movej(p[-0.444540915245643, -0.122561348233467, 0.307395858132243, -1.23229888225578, -1.20305353210521, 1.16286130657337], a = 0.2, v = 0.2, t = 0.2)
movej(p[-0.444581097433058, -0.122586927286985, 0.307365154975473, -1.23266435022917, -1.20439699642968, 1.16294125516343], a = 0.2, v = 0.2, t = 0.2)
movej(p[-0.444596607798459, -0.122611172172587, 0.307352250166786, -1.23330238719454, -1.20447987906844, 1.16250445451941], a = 0.2, v = 0.2, t = 0.2)
movej(p[-0.444644886870899, -0.122612357856093, 0.307349013607045, -1.23335592776684, -1.20519291782291, 1.16232380216915], a = 0.2, v = 0.2, t = 0.2)
movej(p[-0.44468682839456, -0.122612179072099, 0.307368075785024, -1.23343390026741, -1.20492689703602, 1.16274503247706], a = 0.2, v = 0.2, t = 0.2)
movej(p[-0.444722971612143, -0.122604266310609, 0.307346966639415, -1.23412256427161, -1.20405213478596, 1.16306696423155], a = 0.2, v = 0.2, t = 0.2)
movej(p[-0.444677790032252, -0.122598470957882, 0.30730655143528, -1.23389912154788, -1.20365305621769, 1.16346949787582], a = 0.2, v = 0.2, t = 0.2)
movej(p[-0.44469598675822, -0.122601678874731, 0.307280605560202, -1.23295586180751, -1.20335218371933, 1.16315723579988], a = 0.2, v = 0.2, t = 0.2)
movej(p[-0.444710238077932, -0.122594118308, 0.3072822017172, -1.23236832443825, -1.20319762582645, 1.16281655050649], a = 0.2, v = 0.2, t = 0.2)
movej(p[-0.444699853655584, -0.122601407741551, 0.30724998932935, -1.23166430260069, -1.20291665068246, 1.16299565018908], a = 0.2, v = 0.2, t = 0.2)
movej(p[-0.444678553314019, -0.122603969881335, 0.307233236094172, -1.23087373927934, -1.20309482854048, 1.16312627349341], a = 0.2, v = 0.2, t = 0.2)
movej(p[-0.444711596728645, -0.122589888984519, 0.30723309085393, -1.23070765020305, -1.20281818792425, 1.16290941082598], a = 0.2, v = 0.2, t = 0.2)
movej(p[-0.444688737058257, -0.122606165624532, 0.307263445696372, -1.22996681732524, -1.20328361500501, 1.16249215310077], a = 0.2, v = 0.2, t = 0.2)
movej(p[-0.444659407688299, -0.122586649579979, 0.307256566593025, -1.23040789208273, -1.20278278744812, 1.16292247674186], a = 0.2, v = 0.2, t = 0.2)
movej(p[-0.444605622333103, -0.122560648801843, 0.307280543980346, -1.23155419952461, -1.20272506860227, 1.16308884386423], a = 0.2, v = 0.2, t = 0.2)
movej(p[-0.444573779934273, -0.122577456327098, 0.307318642126385, -1.23087933153068, -1.20353525095837, 1.16284514258031], a = 0.2, v = 0.2, t = 0.2)
movej(p[-0.444592532925532, -0.12257644598098, 0.307350654225965, -1.23169542116764, -1.20330098618162, 1.16263402270552], a = 0.2, v = 0.2, t = 0.2)
movej(p[-0.444661582705297, -0.122588209239652, 0.307390748286123, -1.23301688431173, -1.20379443977062, 1.16264241872573], a = 0.2, v = 0.2, t = 0.2)
movej(p[-0.444697980905652, -0.122591639963493, 0.30739001266069, -1.23336768598067, -1.20362823897639, 1.16264553582154], a = 0.2, v = 0.2, t = 0.2)
movej(p[-0.444666920322761, -0.122561643144099, 0.307381298820167, -1.23497161059283, -1.20388108158983, 1.16298834290468], a = 0.2, v = 0.2, t = 0.2)
movej(p[-0.444701717770262, -0.122551076479758, 0.307361156991747, -1.23513271904017, -1.20392203811192, 1.16333993222628], a = 0.2, v = 0.2, t = 0.2)
movej(p[-0.444661579645083, -0.122552176005968, 0.307356041139008, -1.23504897821914, -1.20532101731373, 1.16370940345483], a = 0.2, v = 0.2, t = 0.2)
movej(p[-0.444665837497174, -0.122542366380858, 0.307323421329831, -1.23541967770319, -1.20606138282066, 1.16359578889608], a = 0.2, v = 0.2, t = 0.2)
movej(p[-0.444625905856805, -0.122553734387162, 0.307315782447053, -1.23460810762692, -1.20612642821247, 1.16265529872032], a = 0.2, v = 0.2, t = 0.2)
movej(p[-0.44465844753912, -0.122570402103321, 0.307292592661584, -1.23353110696808, -1.20597356338237, 1.16160586603278], a = 0.2, v = 0.2, t = 0.2)
movej(p[-0.444641663592291, -0.122562416355063, 0.307290441626117, -1.23231356177415, -1.20449101227277, 1.16160817095188], a = 0.2, v = 0.2, t = 0.2)
movej(p[-0.444645659964352, -0.122600251459746, 0.307267593784557, -1.23109706794361, -1.20369467239926, 1.16157903533617], a = 0.2, v = 0.2, t = 0.2)
movej(p[-0.444628707887311, -0.122595897593677, 0.307226088954305, -1.23063792094943, -1.20320301882536, 1.16217768019558], a = 0.2, v = 0.2, t = 0.2)
movej(p[-0.444589106952217, -0.122574699249739, 0.307214808167366, -1.23128932333213, -1.20287628178636, 1.16249063755211], a = 0.2, v = 0.2, t = 0.2)
movej(p[-0.444593559945471, -0.122584755321835, 0.307228878571236, -1.23180121201056, -1.20371986129369, 1.16272679068964], a = 0.2, v = 0.2, t = 0.2)
movej(p[-0.444601633054441, -0.122580038239708, 0.307295140053621, -1.23244207997999, -1.20418497465041, 1.16243445535951], a = 0.2, v = 0.2, t = 0.2)
movej(p[-0.444637340233111, -0.122613975870139, 0.307342198895852, -1.23254731294644, -1.20445659438248, 1.16209504006481], a = 0.2, v = 0.2, t = 0.2)
movej(p[-0.444674530840392, -0.122609462837853, 0.307389652676204, -1.23331766448919, -1.20450527851973, 1.16182827848734], a = 0.2, v = 0.2, t = 0.2)
movej(p[-0.444749430840827, -0.122589708749714, 0.307425641645854, -1.23427949108711, -1.20460467836705, 1.16128560395816], a = 0.2, v = 0.2, t = 0.2)
movej(p[-0.444697884963011, -0.122560975059404, 0.307468496954993, -1.23336963288023, -1.20395974894165, 1.16200339587379], a = 0.2, v = 0.2, t = 0.2)
movej(p[-0.444666747498336, -0.122536878331492, 0.307451114607696, -1.23351763620973, -1.20410348076912, 1.16325833138439], a = 0.2, v = 0.2, t = 0.2)
movej(p[-0.444656422258928, -0.122512247464667, 0.30742676548388, -1.2334891257392, -1.20492445917906, 1.16470364909537], a = 0.2, v = 0.2, t = 0.2)
movej(p[-0.444633375755303, -0.12254159527049, 0.307404054143892, -1.23366931463601, -1.20554865280691, 1.16455955469691], a = 0.2, v = 0.2, t = 0.2)
movej(p[-0.444622837722266, -0.122542219520168, 0.307391229941303, -1.2336423976708, -1.20597213105257, 1.16477017569856], a = 0.2, v = 0.2, t = 0.2)
movej(p[-0.444645219958272, -0.122550627948034, 0.307407529139203, -1.23309823930916, -1.20681727165975, 1.16439330662814], a = 0.2, v = 0.2, t = 0.2)
movej(p[-0.444658377400286, -0.122566035643684, 0.307386685323948, -1.23146277392346, -1.20705291386508, 1.16530914222827], a = 0.2, v = 0.2, t = 0.2)
movej(p[-0.444685419413975, -0.122566469947725, 0.307357527291167, -1.23043845790408, -1.20706170231373, 1.16526010618318], a = 0.2, v = 0.2, t = 0.2)
movej(p[-0.444761055534911, -0.122549050730064, 0.307314935178448, -1.23099341469056, -1.20702454996528, 1.16478891809726], a = 0.2, v = 0.2, t = 0.2)
movej(p[-0.444775618016863, -0.122511914241757, 0.307287044761535, -1.23081165657481, -1.20649463062464, 1.16454398750738], a = 0.2, v = 0.2, t = 0.2)
movej(p[-0.444774676677694, -0.122498321019639, 0.307269416710224, -1.23085452876775, -1.20630792898222, 1.164639033406], a = 0.2, v = 0.2, t = 0.2)
movej(p[-0.444758245559153, -0.122538662688386, 0.307310127619157, -1.23067177717355, -1.20614100049444, 1.16309800997746], a = 0.2, v = 0.2, t = 0.2)
movej(p[-0.44470623612013, -0.1226057807716, 0.307344606615057, -1.23121392742796, -1.20598765201261, 1.16151167662192], a = 0.2, v = 0.2, t = 0.2)
movej(p[-0.444701034492052, -0.122579389851602, 0.307426183648633, -1.23148948358372, -1.20589545419706, 1.1614225258626], a = 0.2, v = 0.2, t = 0.2)
movej(p[-0.444655605415668, -0.122577327898134, 0.307487477590966, -1.2325533178906, -1.20501793333187, 1.16138595509007], a = 0.2, v = 0.2, t = 0.2)
movej(p[-0.444620567105828, -0.122551455523398, 0.307471922943139, -1.23292194117716, -1.20424677121258, 1.16327592156512], a = 0.2, v = 0.2, t = 0.2)
movej(p[-0.444666185679963, -0.122575182700383, 0.307473806229144, -1.23244436820345, -1.20410295609575, 1.16377932490431], a = 0.2, v = 0.2, t = 0.2)
movej(p[-0.444757179318525, -0.122534358017153, 0.307448666360802, -1.23374410193142, -1.20487756371804, 1.16393290777086], a = 0.2, v = 0.2, t = 0.2)
movej(p[-0.444774500387119, -0.122531426178236, 0.307426015424765, -1.23300194699209, -1.20615475115629, 1.16436179053945], a = 0.2, v = 0.2, t = 0.2)
movej(p[-0.444709193525806, -0.12255278086201, 0.307435965869297, -1.23199862899301, -1.20691176661504, 1.16450404789825], a = 0.2, v = 0.2, t = 0.2)
movej(p[-0.444670425807129, -0.12256370675324, 0.307427399721424, -1.2320726353779, -1.20717259074661, 1.16428453820534], a = 0.2, v = 0.2, t = 0.2)
movej(p[-0.444619190387035, -0.122596683403293, 0.307428129296048, -1.23212733799641, -1.20824050476068, 1.1636697660461], a = 0.2, v = 0.2, t = 0.2)
movej(p[-0.444614395214751, -0.122576368443556, 0.307400478460009, -1.23242870833293, -1.20729188136388, 1.1642063212735], a = 0.2, v = 0.2, t = 0.2)
movej(p[-0.444567410545139, -0.122552164256683, 0.307356019285937, -1.23294735226315, -1.2051015049682, 1.16485507708997], a = 0.2, v = 0.2, t = 0.2)
movej(p[-0.444558108408712, -0.122546585975172, 0.307287807168001, -1.23322938515599, -1.20405358359045, 1.16492578938656], a = 0.2, v = 0.2, t = 0.2)
movej(p[-0.444675423513264, -0.122563659260769, 0.307301608224582, -1.232607344758, -1.20348332175412, 1.16407451345244], a = 0.2, v = 0.2, t = 0.2)
movej(p[-0.444726830809983, -0.122567334269185, 0.307304260423143, -1.23198231123026, -1.20350514869021, 1.16297900625604], a = 0.2, v = 0.2, t = 0.2)
movej(p[-0.444743076277669, -0.122576339704453, 0.307348333055414, -1.23070239190903, -1.20441353314166, 1.16263014853255], a = 0.2, v = 0.2, t = 0.2)
movej(p[-0.444718099109233, -0.122593082976322, 0.307429362827128, -1.23008599167803, -1.20476709606724, 1.16169399321948], a = 0.2, v = 0.2, t = 0.2)
movej(p[-0.444711795467466, -0.122585997790272, 0.307425313847118, -1.23055484596722, -1.20532530442202, 1.16191953807708], a = 0.2, v = 0.2, t = 0.2)
movej(p[-0.444714007495174, -0.122617988812153, 0.307453203297676, -1.23078691153344, -1.20642303478325, 1.16164072817734], a = 0.2, v = 0.2, t = 0.2)
movej(p[-0.444687824657545, -0.1225928290172, 0.307416588905264, -1.23135989363596, -1.20572920108122, 1.16264873527993], a = 0.2, v = 0.2, t = 0.2)
movej(p[-0.44468323411301, -0.122578936896619, 0.307382757028482, -1.23215429544899, -1.20565747809402, 1.16345250462629], a = 0.2, v = 0.2, t = 0.2)
movej(p[-0.444663584004194, -0.122616541949656, 0.307355357152395, -1.23319011882359, -1.20511611428507, 1.16200359651568], a = 0.2, v = 0.2, t = 0.2)
movej(p[-0.444721798380827, -0.12264213150641, 0.307373381606296, -1.23266851310161, -1.20528125496294, 1.16207708119805], a = 0.2, v = 0.2, t = 0.2)
movej(p[-0.444722483125467, -0.122695198264681, 0.307386867906432, -1.23234752182606, -1.20620267415459, 1.16182568098714], a = 0.2, v = 0.2, t = 0.2)
movej(p[-0.444708745171071, -0.122687251651833, 0.30741954832799, -1.23158676064676, -1.20648323631034, 1.16236013842458], a = 0.2, v = 0.2, t = 0.2)
movej(p[-0.444686320504801, -0.122729874823865, 0.307462098293309, -1.23082711446954, -1.20674576808482, 1.16162057664835], a = 0.2, v = 0.2, t = 0.2)
movej(p[-0.444621155583026, -0.122703721627501, 0.307431865144448, -1.22955184939094, -1.20701022612914, 1.16262220040639], a = 0.2, v = 0.2, t = 0.2)
movej(p[-0.444597736048605, -0.122694763595461, 0.307392590482521, -1.22894260065564, -1.20691938983053, 1.16337472632287], a = 0.2, v = 0.2, t = 0.2)
movej(p[-0.444576121746164, -0.12263266854758, 0.307339461987731, -1.22835260149607, -1.20713263087827, 1.16444802099192], a = 0.2, v = 0.2, t = 0.2)
movej(p[-0.444568324356243, -0.122580387196923, 0.307251028616859, -1.22867230722176, -1.20567382691154, 1.16514631058394], a = 0.2, v = 0.2, t = 0.2)
movej(p[-0.444597994077335, -0.122568372951416, 0.30722404055366, -1.22875096092254, -1.20448263745302, 1.16421571153919], a = 0.2, v = 0.2, t = 0.2)
movej(p[-0.444659585093016, -0.122568168350913, 0.307225957563315, -1.22888064872964, -1.20452268855802, 1.16423999259799], a = 0.2, v = 0.2, t = 0.2)
movej(p[-0.444726339757625, -0.122570381688456, 0.307224004133026, -1.23074315787966, -1.20484859735496, 1.16334949734152], a = 0.2, v = 0.2, t = 0.2)
movej(p[-0.444714966230364, -0.122587787450425, 0.307248729268575, -1.23154175704879, -1.20425027960771, 1.16303085215808], a = 0.2, v = 0.2, t = 0.2)
movej(p[-0.444720097087687, -0.122639758002457, 0.307305525272172, -1.23225856999349, -1.20404070577954, 1.16169949200628], a = 0.2, v = 0.2, t = 0.2)
movej(p[-0.444643150075388, -0.12260475270799, 0.307336741880855, -1.23325171876123, -1.20355283076432, 1.16227212414889], a = 0.2, v = 0.2, t = 0.2)
movej(p[-0.44456949908911, -0.122601328397388, 0.30734760172971, -1.23381779973681, -1.20313443042589, 1.1624368616727], a = 0.2, v = 0.2, t = 0.2)
movej(p[-0.444530571432284, -0.122568884759364, 0.30734273265528, -1.23446786205534, -1.2044370414913, 1.1629928741869], a = 0.2, v = 0.2, t = 0.2)
movej(p[-0.44453455561256, -0.122586689265291, 0.307342922065397, -1.23355970214629, -1.20460399273279, 1.16324954351129], a = 0.2, v = 0.2, t = 0.2)
movej(p[-0.444565493726592, -0.122623446831491, 0.307381075629153, -1.23200390066437, -1.20542885130848, 1.16326900584427], a = 0.2, v = 0.2, t = 0.2)
movej(p[-0.444557700524517, -0.122648251544142, 0.307371804047208, -1.230778413118, -1.20553624864962, 1.16388622596552], a = 0.2, v = 0.2, t = 0.2)
movej(p[-0.444597622920915, -0.122652027744933, 0.307349358500358, -1.23090553273825, -1.20567643361378, 1.16380422709341], a = 0.2, v = 0.2, t = 0.2)
movej(p[-0.444613880960471, -0.122671638045799, 0.307335385231244, -1.23085538718363, -1.20469554503401, 1.16381037499098], a = 0.2, v = 0.2, t = 0.2)
movej(p[-0.444607528380446, -0.122665400108834, 0.30731021872832, -1.23090466441382, -1.20359522389836, 1.16376580344479], a = 0.2, v = 0.2, t = 0.2)
movej(p[-0.444601651452822, -0.122604191744012, 0.307323678587069, -1.23213121974147, -1.20331242420475, 1.16346826035951], a = 0.2, v = 0.2, t = 0.2)
movej(p[-0.444578985971973, -0.122560534836745, 0.307254162902322, -1.23251809423846, -1.20275026526255, 1.16418026247749], a = 0.2, v = 0.2, t = 0.2)
movej(p[-0.444625238774232, -0.122525994604149, 0.307237280348742, -1.23287050985381, -1.20335929578636, 1.16447238232275], a = 0.2, v = 0.2, t = 0.2)
movej(p[-0.444658836392128, -0.122537990652341, 0.307235523960541, -1.23287436576233, -1.20361151216271, 1.16433029429673], a = 0.2, v = 0.2, t = 0.2)
movej(p[-0.444705958551153, -0.122535260441378, 0.307245169066913, -1.23293214348952, -1.20557678518781, 1.16444455715012], a = 0.2, v = 0.2, t = 0.2)
movej(p[-0.444664991834389, -0.122532865606434, 0.307272029500326, -1.23307235227499, -1.20568805710161, 1.16406933748465], a = 0.2, v = 0.2, t = 0.2)
movej(p[-0.444636085374914, -0.122548039742446, 0.307272349182927, -1.23384263632698, -1.20525385127608, 1.1637000884702], a = 0.2, v = 0.2, t = 0.2)
movej(p[-0.444651208993641, -0.122586153201869, 0.307272103485078, -1.23348584422948, -1.20489186640552, 1.16307205026655], a = 0.2, v = 0.2, t = 0.2)
movej(p[-0.444635353735924, -0.122579122456347, 0.307284822738993, -1.23434335492238, -1.20488167185384, 1.16249782345069], a = 0.2, v = 0.2, t = 0.2)
movej(p[-0.444645089619681, -0.122580298622799, 0.307329062304994, -1.23487823809967, -1.20487038675957, 1.1623120594623], a = 0.2, v = 0.2, t = 0.2)
movej(p[-0.444665338855092, -0.122624900897221, 0.307330603597217, -1.23388093353789, -1.20452923993572, 1.16247934779453], a = 0.2, v = 0.2, t = 0.2)
movej(p[-0.444684274047213, -0.122669740909043, 0.307357289208304, -1.23247103638316, -1.20425061038066, 1.16277266614225], a = 0.2, v = 0.2, t = 0.2)
movej(p[-0.444724804225462, -0.122687006103491, 0.307384596125226, -1.23304530699841, -1.20476319040982, 1.16271251280664], a = 0.2, v = 0.2, t = 0.2)
movej(p[-0.444694170354919, -0.122687746443849, 0.307387127502661, -1.23254884538837, -1.20548998146552, 1.16291194571179], a = 0.2, v = 0.2, t = 0.2)
movej(p[-0.444630832066714, -0.122698642994692, 0.307380335122595, -1.232341950801, -1.2050194894458, 1.16274166685423], a = 0.2, v = 0.2, t = 0.2)
movej(p[-0.444628339232118, -0.122692735593368, 0.307349556747308, -1.23158241939011, -1.20475675490892, 1.16325649714418], a = 0.2, v = 0.2, t = 0.2)
movej(p[-0.444631124783332, -0.122679296799551, 0.307303112269432, -1.23142989991259, -1.2033710008391, 1.16336090515468], a = 0.2, v = 0.2, t = 0.2)
movej(p[-0.444610667794847, -0.122641122239157, 0.307261686377035, -1.2318501856184, -1.2033083710728, 1.16360332549446], a = 0.2, v = 0.2, t = 0.2)
movej(p[-0.444565013092587, -0.122614930209894, 0.307246125986146, -1.2319101211994, -1.20220296498898, 1.1639094361707], a = 0.2, v = 0.2, t = 0.2)
movej(p[-0.44459403081363, -0.12259480340774, 0.30722525031369, -1.2318650478598, -1.20140882175165, 1.16350086647837], a = 0.2, v = 0.2, t = 0.2)
movej(p[-0.444587202141895, -0.122591027053405, 0.307187463432497, -1.23213187688361, -1.20066350689067, 1.16272444176314], a = 0.2, v = 0.2, t = 0.2)
movej(p[-0.444595939546659, -0.122565041300375, 0.307192120512854, -1.23297812166254, -1.20144150151717, 1.16234564027137], a = 0.2, v = 0.2, t = 0.2)
movej(p[-0.444551234031027, -0.122542899854898, 0.307207601897297, -1.2333052444384, -1.20145693261082, 1.16197017604169], a = 0.2, v = 0.2, t = 0.2)
movej(p[-0.444570652063974, -0.122547832433171, 0.307236126968165, -1.23353522385909, -1.20345731891608, 1.16231648840471], a = 0.2, v = 0.2, t = 0.2)
movej(p[-0.444587205178107, -0.122551582405932, 0.307293056328927, -1.23322901786726, -1.20449034216759, 1.16197936986114], a = 0.2, v = 0.2, t = 0.2)
movej(p[-0.444584954911042, -0.122592056674636, 0.307317770492297, -1.23306898002367, -1.20489483179682, 1.16224524463325], a = 0.2, v = 0.2, t = 0.2)
movej(p[-0.444524145973772, -0.122625078706837, 0.307334468651997, -1.2319754087076, -1.2052389269871, 1.1623906936433], a = 0.2, v = 0.2, t = 0.2)
movej(p[-0.444511494145307, -0.12263924298873, 0.307344759150282, -1.23128592871315, -1.20499986831397, 1.16247331490345], a = 0.2, v = 0.2, t = 0.2)
movej(p[-0.444519532080346, -0.122653118493535, 0.307310066759665, -1.23111148160646, -1.20403953047216, 1.16248477740191], a = 0.2, v = 0.2, t = 0.2)
movej(p[-0.44449547303751, -0.122687903412458, 0.307296325512512, -1.23034211834573, -1.20386624443962, 1.16238569383011], a = 0.2, v = 0.2, t = 0.2)
movej(p[-0.444463324253013, -0.122705726589497, 0.307318413518661, -1.23019777571736, -1.20329054841526, 1.16249957769539], a = 0.2, v = 0.2, t = 0.2)
movej(p[-0.444513075583182, -0.122718966645722, 0.307305896088513, -1.23078839526816, -1.20373083178049, 1.16318243271406], a = 0.2, v = 0.2, t = 0.2)
movej(p[-0.444558295418508, -0.12272265649026, 0.307279604805919, -1.23094779826287, -1.20456316403944, 1.16404285557261], a = 0.2, v = 0.2, t = 0.2)
movej(p[-0.444559413059957, -0.122715823297451, 0.307246336978313, -1.23165373395475, -1.20508106130937, 1.16381558076009], a = 0.2, v = 0.2, t = 0.2)
movej(p[-0.444542061168498, -0.1227097988016, 0.307173248146659, -1.23150260645342, -1.20568194558758, 1.164206212459], a = 0.2, v = 0.2, t = 0.2)
movej(p[-0.444524659950749, -0.122666866466507, 0.307142197023904, -1.23212635345416, -1.20520163096661, 1.16404581263896], a = 0.2, v = 0.2, t = 0.2)
movej(p[-0.444575647540107, -0.122630975093377, 0.307131502863523, -1.23251394119664, -1.20572270453224, 1.16430919569877], a = 0.2, v = 0.2, t = 0.2)
movej(p[-0.4445325514655, -0.122580277582653, 0.307138559828866, -1.23224362651421, -1.2049212347203, 1.16445946520815], a = 0.2, v = 0.2, t = 0.2)
movej(p[-0.44452347672124, -0.1225528139561, 0.307189041392165, -1.23130932781823, -1.20582380723038, 1.16487364969014], a = 0.2, v = 0.2, t = 0.2)
movej(p[-0.444524167568654, -0.122551288140215, 0.30727147593963, -1.23070138732961, -1.20562786471411, 1.16476864858265], a = 0.2, v = 0.2, t = 0.2)
movej(p[-0.444573218578161, -0.122573379858813, 0.30732780767523, -1.23042503987865, -1.20596778654356, 1.16451114830223], a = 0.2, v = 0.2, t = 0.2)
movej(p[-0.444612355806252, -0.122561706740466, 0.307391396319542, -1.230378117979, -1.20646531827924, 1.16414440626848], a = 0.2, v = 0.2, t = 0.2)
movej(p[-0.444637355234525, -0.122579094809333, 0.307436334762407, -1.23095123779743, -1.20729636336788, 1.16274608406568], a = 0.2, v = 0.2, t = 0.2)
movej(p[-0.444634258779176, -0.122583440297488, 0.307424865294374, -1.2321028618884, -1.20743790404543, 1.16213691769722], a = 0.2, v = 0.2, t = 0.2)
movej(p[-0.444624026138295, -0.122601492785673, 0.307439347377474, -1.23253127924815, -1.20811336973822, 1.16156466111782], a = 0.2, v = 0.2, t = 0.2)
movej(p[-0.444627673605004, -0.122637689754522, 0.307412625936032, -1.23277536806334, -1.20798452712339, 1.16197995903879], a = 0.2, v = 0.2, t = 0.2)
movej(p[-0.444524027924862, -0.122661577884927, 0.307349465187036, -1.23257257232622, -1.20733470470696, 1.16261027858017], a = 0.2, v = 0.2, t = 0.2)
movej(p[-0.444508780199232, -0.122687335218504, 0.3073115743355, -1.23158101981543, -1.20696497972386, 1.16312940101898], a = 0.2, v = 0.2, t = 0.2)
movej(p[-0.444506413350141, -0.122704042817769, 0.307248322188088, -1.23085991110279, -1.20530350312883, 1.16289336692494], a = 0.2, v = 0.2, t = 0.2)
movej(p[-0.44452074052617, -0.122684977842152, 0.307175413829639, -1.23027269568329, -1.2045193033979, 1.16344194749436], a = 0.2, v = 0.2, t = 0.2)
movej(p[-0.444572700606186, -0.12267145839642, 0.307163739298735, -1.22993760728427, -1.20437187558032, 1.16398333252193], a = 0.2, v = 0.2, t = 0.2)
movej(p[-0.444621854284013, -0.12267995892299, 0.307163397240051, -1.2292577059232, -1.20467029451969, 1.16363538657844], a = 0.2, v = 0.2, t = 0.2)
movej(p[-0.444637685948442, -0.122652860105465, 0.307157668148485, -1.2302114273706, -1.20426630841189, 1.16308761204258], a = 0.2, v = 0.2, t = 0.2)
movej(p[-0.444623909999926, -0.122645853277465, 0.307176933080455, -1.23069170944299, -1.20514765386096, 1.1625409646301], a = 0.2, v = 0.2, t = 0.2)
movej(p[-0.444629819294656, -0.122646151999566, 0.307206380847788, -1.23233768542987, -1.20477209049595, 1.16252457277356], a = 0.2, v = 0.2, t = 0.2)
movej(p[-0.444552396016712, -0.122651133429521, 0.3072174488823, -1.23274081273695, -1.20504920666608, 1.16279475057263], a = 0.2, v = 0.2, t = 0.2)
movej(p[-0.444606883272906, -0.122680632194203, 0.307219624151156, -1.23262156452215, -1.20503666212203, 1.16270082435194], a = 0.2, v = 0.2, t = 0.2)
movej(p[-0.444597994252605, -0.122686243943691, 0.307225806673762, -1.2325666793858, -1.20484345957422, 1.16239348132887], a = 0.2, v = 0.2, t = 0.2)
movej(p[-0.444573239552843, -0.122682887345199, 0.30724993296826, -1.23244647397073, -1.20529314946023, 1.16290234620962], a = 0.2, v = 0.2, t = 0.2)
movej(p[-0.444605869001073, -0.122704304888954, 0.307280710686299, -1.2323615579925, -1.20582624715624, 1.16230296340701], a = 0.2, v = 0.2, t = 0.2)
movej(p[-0.444598447045976, -0.122737864972573, 0.307309746618694, -1.23105277496846, -1.2060443438518, 1.16215010864277], a = 0.2, v = 0.2, t = 0.2)
movej(p[-0.444538634559843, -0.122743043760843, 0.307276210717713, -1.23113528363983, -1.20526868713169, 1.16217077564303], a = 0.2, v = 0.2, t = 0.2)
movej(p[-0.444508250429098, -0.122767901274786, 0.307304773606213, -1.23187459048503, -1.20480470140945, 1.16066852585592], a = 0.2, v = 0.2, t = 0.2)
movej(p[-0.444470706173172, -0.122777497600264, 0.307279881852876, -1.23150186726691, -1.20413148091583, 1.16073348483063], a = 0.2, v = 0.2, t = 0.2)
movej(p[-0.444465658084796, -0.122758253556452, 0.30724922449517, -1.22963988261954, -1.20496215938285, 1.16229257643141], a = 0.2, v = 0.2, t = 0.2)
movej(p[-0.444458420050291, -0.12274450941514, 0.307213562618661, -1.22933759003669, -1.20490985861752, 1.16331151030944], a = 0.2, v = 0.2, t = 0.2)
movej(p[-0.444445596237931, -0.122724899929897, 0.307210234266958, -1.22978259273472, -1.20503538069356, 1.16360397177552], a = 0.2, v = 0.2, t = 0.2)
movej(p[-0.444495447927952, -0.122722066527537, 0.307217304686539, -1.22966574577669, -1.20590302434987, 1.1637135456813], a = 0.2, v = 0.2, t = 0.2)
movej(p[-0.444532407049045, -0.122717171431, 0.307215947705361, -1.23027592640568, -1.20646838329614, 1.16292775046857], a = 0.2, v = 0.2, t = 0.2)
movej(p[-0.444554340320397, -0.122732380420419, 0.307197867101148, -1.23021995318146, -1.2068445513779, 1.16349921674572], a = 0.2, v = 0.2, t = 0.2)
movej(p[-0.4445266582838, -0.122740589510079, 0.30715421282648, -1.23087635934324, -1.20621933064165, 1.16384620576439], a = 0.2, v = 0.2, t = 0.2)
movej(p[-0.444545013176322, -0.122754837423476, 0.307156449986363, -1.2317516051698, -1.2052227015382, 1.16256778286716], a = 0.2, v = 0.2, t = 0.2)
movej(p[-0.444573285328841, -0.122760261998951, 0.30714560981234, -1.23140268633295, -1.20521579665519, 1.16292241806007], a = 0.2, v = 0.2, t = 0.2)
movej(p[-0.444579233806035, -0.122750656712459, 0.307141954119453, -1.23106675360123, -1.20529097218424, 1.16367023734747], a = 0.2, v = 0.2, t = 0.2)
movej(p[-0.444563059181226, -0.122754314729814, 0.307169267493857, -1.23153178909558, -1.20471885434919, 1.16357873969482], a = 0.2, v = 0.2, t = 0.2)
movej(p[-0.444561001992636, -0.122767251836667, 0.307183983785556, -1.23208179646482, -1.20481918277473, 1.16272745984386], a = 0.2, v = 0.2, t = 0.2)
movej(p[-0.44456068532259, -0.122746172372717, 0.307185731904447, -1.23195047841533, -1.20433580450859, 1.16300293390729], a = 0.2, v = 0.2, t = 0.2)
movej(p[-0.444528412805143, -0.122728462172313, 0.307197721208817, -1.23167115048756, -1.20471949407572, 1.16316894142109], a = 0.2, v = 0.2, t = 0.2)
movej(p[-0.444515134732346, -0.122741499366287, 0.307171225466592, -1.230939786081, -1.20533408275093, 1.16370562866396], a = 0.2, v = 0.2, t = 0.2)
movej(p[-0.444530463775844, -0.122734845140543, 0.307167379468001, -1.23095927823742, -1.205033431566, 1.16359189902057], a = 0.2, v = 0.2, t = 0.2)
movej(p[-0.444561317020037, -0.122727636723215, 0.30713500222225, -1.23087139228655, -1.20410557251204, 1.16368327852175], a = 0.2, v = 0.2, t = 0.2)
movej(p[-0.444615576376825, -0.122731951272266, 0.307138869633195, -1.23182312894805, -1.20348613654127, 1.16326732800149], a = 0.2, v = 0.2, t = 0.2)
movej(p[-0.444647921444597, -0.1227470444226, 0.307150618394993, -1.23194629283883, -1.20451188260472, 1.16351534715535], a = 0.2, v = 0.2, t = 0.2)
movej(p[-0.444639457317707, -0.122776416598797, 0.307145315205248, -1.23220749768527, -1.20478731683547, 1.16309757441482], a = 0.2, v = 0.2, t = 0.2)
movej(p[-0.444627228259232, -0.122774892778989, 0.307149769203677, -1.23236843779846, -1.20477872585594, 1.16293649343157], a = 0.2, v = 0.2, t = 0.2)
movej(p[-0.444584818858455, -0.122758740787271, 0.307111096139547, -1.23262714377303, -1.20413988719833, 1.16340127257516], a = 0.2, v = 0.2, t = 0.2)
movej(p[-0.444535020133587, -0.122758004395414, 0.307131676827791, -1.23281758759282, -1.20433107896454, 1.16261922422915], a = 0.2, v = 0.2, t = 0.2)
movej(p[-0.444514906260118, -0.122757102666913, 0.307162151062478, -1.23261224384457, -1.20444034133564, 1.16155591080525], a = 0.2, v = 0.2, t = 0.2)
movej(p[-0.44454654332622, -0.12276552135956, 0.307191302420296, -1.23216422448319, -1.20495756628223, 1.16182103887374], a = 0.2, v = 0.2, t = 0.2)
movej(p[-0.444540947108462, -0.122787190398794, 0.307159096130763, -1.23160938926391, -1.20418127692876, 1.16117227904072], a = 0.2, v = 0.2, t = 0.2)
movej(p[-0.444548322018249, -0.122822477969457, 0.307189608063877, -1.23124331248015, -1.20400269482653, 1.1607197232044], a = 0.2, v = 0.2, t = 0.2)
movej(p[-0.444513392793793, -0.12284940227502, 0.307221973648205, -1.22964176813695, -1.20496516065086, 1.16141351485877], a = 0.2, v = 0.2, t = 0.2)
movej(p[-0.444528943637557, -0.122836929607456, 0.30721728709061, -1.22961246552373, -1.20550129927003, 1.16215682458991], a = 0.2, v = 0.2, t = 0.2)
movej(p[-0.444530296360728, -0.122822427910021, 0.307237223010742, -1.22942674708922, -1.20506474510474, 1.16264952303205], a = 0.2, v = 0.2, t = 0.2)
movej(p[-0.444484407132547, -0.122831313631718, 0.30722637392383, -1.22994239124049, -1.20532768752821, 1.16247282336972], a = 0.2, v = 0.2, t = 0.2)
movej(p[-0.444419994181551, -0.122804845113561, 0.307213131216756, -1.22972053984525, -1.20522979260097, 1.16232356251689], a = 0.2, v = 0.2, t = 0.2)
movej(p[-0.444435193253959, -0.122770608121432, 0.30719479473487, -1.2298179400687, -1.20571455376597, 1.16241548220964], a = 0.2, v = 0.2, t = 0.2)
movej(p[-0.444456943871927, -0.122744668073046, 0.307173683730448, -1.23016758477075, -1.20567390696715, 1.16315560304061], a = 0.2, v = 0.2, t = 0.2)
movej(p[-0.444437591915566, -0.122769884613382, 0.307173227793534, -1.22996023799527, -1.20502368008985, 1.16215504359333], a = 0.2, v = 0.2, t = 0.2)
