def moving():
set_payload_mass(0)
set_tcp(p[0,0,0,0,0,0])
movej(p[0.4159, 0.2498, 0.318, -1.441, 0.759, -0.744], a = 0.2, v = 0.2, t = 0.2)
movej(p[0.415902194171599, 0.249799811841423, 0.318219749226976, -1.441, 0.759, -0.744], a = 0.2, v = 0.2, t = 0.2)
movej(p[0.415904388343198, 0.249799623682846, 0.318439498453951, -1.441, 0.759, -0.744], a = 0.2, v = 0.2, t = 0.2)
movej(p[0.415906582514796, 0.24979943552427, 0.318659247680927, -1.441, 0.759, -0.744], a = 0.2, v = 0.2, t = 0.2)
movej(p[0.415908776686395, 0.249799247365693, 0.318878996907902, -1.441, 0.759, -0.744], a = 0.2, v = 0.2, t = 0.2)
movej(p[0.415910970857994, 0.249799059207116, 0.319098746134878, -1.441, 0.759, -0.744], a = 0.2, v = 0.2, t = 0.2)
movej(p[0.415913165029593, 0.249798871048539, 0.319318495361853, -1.441, 0.759, -0.744], a = 0.2, v = 0.2, t = 0.2)
movej(p[0.415915359201191, 0.249798682889962, 0.319538244588829, -1.441, 0.759, -0.744], a = 0.2, v = 0.2, t = 0.2)
movej(p[0.41591755337279, 0.249798494731385, 0.319757993815804, -1.441, 0.759, -0.744], a = 0.2, v = 0.2, t = 0.2)
movej(p[0.415919747544389, 0.249798306572809, 0.31997774304278, -1.441, 0.759, -0.744], a = 0.2, v = 0.2, t = 0.2)
movej(p[0.415921941715988, 0.249798118414232, 0.320197492269755, -1.441, 0.759, -0.744], a = 0.2, v = 0.2, t = 0.2)
movej(p[0.415916182468882, 0.24979861229162, 0.319620695951677, -1.441, 0.759, -0.744], a = 0.2, v = 0.2, t = 0.2)
movej(p[0.415912970999542, 0.249798887687355, 0.319299062992195, -1.441, 0.759, -0.744], a = 0.2, v = 0.2, t = 0.2)
movej(p[0.415910160283858, 0.249799128716937, 0.319017566048549, -1.441, 0.759, -0.744], a = 0.2, v = 0.2, t = 0.2)
movej(p[0.415909170186591, 0.249799213621551, 0.318918406480013, -1.441, 0.759, -0.744], a = 0.2, v = 0.2, t = 0.2)
movej(p[0.415908861914548, 0.249799240057054, 0.318887532621677, -1.441, 0.759, -0.744], a = 0.2, v = 0.2, t = 0.2)
movej(p[0.41590856270933, 0.249799265715042, 0.318857566817999, -1.441, 0.759, -0.744], a = 0.2, v = 0.2, t = 0.2)
movej(p[0.415907454743341, 0.249799360727348, 0.318746602538923, -1.441, 0.759, -0.744], a = 0.2, v = 0.2, t = 0.2)
movej(p[0.415908484734637, 0.249799272401669, 0.318849757547949, -1.441, 0.759, -0.744], a = 0.2, v = 0.2, t = 0.2)
movej(p[0.415915255839389, 0.249798691753631, 0.31952789276574, -1.441, 0.759, -0.744], a = 0.2, v = 0.2, t = 0.2)
movej(p[0.415924186661805, 0.249797925901572, 0.32042232660281, -1.441, 0.759, -0.744], a = 0.2, v = 0.2, t = 0.2)
movej(p[0.415933906297979, 0.249797092405728, 0.321395761195032, -1.441, 0.759, -0.744], a = 0.2, v = 0.2, t = 0.2)
movej(p[0.41594692081828, 0.249795976361012, 0.32269918284958, -1.441, 0.759, -0.744], a = 0.2, v = 0.2, t = 0.2)
movej(p[0.415957732100157, 0.249795049252388, 0.323781947222496, -1.441, 0.759, -0.744], a = 0.2, v = 0.2, t = 0.2)
movej(p[0.415960040513748, 0.249794851297125, 0.324013137938149, -1.441, 0.759, -0.744], a = 0.2, v = 0.2, t = 0.2)
movej(p[0.415948906452908, 0.249795806085275, 0.322898046819446, -1.441, 0.759, -0.744], a = 0.2, v = 0.2, t = 0.2)
movej(p[0.41593362522641, 0.249797116508686, 0.321367611500667, -1.441, 0.759, -0.744], a = 0.2, v = 0.2, t = 0.2)
movej(p[0.415922445831446, 0.24979807518441, 0.32024798010868, -1.441, 0.759, -0.744], a = 0.2, v = 0.2, t = 0.2)
movej(p[0.41591413699321, 0.249798787698955, 0.319415838821075, -1.441, 0.759, -0.744], a = 0.2, v = 0.2, t = 0.2)
movej(p[0.415911313583971, 0.249799029817057, 0.319133070600909, -1.441, 0.759, -0.744], a = 0.2, v = 0.2, t = 0.2)
movej(p[0.415910060548785, 0.2497991372696, 0.319007577447323, -1.441, 0.759, -0.744], a = 0.2, v = 0.2, t = 0.2)
movej(p[0.415908564522695, 0.249799265559539, 0.31885774842893, -1.441, 0.759, -0.744], a = 0.2, v = 0.2, t = 0.2)
movej(p[0.415908399506484, 0.249799279710308, 0.318841221834174, -1.441, 0.759, -0.744], a = 0.2, v = 0.2, t = 0.2)
movej(p[0.415911175768234, 0.249799041635282, 0.319119268170124, -1.441, 0.759, -0.744], a = 0.2, v = 0.2, t = 0.2)
movej(p[0.415919341350639, 0.249798341405471, 0.31993706219415, -1.441, 0.759, -0.744], a = 0.2, v = 0.2, t = 0.2)
movej(p[0.415929626756678, 0.249797459392704, 0.320967159396964, -1.441, 0.759, -0.744], a = 0.2, v = 0.2, t = 0.2)
movej(p[0.415941776301895, 0.249796417522898, 0.322183952637241, -1.441, 0.759, -0.744], a = 0.2, v = 0.2, t = 0.2)
movej(p[0.415953216821413, 0.249795436454749, 0.323329736003348, -1.441, 0.759, -0.744], a = 0.2, v = 0.2, t = 0.2)
movej(p[0.415959387702364, 0.249794907278189, 0.32394775800285, -1.441, 0.759, -0.744], a = 0.2, v = 0.2, t = 0.2)
movej(p[0.415954219612234, 0.249795350461614, 0.323430166848404, -1.441, 0.759, -0.744], a = 0.2, v = 0.2, t = 0.2)
movej(p[0.415940311103009, 0.249796543169287, 0.322037211004683, -1.441, 0.759, -0.744], a = 0.2, v = 0.2, t = 0.2)
movej(p[0.415926656464878, 0.249797714106546, 0.320669680691356, -1.441, 0.759, -0.744], a = 0.2, v = 0.2, t = 0.2)
movej(p[0.41591628401732, 0.249798603583455, 0.319630866163835, -1.441, 0.759, -0.744], a = 0.2, v = 0.2, t = 0.2)
movej(p[0.415912376215836, 0.249798938692325, 0.319239494606701, -1.441, 0.759, -0.744], a = 0.2, v = 0.2, t = 0.2)
movej(p[0.415910341620354, 0.249799113166642, 0.319035727141687, -1.441, 0.759, -0.744], a = 0.2, v = 0.2, t = 0.2)
movej(p[0.415909146612847, 0.24979921564309, 0.318916045537905, -1.441, 0.759, -0.744], a = 0.2, v = 0.2, t = 0.2)
movej(p[0.415908180089324, 0.249799298526165, 0.318819246911477, -1.441, 0.759, -0.744], a = 0.2, v = 0.2, t = 0.2)
movej(p[0.415909003357015, 0.249799227927823, 0.318901698274325, -1.441, 0.759, -0.744], a = 0.2, v = 0.2, t = 0.2)
movej(p[0.415914827885259, 0.249798728452328, 0.319485032585933, -1.441, 0.759, -0.744], a = 0.2, v = 0.2, t = 0.2)
movej(p[0.41592355198407, 0.249797980327607, 0.320358762776825, -1.441, 0.759, -0.744], a = 0.2, v = 0.2, t = 0.2)
movej(p[0.415936695253283, 0.249796853242181, 0.321675078807501, -1.441, 0.759, -0.744], a = 0.2, v = 0.2, t = 0.2)
movej(p[0.415948233694509, 0.249795863776872, 0.322830669163903, -1.441, 0.759, -0.744], a = 0.2, v = 0.2, t = 0.2)
movej(p[0.415956538906015, 0.249795151573333, 0.323662447229645, -1.441, 0.759, -0.744], a = 0.2, v = 0.2, t = 0.2)
movej(p[0.415959701414501, 0.249794880376178, 0.32397917669398, -1.441, 0.759, -0.744], a = 0.2, v = 0.2, t = 0.2)
movej(p[0.415952266618175, 0.249795517938298, 0.323234571875302, -1.441, 0.759, -0.744], a = 0.2, v = 0.2, t = 0.2)
movej(p[0.415936285432803, 0.249796888385849, 0.321634034737009, -1.441, 0.759, -0.744], a = 0.2, v = 0.2, t = 0.2)
movej(p[0.415922259054855, 0.249798091201214, 0.320229274182748, -1.441, 0.759, -0.744], a = 0.2, v = 0.2, t = 0.2)
movej(p[0.415915843369635, 0.249798641370673, 0.319586734707508, -1.441, 0.759, -0.744], a = 0.2, v = 0.2, t = 0.2)
movej(p[0.415912133224932, 0.249798959529721, 0.319215158741895, -1.441, 0.759, -0.744], a = 0.2, v = 0.2, t = 0.2)
movej(p[0.415909888279114, 0.249799152042381, 0.318990324408841, -1.441, 0.759, -0.744], a = 0.2, v = 0.2, t = 0.2)
movej(p[0.415908631617198, 0.249799259805929, 0.318864468033391, -1.441, 0.759, -0.744], a = 0.2, v = 0.2, t = 0.2)
movej(p[0.415908424893593, 0.249799277533266, 0.318843764387213, -1.441, 0.759, -0.744], a = 0.2, v = 0.2, t = 0.2)
movej(p[0.415910945470884, 0.249799061384157, 0.319096203581838, -1.441, 0.759, -0.744], a = 0.2, v = 0.2, t = 0.2)
movej(p[0.415919065719165, 0.24979836504192, 0.319909457332579, -1.441, 0.759, -0.744], a = 0.2, v = 0.2, t = 0.2)
movej(p[0.415932152774064, 0.249797242777086, 0.321220143424383, -1.441, 0.759, -0.744], a = 0.2, v = 0.2, t = 0.2)
movej(p[0.415944853582228, 0.249796153634382, 0.322492146387801, -1.441, 0.759, -0.744], a = 0.2, v = 0.2, t = 0.2)
movej(p[0.415953066312121, 0.249795449361494, 0.323314662296043, -1.441, 0.759, -0.744], a = 0.2, v = 0.2, t = 0.2)
movej(p[0.415960700578593, 0.249794794694049, 0.324079244317173, -1.441, 0.759, -0.744], a = 0.2, v = 0.2, t = 0.2)
movej(p[0.415958276109645, 0.249795002601501, 0.323836430501911, -1.441, 0.759, -0.744], a = 0.2, v = 0.2, t = 0.2)
movej(p[0.415941955825026, 0.249796402128106, 0.322201932119449, -1.441, 0.759, -0.744], a = 0.2, v = 0.2, t = 0.2)
movej(p[0.415925349028743, 0.249797826224177, 0.320538739209827, -1.441, 0.759, -0.744], a = 0.2, v = 0.2, t = 0.2)
movej(p[0.415917096404821, 0.24979853391813, 0.319712227861095, -1.441, 0.759, -0.744], a = 0.2, v = 0.2, t = 0.2)
movej(p[0.415912947425798, 0.249798889708894, 0.319296702050087, -1.441, 0.759, -0.744], a = 0.2, v = 0.2, t = 0.2)
movej(p[0.415909754090107, 0.249799163549599, 0.318976885199919, -1.441, 0.759, -0.744], a = 0.2, v = 0.2, t = 0.2)
movej(p[0.415908901808577, 0.249799236635989, 0.318891528062168, -1.441, 0.759, -0.744], a = 0.2, v = 0.2, t = 0.2)
movej(p[0.415908687831512, 0.249799254985338, 0.318870097972264, -1.441, 0.759, -0.744], a = 0.2, v = 0.2, t = 0.2)
movej(p[0.415910735120549, 0.2497990794225, 0.319075136713798, -1.441, 0.759, -0.744], a = 0.2, v = 0.2, t = 0.2)
movej(p[0.415917446384258, 0.24979850390606, 0.319747278770853, -1.441, 0.759, -0.744], a = 0.2, v = 0.2, t = 0.2)
movej(p[0.415929383765774, 0.2497974802301, 0.320942823532158, -1.441, 0.759, -0.744], a = 0.2, v = 0.2, t = 0.2)
movej(p[0.415940913140175, 0.249796491542305, 0.322097505833902, -1.441, 0.759, -0.744], a = 0.2, v = 0.2, t = 0.2)
movej(p[0.415950119594065, 0.249795702053798, 0.323019544532543, -1.441, 0.759, -0.744], a = 0.2, v = 0.2, t = 0.2)
movej(p[0.415958950681409, 0.249794944754401, 0.323903989768386, -1.441, 0.759, -0.744], a = 0.2, v = 0.2, t = 0.2)
movej(p[0.415959367755349, 0.249794908988722, 0.323945760282605, -1.441, 0.759, -0.744], a = 0.2, v = 0.2, t = 0.2)
movej(p[0.415946106617414, 0.249796046181839, 0.322617639541388, -1.441, 0.759, -0.744], a = 0.2, v = 0.2, t = 0.2)
movej(p[0.415929079120461, 0.249797506354597, 0.320912312895686, -1.441, 0.759, -0.744], a = 0.2, v = 0.2, t = 0.2)
movej(p[0.41591906027907, 0.249798365508429, 0.319908912499785, -1.441, 0.759, -0.744], a = 0.2, v = 0.2, t = 0.2)
movej(p[0.415913442474431, 0.249798847256587, 0.319346281834355, -1.441, 0.759, -0.744], a = 0.2, v = 0.2, t = 0.2)
movej(p[0.415909647101575, 0.249799172724274, 0.318966170154967, -1.441, 0.759, -0.744], a = 0.2, v = 0.2, t = 0.2)
movej(p[0.415908899995212, 0.249799236791492, 0.318891346451236, -1.441, 0.759, -0.744], a = 0.2, v = 0.2, t = 0.2)
movej(p[0.415908845594264, 0.24979924145658, 0.318885898123295, -1.441, 0.759, -0.744], a = 0.2, v = 0.2, t = 0.2)
movej(p[0.415910046041865, 0.249799138513623, 0.319006124559871, -1.441, 0.759, -0.744], a = 0.2, v = 0.2, t = 0.2)
movej(p[0.41591693864207, 0.249798547446887, 0.319696427710065, -1.441, 0.759, -0.744], a = 0.2, v = 0.2, t = 0.2)
movej(p[0.415928681993535, 0.249797540409744, 0.320872540101712, -1.441, 0.759, -0.744], a = 0.2, v = 0.2, t = 0.2)
movej(p[0.415939489648683, 0.249796613612126, 0.321954941252765, -1.441, 0.759, -0.744], a = 0.2, v = 0.2, t = 0.2)
movej(p[0.415948770450537, 0.249795817747997, 0.322884425999592, -1.441, 0.759, -0.744], a = 0.2, v = 0.2, t = 0.2)
movej(p[0.415957893489639, 0.249795035412625, 0.323798110595389, -1.441, 0.759, -0.744], a = 0.2, v = 0.2, t = 0.2)
movej(p[0.415960152942376, 0.249794841655942, 0.324024397815894, -1.441, 0.759, -0.744], a = 0.2, v = 0.2, t = 0.2)
movej(p[0.415947156555724, 0.249795956145628, 0.32272279227066, -1.441, 0.759, -0.744], a = 0.2, v = 0.2, t = 0.2)
movej(p[0.415932388511509, 0.249797222561702, 0.321243752845463, -1.441, 0.759, -0.744], a = 0.2, v = 0.2, t = 0.2)
movej(p[0.415921323358537, 0.24979817144074, 0.320135562942153, -1.441, 0.759, -0.744], a = 0.2, v = 0.2, t = 0.2)
movej(p[0.41591437091729, 0.249798767639073, 0.319439266631224, -1.441, 0.759, -0.744], a = 0.2, v = 0.2, t = 0.2)
movej(p[0.415909813931151, 0.249799158418002, 0.318982878360654, -1.441, 0.759, -0.744], a = 0.2, v = 0.2, t = 0.2)
movej(p[0.415908892741752, 0.249799237413504, 0.318890620007511, -1.441, 0.759, -0.744], a = 0.2, v = 0.2, t = 0.2)
movej(p[0.415908475667812, 0.249799273179183, 0.318848849493292, -1.441, 0.759, -0.744], a = 0.2, v = 0.2, t = 0.2)
movej(p[0.415907833736617, 0.24979932822723, 0.318784559223582, -1.441, 0.759, -0.744], a = 0.2, v = 0.2, t = 0.2)
movej(p[0.415910154843763, 0.249799129183446, 0.319017021215755, -1.441, 0.759, -0.744], a = 0.2, v = 0.2, t = 0.2)
movej(p[0.415920057629797, 0.249798279981803, 0.320008798512047, -1.441, 0.759, -0.744], a = 0.2, v = 0.2, t = 0.2)
movej(p[0.415931224331206, 0.2497973223946, 0.321127158627514, -1.441, 0.759, -0.744], a = 0.2, v = 0.2, t = 0.2)
movej(p[0.415940836978847, 0.24979649807343, 0.322089878174784, -1.441, 0.759, -0.744], a = 0.2, v = 0.2, t = 0.2)
movej(p[0.415952788867283, 0.249795473153446, 0.323286875823541, -1.441, 0.759, -0.744], a = 0.2, v = 0.2, t = 0.2)
movej(p[0.415961193813862, 0.249794752397245, 0.324128642490509, -1.441, 0.759, -0.744], a = 0.2, v = 0.2, t = 0.2)
movej(p[0.415956664028197, 0.249795140843629, 0.32367497838391, -1.441, 0.759, -0.744], a = 0.2, v = 0.2, t = 0.2)
movej(p[0.415942010225974, 0.249796397463017, 0.32220738044739, -1.441, 0.759, -0.744], a = 0.2, v = 0.2, t = 0.2)
movej(p[0.415928362841303, 0.249797567778264, 0.320840576577789, -1.441, 0.759, -0.744], a = 0.2, v = 0.2, t = 0.2)
movej(p[0.415918452801809, 0.249798417601919, 0.319848072837771, -1.441, 0.759, -0.744], a = 0.2, v = 0.2, t = 0.2)
movej(p[0.415911810445969, 0.249798987209247, 0.319182831996109, -1.441, 0.759, -0.744], a = 0.2, v = 0.2, t = 0.2)
movej(p[0.415909881025654, 0.249799152664392, 0.318989597965115, -1.441, 0.759, -0.744], a = 0.2, v = 0.2, t = 0.2)
movej(p[0.415909028744124, 0.249799225750782, 0.318904240827365, -1.441, 0.759, -0.744], a = 0.2, v = 0.2, t = 0.2)
movej(p[0.41590769592088, 0.249799340045455, 0.318770756792797, -1.441, 0.759, -0.744], a = 0.2, v = 0.2, t = 0.2)
movej(p[0.415907686854056, 0.249799340822969, 0.31876984873814, -1.441, 0.759, -0.744], a = 0.2, v = 0.2, t = 0.2)
movej(p[0.415910029721581, 0.24979913991315, 0.319004490061489, -1.441, 0.759, -0.744], a = 0.2, v = 0.2, t = 0.2)
movej(p[0.415917916045782, 0.249798463630794, 0.319794316002081, -1.441, 0.759, -0.744], a = 0.2, v = 0.2, t = 0.2)
movej(p[0.41592636451312, 0.249797739142522, 0.320640441331403, -1.441, 0.759, -0.744], a = 0.2, v = 0.2, t = 0.2)
movej(p[0.415937721617849, 0.249796765227508, 0.321777870594665, -1.441, 0.759, -0.744], a = 0.2, v = 0.2, t = 0.2)
movej(p[0.4159477477127, 0.249795905451664, 0.322781997434291, -1.441, 0.759, -0.744], a = 0.2, v = 0.2, t = 0.2)
movej(p[0.415952540436283, 0.249795494457351, 0.323261995125941, -1.441, 0.759, -0.744], a = 0.2, v = 0.2, t = 0.2)
movej(p[0.415946565398748, 0.249796006839591, 0.322663587107029, -1.441, 0.759, -0.744], a = 0.2, v = 0.2, t = 0.2)
movej(p[0.415932934334361, 0.249797175755312, 0.32129841773581, -1.441, 0.759, -0.744], a = 0.2, v = 0.2, t = 0.2)
movej(p[0.415921952596178, 0.249798117481214, 0.320198581935344, -1.441, 0.759, -0.744], a = 0.2, v = 0.2, t = 0.2)
movej(p[0.41591348962192, 0.24979884321351, 0.319351003718571, -1.441, 0.759, -0.744], a = 0.2, v = 0.2, t = 0.2)
movej(p[0.415910804028418, 0.249799073513388, 0.31908203792919, -1.441, 0.759, -0.744], a = 0.2, v = 0.2, t = 0.2)
movej(p[0.415909347896357, 0.249799198382262, 0.318936204351288, -1.441, 0.759, -0.744], a = 0.2, v = 0.2, t = 0.2)
movej(p[0.415907839176712, 0.249799327760721, 0.318785104056376, -1.441, 0.759, -0.744], a = 0.2, v = 0.2, t = 0.2)
movej(p[0.415907670533771, 0.249799342222496, 0.318768214239757, -1.441, 0.759, -0.744], a = 0.2, v = 0.2, t = 0.2)
movej(p[0.415907683227326, 0.249799341133975, 0.318769485516277, -1.441, 0.759, -0.744], a = 0.2, v = 0.2, t = 0.2)
movej(p[0.415909870145465, 0.24979915359741, 0.318988508299527, -1.441, 0.759, -0.744], a = 0.2, v = 0.2, t = 0.2)
movej(p[0.415916574155713, 0.249798578702982, 0.319659923912856, -1.441, 0.759, -0.744], a = 0.2, v = 0.2, t = 0.2)
movej(p[0.415926603877294, 0.249797718616132, 0.320664413974345, -1.441, 0.759, -0.744], a = 0.2, v = 0.2, t = 0.2)
movej(p[0.415936247352139, 0.249796891651411, 0.321630220907449, -1.441, 0.759, -0.744], a = 0.2, v = 0.2, t = 0.2)
movej(p[0.415943580600028, 0.249796262797457, 0.322364655513969, -1.441, 0.759, -0.744], a = 0.2, v = 0.2, t = 0.2)
movej(p[0.415951784263096, 0.249795559302084, 0.323186263367554, -1.441, 0.759, -0.744], a = 0.2, v = 0.2, t = 0.2)
movej(p[0.415951898505089, 0.249795549505398, 0.323197704856231, -1.441, 0.759, -0.744], a = 0.2, v = 0.2, t = 0.2)
movej(p[0.415939904909258, 0.249796578001949, 0.321996530156052, -1.441, 0.759, -0.744], a = 0.2, v = 0.2, t = 0.2)
movej(p[0.415926235764208, 0.249797750183232, 0.320627546955274, -1.441, 0.759, -0.744], a = 0.2, v = 0.2, t = 0.2)
movej(p[0.415917789110235, 0.249798474516001, 0.319781603236884, -1.441, 0.759, -0.744], a = 0.2, v = 0.2, t = 0.2)
movej(p[0.415912960119352, 0.249798888620373, 0.319297973326607, -1.441, 0.759, -0.744], a = 0.2, v = 0.2, t = 0.2)
movej(p[0.415909362403276, 0.249799197138238, 0.318937657238739, -1.441, 0.759, -0.744], a = 0.2, v = 0.2, t = 0.2)
movej(p[0.415908268944207, 0.24979929090652, 0.318828145847114, -1.441, 0.759, -0.744], a = 0.2, v = 0.2, t = 0.2)
movej(p[0.415907735814909, 0.249799336624389, 0.318774752233287, -1.441, 0.759, -0.744], a = 0.2, v = 0.2, t = 0.2)
movej(p[0.415907500077465, 0.249799356839774, 0.318751142812207, -1.441, 0.759, -0.744], a = 0.2, v = 0.2, t = 0.2)
movej(p[0.415906270616024, 0.249799462270778, 0.318628010600728, -1.441, 0.759, -0.744], a = 0.2, v = 0.2, t = 0.2)
movej(p[0.415906292376403, 0.249799460404742, 0.318630189931905, -1.441, 0.759, -0.744], a = 0.2, v = 0.2, t = 0.2)
movej(p[0.415909112158912, 0.249799218597646, 0.318912594930208, -1.441, 0.759, -0.744], a = 0.2, v = 0.2, t = 0.2)
movej(p[0.415915302986878, 0.249798687710554, 0.319532614649956, -1.441, 0.759, -0.744], a = 0.2, v = 0.2, t = 0.2)
movej(p[0.415922969893919, 0.249798030244056, 0.32030046566785, -1.441, 0.759, -0.744], a = 0.2, v = 0.2, t = 0.2)
movej(p[0.415932551714355, 0.249797208566436, 0.321260097829287, -1.441, 0.759, -0.744], a = 0.2, v = 0.2, t = 0.2)
movej(p[0.415940599428037, 0.249796518444317, 0.322066087142773, -1.441, 0.759, -0.744], a = 0.2, v = 0.2, t = 0.2)
movej(p[0.415947339705585, 0.249795940439829, 0.32274113497473, -1.441, 0.759, -0.744], a = 0.2, v = 0.2, t = 0.2)
movej(p[0.415951813276935, 0.249795556814037, 0.323189169142456, -1.441, 0.759, -0.744], a = 0.2, v = 0.2, t = 0.2)
movej(p[0.415943118191963, 0.249796302450711, 0.322318344726466, -1.441, 0.759, -0.744], a = 0.2, v = 0.2, t = 0.2)
movej(p[0.415929559662175, 0.249797465146313, 0.320960439792503, -1.441, 0.759, -0.744], a = 0.2, v = 0.2, t = 0.2)
movej(p[0.415917711135542, 0.249798481202628, 0.319773793966835, -1.441, 0.759, -0.744], a = 0.2, v = 0.2, t = 0.2)
movej(p[0.415912669980959, 0.249798913500846, 0.319268915577585, -1.441, 0.759, -0.744], a = 0.2, v = 0.2, t = 0.2)
movej(p[0.415909844758355, 0.249799155774452, 0.318985965746488, -1.441, 0.759, -0.744], a = 0.2, v = 0.2, t = 0.2)
movej(p[0.415907777522303, 0.249799333047821, 0.318778929284709, -1.441, 0.759, -0.744], a = 0.2, v = 0.2, t = 0.2)
movej(p[0.415907233512816, 0.249799379698708, 0.318724446005294, -1.441, 0.759, -0.744], a = 0.2, v = 0.2, t = 0.2)
movej(p[0.415906927054138, 0.249799405978708, 0.31869375375789, -1.441, 0.759, -0.744], a = 0.2, v = 0.2, t = 0.2)
movej(p[0.415906939747693, 0.249799404890187, 0.318695025034409, -1.441, 0.759, -0.744], a = 0.2, v = 0.2, t = 0.2)
movej(p[0.415906091092893, 0.249799477665571, 0.318610031118521, -1.441, 0.759, -0.744], a = 0.2, v = 0.2, t = 0.2)
movej(p[0.415907594372443, 0.24979934875362, 0.318760586580639, -1.441, 0.759, -0.744], a = 0.2, v = 0.2, t = 0.2)
movej(p[0.415914711829902, 0.249798738404518, 0.319473409486324, -1.441, 0.759, -0.744], a = 0.2, v = 0.2, t = 0.2)
movej(p[0.41592247303192, 0.249798072851866, 0.320250704272651, -1.441, 0.759, -0.744], a = 0.2, v = 0.2, t = 0.2)
movej(p[0.415931597884387, 0.249797290360991, 0.321164570479379, -1.441, 0.759, -0.744], a = 0.2, v = 0.2, t = 0.2)
movej(p[0.415941832516208, 0.249796412702307, 0.322189582576114, -1.441, 0.759, -0.744], a = 0.2, v = 0.2, t = 0.2)
movej(p[0.415949597344957, 0.249795746838649, 0.322967240584304, -1.441, 0.759, -0.744], a = 0.2, v = 0.2, t = 0.2)
movej(p[0.41595012503416, 0.249795701587289, 0.323020089365337, -1.441, 0.759, -0.744], a = 0.2, v = 0.2, t = 0.2)
movej(p[0.415939190443465, 0.249796639270114, 0.321924975449087, -1.441, 0.759, -0.744], a = 0.2, v = 0.2, t = 0.2)
movej(p[0.415927470665744, 0.249797644285719, 0.320751223999547, -1.441, 0.759, -0.744], a = 0.2, v = 0.2, t = 0.2)
movej(p[0.415918235198014, 0.249798436262274, 0.319826279526005, -1.441, 0.759, -0.744], a = 0.2, v = 0.2, t = 0.2)
movej(p[0.415911873913743, 0.249798981766644, 0.319189188378707, -1.441, 0.759, -0.744], a = 0.2, v = 0.2, t = 0.2)
movej(p[0.415909427684415, 0.249799191540131, 0.318944195232269, -1.441, 0.759, -0.744], a = 0.2, v = 0.2, t = 0.2)
movej(p[0.415908247183827, 0.249799292772556, 0.318825966515938, -1.441, 0.759, -0.744], a = 0.2, v = 0.2, t = 0.2)
movej(p[0.415906595208351, 0.249799434435749, 0.318660518957446, -1.441, 0.759, -0.744], a = 0.2, v = 0.2, t = 0.2)
movej(p[0.415906669556314, 0.249799428060128, 0.318667965005633, -1.441, 0.759, -0.744], a = 0.2, v = 0.2, t = 0.2)
movej(p[0.415906537180672, 0.249799439411843, 0.318654707407642, -1.441, 0.759, -0.744], a = 0.2, v = 0.2, t = 0.2)
movej(p[0.415906999588737, 0.24979939975859, 0.318701018195145, -1.441, 0.759, -0.744], a = 0.2, v = 0.2, t = 0.2)
movej(p[0.415911714337627, 0.249798995450904, 0.319173206616745, -1.441, 0.759, -0.744], a = 0.2, v = 0.2, t = 0.2)
movej(p[0.415920806549524, 0.249798215759082, 0.320083803826708, -1.441, 0.759, -0.744], a = 0.2, v = 0.2, t = 0.2)
movej(p[0.415929721051656, 0.24979745130655, 0.320976603165396, -1.441, 0.759, -0.744], a = 0.2, v = 0.2, t = 0.2)
movej(p[0.415936488529678, 0.249796870969518, 0.321654375161324, -1.441, 0.759, -0.744], a = 0.2, v = 0.2, t = 0.2)
movej(p[0.415946525504719, 0.249796010260656, 0.322659591666538, -1.441, 0.759, -0.744], a = 0.2, v = 0.2, t = 0.2)
movej(p[0.415955336645048, 0.249795254671793, 0.323542039182137, -1.441, 0.759, -0.744], a = 0.2, v = 0.2, t = 0.2)
movej(p[0.415950725257961, 0.24979565011581, 0.323080202583625, -1.441, 0.759, -0.744], a = 0.2, v = 0.2, t = 0.2)
movej(p[0.415935732356491, 0.249796935814251, 0.321578643402936, -1.441, 0.759, -0.744], a = 0.2, v = 0.2, t = 0.2)
movej(p[0.415925077024, 0.249797849549621, 0.320511497570119, -1.441, 0.759, -0.744], a = 0.2, v = 0.2, t = 0.2)
movej(p[0.415916367432108, 0.249798596430319, 0.319639220266679, -1.441, 0.759, -0.744], a = 0.2, v = 0.2, t = 0.2)
movej(p[0.415910091375989, 0.24979913462605, 0.319010664833156, -1.441, 0.759, -0.744], a = 0.2, v = 0.2, t = 0.2)
movej(p[0.415908546389046, 0.249799267114568, 0.318855932319616, -1.441, 0.759, -0.744], a = 0.2, v = 0.2, t = 0.2)
movej(p[0.415907690480785, 0.249799340511963, 0.318770211960003, -1.441, 0.759, -0.744], a = 0.2, v = 0.2, t = 0.2)
movej(p[0.415907235326181, 0.249799379543205, 0.318724627616225, -1.441, 0.759, -0.744], a = 0.2, v = 0.2, t = 0.2)
movej(p[0.415906183574506, 0.24979946973492, 0.318619293276022, -1.441, 0.759, -0.744], a = 0.2, v = 0.2, t = 0.2)
movej(p[0.415906292376403, 0.249799460404742, 0.318630189931905, -1.441, 0.759, -0.744], a = 0.2, v = 0.2, t = 0.2)
movej(p[0.415906963321437, 0.249799402868649, 0.318697385976517, -1.441, 0.759, -0.744], a = 0.2, v = 0.2, t = 0.2)
movej(p[0.415911496733832, 0.249799014111259, 0.319151413304979, -1.441, 0.759, -0.744], a = 0.2, v = 0.2, t = 0.2)
movej(p[0.41592012109757, 0.2497982745392, 0.320015154894645, -1.441, 0.759, -0.744], a = 0.2, v = 0.2, t = 0.2)
movej(p[0.415929318484636, 0.249797485828206, 0.320936285538628, -1.441, 0.759, -0.744], a = 0.2, v = 0.2, t = 0.2)
movej(p[0.415937090566844, 0.249796819342537, 0.321714669990543, -1.441, 0.759, -0.744], a = 0.2, v = 0.2, t = 0.2)
movej(p[0.415943814524107, 0.249796242737576, 0.322388083324118, -1.441, 0.759, -0.744], a = 0.2, v = 0.2, t = 0.2)
movej(p[0.415950484080422, 0.249795670797703, 0.323056048329751, -1.441, 0.759, -0.744], a = 0.2, v = 0.2, t = 0.2)
movej(p[0.415946790256003, 0.249795987557225, 0.32268610686252, -1.441, 0.759, -0.744], a = 0.2, v = 0.2, t = 0.2)
movej(p[0.415932325043735, 0.249797228004305, 0.321237396462864, -1.441, 0.759, -0.744], a = 0.2, v = 0.2, t = 0.2)
movej(p[0.415921967103097, 0.24979811623719, 0.320200034822795, -1.441, 0.759, -0.744], a = 0.2, v = 0.2, t = 0.2)
movej(p[0.415914548627055, 0.249798752399784, 0.3194570645025, -1.441, 0.759, -0.744], a = 0.2, v = 0.2, t = 0.2)
movej(p[0.415910941844155, 0.249799061695163, 0.319095840359976, -1.441, 0.759, -0.744], a = 0.2, v = 0.2, t = 0.2)
movej(p[0.41590750914429, 0.249799356062259, 0.318752050866864, -1.441, 0.759, -0.744], a = 0.2, v = 0.2, t = 0.2)
movej(p[0.41590687265319, 0.249799410643797, 0.318688305429948, -1.441, 0.759, -0.744], a = 0.2, v = 0.2, t = 0.2)
movej(p[0.415906689503329, 0.249799426349595, 0.318669962725878, -1.441, 0.759, -0.744], a = 0.2, v = 0.2, t = 0.2)
movej(p[0.415905472735442, 0.249799530692079, 0.318548101790919, -1.441, 0.759, -0.744], a = 0.2, v = 0.2, t = 0.2)
movej(p[0.415905565217055, 0.249799522761428, 0.31855736394842, -1.441, 0.759, -0.744], a = 0.2, v = 0.2, t = 0.2)
movej(p[0.41590580458123, 0.249799502235038, 0.318581336591363, -1.441, 0.759, -0.744], a = 0.2, v = 0.2, t = 0.2)
movej(p[0.415910521143484, 0.249799097771849, 0.319053706623894, -1.441, 0.759, -0.744], a = 0.2, v = 0.2, t = 0.2)
movej(p[0.415917252354207, 0.249798520544876, 0.319727846401194, -1.441, 0.759, -0.744], a = 0.2, v = 0.2, t = 0.2)
movej(p[0.415926427980893, 0.249797733699918, 0.320646797714001, -1.441, 0.759, -0.744], a = 0.2, v = 0.2, t = 0.2)
movej(p[0.415935734169856, 0.249796935658748, 0.321578825013868, -1.441, 0.759, -0.744], a = 0.2, v = 0.2, t = 0.2)
movej(p[0.415941854276588, 0.249796410836271, 0.322191761907291, -1.441, 0.759, -0.744], a = 0.2, v = 0.2, t = 0.2)
movej(p[0.415948123079247, 0.249795873262552, 0.322819590897088, -1.441, 0.759, -0.744], a = 0.2, v = 0.2, t = 0.2)
movej(p[0.415948973547412, 0.249795800331666, 0.322904766423908, -1.441, 0.759, -0.744], a = 0.2, v = 0.2, t = 0.2)
movej(p[0.415935810331184, 0.249796929127624, 0.321586452672986, -1.441, 0.759, -0.744], a = 0.2, v = 0.2, t = 0.2)
movej(p[0.415922812131168, 0.249798043772813, 0.32028466551682, -1.441, 0.759, -0.744], a = 0.2, v = 0.2, t = 0.2)
movej(p[0.415915598565366, 0.249798662363572, 0.319562217231771, -1.441, 0.759, -0.744], a = 0.2, v = 0.2, t = 0.2)
movej(p[0.415911215662263, 0.249799038214217, 0.319123263610615, -1.441, 0.759, -0.744], a = 0.2, v = 0.2, t = 0.2)
movej(p[0.415909026930759, 0.249799225906285, 0.318904059216433, -1.441, 0.759, -0.744], a = 0.2, v = 0.2, t = 0.2)
movej(p[0.415906671369679, 0.249799427904625, 0.318668146616564, -1.441, 0.759, -0.744], a = 0.2, v = 0.2, t = 0.2)
movej(p[0.415906468272804, 0.249799445320956, 0.318647806192249, -1.441, 0.759, -0.744], a = 0.2, v = 0.2, t = 0.2)
movej(p[0.415906502726738, 0.2497994423664, 0.318651256799946, -1.441, 0.759, -0.744], a = 0.2, v = 0.2, t = 0.2)
movej(p[0.415905802767865, 0.249799502390541, 0.318581154980431, -1.441, 0.759, -0.744], a = 0.2, v = 0.2, t = 0.2)
movej(p[0.415910896510031, 0.249799065582737, 0.319091300086691, -1.441, 0.759, -0.744], a = 0.2, v = 0.2, t = 0.2)
movej(p[0.415919787438418, 0.249798303151744, 0.31998173848327, -1.441, 0.759, -0.744], a = 0.2, v = 0.2, t = 0.2)
movej(p[0.415929182482264, 0.249797497490928, 0.320922664718775, -1.441, 0.759, -0.744], a = 0.2, v = 0.2, t = 0.2)
movej(p[0.415937001711961, 0.249796826962182, 0.321705771054906, -1.441, 0.759, -0.744], a = 0.2, v = 0.2, t = 0.2)
movej(p[0.415946984286053, 0.249795970918409, 0.322705539232178, -1.441, 0.759, -0.744], a = 0.2, v = 0.2, t = 0.2)
movej(p[0.415954208732045, 0.249795351394632, 0.323429077182815, -1.441, 0.759, -0.744], a = 0.2, v = 0.2, t = 0.2)
movej(p[0.415947530108905, 0.249795924112019, 0.322760204122525, -1.441, 0.759, -0.744], a = 0.2, v = 0.2, t = 0.2)
movej(p[0.415933708641198, 0.24979710935555, 0.321375965603511, -1.441, 0.759, -0.744], a = 0.2, v = 0.2, t = 0.2)
movej(p[0.415922197400447, 0.249798096488315, 0.320223099411081, -1.441, 0.759, -0.744], a = 0.2, v = 0.2, t = 0.2)
movej(p[0.41591455406715, 0.249798751933275, 0.319457609335294, -1.441, 0.759, -0.744], a = 0.2, v = 0.2, t = 0.2)
movej(p[0.415909208267255, 0.249799210355989, 0.318922220309572, -1.441, 0.759, -0.744], a = 0.2, v = 0.2, t = 0.2)
movej(p[0.415907879070741, 0.249799324339656, 0.318789099496867, -1.441, 0.759, -0.744], a = 0.2, v = 0.2, t = 0.2)
movej(p[0.415907277033575, 0.249799375966637, 0.318728804667647, -1.441, 0.759, -0.744], a = 0.2, v = 0.2, t = 0.2)
movej(p[0.415906475526264, 0.249799444698944, 0.318648532635975, -1.441, 0.759, -0.744], a = 0.2, v = 0.2, t = 0.2)
movej(p[0.415905623244734, 0.249799517785333, 0.318563175498224, -1.441, 0.759, -0.744], a = 0.2, v = 0.2, t = 0.2)
movej(p[0.415905862608908, 0.249799497258943, 0.318587148141167, -1.441, 0.759, -0.744], a = 0.2, v = 0.2, t = 0.2)
movej(p[0.415910153030398, 0.249799129338949, 0.319016839604823, -1.441, 0.759, -0.744], a = 0.2, v = 0.2, t = 0.2)
movej(p[0.415918012154125, 0.249798455389137, 0.319803941381445, -1.441, 0.759, -0.744], a = 0.2, v = 0.2, t = 0.2)
movej(p[0.415928098090019, 0.249797590481696, 0.320814061381806, -1.441, 0.759, -0.744], a = 0.2, v = 0.2, t = 0.2)
movej(p[0.415938365362409, 0.249796710023959, 0.321842342475307, -1.441, 0.759, -0.744], a = 0.2, v = 0.2, t = 0.2)
movej(p[0.41594563695589, 0.249796086457105, 0.32257060231016, -1.441, 0.759, -0.744], a = 0.2, v = 0.2, t = 0.2)
movej(p[0.415951675461199, 0.249795568632261, 0.323175366711671, -1.441, 0.759, -0.744], a = 0.2, v = 0.2, t = 0.2)
movej(p[0.415950397038904, 0.249795678261845, 0.323047331005045, -1.441, 0.759, -0.744], a = 0.2, v = 0.2, t = 0.2)
movej(p[0.415935676142177, 0.249796940634843, 0.321573013464063, -1.441, 0.759, -0.744], a = 0.2, v = 0.2, t = 0.2)
movej(p[0.415921113008202, 0.249798189479083, 0.320114496074112, -1.441, 0.759, -0.744], a = 0.2, v = 0.2, t = 0.2)
movej(p[0.41591412248629, 0.249798788942978, 0.319414385933624, -1.441, 0.759, -0.744], a = 0.2, v = 0.2, t = 0.2)
movej(p[0.415910249138741, 0.249799121097292, 0.319026464984187, -1.441, 0.759, -0.744], a = 0.2, v = 0.2, t = 0.2)
movej(p[0.415907871817281, 0.249799324961668, 0.318788373053141, -1.441, 0.759, -0.744], a = 0.2, v = 0.2, t = 0.2)
movej(p[0.415906529927213, 0.249799440033855, 0.318653980963916, -1.441, 0.759, -0.744], a = 0.2, v = 0.2, t = 0.2)
movej(p[0.415906274242754, 0.249799461959772, 0.318628373822591, -1.441, 0.759, -0.744], a = 0.2, v = 0.2, t = 0.2)
movej(p[0.415906305069958, 0.249799459316222, 0.318631461208425, -1.441, 0.759, -0.744], a = 0.2, v = 0.2, t = 0.2)
movej(p[0.415905227931173, 0.249799551684978, 0.318523584315182, -1.441, 0.759, -0.744], a = 0.2, v = 0.2, t = 0.2)
movej(p[0.415906939747693, 0.249799404890187, 0.318695025034409, -1.441, 0.759, -0.744], a = 0.2, v = 0.2, t = 0.2)
movej(p[0.415913962910174, 0.249798802627238, 0.319398404171662, -1.441, 0.759, -0.744], a = 0.2, v = 0.2, t = 0.2)
movej(p[0.415920935298436, 0.249798204718372, 0.320096698202837, -1.441, 0.759, -0.744], a = 0.2, v = 0.2, t = 0.2)
movej(p[0.415929802653079, 0.249797444308917, 0.320984775657308, -1.441, 0.759, -0.744], a = 0.2, v = 0.2, t = 0.2)
movej(p[0.415939594823851, 0.249796604592954, 0.321965474686786, -1.441, 0.759, -0.744], a = 0.2, v = 0.2, t = 0.2)
movej(p[0.415947212770038, 0.249795951325036, 0.322728422209533, -1.441, 0.759, -0.744], a = 0.2, v = 0.2, t = 0.2)
movej(p[0.415951439723754, 0.249795588847645, 0.323151757290591, -1.441, 0.759, -0.744], a = 0.2, v = 0.2, t = 0.2)
movej(p[0.415944860835688, 0.24979615301237, 0.322492872831527, -1.441, 0.759, -0.744], a = 0.2, v = 0.2, t = 0.2)
movej(p[0.415932693156822, 0.249797196437205, 0.321274263481935, -1.441, 0.759, -0.744], a = 0.2, v = 0.2, t = 0.2)
movej(p[0.415920211765818, 0.249798266764052, 0.320024235441214, -1.441, 0.759, -0.744], a = 0.2, v = 0.2, t = 0.2)
movej(p[0.415912744328923, 0.249798907125225, 0.319276361625772, -1.441, 0.759, -0.744], a = 0.2, v = 0.2, t = 0.2)
movej(p[0.415909828438071, 0.249799157173978, 0.318984331248105, -1.441, 0.759, -0.744], a = 0.2, v = 0.2, t = 0.2)
movej(p[0.415907998752828, 0.249799314076461, 0.318801085818338, -1.441, 0.759, -0.744], a = 0.2, v = 0.2, t = 0.2)
movej(p[0.415906038505309, 0.249799482175156, 0.318604764401511, -1.441, 0.759, -0.744], a = 0.2, v = 0.2, t = 0.2)
movej(p[0.415905993171185, 0.24979948606273, 0.318600224128227, -1.441, 0.759, -0.744], a = 0.2, v = 0.2, t = 0.2)
movej(p[0.415906145493842, 0.249799473000482, 0.318615479446463, -1.441, 0.759, -0.744], a = 0.2, v = 0.2, t = 0.2)
movej(p[0.415905833595069, 0.24979949974699, 0.318584242366265, -1.441, 0.759, -0.744], a = 0.2, v = 0.2, t = 0.2)
movej(p[0.415910085935895, 0.249799135092558, 0.319010120000362, -1.441, 0.759, -0.744], a = 0.2, v = 0.2, t = 0.2)
movej(p[0.415918313172708, 0.249798429575647, 0.319834088796054, -1.441, 0.759, -0.744], a = 0.2, v = 0.2, t = 0.2)
movej(p[0.415926571236725, 0.249797721415185, 0.320661144977581, -1.441, 0.759, -0.744], a = 0.2, v = 0.2, t = 0.2)
movej(p[0.415933307887542, 0.249797143721703, 0.321335829587675, -1.441, 0.759, -0.744], a = 0.2, v = 0.2, t = 0.2)
movej(p[0.415939741706412, 0.249796591997215, 0.321980185172228, -1.441, 0.759, -0.744], a = 0.2, v = 0.2, t = 0.2)
movej(p[0.415934196436372, 0.249797067525255, 0.321424818944053, -1.441, 0.759, -0.744], a = 0.2, v = 0.2, t = 0.2)
movej(p[0.415921890941769, 0.249798122768314, 0.320192407163677, -1.441, 0.759, -0.744], a = 0.2, v = 0.2, t = 0.2)
movej(p[0.415913678211876, 0.249798827041202, 0.319369891255435, -1.441, 0.759, -0.744], a = 0.2, v = 0.2, t = 0.2)
movej(p[0.415910091375989, 0.24979913462605, 0.319010664833156, -1.441, 0.759, -0.744], a = 0.2, v = 0.2, t = 0.2)
movej(p[0.415908178275959, 0.249799298681668, 0.318819065300545, -1.441, 0.759, -0.744], a = 0.2, v = 0.2, t = 0.2)
movej(p[0.415906023998389, 0.24979948341918, 0.31860331151406, -1.441, 0.759, -0.744], a = 0.2, v = 0.2, t = 0.2)
movej(p[0.415905946023696, 0.249799490105807, 0.318595502244011, -1.441, 0.759, -0.744], a = 0.2, v = 0.2, t = 0.2)
movej(p[0.415906181761141, 0.249799469890423, 0.318619111665091, -1.441, 0.759, -0.744], a = 0.2, v = 0.2, t = 0.2)
movej(p[0.415909661608494, 0.24979917148025, 0.318967623042418, -1.441, 0.759, -0.744], a = 0.2, v = 0.2, t = 0.2)
movej(p[0.415917127232025, 0.24979853127458, 0.319715315246929, -1.441, 0.759, -0.744], a = 0.2, v = 0.2, t = 0.2)
movej(p[0.415928466203105, 0.249797558914596, 0.320850928400878, -1.441, 0.759, -0.744], a = 0.2, v = 0.2, t = 0.2)
movej(p[0.415939047187633, 0.249796651554847, 0.321910628185507, -1.441, 0.759, -0.744], a = 0.2, v = 0.2, t = 0.2)
movej(p[0.415947116661695, 0.249795959566693, 0.32271879683017, -1.441, 0.759, -0.744], a = 0.2, v = 0.2, t = 0.2)
movej(p[0.415953847872418, 0.24979538233972, 0.32339293660747, -1.441, 0.759, -0.744], a = 0.2, v = 0.2, t = 0.2)
movej(p[0.415949381554527, 0.249795765343501, 0.322945628883469, -1.441, 0.759, -0.744], a = 0.2, v = 0.2, t = 0.2)
movej(p[0.415936040628534, 0.249796909378748, 0.321609517261272, -1.441, 0.759, -0.744], a = 0.2, v = 0.2, t = 0.2)
movej(p[0.415924177594981, 0.249797926679087, 0.320421418548153, -1.441, 0.759, -0.744], a = 0.2, v = 0.2, t = 0.2)
movej(p[0.415916875174296, 0.249798552889491, 0.319690071327466, -1.441, 0.759, -0.744], a = 0.2, v = 0.2, t = 0.2)
movej(p[0.415911904740947, 0.249798979123093, 0.319192275764541, -1.441, 0.759, -0.744], a = 0.2, v = 0.2, t = 0.2)
movej(p[0.415907870003916, 0.249799325117171, 0.31878819144221, -1.441, 0.759, -0.744], a = 0.2, v = 0.2, t = 0.2)
movej(p[0.415907171858408, 0.249799384985809, 0.318718271233627, -1.441, 0.759, -0.744], a = 0.2, v = 0.2, t = 0.2)
movej(p[0.415906863586365, 0.249799411421311, 0.318687397375291, -1.441, 0.759, -0.744], a = 0.2, v = 0.2, t = 0.2)
movej(p[0.415907438423056, 0.249799362126874, 0.31874496804054, -1.441, 0.759, -0.744], a = 0.2, v = 0.2, t = 0.2)
movej(p[0.415911859406823, 0.249798983010667, 0.319187735491256, -1.441, 0.759, -0.744], a = 0.2, v = 0.2, t = 0.2)
movej(p[0.415921278024413, 0.249798175328314, 0.320131022668868, -1.441, 0.759, -0.744], a = 0.2, v = 0.2, t = 0.2)
movej(p[0.415932513633691, 0.249797211831998, 0.321256283999728, -1.441, 0.759, -0.744], a = 0.2, v = 0.2, t = 0.2)
movej(p[0.415944684939287, 0.249796168096157, 0.322475256571183, -1.441, 0.759, -0.744], a = 0.2, v = 0.2, t = 0.2)
movej(p[0.415955488967705, 0.249795241609545, 0.323557294500373, -1.441, 0.759, -0.744], a = 0.2, v = 0.2, t = 0.2)
movej(p[0.415958413925381, 0.249794990783276, 0.323850232932696, -1.441, 0.759, -0.744], a = 0.2, v = 0.2, t = 0.2)
movej(p[0.41594581647902, 0.249796071062312, 0.322588581792367, -1.441, 0.759, -0.744], a = 0.2, v = 0.2, t = 0.2)
movej(p[0.415933055829813, 0.249797165336614, 0.321310585668212, -1.441, 0.759, -0.744], a = 0.2, v = 0.2, t = 0.2)
movej(p[0.415922413190877, 0.249798077983463, 0.320244711111915, -1.441, 0.759, -0.744], a = 0.2, v = 0.2, t = 0.2)
movej(p[0.415914856899098, 0.249798725964281, 0.319487938360835, -1.441, 0.759, -0.744], a = 0.2, v = 0.2, t = 0.2)
movej(p[0.415909275361758, 0.24979920460238, 0.318928939914033, -1.441, 0.759, -0.744], a = 0.2, v = 0.2, t = 0.2)
movej(p[0.41590793347169, 0.249799319674567, 0.318794547824808, -1.441, 0.759, -0.744], a = 0.2, v = 0.2, t = 0.2)
movej(p[0.415907162791583, 0.249799385763324, 0.31871736317897, -1.441, 0.759, -0.744], a = 0.2, v = 0.2, t = 0.2)
movej(p[0.41590622890863, 0.249799465847346, 0.318623833549307, -1.441, 0.759, -0.744], a = 0.2, v = 0.2, t = 0.2)
movej(p[0.415905675832318, 0.249799513275748, 0.318568442215234, -1.441, 0.759, -0.744], a = 0.2, v = 0.2, t = 0.2)
movej(p[0.415908083980981, 0.249799306767822, 0.318809621532113, -1.441, 0.759, -0.744], a = 0.2, v = 0.2, t = 0.2)
movej(p[0.415916100867459, 0.249798619289253, 0.319612523459765, -1.441, 0.759, -0.744], a = 0.2, v = 0.2, t = 0.2)
movej(p[0.415925307321349, 0.249797829800745, 0.320534562158405, -1.441, 0.759, -0.744], a = 0.2, v = 0.2, t = 0.2)
movej(p[0.415937551161543, 0.249796779844786, 0.321760799167115, -1.441, 0.759, -0.744], a = 0.2, v = 0.2, t = 0.2)
movej(p[0.415949343473863, 0.249795768609063, 0.32294181505391, -1.441, 0.759, -0.744], a = 0.2, v = 0.2, t = 0.2)
movej(p[0.41595611639198, 0.249795187805522, 0.323620131882632, -1.441, 0.759, -0.744], a = 0.2, v = 0.2, t = 0.2)
movej(p[0.415952614784247, 0.24979548808173, 0.323269441174128, -1.441, 0.759, -0.744], a = 0.2, v = 0.2, t = 0.2)
movej(p[0.415940650202256, 0.249796514090234, 0.322071172248852, -1.441, 0.759, -0.744], a = 0.2, v = 0.2, t = 0.2)
movej(p[0.415926799720709, 0.249797701821812, 0.320684027954935, -1.441, 0.759, -0.744], a = 0.2, v = 0.2, t = 0.2)
movej(p[0.415915302986878, 0.249798687710554, 0.319532614649956, -1.441, 0.759, -0.744], a = 0.2, v = 0.2, t = 0.2)
movej(p[0.415910843922447, 0.249799070092323, 0.319086033369681, -1.441, 0.759, -0.744], a = 0.2, v = 0.2, t = 0.2)
movej(p[0.415908637057293, 0.24979925933942, 0.318865012866186, -1.441, 0.759, -0.744], a = 0.2, v = 0.2, t = 0.2)
movej(p[0.415907193618787, 0.249799383119773, 0.318720450564803, -1.441, 0.759, -0.744], a = 0.2, v = 0.2, t = 0.2)
movej(p[0.415905576097245, 0.24979952182841, 0.318558453614008, -1.441, 0.759, -0.744], a = 0.2, v = 0.2, t = 0.2)
movej(p[0.415905820901514, 0.249799500835511, 0.318582971089745, -1.441, 0.759, -0.744], a = 0.2, v = 0.2, t = 0.2)
movej(p[0.415909117599007, 0.249799218131137, 0.318913139763002, -1.441, 0.759, -0.744], a = 0.2, v = 0.2, t = 0.2)
movej(p[0.415915946731438, 0.249798632507004, 0.319597086530597, -1.441, 0.759, -0.744], a = 0.2, v = 0.2, t = 0.2)
movej(p[0.415927742670487, 0.249797620960275, 0.320778465639255, -1.441, 0.759, -0.744], a = 0.2, v = 0.2, t = 0.2)
movej(p[0.415939409860625, 0.249796620454256, 0.321946950371784, -1.441, 0.759, -0.744], a = 0.2, v = 0.2, t = 0.2)
movej(p[0.415947854701233, 0.24979589627699, 0.322792712479243, -1.441, 0.759, -0.744], a = 0.2, v = 0.2, t = 0.2)
movej(p[0.415955340271778, 0.249795254360787, 0.323542402403999, -1.441, 0.759, -0.744], a = 0.2, v = 0.2, t = 0.2)
movej(p[0.415951048036923, 0.249795622436284, 0.323112529329412, -1.441, 0.759, -0.744], a = 0.2, v = 0.2, t = 0.2)
movej(p[0.415938156825439, 0.249796727906799, 0.321821457218198, -1.441, 0.759, -0.744], a = 0.2, v = 0.2, t = 0.2)
movej(p[0.415923290859516, 0.249798002720032, 0.320332610802706, -1.441, 0.759, -0.744], a = 0.2, v = 0.2, t = 0.2)
movej(p[0.415916169775328, 0.249798613380141, 0.319619424675158, -1.441, 0.759, -0.744], a = 0.2, v = 0.2, t = 0.2)
movej(p[0.415911398812124, 0.249799022508418, 0.319141606314684, -1.441, 0.759, -0.744], a = 0.2, v = 0.2, t = 0.2)
movej(p[0.41590878212649, 0.249799246899184, 0.318879541740696, -1.441, 0.759, -0.744], a = 0.2, v = 0.2, t = 0.2)
movej(p[0.415906373977826, 0.249799453407109, 0.318638362423817, -1.441, 0.759, -0.744], a = 0.2, v = 0.2, t = 0.2)
movej(p[0.415906045758769, 0.249799481553145, 0.318605490845237, -1.441, 0.759, -0.744], a = 0.2, v = 0.2, t = 0.2)
movej(p[0.415906471899534, 0.24979944500995, 0.318648169414112, -1.441, 0.759, -0.744], a = 0.2, v = 0.2, t = 0.2)
movej(p[0.415909792170771, 0.249799160284037, 0.318980699029478, -1.441, 0.759, -0.744], a = 0.2, v = 0.2, t = 0.2)
movej(p[0.415919992348658, 0.249798285579909, 0.320002260518517, -1.441, 0.759, -0.744], a = 0.2, v = 0.2, t = 0.2)
movej(p[0.415930772803332, 0.249797361114836, 0.321081937505599, -1.441, 0.759, -0.744], a = 0.2, v = 0.2, t = 0.2)
movej(p[0.415940238568411, 0.249796549389405, 0.322029946567427, -1.441, 0.759, -0.744], a = 0.2, v = 0.2, t = 0.2)
movej(p[0.415947958063035, 0.249795887413321, 0.322803064302332, -1.441, 0.759, -0.744], a = 0.2, v = 0.2, t = 0.2)
movej(p[0.415954658446554, 0.249795312829898, 0.323474116693799, -1.441, 0.759, -0.744], a = 0.2, v = 0.2, t = 0.2)
movej(p[0.415946739481784, 0.249795991911308, 0.322681021756442, -1.441, 0.759, -0.744], a = 0.2, v = 0.2, t = 0.2)
movej(p[0.415931802794628, 0.249797272789157, 0.321185092514625, -1.441, 0.759, -0.744], a = 0.2, v = 0.2, t = 0.2)
movej(p[0.4159207612154, 0.249798219646656, 0.320079263553424, -1.441, 0.759, -0.744], a = 0.2, v = 0.2, t = 0.2)
movej(p[0.415913518635759, 0.249798840725463, 0.319353909493473, -1.441, 0.759, -0.744], a = 0.2, v = 0.2, t = 0.2)
movej(p[0.415909371470101, 0.249799196360723, 0.318938565293396, -1.441, 0.759, -0.744], a = 0.2, v = 0.2, t = 0.2)
movej(p[0.415906573447972, 0.249799436301784, 0.31865833962627, -1.441, 0.759, -0.744], a = 0.2, v = 0.2, t = 0.2)
movej(p[0.415906083839433, 0.249799478287582, 0.318609304674796, -1.441, 0.759, -0.744], a = 0.2, v = 0.2, t = 0.2)
movej(p[0.415905936956871, 0.249799490883322, 0.318594594189354, -1.441, 0.759, -0.744], a = 0.2, v = 0.2, t = 0.2)
movej(p[0.415905632311559, 0.249799517007818, 0.318564083552881, -1.441, 0.759, -0.744], a = 0.2, v = 0.2, t = 0.2)
movej(p[0.415912597446361, 0.249798919720964, 0.31926165114033, -1.441, 0.759, -0.744], a = 0.2, v = 0.2, t = 0.2)
movej(p[0.415923334380275, 0.249797998987961, 0.320336969465059, -1.441, 0.759, -0.744], a = 0.2, v = 0.2, t = 0.2)
movej(p[0.41593296697493, 0.249797172956259, 0.321301686732574, -1.441, 0.759, -0.744], a = 0.2, v = 0.2, t = 0.2)
movej(p[0.415941914117632, 0.249796405704674, 0.322197755068027, -1.441, 0.759, -0.744], a = 0.2, v = 0.2, t = 0.2)
movej(p[0.415951332735222, 0.24979559802232, 0.323141042245639, -1.441, 0.759, -0.744], a = 0.2, v = 0.2, t = 0.2)
movej(p[0.415957253371809, 0.249795090305168, 0.32373400193661, -1.441, 0.759, -0.744], a = 0.2, v = 0.2, t = 0.2)
movej(p[0.415950625522888, 0.249795658668473, 0.323070213982399, -1.441, 0.759, -0.744], a = 0.2, v = 0.2, t = 0.2)
movej(p[0.415937529401164, 0.249796781710821, 0.321758619835938, -1.441, 0.759, -0.744], a = 0.2, v = 0.2, t = 0.2)
movej(p[0.41592527468078, 0.249797832599798, 0.32053129316164, -1.441, 0.759, -0.744], a = 0.2, v = 0.2, t = 0.2)
movej(p[0.415915885077029, 0.249798637794105, 0.31959091175893, -1.441, 0.759, -0.744], a = 0.2, v = 0.2, t = 0.2)
movej(p[0.415909697875794, 0.249799168370191, 0.318971255261046, -1.441, 0.759, -0.744], a = 0.2, v = 0.2, t = 0.2)
movej(p[0.415907893577661, 0.249799323095632, 0.318790552384318, -1.441, 0.759, -0.744], a = 0.2, v = 0.2, t = 0.2)
movej(p[0.415906972388262, 0.249799402091134, 0.318698294031174, -1.441, 0.759, -0.744], a = 0.2, v = 0.2, t = 0.2)
movej(p[0.415905686712507, 0.24979951234273, 0.318569531880823, -1.441, 0.759, -0.744], a = 0.2, v = 0.2, t = 0.2)
movej(p[0.415905614177909, 0.249799518562848, 0.318562267443567, -1.441, 0.759, -0.744], a = 0.2, v = 0.2, t = 0.2)
movej(p[0.415906562567782, 0.249799437234802, 0.318657249960681, -1.441, 0.759, -0.744], a = 0.2, v = 0.2, t = 0.2)
movej(p[0.415913669145051, 0.249798827818717, 0.319368983200778, -1.441, 0.759, -0.744], a = 0.2, v = 0.2, t = 0.2)
movej(p[0.415921473867829, 0.249798158533994, 0.320150636649458, -1.441, 0.759, -0.744], a = 0.2, v = 0.2, t = 0.2)
movej(p[0.415932945214551, 0.249797174822294, 0.321299507401398, -1.441, 0.759, -0.744], a = 0.2, v = 0.2, t = 0.2)
movej(p[0.415943798203823, 0.249796244137102, 0.322386448825735, -1.441, 0.759, -0.744], a = 0.2, v = 0.2, t = 0.2)
movej(p[0.415950587442224, 0.249795661934035, 0.32306640015284, -1.441, 0.759, -0.744], a = 0.2, v = 0.2, t = 0.2)
movej(p[0.415956477251607, 0.249795156860434, 0.323656272457978, -1.441, 0.759, -0.744], a = 0.2, v = 0.2, t = 0.2)
movej(p[0.415947890968532, 0.24979589316693, 0.322796344697871, -1.441, 0.759, -0.744], a = 0.2, v = 0.2, t = 0.2)
movej(p[0.415932598861844, 0.249797204523359, 0.321264819713503, -1.441, 0.759, -0.744], a = 0.2, v = 0.2, t = 0.2)
movej(p[0.41591905665234, 0.249798365819435, 0.319908549277922, -1.441, 0.759, -0.744], a = 0.2, v = 0.2, t = 0.2)
movej(p[0.415913039907411, 0.249798881778243, 0.319305964207588, -1.441, 0.759, -0.744], a = 0.2, v = 0.2, t = 0.2)
movej(p[0.415909799424231, 0.249799159662025, 0.318981425473203, -1.441, 0.759, -0.744], a = 0.2, v = 0.2, t = 0.2)
movej(p[0.415907017722386, 0.24979939820356, 0.318702834304459, -1.441, 0.759, -0.744], a = 0.2, v = 0.2, t = 0.2)
movej(p[0.415906270616024, 0.249799462270778, 0.318628010600728, -1.441, 0.759, -0.744], a = 0.2, v = 0.2, t = 0.2)
movej(p[0.415906323203607, 0.249799457761192, 0.318633277317739, -1.441, 0.759, -0.744], a = 0.2, v = 0.2, t = 0.2)
movej(p[0.41590855545587, 0.249799266337053, 0.318856840374273, -1.441, 0.759, -0.744], a = 0.2, v = 0.2, t = 0.2)
movej(p[0.415914998341565, 0.24979871383505, 0.319502104013483, -1.441, 0.759, -0.744], a = 0.2, v = 0.2, t = 0.2)
movej(p[0.415925838637282, 0.249797784238379, 0.320587774161301, -1.441, 0.759, -0.744], a = 0.2, v = 0.2, t = 0.2)
movej(p[0.415937960982024, 0.249796744701118, 0.321801843237608, -1.441, 0.759, -0.744], a = 0.2, v = 0.2, t = 0.2)
movej(p[0.415947256290797, 0.249795947592965, 0.322732780871886, -1.441, 0.759, -0.744], a = 0.2, v = 0.2, t = 0.2)
movej(p[0.415956259647812, 0.249795175520788, 0.323634479146211, -1.441, 0.759, -0.744], a = 0.2, v = 0.2, t = 0.2)
movej(p[0.415957436521669, 0.24979507459937, 0.32375234464068, -1.441, 0.759, -0.744], a = 0.2, v = 0.2, t = 0.2)
movej(p[0.415943600547042, 0.249796261086925, 0.322366653234215, -1.441, 0.759, -0.744], a = 0.2, v = 0.2, t = 0.2)
movej(p[0.415927956647552, 0.249797602610926, 0.320799895729158, -1.441, 0.759, -0.744], a = 0.2, v = 0.2, t = 0.2)
movej(p[0.415919105613194, 0.249798361620855, 0.31991345277307, -1.441, 0.759, -0.744], a = 0.2, v = 0.2, t = 0.2)
movej(p[0.415913116068739, 0.249798875247119, 0.319313591866706, -1.441, 0.759, -0.744], a = 0.2, v = 0.2, t = 0.2)
movej(p[0.415909315255788, 0.249799201181315, 0.318932935354523, -1.441, 0.759, -0.744], a = 0.2, v = 0.2, t = 0.2)
movej(p[0.415906805558686, 0.249799416397406, 0.318681585825487, -1.441, 0.759, -0.744], a = 0.2, v = 0.2, t = 0.2)
movej(p[0.415906386671381, 0.249799452318589, 0.318639633700337, -1.441, 0.759, -0.744], a = 0.2, v = 0.2, t = 0.2)
movej(p[0.415906484593089, 0.249799443921429, 0.318649440690632, -1.441, 0.759, -0.744], a = 0.2, v = 0.2, t = 0.2)
movej(p[0.415907686854056, 0.249799340822969, 0.31876984873814, -1.441, 0.759, -0.744], a = 0.2, v = 0.2, t = 0.2)
movej(p[0.41591650706121, 0.249798584456591, 0.319653204308395, -1.441, 0.759, -0.744], a = 0.2, v = 0.2, t = 0.2)
movej(p[0.415926402593784, 0.24979773587696, 0.320644255160962, -1.441, 0.759, -0.744], a = 0.2, v = 0.2, t = 0.2)
movej(p[0.415936091402753, 0.249796905024666, 0.32161460236735, -1.441, 0.759, -0.744], a = 0.2, v = 0.2, t = 0.2)
movej(p[0.415944293252456, 0.249796201684795, 0.322436028610003, -1.441, 0.759, -0.744], a = 0.2, v = 0.2, t = 0.2)
movej(p[0.415953793471469, 0.249795387004809, 0.323387488279528, -1.441, 0.759, -0.744], a = 0.2, v = 0.2, t = 0.2)
movej(p[0.415956493571891, 0.249795155460907, 0.32365790695636, -1.441, 0.759, -0.744], a = 0.2, v = 0.2, t = 0.2)
movej(p[0.4159464747305, 0.249796014614739, 0.322654506560459, -1.441, 0.759, -0.744], a = 0.2, v = 0.2, t = 0.2)
movej(p[0.415935353363215, 0.249796968314369, 0.321540686718277, -1.441, 0.759, -0.744], a = 0.2, v = 0.2, t = 0.2)
movej(p[0.415924763311862, 0.249797876451632, 0.32048007887899, -1.441, 0.759, -0.744], a = 0.2, v = 0.2, t = 0.2)
movej(p[0.415916744612019, 0.249798564085704, 0.319676995340407, -1.441, 0.759, -0.744], a = 0.2, v = 0.2, t = 0.2)
movej(p[0.415910096816084, 0.249799134159541, 0.31901120966595, -1.441, 0.759, -0.744], a = 0.2, v = 0.2, t = 0.2)
movej(p[0.415908073100792, 0.24979930770084, 0.318808531866525, -1.441, 0.759, -0.744], a = 0.2, v = 0.2, t = 0.2)
movej(p[0.415907273406845, 0.249799376277643, 0.318728441445784, -1.441, 0.759, -0.744], a = 0.2, v = 0.2, t = 0.2)
movej(p[0.415906402991666, 0.249799450919062, 0.31864126819872, -1.441, 0.759, -0.744], a = 0.2, v = 0.2, t = 0.2)
movej(p[0.415906421125315, 0.249799449364033, 0.318643084308033, -1.441, 0.759, -0.744], a = 0.2, v = 0.2, t = 0.2)
movej(p[0.415912116904647, 0.249798960929248, 0.319213524243513, -1.441, 0.759, -0.744], a = 0.2, v = 0.2, t = 0.2)
movej(p[0.415920505530941, 0.249798241572573, 0.320053656412099, -1.441, 0.759, -0.744], a = 0.2, v = 0.2, t = 0.2)
movej(p[0.415928837942922, 0.24979752703649, 0.320888158641811, -1.441, 0.759, -0.744], a = 0.2, v = 0.2, t = 0.2)
movej(p[0.415939957496842, 0.249796573492363, 0.322001796873063, -1.441, 0.759, -0.744], a = 0.2, v = 0.2, t = 0.2)
movej(p[0.415950297303831, 0.249795686814508, 0.323037342403818, -1.441, 0.759, -0.744], a = 0.2, v = 0.2, t = 0.2)
movej(p[0.415955960442594, 0.249795201178776, 0.323604513342533, -1.441, 0.759, -0.744], a = 0.2, v = 0.2, t = 0.2)
movej(p[0.415948360630056, 0.249795852891665, 0.322843381929099, -1.441, 0.759, -0.744], a = 0.2, v = 0.2, t = 0.2)
movej(p[0.415935534699711, 0.249796952764073, 0.321558847811415, -1.441, 0.759, -0.744], a = 0.2, v = 0.2, t = 0.2)
movej(p[0.415923464942552, 0.249797987791749, 0.320350045452118, -1.441, 0.759, -0.744], a = 0.2, v = 0.2, t = 0.2)
movej(p[0.415913919389415, 0.249798806359309, 0.319394045509309, -1.441, 0.759, -0.744], a = 0.2, v = 0.2, t = 0.2)
movej(p[0.415910018841391, 0.249799140846168, 0.319003400395901, -1.441, 0.759, -0.744], a = 0.2, v = 0.2, t = 0.2)
movej(p[0.415908078540886, 0.249799307234331, 0.318809076699319, -1.441, 0.759, -0.744], a = 0.2, v = 0.2, t = 0.2)
movej(p[0.415907237139546, 0.249799379387702, 0.318724809227156, -1.441, 0.759, -0.744], a = 0.2, v = 0.2, t = 0.2)
movej(p[0.415905681272412, 0.249799512809239, 0.318568987048028, -1.441, 0.759, -0.744], a = 0.2, v = 0.2, t = 0.2)
movej(p[0.415906381231286, 0.249799452785098, 0.318639088867543, -1.441, 0.759, -0.744], a = 0.2, v = 0.2, t = 0.2)
movej(p[0.415912561179062, 0.249798922831023, 0.319258018921702, -1.441, 0.759, -0.744], a = 0.2, v = 0.2, t = 0.2)
movej(p[0.415919571647988, 0.249798321656595, 0.319960126782435, -1.441, 0.759, -0.744], a = 0.2, v = 0.2, t = 0.2)
movej(p[0.415930232420574, 0.249797407454717, 0.321027817448046, -1.441, 0.759, -0.744], a = 0.2, v = 0.2, t = 0.2)
movej(p[0.415942231456499, 0.249796378491656, 0.322229536981019, -1.441, 0.759, -0.744], a = 0.2, v = 0.2, t = 0.2)
movej(p[0.415951976479782, 0.24979554281877, 0.323205514126281, -1.441, 0.759, -0.744], a = 0.2, v = 0.2, t = 0.2)
movej(p[0.4159557065715, 0.24979522294919, 0.323579087812139, -1.441, 0.759, -0.744], a = 0.2, v = 0.2, t = 0.2)
movej(p[0.415948237321239, 0.249795863465866, 0.322831032385765, -1.441, 0.759, -0.744], a = 0.2, v = 0.2, t = 0.2)
movej(p[0.415935043277807, 0.249796994905374, 0.32150963124901, -1.441, 0.759, -0.744], a = 0.2, v = 0.2, t = 0.2)
movej(p[0.415922547379884, 0.249798066476244, 0.320258150320838, -1.441, 0.759, -0.744], a = 0.2, v = 0.2, t = 0.2)
movej(p[0.415913558529789, 0.249798837304398, 0.319357904933964, -1.441, 0.759, -0.744], a = 0.2, v = 0.2, t = 0.2)
movej(p[0.415910056922055, 0.249799137580606, 0.31900721422546, -1.441, 0.759, -0.744], a = 0.2, v = 0.2, t = 0.2)
movej(p[0.41590815288885, 0.24979930085871, 0.318816522747506, -1.441, 0.759, -0.744], a = 0.2, v = 0.2, t = 0.2)
movej(p[0.415906147307206, 0.249799472844979, 0.318615661057394, -1.441, 0.759, -0.744], a = 0.2, v = 0.2, t = 0.2)
movej(p[0.41590579370104, 0.249799503168055, 0.318580246925774, -1.441, 0.759, -0.744], a = 0.2, v = 0.2, t = 0.2)
movej(p[0.415905857168813, 0.249799497725452, 0.318586603308373, -1.441, 0.759, -0.744], a = 0.2, v = 0.2, t = 0.2)
movej(p[0.415908845594264, 0.24979924145658, 0.318885898123295, -1.441, 0.759, -0.744], a = 0.2, v = 0.2, t = 0.2)
movej(p[0.415914253048567, 0.249798777746765, 0.319427461920684, -1.441, 0.759, -0.744], a = 0.2, v = 0.2, t = 0.2)
movej(p[0.415925873091216, 0.249797781283823, 0.320591224768997, -1.441, 0.759, -0.744], a = 0.2, v = 0.2, t = 0.2)
movej(p[0.415936524796977, 0.249796867859459, 0.321658007379951, -1.441, 0.759, -0.744], a = 0.2, v = 0.2, t = 0.2)
movej(p[0.41594326326116, 0.249796290010474, 0.322332873600977, -1.441, 0.759, -0.744], a = 0.2, v = 0.2, t = 0.2)
movej(p[0.415951807836841, 0.249795557280545, 0.323188624309662, -1.441, 0.759, -0.744], a = 0.2, v = 0.2, t = 0.2)
movej(p[0.415961275415285, 0.249794745399612, 0.324136814982422, -1.441, 0.759, -0.744], a = 0.2, v = 0.2, t = 0.2)
movej(p[0.41596595933697, 0.249794343735476, 0.324605916018188, -1.441, 0.759, -0.744], a = 0.2, v = 0.2, t = 0.2)
movej(p[0.415950855820238, 0.249795638919597, 0.323093278570685, -1.441, 0.759, -0.744], a = 0.2, v = 0.2, t = 0.2)
movej(p[0.415936004361235, 0.249796912488807, 0.321605885042644, -1.441, 0.759, -0.744], a = 0.2, v = 0.2, t = 0.2)
movej(p[0.415925178572437, 0.249797840841455, 0.320521667782277, -1.441, 0.759, -0.744], a = 0.2, v = 0.2, t = 0.2)
movej(p[0.415915667473234, 0.24979865645446, 0.319569118447164, -1.441, 0.759, -0.744], a = 0.2, v = 0.2, t = 0.2)
movej(p[0.415910396021302, 0.249799108501553, 0.319041175469629, -1.441, 0.759, -0.744], a = 0.2, v = 0.2, t = 0.2)
movej(p[0.415908098487901, 0.249799305523798, 0.318811074419564, -1.441, 0.759, -0.744], a = 0.2, v = 0.2, t = 0.2)
movej(p[0.415906977828357, 0.249799401624625, 0.318698838863968, -1.441, 0.759, -0.744], a = 0.2, v = 0.2, t = 0.2)
movej(p[0.415905421961223, 0.249799535046161, 0.31854301668484, -1.441, 0.759, -0.744], a = 0.2, v = 0.2, t = 0.2)
movej(p[0.415905543456676, 0.249799524627463, 0.318555184617243, -1.441, 0.759, -0.744], a = 0.2, v = 0.2, t = 0.2)
movej(p[0.415905420147858, 0.249799535201664, 0.318542835073909, -1.441, 0.759, -0.744], a = 0.2, v = 0.2, t = 0.2)
movej(p[0.415905503562646, 0.249799528048528, 0.318551189176753, -1.441, 0.759, -0.744], a = 0.2, v = 0.2, t = 0.2)
movej(p[0.415907621572917, 0.249799346421076, 0.31876331074461, -1.441, 0.759, -0.744], a = 0.2, v = 0.2, t = 0.2)
movej(p[0.415916652130406, 0.249798572016355, 0.319667733182906, -1.441, 0.759, -0.744], a = 0.2, v = 0.2, t = 0.2)
movej(p[0.415927559520627, 0.249797636666074, 0.320760122935185, -1.441, 0.759, -0.744], a = 0.2, v = 0.2, t = 0.2)
movej(p[0.415935396883974, 0.249796964582298, 0.32154504538063, -1.441, 0.759, -0.744], a = 0.2, v = 0.2, t = 0.2)
movej(p[0.415945986935326, 0.249796056445034, 0.322605653219917, -1.441, 0.759, -0.744], a = 0.2, v = 0.2, t = 0.2)
movej(p[0.415954685647028, 0.249795310497354, 0.323476840857769, -1.441, 0.759, -0.744], a = 0.2, v = 0.2, t = 0.2)
movej(p[0.41595096280877, 0.249795629744923, 0.323103993615637, -1.441, 0.759, -0.744], a = 0.2, v = 0.2, t = 0.2)
movej(p[0.415935745050046, 0.24979693472573, 0.321579914679456, -1.441, 0.759, -0.744], a = 0.2, v = 0.2, t = 0.2)
movej(p[0.41592484672665, 0.249797869298496, 0.320488432981834, -1.441, 0.759, -0.744], a = 0.2, v = 0.2, t = 0.2)
movej(p[0.415917123605295, 0.249798531585586, 0.319714952025066, -1.441, 0.759, -0.744], a = 0.2, v = 0.2, t = 0.2)
movej(p[0.415911268249847, 0.249799033704631, 0.319128530327625, -1.441, 0.759, -0.744], a = 0.2, v = 0.2, t = 0.2)
movej(p[0.415907654213486, 0.249799343622022, 0.318766579741375, -1.441, 0.759, -0.744], a = 0.2, v = 0.2, t = 0.2)
movej(p[0.415906611528636, 0.249799433036222, 0.318662153455829, -1.441, 0.759, -0.744], a = 0.2, v = 0.2, t = 0.2)
movej(p[0.415906674996409, 0.249799427593619, 0.318668509838427, -1.441, 0.759, -0.744], a = 0.2, v = 0.2, t = 0.2)
movej(p[0.41590965254167, 0.249799172257765, 0.318966714987761, -1.441, 0.759, -0.744], a = 0.2, v = 0.2, t = 0.2)
movej(p[0.415920505530941, 0.249798241572573, 0.320053656412099, -1.441, 0.759, -0.744], a = 0.2, v = 0.2, t = 0.2)
movej(p[0.415933860963855, 0.249797096293302, 0.321391220921747, -1.441, 0.759, -0.744], a = 0.2, v = 0.2, t = 0.2)
movej(p[0.415945292416548, 0.249796116002667, 0.322536096233197, -1.441, 0.759, -0.744], a = 0.2, v = 0.2, t = 0.2)
movej(p[0.415953367330704, 0.249795423548003, 0.323344809710653, -1.441, 0.759, -0.744], a = 0.2, v = 0.2, t = 0.2)
movej(p[0.415961075945139, 0.249794762504937, 0.324116837779969, -1.441, 0.759, -0.744], a = 0.2, v = 0.2, t = 0.2)
movej(p[0.415952206777131, 0.249795523069895, 0.323228578714566, -1.441, 0.759, -0.744], a = 0.2, v = 0.2, t = 0.2)
movej(p[0.415936860269495, 0.249796839091412, 0.321691605402258, -1.441, 0.759, -0.744], a = 0.2, v = 0.2, t = 0.2)
movej(p[0.415926819667724, 0.24979770011128, 0.32068602567518, -1.441, 0.759, -0.744], a = 0.2, v = 0.2, t = 0.2)
movej(p[0.415919801945338, 0.24979830190772, 0.319983191370721, -1.441, 0.759, -0.744], a = 0.2, v = 0.2, t = 0.2)
movej(p[0.415915874196839, 0.249798638727123, 0.319589822093342, -1.441, 0.759, -0.744], a = 0.2, v = 0.2, t = 0.2)
movej(p[0.415913681838606, 0.249798826730197, 0.319370254477298, -1.441, 0.759, -0.744], a = 0.2, v = 0.2, t = 0.2)
movej(p[0.415915500643658, 0.249798670760732, 0.319552410241477, -1.441, 0.759, -0.744], a = 0.2, v = 0.2, t = 0.2)
movej(p[0.41592806907618, 0.249797592969743, 0.320811155606904, -1.441, 0.759, -0.744], a = 0.2, v = 0.2, t = 0.2)
movej(p[0.415941750914785, 0.24979641969994, 0.322181410084202, -1.441, 0.759, -0.744], a = 0.2, v = 0.2, t = 0.2)
movej(p[0.415954466229869, 0.249795329313212, 0.323454865935072, -1.441, 0.759, -0.744], a = 0.2, v = 0.2, t = 0.2)
movej(p[0.415966097152707, 0.249794331917252, 0.324619718448974, -1.441, 0.759, -0.744], a = 0.2, v = 0.2, t = 0.2)
movej(p[0.415981496247928, 0.249793011386149, 0.326161958478293, -1.441, 0.759, -0.744], a = 0.2, v = 0.2, t = 0.2)
movej(p[0.415996503656317, 0.249791724443684, 0.327664970546433, -1.441, 0.759, -0.744], a = 0.2, v = 0.2, t = 0.2)
movej(p[0.415999843874569, 0.249791438007239, 0.327999497882043, -1.441, 0.759, -0.744], a = 0.2, v = 0.2, t = 0.2)
movej(p[0.415977563059334, 0.24979334867206, 0.325768044368119, -1.441, 0.759, -0.744], a = 0.2, v = 0.2, t = 0.2)
movej(p[0.415958638782636, 0.24979497150091, 0.323872752688188, -1.441, 0.759, -0.744], a = 0.2, v = 0.2, t = 0.2)
movej(p[0.415945279722993, 0.249796117091187, 0.322534824956677, -1.441, 0.759, -0.744], a = 0.2, v = 0.2, t = 0.2)
movej(p[0.415935975347395, 0.249796914976855, 0.321602979267742, -1.441, 0.759, -0.744], a = 0.2, v = 0.2, t = 0.2)
movej(p[0.415928011048501, 0.249797597945838, 0.3208053440571, -1.441, 0.759, -0.744], a = 0.2, v = 0.2, t = 0.2)
movej(p[0.415920418489423, 0.249798249036715, 0.320044939087392, -1.441, 0.759, -0.744], a = 0.2, v = 0.2, t = 0.2)
movej(p[0.415916091800634, 0.249798620066768, 0.319611615405108, -1.441, 0.759, -0.744], a = 0.2, v = 0.2, t = 0.2)
movej(p[0.415912519471668, 0.249798926407591, 0.31925384187028, -1.441, 0.759, -0.744], a = 0.2, v = 0.2, t = 0.2)
movej(p[0.415910158470493, 0.24979912887244, 0.319017384437617, -1.441, 0.759, -0.744], a = 0.2, v = 0.2, t = 0.2)
movej(p[0.415908002379558, 0.249799313765455, 0.318801449040201, -1.441, 0.759, -0.744], a = 0.2, v = 0.2, t = 0.2)
movej(p[0.415909249974649, 0.249799206779421, 0.318926397360994, -1.441, 0.759, -0.744], a = 0.2, v = 0.2, t = 0.2)
movej(p[0.415919072972625, 0.249798364419908, 0.319910183776305, -1.441, 0.759, -0.744], a = 0.2, v = 0.2, t = 0.2)
movej(p[0.415928627592587, 0.249797545074833, 0.320867091773771, -1.441, 0.759, -0.744], a = 0.2, v = 0.2, t = 0.2)
movej(p[0.415941455336297, 0.249796445046922, 0.322151807502386, -1.441, 0.759, -0.744], a = 0.2, v = 0.2, t = 0.2)
movej(p[0.415950908407822, 0.249795634410012, 0.323098545287695, -1.441, 0.759, -0.744], a = 0.2, v = 0.2, t = 0.2)
movej(p[0.415949577397943, 0.249795748549181, 0.322965242864059, -1.441, 0.759, -0.744], a = 0.2, v = 0.2, t = 0.2)
movej(p[0.415932912573982, 0.249797177621348, 0.321296238404633, -1.441, 0.759, -0.744], a = 0.2, v = 0.2, t = 0.2)
movej(p[0.415921161969056, 0.249798185280503, 0.32011939956926, -1.441, 0.759, -0.744], a = 0.2, v = 0.2, t = 0.2)
movej(p[0.415913699972255, 0.249798825175167, 0.319372070586612, -1.441, 0.759, -0.744], a = 0.2, v = 0.2, t = 0.2)
movej(p[0.41590921733408, 0.249799209578474, 0.318923128364229, -1.441, 0.759, -0.744], a = 0.2, v = 0.2, t = 0.2)
movej(p[0.415907253459831, 0.249799377988176, 0.318726443725539, -1.441, 0.759, -0.744], a = 0.2, v = 0.2, t = 0.2)
movej(p[0.415906598835081, 0.249799434124743, 0.318660882179309, -1.441, 0.759, -0.744], a = 0.2, v = 0.2, t = 0.2)
movej(p[0.415906849079445, 0.249799412665335, 0.31868594448784, -1.441, 0.759, -0.744], a = 0.2, v = 0.2, t = 0.2)
movej(p[0.415910185670967, 0.249799126539896, 0.319020108601588, -1.441, 0.759, -0.744], a = 0.2, v = 0.2, t = 0.2)
movej(p[0.415921138395312, 0.249798187302041, 0.320117038627152, -1.441, 0.759, -0.744], a = 0.2, v = 0.2, t = 0.2)
movej(p[0.415931476388935, 0.249797300779689, 0.321152402546976, -1.441, 0.759, -0.744], a = 0.2, v = 0.2, t = 0.2)
movej(p[0.415940905886715, 0.249796492164317, 0.322096779390177, -1.441, 0.759, -0.744], a = 0.2, v = 0.2, t = 0.2)
movej(p[0.415950101460415, 0.249795703608827, 0.323017728423229, -1.441, 0.759, -0.744], a = 0.2, v = 0.2, t = 0.2)
movej(p[0.415954469856598, 0.249795329002206, 0.323455229156935, -1.441, 0.759, -0.744], a = 0.2, v = 0.2, t = 0.2)
movej(p[0.415943158085993, 0.249796299029646, 0.322322340166957, -1.441, 0.759, -0.744], a = 0.2, v = 0.2, t = 0.2)
movej(p[0.415926787027155, 0.249797702910333, 0.320682756678415, -1.441, 0.759, -0.744], a = 0.2, v = 0.2, t = 0.2)
movej(p[0.4159177909236, 0.249798474360498, 0.319781784847816, -1.441, 0.759, -0.744], a = 0.2, v = 0.2, t = 0.2)
movej(p[0.415912077010618, 0.249798964350313, 0.319209528803022, -1.441, 0.759, -0.744], a = 0.2, v = 0.2, t = 0.2)
movej(p[0.415909338829532, 0.249799199159776, 0.318935296296631, -1.441, 0.759, -0.744], a = 0.2, v = 0.2, t = 0.2)
movej(p[0.415906700383519, 0.249799425416577, 0.318671052391467, -1.441, 0.759, -0.744], a = 0.2, v = 0.2, t = 0.2)
movej(p[0.415906366724366, 0.249799454029121, 0.318637635980092, -1.441, 0.759, -0.744], a = 0.2, v = 0.2, t = 0.2)
movej(p[0.415907003215467, 0.249799399447584, 0.318701381417008, -1.441, 0.759, -0.744], a = 0.2, v = 0.2, t = 0.2)
movej(p[0.415911235609278, 0.249799036503684, 0.31912526133086, -1.441, 0.759, -0.744], a = 0.2, v = 0.2, t = 0.2)
movej(p[0.415920491024022, 0.249798242816597, 0.320052203524647, -1.441, 0.759, -0.744], a = 0.2, v = 0.2, t = 0.2)
movej(p[0.415931164490162, 0.249797327526197, 0.321121165466778, -1.441, 0.759, -0.744], a = 0.2, v = 0.2, t = 0.2)
movej(p[0.415939718132668, 0.249796594018753, 0.32197782423012, -1.441, 0.759, -0.744], a = 0.2, v = 0.2, t = 0.2)
movej(p[0.415946190032202, 0.249796039028703, 0.322625993644232, -1.441, 0.759, -0.744], a = 0.2, v = 0.2, t = 0.2)
movej(p[0.415947929049196, 0.249795889901368, 0.32280015852743, -1.441, 0.759, -0.744], a = 0.2, v = 0.2, t = 0.2)
movej(p[0.415936238285314, 0.249796892428926, 0.321629312852793, -1.441, 0.759, -0.744], a = 0.2, v = 0.2, t = 0.2)
movej(p[0.415924504000673, 0.249797898688555, 0.320454108515802, -1.441, 0.759, -0.744], a = 0.2, v = 0.2, t = 0.2)
movej(p[0.415914755350661, 0.249798734672447, 0.319477768148678, -1.441, 0.759, -0.744], a = 0.2, v = 0.2, t = 0.2)
movej(p[0.415910950910979, 0.249799060917648, 0.319096748414632, -1.441, 0.759, -0.744], a = 0.2, v = 0.2, t = 0.2)
movej(p[0.415908903621942, 0.249799236480486, 0.318891709673099, -1.441, 0.759, -0.744], a = 0.2, v = 0.2, t = 0.2)
movej(p[0.415907126524284, 0.249799388873383, 0.318713730960342, -1.441, 0.759, -0.744], a = 0.2, v = 0.2, t = 0.2)
movej(p[0.415906058452324, 0.249799480464624, 0.318606762121756, -1.441, 0.759, -0.744], a = 0.2, v = 0.2, t = 0.2)
movej(p[0.415905967784076, 0.249799488239772, 0.318597681575187, -1.441, 0.759, -0.744], a = 0.2, v = 0.2, t = 0.2)
movej(p[0.415905958717251, 0.249799489017286, 0.31859677352053, -1.441, 0.759, -0.744], a = 0.2, v = 0.2, t = 0.2)
movej(p[0.415904843497802, 0.249799584651604, 0.318485082797729, -1.441, 0.759, -0.744], a = 0.2, v = 0.2, t = 0.2)
movej(p[0.415906787425037, 0.249799417952435, 0.318679769716173, -1.441, 0.759, -0.744], a = 0.2, v = 0.2, t = 0.2)
movej(p[0.415912880331294, 0.249798895462503, 0.319289982445626, -1.441, 0.759, -0.744], a = 0.2, v = 0.2, t = 0.2)
movej(p[0.415920565371985, 0.249798236440975, 0.320059649572834, -1.441, 0.759, -0.744], a = 0.2, v = 0.2, t = 0.2)
movej(p[0.415928919544345, 0.249797520038857, 0.320896331133724, -1.441, 0.759, -0.744], a = 0.2, v = 0.2, t = 0.2)
movej(p[0.415939770720252, 0.249796589509168, 0.32198309094713, -1.441, 0.759, -0.744], a = 0.2, v = 0.2, t = 0.2)
movej(p[0.415950057939656, 0.249795707340898, 0.323013369760876, -1.441, 0.759, -0.744], a = 0.2, v = 0.2, t = 0.2)
movej(p[0.415954970345327, 0.24979528608339, 0.323505353773997, -1.441, 0.759, -0.744], a = 0.2, v = 0.2, t = 0.2)
movej(p[0.415943870738421, 0.249796237916984, 0.322393713262991, -1.441, 0.759, -0.744], a = 0.2, v = 0.2, t = 0.2)
movej(p[0.415930986780397, 0.249797342765487, 0.321103367595502, -1.441, 0.759, -0.744], a = 0.2, v = 0.2, t = 0.2)
movej(p[0.415920324194446, 0.249798257122869, 0.32003549531896, -1.441, 0.759, -0.744], a = 0.2, v = 0.2, t = 0.2)
movej(p[0.415912276480763, 0.249798947244987, 0.319229506005475, -1.441, 0.759, -0.744], a = 0.2, v = 0.2, t = 0.2)
movej(p[0.415909037810949, 0.249799224973267, 0.318905148882022, -1.441, 0.759, -0.744], a = 0.2, v = 0.2, t = 0.2)
movej(p[0.415907650586756, 0.249799343933028, 0.318766216519512, -1.441, 0.759, -0.744], a = 0.2, v = 0.2, t = 0.2)
movej(p[0.415906983268452, 0.249799401158116, 0.318699383696763, -1.441, 0.759, -0.744], a = 0.2, v = 0.2, t = 0.2)
movej(p[0.415905592417529, 0.249799520428884, 0.318560088112391, -1.441, 0.759, -0.744], a = 0.2, v = 0.2, t = 0.2)
movej(p[0.415905761060471, 0.249799505967109, 0.318576977929009, -1.441, 0.759, -0.744], a = 0.2, v = 0.2, t = 0.2)
movej(p[0.41590577556739, 0.249799504723085, 0.31857843081646, -1.441, 0.759, -0.744], a = 0.2, v = 0.2, t = 0.2)
movej(p[0.415908093047806, 0.249799305990307, 0.31881052958677, -1.441, 0.759, -0.744], a = 0.2, v = 0.2, t = 0.2)
movej(p[0.415914214967903, 0.249798781012327, 0.319423648091125, -1.441, 0.759, -0.744], a = 0.2, v = 0.2, t = 0.2)
movej(p[0.415923731507201, 0.249797964932814, 0.320376742259032, -1.441, 0.759, -0.744], a = 0.2, v = 0.2, t = 0.2)
movej(p[0.415933269806878, 0.249797146987265, 0.321332015758116, -1.441, 0.759, -0.744], a = 0.2, v = 0.2, t = 0.2)
movej(p[0.415940463425665, 0.249796530107039, 0.322052466322919, -1.441, 0.759, -0.744], a = 0.2, v = 0.2, t = 0.2)
movej(p[0.415947707818671, 0.249795908872729, 0.322778001993801, -1.441, 0.759, -0.744], a = 0.2, v = 0.2, t = 0.2)
movej(p[0.415950569308575, 0.249795663489064, 0.323064584043526, -1.441, 0.759, -0.744], a = 0.2, v = 0.2, t = 0.2)
movej(p[0.415939304685457, 0.249796629473427, 0.321936416937764, -1.441, 0.759, -0.744], a = 0.2, v = 0.2, t = 0.2)
movej(p[0.415924299090433, 0.249797916260389, 0.320433586480555, -1.441, 0.759, -0.744], a = 0.2, v = 0.2, t = 0.2)
movej(p[0.415916465353816, 0.249798588033159, 0.319649027256973, -1.441, 0.759, -0.744], a = 0.2, v = 0.2, t = 0.2)
movej(p[0.415912203946165, 0.249798953465106, 0.319222241568219, -1.441, 0.759, -0.744], a = 0.2, v = 0.2, t = 0.2)
movej(p[0.415909106718817, 0.249799219064155, 0.318912050097414, -1.441, 0.759, -0.744], a = 0.2, v = 0.2, t = 0.2)
movej(p[0.415906977828357, 0.249799401624625, 0.318698838863968, -1.441, 0.759, -0.744], a = 0.2, v = 0.2, t = 0.2)
movej(p[0.415906504540103, 0.249799442210897, 0.318651438410877, -1.441, 0.759, -0.744], a = 0.2, v = 0.2, t = 0.2)
movej(p[0.415906245228914, 0.249799464447819, 0.318625468047689, -1.441, 0.759, -0.744], a = 0.2, v = 0.2, t = 0.2)
movej(p[0.415905073795152, 0.249799564902729, 0.318508147386014, -1.441, 0.759, -0.744], a = 0.2, v = 0.2, t = 0.2)
movej(p[0.415905449161698, 0.249799532713617, 0.318545740848811, -1.441, 0.759, -0.744], a = 0.2, v = 0.2, t = 0.2)
movej(p[0.415909333389437, 0.249799199626285, 0.318934751463837, -1.441, 0.759, -0.744], a = 0.2, v = 0.2, t = 0.2)
movej(p[0.415916866107471, 0.249798553667006, 0.319689163272809, -1.441, 0.759, -0.744], a = 0.2, v = 0.2, t = 0.2)
movej(p[0.415923490329662, 0.249797985614707, 0.320352588005158, -1.441, 0.759, -0.744], a = 0.2, v = 0.2, t = 0.2)
movej(p[0.415933199085645, 0.24979715305188, 0.321324932931792, -1.441, 0.759, -0.744], a = 0.2, v = 0.2, t = 0.2)
movej(p[0.415941344721035, 0.249796454532602, 0.322140729235572, -1.441, 0.759, -0.744], a = 0.2, v = 0.2, t = 0.2)
movej(p[0.415946833776762, 0.249795983825154, 0.322690465524874, -1.441, 0.759, -0.744], a = 0.2, v = 0.2, t = 0.2)
movej(p[0.415949940070934, 0.24979571744859, 0.323001565050336, -1.441, 0.759, -0.744], a = 0.2, v = 0.2, t = 0.2)
movej(p[0.415938702648292, 0.249796681100409, 0.321876122108544, -1.441, 0.759, -0.744], a = 0.2, v = 0.2, t = 0.2)
movej(p[0.415926206750368, 0.249797752671279, 0.320624641180372, -1.441, 0.759, -0.744], a = 0.2, v = 0.2, t = 0.2)
movej(p[0.415915562298067, 0.249798665473631, 0.319558585013144, -1.441, 0.759, -0.744], a = 0.2, v = 0.2, t = 0.2)
movej(p[0.415911251929562, 0.249799035104158, 0.319126895829242, -1.441, 0.759, -0.744], a = 0.2, v = 0.2, t = 0.2)
movej(p[0.415908725912176, 0.249799251719775, 0.318873911801823, -1.441, 0.759, -0.744], a = 0.2, v = 0.2, t = 0.2)
movej(p[0.415907064869875, 0.249799394160483, 0.318707556188675, -1.441, 0.759, -0.744], a = 0.2, v = 0.2, t = 0.2)
movej(p[0.415905737486726, 0.249799507988647, 0.318574616986901, -1.441, 0.759, -0.744], a = 0.2, v = 0.2, t = 0.2)
movej(p[0.415905887996018, 0.249799495081902, 0.318589690694206, -1.441, 0.759, -0.744], a = 0.2, v = 0.2, t = 0.2)
movej(p[0.415910419595047, 0.249799106480014, 0.319043536411737, -1.441, 0.759, -0.744], a = 0.2, v = 0.2, t = 0.2)
movej(p[0.415917509852031, 0.249798498463456, 0.319753635153451, -1.441, 0.759, -0.744], a = 0.2, v = 0.2, t = 0.2)
movej(p[0.415927686456174, 0.249797625780867, 0.320772835700382, -1.441, 0.759, -0.744], a = 0.2, v = 0.2, t = 0.2)
movej(p[0.415937962795389, 0.249796744545615, 0.321802024848539, -1.441, 0.759, -0.744], a = 0.2, v = 0.2, t = 0.2)
movej(p[0.415946170085187, 0.249796040739236, 0.322623995923987, -1.441, 0.759, -0.744], a = 0.2, v = 0.2, t = 0.2)
movej(p[0.415949726093869, 0.249795735797939, 0.322980134960432, -1.441, 0.759, -0.744], a = 0.2, v = 0.2, t = 0.2)
movej(p[0.415940269395615, 0.249796546745855, 0.322033033953261, -1.441, 0.759, -0.744], a = 0.2, v = 0.2, t = 0.2)
movej(p[0.415926845054833, 0.249797697934239, 0.32068856822822, -1.441, 0.759, -0.744], a = 0.2, v = 0.2, t = 0.2)
movej(p[0.415916012012576, 0.249798626908898, 0.319603624524127, -1.441, 0.759, -0.744], a = 0.2, v = 0.2, t = 0.2)
movej(p[0.415911019818848, 0.249799055008536, 0.319103649630025, -1.441, 0.759, -0.744], a = 0.2, v = 0.2, t = 0.2)
movej(p[0.415908600789994, 0.249799262449479, 0.318861380647558, -1.441, 0.759, -0.744], a = 0.2, v = 0.2, t = 0.2)
movej(p[0.415907358634998, 0.249799368969004, 0.318736977159559, -1.441, 0.759, -0.744], a = 0.2, v = 0.2, t = 0.2)
movej(p[0.415905654071938, 0.249799515141783, 0.318566262884058, -1.441, 0.759, -0.744], a = 0.2, v = 0.2, t = 0.2)
movej(p[0.415905565217055, 0.249799522761428, 0.31855736394842, -1.441, 0.759, -0.744], a = 0.2, v = 0.2, t = 0.2)
movej(p[0.415906687689964, 0.249799426505098, 0.318669781114947, -1.441, 0.759, -0.744], a = 0.2, v = 0.2, t = 0.2)
movej(p[0.415911868473648, 0.249798982233153, 0.319188643545913, -1.441, 0.759, -0.744], a = 0.2, v = 0.2, t = 0.2)
movej(p[0.415921502881668, 0.249798156045947, 0.32015354242436, -1.441, 0.759, -0.744], a = 0.2, v = 0.2, t = 0.2)
movej(p[0.415932366751129, 0.249797224427737, 0.321241573514286, -1.441, 0.759, -0.744], a = 0.2, v = 0.2, t = 0.2)
movej(p[0.415941393681889, 0.249796450334022, 0.322145632730719, -1.441, 0.759, -0.744], a = 0.2, v = 0.2, t = 0.2)
movej(p[0.415947620777153, 0.249795916336871, 0.322769284669094, -1.441, 0.759, -0.744], a = 0.2, v = 0.2, t = 0.2)
movej(p[0.415950611015969, 0.249795659912496, 0.323068761094948, -1.441, 0.759, -0.744], a = 0.2, v = 0.2, t = 0.2)
movej(p[0.415939380846786, 0.249796622942303, 0.321944044596882, -1.441, 0.759, -0.744], a = 0.2, v = 0.2, t = 0.2)
movej(p[0.415924322664177, 0.24979791423885, 0.320435947422663, -1.441, 0.759, -0.744], a = 0.2, v = 0.2, t = 0.2)
movej(p[0.415915154290951, 0.249798700461796, 0.319517722553582, -1.441, 0.759, -0.744], a = 0.2, v = 0.2, t = 0.2)
movej(p[0.415910590051353, 0.249799091862737, 0.319060607839287, -1.441, 0.759, -0.744], a = 0.2, v = 0.2, t = 0.2)
movej(p[0.415908087607711, 0.249799306456816, 0.318809984753976, -1.441, 0.759, -0.744], a = 0.2, v = 0.2, t = 0.2)
movej(p[0.41590577919412, 0.249799504412079, 0.318578794038323, -1.441, 0.759, -0.744], a = 0.2, v = 0.2, t = 0.2)
movej(p[0.415905635938288, 0.249799516696813, 0.318564446774744, -1.441, 0.759, -0.744], a = 0.2, v = 0.2, t = 0.2)
movej(p[0.415905592417529, 0.249799520428884, 0.318560088112391, -1.441, 0.759, -0.744], a = 0.2, v = 0.2, t = 0.2)
movej(p[0.41590535849345, 0.249799540488765, 0.318536660302242, -1.441, 0.759, -0.744], a = 0.2, v = 0.2, t = 0.2)
movej(p[0.415904656721211, 0.249799600668409, 0.318466376871796, -1.441, 0.759, -0.744], a = 0.2, v = 0.2, t = 0.2)
movej(p[0.415908452094068, 0.249799275200722, 0.318846488551184, -1.441, 0.759, -0.744], a = 0.2, v = 0.2, t = 0.2)
movej(p[0.415916135321393, 0.249798616334697, 0.319615974067461, -1.441, 0.759, -0.744], a = 0.2, v = 0.2, t = 0.2)
movej(p[0.415922647114956, 0.249798057923582, 0.320268138922064, -1.441, 0.759, -0.744], a = 0.2, v = 0.2, t = 0.2)
movej(p[0.415930876165134, 0.249797352251167, 0.321092289328688, -1.441, 0.759, -0.744], a = 0.2, v = 0.2, t = 0.2)
movej(p[0.415939685492099, 0.249796596817807, 0.321974555233355, -1.441, 0.759, -0.744], a = 0.2, v = 0.2, t = 0.2)
movej(p[0.415946180965377, 0.249796039806218, 0.322625085589575, -1.441, 0.759, -0.744], a = 0.2, v = 0.2, t = 0.2)
movej(p[0.415944610591324, 0.249796174471778, 0.322467810522996, -1.441, 0.759, -0.744], a = 0.2, v = 0.2, t = 0.2)
movej(p[0.415933674187264, 0.249797112310106, 0.321372514995814, -1.441, 0.759, -0.744], a = 0.2, v = 0.2, t = 0.2)
movej(p[0.415922190146987, 0.249798097110327, 0.320222372967355, -1.441, 0.759, -0.744], a = 0.2, v = 0.2, t = 0.2)
movej(p[0.415913174096417, 0.249798870271024, 0.31931940341651, -1.441, 0.759, -0.744], a = 0.2, v = 0.2, t = 0.2)
movej(p[0.415909730516363, 0.249799165571138, 0.31897452425781, -1.441, 0.759, -0.744], a = 0.2, v = 0.2, t = 0.2)
movej(p[0.415907665093676, 0.249799342689005, 0.318767669406963, -1.441, 0.759, -0.744], a = 0.2, v = 0.2, t = 0.2)
movej(p[0.41590665323603, 0.249799429459654, 0.318666330507251, -1.441, 0.759, -0.744], a = 0.2, v = 0.2, t = 0.2)
movej(p[0.4159049160324, 0.249799578431486, 0.318492347234984, -1.441, 0.759, -0.744], a = 0.2, v = 0.2, t = 0.2)
movej(p[0.415904818110693, 0.249799586828646, 0.318482540244689, -1.441, 0.759, -0.744], a = 0.2, v = 0.2, t = 0.2)
movej(p[0.415904986753634, 0.249799572366871, 0.318499430061308, -1.441, 0.759, -0.744], a = 0.2, v = 0.2, t = 0.2)
movej(p[0.415905166276764, 0.249799556972078, 0.318517409543515, -1.441, 0.759, -0.744], a = 0.2, v = 0.2, t = 0.2)
movej(p[0.415911893860757, 0.249798980056111, 0.319191186098952, -1.441, 0.759, -0.744], a = 0.2, v = 0.2, t = 0.2)
movej(p[0.415919629675667, 0.249798316680501, 0.31996593833224, -1.441, 0.759, -0.744], a = 0.2, v = 0.2, t = 0.2)
movej(p[0.415927706403188, 0.249797624070334, 0.320774833420627, -1.441, 0.759, -0.744], a = 0.2, v = 0.2, t = 0.2)
movej(p[0.415934127528503, 0.249797073434367, 0.321417917728661, -1.441, 0.759, -0.744], a = 0.2, v = 0.2, t = 0.2)
movej(p[0.415942035613084, 0.249796395285976, 0.32220992300043, -1.441, 0.759, -0.744], a = 0.2, v = 0.2, t = 0.2)
movej(p[0.415947718698861, 0.249795907939711, 0.322779091659389, -1.441, 0.759, -0.744], a = 0.2, v = 0.2, t = 0.2)
movej(p[0.415938118744775, 0.249796731172361, 0.321817643388639, -1.441, 0.759, -0.744], a = 0.2, v = 0.2, t = 0.2)
movej(p[0.415926203123638, 0.249797752982285, 0.320624277958509, -1.441, 0.759, -0.744], a = 0.2, v = 0.2, t = 0.2)
movej(p[0.415917649481133, 0.249798486489729, 0.319767619195168, -1.441, 0.759, -0.744], a = 0.2, v = 0.2, t = 0.2)
movej(p[0.415912051623509, 0.249798966527354, 0.319206986249983, -1.441, 0.759, -0.744], a = 0.2, v = 0.2, t = 0.2)
movej(p[0.415907652400121, 0.249799343777525, 0.318766398130444, -1.441, 0.759, -0.744], a = 0.2, v = 0.2, t = 0.2)
movej(p[0.415906522673753, 0.249799440655867, 0.318653254520191, -1.441, 0.759, -0.744], a = 0.2, v = 0.2, t = 0.2)
movej(p[0.415906018558295, 0.249799483885689, 0.318602766681266, -1.441, 0.759, -0.744], a = 0.2, v = 0.2, t = 0.2)
movej(p[0.41590534761326, 0.249799541421783, 0.318535570636654, -1.441, 0.759, -0.744], a = 0.2, v = 0.2, t = 0.2)
movej(p[0.415907168231678, 0.249799385296815, 0.318717908011764, -1.441, 0.759, -0.744], a = 0.2, v = 0.2, t = 0.2)
movej(p[0.415915183304791, 0.249798697973749, 0.319520628328484, -1.441, 0.759, -0.744], a = 0.2, v = 0.2, t = 0.2)
movej(p[0.415923439555443, 0.24979798996879, 0.320347502899079, -1.441, 0.759, -0.744], a = 0.2, v = 0.2, t = 0.2)
movej(p[0.415930839897835, 0.249797355361226, 0.32108865711006, -1.441, 0.759, -0.744], a = 0.2, v = 0.2, t = 0.2)
movej(p[0.415940802524913, 0.249796501027986, 0.322086427567088, -1.441, 0.759, -0.744], a = 0.2, v = 0.2, t = 0.2)
movej(p[0.41594969708003, 0.249795738285986, 0.32297722918553, -1.441, 0.759, -0.744], a = 0.2, v = 0.2, t = 0.2)
movej(p[0.415951820530395, 0.249795556192025, 0.323189895586182, -1.441, 0.759, -0.744], a = 0.2, v = 0.2, t = 0.2)
movej(p[0.415937950101834, 0.249796745634136, 0.32180075357202, -1.441, 0.759, -0.744], a = 0.2, v = 0.2, t = 0.2)
movej(p[0.415926589370374, 0.249797719860155, 0.320662961086894, -1.441, 0.759, -0.744], a = 0.2, v = 0.2, t = 0.2)
movej(p[0.415917275927952, 0.249798518523338, 0.319730207343302, -1.441, 0.759, -0.744], a = 0.2, v = 0.2, t = 0.2)
movej(p[0.41591026364566, 0.249799119853269, 0.319027917871638, -1.441, 0.759, -0.744], a = 0.2, v = 0.2, t = 0.2)
movej(p[0.415907621572917, 0.249799346421076, 0.31876331074461, -1.441, 0.759, -0.744], a = 0.2, v = 0.2, t = 0.2)
movej(p[0.415906363097636, 0.249799454340127, 0.318637272758229, -1.441, 0.759, -0.744], a = 0.2, v = 0.2, t = 0.2)
movej(p[0.415905824528244, 0.249799500524505, 0.318583334311608, -1.441, 0.759, -0.744], a = 0.2, v = 0.2, t = 0.2)
movej(p[0.415904344822439, 0.249799627414917, 0.318435139791598, -1.441, 0.759, -0.744], a = 0.2, v = 0.2, t = 0.2)
movej(p[0.415904381089738, 0.249799624304858, 0.318438772010226, -1.441, 0.759, -0.744], a = 0.2, v = 0.2, t = 0.2)
movej(p[0.415905985917725, 0.249799486684742, 0.318599497684501, -1.441, 0.759, -0.744], a = 0.2, v = 0.2, t = 0.2)
movej(p[0.415911324464161, 0.249799028884039, 0.319134160266498, -1.441, 0.759, -0.744], a = 0.2, v = 0.2, t = 0.2)
movej(p[0.415919355857558, 0.249798340161447, 0.319938515081601, -1.441, 0.759, -0.744], a = 0.2, v = 0.2, t = 0.2)
movej(p[0.415929610436394, 0.249797460792231, 0.320965524898581, -1.441, 0.759, -0.744], a = 0.2, v = 0.2, t = 0.2)
movej(p[0.415939025427254, 0.249796653420883, 0.321908448854331, -1.441, 0.759, -0.744], a = 0.2, v = 0.2, t = 0.2)
movej(p[0.415946253499975, 0.2497960335861, 0.32263235002683, -1.441, 0.759, -0.744], a = 0.2, v = 0.2, t = 0.2)
movej(p[0.415952805187567, 0.24979547175392, 0.323288510321923, -1.441, 0.759, -0.744], a = 0.2, v = 0.2, t = 0.2)
movej(p[0.41594518361465, 0.249796125332844, 0.322525199577313, -1.441, 0.759, -0.744], a = 0.2, v = 0.2, t = 0.2)
movej(p[0.415929396459329, 0.249797479141579, 0.320944094808678, -1.441, 0.759, -0.744], a = 0.2, v = 0.2, t = 0.2)
movej(p[0.415916829840172, 0.249798556777065, 0.319685531054182, -1.441, 0.759, -0.744], a = 0.2, v = 0.2, t = 0.2)
movej(p[0.415911163074679, 0.249799042723803, 0.319117996893604, -1.441, 0.759, -0.744], a = 0.2, v = 0.2, t = 0.2)
movej(p[0.415908287077857, 0.249799289351491, 0.318829961956428, -1.441, 0.759, -0.744], a = 0.2, v = 0.2, t = 0.2)
movej(p[0.415905617804639, 0.249799518251842, 0.31856263066543, -1.441, 0.759, -0.744], a = 0.2, v = 0.2, t = 0.2)
movej(p[0.415905133636195, 0.249799559771131, 0.31851414054675, -1.441, 0.759, -0.744], a = 0.2, v = 0.2, t = 0.2)
movej(p[0.41590536937364, 0.249799539555747, 0.31853774996783, -1.441, 0.759, -0.744], a = 0.2, v = 0.2, t = 0.2)
movej(p[0.415910758694294, 0.249799077400962, 0.319077497655906, -1.441, 0.759, -0.744], a = 0.2, v = 0.2, t = 0.2)
movej(p[0.415918195303985, 0.249798439683339, 0.319822284085514, -1.441, 0.759, -0.744], a = 0.2, v = 0.2, t = 0.2)
movej(p[0.415928409988792, 0.249797563735187, 0.320845298462005, -1.441, 0.759, -0.744], a = 0.2, v = 0.2, t = 0.2)
movej(p[0.415939083454933, 0.249796648444788, 0.321914260404135, -1.441, 0.759, -0.744], a = 0.2, v = 0.2, t = 0.2)
movej(p[0.41594671228131, 0.249795994243852, 0.322678297592471, -1.441, 0.759, -0.744], a = 0.2, v = 0.2, t = 0.2)
movej(p[0.415953385464354, 0.249795421992974, 0.323346625819967, -1.441, 0.759, -0.744], a = 0.2, v = 0.2, t = 0.2)
movej(p[0.415948081371853, 0.24979587683912, 0.322815413845666, -1.441, 0.759, -0.744], a = 0.2, v = 0.2, t = 0.2)
movej(p[0.415933935311818, 0.24979708991768, 0.321398666969934, -1.441, 0.759, -0.744], a = 0.2, v = 0.2, t = 0.2)
movej(p[0.415919776558228, 0.249798304084761, 0.319980648817682, -1.441, 0.759, -0.744], a = 0.2, v = 0.2, t = 0.2)
movej(p[0.41591306166779, 0.249798879912208, 0.319308143538764, -1.441, 0.759, -0.744], a = 0.2, v = 0.2, t = 0.2)
movej(p[0.415909088585168, 0.249799220619184, 0.3189102339881, -1.441, 0.759, -0.744], a = 0.2, v = 0.2, t = 0.2)
movej(p[0.415906763851292, 0.249799419973974, 0.318677408774065, -1.441, 0.759, -0.744], a = 0.2, v = 0.2, t = 0.2)
movej(p[0.415905113689181, 0.249799561481664, 0.318512142826505, -1.441, 0.759, -0.744], a = 0.2, v = 0.2, t = 0.2)
movej(p[0.415905044781312, 0.249799567390776, 0.318505241611112, -1.441, 0.759, -0.744], a = 0.2, v = 0.2, t = 0.2)
movej(p[0.415907311487509, 0.249799373012081, 0.318732255275343, -1.441, 0.759, -0.744], a = 0.2, v = 0.2, t = 0.2)
movej(p[0.415914412624684, 0.249798764062505, 0.319443443682646, -1.441, 0.759, -0.744], a = 0.2, v = 0.2, t = 0.2)
movej(p[0.415925367162393, 0.249797824669148, 0.320540555319141, -1.441, 0.759, -0.744], a = 0.2, v = 0.2, t = 0.2)
movej(p[0.415936241912044, 0.24979689211792, 0.321629676074655, -1.441, 0.759, -0.744], a = 0.2, v = 0.2, t = 0.2)
movej(p[0.415945323243752, 0.249796113359116, 0.32253918361903, -1.441, 0.759, -0.744], a = 0.2, v = 0.2, t = 0.2)
movej(p[0.415952524115999, 0.249795495856878, 0.323260360627559, -1.441, 0.759, -0.744], a = 0.2, v = 0.2, t = 0.2)
movej(p[0.415952518675904, 0.249795496323387, 0.323259815794765, -1.441, 0.759, -0.744], a = 0.2, v = 0.2, t = 0.2)
movej(p[0.415938936572371, 0.249796661040528, 0.321899549918693, -1.441, 0.759, -0.744], a = 0.2, v = 0.2, t = 0.2)
movej(p[0.415924246502849, 0.249797920769975, 0.320428319763545, -1.441, 0.759, -0.744], a = 0.2, v = 0.2, t = 0.2)
movej(p[0.415915605818826, 0.24979866174156, 0.319562943675497, -1.441, 0.759, -0.744], a = 0.2, v = 0.2, t = 0.2)
movej(p[0.415910153030398, 0.249799129338949, 0.319016839604823, -1.441, 0.759, -0.744], a = 0.2, v = 0.2, t = 0.2)
movej(p[0.415907637893202, 0.249799345021549, 0.318764945242992, -1.441, 0.759, -0.744], a = 0.2, v = 0.2, t = 0.2)
movej(p[0.415905117315911, 0.249799561170658, 0.318512506048368, -1.441, 0.759, -0.744], a = 0.2, v = 0.2, t = 0.2)
movej(p[0.415904787283488, 0.249799589472196, 0.318479452858856, -1.441, 0.759, -0.744], a = 0.2, v = 0.2, t = 0.2)
movej(p[0.415904720188985, 0.249799595225805, 0.318472733254394, -1.441, 0.759, -0.744], a = 0.2, v = 0.2, t = 0.2)
movej(p[0.415903853400535, 0.249799669556218, 0.318385923229193, -1.441, 0.759, -0.744], a = 0.2, v = 0.2, t = 0.2)
movej(p[0.415907757575289, 0.249799334758354, 0.318776931564464, -1.441, 0.759, -0.744], a = 0.2, v = 0.2, t = 0.2)
movej(p[0.41591586331665, 0.24979863966014, 0.319588732427754, -1.441, 0.759, -0.744], a = 0.2, v = 0.2, t = 0.2)
movej(p[0.415924380691856, 0.249797909262756, 0.320441758972468, -1.441, 0.759, -0.744], a = 0.2, v = 0.2, t = 0.2)
movej(p[0.415931965997474, 0.249797258793891, 0.32120143749845, -1.441, 0.759, -0.744], a = 0.2, v = 0.2, t = 0.2)
movej(p[0.415942131721426, 0.249796387044319, 0.322219548379793, -1.441, 0.759, -0.744], a = 0.2, v = 0.2, t = 0.2)
movej(p[0.41595033719786, 0.249795683393443, 0.323041337844309, -1.441, 0.759, -0.744], a = 0.2, v = 0.2, t = 0.2)
movej(p[0.415948522019537, 0.249795839051902, 0.322859545301993, -1.441, 0.759, -0.744], a = 0.2, v = 0.2, t = 0.2)
movej(p[0.415938579339474, 0.24979669167461, 0.32186377256521, -1.441, 0.759, -0.744], a = 0.2, v = 0.2, t = 0.2)
movej(p[0.415927548640437, 0.249797637599092, 0.320759033269597, -1.441, 0.759, -0.744], a = 0.2, v = 0.2, t = 0.2)
movej(p[0.415917919672512, 0.249798463319788, 0.319794679223944, -1.441, 0.759, -0.744], a = 0.2, v = 0.2, t = 0.2)
movej(p[0.415910484876185, 0.249799100881908, 0.319050074405267, -1.441, 0.759, -0.744], a = 0.2, v = 0.2, t = 0.2)
movej(p[0.41590813112847, 0.249799302724745, 0.318814343416329, -1.441, 0.759, -0.744], a = 0.2, v = 0.2, t = 0.2)
movej(p[0.415906647795935, 0.249799429926163, 0.318665785674456, -1.441, 0.759, -0.744], a = 0.2, v = 0.2, t = 0.2)
movej(p[0.415905476362172, 0.249799530381073, 0.318548465012782, -1.441, 0.759, -0.744], a = 0.2, v = 0.2, t = 0.2)
movej(p[0.415904315808599, 0.249799629902965, 0.318432234016696, -1.441, 0.759, -0.744], a = 0.2, v = 0.2, t = 0.2)
movej(p[0.415904335755614, 0.249799628192432, 0.318434231736941, -1.441, 0.759, -0.744], a = 0.2, v = 0.2, t = 0.2)
movej(p[0.415907471063626, 0.249799359327821, 0.318748237037305, -1.441, 0.759, -0.744], a = 0.2, v = 0.2, t = 0.2)
movej(p[0.415913402580402, 0.249798850677652, 0.319342286393865, -1.441, 0.759, -0.744], a = 0.2, v = 0.2, t = 0.2)
movej(p[0.415922371483483, 0.249798081560031, 0.320240534060493, -1.441, 0.759, -0.744], a = 0.2, v = 0.2, t = 0.2)
movej(p[0.415932257949232, 0.249797233757915, 0.321230676858403, -1.441, 0.759, -0.744], a = 0.2, v = 0.2, t = 0.2)
movej(p[0.415940389077702, 0.24979653648266, 0.322045020274732, -1.441, 0.759, -0.744], a = 0.2, v = 0.2, t = 0.2)
movej(p[0.415946657880361, 0.249795998908941, 0.322672849264529, -1.441, 0.759, -0.744], a = 0.2, v = 0.2, t = 0.2)
movej(p[0.41594883391831, 0.249795812305393, 0.322890782382191, -1.441, 0.759, -0.744], a = 0.2, v = 0.2, t = 0.2)
movej(p[0.415938766116065, 0.249796675657805, 0.321882478491143, -1.441, 0.759, -0.744], a = 0.2, v = 0.2, t = 0.2)
movej(p[0.415923898336777, 0.249797950626542, 0.320393450464719, -1.441, 0.759, -0.744], a = 0.2, v = 0.2, t = 0.2)
movej(p[0.415915854249825, 0.249798640437655, 0.319587824373097, -1.441, 0.759, -0.744], a = 0.2, v = 0.2, t = 0.2)
movej(p[0.415910804028418, 0.249799073513388, 0.31908203792919, -1.441, 0.759, -0.744], a = 0.2, v = 0.2, t = 0.2)
movej(p[0.415907882697471, 0.24979932402865, 0.318789462718729, -1.441, 0.759, -0.744], a = 0.2, v = 0.2, t = 0.2)
movej(p[0.415905077421881, 0.249799564591723, 0.318508510607877, -1.441, 0.759, -0.744], a = 0.2, v = 0.2, t = 0.2)
movej(p[0.415904647654387, 0.249799601445924, 0.318465468817139, -1.441, 0.759, -0.744], a = 0.2, v = 0.2, t = 0.2)
movej(p[0.415904585999978, 0.249799606733024, 0.318459294045472, -1.441, 0.759, -0.744], a = 0.2, v = 0.2, t = 0.2)
movej(p[0.415903878787644, 0.249799667379177, 0.318388465782232, -1.441, 0.759, -0.744], a = 0.2, v = 0.2, t = 0.2)
movej(p[0.415908435773783, 0.249799276600248, 0.318844854052802, -1.441, 0.759, -0.744], a = 0.2, v = 0.2, t = 0.2)
movej(p[0.415917656734593, 0.249798485867717, 0.319768345638893, -1.441, 0.759, -0.744], a = 0.2, v = 0.2, t = 0.2)
movej(p[0.415927780751152, 0.249797617694713, 0.320782279468814, -1.441, 0.759, -0.744], a = 0.2, v = 0.2, t = 0.2)
movej(p[0.415937941035009, 0.24979674641165, 0.321799845517363, -1.441, 0.759, -0.744], a = 0.2, v = 0.2, t = 0.2)
movej(p[0.415948810344566, 0.249795814326932, 0.322888421440083, -1.441, 0.759, -0.744], a = 0.2, v = 0.2, t = 0.2)
movej(p[0.41595653346592, 0.249795152039842, 0.32366190239685, -1.441, 0.759, -0.744], a = 0.2, v = 0.2, t = 0.2)
movej(p[0.415951116944792, 0.249795616527172, 0.323119430544804, -1.441, 0.759, -0.744], a = 0.2, v = 0.2, t = 0.2)
movej(p[0.415934780339888, 0.249797017453303, 0.321483297663959, -1.441, 0.759, -0.744], a = 0.2, v = 0.2, t = 0.2)
movej(p[0.41592163525731, 0.249798144694231, 0.320166800022351, -1.441, 0.759, -0.744], a = 0.2, v = 0.2, t = 0.2)
movej(p[0.415913714479175, 0.249798823931143, 0.319373523474063, -1.441, 0.759, -0.744], a = 0.2, v = 0.2, t = 0.2)
movej(p[0.415907570798698, 0.249799350775158, 0.318758225638531, -1.441, 0.759, -0.744], a = 0.2, v = 0.2, t = 0.2)
movej(p[0.415906219841805, 0.249799466624861, 0.31862292549465, -1.441, 0.759, -0.744], a = 0.2, v = 0.2, t = 0.2)
movej(p[0.415905376627099, 0.249799538933735, 0.318538476411556, -1.441, 0.759, -0.744], a = 0.2, v = 0.2, t = 0.2)
movej(p[0.415904591440073, 0.249799606266515, 0.318459838878266, -1.441, 0.759, -0.744], a = 0.2, v = 0.2, t = 0.2)
movej(p[0.415903670250674, 0.249799685262017, 0.318367580525123, -1.441, 0.759, -0.744], a = 0.2, v = 0.2, t = 0.2)
movej(p[0.415906959694708, 0.249799403179655, 0.318697022754655, -1.441, 0.759, -0.744], a = 0.2, v = 0.2, t = 0.2)
movej(p[0.41591563664603, 0.24979865909801, 0.319566031061331, -1.441, 0.759, -0.744], a = 0.2, v = 0.2, t = 0.2)
movej(p[0.41592399081839, 0.249797942695891, 0.32040271262222, -1.441, 0.759, -0.744], a = 0.2, v = 0.2, t = 0.2)
movej(p[0.415935320722646, 0.249796971113422, 0.321537417721512, -1.441, 0.759, -0.744], a = 0.2, v = 0.2, t = 0.2)
movej(p[0.415946353235048, 0.249796025033437, 0.322642338628057, -1.441, 0.759, -0.744], a = 0.2, v = 0.2, t = 0.2)
movej(p[0.415952729026239, 0.249795478285044, 0.323280882662805, -1.441, 0.759, -0.744], a = 0.2, v = 0.2, t = 0.2)
movej(p[0.415952538622919, 0.249795494612854, 0.32326181351501, -1.441, 0.759, -0.744], a = 0.2, v = 0.2, t = 0.2)
movej(p[0.415941212345393, 0.249796465884318, 0.322127471637581, -1.441, 0.759, -0.744], a = 0.2, v = 0.2, t = 0.2)
movej(p[0.415927113432847, 0.249797674919801, 0.320715446646065, -1.441, 0.759, -0.744], a = 0.2, v = 0.2, t = 0.2)
movej(p[0.41591541360214, 0.249798678224874, 0.31954369291677, -1.441, 0.759, -0.744], a = 0.2, v = 0.2, t = 0.2)
movej(p[0.415910341620354, 0.249799113166642, 0.319035727141687, -1.441, 0.759, -0.744], a = 0.2, v = 0.2, t = 0.2)
movej(p[0.415907821043062, 0.249799329315751, 0.318783287947062, -1.441, 0.759, -0.744], a = 0.2, v = 0.2, t = 0.2)
movej(p[0.415905933330141, 0.249799491194328, 0.318594230967491, -1.441, 0.759, -0.744], a = 0.2, v = 0.2, t = 0.2)
movej(p[0.415904366582818, 0.249799625548882, 0.318437319122774, -1.441, 0.759, -0.744], a = 0.2, v = 0.2, t = 0.2)
movej(p[0.415904370209548, 0.249799625237876, 0.318437682344637, -1.441, 0.759, -0.744], a = 0.2, v = 0.2, t = 0.2)
movej(p[0.415907833736617, 0.24979932822723, 0.318784559223582, -1.441, 0.759, -0.744], a = 0.2, v = 0.2, t = 0.2)
movej(p[0.415914806124879, 0.249798730318364, 0.319482853254756, -1.441, 0.759, -0.744], a = 0.2, v = 0.2, t = 0.2)
movej(p[0.415926221257288, 0.249797751427255, 0.320626094067823, -1.441, 0.759, -0.744], a = 0.2, v = 0.2, t = 0.2)
movej(p[0.415937950101834, 0.249796745634136, 0.32180075357202, -1.441, 0.759, -0.744], a = 0.2, v = 0.2, t = 0.2)
movej(p[0.415947218210133, 0.249795950858527, 0.322728967042327, -1.441, 0.759, -0.744], a = 0.2, v = 0.2, t = 0.2)
movej(p[0.415954625805985, 0.249795315628952, 0.323470847697034, -1.441, 0.759, -0.744], a = 0.2, v = 0.2, t = 0.2)
movej(p[0.415954214172139, 0.249795350928123, 0.323429622015609, -1.441, 0.759, -0.744], a = 0.2, v = 0.2, t = 0.2)
movej(p[0.415940548653818, 0.2497965227984, 0.322061002036694, -1.441, 0.759, -0.744], a = 0.2, v = 0.2, t = 0.2)
movej(p[0.415924580162001, 0.249797892157431, 0.32046173617492, -1.441, 0.759, -0.744], a = 0.2, v = 0.2, t = 0.2)
movej(p[0.415916443593436, 0.249798589899194, 0.319646847925797, -1.441, 0.759, -0.744], a = 0.2, v = 0.2, t = 0.2)
movej(p[0.415910987178279, 0.249799057807589, 0.31910038063326, -1.441, 0.759, -0.744], a = 0.2, v = 0.2, t = 0.2)
movej(p[0.415907773895574, 0.249799333358827, 0.318778566062846, -1.441, 0.759, -0.744], a = 0.2, v = 0.2, t = 0.2)
movej(p[0.415905077421881, 0.249799564591723, 0.318508510607877, -1.441, 0.759, -0.744], a = 0.2, v = 0.2, t = 0.2)
movej(p[0.415904709308795, 0.249799596158823, 0.318471643588806, -1.441, 0.759, -0.744], a = 0.2, v = 0.2, t = 0.2)
movej(p[0.415904591440073, 0.249799606266515, 0.318459838878266, -1.441, 0.759, -0.744], a = 0.2, v = 0.2, t = 0.2)
movej(p[0.415906528113848, 0.249799440189358, 0.318653799352985, -1.441, 0.759, -0.744], a = 0.2, v = 0.2, t = 0.2)
movej(p[0.415916561462158, 0.249798579791502, 0.319658652636337, -1.441, 0.759, -0.744], a = 0.2, v = 0.2, t = 0.2)
movej(p[0.415928361027938, 0.249797567933767, 0.320840394966857, -1.441, 0.759, -0.744], a = 0.2, v = 0.2, t = 0.2)
movej(p[0.415939083454933, 0.249796648444788, 0.321914260404135, -1.441, 0.759, -0.744], a = 0.2, v = 0.2, t = 0.2)
movej(p[0.41594776221962, 0.24979590420764, 0.322783450321742, -1.441, 0.759, -0.744], a = 0.2, v = 0.2, t = 0.2)
movej(p[0.415956830857773, 0.249795126537357, 0.323691686589598, -1.441, 0.759, -0.744], a = 0.2, v = 0.2, t = 0.2)
movej(p[0.415956031163827, 0.249795195114161, 0.323611596168857, -1.441, 0.759, -0.744], a = 0.2, v = 0.2, t = 0.2)
movej(p[0.415941687447012, 0.249796425142543, 0.322175053701604, -1.441, 0.759, -0.744], a = 0.2, v = 0.2, t = 0.2)
movej(p[0.415927880486224, 0.249797609142051, 0.32079226807004, -1.441, 0.759, -0.744], a = 0.2, v = 0.2, t = 0.2)
movej(p[0.415917810870614, 0.249798472649966, 0.319783782568061, -1.441, 0.759, -0.744], a = 0.2, v = 0.2, t = 0.2)
movej(p[0.415911567455065, 0.249799008046643, 0.319158496131303, -1.441, 0.759, -0.744], a = 0.2, v = 0.2, t = 0.2)
movej(p[0.41590684001262, 0.24979941344285, 0.318685036433183, -1.441, 0.759, -0.744], a = 0.2, v = 0.2, t = 0.2)
movej(p[0.415905378440464, 0.249799538778232, 0.318538658022487, -1.441, 0.759, -0.744], a = 0.2, v = 0.2, t = 0.2)
movej(p[0.415904792723583, 0.249799589005687, 0.31847999769165, -1.441, 0.759, -0.744], a = 0.2, v = 0.2, t = 0.2)
movej(p[0.415903884227739, 0.249799666912668, 0.318389010615026, -1.441, 0.759, -0.744], a = 0.2, v = 0.2, t = 0.2)
movej(p[0.415904551546044, 0.24979960968758, 0.318455843437776, -1.441, 0.759, -0.744], a = 0.2, v = 0.2, t = 0.2)
movej(p[0.415910426848507, 0.249799105858003, 0.319044262855462, -1.441, 0.759, -0.744], a = 0.2, v = 0.2, t = 0.2)
movej(p[0.415920300620701, 0.249798259144407, 0.320033134376852, -1.441, 0.759, -0.744], a = 0.2, v = 0.2, t = 0.2)
movej(p[0.415929559662175, 0.249797465146313, 0.320960439792503, -1.441, 0.759, -0.744], a = 0.2, v = 0.2, t = 0.2)
movej(p[0.415940938527284, 0.249796489365264, 0.322100048386942, -1.441, 0.759, -0.744], a = 0.2, v = 0.2, t = 0.2)
movej(p[0.41595077965891, 0.249795645450721, 0.323085650911567, -1.441, 0.759, -0.744], a = 0.2, v = 0.2, t = 0.2)
movej(p[0.415954727354422, 0.249795306920786, 0.323481017909191, -1.441, 0.759, -0.744], a = 0.2, v = 0.2, t = 0.2)
movej(p[0.415945586181671, 0.249796090811188, 0.322565517204081, -1.441, 0.759, -0.744], a = 0.2, v = 0.2, t = 0.2)
movej(p[0.415932141893875, 0.249797243710104, 0.321219053758794, -1.441, 0.759, -0.744], a = 0.2, v = 0.2, t = 0.2)
movej(p[0.415920628839758, 0.249798230998372, 0.320066005955433, -1.441, 0.759, -0.744], a = 0.2, v = 0.2, t = 0.2)
movej(p[0.415911505800656, 0.249799013333744, 0.319152321359636, -1.441, 0.759, -0.744], a = 0.2, v = 0.2, t = 0.2)
movej(p[0.415908281637762, 0.249799289818, 0.318829417123634, -1.441, 0.759, -0.744], a = 0.2, v = 0.2, t = 0.2)
movej(p[0.415906274242754, 0.249799461959772, 0.318628373822591, -1.441, 0.759, -0.744], a = 0.2, v = 0.2, t = 0.2)
movej(p[0.415905275078662, 0.249799547641901, 0.318528306199398, -1.441, 0.759, -0.744], a = 0.2, v = 0.2, t = 0.2)
movej(p[0.415903652117025, 0.249799686817047, 0.318365764415809, -1.441, 0.759, -0.744], a = 0.2, v = 0.2, t = 0.2)
movej(p[0.415903594089346, 0.249799691793141, 0.318359952866005, -1.441, 0.759, -0.744], a = 0.2, v = 0.2, t = 0.2)
movej(p[0.415904197939877, 0.249799640010657, 0.318420429306156, -1.441, 0.759, -0.744], a = 0.2, v = 0.2, t = 0.2)
movej(p[0.415907993312733, 0.24979931454297, 0.318800540985544, -1.441, 0.759, -0.744], a = 0.2, v = 0.2, t = 0.2)
movej(p[0.415916779065953, 0.249798561131148, 0.319680445948103, -1.441, 0.759, -0.744], a = 0.2, v = 0.2, t = 0.2)
movej(p[0.415927543200342, 0.2497976380656, 0.320758488436803, -1.441, 0.759, -0.744], a = 0.2, v = 0.2, t = 0.2)
movej(p[0.415936820375465, 0.249796842512477, 0.321687609961767, -1.441, 0.759, -0.744], a = 0.2, v = 0.2, t = 0.2)
movej(p[0.415944240664872, 0.249796206194381, 0.322430761892993, -1.441, 0.759, -0.744], a = 0.2, v = 0.2, t = 0.2)
movej(p[0.41595267099856, 0.249795483261138, 0.323275071113001, -1.441, 0.759, -0.744], a = 0.2, v = 0.2, t = 0.2)
movej(p[0.415951339988682, 0.249795597400308, 0.323141768689365, -1.441, 0.759, -0.744], a = 0.2, v = 0.2, t = 0.2)
movej(p[0.415937442359646, 0.249796789174963, 0.321749902511232, -1.441, 0.759, -0.744], a = 0.2, v = 0.2, t = 0.2)
movej(p[0.415923479449472, 0.249797986547725, 0.32035149833957, -1.441, 0.759, -0.744], a = 0.2, v = 0.2, t = 0.2)
movej(p[0.415915487950103, 0.249798671849252, 0.319551138964957, -1.441, 0.759, -0.744], a = 0.2, v = 0.2, t = 0.2)
movej(p[0.415909966253807, 0.249799145355754, 0.318998133678891, -1.441, 0.759, -0.744], a = 0.2, v = 0.2, t = 0.2)
movej(p[0.415905683085777, 0.249799512653736, 0.31856916865896, -1.441, 0.759, -0.744], a = 0.2, v = 0.2, t = 0.2)
movej(p[0.415904830804247, 0.249799585740125, 0.318483811521209, -1.441, 0.759, -0.744], a = 0.2, v = 0.2, t = 0.2)
