def moving():
set_payload_mass(0.606)
set_tcp(p[0.0005,0.0025,0.058,0,0,0])
movej(p[0.5348, -0.0101, 0.1843, -1.198, 1.201, -1.221], a = 0.2, v = 0.2, t = 0.2)
movej(p[0.534849041975008, -0.0101501210227445, 0.184350820938267, -1.19713837063127, 1.20011968084904, -1.22012440477063], a = 0.2, v = 0.2, t = 0.2)
movej(p[0.5348, -0.0101, 0.1843, -1.198, 1.201, -1.221], a = 0.2, v = 0.2, t = 0.2)
movej(p[0.534849041975008, -0.0101501210227445, 0.184350820938267, -1.19713837063127, 1.20011968084904, -1.22012440477063], a = 0.2, v = 0.2, t = 0.2)
movej(p[0.5348, -0.0101, 0.1843, -1.198, 1.201, -1.221], a = 0.2, v = 0.2, t = 0.2)
movej(p[0.5348, -0.0101, 0.1843, -1.198, 1.201, -1.221], a = 0.2, v = 0.2, t = 0.2)
movej(p[0.534877606980438, -0.00995796750248691, 0.184157555058926, -1.19760260099113, 1.20310217795713, -1.22936759042187], a = 0.2, v = 0.2, t = 0.2)
movej(p[0.535136681744199, -0.0099025616764161, 0.184026250095884, -1.20134341300714, 1.20637692661597, -1.23330369917094], a = 0.2, v = 0.2, t = 0.2)
movej(p[0.535163601163787, -0.00989881732586704, 0.183937979178884, -1.19977248545399, 1.20920906663997, -1.23121168672896], a = 0.2, v = 0.2, t = 0.2)
movej(p[0.535152285136321, -0.0100509464649043, 0.183964926581767, -1.20414852527119, 1.20953424669733, -1.23623182013556], a = 0.2, v = 0.2, t = 0.2)
movej(p[0.535093955831114, -0.0100762782070835, 0.183921440204438, -1.20090646945677, 1.21111993353143, -1.23690003670377], a = 0.2, v = 0.2, t = 0.2)
movej(p[0.534961765658843, -0.0100437745536833, 0.183786224941632, -1.20127346920186, 1.20984293266536, -1.2404955506998], a = 0.2, v = 0.2, t = 0.2)
movej(p[0.534481655131528, -0.0101324841086686, 0.183690454471678, -1.1937760782709, 1.20921069956538, -1.23401007497262], a = 0.2, v = 0.2, t = 0.2)
movej(p[0.533586750588876, -0.010207020250572, 0.183640078749868, -1.18947720928179, 1.2053685549785, -1.24762608815443], a = 0.2, v = 0.2, t = 0.2)
movej(p[0.5326380735428, -0.0100583388665178, 0.183560782870629, -1.18883206509046, 1.19924471877172, -1.25760756306997], a = 0.2, v = 0.2, t = 0.2)
movej(p[0.531682794185605, -0.0097501464092228, 0.183540144871555, -1.19012798298945, 1.1905611607211, -1.26936566008043], a = 0.2, v = 0.2, t = 0.2)
movej(p[0.530832787509203, -0.00962640890288985, 0.183650401721216, -1.18277412617733, 1.183645720702, -1.25719359180215], a = 0.2, v = 0.2, t = 0.2)
movej(p[0.530310784400488, -0.00947743365476409, 0.183743352685376, -1.18086970458375, 1.17512608858154, -1.26306990167194], a = 0.2, v = 0.2, t = 0.2)
movej(p[0.530493610103711, -0.00932276032732081, 0.183751307119281, -1.18711826952994, 1.16855410438931, -1.26432063462863], a = 0.2, v = 0.2, t = 0.2)
movej(p[0.53138625657487, -0.00929453583847365, 0.183799072752906, -1.19364571535208, 1.16616443676747, -1.26543962628889], a = 0.2, v = 0.2, t = 0.2)
movej(p[0.532481969724598, -0.00936222687325623, 0.18388235179783, -1.19508590974069, 1.17000344894509, -1.26066862126731], a = 0.2, v = 0.2, t = 0.2)
movej(p[0.533659998190164, -0.00932636478889045, 0.183866543387982, -1.19644942843041, 1.18001547590754, -1.25960702098195], a = 0.2, v = 0.2, t = 0.2)
movej(p[0.534576241518869, -0.0093103466780876, 0.183795292473392, -1.19797559162229, 1.1916182463088, -1.25352335905559], a = 0.2, v = 0.2, t = 0.2)
movej(p[0.535086758973137, -0.00946562558399565, 0.183782688971174, -1.20494645862671, 1.20041961481714, -1.24928597388651], a = 0.2, v = 0.2, t = 0.2)
movej(p[0.535146871517088, -0.00964363066172031, 0.183758804437185, -1.20328178716671, 1.20498849583965, -1.24687203901472], a = 0.2, v = 0.2, t = 0.2)
movej(p[0.535093647635167, -0.00968667171530578, 0.183661254932831, -1.2012359109839, 1.20780358896474, -1.24288869789322], a = 0.2, v = 0.2, t = 0.2)
movej(p[0.534766075124809, -0.00979610345435414, 0.183575782724652, -1.19423933224993, 1.20705680468987, -1.23691715456604], a = 0.2, v = 0.2, t = 0.2)
movej(p[0.534066625951147, -0.0099532679562598, 0.183591334844437, -1.1920909655045, 1.20600422277239, -1.24225890908122], a = 0.2, v = 0.2, t = 0.2)
movej(p[0.533139943347192, -0.00997097177529817, 0.183539476525742, -1.19129284874151, 1.1997540542317, -1.25724439610012], a = 0.2, v = 0.2, t = 0.2)
movej(p[0.532106511975543, -0.00976551101537305, 0.183516433246385, -1.19191386783187, 1.19296620297015, -1.26811167940377], a = 0.2, v = 0.2, t = 0.2)
movej(p[0.531263040208884, -0.00965915141269197, 0.18360478016635, -1.18871690369279, 1.18479755884743, -1.26409174298293], a = 0.2, v = 0.2, t = 0.2)
movej(p[0.530513988958003, -0.00951604448178678, 0.183739116892454, -1.19141024082499, 1.17522011493142, -1.27072080122523], a = 0.2, v = 0.2, t = 0.2)
movej(p[0.530367321978156, -0.00937481027215717, 0.18377438073162, -1.1944289718017, 1.16799172422389, -1.27128302650651], a = 0.2, v = 0.2, t = 0.2)
movej(p[0.530792123335672, -0.00925871404969326, 0.183752603562803, -1.19402099726744, 1.16562841128484, -1.26726618485722], a = 0.2, v = 0.2, t = 0.2)
movej(p[0.531766283077487, -0.00936206038036354, 0.183820143805368, -1.19559702366047, 1.16757291124158, -1.26280040967531], a = 0.2, v = 0.2, t = 0.2)
movej(p[0.532943239693348, -0.00938925247661803, 0.183823711771459, -1.19445003778966, 1.1753930242852, -1.2603196763631], a = 0.2, v = 0.2, t = 0.2)
movej(p[0.53404023945669, -0.00936041744040562, 0.183777071674823, -1.20380182788273, 1.18395368236545, -1.26101189214737], a = 0.2, v = 0.2, t = 0.2)
movej(p[0.534701392739858, -0.00945789667681085, 0.183761693725472, -1.19880607056055, 1.19660221552232, -1.24439002289195], a = 0.2, v = 0.2, t = 0.2)
movej(p[0.534925707029483, -0.00959022616822846, 0.183776720893232, -1.20361188619098, 1.20163151682035, -1.24811102860145], a = 0.2, v = 0.2, t = 0.2)
movej(p[0.534962493696815, -0.00966413423390329, 0.183704645508843, -1.20556846707677, 1.20383664664941, -1.2501882463278], a = 0.2, v = 0.2, t = 0.2)
movej(p[0.534848701744, -0.00969640133168569, 0.183593270590773, -1.20795651929581, 1.20274118437768, -1.25299093980019], a = 0.2, v = 0.2, t = 0.2)
movej(p[0.534408822268941, -0.00991419289567911, 0.183561730879687, -1.20079795763413, 1.20140782994813, -1.24906630471406], a = 0.2, v = 0.2, t = 0.2)
movej(p[0.533662924146045, -0.00992014146340684, 0.183477930160103, -1.19244435030099, 1.1983634810708, -1.25495629173575], a = 0.2, v = 0.2, t = 0.2)
movej(p[0.53272297356996, -0.00978545870350477, 0.183399290729139, -1.18886455100939, 1.19332480231831, -1.26404078865898], a = 0.2, v = 0.2, t = 0.2)
movej(p[0.531725421593726, -0.0096225527591249, 0.18341985177478, -1.18475357733435, 1.18814661745551, -1.26303767307248], a = 0.2, v = 0.2, t = 0.2)
movej(p[0.530823989524462, -0.00953592304790769, 0.183540333193413, -1.18314985647003, 1.18203001910533, -1.26556207720872], a = 0.2, v = 0.2, t = 0.2)
movej(p[0.530417835179091, -0.00934667151844337, 0.183595145079278, -1.18740054241154, 1.17443179929503, -1.26544666290944], a = 0.2, v = 0.2, t = 0.2)
movej(p[0.530513469274229, -0.00926148757128516, 0.183655866540835, -1.19499743966639, 1.1669098487584, -1.26816450685287], a = 0.2, v = 0.2, t = 0.2)
movej(p[0.53103918020782, -0.00932429663750273, 0.183778090630132, -1.19545224122033, 1.16588155941081, -1.26119806058136], a = 0.2, v = 0.2, t = 0.2)
movej(p[0.532045766950402, -0.0093851480405862, 0.183843842339619, -1.19914211499562, 1.16971661986245, -1.26266226381208], a = 0.2, v = 0.2, t = 0.2)
movej(p[0.533256140059341, -0.00940791542544194, 0.183861872066301, -1.19806754508656, 1.18090935732582, -1.2524397099188], a = 0.2, v = 0.2, t = 0.2)
movej(p[0.534282345758997, -0.00952990622484497, 0.18387329535191, -1.20046761892944, 1.19137137877541, -1.24249194136841], a = 0.2, v = 0.2, t = 0.2)
movej(p[0.534721820783399, -0.00969866665996385, 0.183914716886054, -1.19779913083032, 1.19940253448702, -1.23516568261735], a = 0.2, v = 0.2, t = 0.2)
movej(p[0.534932439730024, -0.00978760200425862, 0.183878305721799, -1.19418093624594, 1.20588085904947, -1.22820696244057], a = 0.2, v = 0.2, t = 0.2)
movej(p[0.534965736586287, -0.00991214504795429, 0.183838505820667, -1.19219067173596, 1.20789651656382, -1.22578247453303], a = 0.2, v = 0.2, t = 0.2)
movej(p[0.534729002950172, -0.0100844908073632, 0.183787951644596, -1.18656148981781, 1.2091348558213, -1.22419494908084], a = 0.2, v = 0.2, t = 0.2)
movej(p[0.534146692910784, -0.0101428512084409, 0.183664422862852, -1.19203542011969, 1.2030872156069, -1.24382595644264], a = 0.2, v = 0.2, t = 0.2)
movej(p[0.533195470721085, -0.0100577144432691, 0.183530825498587, -1.18995710208591, 1.19821750406023, -1.25067389526894], a = 0.2, v = 0.2, t = 0.2)
movej(p[0.532159511981434, -0.0099907445187537, 0.18354834709027, -1.19400993994782, 1.19120898528161, -1.25852613296971], a = 0.2, v = 0.2, t = 0.2)
movej(p[0.531150150632263, -0.00987266831150806, 0.183617572973323, -1.18545047344036, 1.18569973295945, -1.25578778225948], a = 0.2, v = 0.2, t = 0.2)
movej(p[0.530501088048288, -0.00962934886672692, 0.183625910687315, -1.18400610390435, 1.17961078978595, -1.25384940377353], a = 0.2, v = 0.2, t = 0.2)
movej(p[0.530360155734685, -0.0095025268971297, 0.183668059571167, -1.18174622377127, 1.17473285918488, -1.24648876383654], a = 0.2, v = 0.2, t = 0.2)
movej(p[0.530659688255059, -0.00951152112513783, 0.183797436043529, -1.18670109754818, 1.17072822304407, -1.24710909483564], a = 0.2, v = 0.2, t = 0.2)
movej(p[0.531626061702973, -0.00953650273299808, 0.183896264084773, -1.19308459954295, 1.17133148595498, -1.25277542411512], a = 0.2, v = 0.2, t = 0.2)
movej(p[0.53290642162273, -0.00951299673630502, 0.183923777654109, -1.19456736802426, 1.18004862476829, -1.24584000077091], a = 0.2, v = 0.2, t = 0.2)
movej(p[0.534080939786804, -0.0096160633414574, 0.183957631926551, -1.19587712832968, 1.19117783388315, -1.23342612162511], a = 0.2, v = 0.2, t = 0.2)
movej(p[0.534655850775515, -0.009731915282574, 0.183971958932483, -1.19379403686067, 1.20004179292458, -1.22532919927435], a = 0.2, v = 0.2, t = 0.2)
movej(p[0.534918585334815, -0.00981680117532984, 0.18390453417471, -1.19623293120796, 1.20427164838815, -1.22573751209025], a = 0.2, v = 0.2, t = 0.2)
movej(p[0.53495674764737, -0.00995052067047389, 0.183853773344153, -1.19582624379531, 1.20561233105322, -1.22571323043898], a = 0.2, v = 0.2, t = 0.2)
movej(p[0.534708338225253, -0.0100752174151304, 0.183792854758047, -1.19408623210037, 1.20588269407559, -1.23267930602821], a = 0.2, v = 0.2, t = 0.2)
movej(p[0.534234158632483, -0.0101036653007576, 0.183671133207925, -1.19394167795935, 1.20262869925481, -1.24423303268882], a = 0.2, v = 0.2, t = 0.2)
movej(p[0.533375390299992, -0.0100166205605934, 0.183565052649743, -1.19017750177017, 1.19882427346059, -1.24973368570926], a = 0.2, v = 0.2, t = 0.2)
movej(p[0.532380035284993, -0.0100408146568601, 0.18362271378353, -1.1868946716356, 1.1950491908574, -1.24909232027483], a = 0.2, v = 0.2, t = 0.2)
movej(p[0.531438282957605, -0.00989367743883582, 0.183687336005526, -1.17919454022993, 1.18936482820774, -1.24993227399492], a = 0.2, v = 0.2, t = 0.2)
movej(p[0.530825544414497, -0.00963435461591594, 0.183692509727861, -1.18328688285878, 1.18151007743385, -1.25502760746463], a = 0.2, v = 0.2, t = 0.2)
movej(p[0.530481490571053, -0.00948964414183352, 0.183705547994706, -1.18449195675581, 1.17392525156473, -1.25357609098791], a = 0.2, v = 0.2, t = 0.2)
movej(p[0.530581169042538, -0.00951552982790049, 0.183789896178321, -1.19675097162509, 1.16762975283709, -1.26651507831291], a = 0.2, v = 0.2, t = 0.2)
movej(p[0.531324045634191, -0.00954856006405068, 0.183863258766023, -1.20247966521514, 1.16828635167418, -1.26909040574754], a = 0.2, v = 0.2, t = 0.2)
movej(p[0.532569350662303, -0.00951099219980487, 0.183871035515639, -1.20397377782916, 1.17546521177353, -1.26216657317071], a = 0.2, v = 0.2, t = 0.2)
movej(p[0.533765016587211, -0.00963827477056429, 0.183966943799405, -1.20646141477894, 1.18484693167191, -1.25319273571463], a = 0.2, v = 0.2, t = 0.2)
movej(p[0.534492833287246, -0.00973492335240353, 0.183952821781853, -1.19877690521386, 1.19532342613108, -1.23978685516015], a = 0.2, v = 0.2, t = 0.2)
movej(p[0.534871916214424, -0.00983480413641273, 0.183903983594831, -1.20227582128902, 1.20047450082326, -1.23895704322304], a = 0.2, v = 0.2, t = 0.2)
movej(p[0.534930216144108, -0.00997479699111901, 0.183858336488964, -1.1983099515653, 1.20467076755214, -1.22893637425709], a = 0.2, v = 0.2, t = 0.2)
movej(p[0.534736163771304, -0.0101192358863961, 0.183850728137933, -1.20600699601595, 1.20308403013549, -1.24234106517622], a = 0.2, v = 0.2, t = 0.2)
movej(p[0.534219075273553, -0.0101530382542607, 0.183713710438097, -1.20875309402135, 1.1997637039585, -1.25348558798799], a = 0.2, v = 0.2, t = 0.2)
movej(p[0.53337886142035, -0.0101152326940109, 0.183590843759962, -1.2053832431414, 1.19623645665473, -1.25885668517644], a = 0.2, v = 0.2, t = 0.2)
movej(p[0.532368274405365, -0.0101281504629947, 0.183584694352429, -1.19433117267797, 1.19325384081865, -1.25486746198925], a = 0.2, v = 0.2, t = 0.2)
movej(p[0.531455771443016, -0.00995119256033609, 0.183607066204998, -1.18386446366999, 1.18884676851029, -1.25229826497003], a = 0.2, v = 0.2, t = 0.2)
movej(p[0.530802722164002, -0.00971194444580378, 0.183620086165532, -1.18590803829609, 1.17951773678687, -1.2565505328915], a = 0.2, v = 0.2, t = 0.2)
movej(p[0.530441243818834, -0.00961998186703119, 0.183680235989134, -1.18658714062396, 1.17307118171718, -1.24995235642783], a = 0.2, v = 0.2, t = 0.2)
movej(p[0.530322315360936, -0.00967180056174179, 0.183789723941808, -1.19288599256115, 1.16599265237515, -1.25837095180561], a = 0.2, v = 0.2, t = 0.2)
movej(p[0.53098430277813, -0.00970113242684451, 0.183848974846159, -1.20006274967243, 1.16551006278319, -1.26012526108761], a = 0.2, v = 0.2, t = 0.2)
movej(p[0.532139963346554, -0.0096836543539464, 0.183894372319197, -1.20536429090041, 1.16920756444299, -1.26217263481346], a = 0.2, v = 0.2, t = 0.2)
movej(p[0.533459506049523, -0.00980059883993596, 0.183989267113766, -1.20376998213764, 1.18055507541261, -1.25097145602418], a = 0.2, v = 0.2, t = 0.2)
movej(p[0.534399211734895, -0.00983206084084257, 0.183997286831895, -1.20276065051544, 1.19139491488911, -1.24486036120832], a = 0.2, v = 0.2, t = 0.2)
movej(p[0.534945404713375, -0.0099375414837895, 0.183972864218956, -1.19941150571879, 1.20040058126225, -1.23361615682126], a = 0.2, v = 0.2, t = 0.2)
movej(p[0.535072304634086, -0.0100581564578517, 0.183960603158464, -1.2036776120056, 1.20420248000644, -1.23447085880918], a = 0.2, v = 0.2, t = 0.2)
movej(p[0.534995999009624, -0.0101957619909558, 0.183955531399945, -1.2032979497918, 1.20574833472126, -1.23571982510013], a = 0.2, v = 0.2, t = 0.2)
movej(p[0.534739961303752, -0.0102626937301456, 0.183856701220475, -1.20482853653774, 1.20481593261789, -1.23960791172791], a = 0.2, v = 0.2, t = 0.2)
movej(p[0.534107125726373, -0.0103451459851031, 0.18374804158206, -1.20066527070034, 1.20143181360667, -1.23991512137143], a = 0.2, v = 0.2, t = 0.2)
movej(p[0.533085447093284, -0.010448188557074, 0.183704418595577, -1.18993020240387, 1.19951882612089, -1.23957426081707], a = 0.2, v = 0.2, t = 0.2)
movej(p[0.532048880084046, -0.0102587790089823, 0.183650812612224, -1.18379784479485, 1.19348396497702, -1.24699502822589], a = 0.2, v = 0.2, t = 0.2)
movej(p[0.531163328963949, -0.00997871711634835, 0.183647490445909, -1.18235386585981, 1.1860176293753, -1.25088380128922], a = 0.2, v = 0.2, t = 0.2)
movej(p[0.530461907938491, -0.00983894880416514, 0.183723372617433, -1.18347431862958, 1.17789162187044, -1.24605370699409], a = 0.2, v = 0.2, t = 0.2)
movej(p[0.530164848698661, -0.00978346083074821, 0.183833513948629, -1.18595055170967, 1.1713337034515, -1.25153934773863], a = 0.2, v = 0.2, t = 0.2)
movej(p[0.530506192250283, -0.00969518198997377, 0.183882617014089, -1.19179071668216, 1.16813653216164, -1.25313590003946], a = 0.2, v = 0.2, t = 0.2)
movej(p[0.53161220278819, -0.00966844336264373, 0.183941052105825, -1.1935687381811, 1.17046974082124, -1.2513998726776], a = 0.2, v = 0.2, t = 0.2)
movej(p[0.532912303514331, -0.00968424379031436, 0.184008820612338, -1.19501418530023, 1.17946953491986, -1.24611988943686], a = 0.2, v = 0.2, t = 0.2)
movej(p[0.534050966867912, -0.00971154398903988, 0.18402758032875, -1.20001563369972, 1.18962356373866, -1.24477344512643], a = 0.2, v = 0.2, t = 0.2)
movej(p[0.534807665061246, -0.00977123740556075, 0.184018051796027, -1.19955040965563, 1.20136453862761, -1.23234208421392], a = 0.2, v = 0.2, t = 0.2)
movej(p[0.535140980144987, -0.00998642439147829, 0.184067442032875, -1.20426411251576, 1.20740317753102, -1.22718897261941], a = 0.2, v = 0.2, t = 0.2)
movej(p[0.53512605796755, -0.0101437600582064, 0.184036063008165, -1.19327365562109, 1.21212306911593, -1.21670541280009], a = 0.2, v = 0.2, t = 0.2)
movej(p[0.535084115138873, -0.0101693845885761, 0.183949728149672, -1.19260399406349, 1.21282895320645, -1.21742384061699], a = 0.2, v = 0.2, t = 0.2)
movej(p[0.534830039002218, -0.0102815493276271, 0.183873598782033, -1.18800187557989, 1.21163869013203, -1.21262918477955], a = 0.2, v = 0.2, t = 0.2)
movej(p[0.53425183371517, -0.010363756154385, 0.183793396386413, -1.18660816565105, 1.20810547686259, -1.22244887453485], a = 0.2, v = 0.2, t = 0.2)
movej(p[0.533461568022007, -0.0103347551525002, 0.183686988477873, -1.18969227178305, 1.20195394142221, -1.23837564181826], a = 0.2, v = 0.2, t = 0.2)
movej(p[0.532452017176827, -0.0101857594444308, 0.183591575729238, -1.18555495641467, 1.1966046390121, -1.24407986960876], a = 0.2, v = 0.2, t = 0.2)
movej(p[0.531577678204317, -0.0101254667185729, 0.183704233883884, -1.18776414942677, 1.18979234587836, -1.24638179284884], a = 0.2, v = 0.2, t = 0.2)
movej(p[0.530903711888209, -0.00997653804187233, 0.183765578615591, -1.18283783108999, 1.18401799782274, -1.24754807264344], a = 0.2, v = 0.2, t = 0.2)
movej(p[0.530863186461008, -0.00978984278332339, 0.183799586336561, -1.18893534261392, 1.17747920794609, -1.24974319738418], a = 0.2, v = 0.2, t = 0.2)
movej(p[0.53137056981826, -0.00972494065445447, 0.183811852523935, -1.1862447420413, 1.17599443346281, -1.24144119532583], a = 0.2, v = 0.2, t = 0.2)
movej(p[0.532319380065707, -0.00978097309999534, 0.183932719400646, -1.19086022490373, 1.17910301232689, -1.24229108116167], a = 0.2, v = 0.2, t = 0.2)
movej(p[0.53346839110347, -0.00981904606079818, 0.183977454380855, -1.19544910943334, 1.1865024069288, -1.24045914191177], a = 0.2, v = 0.2, t = 0.2)
movej(p[0.534353498890139, -0.00982299274674535, 0.183994489763123, -1.20307392725524, 1.19567541410492, -1.23864415794475], a = 0.2, v = 0.2, t = 0.2)
movej(p[0.534871982730699, -0.0100450231255063, 0.184052016028574, -1.20374887853667, 1.20326406856471, -1.22979863269678], a = 0.2, v = 0.2, t = 0.2)
movej(p[0.534995320854254, -0.0101612660500499, 0.184018031818586, -1.19824304650105, 1.20979656511344, -1.22471604528004], a = 0.2, v = 0.2, t = 0.2)
movej(p[0.535059614178427, -0.0101976166135554, 0.183932816960987, -1.19584472238896, 1.21216962208782, -1.22436551612264], a = 0.2, v = 0.2, t = 0.2)
movej(p[0.534997887282764, -0.0102574827025932, 0.183860575265712, -1.19178207524625, 1.21312546433524, -1.21913684854041], a = 0.2, v = 0.2, t = 0.2)
movej(p[0.534752906902997, -0.0103753083107003, 0.183860197108156, -1.20223509977204, 1.20793380262667, -1.23543628919052], a = 0.2, v = 0.2, t = 0.2)
movej(p[0.534255381008529, -0.0103506496093606, 0.183743593039263, -1.20425696411062, 1.2036640686906, -1.24523327163278], a = 0.2, v = 0.2, t = 0.2)
movej(p[0.53347742063541, -0.0102662131465727, 0.183670842612404, -1.20935310682072, 1.19752649883311, -1.25991499675728], a = 0.2, v = 0.2, t = 0.2)
movej(p[0.532480275765061, -0.0102743469840769, 0.183726022183113, -1.19262117250655, 1.19688223961563, -1.24719809081355], a = 0.2, v = 0.2, t = 0.2)
movej(p[0.531659971578297, -0.0101197950925332, 0.183783701879663, -1.18699767374615, 1.19144743154893, -1.25202626746515], a = 0.2, v = 0.2, t = 0.2)
movej(p[0.531169927449221, -0.00987342875536359, 0.183772135086521, -1.18815158229523, 1.18388210361045, -1.25526117004865], a = 0.2, v = 0.2, t = 0.2)
movej(p[0.531002609583008, -0.00971811549640521, 0.183794459703827, -1.1938733840248, 1.17617785612349, -1.25735980744918], a = 0.2, v = 0.2, t = 0.2)
movej(p[0.531124662041016, -0.00979178590478235, 0.183920989642276, -1.19799167658906, 1.17185823534741, -1.25955749866298], a = 0.2, v = 0.2, t = 0.2)
movej(p[0.53183790657005, -0.00979885434322221, 0.183949094244775, -1.19684912191693, 1.17461801843765, -1.25407815860574], a = 0.2, v = 0.2, t = 0.2)
movej(p[0.532891299913486, -0.00978071341763643, 0.183949876436579, -1.19429511903103, 1.18175398548846, -1.24393958530536], a = 0.2, v = 0.2, t = 0.2)
movej(p[0.53392813516738, -0.00984387917238808, 0.183995745703063, -1.19401964289662, 1.19260732171746, -1.23098746615504], a = 0.2, v = 0.2, t = 0.2)
movej(p[0.534525016522196, -0.00991370046628391, 0.18401606695037, -1.1923613827016, 1.20129544533198, -1.22481622813169], a = 0.2, v = 0.2, t = 0.2)
movej(p[0.534895866964726, -0.00989219379042654, 0.183924096953281, -1.19317217019223, 1.20785162306126, -1.2208210528255], a = 0.2, v = 0.2, t = 0.2)
movej(p[0.535021726954821, -0.00996741642297771, 0.183825221215502, -1.18924837032743, 1.20907895011607, -1.21430128126939], a = 0.2, v = 0.2, t = 0.2)
movej(p[0.534970562752889, -0.0100426861927827, 0.183761806323102, -1.19023067029776, 1.20939970316014, -1.22149995282172], a = 0.2, v = 0.2, t = 0.2)
movej(p[0.534917696566809, -0.0100362439632715, 0.183672773203173, -1.19690736970479, 1.2071368183981, -1.2373772373761], a = 0.2, v = 0.2, t = 0.2)
movej(p[0.534847342854413, -0.00995069200186165, 0.183554340458786, -1.20027554141269, 1.20641243510737, -1.24509167280077], a = 0.2, v = 0.2, t = 0.2)
movej(p[0.534674209407172, -0.0100667197558826, 0.183512616051918, -1.19624672194634, 1.20624851152706, -1.23820676038456], a = 0.2, v = 0.2, t = 0.2)
movej(p[0.534085973001825, -0.0101094166650004, 0.183447973647132, -1.19122631397488, 1.20255411270894, -1.24997872644751], a = 0.2, v = 0.2, t = 0.2)
movej(p[0.533465511102956, -0.00997334543702309, 0.183320935576407, -1.19007087651938, 1.19812370704348, -1.25982910571448], a = 0.2, v = 0.2, t = 0.2)
movej(p[0.532774530995812, -0.00972398771802052, 0.183213855559111, -1.19300468792484, 1.19109660732092, -1.27286003602791], a = 0.2, v = 0.2, t = 0.2)
movej(p[0.532165293168856, -0.00968577918541662, 0.183314439633109, -1.19249680749227, 1.18719806777608, -1.27177137404541], a = 0.2, v = 0.2, t = 0.2)
movej(p[0.531585023520401, -0.00951210422575262, 0.183349982782498, -1.18947072897922, 1.18091846099298, -1.27696319653367], a = 0.2, v = 0.2, t = 0.2)
movej(p[0.531331896942713, -0.00926029574278028, 0.183354749046315, -1.19149115649546, 1.17569023078026, -1.27860478681171], a = 0.2, v = 0.2, t = 0.2)
movej(p[0.531426614739368, -0.00911966539987748, 0.183378880611781, -1.19049454026958, 1.17118868300719, -1.27214632657828], a = 0.2, v = 0.2, t = 0.2)
movej(p[0.531890764073238, -0.00920016055944349, 0.183485267869262, -1.20048472408445, 1.16808926230109, -1.27837591670885], a = 0.2, v = 0.2, t = 0.2)
movej(p[0.532839310350773, -0.00925449049088097, 0.183541570360545, -1.20113717218769, 1.17299005705579, -1.27326288317007], a = 0.2, v = 0.2, t = 0.2)
movej(p[0.533807319578334, -0.00926838155205113, 0.183551077887914, -1.20835806240384, 1.17935450698533, -1.2743717091987], a = 0.2, v = 0.2, t = 0.2)
movej(p[0.534552216607618, -0.0094399506444322, 0.183611615143416, -1.19705162525387, 1.19191295632441, -1.24915865995751], a = 0.2, v = 0.2, t = 0.2)
movej(p[0.534818211124422, -0.00958302124762475, 0.183623914573911, -1.1990800444919, 1.19629764053156, -1.25315795999667], a = 0.2, v = 0.2, t = 0.2)
movej(p[0.534932157328681, -0.0096145859261969, 0.18354905348311, -1.19511507628626, 1.2001253883744, -1.24846578767203], a = 0.2, v = 0.2, t = 0.2)
movej(p[0.534958815819929, -0.00967322229169707, 0.183492840438491, -1.19187857889795, 1.20171646942284, -1.24405831452636], a = 0.2, v = 0.2, t = 0.2)
movej(p[0.53489324060963, -0.0098135556080657, 0.183465656534297, -1.18409611764522, 1.20417508345349, -1.23909649055326], a = 0.2, v = 0.2, t = 0.2)
movej(p[0.534847500675318, -0.00982778461394788, 0.183413105446042, -1.18885833908616, 1.2022573761393, -1.24970428173371], a = 0.2, v = 0.2, t = 0.2)
movej(p[0.53471398447167, -0.00982755100989106, 0.183305425552875, -1.18773843873028, 1.20161636437614, -1.25150897365887], a = 0.2, v = 0.2, t = 0.2)
movej(p[0.534291203798967, -0.00990836651167448, 0.183303801096083, -1.19075523612162, 1.19983525269967, -1.25250243692709], a = 0.2, v = 0.2, t = 0.2)
movej(p[0.533538397189966, -0.00997198202322868, 0.183281185386178, -1.18523128869339, 1.19667041134597, -1.25933834353466], a = 0.2, v = 0.2, t = 0.2)
movej(p[0.532783367945051, -0.00981320290766674, 0.183217280564882, -1.18690429356675, 1.19218506215245, -1.26688537888615], a = 0.2, v = 0.2, t = 0.2)
movej(p[0.532061327243259, -0.00960657235206831, 0.18321164975245, -1.18446844135834, 1.18584445721231, -1.26784491248107], a = 0.2, v = 0.2, t = 0.2)
movej(p[0.531424312782487, -0.00954848398950236, 0.183358555647165, -1.18631121765386, 1.18071324797808, -1.26517683525903], a = 0.2, v = 0.2, t = 0.2)
movej(p[0.531028589486244, -0.00943727649551705, 0.183448654049438, -1.18175195959742, 1.17664042416799, -1.26425645987128], a = 0.2, v = 0.2, t = 0.2)
movej(p[0.531274641508294, -0.00930089525508588, 0.183491100926868, -1.18652924586747, 1.17268841092201, -1.26452053317419], a = 0.2, v = 0.2, t = 0.2)
movej(p[0.531956543723432, -0.00933007179612045, 0.183507793073045, -1.17856970853361, 1.17341325033426, -1.24828134347985], a = 0.2, v = 0.2, t = 0.2)
movej(p[0.532829569828157, -0.00946131147796116, 0.183609585930251, -1.18799378048336, 1.17496767618732, -1.25567694436685], a = 0.2, v = 0.2, t = 0.2)
movej(p[0.533780699197913, -0.00954886435929797, 0.183642426671076, -1.19539652783853, 1.18124486670066, -1.25717081530826], a = 0.2, v = 0.2, t = 0.2)
movej(p[0.534474482960885, -0.00957502925964278, 0.183639210722382, -1.20131301334755, 1.18917364410268, -1.25386649080037], a = 0.2, v = 0.2, t = 0.2)
movej(p[0.534883343849245, -0.00981440184945729, 0.183697140694026, -1.19493535717725, 1.19891034229822, -1.23653622970517], a = 0.2, v = 0.2, t = 0.2)
movej(p[0.534953837504768, -0.00994621371887299, 0.183678463474956, -1.18701721578916, 1.20456185674792, -1.23163416081965], a = 0.2, v = 0.2, t = 0.2)
movej(p[0.535008462623911, -0.00997938254404695, 0.183639987617653, -1.18361631550047, 1.20919373366247, -1.22981387282122], a = 0.2, v = 0.2, t = 0.2)
movej(p[0.534962196884918, -0.010004990608709, 0.183640779827034, -1.18548635059554, 1.20947457485624, -1.23129543757073], a = 0.2, v = 0.2, t = 0.2)
movej(p[0.534825472565602, -0.0101203537170396, 0.183659583369569, -1.19638799563643, 1.20610574991593, -1.24513911336556], a = 0.2, v = 0.2, t = 0.2)
movej(p[0.534444593003177, -0.010162373693966, 0.183557514253678, -1.20060385798512, 1.20184304405775, -1.25353142119908], a = 0.2, v = 0.2, t = 0.2)
movej(p[0.533824905177725, -0.010193174956549, 0.183453439513735, -1.20193423817277, 1.19757926206812, -1.26089575303095], a = 0.2, v = 0.2, t = 0.2)
movej(p[0.532879143151153, -0.0103100757773972, 0.183455562634123, -1.18080341007362, 1.19906696935374, -1.24180794078312], a = 0.2, v = 0.2, t = 0.2)
movej(p[0.532019539252588, -0.0102313952226588, 0.183467501075336, -1.17245201081701, 1.19522875713529, -1.24328266878044], a = 0.2, v = 0.2, t = 0.2)
movej(p[0.531435803345866, -0.00996849037043412, 0.183453011414219, -1.17319733945891, 1.18886996767551, -1.24733042385144], a = 0.2, v = 0.2, t = 0.2)
movej(p[0.530960820916499, -0.00973435162831345, 0.18349592383819, -1.17863127830383, 1.18006582403604, -1.25134435080811], a = 0.2, v = 0.2, t = 0.2)
movej(p[0.530658155341834, -0.0096920961387115, 0.183630006484759, -1.18034515121735, 1.173377934926, -1.25474776259187], a = 0.2, v = 0.2, t = 0.2)
movej(p[0.530990113976799, -0.00963936591007844, 0.183659531439632, -1.17975387612246, 1.17173848554784, -1.25009938389632], a = 0.2, v = 0.2, t = 0.2)
movej(p[0.531915140561116, -0.00959615380156138, 0.183706828961595, -1.18236493361935, 1.17415610076177, -1.24653171400404], a = 0.2, v = 0.2, t = 0.2)
movej(p[0.533094725671949, -0.00962216188668448, 0.183750556305567, -1.17999315014571, 1.18324285544737, -1.23510306171695], a = 0.2, v = 0.2, t = 0.2)
movej(p[0.534064505729168, -0.00964659947117228, 0.183779564702358, -1.18671901218645, 1.19012936667294, -1.23893260796732], a = 0.2, v = 0.2, t = 0.2)
movej(p[0.534788796387207, -0.0096951598590549, 0.183756624538412, -1.19418686032613, 1.19604060565578, -1.23949851244106], a = 0.2, v = 0.2, t = 0.2)
movej(p[0.535080759151515, -0.0098336581072435, 0.18377071706772, -1.20126276132925, 1.20039118785175, -1.23930867776841], a = 0.2, v = 0.2, t = 0.2)
movej(p[0.535082840563294, -0.0100214101074528, 0.183789905048422, -1.20095308433739, 1.20196788257264, -1.24080682495503], a = 0.2, v = 0.2, t = 0.2)
movej(p[0.535070772779858, -0.0100668574810765, 0.183725565604387, -1.19083424755346, 1.20692218406774, -1.23228330275761], a = 0.2, v = 0.2, t = 0.2)
movej(p[0.53505849837921, -0.0101247165174734, 0.183701494950222, -1.1885976487668, 1.20703447676438, -1.23042399438859], a = 0.2, v = 0.2, t = 0.2)
movej(p[0.53498954473764, -0.0102679260690775, 0.183757137637465, -1.18599842114015, 1.20902054943996, -1.22346127661173], a = 0.2, v = 0.2, t = 0.2)
movej(p[0.534579196018302, -0.0103413672001351, 0.183700819650051, -1.19268601107879, 1.20480454185374, -1.23962602068545], a = 0.2, v = 0.2, t = 0.2)
movej(p[0.533946854550214, -0.0103315638934065, 0.183576641034285, -1.19413573334663, 1.20168322463142, -1.24794905194279], a = 0.2, v = 0.2, t = 0.2)
movej(p[0.533110165365485, -0.0103683436291064, 0.183541349519732, -1.19132907334836, 1.19845605645273, -1.25035997288452], a = 0.2, v = 0.2, t = 0.2)
movej(p[0.532304000249974, -0.0103357112417406, 0.183605683201639, -1.18674403057139, 1.19396124025167, -1.25469102594262], a = 0.2, v = 0.2, t = 0.2)
movej(p[0.531744945515352, -0.0101363140322012, 0.183620851957358, -1.1838342895955, 1.18881848824187, -1.25603056357035], a = 0.2, v = 0.2, t = 0.2)
movej(p[0.531347670087006, -0.00989303171923692, 0.183590332646162, -1.18373081649286, 1.18210122672073, -1.25520379012959], a = 0.2, v = 0.2, t = 0.2)
movej(p[0.531243439037355, -0.00988224402357616, 0.183692542228447, -1.18749223692547, 1.17701087077653, -1.25026928667081], a = 0.2, v = 0.2, t = 0.2)
movej(p[0.531421013387129, -0.00992142202063232, 0.183801321445897, -1.18889371241795, 1.17411398168395, -1.25398994531289], a = 0.2, v = 0.2, t = 0.2)
movej(p[0.53223540616075, -0.00987275510137647, 0.183865769404315, -1.19559525353597, 1.17537548986112, -1.25259194729998], a = 0.2, v = 0.2, t = 0.2)
movej(p[0.533217007480576, -0.00987999376472637, 0.183891999211166, -1.19031828665166, 1.18263636447511, -1.23942892701294], a = 0.2, v = 0.2, t = 0.2)
movej(p[0.534061375978156, -0.00993558800798634, 0.183942737371481, -1.20268272396147, 1.18819412846412, -1.24498960399519], a = 0.2, v = 0.2, t = 0.2)
movej(p[0.534635880348436, -0.0099698017119595, 0.183912972970115, -1.20558156449344, 1.19496625201372, -1.24404276125167], a = 0.2, v = 0.2, t = 0.2)
movej(p[0.534870846255196, -0.0099607366685821, 0.18383144962515, -1.21091926416377, 1.19918760518249, -1.24742694861943], a = 0.2, v = 0.2, t = 0.2)
movej(p[0.534935732882427, -0.0101010155947902, 0.183803869681728, -1.19622751499563, 1.20659068560892, -1.22940050880305], a = 0.2, v = 0.2, t = 0.2)
movej(p[0.534861639470996, -0.0101414669216596, 0.183724906605105, -1.1863288674007, 1.20949331708308, -1.22868665469493], a = 0.2, v = 0.2, t = 0.2)
movej(p[0.534894114168679, -0.010091365867306, 0.183642263360596, -1.1847194920758, 1.21052001247997, -1.23044944916982], a = 0.2, v = 0.2, t = 0.2)
movej(p[0.534848781346666, -0.0100852438379402, 0.183564430352439, -1.18408274448245, 1.20982110881678, -1.2294588777403], a = 0.2, v = 0.2, t = 0.2)
movej(p[0.534559922237739, -0.0102528242850138, 0.183561921894257, -1.18319506120913, 1.20831772797797, -1.23309163384062], a = 0.2, v = 0.2, t = 0.2)
movej(p[0.53406470253225, -0.0102333563542038, 0.183431400986868, -1.18403831410371, 1.20425042445785, -1.24535936091747], a = 0.2, v = 0.2, t = 0.2)
movej(p[0.533379440401416, -0.0101250171251974, 0.183310894184882, -1.18563196740222, 1.19821275389235, -1.25614671737574], a = 0.2, v = 0.2, t = 0.2)
movej(p[0.532643283747052, -0.0100738579872656, 0.183325537254976, -1.18730744396454, 1.19223215968919, -1.25974672006196], a = 0.2, v = 0.2, t = 0.2)
movej(p[0.531961896056429, -0.0100094325638623, 0.183388802836363, -1.1814243309046, 1.18866912175784, -1.25639752853068], a = 0.2, v = 0.2, t = 0.2)
movej(p[0.531493520932522, -0.00981429699715955, 0.183369950081285, -1.17897590484595, 1.18527120447892, -1.25124631937652], a = 0.2, v = 0.2, t = 0.2)
movej(p[0.531308492457443, -0.00966274241827323, 0.183419481483732, -1.17700877118209, 1.18131759250395, -1.24483000909633], a = 0.2, v = 0.2, t = 0.2)
movej(p[0.531468295947314, -0.00972074078499693, 0.183596524334428, -1.18075147149483, 1.17789569869248, -1.24188377584496], a = 0.2, v = 0.2, t = 0.2)
movej(p[0.532133394375365, -0.00976863752168762, 0.183725548439612, -1.19052352120159, 1.17694480058964, -1.25229414666523], a = 0.2, v = 0.2, t = 0.2)
movej(p[0.533117265130321, -0.00973936633974455, 0.183765731416743, -1.19774643211237, 1.1823518713819, -1.25086952824468], a = 0.2, v = 0.2, t = 0.2)
movej(p[0.534040306199299, -0.0098505524274834, 0.183819803274228, -1.1966621162588, 1.19073133921624, -1.2383819635913], a = 0.2, v = 0.2, t = 0.2)
movej(p[0.534500150833146, -0.00997394631816929, 0.183861826956404, -1.19237692824015, 1.19800721783273, -1.23382297820945], a = 0.2, v = 0.2, t = 0.2)
movej(p[0.534810431398855, -0.0100258764678712, 0.183825055420359, -1.19407285750132, 1.20104630216928, -1.23535048374477], a = 0.2, v = 0.2, t = 0.2)
movej(p[0.534886298787658, -0.0100246955207404, 0.183722711849285, -1.19549797240902, 1.20314156922976, -1.2352042154797], a = 0.2, v = 0.2, t = 0.2)
movej(p[0.534975524938898, -0.0101915658810885, 0.183749016168725, -1.19551170838092, 1.20529502200986, -1.2284386716245], a = 0.2, v = 0.2, t = 0.2)
movej(p[0.534863347118137, -0.0102775104022615, 0.183722262325434, -1.18568851808227, 1.20775789386655, -1.22443364996267], a = 0.2, v = 0.2, t = 0.2)
movej(p[0.534603272978631, -0.0102637941983973, 0.183605273529341, -1.18296634879013, 1.20764050149607, -1.22531425710369], a = 0.2, v = 0.2, t = 0.2)
movej(p[0.534022231258425, -0.0102851549216162, 0.183502743195369, -1.17783867646206, 1.20514939095448, -1.2263412337297], a = 0.2, v = 0.2, t = 0.2)
movej(p[0.533150630901466, -0.010360090951177, 0.183491087221687, -1.18605600878479, 1.19735982467585, -1.24547168074128], a = 0.2, v = 0.2, t = 0.2)
movej(p[0.532345691380909, -0.010230448362213, 0.183445901967775, -1.18400824883558, 1.19177302402201, -1.25376679641969], a = 0.2, v = 0.2, t = 0.2)
movej(p[0.531688891482204, -0.00996283963630707, 0.183408979927203, -1.1864166347157, 1.1839912873184, -1.25942268096317], a = 0.2, v = 0.2, t = 0.2)
movej(p[0.531145356488339, -0.00984797810365166, 0.183458162550765, -1.17428186041372, 1.18246085006447, -1.23796167189531], a = 0.2, v = 0.2, t = 0.2)
movej(p[0.530852385316855, -0.00982900853756092, 0.183592136049793, -1.17476086452894, 1.17726580653123, -1.24088824107354], a = 0.2, v = 0.2, t = 0.2)
movej(p[0.531229904201932, -0.00980829795164085, 0.18367008156115, -1.1832589638433, 1.17385665173812, -1.24395521147911], a = 0.2, v = 0.2, t = 0.2)
movej(p[0.532112229552275, -0.00980429963659386, 0.18375313634138, -1.19059197938729, 1.17335492886636, -1.24754840675233], a = 0.2, v = 0.2, t = 0.2)
movej(p[0.533250028679792, -0.00996363028935957, 0.183877647390736, -1.18543157838849, 1.18198247954689, -1.23323866259793], a = 0.2, v = 0.2, t = 0.2)
movej(p[0.534185637401106, -0.00999132741251935, 0.18387898920642, -1.18199955804232, 1.19186505627958, -1.2259130299324], a = 0.2, v = 0.2, t = 0.2)
movej(p[0.534834155323517, -0.0100313964108329, 0.183883774656852, -1.18091596057068, 1.20281382143386, -1.21420587992574], a = 0.2, v = 0.2, t = 0.2)
movej(p[0.535021410573735, -0.0101541607727703, 0.183900908486952, -1.18539160477274, 1.20756264884604, -1.21257442179581], a = 0.2, v = 0.2, t = 0.2)
movej(p[0.534987519055024, -0.0103009952234853, 0.183953422554198, -1.18773466534392, 1.21060568684765, -1.21635185716331], a = 0.2, v = 0.2, t = 0.2)
movej(p[0.535002303523811, -0.0103134557865368, 0.183897026592009, -1.18608821082094, 1.21235904308642, -1.21389614896218], a = 0.2, v = 0.2, t = 0.2)
movej(p[0.53496404004435, -0.01037991919321, 0.183849729210339, -1.1845005923377, 1.21302172787301, -1.21155043218616], a = 0.2, v = 0.2, t = 0.2)
movej(p[0.53468514552938, -0.0105250629876082, 0.183790448179923, -1.17989393597751, 1.21228019106126, -1.21084562461926], a = 0.2, v = 0.2, t = 0.2)
movej(p[0.53411925513308, -0.0105225467862277, 0.183644888042842, -1.17866418286972, 1.20985429918969, -1.22100018644964], a = 0.2, v = 0.2, t = 0.2)
movej(p[0.533262972408775, -0.0104608327830867, 0.183498245038329, -1.18120416168729, 1.20389946265328, -1.23421309537962], a = 0.2, v = 0.2, t = 0.2)
movej(p[0.532345916715783, -0.0104177367878639, 0.183508776873274, -1.18080975850122, 1.19872425949379, -1.23504284801588], a = 0.2, v = 0.2, t = 0.2)
movej(p[0.531497502041633, -0.0103563043862675, 0.18356466891582, -1.17673521395134, 1.19168665755575, -1.23798276392308], a = 0.2, v = 0.2, t = 0.2)
movej(p[0.530978660998292, -0.0101012211301396, 0.183569390850736, -1.17591810886556, 1.18583026021467, -1.2347845806565], a = 0.2, v = 0.2, t = 0.2)
movej(p[0.530841438434563, -0.00994645386863476, 0.183585148312173, -1.17675602002611, 1.17910489062032, -1.23309798231114], a = 0.2, v = 0.2, t = 0.2)
movej(p[0.531135965933537, -0.0099595368988279, 0.183713511839582, -1.18649513184659, 1.17513448284726, -1.23898092548212], a = 0.2, v = 0.2, t = 0.2)
movej(p[0.531969982214222, -0.0100282908071944, 0.183821976547028, -1.1934942542052, 1.17588603304928, -1.24558069965004], a = 0.2, v = 0.2, t = 0.2)
movej(p[0.533090614031931, -0.0100196516320278, 0.183907974697527, -1.19757174712542, 1.18286187851378, -1.23868093672312], a = 0.2, v = 0.2, t = 0.2)
movej(p[0.534092540818123, -0.0101150762700593, 0.184026501654011, -1.19208496963235, 1.19536981240105, -1.217794366773], a = 0.2, v = 0.2, t = 0.2)
movej(p[0.534652880642824, -0.0101915790499095, 0.184100128408645, -1.18654474853534, 1.2046189122512, -1.20769163222384], a = 0.2, v = 0.2, t = 0.2)
movej(p[0.534963858616049, -0.0102302577405394, 0.184049186029145, -1.18291712454396, 1.21165936983925, -1.20269883991607], a = 0.2, v = 0.2, t = 0.2)
movej(p[0.535020435347123, -0.0103190927102275, 0.183975217812582, -1.18284976189317, 1.21219384176271, -1.20357700341344], a = 0.2, v = 0.2, t = 0.2)
movej(p[0.535013504975877, -0.010485398077705, 0.183981917491872, -1.18975156939677, 1.21121475242267, -1.21051860816328], a = 0.2, v = 0.2, t = 0.2)
movej(p[0.534959556380574, -0.0105521684515162, 0.183957707908109, -1.19317138633402, 1.21081320496859, -1.21803397960621], a = 0.2, v = 0.2, t = 0.2)
movej(p[0.534824650774703, -0.0105390108125937, 0.183848799286635, -1.19217528133293, 1.2119378472408, -1.21573644309143], a = 0.2, v = 0.2, t = 0.2)
movej(p[0.534380704596701, -0.0106470190635773, 0.183781344085008, -1.1832036548434, 1.21379785772643, -1.20859401915915], a = 0.2, v = 0.2, t = 0.2)
movej(p[0.533663341506357, -0.0106576318878649, 0.183711215059835, -1.17849890116503, 1.20972323898764, -1.21880408699474], a = 0.2, v = 0.2, t = 0.2)
movej(p[0.532920618881627, -0.0105298881946308, 0.183643865436576, -1.17542112706946, 1.20434056113167, -1.22609911636908], a = 0.2, v = 0.2, t = 0.2)
movej(p[0.532157698728287, -0.0103525756615683, 0.183606128954929, -1.17305794973653, 1.19789076976192, -1.22903496607938], a = 0.2, v = 0.2, t = 0.2)
movej(p[0.531436510999419, -0.0103209469389252, 0.183672385789555, -1.17455288622104, 1.19103628173972, -1.23141429109757], a = 0.2, v = 0.2, t = 0.2)
movej(p[0.530940315350043, -0.0101819517264427, 0.183692231878125, -1.17338570050507, 1.18633947490556, -1.23114700220568], a = 0.2, v = 0.2, t = 0.2)
movej(p[0.530870032831405, -0.00999451267119163, 0.183737171636262, -1.17940290271601, 1.17991740018406, -1.2332236827552], a = 0.2, v = 0.2, t = 0.2)
movej(p[0.531310473034304, -0.00999126441444187, 0.183850223435839, -1.17544286146589, 1.18023418432751, -1.2204630839026], a = 0.2, v = 0.2, t = 0.2)
movej(p[0.532116623687523, -0.0100369703246409, 0.183984399487677, -1.18042504757456, 1.18188167594477, -1.22636591093211], a = 0.2, v = 0.2, t = 0.2)
movej(p[0.533274192010515, -0.0100037740207153, 0.184013487812059, -1.18973405435949, 1.18718600050253, -1.22536770677162], a = 0.2, v = 0.2, t = 0.2)
movej(p[0.53421154468125, -0.00999595234799183, 0.184044839141625, -1.19767398816263, 1.19454595866837, -1.22456197984123], a = 0.2, v = 0.2, t = 0.2)
movej(p[0.534736695068506, -0.0102038186977894, 0.184144734262804, -1.20203625851858, 1.19862954151676, -1.22174025239496], a = 0.2, v = 0.2, t = 0.2)
movej(p[0.534936462788705, -0.0102838711422723, 0.184109247630845, -1.19564535642602, 1.20431458313463, -1.2175864144644], a = 0.2, v = 0.2, t = 0.2)
movej(p[0.535041185839164, -0.0103383177165951, 0.18404147550127, -1.19615437179837, 1.20614833079446, -1.21843224271979], a = 0.2, v = 0.2, t = 0.2)
movej(p[0.535035280652681, -0.010400743514539, 0.184007685435812, -1.19571377687941, 1.20822978369973, -1.21538434875681], a = 0.2, v = 0.2, t = 0.2)
movej(p[0.534923700912938, -0.0105065527839506, 0.183998296038309, -1.19677795382192, 1.20944178110798, -1.21820067379104], a = 0.2, v = 0.2, t = 0.2)
movej(p[0.534628554781131, -0.010517798790317, 0.18385987647423, -1.19204285187634, 1.21085496985339, -1.21673673277495], a = 0.2, v = 0.2, t = 0.2)
movej(p[0.534022076274056, -0.0105790413067801, 0.183771150568582, -1.18833685234426, 1.20912539260359, -1.21984534763143], a = 0.2, v = 0.2, t = 0.2)
movej(p[0.533176357508414, -0.0106708428607721, 0.183771525036145, -1.17620859404681, 1.20731293016118, -1.21775906070261], a = 0.2, v = 0.2, t = 0.2)
movej(p[0.532450806037924, -0.0105546987238626, 0.183779085699597, -1.17432357071097, 1.20100697671136, -1.22789355803295], a = 0.2, v = 0.2, t = 0.2)
movej(p[0.531987165324611, -0.0103225151401945, 0.1837698598753, -1.17335088271314, 1.1959417582236, -1.22854521672617], a = 0.2, v = 0.2, t = 0.2)
movej(p[0.53202819394411, -0.0102906489241973, 0.183875889850119, -1.17895241357496, 1.19107997050232, -1.22882333613746], a = 0.2, v = 0.2, t = 0.2)
movej(p[0.532444216971895, -0.0103532985129803, 0.184052103590156, -1.178114193136, 1.19076565066025, -1.22615348195286], a = 0.2, v = 0.2, t = 0.2)
movej(p[0.533383784949772, -0.0103215536901227, 0.184113796935574, -1.17446753752667, 1.19644944911414, -1.21564534073362], a = 0.2, v = 0.2, t = 0.2)
movej(p[0.534226407871442, -0.0103096003400495, 0.184149888789199, -1.17173363349861, 1.20372747347709, -1.20353496859766], a = 0.2, v = 0.2, t = 0.2)
movej(p[0.534846301680823, -0.010391471690735, 0.184183158687798, -1.17755730542705, 1.2079641517324, -1.20052631823404], a = 0.2, v = 0.2, t = 0.2)
movej(p[0.535083319773706, -0.0104791634968514, 0.18418727828123, -1.18165398919459, 1.21076470974454, -1.20172843602832], a = 0.2, v = 0.2, t = 0.2)
movej(p[0.535178335825756, -0.0104550823041566, 0.184101490789069, -1.18610598728231, 1.2115927583405, -1.20404960733211], a = 0.2, v = 0.2, t = 0.2)
movej(p[0.535131508035515, -0.0105703518578684, 0.184060899240092, -1.1828004738656, 1.21319079365685, -1.19627468808086], a = 0.2, v = 0.2, t = 0.2)
movej(p[0.534755264766068, -0.0106542670948905, 0.183974651236107, -1.17980732449398, 1.21161417588723, -1.20452035793915], a = 0.2, v = 0.2, t = 0.2)
movej(p[0.534143734461286, -0.0106584429888186, 0.183854382969539, -1.18010716342462, 1.20801837983964, -1.21430875422978], a = 0.2, v = 0.2, t = 0.2)
movej(p[0.533133316254828, -0.0105934757884169, 0.183750383058827, -1.17731188334252, 1.2041429370068, -1.22109998687818], a = 0.2, v = 0.2, t = 0.2)
movej(p[0.532059271444178, -0.0106025616481941, 0.183804639951183, -1.18067466024078, 1.19618811539924, -1.23010721938122], a = 0.2, v = 0.2, t = 0.2)
movej(p[0.531167504312132, -0.0104391164363246, 0.183827269651138, -1.17728957502958, 1.18866388376854, -1.23490528381269], a = 0.2, v = 0.2, t = 0.2)
movej(p[0.530638220601954, -0.0101826728768102, 0.183800535236535, -1.1781106805908, 1.18085324680854, -1.23600068991144], a = 0.2, v = 0.2, t = 0.2)
movej(p[0.530439375359115, -0.0100928300621695, 0.183831162911642, -1.17430478841547, 1.17682777783389, -1.22767420650583], a = 0.2, v = 0.2, t = 0.2)
movej(p[0.530631226038303, -0.010162629950207, 0.183952666414344, -1.17630137077403, 1.1751857967844, -1.2290878948291], a = 0.2, v = 0.2, t = 0.2)
movej(p[0.531406492810397, -0.0101838586325487, 0.184058611586775, -1.18291645422707, 1.1769084140839, -1.22996917877192], a = 0.2, v = 0.2, t = 0.2)
movej(p[0.532462913607461, -0.0101212596458278, 0.184099713010338, -1.18759769423933, 1.18133280112908, -1.22906452449016], a = 0.2, v = 0.2, t = 0.2)
movej(p[0.533543589648023, -0.010186237975943, 0.184172418914464, -1.19160771686141, 1.18783094938534, -1.22425681841231], a = 0.2, v = 0.2, t = 0.2)
movej(p[0.534366788383408, -0.010177336537645, 0.18413601083781, -1.18606209836179, 1.19703649513602, -1.21470598687922], a = 0.2, v = 0.2, t = 0.2)
movej(p[0.534932888887133, -0.0101785563969549, 0.184089990881631, -1.18946955709164, 1.20357968693442, -1.21261327399294], a = 0.2, v = 0.2, t = 0.2)
movej(p[0.535094705530836, -0.010287297590581, 0.184050772250427, -1.18675560833325, 1.20901791110859, -1.20621295595806], a = 0.2, v = 0.2, t = 0.2)
movej(p[0.534948489660234, -0.0103950692444623, 0.184034638930745, -1.19225898771968, 1.21000706550453, -1.21813891464581], a = 0.2, v = 0.2, t = 0.2)
movej(p[0.534516822265303, -0.0104557875963847, 0.183909829265282, -1.19364549148218, 1.20885794255723, -1.22411701037309], a = 0.2, v = 0.2, t = 0.2)
movej(p[0.533665392351316, -0.0104809893958676, 0.18382743536338, -1.19158141952497, 1.20766274327975, -1.22633785562636], a = 0.2, v = 0.2, t = 0.2)
movej(p[0.53252929968385, -0.0106092831490113, 0.183845971307768, -1.18438392178775, 1.20274490486548, -1.22671612318369], a = 0.2, v = 0.2, t = 0.2)
movej(p[0.531350499303951, -0.0104714921081111, 0.183818599256368, -1.17548698436611, 1.19643958583752, -1.22649837543688], a = 0.2, v = 0.2, t = 0.2)
movej(p[0.530368004343119, -0.0102497827460653, 0.183784770547845, -1.17719796782477, 1.18393477264302, -1.23254911744358], a = 0.2, v = 0.2, t = 0.2)
movej(p[0.52983623035469, -0.0101058664000295, 0.183811375351881, -1.18187589676251, 1.1742435838805, -1.23289899849601], a = 0.2, v = 0.2, t = 0.2)
movej(p[0.529764242593954, -0.0100988001940321, 0.183909625947101, -1.19157224312197, 1.16468955087894, -1.24738982723279], a = 0.2, v = 0.2, t = 0.2)
movej(p[0.530548996884064, -0.0100666568380475, 0.183950302244386, -1.19425209569601, 1.16590338310816, -1.24256446184559], a = 0.2, v = 0.2, t = 0.2)
movej(p[0.531720487797433, -0.0100440326431332, 0.184016247892115, -1.19539646973836, 1.17020606332322, -1.23809909398094], a = 0.2, v = 0.2, t = 0.2)
movej(p[0.53297564434677, -0.0100950245318504, 0.184110131504354, -1.18894446788106, 1.18156024170377, -1.22390816859021], a = 0.2, v = 0.2, t = 0.2)
movej(p[0.533990209075192, -0.0100584947274693, 0.184121326262268, -1.19497305671058, 1.19082527151252, -1.22944256934126], a = 0.2, v = 0.2, t = 0.2)
movej(p[0.534686581393882, -0.0100519687838101, 0.18405506839703, -1.19569256650285, 1.20096152607575, -1.22206417838039], a = 0.2, v = 0.2, t = 0.2)
movej(p[0.535023860893207, -0.0101827271406198, 0.184048182547137, -1.20089497894111, 1.20690137889177, -1.21736664218526], a = 0.2, v = 0.2, t = 0.2)
movej(p[0.535046759025283, -0.0103239090315679, 0.184052914840948, -1.19391681572263, 1.21068583145076, -1.21126846219369], a = 0.2, v = 0.2, t = 0.2)
movej(p[0.535058883198535, -0.0103509734665787, 0.183989012231608, -1.18823451121935, 1.21459410500199, -1.20765617128423], a = 0.2, v = 0.2, t = 0.2)
movej(p[0.534799138548667, -0.0104499953518347, 0.183939475119119, -1.1860626751704, 1.21403080120276, -1.20832608016992], a = 0.2, v = 0.2, t = 0.2)
movej(p[0.534166633581287, -0.0105772618976667, 0.183913578280524, -1.18474875361131, 1.21300306240648, -1.21566449172344], a = 0.2, v = 0.2, t = 0.2)
movej(p[0.533209469334273, -0.0105601207373616, 0.183820690533964, -1.19012851557647, 1.20539405015774, -1.23825052617785], a = 0.2, v = 0.2, t = 0.2)
movej(p[0.532135879240583, -0.0103939012833735, 0.183733070498321, -1.18961942459838, 1.19709322044365, -1.24874543365249], a = 0.2, v = 0.2, t = 0.2)
movej(p[0.531131266747818, -0.0103234292474376, 0.18378353810806, -1.18376055727912, 1.19072171258889, -1.23974139929683], a = 0.2, v = 0.2, t = 0.2)
movej(p[0.530301546130591, -0.0102254074349321, 0.183879651864208, -1.18110483780088, 1.17971428695439, -1.24256325029537], a = 0.2, v = 0.2, t = 0.2)
movej(p[0.530083821236381, -0.0100444428062153, 0.183903405677765, -1.18401838240987, 1.17188165214986, -1.2428293784428], a = 0.2, v = 0.2, t = 0.2)
movej(p[0.530457050072857, -0.00991981632099539, 0.183909891737266, -1.18471967711542, 1.16739939545215, -1.23999415806878], a = 0.2, v = 0.2, t = 0.2)
movej(p[0.53133792400987, -0.00998408221307603, 0.184016169392524, -1.19067776810565, 1.16767412530579, -1.23891694628344], a = 0.2, v = 0.2, t = 0.2)
movej(p[0.532474576340359, -0.00999189416800282, 0.184053809029057, -1.18930653234307, 1.17614025130494, -1.23307674179956], a = 0.2, v = 0.2, t = 0.2)
movej(p[0.53369857114625, -0.00992849983408565, 0.184035699685549, -1.19482710504036, 1.18652282820567, -1.22903842560977], a = 0.2, v = 0.2, t = 0.2)
movej(p[0.534620155505829, -0.0100102298178034, 0.18403993007767, -1.18735249879899, 1.19986120746974, -1.20967081394595], a = 0.2, v = 0.2, t = 0.2)
movej(p[0.53496104284656, -0.0101373959894072, 0.18408238330757, -1.19445885331337, 1.20579954997339, -1.21658409988467], a = 0.2, v = 0.2, t = 0.2)
movej(p[0.535118955776863, -0.0101952885691861, 0.184014622903952, -1.19933627776971, 1.20732871602706, -1.22400494163674], a = 0.2, v = 0.2, t = 0.2)
movej(p[0.535038856137754, -0.0101871186035623, 0.183928955094261, -1.205767648165, 1.20714764401332, -1.23206129549784], a = 0.2, v = 0.2, t = 0.2)
movej(p[0.534706321453015, -0.0104343497165152, 0.183911994200453, -1.19533823879393, 1.20791549469374, -1.22287200082224], a = 0.2, v = 0.2, t = 0.2)
movej(p[0.534034751218906, -0.0104845304023909, 0.183826519063456, -1.18634487409198, 1.2067738591209, -1.22701303205281], a = 0.2, v = 0.2, t = 0.2)
movej(p[0.533110194738659, -0.010415452760293, 0.183691020145761, -1.18121237586712, 1.20233413615285, -1.23140256103191], a = 0.2, v = 0.2, t = 0.2)
movej(p[0.532102541240474, -0.0102766462365667, 0.183662074253723, -1.18003749674902, 1.19523516313271, -1.23763624479801], a = 0.2, v = 0.2, t = 0.2)
movej(p[0.531156048245138, -0.0101636011830013, 0.183746285991433, -1.17607845568008, 1.18850238658846, -1.24073544273236], a = 0.2, v = 0.2, t = 0.2)
movej(p[0.530619152967979, -0.00993526776824785, 0.183773810257736, -1.17966020489476, 1.18081201888323, -1.24453667222051], a = 0.2, v = 0.2, t = 0.2)
movej(p[0.530501081455919, -0.00977505259975277, 0.183787930584362, -1.18333076701602, 1.1734840251839, -1.24562059994681], a = 0.2, v = 0.2, t = 0.2)
movej(p[0.530806034741115, -0.00985510534114073, 0.183865096875868, -1.17856908723615, 1.17265607377007, -1.23109128986177], a = 0.2, v = 0.2, t = 0.2)
movej(p[0.531525757997052, -0.00993939623529722, 0.183967143481523, -1.18045811903218, 1.17396187091017, -1.23080492023104], a = 0.2, v = 0.2, t = 0.2)
movej(p[0.532530669652458, -0.00995094852709389, 0.184033181912625, -1.18368787222314, 1.18046112837376, -1.22709162195698], a = 0.2, v = 0.2, t = 0.2)
movej(p[0.533574865503834, -0.00999868435897299, 0.184095884502277, -1.1901096622859, 1.18803571882397, -1.22426927539229], a = 0.2, v = 0.2, t = 0.2)
movej(p[0.534279629019638, -0.0101060426732712, 0.184138161009398, -1.18876063425685, 1.19594960135329, -1.21871009181896], a = 0.2, v = 0.2, t = 0.2)
movej(p[0.534785668150217, -0.0101168219014972, 0.184079068055972, -1.18851802835928, 1.20251919911651, -1.21358745331914], a = 0.2, v = 0.2, t = 0.2)
movej(p[0.534967781807961, -0.0101790899529432, 0.184022416172464, -1.19372449774438, 1.20450367368962, -1.21780241191949], a = 0.2, v = 0.2, t = 0.2)
movej(p[0.534916733512797, -0.0102935576942466, 0.183984172465912, -1.19639647662407, 1.20546019973522, -1.22228152119309], a = 0.2, v = 0.2, t = 0.2)
movej(p[0.534564607363024, -0.0103836075246298, 0.183855290001652, -1.19938189022845, 1.20291374216726, -1.23859909948071], a = 0.2, v = 0.2, t = 0.2)
movej(p[0.533933901861099, -0.0103764284134895, 0.18370481792449, -1.19854487754452, 1.19930242577957, -1.24761361602811], a = 0.2, v = 0.2, t = 0.2)
movej(p[0.533032093692925, -0.0104125358633614, 0.183635765900065, -1.19458273605111, 1.19591178554808, -1.2488893853157], a = 0.2, v = 0.2, t = 0.2)
movej(p[0.532044307082031, -0.0103457336173157, 0.183662510844661, -1.18657470188965, 1.19141296493336, -1.25239258782511], a = 0.2, v = 0.2, t = 0.2)
movej(p[0.53137863103044, -0.0100859849282354, 0.183635229731632, -1.18337043141844, 1.18652239483409, -1.25217230287713], a = 0.2, v = 0.2, t = 0.2)
movej(p[0.530908702956719, -0.00985268597117548, 0.18363239179072, -1.17901167468038, 1.18235246773289, -1.24656700142311], a = 0.2, v = 0.2, t = 0.2)
movej(p[0.53076557583274, -0.00980664743064027, 0.183738464912513, -1.18445798483126, 1.17690912555223, -1.24545956352916], a = 0.2, v = 0.2, t = 0.2)
movej(p[0.531124471523912, -0.00987383413922881, 0.183838139969812, -1.18905234575796, 1.17438171989099, -1.24983989247148], a = 0.2, v = 0.2, t = 0.2)
movej(p[0.532071039476644, -0.00985149367327175, 0.183903805131352, -1.19233465351574, 1.17786300138204, -1.24520039721794], a = 0.2, v = 0.2, t = 0.2)
movej(p[0.533352104735937, -0.00995648350177498, 0.183986779435476, -1.18389674427243, 1.18788440971427, -1.22396814274701], a = 0.2, v = 0.2, t = 0.2)
movej(p[0.534222875383943, -0.0100127011218433, 0.184033897869535, -1.18109464906448, 1.19727116493635, -1.21769764397919], a = 0.2, v = 0.2, t = 0.2)
movej(p[0.534882500164352, -0.0100577964978992, 0.18402178222615, -1.19019207096018, 1.2026040719329, -1.22154037580723], a = 0.2, v = 0.2, t = 0.2)
movej(p[0.535067352290429, -0.0100856054835603, 0.183956022358977, -1.1973390282248, 1.20616167724264, -1.22575920070986], a = 0.2, v = 0.2, t = 0.2)
movej(p[0.535141842897737, -0.0102996812821466, 0.183974978827725, -1.19637771240244, 1.20970271677583, -1.21623245900965], a = 0.2, v = 0.2, t = 0.2)
movej(p[0.534956039725743, -0.0104209073590251, 0.183903210761974, -1.18630951971502, 1.21213538450791, -1.20984639935133], a = 0.2, v = 0.2, t = 0.2)
movej(p[0.534510075388035, -0.0104506643608225, 0.183761655338073, -1.18278265892829, 1.21116219080057, -1.21104465825771], a = 0.2, v = 0.2, t = 0.2)
movej(p[0.533678715891517, -0.0104996622018727, 0.183673781906235, -1.17883130730554, 1.20759342434981, -1.21491300592799], a = 0.2, v = 0.2, t = 0.2)
movej(p[0.532680891807622, -0.0104803608769641, 0.183645952154984, -1.17884697023357, 1.20118311678462, -1.23140062868345], a = 0.2, v = 0.2, t = 0.2)
movej(p[0.531822450148542, -0.0102872283085571, 0.18360015757041, -1.18167770982958, 1.19246693148752, -1.24294910291753], a = 0.2, v = 0.2, t = 0.2)
movej(p[0.531145608842598, -0.00999878121088332, 0.183579653186156, -1.18751498665286, 1.18272875741361, -1.2536441766516], a = 0.2, v = 0.2, t = 0.2)
movej(p[0.530604886718013, -0.00997745554109512, 0.183674228285803, -1.18312634813064, 1.17909671042378, -1.24328341580723], a = 0.2, v = 0.2, t = 0.2)
movej(p[0.530353953859925, -0.00993623654595038, 0.183750460273648, -1.18228483627092, 1.17444695914592, -1.24403765535986], a = 0.2, v = 0.2, t = 0.2)
movej(p[0.530728914544444, -0.00987118825407822, 0.183756343171669, -1.18385283572095, 1.17187464360414, -1.24198912733719], a = 0.2, v = 0.2, t = 0.2)
movej(p[0.531648281124018, -0.00986596779088766, 0.183809394182286, -1.19217455790672, 1.17095958910836, -1.24609717069011], a = 0.2, v = 0.2, t = 0.2)
movej(p[0.532745687151471, -0.00995524125265035, 0.183927939097547, -1.19927688658867, 1.17601253015103, -1.2504634964406], a = 0.2, v = 0.2, t = 0.2)
movej(p[0.533853266128071, -0.00997541938295342, 0.183963668287996, -1.20064927045103, 1.18748409374743, -1.24232573880497], a = 0.2, v = 0.2, t = 0.2)
movej(p[0.53460443760029, -0.0100167669283431, 0.183966591023679, -1.2022007807152, 1.19646081368681, -1.23563326943261], a = 0.2, v = 0.2, t = 0.2)
movej(p[0.534958843968425, -0.0101864584593559, 0.183972508833858, -1.1904899523241, 1.20588801514268, -1.21583011034767], a = 0.2, v = 0.2, t = 0.2)
movej(p[0.535029131519721, -0.0102777650736888, 0.183941617605138, -1.19441446421184, 1.20760904346778, -1.22631155719845], a = 0.2, v = 0.2, t = 0.2)
movej(p[0.535059221581977, -0.0102936662746268, 0.18388105869694, -1.19773067351352, 1.20802587147432, -1.22974860332557], a = 0.2, v = 0.2, t = 0.2)
movej(p[0.534956696919893, -0.0103822704220811, 0.183819215710933, -1.19517514263119, 1.20870997940989, -1.22464273791707], a = 0.2, v = 0.2, t = 0.2)
movej(p[0.534450502299313, -0.0105480484315283, 0.183784157730678, -1.18815758264816, 1.20763692700715, -1.22527882566078], a = 0.2, v = 0.2, t = 0.2)
movej(p[0.533758010589963, -0.010487287113787, 0.183630088959513, -1.17921999494058, 1.20617446186413, -1.22792675275618], a = 0.2, v = 0.2, t = 0.2)
movej(p[0.532799526552426, -0.0103419202926393, 0.183550129474803, -1.17846487835975, 1.20059319816687, -1.23662949363269], a = 0.2, v = 0.2, t = 0.2)
movej(p[0.531844563102575, -0.0102174185714732, 0.183573317697605, -1.18071017380827, 1.19401262225468, -1.24205739543941], a = 0.2, v = 0.2, t = 0.2)
movej(p[0.531060300938665, -0.0100665345567518, 0.183613261402801, -1.18036181636018, 1.18673863381631, -1.24781476942487], a = 0.2, v = 0.2, t = 0.2)
movej(p[0.530582996210739, -0.00982075789223627, 0.183591907887763, -1.18215486974832, 1.18110297854329, -1.24566712343004], a = 0.2, v = 0.2, t = 0.2)
movej(p[0.530651411453821, -0.00977083420560734, 0.183649276123987, -1.17839047229443, 1.17808054420157, -1.23190438097861], a = 0.2, v = 0.2, t = 0.2)
movej(p[0.531152446320383, -0.00985456183479357, 0.183797654852248, -1.18131508824428, 1.17735101024071, -1.23017759428449], a = 0.2, v = 0.2, t = 0.2)
movej(p[0.532272688111451, -0.00988698151741571, 0.183883588378432, -1.19028495078894, 1.17945610911901, -1.23866461738683], a = 0.2, v = 0.2, t = 0.2)
movej(p[0.533523910001007, -0.00983994221538045, 0.183914171546374, -1.19698870179621, 1.18741471651722, -1.23935147178716], a = 0.2, v = 0.2, t = 0.2)
movej(p[0.534579462519391, -0.00999100304391811, 0.183989687597071, -1.19599693502286, 1.19781428841594, -1.22614101126633], a = 0.2, v = 0.2, t = 0.2)
movej(p[0.534991036365552, -0.0101023705268867, 0.184027620772676, -1.19354027726111, 1.20446851390015, -1.22579178155508], a = 0.2, v = 0.2, t = 0.2)
movej(p[0.535217670087253, -0.0101428916063363, 0.183978491037069, -1.19125679004698, 1.20908350262725, -1.22143987202433], a = 0.2, v = 0.2, t = 0.2)
movej(p[0.535187056504015, -0.0101892306801813, 0.183905076194343, -1.18973760516089, 1.21046531914393, -1.21891438906906], a = 0.2, v = 0.2, t = 0.2)
movej(p[0.534944401822162, -0.0103577134769924, 0.183902543473531, -1.19356465346784, 1.20867172895914, -1.22481020547011], a = 0.2, v = 0.2, t = 0.2)
movej(p[0.534381864646322, -0.0104394856763735, 0.18380743361702, -1.18946543148135, 1.20696518001486, -1.22885423314159], a = 0.2, v = 0.2, t = 0.2)
movej(p[0.533429962046115, -0.0103846924267633, 0.183698826358895, -1.18761875815027, 1.20301020586715, -1.23696119542463], a = 0.2, v = 0.2, t = 0.2)
movej(p[0.532313495181129, -0.0104231026474847, 0.183710014277951, -1.17720217401002, 1.19909501482862, -1.22960296425589], a = 0.2, v = 0.2, t = 0.2)
movej(p[0.531201011346065, -0.0103501802540974, 0.183786249575957, -1.1818428028143, 1.18795879910548, -1.24562308247894], a = 0.2, v = 0.2, t = 0.2)
movej(p[0.530446043581448, -0.0101377781474988, 0.18380497553995, -1.18777117749892, 1.17689928197611, -1.25281882279895], a = 0.2, v = 0.2, t = 0.2)
movej(p[0.530026477259609, -0.00998562519215548, 0.183799820633259, -1.18651493585185, 1.16989383359885, -1.2473414865039], a = 0.2, v = 0.2, t = 0.2)
movej(p[0.529988001752307, -0.0100917389561069, 0.183951309069985, -1.18093411990561, 1.16840478825186, -1.23561228452534], a = 0.2, v = 0.2, t = 0.2)
movej(p[0.530704849540263, -0.010101998307607, 0.184026877519516, -1.17472101667199, 1.17151786187951, -1.22836131577259], a = 0.2, v = 0.2, t = 0.2)
movej(p[0.531895348203624, -0.0100322682997181, 0.184072889728171, -1.18046085977181, 1.17582222157582, -1.22990641447295], a = 0.2, v = 0.2, t = 0.2)
movej(p[0.533298027566293, -0.0100089037555727, 0.18409301998619, -1.18074247565023, 1.18692852490506, -1.21885139419868], a = 0.2, v = 0.2, t = 0.2)
movej(p[0.534266689720914, -0.0101051620952414, 0.184136903048289, -1.18325780076408, 1.19649096779038, -1.21641186111797], a = 0.2, v = 0.2, t = 0.2)
movej(p[0.534852311778778, -0.0101228650245026, 0.184060416832593, -1.18571529084238, 1.2050288569454, -1.2122691691189], a = 0.2, v = 0.2, t = 0.2)
movej(p[0.535102253983788, -0.010179455385463, 0.183978694096217, -1.18739276819525, 1.20911383766226, -1.2116021891776], a = 0.2, v = 0.2, t = 0.2)
movej(p[0.53506810461733, -0.0103075799206252, 0.183931372451898, -1.18476386087615, 1.21242765210447, -1.20845511867317], a = 0.2, v = 0.2, t = 0.2)
movej(p[0.534787495906265, -0.0104117362096793, 0.183885557391868, -1.18859324681213, 1.21089441656782, -1.22078685966323], a = 0.2, v = 0.2, t = 0.2)
movej(p[0.534208896508578, -0.0104066150734122, 0.183765781637637, -1.1869487988878, 1.2093017425505, -1.22494862306843], a = 0.2, v = 0.2, t = 0.2)
movej(p[0.533358355096808, -0.0104683023053609, 0.183762129668539, -1.18723387559072, 1.20511072469967, -1.22998850896643], a = 0.2, v = 0.2, t = 0.2)
movej(p[0.532356815583742, -0.0104454091097076, 0.183778243226797, -1.18176492743039, 1.19910863782967, -1.23802973083689], a = 0.2, v = 0.2, t = 0.2)
movej(p[0.531582079556916, -0.0102306476199278, 0.183760586141917, -1.18337451083462, 1.19069748103776, -1.24808982666866], a = 0.2, v = 0.2, t = 0.2)
movej(p[0.530947565173569, -0.00999635521574399, 0.183707116319374, -1.18124520100937, 1.18299826494119, -1.24714081646534], a = 0.2, v = 0.2, t = 0.2)
movej(p[0.530577381132051, -0.00994341787620599, 0.183761926997936, -1.18581306715276, 1.17549971384686, -1.24674835753173], a = 0.2, v = 0.2, t = 0.2)
movej(p[0.530446599606978, -0.00995838663634924, 0.183803455839954, -1.18228801892617, 1.17277850468563, -1.24472015304346], a = 0.2, v = 0.2, t = 0.2)
movej(p[0.530910108663431, -0.00991688534648509, 0.183812973325209, -1.18842399139661, 1.17178221954752, -1.24731170397172], a = 0.2, v = 0.2, t = 0.2)
movej(p[0.531750053713613, -0.00995500699513194, 0.183859828812398, -1.18402425936071, 1.17696724853702, -1.23438969681776], a = 0.2, v = 0.2, t = 0.2)
movej(p[0.53270575263815, -0.0100750285106894, 0.184002578756886, -1.19325145592721, 1.180372116912, -1.241280753473], a = 0.2, v = 0.2, t = 0.2)
movej(p[0.533690123348777, -0.0101026657666, 0.184038274549614, -1.19320723239161, 1.18955984271551, -1.23346568609613], a = 0.2, v = 0.2, t = 0.2)
movej(p[0.534423914055585, -0.0101102236961316, 0.184010999538375, -1.19582211728332, 1.19791110067112, -1.228005834286], a = 0.2, v = 0.2, t = 0.2)
movej(p[0.534860613206122, -0.0102733838813733, 0.184026446042208, -1.1872539381199, 1.20687768325404, -1.20991345443238], a = 0.2, v = 0.2, t = 0.2)
movej(p[0.534944364033735, -0.0104018666573223, 0.183989669977184, -1.1903971544508, 1.20803097457614, -1.21975030769435], a = 0.2, v = 0.2, t = 0.2)
movej(p[0.534855620490687, -0.0104120542958779, 0.183918510207868, -1.19186711954864, 1.20911408830302, -1.22339104239179], a = 0.2, v = 0.2, t = 0.2)
movej(p[0.534465402524333, -0.0104450636208255, 0.183832178638196, -1.19705104627255, 1.20605480780952, -1.23171715431628], a = 0.2, v = 0.2, t = 0.2)
movej(p[0.533679462071421, -0.010606525079695, 0.183879481161117, -1.18934362176737, 1.20593977682043, -1.22876044955838], a = 0.2, v = 0.2, t = 0.2)
movej(p[0.532833332419793, -0.0105484925787807, 0.183810120330853, -1.18009820285674, 1.20321799402827, -1.23257369674704], a = 0.2, v = 0.2, t = 0.2)
movej(p[0.532024906695618, -0.0103164376852261, 0.183720553365023, -1.1733346047979, 1.19919401295248, -1.23357009170683], a = 0.2, v = 0.2, t = 0.2)
movej(p[0.531310854918072, -0.0101798807294209, 0.183741785434983, -1.17287057927905, 1.1920151749706, -1.23081715603523], a = 0.2, v = 0.2, t = 0.2)
movej(p[0.530677355856012, -0.0101276808754333, 0.183837049422688, -1.17442997495167, 1.18331288586121, -1.23632037821221], a = 0.2, v = 0.2, t = 0.2)
movej(p[0.530586122701973, -0.0099890430530505, 0.183862604313122, -1.17976530802912, 1.17752450714049, -1.23951535871651], a = 0.2, v = 0.2, t = 0.2)
movej(p[0.531042779647055, -0.00989744642828821, 0.183877982974983, -1.18217696371858, 1.17497133250497, -1.23951736020617], a = 0.2, v = 0.2, t = 0.2)
movej(p[0.532003834593992, -0.00989835805552509, 0.183937147085759, -1.1880819586893, 1.17703613369188, -1.23966723278783], a = 0.2, v = 0.2, t = 0.2)
movej(p[0.533079513032327, -0.00990928974101483, 0.183971477377816, -1.19179400131182, 1.18312936372075, -1.24164991633227], a = 0.2, v = 0.2, t = 0.2)
movej(p[0.534167087519365, -0.00985122848224044, 0.183897714254406, -1.19185158846857, 1.19401869704629, -1.22928089222708], a = 0.2, v = 0.2, t = 0.2)
movej(p[0.534855141091943, -0.0099770498873303, 0.183912178693832, -1.19225220135911, 1.20284338440886, -1.21675950215555], a = 0.2, v = 0.2, t = 0.2)
movej(p[0.535090889425501, -0.0101561195417891, 0.183969078113482, -1.19181389172035, 1.20953873329432, -1.21354149671279], a = 0.2, v = 0.2, t = 0.2)
movej(p[0.535159956889281, -0.0102334720427549, 0.183939218544875, -1.20254636236394, 1.20829761298707, -1.22923775509787], a = 0.2, v = 0.2, t = 0.2)
movej(p[0.534996059211832, -0.0102497773062742, 0.18383578931154, -1.20182158535667, 1.20770950447653, -1.23019819810782], a = 0.2, v = 0.2, t = 0.2)
movej(p[0.534606320218964, -0.0104657530059732, 0.183804505886574, -1.1976898569051, 1.20541626988188, -1.22625218871405], a = 0.2, v = 0.2, t = 0.2)
movej(p[0.533818094598961, -0.0105452862410661, 0.183775695990929, -1.18693296084461, 1.20355541905328, -1.23045668856991], a = 0.2, v = 0.2, t = 0.2)
movej(p[0.532961170822988, -0.0104260066653991, 0.183695043185026, -1.18230822010828, 1.20069741655189, -1.23537064691181], a = 0.2, v = 0.2, t = 0.2)
movej(p[0.53202737177615, -0.0102012916811259, 0.183662857520999, -1.1794346383279, 1.19488900945487, -1.23924523304897], a = 0.2, v = 0.2, t = 0.2)
movej(p[0.531168538816532, -0.0101550364773505, 0.183819374164207, -1.18435362406756, 1.1872186339628, -1.24547320394342], a = 0.2, v = 0.2, t = 0.2)
movej(p[0.530561115211421, -0.010005870475031, 0.183892265495664, -1.1847745549075, 1.17865894105857, -1.25019672300637], a = 0.2, v = 0.2, t = 0.2)
movej(p[0.530551534361329, -0.00982473203865494, 0.183907708097218, -1.18883808918602, 1.17197505917204, -1.25059835780668], a = 0.2, v = 0.2, t = 0.2)
movej(p[0.531126467664157, -0.00977412275837653, 0.183940238472997, -1.18525864743719, 1.17280125122595, -1.23923665671794], a = 0.2, v = 0.2, t = 0.2)
movej(p[0.532046787885703, -0.00986253159629545, 0.184028844419146, -1.19073328516314, 1.17501082826392, -1.24318128730511], a = 0.2, v = 0.2, t = 0.2)
movej(p[0.533266339991879, -0.00987178897995554, 0.184038865220969, -1.19031864578607, 1.18680131622472, -1.23594169558759], a = 0.2, v = 0.2, t = 0.2)
movej(p[0.534276586845766, -0.00990164685838601, 0.184025622483088, -1.19260603012683, 1.19544539296318, -1.23110545463957], a = 0.2, v = 0.2, t = 0.2)
movej(p[0.534904490281134, -0.0100397954031649, 0.184071943529894, -1.18285853828194, 1.20824042021543, -1.21155618169567], a = 0.2, v = 0.2, t = 0.2)
movej(p[0.535165302228775, -0.0101083013270521, 0.184062851017967, -1.18747494228621, 1.21146838993784, -1.22132195251924], a = 0.2, v = 0.2, t = 0.2)
movej(p[0.535275142285519, -0.0101246806525936, 0.183993727896956, -1.19121995425677, 1.21296407473006, -1.22491141159502], a = 0.2, v = 0.2, t = 0.2)
movej(p[0.535279112430701, -0.0102221332090579, 0.183960837406996, -1.19164420735217, 1.21394375988086, -1.2225486066056], a = 0.2, v = 0.2, t = 0.2)
movej(p[0.534980675402396, -0.0104341984497161, 0.183956449737773, -1.18622436755054, 1.21320398021172, -1.22134870018131], a = 0.2, v = 0.2, t = 0.2)
movej(p[0.534446640134678, -0.0104384135712105, 0.183837824971034, -1.18293659748804, 1.21116089182086, -1.22841307624281], a = 0.2, v = 0.2, t = 0.2)
movej(p[0.533525555849646, -0.0103890806636552, 0.183726422231838, -1.18170167314396, 1.20666255652117, -1.23737285261413], a = 0.2, v = 0.2, t = 0.2)
movej(p[0.532453161921074, -0.010358793837639, 0.183775975093816, -1.18281928635001, 1.20153648936871, -1.24368392607418], a = 0.2, v = 0.2, t = 0.2)
movej(p[0.53155955343161, -0.0102652191181789, 0.183883212111383, -1.1785609478757, 1.19604143615834, -1.24484024471309], a = 0.2, v = 0.2, t = 0.2)
movej(p[0.53089624751264, -0.0100124926672241, 0.183974013081508, -1.17934036296238, 1.18843883137092, -1.24383231869057], a = 0.2, v = 0.2, t = 0.2)
movej(p[0.530349112577278, -0.00985932134908615, 0.184188592570163, -1.1821665329216, 1.18021499251988, -1.23890344950341], a = 0.2, v = 0.2, t = 0.2)
movej(p[0.529840693674227, -0.00984658039560354, 0.18448215576016, -1.18509202561998, 1.17339766391216, -1.23712626147018], a = 0.2, v = 0.2, t = 0.2)
movej(p[0.529858886062953, -0.00978622258860562, 0.184669303118482, -1.18888654097029, 1.16843902950657, -1.24416565043904], a = 0.2, v = 0.2, t = 0.2)
movej(p[0.530590583526259, -0.00963284073571445, 0.184662293539679, -1.19145471470186, 1.16663223619729, -1.2467910839606], a = 0.2, v = 0.2, t = 0.2)
movej(p[0.53171562964854, -0.00966342155333285, 0.184665083223174, -1.1883515589001, 1.17047663489032, -1.23875299100821], a = 0.2, v = 0.2, t = 0.2)
movej(p[0.532745108190451, -0.00972138614432123, 0.184690783151933, -1.18990607227994, 1.17700578643766, -1.24405791081259], a = 0.2, v = 0.2, t = 0.2)
movej(p[0.533714861610918, -0.0097880792448429, 0.184666239145835, -1.19643631188118, 1.18556368219937, -1.24478335540362], a = 0.2, v = 0.2, t = 0.2)
movej(p[0.534455793926335, -0.00983140397493527, 0.184589080714458, -1.19954631103175, 1.19505755176379, -1.24234886547482], a = 0.2, v = 0.2, t = 0.2)
movej(p[0.534918358738856, -0.0100501284861976, 0.184584279776353, -1.20051669175276, 1.20250589385741, -1.23474498270261], a = 0.2, v = 0.2, t = 0.2)
movej(p[0.535073615142268, -0.0101195302753931, 0.184502795265206, -1.19303189498448, 1.2086280710078, -1.22760292675117], a = 0.2, v = 0.2, t = 0.2)
movej(p[0.535168023539139, -0.0101190521326038, 0.18438416287785, -1.19474183043163, 1.21079000909346, -1.22919729532943], a = 0.2, v = 0.2, t = 0.2)
movej(p[0.535165701723719, -0.0101757718689018, 0.184320013436882, -1.19045900453638, 1.21360263929561, -1.22113272657934], a = 0.2, v = 0.2, t = 0.2)
movej(p[0.535086789200621, -0.010335056640213, 0.184318127606683, -1.19333423693335, 1.21291343585769, -1.2252586110669], a = 0.2, v = 0.2, t = 0.2)
movej(p[0.534843199757192, -0.010377334751778, 0.18421211785995, -1.19100663227611, 1.21388273569055, -1.22506047780493], a = 0.2, v = 0.2, t = 0.2)
movej(p[0.534258462960293, -0.0104147409560664, 0.184099086892165, -1.1902782510208, 1.21063333014131, -1.23082004645554], a = 0.2, v = 0.2, t = 0.2)
movej(p[0.533291483167327, -0.0105154606897277, 0.18410611987484, -1.18514361931394, 1.20782419090737, -1.23101642655963], a = 0.2, v = 0.2, t = 0.2)
movej(p[0.532316893335431, -0.0104354201348538, 0.184137475546433, -1.18570172992539, 1.19925366869546, -1.2472675274891], a = 0.2, v = 0.2, t = 0.2)
movej(p[0.531580887216085, -0.010160145837615, 0.184130661878914, -1.18977951791951, 1.19115734089571, -1.25513597650265], a = 0.2, v = 0.2, t = 0.2)
movej(p[0.531026097560532, -0.00994808448418153, 0.184173258737904, -1.18962584345705, 1.1833085737687, -1.25486066351101], a = 0.2, v = 0.2, t = 0.2)
movej(p[0.530670456449781, -0.00993302989248954, 0.184303377232828, -1.18534805960979, 1.17963722412072, -1.24432745106469], a = 0.2, v = 0.2, t = 0.2)
movej(p[0.530895082280506, -0.0099270277735841, 0.1843887807714, -1.18777397359341, 1.17663558255387, -1.24780967805115], a = 0.2, v = 0.2, t = 0.2)
movej(p[0.53166350904244, -0.00987731049715098, 0.184409101425126, -1.19254794501661, 1.17628304920488, -1.24688039728769], a = 0.2, v = 0.2, t = 0.2)
movej(p[0.53278849330268, -0.00996902074717392, 0.184486853600355, -1.19583826125237, 1.18012198439235, -1.2427241045221], a = 0.2, v = 0.2, t = 0.2)
movej(p[0.533692058053457, -0.010014078770239, 0.184502775106389, -1.19443895922681, 1.1877956323975, -1.2420885540244], a = 0.2, v = 0.2, t = 0.2)
movej(p[0.534555127523381, -0.00999551884639349, 0.184441235726839, -1.20293300089006, 1.19535588566258, -1.24634974020096], a = 0.2, v = 0.2, t = 0.2)
movej(p[0.534999890523125, -0.00999970936930833, 0.184339554424044, -1.20173976443445, 1.20366987487696, -1.23807982287086], a = 0.2, v = 0.2, t = 0.2)
movej(p[0.535146181606284, -0.0101915800996021, 0.184327274822317, -1.20327285400274, 1.20752489423463, -1.23222963088366], a = 0.2, v = 0.2, t = 0.2)
movej(p[0.534815212933106, -0.0102984285834002, 0.184214032169103, -1.18849495258456, 1.21042669770483, -1.22260284209706], a = 0.2, v = 0.2, t = 0.2)
movej(p[0.534107285634046, -0.01027888023926, 0.184034517299805, -1.18528295565482, 1.20709180744062, -1.22895753855638], a = 0.2, v = 0.2, t = 0.2)
movej(p[0.533025988112145, -0.010262837523574, 0.183955820275052, -1.17654790915301, 1.20280403411058, -1.22730131950064], a = 0.2, v = 0.2, t = 0.2)
movej(p[0.531867455089948, -0.0101994298466278, 0.184045946614613, -1.18346753456334, 1.19391915030569, -1.24736584707434], a = 0.2, v = 0.2, t = 0.2)
movej(p[0.53104245543578, -0.00994721850670105, 0.184127905013422, -1.19118786006111, 1.18499483153618, -1.25857826967737], a = 0.2, v = 0.2, t = 0.2)
movej(p[0.530550411417692, -0.0096581269038346, 0.184171871679852, -1.19931970650262, 1.17473844387802, -1.26787828386532], a = 0.2, v = 0.2, t = 0.2)
movej(p[0.530476952905721, -0.00968579607175941, 0.184291622391288, -1.1932551778257, 1.17177201687687, -1.25018237655493], a = 0.2, v = 0.2, t = 0.2)
movej(p[0.530707674491997, -0.00975273351692204, 0.184367690143132, -1.19066372629752, 1.17000763539147, -1.25058732822407], a = 0.2, v = 0.2, t = 0.2)
movej(p[0.531444365798084, -0.00976378112207739, 0.184391439923243, -1.19440706041643, 1.17192524195515, -1.24928870354624], a = 0.2, v = 0.2, t = 0.2)
movej(p[0.53226408451444, -0.00981432824852467, 0.184428991404769, -1.19816970665267, 1.17667864279795, -1.24977861522163], a = 0.2, v = 0.2, t = 0.2)
movej(p[0.532914904847182, -0.00999806283289287, 0.184505485864678, -1.1936365902133, 1.18426718083744, -1.23940087263329], a = 0.2, v = 0.2, t = 0.2)
movej(p[0.533327226817704, -0.010065300554186, 0.184450702202141, -1.18862432938711, 1.19101301591462, -1.23540594100127], a = 0.2, v = 0.2, t = 0.2)
movej(p[0.533792397483338, -0.0100682613284702, 0.184253746271473, -1.21238277313264, 1.18238298950476, -1.25164531236062], a = 0.2, v = 0.2, t = 0.2)
movej(p[0.533891120269714, -0.0100830943351702, 0.184133368606342, -1.21850698856713, 1.18479256355719, -1.25649189536229], a = 0.2, v = 0.2, t = 0.2)
movej(p[0.533556788251904, -0.0102618084425571, 0.184092527538664, -1.20953854161954, 1.18747503038306, -1.2483561968315], a = 0.2, v = 0.2, t = 0.2)
movej(p[0.532942321282375, -0.0101856888710228, 0.184012583413281, -1.20141233953822, 1.18697499250985, -1.25387620304103], a = 0.2, v = 0.2, t = 0.2)
movej(p[0.532193068536257, -0.00991181514484358, 0.183918023287967, -1.19927615954453, 1.18365094678458, -1.26190554506106], a = 0.2, v = 0.2, t = 0.2)
movej(p[0.531566067433397, -0.00967183520215997, 0.183928135509415, -1.19878956509337, 1.17840971911047, -1.26391342678819], a = 0.2, v = 0.2, t = 0.2)
movej(p[0.531031862009604, -0.00973374299662185, 0.184078154523793, -1.19705634004578, 1.17411853765242, -1.2613490260425], a = 0.2, v = 0.2, t = 0.2)
movej(p[0.531227616479182, -0.00976735351017317, 0.184141567774138, -1.19173270742629, 1.17234875103318, -1.25326937382528], a = 0.2, v = 0.2, t = 0.2)
movej(p[0.53191131990815, -0.00977785024776622, 0.184143362827575, -1.19059045671474, 1.17398139940558, -1.2458932756906], a = 0.2, v = 0.2, t = 0.2)
movej(p[0.533032137108455, -0.00981347079384317, 0.184174325905541, -1.18970688266438, 1.18134687624471, -1.23311998348744], a = 0.2, v = 0.2, t = 0.2)
movej(p[0.533927080902352, -0.00985762376295575, 0.184182190712263, -1.19527034879616, 1.18924804163157, -1.23485247463677], a = 0.2, v = 0.2, t = 0.2)
movej(p[0.534572837240514, -0.00985268146917418, 0.184114739116614, -1.19777681294625, 1.19777121316106, -1.23101926378474], a = 0.2, v = 0.2, t = 0.2)
movej(p[0.534871454139473, -0.00995607455718773, 0.184052441372424, -1.19681697990137, 1.20282252494974, -1.22649283374537], a = 0.2, v = 0.2, t = 0.2)
movej(p[0.534836472102815, -0.0101373632447398, 0.184045909886072, -1.19322883511846, 1.20739233054835, -1.22453966467991], a = 0.2, v = 0.2, t = 0.2)
movej(p[0.534526934387367, -0.0102314166123841, 0.18397746447376, -1.19746640560298, 1.20529936419759, -1.23759288449765], a = 0.2, v = 0.2, t = 0.2)
movej(p[0.533874215053172, -0.0102057474470261, 0.183872019944653, -1.19895234282051, 1.20221543150658, -1.24851436044483], a = 0.2, v = 0.2, t = 0.2)
movej(p[0.533016991167224, -0.0102351808627061, 0.183887962576212, -1.20107140782556, 1.19822381455716, -1.25508691638699], a = 0.2, v = 0.2, t = 0.2)
movej(p[0.532118441070139, -0.010133717876849, 0.183944955818081, -1.19588519526466, 1.19360594540171, -1.26132363793555], a = 0.2, v = 0.2, t = 0.2)
movej(p[0.53146008987526, -0.009879492190229, 0.183969867681386, -1.19413122186158, 1.18848031771838, -1.2621051529809], a = 0.2, v = 0.2, t = 0.2)
movej(p[0.531066129923538, -0.00967741225047934, 0.183980621661569, -1.18946192740265, 1.18122450327586, -1.25494197994495], a = 0.2, v = 0.2, t = 0.2)
movej(p[0.531018719162827, -0.009750047253763, 0.184131407478431, -1.19201752668383, 1.17652950247182, -1.24797328510197], a = 0.2, v = 0.2, t = 0.2)
movej(p[0.53143021496685, -0.00985272465072204, 0.184247838168547, -1.19510304857235, 1.17496102588682, -1.25203250247979], a = 0.2, v = 0.2, t = 0.2)
movej(p[0.53243336684321, -0.0098566789539593, 0.184257871966527, -1.20156091355413, 1.17794607271986, -1.25332438735008], a = 0.2, v = 0.2, t = 0.2)
movej(p[0.533523176928888, -0.00990752924699446, 0.184235463728544, -1.19718235798136, 1.18624207391125, -1.24055742366668], a = 0.2, v = 0.2, t = 0.2)
movej(p[0.534265435222831, -0.0100577174172075, 0.184281243139216, -1.20551738029914, 1.19128107061965, -1.24379367891206], a = 0.2, v = 0.2, t = 0.2)
movej(p[0.534686382889836, -0.0101387350529652, 0.184231413446654, -1.20717685389994, 1.1975442393659, -1.23935622507907], a = 0.2, v = 0.2, t = 0.2)
movej(p[0.534852851239127, -0.0101735672227409, 0.184138595195753, -1.21067859659082, 1.20026654067545, -1.24010411432372], a = 0.2, v = 0.2, t = 0.2)
movej(p[0.53480141668357, -0.0103324503959739, 0.184085622807935, -1.20334176966826, 1.20257039425325, -1.23134265168957], a = 0.2, v = 0.2, t = 0.2)
movej(p[0.534459464228601, -0.0104272881740213, 0.183984540038605, -1.20551582347726, 1.20027185816643, -1.24692207527402], a = 0.2, v = 0.2, t = 0.2)
movej(p[0.533872501187039, -0.0103625041370305, 0.183852180597341, -1.20796184458245, 1.19635688668667, -1.25988344294499], a = 0.2, v = 0.2, t = 0.2)
movej(p[0.53309265263482, -0.0102591842694942, 0.183786091904851, -1.20450927025885, 1.19394035467831, -1.26349156803887], a = 0.2, v = 0.2, t = 0.2)
movej(p[0.532162720497658, -0.0102483604736642, 0.183902701486433, -1.18979588411899, 1.19311857025304, -1.24957861782704], a = 0.2, v = 0.2, t = 0.2)
movej(p[0.531528454135488, -0.0100502048244673, 0.183945505475431, -1.18283482869697, 1.18913216520227, -1.25072637775527], a = 0.2, v = 0.2, t = 0.2)
movej(p[0.531274593494007, -0.00978655133274914, 0.18394255413067, -1.18775248580641, 1.18295081327676, -1.2536739135905], a = 0.2, v = 0.2, t = 0.2)
movej(p[0.531531145310588, -0.00974287005462126, 0.184003809248415, -1.19300244116007, 1.17876034651221, -1.25305876359722], a = 0.2, v = 0.2, t = 0.2)
movej(p[0.532105957298423, -0.00983665527824392, 0.184123287041211, -1.19693907855831, 1.17789509109699, -1.25526696299499], a = 0.2, v = 0.2, t = 0.2)
movej(p[0.533021040559524, -0.00987281643728311, 0.184133933741616, -1.19895718811204, 1.18254586559911, -1.25521466331876], a = 0.2, v = 0.2, t = 0.2)
movej(p[0.533974586768355, -0.00984366802439341, 0.184078851305663, -1.20107722999655, 1.18976098056114, -1.24919542152136], a = 0.2, v = 0.2, t = 0.2)
movej(p[0.534701583030479, -0.0100011431800581, 0.184096555654575, -1.20212733441035, 1.19802087516737, -1.23695098491787], a = 0.2, v = 0.2, t = 0.2)
movej(p[0.53489864611456, -0.0101007662123545, 0.184090586655921, -1.20130918634109, 1.20170380719308, -1.23806250894158], a = 0.2, v = 0.2, t = 0.2)
movej(p[0.535087705953687, -0.0101180008649431, 0.184007361956336, -1.20625165221849, 1.20220766896122, -1.24423471539305], a = 0.2, v = 0.2, t = 0.2)
movej(p[0.535132430538138, -0.0101253827261127, 0.183917361288492, -1.20613768648337, 1.20352206584615, -1.24439936781869], a = 0.2, v = 0.2, t = 0.2)
movej(p[0.535178190801674, -0.0103457870709664, 0.183949370440101, -1.19875784868303, 1.20741369747832, -1.23409413978924], a = 0.2, v = 0.2, t = 0.2)
movej(p[0.535101204269463, -0.0104210541581762, 0.1838998260616, -1.19133030111893, 1.20987992255002, -1.23350595982078], a = 0.2, v = 0.2, t = 0.2)
movej(p[0.534956726541594, -0.0104018548398546, 0.183808038354222, -1.19420979257397, 1.20848693961936, -1.23590582809173], a = 0.2, v = 0.2, t = 0.2)
movej(p[0.53447742618301, -0.0104650299566156, 0.183767128734528, -1.19740022465113, 1.20584073671716, -1.24097308291806], a = 0.2, v = 0.2, t = 0.2)
movej(p[0.533645967312109, -0.0106470131681774, 0.183844886064793, -1.19541221621174, 1.20341910947786, -1.24678478370121], a = 0.2, v = 0.2, t = 0.2)
movej(p[0.532792663215928, -0.0105348279252033, 0.18382598750135, -1.19116969416261, 1.20008138316171, -1.2537905044693], a = 0.2, v = 0.2, t = 0.2)
movej(p[0.532019726007498, -0.0102755629196418, 0.183794996229752, -1.18951697558123, 1.19371852167461, -1.25886984569328], a = 0.2, v = 0.2, t = 0.2)
movej(p[0.531403909830363, -0.0101115352034892, 0.183851242307809, -1.1882183454089, 1.1869334117616, -1.2530447972448], a = 0.2, v = 0.2, t = 0.2)
movej(p[0.530806929806479, -0.0100662416692246, 0.183978019535707, -1.18823824587387, 1.17863153591729, -1.25621571136296], a = 0.2, v = 0.2, t = 0.2)
movej(p[0.530832618225134, -0.00993360369466546, 0.184008017804256, -1.18894463202224, 1.17439631400604, -1.25202569816071], a = 0.2, v = 0.2, t = 0.2)
movej(p[0.531390212137205, -0.00983133064878852, 0.184004210770216, -1.1955121673976, 1.17002041150771, -1.25711836713403], a = 0.2, v = 0.2, t = 0.2)
movej(p[0.532457939861183, -0.00992028829914303, 0.18406546259544, -1.19715166607416, 1.1741598040255, -1.24797703875339], a = 0.2, v = 0.2, t = 0.2)
movej(p[0.533504009020676, -0.00995754894377767, 0.184063862089888, -1.1920624823353, 1.18309256702545, -1.24584203678933], a = 0.2, v = 0.2, t = 0.2)
movej(p[0.53444260972417, -0.00990923441697512, 0.183946375893249, -1.19145296299955, 1.19372231294902, -1.2367792671659], a = 0.2, v = 0.2, t = 0.2)
movej(p[0.534989313626279, -0.00991479954153844, 0.183850561667756, -1.18911843265302, 1.20411166144747, -1.22676129937206], a = 0.2, v = 0.2, t = 0.2)
movej(p[0.535152166381994, -0.0101008013163148, 0.18385480371931, -1.19830150197001, 1.20635947802927, -1.23145018750403], a = 0.2, v = 0.2, t = 0.2)
movej(p[0.535158388469472, -0.0101969141944078, 0.183832663746182, -1.19736183071169, 1.20848529345971, -1.23424527230691], a = 0.2, v = 0.2, t = 0.2)
movej(p[0.535175900189456, -0.0101698897174271, 0.183737775397545, -1.19799359463593, 1.20802479050668, -1.23768142838867], a = 0.2, v = 0.2, t = 0.2)
movej(p[0.535150471409658, -0.0102544534468383, 0.183676050975903, -1.1906743054099, 1.21052155278661, -1.22758666102401], a = 0.2, v = 0.2, t = 0.2)
movej(p[0.534914029201211, -0.0103983077101501, 0.183690404706846, -1.19543450981768, 1.20785106949962, -1.24014930560139], a = 0.2, v = 0.2, t = 0.2)
movej(p[0.534444832813549, -0.0103787878992853, 0.183598831631717, -1.19181633233396, 1.20653703804939, -1.24148695815346], a = 0.2, v = 0.2, t = 0.2)
movej(p[0.533700226716453, -0.0103276560236792, 0.183554927198403, -1.19318079491691, 1.20161369721982, -1.25191877354849], a = 0.2, v = 0.2, t = 0.2)
movej(p[0.532804675827807, -0.0103129218546157, 0.183653510107202, -1.18564030349499, 1.19972980145984, -1.2480638749007], a = 0.2, v = 0.2, t = 0.2)
movej(p[0.531986981609117, -0.0102034721904956, 0.183779404448397, -1.18996726186667, 1.19244619821363, -1.26554511552564], a = 0.2, v = 0.2, t = 0.2)
movej(p[0.531480951544237, -0.00991210572833794, 0.183809112653784, -1.19707936611665, 1.18448675603338, -1.27256775768561], a = 0.2, v = 0.2, t = 0.2)
movej(p[0.53131003410834, -0.00974267574606671, 0.183835944756087, -1.19842828407297, 1.1778192443276, -1.27149440733202], a = 0.2, v = 0.2, t = 0.2)
movej(p[0.531331072689275, -0.00979182568609699, 0.183984481588244, -1.20059966611012, 1.17465351994066, -1.26644530173163], a = 0.2, v = 0.2, t = 0.2)
movej(p[0.531932934985646, -0.00980873467611582, 0.184062933276971, -1.2028981257183, 1.17516810638466, -1.26817528194504], a = 0.2, v = 0.2, t = 0.2)
movej(p[0.532890752034836, -0.00977275394178728, 0.184074034044373, -1.20885391578322, 1.17921698755815, -1.26553728566449], a = 0.2, v = 0.2, t = 0.2)
movej(p[0.533980651160373, -0.00985964735585325, 0.184083164287873, -1.20725779105988, 1.18700326854334, -1.25104233392144], a = 0.2, v = 0.2, t = 0.2)
movej(p[0.534590394427864, -0.00996445705763286, 0.184071964503851, -1.20069125993488, 1.19545115609428, -1.2412043189534], a = 0.2, v = 0.2, t = 0.2)
movej(p[0.535019587500182, -0.00999840682525748, 0.18399739734451, -1.19389253407527, 1.20327426321767, -1.22962395775357], a = 0.2, v = 0.2, t = 0.2)
movej(p[0.535164613046531, -0.0100479762372786, 0.183924392811863, -1.19549384454464, 1.20643685513001, -1.22881827299614], a = 0.2, v = 0.2, t = 0.2)
movej(p[0.535254563815706, -0.0102236252880004, 0.183934325264452, -1.19589331881845, 1.20984435046869, -1.22337092763126], a = 0.2, v = 0.2, t = 0.2)
movej(p[0.535218168018618, -0.0103033972585536, 0.183919767662714, -1.19410599842117, 1.21155535243888, -1.22483146872102], a = 0.2, v = 0.2, t = 0.2)
movej(p[0.535196356490867, -0.0102806610021077, 0.183833144799681, -1.18885553997632, 1.2139200123318, -1.2195033805744], a = 0.2, v = 0.2, t = 0.2)
movej(p[0.53492289614686, -0.0103854877227023, 0.183788744063141, -1.18260159632031, 1.21366735728976, -1.21382834661471], a = 0.2, v = 0.2, t = 0.2)
movej(p[0.534296594417106, -0.0105313270164322, 0.183779849288757, -1.18730027342742, 1.20943872252171, -1.23290769433579], a = 0.2, v = 0.2, t = 0.2)
movej(p[0.533602421321118, -0.0105116709393012, 0.183703695683211, -1.18547862375184, 1.20641359800341, -1.24066958253944], a = 0.2, v = 0.2, t = 0.2)
movej(p[0.532855569232393, -0.0103526964087232, 0.183641508077573, -1.18367491560538, 1.20158725644611, -1.24819094968861], a = 0.2, v = 0.2, t = 0.2)
movej(p[0.532117229399571, -0.0103358456247856, 0.183741254802577, -1.17587144649075, 1.19784640299897, -1.23667310060002], a = 0.2, v = 0.2, t = 0.2)
movej(p[0.531465900479558, -0.0102165693283455, 0.18381841210659, -1.17433579957791, 1.19140274744115, -1.24206627477693], a = 0.2, v = 0.2, t = 0.2)
movej(p[0.531213339260482, -0.00997837310007787, 0.1838420586509, -1.18127925830974, 1.18434415306031, -1.24617096262528], a = 0.2, v = 0.2, t = 0.2)
movej(p[0.531429711205233, -0.00982947754581794, 0.183886931690093, -1.18528830645696, 1.17983837328724, -1.24655086653525], a = 0.2, v = 0.2, t = 0.2)
movej(p[0.532013787300195, -0.00992274519367413, 0.18400219097196, -1.18290971894643, 1.18097558599976, -1.23928613202826], a = 0.2, v = 0.2, t = 0.2)
movej(p[0.533017053829766, -0.0099403520983811, 0.184034615636187, -1.1857092326416, 1.18505753860002, -1.24053549790279], a = 0.2, v = 0.2, t = 0.2)
movej(p[0.534058165017169, -0.00991377279621645, 0.183998528797031, -1.18742977202073, 1.19390784736439, -1.23261660387044], a = 0.2, v = 0.2, t = 0.2)
movej(p[0.534771031456173, -0.0100308277503688, 0.184022991310657, -1.19419421787791, 1.20065401917267, -1.22761983030414], a = 0.2, v = 0.2, t = 0.2)
movej(p[0.535024764818877, -0.0102198759472119, 0.18406163927468, -1.19402855333041, 1.20648867802905, -1.22447004348212], a = 0.2, v = 0.2, t = 0.2)
movej(p[0.535138610315928, -0.0102762302393067, 0.183986891682319, -1.19428068719382, 1.20967065162296, -1.22185493165474], a = 0.2, v = 0.2, t = 0.2)
movej(p[0.535076178388711, -0.0103407951213634, 0.183914170220775, -1.19296757646945, 1.20957648757135, -1.22199427982805], a = 0.2, v = 0.2, t = 0.2)
movej(p[0.534750494957289, -0.0104350197666262, 0.183854634191196, -1.19298080655725, 1.2089913457961, -1.22588311091845], a = 0.2, v = 0.2, t = 0.2)
movej(p[0.534138183574173, -0.010394442548329, 0.18374779695135, -1.19692989583878, 1.20417646561065, -1.24671550702914], a = 0.2, v = 0.2, t = 0.2)
movej(p[0.533376446125111, -0.0102078791267712, 0.183610616454434, -1.19874682357925, 1.19958123894471, -1.25886775593285], a = 0.2, v = 0.2, t = 0.2)
movej(p[0.532568580005881, -0.0100878862558646, 0.18360587481512, -1.18974777628154, 1.19593320727403, -1.25182059467225], a = 0.2, v = 0.2, t = 0.2)
movej(p[0.531728663784637, -0.00997596234667625, 0.183685229531242, -1.18168250805727, 1.19103836926519, -1.25195378826203], a = 0.2, v = 0.2, t = 0.2)
movej(p[0.531318269728052, -0.00976003569781422, 0.183681835252022, -1.17885367019613, 1.18445399115487, -1.25229415272361], a = 0.2, v = 0.2, t = 0.2)
movej(p[0.531397793998396, -0.00957192657235607, 0.183685971233842, -1.18610167373087, 1.17731409943849, -1.25768743120219], a = 0.2, v = 0.2, t = 0.2)
movej(p[0.532049809990347, -0.00966114913894184, 0.183793346695901, -1.18961161483522, 1.17580845592295, -1.25235896687126], a = 0.2, v = 0.2, t = 0.2)
movej(p[0.532947939907355, -0.00972284174965588, 0.183854961817897, -1.1903110472483, 1.17900976652714, -1.2530152564712], a = 0.2, v = 0.2, t = 0.2)
movej(p[0.533974118159354, -0.00970323740498312, 0.183830617159467, -1.19071762916705, 1.18846170184081, -1.24672110191438], a = 0.2, v = 0.2, t = 0.2)
movej(p[0.534718056352472, -0.00972560321819985, 0.183764026580409, -1.18878037762328, 1.19753421321701, -1.23578591699603], a = 0.2, v = 0.2, t = 0.2)
movej(p[0.53499094355214, -0.00989804634898801, 0.183799652579362, -1.19639180614635, 1.20355961563092, -1.23585498432514], a = 0.2, v = 0.2, t = 0.2)
movej(p[0.535086382528193, -0.0100182589882333, 0.183763686177196, -1.19795359570081, 1.20674113180229, -1.23485546800317], a = 0.2, v = 0.2, t = 0.2)
movej(p[0.535130724815268, -0.0100394706218374, 0.183683281677709, -1.2006244652221, 1.20701831216832, -1.23812706623381], a = 0.2, v = 0.2, t = 0.2)
movej(p[0.53502140682736, -0.0102068813873914, 0.183660819897269, -1.19379413830601, 1.20734088345643, -1.22876036422254], a = 0.2, v = 0.2, t = 0.2)
movej(p[0.534593289760212, -0.0102967705136276, 0.183594752080589, -1.19427051319162, 1.2046574952356, -1.2425034268796], a = 0.2, v = 0.2, t = 0.2)
movej(p[0.533915117112621, -0.0102374966350533, 0.183473075725128, -1.19314837692957, 1.20188777176193, -1.25118828847294], a = 0.2, v = 0.2, t = 0.2)
movej(p[0.533025506831318, -0.0101519442586036, 0.183413010281325, -1.18715478029467, 1.19938205136926, -1.2522525061761], a = 0.2, v = 0.2, t = 0.2)
movej(p[0.532138085956314, -0.0101352109755818, 0.183496303935022, -1.17979716126854, 1.19501181921475, -1.24927859323437], a = 0.2, v = 0.2, t = 0.2)
movej(p[0.531448684186118, -0.00995004018250275, 0.183550845901593, -1.18114102463555, 1.18711149341094, -1.25602461003252], a = 0.2, v = 0.2, t = 0.2)
movej(p[0.531134612803106, -0.00972925303738995, 0.183589949045023, -1.1916881341765, 1.17724424338742, -1.26366123701648], a = 0.2, v = 0.2, t = 0.2)
movej(p[0.531315726065735, -0.0096637737622337, 0.183667293861431, -1.19646060562841, 1.17395309467818, -1.26154784103581], a = 0.2, v = 0.2, t = 0.2)
movej(p[0.531882665162239, -0.00976122891859321, 0.183783636359056, -1.19820717420247, 1.17348714306235, -1.26305491229561], a = 0.2, v = 0.2, t = 0.2)
movej(p[0.53297835921482, -0.00977980665539099, 0.183807610030729, -1.19867858760122, 1.18148631711497, -1.25552770941203], a = 0.2, v = 0.2, t = 0.2)
movej(p[0.534009600351243, -0.00984928538212376, 0.183812028546503, -1.19711769310517, 1.18922206312874, -1.2449244164401], a = 0.2, v = 0.2, t = 0.2)
movej(p[0.534729619080832, -0.0100108459268124, 0.183864635401361, -1.20066407141152, 1.19800716832697, -1.2366617148019], a = 0.2, v = 0.2, t = 0.2)
movej(p[0.534984804458358, -0.0101322732745155, 0.18386081989205, -1.20672649589787, 1.20123333855746, -1.24347494676318], a = 0.2, v = 0.2, t = 0.2)
movej(p[0.535072004000493, -0.0101705526791882, 0.183803251283951, -1.21078717793212, 1.20371062564545, -1.24602216849103], a = 0.2, v = 0.2, t = 0.2)
movej(p[0.535100918896763, -0.0102841119335383, 0.183797017640867, -1.20274906196054, 1.20856460915687, -1.23277612359771], a = 0.2, v = 0.2, t = 0.2)
movej(p[0.535011736904867, -0.0103762807188017, 0.183799331003021, -1.1894229010997, 1.21234153297813, -1.22335166533131], a = 0.2, v = 0.2, t = 0.2)
movej(p[0.535006312276779, -0.0103693269666128, 0.183756643157671, -1.17728990383332, 1.21793939627443, -1.21126291007806], a = 0.2, v = 0.2, t = 0.2)
movej(p[0.534736100560755, -0.0104011341241624, 0.183676783533249, -1.17729974110213, 1.21714964525112, -1.21239745120276], a = 0.2, v = 0.2, t = 0.2)
movej(p[0.534218250154539, -0.0105256113675059, 0.18370485326166, -1.18098847183503, 1.21552490789943, -1.21675436506791], a = 0.2, v = 0.2, t = 0.2)
movej(p[0.53347839236141, -0.0105179773494885, 0.183667904164042, -1.17786827061144, 1.21129684589835, -1.22640143224523], a = 0.2, v = 0.2, t = 0.2)
movej(p[0.532787917398196, -0.0103590024447998, 0.183621668116918, -1.17832518539911, 1.20622309323629, -1.23479593643688], a = 0.2, v = 0.2, t = 0.2)
movej(p[0.532137272857807, -0.0102667504785917, 0.183600744776051, -1.16855766836315, 1.20273679714803, -1.22463684981288], a = 0.2, v = 0.2, t = 0.2)
movej(p[0.531549209117933, -0.0101579081790849, 0.183642670302731, -1.17270209097888, 1.19620790682402, -1.23385830912147], a = 0.2, v = 0.2, t = 0.2)
movej(p[0.531333033764867, -0.00998239204242335, 0.183661227900687, -1.17703855632318, 1.19009544641754, -1.23628918435568], a = 0.2, v = 0.2, t = 0.2)
movej(p[0.531564453291858, -0.00984114435440394, 0.183721305656605, -1.18574600918929, 1.18383437485259, -1.24408182238921], a = 0.2, v = 0.2, t = 0.2)
movej(p[0.5322817208452, -0.00995265505763471, 0.183860141190197, -1.19020788031901, 1.18264215510625, -1.241415496132], a = 0.2, v = 0.2, t = 0.2)
movej(p[0.533145763773636, -0.0100223582544734, 0.183911033260903, -1.19218264640456, 1.18616271337286, -1.2451905232372], a = 0.2, v = 0.2, t = 0.2)
movej(p[0.534094797364173, -0.0100274274750209, 0.183890245448174, -1.1981805765687, 1.19408354936929, -1.24299874226915], a = 0.2, v = 0.2, t = 0.2)
movej(p[0.534689506176016, -0.0101036833698104, 0.183889167484513, -1.19653441103109, 1.20300208580625, -1.22908559731813], a = 0.2, v = 0.2, t = 0.2)
movej(p[0.534955943495745, -0.0103058392662646, 0.183980512557996, -1.19926525301816, 1.20744071868551, -1.22548523176397], a = 0.2, v = 0.2, t = 0.2)
movej(p[0.535081390759023, -0.0103567522227676, 0.183926971810931, -1.18810864997532, 1.21344154147157, -1.21119755927174], a = 0.2, v = 0.2, t = 0.2)
movej(p[0.535145979352738, -0.0103999115569061, 0.183877450053706, -1.19236579414278, 1.21318939186062, -1.21583976927253], a = 0.2, v = 0.2, t = 0.2)
movej(p[0.535113455699977, -0.0104984280717679, 0.183841407344172, -1.18213278895441, 1.21702668987656, -1.20641567715567], a = 0.2, v = 0.2, t = 0.2)
movej(p[0.534957809117391, -0.0105589887923646, 0.183786259809775, -1.1921674604115, 1.21304092120067, -1.22833771998685], a = 0.2, v = 0.2, t = 0.2)
movej(p[0.534609254924133, -0.010557621646758, 0.183663186693802, -1.1924357800023, 1.21190414004958, -1.23093985184873], a = 0.2, v = 0.2, t = 0.2)
movej(p[0.533984582136186, -0.0105762736515499, 0.18360925871854, -1.19357877560742, 1.20845651936071, -1.23631816809544], a = 0.2, v = 0.2, t = 0.2)
movej(p[0.533135312191732, -0.010665800359452, 0.183678594416547, -1.18342506372826, 1.20687741514204, -1.23342408419595], a = 0.2, v = 0.2, t = 0.2)
movej(p[0.53249997423167, -0.0104736646562486, 0.183640947852829, -1.17539238571492, 1.20426653786011, -1.23405288496368], a = 0.2, v = 0.2, t = 0.2)
movej(p[0.531953778408563, -0.0102233496976154, 0.183605983202052, -1.17367933380152, 1.19913062326461, -1.23540205705704], a = 0.2, v = 0.2, t = 0.2)
movej(p[0.531538988362666, -0.0101177478058927, 0.183636153795781, -1.17997575566372, 1.19081636055296, -1.23825865750415], a = 0.2, v = 0.2, t = 0.2)
movej(p[0.531394217494328, -0.0101012552452323, 0.183770481762711, -1.18470333511371, 1.18512428164795, -1.24624163201893], a = 0.2, v = 0.2, t = 0.2)
movej(p[0.531839494080017, -0.0100228444357024, 0.183863614375807, -1.19135333867684, 1.18234473191063, -1.24899393957883], a = 0.2, v = 0.2, t = 0.2)
movej(p[0.532735668785002, -0.0100370820087713, 0.183937447542206, -1.18530106627523, 1.18703390818715, -1.23369861199863], a = 0.2, v = 0.2, t = 0.2)
movej(p[0.533662601704294, -0.0100930812726104, 0.184000924008232, -1.1828447218175, 1.19399975288972, -1.22368090070012], a = 0.2, v = 0.2, t = 0.2)
movej(p[0.534398732631402, -0.0101288434225274, 0.183963834077908, -1.18487235860206, 1.200595322068, -1.22254858266267], a = 0.2, v = 0.2, t = 0.2)
movej(p[0.534836131384775, -0.0101211891714224, 0.183892932989485, -1.19268837135639, 1.20507039177552, -1.22569440731358], a = 0.2, v = 0.2, t = 0.2)
movej(p[0.535096491205517, -0.0103012380356106, 0.183896322477496, -1.19458946038513, 1.20850057691185, -1.21991264854855], a = 0.2, v = 0.2, t = 0.2)
movej(p[0.535064790063514, -0.0104039688602673, 0.183874052377337, -1.19208133102524, 1.2114711562162, -1.22301849589602], a = 0.2, v = 0.2, t = 0.2)
movej(p[0.534928628957333, -0.0104266830295273, 0.18377109584001, -1.19501162128717, 1.21118737558858, -1.2289853133621], a = 0.2, v = 0.2, t = 0.2)
movej(p[0.534373108746633, -0.0104276554764357, 0.183662736334427, -1.19306075152902, 1.20990267059988, -1.23070066721008], a = 0.2, v = 0.2, t = 0.2)
movej(p[0.533528400605109, -0.0105549033358272, 0.183704478238125, -1.19554126323453, 1.20575067906581, -1.23924011763745], a = 0.2, v = 0.2, t = 0.2)
movej(p[0.53267026785739, -0.0105112950182926, 0.183686222342241, -1.18056234633849, 1.20423605943387, -1.2337937270751], a = 0.2, v = 0.2, t = 0.2)
movej(p[0.531931169951162, -0.0103004730791963, 0.183644053350036, -1.17911477913188, 1.19819013189562, -1.23807445097393], a = 0.2, v = 0.2, t = 0.2)
movej(p[0.531291909378678, -0.0101347998048794, 0.183648083479676, -1.17222543304692, 1.19176272474149, -1.22831663260929], a = 0.2, v = 0.2, t = 0.2)
movej(p[0.530827781743069, -0.0100667405478525, 0.183772678492902, -1.18003853941595, 1.18425463345889, -1.23853869686885], a = 0.2, v = 0.2, t = 0.2)
