def moving():
set_payload_mass(0)
set_tcp(p[0,0,0,0,0,0])
movej(p[-0.448, -0.0924, 0.2918, -1.273, -1.166, 1.176], a = 0.2, v = 0.2, t = 0.2)
movej(p[-0.448095731629748, -0.0922913359317762, 0.29189501355347, -1.27214771047241, -1.16511610110101, 1.17938414042006], a = 0.2, v = 0.2, t = 0.2)
movej(p[-0.448, -0.0924, 0.2918, -1.273, -1.166, 1.176], a = 0.2, v = 0.2, t = 0.2)
movej(p[-0.448095731629748, -0.0922913359317762, 0.29189501355347, -1.27214771047241, -1.16511610110101, 1.17938414042006], a = 0.2, v = 0.2, t = 0.2)
movej(p[-0.448, -0.0924, 0.2918, -1.273, -1.166, 1.176], a = 0.2, v = 0.2, t = 0.2)
movej(p[-0.448095731629748, -0.0922913359317762, 0.29189501355347, -1.27214771047241, -1.16511610110101, 1.17938414042006], a = 0.2, v = 0.2, t = 0.2)
movej(p[-0.448, -0.0924, 0.2918, -1.273, -1.166, 1.176], a = 0.2, v = 0.2, t = 0.2)
movej(p[-0.448849835455275, -0.0922305345300424, 0.291648885343032, -1.30723954595223, -1.15902748782011, 1.16774329976861], a = 0.2, v = 0.2, t = 0.2)
movej(p[-0.450305020976492, -0.0919914279986501, 0.291147550867772, -1.32318527787135, -1.15909846912709, 1.16390815150792], a = 0.2, v = 0.2, t = 0.2)
movej(p[-0.45159498774898, -0.0917665000833388, 0.290671058808142, -1.32435026865775, -1.15873712890897, 1.17065250751796], a = 0.2, v = 0.2, t = 0.2)
movej(p[-0.452603154149206, -0.0916642680134848, 0.290258250700967, -1.29398842092155, -1.14948027997284, 1.18985264979747], a = 0.2, v = 0.2, t = 0.2)
movej(p[-0.453592528710144, -0.091568873614638, 0.289979191749421, -1.26234520035644, -1.15288155327399, 1.17292965801026], a = 0.2, v = 0.2, t = 0.2)
movej(p[-0.454619247278653, -0.0914621161524487, 0.289928513274252, -1.26068755123788, -1.15300842344901, 1.15983540602665], a = 0.2, v = 0.2, t = 0.2)
movej(p[-0.45509752613239, -0.0915088067332745, 0.289605150716386, -1.26538235107938, -1.15453617996184, 1.15446722612133], a = 0.2, v = 0.2, t = 0.2)
movej(p[-0.454324414374638, -0.0916831676051686, 0.289136038803962, -1.26175107486928, -1.12494497220843, 1.18940597372886], a = 0.2, v = 0.2, t = 0.2)
movej(p[-0.45200503308165, -0.0921054393532739, 0.288938003028183, -1.26386514991068, -1.12977192194954, 1.22517558581782], a = 0.2, v = 0.2, t = 0.2)
movej(p[-0.448995237756326, -0.0924163209429358, 0.28895710935462, -1.26344034546085, -1.13856784291828, 1.25202603406162], a = 0.2, v = 0.2, t = 0.2)
movej(p[-0.445948928287475, -0.092902314698802, 0.289420223691532, -1.25801570922913, -1.18541678040809, 1.24552006795165], a = 0.2, v = 0.2, t = 0.2)
movej(p[-0.443103361400459, -0.0931240459673785, 0.290132648128616, -1.26761186027438, -1.19921942835979, 1.25038137071244], a = 0.2, v = 0.2, t = 0.2)
movej(p[-0.44102691383478, -0.0934120472828973, 0.290935966195975, -1.25591277821014, -1.206233702021, 1.24226751182186], a = 0.2, v = 0.2, t = 0.2)
movej(p[-0.440293046960454, -0.0933325018559309, 0.291710871875278, -1.30043922763586, -1.19648605398952, 1.2491870054583], a = 0.2, v = 0.2, t = 0.2)
movej(p[-0.441469600548903, -0.0931643470840736, 0.291937946067361, -1.33700626796599, -1.19403388037457, 1.23160666476031], a = 0.2, v = 0.2, t = 0.2)
movej(p[-0.44368567110379, -0.0928222734175162, 0.292056644268752, -1.38560585629914, -1.19777992458162, 1.21872171659032], a = 0.2, v = 0.2, t = 0.2)
movej(p[-0.446144530417246, -0.0923899999733268, 0.29155229306118, -1.36984820687228, -1.17013021038878, 1.2074392936], a = 0.2, v = 0.2, t = 0.2)
movej(p[-0.448210388329199, -0.0921628019965767, 0.291326596827314, -1.35497853204662, -1.15698117732894, 1.20111761569112], a = 0.2, v = 0.2, t = 0.2)
movej(p[-0.449911056108657, -0.0919094744981494, 0.290968897388467, -1.33926298255076, -1.14970193452449, 1.19178275829285], a = 0.2, v = 0.2, t = 0.2)
movej(p[-0.451331139805707, -0.0918818077339443, 0.290911775960507, -1.31206675939391, -1.15228780330095, 1.1898449273946], a = 0.2, v = 0.2, t = 0.2)
movej(p[-0.452508544595118, -0.0917329940489185, 0.290464833621919, -1.28807206898664, -1.14222478719541, 1.18558534129464], a = 0.2, v = 0.2, t = 0.2)
movej(p[-0.453553910885466, -0.0916541137640714, 0.290091307214196, -1.29547693626655, -1.12086467853875, 1.18235364078134], a = 0.2, v = 0.2, t = 0.2)
movej(p[-0.454212118215365, -0.0914997421713197, 0.289614860391226, -1.31809424759866, -1.12542726297089, 1.18640979372912], a = 0.2, v = 0.2, t = 0.2)
movej(p[-0.454172102427371, -0.0915996477709178, 0.289181795075736, -1.29916009196186, -1.1117863565277, 1.20315806220621], a = 0.2, v = 0.2, t = 0.2)
movej(p[-0.452808542357804, -0.0918394856513899, 0.288624659693023, -1.25951479428422, -1.09593295719682, 1.23821665233894], a = 0.2, v = 0.2, t = 0.2)
movej(p[-0.450564599742053, -0.0921302090500174, 0.288361965285753, -1.21353410208443, -1.11078983076088, 1.23027056044995], a = 0.2, v = 0.2, t = 0.2)
movej(p[-0.447909850209428, -0.0924861642623128, 0.288450207862705, -1.23394090783328, -1.13757587175073, 1.23482852979184], a = 0.2, v = 0.2, t = 0.2)
movej(p[-0.445370556898323, -0.0927876532099676, 0.289237437683344, -1.23486516552541, -1.16601472159634, 1.23347177576831], a = 0.2, v = 0.2, t = 0.2)
movej(p[-0.443378318279829, -0.0930784900404077, 0.290086524577094, -1.2658861061802, -1.16032051566747, 1.2526709510295], a = 0.2, v = 0.2, t = 0.2)
movej(p[-0.442361470863106, -0.0931244877894626, 0.290974711155402, -1.30651273462676, -1.17193491810182, 1.23672793582934], a = 0.2, v = 0.2, t = 0.2)
movej(p[-0.44286300115999, -0.0930545574887676, 0.291294842076046, -1.32362606834053, -1.19066885083781, 1.20433414495471], a = 0.2, v = 0.2, t = 0.2)
movej(p[-0.444308815340761, -0.0928670694564543, 0.291407569570566, -1.33953762645703, -1.19762707140988, 1.19300804969466], a = 0.2, v = 0.2, t = 0.2)
movej(p[-0.446483399016353, -0.0926639108357771, 0.290810786486111, -1.31647459868448, -1.19543260074486, 1.18058389937973], a = 0.2, v = 0.2, t = 0.2)
movej(p[-0.448421322502878, -0.0923520715312766, 0.29045675066783, -1.31680487873929, -1.16815600096555, 1.186511397931], a = 0.2, v = 0.2, t = 0.2)
movej(p[-0.450021267576495, -0.0921290062164159, 0.290036161893521, -1.3302887293338, -1.15017978172177, 1.18274561660564], a = 0.2, v = 0.2, t = 0.2)
movej(p[-0.45128581299661, -0.0919180430860268, 0.290106171842694, -1.33791834834586, -1.11628935831779, 1.19942955267832], a = 0.2, v = 0.2, t = 0.2)
movej(p[-0.452382611657675, -0.0917857639195375, 0.289869865390816, -1.33828910513806, -1.09833066703495, 1.21120547838682], a = 0.2, v = 0.2, t = 0.2)
movej(p[-0.45335006320682, -0.0916395263586438, 0.289508396099948, -1.33157319500867, -1.11853144095923, 1.17494417004843], a = 0.2, v = 0.2, t = 0.2)
movej(p[-0.454219007555575, -0.0914856421816383, 0.289417691783982, -1.3369790548948, -1.10616641783456, 1.16525650772316], a = 0.2, v = 0.2, t = 0.2)
movej(p[-0.454895539986524, -0.0913025081399885, 0.289129862930211, -1.34263618428929, -1.11225274901552, 1.15364111082845], a = 0.2, v = 0.2, t = 0.2)
movej(p[-0.454831949184194, -0.0913667454493328, 0.28920092582874, -1.31789203588415, -1.10261032602071, 1.16785795769872], a = 0.2, v = 0.2, t = 0.2)
movej(p[-0.453566033011127, -0.0916983497561918, 0.288727621684622, -1.27971590946016, -1.11679053145778, 1.19027464743847], a = 0.2, v = 0.2, t = 0.2)
movej(p[-0.451178802537344, -0.0921538192831294, 0.288685476493055, -1.2552772355451, -1.13709947840355, 1.21411400198976], a = 0.2, v = 0.2, t = 0.2)
movej(p[-0.448372002618207, -0.0925021379727092, 0.288776563039833, -1.28220367428457, -1.1531167322008, 1.24378305737836], a = 0.2, v = 0.2, t = 0.2)
movej(p[-0.445561589326208, -0.0926751257375997, 0.289353192341578, -1.30215964784065, -1.15169331448118, 1.27909339128611], a = 0.2, v = 0.2, t = 0.2)
movej(p[-0.443246875874418, -0.0929929290184104, 0.290238279631292, -1.30855846135713, -1.16190686320715, 1.28638495415822], a = 0.2, v = 0.2, t = 0.2)
movej(p[-0.442194165028753, -0.0931481928070131, 0.290735159477399, -1.31007083665199, -1.18267687601564, 1.25608685083403], a = 0.2, v = 0.2, t = 0.2)
movej(p[-0.442731262071964, -0.0930629026175644, 0.291126491496862, -1.32626884724895, -1.20727013482331, 1.21635840453651], a = 0.2, v = 0.2, t = 0.2)
movej(p[-0.444557279610172, -0.0926949289849143, 0.290942281495613, -1.34022629305123, -1.21750176765256, 1.18567107285101], a = 0.2, v = 0.2, t = 0.2)
movej(p[-0.44680901045567, -0.0923531759414899, 0.290833361881084, -1.32411725660082, -1.19920464882952, 1.18341205848207], a = 0.2, v = 0.2, t = 0.2)
movej(p[-0.448950655504973, -0.0921628830446908, 0.290517931396309, -1.31820159057326, -1.19108692216752, 1.17109545635003], a = 0.2, v = 0.2, t = 0.2)
movej(p[-0.450537260902045, -0.0919033966807084, 0.290262639772101, -1.30502625703556, -1.16737065000645, 1.16707413136294], a = 0.2, v = 0.2, t = 0.2)
movej(p[-0.451711528162319, -0.0917529163633609, 0.290096933707219, -1.31772716588117, -1.14933375077267, 1.17955050057268], a = 0.2, v = 0.2, t = 0.2)
movej(p[-0.452614996898377, -0.0915333539747968, 0.289971813906253, -1.31876422009798, -1.14500699937732, 1.17555499634384], a = 0.2, v = 0.2, t = 0.2)
movej(p[-0.453348511838826, -0.0914261252172155, 0.289695500761821, -1.32580252405645, -1.13882053159872, 1.17218326736445], a = 0.2, v = 0.2, t = 0.2)
movej(p[-0.45393575844811, -0.0913893290717273, 0.289444015652995, -1.32849608662798, -1.12279469722283, 1.18284671643792], a = 0.2, v = 0.2, t = 0.2)
movej(p[-0.454217167016477, -0.0913982581312109, 0.288982803211763, -1.31062342300737, -1.12228239437982, 1.19098802184377], a = 0.2, v = 0.2, t = 0.2)
movej(p[-0.453503456946766, -0.0915327785635144, 0.28865775659159, -1.29218609294615, -1.1159756375024, 1.2072413985951], a = 0.2, v = 0.2, t = 0.2)
movej(p[-0.45189738413111, -0.0917615639506578, 0.288356586075365, -1.25721591956909, -1.13867595394772, 1.21123686837571], a = 0.2, v = 0.2, t = 0.2)
movej(p[-0.449564245635637, -0.0920502877196783, 0.288437985514192, -1.27531258700729, -1.1248184794452, 1.24260000617617], a = 0.2, v = 0.2, t = 0.2)
movej(p[-0.447203015904426, -0.0925666942937594, 0.288799064626821, -1.27066929226996, -1.12559848260869, 1.25517953250986], a = 0.2, v = 0.2, t = 0.2)
movej(p[-0.445108183191961, -0.0929337273199588, 0.289555323589763, -1.30778152863095, -1.14001415434431, 1.2493449140176], a = 0.2, v = 0.2, t = 0.2)
movej(p[-0.443720401722198, -0.0931195610888146, 0.290169004828303, -1.30053541115033, -1.17072797767882, 1.23162856373568], a = 0.2, v = 0.2, t = 0.2)
movej(p[-0.443420477097591, -0.0930567782764429, 0.290970953966356, -1.31758404994751, -1.20183931892304, 1.21123026621688], a = 0.2, v = 0.2, t = 0.2)
movej(p[-0.444337569793334, -0.0928323018258794, 0.291066821313019, -1.31101737257446, -1.2079977575949, 1.19194302222208], a = 0.2, v = 0.2, t = 0.2)
movej(p[-0.44609450224587, -0.0925949873523656, 0.290871583239073, -1.33158312390599, -1.20223439269393, 1.1725287257057], a = 0.2, v = 0.2, t = 0.2)
movej(p[-0.447934468202936, -0.0922822203420675, 0.290399267723479, -1.3418481495814, -1.18708380798996, 1.17410959967265], a = 0.2, v = 0.2, t = 0.2)
movej(p[-0.449540623758725, -0.0920222314209365, 0.289964669275792, -1.3307379514398, -1.1519033682675, 1.1856626093103], a = 0.2, v = 0.2, t = 0.2)
movej(p[-0.450826622473563, -0.0917636239058165, 0.289905087276337, -1.32659003397849, -1.15322666340667, 1.1713745988465], a = 0.2, v = 0.2, t = 0.2)
movej(p[-0.451869695942343, -0.0916438901982496, 0.289510197563127, -1.33266268438192, -1.13110030912166, 1.17822893011504], a = 0.2, v = 0.2, t = 0.2)
movej(p[-0.452799945125419, -0.091589822769641, 0.289307947921718, -1.34607413120181, -1.15241776134827, 1.15307157629793], a = 0.2, v = 0.2, t = 0.2)
movej(p[-0.453445041724149, -0.0915460781322621, 0.288757146303521, -1.33521503801511, -1.14704963451765, 1.16944271450239], a = 0.2, v = 0.2, t = 0.2)
movej(p[-0.453785052846618, -0.0914748814669178, 0.288576821101896, -1.28186317729413, -1.13957786677613, 1.18594183272037], a = 0.2, v = 0.2, t = 0.2)
movej(p[-0.453018837141663, -0.0914254352809843, 0.288268928759383, -1.21914965460883, -1.12767477079585, 1.21562816884321], a = 0.2, v = 0.2, t = 0.2)
movej(p[-0.451421488545982, -0.0917646068114092, 0.28809629594291, -1.2230780394913, -1.13571794118897, 1.21887593250223], a = 0.2, v = 0.2, t = 0.2)
movej(p[-0.449175022373228, -0.0921328810852856, 0.288095580768229, -1.23284707023147, -1.17025059359907, 1.22542161725091], a = 0.2, v = 0.2, t = 0.2)
movej(p[-0.446727540375838, -0.0926270349273654, 0.288362733256165, -1.28844530313528, -1.19207161040291, 1.2401935758128], a = 0.2, v = 0.2, t = 0.2)
movej(p[-0.444397305147521, -0.0928267658604915, 0.289080366576422, -1.28337305172958, -1.19044079624711, 1.26084956222525], a = 0.2, v = 0.2, t = 0.2)
movej(p[-0.442099232967608, -0.0931309022435354, 0.290074897233225, -1.29238875282634, -1.19703563534933, 1.25588901884832], a = 0.2, v = 0.2, t = 0.2)
movej(p[-0.440788075564205, -0.093258969875547, 0.291075623777108, -1.30680387865169, -1.2020231594929, 1.24330883591827], a = 0.2, v = 0.2, t = 0.2)
movej(p[-0.440916739886583, -0.0932242331960985, 0.291866207047389, -1.33623534152679, -1.20217889231749, 1.24194972200162], a = 0.2, v = 0.2, t = 0.2)
movej(p[-0.442592462689771, -0.0929116574010902, 0.291729337811437, -1.36015181863736, -1.1923077776359, 1.21837626587745], a = 0.2, v = 0.2, t = 0.2)
movej(p[-0.445066705225439, -0.0926188694189248, 0.291292797948597, -1.34810214527053, -1.20372973928841, 1.18059321610877], a = 0.2, v = 0.2, t = 0.2)
movej(p[-0.447481208310854, -0.0923335461755475, 0.290947928205438, -1.33774353746543, -1.20496040888593, 1.15835935297418], a = 0.2, v = 0.2, t = 0.2)
movej(p[-0.449494001939154, -0.0921020283135857, 0.290568585618892, -1.31810521094816, -1.18781477772932, 1.14611256073143], a = 0.2, v = 0.2, t = 0.2)
movej(p[-0.45106934606785, -0.0918599974552071, 0.290451409509231, -1.31187498384257, -1.15301658376684, 1.16302721604511], a = 0.2, v = 0.2, t = 0.2)
movej(p[-0.45214893206855, -0.0917421582035853, 0.290005931803874, -1.31148054026916, -1.13336613524951, 1.16790601335142], a = 0.2, v = 0.2, t = 0.2)
movej(p[-0.453168874333773, -0.0916680636653908, 0.289771026904134, -1.32121507822172, -1.12761552081433, 1.17633048018763], a = 0.2, v = 0.2, t = 0.2)
movej(p[-0.45397057566607, -0.0914706147910274, 0.289477134379893, -1.32284144888916, -1.11024727193263, 1.18545221380049], a = 0.2, v = 0.2, t = 0.2)
movej(p[-0.45430219374765, -0.0914180829281576, 0.289335042385212, -1.30303067883699, -1.08831293501791, 1.21003801512412], a = 0.2, v = 0.2, t = 0.2)
movej(p[-0.453719904209965, -0.0914817562962162, 0.288867672575958, -1.24454398800426, -1.08370033907593, 1.22542214826456], a = 0.2, v = 0.2, t = 0.2)
movej(p[-0.451929398397304, -0.09178920749032, 0.288738406144999, -1.2485259136731, -1.08553073310125, 1.2556057734589], a = 0.2, v = 0.2, t = 0.2)
movej(p[-0.449487483622085, -0.0922243741337023, 0.288452883290126, -1.2202681397562, -1.11556171246736, 1.24792884311334], a = 0.2, v = 0.2, t = 0.2)
movej(p[-0.446846226083935, -0.0926752935095517, 0.289025839679433, -1.25220909911994, -1.12807676118003, 1.2641144577444], a = 0.2, v = 0.2, t = 0.2)
movej(p[-0.444469167221558, -0.0930478872839204, 0.289492186559444, -1.2339721975582, -1.15178243727398, 1.26485450153528], a = 0.2, v = 0.2, t = 0.2)
movej(p[-0.442555784223831, -0.0932359704621737, 0.290507232860688, -1.26366648862464, -1.18917439989815, 1.26000219564986], a = 0.2, v = 0.2, t = 0.2)
movej(p[-0.441405604035452, -0.0933349848946947, 0.291139752462292, -1.28074508591751, -1.21040045923442, 1.24065976104061], a = 0.2, v = 0.2, t = 0.2)
movej(p[-0.441844490734007, -0.0932238921160999, 0.291701870874351, -1.31836341041926, -1.22742177985648, 1.19649577237174], a = 0.2, v = 0.2, t = 0.2)
movej(p[-0.443542510469375, -0.0930045584542946, 0.291583615276172, -1.3534516845751, -1.20225948139645, 1.18862880512323], a = 0.2, v = 0.2, t = 0.2)
movej(p[-0.445901620118329, -0.092523029345291, 0.291300075481937, -1.36969235153349, -1.17290933747513, 1.20335875717504], a = 0.2, v = 0.2, t = 0.2)
movej(p[-0.44816561968047, -0.092178155718164, 0.290942821827706, -1.37466700053259, -1.14827553802471, 1.20601248506164], a = 0.2, v = 0.2, t = 0.2)
movej(p[-0.449973726978942, -0.0919407397367559, 0.290525085163903, -1.34782707399618, -1.1389111209038, 1.17912396113923], a = 0.2, v = 0.2, t = 0.2)
movej(p[-0.451358230001857, -0.0918942758835205, 0.290223436809057, -1.3172828838083, -1.14341800416944, 1.15035974823764], a = 0.2, v = 0.2, t = 0.2)
movej(p[-0.452433807550244, -0.091685540749551, 0.289788185216465, -1.31589752460688, -1.13186207601111, 1.16337197701455], a = 0.2, v = 0.2, t = 0.2)
movej(p[-0.453394382072605, -0.0913602103544093, 0.289672263978174, -1.33315502405679, -1.11147427150336, 1.18387520510485], a = 0.2, v = 0.2, t = 0.2)
movej(p[-0.454306997264264, -0.0911402867815966, 0.28928559356739, -1.33203237464635, -1.09187383954816, 1.19732741136927], a = 0.2, v = 0.2, t = 0.2)
movej(p[-0.454904509674581, -0.0911796953398969, 0.288968296282261, -1.31282750044432, -1.07222975799954, 1.21515268117137], a = 0.2, v = 0.2, t = 0.2)
movej(p[-0.454413463082754, -0.0914595220702898, 0.288504570877293, -1.26906525846319, -1.08922602361963, 1.21949842442258], a = 0.2, v = 0.2, t = 0.2)
movej(p[-0.452724679509407, -0.0918348488230619, 0.288209102879962, -1.25462959771685, -1.10956250951557, 1.22747283668959], a = 0.2, v = 0.2, t = 0.2)
movej(p[-0.450094503691875, -0.0923205363627439, 0.288230118844629, -1.23756365186971, -1.15195019004018, 1.21578054184331], a = 0.2, v = 0.2, t = 0.2)
movej(p[-0.447165331694465, -0.0927951775355434, 0.288863321663693, -1.23612439565593, -1.16776611141323, 1.22462890634729], a = 0.2, v = 0.2, t = 0.2)
movej(p[-0.444319817460561, -0.0931749806573094, 0.289853840005343, -1.26400748309597, -1.19329917152639, 1.22350990226405], a = 0.2, v = 0.2, t = 0.2)
movej(p[-0.441915048319832, -0.0934004113621429, 0.290947691173975, -1.29677856128549, -1.20209904432564, 1.22558239876817], a = 0.2, v = 0.2, t = 0.2)
movej(p[-0.440746755777109, -0.0934238609395728, 0.291562663180441, -1.32345354879082, -1.21351884263347, 1.22112794258804], a = 0.2, v = 0.2, t = 0.2)
movej(p[-0.44102908536279, -0.0932704097795421, 0.291991945107332, -1.33546350993002, -1.2170697480031, 1.20336731328014], a = 0.2, v = 0.2, t = 0.2)
movej(p[-0.442796877744007, -0.0930162457550334, 0.291925938707407, -1.34843184536124, -1.22885879635527, 1.17735298822684], a = 0.2, v = 0.2, t = 0.2)
movej(p[-0.445310176813702, -0.0926926809050222, 0.29175859596165, -1.36659819088063, -1.22060820684232, 1.15351389404724], a = 0.2, v = 0.2, t = 0.2)
movej(p[-0.447790069078059, -0.092345356906579, 0.291213143604218, -1.35910952507687, -1.19171032880181, 1.15692482939264], a = 0.2, v = 0.2, t = 0.2)
movej(p[-0.449752526340925, -0.0918894746486563, 0.291066904964005, -1.32019822485558, -1.18494963368085, 1.1550420324646], a = 0.2, v = 0.2, t = 0.2)
movej(p[-0.451334173704987, -0.091685813958745, 0.290676589292223, -1.29885897319881, -1.14875316710493, 1.16833101038265], a = 0.2, v = 0.2, t = 0.2)
movej(p[-0.452493975465496, -0.0916027894009029, 0.29071083178654, -1.3005278070398, -1.14364154907294, 1.16031353562414], a = 0.2, v = 0.2, t = 0.2)
movej(p[-0.453451903144968, -0.0915672273997678, 0.290151392762182, -1.31506467840933, -1.09632597103882, 1.18753426833798], a = 0.2, v = 0.2, t = 0.2)
movej(p[-0.454271926052813, -0.0914518613713141, 0.289800608372293, -1.32929764085304, -1.09013845157126, 1.1968066556459], a = 0.2, v = 0.2, t = 0.2)
movej(p[-0.45503605122689, -0.0913261759995302, 0.289455916158773, -1.33252539647743, -1.09202688349008, 1.19205686992782], a = 0.2, v = 0.2, t = 0.2)
movej(p[-0.455807978964292, -0.0913011623321506, 0.289266111793511, -1.31226930887988, -1.08433850040876, 1.19563556753742], a = 0.2, v = 0.2, t = 0.2)
movej(p[-0.455764614947913, -0.0912368949840371, 0.28934872902204, -1.28236411695923, -1.08172412015602, 1.21005332036711], a = 0.2, v = 0.2, t = 0.2)
movej(p[-0.454800303384739, -0.091429882662034, 0.28909982709804, -1.25670420792793, -1.0859584891139, 1.22786961708014], a = 0.2, v = 0.2, t = 0.2)
movej(p[-0.452690700478963, -0.0917106081728352, 0.288618785204723, -1.25225275554907, -1.137474053398, 1.22778062859064], a = 0.2, v = 0.2, t = 0.2)
movej(p[-0.450331364865169, -0.0921501639441673, 0.288316869981072, -1.23226272067084, -1.16920502946414, 1.21195180097638], a = 0.2, v = 0.2, t = 0.2)
movej(p[-0.448009247153507, -0.0925034811324685, 0.288251853110143, -1.24984934015888, -1.17468567133801, 1.2128437972248], a = 0.2, v = 0.2, t = 0.2)
movej(p[-0.446127565590052, -0.0927776776754159, 0.289170840258783, -1.27161037876336, -1.14504363277018, 1.22724227281728], a = 0.2, v = 0.2, t = 0.2)
movej(p[-0.445253025108143, -0.0928824760444666, 0.289744116394121, -1.32202691176282, -1.14933586205803, 1.22465513587216], a = 0.2, v = 0.2, t = 0.2)
movej(p[-0.445830086392554, -0.0927487628181076, 0.290157606450991, -1.33497038555294, -1.15971587251737, 1.21182696046563], a = 0.2, v = 0.2, t = 0.2)
movej(p[-0.447649723329174, -0.0924570150647036, 0.290081737198569, -1.31727665120977, -1.16634925657546, 1.17362621100579], a = 0.2, v = 0.2, t = 0.2)
movej(p[-0.449884696663362, -0.0922236464661411, 0.289893004955799, -1.31464195098332, -1.16331974490437, 1.15310434212978], a = 0.2, v = 0.2, t = 0.2)
movej(p[-0.451779556608833, -0.0919700072131425, 0.289901535277578, -1.32072648718455, -1.13895222005395, 1.16552867931238], a = 0.2, v = 0.2, t = 0.2)
movej(p[-0.453389495039662, -0.0918114455489346, 0.289687765930657, -1.35018326270666, -1.13902920733139, 1.16178654900319], a = 0.2, v = 0.2, t = 0.2)
movej(p[-0.454755332532192, -0.0915316730072594, 0.289493424481339, -1.32845719415239, -1.15016895638299, 1.14626574780733], a = 0.2, v = 0.2, t = 0.2)
movej(p[-0.455924740713613, -0.0913260027370847, 0.289028013835144, -1.32164781347778, -1.15046309414713, 1.13805725550345], a = 0.2, v = 0.2, t = 0.2)
movej(p[-0.456859972540394, -0.0911834983638309, 0.288860802197153, -1.32753307903089, -1.14673932590338, 1.14585850794973], a = 0.2, v = 0.2, t = 0.2)
movej(p[-0.457482042940813, -0.0910050871865676, 0.288481817344224, -1.34117591291757, -1.10576520463739, 1.1688413309782], a = 0.2, v = 0.2, t = 0.2)
movej(p[-0.457924514786692, -0.0909976426852735, 0.288322971577817, -1.3552145250827, -1.08361819785456, 1.17341621464044], a = 0.2, v = 0.2, t = 0.2)
movej(p[-0.45803819571863, -0.0910945521006898, 0.288213520987058, -1.32343287320148, -1.06881920665053, 1.17919514728667], a = 0.2, v = 0.2, t = 0.2)
movej(p[-0.457383312602794, -0.0911548194974302, 0.287965502986939, -1.26797855906521, -1.08419450598705, 1.177553109278], a = 0.2, v = 0.2, t = 0.2)
movej(p[-0.455738609673162, -0.0914043153894787, 0.287740338590078, -1.22024362670436, -1.09365346988505, 1.18465024169215], a = 0.2, v = 0.2, t = 0.2)
movej(p[-0.453316114706463, -0.0916195385849821, 0.287393066231789, -1.21354865286379, -1.10225654408108, 1.1989561494744], a = 0.2, v = 0.2, t = 0.2)
movej(p[-0.450626571143541, -0.0921579731488527, 0.28773958393938, -1.24645166903226, -1.1281529445974, 1.20859896099723], a = 0.2, v = 0.2, t = 0.2)
movej(p[-0.448200938768796, -0.0924440767966646, 0.288181833757153, -1.2521388566129, -1.16038302188212, 1.22219318895145], a = 0.2, v = 0.2, t = 0.2)
movej(p[-0.446450434258859, -0.0926782798137576, 0.289187146144245, -1.29255833651635, -1.16544185920106, 1.24257995899262], a = 0.2, v = 0.2, t = 0.2)
movej(p[-0.446014592537784, -0.0926569586379387, 0.289625494054052, -1.318624469555, -1.14884978875779, 1.25205990934916], a = 0.2, v = 0.2, t = 0.2)
movej(p[-0.446941427756032, -0.0926407877810258, 0.289806556253312, -1.38678718777979, -1.15895128317303, 1.21222447337608], a = 0.2, v = 0.2, t = 0.2)
movej(p[-0.448910702852394, -0.0923962217934237, 0.2894072484896, -1.37008080657336, -1.16992080947379, 1.16361790918643], a = 0.2, v = 0.2, t = 0.2)
movej(p[-0.451277648939958, -0.0921142355011222, 0.289364410557079, -1.37082714894962, -1.17628820721173, 1.1196225903584], a = 0.2, v = 0.2, t = 0.2)
movej(p[-0.453338592089659, -0.0916838367949858, 0.289310993747373, -1.33613621617133, -1.1449053605778, 1.13680011023607], a = 0.2, v = 0.2, t = 0.2)
movej(p[-0.454859327203488, -0.0914576409741683, 0.289177635836802, -1.32903194147649, -1.13337837817316, 1.13906302581709], a = 0.2, v = 0.2, t = 0.2)
movej(p[-0.455993197867865, -0.0914188174824478, 0.288994472440199, -1.33399735247585, -1.13168489688993, 1.13249300116977], a = 0.2, v = 0.2, t = 0.2)
movej(p[-0.45670828378925, -0.09145721495449, 0.288757201921216, -1.33530590922675, -1.13183453597161, 1.11891063749244], a = 0.2, v = 0.2, t = 0.2)
movej(p[-0.457222320151109, -0.0913688907614749, 0.288689851479386, -1.30426825931442, -1.11714622326655, 1.13629359666841], a = 0.2, v = 0.2, t = 0.2)
movej(p[-0.457345141956927, -0.0912111224714781, 0.288132797523035, -1.23463723942853, -1.09997948033793, 1.17369739402082], a = 0.2, v = 0.2, t = 0.2)
movej(p[-0.456576727443755, -0.0911980125609376, 0.287789088637794, -1.16946266553825, -1.07545866565938, 1.21150420255738], a = 0.2, v = 0.2, t = 0.2)
movej(p[-0.454890681290916, -0.0914658003756076, 0.287523840789715, -1.15386048454998, -1.08238679715546, 1.2085400508441], a = 0.2, v = 0.2, t = 0.2)
movej(p[-0.452233873830231, -0.0918679777714502, 0.287408149296433, -1.1969095203122, -1.08447935850589, 1.2227058833797], a = 0.2, v = 0.2, t = 0.2)
movej(p[-0.449297757957412, -0.0923328677550534, 0.287867995212434, -1.23530105994319, -1.11406517724341, 1.2289406246131], a = 0.2, v = 0.2, t = 0.2)
movej(p[-0.446428275792226, -0.0925951826945781, 0.288482112257413, -1.2716967926772, -1.13989536687398, 1.25723570856085], a = 0.2, v = 0.2, t = 0.2)
movej(p[-0.4439682804522, -0.0929468609545488, 0.289559942943321, -1.27019122146587, -1.18226119544468, 1.25251937493389], a = 0.2, v = 0.2, t = 0.2)
movej(p[-0.442760267596744, -0.0931451413087427, 0.290435944169516, -1.29854245747283, -1.20584938679744, 1.24622374363473], a = 0.2, v = 0.2, t = 0.2)
movej(p[-0.443260683879247, -0.0930678730969489, 0.290974046930847, -1.31451218492876, -1.21539678473769, 1.21744654553682], a = 0.2, v = 0.2, t = 0.2)
movej(p[-0.445304821249317, -0.0927557145403657, 0.290891447972409, -1.33711311213897, -1.20469268742602, 1.19077661302856], a = 0.2, v = 0.2, t = 0.2)
movej(p[-0.447853556850293, -0.0923087759078001, 0.290424337951601, -1.32663427429172, -1.21016090039726, 1.15550224726737], a = 0.2, v = 0.2, t = 0.2)
movej(p[-0.450270373876439, -0.0921249958368064, 0.289760315603382, -1.33834507817701, -1.19072551689773, 1.13747399748406], a = 0.2, v = 0.2, t = 0.2)
movej(p[-0.452266620382818, -0.0918609052221184, 0.28962777564939, -1.33855629665296, -1.17837567445737, 1.13277609208817], a = 0.2, v = 0.2, t = 0.2)
movej(p[-0.453871410137699, -0.0916931336284734, 0.289381517282235, -1.34098547869133, -1.15681871834504, 1.13238937254066], a = 0.2, v = 0.2, t = 0.2)
movej(p[-0.454997254600383, -0.0914087918580688, 0.289449184904085, -1.31961593799057, -1.14150436923517, 1.14238311654925], a = 0.2, v = 0.2, t = 0.2)
movej(p[-0.455898337871543, -0.0912977258298251, 0.28909094068193, -1.28597206925059, -1.12608991945427, 1.14503275865355], a = 0.2, v = 0.2, t = 0.2)
movej(p[-0.456559622113419, -0.0912402802436887, 0.289094865497855, -1.27911419756942, -1.09879403243501, 1.1614872971636], a = 0.2, v = 0.2, t = 0.2)
movej(p[-0.456352249783178, -0.0913245712305684, 0.289095775817323, -1.27546074347114, -1.0945635549262, 1.17688831299267], a = 0.2, v = 0.2, t = 0.2)
movej(p[-0.455042822712425, -0.0913693981232306, 0.288997965140643, -1.28422686229899, -1.09981360949839, 1.21316749971496], a = 0.2, v = 0.2, t = 0.2)
movej(p[-0.452569275696532, -0.091642754936264, 0.288390828080468, -1.25259501396363, -1.11423368377585, 1.23776167779128], a = 0.2, v = 0.2, t = 0.2)
movej(p[-0.449696256508157, -0.0919762938559812, 0.28794113965905, -1.24290090849319, -1.12391039137312, 1.25289642142044], a = 0.2, v = 0.2, t = 0.2)
movej(p[-0.446672565504809, -0.0924771739493058, 0.288182110924735, -1.26214722567948, -1.15937452444451, 1.24788978570764], a = 0.2, v = 0.2, t = 0.2)
movej(p[-0.443926274636754, -0.0929569563111447, 0.289115883009028, -1.30616166159745, -1.17360255046741, 1.26641471636448], a = 0.2, v = 0.2, t = 0.2)
movej(p[-0.442196811177244, -0.0931565355641354, 0.290506310419717, -1.34606209164499, -1.20573931448032, 1.26258083776653], a = 0.2, v = 0.2, t = 0.2)
movej(p[-0.441667839821825, -0.0931078628491931, 0.291316324485253, -1.38443718206495, -1.20233726917792, 1.25451599119019], a = 0.2, v = 0.2, t = 0.2)
movej(p[-0.442868303527283, -0.0929058678676366, 0.291551838848728, -1.3952519037711, -1.22036376700929, 1.19378881350084], a = 0.2, v = 0.2, t = 0.2)
movej(p[-0.445153703291684, -0.092719669502352, 0.291090924438728, -1.40814667918248, -1.20647048490237, 1.157863095367], a = 0.2, v = 0.2, t = 0.2)
movej(p[-0.447842544053236, -0.0924852727077759, 0.290813104942997, -1.38421428880937, -1.18939000535442, 1.12912261564391], a = 0.2, v = 0.2, t = 0.2)
movej(p[-0.450171991611829, -0.0920242424930005, 0.290482233938183, -1.34266959329145, -1.14562525269923, 1.15690963044178], a = 0.2, v = 0.2, t = 0.2)
movej(p[-0.451912570170837, -0.0917505810781756, 0.290458767972255, -1.34500209412742, -1.11112483785478, 1.17710909511451], a = 0.2, v = 0.2, t = 0.2)
movej(p[-0.453245286263373, -0.0915211811927991, 0.290370111059458, -1.34529775477674, -1.08707167703404, 1.19376479934705], a = 0.2, v = 0.2, t = 0.2)
movej(p[-0.454267936490724, -0.0915137932929431, 0.29000452350998, -1.37199255203216, -1.08425708457924, 1.19225172986741], a = 0.2, v = 0.2, t = 0.2)
movej(p[-0.455092687659042, -0.0913570727819892, 0.289539867046122, -1.36215713477133, -1.08170217305141, 1.19139255985024], a = 0.2, v = 0.2, t = 0.2)
movej(p[-0.455746850268045, -0.0913291592578091, 0.288880884748446, -1.32886511893117, -1.08352186455828, 1.18640397928008], a = 0.2, v = 0.2, t = 0.2)
movej(p[-0.45551662435173, -0.0914544909259519, 0.288620079337235, -1.32162908516225, -1.08943942106434, 1.19782435195562], a = 0.2, v = 0.2, t = 0.2)
movej(p[-0.454177381810028, -0.0917449968066122, 0.288465800526636, -1.30185362920593, -1.09772768579297, 1.22371395050742], a = 0.2, v = 0.2, t = 0.2)
movej(p[-0.451502426246107, -0.091964936237678, 0.288244067623787, -1.28331494541035, -1.10939857060756, 1.25501034164138], a = 0.2, v = 0.2, t = 0.2)
movej(p[-0.448529176089635, -0.0922238890840403, 0.288499588567945, -1.25321969034979, -1.12329854307282, 1.271259442209], a = 0.2, v = 0.2, t = 0.2)
movej(p[-0.44540988302619, -0.0926348834557146, 0.288886485781291, -1.2397001218949, -1.14647177577985, 1.28335687689009], a = 0.2, v = 0.2, t = 0.2)
movej(p[-0.442668439662311, -0.093124150167721, 0.290007456406731, -1.25466886345525, -1.14572391850774, 1.29320040293294], a = 0.2, v = 0.2, t = 0.2)
movej(p[-0.440890470118169, -0.0935213733997921, 0.290842366917868, -1.27703486236597, -1.17592027070346, 1.26183006340709], a = 0.2, v = 0.2, t = 0.2)
movej(p[-0.440998015800453, -0.0934566230760967, 0.29134137407253, -1.30933311751006, -1.20451151237167, 1.21906306329505], a = 0.2, v = 0.2, t = 0.2)
movej(p[-0.442786833194213, -0.0931401401919957, 0.291548547440391, -1.33955396863601, -1.21758727137544, 1.17674643748056], a = 0.2, v = 0.2, t = 0.2)
movej(p[-0.445366705373346, -0.092651992882411, 0.291534304832346, -1.35982324113966, -1.19754170379062, 1.17122966308344], a = 0.2, v = 0.2, t = 0.2)
movej(p[-0.447944087935968, -0.092334289537495, 0.291297868341661, -1.36376947394398, -1.17899758718373, 1.16800901865275], a = 0.2, v = 0.2, t = 0.2)
movej(p[-0.450116015835052, -0.0920458218543765, 0.290828600875659, -1.35986213039583, -1.15483164363072, 1.17716202507261], a = 0.2, v = 0.2, t = 0.2)
movej(p[-0.451835662244727, -0.0918288563165178, 0.290552114938268, -1.35551172880795, -1.13727839986925, 1.17478390549242], a = 0.2, v = 0.2, t = 0.2)
movej(p[-0.453192381592124, -0.0916868989386904, 0.290484360179178, -1.36541084732581, -1.10474300589498, 1.19165631601384], a = 0.2, v = 0.2, t = 0.2)
movej(p[-0.454221198507757, -0.0916000569311444, 0.290485855482918, -1.34480677331915, -1.09359725481484, 1.19661716159135], a = 0.2, v = 0.2, t = 0.2)
movej(p[-0.455147627425695, -0.0914742463500978, 0.290083958718432, -1.35437615918448, -1.08753204828468, 1.20626604429937], a = 0.2, v = 0.2, t = 0.2)
movej(p[-0.455571925594908, -0.091407312065097, 0.289586218078044, -1.28083135589348, -1.08619245065688, 1.20365057651227], a = 0.2, v = 0.2, t = 0.2)
movej(p[-0.454962261961708, -0.0913730393231944, 0.288921795792433, -1.24015569364846, -1.08114524861468, 1.22015051888702], a = 0.2, v = 0.2, t = 0.2)
movej(p[-0.452829681842, -0.0917196700191243, 0.288668870529621, -1.18255642983087, -1.09002009849155, 1.22976838876417], a = 0.2, v = 0.2, t = 0.2)
movej(p[-0.449653068410045, -0.0921366323906272, 0.288715950218147, -1.216356396025, -1.10588588300314, 1.24644422467659], a = 0.2, v = 0.2, t = 0.2)
movej(p[-0.446618698724884, -0.0926162316938632, 0.289240182444029, -1.24955460021618, -1.1520758150304, 1.2497201732997], a = 0.2, v = 0.2, t = 0.2)
movej(p[-0.44402513169582, -0.0930570184040393, 0.28992618221268, -1.25280191857649, -1.16967189971215, 1.26562406274605], a = 0.2, v = 0.2, t = 0.2)
movej(p[-0.442270348154146, -0.0932780642057202, 0.29067343375502, -1.28341875991894, -1.19519635624843, 1.25706972646045], a = 0.2, v = 0.2, t = 0.2)
movej(p[-0.441785031444032, -0.0933871995684284, 0.29128372828653, -1.2965603048549, -1.19158890687622, 1.24867111214931], a = 0.2, v = 0.2, t = 0.2)
movej(p[-0.442890608754703, -0.0930851265419003, 0.291494190873646, -1.35417093170673, -1.20245387004675, 1.202643042254], a = 0.2, v = 0.2, t = 0.2)
movej(p[-0.445207622587269, -0.0927791003392705, 0.291513582186068, -1.35475101785939, -1.20757382867309, 1.17458133802039], a = 0.2, v = 0.2, t = 0.2)
movej(p[-0.44765299493126, -0.0924167729473762, 0.291119557892742, -1.31776488842152, -1.18716866653471, 1.15704179270116], a = 0.2, v = 0.2, t = 0.2)
movej(p[-0.449860980893502, -0.0921269470089424, 0.290896499608967, -1.27999962886357, -1.160215992837, 1.16811038149541], a = 0.2, v = 0.2, t = 0.2)
movej(p[-0.451535796986452, -0.0918210698247653, 0.290773572585519, -1.26399747426261, -1.14433865368994, 1.16440413227014], a = 0.2, v = 0.2, t = 0.2)
movej(p[-0.452718317988718, -0.0916395794754983, 0.290616604006744, -1.28147624211014, -1.12233164998231, 1.17442190936176], a = 0.2, v = 0.2, t = 0.2)
movej(p[-0.453684811115584, -0.0915215210322069, 0.290272288151622, -1.30790883301901, -1.13165133174199, 1.15414731663495], a = 0.2, v = 0.2, t = 0.2)
movej(p[-0.454548441295027, -0.0913396595691551, 0.289821746839962, -1.31686696358761, -1.13933221779924, 1.14608674317185], a = 0.2, v = 0.2, t = 0.2)
movej(p[-0.455094810052309, -0.0912366056798215, 0.289553911089064, -1.31439372040459, -1.1502874045559, 1.14681655563137], a = 0.2, v = 0.2, t = 0.2)
movej(p[-0.454884902941196, -0.0911852859379167, 0.289156758675379, -1.29217816446894, -1.14784849348191, 1.17339416954574], a = 0.2, v = 0.2, t = 0.2)
movej(p[-0.453447680992196, -0.0913820936720862, 0.288606705871838, -1.25494934027777, -1.12421169486393, 1.20530077573961], a = 0.2, v = 0.2, t = 0.2)
movej(p[-0.450942791976986, -0.091728986028985, 0.288486731856718, -1.27151783553377, -1.1166364804582, 1.22455030363091], a = 0.2, v = 0.2, t = 0.2)
movej(p[-0.4480856035357, -0.0922032492351098, 0.28888817642935, -1.27622402460472, -1.11282772446184, 1.24794061524528], a = 0.2, v = 0.2, t = 0.2)
movej(p[-0.445171721793706, -0.0927387085543952, 0.289622922510364, -1.31360640651206, -1.13913896243987, 1.25764333552286], a = 0.2, v = 0.2, t = 0.2)
movej(p[-0.442618781151194, -0.0931148778773542, 0.290506662295523, -1.32210919853764, -1.17116621641916, 1.26034151252556], a = 0.2, v = 0.2, t = 0.2)
movej(p[-0.440666600144658, -0.0933774849144415, 0.291330296560894, -1.3270551386413, -1.209703568566, 1.23208121103698], a = 0.2, v = 0.2, t = 0.2)
movej(p[-0.440400747690637, -0.0934035408256766, 0.291892345111463, -1.36032865566814, -1.21937877037247, 1.21522236782511], a = 0.2, v = 0.2, t = 0.2)
movej(p[-0.44180661477551, -0.0931810086794427, 0.291897705446042, -1.37619344388763, -1.22177263259287, 1.18585417963337], a = 0.2, v = 0.2, t = 0.2)
movej(p[-0.444386148848729, -0.0927632927519012, 0.291363448900383, -1.38327876366985, -1.20079529955799, 1.17675309192776], a = 0.2, v = 0.2, t = 0.2)
movej(p[-0.447194265433384, -0.0923282069019689, 0.291084122691842, -1.35204328394647, -1.17207932827048, 1.17894287290219], a = 0.2, v = 0.2, t = 0.2)
movej(p[-0.449448113695132, -0.0919526223517383, 0.290790458141131, -1.31435146855864, -1.15356565665268, 1.18246075900218], a = 0.2, v = 0.2, t = 0.2)
movej(p[-0.451194553838504, -0.0918483596794371, 0.290727107523266, -1.32558514524915, -1.13697044937959, 1.18269579896938], a = 0.2, v = 0.2, t = 0.2)
movej(p[-0.452621046560028, -0.0916774874379317, 0.29056307675719, -1.34103353396204, -1.12952916170381, 1.18242923819931], a = 0.2, v = 0.2, t = 0.2)
movej(p[-0.453848330645114, -0.0915843405319823, 0.290170873476597, -1.34974064546054, -1.13170983945658, 1.16539271648025], a = 0.2, v = 0.2, t = 0.2)
movej(p[-0.45496096860146, -0.0912827326189333, 0.28996282328798, -1.33386159442339, -1.1330091799938, 1.16091840247613], a = 0.2, v = 0.2, t = 0.2)
movej(p[-0.455544473955248, -0.0912516330471445, 0.289703172705782, -1.29993057575621, -1.13711573985566, 1.15180633029487], a = 0.2, v = 0.2, t = 0.2)
movej(p[-0.455105530092988, -0.0913770744584271, 0.289328971201616, -1.29717363230591, -1.1098379003598, 1.1803646147172], a = 0.2, v = 0.2, t = 0.2)
movej(p[-0.45314095084751, -0.0917216265841636, 0.288684366414953, -1.27398959667698, -1.10515298321344, 1.21088699458623], a = 0.2, v = 0.2, t = 0.2)
movej(p[-0.450206412911644, -0.092051372266727, 0.288160721190878, -1.2711920253472, -1.11253714616508, 1.24346791651339], a = 0.2, v = 0.2, t = 0.2)
movej(p[-0.446853430552394, -0.0924519611413214, 0.28867244905274, -1.26288610275534, -1.12327074087832, 1.28101801677363], a = 0.2, v = 0.2, t = 0.2)
movej(p[-0.44364936244175, -0.0929265281235555, 0.289603895543866, -1.27904235612767, -1.14772077615816, 1.29820413194184], a = 0.2, v = 0.2, t = 0.2)
movej(p[-0.44086553949703, -0.0933785296392755, 0.290674271582385, -1.3152072851445, -1.17250216685593, 1.30499067127385], a = 0.2, v = 0.2, t = 0.2)
movej(p[-0.439652727146031, -0.0936057564839466, 0.291130163344236, -1.34713180464355, -1.22204185439024, 1.26403031101863], a = 0.2, v = 0.2, t = 0.2)
movej(p[-0.440450609503417, -0.0933947360395001, 0.291462895680351, -1.37317836325254, -1.22802113433772, 1.23104092510225], a = 0.2, v = 0.2, t = 0.2)
movej(p[-0.442708551252447, -0.0930506005673761, 0.291567937494962, -1.35984347184306, -1.22266005768544, 1.19608915855691], a = 0.2, v = 0.2, t = 0.2)
movej(p[-0.445489450921864, -0.0926431855973174, 0.291827627544214, -1.35083239077748, -1.1926174150642, 1.18403116135207], a = 0.2, v = 0.2, t = 0.2)
movej(p[-0.447918729981317, -0.0923256980118569, 0.29166391788857, -1.33952217922304, -1.17457178454355, 1.17614187620267], a = 0.2, v = 0.2, t = 0.2)
movej(p[-0.449987485225802, -0.0920104809598334, 0.291160028952711, -1.34438339681213, -1.1626125948134, 1.16029740067067], a = 0.2, v = 0.2, t = 0.2)
movej(p[-0.451576649209917, -0.0916757029849992, 0.290643243788492, -1.36203682722732, -1.14445230344128, 1.17087151301198], a = 0.2, v = 0.2, t = 0.2)
movej(p[-0.452940021357257, -0.0915604987720332, 0.290294868268726, -1.3732844389753, -1.1398653132938, 1.15277978714611], a = 0.2, v = 0.2, t = 0.2)
movej(p[-0.454289083346585, -0.0914880211699991, 0.290369282768349, -1.3769247124197, -1.11601711199087, 1.17307325947088], a = 0.2, v = 0.2, t = 0.2)
movej(p[-0.455350606051701, -0.0914764265586107, 0.290297995925888, -1.35445980784255, -1.08118561398277, 1.18769514456124], a = 0.2, v = 0.2, t = 0.2)
movej(p[-0.455626182260436, -0.0913633562838299, 0.289872151042109, -1.30850883506621, -1.03697141136331, 1.23415919949667], a = 0.2, v = 0.2, t = 0.2)
movej(p[-0.454466868920303, -0.0914724016639379, 0.289038535973047, -1.26309132526944, -1.02482279604468, 1.26417545549189], a = 0.2, v = 0.2, t = 0.2)
movej(p[-0.451962819429359, -0.0917619947475855, 0.288379136378181, -1.24128799942703, -1.07520787504158, 1.26757398179621], a = 0.2, v = 0.2, t = 0.2)
movej(p[-0.4489969877957, -0.0922795555433905, 0.288391525741905, -1.25784083271846, -1.12921853643765, 1.25684613665267], a = 0.2, v = 0.2, t = 0.2)
movej(p[-0.445671519230019, -0.0928659668913217, 0.289138096789885, -1.28837457604392, -1.18548678603216, 1.24169849546791], a = 0.2, v = 0.2, t = 0.2)
movej(p[-0.442833940923483, -0.0932496616551171, 0.290233138770867, -1.32226554881998, -1.18107104722597, 1.26994685924753], a = 0.2, v = 0.2, t = 0.2)
movej(p[-0.441212341212916, -0.0934659076433055, 0.291093632341721, -1.34825730360886, -1.21776953692216, 1.24379693664981], a = 0.2, v = 0.2, t = 0.2)
movej(p[-0.441162569461092, -0.0933124677957101, 0.291554170141354, -1.358594622578, -1.22180560270688, 1.2184126584893], a = 0.2, v = 0.2, t = 0.2)
movej(p[-0.442771645887565, -0.0930186431985207, 0.291806990021815, -1.3687055660764, -1.219836350475, 1.18796010165992], a = 0.2, v = 0.2, t = 0.2)
movej(p[-0.445077672786479, -0.0926053427936957, 0.291606252169527, -1.33676820751828, -1.19368618730506, 1.18672928295303], a = 0.2, v = 0.2, t = 0.2)
movej(p[-0.447566889701148, -0.0922000274922102, 0.291403493711328, -1.32469744732363, -1.15729306232564, 1.20197174421613], a = 0.2, v = 0.2, t = 0.2)
movej(p[-0.449771919566429, -0.0919099572053646, 0.291002515969796, -1.30331790690476, -1.15290517441581, 1.19094258356355], a = 0.2, v = 0.2, t = 0.2)
movej(p[-0.451423497372264, -0.0917143842072988, 0.290933031223977, -1.3268735338604, -1.11268340611231, 1.21399431841624], a = 0.2, v = 0.2, t = 0.2)
movej(p[-0.452838743255964, -0.0914872213813712, 0.290685621976598, -1.32782361482523, -1.10876749597199, 1.19414698165214], a = 0.2, v = 0.2, t = 0.2)
movej(p[-0.454016776076139, -0.0914098896586422, 0.290402028948213, -1.34383032707236, -1.10350794613636, 1.18496167192098], a = 0.2, v = 0.2, t = 0.2)
movej(p[-0.455037393084818, -0.0913225503315539, 0.289741260311594, -1.33413582186155, -1.12485885117677, 1.15258614676137], a = 0.2, v = 0.2, t = 0.2)
movej(p[-0.455768078945823, -0.0912951562806586, 0.289277321265918, -1.32027921777179, -1.10877657418085, 1.17907153508679], a = 0.2, v = 0.2, t = 0.2)
movej(p[-0.45526276370493, -0.0913996506715928, 0.288908304830397, -1.2668801298614, -1.08808002538499, 1.21014804919178], a = 0.2, v = 0.2, t = 0.2)
movej(p[-0.45345916108843, -0.0916880260299828, 0.288518274764854, -1.22051990195477, -1.08343479135925, 1.23454689129385], a = 0.2, v = 0.2, t = 0.2)
movej(p[-0.450400157174455, -0.0921010950157526, 0.28847138868074, -1.20737787953355, -1.11464321140128, 1.23728337403617], a = 0.2, v = 0.2, t = 0.2)
movej(p[-0.447059854356454, -0.0924627858556017, 0.288597293146771, -1.23476267758459, -1.14751906604039, 1.23375524688514], a = 0.2, v = 0.2, t = 0.2)
movej(p[-0.443896612282942, -0.0928043973295337, 0.2895677790209, -1.28362673973578, -1.17175926164055, 1.24671176012585], a = 0.2, v = 0.2, t = 0.2)
movej(p[-0.441318298727824, -0.0931703826557111, 0.290705272664049, -1.3054286775464, -1.21039621838707, 1.24686194526373], a = 0.2, v = 0.2, t = 0.2)
movej(p[-0.440500715796117, -0.0934747794252576, 0.291535244125589, -1.32659624434211, -1.22924000127508, 1.23572857866151], a = 0.2, v = 0.2, t = 0.2)
movej(p[-0.441355969401633, -0.0933616093699462, 0.291756030098949, -1.33641122784146, -1.24211341582325, 1.20065544530315], a = 0.2, v = 0.2, t = 0.2)
movej(p[-0.443912347903164, -0.0929903746598894, 0.29135468573626, -1.34539920776698, -1.22417238233884, 1.16526562191916], a = 0.2, v = 0.2, t = 0.2)
movej(p[-0.446682666434208, -0.0924492880289027, 0.29106807207445, -1.32837708466818, -1.20822723808232, 1.14760266721226], a = 0.2, v = 0.2, t = 0.2)
movej(p[-0.449173743877584, -0.0921444890651948, 0.290976335700526, -1.33516387053984, -1.17594648568618, 1.15773622600098], a = 0.2, v = 0.2, t = 0.2)
movej(p[-0.450847309455224, -0.0920023877878069, 0.290904814713365, -1.32707403273004, -1.15589504030335, 1.17839168337158], a = 0.2, v = 0.2, t = 0.2)
movej(p[-0.452203122521771, -0.091874811515195, 0.29043832177982, -1.33740383358055, -1.13999572879945, 1.18277780570622], a = 0.2, v = 0.2, t = 0.2)
movej(p[-0.453300335467359, -0.0916781455014196, 0.289959374188262, -1.32285787467417, -1.13426517691839, 1.17956810943639], a = 0.2, v = 0.2, t = 0.2)
movej(p[-0.454342387020991, -0.0915307591223849, 0.289556390659505, -1.3441533367108, -1.10508073828228, 1.18040633511519], a = 0.2, v = 0.2, t = 0.2)
movej(p[-0.455074672428734, -0.0914295628034173, 0.289365530739318, -1.36960604730892, -1.08010587223591, 1.19298821869567], a = 0.2, v = 0.2, t = 0.2)
movej(p[-0.454768686467385, -0.0915283214832938, 0.288981049326104, -1.35007818378018, -1.0505625021366, 1.22051227071356], a = 0.2, v = 0.2, t = 0.2)
movej(p[-0.453171729909431, -0.0916711116970344, 0.288534896340605, -1.28138043226273, -1.04371676190105, 1.25267539222397], a = 0.2, v = 0.2, t = 0.2)
movej(p[-0.450537393213346, -0.092007396487603, 0.288341591483729, -1.24267520270335, -1.03965504147021, 1.2902593529443], a = 0.2, v = 0.2, t = 0.2)
movej(p[-0.447756888221071, -0.0924466451881951, 0.288805555029882, -1.26804373924958, -1.07443042959064, 1.30347001162206], a = 0.2, v = 0.2, t = 0.2)
movej(p[-0.445500950101909, -0.0928571288152311, 0.289788366957236, -1.32769590802541, -1.11977527050843, 1.28596176633179], a = 0.2, v = 0.2, t = 0.2)
movej(p[-0.444176573608139, -0.0930835736894019, 0.290875992223636, -1.349271149099, -1.17195695944734, 1.2592993559266], a = 0.2, v = 0.2, t = 0.2)
movej(p[-0.444146650889241, -0.0929729284334906, 0.291174364255566, -1.33042004807956, -1.19512945285939, 1.21069689332601], a = 0.2, v = 0.2, t = 0.2)
movej(p[-0.445298244537098, -0.0927647881266828, 0.291320066529389, -1.32992067526747, -1.19907454875366, 1.17307494132508], a = 0.2, v = 0.2, t = 0.2)
movej(p[-0.447164063406817, -0.0924730014489045, 0.290997352850621, -1.34287619659149, -1.18178421214992, 1.14026835349707], a = 0.2, v = 0.2, t = 0.2)
movej(p[-0.449193404370617, -0.0922113258976957, 0.290813176147526, -1.35877574574602, -1.1748488848435, 1.13363485289025], a = 0.2, v = 0.2, t = 0.2)
movej(p[-0.450900137544694, -0.0918524284550117, 0.290474102369949, -1.35202644694774, -1.16340294136714, 1.14112114349128], a = 0.2, v = 0.2, t = 0.2)
movej(p[-0.452336351839436, -0.0915718160627758, 0.290213122558845, -1.33515035687084, -1.15337031619308, 1.14562289669988], a = 0.2, v = 0.2, t = 0.2)
movej(p[-0.453471696639784, -0.091374568590409, 0.290186093563894, -1.37045640408423, -1.12146855283381, 1.16709816827377], a = 0.2, v = 0.2, t = 0.2)
movej(p[-0.454368853181485, -0.0913577964449575, 0.289807170914242, -1.36032659649606, -1.11776512663409, 1.15543991437167], a = 0.2, v = 0.2, t = 0.2)
movej(p[-0.455139238692266, -0.091358966569902, 0.289358202231496, -1.36096633071743, -1.11410911097445, 1.16905993460602], a = 0.2, v = 0.2, t = 0.2)
movej(p[-0.454898068006799, -0.0914210729496301, 0.288562330457547, -1.29799698735107, -1.11640897102263, 1.1756003018538], a = 0.2, v = 0.2, t = 0.2)
movej(p[-0.453411942303606, -0.0916579875455231, 0.288285773485909, -1.29342682047281, -1.11645955280098, 1.207478435427], a = 0.2, v = 0.2, t = 0.2)
movej(p[-0.450394681258491, -0.092036866635654, 0.288252881973442, -1.28619780488965, -1.11704659371689, 1.23945878464464], a = 0.2, v = 0.2, t = 0.2)
movej(p[-0.446775680995315, -0.0925294735152052, 0.288733069895607, -1.28626105662497, -1.13396747694582, 1.26803848133285], a = 0.2, v = 0.2, t = 0.2)
movej(p[-0.443440012465801, -0.0928992106614332, 0.289603779642691, -1.2651857256707, -1.15803995057432, 1.27976215249122], a = 0.2, v = 0.2, t = 0.2)
movej(p[-0.44093847895766, -0.0932332444685138, 0.290507096578752, -1.28388072649925, -1.20229787973156, 1.2625439361273], a = 0.2, v = 0.2, t = 0.2)
movej(p[-0.440094929470763, -0.0934049032322237, 0.291501844204886, -1.3322709545924, -1.2538269327775, 1.20533185519738], a = 0.2, v = 0.2, t = 0.2)
movej(p[-0.441299962989438, -0.093470078749876, 0.291795659278989, -1.38720689741716, -1.2684677319827, 1.1630458446419], a = 0.2, v = 0.2, t = 0.2)
movej(p[-0.443654416599262, -0.0931152471123785, 0.291766683091927, -1.38876747195224, -1.24042886741314, 1.14152354596563], a = 0.2, v = 0.2, t = 0.2)
movej(p[-0.446249043897021, -0.0926530305740924, 0.291515884880697, -1.37504809888593, -1.19817276832662, 1.16318230943665], a = 0.2, v = 0.2, t = 0.2)
movej(p[-0.448283251409342, -0.0921342437573042, 0.291347293286472, -1.37507109599097, -1.14842122238216, 1.20072266612472], a = 0.2, v = 0.2, t = 0.2)
movej(p[-0.450019562335401, -0.0919080835821897, 0.291024114557994, -1.34664936128664, -1.11865876132109, 1.21851578860221], a = 0.2, v = 0.2, t = 0.2)
movej(p[-0.451337842496959, -0.0917254532355896, 0.290445634301594, -1.32959189426315, -1.1250888263261, 1.20180544921791], a = 0.2, v = 0.2, t = 0.2)
movej(p[-0.452476457442379, -0.0915010987302456, 0.289979377267334, -1.29045686122063, -1.13806358988046, 1.16783947034679], a = 0.2, v = 0.2, t = 0.2)
movej(p[-0.453552494660488, -0.0913070827340676, 0.289840130143943, -1.30111166071087, -1.13722733369009, 1.16495769123976], a = 0.2, v = 0.2, t = 0.2)
movej(p[-0.454357536199887, -0.0912748781002992, 0.289635060189281, -1.29787509503199, -1.12264597928525, 1.17219797470781], a = 0.2, v = 0.2, t = 0.2)
movej(p[-0.454721664830656, -0.0914275478641021, 0.28936645735632, -1.29609748857567, -1.10248777289695, 1.19288484799745], a = 0.2, v = 0.2, t = 0.2)
movej(p[-0.454102221952796, -0.0915038944889675, 0.288751391539077, -1.2517905841432, -1.09585797690282, 1.2205830385186], a = 0.2, v = 0.2, t = 0.2)
movej(p[-0.452501197643201, -0.0916706277119459, 0.288230471928636, -1.217757216048, -1.07832873101338, 1.26270057615257], a = 0.2, v = 0.2, t = 0.2)
movej(p[-0.450100899854082, -0.0920192002387784, 0.288048368730729, -1.21411721746252, -1.1002514765434, 1.27069396200257], a = 0.2, v = 0.2, t = 0.2)
movej(p[-0.447375664074132, -0.0925405360259776, 0.288546075936513, -1.22314127669208, -1.13671986520168, 1.26078452894925], a = 0.2, v = 0.2, t = 0.2)
movej(p[-0.444817303655914, -0.0929874967767743, 0.289663636347196, -1.26849802525097, -1.18140160395117, 1.23437593096842], a = 0.2, v = 0.2, t = 0.2)
movej(p[-0.443229951084071, -0.0931851971438421, 0.290443259592056, -1.28222664887756, -1.20126984983574, 1.22415057626978], a = 0.2, v = 0.2, t = 0.2)
movej(p[-0.443274402499568, -0.0931688602568202, 0.290873780917175, -1.31664566976933, -1.21727401367196, 1.20147926789851], a = 0.2, v = 0.2, t = 0.2)
movej(p[-0.444740760195122, -0.0929922972991572, 0.290772154771082, -1.3476988464471, -1.20826413289671, 1.18782504653428], a = 0.2, v = 0.2, t = 0.2)
movej(p[-0.446985690487946, -0.0926266705181284, 0.290655504791418, -1.36099589412071, -1.18826856539945, 1.17783522149047], a = 0.2, v = 0.2, t = 0.2)
movej(p[-0.449088106567529, -0.0921673763918757, 0.290442435337252, -1.37765141094052, -1.15491536730067, 1.17384476649379], a = 0.2, v = 0.2, t = 0.2)
movej(p[-0.450956897509006, -0.0917737755054626, 0.290221238725907, -1.34467040342366, -1.1335806616984, 1.16971693592768], a = 0.2, v = 0.2, t = 0.2)
movej(p[-0.452338821607727, -0.0915938361512926, 0.289829181097752, -1.31925976489294, -1.1289204881232, 1.17272008120988], a = 0.2, v = 0.2, t = 0.2)
movej(p[-0.453448871183708, -0.0914375052214785, 0.289652149408925, -1.30292542351421, -1.12003412181409, 1.17772202229545], a = 0.2, v = 0.2, t = 0.2)
movej(p[-0.454265812376754, -0.091366688008665, 0.289403591204327, -1.29956536327644, -1.12957888306197, 1.17062305306926], a = 0.2, v = 0.2, t = 0.2)
movej(p[-0.455078868402935, -0.0912418815013969, 0.289204060078601, -1.29312766807373, -1.12825459596672, 1.15651586014483], a = 0.2, v = 0.2, t = 0.2)
movej(p[-0.455575682515408, -0.0912320471168723, 0.288897993545589, -1.27246701163082, -1.13359181446987, 1.15280576262332], a = 0.2, v = 0.2, t = 0.2)
movej(p[-0.455149418437437, -0.0912064044184119, 0.288503013211968, -1.25400918420782, -1.10554969156641, 1.18937663430104], a = 0.2, v = 0.2, t = 0.2)
movej(p[-0.453335837947185, -0.0914390359688474, 0.288130158055746, -1.24035401895545, -1.0887790881652, 1.2249758680567], a = 0.2, v = 0.2, t = 0.2)
movej(p[-0.450795023146782, -0.0918592791095683, 0.287933582638087, -1.24333500072553, -1.0980139150464, 1.24441134759077], a = 0.2, v = 0.2, t = 0.2)
movej(p[-0.448409506426421, -0.0923342480114522, 0.288103405321269, -1.25246961885834, -1.13988524307185, 1.2343948522955], a = 0.2, v = 0.2, t = 0.2)
movej(p[-0.446275590931291, -0.0927398284233077, 0.28868474581028, -1.25442570623197, -1.17046646960996, 1.22504556995276], a = 0.2, v = 0.2, t = 0.2)
movej(p[-0.444789231358294, -0.0929458597580636, 0.289388696193018, -1.27051901959509, -1.18424882550716, 1.22208107614972], a = 0.2, v = 0.2, t = 0.2)
movej(p[-0.444311973338599, -0.0930717062537209, 0.2900907189865, -1.28798203317692, -1.18064467426663, 1.21526041205305], a = 0.2, v = 0.2, t = 0.2)
movej(p[-0.445322255646094, -0.0929233323720666, 0.290481917055011, -1.33399586112744, -1.18612256927509, 1.19813629819749], a = 0.2, v = 0.2, t = 0.2)
movej(p[-0.447287336376652, -0.0924652482147365, 0.290355915357261, -1.36474652053838, -1.17744353271951, 1.18545422393535], a = 0.2, v = 0.2, t = 0.2)
movej(p[-0.449528876070644, -0.0920901727674943, 0.29014969980882, -1.37250954823513, -1.16276834928345, 1.16846426218742], a = 0.2, v = 0.2, t = 0.2)
movej(p[-0.451410781824423, -0.0917340333416393, 0.290086640766291, -1.35748079460516, -1.13391697840378, 1.17108707682374], a = 0.2, v = 0.2, t = 0.2)
movej(p[-0.45287585562647, -0.0916753337794856, 0.290262758418898, -1.34647713202825, -1.1105002707032, 1.18436137631339], a = 0.2, v = 0.2, t = 0.2)
movej(p[-0.453992763918898, -0.0914011264243232, 0.289839293172178, -1.32993989522227, -1.11989287614028, 1.17831188691984], a = 0.2, v = 0.2, t = 0.2)
movej(p[-0.454956146967747, -0.091261483577759, 0.289418759598972, -1.30473561397293, -1.11982390994776, 1.18163095560953], a = 0.2, v = 0.2, t = 0.2)
movej(p[-0.455376963288262, -0.0911013044255589, 0.288901347622314, -1.26966548070052, -1.12091344340405, 1.16750521369644], a = 0.2, v = 0.2, t = 0.2)
movej(p[-0.454987389436256, -0.0913694012429933, 0.288615209819996, -1.25787511592869, -1.12551149988721, 1.17072657412707], a = 0.2, v = 0.2, t = 0.2)
movej(p[-0.453345747197274, -0.0916179354516137, 0.288367043385449, -1.2669776988303, -1.137619786662, 1.17952402013856], a = 0.2, v = 0.2, t = 0.2)
movej(p[-0.450892447356244, -0.0919748693240377, 0.288138089509926, -1.26918861234788, -1.14614459608231, 1.20991472206608], a = 0.2, v = 0.2, t = 0.2)
movej(p[-0.447878802075643, -0.0922025427395683, 0.288494645943341, -1.28510131647109, -1.13818505689089, 1.24135556774738], a = 0.2, v = 0.2, t = 0.2)
movej(p[-0.44471529910265, -0.0926099850261146, 0.28904630336299, -1.29557552199393, -1.15683711191289, 1.24616418353653], a = 0.2, v = 0.2, t = 0.2)
movej(p[-0.441906355799125, -0.0930670428304674, 0.290113315142337, -1.31215141176587, -1.18081854497011, 1.23825180076713], a = 0.2, v = 0.2, t = 0.2)
movej(p[-0.440108103617708, -0.0933841370900811, 0.290832005916347, -1.32356752070419, -1.21168050089876, 1.22761709371736], a = 0.2, v = 0.2, t = 0.2)
movej(p[-0.43999606879496, -0.0934106972267322, 0.291727661384053, -1.34470689506596, -1.22626962676175, 1.23061207952601], a = 0.2, v = 0.2, t = 0.2)
movej(p[-0.441594063962913, -0.0930845741489896, 0.291771533628818, -1.3573803549691, -1.22624336624613, 1.21793567515694], a = 0.2, v = 0.2, t = 0.2)
movej(p[-0.444098736226075, -0.0926988988049621, 0.291665087661242, -1.35417853320386, -1.2197181978961, 1.19963199509358], a = 0.2, v = 0.2, t = 0.2)
movej(p[-0.446790851318018, -0.0922973458017841, 0.291092763543608, -1.35387038050156, -1.1954442509265, 1.17799895354717], a = 0.2, v = 0.2, t = 0.2)
movej(p[-0.448984200405717, -0.0919782195075778, 0.29065806299123, -1.34015783032119, -1.18384072290676, 1.1665400844136], a = 0.2, v = 0.2, t = 0.2)
movej(p[-0.450740026418203, -0.0917295094030415, 0.290400384622177, -1.32384163313407, -1.15628908147186, 1.16524352627571], a = 0.2, v = 0.2, t = 0.2)
movej(p[-0.452062812272372, -0.0914793276937854, 0.290190538687344, -1.34232419582498, -1.15295236765009, 1.17520253903147], a = 0.2, v = 0.2, t = 0.2)
movej(p[-0.453033650870661, -0.0913511112049243, 0.290163937361145, -1.35351742140938, -1.13558477155894, 1.17987060054734], a = 0.2, v = 0.2, t = 0.2)
movej(p[-0.453998409127309, -0.0912870543968102, 0.289949214799536, -1.34406407296964, -1.14043095645486, 1.17145506184246], a = 0.2, v = 0.2, t = 0.2)
movej(p[-0.454821573843098, -0.0912672943436445, 0.289637889662455, -1.33495367783228, -1.13070937038609, 1.15824279913779], a = 0.2, v = 0.2, t = 0.2)
movej(p[-0.45539223069576, -0.0913029550913609, 0.289269775142662, -1.33442818464407, -1.12641305942831, 1.15762602853842], a = 0.2, v = 0.2, t = 0.2)
movej(p[-0.455130717890704, -0.0914745787665261, 0.288646910045378, -1.33138950713886, -1.13631757266873, 1.17436847682353], a = 0.2, v = 0.2, t = 0.2)
movej(p[-0.453700975655228, -0.0916744592695398, 0.288251496804942, -1.27623837156903, -1.13023585806461, 1.19694250952491], a = 0.2, v = 0.2, t = 0.2)
movej(p[-0.451515588659855, -0.0920671527053117, 0.287878574482663, -1.22312454735586, -1.13642722766286, 1.21827369330239], a = 0.2, v = 0.2, t = 0.2)
movej(p[-0.449033997244969, -0.0923918111300115, 0.288068487343164, -1.22155315671948, -1.14119683457122, 1.23298388023], a = 0.2, v = 0.2, t = 0.2)
movej(p[-0.446680894752891, -0.0927748514230606, 0.288788629370988, -1.23453356575642, -1.16042191118696, 1.24289972993613], a = 0.2, v = 0.2, t = 0.2)
movej(p[-0.444500230115696, -0.0929401567760301, 0.289709964576419, -1.26757667597535, -1.17461104416551, 1.25411607304345], a = 0.2, v = 0.2, t = 0.2)
movej(p[-0.443386322942958, -0.0928696434815356, 0.290559452724613, -1.29997074016294, -1.17634483360144, 1.25711799208936], a = 0.2, v = 0.2, t = 0.2)
movej(p[-0.443634724421297, -0.0927656303063683, 0.290903598645802, -1.32963554271463, -1.18212505485967, 1.24039187581641], a = 0.2, v = 0.2, t = 0.2)
movej(p[-0.445310463719457, -0.0925627040122674, 0.290629190945432, -1.33958702959281, -1.19862935363238, 1.20330780323486], a = 0.2, v = 0.2, t = 0.2)
movej(p[-0.447525784016272, -0.0923151678638029, 0.290392898263683, -1.32560290969142, -1.20176996951862, 1.17797346702735], a = 0.2, v = 0.2, t = 0.2)
movej(p[-0.44959693648457, -0.0919372884744235, 0.289953479765276, -1.3265954288313, -1.17926709000539, 1.17220395716346], a = 0.2, v = 0.2, t = 0.2)
movej(p[-0.451247327050017, -0.0916996035954175, 0.289696680776421, -1.32359630358199, -1.15674868086602, 1.16834259734432], a = 0.2, v = 0.2, t = 0.2)
movej(p[-0.452488024265963, -0.0914623651939003, 0.289623699016447, -1.33824000199865, -1.12599445133924, 1.17572955429474], a = 0.2, v = 0.2, t = 0.2)
movej(p[-0.453550324869785, -0.0913971913654351, 0.289423750475057, -1.32677947105192, -1.12681600055087, 1.16260940500197], a = 0.2, v = 0.2, t = 0.2)
movej(p[-0.454456588906777, -0.0911748114723751, 0.289225948830683, -1.33016846518954, -1.12746704447981, 1.15305909142283], a = 0.2, v = 0.2, t = 0.2)
movej(p[-0.455161881078006, -0.0911304585881771, 0.288765211049221, -1.31046774180027, -1.14752809533385, 1.132725252259], a = 0.2, v = 0.2, t = 0.2)
movej(p[-0.455608253620863, -0.091066308032936, 0.288633347427074, -1.3196163995263, -1.13984666077578, 1.13975571204325], a = 0.2, v = 0.2, t = 0.2)
movej(p[-0.45527700778142, -0.0912977576461664, 0.288351702983693, -1.29400219272748, -1.12329026482132, 1.16700746503814], a = 0.2, v = 0.2, t = 0.2)
movej(p[-0.454124113017887, -0.0915373278554617, 0.288094236223437, -1.25384747359309, -1.10376765864831, 1.19466396840906], a = 0.2, v = 0.2, t = 0.2)
movej(p[-0.452023907684069, -0.0917904066764865, 0.287694552757991, -1.24303228096023, -1.09728550707675, 1.227039766722], a = 0.2, v = 0.2, t = 0.2)
movej(p[-0.449545763207673, -0.0920834421863429, 0.287956317939928, -1.25126044670838, -1.10746320522547, 1.23887106691698], a = 0.2, v = 0.2, t = 0.2)
movej(p[-0.447115483022287, -0.0924678369729381, 0.288403436089441, -1.28692807197211, -1.13531002891412, 1.23124992263455], a = 0.2, v = 0.2, t = 0.2)
movej(p[-0.444862030717866, -0.0929352638035195, 0.289025141735759, -1.2930921044392, -1.16739237802002, 1.22063512188683], a = 0.2, v = 0.2, t = 0.2)
movej(p[-0.443678843919416, -0.0932105609209333, 0.289711994325489, -1.31047172984781, -1.20024670420842, 1.21161508175831], a = 0.2, v = 0.2, t = 0.2)
movej(p[-0.443895481015151, -0.0930760520039059, 0.290415069720373, -1.33986503516146, -1.21306500269579, 1.20788512956131], a = 0.2, v = 0.2, t = 0.2)
movej(p[-0.445615532063427, -0.0928032631869933, 0.29092700055036, -1.35200612281151, -1.22228362519496, 1.1773818326774], a = 0.2, v = 0.2, t = 0.2)
movej(p[-0.447667241377153, -0.0923581219512451, 0.290869970434297, -1.35689939141662, -1.20482047458177, 1.16748933868816], a = 0.2, v = 0.2, t = 0.2)
movej(p[-0.449599183076482, -0.092001001504498, 0.290761398681457, -1.34716444320591, -1.1789117974145, 1.16678375904721], a = 0.2, v = 0.2, t = 0.2)
movej(p[-0.451227218407558, -0.0916778833433648, 0.290560271487088, -1.35113600934684, -1.15427006600349, 1.17906460903398], a = 0.2, v = 0.2, t = 0.2)
movej(p[-0.45255596350464, -0.091487486065153, 0.29018945832196, -1.32936419032048, -1.14467905925019, 1.18132109561573], a = 0.2, v = 0.2, t = 0.2)
movej(p[-0.453462646233984, -0.0913270133054566, 0.289780928835014, -1.31743011042719, -1.13899808052643, 1.18725665814309], a = 0.2, v = 0.2, t = 0.2)
movej(p[-0.454140096955792, -0.091191069268986, 0.289182270100033, -1.30617839405732, -1.14058764551827, 1.18093952786642], a = 0.2, v = 0.2, t = 0.2)
movej(p[-0.454747474265815, -0.0911181243202302, 0.288951748097134, -1.31845151587394, -1.14512768893261, 1.15617918015357], a = 0.2, v = 0.2, t = 0.2)
movej(p[-0.455419144190541, -0.0910964330202621, 0.288580284025353, -1.31393803507397, -1.15547211718106, 1.1362481250005], a = 0.2, v = 0.2, t = 0.2)
movej(p[-0.45609565886278, -0.0911248151391259, 0.288253617623691, -1.31532744783611, -1.14361078654097, 1.14374907355484], a = 0.2, v = 0.2, t = 0.2)
movej(p[-0.455925042207459, -0.0911931482152887, 0.287883815230338, -1.31451611389907, -1.11896344048909, 1.17174003495278], a = 0.2, v = 0.2, t = 0.2)
movej(p[-0.454602265804876, -0.0913871917545166, 0.287573197452914, -1.32862166850507, -1.09101403029061, 1.19843016985878], a = 0.2, v = 0.2, t = 0.2)
movej(p[-0.45235018534723, -0.0917278072509909, 0.287404979326803, -1.28699117439129, -1.09078209448431, 1.21257866821383], a = 0.2, v = 0.2, t = 0.2)
movej(p[-0.449748737103128, -0.0921756246418211, 0.287705300055574, -1.25184610183798, -1.11331157990863, 1.23574794361165], a = 0.2, v = 0.2, t = 0.2)
movej(p[-0.447323787171944, -0.0925747097529731, 0.288380684970365, -1.21310058940955, -1.14601529431517, 1.23888665942168], a = 0.2, v = 0.2, t = 0.2)
movej(p[-0.444813947907205, -0.0929250098277007, 0.289214796858017, -1.24480264533018, -1.1687991437204, 1.25272947667447], a = 0.2, v = 0.2, t = 0.2)
movej(p[-0.44305942466989, -0.0931090434756972, 0.289823775384836, -1.25878744659575, -1.20379967032249, 1.21680269428082], a = 0.2, v = 0.2, t = 0.2)
movej(p[-0.442632650416261, -0.0932327248244064, 0.290427389408879, -1.32404355047889, -1.22316555829637, 1.18760336854941], a = 0.2, v = 0.2, t = 0.2)
movej(p[-0.443961630993343, -0.0930925992174907, 0.290477802268605, -1.35145999196922, -1.22658027798526, 1.15282324134477], a = 0.2, v = 0.2, t = 0.2)
movej(p[-0.446370576576467, -0.0926628738698052, 0.290559401246568, -1.39115673716196, -1.20474870448741, 1.15123548963935], a = 0.2, v = 0.2, t = 0.2)
movej(p[-0.448811725045344, -0.0922124740533666, 0.290380906735588, -1.36475303690589, -1.18183705026412, 1.14466039005437], a = 0.2, v = 0.2, t = 0.2)
movej(p[-0.450784952083912, -0.0917874305474762, 0.290295937839135, -1.36210852787497, -1.16635696783511, 1.15191105746088], a = 0.2, v = 0.2, t = 0.2)
movej(p[-0.452227839232408, -0.0915336713203291, 0.2900754382633, -1.35071154406025, -1.14816880797579, 1.15081224025424], a = 0.2, v = 0.2, t = 0.2)
movej(p[-0.453298415083646, -0.0914431909742332, 0.289751411507281, -1.32305143765452, -1.14031861311243, 1.15388730670712], a = 0.2, v = 0.2, t = 0.2)
movej(p[-0.454263587740713, -0.091365393002051, 0.289316743040545, -1.30440816850434, -1.1317156139964, 1.15166859849528], a = 0.2, v = 0.2, t = 0.2)
movej(p[-0.45510744972947, -0.091300019398095, 0.288938238670243, -1.29198310524185, -1.12002230292907, 1.16431835756616], a = 0.2, v = 0.2, t = 0.2)
movej(p[-0.455886739755321, -0.0911391899722551, 0.288698587766859, -1.34321573332015, -1.09880192814478, 1.18104326250026], a = 0.2, v = 0.2, t = 0.2)
movej(p[-0.456497231086306, -0.0911229914953211, 0.288714316865296, -1.34449336430435, -1.08676260568706, 1.18393147515402], a = 0.2, v = 0.2, t = 0.2)
movej(p[-0.456674617444082, -0.0911187953822255, 0.288567343603749, -1.3037550934086, -1.08543948162307, 1.18464088649436], a = 0.2, v = 0.2, t = 0.2)
movej(p[-0.455978299088385, -0.0912223492339771, 0.288261263838154, -1.23016640005508, -1.08919508234727, 1.19612538977752], a = 0.2, v = 0.2, t = 0.2)
movej(p[-0.454316320166481, -0.0914200435188416, 0.28791574698563, -1.2026847129024, -1.0837458937767, 1.21881274221645], a = 0.2, v = 0.2, t = 0.2)
movej(p[-0.452010108482082, -0.0918235980775712, 0.287984371754985, -1.21242051913494, -1.10256910467524, 1.23303681767783], a = 0.2, v = 0.2, t = 0.2)
movej(p[-0.449668149345572, -0.0922063262841816, 0.288159750617118, -1.25422450146211, -1.11356451065012, 1.24429728534884], a = 0.2, v = 0.2, t = 0.2)
movej(p[-0.447659025370537, -0.0925015988669395, 0.2886819945577, -1.28600306123299, -1.13261063138284, 1.25089261901643], a = 0.2, v = 0.2, t = 0.2)
movej(p[-0.446332557299611, -0.0926288786828736, 0.289031804365106, -1.32776572404776, -1.13451769875803, 1.24993403552117], a = 0.2, v = 0.2, t = 0.2)
movej(p[-0.446075798318741, -0.0925517374927134, 0.289811838133281, -1.35073608944012, -1.15201867298987, 1.24156163466729], a = 0.2, v = 0.2, t = 0.2)
movej(p[-0.446979319537758, -0.0925043517949651, 0.289970428228576, -1.34793117049791, -1.16985975277732, 1.19452118652056], a = 0.2, v = 0.2, t = 0.2)
movej(p[-0.448629314363698, -0.0921997697533514, 0.289803736141671, -1.34154904194685, -1.16351059398647, 1.1689539658259], a = 0.2, v = 0.2, t = 0.2)
movej(p[-0.450432453023438, -0.0919988830936132, 0.289070940011913, -1.34459689743592, -1.16451210482096, 1.14866404423606], a = 0.2, v = 0.2, t = 0.2)
movej(p[-0.451998272146611, -0.0915758847694646, 0.288674784580075, -1.32914648984835, -1.15123375295258, 1.15353188166544], a = 0.2, v = 0.2, t = 0.2)
movej(p[-0.453297171995708, -0.0914595759723943, 0.288355752343241, -1.32359017670659, -1.14673019242956, 1.16724649711908], a = 0.2, v = 0.2, t = 0.2)
movej(p[-0.454355741062315, -0.091192782150179, 0.288268549583814, -1.31076769268968, -1.13944080466515, 1.16468594155549], a = 0.2, v = 0.2, t = 0.2)
movej(p[-0.455222939495043, -0.0911123194945785, 0.288450295035827, -1.34411466970344, -1.12118847555592, 1.18037511099014], a = 0.2, v = 0.2, t = 0.2)
movej(p[-0.455941553937978, -0.0910600576002556, 0.288520494264503, -1.32488998671705, -1.12882287792911, 1.17031001116807], a = 0.2, v = 0.2, t = 0.2)
movej(p[-0.456220492827641, -0.0910227237941551, 0.288582000039479, -1.28722974026397, -1.11433139643281, 1.189245319095], a = 0.2, v = 0.2, t = 0.2)
movej(p[-0.455484895050836, -0.0911462207216241, 0.288050230143598, -1.24610810511106, -1.11323056053402, 1.20498349652644], a = 0.2, v = 0.2, t = 0.2)
movej(p[-0.453606152934727, -0.0913788790340034, 0.287831341828609, -1.24507671364417, -1.10374463117317, 1.23500198663396], a = 0.2, v = 0.2, t = 0.2)
movej(p[-0.451053826201937, -0.091748472154555, 0.287753983284628, -1.27635253673467, -1.11920743125583, 1.24174306999895], a = 0.2, v = 0.2, t = 0.2)
movej(p[-0.44862878692846, -0.0921804902307382, 0.288248321216862, -1.27646171937602, -1.12868824387951, 1.25820173823901], a = 0.2, v = 0.2, t = 0.2)
movej(p[-0.446432136348131, -0.0925031828684047, 0.289002167717916, -1.30094798258186, -1.14604546314232, 1.25230279863634], a = 0.2, v = 0.2, t = 0.2)
movej(p[-0.444644417014958, -0.092804307933799, 0.289591906317303, -1.30185617540864, -1.16510740721142, 1.24850881304731], a = 0.2, v = 0.2, t = 0.2)
movej(p[-0.443778609783992, -0.0928996936840251, 0.290088689557317, -1.31208405659147, -1.19218643397973, 1.22875495594404], a = 0.2, v = 0.2, t = 0.2)
movej(p[-0.444025057835257, -0.0928190443222481, 0.290270636637736, -1.28515059377532, -1.21515094976875, 1.19664298505184], a = 0.2, v = 0.2, t = 0.2)
movej(p[-0.445674751162339, -0.0926839903228371, 0.290319541789043, -1.299102496337, -1.19844252406745, 1.18500970202559], a = 0.2, v = 0.2, t = 0.2)
movej(p[-0.447868869279751, -0.0923710362972303, 0.289928553772369, -1.32627972636033, -1.18046536426823, 1.16987103313486], a = 0.2, v = 0.2, t = 0.2)
movej(p[-0.449990591400645, -0.0920612292873913, 0.289811138875749, -1.34181997894784, -1.16753279803614, 1.17722463444306], a = 0.2, v = 0.2, t = 0.2)
movej(p[-0.451529132310794, -0.0917328002445436, 0.289572378574168, -1.330044261977, -1.15836260918098, 1.17114058152332], a = 0.2, v = 0.2, t = 0.2)
movej(p[-0.452640674899825, -0.0914940971658516, 0.289489566902329, -1.31060142888303, -1.15499732406903, 1.1647775813679], a = 0.2, v = 0.2, t = 0.2)
movej(p[-0.453610848517264, -0.0913078469867768, 0.289033916080733, -1.31082240651796, -1.14759013081594, 1.1477439768128], a = 0.2, v = 0.2, t = 0.2)
movej(p[-0.454526974124074, -0.091105117330828, 0.288716923131214, -1.32145026711931, -1.14708315520533, 1.13750594341277], a = 0.2, v = 0.2, t = 0.2)
movej(p[-0.455391212942376, -0.0910152310862126, 0.288352413076388, -1.31521212242794, -1.14982296759804, 1.1296871318981], a = 0.2, v = 0.2, t = 0.2)
movej(p[-0.456123221455654, -0.090976594904717, 0.288095347302766, -1.30282884642153, -1.13863703112727, 1.13966988480138], a = 0.2, v = 0.2, t = 0.2)
movej(p[-0.45612322326314, -0.0910905443587051, 0.287817808353549, -1.26474294575445, -1.13156176135894, 1.15589339828346], a = 0.2, v = 0.2, t = 0.2)
movej(p[-0.455149561733278, -0.0912530488489008, 0.287403294902823, -1.23257863743896, -1.10188825734037, 1.18480966236092], a = 0.2, v = 0.2, t = 0.2)
movej(p[-0.453098151190373, -0.0914999334532327, 0.287181088289273, -1.20866904023022, -1.07987829460795, 1.22681554398525], a = 0.2, v = 0.2, t = 0.2)
movej(p[-0.450448388448247, -0.091894054660328, 0.287226123121972, -1.21052605309256, -1.08023140707026, 1.24631145418496], a = 0.2, v = 0.2, t = 0.2)
movej(p[-0.447702051672373, -0.0922744225043489, 0.287817276812073, -1.24172387236339, -1.10169655439217, 1.25771639581364], a = 0.2, v = 0.2, t = 0.2)
movej(p[-0.44514609401429, -0.092774382640411, 0.288505975341063, -1.27635714935624, -1.15422562552085, 1.23985745450516], a = 0.2, v = 0.2, t = 0.2)
movej(p[-0.443267450150907, -0.0929455450199348, 0.289501136934227, -1.31175064891917, -1.1747812743938, 1.24968472219126], a = 0.2, v = 0.2, t = 0.2)
movej(p[-0.442757634180901, -0.0930064455766114, 0.290136153873626, -1.32077282076911, -1.18875816646442, 1.22993640724615], a = 0.2, v = 0.2, t = 0.2)
movej(p[-0.443779315062679, -0.0927783898802618, 0.29061805527281, -1.31912090775384, -1.16699939985127, 1.21466160296878], a = 0.2, v = 0.2, t = 0.2)
movej(p[-0.445950422280597, -0.0925005117208396, 0.290472893839541, -1.31283628539978, -1.16063114316153, 1.18083095697453], a = 0.2, v = 0.2, t = 0.2)
movej(p[-0.448294367728586, -0.092191888352236, 0.29045894331871, -1.2991396361345, -1.16163867357379, 1.17339638114223], a = 0.2, v = 0.2, t = 0.2)
movej(p[-0.450425743096672, -0.091787489590039, 0.290183175795877, -1.31800444757843, -1.16831416923759, 1.15278763088292], a = 0.2, v = 0.2, t = 0.2)
movej(p[-0.452105674458493, -0.0915766696052951, 0.29009038772497, -1.34346981779479, -1.15195132301351, 1.1642284558617], a = 0.2, v = 0.2, t = 0.2)
movej(p[-0.453413276595994, -0.0913578125990626, 0.289662819500675, -1.36891839447082, -1.13712202548119, 1.16123029451081], a = 0.2, v = 0.2, t = 0.2)
movej(p[-0.454436954275214, -0.0913467451636465, 0.289483119189491, -1.38057759052212, -1.10822105750176, 1.18426199955294], a = 0.2, v = 0.2, t = 0.2)
movej(p[-0.455337601731457, -0.0911779017336709, 0.289181828881288, -1.33871683948601, -1.10509462100725, 1.18743301386279], a = 0.2, v = 0.2, t = 0.2)
movej(p[-0.456212027379372, -0.0910343966176549, 0.288923917865539, -1.30026304827949, -1.10238418008386, 1.17581599298486], a = 0.2, v = 0.2, t = 0.2)
movej(p[-0.456908579891705, -0.0909130611270521, 0.288720758268466, -1.27380402818342, -1.12074748380898, 1.1566440973142], a = 0.2, v = 0.2, t = 0.2)
movej(p[-0.456839251616681, -0.0910006535628988, 0.288461111724171, -1.25263392649069, -1.12870178264354, 1.15715208055793], a = 0.2, v = 0.2, t = 0.2)
movej(p[-0.455514994761472, -0.0913195904705558, 0.288239030238077, -1.27010269268247, -1.11725108316699, 1.18377548551027], a = 0.2, v = 0.2, t = 0.2)
movej(p[-0.453216411758072, -0.0916277006557548, 0.287742265354902, -1.26524684564483, -1.12238219038713, 1.22026910577856], a = 0.2, v = 0.2, t = 0.2)
movej(p[-0.450338342264735, -0.0919577757597721, 0.287484192560458, -1.25673147360426, -1.14815709608534, 1.22768772650864], a = 0.2, v = 0.2, t = 0.2)
movej(p[-0.447475621850167, -0.0923822486781019, 0.287930716697339, -1.23119313573777, -1.17804259051094, 1.22857454807311], a = 0.2, v = 0.2, t = 0.2)
movej(p[-0.4447359077307, -0.0927695779764082, 0.28872376960657, -1.23900410508477, -1.17651146686077, 1.24378749743507], a = 0.2, v = 0.2, t = 0.2)
movej(p[-0.442449399222312, -0.0930878806084927, 0.289652148155183, -1.29868907266991, -1.19025934002219, 1.23900725511916], a = 0.2, v = 0.2, t = 0.2)
movej(p[-0.441498868505857, -0.0930936158586966, 0.290412324652044, -1.3544431187131, -1.20087789056794, 1.24312270133577], a = 0.2, v = 0.2, t = 0.2)
movej(p[-0.442192844962527, -0.0928858897860673, 0.290787746277338, -1.3758382300675, -1.20160377775494, 1.23301780413976], a = 0.2, v = 0.2, t = 0.2)
movej(p[-0.44441303457242, -0.0926423529192279, 0.291134425907559, -1.36330807940114, -1.18616104377019, 1.23028867509636], a = 0.2, v = 0.2, t = 0.2)
movej(p[-0.446982142010248, -0.092330146296765, 0.291021728051808, -1.36099488086571, -1.16309688037033, 1.22772417274895], a = 0.2, v = 0.2, t = 0.2)
movej(p[-0.449318174387622, -0.0919732356136049, 0.290681718102971, -1.34747093378311, -1.14147177718594, 1.22286084098605], a = 0.2, v = 0.2, t = 0.2)
movej(p[-0.451315712859111, -0.0917836687459302, 0.290254550410372, -1.34219206429818, -1.11320990420278, 1.20456048758201], a = 0.2, v = 0.2, t = 0.2)
movej(p[-0.452929028346359, -0.0916174403271427, 0.289655652936765, -1.31796498467992, -1.1209637574104, 1.16160516024533], a = 0.2, v = 0.2, t = 0.2)
movej(p[-0.454229592863233, -0.0915250403027733, 0.289465567178631, -1.31361955427396, -1.12737732964083, 1.13744478629019], a = 0.2, v = 0.2, t = 0.2)
movej(p[-0.455237561386234, -0.0913058503516954, 0.289272978431333, -1.30399009524228, -1.13312030031606, 1.13842339249908], a = 0.2, v = 0.2, t = 0.2)
movej(p[-0.456171236005272, -0.0910691061051585, 0.289320773866219, -1.314546781009, -1.12867686385254, 1.14743914035579], a = 0.2, v = 0.2, t = 0.2)
movej(p[-0.456661159083056, -0.091037228457582, 0.288950457334804, -1.30232759191092, -1.10812550329181, 1.17452922442834], a = 0.2, v = 0.2, t = 0.2)
movej(p[-0.45630357529012, -0.0910663921189168, 0.288445972691343, -1.26400084178269, -1.1170037355833, 1.1759633883539], a = 0.2, v = 0.2, t = 0.2)
movej(p[-0.454650795093321, -0.0913589510069794, 0.287979175928626, -1.24798949304882, -1.09979422631506, 1.2048824583108], a = 0.2, v = 0.2, t = 0.2)
movej(p[-0.451986618654911, -0.0916440909496255, 0.2876241573002, -1.24022391212202, -1.10491298298599, 1.23133363944481], a = 0.2, v = 0.2, t = 0.2)
movej(p[-0.449133244529657, -0.0920292473859639, 0.287849712705538, -1.28454428408706, -1.10192589774636, 1.25951989786066], a = 0.2, v = 0.2, t = 0.2)
movej(p[-0.446437551151881, -0.0924304412676474, 0.288660023202023, -1.2783955851789, -1.1228991290954, 1.26826060860346], a = 0.2, v = 0.2, t = 0.2)
movej(p[-0.444299025577187, -0.092887728519415, 0.289508430915479, -1.30445715751636, -1.16669817894957, 1.2356019257964], a = 0.2, v = 0.2, t = 0.2)
movej(p[-0.442970896732639, -0.093130666880643, 0.290128222590579, -1.32047513129373, -1.20320262526255, 1.19323112074319], a = 0.2, v = 0.2, t = 0.2)
movej(p[-0.443306741908523, -0.0930365843571619, 0.290353459974489, -1.3748216479174, -1.22544686030663, 1.17476860194999], a = 0.2, v = 0.2, t = 0.2)
movej(p[-0.445018778535671, -0.0927365678611521, 0.290701609573118, -1.39299148931514, -1.21053457827248, 1.17389930876336], a = 0.2, v = 0.2, t = 0.2)
movej(p[-0.447380011514841, -0.0924269136938951, 0.290757134673917, -1.3915204354609, -1.19362327243601, 1.17468893609546], a = 0.2, v = 0.2, t = 0.2)
movej(p[-0.44966712811027, -0.0921469887842772, 0.290545009373435, -1.37509693626733, -1.1714721575531, 1.15765693491533], a = 0.2, v = 0.2, t = 0.2)
movej(p[-0.451566765390664, -0.0918568578817169, 0.290070180516669, -1.3512164740255, -1.17443836983382, 1.14238421026835], a = 0.2, v = 0.2, t = 0.2)
movej(p[-0.453052332344525, -0.0914265760270899, 0.289746722217544, -1.34858040060889, -1.15897148222055, 1.12887250196868], a = 0.2, v = 0.2, t = 0.2)
movej(p[-0.454226754359335, -0.09126866470451, 0.289783520965227, -1.34328750412123, -1.14314314725748, 1.13945050449267], a = 0.2, v = 0.2, t = 0.2)
movej(p[-0.455231281005277, -0.0911390577066842, 0.289427218149905, -1.33502215091609, -1.11251758286705, 1.145117618821], a = 0.2, v = 0.2, t = 0.2)
movej(p[-0.456039826734244, -0.0912588598397659, 0.289379422724609, -1.31143778677209, -1.11217612822591, 1.15441135364747], a = 0.2, v = 0.2, t = 0.2)
movej(p[-0.456238320445995, -0.0912834462808888, 0.288881362583956, -1.28645961907751, -1.1100884718494, 1.16365363222221], a = 0.2, v = 0.2, t = 0.2)
movej(p[-0.455400398485353, -0.0913330854460898, 0.28877288993878, -1.27183049616134, -1.10792512402354, 1.17990223558593], a = 0.2, v = 0.2, t = 0.2)
movej(p[-0.453394437824751, -0.0916462735263928, 0.288409648858263, -1.26366064762168, -1.11042625279808, 1.20722848514174], a = 0.2, v = 0.2, t = 0.2)
movej(p[-0.450744981174446, -0.0919708698257815, 0.28817897395244, -1.25966022125989, -1.12331025549691, 1.23270897906721], a = 0.2, v = 0.2, t = 0.2)
movej(p[-0.448003576304348, -0.0923329670537891, 0.288348136280482, -1.25323135161276, -1.13108118407071, 1.26008562570798], a = 0.2, v = 0.2, t = 0.2)
movej(p[-0.445778993880203, -0.0924924752878765, 0.288667786619759, -1.26904421552051, -1.14248767423417, 1.26754037017071], a = 0.2, v = 0.2, t = 0.2)
movej(p[-0.444313630830687, -0.0926499642747631, 0.28913836355626, -1.30629008001159, -1.16491968054597, 1.24610751613619], a = 0.2, v = 0.2, t = 0.2)
movej(p[-0.444048616346816, -0.0927035016500515, 0.289705048365768, -1.34898941903661, -1.18812758559072, 1.22689388434656], a = 0.2, v = 0.2, t = 0.2)
movej(p[-0.445046093376562, -0.092651427911217, 0.290029371295202, -1.36826223436525, -1.18806858705291, 1.20025751791839], a = 0.2, v = 0.2, t = 0.2)
movej(p[-0.446991282623476, -0.0923939734811726, 0.290008490247677, -1.37583948148016, -1.16589295867622, 1.19186300267086], a = 0.2, v = 0.2, t = 0.2)
movej(p[-0.449316195276242, -0.0920518153344474, 0.289675232808995, -1.37369013898585, -1.16421140042995, 1.15888278079493], a = 0.2, v = 0.2, t = 0.2)
movej(p[-0.451230195119862, -0.0917529010746253, 0.289485843366839, -1.35659849241594, -1.14659285893416, 1.16002778444257], a = 0.2, v = 0.2, t = 0.2)
movej(p[-0.45275374755812, -0.0915352779860097, 0.289182876400362, -1.33771500884081, -1.15734048627416, 1.13601597591146], a = 0.2, v = 0.2, t = 0.2)
movej(p[-0.45389892352682, -0.0914203567168859, 0.289401115007201, -1.3398719952544, -1.13328914997931, 1.15610590203866], a = 0.2, v = 0.2, t = 0.2)
movej(p[-0.454813205276269, -0.091334983215691, 0.289332243634196, -1.34762532684776, -1.12740449181902, 1.15008957736015], a = 0.2, v = 0.2, t = 0.2)
movej(p[-0.455730156015271, -0.091219930292377, 0.28928846769698, -1.34370223079886, -1.11754910533316, 1.15966763815162], a = 0.2, v = 0.2, t = 0.2)
movej(p[-0.456422239391144, -0.0910926798713678, 0.288722097784914, -1.33512914202738, -1.11387501613256, 1.16000481889638], a = 0.2, v = 0.2, t = 0.2)
movej(p[-0.457031418713904, -0.0910055230443842, 0.288498429224021, -1.3103401976333, -1.11124464398936, 1.15587017917393], a = 0.2, v = 0.2, t = 0.2)
movej(p[-0.457118228774961, -0.0910349010519812, 0.288478883225225, -1.32355782222256, -1.11752224781707, 1.16216765100944], a = 0.2, v = 0.2, t = 0.2)
movej(p[-0.456562503670202, -0.0911226577525301, 0.288222430024135, -1.29836765074605, -1.12027217524995, 1.17156187132121], a = 0.2, v = 0.2, t = 0.2)
movej(p[-0.45498488012042, -0.09138404544915, 0.287815192587582, -1.29166436687592, -1.13153749445829, 1.18355189017215], a = 0.2, v = 0.2, t = 0.2)
movej(p[-0.452624599984731, -0.0916773108016561, 0.287639395250601, -1.27829441654631, -1.12878160483, 1.20747442313685], a = 0.2, v = 0.2, t = 0.2)
movej(p[-0.450074358069683, -0.0920546701211167, 0.288137779027272, -1.29813954573166, -1.13005094085574, 1.21944088539692], a = 0.2, v = 0.2, t = 0.2)
movej(p[-0.448016670392284, -0.0924310523418025, 0.288737890443946, -1.31238495026096, -1.13990425245341, 1.22557528157077], a = 0.2, v = 0.2, t = 0.2)
movej(p[-0.447055581769549, -0.0925963327751068, 0.289348746709685, -1.34189024839016, -1.14193692181652, 1.21791307976482], a = 0.2, v = 0.2, t = 0.2)
movej(p[-0.447380364815741, -0.0925484732996954, 0.289382433318126, -1.34866479519345, -1.1446703652448, 1.20126165805643], a = 0.2, v = 0.2, t = 0.2)
movej(p[-0.448942400477519, -0.0921876019236751, 0.289595645305368, -1.36196645914759, -1.16322215008908, 1.17118136886926], a = 0.2, v = 0.2, t = 0.2)
movej(p[-0.450992380579952, -0.0919863200892407, 0.289243158339853, -1.34979830918502, -1.16842816618165, 1.14117950585772], a = 0.2, v = 0.2, t = 0.2)
movej(p[-0.45302288200928, -0.0917483506075085, 0.28896592480768, -1.2705806211612, -1.17585438161313, 1.12851750768362], a = 0.2, v = 0.2, t = 0.2)
movej(p[-0.454542115376917, -0.091510522466602, 0.288705077184632, -1.25375849431956, -1.1546603772741, 1.13322319079744], a = 0.2, v = 0.2, t = 0.2)
movej(p[-0.455726297783095, -0.0912693168822084, 0.288756258390701, -1.27684768844207, -1.13907191402654, 1.14068140641207], a = 0.2, v = 0.2, t = 0.2)
movej(p[-0.456504210524521, -0.0911172752754928, 0.288818277815528, -1.32707634841912, -1.12116269722217, 1.1474975139064], a = 0.2, v = 0.2, t = 0.2)
movej(p[-0.457044878347122, -0.0910144712942529, 0.288663330335897, -1.36300776051591, -1.10049871355695, 1.17270005357775], a = 0.2, v = 0.2, t = 0.2)
movej(p[-0.457445104357408, -0.0907410554545407, 0.288593584858014, -1.35590441199042, -1.08711366894514, 1.19280008951068], a = 0.2, v = 0.2, t = 0.2)
movej(p[-0.457719098828618, -0.0906810673359931, 0.288453199725682, -1.37809223083804, -1.08467787465535, 1.19328939492066], a = 0.2, v = 0.2, t = 0.2)
movej(p[-0.457326631239446, -0.0908036938745501, 0.288387700233384, -1.37510254839068, -1.09692659037592, 1.19914670127259], a = 0.2, v = 0.2, t = 0.2)
movej(p[-0.456030116161856, -0.0911600213726707, 0.28788559815087, -1.36676306226356, -1.11312210254189, 1.19304024706669], a = 0.2, v = 0.2, t = 0.2)
movej(p[-0.453554349457299, -0.0916420595176933, 0.287440907987438, -1.33826490077278, -1.11854080438094, 1.20293312311059], a = 0.2, v = 0.2, t = 0.2)
movej(p[-0.450651149018006, -0.091994528322973, 0.287064307019976, -1.29348769960246, -1.14143636362313, 1.19240200243525], a = 0.2, v = 0.2, t = 0.2)
movej(p[-0.447497721351755, -0.0923819486163236, 0.28750251223859, -1.2560580520896, -1.15387726765795, 1.21328448593108], a = 0.2, v = 0.2, t = 0.2)
movej(p[-0.444530029198494, -0.0926720062141616, 0.288448060970752, -1.24499897960499, -1.18574577899516, 1.22673322246649], a = 0.2, v = 0.2, t = 0.2)
movej(p[-0.44228367910852, -0.093043507458612, 0.289390921103838, -1.28240021632742, -1.20127158061735, 1.2256027618423], a = 0.2, v = 0.2, t = 0.2)
movej(p[-0.441567511403622, -0.093157145728008, 0.290125766772391, -1.34490647276492, -1.21708656542875, 1.20526042177877], a = 0.2, v = 0.2, t = 0.2)
movej(p[-0.442539792049186, -0.0929974454011575, 0.290458038336426, -1.37589223608894, -1.21342302243613, 1.18757952779166], a = 0.2, v = 0.2, t = 0.2)
movej(p[-0.444565708822863, -0.0925867698927571, 0.290780113587194, -1.39161687769708, -1.20314411256068, 1.17878958524347], a = 0.2, v = 0.2, t = 0.2)
movej(p[-0.446962865771644, -0.0921911290955438, 0.290637100516405, -1.37317171201419, -1.18271667788177, 1.18160215991782], a = 0.2, v = 0.2, t = 0.2)
movej(p[-0.449241102358452, -0.091865204387969, 0.290508354609965, -1.39935614007785, -1.15240727917428, 1.18208833651406], a = 0.2, v = 0.2, t = 0.2)
movej(p[-0.451207054980399, -0.0916194964769854, 0.290167114139274, -1.38175786118404, -1.13501844976131, 1.17726721925236], a = 0.2, v = 0.2, t = 0.2)
movej(p[-0.452766656026058, -0.0914084784983318, 0.289915168800828, -1.36738228992831, -1.1339708309299, 1.15592461113065], a = 0.2, v = 0.2, t = 0.2)
movej(p[-0.454009130804651, -0.0910847142610196, 0.289631591630383, -1.31974248462977, -1.12216741541392, 1.16535033947939], a = 0.2, v = 0.2, t = 0.2)
movej(p[-0.454943646377689, -0.0911052320930274, 0.289283850213207, -1.31594065749047, -1.10656298123826, 1.16948535015214], a = 0.2, v = 0.2, t = 0.2)
movej(p[-0.455683531677381, -0.0910315189008836, 0.289274257887979, -1.30163190317421, -1.08395790906719, 1.17808849341538], a = 0.2, v = 0.2, t = 0.2)
movej(p[-0.455674329030049, -0.0912552448533532, 0.288967090727668, -1.28396920172107, -1.09388765496693, 1.17989710424488], a = 0.2, v = 0.2, t = 0.2)
movej(p[-0.454199955128279, -0.0913168640750807, 0.288628139209317, -1.25688200427185, -1.08128112989585, 1.20248983272805], a = 0.2, v = 0.2, t = 0.2)
movej(p[-0.45171809782344, -0.0916957116349534, 0.287946503422113, -1.23886220282674, -1.06521241922371, 1.23908582172748], a = 0.2, v = 0.2, t = 0.2)
movej(p[-0.448603414104189, -0.0921256004521028, 0.287790727923653, -1.24975704606939, -1.08598634872948, 1.2418653138849], a = 0.2, v = 0.2, t = 0.2)
movej(p[-0.445728752080331, -0.0926029516334506, 0.288374416248414, -1.28139744487001, -1.13050231738299, 1.2376995858632], a = 0.2, v = 0.2, t = 0.2)
movej(p[-0.443189290029782, -0.0929340469054893, 0.289274084736639, -1.30000400490897, -1.18556619820453, 1.21836154929266], a = 0.2, v = 0.2, t = 0.2)
movej(p[-0.441544077893156, -0.0929989732839007, 0.290287898029748, -1.30767578442416, -1.18759723396644, 1.23190169291834], a = 0.2, v = 0.2, t = 0.2)
movej(p[-0.441488505793869, -0.0928648513281774, 0.290944465098427, -1.30991464794288, -1.19683987625065, 1.21099610125292], a = 0.2, v = 0.2, t = 0.2)
movej(p[-0.443291425169479, -0.092470465608155, 0.291015771063048, -1.32828397015296, -1.20059746017368, 1.19337365170868], a = 0.2, v = 0.2, t = 0.2)
movej(p[-0.446136270113175, -0.0921056947478325, 0.290968008103703, -1.34942642200487, -1.18895220541729, 1.1635026923569], a = 0.2, v = 0.2, t = 0.2)
movej(p[-0.448907715822033, -0.0917607814892735, 0.290605663037466, -1.3592056938522, -1.17067889805973, 1.15694045791815], a = 0.2, v = 0.2, t = 0.2)
movej(p[-0.450972958379356, -0.0915802779680772, 0.290596398224746, -1.3617468128137, -1.15351398297103, 1.16702533443328], a = 0.2, v = 0.2, t = 0.2)
movej(p[-0.452602104267455, -0.0913499321438291, 0.290333024164817, -1.34211248558044, -1.16051679409488, 1.15339338150221], a = 0.2, v = 0.2, t = 0.2)
movej(p[-0.453903611084573, -0.0911017944790632, 0.289979063959822, -1.31516489143868, -1.13656206182937, 1.17562140676787], a = 0.2, v = 0.2, t = 0.2)
movej(p[-0.454969105065081, -0.0909450890479093, 0.289465382246845, -1.26171937059842, -1.13277899897268, 1.14628921225876], a = 0.2, v = 0.2, t = 0.2)
movej(p[-0.455843110033044, -0.0909251614630934, 0.289118638743171, -1.27914430551722, -1.1212607130627, 1.14682600108747], a = 0.2, v = 0.2, t = 0.2)
movej(p[-0.456004258908986, -0.0910796550334091, 0.288879166122369, -1.23625887259477, -1.12010394180798, 1.16120026083154], a = 0.2, v = 0.2, t = 0.2)
movej(p[-0.454931264365321, -0.0913253971248031, 0.288733490608355, -1.24525629453415, -1.11938576379103, 1.19611726474566], a = 0.2, v = 0.2, t = 0.2)
movej(p[-0.45243116980714, -0.0916969999203984, 0.288293648076808, -1.19210683602861, -1.13911238066674, 1.22615168018684], a = 0.2, v = 0.2, t = 0.2)
movej(p[-0.449209847055965, -0.092220032571996, 0.288154987150348, -1.23218683232618, -1.17833670462284, 1.22150331460202], a = 0.2, v = 0.2, t = 0.2)
movej(p[-0.445986522360839, -0.0927259063343261, 0.288653657345942, -1.24765791141474, -1.18459079947145, 1.24139920926545], a = 0.2, v = 0.2, t = 0.2)
movej(p[-0.443032134620693, -0.0932196030981845, 0.289638826815795, -1.2810769982361, -1.18569879061534, 1.26057737700607], a = 0.2, v = 0.2, t = 0.2)
movej(p[-0.441188025726047, -0.0933846933550112, 0.290757813791496, -1.31333001886069, -1.21171449306561, 1.23834143587183], a = 0.2, v = 0.2, t = 0.2)
movej(p[-0.440943961614224, -0.0932574085741848, 0.291347375712239, -1.3507837852964, -1.23458829510035, 1.20412483250794], a = 0.2, v = 0.2, t = 0.2)
movej(p[-0.442374376249133, -0.09294788450218, 0.291705366016422, -1.40279389278849, -1.23890485241345, 1.16491747817928], a = 0.2, v = 0.2, t = 0.2)
movej(p[-0.445006878844811, -0.0925695568673359, 0.291756138944083, -1.40991659784979, -1.20470064855811, 1.16894674556144], a = 0.2, v = 0.2, t = 0.2)
movej(p[-0.447633455100697, -0.0921980872517915, 0.291405269788456, -1.39194710950276, -1.1577556504655, 1.18300209154834], a = 0.2, v = 0.2, t = 0.2)
movej(p[-0.449837193751795, -0.0918270704713655, 0.29108656067547, -1.38644870873014, -1.12886015167902, 1.20815507324319], a = 0.2, v = 0.2, t = 0.2)
movej(p[-0.451470793788643, -0.0915250773737834, 0.290734379421111, -1.35724187491572, -1.11229650585862, 1.210828928782], a = 0.2, v = 0.2, t = 0.2)
movej(p[-0.452805831627308, -0.0913877006018011, 0.290595417488722, -1.33400831697845, -1.11290504084506, 1.19815938682874], a = 0.2, v = 0.2, t = 0.2)
movej(p[-0.453941719121151, -0.0912793425884963, 0.290584587628051, -1.32629647655143, -1.10501604474758, 1.17995244538908], a = 0.2, v = 0.2, t = 0.2)
movej(p[-0.45478367462453, -0.091309089718752, 0.290405325536487, -1.31979935979496, -1.09705015524417, 1.17266629388099], a = 0.2, v = 0.2, t = 0.2)
movej(p[-0.455320862746342, -0.0912057081798547, 0.290126052190643, -1.34575646797694, -1.1004816871871, 1.16968529821588], a = 0.2, v = 0.2, t = 0.2)
movej(p[-0.454939348560042, -0.0912402858023764, 0.289404558492768, -1.28091052297527, -1.10372505964216, 1.18596170119765], a = 0.2, v = 0.2, t = 0.2)
movej(p[-0.453568253850114, -0.0913468267753449, 0.28908421794962, -1.23082405100807, -1.09332274614735, 1.21779862724701], a = 0.2, v = 0.2, t = 0.2)
movej(p[-0.451213557510906, -0.0915637740615588, 0.288739775436087, -1.20512915193947, -1.07642338091339, 1.2548227371187], a = 0.2, v = 0.2, t = 0.2)
movej(p[-0.448439898058608, -0.0921563824150707, 0.289223602980799, -1.21974437173482, -1.09333238799119, 1.26920120446168], a = 0.2, v = 0.2, t = 0.2)
movej(p[-0.445508932285064, -0.0925870753734739, 0.289866661544764, -1.26650259983107, -1.1336763657793, 1.2550167273542], a = 0.2, v = 0.2, t = 0.2)
movej(p[-0.442767055661108, -0.0931388653880984, 0.290687984005856, -1.28310542496472, -1.18094445425588, 1.25487521777092], a = 0.2, v = 0.2, t = 0.2)
movej(p[-0.440842476774266, -0.0932909316390102, 0.291466148890539, -1.30266914749129, -1.22242060370185, 1.21806661041055], a = 0.2, v = 0.2, t = 0.2)
movej(p[-0.440175633011879, -0.0932026070471365, 0.292104966495678, -1.30290386404467, -1.2375941042701, 1.20971033492564], a = 0.2, v = 0.2, t = 0.2)
movej(p[-0.441306996769909, -0.0928686864166128, 0.292599720430387, -1.34390678477474, -1.24902547875401, 1.16813871681677], a = 0.2, v = 0.2, t = 0.2)
movej(p[-0.443557274326248, -0.0925490611684359, 0.292694882457729, -1.36125567799482, -1.22870525453039, 1.16580174469349], a = 0.2, v = 0.2, t = 0.2)
movej(p[-0.446224576496377, -0.092255345450641, 0.292499999434238, -1.36882920386567, -1.19157532518503, 1.16366710804842], a = 0.2, v = 0.2, t = 0.2)
movej(p[-0.448696871925758, -0.0919366536356553, 0.292277902490932, -1.34212076006496, -1.17124293813026, 1.15833710395775], a = 0.2, v = 0.2, t = 0.2)
movej(p[-0.450588054503524, -0.0916472505008187, 0.29178746917267, -1.33988532740513, -1.15939183826354, 1.15779712112932], a = 0.2, v = 0.2, t = 0.2)
movej(p[-0.452082105251645, -0.0914600175397675, 0.291307608072523, -1.33813099378562, -1.1657718059257, 1.14823016250616], a = 0.2, v = 0.2, t = 0.2)
movej(p[-0.453203402859743, -0.0914373850909689, 0.291006030241052, -1.33220261974499, -1.15006426548025, 1.15233551295995], a = 0.2, v = 0.2, t = 0.2)
movej(p[-0.454066788843192, -0.0913104997821896, 0.290889107752197, -1.32908644652505, -1.11911452701798, 1.17059590036359], a = 0.2, v = 0.2, t = 0.2)
movej(p[-0.454824902649386, -0.0911838613368862, 0.290608384446022, -1.30815377027621, -1.10288369799896, 1.1894689571193], a = 0.2, v = 0.2, t = 0.2)
movej(p[-0.45470311667219, -0.0911742688122958, 0.290157400443168, -1.28188156629754, -1.08837129552641, 1.20332473237273], a = 0.2, v = 0.2, t = 0.2)
movej(p[-0.453544518351332, -0.0914048070415234, 0.289638219012193, -1.23622281043791, -1.10308134384355, 1.21170741057743], a = 0.2, v = 0.2, t = 0.2)
movej(p[-0.450946533030533, -0.0918876131921272, 0.289706251930366, -1.22399559832467, -1.11673829827861, 1.21800795530052], a = 0.2, v = 0.2, t = 0.2)
movej(p[-0.447927635018156, -0.0923636818618115, 0.28995090634355, -1.23809407889735, -1.13807972432805, 1.23268825727343], a = 0.2, v = 0.2, t = 0.2)
movej(p[-0.445033225276187, -0.092617241712846, 0.290618186372479, -1.25880475504544, -1.16368630368135, 1.24066562747607], a = 0.2, v = 0.2, t = 0.2)
movej(p[-0.44247768146707, -0.092923984560503, 0.291409559357885, -1.27789139188723, -1.18699776660002, 1.24751803929412], a = 0.2, v = 0.2, t = 0.2)
movej(p[-0.440920963877922, -0.0930858764256722, 0.292293222135265, -1.28503367385674, -1.21039120117434, 1.23402999828717], a = 0.2, v = 0.2, t = 0.2)
movej(p[-0.440780053850407, -0.0931055697313952, 0.292915180783694, -1.31270026084956, -1.20441629141422, 1.22134903375414], a = 0.2, v = 0.2, t = 0.2)
movej(p[-0.442341213926665, -0.0928414320599894, 0.292937581036912, -1.347637670918, -1.19920565556047, 1.18425711114964], a = 0.2, v = 0.2, t = 0.2)
movej(p[-0.444831657017572, -0.0924664723975295, 0.292560678827475, -1.35786522875989, -1.18815943561536, 1.16891691861866], a = 0.2, v = 0.2, t = 0.2)
movej(p[-0.447347503790089, -0.09214636986888, 0.292231054751788, -1.36325053570353, -1.17919207528648, 1.1605339437106], a = 0.2, v = 0.2, t = 0.2)
movej(p[-0.449477497455659, -0.0919263130504779, 0.292095442161641, -1.35342162849474, -1.17380912192125, 1.15729231234683], a = 0.2, v = 0.2, t = 0.2)
movej(p[-0.451183558521864, -0.091681263651477, 0.29202232553065, -1.34799491611027, -1.14813231884059, 1.16782321765492], a = 0.2, v = 0.2, t = 0.2)
movej(p[-0.452491448930057, -0.0916192266597063, 0.291902998636751, -1.33385470772745, -1.15241582048029, 1.15169835230313], a = 0.2, v = 0.2, t = 0.2)
movej(p[-0.453680316937841, -0.0913901740015093, 0.291622049607456, -1.31194059463996, -1.14111725347957, 1.15601550498916], a = 0.2, v = 0.2, t = 0.2)
movej(p[-0.454558421557843, -0.0913036295153978, 0.29153268591149, -1.28372642516474, -1.12560902207934, 1.15928149769825], a = 0.2, v = 0.2, t = 0.2)
movej(p[-0.454481593691507, -0.0912683760102887, 0.291222951864553, -1.27659354086996, -1.12559802841712, 1.17549744179863], a = 0.2, v = 0.2, t = 0.2)
movej(p[-0.453383286449324, -0.0914499050497314, 0.290849441217707, -1.26454383809745, -1.12314540297417, 1.20541030888556], a = 0.2, v = 0.2, t = 0.2)
movej(p[-0.450958863993082, -0.0917488101571919, 0.290600604696872, -1.28020653063588, -1.12974500940212, 1.22536185536372], a = 0.2, v = 0.2, t = 0.2)
movej(p[-0.448270728458597, -0.0921561289818103, 0.290691702397462, -1.27946927088133, -1.12316390284606, 1.25749452478988], a = 0.2, v = 0.2, t = 0.2)
movej(p[-0.445371649250469, -0.0926249914593824, 0.291404398419654, -1.26415481793102, -1.13450709269298, 1.26140349576396], a = 0.2, v = 0.2, t = 0.2)
movej(p[-0.44284513901506, -0.0930373989415239, 0.292345518017017, -1.26436235348236, -1.1752573215809, 1.26311033798702], a = 0.2, v = 0.2, t = 0.2)
movej(p[-0.440827414692705, -0.0932744457465988, 0.293131990106847, -1.27937646546404, -1.20207784693442, 1.24777442928971], a = 0.2, v = 0.2, t = 0.2)
movej(p[-0.439999118016066, -0.0932115838036063, 0.293523548520869, -1.33524286944615, -1.21455727884124, 1.2370833221193], a = 0.2, v = 0.2, t = 0.2)
movej(p[-0.440912742821782, -0.0929982972230059, 0.293641664520277, -1.36200702937173, -1.21009957802764, 1.20687778286606], a = 0.2, v = 0.2, t = 0.2)
movej(p[-0.442965144029116, -0.0925643618772522, 0.293549887166717, -1.38503326447696, -1.19673040685491, 1.19222843939021], a = 0.2, v = 0.2, t = 0.2)
movej(p[-0.445635494215164, -0.0922298048373522, 0.293165383030394, -1.36395676018574, -1.18362850771984, 1.16529126290688], a = 0.2, v = 0.2, t = 0.2)
movej(p[-0.448164165884421, -0.0919224992246008, 0.292869994245959, -1.34843567092255, -1.16603931934396, 1.16041630005076], a = 0.2, v = 0.2, t = 0.2)
movej(p[-0.450139705868108, -0.0917374444347876, 0.292431830772905, -1.33325470632683, -1.17100119138013, 1.14825139705554], a = 0.2, v = 0.2, t = 0.2)
movej(p[-0.451488158874726, -0.0915481793478934, 0.292273117434379, -1.31674224881733, -1.15214336048325, 1.15745950671093], a = 0.2, v = 0.2, t = 0.2)
movej(p[-0.452594641286121, -0.0913632587560218, 0.291900238123509, -1.29766702348673, -1.14695511506708, 1.15659975243735], a = 0.2, v = 0.2, t = 0.2)
movej(p[-0.453564764204451, -0.0912377725923016, 0.29175691346523, -1.26068747185504, -1.13480324126575, 1.14674367857031], a = 0.2, v = 0.2, t = 0.2)
movej(p[-0.454099180018923, -0.0911287832744991, 0.291419559283882, -1.22957765055792, -1.15022274707601, 1.14513018692648], a = 0.2, v = 0.2, t = 0.2)
movej(p[-0.453663104967371, -0.0912661688120492, 0.291189140018442, -1.22028365927545, -1.14496143528513, 1.15265949276964], a = 0.2, v = 0.2, t = 0.2)
movej(p[-0.45237030454533, -0.0914546581245109, 0.290871310697802, -1.20759273041947, -1.14605866803281, 1.1814797493977], a = 0.2, v = 0.2, t = 0.2)
movej(p[-0.450574791681358, -0.0917376921565787, 0.290579857563827, -1.23831259007839, -1.13454702359827, 1.21001684214229], a = 0.2, v = 0.2, t = 0.2)
movej(p[-0.448499121674202, -0.0920342119428717, 0.290704990436524, -1.26724903113106, -1.14303228050956, 1.2381709280938], a = 0.2, v = 0.2, t = 0.2)
movej(p[-0.446219314576171, -0.0924182827198974, 0.291017381048583, -1.30489468701392, -1.12349889056131, 1.2703389650903], a = 0.2, v = 0.2, t = 0.2)
movej(p[-0.443864734208632, -0.0928638470891385, 0.291638499308227, -1.31383155878651, -1.13951370642894, 1.2798705123912], a = 0.2, v = 0.2, t = 0.2)
movej(p[-0.441601919166411, -0.093104601662002, 0.292306186609919, -1.30978715465672, -1.16260740272766, 1.26973506736979], a = 0.2, v = 0.2, t = 0.2)
movej(p[-0.440253502274093, -0.0931768544467436, 0.293238194991646, -1.33887121719385, -1.20733525201472, 1.23873023041895], a = 0.2, v = 0.2, t = 0.2)
movej(p[-0.440021138276518, -0.0930141392574166, 0.293789508860412, -1.33744149904119, -1.22364522097003, 1.21980773538825], a = 0.2, v = 0.2, t = 0.2)
