def moving():
set_payload_mass(0.62)
set_tcp(p[0,0,0,0,0,0])
movej(p[0.3878, -0.1087, 0.3808, -1.173, 1.099, -1.197], a = 0.2, v = 0.2, t = 0.2)
movej(p[0.389017768458778, -0.10987339194209, 0.38215192134795, -1.173, 1.099, -1.197], a = 0.2, v = 0.2, t = 0.2)
movej(p[0.390235536917556, -0.111046783884181, 0.3835038426959, -1.173, 1.099, -1.197], a = 0.2, v = 0.2, t = 0.2)
movej(p[0.391453305376334, -0.112220175826271, 0.38485576404385, -1.173, 1.099, -1.197], a = 0.2, v = 0.2, t = 0.2)
movej(p[0.392671073835112, -0.113393567768361, 0.386207685391801, -1.173, 1.099, -1.197], a = 0.2, v = 0.2, t = 0.2)
movej(p[0.391453305376334, -0.112220175826271, 0.38485576404385, -1.173, 1.099, -1.197], a = 0.2, v = 0.2, t = 0.2)
movej(p[0.390235536917556, -0.111046783884181, 0.3835038426959, -1.173, 1.099, -1.197], a = 0.2, v = 0.2, t = 0.2)
movej(p[0.389017768458778, -0.10987339194209, 0.38215192134795, -1.173, 1.099, -1.197], a = 0.2, v = 0.2, t = 0.2)
movej(p[0.3878, -0.1087, 0.3808, -1.173, 1.099, -1.197], a = 0.2, v = 0.2, t = 0.2)
movej(p[0.387935371150128, -0.108716843708139, 0.38080749674658, -1.17281702646416, 1.09911549412765, -1.19674781250046], a = 0.2, v = 0.2, t = 0.2)
movej(p[0.388070841704588, -0.108733680801709, 0.380815002154921, -1.17263405395019, 1.09923096850513, -1.19649561815886], a = 0.2, v = 0.2, t = 0.2)
movej(p[0.388079887498858, -0.108733078875906, 0.380815790375287, -1.17243371767149, 1.09936999104362, -1.19626751270259], a = 0.2, v = 0.2, t = 0.2)
movej(p[0.388073548851376, -0.108711828059234, 0.380872305898277, -1.17238030835391, 1.09942145760804, -1.19625050112118], a = 0.2, v = 0.2, t = 0.2)
movej(p[0.387444691716593, -0.10848913405167, 0.381231135750753, -1.17280534990975, 1.10552537326136, -1.19228925930654], a = 0.2, v = 0.2, t = 0.2)
movej(p[0.387444691716593, -0.10848913405167, 0.381231135750753, -1.17246746316288, 1.10583139407596, -1.19212781546733], a = 0.2, v = 0.2, t = 0.2)
movej(p[0.387649063449899, -0.10853768720913, 0.381184461930188, -1.17245946952093, 1.10582393680645, -1.19213229543104], a = 0.2, v = 0.2, t = 0.2)
movej(p[0.387651692145544, -0.108544695109096, 0.381159646022038, -1.1714367400462, 1.10360972360679, -1.19332900008477], a = 0.2, v = 0.2, t = 0.2)
movej(p[0.38765751746765, -0.108552644966935, 0.38109886423708, -1.169731919701, 1.10045514442166, -1.19485356030413], a = 0.2, v = 0.2, t = 0.2)
movej(p[0.387967897973336, -0.108631303893524, 0.380893031744607, -1.16883428328993, 1.09681543266194, -1.19801157439075], a = 0.2, v = 0.2, t = 0.2)
movej(p[0.388637617426664, -0.108777460056649, 0.38095003454993, -1.16937558783634, 1.09643884723222, -1.19862613249344], a = 0.2, v = 0.2, t = 0.2)
movej(p[0.388787052299695, -0.108803974621743, 0.381021718415341, -1.16941259977767, 1.09619839985942, -1.19865312093464], a = 0.2, v = 0.2, t = 0.2)
movej(p[0.388800824607585, -0.108809998027603, 0.381041439016681, -1.17013892231908, 1.09494877080992, -1.20030223323411], a = 0.2, v = 0.2, t = 0.2)
movej(p[0.388803310215576, -0.108811211134447, 0.381023076006995, -1.16925592957699, 1.0937658867365, -1.20115733904961], a = 0.2, v = 0.2, t = 0.2)
movej(p[0.389062849446374, -0.108882360423976, 0.381063633327864, -1.16938395189056, 1.09311049826231, -1.20212830320553], a = 0.2, v = 0.2, t = 0.2)
movej(p[0.389126773157732, -0.108915255460082, 0.381119429436383, -1.1684156452903, 1.09347823437107, -1.20180484151131], a = 0.2, v = 0.2, t = 0.2)
movej(p[0.389125555786892, -0.108915355208405, 0.381133476431026, -1.16736852747958, 1.09456015700311, -1.20168871796082], a = 0.2, v = 0.2, t = 0.2)
movej(p[0.389073291387469, -0.108901194082814, 0.381129047540089, -1.16767942238286, 1.09502484666019, -1.20133795085192], a = 0.2, v = 0.2, t = 0.2)
movej(p[0.388470208080487, -0.108758714679755, 0.381299527141636, -1.17025777169275, 1.10000130848511, -1.19613591044267], a = 0.2, v = 0.2, t = 0.2)
movej(p[0.386742119904244, -0.108343020511969, 0.381747451470065, -1.17388026808068, 1.11090627770561, -1.18603627541647], a = 0.2, v = 0.2, t = 0.2)
movej(p[0.385136540781437, -0.10789714417461, 0.381917421650358, -1.16950117973981, 1.11921636798182, -1.17532049007421], a = 0.2, v = 0.2, t = 0.2)
movej(p[0.382994173927927, -0.107447732858128, 0.382671065640316, -1.16542919608125, 1.12560818417096, -1.17005957149119], a = 0.2, v = 0.2, t = 0.2)
movej(p[0.37858824936461, -0.106302316774681, 0.383567136975722, -1.15446145943038, 1.14660558333271, -1.14809664298137], a = 0.2, v = 0.2, t = 0.2)
movej(p[0.376087905042314, -0.105725953135232, 0.384260143934624, -1.1504590765625, 1.14929102308369, -1.14383205482333], a = 0.2, v = 0.2, t = 0.2)
movej(p[0.376086005598451, -0.105726108770913, 0.384282061231231, -1.14838784025503, 1.15186165666141, -1.14650663775402], a = 0.2, v = 0.2, t = 0.2)
movej(p[0.376966318399644, -0.106115218415316, 0.384355589706588, -1.14586468048905, 1.14790001981084, -1.14990645266238], a = 0.2, v = 0.2, t = 0.2)
movej(p[0.379347082342862, -0.106523460076853, 0.383433386121439, -1.14666613987524, 1.13645903414741, -1.16004193740996], a = 0.2, v = 0.2, t = 0.2)
movej(p[0.381789556193546, -0.107003138456577, 0.382649525163903, -1.15738356921009, 1.12420535917067, -1.17480924536304], a = 0.2, v = 0.2, t = 0.2)
movej(p[0.383954584184045, -0.10744987083881, 0.381997438429627, -1.16014878155044, 1.11354863283419, -1.18576085381215], a = 0.2, v = 0.2, t = 0.2)
movej(p[0.385874120968009, -0.107946934525687, 0.381566531796821, -1.16279430334232, 1.10678909703037, -1.19256478167142], a = 0.2, v = 0.2, t = 0.2)
movej(p[0.386635902555938, -0.108201692671847, 0.381460401550147, -1.16713390220813, 1.10251648777787, -1.1959606237118], a = 0.2, v = 0.2, t = 0.2)
movej(p[0.387244303647984, -0.108326978422073, 0.381288497355937, -1.16705797389807, 1.10244554209731, -1.1960030363857], a = 0.2, v = 0.2, t = 0.2)
movej(p[0.387920350250459, -0.108553297804973, 0.381199028712236, -1.16588835984119, 1.09956114518654, -1.19823422126503], a = 0.2, v = 0.2, t = 0.2)
movej(p[0.388392961419068, -0.108727661334651, 0.381131345236969, -1.16819884917139, 1.09769454705345, -1.20004346384866], a = 0.2, v = 0.2, t = 0.2)
movej(p[0.388622186934039, -0.108771415403018, 0.381057850374649, -1.16825938747643, 1.09683321719825, -1.19967409265789], a = 0.2, v = 0.2, t = 0.2)
movej(p[0.388797089245806, -0.108968737951871, 0.38107160693865, -1.17077981882966, 1.09672067818889, -1.19737450938023], a = 0.2, v = 0.2, t = 0.2)
movej(p[0.388793074512186, -0.108969066909105, 0.38111793213375, -1.1698416469379, 1.09887168775317, -1.19443268337416], a = 0.2, v = 0.2, t = 0.2)
movej(p[0.388485720694502, -0.10880286259306, 0.381134433530139, -1.17005877337906, 1.09946482349545, -1.19390489498358], a = 0.2, v = 0.2, t = 0.2)
movej(p[0.387249249204169, -0.108574437933902, 0.381470357388598, -1.1682354267235, 1.10576294486673, -1.18798969903119], a = 0.2, v = 0.2, t = 0.2)
movej(p[0.385616628503308, -0.108046003315716, 0.38181142006821, -1.16409622011557, 1.11497351823682, -1.17648570600158], a = 0.2, v = 0.2, t = 0.2)
movej(p[0.384762346471296, -0.107864613982058, 0.382034183394225, -1.16088936267175, 1.12187284836156, -1.167713230618], a = 0.2, v = 0.2, t = 0.2)
movej(p[0.382092480414291, -0.107213848042641, 0.382717845342668, -1.16096385097718, 1.12819421044837, -1.16643530102276], a = 0.2, v = 0.2, t = 0.2)
movej(p[0.379701222411216, -0.106517596240515, 0.383284242809789, -1.15363817533359, 1.14021303905033, -1.1511206825881], a = 0.2, v = 0.2, t = 0.2)
movej(p[0.377025634267988, -0.105989444999209, 0.384015221177543, -1.15337587075344, 1.14977406526913, -1.14024859405459], a = 0.2, v = 0.2, t = 0.2)
movej(p[0.377025634267988, -0.105989444999209, 0.384015221177543, -1.15373660810889, 1.1492604449426, -1.13976197930872], a = 0.2, v = 0.2, t = 0.2)
movej(p[0.378017344651784, -0.106207862897298, 0.383782523892504, -1.15186778582703, 1.14241069803479, -1.14670336783224], a = 0.2, v = 0.2, t = 0.2)
movej(p[0.381254859272402, -0.106918291399229, 0.382935836863592, -1.16431428950061, 1.12475256289614, -1.17572865149885], a = 0.2, v = 0.2, t = 0.2)
movej(p[0.383172131950313, -0.107216246869409, 0.382415808281372, -1.15897250766958, 1.12132100972281, -1.18086563685062], a = 0.2, v = 0.2, t = 0.2)
movej(p[0.38481681712776, -0.107789506255789, 0.382020164940706, -1.1575829334373, 1.11733359040471, -1.18491423737612], a = 0.2, v = 0.2, t = 0.2)
movej(p[0.385984374234843, -0.108049645691321, 0.381730440440909, -1.15881901784604, 1.11037415350621, -1.19243024119437], a = 0.2, v = 0.2, t = 0.2)
movej(p[0.387104526548152, -0.108413464319575, 0.381438180093404, -1.1684459669031, 1.10156172219847, -1.19654631931596], a = 0.2, v = 0.2, t = 0.2)
movej(p[0.387624521278503, -0.108523047668629, 0.381306003469083, -1.17278662289754, 1.0982108568929, -1.19893777872413], a = 0.2, v = 0.2, t = 0.2)
movej(p[0.388011651905774, -0.108606956282853, 0.381208166298807, -1.17278662289754, 1.0982108568929, -1.19893777872413], a = 0.2, v = 0.2, t = 0.2)
movej(p[0.388273702980563, -0.108675171979243, 0.381127605930336, -1.16999577320022, 1.09925495306362, -1.19757572446936], a = 0.2, v = 0.2, t = 0.2)
movej(p[0.388301278236306, -0.108706702835343, 0.381123849551188, -1.16909443145181, 1.09961970816353, -1.19851593439487], a = 0.2, v = 0.2, t = 0.2)
movej(p[0.388354938867836, -0.108720647703338, 0.381110935323359, -1.16765141521203, 1.1000691813189, -1.20171225614322], a = 0.2, v = 0.2, t = 0.2)
movej(p[0.388354938867836, -0.108720647703338, 0.381110935323359, -1.16760245847907, 1.10014477468924, -1.20178363530384], a = 0.2, v = 0.2, t = 0.2)
movej(p[0.387449678274726, -0.108409379308558, 0.381347367438296, -1.16599357155769, 1.1097762896839, -1.19649531198767], a = 0.2, v = 0.2, t = 0.2)
movej(p[0.38466497498969, -0.107444672344931, 0.382043582648299, -1.16613755917507, 1.11943357141145, -1.1863420436535], a = 0.2, v = 0.2, t = 0.2)
movej(p[0.382623187590373, -0.106997785538805, 0.382576563115577, -1.16582665289572, 1.12816867412987, -1.17660006459894], a = 0.2, v = 0.2, t = 0.2)
movej(p[0.38015757612732, -0.10640708962592, 0.38327679741334, -1.15331177314386, 1.13827015873988, -1.15926477774265], a = 0.2, v = 0.2, t = 0.2)
movej(p[0.3776059442869, -0.105746037008656, 0.383960339832041, -1.15001045134903, 1.14385770241774, -1.14643844139462], a = 0.2, v = 0.2, t = 0.2)
movej(p[0.37579487860077, -0.1055041240652, 0.384466891022257, -1.15269373439699, 1.14389325429555, -1.14406280193658], a = 0.2, v = 0.2, t = 0.2)
movej(p[0.37579487860077, -0.1055041240652, 0.384466891022257, -1.15574379004035, 1.14191026783492, -1.14757635159393], a = 0.2, v = 0.2, t = 0.2)
movej(p[0.376940424788119, -0.10579243321132, 0.384209990245861, -1.15960075415619, 1.13606618825826, -1.15661577192055], a = 0.2, v = 0.2, t = 0.2)
movej(p[0.379663904136472, -0.106355493372853, 0.383491747645073, -1.15686718732182, 1.12943089666, -1.16327369480029], a = 0.2, v = 0.2, t = 0.2)
movej(p[0.382572480545381, -0.107127903578398, 0.382695612186807, -1.16209430588012, 1.12127999998456, -1.17843172420535], a = 0.2, v = 0.2, t = 0.2)
movej(p[0.38510363241398, -0.107840621706002, 0.382003704614457, -1.16465597209634, 1.11396219561197, -1.18731739474654], a = 0.2, v = 0.2, t = 0.2)
movej(p[0.386070846866952, -0.108168930155497, 0.381708881440413, -1.17356902255811, 1.10785433995325, -1.1973600695014], a = 0.2, v = 0.2, t = 0.2)
movej(p[0.386971989813556, -0.108513386258355, 0.38142728926547, -1.17480609078867, 1.10700628012947, -1.19876835050269], a = 0.2, v = 0.2, t = 0.2)
movej(p[0.387557585256423, -0.108668469162133, 0.381266246102783, -1.17371666866564, 1.10207138705385, -1.20344800534684], a = 0.2, v = 0.2, t = 0.2)
movej(p[0.387899972952672, -0.108705365756118, 0.381180724779067, -1.17395462384164, 1.10042553049499, -1.20264167886075], a = 0.2, v = 0.2, t = 0.2)
movej(p[0.388485327362073, -0.108892915054609, 0.381003369807246, -1.17316746625722, 1.09923963881435, -1.20291793419734], a = 0.2, v = 0.2, t = 0.2)
movej(p[0.388485327362073, -0.108892915054609, 0.381003369807246, -1.17112947027385, 1.10065073080415, -1.20060426969772], a = 0.2, v = 0.2, t = 0.2)
movej(p[0.388251542032613, -0.1087281286037, 0.381101419515689, -1.16848764470374, 1.10381948057518, -1.20106274907384], a = 0.2, v = 0.2, t = 0.2)
movej(p[0.387742283164379, -0.10850092632618, 0.381275713463418, -1.16737469664747, 1.10743057169777, -1.19779357748757], a = 0.2, v = 0.2, t = 0.2)
movej(p[0.387106931411031, -0.108238072425493, 0.381480989439635, -1.16378905032037, 1.11205827688385, -1.19455907517581], a = 0.2, v = 0.2, t = 0.2)
movej(p[0.384878655683201, -0.107577564417472, 0.382126503081708, -1.16380718324185, 1.12169871460105, -1.18433933171889], a = 0.2, v = 0.2, t = 0.2)
movej(p[0.382900625972065, -0.107010642636184, 0.382713540666334, -1.16364866647736, 1.1305898029085, -1.17782742878758], a = 0.2, v = 0.2, t = 0.2)
movej(p[0.380573483820565, -0.106464137087597, 0.383339638863165, -1.15630253131228, 1.13770041751852, -1.16498050286685], a = 0.2, v = 0.2, t = 0.2)
movej(p[0.37800006293929, -0.105966344315054, 0.383984600058452, -1.14914485564363, 1.14516632943325, -1.1536696292186], a = 0.2, v = 0.2, t = 0.2)
movej(p[0.376917484319216, -0.105814735517064, 0.384230529039521, -1.1483776288752, 1.14815295336474, -1.14817480245899], a = 0.2, v = 0.2, t = 0.2)
movej(p[0.376917484319216, -0.105814735517064, 0.384230529039521, -1.14928419084709, 1.1468610936991, -1.14694597535302], a = 0.2, v = 0.2, t = 0.2)
movej(p[0.380199356280945, -0.106498911659246, 0.383426216766032, -1.15461965849376, 1.13075590470336, -1.16218105247504], a = 0.2, v = 0.2, t = 0.2)
movej(p[0.382262787661431, -0.107156879244004, 0.382781792801989, -1.16661506720981, 1.12016324423373, -1.17575758576051], a = 0.2, v = 0.2, t = 0.2)
movej(p[0.384335612397386, -0.107795168741694, 0.382129991320589, -1.17072172537152, 1.11339980021528, -1.18471701005517], a = 0.2, v = 0.2, t = 0.2)
movej(p[0.385764449433266, -0.108240261874464, 0.381705309536125, -1.17261845876622, 1.10813159549555, -1.19280405128423], a = 0.2, v = 0.2, t = 0.2)
movej(p[0.386692822002803, -0.108584044247768, 0.381377398966095, -1.16981979283322, 1.10740809155143, -1.19538176294447], a = 0.2, v = 0.2, t = 0.2)
movej(p[0.387839403386508, -0.10870910335914, 0.381181371291505, -1.17241093602755, 1.10232675580962, -1.20176853520799], a = 0.2, v = 0.2, t = 0.2)
movej(p[0.388152911874214, -0.108823860487319, 0.381071112778599, -1.17405915883891, 1.09927546875503, -1.20124562467941], a = 0.2, v = 0.2, t = 0.2)
movej(p[0.388281973482999, -0.108824923721891, 0.381029291005918, -1.17237125840884, 1.09769039516769, -1.2021818131356], a = 0.2, v = 0.2, t = 0.2)
movej(p[0.388353644006834, -0.108820154617456, 0.381035536136508, -1.17275876174473, 1.09723602932566, -1.20206256642786], a = 0.2, v = 0.2, t = 0.2)
movej(p[0.388349375658097, -0.108786595027703, 0.381058892830081, -1.171965866215, 1.0986964163758, -1.2023504350456], a = 0.2, v = 0.2, t = 0.2)
movej(p[0.388305218317643, -0.108523324553256, 0.381267627509922, -1.17497843100827, 1.10152696026212, -1.20067572393986], a = 0.2, v = 0.2, t = 0.2)
movej(p[0.387073262318155, -0.10809554990069, 0.381673112999119, -1.16834807833113, 1.11438414528432, -1.19684242721229], a = 0.2, v = 0.2, t = 0.2)
movej(p[0.385172362875744, -0.107633986636333, 0.382150452158248, -1.16384968583364, 1.12364070516134, -1.18776550900126], a = 0.2, v = 0.2, t = 0.2)
movej(p[0.383378416345194, -0.107155703094473, 0.382650629595875, -1.15988631886272, 1.13533388017287, -1.17512018179265], a = 0.2, v = 0.2, t = 0.2)
movej(p[0.381075043786031, -0.106638806415011, 0.383219354877936, -1.15832423446545, 1.14117160709093, -1.16805610816867], a = 0.2, v = 0.2, t = 0.2)
movej(p[0.378598207692348, -0.106140052325355, 0.383761876751304, -1.15626018055934, 1.14503384392803, -1.1565359308964], a = 0.2, v = 0.2, t = 0.2)
movej(p[0.378289012968279, -0.106139973799822, 0.383805144596662, -1.15788011288281, 1.14262184299045, -1.15410147076072], a = 0.2, v = 0.2, t = 0.2)
movej(p[0.378289012968279, -0.106139973799822, 0.383805144596662, -1.15258571643717, 1.13938807742966, -1.1554649546963], a = 0.2, v = 0.2, t = 0.2)
movej(p[0.380244126566565, -0.106633558394058, 0.383294634972724, -1.14593287991058, 1.13333847723203, -1.15937303687385], a = 0.2, v = 0.2, t = 0.2)
movej(p[0.382257177698539, -0.10724909915934, 0.382662608006265, -1.15957203308326, 1.12103657238304, -1.17268021308219], a = 0.2, v = 0.2, t = 0.2)
movej(p[0.384230331816846, -0.107859784820789, 0.382032176742517, -1.16718724602366, 1.1114086643751, -1.1840292321859], a = 0.2, v = 0.2, t = 0.2)
movej(p[0.386412001166171, -0.108433661707223, 0.381432825577146, -1.17409153127508, 1.10447062295635, -1.19423182468625], a = 0.2, v = 0.2, t = 0.2)
movej(p[0.387034704843209, -0.108665422605934, 0.38117809162489, -1.1762355642043, 1.10196583286945, -1.19774675781518], a = 0.2, v = 0.2, t = 0.2)
movej(p[0.387529330210594, -0.108748295903714, 0.381092689444271, -1.18198580339336, 1.09715032898336, -1.20184157328977], a = 0.2, v = 0.2, t = 0.2)
movej(p[0.387939687374652, -0.108802850690385, 0.381037224562072, -1.18265487346194, 1.09658090205147, -1.20271165165022], a = 0.2, v = 0.2, t = 0.2)
movej(p[0.388283823140742, -0.108802067608214, 0.381042562284447, -1.18061709823506, 1.09570230776713, -1.20421344608545], a = 0.2, v = 0.2, t = 0.2)
movej(p[0.388595356319243, -0.108781337548158, 0.381069708247371, -1.17950341696943, 1.09592586871624, -1.20526408557495], a = 0.2, v = 0.2, t = 0.2)
movej(p[0.388597941171795, -0.108765147457018, 0.381083096282558, -1.17808731592266, 1.09691317714302, -1.20365205141604], a = 0.2, v = 0.2, t = 0.2)
movej(p[0.388588900756548, -0.108738928062354, 0.381111407662524, -1.17817632300893, 1.09666050491771, -1.20318148935946], a = 0.2, v = 0.2, t = 0.2)
movej(p[0.388304299590465, -0.10860045674548, 0.38126780318889, -1.1778079047244, 1.09697171072775, -1.20270569698787], a = 0.2, v = 0.2, t = 0.2)
movej(p[0.387147742243209, -0.108130179046596, 0.381753400314542, -1.17343856593608, 1.11158882109482, -1.1957456115738], a = 0.2, v = 0.2, t = 0.2)
movej(p[0.38616944584699, -0.107771777146049, 0.382151266949017, -1.17301088209819, 1.12188756198872, -1.19167207739816], a = 0.2, v = 0.2, t = 0.2)
movej(p[0.384172052403787, -0.107310928172545, 0.38262475544589, -1.16748512623435, 1.13336135874735, -1.17993138029667], a = 0.2, v = 0.2, t = 0.2)
movej(p[0.382517175558621, -0.106905642227753, 0.383038197461518, -1.16677480941978, 1.1391035800375, -1.17336592434731], a = 0.2, v = 0.2, t = 0.2)
movej(p[0.382110926239196, -0.106774762131943, 0.383182189756406, -1.16521587111028, 1.14129299388297, -1.17029225807453], a = 0.2, v = 0.2, t = 0.2)
movej(p[0.380605962034577, -0.106478282979836, 0.383471839881873, -1.16296048172119, 1.14414327616951, -1.16525029265644], a = 0.2, v = 0.2, t = 0.2)
movej(p[0.377987424147446, -0.105832713524439, 0.384154593242846, -1.15222799870477, 1.15067165993423, -1.15171346933415], a = 0.2, v = 0.2, t = 0.2)
movej(p[0.377987424147446, -0.105832713524439, 0.384154593242846, -1.15070661556524, 1.1441767448363, -1.15095825289232], a = 0.2, v = 0.2, t = 0.2)
movej(p[0.381164187193933, -0.106869239745925, 0.383031515071634, -1.15213066142326, 1.12871260198349, -1.16599036452017], a = 0.2, v = 0.2, t = 0.2)
movej(p[0.383372851482688, -0.107560732259111, 0.382243352763613, -1.15990220341321, 1.12085547619833, -1.17774857410836], a = 0.2, v = 0.2, t = 0.2)
movej(p[0.385193908278537, -0.108112237523285, 0.381639207143848, -1.16811875337096, 1.11423620623389, -1.18826022160522], a = 0.2, v = 0.2, t = 0.2)
movej(p[0.386380139203316, -0.108433191269676, 0.381290141611643, -1.17131173649666, 1.10811375567541, -1.19464148694466], a = 0.2, v = 0.2, t = 0.2)
movej(p[0.387394341019664, -0.108553239986307, 0.381242578060972, -1.17544814626312, 1.10527502636091, -1.19935078172738], a = 0.2, v = 0.2, t = 0.2)
movej(p[0.387692381008648, -0.108583295016066, 0.381250929117961, -1.17742089435694, 1.10446701796049, -1.20102400609795], a = 0.2, v = 0.2, t = 0.2)
movej(p[0.3879157776631, -0.108654809393981, 0.381185866313449, -1.18028297459447, 1.10214117706715, -1.20323762368766], a = 0.2, v = 0.2, t = 0.2)
movej(p[0.387980887500981, -0.108650476851117, 0.38119153976773, -1.18000386011239, 1.1018779624714, -1.20339295701512], a = 0.2, v = 0.2, t = 0.2)
movej(p[0.388004453671359, -0.108656890773195, 0.381242319953012, -1.17985970566548, 1.10182006167294, -1.20350113933322], a = 0.2, v = 0.2, t = 0.2)
movej(p[0.388555600290415, -0.108656315195847, 0.381304643407776, -1.17923696271129, 1.10187171118967, -1.2039502587696], a = 0.2, v = 0.2, t = 0.2)
movej(p[0.38855374401573, -0.108656467294354, 0.381326062584005, -1.17646271887076, 1.10428097314305, -1.20227257015737], a = 0.2, v = 0.2, t = 0.2)
movej(p[0.387976902287025, -0.108428585584909, 0.381596588103179, -1.17667346939354, 1.10860796768611, -1.19826460879269], a = 0.2, v = 0.2, t = 0.2)
movej(p[0.386743136033833, -0.108045479918146, 0.382039642524871, -1.17892763539968, 1.11917955750452, -1.19249782230675], a = 0.2, v = 0.2, t = 0.2)
movej(p[0.385152470363946, -0.107655924767243, 0.382427822175348, -1.17450116688224, 1.13181473716774, -1.18283899877252], a = 0.2, v = 0.2, t = 0.2)
movej(p[0.38379775761792, -0.107291853297532, 0.382831451412023, -1.17159898091663, 1.13702359938973, -1.17624691036911], a = 0.2, v = 0.2, t = 0.2)
movej(p[0.383371309048812, -0.107177321749306, 0.382951895558276, -1.16915513462807, 1.13876334058553, -1.17386388099816], a = 0.2, v = 0.2, t = 0.2)
movej(p[0.382897794652002, -0.107042924914947, 0.383108954295467, -1.16677824378024, 1.14031692560974, -1.17113791153591], a = 0.2, v = 0.2, t = 0.2)
movej(p[0.380892579019801, -0.10656548589189, 0.383526775534324, -1.16279685019146, 1.14562477224428, -1.16331509607199], a = 0.2, v = 0.2, t = 0.2)
movej(p[0.380634127754931, -0.106582683771962, 0.383504254952448, -1.16354807871237, 1.1445310082031, -1.16229175962523], a = 0.2, v = 0.2, t = 0.2)
movej(p[0.380665075877713, -0.106682578207073, 0.383225371884603, -1.15915401233725, 1.13297375876916, -1.16545577251235], a = 0.2, v = 0.2, t = 0.2)
movej(p[0.384251179421114, -0.107671710336536, 0.382129573332648, -1.16486382839969, 1.11691636155903, -1.18346732971438], a = 0.2, v = 0.2, t = 0.2)
movej(p[0.385570255340922, -0.108089853659123, 0.381560864171865, -1.17008815219467, 1.11334806198921, -1.18943313366428], a = 0.2, v = 0.2, t = 0.2)
movej(p[0.386575043172671, -0.10834575398857, 0.38130484312867, -1.17291712262927, 1.10964493206257, -1.19432308018898], a = 0.2, v = 0.2, t = 0.2)
movej(p[0.387237345753288, -0.108490796556085, 0.381207131843155, -1.17518994130685, 1.10786152602984, -1.19634828197769], a = 0.2, v = 0.2, t = 0.2)
movej(p[0.387553885123156, -0.108566671461169, 0.38117671020444, -1.17699710156854, 1.10657730968464, -1.19843394198798], a = 0.2, v = 0.2, t = 0.2)
movej(p[0.388183346183852, -0.108662763904895, 0.381210704841154, -1.17613267785041, 1.10330685345904, -1.20147961618463], a = 0.2, v = 0.2, t = 0.2)
movej(p[0.388405718371772, -0.108705410747978, 0.381242722755124, -1.17637813013455, 1.10311605602201, -1.20190489727268], a = 0.2, v = 0.2, t = 0.2)
movej(p[0.388451111115529, -0.108711893942058, 0.381233561586602, -1.17671784458402, 1.10294502368295, -1.20248169015129], a = 0.2, v = 0.2, t = 0.2)
movej(p[0.388472624334563, -0.108729521689252, 0.381248349890618, -1.17679208992113, 1.10327807887542, -1.20300013072374], a = 0.2, v = 0.2, t = 0.2)
movej(p[0.388528058119246, -0.108726234825609, 0.381253879993968, -1.17760481589105, 1.10483138637881, -1.20282701652267], a = 0.2, v = 0.2, t = 0.2)
movej(p[0.38856144263139, -0.108736672707285, 0.381280488544756, -1.1776863110155, 1.10477528546593, -1.20291976723681], a = 0.2, v = 0.2, t = 0.2)
movej(p[0.388732487672191, -0.108766782536271, 0.38129509820648, -1.17661566605022, 1.10373326924923, -1.20381615044517], a = 0.2, v = 0.2, t = 0.2)
movej(p[0.388718837577884, -0.108767900990869, 0.381452603869822, -1.17661566605022, 1.10373326924923, -1.20381615044517], a = 0.2, v = 0.2, t = 0.2)
movej(p[0.387602870092478, -0.108443125778929, 0.381922918672081, -1.17695374693908, 1.11109483123531, -1.19665319294721], a = 0.2, v = 0.2, t = 0.2)
movej(p[0.386242110272651, -0.108083044446141, 0.382235053637319, -1.17730366734358, 1.12113403529251, -1.18646630289156], a = 0.2, v = 0.2, t = 0.2)
movej(p[0.385112660611247, -0.10778939869362, 0.382450927684811, -1.1788716698637, 1.13170322824828, -1.17543439137963], a = 0.2, v = 0.2, t = 0.2)
movej(p[0.38383378135393, -0.107461480731769, 0.382716128109963, -1.17487148726533, 1.13498760253734, -1.17000696498844], a = 0.2, v = 0.2, t = 0.2)
movej(p[0.382891414491567, -0.107215007935016, 0.383091922039105, -1.17376474291557, 1.13840040642393, -1.16574356426585], a = 0.2, v = 0.2, t = 0.2)
movej(p[0.381127836899232, -0.106757291732282, 0.383547909860838, -1.16745809676923, 1.14272542340781, -1.15808592562786], a = 0.2, v = 0.2, t = 0.2)
movej(p[0.380775151782875, -0.106666604088619, 0.383590461123889, -1.16621799277523, 1.14353299705276, -1.15665480925241], a = 0.2, v = 0.2, t = 0.2)
movej(p[0.380775151782875, -0.106666604088619, 0.383590461123889, -1.16531678272465, 1.14291612401602, -1.15725463212387], a = 0.2, v = 0.2, t = 0.2)
movej(p[0.381366396758677, -0.106843419372004, 0.383323453644311, -1.16141658813355, 1.13759320862047, -1.16287920678502], a = 0.2, v = 0.2, t = 0.2)
movej(p[0.38317597504424, -0.107332228965917, 0.382552633951181, -1.16320867029017, 1.1245201594759, -1.17789664801157], a = 0.2, v = 0.2, t = 0.2)
movej(p[0.385450190952336, -0.107942705450616, 0.381857755073252, -1.16585297397921, 1.11433494198916, -1.18930656664979], a = 0.2, v = 0.2, t = 0.2)
movej(p[0.386248871710117, -0.10813193849097, 0.381429362725528, -1.16969728307754, 1.11122408859155, -1.19215846310771], a = 0.2, v = 0.2, t = 0.2)
movej(p[0.386582838831892, -0.10819855082994, 0.381336175345102, -1.17147393178187, 1.11055632682736, -1.19227708032693], a = 0.2, v = 0.2, t = 0.2)
movej(p[0.386886362215405, -0.108436613053366, 0.38105022195128, -1.1761552673898, 1.10363031084375, -1.19916386379213], a = 0.2, v = 0.2, t = 0.2)
movej(p[0.387427448632976, -0.108562760403175, 0.381016519357084, -1.17647873259177, 1.1026023684538, -1.20063216034183], a = 0.2, v = 0.2, t = 0.2)
movej(p[0.388365027701514, -0.108777009328464, 0.380965460780403, -1.17708618697752, 1.09927297711731, -1.20449842427618], a = 0.2, v = 0.2, t = 0.2)
movej(p[0.388537005322649, -0.108810364130757, 0.380979927466025, -1.17696104414146, 1.09959298818624, -1.20505473754391], a = 0.2, v = 0.2, t = 0.2)
movej(p[0.388708669264936, -0.108851256651202, 0.380994514195957, -1.17703226197661, 1.10017400314798, -1.20520056098078], a = 0.2, v = 0.2, t = 0.2)
movej(p[0.388699664174257, -0.108851994505816, 0.381098422106687, -1.17530481977385, 1.1018602280006, -1.2047098522029], a = 0.2, v = 0.2, t = 0.2)
movej(p[0.388448829079038, -0.108703789791453, 0.381507551887621, -1.17246902215881, 1.10456740059413, -1.20375352112205], a = 0.2, v = 0.2, t = 0.2)
movej(p[0.387960976492622, -0.108528794126956, 0.381844335529348, -1.17028062800164, 1.11004301476348, -1.19958673233894], a = 0.2, v = 0.2, t = 0.2)
movej(p[0.386750616656943, -0.108191930278066, 0.382208788208698, -1.16971365125344, 1.11996814952198, -1.19087663889675], a = 0.2, v = 0.2, t = 0.2)
movej(p[0.384950302579286, -0.107726191474727, 0.382552639468482, -1.17045069130189, 1.13096643944501, -1.17938697515355], a = 0.2, v = 0.2, t = 0.2)
movej(p[0.383453281441727, -0.107344844030136, 0.382802927802619, -1.16694474693392, 1.13566123410988, -1.17262505200765], a = 0.2, v = 0.2, t = 0.2)
movej(p[0.381658377672935, -0.106906354253769, 0.383107806904558, -1.16261930805988, 1.13849791491722, -1.16766731542325], a = 0.2, v = 0.2, t = 0.2)
movej(p[0.380498053468507, -0.10660311207029, 0.383756108785457, -1.1393865031752, 1.11999132244676, -1.17926955034032], a = 0.2, v = 0.2, t = 0.2)
movej(p[0.380344084590388, -0.106560917938714, 0.383800681420909, -1.13937517672749, 1.12000792176523, -1.17928559241401], a = 0.2, v = 0.2, t = 0.2)
movej(p[0.380344084590388, -0.106560917938714, 0.383800681420909, -1.13943663665001, 1.11997749078285, -1.1793434378894], a = 0.2, v = 0.2, t = 0.2)
movej(p[0.381642708013016, -0.106927729061759, 0.383172345415087, -1.1495433404844, 1.12175916222133, -1.17911786495017], a = 0.2, v = 0.2, t = 0.2)
movej(p[0.382811510843, -0.107287383528993, 0.382487137746698, -1.15859978596493, 1.12031347255356, -1.18166113674739], a = 0.2, v = 0.2, t = 0.2)
movej(p[0.383828684814093, -0.107572239665664, 0.382091456241023, -1.1631615647133, 1.11664784952812, -1.18500657023331], a = 0.2, v = 0.2, t = 0.2)
movej(p[0.385222311035998, -0.107955135164183, 0.381665469514902, -1.16811223503478, 1.1100372475303, -1.19197176498517], a = 0.2, v = 0.2, t = 0.2)
movej(p[0.385436231732695, -0.108003595756636, 0.381651142390147, -1.16917162221146, 1.10910924117501, -1.19255295291502], a = 0.2, v = 0.2, t = 0.2)
movej(p[0.386009356213178, -0.108152378586112, 0.381478322803513, -1.17170679859272, 1.10866873768063, -1.1940384935088], a = 0.2, v = 0.2, t = 0.2)
movej(p[0.386756320063012, -0.108330459389211, 0.38137747551992, -1.17485381417317, 1.10877174948153, -1.19529614027537], a = 0.2, v = 0.2, t = 0.2)
movej(p[0.387207600422248, -0.108455957524793, 0.38117669572678, -1.17792069629875, 1.10929630117007, -1.19641961143006], a = 0.2, v = 0.2, t = 0.2)
movej(p[0.387892774874593, -0.108606557960957, 0.381205194296584, -1.17864400096918, 1.10915894645627, -1.19809230181264], a = 0.2, v = 0.2, t = 0.2)
movej(p[0.388438214622041, -0.108721479840501, 0.381238800003037, -1.17950887546821, 1.10874809304752, -1.1996228902595], a = 0.2, v = 0.2, t = 0.2)
movej(p[0.388806544440596, -0.108817030326231, 0.38126632852352, -1.17902960616856, 1.1083853335882, -1.19992346052392], a = 0.2, v = 0.2, t = 0.2)
movej(p[0.388806544440596, -0.108817030326231, 0.38126632852352, -1.17844750005808, 1.10899488201557, -1.20041413124489], a = 0.2, v = 0.2, t = 0.2)
movej(p[0.388159959365287, -0.108605932451309, 0.381694305681311, -1.17517193055765, 1.1117735522366, -1.19834226563603], a = 0.2, v = 0.2, t = 0.2)
movej(p[0.387373591471433, -0.108386194580892, 0.382033140233592, -1.17103162365993, 1.11454549735758, -1.19525531016735], a = 0.2, v = 0.2, t = 0.2)
movej(p[0.386786477373864, -0.108225437927558, 0.382298484509667, -1.1675101346843, 1.11728144574271, -1.1928632906704], a = 0.2, v = 0.2, t = 0.2)
movej(p[0.385040491983423, -0.107781818324248, 0.382402869728568, -1.1610985449384, 1.12157456616676, -1.18600779271035], a = 0.2, v = 0.2, t = 0.2)
movej(p[0.383637348873143, -0.107412717631275, 0.383155264239793, -1.15026588902035, 1.11958650062615, -1.18702153981397], a = 0.2, v = 0.2, t = 0.2)
movej(p[0.381159886052035, -0.106788096883898, 0.383448384866799, -1.14200954797802, 1.12356026858338, -1.17943871373076], a = 0.2, v = 0.2, t = 0.2)
movej(p[0.37904129358842, -0.106253680949804, 0.383418637892187, -1.13894552837325, 1.12482799577065, -1.17671688186187], a = 0.2, v = 0.2, t = 0.2)
movej(p[0.379054201172854, -0.10625262333461, 0.383269699899337, -1.1395199302708, 1.12399044100569, -1.17590854664795], a = 0.2, v = 0.2, t = 0.2)
movej(p[0.380951604210167, -0.106765168745074, 0.383425578622087, -1.14401815581526, 1.121043645182, -1.18075027245637], a = 0.2, v = 0.2, t = 0.2)
movej(p[0.382183305364456, -0.107099202488084, 0.382906406911519, -1.15005994603341, 1.11906718631725, -1.18336240460636], a = 0.2, v = 0.2, t = 0.2)
movej(p[0.383193436891504, -0.10737213213019, 0.382458906946689, -1.15739621084582, 1.11747928559992, -1.18499554165875], a = 0.2, v = 0.2, t = 0.2)
movej(p[0.384284370531913, -0.107662534504208, 0.382017582912232, -1.1648022604308, 1.11591100138087, -1.1868405683818], a = 0.2, v = 0.2, t = 0.2)
movej(p[0.38551995317858, -0.107986401506786, 0.381584642410666, -1.17201500221433, 1.11435392090265, -1.18935503334848], a = 0.2, v = 0.2, t = 0.2)
movej(p[0.386530941726422, -0.108246045609474, 0.381289181980029, -1.17557365496856, 1.11169118292191, -1.1926879399246], a = 0.2, v = 0.2, t = 0.2)
movej(p[0.387029618163328, -0.108384494002369, 0.381144312853645, -1.17708391108972, 1.10952042833726, -1.19524708625226], a = 0.2, v = 0.2, t = 0.2)
movej(p[0.387595124046903, -0.10853938673278, 0.381039347346414, -1.17865204353889, 1.10733102998162, -1.19820577881233], a = 0.2, v = 0.2, t = 0.2)
movej(p[0.387973376014276, -0.108673467001467, 0.381070172348072, -1.17756135194339, 1.10596715013741, -1.20001203842497], a = 0.2, v = 0.2, t = 0.2)
movej(p[0.388125031084017, -0.108679310708905, 0.381083273909241, -1.17861608505758, 1.10503651276848, -1.2021915336109], a = 0.2, v = 0.2, t = 0.2)
movej(p[0.389049456869939, -0.10889340901386, 0.381164578350317, -1.17811431836039, 1.10581555335666, -1.20291734749889], a = 0.2, v = 0.2, t = 0.2)
movej(p[0.389035236942473, -0.108894574159161, 0.381328659202641, -1.17840447043457, 1.10965380534214, -1.20108763218738], a = 0.2, v = 0.2, t = 0.2)
movej(p[0.388673872461553, -0.108772611846249, 0.381687069744002, -1.17620872521867, 1.11262588921546, -1.19827450422745], a = 0.2, v = 0.2, t = 0.2)
movej(p[0.387871829154855, -0.10856467499541, 0.381974674838262, -1.17472347990009, 1.11814454217966, -1.19222386496584], a = 0.2, v = 0.2, t = 0.2)
movej(p[0.386898043911336, -0.108296125872445, 0.382186194785452, -1.17334803151474, 1.12467460734312, -1.18467075075692], a = 0.2, v = 0.2, t = 0.2)
movej(p[0.385504199733636, -0.107926293678529, 0.382324488771714, -1.1725833992511, 1.12624524254613, -1.18228205702334], a = 0.2, v = 0.2, t = 0.2)
movej(p[0.384354839238424, -0.107629815652851, 0.382502320777648, -1.17004144989306, 1.12679191210327, -1.18060981077571], a = 0.2, v = 0.2, t = 0.2)
movej(p[0.382676580449592, -0.107231303597178, 0.382842922288496, -1.15184830582619, 1.12113237321516, -1.18318689450578], a = 0.2, v = 0.2, t = 0.2)
movej(p[0.380898046621233, -0.1067686144101, 0.383331677173428, -1.14419013324555, 1.12507934197828, -1.17908290402918], a = 0.2, v = 0.2, t = 0.2)
movej(p[0.380248692886864, -0.106587129999283, 0.383580833562653, -1.14184908597521, 1.12650513030051, -1.17664653700695], a = 0.2, v = 0.2, t = 0.2)
movej(p[0.380248692886864, -0.106587129999283, 0.383580833562653, -1.14181839873496, 1.12654991136547, -1.17668959557844], a = 0.2, v = 0.2, t = 0.2)
movej(p[0.382182285704284, -0.107107560514476, 0.383187717262712, -1.14773552591581, 1.12273989039936, -1.18324250083146], a = 0.2, v = 0.2, t = 0.2)
movej(p[0.383762967298648, -0.107520333748642, 0.382650149765187, -1.15535559920993, 1.11712951442971, -1.1888780144617], a = 0.2, v = 0.2, t = 0.2)
movej(p[0.384647079678441, -0.107736564152649, 0.381933860178302, -1.16245794983687, 1.11585729484477, -1.18836490329552], a = 0.2, v = 0.2, t = 0.2)
movej(p[0.38546739285458, -0.107940407849241, 0.381442696203226, -1.17235282707591, 1.1112348210715, -1.1904353319293], a = 0.2, v = 0.2, t = 0.2)
movej(p[0.386115691474878, -0.108108006887769, 0.381250460927577, -1.17454478559583, 1.10947836629165, -1.19137699725522], a = 0.2, v = 0.2, t = 0.2)
movej(p[0.386811782258498, -0.108289432080747, 0.381038680663359, -1.17750707614795, 1.1070224356566, -1.19425174377518], a = 0.2, v = 0.2, t = 0.2)
movej(p[0.387448455935499, -0.108457022572791, 0.380935978346, -1.17927204435198, 1.10557593592432, -1.19622826642761], a = 0.2, v = 0.2, t = 0.2)
movej(p[0.387731069954459, -0.108535766502003, 0.380910325277961, -1.17944173680765, 1.10545902574339, -1.19642221768211], a = 0.2, v = 0.2, t = 0.2)
movej(p[0.387879281485586, -0.108579823131197, 0.380922857056159, -1.18014116798051, 1.10626049929098, -1.19678931309822], a = 0.2, v = 0.2, t = 0.2)
movej(p[0.388329476406994, -0.10869815512343, 0.381083492893857, -1.17972150783055, 1.10769535084697, -1.1983036387863], a = 0.2, v = 0.2, t = 0.2)
movej(p[0.388676694562933, -0.108808181965028, 0.381292779530588, -1.18096168147038, 1.10845296544723, -1.19806248951491], a = 0.2, v = 0.2, t = 0.2)
movej(p[0.389124474677875, -0.108930621542457, 0.381330716564488, -1.18110353405562, 1.10890151740535, -1.19809376046297], a = 0.2, v = 0.2, t = 0.2)
movej(p[0.389116851000916, -0.108931246207485, 0.381418684623141, -1.18140456509543, 1.11053873400374, -1.19779003111396], a = 0.2, v = 0.2, t = 0.2)
movej(p[0.388511461422256, -0.108772286096225, 0.38151530403671, -1.17894847006458, 1.11226155106332, -1.19511842606092], a = 0.2, v = 0.2, t = 0.2)
movej(p[0.387088534286086, -0.108426439248912, 0.382106118502813, -1.16852840766839, 1.11236679219277, -1.19610023589593], a = 0.2, v = 0.2, t = 0.2)
movej(p[0.385924799796052, -0.108100670075429, 0.38214599810053, -1.16556477343697, 1.11452529175501, -1.19318839329206], a = 0.2, v = 0.2, t = 0.2)
movej(p[0.385255572380289, -0.107931035830948, 0.38239676083518, -1.1627362858661, 1.11689204441275, -1.19025415055859], a = 0.2, v = 0.2, t = 0.2)
movej(p[0.38383187835978, -0.107520734992858, 0.382637749980641, -1.16331554256532, 1.12722418681349, -1.17944488923954], a = 0.2, v = 0.2, t = 0.2)
movej(p[0.382087872589703, -0.107029919512749, 0.382999708277166, -1.15742645093022, 1.13112592753154, -1.17272847312611], a = 0.2, v = 0.2, t = 0.2)
movej(p[0.381174179646527, -0.106827471168643, 0.383098525196563, -1.14625941324479, 1.12427489158506, -1.18039725900359], a = 0.2, v = 0.2, t = 0.2)
movej(p[0.381174179646527, -0.106827471168643, 0.383098525196563, -1.14684057162706, 1.12388876476989, -1.18105356198118], a = 0.2, v = 0.2, t = 0.2)
movej(p[0.382396159332225, -0.107143550160754, 0.382684135068197, -1.15275197342505, 1.11928992989967, -1.18565216120138], a = 0.2, v = 0.2, t = 0.2)
movej(p[0.38394725700828, -0.107555254638809, 0.38234787767856, -1.15966478657874, 1.11682732769594, -1.18820236364238], a = 0.2, v = 0.2, t = 0.2)
movej(p[0.384972603244906, -0.107808425741326, 0.381973907522146, -1.16449592652882, 1.11357645499913, -1.18953757474073], a = 0.2, v = 0.2, t = 0.2)
movej(p[0.385807628556298, -0.107985001970607, 0.38138544088368, -1.17034664901851, 1.10974616669962, -1.19160638744698], a = 0.2, v = 0.2, t = 0.2)
movej(p[0.386585113520863, -0.108188424941783, 0.381145325922312, -1.17585394087394, 1.10718525744835, -1.19396109165403], a = 0.2, v = 0.2, t = 0.2)
movej(p[0.386878370418994, -0.10826922286635, 0.381163040240937, -1.1771308584462, 1.10837046187299, -1.19325418671874], a = 0.2, v = 0.2, t = 0.2)
movej(p[0.387236381223341, -0.108365115205499, 0.381080662250775, -1.17680791233249, 1.10892423201024, -1.19388877477], a = 0.2, v = 0.2, t = 0.2)
movej(p[0.38759131196717, -0.108461358710186, 0.381032745396838, -1.17646131858916, 1.10944450736775, -1.19454859999728], a = 0.2, v = 0.2, t = 0.2)
movej(p[0.388005961452623, -0.108606607200576, 0.381036532249491, -1.17839777911729, 1.10764011273699, -1.19726022668641], a = 0.2, v = 0.2, t = 0.2)
movej(p[0.388437595276883, -0.108717493331967, 0.381073152020371, -1.18097267870206, 1.10523445168539, -1.19866587614116], a = 0.2, v = 0.2, t = 0.2)
movej(p[0.388523391988709, -0.108724216700498, 0.380932985082203, -1.17928089437369, 1.10118469761253, -1.2021679196451], a = 0.2, v = 0.2, t = 0.2)
movej(p[0.388785827222003, -0.108822208379638, 0.380955032965221, -1.17892778201109, 1.10173510445717, -1.20268136188964], a = 0.2, v = 0.2, t = 0.2)
movej(p[0.388753027280021, -0.108824895924872, 0.381333504827988, -1.17491701442959, 1.10694300329568, -1.19911736466787], a = 0.2, v = 0.2, t = 0.2)
movej(p[0.388231889439187, -0.108749893534923, 0.381714172258107, -1.17737747131166, 1.11305279950849, -1.19374207938982], a = 0.2, v = 0.2, t = 0.2)
movej(p[0.386823535760882, -0.108338077459618, 0.381961520488191, -1.17744870730157, 1.12248919180737, -1.18373484070504], a = 0.2, v = 0.2, t = 0.2)
movej(p[0.385402913767113, -0.107933992200792, 0.382282832850882, -1.17400218759749, 1.12781395269961, -1.17883469574705], a = 0.2, v = 0.2, t = 0.2)
movej(p[0.384255339330477, -0.10760791252406, 0.382447579282714, -1.17092837180234, 1.13285288712223, -1.17204676700246], a = 0.2, v = 0.2, t = 0.2)
movej(p[0.382923403379437, -0.107245210979585, 0.382761728963539, -1.16707162292452, 1.13539781237825, -1.16761434381558], a = 0.2, v = 0.2, t = 0.2)
movej(p[0.381671390294262, -0.10693800691556, 0.383295512100777, -1.16097841857212, 1.1393675666796, -1.1644926552467], a = 0.2, v = 0.2, t = 0.2)
movej(p[0.380321153015394, -0.106577406018553, 0.383215183875149, -1.15445153810344, 1.14306105259118, -1.1652373790431], a = 0.2, v = 0.2, t = 0.2)
movej(p[0.380321153015394, -0.106577406018553, 0.383215183875149, -1.15212770185215, 1.1409230466741, -1.16661237748724], a = 0.2, v = 0.2, t = 0.2)
movej(p[0.381773268851664, -0.10695480914881, 0.38272102964282, -1.15318096073414, 1.12588187507464, -1.18183274171169], a = 0.2, v = 0.2, t = 0.2)
movej(p[0.383462980884713, -0.107368215495602, 0.382246508180924, -1.15654810616807, 1.12275303789151, -1.18390127729979], a = 0.2, v = 0.2, t = 0.2)
movej(p[0.384989321213527, -0.107738613210497, 0.381636375938343, -1.16151530815378, 1.11811417370445, -1.18662436773827], a = 0.2, v = 0.2, t = 0.2)
movej(p[0.385808682582843, -0.107949629297088, 0.381367113227089, -1.16766798996077, 1.11201243239095, -1.19256442694454], a = 0.2, v = 0.2, t = 0.2)
movej(p[0.386646862672471, -0.108162992066698, 0.381092639100994, -1.1750846773611, 1.10545336361106, -1.19649790629502], a = 0.2, v = 0.2, t = 0.2)
movej(p[0.387137430965212, -0.108267845550771, 0.380978222069766, -1.1767944906453, 1.10538209567872, -1.19729182925444], a = 0.2, v = 0.2, t = 0.2)
movej(p[0.387668673325273, -0.108443839470764, 0.380930464086119, -1.17735185206377, 1.10519858634961, -1.19853008707158], a = 0.2, v = 0.2, t = 0.2)
movej(p[0.387889593136734, -0.108504758590886, 0.380913442990164, -1.17618775715322, 1.10413242647085, -1.19919063460388], a = 0.2, v = 0.2, t = 0.2)
movej(p[0.388301293082572, -0.108644632176106, 0.380948129367255, -1.17432632187815, 1.1035729980191, -1.20066439739957], a = 0.2, v = 0.2, t = 0.2)
movej(p[0.38846105877038, -0.108719456373139, 0.381012034175659, -1.17486513464406, 1.10350408058569, -1.20218710907175], a = 0.2, v = 0.2, t = 0.2)
movej(p[0.388862623124757, -0.108836088254647, 0.381073711347371, -1.17560409635995, 1.10420002007778, -1.20177427686102], a = 0.2, v = 0.2, t = 0.2)
movej(p[0.388856872990153, -0.108836559406299, 0.381140060981644, -1.17664116258324, 1.10555908703473, -1.20103180953788], a = 0.2, v = 0.2, t = 0.2)
movej(p[0.388581710190796, -0.10884603218394, 0.381481219361776, -1.17447817746975, 1.10817786403444, -1.19682802233814], a = 0.2, v = 0.2, t = 0.2)
movej(p[0.38694697448, -0.10838165700996, 0.381880464979961, -1.17800807973771, 1.11841640558545, -1.18910348253759], a = 0.2, v = 0.2, t = 0.2)
movej(p[0.385418825886213, -0.107948882478947, 0.382218961228997, -1.1730900209073, 1.12649785902437, -1.17787781728752], a = 0.2, v = 0.2, t = 0.2)
movej(p[0.383720672763622, -0.107458883683498, 0.382554071662579, -1.16871441888603, 1.13474190565993, -1.16703275580788], a = 0.2, v = 0.2, t = 0.2)
movej(p[0.382247941616766, -0.107032092493844, 0.38285918473918, -1.1655724742703, 1.13736574906838, -1.16280515909825], a = 0.2, v = 0.2, t = 0.2)
movej(p[0.381097695956132, -0.10676605643915, 0.383275923071705, -1.15992573395451, 1.14235307423164, -1.16036717800496], a = 0.2, v = 0.2, t = 0.2)
movej(p[0.381097695956132, -0.10676605643915, 0.383275923071705, -1.15715946323091, 1.14237873516458, -1.16284191071775], a = 0.2, v = 0.2, t = 0.2)
movej(p[0.381461956052759, -0.106915694713604, 0.383301409907989, -1.15373306877586, 1.13881345639483, -1.16532770445663], a = 0.2, v = 0.2, t = 0.2)
movej(p[0.382631744108517, -0.10716799870837, 0.382731881604186, -1.15878771418595, 1.13102863833835, -1.17367873746036], a = 0.2, v = 0.2, t = 0.2)
movej(p[0.383635512242501, -0.107335342221697, 0.382075895436843, -1.16154017902824, 1.12257137104228, -1.18047340041083], a = 0.2, v = 0.2, t = 0.2)
movej(p[0.385215690776282, -0.107743295919561, 0.381581982709961, -1.16296766274479, 1.11569098393609, -1.18810267126586], a = 0.2, v = 0.2, t = 0.2)
movej(p[0.38605777676952, -0.107939070772059, 0.381240016517009, -1.16502886032194, 1.11199720344512, -1.19211278327833], a = 0.2, v = 0.2, t = 0.2)
movej(p[0.386540191880711, -0.108050042079833, 0.381096844175597, -1.16864049764245, 1.10913858702669, -1.19499995804221], a = 0.2, v = 0.2, t = 0.2)
movej(p[0.387152900733088, -0.108233742813966, 0.381055188293684, -1.17178186962634, 1.10709166698754, -1.19517542539227], a = 0.2, v = 0.2, t = 0.2)
movej(p[0.387647298027659, -0.10842037537277, 0.381056257459383, -1.17522624037207, 1.10451353815865, -1.19845959291144], a = 0.2, v = 0.2, t = 0.2)
movej(p[0.388370537158058, -0.108668620237047, 0.381130021865567, -1.17311761608741, 1.10253411412774, -1.19963724517392], a = 0.2, v = 0.2, t = 0.2)
movej(p[0.38857057503859, -0.108767629861018, 0.381050393034649, -1.17201363669632, 1.10451203933051, -1.20205746268492], a = 0.2, v = 0.2, t = 0.2)
movej(p[0.388759128480328, -0.108804312271244, 0.381157716379681, -1.17311386775627, 1.10554805508272, -1.20144135299742], a = 0.2, v = 0.2, t = 0.2)
movej(p[0.388759128480328, -0.108804312271244, 0.381157716379681, -1.17467908630718, 1.1065030891935, -1.20037936466744], a = 0.2, v = 0.2, t = 0.2)
movej(p[0.388573100538931, -0.108805011749349, 0.3813281909401, -1.17492525920028, 1.11104206089384, -1.19572885126216], a = 0.2, v = 0.2, t = 0.2)
movej(p[0.387692931704155, -0.108604316633638, 0.381638183734885, -1.17411310895298, 1.11147810374965, -1.19399086272272], a = 0.2, v = 0.2, t = 0.2)
movej(p[0.386826316261896, -0.108386302800031, 0.381964129195959, -1.17655516370927, 1.12030006815173, -1.18620481873063], a = 0.2, v = 0.2, t = 0.2)
movej(p[0.38523550959638, -0.107917738837321, 0.382243948254996, -1.17178530116069, 1.12384491095641, -1.18037533177144], a = 0.2, v = 0.2, t = 0.2)
movej(p[0.383608666798081, -0.107459630755117, 0.382626668877175, -1.16395000240586, 1.13282212134817, -1.17101096430814], a = 0.2, v = 0.2, t = 0.2)
movej(p[0.381744856153142, -0.106933062645983, 0.383032802409716, -1.16229732233718, 1.1363464069538, -1.16644778610119], a = 0.2, v = 0.2, t = 0.2)
movej(p[0.379085840220964, -0.106230076247201, 0.383804903028517, -1.15638889998946, 1.1484724153739, -1.15045040094781], a = 0.2, v = 0.2, t = 0.2)
movej(p[0.379085840220964, -0.106230076247201, 0.383804903028517, -1.15589930974981, 1.14917489463556, -1.15111282677748], a = 0.2, v = 0.2, t = 0.2)
movej(p[0.380335143522267, -0.10662904154733, 0.383557011518685, -1.15003250077579, 1.13996766496434, -1.16167385104929], a = 0.2, v = 0.2, t = 0.2)
movej(p[0.381609888988567, -0.106861270647409, 0.382949845593073, -1.15389003253931, 1.1336954911618, -1.17019449221324], a = 0.2, v = 0.2, t = 0.2)
movej(p[0.382770567393059, -0.107107276997191, 0.3824638894971, -1.15531531835623, 1.12828044061389, -1.17668250294598], a = 0.2, v = 0.2, t = 0.2)
movej(p[0.383729935532791, -0.10727870386453, 0.381975370570525, -1.15354725858525, 1.12251844436903, -1.18294103156053], a = 0.2, v = 0.2, t = 0.2)
movej(p[0.384305929219764, -0.107404891711063, 0.381761604623859, -1.15502639387223, 1.1195868488575, -1.18669073092507], a = 0.2, v = 0.2, t = 0.2)
movej(p[0.38564811745937, -0.107782746639146, 0.381448737730776, -1.16215406851824, 1.11235467677597, -1.19296298366637], a = 0.2, v = 0.2, t = 0.2)
movej(p[0.386323980376692, -0.107945571053835, 0.38123322859647, -1.16674470192318, 1.10861483091163, -1.1962869680625], a = 0.2, v = 0.2, t = 0.2)
movej(p[0.386852452774525, -0.10808841874471, 0.381142303671718, -1.16643885757706, 1.1083282377612, -1.19645930216836], a = 0.2, v = 0.2, t = 0.2)
movej(p[0.387095765352987, -0.108199108085529, 0.381162604139474, -1.16596779198724, 1.10891272909518, -1.19672615349315], a = 0.2, v = 0.2, t = 0.2)
movej(p[0.387096017729855, -0.108201396376223, 0.381162609762248, -1.16586289574485, 1.10898358674259, -1.19661388680812], a = 0.2, v = 0.2, t = 0.2)
movej(p[0.38772047299635, -0.108400526302122, 0.381102991369465, -1.16583218824094, 1.10903046234913, -1.19665808367432], a = 0.2, v = 0.2, t = 0.2)
movej(p[0.388432673415425, -0.10869118065184, 0.381162649663605, -1.16904016313082, 1.10754391398548, -1.19955783670968], a = 0.2, v = 0.2, t = 0.2)
movej(p[0.388431274734035, -0.108691295256296, 0.381178788763833, -1.1712816206466, 1.10627756410798, -1.1981424267201], a = 0.2, v = 0.2, t = 0.2)
movej(p[0.387918138608614, -0.108607544013022, 0.381410147653955, -1.17590360876719, 1.11027777613279, -1.19542385897875], a = 0.2, v = 0.2, t = 0.2)
movej(p[0.386733962782414, -0.108323333937511, 0.381834112246369, -1.17532361089227, 1.11862560526591, -1.18600600345001], a = 0.2, v = 0.2, t = 0.2)
movej(p[0.3856819842129, -0.108027664010469, 0.382074882932969, -1.17156776231398, 1.12370629849195, -1.17896541982131], a = 0.2, v = 0.2, t = 0.2)
movej(p[0.384276734082137, -0.107625271282232, 0.382404642257711, -1.16676115688324, 1.12922624132505, -1.1720243844725], a = 0.2, v = 0.2, t = 0.2)
movej(p[0.382267962661251, -0.107011846782424, 0.382806759469063, -1.16466986831255, 1.13653772101039, -1.16347024311808], a = 0.2, v = 0.2, t = 0.2)
movej(p[0.380044493539992, -0.106424235467025, 0.383418144109715, -1.15093045706346, 1.14791605781589, -1.15297053375661], a = 0.2, v = 0.2, t = 0.2)
movej(p[0.379373749141077, -0.106310377490807, 0.383708128734436, -1.14997571242223, 1.14888887878351, -1.15301842422264], a = 0.2, v = 0.2, t = 0.2)
movej(p[0.379373749141077, -0.106310377490807, 0.383708128734436, -1.14915168527829, 1.14883238276388, -1.15373542561563], a = 0.2, v = 0.2, t = 0.2)
movej(p[0.38117302497175, -0.106781475826157, 0.3831967200294, -1.14503590491527, 1.14184701554573, -1.16245641659743], a = 0.2, v = 0.2, t = 0.2)
movej(p[0.382329162543137, -0.106992059511289, 0.382675791005843, -1.14843453475882, 1.13370006860927, -1.17283294910814], a = 0.2, v = 0.2, t = 0.2)
movej(p[0.383393276507551, -0.107155277700984, 0.382169205817261, -1.15126420294692, 1.12735693437986, -1.17808713022886], a = 0.2, v = 0.2, t = 0.2)
movej(p[0.38436472746604, -0.107375483130757, 0.381812480469201, -1.15843033742254, 1.11848100949771, -1.18735137573402], a = 0.2, v = 0.2, t = 0.2)
movej(p[0.385445395396012, -0.107686574542456, 0.381568264727083, -1.16064002150093, 1.11671838730595, -1.18990883632527], a = 0.2, v = 0.2, t = 0.2)
movej(p[0.386468251722267, -0.107984225124394, 0.381357277625791, -1.1674937178039, 1.11046572540461, -1.19276334357399], a = 0.2, v = 0.2, t = 0.2)
movej(p[0.386685632512185, -0.108044085637363, 0.381346582245401, -1.17155544018305, 1.10745409710863, -1.19578409649245], a = 0.2, v = 0.2, t = 0.2)
movej(p[0.386871135469487, -0.108102895648415, 0.381284147516026, -1.17253611659229, 1.10678171738344, -1.19690006337654], a = 0.2, v = 0.2, t = 0.2)
movej(p[0.386984471602823, -0.108126979487412, 0.381260272642626, -1.17185685243495, 1.10619310383042, -1.19729844235612], a = 0.2, v = 0.2, t = 0.2)
movej(p[0.387486686933804, -0.108299485943703, 0.381204703821652, -1.17073081786207, 1.10792742698228, -1.19893220781231], a = 0.2, v = 0.2, t = 0.2)
movej(p[0.388330085871621, -0.108622947446351, 0.381158760508813, -1.17095574636908, 1.10837127985517, -1.19856249140622], a = 0.2, v = 0.2, t = 0.2)
movej(p[0.388607895395963, -0.108710238109182, 0.38113935565459, -1.17172133508741, 1.108616564548, -1.19796358714207], a = 0.2, v = 0.2, t = 0.2)
movej(p[0.388607895395963, -0.108710238109182, 0.38113935565459, -1.17122268623345, 1.10902485571904, -1.19656401704718], a = 0.2, v = 0.2, t = 0.2)
movej(p[0.38832786835125, -0.108639688635889, 0.381201611706885, -1.17217513684891, 1.10844120180576, -1.19543472681126], a = 0.2, v = 0.2, t = 0.2)
movej(p[0.387524188951667, -0.108463216686459, 0.381478914219947, -1.17630445290356, 1.11137592523073, -1.19196222788151], a = 0.2, v = 0.2, t = 0.2)
movej(p[0.386597908534576, -0.108161005264317, 0.381669093570141, -1.1758539743124, 1.11703281477576, -1.18577357134659], a = 0.2, v = 0.2, t = 0.2)
movej(p[0.385449740331991, -0.107812522361532, 0.381914751391186, -1.16679011235318, 1.12545691078981, -1.17675589501284], a = 0.2, v = 0.2, t = 0.2)
movej(p[0.383856104873103, -0.107352818681332, 0.382309997454525, -1.16446390983898, 1.13182637431218, -1.17048362766599], a = 0.2, v = 0.2, t = 0.2)
movej(p[0.383427935419833, -0.107242817884072, 0.382435178778564, -1.16302603885413, 1.13389555446534, -1.1676105112563], a = 0.2, v = 0.2, t = 0.2)
movej(p[0.382222776160094, -0.106943468543222, 0.382782450488897, -1.15852785387483, 1.13750915662236, -1.16436228085016], a = 0.2, v = 0.2, t = 0.2)
movej(p[0.38159147302094, -0.106816764976423, 0.383001364108061, -1.15434471929774, 1.14126182645525, -1.16278945792359], a = 0.2, v = 0.2, t = 0.2)
movej(p[0.38159147302094, -0.106816764976423, 0.383001364108061, -1.14980163592596, 1.13778818348335, -1.16569893509397], a = 0.2, v = 0.2, t = 0.2)
movej(p[0.382936882673423, -0.107138636643112, 0.382578758858225, -1.1530807358309, 1.13207046572209, -1.17333598226165], a = 0.2, v = 0.2, t = 0.2)
movej(p[0.383771108060827, -0.107316769158585, 0.382292749155694, -1.15674496664326, 1.12773472258453, -1.17697101498489], a = 0.2, v = 0.2, t = 0.2)
movej(p[0.385019851776112, -0.107596590773707, 0.38188063484237, -1.15987907992714, 1.12250511903992, -1.18391633135838], a = 0.2, v = 0.2, t = 0.2)
movej(p[0.385747806089026, -0.107773263502781, 0.381651674659997, -1.16006327898626, 1.1168989853229, -1.18996762252973], a = 0.2, v = 0.2, t = 0.2)
movej(p[0.387013466581072, -0.10819085732612, 0.381384992981619, -1.16459680898474, 1.11084457301332, -1.19877585069493], a = 0.2, v = 0.2, t = 0.2)
movej(p[0.387558986439017, -0.108360927753932, 0.381291236679584, -1.16728880448087, 1.10821492459893, -1.19940723161475], a = 0.2, v = 0.2, t = 0.2)
movej(p[0.387837857048943, -0.108457560348401, 0.381265634050707, -1.16869352099577, 1.10858391223709, -1.19961082996649], a = 0.2, v = 0.2, t = 0.2)
movej(p[0.388190066434576, -0.108564955288231, 0.381176648964476, -1.17312559610626, 1.10419381557929, -1.20021481283192], a = 0.2, v = 0.2, t = 0.2)
movej(p[0.388405199241949, -0.108603736863257, 0.381104076003738, -1.17312559610626, 1.10419381557929, -1.20021481283192], a = 0.2, v = 0.2, t = 0.2)
movej(p[0.388841732347294, -0.108833058942036, 0.381140279347808, -1.17033674808957, 1.10708451472143, -1.19999526797241], a = 0.2, v = 0.2, t = 0.2)
movej(p[0.388835990846526, -0.108833529386253, 0.381206529358006, -1.16809720299428, 1.10928239259494, -1.19710123325765], a = 0.2, v = 0.2, t = 0.2)
movej(p[0.387331805846349, -0.108355257593753, 0.38146732434979, -1.16491021503171, 1.11652068389525, -1.18874922042384], a = 0.2, v = 0.2, t = 0.2)
movej(p[0.385734206893733, -0.107932861298023, 0.381908838218149, -1.16444059593132, 1.12435539277876, -1.1809095801219], a = 0.2, v = 0.2, t = 0.2)
movej(p[0.383943050799501, -0.107326422937111, 0.382268735843192, -1.15849970015777, 1.12930938334473, -1.17434887269581], a = 0.2, v = 0.2, t = 0.2)
movej(p[0.38200298851244, -0.106814542950118, 0.38281420582517, -1.14250835505508, 1.14300376240996, -1.16520540310693], a = 0.2, v = 0.2, t = 0.2)
movej(p[0.380352020572036, -0.106417343826741, 0.383325194823237, -1.1406035843056, 1.14910553286767, -1.15762020373823], a = 0.2, v = 0.2, t = 0.2)
movej(p[0.378357081436494, -0.105931159839909, 0.383938198923085, -1.13905485147206, 1.15402886768119, -1.14927654878753], a = 0.2, v = 0.2, t = 0.2)
movej(p[0.378357081436494, -0.105931159839909, 0.383938198923085, -1.13905485147206, 1.15402886768119, -1.14927654878753], a = 0.2, v = 0.2, t = 0.2)
movej(p[0.379482544334835, -0.106212423484977, 0.383631627305972, -1.1363654385095, 1.15135353413799, -1.15395468025249], a = 0.2, v = 0.2, t = 0.2)
movej(p[0.380723227974603, -0.106484647710634, 0.383206923518634, -1.13734532185762, 1.14320825033924, -1.16344740232633], a = 0.2, v = 0.2, t = 0.2)
movej(p[0.382643062316538, -0.107004818202687, 0.382681724643232, -1.14562666724254, 1.13381940286817, -1.17338544346608], a = 0.2, v = 0.2, t = 0.2)
movej(p[0.383524669827572, -0.107191209190898, 0.38238932338468, -1.1542005106443, 1.12655882616612, -1.18084643191391], a = 0.2, v = 0.2, t = 0.2)
movej(p[0.384198575920393, -0.107437263293484, 0.382260984198697, -1.15545432946815, 1.12553469574589, -1.18167268463308], a = 0.2, v = 0.2, t = 0.2)
movej(p[0.38468911872066, -0.107481250925458, 0.382046117939505, -1.15929843601369, 1.12254155679746, -1.18469899166985], a = 0.2, v = 0.2, t = 0.2)
movej(p[0.385855815777758, -0.107835162256537, 0.381761675666463, -1.16214106740667, 1.11665957303354, -1.19125260309997], a = 0.2, v = 0.2, t = 0.2)
movej(p[0.387024974854678, -0.108232058382815, 0.38151759359461, -1.16574808957593, 1.11190253476888, -1.19628284355118], a = 0.2, v = 0.2, t = 0.2)
movej(p[0.387505572637435, -0.108311930562059, 0.381335738937832, -1.16768405895716, 1.10982953467044, -1.19617989507855], a = 0.2, v = 0.2, t = 0.2)
movej(p[0.3877700262425, -0.108465475486563, 0.381330866882051, -1.1698448920024, 1.10858472289127, -1.1973085416354], a = 0.2, v = 0.2, t = 0.2)
movej(p[0.388068680934339, -0.108509520160422, 0.381263186221985, -1.171135187416, 1.10790818712179, -1.19617103358734], a = 0.2, v = 0.2, t = 0.2)
movej(p[0.388128491128071, -0.108578078514818, 0.38125142090141, -1.1722196383772, 1.10727895612256, -1.19497679686158], a = 0.2, v = 0.2, t = 0.2)
movej(p[0.388236398255396, -0.108595091434977, 0.381215180834905, -1.1745856990204, 1.10522681871636, -1.19463615792446], a = 0.2, v = 0.2, t = 0.2)
movej(p[0.388236398255396, -0.108595091434977, 0.381215180834905, -1.17587580789969, 1.10643348865276, -1.19391356957869], a = 0.2, v = 0.2, t = 0.2)
movej(p[0.387859740693465, -0.108558163499949, 0.381368398061923, -1.17125814083906, 1.11185064997931, -1.194194809106], a = 0.2, v = 0.2, t = 0.2)
movej(p[0.385841441756291, -0.107875711370869, 0.381839841623463, -1.15601521684154, 1.12553254149807, -1.18160944400984], a = 0.2, v = 0.2, t = 0.2)
movej(p[0.383368677620725, -0.107175179924232, 0.382488642033549, -1.1558360136709, 1.13482283057055, -1.17227743089332], a = 0.2, v = 0.2, t = 0.2)
movej(p[0.381253687275779, -0.106622333261003, 0.383101953861043, -1.14789936803154, 1.14386917477244, -1.15923624505131], a = 0.2, v = 0.2, t = 0.2)
movej(p[0.379420377664101, -0.106172203193896, 0.383657441512045, -1.14149177988468, 1.1523862025512, -1.14957773305702], a = 0.2, v = 0.2, t = 0.2)
movej(p[0.378633041639148, -0.106027109630305, 0.383931621364724, -1.14066051363713, 1.15515955348242, -1.14608849122566], a = 0.2, v = 0.2, t = 0.2)
movej(p[0.378633041639148, -0.106027109630305, 0.383931621364724, -1.1410534050426, 1.15460723439604, -1.14556067909765], a = 0.2, v = 0.2, t = 0.2)
movej(p[0.380632705391077, -0.10646368814867, 0.383332729156958, -1.14631587057689, 1.14297053490688, -1.15632961581979], a = 0.2, v = 0.2, t = 0.2)
movej(p[0.38199274459433, -0.106817793134806, 0.382936558342272, -1.14949935319554, 1.13628633341719, -1.163739479503], a = 0.2, v = 0.2, t = 0.2)
movej(p[0.383533766333452, -0.107199429194328, 0.382470154474765, -1.16357921871613, 1.12642975893994, -1.17803817662928], a = 0.2, v = 0.2, t = 0.2)
movej(p[0.384508742535127, -0.107396948140979, 0.382263457977744, -1.15303750602571, 1.12887068784445, -1.17901348202768], a = 0.2, v = 0.2, t = 0.2)
movej(p[0.384526737894889, -0.107399055196248, 0.382262894643792, -1.15214006246, 1.12930016662604, -1.17893102924858], a = 0.2, v = 0.2, t = 0.2)
movej(p[0.384843737188973, -0.10768639823091, 0.382179718397297, -1.15195264728162, 1.12912645639369, -1.1790400705775], a = 0.2, v = 0.2, t = 0.2)
movej(p[0.385651114763728, -0.107993367520384, 0.381943466313488, -1.15554164263249, 1.12569097184697, -1.1804530117423], a = 0.2, v = 0.2, t = 0.2)
movej(p[0.386435651752286, -0.108168165630751, 0.381709084265976, -1.15915325431332, 1.12293093168506, -1.18387278362566], a = 0.2, v = 0.2, t = 0.2)
movej(p[0.386905756003789, -0.108315351708222, 0.381577837661002, -1.16492164047672, 1.11665027923267, -1.18709945710136], a = 0.2, v = 0.2, t = 0.2)
movej(p[0.387844654143223, -0.108624450908697, 0.38132084782067, -1.17242572069255, 1.11010416594101, -1.19122348198665], a = 0.2, v = 0.2, t = 0.2)
movej(p[0.388060211704316, -0.108653261067364, 0.381232322103429, -1.17374756863281, 1.10823378058069, -1.18938028884137], a = 0.2, v = 0.2, t = 0.2)
movej(p[0.388221831803756, -0.108642413354601, 0.381176041284451, -1.16798235482223, 1.11217449711191, -1.18279190219727], a = 0.2, v = 0.2, t = 0.2)
movej(p[0.388486723774643, -0.108841359021917, 0.381117684834801, -1.15476380493321, 1.11795919511908, -1.18237238482567], a = 0.2, v = 0.2, t = 0.2)
movej(p[0.388573241515762, -0.108835563139899, 0.381095913793869, -1.15020275814728, 1.12010401465716, -1.181385413234], a = 0.2, v = 0.2, t = 0.2)
movej(p[0.388565978645819, -0.108726605029133, 0.38109605807973, -1.15020275814728, 1.12010401465716, -1.181385413234], a = 0.2, v = 0.2, t = 0.2)
movej(p[0.387774286347997, -0.108404738507311, 0.381316410020271, -1.15421484429569, 1.1192389041286, -1.18229334501507], a = 0.2, v = 0.2, t = 0.2)
movej(p[0.387139705759905, -0.108215654209389, 0.381489509747295, -1.1568083475918, 1.12164123768018, -1.18080388599756], a = 0.2, v = 0.2, t = 0.2)
movej(p[0.386520566270368, -0.108032950546198, 0.381657678959554, -1.15941907226889, 1.12408042622912, -1.17930770675916], a = 0.2, v = 0.2, t = 0.2)
movej(p[0.384484176567928, -0.107337303746584, 0.382228527626002, -1.16333949393434, 1.12932184818994, -1.17543884550771], a = 0.2, v = 0.2, t = 0.2)
movej(p[0.382339340338309, -0.106778253674255, 0.382860978442069, -1.15221502322492, 1.1398686674495, -1.1697334923778], a = 0.2, v = 0.2, t = 0.2)
movej(p[0.38126911930975, -0.106701697231359, 0.383188650703759, -1.15242517800158, 1.14141966781449, -1.16811592216084], a = 0.2, v = 0.2, t = 0.2)
movej(p[0.38126911930975, -0.106701697231359, 0.383188650703759, -1.15576537909882, 1.13656512056157, -1.16352190848018], a = 0.2, v = 0.2, t = 0.2)
movej(p[0.382100987311098, -0.106767214793601, 0.382961455243037, -1.15857894724187, 1.13292833010688, -1.16732417060555], a = 0.2, v = 0.2, t = 0.2)
movej(p[0.382637925315818, -0.106884160781227, 0.382809013204659, -1.15774512921193, 1.13100729875865, -1.16749002423754], a = 0.2, v = 0.2, t = 0.2)
movej(p[0.383591139751065, -0.107302014580667, 0.382526192938887, -1.15997390927581, 1.12783729484432, -1.17163321270337], a = 0.2, v = 0.2, t = 0.2)
movej(p[0.385306021284976, -0.107832386431176, 0.382036861440987, -1.17013400014502, 1.11666541147831, -1.18291034361183], a = 0.2, v = 0.2, t = 0.2)
movej(p[0.385740574015914, -0.107980125694068, 0.381896105715582, -1.17754294829551, 1.11105343903445, -1.18964826211873], a = 0.2, v = 0.2, t = 0.2)
movej(p[0.386299776653039, -0.108166420915337, 0.381725828320826, -1.17993063020671, 1.1094188893154, -1.19238288276048], a = 0.2, v = 0.2, t = 0.2)
movej(p[0.386952484500235, -0.108446668112475, 0.381527453739025, -1.17680008209528, 1.10928288777168, -1.1961639967782], a = 0.2, v = 0.2, t = 0.2)
movej(p[0.387445302700533, -0.108498531059971, 0.38139523892846, -1.17551343067372, 1.10766650853383, -1.19731547933941], a = 0.2, v = 0.2, t = 0.2)
movej(p[0.388133114808484, -0.108710240886603, 0.381158435585022, -1.17489606928659, 1.1057514688347, -1.19718708683032], a = 0.2, v = 0.2, t = 0.2)
movej(p[0.388142143626448, -0.108768063119645, 0.381154390858552, -1.17542321972461, 1.10532859053428, -1.19760586360057], a = 0.2, v = 0.2, t = 0.2)
movej(p[0.388234124404166, -0.108761905310968, 0.381134300365213, -1.17288836460091, 1.10561880357638, -1.19623754775606], a = 0.2, v = 0.2, t = 0.2)
movej(p[0.388286164442709, -0.108758438604771, 0.381135924045162, -1.17125012618713, 1.10702221111583, -1.19754239737006], a = 0.2, v = 0.2, t = 0.2)
movej(p[0.388276261133785, -0.108609868433589, 0.381136120786596, -1.16949678426365, 1.10826349759875, -1.19593760558825], a = 0.2, v = 0.2, t = 0.2)
movej(p[0.388030223516631, -0.108344176488535, 0.381236535383536, -1.1663696798584, 1.1108639000146, -1.19380628906267], a = 0.2, v = 0.2, t = 0.2)
movej(p[0.387820462650376, -0.108338382355241, 0.381287658147618, -1.16528056036233, 1.11169012626227, -1.19252125453485], a = 0.2, v = 0.2, t = 0.2)
movej(p[0.385957531891935, -0.107826750710841, 0.381816322606137, -1.16519167422124, 1.12046455048247, -1.18597410586442], a = 0.2, v = 0.2, t = 0.2)
movej(p[0.383879027787118, -0.107308611934337, 0.382397618704991, -1.15562507571644, 1.1321703618675, -1.17371131144198], a = 0.2, v = 0.2, t = 0.2)
movej(p[0.382256893823191, -0.10679641181888, 0.382887029621093, -1.15270208424054, 1.13870613000892, -1.16737027713486], a = 0.2, v = 0.2, t = 0.2)
movej(p[0.381619586059908, -0.106697315303384, 0.383065477387894, -1.14921599786935, 1.14100118681715, -1.16336722679247], a = 0.2, v = 0.2, t = 0.2)
movej(p[0.381619586059908, -0.106697315303384, 0.383065477387894, -1.14943669693349, 1.14073917032249, -1.16308314664673], a = 0.2, v = 0.2, t = 0.2)
movej(p[0.381644245584306, -0.106762800718576, 0.383050687585542, -1.15386807387965, 1.13620017089317, -1.16293401519533], a = 0.2, v = 0.2, t = 0.2)
movej(p[0.382986103855478, -0.107175965250744, 0.382669284767717, -1.15566772173724, 1.12585646392047, -1.16874887400615], a = 0.2, v = 0.2, t = 0.2)
movej(p[0.383845375835614, -0.107486146344846, 0.382399865757594, -1.15825278734823, 1.12251357567136, -1.17297578803527], a = 0.2, v = 0.2, t = 0.2)
movej(p[0.384986279158674, -0.107856430508736, 0.382055655988117, -1.16056310385484, 1.11923849820942, -1.17746798017202], a = 0.2, v = 0.2, t = 0.2)
movej(p[0.385761467329122, -0.108065249310866, 0.38183909309131, -1.16420356972124, 1.11621782531896, -1.18222360195488], a = 0.2, v = 0.2, t = 0.2)
movej(p[0.386363375159608, -0.108333118479442, 0.381618536699142, -1.1731055208836, 1.10990769055036, -1.1915892313708], a = 0.2, v = 0.2, t = 0.2)
movej(p[0.386827543461924, -0.108471555903648, 0.381469070995033, -1.17876795927754, 1.10530249729434, -1.19588218725537], a = 0.2, v = 0.2, t = 0.2)
movej(p[0.387201134128999, -0.1086061362824, 0.381340189634358, -1.17790551206335, 1.10449425409438, -1.19636425495939], a = 0.2, v = 0.2, t = 0.2)
movej(p[0.387985092575141, -0.108774398708428, 0.381136318570424, -1.17500443718801, 1.10387789094559, -1.1983337770912], a = 0.2, v = 0.2, t = 0.2)
movej(p[0.388338137575447, -0.108860144924779, 0.381013130201896, -1.17258385871591, 1.10461566016375, -1.19826937954003], a = 0.2, v = 0.2, t = 0.2)
movej(p[0.388377203478175, -0.10885754539906, 0.381016534274464, -1.17250522992292, 1.10458184200605, -1.19832767603805], a = 0.2, v = 0.2, t = 0.2)
movej(p[0.388364585669412, -0.10869364751178, 0.381036178190754, -1.16921167847358, 1.10720124235563, -1.19525527919484], a = 0.2, v = 0.2, t = 0.2)
movej(p[0.387594274520056, -0.108375506736365, 0.381286462309699, -1.17001812401891, 1.11090627807835, -1.19250394414279], a = 0.2, v = 0.2, t = 0.2)
movej(p[0.386827747948609, -0.108119029740553, 0.381520776918474, -1.16830231860366, 1.11528840520726, -1.18956034718492], a = 0.2, v = 0.2, t = 0.2)
movej(p[0.385756479807299, -0.10775994231617, 0.381867529223532, -1.15706575169751, 1.12633291736429, -1.18375809072583], a = 0.2, v = 0.2, t = 0.2)
movej(p[0.383630109221437, -0.107165379259531, 0.38249530800086, -1.15183075602098, 1.13755673162058, -1.17526467632384], a = 0.2, v = 0.2, t = 0.2)
movej(p[0.38110770852759, -0.106710885207784, 0.383137356937162, -1.1428101909498, 1.14729705931834, -1.16071165829494], a = 0.2, v = 0.2, t = 0.2)
movej(p[0.378659163834427, -0.106166203922641, 0.383798090736203, -1.14072360791057, 1.15528243475184, -1.15017339285873], a = 0.2, v = 0.2, t = 0.2)
movej(p[0.376844021916417, -0.105686786293023, 0.384267028785305, -1.13683143661998, 1.15807790606173, -1.14086477868943], a = 0.2, v = 0.2, t = 0.2)
movej(p[0.376844021916417, -0.105686786293023, 0.384267028785305, -1.14025886217148, 1.15328821079722, -1.13627119919342], a = 0.2, v = 0.2, t = 0.2)
movej(p[0.379220548116027, -0.106216553506548, 0.383628265126319, -1.13624749068709, 1.14615786770829, -1.1417425511388], a = 0.2, v = 0.2, t = 0.2)
movej(p[0.380741655622899, -0.106595092480772, 0.383226406447762, -1.14518725704215, 1.13519341586556, -1.15574914154133], a = 0.2, v = 0.2, t = 0.2)
movej(p[0.381973344620489, -0.107002575382258, 0.382847742284933, -1.15162617148507, 1.1279437310893, -1.16607080610066], a = 0.2, v = 0.2, t = 0.2)
movej(p[0.3827576342074, -0.107189744261598, 0.382633727929176, -1.15414270916839, 1.12627217601931, -1.16894063287166], a = 0.2, v = 0.2, t = 0.2)
movej(p[0.38364239061278, -0.107549394812081, 0.382330130754162, -1.15734238630101, 1.12419509228865, -1.17276326376504], a = 0.2, v = 0.2, t = 0.2)
movej(p[0.384665058593775, -0.107780537194073, 0.382063589050306, -1.15993550213295, 1.12180980482272, -1.17642297157057], a = 0.2, v = 0.2, t = 0.2)
movej(p[0.384990517464367, -0.107915931272821, 0.381942776646171, -1.16345271192604, 1.11717358556802, -1.18441113825237], a = 0.2, v = 0.2, t = 0.2)
movej(p[0.385571306377778, -0.108006717748017, 0.381801648215369, -1.16345271192604, 1.11717358556802, -1.18441113825237], a = 0.2, v = 0.2, t = 0.2)
movej(p[0.386088214639859, -0.108100210453741, 0.381699531945517, -1.15994403716878, 1.11762935959906, -1.18771321819017], a = 0.2, v = 0.2, t = 0.2)
movej(p[0.386466803361918, -0.108212017507084, 0.381577870356045, -1.16028092937845, 1.11595207765573, -1.18963466529183], a = 0.2, v = 0.2, t = 0.2)
movej(p[0.386955800895507, -0.108327762700765, 0.381435535707126, -1.16085676191806, 1.11535295599536, -1.18963970126923], a = 0.2, v = 0.2, t = 0.2)
movej(p[0.386955800895507, -0.108327762700765, 0.381435535707126, -1.16196274658965, 1.11611373839924, -1.18929642476312], a = 0.2, v = 0.2, t = 0.2)
movej(p[0.386674774690332, -0.108233684566998, 0.38154093412624, -1.16185851850865, 1.11627081388935, -1.18944481596386], a = 0.2, v = 0.2, t = 0.2)
movej(p[0.386578517666141, -0.108239514301233, 0.38155212427783, -1.16143486510993, 1.11654876297473, -1.18897538084698], a = 0.2, v = 0.2, t = 0.2)
movej(p[0.386482260641949, -0.108245344035467, 0.381563314429419, -1.16101617839451, 1.11683105964192, -1.18850031843161], a = 0.2, v = 0.2, t = 0.2)
movej(p[0.385465206365579, -0.107910262801064, 0.38187886032983, -1.15800698466006, 1.12163640127106, -1.18276901491631], a = 0.2, v = 0.2, t = 0.2)
movej(p[0.385461917891397, -0.107865487019405, 0.381882406498802, -1.15860815526539, 1.12238144562755, -1.18248782277247], a = 0.2, v = 0.2, t = 0.2)
movej(p[0.385462911934723, -0.107865420873712, 0.381882493116424, -1.15912561500976, 1.12203541000224, -1.18307574167916], a = 0.2, v = 0.2, t = 0.2)
movej(p[0.386165229869175, -0.108072726170317, 0.381698672516524, -1.1602528821766, 1.11750547875916, -1.18491201175667], a = 0.2, v = 0.2, t = 0.2)
movej(p[0.387600478733247, -0.108438948799904, 0.381297189486053, -1.16492179134225, 1.11142941702301, -1.19264576947322], a = 0.2, v = 0.2, t = 0.2)
movej(p[0.388427335896923, -0.108701001125919, 0.381044374733103, -1.16487160481644, 1.10771853769584, -1.19652238818416], a = 0.2, v = 0.2, t = 0.2)
movej(p[0.388427335896923, -0.108701001125919, 0.381044374733103, -1.16487160481644, 1.10771853769584, -1.19652238818416], a = 0.2, v = 0.2, t = 0.2)
movej(p[0.388232448461972, -0.108440887025161, 0.381195858073062, -1.16621332985913, 1.11133809739838, -1.19402789761153], a = 0.2, v = 0.2, t = 0.2)
movej(p[0.385948174269167, -0.107786720322532, 0.381843500039937, -1.15927240882921, 1.1235063292766, -1.1827878273541], a = 0.2, v = 0.2, t = 0.2)
movej(p[0.383989821099196, -0.10710410203808, 0.382482349716619, -1.15421251343361, 1.13280606465515, -1.17146647430093], a = 0.2, v = 0.2, t = 0.2)
movej(p[0.382122807532401, -0.106610281953895, 0.383011437257446, -1.1509338354803, 1.14050002504057, -1.16261823418264], a = 0.2, v = 0.2, t = 0.2)
movej(p[0.378487432463017, -0.105921679192441, 0.3838700641507, -1.13742621094634, 1.15381847206668, -1.14437064779272], a = 0.2, v = 0.2, t = 0.2)
movej(p[0.375731507736278, -0.105287895503785, 0.384569535226973, -1.13210942409925, 1.16148093588233, -1.13337344575423], a = 0.2, v = 0.2, t = 0.2)
movej(p[0.375731507736278, -0.105287895503785, 0.384569535226973, -1.13767160535024, 1.15377561661779, -1.12594858270946], a = 0.2, v = 0.2, t = 0.2)
movej(p[0.376622444027641, -0.105491271546599, 0.384328512385852, -1.14266909068005, 1.14472236459082, -1.13504127798053], a = 0.2, v = 0.2, t = 0.2)
movej(p[0.37922519756324, -0.106142378011682, 0.383626785733903, -1.14465793943937, 1.1355809009389, -1.14614799572727], a = 0.2, v = 0.2, t = 0.2)
movej(p[0.380693648214419, -0.106681151198105, 0.383131897475161, -1.14506765157758, 1.1331976773434, -1.15447997776463], a = 0.2, v = 0.2, t = 0.2)
movej(p[0.382060342283497, -0.107060909777302, 0.382765531792986, -1.15150677946089, 1.12941860421391, -1.16333662513326], a = 0.2, v = 0.2, t = 0.2)
movej(p[0.383147256209834, -0.107356369643158, 0.382459634025091, -1.16151191662173, 1.12275654860354, -1.17476191743486], a = 0.2, v = 0.2, t = 0.2)
movej(p[0.384590653079621, -0.107755217409826, 0.382054208858986, -1.16340868626344, 1.11874886604461, -1.17871362140828], a = 0.2, v = 0.2, t = 0.2)
movej(p[0.385987666172587, -0.108095851052712, 0.381671375749895, -1.16498010241882, 1.11425776897187, -1.18416718932252], a = 0.2, v = 0.2, t = 0.2)
movej(p[0.386451583496054, -0.108280997025931, 0.381513124918655, -1.16774730992804, 1.11266427815318, -1.1915102683647], a = 0.2, v = 0.2, t = 0.2)
movej(p[0.387237761122474, -0.108431098975497, 0.381329951737066, -1.16682729070691, 1.11183450415622, -1.19237259052656], a = 0.2, v = 0.2, t = 0.2)
movej(p[0.387544944317925, -0.108511849340646, 0.381255923884465, -1.16427654334577, 1.1142081385167, -1.19549413881608], a = 0.2, v = 0.2, t = 0.2)
movej(p[0.38776506228085, -0.108553322440142, 0.381196311013239, -1.15829460659673, 1.11673171405964, -1.19523507728216], a = 0.2, v = 0.2, t = 0.2)
movej(p[0.388422675128425, -0.108579101650925, 0.381090206984119, -1.15072029291644, 1.11854534473368, -1.1956204133605], a = 0.2, v = 0.2, t = 0.2)
movej(p[0.388422675128425, -0.108579101650925, 0.381090206984119, -1.15072029291644, 1.11854534473368, -1.1956204133605], a = 0.2, v = 0.2, t = 0.2)
movej(p[0.388100211039286, -0.108372900962623, 0.381248419459478, -1.1552497572234, 1.11815954335687, -1.19267873866525], a = 0.2, v = 0.2, t = 0.2)
movej(p[0.386949459931054, -0.107961938082284, 0.381635327275225, -1.16405034730878, 1.11934280997025, -1.18611883095822], a = 0.2, v = 0.2, t = 0.2)
movej(p[0.385505487512048, -0.107472516150277, 0.382107494402016, -1.16809752872609, 1.12311228960141, -1.18379751736373], a = 0.2, v = 0.2, t = 0.2)
movej(p[0.38454493964485, -0.107175054197568, 0.382418636285266, -1.15803297009047, 1.13398787711406, -1.17939781899566], a = 0.2, v = 0.2, t = 0.2)
movej(p[0.382158906490246, -0.106566942211329, 0.383054723305507, -1.14877120797807, 1.14442108506761, -1.1641596983512], a = 0.2, v = 0.2, t = 0.2)
movej(p[0.379685795147109, -0.106059780361898, 0.383641592961333, -1.14896754064122, 1.15153052858782, -1.15631642713121], a = 0.2, v = 0.2, t = 0.2)
movej(p[0.37692408619273, -0.105566392246984, 0.384265286563485, -1.13957127505123, 1.15631274764004, -1.14081529556829], a = 0.2, v = 0.2, t = 0.2)
movej(p[0.37692408619273, -0.105566392246984, 0.384265286563485, -1.14105318175536, 1.15423677989265, -1.13882800153265], a = 0.2, v = 0.2, t = 0.2)
movej(p[0.378176880004442, -0.105792982982948, 0.383971543489164, -1.13583428286047, 1.14679838494051, -1.14256105435509], a = 0.2, v = 0.2, t = 0.2)
movej(p[0.380832183463024, -0.106447422852927, 0.383285790378034, -1.13895549639829, 1.13669474816853, -1.15389672831369], a = 0.2, v = 0.2, t = 0.2)
movej(p[0.381895438261598, -0.106842205940515, 0.382926647109875, -1.15016218109584, 1.12818300474463, -1.16301047403183], a = 0.2, v = 0.2, t = 0.2)
movej(p[0.383365483023562, -0.107246885073228, 0.382514255236328, -1.15995952795088, 1.12131799338444, -1.17315616625203], a = 0.2, v = 0.2, t = 0.2)
movej(p[0.384685412093071, -0.107724438737493, 0.382048084914221, -1.16372270795928, 1.11803060756727, -1.17826601771899], a = 0.2, v = 0.2, t = 0.2)
movej(p[0.386175820747794, -0.108112637144247, 0.381643396776366, -1.15934451160476, 1.11780813100371, -1.18210403108897], a = 0.2, v = 0.2, t = 0.2)
movej(p[0.387338507489797, -0.108326145370442, 0.381390118673645, -1.15003747481308, 1.12080329521246, -1.19113990093563], a = 0.2, v = 0.2, t = 0.2)
movej(p[0.387884882889814, -0.108451293461308, 0.38124646646305, -1.14702257112407, 1.12183336579976, -1.19363852114671], a = 0.2, v = 0.2, t = 0.2)
movej(p[0.388174638091875, -0.108465893782136, 0.381200708146753, -1.1453169749243, 1.12296959346051, -1.19184804572684], a = 0.2, v = 0.2, t = 0.2)
movej(p[0.388364208930485, -0.108480481522019, 0.38117326903245, -1.1431032902697, 1.12414937868394, -1.19425449921588], a = 0.2, v = 0.2, t = 0.2)
movej(p[0.388523336386271, -0.108469871718455, 0.381171175021155, -1.13897529150283, 1.12420413240453, -1.19434407520134], a = 0.2, v = 0.2, t = 0.2)
movej(p[0.388622924588218, -0.108428568427524, 0.38118009904442, -1.13897529150283, 1.12420413240453, -1.19434407520134], a = 0.2, v = 0.2, t = 0.2)
movej(p[0.388616861718736, -0.108381110592702, 0.381213436643729, -1.14756977733422, 1.12122971298907, -1.19316437331714], a = 0.2, v = 0.2, t = 0.2)
movej(p[0.387334554309286, -0.108010793038491, 0.381604514240523, -1.15445817863669, 1.12767883406887, -1.18917992311075], a = 0.2, v = 0.2, t = 0.2)
movej(p[0.386142760231344, -0.10764102406388, 0.38197090994355, -1.15224423206182, 1.13241343603898, -1.18302915513818], a = 0.2, v = 0.2, t = 0.2)
movej(p[0.38466856990821, -0.107240840038986, 0.382390438926336, -1.15383416540664, 1.13683478324041, -1.17890896747802], a = 0.2, v = 0.2, t = 0.2)
movej(p[0.384374910794815, -0.10718583898503, 0.382458228816319, -1.15557983340297, 1.13737380568298, -1.17483550171127], a = 0.2, v = 0.2, t = 0.2)
movej(p[0.383238271768717, -0.106873993429195, 0.382796972795831, -1.15832893764709, 1.13979025391752, -1.17205248962802], a = 0.2, v = 0.2, t = 0.2)
movej(p[0.380797538590014, -0.106272034398373, 0.383433997101171, -1.14591434368137, 1.14957980279666, -1.1553618845004], a = 0.2, v = 0.2, t = 0.2)
movej(p[0.377296222787411, -0.10553625319456, 0.384248968094859, -1.13488609396715, 1.15654567319022, -1.14261583262], a = 0.2, v = 0.2, t = 0.2)
movej(p[0.377296222787411, -0.10553625319456, 0.384248968094859, -1.13653147737911, 1.15343604783973, -1.14014540997364], a = 0.2, v = 0.2, t = 0.2)
movej(p[0.378977600604354, -0.105983990741115, 0.383775086605353, -1.13363574592039, 1.14614587100768, -1.14555761179706], a = 0.2, v = 0.2, t = 0.2)
movej(p[0.381683928430885, -0.106793828034047, 0.382973403710238, -1.15026404842509, 1.13187155413351, -1.16337994486415], a = 0.2, v = 0.2, t = 0.2)
movej(p[0.382405104790209, -0.107168348321646, 0.382637356119964, -1.15105949567818, 1.12717422770711, -1.1684055915745], a = 0.2, v = 0.2, t = 0.2)
movej(p[0.383461170775897, -0.107593814586168, 0.382230596115015, -1.15509064763537, 1.12432551267982, -1.1731771984819], a = 0.2, v = 0.2, t = 0.2)
movej(p[0.384334635569133, -0.107920244488871, 0.38192846456486, -1.16199002674151, 1.11912013497619, -1.18166291632012], a = 0.2, v = 0.2, t = 0.2)
movej(p[0.385362957628819, -0.108174861786861, 0.381661142019745, -1.15701348160902, 1.12132649938324, -1.1868875758948], a = 0.2, v = 0.2, t = 0.2)
movej(p[0.386504771332581, -0.108316575511423, 0.381465586666524, -1.14347475301694, 1.12528332527751, -1.1895988958949], a = 0.2, v = 0.2, t = 0.2)
movej(p[0.386738021774832, -0.108391731075984, 0.381391816128334, -1.13528140992007, 1.13238715951537, -1.19188461002749], a = 0.2, v = 0.2, t = 0.2)
movej(p[0.387041197587932, -0.108420886627483, 0.38135785791625, -1.13270369131462, 1.13304133545391, -1.19290221275717], a = 0.2, v = 0.2, t = 0.2)
movej(p[0.387384871956491, -0.108421001411711, 0.381336850412336, -1.12866587390491, 1.1350658619987, -1.19336938703437], a = 0.2, v = 0.2, t = 0.2)
movej(p[0.387780481191725, -0.108410340616587, 0.381317710129053, -1.12648592039174, 1.13301846106049, -1.19465470440402], a = 0.2, v = 0.2, t = 0.2)
movej(p[0.388393212448443, -0.108409745161272, 0.381286298467618, -1.12616940069477, 1.13247350734028, -1.19475675839375], a = 0.2, v = 0.2, t = 0.2)
movej(p[0.388393212448443, -0.108409745161272, 0.381286298467618, -1.12653529305247, 1.13176996375636, -1.19554742577867], a = 0.2, v = 0.2, t = 0.2)
movej(p[0.388378599088881, -0.108366153220767, 0.381311038161337, -1.12795678384083, 1.12971273032298, -1.19355281690582], a = 0.2, v = 0.2, t = 0.2)
movej(p[0.387958903243331, -0.108260845657527, 0.38139566542853, -1.15397679570977, 1.11592015819121, -1.19071824914486], a = 0.2, v = 0.2, t = 0.2)
movej(p[0.387617012715301, -0.108207250042277, 0.381459265403918, -1.16023175271825, 1.11490284697781, -1.18925409179775], a = 0.2, v = 0.2, t = 0.2)
movej(p[0.386782985264591, -0.107906260851379, 0.381766942781093, -1.16442532880357, 1.11881112663162, -1.18686112624766], a = 0.2, v = 0.2, t = 0.2)
movej(p[0.385241487132736, -0.107438479008296, 0.382243452934991, -1.15677483866776, 1.12791826724562, -1.17916129580401], a = 0.2, v = 0.2, t = 0.2)
movej(p[0.382692061332627, -0.106897220410061, 0.382832683814679, -1.15072426761333, 1.14039747920386, -1.16793026139566], a = 0.2, v = 0.2, t = 0.2)
movej(p[0.380507957820195, -0.106422625984842, 0.383356839782431, -1.14676840046337, 1.14605602126065, -1.15999283662686], a = 0.2, v = 0.2, t = 0.2)
movej(p[0.379254749783387, -0.106208982687165, 0.383568245974012, -1.14053633283277, 1.15001469815024, -1.15276812131593], a = 0.2, v = 0.2, t = 0.2)
movej(p[0.379254749783387, -0.106208982687165, 0.383568245974012, -1.14028632402975, 1.14437242111423, -1.15114391869596], a = 0.2, v = 0.2, t = 0.2)
movej(p[0.381320470229587, -0.106680949564718, 0.383047600792873, -1.14827917691066, 1.12945048657078, -1.1626294114551], a = 0.2, v = 0.2, t = 0.2)
movej(p[0.382499162430798, -0.107198440133522, 0.38254722519794, -1.14908955778844, 1.12482987316394, -1.16784635891811], a = 0.2, v = 0.2, t = 0.2)
movej(p[0.383474086190221, -0.107518476166263, 0.382221108514743, -1.15452175323876, 1.1191887208108, -1.17567952569812], a = 0.2, v = 0.2, t = 0.2)
movej(p[0.384582659531075, -0.10783043752981, 0.381919379719957, -1.15893193124961, 1.11619946522419, -1.18063858600895], a = 0.2, v = 0.2, t = 0.2)
movej(p[0.385351275424827, -0.108165622220898, 0.381588425401763, -1.16501280288091, 1.11189362345577, -1.18698905893696], a = 0.2, v = 0.2, t = 0.2)
movej(p[0.386485156929607, -0.108366263272405, 0.381369580772931, -1.16885153365059, 1.10827227346235, -1.18969652015744], a = 0.2, v = 0.2, t = 0.2)
movej(p[0.387063273671967, -0.108517647433235, 0.381217652342238, -1.17160698973769, 1.10596150817704, -1.19259662542853], a = 0.2, v = 0.2, t = 0.2)
movej(p[0.387317663888885, -0.108594605647177, 0.381147407478773, -1.17479911293072, 1.1036173195271, -1.19579260036762], a = 0.2, v = 0.2, t = 0.2)
movej(p[0.387736690634109, -0.108684925638163, 0.381063631670718, -1.17854675204307, 1.10154729389358, -1.19864636711653], a = 0.2, v = 0.2, t = 0.2)
movej(p[0.38806530095517, -0.108750231611561, 0.381000905545932, -1.17995521509338, 1.10044484606075, -1.1998755157445], a = 0.2, v = 0.2, t = 0.2)
movej(p[0.388334369858853, -0.108737127720724, 0.381016688546775, -1.17904530685557, 1.09953067059832, -1.20044237618407], a = 0.2, v = 0.2, t = 0.2)
movej(p[0.388868970265123, -0.10876167418079, 0.380977524189075, -1.18028134846603, 1.0987036275903, -1.20194848879642], a = 0.2, v = 0.2, t = 0.2)
movej(p[0.388922802954854, -0.108773118289632, 0.380976888666375, -1.18093491186511, 1.09932458207905, -1.20158867483719], a = 0.2, v = 0.2, t = 0.2)
movej(p[0.388921356348426, -0.10875818830279, 0.380982088937786, -1.1772581341449, 1.1031531522603, -1.20123833325441], a = 0.2, v = 0.2, t = 0.2)
movej(p[0.388596435477001, -0.1085236533564, 0.381189574976436, -1.17065621333663, 1.10881593195331, -1.19591585088742], a = 0.2, v = 0.2, t = 0.2)
movej(p[0.387175215516741, -0.107999198004711, 0.38170521778754, -1.15854087106736, 1.12327616824589, -1.18713290323944], a = 0.2, v = 0.2, t = 0.2)
movej(p[0.385805241831298, -0.107586180901647, 0.38214501162989, -1.15769860738689, 1.1297519987632, -1.18181878895101], a = 0.2, v = 0.2, t = 0.2)
movej(p[0.384264677044823, -0.107144973422855, 0.382604550572018, -1.14770650196185, 1.14032982306157, -1.1722141510873], a = 0.2, v = 0.2, t = 0.2)
movej(p[0.382405224557261, -0.106755227957476, 0.383017819272403, -1.15025115276971, 1.14554389028184, -1.16754989259802], a = 0.2, v = 0.2, t = 0.2)
movej(p[0.380354782086386, -0.106237242537739, 0.383538107739093, -1.1419204800104, 1.15173799347135, -1.15626308136174], a = 0.2, v = 0.2, t = 0.2)
movej(p[0.380190864341859, -0.106248149962446, 0.383523824493126, -1.14254278298863, 1.15085566585705, -1.15542147906968], a = 0.2, v = 0.2, t = 0.2)
movej(p[0.380197942696791, -0.106288702596032, 0.383473559785819, -1.14125155134453, 1.14312634611566, -1.15530634474104], a = 0.2, v = 0.2, t = 0.2)
movej(p[0.382143866276206, -0.10673897065425, 0.383014657150367, -1.15171054326789, 1.12853730520271, -1.16497879926761], a = 0.2, v = 0.2, t = 0.2)
movej(p[0.382994991102377, -0.107183496562246, 0.382522246044281, -1.15236785000215, 1.12516458052615, -1.16892561995821], a = 0.2, v = 0.2, t = 0.2)
movej(p[0.38385131332105, -0.107510455207114, 0.382210594905422, -1.15920433958487, 1.11910518638339, -1.17831445555634], a = 0.2, v = 0.2, t = 0.2)
movej(p[0.384709159040075, -0.10780081260286, 0.38188468061441, -1.16102292435588, 1.11641445771489, -1.17981038281169], a = 0.2, v = 0.2, t = 0.2)
movej(p[0.385551592599089, -0.108064435786022, 0.381634409149901, -1.16596738415713, 1.11189112322989, -1.18601322808124], a = 0.2, v = 0.2, t = 0.2)
movej(p[0.386597293051378, -0.108365963453736, 0.38133854788227, -1.17156254611237, 1.10658821487169, -1.19271758444379], a = 0.2, v = 0.2, t = 0.2)
movej(p[0.386860138997968, -0.108473140693263, 0.381203575967826, -1.17079162867881, 1.10558530330189, -1.19344692956601], a = 0.2, v = 0.2, t = 0.2)
movej(p[0.387326407357129, -0.108578407960619, 0.381086648555862, -1.17167940514028, 1.10519639496779, -1.19513148209513], a = 0.2, v = 0.2, t = 0.2)
movej(p[0.38760087311991, -0.108638655546233, 0.381063030480397, -1.17179839078529, 1.10523231087611, -1.19562446590944], a = 0.2, v = 0.2, t = 0.2)
movej(p[0.387742235838493, -0.108633310058177, 0.381039083297838, -1.17169941199505, 1.1051166796656, -1.19570396449591], a = 0.2, v = 0.2, t = 0.2)
movej(p[0.388078696208275, -0.108717328274216, 0.380970982351153, -1.17123332953297, 1.10379262530475, -1.1967715798243], a = 0.2, v = 0.2, t = 0.2)
movej(p[0.388354940848688, -0.108698946386247, 0.380995053388474, -1.17322816142442, 1.10149487705093, -1.1962481154107], a = 0.2, v = 0.2, t = 0.2)
movej(p[0.388325975011039, -0.108520436586333, 0.381191152551104, -1.17400614367314, 1.1022224049542, -1.19581463951026], a = 0.2, v = 0.2, t = 0.2)
movej(p[0.387428703196017, -0.108102403879309, 0.381657293222817, -1.16066625632244, 1.11730399414409, -1.18893087114185], a = 0.2, v = 0.2, t = 0.2)
movej(p[0.38613439427412, -0.107740510636766, 0.382053996179324, -1.16064851537969, 1.12499535349831, -1.1835612000243], a = 0.2, v = 0.2, t = 0.2)
movej(p[0.384830920769236, -0.10729256166367, 0.382545573324405, -1.15711050595756, 1.13602043419798, -1.17634559998404], a = 0.2, v = 0.2, t = 0.2)
movej(p[0.383894950921986, -0.107053775249843, 0.382766081427681, -1.15326494279194, 1.14160045813351, -1.17054783542759], a = 0.2, v = 0.2, t = 0.2)
movej(p[0.382051671316359, -0.106723151371175, 0.383078147776933, -1.1463985836827, 1.14932879631145, -1.1621518031834], a = 0.2, v = 0.2, t = 0.2)
movej(p[0.380001112778757, -0.106211106788449, 0.383613540977455, -1.14076277716531, 1.1555063356575, -1.15283051991706], a = 0.2, v = 0.2, t = 0.2)
movej(p[0.380001112778757, -0.106211106788449, 0.383613540977455, -1.14203341469987, 1.15371388558529, -1.15112071968017], a = 0.2, v = 0.2, t = 0.2)
movej(p[0.380270029687738, -0.106347244955124, 0.383403305405683, -1.13809053828417, 1.1420922643225, -1.15498943660891], a = 0.2, v = 0.2, t = 0.2)
movej(p[0.382108220450316, -0.106915939644156, 0.382792291681581, -1.14513499373889, 1.12758032950649, -1.1650418639726], a = 0.2, v = 0.2, t = 0.2)
movej(p[0.383515626328501, -0.107405149430975, 0.382287044604867, -1.15566782571244, 1.12056036410046, -1.17701795397775], a = 0.2, v = 0.2, t = 0.2)
movej(p[0.384703547573882, -0.107840310627122, 0.381837238359757, -1.16198711279079, 1.11533978872115, -1.18087023954077], a = 0.2, v = 0.2, t = 0.2)
movej(p[0.385461666350215, -0.108092057707752, 0.381543407560884, -1.16835095695713, 1.11286906679558, -1.18713718217398], a = 0.2, v = 0.2, t = 0.2)
movej(p[0.386277183802095, -0.108376964274726, 0.381252308155571, -1.17168594733651, 1.11059681994189, -1.19094072505727], a = 0.2, v = 0.2, t = 0.2)
movej(p[0.386773180562856, -0.108461527965393, 0.381150149428407, -1.17032154686188, 1.10859335080463, -1.19391734382993], a = 0.2, v = 0.2, t = 0.2)
movej(p[0.387788795944563, -0.108576668287802, 0.381099932672292, -1.17327782162379, 1.10613987007478, -1.19772955074178], a = 0.2, v = 0.2, t = 0.2)
movej(p[0.388042392684784, -0.10863501758137, 0.381014192697429, -1.17349275358547, 1.10433966135655, -1.19873231385979], a = 0.2, v = 0.2, t = 0.2)
movej(p[0.388268700561317, -0.108682730333413, 0.380982976863119, -1.17468750930206, 1.10336337937721, -1.19973563843299], a = 0.2, v = 0.2, t = 0.2)
movej(p[0.388374362875176, -0.108712237895771, 0.380960104845419, -1.17549519017861, 1.10252065313989, -1.1999271228174], a = 0.2, v = 0.2, t = 0.2)
movej(p[0.388460745240242, -0.108706489835085, 0.380967631916823, -1.17520109505632, 1.1029765478431, -1.20035392687797], a = 0.2, v = 0.2, t = 0.2)
movej(p[0.388450176869459, -0.108652779821786, 0.381047901176259, -1.17392831381413, 1.10430498688904, -1.20026525047134], a = 0.2, v = 0.2, t = 0.2)
movej(p[0.38804910458687, -0.108241703353682, 0.381546555918049, -1.16282832946173, 1.11368925306787, -1.1910824710753], a = 0.2, v = 0.2, t = 0.2)
movej(p[0.386294040520591, -0.107624199026826, 0.38225385391718, -1.15446692328279, 1.13024758748458, -1.180469607668], a = 0.2, v = 0.2, t = 0.2)
movej(p[0.384330121262774, -0.107162828496766, 0.382731853166934, -1.15207070542514, 1.13985513173528, -1.17103661797202], a = 0.2, v = 0.2, t = 0.2)
movej(p[0.382569446111887, -0.106802989451254, 0.383076882041628, -1.14950711159644, 1.14617439531936, -1.16297135376476], a = 0.2, v = 0.2, t = 0.2)
movej(p[0.380646441513581, -0.1062782387103, 0.383616493786091, -1.14583790101137, 1.15001460862501, -1.1553917742275], a = 0.2, v = 0.2, t = 0.2)
movej(p[0.380646441513581, -0.1062782387103, 0.383616493786091, -1.14618352260767, 1.1495224964202, -1.15492370595857], a = 0.2, v = 0.2, t = 0.2)
movej(p[0.380685991506756, -0.106388169573928, 0.383478612448478, -1.14713074093792, 1.14431163823421, -1.15546549578013], a = 0.2, v = 0.2, t = 0.2)
movej(p[0.382012961485606, -0.106800329552281, 0.383027168002864, -1.15115357431521, 1.13373075140004, -1.16492349575944], a = 0.2, v = 0.2, t = 0.2)
movej(p[0.383043748875117, -0.107194216210142, 0.382551590187587, -1.15770830550252, 1.12203334983389, -1.17219861477697], a = 0.2, v = 0.2, t = 0.2)
movej(p[0.383901682297293, -0.107494878310286, 0.382216375607578, -1.15790524668602, 1.11885896840466, -1.17570074147136], a = 0.2, v = 0.2, t = 0.2)
movej(p[0.384989982952374, -0.107720533250463, 0.382017895200173, -1.15965586794307, 1.1166581660798, -1.18058697811264], a = 0.2, v = 0.2, t = 0.2)
movej(p[0.385824444217146, -0.108070840081796, 0.381587043344523, -1.1656559566984, 1.11230875075858, -1.18771887172443], a = 0.2, v = 0.2, t = 0.2)
movej(p[0.386141417272057, -0.108220330127517, 0.381390815062436, -1.16591252992155, 1.11085724926233, -1.18936094410051], a = 0.2, v = 0.2, t = 0.2)
movej(p[0.386591802199877, -0.108303653047217, 0.381310107703135, -1.16495174110607, 1.11018355934516, -1.19107459790831], a = 0.2, v = 0.2, t = 0.2)
movej(p[0.387106727554165, -0.108436757619435, 0.381202117924148, -1.16637479488398, 1.10965637449898, -1.19470869295502], a = 0.2, v = 0.2, t = 0.2)
movej(p[0.387796599534354, -0.108565369941014, 0.38113451635842, -1.16900827645697, 1.10785781558726, -1.19769787135732], a = 0.2, v = 0.2, t = 0.2)
movej(p[0.388189317973297, -0.108642514780832, 0.381053974497233, -1.17275763410284, 1.10481474544444, -1.20030884259665], a = 0.2, v = 0.2, t = 0.2)
movej(p[0.388248529766686, -0.108646281758474, 0.381051550986729, -1.17434690745959, 1.10502552464307, -1.19997025924418], a = 0.2, v = 0.2, t = 0.2)
movej(p[0.388254991048307, -0.108645851811472, 0.381052114001276, -1.17434690745959, 1.10502552464307, -1.19997025924418], a = 0.2, v = 0.2, t = 0.2)
movej(p[0.388220409207846, -0.108460578884073, 0.381307499002173, -1.16887005918871, 1.10880324983838, -1.19380907287786], a = 0.2, v = 0.2, t = 0.2)
movej(p[0.387165503102018, -0.108070801598444, 0.381780154389844, -1.15918741898453, 1.11859650782392, -1.18864025762949], a = 0.2, v = 0.2, t = 0.2)
movej(p[0.385958524340347, -0.107650538993487, 0.382304188884654, -1.15965195331475, 1.12759345505569, -1.18058724786668], a = 0.2, v = 0.2, t = 0.2)
movej(p[0.384308837951519, -0.10723767792488, 0.382707695274373, -1.16076777336126, 1.13580232019539, -1.17339830202527], a = 0.2, v = 0.2, t = 0.2)
movej(p[0.382265656408353, -0.106825455896262, 0.383085727654979, -1.15170318640154, 1.14690895840988, -1.16461283594344], a = 0.2, v = 0.2, t = 0.2)
movej(p[0.380464993997888, -0.106298646103146, 0.383612066894838, -1.14170331197577, 1.15420310436655, -1.15220048207189], a = 0.2, v = 0.2, t = 0.2)
movej(p[0.379715450674504, -0.10614744279967, 0.383748033351687, -1.14365259679073, 1.15009506014921, -1.14913488092702], a = 0.2, v = 0.2, t = 0.2)
movej(p[0.379715450674504, -0.10614744279967, 0.383748033351687, -1.14147231126642, 1.1471228256799, -1.15155793326427], a = 0.2, v = 0.2, t = 0.2)
movej(p[0.380621872521609, -0.106340982375405, 0.383594245030562, -1.13941222497769, 1.14275750436293, -1.15537669235649], a = 0.2, v = 0.2, t = 0.2)
movej(p[0.38219859894263, -0.106837696733662, 0.383050719824562, -1.14532879500446, 1.13046498234657, -1.16770448174097], a = 0.2, v = 0.2, t = 0.2)
movej(p[0.383448545543302, -0.10736055146292, 0.38239246476187, -1.15226228154411, 1.12491072280695, -1.1766205201504], a = 0.2, v = 0.2, t = 0.2)
movej(p[0.384475535608241, -0.107647164774808, 0.382077120337526, -1.15395920878355, 1.12402812492714, -1.17989812650353], a = 0.2, v = 0.2, t = 0.2)
movej(p[0.385173907431327, -0.10785636729254, 0.381840748060611, -1.15549107048687, 1.121031960886, -1.18375127854595], a = 0.2, v = 0.2, t = 0.2)
movej(p[0.386431406340617, -0.108219981287669, 0.381496050315212, -1.16427848042785, 1.1132655179177, -1.18998863338833], a = 0.2, v = 0.2, t = 0.2)
movej(p[0.386764886622535, -0.108304236881986, 0.381381515838316, -1.16458327490674, 1.11157190054828, -1.19190456454071], a = 0.2, v = 0.2, t = 0.2)
movej(p[0.387398408376228, -0.108459456441302, 0.381238577648867, -1.16598161356946, 1.11062038438852, -1.19349215703166], a = 0.2, v = 0.2, t = 0.2)
movej(p[0.387628642746219, -0.108600813982093, 0.381054865072986, -1.17021533558481, 1.11114039007915, -1.19478146517006], a = 0.2, v = 0.2, t = 0.2)
movej(p[0.38798984670105, -0.108619621234383, 0.381046687036827, -1.17239023597662, 1.10933907563221, -1.19629429487548], a = 0.2, v = 0.2, t = 0.2)
movej(p[0.388453194705665, -0.108599765303564, 0.381126331613732, -1.17113442531416, 1.10858649633875, -1.19453760770799], a = 0.2, v = 0.2, t = 0.2)
movej(p[0.388439190624093, -0.108600912762993, 0.381287921864169, -1.17050913922322, 1.10800119112866, -1.19488945612595], a = 0.2, v = 0.2, t = 0.2)
movej(p[0.387947662497878, -0.108206557003505, 0.381837640470457, -1.16005897498415, 1.11721712602386, -1.18950978586688], a = 0.2, v = 0.2, t = 0.2)
movej(p[0.386746179406475, -0.107891965903778, 0.382136856748498, -1.15668902558292, 1.12258573442132, -1.18435662467763], a = 0.2, v = 0.2, t = 0.2)
movej(p[0.385448099227134, -0.107626633517492, 0.382379270986506, -1.15588055077962, 1.12581102471627, -1.18055552646385], a = 0.2, v = 0.2, t = 0.2)
movej(p[0.383854358664194, -0.10725693334696, 0.382696678645439, -1.15213879281678, 1.12826681136162, -1.17580979604668], a = 0.2, v = 0.2, t = 0.2)
movej(p[0.382363242714748, -0.106836756725191, 0.383135861616221, -1.14859218791198, 1.13157218279882, -1.16778723319228], a = 0.2, v = 0.2, t = 0.2)
movej(p[0.380067346952295, -0.106377170264669, 0.383462818132069, -1.14584347398339, 1.13249294457734, -1.15802932735881], a = 0.2, v = 0.2, t = 0.2)
movej(p[0.378331807827975, -0.105786667992783, 0.384201027062421, -1.14024503781346, 1.13587198507904, -1.15057084153521], a = 0.2, v = 0.2, t = 0.2)
movej(p[0.378331807827975, -0.105786667992783, 0.384201027062421, -1.14022764677807, 1.13585630711006, -1.15058106840587], a = 0.2, v = 0.2, t = 0.2)
movej(p[0.379428871731881, -0.106132038437541, 0.383800597172637, -1.14435063899917, 1.13242833428717, -1.1562464526654], a = 0.2, v = 0.2, t = 0.2)
movej(p[0.381290608326904, -0.106688814858108, 0.383170027154119, -1.15019175927056, 1.12797300737527, -1.16489352657098], a = 0.2, v = 0.2, t = 0.2)
movej(p[0.382578209597445, -0.107140800978422, 0.382581988443535, -1.15479351476285, 1.12521970866842, -1.17173870566282], a = 0.2, v = 0.2, t = 0.2)
movej(p[0.383611574829076, -0.107523937860517, 0.382065154149362, -1.15856893823614, 1.12310837956276, -1.1773692483589], a = 0.2, v = 0.2, t = 0.2)
movej(p[0.384592317119193, -0.107893654441483, 0.381555498402671, -1.16230336799081, 1.12093513821043, -1.18282280403962], a = 0.2, v = 0.2, t = 0.2)
movej(p[0.385201203586319, -0.108092468288823, 0.381306024347394, -1.16402848734902, 1.11985603338347, -1.18566625919159], a = 0.2, v = 0.2, t = 0.2)
movej(p[0.385856060382336, -0.108257372503955, 0.381149609013929, -1.16555295900954, 1.11878304447314, -1.18816258550235], a = 0.2, v = 0.2, t = 0.2)
movej(p[0.387303458637641, -0.108621282177696, 0.380823976445078, -1.17000817295206, 1.11579245848182, -1.19420905061252], a = 0.2, v = 0.2, t = 0.2)
movej(p[0.38753082422735, -0.108639526415401, 0.380843551337338, -1.16984031688617, 1.1158095224441, -1.19490007527237], a = 0.2, v = 0.2, t = 0.2)
movej(p[0.387757999859777, -0.108624552969971, 0.380971552423128, -1.16898081268599, 1.11556437676929, -1.19559009387038], a = 0.2, v = 0.2, t = 0.2)
movej(p[0.388089740252811, -0.108595762810253, 0.381227058525468, -1.16762910782462, 1.1142905738611, -1.19636247041295], a = 0.2, v = 0.2, t = 0.2)
movej(p[0.388250278250028, -0.108585080280901, 0.381241047271518, -1.1669910271847, 1.11298693210068, -1.19647779268966], a = 0.2, v = 0.2, t = 0.2)
movej(p[0.388248603615167, -0.108581706175391, 0.381257689116671, -1.1666661920412, 1.11320723883665, -1.19610934379248], a = 0.2, v = 0.2, t = 0.2)
movej(p[0.388087908998706, -0.108358441978954, 0.381668338186839, -1.15783579602536, 1.12219363591571, -1.19081733664314], a = 0.2, v = 0.2, t = 0.2)
movej(p[0.386978080310504, -0.107959680072313, 0.382203349620974, -1.15313334819781, 1.12599960269507, -1.1847745923176], a = 0.2, v = 0.2, t = 0.2)
movej(p[0.38570580408242, -0.107674168695466, 0.382432083053471, -1.15462670275277, 1.12745557104147, -1.18088873847645], a = 0.2, v = 0.2, t = 0.2)
movej(p[0.384117315421847, -0.107329673559934, 0.382672677082545, -1.15446611021225, 1.13418124276371, -1.17266937315733], a = 0.2, v = 0.2, t = 0.2)
movej(p[0.382115690628112, -0.106795238179141, 0.383218191590934, -1.14962854245878, 1.14317878736899, -1.16072459413982], a = 0.2, v = 0.2, t = 0.2)
movej(p[0.380040834906446, -0.10636967209013, 0.383428854492637, -1.14723917686621, 1.14874684970653, -1.15240411551146], a = 0.2, v = 0.2, t = 0.2)
