def moving():
set_payload_mass(0)
set_tcp(p[0,0,0,0,0,0])
movej(p[0.4182, 0.2184, 0.3067, -1.405, 0.76, -0.761], a = 0.2, v = 0.2, t = 0.2)
movej(p[0.418197081867971, 0.218394813761932, 0.306919679675867, -1.405, 0.76, -0.761], a = 0.2, v = 0.2, t = 0.2)
movej(p[0.418194163735941, 0.218389627523865, 0.307139359351735, -1.405, 0.76, -0.761], a = 0.2, v = 0.2, t = 0.2)
movej(p[0.418191245603911, 0.218384441285797, 0.307359039027602, -1.405, 0.76, -0.761], a = 0.2, v = 0.2, t = 0.2)
movej(p[0.418188327471882, 0.218379255047729, 0.307578718703469, -1.405, 0.76, -0.761], a = 0.2, v = 0.2, t = 0.2)
movej(p[0.418185409339852, 0.218374068809662, 0.307798398379336, -1.405, 0.76, -0.761], a = 0.2, v = 0.2, t = 0.2)
movej(p[0.418182491207823, 0.218368882571594, 0.308018078055204, -1.405, 0.76, -0.761], a = 0.2, v = 0.2, t = 0.2)
movej(p[0.418179573075793, 0.218363696333526, 0.308237757731071, -1.405, 0.76, -0.761], a = 0.2, v = 0.2, t = 0.2)
movej(p[0.418176654943764, 0.218358510095459, 0.308457437406938, -1.405, 0.76, -0.761], a = 0.2, v = 0.2, t = 0.2)
movej(p[0.418173736811734, 0.218353323857391, 0.308677117082806, -1.405, 0.76, -0.761], a = 0.2, v = 0.2, t = 0.2)
movej(p[0.418170818679705, 0.218348137619323, 0.308896796758673, -1.405, 0.76, -0.761], a = 0.2, v = 0.2, t = 0.2)
movej(p[0.418178478173363, 0.218361750422714, 0.308320182997884, -1.405, 0.76, -0.761], a = 0.2, v = 0.2, t = 0.2)
movej(p[0.418182749257515, 0.21836934118934, 0.307998651835933, -1.405, 0.76, -0.761], a = 0.2, v = 0.2, t = 0.2)
movej(p[0.418186487360528, 0.218375984717444, 0.307717243986681, -1.405, 0.76, -0.761], a = 0.2, v = 0.2, t = 0.2)
movej(p[0.41818780413746, 0.218378324953795, 0.307618115802364, -1.405, 0.76, -0.761], a = 0.2, v = 0.2, t = 0.2)
movej(p[0.418188214122952, 0.218379053598813, 0.307587251715672, -1.405, 0.76, -0.761], a = 0.2, v = 0.2, t = 0.2)
movej(p[0.418188612050047, 0.218379760813095, 0.307557295396236, -1.405, 0.76, -0.761], a = 0.2, v = 0.2, t = 0.2)
movej(p[0.418190085586138, 0.218382379649011, 0.307446366237595, -1.405, 0.76, -0.761], a = 0.2, v = 0.2, t = 0.2)
movej(p[0.418188715752259, 0.218379945117423, 0.307549488597837, -1.405, 0.76, -0.761], a = 0.2, v = 0.2, t = 0.2)
movej(p[0.418179710541517, 0.218363940643915, 0.308227409184357, -1.405, 0.76, -0.761], a = 0.2, v = 0.2, t = 0.2)
movej(p[0.418167833020653, 0.218342831369135, 0.309121559931172, -1.405, 0.76, -0.761], a = 0.2, v = 0.2, t = 0.2)
movej(p[0.418154906419266, 0.218319857620339, 0.310094686429229, -1.405, 0.76, -0.761], a = 0.2, v = 0.2, t = 0.2)
movej(p[0.418137597796476, 0.218289095942148, 0.311397695547989, -1.405, 0.76, -0.761], a = 0.2, v = 0.2, t = 0.2)
movej(p[0.418123219364113, 0.21826354193276, 0.312480117223626, -1.405, 0.76, -0.761], a = 0.2, v = 0.2, t = 0.2)
movej(p[0.418120149296283, 0.218258085667421, 0.312711234766914, -1.405, 0.76, -0.761], a = 0.2, v = 0.2, t = 0.2)
movej(p[0.418134957007574, 0.218284402611004, 0.311596496576976, -1.405, 0.76, -0.761], a = 0.2, v = 0.2, t = 0.2)
movej(p[0.418155280229567, 0.218320521973149, 0.310066545644304, -1.405, 0.76, -0.761], a = 0.2, v = 0.2, t = 0.2)
movej(p[0.418170148232842, 0.218346946070412, 0.308947268618087, -1.405, 0.76, -0.761], a = 0.2, v = 0.2, t = 0.2)
movej(p[0.418181198547684, 0.218366585196714, 0.308115390705009, -1.405, 0.76, -0.761], a = 0.2, v = 0.2, t = 0.2)
movej(p[0.418184953532453, 0.218373258727848, 0.3078327119816, -1.405, 0.76, -0.761], a = 0.2, v = 0.2, t = 0.2)
movej(p[0.418186620002893, 0.218376220455538, 0.307707258546869, -1.405, 0.76, -0.761], a = 0.2, v = 0.2, t = 0.2)
movej(p[0.418188609638367, 0.218379756526947, 0.307557476949687, -1.405, 0.76, -0.761], a = 0.2, v = 0.2, t = 0.2)
movej(p[0.418188829101189, 0.218380146566339, 0.307540955585634, -1.405, 0.76, -0.761], a = 0.2, v = 0.2, t = 0.2)
movej(p[0.418185136820084, 0.218373584475032, 0.307818913919314, -1.405, 0.76, -0.761], a = 0.2, v = 0.2, t = 0.2)
movej(p[0.418174277027912, 0.218354283954355, 0.308636449109753, -1.405, 0.76, -0.761], a = 0.2, v = 0.2, t = 0.2)
movej(p[0.418160597982563, 0.218329972927645, 0.309666220284562, -1.405, 0.76, -0.761], a = 0.2, v = 0.2, t = 0.2)
movej(p[0.41814443973083, 0.21830125574165, 0.310882628407133, -1.405, 0.76, -0.761], a = 0.2, v = 0.2, t = 0.2)
movej(p[0.418129224445727, 0.218274214439196, 0.312028049130312, -1.405, 0.76, -0.761], a = 0.2, v = 0.2, t = 0.2)
movej(p[0.418121017500854, 0.218259628680399, 0.312645875524507, -1.405, 0.76, -0.761], a = 0.2, v = 0.2, t = 0.2)
movej(p[0.418127890787039, 0.218271844199815, 0.312128448188787, -1.405, 0.76, -0.761], a = 0.2, v = 0.2, t = 0.2)
movej(p[0.418146388367755, 0.218304718948558, 0.31073593321862, -1.405, 0.76, -0.761], a = 0.2, v = 0.2, t = 0.2)
movej(p[0.41816454831336, 0.218336993636698, 0.309368835731611, -1.405, 0.76, -0.761], a = 0.2, v = 0.2, t = 0.2)
movej(p[0.418178343119318, 0.218361510398473, 0.308330349991147, -1.405, 0.76, -0.761], a = 0.2, v = 0.2, t = 0.2)
movej(p[0.418183540288346, 0.21837074704561, 0.307939102303962, -1.405, 0.76, -0.761], a = 0.2, v = 0.2, t = 0.2)
movej(p[0.418186246192591, 0.218375556102727, 0.307735399331794, -1.405, 0.76, -0.761], a = 0.2, v = 0.2, t = 0.2)
movej(p[0.418187835489292, 0.218378380673708, 0.3076157556075, -1.405, 0.76, -0.761], a = 0.2, v = 0.2, t = 0.2)
movej(p[0.418189120914392, 0.218380665190146, 0.307518987618047, -1.405, 0.76, -0.761], a = 0.2, v = 0.2, t = 0.2)
movej(p[0.418188026011962, 0.218378719279334, 0.30760141288486, -1.405, 0.76, -0.761], a = 0.2, v = 0.2, t = 0.2)
movej(p[0.418180279697847, 0.218364952174645, 0.30818456256989, -1.405, 0.76, -0.761], a = 0.2, v = 0.2, t = 0.2)
movej(p[0.41816867710843, 0.218344331520642, 0.309058016223276, -1.405, 0.76, -0.761], a = 0.2, v = 0.2, t = 0.2)
movej(p[0.418151197256406, 0.218313265526002, 0.310373915637067, -1.405, 0.76, -0.761], a = 0.2, v = 0.2, t = 0.2)
movej(p[0.418135851740617, 0.218285992771601, 0.311529140246607, -1.405, 0.76, -0.761], a = 0.2, v = 0.2, t = 0.2)
movej(p[0.418124806249134, 0.218266362217593, 0.312360655052782, -1.405, 0.76, -0.761], a = 0.2, v = 0.2, t = 0.2)
movej(p[0.418120600280324, 0.21825888717694, 0.312677284271553, -1.405, 0.76, -0.761], a = 0.2, v = 0.2, t = 0.2)
movej(p[0.418130488165713, 0.21827646038031, 0.31193291512192, -1.405, 0.76, -0.761], a = 0.2, v = 0.2, t = 0.2)
movej(p[0.418151742295942, 0.218314234195261, 0.310332884557111, -1.405, 0.76, -0.761], a = 0.2, v = 0.2, t = 0.2)
movej(p[0.418170396635816, 0.21834738754357, 0.308928568612621, -1.405, 0.76, -0.761], a = 0.2, v = 0.2, t = 0.2)
movej(p[0.418178929157403, 0.218362551932234, 0.308286232502523, -1.405, 0.76, -0.761], a = 0.2, v = 0.2, t = 0.2)
movej(p[0.418183863453381, 0.21837132138933, 0.307914774141511, -1.405, 0.76, -0.761], a = 0.2, v = 0.2, t = 0.2)
movej(p[0.418186849112432, 0.218376627639518, 0.307690010969012, -1.405, 0.76, -0.761], a = 0.2, v = 0.2, t = 0.2)
movej(p[0.418188520406231, 0.218379597939502, 0.307564194427379, -1.405, 0.76, -0.761], a = 0.2, v = 0.2, t = 0.2)
movej(p[0.418188795337678, 0.218380086560279, 0.30754349733395, -1.405, 0.76, -0.761], a = 0.2, v = 0.2, t = 0.2)
movej(p[0.418185443103364, 0.218374128815722, 0.307795856631021, -1.405, 0.76, -0.761], a = 0.2, v = 0.2, t = 0.2)
movej(p[0.418174643603175, 0.218354935448724, 0.308608852985181, -1.405, 0.76, -0.761], a = 0.2, v = 0.2, t = 0.2)
movej(p[0.41815723851321, 0.218324002324646, 0.309919124241986, -1.405, 0.76, -0.761], a = 0.2, v = 0.2, t = 0.2)
movej(p[0.41814034711095, 0.218293982149914, 0.3111907246137, -1.405, 0.76, -0.761], a = 0.2, v = 0.2, t = 0.2)
movej(p[0.418129424615114, 0.218274570189411, 0.312012980193868, -1.405, 0.76, -0.761], a = 0.2, v = 0.2, t = 0.2)
movej(p[0.418119271444995, 0.218256525509853, 0.312777320223125, -1.405, 0.76, -0.761], a = 0.2, v = 0.2, t = 0.2)
movej(p[0.418122495860304, 0.218262256088611, 0.312534583258965, -1.405, 0.76, -0.761], a = 0.2, v = 0.2, t = 0.2)
movej(p[0.418144200974573, 0.218300831413081, 0.310900602198795, -1.405, 0.76, -0.761], a = 0.2, v = 0.2, t = 0.2)
movej(p[0.418166287134181, 0.218340083948803, 0.309237935693346, -1.405, 0.76, -0.761], a = 0.2, v = 0.2, t = 0.2)
movej(p[0.418177262686963, 0.218359590204544, 0.308411685937254, -1.405, 0.76, -0.761], a = 0.2, v = 0.2, t = 0.2)
movej(p[0.418182780609346, 0.218369396909253, 0.307996291641068, -1.405, 0.76, -0.761], a = 0.2, v = 0.2, t = 0.2)
movej(p[0.418187027576705, 0.218376944814408, 0.307676576013628, -1.405, 0.76, -0.761], a = 0.2, v = 0.2, t = 0.2)
movej(p[0.418188161066006, 0.218378959303575, 0.307591245891597, -1.405, 0.76, -0.761], a = 0.2, v = 0.2, t = 0.2)
movej(p[0.418188445644171, 0.21837946506894, 0.307569822584364, -1.405, 0.76, -0.761], a = 0.2, v = 0.2, t = 0.2)
movej(p[0.41818572285817, 0.218374626008793, 0.30777479643069, -1.405, 0.76, -0.761], a = 0.2, v = 0.2, t = 0.2)
movej(p[0.418176797232846, 0.218358762978141, 0.308446725753322, -1.405, 0.76, -0.761], a = 0.2, v = 0.2, t = 0.2)
movej(p[0.418160921147598, 0.218330547271365, 0.30964189212211, -1.405, 0.76, -0.761], a = 0.2, v = 0.2, t = 0.2)
movej(p[0.418145587690207, 0.2183032959477, 0.310796208964395, -1.405, 0.76, -0.761], a = 0.2, v = 0.2, t = 0.2)
movej(p[0.41813334359408, 0.218281535178551, 0.311717955835782, -1.405, 0.76, -0.761], a = 0.2, v = 0.2, t = 0.2)
movej(p[0.418121598715581, 0.218260661641866, 0.312602121142785, -1.405, 0.76, -0.761], a = 0.2, v = 0.2, t = 0.2)
movej(p[0.418121044029327, 0.218259675828018, 0.312643878436545, -1.405, 0.76, -0.761], a = 0.2, v = 0.2, t = 0.2)
movej(p[0.41813868064051, 0.218291020422224, 0.311316178048431, -1.405, 0.76, -0.761], a = 0.2, v = 0.2, t = 0.2)
movej(p[0.418161326309731, 0.218331267344088, 0.309611391142321, -1.405, 0.76, -0.761], a = 0.2, v = 0.2, t = 0.2)
movej(p[0.418174650838213, 0.218354948307166, 0.308608308324827, -1.405, 0.76, -0.761], a = 0.2, v = 0.2, t = 0.2)
movej(p[0.41818212222088, 0.218368226791078, 0.308045855733227, -1.405, 0.76, -0.761], a = 0.2, v = 0.2, t = 0.2)
movej(p[0.418187169865788, 0.218377197697091, 0.307665864360012, -1.405, 0.76, -0.761], a = 0.2, v = 0.2, t = 0.2)
movej(p[0.418188163477685, 0.218378963589722, 0.307591064338146, -1.405, 0.76, -0.761], a = 0.2, v = 0.2, t = 0.2)
movej(p[0.418188235828066, 0.218379092174137, 0.307585617734612, -1.405, 0.76, -0.761], a = 0.2, v = 0.2, t = 0.2)
movej(p[0.418186639296328, 0.218376254744715, 0.30770580611926, -1.405, 0.76, -0.761], a = 0.2, v = 0.2, t = 0.2)
movej(p[0.418177472503068, 0.218359963099347, 0.308395890787005, -1.405, 0.76, -0.761], a = 0.2, v = 0.2, t = 0.2)
movej(p[0.418161854467512, 0.218332206010317, 0.309571630936523, -1.405, 0.76, -0.761], a = 0.2, v = 0.2, t = 0.2)
movej(p[0.418147480858507, 0.218306660573223, 0.310653689505258, -1.405, 0.76, -0.761], a = 0.2, v = 0.2, t = 0.2)
movej(p[0.418135137883526, 0.218284724072041, 0.311582880068141, -1.405, 0.76, -0.761], a = 0.2, v = 0.2, t = 0.2)
movej(p[0.418123004724649, 0.218263160465662, 0.312496275480776, -1.405, 0.76, -0.761], a = 0.2, v = 0.2, t = 0.2)
movej(p[0.418119999772163, 0.218257819926296, 0.312722491080884, -1.405, 0.76, -0.761], a = 0.2, v = 0.2, t = 0.2)
movej(p[0.418137284278159, 0.218288538743016, 0.311421297496636, -1.405, 0.76, -0.761], a = 0.2, v = 0.2, t = 0.2)
movej(p[0.418156924994893, 0.218323445125515, 0.309942726190633, -1.405, 0.76, -0.761], a = 0.2, v = 0.2, t = 0.2)
movej(p[0.418171641062368, 0.218349599195506, 0.308834887031838, -1.405, 0.76, -0.761], a = 0.2, v = 0.2, t = 0.2)
movej(p[0.418180887441046, 0.21836603228373, 0.308138811100205, -1.405, 0.76, -0.761], a = 0.2, v = 0.2, t = 0.2)
movej(p[0.418186947991286, 0.218376803371552, 0.307682567277516, -1.405, 0.76, -0.761], a = 0.2, v = 0.2, t = 0.2)
movej(p[0.418188173124403, 0.218378980734311, 0.307590338124342, -1.405, 0.76, -0.761], a = 0.2, v = 0.2, t = 0.2)
movej(p[0.418188727810656, 0.218379966548158, 0.307548580830582, -1.405, 0.76, -0.761], a = 0.2, v = 0.2, t = 0.2)
movej(p[0.418189581545151, 0.218381483844254, 0.307484310908882, -1.405, 0.76, -0.761], a = 0.2, v = 0.2, t = 0.2)
movej(p[0.418186494595566, 0.218375997575885, 0.307716699326328, -1.405, 0.76, -0.761], a = 0.2, v = 0.2, t = 0.2)
movej(p[0.418173324414563, 0.218352590926226, 0.308708162722949, -1.405, 0.76, -0.761], a = 0.2, v = 0.2, t = 0.2)
movej(p[0.418158473293044, 0.218326196831994, 0.309826168875007, -1.405, 0.76, -0.761], a = 0.2, v = 0.2, t = 0.2)
movej(p[0.41814568898074, 0.218303475965881, 0.310788583719448, -1.405, 0.76, -0.761], a = 0.2, v = 0.2, t = 0.2)
movej(p[0.418129793602057, 0.218275225969927, 0.311985202515845, -1.405, 0.76, -0.761], a = 0.2, v = 0.2, t = 0.2)
movej(p[0.418118615468208, 0.218255359677825, 0.312826702761833, -1.405, 0.76, -0.761], a = 0.2, v = 0.2, t = 0.2)
movej(p[0.418124639843258, 0.218266066473439, 0.31237318224091, -1.405, 0.76, -0.761], a = 0.2, v = 0.2, t = 0.2)
movej(p[0.418144128624192, 0.218300702828666, 0.310906048802329, -1.405, 0.76, -0.761], a = 0.2, v = 0.2, t = 0.2)
movej(p[0.41816227892308, 0.218332960372218, 0.309539677529124, -1.405, 0.76, -0.761], a = 0.2, v = 0.2, t = 0.2)
movej(p[0.4181754587508, 0.218356384166465, 0.308547487918699, -1.405, 0.76, -0.761], a = 0.2, v = 0.2, t = 0.2)
movej(p[0.418184292732307, 0.218372084323525, 0.30788245762721, -1.405, 0.76, -0.761], a = 0.2, v = 0.2, t = 0.2)
movej(p[0.41818685875915, 0.218376644784107, 0.307689284755207, -1.405, 0.76, -0.761], a = 0.2, v = 0.2, t = 0.2)
movej(p[0.41818799224845, 0.218378659273274, 0.307603954633176, -1.405, 0.76, -0.761], a = 0.2, v = 0.2, t = 0.2)
movej(p[0.418189764832782, 0.218381809591439, 0.307470512846596, -1.405, 0.76, -0.761], a = 0.2, v = 0.2, t = 0.2)
movej(p[0.418189776891179, 0.218381831022174, 0.30746960507934, -1.405, 0.76, -0.761], a = 0.2, v = 0.2, t = 0.2)
movej(p[0.418186661001442, 0.218376293320039, 0.3077041721382, -1.405, 0.76, -0.761], a = 0.2, v = 0.2, t = 0.2)
movej(p[0.418176172607891, 0.218357652866026, 0.308493748097164, -1.405, 0.76, -0.761], a = 0.2, v = 0.2, t = 0.2)
movej(p[0.418164936593738, 0.218337683706392, 0.309339605625979, -1.405, 0.76, -0.761], a = 0.2, v = 0.2, t = 0.2)
movej(p[0.418149832245886, 0.218310839566707, 0.310476674890406, -1.405, 0.76, -0.761], a = 0.2, v = 0.2, t = 0.2)
movej(p[0.418136498070687, 0.218287141459041, 0.311480483921704, -1.405, 0.76, -0.761], a = 0.2, v = 0.2, t = 0.2)
movej(p[0.41813012400213, 0.218275813172088, 0.31196032969304, -1.405, 0.76, -0.761], a = 0.2, v = 0.2, t = 0.2)
movej(p[0.418138070485631, 0.218289936026992, 0.311362111071567, -1.405, 0.76, -0.761], a = 0.2, v = 0.2, t = 0.2)
movej(p[0.418156199079405, 0.218322154995219, 0.309997373779423, -1.405, 0.76, -0.761], a = 0.2, v = 0.2, t = 0.2)
movej(p[0.418170804209629, 0.21834811190244, 0.30889788607938, -1.405, 0.76, -0.761], a = 0.2, v = 0.2, t = 0.2)
movej(p[0.418182059517217, 0.218368115351252, 0.308050576122956, -1.405, 0.76, -0.761], a = 0.2, v = 0.2, t = 0.2)
movej(p[0.418185631214354, 0.218374463135201, 0.307781695461832, -1.405, 0.76, -0.761], a = 0.2, v = 0.2, t = 0.2)
movej(p[0.418187567792883, 0.218377904911373, 0.307635908040575, -1.405, 0.76, -0.761], a = 0.2, v = 0.2, t = 0.2)
movej(p[0.418189574310113, 0.218381470985813, 0.307484855569235, -1.405, 0.76, -0.761], a = 0.2, v = 0.2, t = 0.2)
movej(p[0.418189798596294, 0.218381869597499, 0.30746797109828, -1.405, 0.76, -0.761], a = 0.2, v = 0.2, t = 0.2)
movej(p[0.418189781714538, 0.218381839594469, 0.307469241972438, -1.405, 0.76, -0.761], a = 0.2, v = 0.2, t = 0.2)
movej(p[0.418186873229226, 0.21837667050099, 0.307688195434501, -1.405, 0.76, -0.761], a = 0.2, v = 0.2, t = 0.2)
movej(p[0.41817795725062, 0.218360824614927, 0.308359398543328, -1.405, 0.76, -0.761], a = 0.2, v = 0.2, t = 0.2)
movej(p[0.418164618252062, 0.218337117934966, 0.309363570681528, -1.405, 0.76, -0.761], a = 0.2, v = 0.2, t = 0.2)
movej(p[0.418151792941208, 0.218314324204351, 0.310329071934637, -1.405, 0.76, -0.761], a = 0.2, v = 0.2, t = 0.2)
movej(p[0.418142040109863, 0.218296991025223, 0.311063274091007, -1.405, 0.76, -0.761], a = 0.2, v = 0.2, t = 0.2)
movej(p[0.418131129672424, 0.218277600495455, 0.311884621903919, -1.405, 0.76, -0.761], a = 0.2, v = 0.2, t = 0.2)
movej(p[0.418130977736624, 0.218277330468184, 0.31189605977134, -1.405, 0.76, -0.761], a = 0.2, v = 0.2, t = 0.2)
movej(p[0.418146928583933, 0.218305679045523, 0.310695265245567, -1.405, 0.76, -0.761], a = 0.2, v = 0.2, t = 0.2)
movej(p[0.418165107822973, 0.21833798802284, 0.309326715330949, -1.405, 0.76, -0.761], a = 0.2, v = 0.2, t = 0.2)
movej(p[0.418176341425447, 0.218357952896327, 0.308481039355585, -1.405, 0.76, -0.761], a = 0.2, v = 0.2, t = 0.2)
movej(p[0.418182763727591, 0.218369366906223, 0.307997562515226, -1.405, 0.76, -0.761], a = 0.2, v = 0.2, t = 0.2)
movej(p[0.418187548499448, 0.218377870622195, 0.307637360468184, -1.405, 0.76, -0.761], a = 0.2, v = 0.2, t = 0.2)
movej(p[0.418189002742104, 0.218380455168935, 0.307527883737153, -1.405, 0.76, -0.761], a = 0.2, v = 0.2, t = 0.2)
movej(p[0.418189711775836, 0.218381715296201, 0.307474507022521, -1.405, 0.76, -0.761], a = 0.2, v = 0.2, t = 0.2)
movej(p[0.418190025294154, 0.218382272495332, 0.307450905073874, -1.405, 0.76, -0.761], a = 0.2, v = 0.2, t = 0.2)
movej(p[0.418191660412762, 0.218385178503109, 0.307327811834007, -1.405, 0.76, -0.761], a = 0.2, v = 0.2, t = 0.2)
movej(p[0.41819163147261, 0.218385127069343, 0.307329990475421, -1.405, 0.76, -0.761], a = 0.2, v = 0.2, t = 0.2)
movej(p[0.4181878813112, 0.218378462110504, 0.307612306091928, -1.405, 0.76, -0.761], a = 0.2, v = 0.2, t = 0.2)
movej(p[0.418179647837854, 0.218363829204088, 0.308232129574086, -1.405, 0.76, -0.761], a = 0.2, v = 0.2, t = 0.2)
movej(p[0.418169451257506, 0.218345707373882, 0.308999737565464, -1.405, 0.76, -0.761], a = 0.2, v = 0.2, t = 0.2)
movej(p[0.418156707943751, 0.21832305937227, 0.309959066001235, -1.405, 0.76, -0.761], a = 0.2, v = 0.2, t = 0.2)
movej(p[0.418146004910737, 0.218304037451159, 0.310764800217349, -1.405, 0.76, -0.761], a = 0.2, v = 0.2, t = 0.2)
movej(p[0.418137040698543, 0.218288105842153, 0.3114396343952, -1.405, 0.76, -0.761], a = 0.2, v = 0.2, t = 0.2)
movej(p[0.418131091085554, 0.218277531917101, 0.311887526759137, -1.405, 0.76, -0.761], a = 0.2, v = 0.2, t = 0.2)
movej(p[0.418142655088101, 0.218298083992749, 0.311016977960969, -1.405, 0.76, -0.761], a = 0.2, v = 0.2, t = 0.2)
movej(p[0.4181606872147, 0.21833013151509, 0.30965950280687, -1.405, 0.76, -0.761], a = 0.2, v = 0.2, t = 0.2)
movej(p[0.418176445127659, 0.218358137200655, 0.308473232557187, -1.405, 0.76, -0.761], a = 0.2, v = 0.2, t = 0.2)
movej(p[0.418183149596289, 0.21837005268977, 0.307968513963045, -1.405, 0.76, -0.761], a = 0.2, v = 0.2, t = 0.2)
movej(p[0.418186906992737, 0.21837673050705, 0.307685653686185, -1.405, 0.76, -0.761], a = 0.2, v = 0.2, t = 0.2)
movej(p[0.418189656307211, 0.218381616714816, 0.307478682751897, -1.405, 0.76, -0.761], a = 0.2, v = 0.2, t = 0.2)
movej(p[0.41819037981102, 0.218382902558965, 0.307424216716558, -1.405, 0.76, -0.761], a = 0.2, v = 0.2, t = 0.2)
movej(p[0.418190787384832, 0.218383626917836, 0.307393534183317, -1.405, 0.76, -0.761], a = 0.2, v = 0.2, t = 0.2)
movej(p[0.418190770503077, 0.218383596914806, 0.307394805057474, -1.405, 0.76, -0.761], a = 0.2, v = 0.2, t = 0.2)
movej(p[0.418191899169019, 0.218385602831678, 0.307309838042346, -1.405, 0.76, -0.761], a = 0.2, v = 0.2, t = 0.2)
movej(p[0.418189899886827, 0.21838204961568, 0.307460345853332, -1.405, 0.76, -0.761], a = 0.2, v = 0.2, t = 0.2)
movej(p[0.418180434045326, 0.218365226488064, 0.308172943149018, -1.405, 0.76, -0.761], a = 0.2, v = 0.2, t = 0.2)
movej(p[0.418170112057651, 0.218346881778204, 0.308949991919854, -1.405, 0.76, -0.761], a = 0.2, v = 0.2, t = 0.2)
movej(p[0.418157976487096, 0.218325313885678, 0.30986356888594, -1.405, 0.76, -0.761], a = 0.2, v = 0.2, t = 0.2)
movej(p[0.41814436496877, 0.218301122871088, 0.310888256564118, -1.405, 0.76, -0.761], a = 0.2, v = 0.2, t = 0.2)
movej(p[0.418134038157736, 0.218282769588934, 0.311665668441857, -1.405, 0.76, -0.761], a = 0.2, v = 0.2, t = 0.2)
movej(p[0.418133336359041, 0.21828152232011, 0.311718500496135, -1.405, 0.76, -0.761], a = 0.2, v = 0.2, t = 0.2)
movej(p[0.418147878785602, 0.218307367787505, 0.310623733185821, -1.405, 0.76, -0.761], a = 0.2, v = 0.2, t = 0.2)
movej(p[0.418163465469326, 0.218335069156622, 0.309450353231168, -1.405, 0.76, -0.761], a = 0.2, v = 0.2, t = 0.2)
movej(p[0.418175748152323, 0.218356898504125, 0.308525701504563, -1.405, 0.76, -0.761], a = 0.2, v = 0.2, t = 0.2)
movej(p[0.41818420832353, 0.218371934308374, 0.307888811997999, -1.405, 0.76, -0.761], a = 0.2, v = 0.2, t = 0.2)
movej(p[0.418187461678991, 0.218377716320898, 0.307643896392425, -1.405, 0.76, -0.761], a = 0.2, v = 0.2, t = 0.2)
movej(p[0.418189031682256, 0.218380506602701, 0.307525705095739, -1.405, 0.76, -0.761], a = 0.2, v = 0.2, t = 0.2)
movej(p[0.418191228722156, 0.218384411282767, 0.30736030990176, -1.405, 0.76, -0.761], a = 0.2, v = 0.2, t = 0.2)
movej(p[0.418191129843302, 0.218384235550733, 0.307367753593256, -1.405, 0.76, -0.761], a = 0.2, v = 0.2, t = 0.2)
movej(p[0.418191305895896, 0.218384548439476, 0.307354500191324, -1.405, 0.76, -0.761], a = 0.2, v = 0.2, t = 0.2)
movej(p[0.418190690917658, 0.218383455471949, 0.307400796321362, -1.405, 0.76, -0.761], a = 0.2, v = 0.2, t = 0.2)
movej(p[0.418184420551314, 0.218372311489325, 0.3078728352943, -1.405, 0.76, -0.761], a = 0.2, v = 0.2, t = 0.2)
movej(p[0.418172328390986, 0.218350820747447, 0.308783144298266, -1.405, 0.76, -0.761], a = 0.2, v = 0.2, t = 0.2)
movej(p[0.418160472575237, 0.218329750047992, 0.309675661064021, -1.405, 0.76, -0.761], a = 0.2, v = 0.2, t = 0.2)
movej(p[0.418151472187853, 0.218313754146779, 0.310353218543638, -1.405, 0.76, -0.761], a = 0.2, v = 0.2, t = 0.2)
movej(p[0.418138123542577, 0.218290030322229, 0.311358116895642, -1.405, 0.76, -0.761], a = 0.2, v = 0.2, t = 0.2)
movej(p[0.418126405192551, 0.218269203933162, 0.312240285114683, -1.405, 0.76, -0.761], a = 0.2, v = 0.2, t = 0.2)
movej(p[0.418132538093172, 0.218280103605399, 0.311778594688459, -1.405, 0.76, -0.761], a = 0.2, v = 0.2, t = 0.2)
movej(p[0.418152477858147, 0.218315541470146, 0.310277510754517, -1.405, 0.76, -0.761], a = 0.2, v = 0.2, t = 0.2)
movej(p[0.418166648886086, 0.218340726870878, 0.309210702675677, -1.405, 0.76, -0.761], a = 0.2, v = 0.2, t = 0.2)
movej(p[0.418178232182067, 0.218361313235703, 0.308338701449899, -1.405, 0.76, -0.761], a = 0.2, v = 0.2, t = 0.2)
movej(p[0.418186579004344, 0.218376147591036, 0.307710344955538, -1.405, 0.76, -0.761], a = 0.2, v = 0.2, t = 0.2)
movej(p[0.418188633755161, 0.218379799388419, 0.307555661415176, -1.405, 0.76, -0.761], a = 0.2, v = 0.2, t = 0.2)
movej(p[0.418189772067821, 0.21838182244988, 0.307469968186242, -1.405, 0.76, -0.761], a = 0.2, v = 0.2, t = 0.2)
movej(p[0.418190377399341, 0.218382898272818, 0.307424398270009, -1.405, 0.76, -0.761], a = 0.2, v = 0.2, t = 0.2)
movej(p[0.418191776173371, 0.218385384238173, 0.307319097268353, -1.405, 0.76, -0.761], a = 0.2, v = 0.2, t = 0.2)
movej(p[0.41819163147261, 0.218385127069343, 0.307329990475421, -1.405, 0.76, -0.761], a = 0.2, v = 0.2, t = 0.2)
movej(p[0.418190739151245, 0.218383541194893, 0.307397165252339, -1.405, 0.76, -0.761], a = 0.2, v = 0.2, t = 0.2)
movej(p[0.418184709952837, 0.218372825826984, 0.307851048880164, -1.405, 0.76, -0.761], a = 0.2, v = 0.2, t = 0.2)
movej(p[0.418173240005786, 0.218352440911075, 0.308714517093738, -1.405, 0.76, -0.761], a = 0.2, v = 0.2, t = 0.2)
movej(p[0.418161007968055, 0.218330701572663, 0.30963535619787, -1.405, 0.76, -0.761], a = 0.2, v = 0.2, t = 0.2)
movej(p[0.418150671510304, 0.21831233114592, 0.310413494289413, -1.405, 0.76, -0.761], a = 0.2, v = 0.2, t = 0.2)
movej(p[0.418141729003225, 0.218296438112238, 0.311086694486203, -1.405, 0.76, -0.761], a = 0.2, v = 0.2, t = 0.2)
movej(p[0.418132858846528, 0.218280673662972, 0.311754448079459, -1.405, 0.76, -0.761], a = 0.2, v = 0.2, t = 0.2)
movej(p[0.41813777143739, 0.218289404544743, 0.311384623699507, -1.405, 0.76, -0.761], a = 0.2, v = 0.2, t = 0.2)
movej(p[0.418157009403671, 0.218323595140666, 0.309936371819843, -1.405, 0.76, -0.761], a = 0.2, v = 0.2, t = 0.2)
movej(p[0.418170784916194, 0.218348077613263, 0.308899338506989, -1.405, 0.76, -0.761], a = 0.2, v = 0.2, t = 0.2)
movej(p[0.418180651096469, 0.218365612241308, 0.308156603338416, -1.405, 0.76, -0.761], a = 0.2, v = 0.2, t = 0.2)
movej(p[0.418185447926722, 0.218374137388016, 0.307795493524118, -1.405, 0.76, -0.761], a = 0.2, v = 0.2, t = 0.2)
movej(p[0.418190013235757, 0.218382251064596, 0.307451812841129, -1.405, 0.76, -0.761], a = 0.2, v = 0.2, t = 0.2)
movej(p[0.418190859735213, 0.218383755502251, 0.307388087579783, -1.405, 0.76, -0.761], a = 0.2, v = 0.2, t = 0.2)
movej(p[0.418191103314829, 0.218384188403114, 0.307369750681219, -1.405, 0.76, -0.761], a = 0.2, v = 0.2, t = 0.2)
movej(p[0.418192721551682, 0.218387064407861, 0.30724792831551, -1.405, 0.76, -0.761], a = 0.2, v = 0.2, t = 0.2)
movej(p[0.418192598556034, 0.218386845814356, 0.307257187541518, -1.405, 0.76, -0.761], a = 0.2, v = 0.2, t = 0.2)
movej(p[0.418192280214358, 0.21838628004293, 0.307281152597067, -1.405, 0.76, -0.761], a = 0.2, v = 0.2, t = 0.2)
movej(p[0.418186007436334, 0.218375131774158, 0.307753373123456, -1.405, 0.76, -0.761], a = 0.2, v = 0.2, t = 0.2)
movej(p[0.418177055282538, 0.218359221595888, 0.308427299534051, -1.405, 0.76, -0.761], a = 0.2, v = 0.2, t = 0.2)
movej(p[0.41816485218496, 0.218337533691241, 0.309345959996769, -1.405, 0.76, -0.761], a = 0.2, v = 0.2, t = 0.2)
movej(p[0.418152475446468, 0.218315537183998, 0.310277692307968, -1.405, 0.76, -0.761], a = 0.2, v = 0.2, t = 0.2)
movej(p[0.418144336028617, 0.218301071437322, 0.310890435205531, -1.405, 0.76, -0.761], a = 0.2, v = 0.2, t = 0.2)
movej(p[0.418135998853058, 0.218286254226578, 0.311518065486088, -1.405, 0.76, -0.761], a = 0.2, v = 0.2, t = 0.2)
movej(p[0.418134867775437, 0.218284244023559, 0.311603214054668, -1.405, 0.76, -0.761], a = 0.2, v = 0.2, t = 0.2)
movej(p[0.418152374155935, 0.218315357165818, 0.310285317552915, -1.405, 0.76, -0.761], a = 0.2, v = 0.2, t = 0.2)
movej(p[0.41816966107361, 0.218346080268685, 0.308983942415215, -1.405, 0.76, -0.761], a = 0.2, v = 0.2, t = 0.2)
movej(p[0.418179254734117, 0.218363130562101, 0.30826172278662, -1.405, 0.76, -0.761], a = 0.2, v = 0.2, t = 0.2)
movej(p[0.418185083763138, 0.218373490179795, 0.307822908095239, -1.405, 0.76, -0.761], a = 0.2, v = 0.2, t = 0.2)
movej(p[0.41818799466013, 0.218378663559421, 0.307603773079725, -1.405, 0.76, -0.761], a = 0.2, v = 0.2, t = 0.2)
movej(p[0.418191127431623, 0.218384231264586, 0.307367935146707, -1.405, 0.76, -0.761], a = 0.2, v = 0.2, t = 0.2)
movej(p[0.418191397539711, 0.218384711313068, 0.307347601160181, -1.405, 0.76, -0.761], a = 0.2, v = 0.2, t = 0.2)
movej(p[0.418191351717803, 0.218384629876272, 0.307351050675752, -1.405, 0.76, -0.761], a = 0.2, v = 0.2, t = 0.2)
movej(p[0.418192282626038, 0.218386284329077, 0.307280971043616, -1.405, 0.76, -0.761], a = 0.2, v = 0.2, t = 0.2)
movej(p[0.418185508218706, 0.218374244541695, 0.30779095468784, -1.405, 0.76, -0.761], a = 0.2, v = 0.2, t = 0.2)
movej(p[0.418173683754788, 0.218353229562153, 0.30868111125873, -1.405, 0.76, -0.761], a = 0.2, v = 0.2, t = 0.2)
movej(p[0.418161188844007, 0.2183310230337, 0.309621739689035, -1.405, 0.76, -0.761], a = 0.2, v = 0.2, t = 0.2)
movej(p[0.418150789682593, 0.218312541167131, 0.310404598170308, -1.405, 0.76, -0.761], a = 0.2, v = 0.2, t = 0.2)
movej(p[0.418137513387699, 0.218288945926997, 0.311404049918778, -1.405, 0.76, -0.761], a = 0.2, v = 0.2, t = 0.2)
movej(p[0.418127905257115, 0.218271869916698, 0.31212735886808, -1.405, 0.76, -0.761], a = 0.2, v = 0.2, t = 0.2)
movej(p[0.41813678747221, 0.218287655796701, 0.311458697507568, -1.405, 0.76, -0.761], a = 0.2, v = 0.2, t = 0.2)
movej(p[0.418155169292317, 0.21832032481038, 0.310074897103055, -1.405, 0.76, -0.761], a = 0.2, v = 0.2, t = 0.2)
movej(p[0.418170478632915, 0.218347533272573, 0.308922395795282, -1.405, 0.76, -0.761], a = 0.2, v = 0.2, t = 0.2)
movej(p[0.418180643861431, 0.218365599382867, 0.308157147998769, -1.405, 0.76, -0.761], a = 0.2, v = 0.2, t = 0.2)
movej(p[0.418187753492194, 0.218378234944704, 0.307621928424838, -1.405, 0.76, -0.761], a = 0.2, v = 0.2, t = 0.2)
movej(p[0.418189521253167, 0.218381376690575, 0.30748884974516, -1.405, 0.76, -0.761], a = 0.2, v = 0.2, t = 0.2)
movej(p[0.418190321930715, 0.218382799691433, 0.307428573999385, -1.405, 0.76, -0.761], a = 0.2, v = 0.2, t = 0.2)
movej(p[0.418191387892994, 0.21838469416848, 0.307348327373985, -1.405, 0.76, -0.761], a = 0.2, v = 0.2, t = 0.2)
movej(p[0.418192521382295, 0.218386708657646, 0.307262997251954, -1.405, 0.76, -0.761], a = 0.2, v = 0.2, t = 0.2)
movej(p[0.418192203040619, 0.218386142886221, 0.307286962307503, -1.405, 0.76, -0.761], a = 0.2, v = 0.2, t = 0.2)
movej(p[0.418186497007245, 0.218376001862032, 0.307716517772877, -1.405, 0.76, -0.761], a = 0.2, v = 0.2, t = 0.2)
movej(p[0.418176044788885, 0.218357425700226, 0.308503370430074, -1.405, 0.76, -0.761], a = 0.2, v = 0.2, t = 0.2)
movej(p[0.418162631028267, 0.218333586149703, 0.309513170725259, -1.405, 0.76, -0.761], a = 0.2, v = 0.2, t = 0.2)
movej(p[0.418148976099712, 0.218309317984464, 0.310541126365557, -1.405, 0.76, -0.761], a = 0.2, v = 0.2, t = 0.2)
movej(p[0.418139305265465, 0.218292130534339, 0.311269155704589, -1.405, 0.76, -0.761], a = 0.2, v = 0.2, t = 0.2)
movej(p[0.418131274373186, 0.218277857664285, 0.311873728696851, -1.405, 0.76, -0.761], a = 0.2, v = 0.2, t = 0.2)
movej(p[0.418132974607137, 0.218280879398035, 0.311745733513805, -1.405, 0.76, -0.761], a = 0.2, v = 0.2, t = 0.2)
movej(p[0.418152552620208, 0.218315674340708, 0.310271882597532, -1.405, 0.76, -0.761], a = 0.2, v = 0.2, t = 0.2)
movej(p[0.418171920817174, 0.218350096388577, 0.308813826831507, -1.405, 0.76, -0.761], a = 0.2, v = 0.2, t = 0.2)
movej(p[0.418181217841119, 0.218366619485892, 0.3081139382774, -1.405, 0.76, -0.761], a = 0.2, v = 0.2, t = 0.2)
movej(p[0.418186369188239, 0.218375774696233, 0.307726140105787, -1.405, 0.76, -0.761], a = 0.2, v = 0.2, t = 0.2)
movej(p[0.418189530899884, 0.218381393835164, 0.307488123531355, -1.405, 0.76, -0.761], a = 0.2, v = 0.2, t = 0.2)
movej(p[0.418191315542613, 0.218384565584065, 0.307353773977519, -1.405, 0.76, -0.761], a = 0.2, v = 0.2, t = 0.2)
movej(p[0.418191655589403, 0.218385169930815, 0.30732817494091, -1.405, 0.76, -0.761], a = 0.2, v = 0.2, t = 0.2)
movej(p[0.418191614590854, 0.218385097066313, 0.307331261349579, -1.405, 0.76, -0.761], a = 0.2, v = 0.2, t = 0.2)
movej(p[0.418193047128396, 0.218387643037728, 0.307223418599608, -1.405, 0.76, -0.761], a = 0.2, v = 0.2, t = 0.2)
movej(p[0.418190770503077, 0.218383596914806, 0.307394805057474, -1.405, 0.76, -0.761], a = 0.2, v = 0.2, t = 0.2)
movej(p[0.418181430068903, 0.218366996666842, 0.308097961573701, -1.405, 0.76, -0.761], a = 0.2, v = 0.2, t = 0.2)
movej(p[0.418172157161751, 0.218350516430999, 0.308796034593296, -1.405, 0.76, -0.761], a = 0.2, v = 0.2, t = 0.2)
movej(p[0.418160364049665, 0.21832955717137, 0.309683830969321, -1.405, 0.76, -0.761], a = 0.2, v = 0.2, t = 0.2)
movej(p[0.418147340981104, 0.218306411976688, 0.310664219605423, -1.405, 0.76, -0.761], a = 0.2, v = 0.2, t = 0.2)
movej(p[0.418137209516099, 0.218288405872454, 0.311426925653621, -1.405, 0.76, -0.761], a = 0.2, v = 0.2, t = 0.2)
movej(p[0.418131587891503, 0.218278414863416, 0.311850126748205, -1.405, 0.76, -0.761], a = 0.2, v = 0.2, t = 0.2)
movej(p[0.418140337464233, 0.218293965005325, 0.311191450827505, -1.405, 0.76, -0.761], a = 0.2, v = 0.2, t = 0.2)
movej(p[0.41815651983276, 0.218322725052791, 0.309973227170423, -1.405, 0.76, -0.761], a = 0.2, v = 0.2, t = 0.2)
movej(p[0.418173119421817, 0.218352226603717, 0.308723594766295, -1.405, 0.76, -0.761], a = 0.2, v = 0.2, t = 0.2)
movej(p[0.418183050717435, 0.218369876957736, 0.307975957654542, -1.405, 0.76, -0.761], a = 0.2, v = 0.2, t = 0.2)
movej(p[0.418186928697851, 0.218376769082374, 0.307684019705125, -1.405, 0.76, -0.761], a = 0.2, v = 0.2, t = 0.2)
movej(p[0.418189362082329, 0.218381093804862, 0.307500832272934, -1.405, 0.76, -0.761], a = 0.2, v = 0.2, t = 0.2)
movej(p[0.41819196910772, 0.218385727129946, 0.307304572992263, -1.405, 0.76, -0.761], a = 0.2, v = 0.2, t = 0.2)
movej(p[0.418192029399705, 0.218385834283625, 0.307300034155985, -1.405, 0.76, -0.761], a = 0.2, v = 0.2, t = 0.2)
movej(p[0.418191826818638, 0.218385474247263, 0.30731528464588, -1.405, 0.76, -0.761], a = 0.2, v = 0.2, t = 0.2)
movej(p[0.418192241627488, 0.218386211464575, 0.307284057452285, -1.405, 0.76, -0.761], a = 0.2, v = 0.2, t = 0.2)
movej(p[0.418186586239382, 0.218376160449477, 0.307709800295185, -1.405, 0.76, -0.761], a = 0.2, v = 0.2, t = 0.2)
movej(p[0.418175644450111, 0.218356714199797, 0.308533508302962, -1.405, 0.76, -0.761], a = 0.2, v = 0.2, t = 0.2)
movej(p[0.41816466166229, 0.218337195085615, 0.309360302719408, -1.405, 0.76, -0.761], a = 0.2, v = 0.2, t = 0.2)
movej(p[0.418155702273456, 0.218321272048903, 0.310034773790356, -1.405, 0.76, -0.761], a = 0.2, v = 0.2, t = 0.2)
movej(p[0.418147145635075, 0.218306064798767, 0.310678925434965, -1.405, 0.76, -0.761], a = 0.2, v = 0.2, t = 0.2)
movej(p[0.418154520550568, 0.218319171836793, 0.310123734981409, -1.405, 0.76, -0.761], a = 0.2, v = 0.2, t = 0.2)
movej(p[0.418170886206727, 0.218348257631444, 0.308891713262041, -1.405, 0.76, -0.761], a = 0.2, v = 0.2, t = 0.2)
movej(p[0.418181808702563, 0.218367669591947, 0.308069457681874, -1.405, 0.76, -0.761], a = 0.2, v = 0.2, t = 0.2)
movej(p[0.418186579004344, 0.218376147591036, 0.307710344955538, -1.405, 0.76, -0.761], a = 0.2, v = 0.2, t = 0.2)
movej(p[0.418189123326072, 0.218380669476293, 0.307518806064596, -1.405, 0.76, -0.761], a = 0.2, v = 0.2, t = 0.2)
movej(p[0.418191988401155, 0.218385761419123, 0.307303120564654, -1.405, 0.76, -0.761], a = 0.2, v = 0.2, t = 0.2)
movej(p[0.418192092103368, 0.218385945723451, 0.307295313766255, -1.405, 0.76, -0.761], a = 0.2, v = 0.2, t = 0.2)
movej(p[0.418191778585051, 0.21838538852432, 0.307318915714902, -1.405, 0.76, -0.761], a = 0.2, v = 0.2, t = 0.2)
movej(p[0.418187150572353, 0.218377163407914, 0.307667316787621, -1.405, 0.76, -0.761], a = 0.2, v = 0.2, t = 0.2)
movej(p[0.418177221688414, 0.218359517340042, 0.308414772345923, -1.405, 0.76, -0.761], a = 0.2, v = 0.2, t = 0.2)
movej(p[0.418162141457356, 0.218332716061829, 0.309550026075839, -1.405, 0.76, -0.761], a = 0.2, v = 0.2, t = 0.2)
movej(p[0.418148069308271, 0.218307706393131, 0.310609390463182, -1.405, 0.76, -0.761], a = 0.2, v = 0.2, t = 0.2)
movej(p[0.418137337335105, 0.218288633038254, 0.311417303320711, -1.405, 0.76, -0.761], a = 0.2, v = 0.2, t = 0.2)
movej(p[0.418128385181309, 0.218272722859984, 0.312091229731305, -1.405, 0.76, -0.761], a = 0.2, v = 0.2, t = 0.2)
movej(p[0.41813432514758, 0.218283279640447, 0.311644063581172, -1.405, 0.76, -0.761], a = 0.2, v = 0.2, t = 0.2)
movej(p[0.418152067872656, 0.218314812825128, 0.310308374841209, -1.405, 0.76, -0.761], a = 0.2, v = 0.2, t = 0.2)
movej(p[0.41816784507905, 0.218342852799871, 0.309120652163916, -1.405, 0.76, -0.761], a = 0.2, v = 0.2, t = 0.2)
movej(p[0.418177556911846, 0.218360113114498, 0.308389536416216, -1.405, 0.76, -0.761], a = 0.2, v = 0.2, t = 0.2)
movej(p[0.41818416732498, 0.218371861443872, 0.307891898406668, -1.405, 0.76, -0.761], a = 0.2, v = 0.2, t = 0.2)
movej(p[0.418189533311564, 0.218381398121311, 0.307487941977904, -1.405, 0.76, -0.761], a = 0.2, v = 0.2, t = 0.2)
movej(p[0.418190461808118, 0.218383048287969, 0.307418043899219, -1.405, 0.76, -0.761], a = 0.2, v = 0.2, t = 0.2)
movej(p[0.41819087179361, 0.218383776932987, 0.307387179812527, -1.405, 0.76, -0.761], a = 0.2, v = 0.2, t = 0.2)
movej(p[0.418190107291252, 0.218382418224336, 0.307444732256535, -1.405, 0.76, -0.761], a = 0.2, v = 0.2, t = 0.2)
movej(p[0.418184227616964, 0.218371968597552, 0.30788735957039, -1.405, 0.76, -0.761], a = 0.2, v = 0.2, t = 0.2)
movej(p[0.418171701354352, 0.218349706349185, 0.308830348195559, -1.405, 0.76, -0.761], a = 0.2, v = 0.2, t = 0.2)
movej(p[0.418156758589017, 0.218323149381361, 0.309955253378761, -1.405, 0.76, -0.761], a = 0.2, v = 0.2, t = 0.2)
movej(p[0.418140571397131, 0.2182943807616, 0.311173840142745, -1.405, 0.76, -0.761], a = 0.2, v = 0.2, t = 0.2)
movej(p[0.418126202611485, 0.218268843896801, 0.312255535604578, -1.405, 0.76, -0.761], a = 0.2, v = 0.2, t = 0.2)
movej(p[0.418122312572672, 0.218261930341426, 0.312548381321251, -1.405, 0.76, -0.761], a = 0.2, v = 0.2, t = 0.2)
movej(p[0.418139066509208, 0.21829170620577, 0.31128712949625, -1.405, 0.76, -0.761], a = 0.2, v = 0.2, t = 0.2)
movej(p[0.418156037496888, 0.218321867823359, 0.310009537860649, -1.405, 0.76, -0.761], a = 0.2, v = 0.2, t = 0.2)
movej(p[0.41817019164307, 0.218347023221061, 0.308944000655967, -1.405, 0.76, -0.761], a = 0.2, v = 0.2, t = 0.2)
movej(p[0.418180241110977, 0.21836488359629, 0.308187467425108, -1.405, 0.76, -0.761], a = 0.2, v = 0.2, t = 0.2)
movej(p[0.418187664260057, 0.218378076357259, 0.30762864590253, -1.405, 0.76, -0.761], a = 0.2, v = 0.2, t = 0.2)
movej(p[0.418189448902786, 0.21838124810616, 0.307494296348694, -1.405, 0.76, -0.761], a = 0.2, v = 0.2, t = 0.2)
movej(p[0.418190473866515, 0.218383069718705, 0.307417136131963, -1.405, 0.76, -0.761], a = 0.2, v = 0.2, t = 0.2)
movej(p[0.418191715881387, 0.218385277084494, 0.307323636104632, -1.405, 0.76, -0.761], a = 0.2, v = 0.2, t = 0.2)
movej(p[0.418192451443593, 0.218386584359379, 0.307268262302037, -1.405, 0.76, -0.761], a = 0.2, v = 0.2, t = 0.2)
movej(p[0.418189248733399, 0.218380892355946, 0.307509365285138, -1.405, 0.76, -0.761], a = 0.2, v = 0.2, t = 0.2)
movej(p[0.418178586698934, 0.218361943299336, 0.308312013092583, -1.405, 0.76, -0.761], a = 0.2, v = 0.2, t = 0.2)
movej(p[0.418166342602807, 0.218340182530188, 0.30923375996397, -1.405, 0.76, -0.761], a = 0.2, v = 0.2, t = 0.2)
movej(p[0.418150058943746, 0.218311242464541, 0.310459608866, -1.405, 0.76, -0.761], a = 0.2, v = 0.2, t = 0.2)
movej(p[0.418134375792847, 0.218283369649537, 0.311640250958698, -1.405, 0.76, -0.761], a = 0.2, v = 0.2, t = 0.2)
movej(p[0.418125368170425, 0.218267360889882, 0.312318353098669, -1.405, 0.76, -0.761], a = 0.2, v = 0.2, t = 0.2)
movej(p[0.418130025123276, 0.218275637440055, 0.311967773384537, -1.405, 0.76, -0.761], a = 0.2, v = 0.2, t = 0.2)
movej(p[0.418145937383714, 0.218303917439039, 0.310769883713981, -1.405, 0.76, -0.761], a = 0.2, v = 0.2, t = 0.2)
movej(p[0.418164357790691, 0.218336655031072, 0.30938317845425, -1.405, 0.76, -0.761], a = 0.2, v = 0.2, t = 0.2)
movej(p[0.418179647837854, 0.218363829204088, 0.308232129574086, -1.405, 0.76, -0.761], a = 0.2, v = 0.2, t = 0.2)
movej(p[0.418185578157408, 0.218374368839963, 0.307785689637757, -1.405, 0.76, -0.761], a = 0.2, v = 0.2, t = 0.2)
movej(p[0.418188513171193, 0.218379585081061, 0.307564739087732, -1.405, 0.76, -0.761], a = 0.2, v = 0.2, t = 0.2)
movej(p[0.418190432867966, 0.218382996854203, 0.307420222540633, -1.405, 0.76, -0.761], a = 0.2, v = 0.2, t = 0.2)
movej(p[0.418192584085958, 0.218386820097473, 0.307258276862225, -1.405, 0.76, -0.761], a = 0.2, v = 0.2, t = 0.2)
movej(p[0.418192258509244, 0.218386241467606, 0.307282786578127, -1.405, 0.76, -0.761], a = 0.2, v = 0.2, t = 0.2)
movej(p[0.418187874076162, 0.218378449252063, 0.307612850752282, -1.405, 0.76, -0.761], a = 0.2, v = 0.2, t = 0.2)
movej(p[0.41817879169168, 0.218362307621845, 0.308296581049237, -1.405, 0.76, -0.761], a = 0.2, v = 0.2, t = 0.2)
movej(p[0.418163103717422, 0.218334426234547, 0.309477586248838, -1.405, 0.76, -0.761], a = 0.2, v = 0.2, t = 0.2)
movej(p[0.418147586972399, 0.218306849163698, 0.310645701153408, -1.405, 0.76, -0.761], a = 0.2, v = 0.2, t = 0.2)
movej(p[0.418136355781604, 0.218286888576358, 0.311491195575321, -1.405, 0.76, -0.761], a = 0.2, v = 0.2, t = 0.2)
movej(p[0.418126400369193, 0.218269195360868, 0.312240648221585, -1.405, 0.76, -0.761], a = 0.2, v = 0.2, t = 0.2)
movej(p[0.418132108814246, 0.218279340671204, 0.311810911202761, -1.405, 0.76, -0.761], a = 0.2, v = 0.2, t = 0.2)
movej(p[0.418149253442839, 0.218309810891388, 0.310520247718677, -1.405, 0.76, -0.761], a = 0.2, v = 0.2, t = 0.2)
movej(p[0.418169024390259, 0.218344948725834, 0.309031872526314, -1.405, 0.76, -0.761], a = 0.2, v = 0.2, t = 0.2)
movej(p[0.418178495055118, 0.218361780425744, 0.308318912123726, -1.405, 0.76, -0.761], a = 0.2, v = 0.2, t = 0.2)
movej(p[0.418184840183523, 0.218373057278931, 0.307841244993803, -1.405, 0.76, -0.761], a = 0.2, v = 0.2, t = 0.2)
movej(p[0.418188320236844, 0.218379242189288, 0.307579263363823, -1.405, 0.76, -0.761], a = 0.2, v = 0.2, t = 0.2)
movej(p[0.418191522947038, 0.218384934192721, 0.307338160380722, -1.405, 0.76, -0.761], a = 0.2, v = 0.2, t = 0.2)
movej(p[0.418191959461003, 0.218385709985357, 0.307305299206067, -1.405, 0.76, -0.761], a = 0.2, v = 0.2, t = 0.2)
movej(p[0.418191392716353, 0.218384702740774, 0.307347964267083, -1.405, 0.76, -0.761], a = 0.2, v = 0.2, t = 0.2)
movej(p[0.418186976931439, 0.218376854805318, 0.307680388636102, -1.405, 0.76, -0.761], a = 0.2, v = 0.2, t = 0.2)
movej(p[0.41817341123502, 0.218352745227524, 0.308701626798708, -1.405, 0.76, -0.761], a = 0.2, v = 0.2, t = 0.2)
movej(p[0.418159073801206, 0.218327264082638, 0.309780962065676, -1.405, 0.76, -0.761], a = 0.2, v = 0.2, t = 0.2)
movej(p[0.41814648483493, 0.218304890394445, 0.310728671080575, -1.405, 0.76, -0.761], a = 0.2, v = 0.2, t = 0.2)
movej(p[0.41813621831588, 0.21828664426597, 0.311501544122035, -1.405, 0.76, -0.761], a = 0.2, v = 0.2, t = 0.2)
movej(p[0.418127307160633, 0.218270806952201, 0.31217238412396, -1.405, 0.76, -0.761], a = 0.2, v = 0.2, t = 0.2)
movej(p[0.418137838964413, 0.218289524556864, 0.311379540202876, -1.405, 0.76, -0.761], a = 0.2, v = 0.2, t = 0.2)
movej(p[0.418157703967328, 0.218324829551049, 0.309884084425918, -1.405, 0.76, -0.761], a = 0.2, v = 0.2, t = 0.2)
movej(p[0.41817238868297, 0.218350927901127, 0.308778605461987, -1.405, 0.76, -0.761], a = 0.2, v = 0.2, t = 0.2)
movej(p[0.418182020930347, 0.218368046772897, 0.308053480978174, -1.405, 0.76, -0.761], a = 0.2, v = 0.2, t = 0.2)
movej(p[0.418187536441051, 0.21837784919146, 0.30763826823544, -1.405, 0.76, -0.761], a = 0.2, v = 0.2, t = 0.2)
movej(p[0.418191257662308, 0.218384462716533, 0.307358131260346, -1.405, 0.76, -0.761], a = 0.2, v = 0.2, t = 0.2)
movej(p[0.418191908815736, 0.218385619976267, 0.307309111828541, -1.405, 0.76, -0.761], a = 0.2, v = 0.2, t = 0.2)
movej(p[0.418192104161765, 0.218385967154187, 0.307294405999, -1.405, 0.76, -0.761], a = 0.2, v = 0.2, t = 0.2)
movej(p[0.418192509323898, 0.218386687226911, 0.30726390501921, -1.405, 0.76, -0.761], a = 0.2, v = 0.2, t = 0.2)
movej(p[0.418183246063464, 0.218370224135656, 0.307961251825, -1.405, 0.76, -0.761], a = 0.2, v = 0.2, t = 0.2)
movej(p[0.418168966509954, 0.218344845858302, 0.309036229809141, -1.405, 0.76, -0.761], a = 0.2, v = 0.2, t = 0.2)
movej(p[0.418156155669176, 0.21832207784457, 0.310000641741543, -1.405, 0.76, -0.761], a = 0.2, v = 0.2, t = 0.2)
movej(p[0.418144256443198, 0.218300929994466, 0.310896426469419, -1.405, 0.76, -0.761], a = 0.2, v = 0.2, t = 0.2)
movej(p[0.418131730180586, 0.218278667746099, 0.311839415094588, -1.405, 0.76, -0.761], a = 0.2, v = 0.2, t = 0.2)
movej(p[0.418123856047465, 0.218264673475611, 0.312432187112527, -1.405, 0.76, -0.761], a = 0.2, v = 0.2, t = 0.2)
movej(p[0.418132670735537, 0.218280339343493, 0.311768609248647, -1.405, 0.76, -0.761], a = 0.2, v = 0.2, t = 0.2)
movej(p[0.418150087883898, 0.218311293898307, 0.310457430224586, -1.405, 0.76, -0.761], a = 0.2, v = 0.2, t = 0.2)
movej(p[0.418166386013035, 0.218340259680837, 0.30923049200185, -1.405, 0.76, -0.761], a = 0.2, v = 0.2, t = 0.2)
movej(p[0.418178873688778, 0.218362453350849, 0.308290408231899, -1.405, 0.76, -0.761], a = 0.2, v = 0.2, t = 0.2)
movej(p[0.418187102338765, 0.21837707768497, 0.307670947856643, -1.405, 0.76, -0.761], a = 0.2, v = 0.2, t = 0.2)
movej(p[0.418189501959732, 0.218381342401398, 0.307490302172769, -1.405, 0.76, -0.761], a = 0.2, v = 0.2, t = 0.2)
movej(p[0.418190727092848, 0.218383519764157, 0.307398073019595, -1.405, 0.76, -0.761], a = 0.2, v = 0.2, t = 0.2)
movej(p[0.418192436973517, 0.218386558642496, 0.307269351622744, -1.405, 0.76, -0.761], a = 0.2, v = 0.2, t = 0.2)
movej(p[0.418192533440691, 0.218386730088382, 0.307262089484698, -1.405, 0.76, -0.761], a = 0.2, v = 0.2, t = 0.2)
movej(p[0.418191272132384, 0.218384488433416, 0.307357041939639, -1.405, 0.76, -0.761], a = 0.2, v = 0.2, t = 0.2)
movej(p[0.41818182076096, 0.218367691022682, 0.308068549914618, -1.405, 0.76, -0.761], a = 0.2, v = 0.2, t = 0.2)
movej(p[0.418171440892981, 0.218349243445291, 0.308849955968281, -1.405, 0.76, -0.761], a = 0.2, v = 0.2, t = 0.2)
movej(p[0.418156184609329, 0.218322129278336, 0.30999846310013, -1.405, 0.76, -0.761], a = 0.2, v = 0.2, t = 0.2)
movej(p[0.41814175070834, 0.218296476687563, 0.311085060505143, -1.405, 0.76, -0.761], a = 0.2, v = 0.2, t = 0.2)
movej(p[0.418132721380804, 0.218280429352583, 0.311764796626174, -1.405, 0.76, -0.761], a = 0.2, v = 0.2, t = 0.2)
movej(p[0.418124888246232, 0.218266507946597, 0.312354482235444, -1.405, 0.76, -0.761], a = 0.2, v = 0.2, t = 0.2)
movej(p[0.418136307548017, 0.218286802853415, 0.311494826644343, -1.405, 0.76, -0.761], a = 0.2, v = 0.2, t = 0.2)
movej(p[0.418156645240087, 0.218322947932444, 0.309963786390964, -1.405, 0.76, -0.761], a = 0.2, v = 0.2, t = 0.2)
movej(p[0.418174655661572, 0.21835495687946, 0.308607945217925, -1.405, 0.76, -0.761], a = 0.2, v = 0.2, t = 0.2)
movej(p[0.418182657613699, 0.218369178315748, 0.308005550867076, -1.405, 0.76, -0.761], a = 0.2, v = 0.2, t = 0.2)
movej(p[0.418186967284721, 0.218376837660729, 0.307681114849906, -1.405, 0.76, -0.761], a = 0.2, v = 0.2, t = 0.2)
movej(p[0.418190666800864, 0.218383412610478, 0.307402611855873, -1.405, 0.76, -0.761], a = 0.2, v = 0.2, t = 0.2)
movej(p[0.418191660412762, 0.218385178503109, 0.307327811834007, -1.405, 0.76, -0.761], a = 0.2, v = 0.2, t = 0.2)
movej(p[0.41819159047406, 0.218385054204841, 0.30733307688409, -1.405, 0.76, -0.761], a = 0.2, v = 0.2, t = 0.2)
movej(p[0.418188621696764, 0.218379777957683, 0.307556569182431, -1.405, 0.76, -0.761], a = 0.2, v = 0.2, t = 0.2)
movej(p[0.418180052999987, 0.218364549276812, 0.308201628594296, -1.405, 0.76, -0.761], a = 0.2, v = 0.2, t = 0.2)
movej(p[0.418165635980753, 0.218338926689069, 0.309286955125151, -1.405, 0.76, -0.761], a = 0.2, v = 0.2, t = 0.2)
movej(p[0.41814951390421, 0.218310273795282, 0.310500639945955, -1.405, 0.76, -0.761], a = 0.2, v = 0.2, t = 0.2)
movej(p[0.418137151635794, 0.218288303004922, 0.311431282936448, -1.405, 0.76, -0.761], a = 0.2, v = 0.2, t = 0.2)
movej(p[0.418125177647756, 0.218267022284256, 0.312332695821308, -1.405, 0.76, -0.761], a = 0.2, v = 0.2, t = 0.2)
movej(p[0.418123612467849, 0.218264240574747, 0.312450524011092, -1.405, 0.76, -0.761], a = 0.2, v = 0.2, t = 0.2)
movej(p[0.41814201358139, 0.218296943877604, 0.31106527117897, -1.405, 0.76, -0.761], a = 0.2, v = 0.2, t = 0.2)
movej(p[0.418162819139257, 0.218333920469182, 0.309499009556071, -1.405, 0.76, -0.761], a = 0.2, v = 0.2, t = 0.2)
movej(p[0.418174590546229, 0.218354841153487, 0.308612847161106, -1.405, 0.76, -0.761], a = 0.2, v = 0.2, t = 0.2)
movej(p[0.418182556323166, 0.218368998297567, 0.308013176112023, -1.405, 0.76, -0.761], a = 0.2, v = 0.2, t = 0.2)
movej(p[0.418187611203111, 0.218377982062022, 0.307632640078455, -1.405, 0.76, -0.761], a = 0.2, v = 0.2, t = 0.2)
movej(p[0.41819094896735, 0.218383914089696, 0.307381370102091, -1.405, 0.76, -0.761], a = 0.2, v = 0.2, t = 0.2)
movej(p[0.418191506065283, 0.218384904189691, 0.30733943125488, -1.405, 0.76, -0.761], a = 0.2, v = 0.2, t = 0.2)
movej(p[0.418191375834597, 0.218384672737744, 0.307349235141241, -1.405, 0.76, -0.761], a = 0.2, v = 0.2, t = 0.2)
movej(p[0.418189776891179, 0.218381831022174, 0.30746960507934, -1.405, 0.76, -0.761], a = 0.2, v = 0.2, t = 0.2)
movej(p[0.418178046482756, 0.218360983202372, 0.308352681065636, -1.405, 0.76, -0.761], a = 0.2, v = 0.2, t = 0.2)
movej(p[0.418164885948471, 0.218337593697301, 0.309343418248453, -1.405, 0.76, -0.761], a = 0.2, v = 0.2, t = 0.2)
movej(p[0.418152000345633, 0.218314692813007, 0.31031345833784, -1.405, 0.76, -0.761], a = 0.2, v = 0.2, t = 0.2)
movej(p[0.418141092319874, 0.218295306569387, 0.311134624597301, -1.405, 0.76, -0.761], a = 0.2, v = 0.2, t = 0.2)
movej(p[0.41812845753169, 0.218272851444398, 0.312085783127771, -1.405, 0.76, -0.761], a = 0.2, v = 0.2, t = 0.2)
movej(p[0.418124866541118, 0.218266469371272, 0.312356116216504, -1.405, 0.76, -0.761], a = 0.2, v = 0.2, t = 0.2)
movej(p[0.4181381910696, 0.21829015033435, 0.311353033399011, -1.405, 0.76, -0.761], a = 0.2, v = 0.2, t = 0.2)
movej(p[0.418152981899134, 0.218316437274903, 0.31023956608323, -1.405, 0.76, -0.761], a = 0.2, v = 0.2, t = 0.2)
movej(p[0.418167066106616, 0.218341468374337, 0.309179293928631, -1.405, 0.76, -0.761], a = 0.2, v = 0.2, t = 0.2)
movej(p[0.41817773055276, 0.218360421717093, 0.308376464567734, -1.405, 0.76, -0.761], a = 0.2, v = 0.2, t = 0.2)
movej(p[0.418186571769306, 0.218376134732594, 0.307710889615892, -1.405, 0.76, -0.761], a = 0.2, v = 0.2, t = 0.2)
movej(p[0.418189263203475, 0.218380918072829, 0.307508275964431, -1.405, 0.76, -0.761], a = 0.2, v = 0.2, t = 0.2)
movej(p[0.418190326754074, 0.218382808263728, 0.307428210892482, -1.405, 0.76, -0.761], a = 0.2, v = 0.2, t = 0.2)
movej(p[0.418191484360168, 0.218384865614366, 0.30734106523594, -1.405, 0.76, -0.761], a = 0.2, v = 0.2, t = 0.2)
movej(p[0.418191460243375, 0.218384822752895, 0.307342880770451, -1.405, 0.76, -0.761], a = 0.2, v = 0.2, t = 0.2)
movej(p[0.418183885158495, 0.218371359964654, 0.307913140160451, -1.405, 0.76, -0.761], a = 0.2, v = 0.2, t = 0.2)
movej(p[0.418172728729761, 0.218351532247877, 0.308753006425378, -1.405, 0.76, -0.761], a = 0.2, v = 0.2, t = 0.2)
movej(p[0.418161647063086, 0.218331837401661, 0.30958724453332, -1.405, 0.76, -0.761], a = 0.2, v = 0.2, t = 0.2)
movej(p[0.418146858645231, 0.218305554747255, 0.310700530295649, -1.405, 0.76, -0.761], a = 0.2, v = 0.2, t = 0.2)
movej(p[0.418133107249502, 0.218281115136129, 0.311735748073993, -1.405, 0.76, -0.761], a = 0.2, v = 0.2, t = 0.2)
movej(p[0.418125575574851, 0.218267729498538, 0.312302739501872, -1.405, 0.76, -0.761], a = 0.2, v = 0.2, t = 0.2)
movej(p[0.418135682923062, 0.2182856927413, 0.311541848988186, -1.405, 0.76, -0.761], a = 0.2, v = 0.2, t = 0.2)
movej(p[0.418152740731198, 0.218316008660186, 0.310257721428343, -1.405, 0.76, -0.761], a = 0.2, v = 0.2, t = 0.2)
movej(p[0.41816879286904, 0.218344537255706, 0.309049301657622, -1.405, 0.76, -0.761], a = 0.2, v = 0.2, t = 0.2)
movej(p[0.418181487949208, 0.218367099534374, 0.308093604290874, -1.405, 0.76, -0.761], a = 0.2, v = 0.2, t = 0.2)
movej(p[0.418186675471518, 0.218376319036922, 0.307703082817493, -1.405, 0.76, -0.761], a = 0.2, v = 0.2, t = 0.2)
movej(p[0.418189255968437, 0.218380905214387, 0.307508820624784, -1.405, 0.76, -0.761], a = 0.2, v = 0.2, t = 0.2)
movej(p[0.418190374987661, 0.218382893986671, 0.30742457982346, -1.405, 0.76, -0.761], a = 0.2, v = 0.2, t = 0.2)
movej(p[0.418192444208555, 0.218386571500937, 0.30726880696239, -1.405, 0.76, -0.761], a = 0.2, v = 0.2, t = 0.2)
movej(p[0.418191513300321, 0.218384917048132, 0.307338886594526, -1.405, 0.76, -0.761], a = 0.2, v = 0.2, t = 0.2)
movej(p[0.418183294297051, 0.218370309858599, 0.307957620755977, -1.405, 0.76, -0.761], a = 0.2, v = 0.2, t = 0.2)
movej(p[0.418173970744633, 0.218353739613666, 0.308659506398046, -1.405, 0.76, -0.761], a = 0.2, v = 0.2, t = 0.2)
movej(p[0.418159792481656, 0.218328541354492, 0.309726859137239, -1.405, 0.76, -0.761], a = 0.2, v = 0.2, t = 0.2)
movej(p[0.41814383439931, 0.218300179918712, 0.310928198323366, -1.405, 0.76, -0.761], a = 0.2, v = 0.2, t = 0.2)
movej(p[0.418130874034412, 0.218277146163856, 0.311903866569739, -1.405, 0.76, -0.761], a = 0.2, v = 0.2, t = 0.2)
movej(p[0.418125913209961, 0.218268329559141, 0.312277322018714, -1.405, 0.76, -0.761], a = 0.2, v = 0.2, t = 0.2)
movej(p[0.418135846917259, 0.218285984199307, 0.311529503353509, -1.405, 0.76, -0.761], a = 0.2, v = 0.2, t = 0.2)
movej(p[0.418153394296305, 0.218317170206068, 0.310208520443087, -1.405, 0.76, -0.761], a = 0.2, v = 0.2, t = 0.2)
movej(p[0.418170013178798, 0.218346706046171, 0.30895743561135, -1.405, 0.76, -0.761], a = 0.2, v = 0.2, t = 0.2)
movej(p[0.418181967873401, 0.218367952477659, 0.308057475154099, -1.405, 0.76, -0.761], a = 0.2, v = 0.2, t = 0.2)
movej(p[0.418186624826252, 0.218376229027832, 0.307706895439967, -1.405, 0.76, -0.761], a = 0.2, v = 0.2, t = 0.2)
movej(p[0.418189157089583, 0.218380729482353, 0.30751626431628, -1.405, 0.76, -0.761], a = 0.2, v = 0.2, t = 0.2)
movej(p[0.418191824406959, 0.218385469961116, 0.307315466199331, -1.405, 0.76, -0.761], a = 0.2, v = 0.2, t = 0.2)
movej(p[0.418192294684434, 0.218386305759813, 0.30728006327636, -1.405, 0.76, -0.761], a = 0.2, v = 0.2, t = 0.2)
movej(p[0.418192210275657, 0.218386155744662, 0.30728641764715, -1.405, 0.76, -0.761], a = 0.2, v = 0.2, t = 0.2)
movej(p[0.418188235828066, 0.218379092174137, 0.307585617734612, -1.405, 0.76, -0.761], a = 0.2, v = 0.2, t = 0.2)
movej(p[0.418181044200205, 0.218366310883296, 0.308127010125882, -1.405, 0.76, -0.761], a = 0.2, v = 0.2, t = 0.2)
movej(p[0.418165590158845, 0.218338845252273, 0.309290404640723, -1.405, 0.76, -0.761], a = 0.2, v = 0.2, t = 0.2)
movej(p[0.418151423954266, 0.218313668423835, 0.31035684961266, -1.405, 0.76, -0.761], a = 0.2, v = 0.2, t = 0.2)
movej(p[0.418142462153752, 0.218297741100976, 0.311031502237059, -1.405, 0.76, -0.761], a = 0.2, v = 0.2, t = 0.2)
movej(p[0.418131098320592, 0.218277544775542, 0.311886982098784, -1.405, 0.76, -0.761], a = 0.2, v = 0.2, t = 0.2)
movej(p[0.418118506942637, 0.218255166801202, 0.312834872667134, -1.405, 0.76, -0.761], a = 0.2, v = 0.2, t = 0.2)
movej(p[0.418112277574842, 0.218244095683079, 0.313303825231402, -1.405, 0.76, -0.761], a = 0.2, v = 0.2, t = 0.2)
movej(p[0.418132364452258, 0.218279795002803, 0.311791666536941, -1.405, 0.76, -0.761], a = 0.2, v = 0.2, t = 0.2)
movej(p[0.418152116106243, 0.218314898548071, 0.310304743772186, -1.405, 0.76, -0.761], a = 0.2, v = 0.2, t = 0.2)
movej(p[0.418166513832041, 0.218340486846637, 0.30922086966894, -1.405, 0.76, -0.761], a = 0.2, v = 0.2, t = 0.2)
movej(p[0.418179163090302, 0.218362967688508, 0.308268621817763, -1.405, 0.76, -0.761], a = 0.2, v = 0.2, t = 0.2)
movej(p[0.418186173842211, 0.218375427518312, 0.307740845935328, -1.405, 0.76, -0.761], a = 0.2, v = 0.2, t = 0.2)
movej(p[0.418189229439964, 0.218380858066768, 0.307510817712747, -1.405, 0.76, -0.761], a = 0.2, v = 0.2, t = 0.2)
movej(p[0.41819071985781, 0.218383506905715, 0.307398617679948, -1.405, 0.76, -0.761], a = 0.2, v = 0.2, t = 0.2)
movej(p[0.418192789078704, 0.218387184419982, 0.307242844818879, -1.405, 0.76, -0.761], a = 0.2, v = 0.2, t = 0.2)
movej(p[0.418192627496187, 0.218386897248122, 0.307255008900104, -1.405, 0.76, -0.761], a = 0.2, v = 0.2, t = 0.2)
movej(p[0.418192791490383, 0.218387188706129, 0.307242663265428, -1.405, 0.76, -0.761], a = 0.2, v = 0.2, t = 0.2)
movej(p[0.418192680553133, 0.218386991543359, 0.30725101472418, -1.405, 0.76, -0.761], a = 0.2, v = 0.2, t = 0.2)
movej(p[0.418189863711636, 0.218381985323472, 0.307463069155099, -1.405, 0.76, -0.761], a = 0.2, v = 0.2, t = 0.2)
movej(p[0.418177853548407, 0.218360640310599, 0.308367205341727, -1.405, 0.76, -0.761], a = 0.2, v = 0.2, t = 0.2)
movej(p[0.418163347297038, 0.218334859135411, 0.309459249350274, -1.405, 0.76, -0.761], a = 0.2, v = 0.2, t = 0.2)
movej(p[0.41815292401883, 0.218316334407371, 0.310243923366057, -1.405, 0.76, -0.761], a = 0.2, v = 0.2, t = 0.2)
movej(p[0.418138839811348, 0.218291303307937, 0.311304195520657, -1.405, 0.76, -0.761], a = 0.2, v = 0.2, t = 0.2)
movej(p[0.418127270985443, 0.218270742659994, 0.312175107425727, -1.405, 0.76, -0.761], a = 0.2, v = 0.2, t = 0.2)
movej(p[0.418132222163176, 0.21827954212012, 0.311802378190557, -1.405, 0.76, -0.761], a = 0.2, v = 0.2, t = 0.2)
movej(p[0.418152460976392, 0.218315511467116, 0.310278781628674, -1.405, 0.76, -0.761], a = 0.2, v = 0.2, t = 0.2)
movej(p[0.418166955169365, 0.218341271211567, 0.309187645387383, -1.405, 0.76, -0.761], a = 0.2, v = 0.2, t = 0.2)
movej(p[0.418177226511773, 0.218359525912336, 0.308414409239021, -1.405, 0.76, -0.761], a = 0.2, v = 0.2, t = 0.2)
movej(p[0.418185013824437, 0.218373365881527, 0.307828173145322, -1.405, 0.76, -0.761], a = 0.2, v = 0.2, t = 0.2)
movej(p[0.418189820301408, 0.218381908172823, 0.30746633711722, -1.405, 0.76, -0.761], a = 0.2, v = 0.2, t = 0.2)
movej(p[0.418191207017042, 0.218384372707442, 0.30736194388282, -1.405, 0.76, -0.761], a = 0.2, v = 0.2, t = 0.2)
movej(p[0.418191122608264, 0.218384222692292, 0.30736829825361, -1.405, 0.76, -0.761], a = 0.2, v = 0.2, t = 0.2)
movej(p[0.41818716263075, 0.218377184838649, 0.307666409020365, -1.405, 0.76, -0.761], a = 0.2, v = 0.2, t = 0.2)
movej(p[0.418172728729761, 0.218351532247877, 0.308753006425378, -1.405, 0.76, -0.761], a = 0.2, v = 0.2, t = 0.2)
movej(p[0.41815496671125, 0.218319964774018, 0.31009014759295, -1.405, 0.76, -0.761], a = 0.2, v = 0.2, t = 0.2)
movej(p[0.418139763484544, 0.2182929449023, 0.311234660548874, -1.405, 0.76, -0.761], a = 0.2, v = 0.2, t = 0.2)
movej(p[0.41812902427634, 0.218273858688982, 0.312043118066756, -1.405, 0.76, -0.761], a = 0.2, v = 0.2, t = 0.2)
movej(p[0.418118772227367, 0.21825563827739, 0.312814901787509, -1.405, 0.76, -0.761], a = 0.2, v = 0.2, t = 0.2)
movej(p[0.418130567751132, 0.218276601823166, 0.311926923858033, -1.405, 0.76, -0.761], a = 0.2, v = 0.2, t = 0.2)
movej(p[0.418150977793584, 0.21831287548661, 0.310390437001119, -1.405, 0.76, -0.761], a = 0.2, v = 0.2, t = 0.2)
movej(p[0.418164331262218, 0.218336607883454, 0.309385175542213, -1.405, 0.76, -0.761], a = 0.2, v = 0.2, t = 0.2)
movej(p[0.418173664461353, 0.218353195272976, 0.30868256368634, -1.405, 0.76, -0.761], a = 0.2, v = 0.2, t = 0.2)
movej(p[0.418178888158854, 0.218362479067732, 0.308289318911192, -1.405, 0.76, -0.761], a = 0.2, v = 0.2, t = 0.2)
movej(p[0.418181803879204, 0.218367661019652, 0.308069820788776, -1.405, 0.76, -0.761], a = 0.2, v = 0.2, t = 0.2)
movej(p[0.418179384964803, 0.218363362014047, 0.308251918900259, -1.405, 0.76, -0.761], a = 0.2, v = 0.2, t = 0.2)
movej(p[0.418162669615136, 0.218333654728058, 0.309510265870041, -1.405, 0.76, -0.761], a = 0.2, v = 0.2, t = 0.2)
movej(p[0.418144473494341, 0.21830131574771, 0.310880086658817, -1.405, 0.76, -0.761], a = 0.2, v = 0.2, t = 0.2)
movej(p[0.418127562798646, 0.218271261283801, 0.312153139458141, -1.405, 0.76, -0.761], a = 0.2, v = 0.2, t = 0.2)
movej(p[0.41811209428721, 0.218243769935895, 0.313317623293688, -1.405, 0.76, -0.761], a = 0.2, v = 0.2, t = 0.2)
movej(p[0.418091614306057, 0.218207371974183, 0.314859375200684, -1.405, 0.76, -0.761], a = 0.2, v = 0.2, t = 0.2)
movej(p[0.418071655247647, 0.218171899820259, 0.316361911562236, -1.405, 0.76, -0.761], a = 0.2, v = 0.2, t = 0.2)
movej(p[0.41806721293426, 0.218164004737184, 0.316696333019218, -1.405, 0.76, -0.761], a = 0.2, v = 0.2, t = 0.2)
movej(p[0.418096845238596, 0.218216668627381, 0.314465585765183, -1.405, 0.76, -0.761], a = 0.2, v = 0.2, t = 0.2)
movej(p[0.418122013524431, 0.218261398859178, 0.312570893949191, -1.405, 0.76, -0.761], a = 0.2, v = 0.2, t = 0.2)
movej(p[0.4181397803663, 0.21829297490533, 0.311233389674716, -1.405, 0.76, -0.761], a = 0.2, v = 0.2, t = 0.2)
movej(p[0.418152154693113, 0.218314967126426, 0.310301838916968, -1.405, 0.76, -0.761], a = 0.2, v = 0.2, t = 0.2)
movej(p[0.418162746788876, 0.218333791884767, 0.309504456159605, -1.405, 0.76, -0.761], a = 0.2, v = 0.2, t = 0.2)
movej(p[0.41817284449037, 0.21835173798294, 0.308744291859724, -1.405, 0.76, -0.761], a = 0.2, v = 0.2, t = 0.2)
movej(p[0.418178598757331, 0.218361964730072, 0.308311105325328, -1.405, 0.76, -0.761], a = 0.2, v = 0.2, t = 0.2)
movej(p[0.418183349765676, 0.218370408439984, 0.307953445026601, -1.405, 0.76, -0.761], a = 0.2, v = 0.2, t = 0.2)
movej(p[0.418186489772207, 0.218375989003591, 0.30771706243323, -1.405, 0.76, -0.761], a = 0.2, v = 0.2, t = 0.2)
movej(p[0.41818935725897, 0.218381085232568, 0.307501195379837, -1.405, 0.76, -0.761], a = 0.2, v = 0.2, t = 0.2)
movej(p[0.418187698023568, 0.21837813636332, 0.307626104154214, -1.405, 0.76, -0.761], a = 0.2, v = 0.2, t = 0.2)
movej(p[0.418174633956457, 0.218354918304136, 0.308609579198985, -1.405, 0.76, -0.761], a = 0.2, v = 0.2, t = 0.2)
movej(p[0.418161926817893, 0.218332334594732, 0.309566184332989, -1.405, 0.76, -0.761], a = 0.2, v = 0.2, t = 0.2)
movej(p[0.418144866598077, 0.218302014389698, 0.310850493446283, -1.405, 0.76, -0.761], a = 0.2, v = 0.2, t = 0.2)
movej(p[0.418132294513556, 0.218279670704535, 0.311796931587024, -1.405, 0.76, -0.761], a = 0.2, v = 0.2, t = 0.2)
movej(p[0.418134064686209, 0.218282816736553, 0.311663671353894, -1.405, 0.76, -0.761], a = 0.2, v = 0.2, t = 0.2)
movej(p[0.418156228019557, 0.218322206428985, 0.309995195138009, -1.405, 0.76, -0.761], a = 0.2, v = 0.2, t = 0.2)
movej(p[0.418171855701831, 0.218349980662603, 0.308818728774687, -1.405, 0.76, -0.761], a = 0.2, v = 0.2, t = 0.2)
movej(p[0.418181779762411, 0.218367618158181, 0.308071636323287, -1.405, 0.76, -0.761], a = 0.2, v = 0.2, t = 0.2)
movej(p[0.418187741433797, 0.218378213513969, 0.307622836192094, -1.405, 0.76, -0.761], a = 0.2, v = 0.2, t = 0.2)
movej(p[0.418190353282547, 0.218382855411346, 0.30742621380452, -1.405, 0.76, -0.761], a = 0.2, v = 0.2, t = 0.2)
movej(p[0.418191223898797, 0.218384402710472, 0.307360673008662, -1.405, 0.76, -0.761], a = 0.2, v = 0.2, t = 0.2)
movej(p[0.418190891087045, 0.218383811222164, 0.307385727384918, -1.405, 0.76, -0.761], a = 0.2, v = 0.2, t = 0.2)
movej(p[0.418186453597017, 0.218375924711383, 0.307719785734997, -1.405, 0.76, -0.761], a = 0.2, v = 0.2, t = 0.2)
movej(p[0.418171887053663, 0.218350036382517, 0.308816368579822, -1.405, 0.76, -0.761], a = 0.2, v = 0.2, t = 0.2)
movej(p[0.418158138069613, 0.218325601057538, 0.309851404804714, -1.405, 0.76, -0.761], a = 0.2, v = 0.2, t = 0.2)
movej(p[0.418145597336924, 0.218303313092289, 0.31079548275059, -1.405, 0.76, -0.761], a = 0.2, v = 0.2, t = 0.2)
movej(p[0.418133367710873, 0.218281578040023, 0.311716140301271, -1.405, 0.76, -0.761], a = 0.2, v = 0.2, t = 0.2)
movej(p[0.418127557975287, 0.218271252711506, 0.312153502565043, -1.405, 0.76, -0.761], a = 0.2, v = 0.2, t = 0.2)
movej(p[0.418142602031155, 0.218297989697512, 0.311020972136894, -1.405, 0.76, -0.761], a = 0.2, v = 0.2, t = 0.2)
movej(p[0.418164374672446, 0.218336685034103, 0.309381907580092, -1.405, 0.76, -0.761], a = 0.2, v = 0.2, t = 0.2)
movej(p[0.418176339013767, 0.21835794861018, 0.308481220909036, -1.405, 0.76, -0.761], a = 0.2, v = 0.2, t = 0.2)
movej(p[0.418183938215441, 0.218371454259892, 0.307909145984526, -1.405, 0.76, -0.761], a = 0.2, v = 0.2, t = 0.2)
movej(p[0.418187579851279, 0.218377926342109, 0.307635000273319, -1.405, 0.76, -0.761], a = 0.2, v = 0.2, t = 0.2)
movej(p[0.418191088844753, 0.218384162686231, 0.307370840001925, -1.405, 0.76, -0.761], a = 0.2, v = 0.2, t = 0.2)
movej(p[0.418191532593756, 0.218384951337309, 0.307337434166917, -1.405, 0.76, -0.761], a = 0.2, v = 0.2, t = 0.2)
movej(p[0.418190686094299, 0.218383446899655, 0.307401159428264, -1.405, 0.76, -0.761], a = 0.2, v = 0.2, t = 0.2)
movej(p[0.418185057234665, 0.218373443032176, 0.307824905183201, -1.405, 0.76, -0.761], a = 0.2, v = 0.2, t = 0.2)
movej(p[0.418172748023195, 0.218351566537054, 0.308751553997769, -1.405, 0.76, -0.761], a = 0.2, v = 0.2, t = 0.2)
movej(p[0.418158552878463, 0.21832633827485, 0.30982017761112, -1.405, 0.76, -0.761], a = 0.2, v = 0.2, t = 0.2)
movej(p[0.418147176986907, 0.218306120518681, 0.3106765652401, -1.405, 0.76, -0.761], a = 0.2, v = 0.2, t = 0.2)
movej(p[0.41813856970326, 0.218290823259454, 0.311324529507183, -1.405, 0.76, -0.761], a = 0.2, v = 0.2, t = 0.2)
movej(p[0.41813625690275, 0.218286712844325, 0.311498639266817, -1.405, 0.76, -0.761], a = 0.2, v = 0.2, t = 0.2)
movej(p[0.418151804999605, 0.218314345635087, 0.310328164167382, -1.405, 0.76, -0.761], a = 0.2, v = 0.2, t = 0.2)
movej(p[0.418167410976765, 0.218342081293381, 0.30915333178512, -1.405, 0.76, -0.761], a = 0.2, v = 0.2, t = 0.2)
movej(p[0.418180376165021, 0.218365123620532, 0.308177300431845, -1.405, 0.76, -0.761], a = 0.2, v = 0.2, t = 0.2)
movej(p[0.418185435868325, 0.21837411595728, 0.307796401291374, -1.405, 0.76, -0.761], a = 0.2, v = 0.2, t = 0.2)
movej(p[0.418188158654327, 0.218378955017428, 0.307591427445048, -1.405, 0.76, -0.761], a = 0.2, v = 0.2, t = 0.2)
movej(p[0.418190522100102, 0.218383155441648, 0.307413505062941, -1.405, 0.76, -0.761], a = 0.2, v = 0.2, t = 0.2)
movej(p[0.418191942579247, 0.218385679982327, 0.307306570080225, -1.405, 0.76, -0.761], a = 0.2, v = 0.2, t = 0.2)
movej(p[0.418192063163216, 0.218385894289685, 0.307297492407669, -1.405, 0.76, -0.761], a = 0.2, v = 0.2, t = 0.2)
movej(p[0.418192075221612, 0.218385915720421, 0.307296584640413, -1.405, 0.76, -0.761], a = 0.2, v = 0.2, t = 0.2)
movej(p[0.418193558404421, 0.218388551700927, 0.307184929267968, -1.405, 0.76, -0.761], a = 0.2, v = 0.2, t = 0.2)
movej(p[0.418190973084143, 0.218383956951167, 0.30737955456758, -1.405, 0.76, -0.761], a = 0.2, v = 0.2, t = 0.2)
movej(p[0.418182869841483, 0.218369555496699, 0.307989574163376, -1.405, 0.76, -0.761], a = 0.2, v = 0.2, t = 0.2)
movej(p[0.418172649144342, 0.21835139080502, 0.308758997689265, -1.405, 0.76, -0.761], a = 0.2, v = 0.2, t = 0.2)
movej(p[0.418161538537515, 0.218331644525038, 0.309595414438621, -1.405, 0.76, -0.761], a = 0.2, v = 0.2, t = 0.2)
movej(p[0.418147107048206, 0.218305996220413, 0.310681830290183, -1.405, 0.76, -0.761], a = 0.2, v = 0.2, t = 0.2)
movej(p[0.418133425591178, 0.218281680907555, 0.311711783018444, -1.405, 0.76, -0.761], a = 0.2, v = 0.2, t = 0.2)
movej(p[0.418126892351783, 0.218270069734889, 0.312203611317555, -1.405, 0.76, -0.761], a = 0.2, v = 0.2, t = 0.2)
movej(p[0.418141654241165, 0.218296305241676, 0.311092322643188, -1.405, 0.76, -0.761], a = 0.2, v = 0.2, t = 0.2)
movej(p[0.418158789223041, 0.218326758317272, 0.309802385372909, -1.405, 0.76, -0.761], a = 0.2, v = 0.2, t = 0.2)
movej(p[0.418172969897697, 0.218351960862593, 0.308734851080265, -1.405, 0.76, -0.761], a = 0.2, v = 0.2, t = 0.2)
movej(p[0.418183672930711, 0.218370982783704, 0.30792911686415, -1.405, 0.76, -0.761], a = 0.2, v = 0.2, t = 0.2)
movej(p[0.418187980190054, 0.218378637842538, 0.307604862400432, -1.405, 0.76, -0.761], a = 0.2, v = 0.2, t = 0.2)
movej(p[0.418189825124767, 0.218381916745118, 0.307465974010317, -1.405, 0.76, -0.761], a = 0.2, v = 0.2, t = 0.2)
movej(p[0.418190712622772, 0.218383494047274, 0.307399162340302, -1.405, 0.76, -0.761], a = 0.2, v = 0.2, t = 0.2)
movej(p[0.418192562380844, 0.218386781522148, 0.307259910843285, -1.405, 0.76, -0.761], a = 0.2, v = 0.2, t = 0.2)
movej(p[0.418192338094663, 0.218386382910462, 0.30727679531424, -1.405, 0.76, -0.761], a = 0.2, v = 0.2, t = 0.2)
movej(p[0.418192318801228, 0.218386348621285, 0.307278247741849, -1.405, 0.76, -0.761], a = 0.2, v = 0.2, t = 0.2)
movej(p[0.418189236675002, 0.21838087092521, 0.307510273052393, -1.405, 0.76, -0.761], a = 0.2, v = 0.2, t = 0.2)
movej(p[0.418181094845472, 0.218366400892386, 0.308123197503408, -1.405, 0.76, -0.761], a = 0.2, v = 0.2, t = 0.2)
movej(p[0.418168438352173, 0.218343907192073, 0.309075990014938, -1.405, 0.76, -0.761], a = 0.2, v = 0.2, t = 0.2)
movej(p[0.418155752918723, 0.218321362057994, 0.310030961167882, -1.405, 0.76, -0.761], a = 0.2, v = 0.2, t = 0.2)
movej(p[0.418146185786689, 0.218304358912196, 0.310751183708515, -1.405, 0.76, -0.761], a = 0.2, v = 0.2, t = 0.2)
movej(p[0.418136551127633, 0.218287235754279, 0.311476489745779, -1.405, 0.76, -0.761], a = 0.2, v = 0.2, t = 0.2)
movej(p[0.418132745497597, 0.218280472214055, 0.311762981091662, -1.405, 0.76, -0.761], a = 0.2, v = 0.2, t = 0.2)
movej(p[0.418147726849802, 0.218307097760234, 0.310635171053243, -1.405, 0.76, -0.761], a = 0.2, v = 0.2, t = 0.2)
movej(p[0.418167683496533, 0.218342565628011, 0.309132816245142, -1.405, 0.76, -0.761], a = 0.2, v = 0.2, t = 0.2)
movej(p[0.418178101951382, 0.218361081783757, 0.30834850533626, -1.405, 0.76, -0.761], a = 0.2, v = 0.2, t = 0.2)
movej(p[0.418183769397885, 0.21837115422959, 0.307921854726105, -1.405, 0.76, -0.761], a = 0.2, v = 0.2, t = 0.2)
movej(p[0.418187888546238, 0.218378474968946, 0.307611761431575, -1.405, 0.76, -0.761], a = 0.2, v = 0.2, t = 0.2)
movej(p[0.41819071985781, 0.218383506905715, 0.307398617679948, -1.405, 0.76, -0.761], a = 0.2, v = 0.2, t = 0.2)
movej(p[0.418191349306124, 0.218384625590125, 0.307351232229203, -1.405, 0.76, -0.761], a = 0.2, v = 0.2, t = 0.2)
movej(p[0.418191694176273, 0.218385238509169, 0.307325270085692, -1.405, 0.76, -0.761], a = 0.2, v = 0.2, t = 0.2)
movej(p[0.418193252121142, 0.218388007360237, 0.307207986556262, -1.405, 0.76, -0.761], a = 0.2, v = 0.2, t = 0.2)
movej(p[0.418192752903513, 0.218387120127774, 0.307245568120646, -1.405, 0.76, -0.761], a = 0.2, v = 0.2, t = 0.2)
movej(p[0.418187587086317, 0.21837793920055, 0.307634455612966, -1.405, 0.76, -0.761], a = 0.2, v = 0.2, t = 0.2)
movej(p[0.418177568970243, 0.218360134545233, 0.30838862864896, -1.405, 0.76, -0.761], a = 0.2, v = 0.2, t = 0.2)
movej(p[0.418168759105529, 0.218344477249646, 0.309051843405938, -1.405, 0.76, -0.761], a = 0.2, v = 0.2, t = 0.2)
movej(p[0.418155846974218, 0.218321529217733, 0.310023880583288, -1.405, 0.76, -0.761], a = 0.2, v = 0.2, t = 0.2)
movej(p[0.418145013710518, 0.218302275844675, 0.310839418685764, -1.405, 0.76, -0.761], a = 0.2, v = 0.2, t = 0.2)
movej(p[0.418137713557086, 0.218289301677211, 0.311388980982334, -1.405, 0.76, -0.761], a = 0.2, v = 0.2, t = 0.2)
movej(p[0.418133582350336, 0.218281959507121, 0.31169998204412, -1.405, 0.76, -0.761], a = 0.2, v = 0.2, t = 0.2)
movej(p[0.41814852752735, 0.218308520761092, 0.310574895307468, -1.405, 0.76, -0.761], a = 0.2, v = 0.2, t = 0.2)
movej(p[0.418165146409843, 0.218338056601195, 0.309323810475731, -1.405, 0.76, -0.761], a = 0.2, v = 0.2, t = 0.2)
movej(p[0.418179302967705, 0.218363216285044, 0.308258091717598, -1.405, 0.76, -0.761], a = 0.2, v = 0.2, t = 0.2)
movej(p[0.418185035529551, 0.218373404456851, 0.307826539164262, -1.405, 0.76, -0.761], a = 0.2, v = 0.2, t = 0.2)
movej(p[0.418188394998904, 0.21837937505985, 0.307573635206838, -1.405, 0.76, -0.761], a = 0.2, v = 0.2, t = 0.2)
movej(p[0.418190604097201, 0.218383301170651, 0.307407332245602, -1.405, 0.76, -0.761], a = 0.2, v = 0.2, t = 0.2)
movej(p[0.418192369446495, 0.218386438630375, 0.307274435119375, -1.405, 0.76, -0.761], a = 0.2, v = 0.2, t = 0.2)
movej(p[0.418192169277108, 0.218386082880161, 0.307289504055819, -1.405, 0.76, -0.761], a = 0.2, v = 0.2, t = 0.2)
movej(p[0.418186142490379, 0.218375371798399, 0.307743206130193, -1.405, 0.76, -0.761], a = 0.2, v = 0.2, t = 0.2)
movej(p[0.418176712824069, 0.21835861296299, 0.308453080124111, -1.405, 0.76, -0.761], a = 0.2, v = 0.2, t = 0.2)
movej(p[0.418163178479482, 0.21833455910511, 0.309471958091853, -1.405, 0.76, -0.761], a = 0.2, v = 0.2, t = 0.2)
movej(p[0.418149511492531, 0.218310269509135, 0.310500821499406, -1.405, 0.76, -0.761], a = 0.2, v = 0.2, t = 0.2)
movej(p[0.418138596231733, 0.218290870407073, 0.311322532419221, -1.405, 0.76, -0.761], a = 0.2, v = 0.2, t = 0.2)
movej(p[0.418133866928501, 0.218282465272486, 0.311678558736887, -1.405, 0.76, -0.761], a = 0.2, v = 0.2, t = 0.2)
movej(p[0.418146443836381, 0.218304817529943, 0.310731757489244, -1.405, 0.76, -0.761], a = 0.2, v = 0.2, t = 0.2)
movej(p[0.418164297498707, 0.218336547877393, 0.309387717290528, -1.405, 0.76, -0.761], a = 0.2, v = 0.2, t = 0.2)
movej(p[0.418178704871223, 0.218362153320547, 0.308303116973478, -1.405, 0.76, -0.761], a = 0.2, v = 0.2, t = 0.2)
movej(p[0.41818534422451, 0.218373953083688, 0.307803300322517, -1.405, 0.76, -0.761], a = 0.2, v = 0.2, t = 0.2)
movej(p[0.41818856140478, 0.218379670804004, 0.30756110801871, -1.405, 0.76, -0.761], a = 0.2, v = 0.2, t = 0.2)
movej(p[0.418190213405144, 0.218382606814811, 0.307436743904686, -1.405, 0.76, -0.761], a = 0.2, v = 0.2, t = 0.2)
movej(p[0.418192480383745, 0.218386635793145, 0.307266083660623, -1.405, 0.76, -0.761], a = 0.2, v = 0.2, t = 0.2)
movej(p[0.418192598556034, 0.218386845814356, 0.307257187541518, -1.405, 0.76, -0.761], a = 0.2, v = 0.2, t = 0.2)
movej(p[0.418191105726508, 0.218384192689261, 0.307369569127767, -1.405, 0.76, -0.761], a = 0.2, v = 0.2, t = 0.2)
movej(p[0.418184215558568, 0.218371947166816, 0.307888267337646, -1.405, 0.76, -0.761], a = 0.2, v = 0.2, t = 0.2)
movej(p[0.418171402306111, 0.218349174866937, 0.3088528608235, -1.405, 0.76, -0.761], a = 0.2, v = 0.2, t = 0.2)
movej(p[0.418156953935046, 0.218323496559281, 0.309940547549219, -1.405, 0.76, -0.761], a = 0.2, v = 0.2, t = 0.2)
movej(p[0.418144948595175, 0.218302160118702, 0.310844320628944, -1.405, 0.76, -0.761], a = 0.2, v = 0.2, t = 0.2)
movej(p[0.418136666888242, 0.218287441489343, 0.311467775180125, -1.405, 0.76, -0.761], a = 0.2, v = 0.2, t = 0.2)
movej(p[0.418132690028972, 0.21828037363267, 0.311767156821038, -1.405, 0.76, -0.761], a = 0.2, v = 0.2, t = 0.2)
movej(p[0.418147625559269, 0.218306917742053, 0.31064279629819, -1.405, 0.76, -0.761], a = 0.2, v = 0.2, t = 0.2)
movej(p[0.418167652144701, 0.218342509908098, 0.309135176440007, -1.405, 0.76, -0.761], a = 0.2, v = 0.2, t = 0.2)
movej(p[0.418179845595561, 0.218364180668156, 0.308217242191093, -1.405, 0.76, -0.761], a = 0.2, v = 0.2, t = 0.2)
movej(p[0.418185915792519, 0.218374968900566, 0.307760272154599, -1.405, 0.76, -0.761], a = 0.2, v = 0.2, t = 0.2)
movej(p[0.41818924391004, 0.218380883783651, 0.30750972839204, -1.405, 0.76, -0.761], a = 0.2, v = 0.2, t = 0.2)
movej(p[0.418192313977869, 0.21838634004899, 0.307278610848751, -1.405, 0.76, -0.761], a = 0.2, v = 0.2, t = 0.2)
movej(p[0.418192504500539, 0.218386678654616, 0.307264268126112, -1.405, 0.76, -0.761], a = 0.2, v = 0.2, t = 0.2)
movej(p[0.418192562380844, 0.218386781522148, 0.307259910843285, -1.405, 0.76, -0.761], a = 0.2, v = 0.2, t = 0.2)
movej(p[0.418192873487482, 0.218387334435132, 0.307236490448089, -1.405, 0.76, -0.761], a = 0.2, v = 0.2, t = 0.2)
movej(p[0.418193806807395, 0.218388993174084, 0.307166229262502, -1.405, 0.76, -0.761], a = 0.2, v = 0.2, t = 0.2)
movej(p[0.418188759162488, 0.218380022268072, 0.307546220635717, -1.405, 0.76, -0.761], a = 0.2, v = 0.2, t = 0.2)
movej(p[0.418178540877026, 0.21836186186254, 0.308315462608155, -1.405, 0.76, -0.761], a = 0.2, v = 0.2, t = 0.2)
movej(p[0.418169880536433, 0.218346470308077, 0.308967421051162, -1.405, 0.76, -0.761], a = 0.2, v = 0.2, t = 0.2)
movej(p[0.418158936335482, 0.218327019772249, 0.30979131061239, -1.405, 0.76, -0.761], a = 0.2, v = 0.2, t = 0.2)
movej(p[0.418147220397136, 0.218306197669329, 0.31067329727798, -1.405, 0.76, -0.761], a = 0.2, v = 0.2, t = 0.2)
movej(p[0.418138581761656, 0.21829084469019, 0.311323621739928, -1.405, 0.76, -0.761], a = 0.2, v = 0.2, t = 0.2)
movej(p[0.418140670275985, 0.218294556493634, 0.311166396451249, -1.405, 0.76, -0.761], a = 0.2, v = 0.2, t = 0.2)
movej(p[0.418155215114225, 0.218320406247176, 0.310071447587484, -1.405, 0.76, -0.761], a = 0.2, v = 0.2, t = 0.2)
movej(p[0.418170488279632, 0.218347550417162, 0.308921669581478, -1.405, 0.76, -0.761], a = 0.2, v = 0.2, t = 0.2)
movej(p[0.418182479149426, 0.218368861140858, 0.308018985822459, -1.405, 0.76, -0.761], a = 0.2, v = 0.2, t = 0.2)
movej(p[0.418187058928537, 0.218377000534321, 0.307674215818764, -1.405, 0.76, -0.761], a = 0.2, v = 0.2, t = 0.2)
movej(p[0.418189805831332, 0.21838188245594, 0.307467426437926, -1.405, 0.76, -0.761], a = 0.2, v = 0.2, t = 0.2)
movej(p[0.418191151548416, 0.218384274126058, 0.307366119612196, -1.405, 0.76, -0.761], a = 0.2, v = 0.2, t = 0.2)
movej(p[0.418193461937246, 0.21838838025504, 0.307192191406013, -1.405, 0.76, -0.761], a = 0.2, v = 0.2, t = 0.2)
movej(p[0.418193592167932, 0.218388611706987, 0.307182387519652, -1.405, 0.76, -0.761], a = 0.2, v = 0.2, t = 0.2)
movej(p[0.418193367881751, 0.218388213095301, 0.307199271990607, -1.405, 0.76, -0.761], a = 0.2, v = 0.2, t = 0.2)
movej(p[0.418193129125494, 0.218387788766732, 0.307217245782269, -1.405, 0.76, -0.761], a = 0.2, v = 0.2, t = 0.2)
movej(p[0.418184181795057, 0.218371887160755, 0.307890809085962, -1.405, 0.76, -0.761], a = 0.2, v = 0.2, t = 0.2)
movej(p[0.418173893570893, 0.218353602456956, 0.308665316108482, -1.405, 0.76, -0.761], a = 0.2, v = 0.2, t = 0.2)
movej(p[0.418163151951009, 0.218334511957491, 0.309473955179815, -1.405, 0.76, -0.761], a = 0.2, v = 0.2, t = 0.2)
movej(p[0.418154612194384, 0.218319334710385, 0.310116835950267, -1.405, 0.76, -0.761], a = 0.2, v = 0.2, t = 0.2)
movej(p[0.418144094860681, 0.218300642822606, 0.310908590550644, -1.405, 0.76, -0.761], a = 0.2, v = 0.2, t = 0.2)
movej(p[0.418136536657556, 0.218287210037396, 0.311477579066486, -1.405, 0.76, -0.761], a = 0.2, v = 0.2, t = 0.2)
movej(p[0.418149304088105, 0.218309900900479, 0.310516435096204, -1.405, 0.76, -0.761], a = 0.2, v = 0.2, t = 0.2)
movej(p[0.418165151233201, 0.218338065173489, 0.309323447368828, -1.405, 0.76, -0.761], a = 0.2, v = 0.2, t = 0.2)
movej(p[0.418176527124758, 0.218358282929659, 0.308467059739848, -1.405, 0.76, -0.761], a = 0.2, v = 0.2, t = 0.2)
movej(p[0.418183971978952, 0.218371514265952, 0.30790660423621, -1.405, 0.76, -0.761], a = 0.2, v = 0.2, t = 0.2)
movej(p[0.418189822713087, 0.218381912458971, 0.307466155563769, -1.405, 0.76, -0.761], a = 0.2, v = 0.2, t = 0.2)
movej(p[0.41819132518933, 0.218384582728653, 0.307353047763715, -1.405, 0.76, -0.761], a = 0.2, v = 0.2, t = 0.2)
movej(p[0.418191995636193, 0.218385774277565, 0.3073025759043, -1.405, 0.76, -0.761], a = 0.2, v = 0.2, t = 0.2)
movej(p[0.418192887957558, 0.218387360152015, 0.307235401127382, -1.405, 0.76, -0.761], a = 0.2, v = 0.2, t = 0.2)
movej(p[0.418190466631477, 0.218383056860263, 0.307417680792317, -1.405, 0.76, -0.761], a = 0.2, v = 0.2, t = 0.2)
movej(p[0.418179807008692, 0.218364112089801, 0.308220147046311, -1.405, 0.76, -0.761], a = 0.2, v = 0.2, t = 0.2)
movej(p[0.418168826632551, 0.218344597261766, 0.309046759909306, -1.405, 0.76, -0.761], a = 0.2, v = 0.2, t = 0.2)
movej(p[0.418158984569069, 0.218327105495192, 0.309787679543368, -1.405, 0.76, -0.761], a = 0.2, v = 0.2, t = 0.2)
movej(p[0.418145734802648, 0.218303557402677, 0.310785134203876, -1.405, 0.76, -0.761], a = 0.2, v = 0.2, t = 0.2)
movej(p[0.418133905515371, 0.21828253385084, 0.311675653881669, -1.405, 0.76, -0.761], a = 0.2, v = 0.2, t = 0.2)
movej(p[0.418131081438837, 0.218277514772512, 0.311888252972942, -1.405, 0.76, -0.761], a = 0.2, v = 0.2, t = 0.2)
movej(p[0.418149528374286, 0.218310299512165, 0.310499550625249, -1.405, 0.76, -0.761], a = 0.2, v = 0.2, t = 0.2)
movej(p[0.418164637545497, 0.218337152224143, 0.309362118253919, -1.405, 0.76, -0.761], a = 0.2, v = 0.2, t = 0.2)
movej(p[0.418177023930706, 0.218359165875975, 0.308429659728915, -1.405, 0.76, -0.761], a = 0.2, v = 0.2, t = 0.2)
movej(p[0.418186349894804, 0.218375740407055, 0.307727592533396, -1.405, 0.76, -0.761], a = 0.2, v = 0.2, t = 0.2)
movej(p[0.418189863711636, 0.218381985323472, 0.307463069155099, -1.405, 0.76, -0.761], a = 0.2, v = 0.2, t = 0.2)
movej(p[0.418191537417114, 0.218384959909604, 0.307337071060015, -1.405, 0.76, -0.761], a = 0.2, v = 0.2, t = 0.2)
movej(p[0.418192253685885, 0.218386232895311, 0.30728314968503, -1.405, 0.76, -0.761], a = 0.2, v = 0.2, t = 0.2)
movej(p[0.418194221616246, 0.218389730391397, 0.307135002068907, -1.405, 0.76, -0.761], a = 0.2, v = 0.2, t = 0.2)
movej(p[0.418194173382658, 0.218389644668453, 0.30713863313793, -1.405, 0.76, -0.761], a = 0.2, v = 0.2, t = 0.2)
movej(p[0.418192039046422, 0.218385851428214, 0.30729930794218, -1.405, 0.76, -0.761], a = 0.2, v = 0.2, t = 0.2)
movej(p[0.418184939062377, 0.218373233010965, 0.307833801302307, -1.405, 0.76, -0.761], a = 0.2, v = 0.2, t = 0.2)
movej(p[0.418174257734477, 0.218354249665178, 0.308637901537362, -1.405, 0.76, -0.761], a = 0.2, v = 0.2, t = 0.2)
movej(p[0.418160619687678, 0.218330011502969, 0.309664586303502, -1.405, 0.76, -0.761], a = 0.2, v = 0.2, t = 0.2)
movej(p[0.418148098248424, 0.218307757826897, 0.310607211821769, -1.405, 0.76, -0.761], a = 0.2, v = 0.2, t = 0.2)
movej(p[0.418138485294482, 0.218290673244304, 0.311330883877973, -1.405, 0.76, -0.761], a = 0.2, v = 0.2, t = 0.2)
movej(p[0.418129771896943, 0.218275187394602, 0.311986836496906, -1.405, 0.76, -0.761], a = 0.2, v = 0.2, t = 0.2)
movej(p[0.418139908185306, 0.21829320207113, 0.311223767341806, -1.405, 0.76, -0.761], a = 0.2, v = 0.2, t = 0.2)
movej(p[0.418160904265843, 0.218330517268334, 0.309643162996268, -1.405, 0.76, -0.761], a = 0.2, v = 0.2, t = 0.2)
movej(p[0.41817761720383, 0.218360220268177, 0.308384997579937, -1.405, 0.76, -0.761], a = 0.2, v = 0.2, t = 0.2)
movej(p[0.41818515370184, 0.218373614478062, 0.307817643045156, -1.405, 0.76, -0.761], a = 0.2, v = 0.2, t = 0.2)
movej(p[0.41818897862531, 0.218380412307463, 0.307529699271664, -1.405, 0.76, -0.761], a = 0.2, v = 0.2, t = 0.2)
movej(p[0.418192528617333, 0.218386721516088, 0.307262452591601, -1.405, 0.76, -0.761], a = 0.2, v = 0.2, t = 0.2)
movej(p[0.418193172535723, 0.21838786591738, 0.307213977820149, -1.405, 0.76, -0.761], a = 0.2, v = 0.2, t = 0.2)
movej(p[0.418192859017405, 0.218387308718249, 0.307237579768796, -1.405, 0.76, -0.761], a = 0.2, v = 0.2, t = 0.2)
movej(p[0.418185691506338, 0.21837457028888, 0.307777156625554, -1.405, 0.76, -0.761], a = 0.2, v = 0.2, t = 0.2)
movej(p[0.418175801209269, 0.218356992799363, 0.308521707328638, -1.405, 0.76, -0.761], a = 0.2, v = 0.2, t = 0.2)
movej(p[0.418162216219416, 0.218332848932391, 0.309544397918854, -1.405, 0.76, -0.761], a = 0.2, v = 0.2, t = 0.2)
movej(p[0.418148021074684, 0.218307620670188, 0.310613021532205, -1.405, 0.76, -0.761], a = 0.2, v = 0.2, t = 0.2)
movej(p[0.418137875139603, 0.218289588849071, 0.311376816901109, -1.405, 0.76, -0.761], a = 0.2, v = 0.2, t = 0.2)
movej(p[0.418129000159546, 0.21827381582751, 0.312044933601267, -1.405, 0.76, -0.761], a = 0.2, v = 0.2, t = 0.2)
movej(p[0.418136054321684, 0.218286352807963, 0.311513889756712, -1.405, 0.76, -0.761], a = 0.2, v = 0.2, t = 0.2)
movej(p[0.418154867832396, 0.218319789041985, 0.310097591284447, -1.405, 0.76, -0.761], a = 0.2, v = 0.2, t = 0.2)
movej(p[0.418173698224865, 0.218353255279036, 0.308680021938024, -1.405, 0.76, -0.761], a = 0.2, v = 0.2, t = 0.2)
movej(p[0.418182628673547, 0.218369126881982, 0.308007729508489, -1.405, 0.76, -0.761], a = 0.2, v = 0.2, t = 0.2)
movej(p[0.418187912663031, 0.218378517830417, 0.307609945897064, -1.405, 0.76, -0.761], a = 0.2, v = 0.2, t = 0.2)
movej(p[0.418191004435975, 0.218384012671081, 0.307377194372715, -1.405, 0.76, -0.761], a = 0.2, v = 0.2, t = 0.2)
movej(p[0.418193199064196, 0.218387913064999, 0.307211980732187, -1.405, 0.76, -0.761], a = 0.2, v = 0.2, t = 0.2)
movej(p[0.418193290708011, 0.218388075938591, 0.307205081701044, -1.405, 0.76, -0.761], a = 0.2, v = 0.2, t = 0.2)
movej(p[0.418190276108807, 0.218382718254637, 0.307432023514956, -1.405, 0.76, -0.761], a = 0.2, v = 0.2, t = 0.2)
movej(p[0.418180831972421, 0.218365933702345, 0.308142986829581, -1.405, 0.76, -0.761], a = 0.2, v = 0.2, t = 0.2)
movej(p[0.418166263017388, 0.218340041087332, 0.309239751227858, -1.405, 0.76, -0.761], a = 0.2, v = 0.2, t = 0.2)
movej(p[0.418151800176246, 0.218314337062793, 0.310328527274284, -1.405, 0.76, -0.761], a = 0.2, v = 0.2, t = 0.2)
movej(p[0.418139722485995, 0.218292872037799, 0.311237746957543, -1.405, 0.76, -0.761], a = 0.2, v = 0.2, t = 0.2)
movej(p[0.418130145707244, 0.218275851747413, 0.31195869571198, -1.405, 0.76, -0.761], a = 0.2, v = 0.2, t = 0.2)
movej(p[0.418130152942282, 0.218275864605854, 0.311958151051627, -1.405, 0.76, -0.761], a = 0.2, v = 0.2, t = 0.2)
movej(p[0.418148216420713, 0.218307967848108, 0.310598315702663, -1.405, 0.76, -0.761], a = 0.2, v = 0.2, t = 0.2)
movej(p[0.418167753435234, 0.218342689926279, 0.309127551195059, -1.405, 0.76, -0.761], a = 0.2, v = 0.2, t = 0.2)
movej(p[0.4181792450874, 0.218363113417512, 0.308262449000425, -1.405, 0.76, -0.761], a = 0.2, v = 0.2, t = 0.2)
movej(p[0.418186497007245, 0.218376001862032, 0.307716517772877, -1.405, 0.76, -0.761], a = 0.2, v = 0.2, t = 0.2)
movej(p[0.418189842006522, 0.218381946748148, 0.30746470313616, -1.405, 0.76, -0.761], a = 0.2, v = 0.2, t = 0.2)
movej(p[0.418193194240837, 0.218387904492705, 0.307212343839089, -1.405, 0.76, -0.761], a = 0.2, v = 0.2, t = 0.2)
movej(p[0.418193633166481, 0.218388684571489, 0.307179301110983, -1.405, 0.76, -0.761], a = 0.2, v = 0.2, t = 0.2)
movej(p[0.418193722398618, 0.218388843158934, 0.307172583633291, -1.405, 0.76, -0.761], a = 0.2, v = 0.2, t = 0.2)
movej(p[0.418194875181353, 0.218390891937278, 0.307085801083651, -1.405, 0.76, -0.761], a = 0.2, v = 0.2, t = 0.2)
movej(p[0.418189682835684, 0.218381663862435, 0.307476685663934, -1.405, 0.76, -0.761], a = 0.2, v = 0.2, t = 0.2)
movej(p[0.41817890262893, 0.218362504784615, 0.308288229590485, -1.405, 0.76, -0.761], a = 0.2, v = 0.2, t = 0.2)
movej(p[0.418167574970961, 0.218342372751388, 0.309140986150443, -1.405, 0.76, -0.761], a = 0.2, v = 0.2, t = 0.2)
movej(p[0.418157486916185, 0.218324443797804, 0.30990042423652, -1.405, 0.76, -0.761], a = 0.2, v = 0.2, t = 0.2)
movej(p[0.418143967041675, 0.218300415656806, 0.310918212883554, -1.405, 0.76, -0.761], a = 0.2, v = 0.2, t = 0.2)
movej(p[0.418133054192556, 0.218281020840892, 0.311739742249918, -1.405, 0.76, -0.761], a = 0.2, v = 0.2, t = 0.2)
movej(p[0.418135468283599, 0.218285311274202, 0.311558007245336, -1.405, 0.76, -0.761], a = 0.2, v = 0.2, t = 0.2)
movej(p[0.418148691521547, 0.218308812219099, 0.310562549672791, -1.405, 0.76, -0.761], a = 0.2, v = 0.2, t = 0.2)
movej(p[0.418163361767114, 0.218334884852294, 0.309458160029567, -1.405, 0.76, -0.761], a = 0.2, v = 0.2, t = 0.2)
movej(p[0.418176167784532, 0.218357644293732, 0.308494111204067, -1.405, 0.76, -0.761], a = 0.2, v = 0.2, t = 0.2)
movej(p[0.418186055669922, 0.218375217497101, 0.307749742054434, -1.405, 0.76, -0.761], a = 0.2, v = 0.2, t = 0.2)
movej(p[0.418189186029735, 0.218380780916119, 0.307514085674867, -1.405, 0.76, -0.761], a = 0.2, v = 0.2, t = 0.2)
movej(p[0.418191158783454, 0.218384286984499, 0.307365574951843, -1.405, 0.76, -0.761], a = 0.2, v = 0.2, t = 0.2)
movej(p[0.418192716728323, 0.218387055835567, 0.307248291422413, -1.405, 0.76, -0.761], a = 0.2, v = 0.2, t = 0.2)
movej(p[0.418194260203116, 0.218389798969751, 0.307132097213689, -1.405, 0.76, -0.761], a = 0.2, v = 0.2, t = 0.2)
movej(p[0.418194233674643, 0.218389751822132, 0.307134094301652, -1.405, 0.76, -0.761], a = 0.2, v = 0.2, t = 0.2)
movej(p[0.418190063881023, 0.218382341073687, 0.307448000218656, -1.405, 0.76, -0.761], a = 0.2, v = 0.2, t = 0.2)
movej(p[0.418182175277826, 0.218368321086315, 0.308041861557302, -1.405, 0.76, -0.761], a = 0.2, v = 0.2, t = 0.2)
movej(p[0.418170247111696, 0.218347121802445, 0.308939824926591, -1.405, 0.76, -0.761], a = 0.2, v = 0.2, t = 0.2)
movej(p[0.418157098635807, 0.218323753728111, 0.309929654342151, -1.405, 0.76, -0.761], a = 0.2, v = 0.2, t = 0.2)
movej(p[0.418146284665543, 0.21830453464423, 0.310743740017018, -1.405, 0.76, -0.761], a = 0.2, v = 0.2, t = 0.2)
movej(p[0.418137947489984, 0.218289717433486, 0.311371370297575, -1.405, 0.76, -0.761], a = 0.2, v = 0.2, t = 0.2)
movej(p[0.418135053474748, 0.21828457405689, 0.311589234438931, -1.405, 0.76, -0.761], a = 0.2, v = 0.2, t = 0.2)
movej(p[0.418148443118573, 0.218308370745941, 0.310581249678257, -1.405, 0.76, -0.761], a = 0.2, v = 0.2, t = 0.2)
movej(p[0.418168216477672, 0.218343512866534, 0.309092692932442, -1.405, 0.76, -0.761], a = 0.2, v = 0.2, t = 0.2)
movej(p[0.418178914687327, 0.218362526215351, 0.30828732182323, -1.405, 0.76, -0.761], a = 0.2, v = 0.2, t = 0.2)
movej(p[0.418185631214354, 0.218374463135201, 0.307781695461832, -1.405, 0.76, -0.761], a = 0.2, v = 0.2, t = 0.2)
movej(p[0.418189516429808, 0.218381368118281, 0.307489212852062, -1.405, 0.76, -0.761], a = 0.2, v = 0.2, t = 0.2)
movej(p[0.418193247297783, 0.218387998787943, 0.307208349663164, -1.405, 0.76, -0.761], a = 0.2, v = 0.2, t = 0.2)
movej(p[0.418193818865792, 0.21838901460482, 0.307165321495246, -1.405, 0.76, -0.761], a = 0.2, v = 0.2, t = 0.2)
movej(p[0.41819390086289, 0.218389160333824, 0.307159148677908, -1.405, 0.76, -0.761], a = 0.2, v = 0.2, t = 0.2)
movej(p[0.418194841417842, 0.218390831931218, 0.307088342831967, -1.405, 0.76, -0.761], a = 0.2, v = 0.2, t = 0.2)
movej(p[0.418188780867602, 0.218380060843396, 0.307544586654657, -1.405, 0.76, -0.761], a = 0.2, v = 0.2, t = 0.2)
movej(p[0.41817651747804, 0.21835826578507, 0.308467785953653, -1.405, 0.76, -0.761], a = 0.2, v = 0.2, t = 0.2)
movej(p[0.418163053072155, 0.218334336225457, 0.309481398871312, -1.405, 0.76, -0.761], a = 0.2, v = 0.2, t = 0.2)
movej(p[0.418149540432683, 0.218310320942901, 0.310498642857993, -1.405, 0.76, -0.761], a = 0.2, v = 0.2, t = 0.2)
movej(p[0.41813508482658, 0.218284629776803, 0.311586874244066, -1.405, 0.76, -0.761], a = 0.2, v = 0.2, t = 0.2)
movej(p[0.418124813484172, 0.218266375076035, 0.312360110392429, -1.405, 0.76, -0.761], a = 0.2, v = 0.2, t = 0.2)
movej(p[0.41813201717043, 0.218279177797612, 0.311817810233903, -1.405, 0.76, -0.761], a = 0.2, v = 0.2, t = 0.2)
movej(p[0.418153743989813, 0.218317791697406, 0.310182195192673, -1.405, 0.76, -0.761], a = 0.2, v = 0.2, t = 0.2)
movej(p[0.418171226253517, 0.218348861978194, 0.308866114225432, -1.405, 0.76, -0.761], a = 0.2, v = 0.2, t = 0.2)
movej(p[0.418181760468976, 0.218367583869003, 0.308073088750896, -1.405, 0.76, -0.761], a = 0.2, v = 0.2, t = 0.2)
movej(p[0.418189931238659, 0.218382105335593, 0.307457985658468, -1.405, 0.76, -0.761], a = 0.2, v = 0.2, t = 0.2)
movej(p[0.418191727939784, 0.21838529851523, 0.307322728337376, -1.405, 0.76, -0.761], a = 0.2, v = 0.2, t = 0.2)
movej(p[0.418192849370688, 0.218387291573661, 0.3072383059826, -1.405, 0.76, -0.761], a = 0.2, v = 0.2, t = 0.2)
movej(p[0.418193893627852, 0.218389147475382, 0.307159693338261, -1.405, 0.76, -0.761], a = 0.2, v = 0.2, t = 0.2)
movej(p[0.418195118760969, 0.218391324838141, 0.307067464185087, -1.405, 0.76, -0.761], a = 0.2, v = 0.2, t = 0.2)
movej(p[0.418190743974604, 0.218383549767187, 0.307396802145437, -1.405, 0.76, -0.761], a = 0.2, v = 0.2, t = 0.2)
movej(p[0.418179204088851, 0.21836304055301, 0.308265535409094, -1.405, 0.76, -0.761], a = 0.2, v = 0.2, t = 0.2)
movej(p[0.418168093482024, 0.218343294273029, 0.30910195215845, -1.405, 0.76, -0.761], a = 0.2, v = 0.2, t = 0.2)
movej(p[0.418153025309363, 0.218316514425552, 0.31023629812111, -1.405, 0.76, -0.761], a = 0.2, v = 0.2, t = 0.2)
movej(p[0.418138352652117, 0.21829043750621, 0.311340869317785, -1.405, 0.76, -0.761], a = 0.2, v = 0.2, t = 0.2)
movej(p[0.418129873187476, 0.218275367412783, 0.311979211251958, -1.405, 0.76, -0.761], a = 0.2, v = 0.2, t = 0.2)
movej(p[0.418130126413809, 0.218275817458235, 0.311960148139589, -1.405, 0.76, -0.761], a = 0.2, v = 0.2, t = 0.2)
movej(p[0.418145189763112, 0.218302588733418, 0.310826165283831, -1.405, 0.76, -0.761], a = 0.2, v = 0.2, t = 0.2)
movej(p[0.418163940570161, 0.218335913527613, 0.309414587201296, -1.405, 0.76, -0.761], a = 0.2, v = 0.2, t = 0.2)
movej(p[0.418179500725412, 0.218363567749111, 0.308243204334605, -1.405, 0.76, -0.761], a = 0.2, v = 0.2, t = 0.2)
movej(p[0.418186246192591, 0.218375556102727, 0.307735399331794, -1.405, 0.76, -0.761], a = 0.2, v = 0.2, t = 0.2)
movej(p[0.418189598426906, 0.218381513847284, 0.307483040034724, -1.405, 0.76, -0.761], a = 0.2, v = 0.2, t = 0.2)
movej(p[0.418192108985123, 0.218385975726481, 0.307294042892097, -1.405, 0.76, -0.761], a = 0.2, v = 0.2, t = 0.2)
movej(p[0.418194192676093, 0.218389678957631, 0.307137180710321, -1.405, 0.76, -0.761], a = 0.2, v = 0.2, t = 0.2)
movej(p[0.418194187852735, 0.218389670385336, 0.307137543817223, -1.405, 0.76, -0.761], a = 0.2, v = 0.2, t = 0.2)
movej(p[0.418189581545151, 0.218381483844254, 0.307484310908882, -1.405, 0.76, -0.761], a = 0.2, v = 0.2, t = 0.2)
movej(p[0.418180308637999, 0.218365003608411, 0.308182383928476, -1.405, 0.76, -0.761], a = 0.2, v = 0.2, t = 0.2)
movej(p[0.418165127116408, 0.218338022312018, 0.30932526290334, -1.405, 0.76, -0.761], a = 0.2, v = 0.2, t = 0.2)
movej(p[0.418149528374286, 0.218310299512165, 0.310499550625249, -1.405, 0.76, -0.761], a = 0.2, v = 0.2, t = 0.2)
movej(p[0.418137202281061, 0.218288393014013, 0.311427470313974, -1.405, 0.76, -0.761], a = 0.2, v = 0.2, t = 0.2)
movej(p[0.418127350570862, 0.21827088410285, 0.31216911616184, -1.405, 0.76, -0.761], a = 0.2, v = 0.2, t = 0.2)
movej(p[0.418127898022077, 0.218271857058257, 0.312127903528434, -1.405, 0.76, -0.761], a = 0.2, v = 0.2, t = 0.2)
movej(p[0.418146072437759, 0.21830415746328, 0.310759716720718, -1.405, 0.76, -0.761], a = 0.2, v = 0.2, t = 0.2)
movej(p[0.418167309686231, 0.2183419012752, 0.309160957030067, -1.405, 0.76, -0.761], a = 0.2, v = 0.2, t = 0.2)
movej(p[0.418178130891534, 0.218361133217523, 0.308346326694847, -1.405, 0.76, -0.761], a = 0.2, v = 0.2, t = 0.2)
movej(p[0.418185387634738, 0.218374030234337, 0.307800032360397, -1.405, 0.76, -0.761], a = 0.2, v = 0.2, t = 0.2)
movej(p[0.41818966113057, 0.218381625287111, 0.307478319644994, -1.405, 0.76, -0.761], a = 0.2, v = 0.2, t = 0.2)
movej(p[0.418193247297783, 0.218387998787943, 0.307208349663164, -1.405, 0.76, -0.761], a = 0.2, v = 0.2, t = 0.2)
movej(p[0.418193736868694, 0.218388868875817, 0.307171494312585, -1.405, 0.76, -0.761], a = 0.2, v = 0.2, t = 0.2)
movej(p[0.418193893627852, 0.218389147475382, 0.307159693338261, -1.405, 0.76, -0.761], a = 0.2, v = 0.2, t = 0.2)
movej(p[0.418191317954292, 0.218384569870212, 0.307353592424068, -1.405, 0.76, -0.761], a = 0.2, v = 0.2, t = 0.2)
movej(p[0.418177974132376, 0.218360854617957, 0.30835812766917, -1.405, 0.76, -0.761], a = 0.2, v = 0.2, t = 0.2)
movej(p[0.418162281334759, 0.218332964658365, 0.309539495975673, -1.405, 0.76, -0.761], a = 0.2, v = 0.2, t = 0.2)
movej(p[0.418148021074684, 0.218307620670188, 0.310613021532205, -1.405, 0.76, -0.761], a = 0.2, v = 0.2, t = 0.2)
movej(p[0.418136478777252, 0.218287107169864, 0.311481936349313, -1.405, 0.76, -0.761], a = 0.2, v = 0.2, t = 0.2)
movej(p[0.418124417968756, 0.2182656721479, 0.312389885158414, -1.405, 0.76, -0.761], a = 0.2, v = 0.2, t = 0.2)
movej(p[0.418125481519355, 0.218267562338799, 0.312309820086466, -1.405, 0.76, -0.761], a = 0.2, v = 0.2, t = 0.2)
movej(p[0.418144557903119, 0.218301465762861, 0.310873732288028, -1.405, 0.76, -0.761], a = 0.2, v = 0.2, t = 0.2)
movej(p[0.41816292042979, 0.218334100487363, 0.309491384311124, -1.405, 0.76, -0.761], a = 0.2, v = 0.2, t = 0.2)
movej(p[0.418176312485294, 0.218357901462561, 0.308483217996999, -1.405, 0.76, -0.761], a = 0.2, v = 0.2, t = 0.2)
movej(p[0.418184615897342, 0.218372658667245, 0.307858129464758, -1.405, 0.76, -0.761], a = 0.2, v = 0.2, t = 0.2)
movej(p[0.418190903145442, 0.2183838326529, 0.307384819617662, -1.405, 0.76, -0.761], a = 0.2, v = 0.2, t = 0.2)
movej(p[0.418192846959009, 0.218387287287513, 0.307238487536052, -1.405, 0.76, -0.761], a = 0.2, v = 0.2, t = 0.2)
movej(p[0.418193625931443, 0.218388671713047, 0.307179845771337, -1.405, 0.76, -0.761], a = 0.2, v = 0.2, t = 0.2)
movej(p[0.418194834182804, 0.218390819072776, 0.30708888749232, -1.405, 0.76, -0.761], a = 0.2, v = 0.2, t = 0.2)
movej(p[0.418193946684798, 0.21838924177062, 0.307155699162336, -1.405, 0.76, -0.761], a = 0.2, v = 0.2, t = 0.2)
movej(p[0.418186132843661, 0.218375354653811, 0.307743932343997, -1.405, 0.76, -0.761], a = 0.2, v = 0.2, t = 0.2)
movej(p[0.418173001249529, 0.218352016582506, 0.3087324908854, -1.405, 0.76, -0.761], a = 0.2, v = 0.2, t = 0.2)
movej(p[0.4181606872147, 0.21833013151509, 0.30965950280687, -1.405, 0.76, -0.761], a = 0.2, v = 0.2, t = 0.2)
movej(p[0.418145553926696, 0.21830323594164, 0.310798750712711, -1.405, 0.76, -0.761], a = 0.2, v = 0.2, t = 0.2)
movej(p[0.418132465742791, 0.218279975020984, 0.311784041291993, -1.405, 0.76, -0.761], a = 0.2, v = 0.2, t = 0.2)
movej(p[0.418127215516818, 0.218270644078609, 0.312179283155103, -1.405, 0.76, -0.761], a = 0.2, v = 0.2, t = 0.2)
movej(p[0.418139372792488, 0.21829225054646, 0.311264072207957, -1.405, 0.76, -0.761], a = 0.2, v = 0.2, t = 0.2)
movej(p[0.418157252983287, 0.218324028041529, 0.309918034921279, -1.405, 0.76, -0.761], a = 0.2, v = 0.2, t = 0.2)
movej(p[0.418172564735564, 0.218351240789869, 0.308765352060055, -1.405, 0.76, -0.761], a = 0.2, v = 0.2, t = 0.2)
movej(p[0.41818469789444, 0.218372804396248, 0.30785195664742, -1.405, 0.76, -0.761], a = 0.2, v = 0.2, t = 0.2)
movej(p[0.418188985860348, 0.218380425165905, 0.307529154611311, -1.405, 0.76, -0.761], a = 0.2, v = 0.2, t = 0.2)
movej(p[0.418191655589403, 0.218385169930815, 0.30732817494091, -1.405, 0.76, -0.761], a = 0.2, v = 0.2, t = 0.2)
movej(p[0.418192984424732, 0.218387531597902, 0.307228138989337, -1.405, 0.76, -0.761], a = 0.2, v = 0.2, t = 0.2)
movej(p[0.418195142877762, 0.218391367699613, 0.307065648650576, -1.405, 0.76, -0.761], a = 0.2, v = 0.2, t = 0.2)
movej(p[0.418195220051502, 0.218391504856322, 0.30705983894014, -1.405, 0.76, -0.761], a = 0.2, v = 0.2, t = 0.2)
movej(p[0.418194416962274, 0.218390077569317, 0.307120296239366, -1.405, 0.76, -0.761], a = 0.2, v = 0.2, t = 0.2)
movej(p[0.418189369317367, 0.218381106663304, 0.307500287612581, -1.405, 0.76, -0.761], a = 0.2, v = 0.2, t = 0.2)
movej(p[0.418177684730852, 0.218360340280297, 0.308379914083306, -1.405, 0.76, -0.761], a = 0.2, v = 0.2, t = 0.2)
movej(p[0.418163369002152, 0.218334897710735, 0.309457615369214, -1.405, 0.76, -0.761], a = 0.2, v = 0.2, t = 0.2)
movej(p[0.41815103085053, 0.218312969781848, 0.310386442825195, -1.405, 0.76, -0.761], a = 0.2, v = 0.2, t = 0.2)
movej(p[0.418141162258575, 0.218295430867655, 0.311129359547219, -1.405, 0.76, -0.761], a = 0.2, v = 0.2, t = 0.2)
movej(p[0.418129950361215, 0.218275504569493, 0.311973401541522, -1.405, 0.76, -0.761], a = 0.2, v = 0.2, t = 0.2)
movej(p[0.418131720533868, 0.21827865060151, 0.311840141308392, -1.405, 0.76, -0.761], a = 0.2, v = 0.2, t = 0.2)
movej(p[0.418150203644508, 0.218311499633371, 0.310448715658932, -1.405, 0.76, -0.761], a = 0.2, v = 0.2, t = 0.2)
movej(p[0.418168773575605, 0.218344502966529, 0.309050754085231, -1.405, 0.76, -0.761], a = 0.2, v = 0.2, t = 0.2)
movej(p[0.418179401846559, 0.218363392017078, 0.308250648026101, -1.405, 0.76, -0.761], a = 0.2, v = 0.2, t = 0.2)
movej(p[0.41818674541022, 0.21837644333519, 0.30769781776741, -1.405, 0.76, -0.761], a = 0.2, v = 0.2, t = 0.2)
movej(p[0.418192441796876, 0.21838656721479, 0.307268988515841, -1.405, 0.76, -0.761], a = 0.2, v = 0.2, t = 0.2)
movej(p[0.418193575286176, 0.218388581703957, 0.30718365839381, -1.405, 0.76, -0.761], a = 0.2, v = 0.2, t = 0.2)
movej(p[0.418194238498001, 0.218389760394427, 0.30713373119475, -1.405, 0.76, -0.761], a = 0.2, v = 0.2, t = 0.2)
movej(p[0.418194778714179, 0.218390720491391, 0.307093063221696, -1.405, 0.76, -0.761], a = 0.2, v = 0.2, t = 0.2)
movej(p[0.418194031093576, 0.218389391785771, 0.307149344791547, -1.405, 0.76, -0.761], a = 0.2, v = 0.2, t = 0.2)
movej(p[0.418184722011234, 0.21837284725772, 0.307850141112908, -1.405, 0.76, -0.761], a = 0.2, v = 0.2, t = 0.2)
movej(p[0.418170973027184, 0.218348411932742, 0.308885177337801, -1.405, 0.76, -0.761], a = 0.2, v = 0.2, t = 0.2)
movej(p[0.418158391295946, 0.21832605110299, 0.309832341692346, -1.405, 0.76, -0.761], a = 0.2, v = 0.2, t = 0.2)
movej(p[0.41814311330718, 0.21829889836071, 0.310982482805254, -1.405, 0.76, -0.761], a = 0.2, v = 0.2, t = 0.2)
movej(p[0.418129378793206, 0.218274488752615, 0.31201642970944, -1.405, 0.76, -0.761], a = 0.2, v = 0.2, t = 0.2)
