def moving():
set_payload_mass(0.606)
set_tcp(p[0.0005,0.0025,0.058,0,0,0])
movej(p[0.5359, 0.0125, 0.1626, -1.263, 1.183, -1.155], a = 0.2, v = 0.2, t = 0.2)
movej(p[0.536008715768837, 0.0124068925151484, 0.162697528856605, -1.2611951163603, 1.18136264918527, -1.15321089796327], a = 0.2, v = 0.2, t = 0.2)
movej(p[0.5359, 0.0125, 0.1626, -1.263, 1.183, -1.155], a = 0.2, v = 0.2, t = 0.2)
movej(p[0.536008715768837, 0.0124068925151484, 0.162697528856605, -1.2611951163603, 1.18136264918527, -1.15321089796327], a = 0.2, v = 0.2, t = 0.2)
movej(p[0.5359, 0.0125, 0.1626, -1.263, 1.183, -1.155], a = 0.2, v = 0.2, t = 0.2)
movej(p[0.536008715768837, 0.0124068925151484, 0.162697528856605, -1.2611951163603, 1.18136264918527, -1.15321089796327], a = 0.2, v = 0.2, t = 0.2)
movej(p[0.5359, 0.0125, 0.1626, -1.263, 1.183, -1.155], a = 0.2, v = 0.2, t = 0.2)
movej(p[0.535961948445792, 0.0126459582570633, 0.162453899992269, -1.26279068881499, 1.18493725553364, -1.16346592191349], a = 0.2, v = 0.2, t = 0.2)
movej(p[0.536210919899503, 0.0127172874772446, 0.162311225924249, -1.26668964440555, 1.18794851416405, -1.16747335399665], a = 0.2, v = 0.2, t = 0.2)
movej(p[0.536233673613459, 0.0127222716581008, 0.162221851114921, -1.26519875145533, 1.19086468483333, -1.16544040804215], a = 0.2, v = 0.2, t = 0.2)
movej(p[0.536233444353379, 0.0125698827183536, 0.162249690806488, -1.26963833674192, 1.1909024337555, -1.17047054359938], a = 0.2, v = 0.2, t = 0.2)
movej(p[0.536175046815689, 0.0125405830010181, 0.162208870172285, -1.266473206751, 1.19259892806733, -1.17119783072705], a = 0.2, v = 0.2, t = 0.2)
movej(p[0.536035267771997, 0.0125636981488657, 0.162079481589676, -1.26684018215278, 1.19124590035321, -1.17478488390437], a = 0.2, v = 0.2, t = 0.2)
movej(p[0.535558220990888, 0.012443546509939, 0.162005067620576, -1.25925911728798, 1.19106486699311, -1.16829385722016], a = 0.2, v = 0.2, t = 0.2)
movej(p[0.534668703787989, 0.0123109310255179, 0.161994123704725, -1.25501603745879, 1.18716726186474, -1.18193575055531], a = 0.2, v = 0.2, t = 0.2)
movej(p[0.533709823914899, 0.0123974163010056, 0.161956021023871, -1.25428395228247, 1.18092440660247, -1.1918478685178], a = 0.2, v = 0.2, t = 0.2)
movej(p[0.532736554579603, 0.0126429770353151, 0.16197636542748, -1.25541691567706, 1.17202615325037, -1.20347914201368], a = 0.2, v = 0.2, t = 0.2)
movej(p[0.531885909467308, 0.0127120252550222, 0.162123382874009, -1.24767831544229, 1.16572287879988, -1.19113255742018], a = 0.2, v = 0.2, t = 0.2)
movej(p[0.531359872377331, 0.0128274022510569, 0.162238681965741, -1.24555107160671, 1.15724006649363, -1.19687278568857], a = 0.2, v = 0.2, t = 0.2)
movej(p[0.531532439674336, 0.0129936329345821, 0.162238195283917, -1.25155619678864, 1.15043581292007, -1.19794910558081], a = 0.2, v = 0.2, t = 0.2)
movej(p[0.532422599810506, 0.0130798738258402, 0.162246759199394, -1.25798821137951, 1.14776854843936, -1.19898135711959], a = 0.2, v = 0.2, t = 0.2)
movej(p[0.533522979361776, 0.0130837520549982, 0.162282179313541, -1.25949903175753, 1.1516080600489, -1.19425520503375], a = 0.2, v = 0.2, t = 0.2)
movej(p[0.534694386514394, 0.0131957388676774, 0.162214716011067, -1.26120573810857, 1.16149779749123, -1.19339364905774], a = 0.2, v = 0.2, t = 0.2)
movej(p[0.535603686299288, 0.0132706591689428, 0.162103378866545, -1.26306596784339, 1.17305744095166, -1.18751486341106], a = 0.2, v = 0.2, t = 0.2)
movej(p[0.536122177721958, 0.0131486991082118, 0.162068870226997, -1.27027539584846, 1.18157241162268, -1.18339960215529], a = 0.2, v = 0.2, t = 0.2)
movej(p[0.536192627542444, 0.0129748293093829, 0.16204287191073, -1.26875003259425, 1.18622094556854, -1.18108121878138], a = 0.2, v = 0.2, t = 0.2)
movej(p[0.536138117933826, 0.0129278848499857, 0.161947865910918, -1.26676049615662, 1.18917795332452, -1.17714814050025], a = 0.2, v = 0.2, t = 0.2)
movej(p[0.535814936221385, 0.0127969910558353, 0.161877120248003, -1.25968143885822, 1.18885206363273, -1.17116850639344], a = 0.2, v = 0.2, t = 0.2)
movej(p[0.535128510655812, 0.0125949498097052, 0.161923713953758, -1.25757288657426, 1.18779351151371, -1.17653326945208], a = 0.2, v = 0.2, t = 0.2)
movej(p[0.534203557231987, 0.0125169801754711, 0.161912522046392, -1.25674977578248, 1.18133255971366, -1.19147780050258], a = 0.2, v = 0.2, t = 0.2)
movej(p[0.533158942140403, 0.0126549518422025, 0.161934170282248, -1.25726676529186, 1.17435994204855, -1.20225851155909], a = 0.2, v = 0.2, t = 0.2)
movej(p[0.532314987349452, 0.0127069591099484, 0.162059061112304, -1.25373295561062, 1.16647698032143, -1.19805786214462], a = 0.2, v = 0.2, t = 0.2)
movej(p[0.531564778414486, 0.0128020088651348, 0.162225661904726, -1.25615799402388, 1.15673623964771, -1.20450224237744], a = 0.2, v = 0.2, t = 0.2)
movej(p[0.531410922081307, 0.0129336441678243, 0.162266919863069, -1.25891171903347, 1.14943125319191, -1.20489317137555], a = 0.2, v = 0.2, t = 0.2)
movej(p[0.531825936511703, 0.0130768828043602, 0.162226244479028, -1.25836683186426, 1.1471851158133, -1.20080476553664], a = 0.2, v = 0.2, t = 0.2)
movej(p[0.532806765465355, 0.0130372209686041, 0.162251361275424, -1.25994850918985, 1.14913455774916, -1.19634425199013], a = 0.2, v = 0.2, t = 0.2)
movej(p[0.533982041969345, 0.0130863263228167, 0.162203477881047, -1.25905575016758, 1.15698538474317, -1.19402384489368], a = 0.2, v = 0.2, t = 0.2)
movej(p[0.535071783404347, 0.0131858804261341, 0.162108779285217, -1.26869283726182, 1.16506286151419, -1.19484546153701], a = 0.2, v = 0.2, t = 0.2)
movej(p[0.53573657531689, 0.0131313374183427, 0.162064743844733, -1.2639534252796, 1.17814477199344, -1.17842970408479], a = 0.2, v = 0.2, t = 0.2)
movej(p[0.535969450943332, 0.0130138987898552, 0.162070304577464, -1.26897381334084, 1.1828539320002, -1.1822523284979], a = 0.2, v = 0.2, t = 0.2)
movej(p[0.53600778931594, 0.0129421247113739, 0.16199689359093, -1.2710308108119, 1.1849159768978, -1.18437806028021], a = 0.2, v = 0.2, t = 0.2)
movej(p[0.535891595799838, 0.0129019314065291, 0.161890697020544, -1.27340777833217, 1.18367271676164, -1.18715896768937], a = 0.2, v = 0.2, t = 0.2)
movej(p[0.535465834336096, 0.0126559367227381, 0.161879049581394, -1.26617399402958, 1.18273247115803, -1.18322613201866], a = 0.2, v = 0.2, t = 0.2)
movej(p[0.534718959163253, 0.0126012257858578, 0.161827999161456, -1.25781678447266, 1.17995073264199, -1.18913823850764], a = 0.2, v = 0.2, t = 0.2)
movej(p[0.533769716738039, 0.0126743108563812, 0.161790209188707, -1.25418750757366, 1.17492569974722, -1.19819059397991], a = 0.2, v = 0.2, t = 0.2)
movej(p[0.532765531896016, 0.0127723860605759, 0.161853967372289, -1.249890803145, 1.16998570113599, -1.1970957230727], a = 0.2, v = 0.2, t = 0.2)
movej(p[0.531866473470438, 0.0128011320497519, 0.162013553932201, -1.24810537697217, 1.16393914501424, -1.19951333997484], a = 0.2, v = 0.2, t = 0.2)
movej(p[0.531451655765377, 0.0129639884165213, 0.162085567207855, -1.25206472225166, 1.15622892337022, -1.19920591592919], a = 0.2, v = 0.2, t = 0.2)
movej(p[0.531544106729389, 0.0130555263783624, 0.162141806888644, -1.25939786654643, 1.14839644962631, -1.2017295106549], a = 0.2, v = 0.2, t = 0.2)
movej(p[0.532077605398645, 0.013027581449959, 0.162241073919318, -1.25972194592806, 1.14749542061763, -1.19469729136036], a = 0.2, v = 0.2, t = 0.2)
movej(p[0.533087924549448, 0.0130324146049502, 0.16226286623524, -1.26355642588727, 1.15111255663369, -1.19622858565293], a = 0.2, v = 0.2, t = 0.2)
movej(p[0.534296857089948, 0.0130881805593097, 0.162227955512605, -1.26275593615548, 1.16245732077868, -1.18619278772816], a = 0.2, v = 0.2, t = 0.2)
movej(p[0.535328342259237, 0.0130329691486567, 0.16219478277874, -1.26539500513031, 1.17292532047903, -1.17639637977182], a = 0.2, v = 0.2, t = 0.2)
movej(p[0.535779234490653, 0.0128932586503897, 0.162217394663823, -1.26292939054657, 1.18114619469, -1.16921721863654], a = 0.2, v = 0.2, t = 0.2)
movej(p[0.535993400718262, 0.0128179467034243, 0.162172045500421, -1.25946538337819, 1.18786028415141, -1.16238057920923], a = 0.2, v = 0.2, t = 0.2)
movej(p[0.536032952498426, 0.0126955999318378, 0.162131172444893, -1.2575223399785, 1.1899909371539, -1.1599981507508], a = 0.2, v = 0.2, t = 0.2)
movej(p[0.535805936656661, 0.0125080039486778, 0.162091509431102, -1.25193504265386, 1.19148797573876, -1.15846446619168], a = 0.2, v = 0.2, t = 0.2)
movej(p[0.535223824487044, 0.0124113629830349, 0.161993753489864, -1.25743282632015, 1.184872521515, -1.17804648856746], a = 0.2, v = 0.2, t = 0.2)
movej(p[0.53426417172588, 0.0124339683575174, 0.161901689633036, -1.25527622564789, 1.17999627628458, -1.18484291427491], a = 0.2, v = 0.2, t = 0.2)
movej(p[0.533227795839863, 0.0124338061481482, 0.161964359273171, -1.25916540549889, 1.17272021900622, -1.19256392657385], a = 0.2, v = 0.2, t = 0.2)
movej(p[0.532216866294236, 0.0124866548567345, 0.162077377035408, -1.250400756274, 1.16767422141594, -1.18974523129534], a = 0.2, v = 0.2, t = 0.2)
movej(p[0.531554350416496, 0.0126874731018794, 0.162113444357999, -1.24871581496478, 1.16173643027, -1.18767364137748], a = 0.2, v = 0.2, t = 0.2)
movej(p[0.531407446714338, 0.0128051366763912, 0.162161369747153, -1.24618986402404, 1.15714004675235, -1.18017997191482], a = 0.2, v = 0.2, t = 0.2)
movej(p[0.531712275267813, 0.0128162855726716, 0.162277534085907, -1.25099090338959, 1.15294795150113, -1.1806858541557], a = 0.2, v = 0.2, t = 0.2)
movej(p[0.532681613619025, 0.0128544941327949, 0.16233403160889, -1.25744867132866, 1.1531650619114, -1.18635687653385], a = 0.2, v = 0.2, t = 0.2)
movej(p[0.533957726250618, 0.0129610212039678, 0.162305403177284, -1.25914974058692, 1.1618821050549, -1.17955785151208], a = 0.2, v = 0.2, t = 0.2)
movej(p[0.535136816912731, 0.0129344246330444, 0.162288094580184, -1.26069331369339, 1.17310612698716, -1.16730151583818], a = 0.2, v = 0.2, t = 0.2)
movej(p[0.535718115900666, 0.0128561294769171, 0.162277561990174, -1.25883045266505, 1.18214289893204, -1.15936125784211], a = 0.2, v = 0.2, t = 0.2)
movej(p[0.535982626065164, 0.0127880593214069, 0.162198936369629, -1.26141976759472, 1.18622626885978, -1.15984817081042], a = 0.2, v = 0.2, t = 0.2)
movej(p[0.536027147518306, 0.0126568090586053, 0.162146925446501, -1.26106257619207, 1.18757343639095, -1.15985548336487], a = 0.2, v = 0.2, t = 0.2)
movej(p[0.535784946221347, 0.01251594700349, 0.162097286687072, -1.25943029610318, 1.18777800580873, -1.16688049033211], a = 0.2, v = 0.2, t = 0.2)
movej(p[0.535308769633515, 0.0124561679822275, 0.161996519480213, -1.25932144466681, 1.18432919015192, -1.17843381626992], a = 0.2, v = 0.2, t = 0.2)
movej(p[0.534442361025381, 0.0124868191045077, 0.161927893297468, -1.25550535078904, 1.18060721883635, -1.18390884274074], a = 0.2, v = 0.2, t = 0.2)
movej(p[0.53345413138638, 0.0123985405295945, 0.162029139731179, -1.25208890078263, 1.17701568575459, -1.18320283756853], a = 0.2, v = 0.2, t = 0.2)
movej(p[0.532508516384678, 0.0124847413133816, 0.162134517774789, -1.24422123297042, 1.17168795682257, -1.18397516747991], a = 0.2, v = 0.2, t = 0.2)
movej(p[0.53188103643816, 0.0127038636788245, 0.162165789515717, -1.24808337555276, 1.16362664413948, -1.18890437298559], a = 0.2, v = 0.2, t = 0.2)
movej(p[0.531529204542224, 0.0128260603117583, 0.162193474616434, -1.24899094059543, 1.1560840818691, -1.18727357288452], a = 0.2, v = 0.2, t = 0.2)
movej(p[0.531633928633659, 0.0128071581013878, 0.162273449947732, -1.26114925887145, 1.1490686060819, -1.20007459488216], a = 0.2, v = 0.2, t = 0.2)
movej(p[0.532379868840819, 0.0128227183970188, 0.162314312898458, -1.26691452434784, 1.14942582989434, -1.20264286828703], a = 0.2, v = 0.2, t = 0.2)
movej(p[0.533619261977743, 0.0129408966316995, 0.162267462153603, -1.26857209278482, 1.15661695272802, -1.19582287628678], a = 0.2, v = 0.2, t = 0.2)
movej(p[0.534823707981008, 0.0128918532168974, 0.162311289364136, -1.27127265037802, 1.16599069970513, -1.18698237483711], a = 0.2, v = 0.2, t = 0.2)
movej(p[0.535554960024482, 0.0128424632919405, 0.162265588020299, -1.26381734727444, 1.17696895395217, -1.1737713964851], a = 0.2, v = 0.2, t = 0.2)
movej(p[0.535937244968849, 0.0127670690442785, 0.162200479388507, -1.26747989015573, 1.18194468856334, -1.17302635644454], a = 0.2, v = 0.2, t = 0.2)
movej(p[0.536002472305064, 0.0126308915138417, 0.162152713142492, -1.263546757817, 1.18647124352272, -1.16306172485115], a = 0.2, v = 0.2, t = 0.2)
movej(p[0.535818063085386, 0.0124741485192204, 0.162154008596013, -1.27133748344486, 1.18430696804617, -1.17646427696601], a = 0.2, v = 0.2, t = 0.2)
movej(p[0.535298791177447, 0.0124061616788737, 0.162039853264063, -1.27410027631454, 1.18067703229206, -1.18758664852948], a = 0.2, v = 0.2, t = 0.2)
movej(p[0.534453347776189, 0.0123887851121165, 0.161953781722344, -1.27068492897728, 1.17721605957009, -1.19293410829737], a = 0.2, v = 0.2, t = 0.2)
movej(p[0.533446424385755, 0.012310414353692, 0.16199191450148, -1.25951114932275, 1.17480668571929, -1.18892568851078], a = 0.2, v = 0.2, t = 0.2)
movej(p[0.532526194515273, 0.0124280297517131, 0.162053719509512, -1.248887674838, 1.17093049184199, -1.18631332250847], a = 0.2, v = 0.2, t = 0.2)
movej(p[0.531860172245846, 0.0126245533844989, 0.162094650413297, -1.25064349057659, 1.16151051573754, -1.19037629384537], a = 0.2, v = 0.2, t = 0.2)
movej(p[0.531496444358161, 0.0126932497531592, 0.162170311128684, -1.25099975051109, 1.15522009751072, -1.18359657221694], a = 0.2, v = 0.2, t = 0.2)
movej(p[0.531386008291355, 0.0126344534946887, 0.162285044045226, -1.25713169621426, 1.14776985632872, -1.19187247578302], a = 0.2, v = 0.2, t = 0.2)
movej(p[0.532050452726569, 0.0126483867192718, 0.16231533969285, -1.26428810666573, 1.14695304855837, -1.19358088989643], a = 0.2, v = 0.2, t = 0.2)
movej(p[0.533203417067507, 0.01274092346518, 0.162310053656317, -1.26973111308025, 1.1503537984203, -1.19568596125743], a = 0.2, v = 0.2, t = 0.2)
movej(p[0.534530645323428, 0.0127102128621727, 0.162347416677455, -1.26840612419052, 1.16189342293266, -1.18467217502413], a = 0.2, v = 0.2, t = 0.2)
movej(p[0.535469867817673, 0.0127397179241042, 0.1623143787277, -1.2677122329169, 1.1728047394911, -1.17876501029121], a = 0.2, v = 0.2, t = 0.2)
movej(p[0.536020177342768, 0.0126696948062401, 0.162266362174776, -1.26455202209081, 1.182098104762, -1.16766983621287], a = 0.2, v = 0.2, t = 0.2)
movej(p[0.536153988733202, 0.0125574841512824, 0.162248892883059, -1.26895280104758, 1.18567039979313, -1.16858550319395], a = 0.2, v = 0.2, t = 0.2)
movej(p[0.53608663254646, 0.0124151996066695, 0.162247548906936, -1.26864681049468, 1.18719465635545, -1.1698780820365], a = 0.2, v = 0.2, t = 0.2)
movej(p[0.535831425521862, 0.0123312735414822, 0.162160208428971, -1.27018973616712, 1.18612832352894, -1.17375974160422], a = 0.2, v = 0.2, t = 0.2)
movej(p[0.535201153897328, 0.0122074031082735, 0.162079586133994, -1.26592203301336, 1.18294322785307, -1.17402116622778], a = 0.2, v = 0.2, t = 0.2)
movej(p[0.534187395594384, 0.0120381694815689, 0.162081017464059, -1.25514941241669, 1.18150740859658, -1.17370516531164], a = 0.2, v = 0.2, t = 0.2)
movej(p[0.53313936727393, 0.0121597492389475, 0.162072314296711, -1.24891834165903, 1.17563600702428, -1.18107927454177], a = 0.2, v = 0.2, t = 0.2)
movej(p[0.532238193032726, 0.0123818517272309, 0.162106983569681, -1.24726137857037, 1.1682171154595, -1.18483927017526], a = 0.2, v = 0.2, t = 0.2)
movej(p[0.531533142379776, 0.0124763262996958, 0.162213110248384, -1.24802022804501, 1.16020778703361, -1.17979858822282], a = 0.2, v = 0.2, t = 0.2)
movej(p[0.531238180124147, 0.0125130776511433, 0.162335995666238, -1.25032369374729, 1.15349301764116, -1.18515989823758], a = 0.2, v = 0.2, t = 0.2)
movej(p[0.531574882271807, 0.0126235509210254, 0.162369863134442, -1.25604865144794, 1.15004483498043, -1.18665957352611], a = 0.2, v = 0.2, t = 0.2)
movej(p[0.53267831428168, 0.0127221864852561, 0.162379749951771, -1.25788173660781, 1.1523172054714, -1.18495171315149], a = 0.2, v = 0.2, t = 0.2)
movej(p[0.533978411280108, 0.0127909946735615, 0.162390582772335, -1.25957775745159, 1.16128350269176, -1.17982409456515], a = 0.2, v = 0.2, t = 0.2)
movej(p[0.535116179619821, 0.0128375975629228, 0.162359553166323, -1.26491141483704, 1.17116642448228, -1.17865656211623], a = 0.2, v = 0.2, t = 0.2)
movej(p[0.535874024619011, 0.0128269808039461, 0.162317073826197, -1.26470851329266, 1.18307317444854, -1.16640817110144], a = 0.2, v = 0.2, t = 0.2)
movej(p[0.536222443521376, 0.0126341117448885, 0.162352423140004, -1.26955724065725, 1.18896290725249, -1.16132574785823], a = 0.2, v = 0.2, t = 0.2)
movej(p[0.536216419825296, 0.0124759663068997, 0.162322164882869, -1.2586342082059, 1.19431472667874, -1.15095150221378], a = 0.2, v = 0.2, t = 0.2)
movej(p[0.536172513545497, 0.0124471950583425, 0.162237820475374, -1.25800173307493, 1.19502897340779, -1.15169395583673], a = 0.2, v = 0.2, t = 0.2)
movej(p[0.535923187265074, 0.0123183861330624, 0.162173198813527, -1.2533073684909, 1.194136920831, -1.14687424597785], a = 0.2, v = 0.2, t = 0.2)
movej(p[0.535348600845177, 0.0121984582360786, 0.16211861414357, -1.251921139426, 1.19049949922859, -1.15668518481636], a = 0.2, v = 0.2, t = 0.2)
movej(p[0.534554240598228, 0.0121756227836058, 0.162046823426358, -1.25498439693378, 1.18395570081162, -1.17255381605913], a = 0.2, v = 0.2, t = 0.2)
movej(p[0.533533951622884, 0.0122583890399557, 0.161995283381442, -1.25074345254702, 1.17871368549065, -1.17820287600406], a = 0.2, v = 0.2, t = 0.2)
movej(p[0.532663273466795, 0.012262564378181, 0.162145941360023, -1.25272950238576, 1.17182029885036, -1.18035666955031], a = 0.2, v = 0.2, t = 0.2)
movej(p[0.531984366168144, 0.012367876299398, 0.162236317248331, -1.24762710589253, 1.16627982483552, -1.1814375206007], a = 0.2, v = 0.2, t = 0.2)
movej(p[0.531933319561783, 0.0125517431969069, 0.162271547389965, -1.25349620385713, 1.15949572383832, -1.18346529279476], a = 0.2, v = 0.2, t = 0.2)
movej(p[0.532435469066552, 0.0126494351572513, 0.162261409705605, -1.25065117050488, 1.15830014778656, -1.17510018071687], a = 0.2, v = 0.2, t = 0.2)
movej(p[0.53339027329521, 0.0126556448813476, 0.162340780019727, -1.25537429783386, 1.16117094856101, -1.17599158115301], a = 0.2, v = 0.2, t = 0.2)
movej(p[0.534540187314807, 0.0126923137363827, 0.162335277629038, -1.26019068765806, 1.16834994396688, -1.17427828265819], a = 0.2, v = 0.2, t = 0.2)
movej(p[0.535423584247192, 0.0127457907653182, 0.162313560312699, -1.26809748812509, 1.17715845446773, -1.17260236640766], a = 0.2, v = 0.2, t = 0.2)
movej(p[0.535957403708449, 0.0125581300228954, 0.162348950731874, -1.26892827477012, 1.18482895086353, -1.16386425654328], a = 0.2, v = 0.2, t = 0.2)
movej(p[0.536086435212983, 0.012449929553549, 0.162309922972166, -1.26360969138523, 1.19164002813651, -1.15892802704954], a = 0.2, v = 0.2, t = 0.2)
movej(p[0.536149185333615, 0.0124173411157455, 0.16222207661175, -1.26130030886586, 1.19410166117828, -1.15864242092903], a = 0.2, v = 0.2, t = 0.2)
movej(p[0.53608839240615, 0.0123531986272944, 0.162152773062443, -1.25721589308637, 1.19532414631426, -1.15342905962739], a = 0.2, v = 0.2, t = 0.2)
movej(p[0.535851797192375, 0.0122197551187189, 0.16216344724803, -1.26766284585772, 1.18941235336298, -1.16964719985981], a = 0.2, v = 0.2, t = 0.2)
movej(p[0.535349119438018, 0.0122114871867471, 0.162068667014464, -1.26965240750523, 1.18489896757666, -1.17939751920452], a = 0.2, v = 0.2, t = 0.2)
movej(p[0.534564890925924, 0.0122449558019798, 0.162029808609783, -1.27470141883397, 1.1783053816799, -1.19400236772391], a = 0.2, v = 0.2, t = 0.2)
movej(p[0.533573725938499, 0.012172573676485, 0.162128609583513, -1.25783689628265, 1.17862862001294, -1.1813001061599], a = 0.2, v = 0.2, t = 0.2)
movej(p[0.532748403901464, 0.0122739994787977, 0.162221714552267, -1.25210031805557, 1.17338209902026, -1.18607555938795], a = 0.2, v = 0.2, t = 0.2)
movej(p[0.532243356101303, 0.0124880444897044, 0.162230926723268, -1.25301970107105, 1.16576841455638, -1.18915870422528], a = 0.2, v = 0.2, t = 0.2)
movej(p[0.532067434813885, 0.0126323190691803, 0.162260122812904, -1.25847046583169, 1.15784643804539, -1.19106704680866], a = 0.2, v = 0.2, t = 0.2)
movej(p[0.532199402831282, 0.0125674189514771, 0.162381392652543, -1.26244673831402, 1.1533459512132, -1.19315872310811], a = 0.2, v = 0.2, t = 0.2)
movej(p[0.532912146674896, 0.0126067130795754, 0.162378266218826, -1.26133585864215, 1.15623873683667, -1.1877135188715], a = 0.2, v = 0.2, t = 0.2)
movej(p[0.533961172706112, 0.0126930379612764, 0.162332882944043, -1.2589149765641, 1.16362195247244, -1.17768458057821], a = 0.2, v = 0.2, t = 0.2)
movej(p[0.535000933143345, 0.0126974089371192, 0.162333494201357, -1.25886145889429, 1.17465005383232, -1.16489109854416], a = 0.2, v = 0.2, t = 0.2)
movej(p[0.535601406651139, 0.0126665035329587, 0.162327860345542, -1.25744101056488, 1.18345672666745, -1.15888159664409], a = 0.2, v = 0.2, t = 0.2)
movej(p[0.535965724542497, 0.012711464737589, 0.162219684413328, -1.25843321654136, 1.19000236404716, -1.15499958484823], a = 0.2, v = 0.2, t = 0.2)
movej(p[0.536091783130568, 0.0126439968175927, 0.16211560316996, -1.25447966984629, 1.19151301321921, -1.14849263997345], a = 0.2, v = 0.2, t = 0.2)
movej(p[0.536042904951249, 0.0125652168220573, 0.162054698340317, -1.25556615042225, 1.19164856669026, -1.15573521546778], a = 0.2, v = 0.2, t = 0.2)
movej(p[0.53598590882079, 0.0125677219676295, 0.161968047329045, -1.26234958590243, 1.1888093869862, -1.17161611751871], a = 0.2, v = 0.2, t = 0.2)
movej(p[0.535905061991649, 0.0126478719871987, 0.161852570654029, -1.2657820589627, 1.18779557656245, -1.17934006582872], a = 0.2, v = 0.2, t = 0.2)
movej(p[0.535738178371948, 0.0125206432302462, 0.161818788154641, -1.26166997382088, 1.18794013698097, -1.17243545970742], a = 0.2, v = 0.2, t = 0.2)
movej(p[0.535151702537564, 0.0124395794275446, 0.161780077811119, -1.25668860957949, 1.18425608276979, -1.18422988268945], a = 0.2, v = 0.2, t = 0.2)
movej(p[0.534518775487262, 0.0125344684584975, 0.161679945702156, -1.25550730982302, 1.17971635378218, -1.19405035642134], a = 0.2, v = 0.2, t = 0.2)
movej(p[0.533809057030976, 0.012737949661162, 0.161602524622539, -1.25834869246407, 1.17236535960979, -1.20698769369668], a = 0.2, v = 0.2, t = 0.2)
movej(p[0.533203577808682, 0.0127371877235333, 0.16172957622041, -1.25768739394762, 1.16854384526373, -1.20581100927559], a = 0.2, v = 0.2, t = 0.2)
movej(p[0.532615350889142, 0.0128731165518159, 0.161790004829275, -1.2545138985063, 1.16234287242914, -1.21091713036381], a = 0.2, v = 0.2, t = 0.2)
movej(p[0.532346852838884, 0.0131080267140866, 0.161805147694592, -1.25635957903407, 1.15704174687768, -1.212442527533], a = 0.2, v = 0.2, t = 0.2)
movej(p[0.532433197601391, 0.0132546290492146, 0.161824718696679, -1.25511876267072, 1.15274995342164, -1.20585541023671], a = 0.2, v = 0.2, t = 0.2)
movej(p[0.532905782667097, 0.0132049597840813, 0.161910908273614, -1.26504176503949, 1.14913043000687, -1.21199148695348], a = 0.2, v = 0.2, t = 0.2)
movej(p[0.533857404337216, 0.0132124888595337, 0.161925783171363, -1.26580198043192, 1.15406297974001, -1.2069494732899], a = 0.2, v = 0.2, t = 0.2)
movej(p[0.534823767375648, 0.0132613689946293, 0.16189294371879, -1.27324114674515, 1.1600438678498, -1.20815716197807], a = 0.2, v = 0.2, t = 0.2)
movej(p[0.535580161093279, 0.0131387422766111, 0.161921290305125, -1.26209830668428, 1.17347525108991, -1.18313631044939], a = 0.2, v = 0.2, t = 0.2)
movej(p[0.535855168310673, 0.0130132691580522, 0.161922331150299, -1.264331025245, 1.17765737100069, -1.18724192857645], a = 0.2, v = 0.2, t = 0.2)
movej(p[0.535967559002912, 0.0129887301387924, 0.161842641639406, -1.26045626856453, 1.18171355528233, -1.18263001925249], a = 0.2, v = 0.2, t = 0.2)
movej(p[0.535995498470839, 0.0129316286113041, 0.161785478656712, -1.25723004219449, 1.18351542536664, -1.17825138809932], a = 0.2, v = 0.2, t = 0.2)
movej(p[0.535938055043489, 0.0127871928173937, 0.16176158165632, -1.2494967774353, 1.18638022455987, -1.17336367953493], a = 0.2, v = 0.2, t = 0.2)
movej(p[0.535891092949709, 0.0127697367548993, 0.161711123052436, -1.2543143774097, 1.18406744111046, -1.18396255459906], a = 0.2, v = 0.2, t = 0.2)
movej(p[0.535753285572498, 0.0127607188132219, 0.161609391080499, -1.2531990572625, 1.18344336215481, -1.18577136487416], a = 0.2, v = 0.2, t = 0.2)
movej(p[0.535336976315372, 0.0126526857630695, 0.161626500841036, -1.25615426887022, 1.18153017049734, -1.1867125289371], a = 0.2, v = 0.2, t = 0.2)
movej(p[0.534589620705747, 0.0125403259448083, 0.16163703925658, -1.25062566679864, 1.17848983751361, -1.1935562703062], a = 0.2, v = 0.2, t = 0.2)
movej(p[0.53382380989887, 0.0126495146663102, 0.16160580745279, -1.25223065992132, 1.17382186654542, -1.20104010456384], a = 0.2, v = 0.2, t = 0.2)
movej(p[0.533090314221411, 0.0128089171216681, 0.161631216427092, -1.24958721912322, 1.16761966677268, -1.20188359905136], a = 0.2, v = 0.2, t = 0.2)
movej(p[0.532457867488084, 0.0128264542026742, 0.161805705977761, -1.25120269995827, 1.16250783449304, -1.19907678177308], a = 0.2, v = 0.2, t = 0.2)
movej(p[0.532060052491133, 0.0129123052085976, 0.161912732091316, -1.24650057611316, 1.1586807054771, -1.19809306576453], a = 0.2, v = 0.2, t = 0.2)
movej(p[0.532298341169122, 0.0130645706809235, 0.161943987644097, -1.25112133792657, 1.15455563833119, -1.19824257251614], a = 0.2, v = 0.2, t = 0.2)
movej(p[0.532980777889753, 0.0130797096600265, 0.161930893258055, -1.24300070950699, 1.15593032006987, -1.18197589401361], a = 0.2, v = 0.2, t = 0.2)
movej(p[0.533864084288976, 0.0130058563299073, 0.161994734546583, -1.25254583337336, 1.15692835944583, -1.18938626037073], a = 0.2, v = 0.2, t = 0.2)
movej(p[0.53481941807828, 0.0129802682860304, 0.161986149540698, -1.26016891723589, 1.16280950033416, -1.19097619757162], a = 0.2, v = 0.2, t = 0.2)
movej(p[0.535512638316547, 0.0129990702225318, 0.161952637713815, -1.26630779635024, 1.17048549245883, -1.18778598383134], a = 0.2, v = 0.2, t = 0.2)
movej(p[0.535938314081731, 0.0127870070121361, 0.161993278606174, -1.26007552278586, 1.18075233465253, -1.17060355355388], a = 0.2, v = 0.2, t = 0.2)
movej(p[0.536016339836689, 0.0126599342426255, 0.161971899744838, -1.25232297177257, 1.1867876397936, -1.16584590918164], a = 0.2, v = 0.2, t = 0.2)
movej(p[0.536071278049685, 0.0126301570941916, 0.161931161797123, -1.24907633237314, 1.19156010679802, -1.16413771499456], a = 0.2, v = 0.2, t = 0.2)
movej(p[0.536026851420421, 0.0126016114593096, 0.161934049792529, -1.25097011704268, 1.19173044879585, -1.16562211752208], a = 0.2, v = 0.2, t = 0.2)
movej(p[0.535898855585016, 0.0124777436102444, 0.161959141256315, -1.26189718487751, 1.18765521742886, -1.17940566398312], a = 0.2, v = 0.2, t = 0.2)
movej(p[0.5355174299314, 0.0124105736572081, 0.161873960905731, -1.26605508839844, 1.18308339350336, -1.18772891826524], a = 0.2, v = 0.2, t = 0.2)
movej(p[0.534897110890297, 0.0123391221683504, 0.161797199963388, -1.26732341309357, 1.17865295849411, -1.19503627260273], a = 0.2, v = 0.2, t = 0.2)
movej(p[0.533961927059338, 0.0121612327950485, 0.161841048494025, -1.24606673339317, 1.18140060583333, -1.17600191603259], a = 0.2, v = 0.2, t = 0.2)
movej(p[0.533100362977084, 0.0121841458740728, 0.161890387540234, -1.23762475596896, 1.17791761436125, -1.17745771312582], a = 0.2, v = 0.2, t = 0.2)
movej(p[0.532500708852053, 0.0124086105176158, 0.161900735222681, -1.2381922079462, 1.17150135563756, -1.18138709061714], a = 0.2, v = 0.2, t = 0.2)
movej(p[0.532013840850088, 0.0126117350409973, 0.161963748805055, -1.24334303527944, 1.16246373164783, -1.18519900835518], a = 0.2, v = 0.2, t = 0.2)
movej(p[0.531715190329571, 0.0126350532348768, 0.162110834701827, -1.2448546772326, 1.15569328856626, -1.18846770758556], a = 0.2, v = 0.2, t = 0.2)
movej(p[0.532043993199552, 0.0127093353944509, 0.162125652554634, -1.24414444647789, 1.15418409882009, -1.18376094890304], a = 0.2, v = 0.2, t = 0.2)
movej(p[0.532965440656388, 0.0128126265211625, 0.162132289649798, -1.24678614683721, 1.15654121666063, -1.18020676200807], a = 0.2, v = 0.2, t = 0.2)
movej(p[0.534145007824615, 0.0128633090606971, 0.162124408620187, -1.24459849139488, 1.16587556535798, -1.16892114959054], a = 0.2, v = 0.2, t = 0.2)
movej(p[0.53511466957531, 0.0129018891356558, 0.162111003059622, -1.25160124789417, 1.17234538155501, -1.17287726786774], a = 0.2, v = 0.2, t = 0.2)
movej(p[0.535838899718021, 0.0129002078487098, 0.162056512754253, -1.2592649670073, 1.17788004286094, -1.17352612224165], a = 0.2, v = 0.2, t = 0.2)
movej(p[0.536139576786836, 0.0127809891895733, 0.162058195454105, -1.26647186060495, 1.18189806436529, -1.1733846675757], a = 0.2, v = 0.2, t = 0.2)
movej(p[0.536154679880721, 0.0125938767873923, 0.162077795708342, -1.2662400313931, 1.18344493261627, -1.17492809715126], a = 0.2, v = 0.2, t = 0.2)
movej(p[0.536142801495742, 0.0125473828158332, 0.162014172805202, -1.25622135759923, 1.18895408523569, -1.16652563227195], a = 0.2, v = 0.2, t = 0.2)
movej(p[0.536133275049694, 0.0124887161215557, 0.161990823475356, -1.25397148465436, 1.18919660216198, -1.16467202655143], a = 0.2, v = 0.2, t = 0.2)
movej(p[0.536076253635145, 0.0123416563798111, 0.162049829234743, -1.25135989657613, 1.19141280974588, -1.15772756019861], a = 0.2, v = 0.2, t = 0.2)
movej(p[0.535669479969315, 0.0122414801475895, 0.162011733379527, -1.25808771910506, 1.18663094835411, -1.17385452098111], a = 0.2, v = 0.2, t = 0.2)
movej(p[0.53503303439139, 0.0122096150359282, 0.161915328988032, -1.25952977302177, 1.18330983957712, -1.1821503646444], a = 0.2, v = 0.2, t = 0.2)
movej(p[0.534199758608365, 0.0121185308252305, 0.161916801328037, -1.25664794429571, 1.18018101703147, -1.18452347036589], a = 0.2, v = 0.2, t = 0.2)
movej(p[0.533396739748136, 0.012099247979615, 0.162016273790466, -1.25197369002705, 1.17583235256009, -1.18881239314921], a = 0.2, v = 0.2, t = 0.2)
movej(p[0.532827105958967, 0.0122621041555635, 0.162055347398144, -1.24890612108629, 1.17082979912758, -1.1900674173415], a = 0.2, v = 0.2, t = 0.2)
movej(p[0.532413918774589, 0.012478972981311, 0.1620415727399, -1.24854943195478, 1.16419054013997, -1.18909141611611], a = 0.2, v = 0.2, t = 0.2)
movej(p[0.532313752619544, 0.0124835616503257, 0.162148216869135, -1.2520482235933, 1.15908196030921, -1.1839938224955], a = 0.2, v = 0.2, t = 0.2)
movej(p[0.532498060346945, 0.012456576948541, 0.16224922662505, -1.25338936174132, 1.15607716547656, -1.18766518812694], a = 0.2, v = 0.2, t = 0.2)
movej(p[0.533309604376491, 0.0125582429683662, 0.162277825691835, -1.26009422503935, 1.15707213598326, -1.18624279599443], a = 0.2, v = 0.2, t = 0.2)
movej(p[0.534289813378237, 0.0126147355377091, 0.162261078912897, -1.25492401491851, 1.16475362756967, -1.17319185432122], a = 0.2, v = 0.2, t = 0.2)
movej(p[0.535137416071224, 0.012614225166163, 0.162274958929536, -1.26752042922009, 1.16963181383759, -1.17882629624383], a = 0.2, v = 0.2, t = 0.2)
movej(p[0.535711089637611, 0.0126171217238314, 0.162220168257133, -1.27064198759643, 1.17624235887614, -1.1780022565078], a = 0.2, v = 0.2, t = 0.2)
movej(p[0.535941201255487, 0.0126409263515882, 0.162128412106708, -1.27615869618677, 1.18013426557314, -1.18146551942218], a = 0.2, v = 0.2, t = 0.2)
movej(p[0.536013799712999, 0.0125049913401694, 0.162098408082842, -1.26154673867224, 1.1884540793399, -1.16358369054081], a = 0.2, v = 0.2, t = 0.2)
movej(p[0.535939124835574, 0.0124593839611349, 0.162022877025708, -1.25177587100218, 1.1917648854967, -1.16299253883424], a = 0.2, v = 0.2, t = 0.2)
movej(p[0.535964651086133, 0.0125110181591334, 0.161938752429843, -1.2502322750017, 1.19281617288124, -1.16479884115732], a = 0.2, v = 0.2, t = 0.2)
movej(p[0.535915673316999, 0.0125137545216194, 0.161862961852559, -1.24955917580008, 1.19216953499745, -1.16379121104978], a = 0.2, v = 0.2, t = 0.2)
movej(p[0.535638472216658, 0.0123278078487781, 0.161873566957113, -1.24866844970178, 1.19064459555144, -1.16741886685102], a = 0.2, v = 0.2, t = 0.2)
movej(p[0.535137825259632, 0.0123144313438643, 0.161764796750542, -1.2495251101886, 1.18633338507392, -1.17966622506745], a = 0.2, v = 0.2, t = 0.2)
movej(p[0.534442381409232, 0.0123774872200305, 0.161674103458386, -1.2510383605249, 1.18006558568084, -1.19037646800816], a = 0.2, v = 0.2, t = 0.2)
movej(p[0.533705791846603, 0.0123809467366513, 0.16172081688935, -1.25253962407292, 1.17399378563517, -1.19385713468358], a = 0.2, v = 0.2, t = 0.2)
movej(p[0.533025057392403, 0.0124014642977216, 0.161813671541645, -1.24650409802956, 1.17077614302458, -1.190449127401], a = 0.2, v = 0.2, t = 0.2)
movej(p[0.532544622433948, 0.0125657492726535, 0.16181479855885, -1.24387306785444, 1.1676123443079, -1.18521011304103], a = 0.2, v = 0.2, t = 0.2)
movej(p[0.532352472443694, 0.0127052789194752, 0.161871961008964, -1.24168456021268, 1.16390149971037, -1.17868393006121], a = 0.2, v = 0.2, t = 0.2)
movej(p[0.532523255711725, 0.0126587460430222, 0.162041998956699, -1.24525149163653, 1.1604085071407, -1.17562218155368], a = 0.2, v = 0.2, t = 0.2)
movej(p[0.533195042743096, 0.0126547468389289, 0.162141916057076, -1.25509325574669, 1.15884848364477, -1.18600952856123], a = 0.2, v = 0.2, t = 0.2)
movej(p[0.534175750178074, 0.0127478973403314, 0.162138908189355, -1.26246742511284, 1.16393217418542, -1.18464639583796], a = 0.2, v = 0.2, t = 0.2)
movej(p[0.535105540082587, 0.0126970262620461, 0.162152829172028, -1.26152505227016, 1.17253278154498, -1.17227221655152], a = 0.2, v = 0.2, t = 0.2)
movej(p[0.535573819525181, 0.0126039088807698, 0.162175024810084, -1.25745706139552, 1.18001844774336, -1.16787087790515], a = 0.2, v = 0.2, t = 0.2)
movej(p[0.535884923495994, 0.0125719759450419, 0.162124849888782, -1.25927745227601, 1.18293017880197, -1.16946259640742], a = 0.2, v = 0.2, t = 0.2)
movej(p[0.535956029662298, 0.0125774930182069, 0.162019280305676, -1.26077165395186, 1.18495040144365, -1.1693518970171], a = 0.2, v = 0.2, t = 0.2)
movej(p[0.536056964310112, 0.0124169015521352, 0.162042117081822, -1.2607736835289, 1.18721849591483, -1.16259242465068], a = 0.2, v = 0.2, t = 0.2)
movej(p[0.53594954737361, 0.0123237239460697, 0.162020538671282, -1.25101831744288, 1.19015466697898, -1.15868032142283], a = 0.2, v = 0.2, t = 0.2)
movej(p[0.535684288720261, 0.0123199119153767, 0.16191500959498, -1.24831244481956, 1.19013583085783, -1.15958147721713], a = 0.2, v = 0.2, t = 0.2)
movej(p[0.535101951619605, 0.0122603923984549, 0.161838073525377, -1.24312516369904, 1.1878615379857, -1.16059430585936], a = 0.2, v = 0.2, t = 0.2)
movej(p[0.534237377741573, 0.012129104429506, 0.16186479301515, -1.25128855548793, 1.17941379708333, -1.17961613904605], a = 0.2, v = 0.2, t = 0.2)
movej(p[0.533424515988779, 0.0122060911408233, 0.161854528663001, -1.24915613867629, 1.17379667279771, -1.18785299584491], a = 0.2, v = 0.2, t = 0.2)
movej(p[0.532750740043465, 0.0124303921367705, 0.161845650998185, -1.25134996038652, 1.16586753008222, -1.19335853885096], a = 0.2, v = 0.2, t = 0.2)
movej(p[0.532203548308382, 0.0125100874396963, 0.161918261296688, -1.23891657479247, 1.16528474357802, -1.17181789899639], a = 0.2, v = 0.2, t = 0.2)
movej(p[0.531916070051171, 0.0125107961567162, 0.162064878483781, -1.23924555937277, 1.16005582359531, -1.17464722426051], a = 0.2, v = 0.2, t = 0.2)
movej(p[0.532294479738401, 0.0125563487177091, 0.162126164799523, -1.24763196091404, 1.15625710277046, -1.17760286306315], a = 0.2, v = 0.2, t = 0.2)
movej(p[0.53317745889951, 0.012617944389238, 0.162170503058344, -1.25496885167625, 1.1553794950184, -1.18115851984262], a = 0.2, v = 0.2, t = 0.2)
movej(p[0.534327540829304, 0.0125333337856046, 0.162245527810354, -1.24994810789337, 1.16443281989731, -1.16698289393191], a = 0.2, v = 0.2, t = 0.2)
movej(p[0.535262143873257, 0.0125662929526848, 0.162205987273682, -1.24678700790176, 1.17452091591017, -1.15984879729067], a = 0.2, v = 0.2, t = 0.2)
movej(p[0.53591148785424, 0.0125683336941697, 0.162182489389002, -1.24594607880798, 1.18565312653728, -1.14831543825391], a = 0.2, v = 0.2, t = 0.2)
movej(p[0.536106888290544, 0.0124580518427475, 0.162191750499578, -1.25055729803664, 1.1902058093635, -1.14674763334888], a = 0.2, v = 0.2, t = 0.2)
movej(p[0.536084921020294, 0.0123096279331358, 0.162246105814951, -1.25305323432933, 1.1930509024352, -1.15059857349559], a = 0.2, v = 0.2, t = 0.2)
movej(p[0.536098016017638, 0.0122978345586574, 0.162189151552047, -1.25144263494512, 1.19490732087238, -1.14817697894524], a = 0.2, v = 0.2, t = 0.2)
movej(p[0.536062128351002, 0.0122287682387605, 0.162143759488431, -1.24985266697781, 1.19567740783774, -1.14584195402806], a = 0.2, v = 0.2, t = 0.2)
movej(p[0.535790934386146, 0.0120655373516067, 0.162097148084198, -1.24522422348703, 1.19515002331415, -1.14514710987377], a = 0.2, v = 0.2, t = 0.2)
movej(p[0.535220279613637, 0.0120305838922382, 0.161976493984844, -1.244046501324, 1.19259728330956, -1.15531802756866], a = 0.2, v = 0.2, t = 0.2)
movej(p[0.534356229436264, 0.0120358910994052, 0.161867305993589, -1.24653949443965, 1.18632533365552, -1.16846393604146], a = 0.2, v = 0.2, t = 0.2)
movej(p[0.533439639148284, 0.0120195663932357, 0.161917853756636, -1.24597058569793, 1.18119389834675, -1.16918891913881], a = 0.2, v = 0.2, t = 0.2)
movej(p[0.532592262381533, 0.0120262391713676, 0.162010662209395, -1.24169485390113, 1.17432934982348, -1.17202115057556], a = 0.2, v = 0.2, t = 0.2)
movej(p[0.532058648302491, 0.0122472092180962, 0.162037383840659, -1.24062641299019, 1.16861924139404, -1.16868343445352], a = 0.2, v = 0.2, t = 0.2)
movej(p[0.531912479990532, 0.0123928510634629, 0.162058703134229, -1.24119617684972, 1.16194777931895, -1.16683724477375], a = 0.2, v = 0.2, t = 0.2)
movej(p[0.532212540311188, 0.0123995899923561, 0.162174085972231, -1.25083692385176, 1.15748500738916, -1.17260545445784], a = 0.2, v = 0.2, t = 0.2)
movej(p[0.533053188452848, 0.0123856014555953, 0.162246126737682, -1.25792640815887, 1.1578051650025, -1.17921465404534], a = 0.2, v = 0.2, t = 0.2)
movej(p[0.534173571559314, 0.0124672774636158, 0.162282960316921, -1.26215085042996, 1.16468516595787, -1.17239764766984], a = 0.2, v = 0.2, t = 0.2)
movej(p[0.535183786273401, 0.0124376050067989, 0.162357777177261, -1.25685799019402, 1.17772929596657, -1.1516915453102], a = 0.2, v = 0.2, t = 0.2)
movej(p[0.535750583000916, 0.012397965071366, 0.162407015766467, -1.25153531267895, 1.18733281428334, -1.14176432601546], a = 0.2, v = 0.2, t = 0.2)
movej(p[0.53606090515508, 0.0123792211772251, 0.162342616278607, -1.24810668819998, 1.19456564801075, -1.13691799363249], a = 0.2, v = 0.2, t = 0.2)
movej(p[0.53611986009776, 0.0122938227456066, 0.16226648942388, -1.24807057984966, 1.19508149461404, -1.13781346863034], a = 0.2, v = 0.2, t = 0.2)
movej(p[0.536124042866657, 0.0121274579034501, 0.162273948293674, -1.25500814747198, 1.19368383743297, -1.14473039388306], a = 0.2, v = 0.2, t = 0.2)
movej(p[0.536073542432188, 0.0120571991107808, 0.162252309304069, -1.25850253549088, 1.1929940146678, -1.15226019792143], a = 0.2, v = 0.2, t = 0.2)
movej(p[0.535933457115745, 0.0120609809944166, 0.162149374687627, -1.25751974937939, 1.19419646567476, -1.14997971893062], a = 0.2, v = 0.2, t = 0.2)
movej(p[0.535494949190195, 0.0119240724475437, 0.162101719210587, -1.24854835179189, 1.19655960579841, -1.14289315787095], a = 0.2, v = 0.2, t = 0.2)
movej(p[0.534777419428799, 0.0118666318057496, 0.16206309111483, -1.24384766724787, 1.19251733110491, -1.15310698953197], a = 0.2, v = 0.2, t = 0.2)
movej(p[0.534025743274316, 0.0119456283823673, 0.162027965342753, -1.24068304508648, 1.18716605147139, -1.16034926801763], a = 0.2, v = 0.2, t = 0.2)
movej(p[0.533252000512489, 0.0120729472180387, 0.162023170616161, -1.23813414154046, 1.18081199323927, -1.16317875537175], a = 0.2, v = 0.2, t = 0.2)
movej(p[0.53253384786963, 0.0120581767770342, 0.162120847123713, -1.23940861362904, 1.1739052059156, -1.16541430442093], a = 0.2, v = 0.2, t = 0.2)
movej(p[0.532031007034975, 0.0121648557260078, 0.16216200967506, -1.23807225955863, 1.16930198111096, -1.16505230935055], a = 0.2, v = 0.2, t = 0.2)
movej(p[0.531950721674678, 0.0123475991457825, 0.162209461937093, -1.24386508868667, 1.16263953632149, -1.16696341541598], a = 0.2, v = 0.2, t = 0.2)
movej(p[0.532394521492564, 0.0123799981927683, 0.162303114786958, -1.23975915026729, 1.16336882082525, -1.15416123253525], a = 0.2, v = 0.2, t = 0.2)
movej(p[0.533207011005076, 0.012387348671012, 0.162401997957053, -1.24486318970305, 1.16467809627466, -1.16010058174289], a = 0.2, v = 0.2, t = 0.2)
movej(p[0.534360146946418, 0.0124956023911411, 0.162380291265276, -1.25431954101052, 1.16956501164621, -1.15914899452086], a = 0.2, v = 0.2, t = 0.2)
movej(p[0.535295487428231, 0.0125642866473531, 0.162370556287414, -1.26248870431235, 1.17654376311836, -1.15844578581671], a = 0.2, v = 0.2, t = 0.2)
movej(p[0.535836876402402, 0.0123914295652111, 0.162447943570918, -1.26694713401999, 1.18046386358722, -1.15566776704142], a = 0.2, v = 0.2, t = 0.2)
movej(p[0.53603968794012, 0.0123242841944015, 0.162403968392732, -1.26072763008483, 1.18645347811723, -1.15165283506232], a = 0.2, v = 0.2, t = 0.2)
movej(p[0.536144678132903, 0.0122763541778484, 0.162331828381418, -1.26131255778648, 1.18823392023674, -1.15254028332384], a = 0.2, v = 0.2, t = 0.2)
movej(p[0.536141375157988, 0.0122134882866151, 0.162298502864525, -1.26090824624519, 1.19037640655684, -1.14952210981999], a = 0.2, v = 0.2, t = 0.2)
movej(p[0.536036599988971, 0.0121006241615545, 0.162294301218224, -1.26205021034667, 1.19147816726416, -1.15237495119212], a = 0.2, v = 0.2, t = 0.2)
movej(p[0.535737065462722, 0.0120695111326328, 0.162168966727694, -1.25736187495494, 1.19310856897076, -1.15096330555299], a = 0.2, v = 0.2, t = 0.2)
movej(p[0.53513256002681, 0.0119686243779009, 0.162107046194975, -1.25364649247213, 1.19148900589741, -1.15407695287308], a = 0.2, v = 0.2, t = 0.2)
movej(p[0.534295407230761, 0.0118222501896833, 0.162144698408609, -1.2414636718823, 1.19024395763981, -1.15201856936238], a = 0.2, v = 0.2, t = 0.2)
movej(p[0.533564861926889, 0.0118912042987973, 0.16218369136088, -1.23949277370922, 1.18387129113929, -1.16208949326372], a = 0.2, v = 0.2, t = 0.2)
movej(p[0.533087159673864, 0.0120928195837934, 0.162194125809124, -1.23834922768452, 1.17887651653689, -1.1626420306325], a = 0.2, v = 0.2, t = 0.2)
movej(p[0.53313060600668, 0.0121278706821278, 0.16229816904807, -1.24376044393579, 1.17381392369434, -1.16277961480063], a = 0.2, v = 0.2, t = 0.2)
movej(p[0.533557090821782, 0.0120932845867528, 0.162456175115341, -1.2428779909294, 1.17358972814337, -1.16009276795813], a = 0.2, v = 0.2, t = 0.2)
movej(p[0.534494406185165, 0.0121861552022714, 0.162476589473959, -1.23930777263409, 1.17958486501416, -1.14966909182533], a = 0.2, v = 0.2, t = 0.2)
movej(p[0.535335244681996, 0.0122528542964851, 0.162475725947515, -1.23668261566366, 1.18715338029347, -1.13766211569857], a = 0.2, v = 0.2, t = 0.2)
movej(p[0.535960006126373, 0.0122114873053848, 0.162482054359014, -1.24260081720519, 1.19116870642003, -1.13468796220556], a = 0.2, v = 0.2, t = 0.2)
movej(p[0.536202173226088, 0.0121393534212475, 0.162476037811936, -1.24680214291754, 1.19375043191505, -1.13593070473888], a = 0.2, v = 0.2, t = 0.2)
movej(p[0.536291602500342, 0.012169055324684, 0.162386106451229, -1.25130135330376, 1.1943387854665, -1.1382544837391], a = 0.2, v = 0.2, t = 0.2)
movej(p[0.536250638107823, 0.0120507691001981, 0.162347924342298, -1.2479597996013, 1.19621425171466, -1.13048931975219], a = 0.2, v = 0.2, t = 0.2)
movej(p[0.535877243676518, 0.0119421815603582, 0.162278463361439, -1.24502920932486, 1.19461646964873, -1.13877000065552], a = 0.2, v = 0.2, t = 0.2)
movej(p[0.535262623559962, 0.0118977365004823, 0.162185093362631, -1.24532918051054, 1.19084676734813, -1.14853702189852], a = 0.2, v = 0.2, t = 0.2)
movej(p[0.534246553412667, 0.0118965475848276, 0.162125245950348, -1.24249369395222, 1.18698841613886, -1.15530337762135], a = 0.2, v = 0.2, t = 0.2)
movej(p[0.533178745472908, 0.0118182302173804, 0.162226494220673, -1.24567856029536, 1.17878167161047, -1.16416988044766], a = 0.2, v = 0.2, t = 0.2)
movej(p[0.532280076764902, 0.0119237058065321, 0.162287686636412, -1.24209714790674, 1.17136899808461, -1.16885661564341], a = 0.2, v = 0.2, t = 0.2)
movej(p[0.531734595142072, 0.012145180413485, 0.162283435562525, -1.24264811615528, 1.16356773628538, -1.16978535988341], a = 0.2, v = 0.2, t = 0.2)
movej(p[0.531531856051637, 0.0122221279098484, 0.16232248886505, -1.23859848653742, 1.1598984864043, -1.16134956672197], a = 0.2, v = 0.2, t = 0.2)
movej(p[0.531732938682428, 0.0121655820526061, 0.162435670799417, -1.24054797275156, 1.15815860911009, -1.1627231329431], a = 0.2, v = 0.2, t = 0.2)
movej(p[0.532511821009012, 0.0121951994561759, 0.162507634228809, -1.24721463600834, 1.15957099113973, -1.16360227584997], a = 0.2, v = 0.2, t = 0.2)
movej(p[0.533562732024059, 0.0123263107854561, 0.162502275272561, -1.25202789761152, 1.16377863474207, -1.16275608653855], a = 0.2, v = 0.2, t = 0.2)
movej(p[0.534647484327164, 0.012331862818267, 0.162527783160868, -1.25619554554701, 1.17014711212224, -1.15803322780441], a = 0.2, v = 0.2, t = 0.2)
movej(p[0.535466002215224, 0.0123938515238969, 0.162455348301248, -1.25087370884465, 1.17969671007563, -1.14865992385623], a = 0.2, v = 0.2, t = 0.2)
movej(p[0.536028447703692, 0.0124290366511656, 0.162384593908715, -1.25447890090272, 1.18608281546505, -1.14667382420277], a = 0.2, v = 0.2, t = 0.2)
movej(p[0.536195125081371, 0.0123307845362886, 0.162338631444725, -1.25188477082906, 1.19171554578397, -1.14037069128967], a = 0.2, v = 0.2, t = 0.2)
movej(p[0.53605565381679, 0.0122136812746837, 0.162329214084281, -1.25756528940848, 1.19223108667424, -1.15235408042329], a = 0.2, v = 0.2, t = 0.2)
movej(p[0.5356238207607, 0.0121244357973979, 0.162223590378838, -1.25898512045881, 1.19091556194208, -1.15833425120102], a = 0.2, v = 0.2, t = 0.2)
movej(p[0.534773048282876, 0.0120436859893277, 0.162178618791431, -1.25691398367614, 1.1897739513235, -1.16055570624866], a = 0.2, v = 0.2, t = 0.2)
movej(p[0.533649570116917, 0.0118421940767459, 0.162247228099675, -1.24956724628003, 1.18519375854451, -1.16087610725218], a = 0.2, v = 0.2, t = 0.2)
movej(p[0.532464237216462, 0.0119032007179428, 0.16227110362332, -1.24046887346474, 1.17932034058784, -1.16057947542959], a = 0.2, v = 0.2, t = 0.2)
movej(p[0.531468878223595, 0.0120606247227939, 0.162279701810099, -1.24180366046079, 1.16672943183102, -1.16638558268271], a = 0.2, v = 0.2, t = 0.2)
movej(p[0.53093054235064, 0.012169948281893, 0.162329160402269, -1.24612040908026, 1.15691517238304, -1.16649930926006], a = 0.2, v = 0.2, t = 0.2)
movej(p[0.530862590279495, 0.0121728891868888, 0.162430448187954, -1.25563025278914, 1.14674896247953, -1.18080792258902], a = 0.2, v = 0.2, t = 0.2)
movej(p[0.531644625444262, 0.0122560137413291, 0.162436641883021, -1.25828063416743, 1.14793364604523, -1.17596288734351], a = 0.2, v = 0.2, t = 0.2)
movej(p[0.532813931418422, 0.0123548262597236, 0.162451176935745, -1.25951753783791, 1.15223902660507, -1.17155559576885], a = 0.2, v = 0.2, t = 0.2)
movej(p[0.534072643341386, 0.0123857534334706, 0.162490165057251, -1.25330979592223, 1.16404776245413, -1.1575654647717], a = 0.2, v = 0.2, t = 0.2)
movej(p[0.535082218318, 0.0124879722115886, 0.162456833010109, -1.25972676949811, 1.17287285698937, -1.163292458646], a = 0.2, v = 0.2, t = 0.2)
movej(p[0.53577315353533, 0.0125392095682943, 0.162360135762918, -1.26071276746146, 1.18303864622134, -1.15608444799675], a = 0.2, v = 0.2, t = 0.2)
movej(p[0.536117593371387, 0.0124305313770766, 0.162338854936814, -1.26605111136401, 1.18880091768945, -1.15145449997714], a = 0.2, v = 0.2, t = 0.2)
movej(p[0.536149796174689, 0.0122911575308791, 0.162342972684327, -1.25915116772358, 1.19296860945347, -1.14544637788774], a = 0.2, v = 0.2, t = 0.2)
movej(p[0.536160860873095, 0.0122645767468433, 0.162278676050906, -1.25357985130733, 1.19715529942926, -1.14193410959448], a = 0.2, v = 0.2, t = 0.2)
movej(p[0.535906186757553, 0.0121486650752905, 0.162240832667341, -1.25140332922285, 1.19667523813734, -1.14260994323978], a = 0.2, v = 0.2, t = 0.2)
movej(p[0.535282755671209, 0.0119805611748842, 0.162243003599264, -1.25015423912374, 1.19556791108076, -1.149978746228], a = 0.2, v = 0.2, t = 0.2)
movej(p[0.534323365957625, 0.0119351584877323, 0.162192059295677, -1.25554185392903, 1.18735081731379, -1.17250003465568], a = 0.2, v = 0.2, t = 0.2)
movej(p[0.533238454127446, 0.0120310086189275, 0.162151060028768, -1.25487354767484, 1.17893407799634, -1.1828806185585], a = 0.2, v = 0.2, t = 0.2)
movej(p[0.532234534428149, 0.012036556062907, 0.162245261999711, -1.2486849910632, 1.17304171662281, -1.17372298879911], a = 0.2, v = 0.2, t = 0.2)
movej(p[0.531405168087415, 0.0120811773044936, 0.16237733338252, -1.24567836198544, 1.16218356441217, -1.17634226560985], a = 0.2, v = 0.2, t = 0.2)
movej(p[0.531177390292768, 0.0122477926586288, 0.162410092657482, -1.24830240539092, 1.15428873319892, -1.17642328652211], a = 0.2, v = 0.2, t = 0.2)
movej(p[0.531541665591455, 0.0123963623427612, 0.162399887272276, -1.2488015911683, 1.14986992869822, -1.17347148245448], a = 0.2, v = 0.2, t = 0.2)
movej(p[0.532428641398877, 0.0123898745619941, 0.162467679333383, -1.25473452221023, 1.14991181649921, -1.17235486300625], a = 0.2, v = 0.2, t = 0.2)
movej(p[0.533563960590017, 0.0124559002372915, 0.162455545343311, -1.25359657302173, 1.15847897634612, -1.16666975212432], a = 0.2, v = 0.2, t = 0.2)
movej(p[0.534779305289838, 0.0125983249410628, 0.162383694531785, -1.25942033247189, 1.16862041934084, -1.16279427469279], a = 0.2, v = 0.2, t = 0.2)
movej(p[0.535703561638281, 0.0125764735201225, 0.162347803919616, -1.2521949524089, 1.182541645247, -1.14364726480209], a = 0.2, v = 0.2, t = 0.2)
movej(p[0.536053511449462, 0.0124718905530619, 0.162375646758096, -1.25958534076509, 1.18799591858388, -1.15068432875534], a = 0.2, v = 0.2, t = 0.2)
movej(p[0.536211753076268, 0.012423966470608, 0.162301199551864, -1.26460069121745, 1.18916048637741, -1.15815193129036], a = 0.2, v = 0.2, t = 0.2)
movej(p[0.536127641022588, 0.0124264509482021, 0.162219098005363, -1.27111079564072, 1.18854971221554, -1.16621253755422], a = 0.2, v = 0.2, t = 0.2)
movej(p[0.535811442044115, 0.0121581124911498, 0.16221739795698, -1.26062181361297, 1.1899338396767, -1.15705038324401], a = 0.2, v = 0.2, t = 0.2)
movej(p[0.535141467078074, 0.0120640670706188, 0.162161543831112, -1.2516713130456, 1.18910044717214, -1.16124951448539], a = 0.2, v = 0.2, t = 0.2)
movej(p[0.534209358645361, 0.0120723634864949, 0.162066457545829, -1.24645370752179, 1.18482813541356, -1.16560250744766], a = 0.2, v = 0.2, t = 0.2)
movej(p[0.533194514528404, 0.0121454581283391, 0.162081265641949, -1.24510948638362, 1.17771565200087, -1.17172733592846], a = 0.2, v = 0.2, t = 0.2)
movej(p[0.532247239660657, 0.0121974418203228, 0.162206516637258, -1.2409621367416, 1.17114541983949, -1.17472586791834], a = 0.2, v = 0.2, t = 0.2)
movej(p[0.531698355821359, 0.0123906774178994, 0.162256883361903, -1.24430465055193, 1.16329420839586, -1.17836040690127], a = 0.2, v = 0.2, t = 0.2)
movej(p[0.531570854933002, 0.0125429866826971, 0.162275713580302, -1.24771220249263, 1.15585193986486, -1.1792695814375], a = 0.2, v = 0.2, t = 0.2)
movej(p[0.531883431092636, 0.0124832852891301, 0.162339678196572, -1.24274342354553, 1.15551545383922, -1.16466922173173], a = 0.2, v = 0.2, t = 0.2)
movej(p[0.532610865739434, 0.0124463549591044, 0.16241035361707, -1.24466935702337, 1.15673635263668, -1.16439639417057], a = 0.2, v = 0.2, t = 0.2)
movej(p[0.533616325740341, 0.0125002760917038, 0.162432368680896, -1.24807345046884, 1.16311765293663, -1.16077860620574], a = 0.2, v = 0.2, t = 0.2)
movej(p[0.534663154500205, 0.0125206155336952, 0.162449431946842, -1.25471002318667, 1.17041322833895, -1.15805987126159], a = 0.2, v = 0.2, t = 0.2)
movej(p[0.535374573005661, 0.0124593622223456, 0.162461113806913, -1.25357757793559, 1.17842686039449, -1.15264678067247], a = 0.2, v = 0.2, t = 0.2)
movej(p[0.535877192986677, 0.0124810452210394, 0.16237995487127, -1.25350503431929, 1.18505227013165, -1.14763706680317], a = 0.2, v = 0.2, t = 0.2)
movej(p[0.536060328718198, 0.0124303845276951, 0.1623155582218, -1.25882264013582, 1.18671800884272, -1.15188655011525], a = 0.2, v = 0.2, t = 0.2)
movej(p[0.536015206803456, 0.0123126382801121, 0.162279904227366, -1.26158000014305, 1.1874658254883, -1.15639619549102], a = 0.2, v = 0.2, t = 0.2)
movej(p[0.535664399317432, 0.0121992515982029, 0.162166811101954, -1.26467921942774, 1.18449302058399, -1.17273758734016], a = 0.2, v = 0.2, t = 0.2)
movej(p[0.535028611245754, 0.0121647261737524, 0.162044074233906, -1.26383332061807, 1.18076927779479, -1.18173302490783], a = 0.2, v = 0.2, t = 0.2)
movej(p[0.534128903343967, 0.0120699061776301, 0.162014667398014, -1.25977899438899, 1.17754992006993, -1.18296790629047], a = 0.2, v = 0.2, t = 0.2)
movej(p[0.533140964333445, 0.0120727480599654, 0.162084443153072, -1.2516824272255, 1.17335853651545, -1.18644606637295], a = 0.2, v = 0.2, t = 0.2)
movej(p[0.53245926927574, 0.0122886849459784, 0.162085607553621, -1.24830974425686, 1.16864923060176, -1.18613963801357], a = 0.2, v = 0.2, t = 0.2)
movej(p[0.53197550436464, 0.0124910419367556, 0.162102695877612, -1.24374103306799, 1.1648090673046, -1.18044008189954], a = 0.2, v = 0.2, t = 0.2)
movej(p[0.531834439914418, 0.0125283096711036, 0.162214804596541, -1.24895707370101, 1.15920374387054, -1.17917344433711], a = 0.2, v = 0.2, t = 0.2)
movej(p[0.532200937087253, 0.0124850667840833, 0.162298859120666, -1.25350212301682, 1.15641762706525, -1.18349542735699], a = 0.2, v = 0.2, t = 0.2)
movej(p[0.533146014550682, 0.0125690285498155, 0.162322961174823, -1.25683731075782, 1.15982194337325, -1.17888193984369], a = 0.2, v = 0.2, t = 0.2)
movej(p[0.534433588126137, 0.0125476885930283, 0.162350066374235, -1.24850819082948, 1.17053130783923, -1.15779433622542], a = 0.2, v = 0.2, t = 0.2)
movej(p[0.535307395194123, 0.0125482456495161, 0.162359176077229, -1.24597066046405, 1.18008066793237, -1.1517071172585], a = 0.2, v = 0.2, t = 0.2)
movej(p[0.53596740320869, 0.012545895042245, 0.162318321113767, -1.25528256152803, 1.18491032528703, -1.15562850870065], a = 0.2, v = 0.2, t = 0.2)
movej(p[0.536150634896939, 0.0125297467470533, 0.162244609586087, -1.26259091461013, 1.18805327033533, -1.15990403727888], a = 0.2, v = 0.2, t = 0.2)
movej(p[0.536239625117068, 0.0123210541516937, 0.162260881868915, -1.2616345964936, 1.19179243877367, -1.15040311298625], a = 0.2, v = 0.2, t = 0.2)
movej(p[0.536059141109017, 0.0121876489060484, 0.162197653718759, -1.25160118631448, 1.19475533858018, -1.14409655717688], a = 0.2, v = 0.2, t = 0.2)
movej(p[0.535610315602138, 0.0121282794137774, 0.162075840191341, -1.24806618763005, 1.19391557067311, -1.14530397410028], a = 0.2, v = 0.2, t = 0.2)
movej(p[0.534780859147206, 0.0120250528925413, 0.162024581869225, -1.24405009905182, 1.19046728821289, -1.14914412406607], a = 0.2, v = 0.2, t = 0.2)
movej(p[0.533783624023124, 0.0119795379018985, 0.162040406897611, -1.24405451906172, 1.18378652758852, -1.16559121304692], a = 0.2, v = 0.2, t = 0.2)
movej(p[0.532913274062803, 0.0121164120870964, 0.162031699487199, -1.24671493642179, 1.17479691792332, -1.17700114578498], a = 0.2, v = 0.2, t = 0.2)
movej(p[0.532218878953412, 0.0123603016675204, 0.162040043106075, -1.252322250114, 1.16468376182522, -1.18751139537158], a = 0.2, v = 0.2, t = 0.2)
movej(p[0.531682540804769, 0.012347095927103, 0.162158139034926, -1.24768015660196, 1.16147179166212, -1.17704010462857], a = 0.2, v = 0.2, t = 0.2)
movej(p[0.531433015268331, 0.0123724052620042, 0.162245168139436, -1.24668365107845, 1.15688191447324, -1.17770482180255], a = 0.2, v = 0.2, t = 0.2)
movej(p[0.531802860098212, 0.0124616315253941, 0.162234449957142, -1.24812600619088, 1.15430520951878, -1.1755790594789], a = 0.2, v = 0.2, t = 0.2)
movej(p[0.532721382484764, 0.0125266771141109, 0.162247188378992, -1.25644003515058, 1.15296596696977, -1.17963735838843], a = 0.2, v = 0.2, t = 0.2)
movej(p[0.533826385591672, 0.0125093261769179, 0.162317826298712, -1.26375778645113, 1.15758984686932, -1.18409197934103], a = 0.2, v = 0.2, t = 0.2)
movej(p[0.534933440379753, 0.0125611183098348, 0.162305090814638, -1.26543317570413, 1.16906646098034, -1.17614405720642], a = 0.2, v = 0.2, t = 0.2)
movej(p[0.535685125805532, 0.0125685206122358, 0.162275241708128, -1.26721602156649, 1.17803357717744, -1.16959595531689], a = 0.2, v = 0.2, t = 0.2)
movej(p[0.536049725580021, 0.0124221726071914, 0.162266110672503, -1.25562229371536, 1.18826615359479, -1.14995331668943], a = 0.2, v = 0.2, t = 0.2)
movej(p[0.536124383942219, 0.0123354375094484, 0.162232425995373, -1.25973552887538, 1.18960142106294, -1.16050989025178], a = 0.2, v = 0.2, t = 0.2)
movej(p[0.536152780041857, 0.0123211785956781, 0.162170652325387, -1.26310149113291, 1.18980674592434, -1.16395560033382], a = 0.2, v = 0.2, t = 0.2)
movej(p[0.536053632923836, 0.0122257751364694, 0.162113603353799, -1.26051144144201, 1.1906937978519, -1.15885013112719], a = 0.2, v = 0.2, t = 0.2)
movej(p[0.535558228220188, 0.0120273696701378, 0.162101199530455, -1.25348626016945, 1.18991384585272, -1.15951187815892], a = 0.2, v = 0.2, t = 0.2)
movej(p[0.534857206703191, 0.0120422916521238, 0.161977425305915, -1.24456016172785, 1.18878867695886, -1.16220244696677], a = 0.2, v = 0.2, t = 0.2)
movej(p[0.533888736236315, 0.012124830546848, 0.16193909819087, -1.24372215135217, 1.1831147429558, -1.17084106472469], a = 0.2, v = 0.2, t = 0.2)
movej(p[0.532929618009137, 0.0121873555395515, 0.162003723374675, -1.24579463813028, 1.17638795028631, -1.17614393191059], a = 0.2, v = 0.2, t = 0.2)
movej(p[0.532139694325609, 0.0122873557392445, 0.162077541810634, -1.24526147031437, 1.16907661410186, -1.1817807070071], a = 0.2, v = 0.2, t = 0.2)
movej(p[0.531646959477103, 0.0125015823873096, 0.162076420627364, -1.2468162210868, 1.16345529018515, -1.17948728960247], a = 0.2, v = 0.2, t = 0.2)
movej(p[0.531714418922654, 0.0125561531391467, 0.162130599873851, -1.24277215296843, 1.16088641574248, -1.16560385848497], a = 0.2, v = 0.2, t = 0.2)
movej(p[0.532225813395727, 0.0125058826961816, 0.162257134753922, -1.24563746125577, 1.16007336203991, -1.16383194915727], a = 0.2, v = 0.2, t = 0.2)
movej(p[0.53334847136762, 0.0125465610622341, 0.162294034969107, -1.25476568737237, 1.16161649094474, -1.17235503645738], a = 0.2, v = 0.2, t = 0.2)
movej(p[0.534594140329577, 0.0126747019164175, 0.162269683342741, -1.26174336844406, 1.16921119728054, -1.17317385402657], a = 0.2, v = 0.2, t = 0.2)
movej(p[0.535659558745133, 0.0125927422824216, 0.162299337770564, -1.26095631664575, 1.1798248877263, -1.16011558200652], a = 0.2, v = 0.2, t = 0.2)
movej(p[0.536078756107527, 0.0125084768851032, 0.162319526556909, -1.2587437329442, 1.18653432555759, -1.15992427776483], a = 0.2, v = 0.2, t = 0.2)
movej(p[0.536305190598369, 0.0124824425268916, 0.162260635418677, -1.25657674580169, 1.19129281507989, -1.15566126406844], a = 0.2, v = 0.2, t = 0.2)
movej(p[0.536274486251852, 0.0124338067621679, 0.162188760208273, -1.25507881870922, 1.1927768812844, -1.15316047697909], a = 0.2, v = 0.2, t = 0.2)
movej(p[0.536043405747235, 0.0122499517183293, 0.162197320895261, -1.25890700197641, 1.19072069416206, -1.15902808495347], a = 0.2, v = 0.2, t = 0.2)
movej(p[0.535483762731756, 0.0121313885079129, 0.162127156004029, -1.25481307796158, 1.18912213710182, -1.16308569482488], a = 0.2, v = 0.2, t = 0.2)
movej(p[0.534526489436484, 0.0121238107734541, 0.162060172326161, -1.25293721351155, 1.18511859649536, -1.17116727387123], a = 0.2, v = 0.2, t = 0.2)
movej(p[0.533416419990347, 0.0120132420136269, 0.162120331692045, -1.24231576701923, 1.18182052047599, -1.1637484989637], a = 0.2, v = 0.2, t = 0.2)
movej(p[0.532305920887071, 0.0120143935272096, 0.162244992010665, -1.246752241884, 1.17026720311795, -1.17959257621939], a = 0.2, v = 0.2, t = 0.2)
movej(p[0.531540283697387, 0.0121775597049504, 0.162296159719616, -1.25235594913814, 1.15890931030537, -1.18655417462987], a = 0.2, v = 0.2, t = 0.2)
movej(p[0.531111895555389, 0.0123021907405841, 0.162308954173727, -1.25077833075087, 1.15212390821286, -1.18090302641236], a = 0.2, v = 0.2, t = 0.2)
movej(p[0.531087019586213, 0.0121946601827209, 0.162462276081188, -1.24500713894195, 1.15111196485868, -1.16911046849278], a = 0.2, v = 0.2, t = 0.2)
movej(p[0.531805627774615, 0.0122312699581205, 0.16250641893863, -1.23883083864571, 1.15460179007072, -1.16192493731875], a = 0.2, v = 0.2, t = 0.2)
movej(p[0.532989956926679, 0.0123782077016674, 0.16250007670708, -1.24472728967012, 1.15859858921121, -1.16353224686634], a = 0.2, v = 0.2, t = 0.2)
movej(p[0.534387702705145, 0.0124924735971072, 0.162458717698511, -1.24526148499491, 1.16981593104559, -1.1526477581704], a = 0.2, v = 0.2, t = 0.2)
movej(p[0.535361561384347, 0.0124593959245791, 0.162460421051382, -1.24808148202702, 1.17924077111748, -1.15038259891323], a = 0.2, v = 0.2, t = 0.2)
movej(p[0.535943213750704, 0.0124792260227551, 0.16235842094613, -1.2507843341441, 1.1876852286932, -1.14638351657669], a = 0.2, v = 0.2, t = 0.2)
movej(p[0.536192511065929, 0.0124384828513123, 0.162265992470852, -1.25259524693731, 1.19167870956112, -1.14579016621423], a = 0.2, v = 0.2, t = 0.2)
movej(p[0.536164728364025, 0.012308152106651, 0.162220567453164, -1.25005234958224, 1.19513758236958, -1.14271337958975], a = 0.2, v = 0.2, t = 0.2)
movej(p[0.535889749399744, 0.0121857866258521, 0.162187370174464, -1.2539785220835, 1.19321401094804, -1.15506098395304], a = 0.2, v = 0.2, t = 0.2)
movej(p[0.535307377071114, 0.0121527543096762, 0.162093024759766, -1.25233715701007, 1.19162230106605, -1.15922378996633], a = 0.2, v = 0.2, t = 0.2)
movej(p[0.534463285485545, 0.012036095833693, 0.16212678182945, -1.2525368804389, 1.18735515650879, -1.1642009037596], a = 0.2, v = 0.2, t = 0.2)
movej(p[0.533464024755137, 0.0119941712050735, 0.162186660536678, -1.24697622377901, 1.18147592174635, -1.17219569222622], a = 0.2, v = 0.2, t = 0.2)
movej(p[0.532676943744536, 0.0121582073239979, 0.162202339051896, -1.24841037002795, 1.17286938039132, -1.18212306509999], a = 0.2, v = 0.2, t = 0.2)
movej(p[0.532026828906809, 0.0123506127738587, 0.162176046545606, -1.24599776303004, 1.16534392892587, -1.18101640177088], a = 0.2, v = 0.2, t = 0.2)
movej(p[0.531656724124485, 0.0123797726825605, 0.162246862834844, -1.25027362008867, 1.15772372579843, -1.1804307651449], a = 0.2, v = 0.2, t = 0.2)
movej(p[0.531529121577304, 0.0123565992913569, 0.162294118519083, -1.24663563998822, 1.15521400429661, -1.1783556661384], a = 0.2, v = 0.2, t = 0.2)
movej(p[0.531988931183522, 0.0124280831654482, 0.16228322050211, -1.25274850837716, 1.153916316409, -1.18090090538763], a = 0.2, v = 0.2, t = 0.2)
movej(p[0.532830820317879, 0.0124447001744108, 0.162293366662205, -1.248379689696, 1.15949641075665, -1.16804265719078], a = 0.2, v = 0.2, t = 0.2)
movej(p[0.533797599833828, 0.0123876251256194, 0.162394475274877, -1.25778976304583, 1.1623481068783, -1.17498707063086], a = 0.2, v = 0.2, t = 0.2)
movej(p[0.534782306321741, 0.0124239947327792, 0.162387120833436, -1.25797440814515, 1.17161384863573, -1.16732355948606], a = 0.2, v = 0.2, t = 0.2)
movej(p[0.535513156012853, 0.0124638200753967, 0.16232777000343, -1.26081027485685, 1.17989171806178, -1.16199476475296], a = 0.2, v = 0.2, t = 0.2)
movej(p[0.535959787137983, 0.0123293723918152, 0.162324537813199, -1.25235353253717, 1.18949980144955, -1.14404370414881], a = 0.2, v = 0.2, t = 0.2)
movej(p[0.536050025919252, 0.0122063786039513, 0.162284487915549, -1.25565937409191, 1.19031851357213, -1.15394418864375], a = 0.2, v = 0.2, t = 0.2)
movej(p[0.535959119781695, 0.0121900659705973, 0.162217309873538, -1.25721212088849, 1.19125902951575, -1.15762091602438], a = 0.2, v = 0.2, t = 0.2)
movej(p[0.535568483764947, 0.0121313712072506, 0.162148235682294, -1.26237882963544, 1.18784218945345, -1.16589737909662], a = 0.2, v = 0.2, t = 0.2)
movej(p[0.534797491907868, 0.0119196191501772, 0.162230347493526, -1.25465336088123, 1.18811231334402, -1.16296981751013], a = 0.2, v = 0.2, t = 0.2)
movej(p[0.533947164934055, 0.0119223440214965, 0.16219793305257, -1.24539073555227, 1.18572852014975, -1.16680719116654], a = 0.2, v = 0.2, t = 0.2)
movej(p[0.533122245825275, 0.0121010515140115, 0.162143197665587, -1.2385175885431, 1.18200364480088, -1.16776722694433], a = 0.2, v = 0.2, t = 0.2)
movej(p[0.532402434110362, 0.0121911967441815, 0.162195288706476, -1.23775924676444, 1.17495843031112, -1.16484599991582], a = 0.2, v = 0.2, t = 0.2)
movej(p[0.531771627794732, 0.0122027955082985, 0.16231804853123, -1.239072992137, 1.16615554188612, -1.17018422156968], a = 0.2, v = 0.2, t = 0.2)
movej(p[0.531672781906952, 0.0123353753124349, 0.16234718738193, -1.24422376563416, 1.16012840064357, -1.17323844915065], a = 0.2, v = 0.2, t = 0.2)
movej(p[0.53212276198307, 0.0124564377340546, 0.162342305623177, -1.24653491709157, 1.15749493297465, -1.1731699429], a = 0.2, v = 0.2, t = 0.2)
movej(p[0.533083509363925, 0.0125180982662774, 0.162359343318069, -1.252496115248, 1.15929026315919, -1.1733260725827], a = 0.2, v = 0.2, t = 0.2)
movej(p[0.534158099868413, 0.0125770435506274, 0.162346581087954, -1.25644192032906, 1.1651364983683, -1.1754270246377], a = 0.2, v = 0.2, t = 0.2)
movej(p[0.535235366842182, 0.0127049994125847, 0.162225116946677, -1.25672903358851, 1.17617474710447, -1.16321879039487], a = 0.2, v = 0.2, t = 0.2)
movej(p[0.535930115648825, 0.0126240837817474, 0.162209796337092, -1.25728117890614, 1.1851541093525, -1.1508108931148], a = 0.2, v = 0.2, t = 0.2)
movej(p[0.536179247430846, 0.0124609793859189, 0.162256818386479, -1.25704359305621, 1.19187545617876, -1.14772168358248], a = 0.2, v = 0.2, t = 0.2)
movej(p[0.536251828090072, 0.0123880956682108, 0.162224179002366, -1.2679045027108, 1.18988229419919, -1.16341718140083], a = 0.2, v = 0.2, t = 0.2)
movej(p[0.536084991216824, 0.0123606301915783, 0.162128069575574, -1.26717348883816, 1.18931089956928, -1.16437515423552], a = 0.2, v = 0.2, t = 0.2)
movej(p[0.535709110034736, 0.0121196960765863, 0.162114478133966, -1.26292015849981, 1.18728955275863, -1.16038154453998], a = 0.2, v = 0.2, t = 0.2)
movej(p[0.534927208070763, 0.0119891236841408, 0.162120423103865, -1.25218697898214, 1.18581637705195, -1.16464004163942], a = 0.2, v = 0.2, t = 0.2)
movej(p[0.53406165114559, 0.0120522036736562, 0.162077029851995, -1.24753967463284, 1.18308081704624, -1.16955160756512], a = 0.2, v = 0.2, t = 0.2)
movej(p[0.533114715349113, 0.0122157897238196, 0.162085129391644, -1.24451760405357, 1.17736615169671, -1.17334240227889], a = 0.2, v = 0.2, t = 0.2)
movej(p[0.53226231544061, 0.0122072076239235, 0.16227896385594, -1.24922568566646, 1.16943030257901, -1.17940936696859], a = 0.2, v = 0.2, t = 0.2)
movej(p[0.531650234157669, 0.0123171305092107, 0.162377961537022, -1.24939867995744, 1.16083224441598, -1.18397393292661], a = 0.2, v = 0.2, t = 0.2)
movej(p[0.531629590660655, 0.0124973520875325, 0.162393305216574, -1.25321169007766, 1.1540254875775, -1.18420826360656], a = 0.2, v = 0.2, t = 0.2)
movej(p[0.532200893228255, 0.012585269737721, 0.162400494815964, -1.24952380258543, 1.15521853796918, -1.17282099794688], a = 0.2, v = 0.2, t = 0.2)
movej(p[0.533127993755675, 0.0125571454102059, 0.162448972447494, -1.25511165511585, 1.15710113783748, -1.17680023255938], a = 0.2, v = 0.2, t = 0.2)
movej(p[0.534344851396379, 0.0126269422639488, 0.162405621129545, -1.25502867867532, 1.16895198898174, -1.16977351252004], a = 0.2, v = 0.2, t = 0.2)
movej(p[0.535353370029267, 0.0126624969454243, 0.162348248657552, -1.2575567504248, 1.17752182570491, -1.16508018985888], a = 0.2, v = 0.2, t = 0.2)
movej(p[0.535990339216373, 0.0125655637572985, 0.162367421442082, -1.24804311769689, 1.19100471911703, -1.14575462337125], a = 0.2, v = 0.2, t = 0.2)
movej(p[0.536254406581919, 0.0125140418992279, 0.162347110558115, -1.25289165581973, 1.19381992938648, -1.1556190685909], a = 0.2, v = 0.2, t = 0.2)
movej(p[0.536361967125647, 0.012504422415369, 0.162273291040423, -1.25672639976478, 1.19507431830627, -1.15923859975685], a = 0.2, v = 0.2, t = 0.2)
movej(p[0.536370823164815, 0.0124072484233447, 0.162240529279355, -1.25715334478805, 1.19607439512065, -1.15688018246378], a = 0.2, v = 0.2, t = 0.2)
movej(p[0.536086880700816, 0.012176280221708, 0.16224979991961, -1.25170814705782, 1.19559334283747, -1.15569196478452], a = 0.2, v = 0.2, t = 0.2)
movej(p[0.535549592546636, 0.0121368238356651, 0.162154679455576, -1.24845121963057, 1.19356706819581, -1.1627758361421], a = 0.2, v = 0.2, t = 0.2)
movej(p[0.53462327626656, 0.0121257774127883, 0.16208356903434, -1.24717720686809, 1.18898182424952, -1.1716995526215], a = 0.2, v = 0.2, t = 0.2)
movej(p[0.533554352507865, 0.0120868299632324, 0.162179936094433, -1.2481899290703, 1.18372709818587, -1.17792957533269], a = 0.2, v = 0.2, t = 0.2)
movej(p[0.532662066500916, 0.0121229385741151, 0.162325929205646, -1.24376302853554, 1.17843531264786, -1.17900150021579], a = 0.2, v = 0.2, t = 0.2)
movej(p[0.53198832745242, 0.0123326844817877, 0.162444977792683, -1.24425189666938, 1.17088399714927, -1.17781805715312], a = 0.2, v = 0.2, t = 0.2)
movej(p[0.531442254291833, 0.0124513039599543, 0.162682876867568, -1.24670574982045, 1.16270703784619, -1.1726646439698], a = 0.2, v = 0.2, t = 0.2)
movej(p[0.530947334884013, 0.0124327407493643, 0.16299837908051, -1.24935123645878, 1.15585820939357, -1.17071206185646], a = 0.2, v = 0.2, t = 0.2)
movej(p[0.530969693470166, 0.0124951996992194, 0.163184382131045, -1.25304685423221, 1.15064341800965, -1.17766214103885], a = 0.2, v = 0.2, t = 0.2)
movej(p[0.531688885947305, 0.0126956026593047, 0.163144921527715, -1.25557545376282, 1.14869195054014, -1.18024776617912], a = 0.2, v = 0.2, t = 0.2)
movej(p[0.532812597012091, 0.01273796035739, 0.163098542499153, -1.25251554616214, 1.15279229451107, -1.17226472283426], a = 0.2, v = 0.2, t = 0.2)
movej(p[0.533843808012229, 0.0127469318434052, 0.163079311429699, -1.25437106396448, 1.15909704289222, -1.17773006703732], a = 0.2, v = 0.2, t = 0.2)
movej(p[0.534813857672813, 0.0127430433994508, 0.163012523628387, -1.26119769958972, 1.1672922547825, -1.17860163916978], a = 0.2, v = 0.2, t = 0.2)
movej(p[0.535551979801574, 0.0127473600300338, 0.16290312416982, -1.26460833125807, 1.17662217520322, -1.17633810926131], a = 0.2, v = 0.2, t = 0.2)
movej(p[0.536027125140652, 0.01255902693, 0.162878686150257, -1.26574460868692, 1.18411664552429, -1.16884422177692], a = 0.2, v = 0.2, t = 0.2)
movej(p[0.536182868760787, 0.0124993688944828, 0.162790676330995, -1.25841142062622, 1.19064498220572, -1.16184010295406], a = 0.2, v = 0.2, t = 0.2)
movej(p[0.536271796211797, 0.0125052939223893, 0.162668023895833, -1.2602150853975, 1.19268505801602, -1.16348031606645], a = 0.2, v = 0.2, t = 0.2)
movej(p[0.536270374307614, 0.0124481836456992, 0.162604195496403, -1.25594079852434, 1.19581405742905, -1.1554559337926], a = 0.2, v = 0.2, t = 0.2)
movej(p[0.536201965728312, 0.0122841147758028, 0.162606208761833, -1.25883664603936, 1.19492787123101, -1.15957321020241], a = 0.2, v = 0.2, t = 0.2)
movej(p[0.535957255439127, 0.012225556042602, 0.162511082155654, -1.2565489504181, 1.19599138037813, -1.15941001358266], a = 0.2, v = 0.2, t = 0.2)
movej(p[0.535371819796596, 0.0121497267349456, 0.162423861917177, -1.25578191112218, 1.19268643091691, -1.16513809191228], a = 0.2, v = 0.2, t = 0.2)
movej(p[0.534414645864075, 0.0119866377249126, 0.162473499456489, -1.25056517766506, 1.19011388522279, -1.16530767904421], a = 0.2, v = 0.2, t = 0.2)
movej(p[0.533439204095699, 0.0120035704283858, 0.162547266990401, -1.25102773078838, 1.18127098282915, -1.18146620119137], a = 0.2, v = 0.2, t = 0.2)
movej(p[0.532687276301401, 0.0122305604049195, 0.162571914814156, -1.25490316513311, 1.17291527616572, -1.18917953946615], a = 0.2, v = 0.2, t = 0.2)
movej(p[0.532122265326437, 0.0124064841307453, 0.162638168212452, -1.25446273508961, 1.16514539351904, -1.18873390685459], a = 0.2, v = 0.2, t = 0.2)
movej(p[0.531772395432528, 0.0123992059952147, 0.162783688483165, -1.24992757048205, 1.1618934919619, -1.17808729600965], a = 0.2, v = 0.2, t = 0.2)
movej(p[0.531999659569198, 0.0124202216861848, 0.162859159713298, -1.25228278681283, 1.15874633872065, -1.18150984980271], a = 0.2, v = 0.2, t = 0.2)
movej(p[0.532763390293362, 0.0125197113423979, 0.162845683279256, -1.25701496874693, 1.15821330868378, -1.18053660643283], a = 0.2, v = 0.2, t = 0.2)
movej(p[0.533894270842234, 0.0125014857293905, 0.162874367207036, -1.26037767189655, 1.16196232606211, -1.17641697007494], a = 0.2, v = 0.2, t = 0.2)
movej(p[0.534798689723438, 0.0125151273917929, 0.162850843367783, -1.25925232240609, 1.16964293777926, -1.17595172264707], a = 0.2, v = 0.2, t = 0.2)
movej(p[0.535655235771608, 0.0125891951031962, 0.162751529132069, -1.26804695620222, 1.17669536178703, -1.1803481060043], a = 0.2, v = 0.2, t = 0.2)
movej(p[0.536094486445359, 0.0126132455270135, 0.162630487005168, -1.2670497064193, 1.18515313389692, -1.17221678787996], a = 0.2, v = 0.2, t = 0.2)
movej(p[0.53625225646339, 0.0124311854879985, 0.162612348361939, -1.26864009840318, 1.18902625330643, -1.16640571810298], a = 0.2, v = 0.2, t = 0.2)
movej(p[0.535924313079906, 0.0123024936450988, 0.162514000477256, -1.25388778573778, 1.19271867515822, -1.15687835179347], a = 0.2, v = 0.2, t = 0.2)
movej(p[0.535209472707494, 0.0122751473493188, 0.1623655949218, -1.25065021151248, 1.18942231177595, -1.16321954926994], a = 0.2, v = 0.2, t = 0.2)
movej(p[0.534127018240151, 0.0122206893160709, 0.162334264903551, -1.24176677270317, 1.18557129224135, -1.16151781999027], a = 0.2, v = 0.2, t = 0.2)
movej(p[0.532971833092503, 0.0122094420679632, 0.16247484522993, -1.24860980930966, 1.17607411255835, -1.18146389440775], a = 0.2, v = 0.2, t = 0.2)
movej(p[0.532136543827266, 0.0124081529977101, 0.162592139638488, -1.25612934866582, 1.16667758668187, -1.19249991368044], a = 0.2, v = 0.2, t = 0.2)
movej(p[0.531629143469542, 0.01266501516729, 0.162656800609413, -1.26398368520138, 1.15598038799484, -1.20158208442135], a = 0.2, v = 0.2, t = 0.2)
movej(p[0.531562916335369, 0.0126333196179221, 0.16277972874929, -1.25760028111672, 1.15364564092607, -1.18375691687243], a = 0.2, v = 0.2, t = 0.2)
movej(p[0.531800588386639, 0.0125818923579082, 0.162845809062407, -1.254959587822, 1.1519977989402, -1.18414329447489], a = 0.2, v = 0.2, t = 0.2)
movej(p[0.532536776232051, 0.0126187097040674, 0.162837316631023, -1.2587418088265, 1.15376641346275, -1.18285385921849], a = 0.2, v = 0.2, t = 0.2)
movej(p[0.533358903112656, 0.0126215654203979, 0.162839087723849, -1.26266958040342, 1.15831068109164, -1.18342438141136], a = 0.2, v = 0.2, t = 0.2)
movej(p[0.534022992270387, 0.0124807961012285, 0.162887528355199, -1.25828953544766, 1.16623100260372, -1.17317725723432], a = 0.2, v = 0.2, t = 0.2)
movej(p[0.534436035940446, 0.0124400950662541, 0.162814934136446, -1.25348521656103, 1.17321043887091, -1.16933630914519], a = 0.2, v = 0.2, t = 0.2)
movej(p[0.534891407115018, 0.0124661593658127, 0.162597812284405, -1.27706362086769, 1.16332695625285, -1.1853358790042], a = 0.2, v = 0.2, t = 0.2)
movej(p[0.534985554188323, 0.0124570752288464, 0.162473269938419, -1.28331685711319, 1.1653596137553, -1.19022605558008], a = 0.2, v = 0.2, t = 0.2)
movej(p[0.534662074744773, 0.0122568584084032, 0.162447600938954, -1.27437069789263, 1.16856150473404, -1.18215465682137], a = 0.2, v = 0.2, t = 0.2)
movej(p[0.534041066546342, 0.0122925751968959, 0.162394421643202, -1.26632734323078, 1.16830119233564, -1.18774754276592], a = 0.2, v = 0.2, t = 0.2)
movej(p[0.533272206266861, 0.0125168170982086, 0.16233199125726, -1.26418413894783, 1.16493681026501, -1.19576636069187], a = 0.2, v = 0.2, t = 0.2)
movej(p[0.532631978443881, 0.0127157415715108, 0.162368874878334, -1.26353611573827, 1.15972129751187, -1.1976761382573], a = 0.2, v = 0.2, t = 0.2)
movej(p[0.532109954586116, 0.0126202116874406, 0.162542307423357, -1.26162014803441, 1.15559111400108, -1.19501525940544], a = 0.2, v = 0.2, t = 0.2)
movej(p[0.532310051617805, 0.0125997053554016, 0.162597183534331, -1.25614490730344, 1.15422113190629, -1.18688420529678], a = 0.2, v = 0.2, t = 0.2)
movej(p[0.532992422819437, 0.0126335176453543, 0.162569075622082, -1.2549680521646, 1.15603323023896, -1.17950707026103], a = 0.2, v = 0.2, t = 0.2)
movej(p[0.534113470864183, 0.0126707305746519, 0.162551042007229, -1.25418435886265, 1.1636243360614, -1.16682198732184], a = 0.2, v = 0.2, t = 0.2)
movej(p[0.535008885888569, 0.0126846718515807, 0.16251984410663, -1.26003765759378, 1.17119019826421, -1.16869861961174], a = 0.2, v = 0.2, t = 0.2)
movej(p[0.535649410917146, 0.0127310443065792, 0.162424174490327, -1.26279331626468, 1.17961111042503, -1.1650107215235], a = 0.2, v = 0.2, t = 0.2)
movej(p[0.535951118598556, 0.012646858627014, 0.162349151572105, -1.26195949058059, 1.1847497016794, -1.16057282723306], a = 0.2, v = 0.2, t = 0.2)
movej(p[0.535927732993407, 0.0124636512425705, 0.162344661672977, -1.25852242218363, 1.18947149754076, -1.15873021281759], a = 0.2, v = 0.2, t = 0.2)
movej(p[0.535622272904637, 0.0123493668211299, 0.16229009416523, -1.26284315052224, 1.18695951051297, -1.17178942783767], a = 0.2, v = 0.2, t = 0.2)
movej(p[0.534965296440886, 0.0123321195127578, 0.162213253808445, -1.26435663862003, 1.18362236078816, -1.18270010678788], a = 0.2, v = 0.2, t = 0.2)
movej(p[0.534113300598935, 0.0122473238851072, 0.16226678950617, -1.2664105477729, 1.17944433749136, -1.18921189220193], a = 0.2, v = 0.2, t = 0.2)
movej(p[0.533213389991702, 0.0122907019890974, 0.162362781605699, -1.26115760618189, 1.17496156162288, -1.19541832762648], a = 0.2, v = 0.2, t = 0.2)
movej(p[0.532541626680904, 0.012501894926074, 0.162415783436852, -1.25923482939308, 1.16993863270738, -1.19610438734691], a = 0.2, v = 0.2, t = 0.2)
movej(p[0.53213621622485, 0.0126780949398538, 0.162443211724555, -1.25422515379143, 1.16308439612303, -1.18877186404039], a = 0.2, v = 0.2, t = 0.2)
movej(p[0.532100227544341, 0.0126033897441889, 0.162596129791231, -1.25650978753307, 1.15845861833864, -1.18164463568514], a = 0.2, v = 0.2, t = 0.2)
movej(p[0.53252219771799, 0.0125282316883956, 0.162694719797706, -1.2595813860283, 1.15669304125243, -1.1856743185445], a = 0.2, v = 0.2, t = 0.2)
movej(p[0.533522973440905, 0.0125893063642349, 0.162660840053703, -1.26614139196666, 1.15935379522712, -1.18699684131002], a = 0.2, v = 0.2, t = 0.2)
movej(p[0.534611776439931, 0.0126090141015736, 0.162590886221237, -1.26190988003335, 1.1680165248176, -1.17436046665025], a = 0.2, v = 0.2, t = 0.2)
movej(p[0.535363508912385, 0.0125074693503229, 0.162604545254623, -1.27044133045637, 1.17259603518487, -1.17767221266765], a = 0.2, v = 0.2, t = 0.2)
movej(p[0.535786262322077, 0.0124536039578817, 0.162536560932806, -1.27226356675543, 1.17882345581697, -1.17333361004046], a = 0.2, v = 0.2, t = 0.2)
movej(p[0.53595044543936, 0.0124291048886898, 0.162436641371782, -1.27586188845357, 1.18135932668411, -1.1741235029362], a = 0.2, v = 0.2, t = 0.2)
movej(p[0.535907182183126, 0.0122669294431752, 0.162386413235791, -1.26851776090884, 1.18412795187061, -1.16540503813013], a = 0.2, v = 0.2, t = 0.2)
movej(p[0.5355680376152, 0.0121495798587146, 0.162300660982564, -1.27080639454953, 1.18144868615492, -1.18101467750228], a = 0.2, v = 0.2, t = 0.2)
movej(p[0.534972905065781, 0.0121754719837341, 0.162193944293226, -1.27327228815469, 1.1772055321014, -1.19395369350047], a = 0.2, v = 0.2, t = 0.2)
movej(p[0.534185857609931, 0.0122276991870126, 0.162161771382591, -1.2697917488672, 1.1748843284888, -1.19755231630542], a = 0.2, v = 0.2, t = 0.2)
movej(p[0.533263140989352, 0.0121789321794874, 0.162318948180764, -1.25491679223752, 1.17496925027848, -1.18363138892815], a = 0.2, v = 0.2, t = 0.2)
movej(p[0.532619808590491, 0.0123358338485627, 0.162388926404381, -1.24785105334403, 1.17128801308658, -1.18474499904548], a = 0.2, v = 0.2, t = 0.2)
movej(p[0.532349473715803, 0.0125824731030651, 0.162396358301183, -1.2525673312693, 1.16489330708327, -1.18754454961784], a = 0.2, v = 0.2, t = 0.2)
movej(p[0.53260506856962, 0.0126430202262496, 0.162446202003656, -1.25763916420916, 1.16052871235695, -1.18680166228293], a = 0.2, v = 0.2, t = 0.2)
movej(p[0.533189410279758, 0.0125873290277792, 0.162540661988336, -1.26155971682138, 1.15946064594924, -1.18897912697618], a = 0.2, v = 0.2, t = 0.2)
movej(p[0.534104505155449, 0.012610565065611, 0.162511339447, -1.26373821928433, 1.16398735776321, -1.18901382760705], a = 0.2, v = 0.2, t = 0.2)
movej(p[0.535050844349397, 0.0127010944106281, 0.162414485718168, -1.26603258956796, 1.1711703257344, -1.18310120453709], a = 0.2, v = 0.2, t = 0.2)
movej(p[0.535786613346178, 0.0125911320990215, 0.162400785091705, -1.26721665991422, 1.17955764812153, -1.17095587015348], a = 0.2, v = 0.2, t = 0.2)
movej(p[0.535989283652176, 0.0125044480915194, 0.162386471932493, -1.26654919674625, 1.18322225306932, -1.17215926513491], a = 0.2, v = 0.2, t = 0.2)
movej(p[0.536175263647866, 0.0124990262092459, 0.162295098790721, -1.2715744763421, 1.18339012873954, -1.17834872563278], a = 0.2, v = 0.2, t = 0.2)
movej(p[0.536216415370563, 0.0124940510641997, 0.162203247366171, -1.27151064561057, 1.18469493549118, -1.17854375908667], a = 0.2, v = 0.2, t = 0.2)
movej(p[0.536277742003395, 0.0122772560034338, 0.162233835083787, -1.26416057185227, 1.18907047687556, -1.16830750413712], a = 0.2, v = 0.2, t = 0.2)
movej(p[0.536203723758618, 0.012196884296004, 0.162187917831201, -1.25683890278872, 1.19184185043101, -1.16781699793062], a = 0.2, v = 0.2, t = 0.2)
movej(p[0.536054448074346, 0.0122061713066001, 0.162102489894207, -1.25969032425486, 1.19029138413342, -1.17018248320331], a = 0.2, v = 0.2, t = 0.2)
movej(p[0.535578937367962, 0.012111860560115, 0.162082777529766, -1.26284141592096, 1.1874322122451, -1.17520225579192], a = 0.2, v = 0.2, t = 0.2)
movej(p[0.534765224043342, 0.0118768533466771, 0.162197364530198, -1.26084929173576, 1.18500004843553, -1.1810088037408], a = 0.2, v = 0.2, t = 0.2)
movej(p[0.533906423029479, 0.0119334351096679, 0.162215527340697, -1.25659322535829, 1.18173105963497, -1.18801104759513], a = 0.2, v = 0.2, t = 0.2)
movej(p[0.533117665020041, 0.0121419222554031, 0.162217682058728, -1.25478348722576, 1.17539146778757, -1.19299302075876], a = 0.2, v = 0.2, t = 0.2)
movej(p[0.53249552753146, 0.0122660384713897, 0.162300376600363, -1.25316713023137, 1.16883476796986, -1.18699459507528], a = 0.2, v = 0.2, t = 0.2)
movej(p[0.531902947994975, 0.0122732874180313, 0.162453039838855, -1.25292896692825, 1.16054005420137, -1.19000527701177], a = 0.2, v = 0.2, t = 0.2)
movej(p[0.531921248877642, 0.0124074768698478, 0.162481516003955, -1.25342428260728, 1.15639363869738, -1.18569510096705], a = 0.2, v = 0.2, t = 0.2)
movej(p[0.532470329045186, 0.0125456221184196, 0.162453018633784, -1.25987751233837, 1.15167689820981, -1.19068171221903], a = 0.2, v = 0.2, t = 0.2)
movej(p[0.533543231652977, 0.0125263427068116, 0.162467716956232, -1.26154022168705, 1.15589171229504, -1.18156469666745], a = 0.2, v = 0.2, t = 0.2)
movej(p[0.53458845023089, 0.0125568954970495, 0.162420427897312, -1.25676366000355, 1.16500620548829, -1.17964143880729], a = 0.2, v = 0.2, t = 0.2)
movej(p[0.53551593010129, 0.0126652322099698, 0.1622618314688, -1.25642046655857, 1.17575044936366, -1.17075801742268], a = 0.2, v = 0.2, t = 0.2)
movej(p[0.536057154270361, 0.0126945455875039, 0.162142191936408, -1.25433628116788, 1.18634830796563, -1.16092038069183], a = 0.2, v = 0.2, t = 0.2)
movej(p[0.536231772897048, 0.0125195073815623, 0.162139817712309, -1.26363265942401, 1.18809662618691, -1.16562750099663], a = 0.2, v = 0.2, t = 0.2)
movej(p[0.536243254678215, 0.0124238764246171, 0.162117693813625, -1.26280992428242, 1.19018917450215, -1.1684917882967], a = 0.2, v = 0.2, t = 0.2)
movej(p[0.536254829696487, 0.0124514451011744, 0.162022055074482, -1.26346833460437, 1.1896378504893, -1.17193464910523], a = 0.2, v = 0.2, t = 0.2)
movej(p[0.53623228531927, 0.0123650669228367, 0.16196173830431, -1.25612972996316, 1.1926226032817, -1.1618801957511], a = 0.2, v = 0.2, t = 0.2)
movej(p[0.536006533446694, 0.012206285446866, 0.161986828770968, -1.26094410004175, 1.1895250654349, -1.17442989951107], a = 0.2, v = 0.2, t = 0.2)
movej(p[0.53553352120981, 0.0121948646416101, 0.161915829543753, -1.25730821577351, 1.1883487259658, -1.17577005506978], a = 0.2, v = 0.2, t = 0.2)
movej(p[0.534785962760175, 0.0121974210779543, 0.161904421791445, -1.25862804217297, 1.18320244499247, -1.18614858242851], a = 0.2, v = 0.2, t = 0.2)
movej(p[0.533896483995706, 0.0121546815064322, 0.162042073294833, -1.25099427991241, 1.18172988201525, -1.1822780820847], a = 0.2, v = 0.2, t = 0.2)
movej(p[0.533079660672698, 0.0122116524515972, 0.162203338355517, -1.25527443286004, 1.17397802099293, -1.19967772784223], a = 0.2, v = 0.2, t = 0.2)
movej(p[0.532557549021058, 0.0124697988828958, 0.162254360532355, -1.26216577783219, 1.165646066444, -1.20652416881702], a = 0.2, v = 0.2, t = 0.2)
movej(p[0.532377318482191, 0.0126279525262077, 0.162288178108655, -1.26325451671069, 1.15900046560985, -1.20529167677086], a = 0.2, v = 0.2, t = 0.2)
movej(p[0.532407946654914, 0.0125811028894987, 0.162435787578459, -1.2652370643642, 1.15587041101005, -1.20013070447402], a = 0.2, v = 0.2, t = 0.2)
movej(p[0.533012478472514, 0.0126036467966109, 0.162487863090568, -1.26756848964664, 1.15624877563312, -1.20186754478786], a = 0.2, v = 0.2, t = 0.2)
movej(p[0.533965510977706, 0.012701642148917, 0.162456922906775, -1.27361460612981, 1.16006252616051, -1.19926404713267], a = 0.2, v = 0.2, t = 0.2)
movej(p[0.535058115574049, 0.0126855658187445, 0.162418573483593, -1.27211607466001, 1.16813743701924, -1.18486078788429], a = 0.2, v = 0.2, t = 0.2)
movej(p[0.535672312611805, 0.0126204019840988, 0.162380983132882, -1.26574853024448, 1.17698654831864, -1.17518800702615], a = 0.2, v = 0.2, t = 0.2)
movej(p[0.536099153254032, 0.0126139000109277, 0.162287793370636, -1.2591024455275, 1.18525983714275, -1.16375125743859], a = 0.2, v = 0.2, t = 0.2)
movej(p[0.536243778251385, 0.0125734174633288, 0.162208648118285, -1.26080219999667, 1.18834404929835, -1.1629992773304], a = 0.2, v = 0.2, t = 0.2)
movej(p[0.536345293172949, 0.0124040208872418, 0.162215121465084, -1.26125147533091, 1.19181331735625, -1.15759078590429], a = 0.2, v = 0.2, t = 0.2)
movej(p[0.536313556101444, 0.0123219789042071, 0.162202392898314, -1.2595511502477, 1.19355691111286, -1.15910888661012], a = 0.2, v = 0.2, t = 0.2)
movej(p[0.53628656627113, 0.0123427682521392, 0.162116745057874, -1.25433225908732, 1.19622855109723, -1.15383404357788], a = 0.2, v = 0.2, t = 0.2)
movej(p[0.536018818870529, 0.0122202046272574, 0.162084649671487, -1.24801334563784, 1.19635324565803, -1.14816009782632], a = 0.2, v = 0.2, t = 0.2)
movej(p[0.53540351788514, 0.0120340644321673, 0.162103586367379, -1.25279822899597, 1.1915864809336, -1.16723151835381], a = 0.2, v = 0.2, t = 0.2)
movej(p[0.534706879294007, 0.0120082966407438, 0.162057840171142, -1.25097642119704, 1.1885103417881, -1.17498601274777], a = 0.2, v = 0.2, t = 0.2)
movej(p[0.533949282637943, 0.0121182195585189, 0.162027965416456, -1.24910437287833, 1.18365201625733, -1.18245916550581], a = 0.2, v = 0.2, t = 0.2)
movej(p[0.533216447060718, 0.0120877796737453, 0.162159891520653, -1.24103882120016, 1.18049946993815, -1.17084260367601], a = 0.2, v = 0.2, t = 0.2)
movej(p[0.532562721538974, 0.0121650567016505, 0.162265156185565, -1.23934785188755, 1.1740685547573, -1.17613876986159], a = 0.2, v = 0.2, t = 0.2)
movej(p[0.532296492519815, 0.0123865260056966, 0.16229917424434, -1.24606739983048, 1.16669609721326, -1.18006954150471], a = 0.2, v = 0.2, t = 0.2)
movej(p[0.532504484760359, 0.0125493708586257, 0.16233411814149, -1.24990482750138, 1.16205176300735, -1.18032852696933], a = 0.2, v = 0.2, t = 0.2)
movej(p[0.533097845094403, 0.0124947724035266, 0.162423956683238, -1.24747895369149, 1.16342239806317, -1.17306098090764], a = 0.2, v = 0.2, t = 0.2)
movej(p[0.534100595867966, 0.012542356480532, 0.162412479182015, -1.25043295200977, 1.16732737272322, -1.1743870018847], a = 0.2, v = 0.2, t = 0.2)
movej(p[0.535135225344196, 0.0126360995133201, 0.162330776584015, -1.25236223458077, 1.17618621113986, -1.16660063587732], a = 0.2, v = 0.2, t = 0.2)
movej(p[0.535854576728536, 0.0125655948080171, 0.162324333828349, -1.25928182683574, 1.18268814759187, -1.1616763007019], a = 0.2, v = 0.2, t = 0.2)
movej(p[0.536121492534107, 0.0123935952228374, 0.162352362396571, -1.25928594826637, 1.18854293629591, -1.15863538114595], a = 0.2, v = 0.2, t = 0.2)
movej(p[0.536235397691731, 0.0123443131338459, 0.162272859586739, -1.25961766236896, 1.1917390746337, -1.15607217360198], a = 0.2, v = 0.2, t = 0.2)
movej(p[0.536174186174629, 0.0122754334386256, 0.162203120657435, -1.25830721669073, 1.19169848763681, -1.1562187337474], a = 0.2, v = 0.2, t = 0.2)
movej(p[0.535853028492941, 0.0121599825201675, 0.162158161242229, -1.25835082989223, 1.19104122766416, -1.16011816604009], a = 0.2, v = 0.2, t = 0.2)
movej(p[0.535235307567269, 0.0121602207422031, 0.162078119143347, -1.26238828652427, 1.18568808861944, -1.18094599808823], a = 0.2, v = 0.2, t = 0.2)
movej(p[0.534457816861728, 0.0122962892103889, 0.161973898631625, -1.2641929238608, 1.18081330645637, -1.19305976713709], a = 0.2, v = 0.2, t = 0.2)
movej(p[0.533644423624076, 0.0123636841373827, 0.162004193904688, -1.25500024975448, 1.17771753343958, -1.18594817446597], a = 0.2, v = 0.2, t = 0.2)
movej(p[0.532803260933465, 0.0124214237185852, 0.162119930069368, -1.24678787883108, 1.17320234979155, -1.18602850579668], a = 0.2, v = 0.2, t = 0.2)
movej(p[0.532379951892711, 0.0126102974522153, 0.16213390466275, -1.24373570580109, 1.16678653135743, -1.18624734820768], a = 0.2, v = 0.2, t = 0.2)
movej(p[0.532447196281344, 0.0128031819639286, 0.16213403248484, -1.25077189630073, 1.15929501625623, -1.19147127647887], a = 0.2, v = 0.2, t = 0.2)
movej(p[0.533107682945611, 0.0127569755741659, 0.162213009354053, -1.25414435863798, 1.15775904963522, -1.18605626306459], a = 0.2, v = 0.2, t = 0.2)
movej(p[0.534009751801896, 0.0127539223952069, 0.162235419305399, -1.2549657203421, 1.16089066624287, -1.18678061116591], a = 0.2, v = 0.2, t = 0.2)
movej(p[0.535030457849265, 0.0128398040837732, 0.16216612069046, -1.25562919889307, 1.17036942041547, -1.18065013148592], a = 0.2, v = 0.2, t = 0.2)
movej(p[0.535770675257819, 0.0128652892940234, 0.162067089068576, -1.25388146753827, 1.17966278889676, -1.16985853155043], a = 0.2, v = 0.2, t = 0.2)
movej(p[0.53605547643159, 0.0127110830965512, 0.162091213930841, -1.26168623857385, 1.18531425660352, -1.17000998280463], a = 0.2, v = 0.2, t = 0.2)
movej(p[0.536156865728922, 0.0125971034265494, 0.162051438258856, -1.2633447072408, 1.18842259303991, -1.16906384997669], a = 0.2, v = 0.2, t = 0.2)
movej(p[0.536198951953901, 0.0125783568738075, 0.161969228941937, -1.26605991707491, 1.18851961398762, -1.1723443805107], a = 0.2, v = 0.2, t = 0.2)
movej(p[0.53609986353417, 0.0124040946182646, 0.161952039705411, -1.25913997709765, 1.18931354711838, -1.16297157939847], a = 0.2, v = 0.2, t = 0.2)
movej(p[0.535676019921104, 0.0122862997601139, 0.161905026966113, -1.25969965352352, 1.18636114687217, -1.17673592581036], a = 0.2, v = 0.2, t = 0.2)
movej(p[0.534990779461277, 0.012300846606089, 0.161812991268753, -1.25859599165361, 1.18349007755097, -1.1854198822809], a = 0.2, v = 0.2, t = 0.2)
movej(p[0.534095722050631, 0.0123282695219458, 0.161791690222091, -1.25254653757316, 1.18123798930281, -1.18647445711976], a = 0.2, v = 0.2, t = 0.2)
movej(p[0.533213553445221, 0.0122879655028977, 0.161913705723475, -1.24501693294045, 1.17727451662725, -1.18343585207865], a = 0.2, v = 0.2, t = 0.2)
movej(p[0.53251660827919, 0.0124284050971222, 0.161997860375133, -1.24616059238666, 1.16925114816169, -1.19004217816705], a = 0.2, v = 0.2, t = 0.2)
movej(p[0.532190860343911, 0.0126286055024637, 0.162050061268446, -1.25641484009621, 1.15887140363612, -1.19744269077636], a = 0.2, v = 0.2, t = 0.2)
movej(p[0.532370531803663, 0.0127061094360469, 0.162119221060448, -1.26102320029806, 1.15544837323775, -1.19521549232132], a = 0.2, v = 0.2, t = 0.2)
movej(p[0.532947126651975, 0.0126462286150447, 0.16221090361918, -1.26276645543159, 1.15488262181742, -1.19671034459572], a = 0.2, v = 0.2, t = 0.2)
movej(p[0.534041717530845, 0.0126987820910413, 0.162186939768177, -1.26342639876094, 1.16294245083838, -1.18930765667309], a = 0.2, v = 0.2, t = 0.2)
movej(p[0.535074507668546, 0.0126962584640907, 0.16214640261268, -1.26201092101303, 1.1708880610557, -1.17881814623229], a = 0.2, v = 0.2, t = 0.2)
movej(p[0.535805104212108, 0.0125819634818071, 0.162167887707433, -1.26575400256007, 1.17961175994771, -1.17067379162249], a = 0.2, v = 0.2, t = 0.2)
movej(p[0.536067228704081, 0.0124772973729823, 0.162153242156696, -1.27200244852387, 1.18241897641463, -1.17756018027701], a = 0.2, v = 0.2, t = 0.2)
movej(p[0.536154142950411, 0.0124444227912116, 0.162092018033449, -1.27617247155023, 1.18465229798365, -1.18015174306914], a = 0.2, v = 0.2, t = 0.2)
movej(p[0.536190073128638, 0.0123329412449484, 0.162084840226238, -1.2681628674378, 1.19006863344043, -1.1669814954779], a = 0.2, v = 0.2, t = 0.2)
movej(p[0.536107250432481, 0.0122352049370593, 0.162091311657418, -1.25489191016477, 1.19456361727021, -1.15766743737552], a = 0.2, v = 0.2, t = 0.2)
movej(p[0.536099533695933, 0.012241553031234, 0.162048883045876, -1.24283820780905, 1.2008640771196, -1.14570745525196], a = 0.2, v = 0.2, t = 0.2)
movej(p[0.535828740215286, 0.0121918658517076, 0.161981017727847, -1.24283469121112, 1.20005822658391, -1.14683153798685], a = 0.2, v = 0.2, t = 0.2)
movej(p[0.535321779497536, 0.0120342733741247, 0.1620320763084, -1.24651144534649, 1.19820609287787, -1.15115486375727], a = 0.2, v = 0.2, t = 0.2)
movej(p[0.534582082317456, 0.0119937704965541, 0.162027530234179, -1.24337737344326, 1.19395522030722, -1.16078843648069], a = 0.2, v = 0.2, t = 0.2)
movej(p[0.533881384219742, 0.0121074343326191, 0.162011123667493, -1.24376169236706, 1.18873933115932, -1.16911982563132], a = 0.2, v = 0.2, t = 0.2)
movej(p[0.533225829110246, 0.0121572378764737, 0.162018447248162, -1.23376442986161, 1.18589313670972, -1.1588896362141], a = 0.2, v = 0.2, t = 0.2)
movej(p[0.532634320075216, 0.0122280022457261, 0.16208577349584, -1.23778329621921, 1.17906353145018, -1.16799679297614], a = 0.2, v = 0.2, t = 0.2)
movej(p[0.532408214867311, 0.0123892518077769, 0.162113288866827, -1.24191712852517, 1.17277198683286, -1.17028120325346], a = 0.2, v = 0.2, t = 0.2)
movej(p[0.532632366797723, 0.0125455248131353, 0.162162785366593, -1.25047252244537, 1.1660432546631, -1.17792775831113], a = 0.2, v = 0.2, t = 0.2)
movej(p[0.533360721485249, 0.012481479745108, 0.162270397465449, -1.25484054039982, 1.16472503749343, -1.17519100524893], a = 0.2, v = 0.2, t = 0.2)
movej(p[0.534228861390711, 0.0124681652430447, 0.162283609174938, -1.25698578105046, 1.16805813978601, -1.17905140732031], a = 0.2, v = 0.2, t = 0.2)
movej(p[0.535174415954415, 0.0125244496162947, 0.162221309716581, -1.26322059267453, 1.1757014178484, -1.17697941657876], a = 0.2, v = 0.2, t = 0.2)
movej(p[0.535772210495129, 0.0124868623896385, 0.162194410239562, -1.26171866115024, 1.18488875945202, -1.16318686090163], a = 0.2, v = 0.2, t = 0.2)
movej(p[0.5360549351983, 0.0123029013810881, 0.16227456548777, -1.26455352339268, 1.18924546087913, -1.15964403152455], a = 0.2, v = 0.2, t = 0.2)
movej(p[0.536180975831934, 0.0122599195081312, 0.162215726097304, -1.25345990019111, 1.19594836018322, -1.1454725503836], a = 0.2, v = 0.2, t = 0.2)
movej(p[0.536246015308364, 0.0122207562041458, 0.162163544480554, -1.2577562834229, 1.19542755242383, -1.15010971691898], a = 0.2, v = 0.2, t = 0.2)
movej(p[0.536218421176542, 0.0121201394626778, 0.162129234076515, -1.24756832828994, 1.19984954635721, -1.14077906199861], a = 0.2, v = 0.2, t = 0.2)
movej(p[0.536064784721892, 0.0120493175242725, 0.162081121677459, -1.25771907542238, 1.19504293316814, -1.16268121317886], a = 0.2, v = 0.2, t = 0.2)
movej(p[0.535711854046847, 0.0120274184118374, 0.161973421844187, -1.25797992130014, 1.19385298868963, -1.16527251149599], a = 0.2, v = 0.2, t = 0.2)
movej(p[0.535087957880143, 0.0119680491850088, 0.161946943855623, -1.25906575386134, 1.19027976149561, -1.17060068327079], a = 0.2, v = 0.2, t = 0.2)
movej(p[0.534250117145219, 0.0118241022081724, 0.16205364005875, -1.24885010170914, 1.18920012175216, -1.16772042161248], a = 0.2, v = 0.2, t = 0.2)
movej(p[0.533602607438694, 0.0119744756132402, 0.162043308809864, -1.24075804378466, 1.18693744837517, -1.16834922026173], a = 0.2, v = 0.2, t = 0.2)
movej(p[0.533040305413792, 0.0121886931446918, 0.162031592816061, -1.23888338262254, 1.18189023751318, -1.16960643355254], a = 0.2, v = 0.2, t = 0.2)
movej(p[0.532621238938325, 0.0122673792005357, 0.162079599067644, -1.24489670012782, 1.17332437047934, -1.17225840773799], a = 0.2, v = 0.2, t = 0.2)
movej(p[0.532481683803153, 0.0122752156176179, 0.162220089517108, -1.24950874190769, 1.16732375962724, -1.18013493116107], a = 0.2, v = 0.2, t = 0.2)
movej(p[0.532924557308033, 0.0123828196312492, 0.162293421715776, -1.25607167338112, 1.16423258020084, -1.18280049014843], a = 0.2, v = 0.2, t = 0.2)
movej(p[0.533822126571437, 0.0124270630983916, 0.16232799164214, -1.25000667738603, 1.16943849359836, -1.1675548359439], a = 0.2, v = 0.2, t = 0.2)
movej(p[0.534752621527769, 0.0124315669622335, 0.162350984415108, -1.24767672819613, 1.17664582644628, -1.15764383325412], a = 0.2, v = 0.2, t = 0.2)
movej(p[0.535487208970882, 0.0124433441862346, 0.162281804059819, -1.24992092425034, 1.1831231627885, -1.15663388341283], a = 0.2, v = 0.2, t = 0.2)
movej(p[0.535919687761256, 0.0124789102247789, 0.162191801981339, -1.25791507426843, 1.18716911140504, -1.15984487117961], a = 0.2, v = 0.2, t = 0.2)
movej(p[0.536191091404349, 0.0123161221271601, 0.162184290911461, -1.25985737290503, 1.19060380170117, -1.15409073932537], a = 0.2, v = 0.2, t = 0.2)
movej(p[0.536165190126843, 0.0122114305748606, 0.162163715566976, -1.25750591351004, 1.19359470070914, -1.15729612166334], a = 0.2, v = 0.2, t = 0.2)
movej(p[0.536026441737419, 0.0121793686257065, 0.162066881973896, -1.26049556019828, 1.19307185789654, -1.16327400920363], a = 0.2, v = 0.2, t = 0.2)
movej(p[0.535467970372638, 0.0121418143172773, 0.161982948421383, -1.2585273232, 1.19184661967958, -1.16498415120368], a = 0.2, v = 0.2, t = 0.2)
movej(p[0.534635926780793, 0.0119603664770908, 0.162061982535288, -1.26096252592788, 1.18745592311482, -1.17346868024067], a = 0.2, v = 0.2, t = 0.2)
movej(p[0.533776793481552, 0.0119482072540536, 0.162081189389043, -1.2459063671233, 1.18669443611939, -1.16805359749537], a = 0.2, v = 0.2, t = 0.2)
movej(p[0.533024431020013, 0.0121104824739999, 0.162070830414255, -1.24430239393735, 1.18067602761888, -1.17223823698947], a = 0.2, v = 0.2, t = 0.2)
movej(p[0.53237654238474, 0.0122344293622449, 0.162102381016112, -1.23707364911447, 1.17478416573544, -1.16232958283494], a = 0.2, v = 0.2, t = 0.2)
movej(p[0.531914835307126, 0.0122729871757916, 0.162246984997455, -1.24472606850629, 1.16680963765871, -1.1723984577861], a = 0.2, v = 0.2, t = 0.2)
movej(p[0.531993772971407, 0.0123736467381456, 0.162336088777782, -1.24851738899421, 1.16233038729666, -1.17333595130022], a = 0.2, v = 0.2, t = 0.2)
movej(p[0.532633860504672, 0.0125108010691856, 0.162363490785667, -1.25466421867278, 1.15925644235442, -1.17728118400535], a = 0.2, v = 0.2, t = 0.2)
movej(p[0.533654818355016, 0.0124982869326946, 0.162387684882245, -1.24853191818701, 1.16446643234331, -1.16190352119866], a = 0.2, v = 0.2, t = 0.2)
movej(p[0.534676322886828, 0.0125520316012243, 0.16236200407635, -1.25534825983023, 1.16968868188687, -1.17035064077641], a = 0.2, v = 0.2, t = 0.2)
movej(p[0.535541899058618, 0.0126287746876331, 0.162250473770074, -1.26105624415535, 1.17747648957005, -1.16634820577691], a = 0.2, v = 0.2, t = 0.2)
movej(p[0.536008910758793, 0.0125509468216675, 0.16219665695037, -1.26390823552774, 1.18446887251492, -1.16244371832051], a = 0.2, v = 0.2, t = 0.2)
