def moving():
set_payload_mass(0)
set_tcp(p[0,0,0,0,0,0])
movej(p[0.3823, 0.2128, 0.3124, -1.33, 0.73, -0.764], a = 0.2, v = 0.2, t = 0.2)
movej(p[0.382295004602645, 0.212793956028636, 0.31247447837616, -1.33, 0.73, -0.764], a = 0.2, v = 0.2, t = 0.2)
movej(p[0.382277868568723, 0.212773223003621, 0.312729966356337, -1.33, 0.73, -0.764], a = 0.2, v = 0.2, t = 0.2)
movej(p[0.382276158967518, 0.212771154543398, 0.312755455484138, -1.33, 0.73, -0.764], a = 0.2, v = 0.2, t = 0.2)
movej(p[0.3822768406735, 0.212771979344938, 0.312745291657133, -1.33, 0.73, -0.764], a = 0.2, v = 0.2, t = 0.2)
movej(p[0.382280764818598, 0.212776727199596, 0.312686785009123, -1.33, 0.73, -0.764], a = 0.2, v = 0.2, t = 0.2)
movej(p[0.382289721047772, 0.212787563413177, 0.312553253007962, -1.33, 0.73, -0.764], a = 0.2, v = 0.2, t = 0.2)
movej(p[0.382321806587037, 0.212826383964726, 0.312074876876296, -1.33, 0.73, -0.764], a = 0.2, v = 0.2, t = 0.2)
movej(p[0.382381517894342, 0.212898629154813, 0.311184617125049, -1.33, 0.73, -0.764], a = 0.2, v = 0.2, t = 0.2)
movej(p[0.382444912548448, 0.212975330855765, 0.310239440883864, -1.33, 0.73, -0.764], a = 0.2, v = 0.2, t = 0.2)
movej(p[0.382508740772895, 0.213052557136953, 0.309287800369143, -1.33, 0.73, -0.764], a = 0.2, v = 0.2, t = 0.2)
movej(p[0.382565365059375, 0.213121067315761, 0.308443566245466, -1.33, 0.73, -0.764], a = 0.2, v = 0.2, t = 0.2)
movej(p[0.38260013740069, 0.213163138650679, 0.307925131507956, -1.33, 0.73, -0.764], a = 0.2, v = 0.2, t = 0.2)
movej(p[0.382587984090528, 0.213148434263144, 0.308106330067661, -1.33, 0.73, -0.764], a = 0.2, v = 0.2, t = 0.2)
movej(p[0.382528411525732, 0.213076356938732, 0.308994521251376, -1.33, 0.73, -0.764], a = 0.2, v = 0.2, t = 0.2)
movej(p[0.382455231522554, 0.212987815865379, 0.31008559117373, -1.33, 0.73, -0.764], a = 0.2, v = 0.2, t = 0.2)
movej(p[0.38237668858778, 0.212892786138031, 0.311256619187194, -1.33, 0.73, -0.764], a = 0.2, v = 0.2, t = 0.2)
movej(p[0.382315652556326, 0.212818938153562, 0.312166629780349, -1.33, 0.73, -0.764], a = 0.2, v = 0.2, t = 0.2)
movej(p[0.382281567257244, 0.212777698076556, 0.312674821130565, -1.33, 0.73, -0.764], a = 0.2, v = 0.2, t = 0.2)
movej(p[0.382277525714638, 0.212772808181711, 0.312735078104948, -1.33, 0.73, -0.764], a = 0.2, v = 0.2, t = 0.2)
movej(p[0.382281155698936, 0.212777200128855, 0.312680957217905, -1.33, 0.73, -0.764], a = 0.2, v = 0.2, t = 0.2)
movej(p[0.382303051334651, 0.212803691834291, 0.312354506431868, -1.33, 0.73, -0.764], a = 0.2, v = 0.2, t = 0.2)
movej(p[0.382349637800715, 0.212860057173591, 0.311659930185563, -1.33, 0.73, -0.764], a = 0.2, v = 0.2, t = 0.2)
movej(p[0.382411487610346, 0.21293488975481, 0.310737786648235, -1.33, 0.73, -0.764], a = 0.2, v = 0.2, t = 0.2)
movej(p[0.382480498667941, 0.213018386787434, 0.30970887320218, -1.33, 0.73, -0.764], a = 0.2, v = 0.2, t = 0.2)
movej(p[0.382536702724706, 0.213086388526936, 0.308870904451314, -1.33, 0.73, -0.764], a = 0.2, v = 0.2, t = 0.2)
movej(p[0.382586576654499, 0.213146731394993, 0.30812731409406, -1.33, 0.73, -0.764], a = 0.2, v = 0.2, t = 0.2)
movej(p[0.382596368673883, 0.213158578837859, 0.30798132096253, -1.33, 0.73, -0.764], a = 0.2, v = 0.2, t = 0.2)
movej(p[0.382568093217364, 0.213124368136014, 0.308402891047377, -1.33, 0.73, -0.764], a = 0.2, v = 0.2, t = 0.2)
movej(p[0.382503024314712, 0.213045640748305, 0.309373029329444, -1.33, 0.73, -0.764], a = 0.2, v = 0.2, t = 0.2)
movej(p[0.382424514731502, 0.212950651373283, 0.310543560091097, -1.33, 0.73, -0.764], a = 0.2, v = 0.2, t = 0.2)
movej(p[0.382351403432548, 0.212862193425721, 0.311633605674721, -1.33, 0.73, -0.764], a = 0.2, v = 0.2, t = 0.2)
movej(p[0.382307291986097, 0.212808822632521, 0.312291280864177, -1.33, 0.73, -0.764], a = 0.2, v = 0.2, t = 0.2)
movej(p[0.382292275777625, 0.212790654401336, 0.312515163519286, -1.33, 0.73, -0.764], a = 0.2, v = 0.2, t = 0.2)
movej(p[0.382289868461688, 0.212787741770457, 0.31255105515496, -1.33, 0.73, -0.764], a = 0.2, v = 0.2, t = 0.2)
movej(p[0.382297554663279, 0.21279704136747, 0.312436458502738, -1.33, 0.73, -0.764], a = 0.2, v = 0.2, t = 0.2)
movej(p[0.382326855346896, 0.212832492499811, 0.311999602897239, -1.33, 0.73, -0.764], a = 0.2, v = 0.2, t = 0.2)
movej(p[0.382376681917467, 0.212892778067566, 0.311256718637556, -1.33, 0.73, -0.764], a = 0.2, v = 0.2, t = 0.2)
movej(p[0.382439489584035, 0.212968769567584, 0.310320294028233, -1.33, 0.73, -0.764], a = 0.2, v = 0.2, t = 0.2)
movej(p[0.382506052636784, 0.213049304739491, 0.30932787886506, -1.33, 0.73, -0.764], a = 0.2, v = 0.2, t = 0.2)
movej(p[0.382566085453172, 0.213121938925999, 0.308432825606362, -1.33, 0.73, -0.764], a = 0.2, v = 0.2, t = 0.2)
movej(p[0.382593180264302, 0.213154721155509, 0.308028858235603, -1.33, 0.73, -0.764], a = 0.2, v = 0.2, t = 0.2)
movej(p[0.382586770093574, 0.213146965438483, 0.308124430033559, -1.33, 0.73, -0.764], a = 0.2, v = 0.2, t = 0.2)
movej(p[0.382551570852232, 0.213104377593794, 0.308649229594243, -1.33, 0.73, -0.764], a = 0.2, v = 0.2, t = 0.2)
movej(p[0.382484354108816, 0.213023051516301, 0.309651390892899, -1.33, 0.73, -0.764], a = 0.2, v = 0.2, t = 0.2)
movej(p[0.38240360330046, 0.212925350464982, 0.31085533697621, -1.33, 0.73, -0.764], a = 0.2, v = 0.2, t = 0.2)
movej(p[0.382335111193212, 0.212842481314549, 0.311876513184096, -1.33, 0.73, -0.764], a = 0.2, v = 0.2, t = 0.2)
movej(p[0.382305708120292, 0.212806906300567, 0.312314895352652, -1.33, 0.73, -0.764], a = 0.2, v = 0.2, t = 0.2)
movej(p[0.382291668112117, 0.212789919181959, 0.312524223447271, -1.33, 0.73, -0.764], a = 0.2, v = 0.2, t = 0.2)
movej(p[0.38228944689791, 0.212787231717058, 0.312557340417843, -1.33, 0.73, -0.764], a = 0.2, v = 0.2, t = 0.2)
movej(p[0.382305230992808, 0.212806329020194, 0.312322009037051, -1.33, 0.73, -0.764], a = 0.2, v = 0.2, t = 0.2)
movej(p[0.382344168811142, 0.2128534401992, 0.311741469537431, -1.33, 0.73, -0.764], a = 0.2, v = 0.2, t = 0.2)
movej(p[0.38240776557573, 0.212930386435247, 0.310793279950274, -1.33, 0.73, -0.764], a = 0.2, v = 0.2, t = 0.2)
movej(p[0.382476863347393, 0.213013988383917, 0.309763073649512, -1.33, 0.73, -0.764], a = 0.2, v = 0.2, t = 0.2)
movej(p[0.382544153464251, 0.213095403236528, 0.308759818396873, -1.33, 0.73, -0.764], a = 0.2, v = 0.2, t = 0.2)
movej(p[0.382587510498309, 0.213147861260117, 0.308113391043369, -1.33, 0.73, -0.764], a = 0.2, v = 0.2, t = 0.2)
movej(p[0.382596908969231, 0.213159232545538, 0.307973265483201, -1.33, 0.73, -0.764], a = 0.2, v = 0.2, t = 0.2)
movej(p[0.382576804646054, 0.213134908163523, 0.308273008874503, -1.33, 0.73, -0.764], a = 0.2, v = 0.2, t = 0.2)
movej(p[0.382512249357497, 0.213056802201631, 0.30923548947869, -1.33, 0.73, -0.764], a = 0.2, v = 0.2, t = 0.2)
movej(p[0.382426836000403, 0.212953459895161, 0.310508951365094, -1.33, 0.73, -0.764], a = 0.2, v = 0.2, t = 0.2)
movej(p[0.382348436477356, 0.212858603682814, 0.311677841195773, -1.33, 0.73, -0.764], a = 0.2, v = 0.2, t = 0.2)
movej(p[0.382310042823151, 0.212812150892356, 0.312250267534856, -1.33, 0.73, -0.764], a = 0.2, v = 0.2, t = 0.2)
movej(p[0.382292557931862, 0.212790995782013, 0.31251095676897, -1.33, 0.73, -0.764], a = 0.2, v = 0.2, t = 0.2)
movej(p[0.382290019877791, 0.212787924970016, 0.31254879763174, -1.33, 0.73, -0.764], a = 0.2, v = 0.2, t = 0.2)
movej(p[0.382306607411881, 0.212807994360681, 0.312301487454837, -1.33, 0.73, -0.764], a = 0.2, v = 0.2, t = 0.2)
movej(p[0.382338340958733, 0.212846389033783, 0.311828359318778, -1.33, 0.73, -0.764], a = 0.2, v = 0.2, t = 0.2)
movej(p[0.382395745671826, 0.212915843457015, 0.310972489502738, -1.33, 0.73, -0.764], a = 0.2, v = 0.2, t = 0.2)
movej(p[0.38246206859331, 0.212996088092176, 0.3099836545526, -1.33, 0.73, -0.764], a = 0.2, v = 0.2, t = 0.2)
movej(p[0.382524862919252, 0.213072063451263, 0.309047428844002, -1.33, 0.73, -0.764], a = 0.2, v = 0.2, t = 0.2)
movej(p[0.382565805300029, 0.213121599966462, 0.308437002521569, -1.33, 0.73, -0.764], a = 0.2, v = 0.2, t = 0.2)
movej(p[0.382588784528079, 0.213149402718964, 0.308094396024212, -1.33, 0.73, -0.764], a = 0.2, v = 0.2, t = 0.2)
movej(p[0.382582047512018, 0.213141251549145, 0.30819484088991, -1.33, 0.73, -0.764], a = 0.2, v = 0.2, t = 0.2)
movej(p[0.382532420383804, 0.213081207288298, 0.308934751583768, -1.33, 0.73, -0.764], a = 0.2, v = 0.2, t = 0.2)
movej(p[0.382449368317487, 0.212980721926497, 0.310173008041996, -1.33, 0.73, -0.764], a = 0.2, v = 0.2, t = 0.2)
movej(p[0.382369491320126, 0.212884078106116, 0.311363926127875, -1.33, 0.73, -0.764], a = 0.2, v = 0.2, t = 0.2)
movej(p[0.382320932776043, 0.212825326733789, 0.312087904873728, -1.33, 0.73, -0.764], a = 0.2, v = 0.2, t = 0.2)
movej(p[0.382295665497251, 0.212794755650325, 0.312464624834285, -1.33, 0.73, -0.764], a = 0.2, v = 0.2, t = 0.2)
movej(p[0.382291777505249, 0.212790051537588, 0.312522592461333, -1.33, 0.73, -0.764], a = 0.2, v = 0.2, t = 0.2)
movej(p[0.382304682426272, 0.212805665305138, 0.312330187834829, -1.33, 0.73, -0.764], a = 0.2, v = 0.2, t = 0.2)
movej(p[0.382339290811295, 0.212847538268023, 0.311814197587218, -1.33, 0.73, -0.764], a = 0.2, v = 0.2, t = 0.2)
movej(p[0.38239545884837, 0.212915496427013, 0.310976765868307, -1.33, 0.73, -0.764], a = 0.2, v = 0.2, t = 0.2)
movej(p[0.382462862360549, 0.212997048477531, 0.309971819959513, -1.33, 0.73, -0.764], a = 0.2, v = 0.2, t = 0.2)
movej(p[0.382523755647305, 0.213070723754045, 0.309063937604106, -1.33, 0.73, -0.764], a = 0.2, v = 0.2, t = 0.2)
movej(p[0.382567372823568, 0.213123496525776, 0.308413631686481, -1.33, 0.73, -0.764], a = 0.2, v = 0.2, t = 0.2)
movej(p[0.382591452653252, 0.213152630905031, 0.308054615879381, -1.33, 0.73, -0.764], a = 0.2, v = 0.2, t = 0.2)
movej(p[0.382599263589696, 0.213162081419742, 0.307938159505388, -1.33, 0.73, -0.764], a = 0.2, v = 0.2, t = 0.2)
movej(p[0.382555046085269, 0.213108582306146, 0.3085974159556, -1.33, 0.73, -0.764], a = 0.2, v = 0.2, t = 0.2)
movej(p[0.382477930597462, 0.213015279658344, 0.30974716159158, -1.33, 0.73, -0.764], a = 0.2, v = 0.2, t = 0.2)
movej(p[0.382389795752691, 0.212908644602086, 0.311061199225711, -1.33, 0.73, -0.764], a = 0.2, v = 0.2, t = 0.2)
movej(p[0.382327104149568, 0.212832793528162, 0.311995893398734, -1.33, 0.73, -0.764], a = 0.2, v = 0.2, t = 0.2)
movej(p[0.382290666231114, 0.212788706998091, 0.312539160891655, -1.33, 0.73, -0.764], a = 0.2, v = 0.2, t = 0.2)
movej(p[0.382282176923846, 0.212778435717072, 0.312665731367471, -1.33, 0.73, -0.764], a = 0.2, v = 0.2, t = 0.2)
movej(p[0.382287228351829, 0.212784547480344, 0.31259041760827, -1.33, 0.73, -0.764], a = 0.2, v = 0.2, t = 0.2)
movej(p[0.382304378927034, 0.212805298098973, 0.312334712826303, -1.33, 0.73, -0.764], a = 0.2, v = 0.2, t = 0.2)
movej(p[0.382346664842241, 0.212856460167266, 0.311704255211941, -1.33, 0.73, -0.764], a = 0.2, v = 0.2, t = 0.2)
movej(p[0.382414816096499, 0.212938916916929, 0.310688160917558, -1.33, 0.73, -0.764], a = 0.2, v = 0.2, t = 0.2)
movej(p[0.382484060615047, 0.213022696415833, 0.30965576670883, -1.33, 0.73, -0.764], a = 0.2, v = 0.2, t = 0.2)
movej(p[0.382543212950128, 0.213094265300939, 0.308773840897926, -1.33, 0.73, -0.764], a = 0.2, v = 0.2, t = 0.2)
movej(p[0.382589965173468, 0.213150831191298, 0.308076793310124, -1.33, 0.73, -0.764], a = 0.2, v = 0.2, t = 0.2)
movej(p[0.382609689288809, 0.213174695556799, 0.307782718589461, -1.33, 0.73, -0.764], a = 0.2, v = 0.2, t = 0.2)
movej(p[0.382586903499833, 0.213147126847787, 0.308122441026318, -1.33, 0.73, -0.764], a = 0.2, v = 0.2, t = 0.2)
movej(p[0.382513089816927, 0.213057819080242, 0.309222958733069, -1.33, 0.73, -0.764], a = 0.2, v = 0.2, t = 0.2)
movej(p[0.382426309045681, 0.212952822328413, 0.310516807943698, -1.33, 0.73, -0.764], a = 0.2, v = 0.2, t = 0.2)
movej(p[0.382350338850604, 0.21286090537948, 0.311649477952509, -1.33, 0.73, -0.764], a = 0.2, v = 0.2, t = 0.2)
movej(p[0.382299861097404, 0.212799831940633, 0.31240207095434, -1.33, 0.73, -0.764], a = 0.2, v = 0.2, t = 0.2)
movej(p[0.3822775163762, 0.21277279688306, 0.312735217335455, -1.33, 0.73, -0.764], a = 0.2, v = 0.2, t = 0.2)
movej(p[0.382278492910013, 0.21277397839916, 0.312720657802447, -1.33, 0.73, -0.764], a = 0.2, v = 0.2, t = 0.2)
movej(p[0.382281365146762, 0.212777453541461, 0.312677834476536, -1.33, 0.73, -0.764], a = 0.2, v = 0.2, t = 0.2)
movej(p[0.382298349097549, 0.212798002559871, 0.312424613964614, -1.33, 0.73, -0.764], a = 0.2, v = 0.2, t = 0.2)
movej(p[0.382336964206144, 0.212844723289772, 0.311848885873511, -1.33, 0.73, -0.764], a = 0.2, v = 0.2, t = 0.2)
movej(p[0.382389782412065, 0.212908628461155, 0.311061398126435, -1.33, 0.73, -0.764], a = 0.2, v = 0.2, t = 0.2)
movej(p[0.382457252627373, 0.212990261216325, 0.31005545771402, -1.33, 0.73, -0.764], a = 0.2, v = 0.2, t = 0.2)
movej(p[0.382515477788956, 0.213060708306772, 0.309187355503445, -1.33, 0.73, -0.764], a = 0.2, v = 0.2, t = 0.2)
movej(p[0.38256041568718, 0.213115079030606, 0.308517358414128, -1.33, 0.73, -0.764], a = 0.2, v = 0.2, t = 0.2)
movej(p[0.382563143845169, 0.21311837985086, 0.308476683216038, -1.33, 0.73, -0.764], a = 0.2, v = 0.2, t = 0.2)
movej(p[0.382529312017977, 0.21307744645153, 0.308981095452496, -1.33, 0.73, -0.764], a = 0.2, v = 0.2, t = 0.2)
movej(p[0.382465897352933, 0.213000720539182, 0.309926570044768, -1.33, 0.73, -0.764], a = 0.2, v = 0.2, t = 0.2)
movej(p[0.382389208765153, 0.212907934401151, 0.311069950857574, -1.33, 0.73, -0.764], a = 0.2, v = 0.2, t = 0.2)
movej(p[0.38233015848586, 0.212836488994162, 0.311950355077938, -1.33, 0.73, -0.764], a = 0.2, v = 0.2, t = 0.2)
movej(p[0.382295453914924, 0.21279449965517, 0.31246777939977, -1.33, 0.73, -0.764], a = 0.2, v = 0.2, t = 0.2)
movej(p[0.382287224349641, 0.212784542638065, 0.312590477278487, -1.33, 0.73, -0.764], a = 0.2, v = 0.2, t = 0.2)
movej(p[0.382283006710774, 0.212779439682939, 0.312653359742429, -1.33, 0.73, -0.764], a = 0.2, v = 0.2, t = 0.2)
movej(p[0.382287174322294, 0.212784482109576, 0.312591223156203, -1.33, 0.73, -0.764], a = 0.2, v = 0.2, t = 0.2)
movej(p[0.382303477234131, 0.212804207133492, 0.312348156526249, -1.33, 0.73, -0.764], a = 0.2, v = 0.2, t = 0.2)
movej(p[0.382336779438476, 0.212844499737887, 0.31185164064854, -1.33, 0.73, -0.764], a = 0.2, v = 0.2, t = 0.2)
movej(p[0.382388761854187, 0.212907393679985, 0.311076614031833, -1.33, 0.73, -0.764], a = 0.2, v = 0.2, t = 0.2)
movej(p[0.382455211511616, 0.212987791653984, 0.310085889524816, -1.33, 0.73, -0.764], a = 0.2, v = 0.2, t = 0.2)
movej(p[0.382509914747971, 0.213053977538823, 0.309270297105417, -1.33, 0.73, -0.764], a = 0.2, v = 0.2, t = 0.2)
movej(p[0.382542685995406, 0.213093627734191, 0.30878169747653, -1.33, 0.73, -0.764], a = 0.2, v = 0.2, t = 0.2)
movej(p[0.382553872110193, 0.213107161904277, 0.308614919219326, -1.33, 0.73, -0.764], a = 0.2, v = 0.2, t = 0.2)
movej(p[0.382545587581532, 0.213097138386539, 0.308738436569026, -1.33, 0.73, -0.764], a = 0.2, v = 0.2, t = 0.2)
movej(p[0.382497988228449, 0.213039547547103, 0.309448114352812, -1.33, 0.73, -0.764], a = 0.2, v = 0.2, t = 0.2)
movej(p[0.382427736492649, 0.212954549407959, 0.310495525566214, -1.33, 0.73, -0.764], a = 0.2, v = 0.2, t = 0.2)
movej(p[0.382358520656447, 0.212870804612054, 0.311527492138384, -1.33, 0.73, -0.764], a = 0.2, v = 0.2, t = 0.2)
movej(p[0.382318670205897, 0.212822589232004, 0.312121638436545, -1.33, 0.73, -0.764], a = 0.2, v = 0.2, t = 0.2)
movej(p[0.38229403100377, 0.21279277806354, 0.312488994151009, -1.33, 0.73, -0.764], a = 0.2, v = 0.2, t = 0.2)
movej(p[0.382285708187512, 0.212782708221332, 0.312613082345787, -1.33, 0.73, -0.764], a = 0.2, v = 0.2, t = 0.2)
movej(p[0.38228915807336, 0.212786882265917, 0.312561646618521, -1.33, 0.73, -0.764], a = 0.2, v = 0.2, t = 0.2)
movej(p[0.382292771381876, 0.212791254036898, 0.312507774357383, -1.33, 0.73, -0.764], a = 0.2, v = 0.2, t = 0.2)
movej(p[0.382297603756782, 0.212797100766093, 0.312435726548073, -1.33, 0.73, -0.764], a = 0.2, v = 0.2, t = 0.2)
movej(p[0.382309155004499, 0.212811076713442, 0.312263504378048, -1.33, 0.73, -0.764], a = 0.2, v = 0.2, t = 0.2)
movej(p[0.382348436477356, 0.212858603682814, 0.311677841195773, -1.33, 0.73, -0.764], a = 0.2, v = 0.2, t = 0.2)
movej(p[0.382389982521453, 0.21290887057511, 0.311058414615573, -1.33, 0.73, -0.764], a = 0.2, v = 0.2, t = 0.2)
movej(p[0.38243624781195, 0.212964847321512, 0.310368626904203, -1.33, 0.73, -0.764], a = 0.2, v = 0.2, t = 0.2)
movej(p[0.382476796644264, 0.213013907679266, 0.309764068153133, -1.33, 0.73, -0.764], a = 0.2, v = 0.2, t = 0.2)
movej(p[0.382515517810834, 0.213060756729563, 0.309186758801272, -1.33, 0.73, -0.764], a = 0.2, v = 0.2, t = 0.2)
movej(p[0.382532473746307, 0.213081271852019, 0.308933955980871, -1.33, 0.73, -0.764], a = 0.2, v = 0.2, t = 0.2)
movej(p[0.382526176970899, 0.213073653332901, 0.309027837122672, -1.33, 0.73, -0.764], a = 0.2, v = 0.2, t = 0.2)
movej(p[0.382495093312636, 0.21303604496522, 0.309491275809954, -1.33, 0.73, -0.764], a = 0.2, v = 0.2, t = 0.2)
movej(p[0.382431758691346, 0.212959415898455, 0.310435556997881, -1.33, 0.73, -0.764], a = 0.2, v = 0.2, t = 0.2)
movej(p[0.382367183391852, 0.212881285725168, 0.311398335953154, -1.33, 0.73, -0.764], a = 0.2, v = 0.2, t = 0.2)
movej(p[0.382317390839876, 0.212821041316785, 0.312140713015991, -1.33, 0.73, -0.764], a = 0.2, v = 0.2, t = 0.2)
movej(p[0.382299594031414, 0.212799508815349, 0.312406052747937, -1.33, 0.73, -0.764], a = 0.2, v = 0.2, t = 0.2)
movej(p[0.382292056324329, 0.212790388883032, 0.312518435436198, -1.33, 0.73, -0.764], a = 0.2, v = 0.2, t = 0.2)
movej(p[0.382290314038591, 0.21278828087753, 0.312544411870773, -1.33, 0.73, -0.764], a = 0.2, v = 0.2, t = 0.2)
movej(p[0.382294670153155, 0.212793551375513, 0.312479464817314, -1.33, 0.73, -0.764], a = 0.2, v = 0.2, t = 0.2)
movej(p[0.38229776677923, 0.212797298008262, 0.312433295981224, -1.33, 0.73, -0.764], a = 0.2, v = 0.2, t = 0.2)
movej(p[0.382306775036845, 0.212808197171471, 0.312298988267238, -1.33, 0.73, -0.764], a = 0.2, v = 0.2, t = 0.2)
movej(p[0.382334949104607, 0.212842285202245, 0.311878929827894, -1.33, 0.73, -0.764], a = 0.2, v = 0.2, t = 0.2)
movej(p[0.382385159885203, 0.212903035628794, 0.311130317227355, -1.33, 0.73, -0.764], a = 0.2, v = 0.2, t = 0.2)
movej(p[0.382435627472847, 0.212964096768252, 0.310377875787876, -1.33, 0.73, -0.764], a = 0.2, v = 0.2, t = 0.2)
movej(p[0.382483853835346, 0.213022446231413, 0.309658849670055, -1.33, 0.73, -0.764], a = 0.2, v = 0.2, t = 0.2)
movej(p[0.382526216992777, 0.213073701755692, 0.3090272404205, -1.33, 0.73, -0.764], a = 0.2, v = 0.2, t = 0.2)
movej(p[0.382552558058546, 0.213105572022639, 0.308634510940655, -1.33, 0.73, -0.764], a = 0.2, v = 0.2, t = 0.2)
movej(p[0.382536149088733, 0.213085718678327, 0.308879158831366, -1.33, 0.73, -0.764], a = 0.2, v = 0.2, t = 0.2)
movej(p[0.38249064421391, 0.213030661964954, 0.30955760920146, -1.33, 0.73, -0.764], a = 0.2, v = 0.2, t = 0.2)
movej(p[0.382432278975755, 0.212960045394738, 0.310427799869639, -1.33, 0.73, -0.764], a = 0.2, v = 0.2, t = 0.2)
movej(p[0.382368784266955, 0.212883222636808, 0.311374467866256, -1.33, 0.73, -0.764], a = 0.2, v = 0.2, t = 0.2)
movej(p[0.382322506969895, 0.212827231363568, 0.312064434588278, -1.33, 0.73, -0.764], a = 0.2, v = 0.2, t = 0.2)
movej(p[0.382295107992496, 0.212794081120846, 0.312472936895548, -1.33, 0.73, -0.764], a = 0.2, v = 0.2, t = 0.2)
movej(p[0.382290383409846, 0.212788364810368, 0.312543377587007, -1.33, 0.73, -0.764], a = 0.2, v = 0.2, t = 0.2)
movej(p[0.382286766766174, 0.212783989004154, 0.312597299573326, -1.33, 0.73, -0.764], a = 0.2, v = 0.2, t = 0.2)
movej(p[0.38228984378153, 0.212787711909736, 0.312551423121299, -1.33, 0.73, -0.764], a = 0.2, v = 0.2, t = 0.2)
movej(p[0.382298908870211, 0.212798679833308, 0.312416268090229, -1.33, 0.73, -0.764], a = 0.2, v = 0.2, t = 0.2)
movej(p[0.382324396669549, 0.21282951772635, 0.312036260300701, -1.33, 0.73, -0.764], a = 0.2, v = 0.2, t = 0.2)
movej(p[0.382365817311763, 0.212879632893901, 0.311418703387308, -1.33, 0.73, -0.764], a = 0.2, v = 0.2, t = 0.2)
movej(p[0.382428857105221, 0.212955905246107, 0.310478817905385, -1.33, 0.73, -0.764], a = 0.2, v = 0.2, t = 0.2)
movej(p[0.382486201785498, 0.213025287035152, 0.309623843142603, -1.33, 0.73, -0.764], a = 0.2, v = 0.2, t = 0.2)
movej(p[0.382525229786463, 0.213072507326847, 0.309041959074087, -1.33, 0.73, -0.764], a = 0.2, v = 0.2, t = 0.2)
movej(p[0.382556940454142, 0.213110874318254, 0.30856917205277, -1.33, 0.73, -0.764], a = 0.2, v = 0.2, t = 0.2)
movej(p[0.382577011425754, 0.213135158347943, 0.308269925913279, -1.33, 0.73, -0.764], a = 0.2, v = 0.2, t = 0.2)
movej(p[0.382554859316507, 0.213108356333122, 0.308600200565739, -1.33, 0.73, -0.764], a = 0.2, v = 0.2, t = 0.2)
movej(p[0.382493132240634, 0.213033672248461, 0.309520514216405, -1.33, 0.73, -0.764], a = 0.2, v = 0.2, t = 0.2)
movej(p[0.38241440920741, 0.212938424618554, 0.310694227389645, -1.33, 0.73, -0.764], a = 0.2, v = 0.2, t = 0.2)
movej(p[0.382349693831344, 0.212860124965498, 0.311659094802522, -1.33, 0.73, -0.764], a = 0.2, v = 0.2, t = 0.2)
movej(p[0.38230139382859, 0.212801686404401, 0.31237921885234, -1.33, 0.73, -0.764], a = 0.2, v = 0.2, t = 0.2)
movej(p[0.3822818647532, 0.212778058019302, 0.312670385644417, -1.33, 0.73, -0.764], a = 0.2, v = 0.2, t = 0.2)
movej(p[0.382281649302093, 0.212777797343278, 0.312673597891112, -1.33, 0.73, -0.764], a = 0.2, v = 0.2, t = 0.2)
movej(p[0.382282501768085, 0.212778828748726, 0.312660888134838, -1.33, 0.73, -0.764], a = 0.2, v = 0.2, t = 0.2)
movej(p[0.382283325551733, 0.212779825451174, 0.312648606015122, -1.33, 0.73, -0.764], a = 0.2, v = 0.2, t = 0.2)
movej(p[0.382287826678899, 0.212785271401069, 0.312581496910792, -1.33, 0.73, -0.764], a = 0.2, v = 0.2, t = 0.2)
movej(p[0.38231522632333, 0.212818422450838, 0.312172984658485, -1.33, 0.73, -0.764], a = 0.2, v = 0.2, t = 0.2)
movej(p[0.382357522777632, 0.212869597270465, 0.311542369912551, -1.33, 0.73, -0.764], a = 0.2, v = 0.2, t = 0.2)
movej(p[0.382413348627654, 0.212937141414592, 0.310710039997215, -1.33, 0.73, -0.764], a = 0.2, v = 0.2, t = 0.2)
movej(p[0.382467064657696, 0.213002132870586, 0.309909166231404, -1.33, 0.73, -0.764], a = 0.2, v = 0.2, t = 0.2)
movej(p[0.382504398399176, 0.213047303264129, 0.309352542554856, -1.33, 0.73, -0.764], a = 0.2, v = 0.2, t = 0.2)
movej(p[0.382530999607149, 0.213079488279217, 0.30895593451089, -1.33, 0.73, -0.764], a = 0.2, v = 0.2, t = 0.2)
movej(p[0.382537856688843, 0.21308778471741, 0.308853699538674, -1.33, 0.73, -0.764], a = 0.2, v = 0.2, t = 0.2)
movej(p[0.382525896817756, 0.213073314373364, 0.30903201403788, -1.33, 0.73, -0.764], a = 0.2, v = 0.2, t = 0.2)
movej(p[0.38247153376736, 0.213007540082249, 0.309842534488812, -1.33, 0.73, -0.764], a = 0.2, v = 0.2, t = 0.2)
movej(p[0.382406037964681, 0.212928296184768, 0.310819037594052, -1.33, 0.73, -0.764], a = 0.2, v = 0.2, t = 0.2)
movej(p[0.382349656477591, 0.212860079770893, 0.311659651724549, -1.33, 0.73, -0.764], a = 0.2, v = 0.2, t = 0.2)
movej(p[0.382311357541829, 0.212813741581041, 0.31223066586849, -1.33, 0.73, -0.764], a = 0.2, v = 0.2, t = 0.2)
movej(p[0.382295767352929, 0.212794878886328, 0.312463106227256, -1.33, 0.73, -0.764], a = 0.2, v = 0.2, t = 0.2)
movej(p[0.382291422644601, 0.212789622188841, 0.312527883220596, -1.33, 0.73, -0.764], a = 0.2, v = 0.2, t = 0.2)
movej(p[0.3822964275138, 0.212795677620266, 0.312453263624921, -1.33, 0.73, -0.764], a = 0.2, v = 0.2, t = 0.2)
movej(p[0.382294356381635, 0.212793171740831, 0.312484142962347, -1.33, 0.73, -0.764], a = 0.2, v = 0.2, t = 0.2)
movej(p[0.38229745640957, 0.212796922489518, 0.312437923406571, -1.33, 0.73, -0.764], a = 0.2, v = 0.2, t = 0.2)
movej(p[0.382316672447174, 0.212820172127686, 0.312151423819987, -1.33, 0.73, -0.764], a = 0.2, v = 0.2, t = 0.2)
movej(p[0.382349832573853, 0.212860292831174, 0.311657026234991, -1.33, 0.73, -0.764], a = 0.2, v = 0.2, t = 0.2)
movej(p[0.38239568563901, 0.212915770822828, 0.310973384555997, -1.33, 0.73, -0.764], a = 0.2, v = 0.2, t = 0.2)
movej(p[0.382444785812503, 0.212975177516927, 0.310241330440743, -1.33, 0.73, -0.764], a = 0.2, v = 0.2, t = 0.2)
movej(p[0.382490190632631, 0.213030113173322, 0.309564371826081, -1.33, 0.73, -0.764], a = 0.2, v = 0.2, t = 0.2)
movej(p[0.382521507751847, 0.213068004007284, 0.309097452376127, -1.33, 0.73, -0.764], a = 0.2, v = 0.2, t = 0.2)
movej(p[0.382533847830771, 0.213082934367844, 0.308913469206283, -1.33, 0.73, -0.764], a = 0.2, v = 0.2, t = 0.2)
movej(p[0.382523001901944, 0.213069811791481, 0.309075175495021, -1.33, 0.73, -0.764], a = 0.2, v = 0.2, t = 0.2)
movej(p[0.382478504244374, 0.213015973718349, 0.309738608860441, -1.33, 0.73, -0.764], a = 0.2, v = 0.2, t = 0.2)
movej(p[0.382412855024497, 0.21293654420017, 0.310717399324009, -1.33, 0.73, -0.764], a = 0.2, v = 0.2, t = 0.2)
movej(p[0.382351205991285, 0.212861954539952, 0.311636549405439, -1.33, 0.73, -0.764], a = 0.2, v = 0.2, t = 0.2)
movej(p[0.382320457849763, 0.212824752116669, 0.312094985739508, -1.33, 0.73, -0.764], a = 0.2, v = 0.2, t = 0.2)
movej(p[0.382299782681205, 0.212799737064245, 0.312403240092796, -1.33, 0.73, -0.764], a = 0.2, v = 0.2, t = 0.2)
movej(p[0.38229482116904, 0.212793734090844, 0.312477213261117, -1.33, 0.73, -0.764], a = 0.2, v = 0.2, t = 0.2)
movej(p[0.382288793207243, 0.212786440811472, 0.312567086553327, -1.33, 0.73, -0.764], a = 0.2, v = 0.2, t = 0.2)
movej(p[0.382296273963196, 0.212795491838157, 0.312455552972257, -1.33, 0.73, -0.764], a = 0.2, v = 0.2, t = 0.2)
movej(p[0.382313736175421, 0.21281661950892, 0.312195201869374, -1.33, 0.73, -0.764], a = 0.2, v = 0.2, t = 0.2)
movej(p[0.382352580742781, 0.212863617862823, 0.311616052685815, -1.33, 0.73, -0.764], a = 0.2, v = 0.2, t = 0.2)
movej(p[0.38241070051342, 0.212933937439921, 0.31074952179096, -1.33, 0.73, -0.764], a = 0.2, v = 0.2, t = 0.2)
movej(p[0.382464469905965, 0.212998993459636, 0.309947852422252, -1.33, 0.73, -0.764], a = 0.2, v = 0.2, t = 0.2)
movej(p[0.382508393916623, 0.213052137472764, 0.309292971787971, -1.33, 0.73, -0.764], a = 0.2, v = 0.2, t = 0.2)
movej(p[0.382544633726782, 0.21309598431002, 0.308752657970804, -1.33, 0.73, -0.764], a = 0.2, v = 0.2, t = 0.2)
movej(p[0.382564051007728, 0.213119477434123, 0.308463157966796, -1.33, 0.73, -0.764], a = 0.2, v = 0.2, t = 0.2)
movej(p[0.38253880387328, 0.213088930723463, 0.308839577587259, -1.33, 0.73, -0.764], a = 0.2, v = 0.2, t = 0.2)
movej(p[0.382479878328838, 0.213017636234173, 0.309718122085853, -1.33, 0.73, -0.764], a = 0.2, v = 0.2, t = 0.2)
movej(p[0.382403823420787, 0.212925616790333, 0.310852055114262, -1.33, 0.73, -0.764], a = 0.2, v = 0.2, t = 0.2)
movej(p[0.382341412637839, 0.212850105482993, 0.311782562427041, -1.33, 0.73, -0.764], a = 0.2, v = 0.2, t = 0.2)
movej(p[0.382298142384552, 0.212797752456156, 0.312427695931335, -1.33, 0.73, -0.764], a = 0.2, v = 0.2, t = 0.2)
movej(p[0.38228559879438, 0.212782575865703, 0.312614713331726, -1.33, 0.73, -0.764], a = 0.2, v = 0.2, t = 0.2)
movej(p[0.382287763310926, 0.21278519473165, 0.312582441689231, -1.33, 0.73, -0.764], a = 0.2, v = 0.2, t = 0.2)
movej(p[0.382286827466022, 0.212784062445387, 0.312596394575031, -1.33, 0.73, -0.764], a = 0.2, v = 0.2, t = 0.2)
movej(p[0.382289404207907, 0.212787180066081, 0.31255797690016, -1.33, 0.73, -0.764], a = 0.2, v = 0.2, t = 0.2)
movej(p[0.382308017049113, 0.212809699892085, 0.312280470609819, -1.33, 0.73, -0.764], a = 0.2, v = 0.2, t = 0.2)
movej(p[0.382345899757348, 0.212855534484911, 0.311715662168471, -1.33, 0.73, -0.764], a = 0.2, v = 0.2, t = 0.2)
movej(p[0.38240316973012, 0.212924825884746, 0.310861801249746, -1.33, 0.73, -0.764], a = 0.2, v = 0.2, t = 0.2)
movej(p[0.382464336499707, 0.212998832050333, 0.309949841429494, -1.33, 0.73, -0.764], a = 0.2, v = 0.2, t = 0.2)
movej(p[0.382520887412744, 0.213067253454023, 0.3091067012598, -1.33, 0.73, -0.764], a = 0.2, v = 0.2, t = 0.2)
movej(p[0.382555566369678, 0.213109211802429, 0.308589658827358, -1.33, 0.73, -0.764], a = 0.2, v = 0.2, t = 0.2)
movej(p[0.382564751390585, 0.213120324832965, 0.308452715678777, -1.33, 0.73, -0.764], a = 0.2, v = 0.2, t = 0.2)
movej(p[0.382544980583055, 0.213096403974208, 0.308747486551975, -1.33, 0.73, -0.764], a = 0.2, v = 0.2, t = 0.2)
movej(p[0.382489230107569, 0.213028951026338, 0.30957869267822, -1.33, 0.73, -0.764], a = 0.2, v = 0.2, t = 0.2)
movej(p[0.38241440920741, 0.212938424618554, 0.310694227389645, -1.33, 0.73, -0.764], a = 0.2, v = 0.2, t = 0.2)
movej(p[0.382347441933698, 0.212857400376458, 0.311692669244759, -1.33, 0.73, -0.764], a = 0.2, v = 0.2, t = 0.2)
movej(p[0.38230997545299, 0.212812069380658, 0.312251271983513, -1.33, 0.73, -0.764], a = 0.2, v = 0.2, t = 0.2)
movej(p[0.38228927146868, 0.212787019463825, 0.312559955962366, -1.33, 0.73, -0.764], a = 0.2, v = 0.2, t = 0.2)
movej(p[0.382285541429689, 0.212782506459703, 0.312615568604839, -1.33, 0.73, -0.764], a = 0.2, v = 0.2, t = 0.2)
movej(p[0.382285945650652, 0.212782995529892, 0.312609541912897, -1.33, 0.73, -0.764], a = 0.2, v = 0.2, t = 0.2)
movej(p[0.382289546285573, 0.212787351966989, 0.312555858607448, -1.33, 0.73, -0.764], a = 0.2, v = 0.2, t = 0.2)
movej(p[0.382298652396678, 0.212798369523922, 0.31242009195665, -1.33, 0.73, -0.764], a = 0.2, v = 0.2, t = 0.2)
movej(p[0.382328292799333, 0.212834231685055, 0.311978171344212, -1.33, 0.73, -0.764], a = 0.2, v = 0.2, t = 0.2)
movej(p[0.382376201654936, 0.212892196994074, 0.311263879063625, -1.33, 0.73, -0.764], a = 0.2, v = 0.2, t = 0.2)
movej(p[0.382425842123776, 0.212952257395851, 0.310523769469044, -1.33, 0.73, -0.764], a = 0.2, v = 0.2, t = 0.2)
movej(p[0.382476816655202, 0.213013931890661, 0.309763769802047, -1.33, 0.73, -0.764], a = 0.2, v = 0.2, t = 0.2)
movej(p[0.382524862919252, 0.213072063451263, 0.309047428844002, -1.33, 0.73, -0.764], a = 0.2, v = 0.2, t = 0.2)
movej(p[0.382557981022959, 0.21311213331082, 0.308553657796286, -1.33, 0.73, -0.764], a = 0.2, v = 0.2, t = 0.2)
movej(p[0.382562683593576, 0.213117822988763, 0.308483545291022, -1.33, 0.73, -0.764], a = 0.2, v = 0.2, t = 0.2)
movej(p[0.382533200810417, 0.213082151532723, 0.308923115891405, -1.33, 0.73, -0.764], a = 0.2, v = 0.2, t = 0.2)
movej(p[0.3824792913413, 0.213016926033238, 0.309726873717716, -1.33, 0.73, -0.764], a = 0.2, v = 0.2, t = 0.2)
movej(p[0.382402069128486, 0.212923494257994, 0.310878210559488, -1.33, 0.73, -0.764], a = 0.2, v = 0.2, t = 0.2)
movej(p[0.382339524272247, 0.212847820734304, 0.311810716824545, -1.33, 0.73, -0.764], a = 0.2, v = 0.2, t = 0.2)
movej(p[0.382304338838453, 0.212805249595478, 0.312335310522979, -1.33, 0.73, -0.764], a = 0.2, v = 0.2, t = 0.2)
movej(p[0.382291024426919, 0.212789140382071, 0.312533820407212, -1.33, 0.73, -0.764], a = 0.2, v = 0.2, t = 0.2)
movej(p[0.382284087968501, 0.212780747905343, 0.312637238838736, -1.33, 0.73, -0.764], a = 0.2, v = 0.2, t = 0.2)
movej(p[0.38228449485759, 0.212781240203718, 0.312631172366649, -1.33, 0.73, -0.764], a = 0.2, v = 0.2, t = 0.2)
movej(p[0.382291912912601, 0.212790215368031, 0.312520573618983, -1.33, 0.73, -0.764], a = 0.2, v = 0.2, t = 0.2)
movej(p[0.382311727077166, 0.212814188684811, 0.312225156318431, -1.33, 0.73, -0.764], a = 0.2, v = 0.2, t = 0.2)
movej(p[0.382352242557915, 0.212863208690239, 0.311621094819172, -1.33, 0.73, -0.764], a = 0.2, v = 0.2, t = 0.2)
movej(p[0.382408619375785, 0.212931419454788, 0.310780550303928, -1.33, 0.73, -0.764], a = 0.2, v = 0.2, t = 0.2)
movej(p[0.382457039177359, 0.21299000296144, 0.310058640125607, -1.33, 0.73, -0.764], a = 0.2, v = 0.2, t = 0.2)
movej(p[0.382488042791867, 0.213027514483538, 0.30959639484267, -1.33, 0.73, -0.764], a = 0.2, v = 0.2, t = 0.2)
movej(p[0.382485214579184, 0.213024092606307, 0.309638561796191, -1.33, 0.73, -0.764], a = 0.2, v = 0.2, t = 0.2)
movej(p[0.382457279308624, 0.212990293498186, 0.310055059912572, -1.33, 0.73, -0.764], a = 0.2, v = 0.2, t = 0.2)
movej(p[0.382394565026437, 0.21291441498468, 0.310990092216826, -1.33, 0.73, -0.764], a = 0.2, v = 0.2, t = 0.2)
movej(p[0.382338334955452, 0.212846381770364, 0.311828448824104, -1.33, 0.73, -0.764], a = 0.2, v = 0.2, t = 0.2)
movej(p[0.382296933523739, 0.212796289845753, 0.312445719320454, -1.33, 0.73, -0.764], a = 0.2, v = 0.2, t = 0.2)
movej(p[0.382281094332057, 0.212777125880576, 0.312681872161237, -1.33, 0.73, -0.764], a = 0.2, v = 0.2, t = 0.2)
movej(p[0.382274846916965, 0.2127695670829, 0.312775017370358, -1.33, 0.73, -0.764], a = 0.2, v = 0.2, t = 0.2)
movej(p[0.382277973292636, 0.212773349709924, 0.312728404985653, -1.33, 0.73, -0.764], a = 0.2, v = 0.2, t = 0.2)
movej(p[0.382303123707546, 0.212803779398838, 0.312353427395439, -1.33, 0.73, -0.764], a = 0.2, v = 0.2, t = 0.2)
movej(p[0.382344024065351, 0.212853265070106, 0.311743627610288, -1.33, 0.73, -0.764], a = 0.2, v = 0.2, t = 0.2)
movej(p[0.382411534302537, 0.212934946248067, 0.3107370904957, -1.33, 0.73, -0.764], a = 0.2, v = 0.2, t = 0.2)
movej(p[0.38248311343061, 0.213021550409779, 0.309669888660245, -1.33, 0.73, -0.764], a = 0.2, v = 0.2, t = 0.2)
movej(p[0.382542619292277, 0.213093547029539, 0.308782691980151, -1.33, 0.73, -0.764], a = 0.2, v = 0.2, t = 0.2)
movej(p[0.38257802531332, 0.213136385058649, 0.308254809458243, -1.33, 0.73, -0.764], a = 0.2, v = 0.2, t = 0.2)
movej(p[0.382591285895429, 0.213152429143402, 0.308057102138433, -1.33, 0.73, -0.764], a = 0.2, v = 0.2, t = 0.2)
movej(p[0.382578352158654, 0.213136780511442, 0.308249936390501, -1.33, 0.73, -0.764], a = 0.2, v = 0.2, t = 0.2)
movej(p[0.382526537167798, 0.21307408913802, 0.30902246680312, -1.33, 0.73, -0.764], a = 0.2, v = 0.2, t = 0.2)
movej(p[0.382456058641358, 0.21298881660306, 0.310073259328832, -1.33, 0.73, -0.764], a = 0.2, v = 0.2, t = 0.2)
movej(p[0.382383892525746, 0.212901502240412, 0.31114921279615, -1.33, 0.73, -0.764], a = 0.2, v = 0.2, t = 0.2)
movej(p[0.382329026533755, 0.212835119436223, 0.311967231804383, -1.33, 0.73, -0.764], a = 0.2, v = 0.2, t = 0.2)
movej(p[0.3822913139185, 0.212789490640259, 0.312529504261497, -1.33, 0.73, -0.764], a = 0.2, v = 0.2, t = 0.2)
movej(p[0.382280525354364, 0.212776437469897, 0.312690355277122, -1.33, 0.73, -0.764], a = 0.2, v = 0.2, t = 0.2)
movej(p[0.382290259342025, 0.212788214699716, 0.312545227363742, -1.33, 0.73, -0.764], a = 0.2, v = 0.2, t = 0.2)
movej(p[0.382319150468428, 0.212823170305496, 0.312114478010475, -1.33, 0.73, -0.764], a = 0.2, v = 0.2, t = 0.2)
movej(p[0.382376008215861, 0.212891962950584, 0.311266763124126, -1.33, 0.73, -0.764], a = 0.2, v = 0.2, t = 0.2)
movej(p[0.382451722937952, 0.212983570800701, 0.310137902064183, -1.33, 0.73, -0.764], a = 0.2, v = 0.2, t = 0.2)
movej(p[0.382530412619611, 0.213078778078283, 0.308964686142753, -1.33, 0.73, -0.764], a = 0.2, v = 0.2, t = 0.2)
movej(p[0.38259604182855, 0.213158183385066, 0.307986194030271, -1.33, 0.73, -0.764], a = 0.2, v = 0.2, t = 0.2)
movej(p[0.382631527893348, 0.213201118259757, 0.307457118104018, -1.33, 0.73, -0.764], a = 0.2, v = 0.2, t = 0.2)
movej(p[0.382636237134278, 0.213206816008166, 0.307386906148392, -1.33, 0.73, -0.764], a = 0.2, v = 0.2, t = 0.2)
movej(p[0.382583868507449, 0.213143454786135, 0.308167690941063, -1.33, 0.73, -0.764], a = 0.2, v = 0.2, t = 0.2)
movej(p[0.382505679099259, 0.213048852793441, 0.309333448085337, -1.33, 0.73, -0.764], a = 0.2, v = 0.2, t = 0.2)
movej(p[0.382421859946955, 0.212947439328146, 0.310583141335204, -1.33, 0.73, -0.764], a = 0.2, v = 0.2, t = 0.2)
movej(p[0.382354193624448, 0.2128655693013, 0.311592005588264, -1.33, 0.73, -0.764], a = 0.2, v = 0.2, t = 0.2)
movej(p[0.3823078142716, 0.212809454549944, 0.312283493900826, -1.33, 0.73, -0.764], a = 0.2, v = 0.2, t = 0.2)
movej(p[0.382285285289672, 0.21278219655384, 0.312619387498743, -1.33, 0.73, -0.764], a = 0.2, v = 0.2, t = 0.2)
movej(p[0.382283709761757, 0.212780290309968, 0.312642877674266, -1.33, 0.73, -0.764], a = 0.2, v = 0.2, t = 0.2)
movej(p[0.382282954015302, 0.212779375926264, 0.312654145400289, -1.33, 0.73, -0.764], a = 0.2, v = 0.2, t = 0.2)
movej(p[0.382300294607711, 0.212800356448235, 0.312395607575858, -1.33, 0.73, -0.764], a = 0.2, v = 0.2, t = 0.2)
movej(p[0.382342465213219, 0.212851379002396, 0.311766869159905, -1.33, 0.73, -0.764], a = 0.2, v = 0.2, t = 0.2)
movej(p[0.382406398161579, 0.212928731989888, 0.3108136672745, -1.33, 0.73, -0.764], a = 0.2, v = 0.2, t = 0.2)
movej(p[0.382478137377163, 0.213015529842765, 0.309744078630355, -1.33, 0.73, -0.764], a = 0.2, v = 0.2, t = 0.2)
movej(p[0.382545113989313, 0.213096565383512, 0.308745497544734, -1.33, 0.73, -0.764], a = 0.2, v = 0.2, t = 0.2)
movej(p[0.382600390872581, 0.213163445328355, 0.307921352394197, -1.33, 0.73, -0.764], a = 0.2, v = 0.2, t = 0.2)
movej(p[0.382614945495399, 0.213181055083351, 0.307704351704143, -1.33, 0.73, -0.764], a = 0.2, v = 0.2, t = 0.2)
movej(p[0.382590085239101, 0.213150976459671, 0.308075003203607, -1.33, 0.73, -0.764], a = 0.2, v = 0.2, t = 0.2)
movej(p[0.382531213057163, 0.213079746534103, 0.308952752099304, -1.33, 0.73, -0.764], a = 0.2, v = 0.2, t = 0.2)
movej(p[0.382455364928813, 0.212987977274683, 0.310083602166488, -1.33, 0.73, -0.764], a = 0.2, v = 0.2, t = 0.2)
movej(p[0.382373766990715, 0.212889251274288, 0.311300178445784, -1.33, 0.73, -0.764], a = 0.2, v = 0.2, t = 0.2)
movej(p[0.382312272041732, 0.212814848041815, 0.31221703122385, -1.33, 0.73, -0.764], a = 0.2, v = 0.2, t = 0.2)
movej(p[0.382289456236348, 0.21278724301571, 0.312557201187336, -1.33, 0.73, -0.764], a = 0.2, v = 0.2, t = 0.2)
movej(p[0.38227897117145, 0.212774557051513, 0.312713527211486, -1.33, 0.73, -0.764], a = 0.2, v = 0.2, t = 0.2)
movej(p[0.382284398138052, 0.212781123181973, 0.312632614396899, -1.33, 0.73, -0.764], a = 0.2, v = 0.2, t = 0.2)
movej(p[0.382306516295406, 0.212807884118127, 0.312302845946783, -1.33, 0.73, -0.764], a = 0.2, v = 0.2, t = 0.2)
movej(p[0.38235137341614, 0.212862157108627, 0.311634053201351, -1.33, 0.73, -0.764], a = 0.2, v = 0.2, t = 0.2)
movej(p[0.382413188540144, 0.212936947723428, 0.310712426805905, -1.33, 0.73, -0.764], a = 0.2, v = 0.2, t = 0.2)
movej(p[0.382480465316376, 0.213018346435108, 0.30970937045399, -1.33, 0.73, -0.764], a = 0.2, v = 0.2, t = 0.2)
movej(p[0.382543546465774, 0.213094668824197, 0.308768868379822, -1.33, 0.73, -0.764], a = 0.2, v = 0.2, t = 0.2)
movej(p[0.382579399397784, 0.213138047574473, 0.308234322683655, -1.33, 0.73, -0.764], a = 0.2, v = 0.2, t = 0.2)
movej(p[0.382587310388922, 0.213147619146162, 0.308116374554231, -1.33, 0.73, -0.764], a = 0.2, v = 0.2, t = 0.2)
movej(p[0.382566872550098, 0.213122891240888, 0.308421090463637, -1.33, 0.73, -0.764], a = 0.2, v = 0.2, t = 0.2)
movej(p[0.382518746242293, 0.213064662834705, 0.309138624826027, -1.33, 0.73, -0.764], a = 0.2, v = 0.2, t = 0.2)
movej(p[0.382451656234823, 0.212983490096049, 0.310138896567803, -1.33, 0.73, -0.764], a = 0.2, v = 0.2, t = 0.2)
movej(p[0.382381938124057, 0.212899137594118, 0.311178351752239, -1.33, 0.73, -0.764], a = 0.2, v = 0.2, t = 0.2)
movej(p[0.382334859722414, 0.212842177058012, 0.311880262462746, -1.33, 0.73, -0.764], a = 0.2, v = 0.2, t = 0.2)
movej(p[0.382301162502138, 0.212801406520669, 0.312382667790897, -1.33, 0.73, -0.764], a = 0.2, v = 0.2, t = 0.2)
movej(p[0.382289051348353, 0.212786753138474, 0.312563237824314, -1.33, 0.73, -0.764], a = 0.2, v = 0.2, t = 0.2)
movej(p[0.382292457210136, 0.212790873917989, 0.312512458469437, -1.33, 0.73, -0.764], a = 0.2, v = 0.2, t = 0.2)
movej(p[0.382316038100414, 0.212819404626449, 0.312160881549421, -1.33, 0.73, -0.764], a = 0.2, v = 0.2, t = 0.2)
movej(p[0.382358249841742, 0.212870476951169, 0.311531529823085, -1.33, 0.73, -0.764], a = 0.2, v = 0.2, t = 0.2)
movej(p[0.382418451417047, 0.212943315320445, 0.310633960470226, -1.33, 0.73, -0.764], a = 0.2, v = 0.2, t = 0.2)
movej(p[0.382484327427564, 0.21302301923444, 0.309651788694347, -1.33, 0.73, -0.764], a = 0.2, v = 0.2, t = 0.2)
movej(p[0.382528831755446, 0.213076865378038, 0.308988255878565, -1.33, 0.73, -0.764], a = 0.2, v = 0.2, t = 0.2)
movej(p[0.382560248929356, 0.213114877268977, 0.30851984467318, -1.33, 0.73, -0.764], a = 0.2, v = 0.2, t = 0.2)
movej(p[0.382569707433094, 0.213126321188585, 0.308378824059754, -1.33, 0.73, -0.764], a = 0.2, v = 0.2, t = 0.2)
movej(p[0.382545654284661, 0.21309721909119, 0.308737442065406, -1.33, 0.73, -0.764], a = 0.2, v = 0.2, t = 0.2)
movej(p[0.382482466410256, 0.213020767574658, 0.309679535345367, -1.33, 0.73, -0.764], a = 0.2, v = 0.2, t = 0.2)
movej(p[0.38239691297659, 0.212917255788419, 0.310955085689374, -1.33, 0.73, -0.764], a = 0.2, v = 0.2, t = 0.2)
movej(p[0.382338773862043, 0.212846912806972, 0.311821904990279, -1.33, 0.73, -0.764], a = 0.2, v = 0.2, t = 0.2)
movej(p[0.38229477747849, 0.212793681229297, 0.312477864660989, -1.33, 0.73, -0.764], a = 0.2, v = 0.2, t = 0.2)
movej(p[0.382282503102148, 0.212778830362819, 0.312660868244766, -1.33, 0.73, -0.764], a = 0.2, v = 0.2, t = 0.2)
movej(p[0.382277450340102, 0.212772716985455, 0.31273620189404, -1.33, 0.73, -0.764], a = 0.2, v = 0.2, t = 0.2)
movej(p[0.382289873797938, 0.212787748226829, 0.31255097559467, -1.33, 0.73, -0.764], a = 0.2, v = 0.2, t = 0.2)
movej(p[0.382319744126279, 0.212823888576896, 0.31210562692825, -1.33, 0.73, -0.764], a = 0.2, v = 0.2, t = 0.2)
movej(p[0.382375261140812, 0.212891059058485, 0.311277901564678, -1.33, 0.73, -0.764], a = 0.2, v = 0.2, t = 0.2)
movej(p[0.3824418442045, 0.212971618441788, 0.31028518805042, -1.33, 0.73, -0.764], a = 0.2, v = 0.2, t = 0.2)
movej(p[0.382499202225402, 0.213041016371764, 0.309430014386914, -1.33, 0.73, -0.764], a = 0.2, v = 0.2, t = 0.2)
movej(p[0.382544453628333, 0.21309576640746, 0.30875534313058, -1.33, 0.73, -0.764], a = 0.2, v = 0.2, t = 0.2)
movej(p[0.382580433296289, 0.213139298496574, 0.308218907877533, -1.33, 0.73, -0.764], a = 0.2, v = 0.2, t = 0.2)
movej(p[0.382597109078619, 0.213159474659493, 0.307970281972339, -1.33, 0.73, -0.764], a = 0.2, v = 0.2, t = 0.2)
movej(p[0.382572115416062, 0.21312923462651, 0.308342922479044, -1.33, 0.73, -0.764], a = 0.2, v = 0.2, t = 0.2)
movej(p[0.382510748537088, 0.213054986346969, 0.309257865810158, -1.33, 0.73, -0.764], a = 0.2, v = 0.2, t = 0.2)
movej(p[0.382437415116713, 0.212966259652917, 0.310351223090839, -1.33, 0.73, -0.764], a = 0.2, v = 0.2, t = 0.2)
movej(p[0.382363504047238, 0.212876834056581, 0.311453192772876, -1.33, 0.73, -0.764], a = 0.2, v = 0.2, t = 0.2)
movej(p[0.382313388652117, 0.212816199037684, 0.312200383233238, -1.33, 0.73, -0.764], a = 0.2, v = 0.2, t = 0.2)
movej(p[0.382289693032457, 0.212787529517223, 0.312553670699482, -1.33, 0.73, -0.764], a = 0.2, v = 0.2, t = 0.2)
movej(p[0.382285006470591, 0.212781859208396, 0.312623544523878, -1.33, 0.73, -0.764], a = 0.2, v = 0.2, t = 0.2)
movej(p[0.382283052735934, 0.212779495369149, 0.312652673534931, -1.33, 0.73, -0.764], a = 0.2, v = 0.2, t = 0.2)
movej(p[0.382289922491222, 0.212787807141225, 0.312550249607027, -1.33, 0.73, -0.764], a = 0.2, v = 0.2, t = 0.2)
movej(p[0.382323665603252, 0.212828633203368, 0.312047160060385, -1.33, 0.73, -0.764], a = 0.2, v = 0.2, t = 0.2)
movej(p[0.382370018274848, 0.212884715672864, 0.311356069549271, -1.33, 0.73, -0.764], a = 0.2, v = 0.2, t = 0.2)
movej(p[0.382434066619621, 0.212962208279403, 0.310401147172602, -1.33, 0.73, -0.764], a = 0.2, v = 0.2, t = 0.2)
movej(p[0.382497774778435, 0.213039289292218, 0.309451296764399, -1.33, 0.73, -0.764], a = 0.2, v = 0.2, t = 0.2)
movej(p[0.382550090042761, 0.213102585950527, 0.308671307574624, -1.33, 0.73, -0.764], a = 0.2, v = 0.2, t = 0.2)
movej(p[0.382582020830766, 0.213141219267284, 0.308195238691359, -1.33, 0.73, -0.764], a = 0.2, v = 0.2, t = 0.2)
movej(p[0.382577418314843, 0.213135650646318, 0.308263859441192, -1.33, 0.73, -0.764], a = 0.2, v = 0.2, t = 0.2)
movej(p[0.382543833289231, 0.2130950158542, 0.308764592014253, -1.33, 0.73, -0.764], a = 0.2, v = 0.2, t = 0.2)
movej(p[0.382469025729698, 0.213004505587346, 0.309879927824953, -1.33, 0.73, -0.764], a = 0.2, v = 0.2, t = 0.2)
movej(p[0.382385560103979, 0.212903519856704, 0.31112435020563, -1.33, 0.73, -0.764], a = 0.2, v = 0.2, t = 0.2)
movej(p[0.382315040221599, 0.21281819728486, 0.312175759323587, -1.33, 0.73, -0.764], a = 0.2, v = 0.2, t = 0.2)
movej(p[0.382287519177473, 0.212784899352625, 0.312586081572483, -1.33, 0.73, -0.764], a = 0.2, v = 0.2, t = 0.2)
movej(p[0.382272438266965, 0.212766652837928, 0.312810928896105, -1.33, 0.73, -0.764], a = 0.2, v = 0.2, t = 0.2)
movej(p[0.382274536080382, 0.212769190999223, 0.312779651757231, -1.33, 0.73, -0.764], a = 0.2, v = 0.2, t = 0.2)
movej(p[0.382290670233302, 0.21278871184037, 0.312539101221438, -1.33, 0.73, -0.764], a = 0.2, v = 0.2, t = 0.2)
movej(p[0.382328254778549, 0.212834185683403, 0.311978738211275, -1.33, 0.73, -0.764], a = 0.2, v = 0.2, t = 0.2)
movej(p[0.3823918635497, 0.212911146446287, 0.311030369613467, -1.33, 0.73, -0.764], a = 0.2, v = 0.2, t = 0.2)
movej(p[0.382466304242021, 0.213001212837557, 0.309920503572681, -1.33, 0.73, -0.764], a = 0.2, v = 0.2, t = 0.2)
movej(p[0.382540451440574, 0.21309092412836, 0.308815013347826, -1.33, 0.73, -0.764], a = 0.2, v = 0.2, t = 0.2)
movej(p[0.382590852325088, 0.213151904563166, 0.308063566411968, -1.33, 0.73, -0.764], a = 0.2, v = 0.2, t = 0.2)
movej(p[0.382618887650342, 0.213185824728265, 0.307645576540156, -1.33, 0.73, -0.764], a = 0.2, v = 0.2, t = 0.2)
movej(p[0.382621275622371, 0.213188713954795, 0.307609973310532, -1.33, 0.73, -0.764], a = 0.2, v = 0.2, t = 0.2)
movej(p[0.382573389445832, 0.213130776085357, 0.308323927459887, -1.33, 0.73, -0.764], a = 0.2, v = 0.2, t = 0.2)
movej(p[0.382493966029751, 0.213034681056607, 0.309508082921145, -1.33, 0.73, -0.764], a = 0.2, v = 0.2, t = 0.2)
movej(p[0.382400401550253, 0.212921476641702, 0.310903073150008, -1.33, 0.73, -0.764], a = 0.2, v = 0.2, t = 0.2)
movej(p[0.38233572419497, 0.212843222990298, 0.311867373695821, -1.33, 0.73, -0.764], a = 0.2, v = 0.2, t = 0.2)
movej(p[0.382296733681163, 0.212796048054617, 0.312448698853302, -1.33, 0.73, -0.764], a = 0.2, v = 0.2, t = 0.2)
movej(p[0.382280124468556, 0.21277595243494, 0.312696332243883, -1.33, 0.73, -0.764], a = 0.2, v = 0.2, t = 0.2)
movej(p[0.382282407716673, 0.212778714955167, 0.312662290384943, -1.33, 0.73, -0.764], a = 0.2, v = 0.2, t = 0.2)
movej(p[0.382301134686933, 0.21280137286683, 0.312383082498907, -1.33, 0.73, -0.764], a = 0.2, v = 0.2, t = 0.2)
movej(p[0.382339841112112, 0.212848204081399, 0.311805992932347, -1.33, 0.73, -0.764], a = 0.2, v = 0.2, t = 0.2)
movej(p[0.382396552779691, 0.2129168199833, 0.310960456008927, -1.33, 0.73, -0.764], a = 0.2, v = 0.2, t = 0.2)
movej(p[0.38246334262308, 0.212997629551023, 0.309964659533443, -1.33, 0.73, -0.764], a = 0.2, v = 0.2, t = 0.2)
movej(p[0.382515097581119, 0.213060248290258, 0.309193024174083, -1.33, 0.73, -0.764], a = 0.2, v = 0.2, t = 0.2)
movej(p[0.382557540782306, 0.213111600660119, 0.308560221520183, -1.33, 0.73, -0.764], a = 0.2, v = 0.2, t = 0.2)
movej(p[0.382582194258903, 0.213141429099378, 0.308192652981944, -1.33, 0.73, -0.764], a = 0.2, v = 0.2, t = 0.2)
movej(p[0.382590872336027, 0.213151928774561, 0.308063268060882, -1.33, 0.73, -0.764], a = 0.2, v = 0.2, t = 0.2)
movej(p[0.3825599621059, 0.213114530238975, 0.308524121038749, -1.33, 0.73, -0.764], a = 0.2, v = 0.2, t = 0.2)
movej(p[0.382503884785081, 0.213046681838311, 0.309360200232736, -1.33, 0.73, -0.764], a = 0.2, v = 0.2, t = 0.2)
movej(p[0.382439969846566, 0.212969350641076, 0.310313133602163, -1.33, 0.73, -0.764], a = 0.2, v = 0.2, t = 0.2)
movej(p[0.382374273934498, 0.212889864629641, 0.311292620218266, -1.33, 0.73, -0.764], a = 0.2, v = 0.2, t = 0.2)
movej(p[0.382325357194611, 0.212830679873334, 0.312021939448562, -1.33, 0.73, -0.764], a = 0.2, v = 0.2, t = 0.2)
movej(p[0.382296165904127, 0.212795361096622, 0.312457164068122, -1.33, 0.73, -0.764], a = 0.2, v = 0.2, t = 0.2)
movej(p[0.382290575514858, 0.212788597239765, 0.312540513416579, -1.33, 0.73, -0.764], a = 0.2, v = 0.2, t = 0.2)
movej(p[0.382296559385887, 0.212795837173362, 0.312451297491263, -1.33, 0.73, -0.764], a = 0.2, v = 0.2, t = 0.2)
movej(p[0.382322657718968, 0.212827413756081, 0.312062187010095, -1.33, 0.73, -0.764], a = 0.2, v = 0.2, t = 0.2)
movej(p[0.382374980987669, 0.212890720098948, 0.311282078479886, -1.33, 0.73, -0.764], a = 0.2, v = 0.2, t = 0.2)
movej(p[0.382431498549142, 0.212959101150313, 0.310439435562002, -1.33, 0.73, -0.764], a = 0.2, v = 0.2, t = 0.2)
movej(p[0.382485574776082, 0.213024528411426, 0.309633191476639, -1.33, 0.73, -0.764], a = 0.2, v = 0.2, t = 0.2)
movej(p[0.382533220821356, 0.213082175744118, 0.308922817540318, -1.33, 0.73, -0.764], a = 0.2, v = 0.2, t = 0.2)
movej(p[0.382575397210025, 0.213133205295372, 0.308293992900902, -1.33, 0.73, -0.764], a = 0.2, v = 0.2, t = 0.2)
movej(p[0.382581500546358, 0.213140589771001, 0.308202995819601, -1.33, 0.73, -0.764], a = 0.2, v = 0.2, t = 0.2)
movej(p[0.382551057238136, 0.213103756167976, 0.308656887272123, -1.33, 0.73, -0.764], a = 0.2, v = 0.2, t = 0.2)
movej(p[0.382486902168356, 0.213026134433995, 0.309613400854585, -1.33, 0.73, -0.764], a = 0.2, v = 0.2, t = 0.2)
movej(p[0.382415122930894, 0.212939288158327, 0.310683586200902, -1.33, 0.73, -0.764], a = 0.2, v = 0.2, t = 0.2)
movej(p[0.382342675328077, 0.212851633222049, 0.3117637364735, -1.33, 0.73, -0.764], a = 0.2, v = 0.2, t = 0.2)
movej(p[0.382296732347101, 0.212796046440524, 0.312448718743375, -1.33, 0.73, -0.764], a = 0.2, v = 0.2, t = 0.2)
movej(p[0.382280898891888, 0.212776889415946, 0.312684786056845, -1.33, 0.73, -0.764], a = 0.2, v = 0.2, t = 0.2)
movej(p[0.382276297042996, 0.212771321602027, 0.312753396861643, -1.33, 0.73, -0.764], a = 0.2, v = 0.2, t = 0.2)
movej(p[0.382287322403241, 0.212784661273903, 0.312589015358165, -1.33, 0.73, -0.764], a = 0.2, v = 0.2, t = 0.2)
movej(p[0.382313279258985, 0.212816066682056, 0.312202014219176, -1.33, 0.73, -0.764], a = 0.2, v = 0.2, t = 0.2)
movej(p[0.382365853331453, 0.212879676474413, 0.311418166355353, -1.33, 0.73, -0.764], a = 0.2, v = 0.2, t = 0.2)
movej(p[0.3824231206361, 0.212948964646063, 0.310564345216771, -1.33, 0.73, -0.764], a = 0.2, v = 0.2, t = 0.2)
movej(p[0.38248550140264, 0.213024439636309, 0.309634285430622, -1.33, 0.73, -0.764], a = 0.2, v = 0.2, t = 0.2)
movej(p[0.382542645973529, 0.2130935793114, 0.308782294178703, -1.33, 0.73, -0.764], a = 0.2, v = 0.2, t = 0.2)
movej(p[0.382583134773026, 0.213142567034967, 0.308178630480892, -1.33, 0.73, -0.764], a = 0.2, v = 0.2, t = 0.2)
movej(p[0.382583815144945, 0.213143390222414, 0.30816848654396, -1.33, 0.73, -0.764], a = 0.2, v = 0.2, t = 0.2)
movej(p[0.382545454175273, 0.213096976977235, 0.308740425576268, -1.33, 0.73, -0.764], a = 0.2, v = 0.2, t = 0.2)
movej(p[0.382483960560353, 0.213022575358856, 0.309657258464262, -1.33, 0.73, -0.764], a = 0.2, v = 0.2, t = 0.2)
movej(p[0.382402609423834, 0.212924147965672, 0.31087015508016, -1.33, 0.73, -0.764], a = 0.2, v = 0.2, t = 0.2)
movej(p[0.38233523392697, 0.212842629811108, 0.311874683297434, -1.33, 0.73, -0.764], a = 0.2, v = 0.2, t = 0.2)
movej(p[0.382293268320189, 0.212791855286553, 0.312500365305409, -1.33, 0.73, -0.764], a = 0.2, v = 0.2, t = 0.2)
movej(p[0.38227586080453, 0.212770793793605, 0.312759900915323, -1.33, 0.73, -0.764], a = 0.2, v = 0.2, t = 0.2)
movej(p[0.382268596166716, 0.212762004249991, 0.312868212304661, -1.33, 0.73, -0.764], a = 0.2, v = 0.2, t = 0.2)
movej(p[0.382268332689355, 0.212761685466617, 0.312872140593963, -1.33, 0.73, -0.764], a = 0.2, v = 0.2, t = 0.2)
movej(p[0.382288175536265, 0.212785693486398, 0.312576295656855, -1.33, 0.73, -0.764], a = 0.2, v = 0.2, t = 0.2)
movej(p[0.382323905734517, 0.212828923740114, 0.31204357984735, -1.33, 0.73, -0.764], a = 0.2, v = 0.2, t = 0.2)
movej(p[0.382385460049285, 0.212903398799727, 0.311125841961062, -1.33, 0.73, -0.764], a = 0.2, v = 0.2, t = 0.2)
movej(p[0.382456945792978, 0.212989889974927, 0.310060032430676, -1.33, 0.73, -0.764], a = 0.2, v = 0.2, t = 0.2)
movej(p[0.382516471665583, 0.213061910806082, 0.309172537399495, -1.33, 0.73, -0.764], a = 0.2, v = 0.2, t = 0.2)
movej(p[0.382560702510636, 0.213115426060608, 0.308513082048559, -1.33, 0.73, -0.764], a = 0.2, v = 0.2, t = 0.2)
movej(p[0.382597035705176, 0.213159385884376, 0.307971375926322, -1.33, 0.73, -0.764], a = 0.2, v = 0.2, t = 0.2)
movej(p[0.38263066742298, 0.213200077169751, 0.307469947200727, -1.33, 0.73, -0.764], a = 0.2, v = 0.2, t = 0.2)
movej(p[0.382629293338516, 0.213198414653926, 0.307490433975314, -1.33, 0.73, -0.764], a = 0.2, v = 0.2, t = 0.2)
movej(p[0.382580546691608, 0.213139435694482, 0.308217217221378, -1.33, 0.73, -0.764], a = 0.2, v = 0.2, t = 0.2)
movej(p[0.38250549900081, 0.213048634890882, 0.309336133245113, -1.33, 0.73, -0.764], a = 0.2, v = 0.2, t = 0.2)
movej(p[0.38243679477761, 0.212965509099656, 0.310360471974512, -1.33, 0.73, -0.764], a = 0.2, v = 0.2, t = 0.2)
movej(p[0.382372119423421, 0.212887257869392, 0.311324742685217, -1.33, 0.73, -0.764], a = 0.2, v = 0.2, t = 0.2)
movej(p[0.382322763109912, 0.212827541269431, 0.312060615694374, -1.33, 0.73, -0.764], a = 0.2, v = 0.2, t = 0.2)
movej(p[0.382291848877597, 0.212790137891565, 0.312521528342459, -1.33, 0.73, -0.764], a = 0.2, v = 0.2, t = 0.2)
movej(p[0.382281550581461, 0.212777677900393, 0.31267506975647, -1.33, 0.73, -0.764], a = 0.2, v = 0.2, t = 0.2)
movej(p[0.382275367868405, 0.212770197386229, 0.31276725029708, -1.33, 0.73, -0.764], a = 0.2, v = 0.2, t = 0.2)
movej(p[0.38227556664373, 0.212770437886091, 0.31276428667629, -1.33, 0.73, -0.764], a = 0.2, v = 0.2, t = 0.2)
movej(p[0.382280782161412, 0.212776748182806, 0.312686526438182, -1.33, 0.73, -0.764], a = 0.2, v = 0.2, t = 0.2)
movej(p[0.382297117024048, 0.21279651186425, 0.312442983440994, -1.33, 0.73, -0.764], a = 0.2, v = 0.2, t = 0.2)
movej(p[0.382336213128908, 0.212843814555395, 0.311860083984281, -1.33, 0.73, -0.764], a = 0.2, v = 0.2, t = 0.2)
movej(p[0.38240066836277, 0.212921799460309, 0.310899095135525, -1.33, 0.73, -0.764], a = 0.2, v = 0.2, t = 0.2)
movej(p[0.38246566389198, 0.213000438072901, 0.30993005080744, -1.33, 0.73, -0.764], a = 0.2, v = 0.2, t = 0.2)
movej(p[0.382514844109228, 0.213059941612582, 0.309196803287842, -1.33, 0.73, -0.764], a = 0.2, v = 0.2, t = 0.2)
movej(p[0.382551871016314, 0.213104740764727, 0.308644754327949, -1.33, 0.73, -0.764], a = 0.2, v = 0.2, t = 0.2)
movej(p[0.382575470583467, 0.213133294070489, 0.308292898946919, -1.33, 0.73, -0.764], a = 0.2, v = 0.2, t = 0.2)
movej(p[0.382560409016867, 0.213115070960141, 0.30851745786449, -1.33, 0.73, -0.764], a = 0.2, v = 0.2, t = 0.2)
movej(p[0.382509154332297, 0.213053057505794, 0.309281634446694, -1.33, 0.73, -0.764], a = 0.2, v = 0.2, t = 0.2)
movej(p[0.38243401992743, 0.212962151786146, 0.310401843325137, -1.33, 0.73, -0.764], a = 0.2, v = 0.2, t = 0.2)
movej(p[0.382373726968838, 0.212889202851497, 0.311300775147956, -1.33, 0.73, -0.764], a = 0.2, v = 0.2, t = 0.2)
movej(p[0.382316228871364, 0.212819635441753, 0.312158037269065, -1.33, 0.73, -0.764], a = 0.2, v = 0.2, t = 0.2)
movej(p[0.38228666137523, 0.212783861490804, 0.312598870889047, -1.33, 0.73, -0.764], a = 0.2, v = 0.2, t = 0.2)
movej(p[0.382276856682251, 0.212771998714055, 0.312745052976264, -1.33, 0.73, -0.764], a = 0.2, v = 0.2, t = 0.2)
movej(p[0.382299006256779, 0.212798797662099, 0.312414816114942, -1.33, 0.73, -0.764], a = 0.2, v = 0.2, t = 0.2)
movej(p[0.382346400030818, 0.212856139769799, 0.311708203391316, -1.33, 0.73, -0.764], a = 0.2, v = 0.2, t = 0.2)
movej(p[0.382418598163932, 0.212943492870679, 0.31063177256226, -1.33, 0.73, -0.764], a = 0.2, v = 0.2, t = 0.2)
movej(p[0.382495800365807, 0.213036900434528, 0.309480734071574, -1.33, 0.73, -0.764], a = 0.2, v = 0.2, t = 0.2)
movej(p[0.382550823777183, 0.213103473701695, 0.308660368034796, -1.33, 0.73, -0.764], a = 0.2, v = 0.2, t = 0.2)
movej(p[0.382583688408999, 0.213143236883576, 0.308170376100839, -1.33, 0.73, -0.764], a = 0.2, v = 0.2, t = 0.2)
movej(p[0.382588464353059, 0.213149015336636, 0.308099169641592, -1.33, 0.73, -0.764], a = 0.2, v = 0.2, t = 0.2)
movej(p[0.382572982556743, 0.213130283786982, 0.308329993931974, -1.33, 0.73, -0.764], a = 0.2, v = 0.2, t = 0.2)
movej(p[0.382523822350434, 0.213070804458697, 0.309062943100486, -1.33, 0.73, -0.764], a = 0.2, v = 0.2, t = 0.2)
movej(p[0.38246909910314, 0.213004594362462, 0.30987883387097, -1.33, 0.73, -0.764], a = 0.2, v = 0.2, t = 0.2)
movej(p[0.382425561970633, 0.212951918436314, 0.310527946384251, -1.33, 0.73, -0.764], a = 0.2, v = 0.2, t = 0.2)
movej(p[0.382398093621979, 0.212918684260754, 0.310937482975287, -1.33, 0.73, -0.764], a = 0.2, v = 0.2, t = 0.2)
movej(p[0.382394018060777, 0.212913753206537, 0.310998247146516, -1.33, 0.73, -0.764], a = 0.2, v = 0.2, t = 0.2)
movej(p[0.382429944366229, 0.212957220731929, 0.310462607496366, -1.33, 0.73, -0.764], a = 0.2, v = 0.2, t = 0.2)
movej(p[0.382498862039443, 0.21304060477804, 0.30943508635538, -1.33, 0.73, -0.764], a = 0.2, v = 0.2, t = 0.2)
movej(p[0.382571521758211, 0.21312851635511, 0.308351773561269, -1.33, 0.73, -0.764], a = 0.2, v = 0.2, t = 0.2)
movej(p[0.382636230463965, 0.213206807937701, 0.307387005598754, -1.33, 0.73, -0.764], a = 0.2, v = 0.2, t = 0.2)
movej(p[0.382702526704197, 0.213287020291001, 0.306398568450064, -1.33, 0.73, -0.764], a = 0.2, v = 0.2, t = 0.2)
movej(p[0.382756956457722, 0.213352875286768, 0.305587053495511, -1.33, 0.73, -0.764], a = 0.2, v = 0.2, t = 0.2)
movej(p[0.382791588722465, 0.213394777141918, 0.305070707215604, -1.33, 0.73, -0.764], a = 0.2, v = 0.2, t = 0.2)
movej(p[0.382779955696712, 0.213380702250666, 0.305244148647067, -1.33, 0.73, -0.764], a = 0.2, v = 0.2, t = 0.2)
movej(p[0.382746610802364, 0.213340357995293, 0.305741301007093, -1.33, 0.73, -0.764], a = 0.2, v = 0.2, t = 0.2)
movej(p[0.382684063278001, 0.213264681243417, 0.306673847052295, -1.33, 0.73, -0.764], a = 0.2, v = 0.2, t = 0.2)
movej(p[0.382627418980582, 0.213196146853214, 0.307518379527058, -1.33, 0.73, -0.764], a = 0.2, v = 0.2, t = 0.2)
movej(p[0.382572709073913, 0.21312995289791, 0.308334071396819, -1.33, 0.73, -0.764], a = 0.2, v = 0.2, t = 0.2)
movej(p[0.382525616664613, 0.213072975413827, 0.309036190953087, -1.33, 0.73, -0.764], a = 0.2, v = 0.2, t = 0.2)
movej(p[0.382474268595662, 0.213010848972967, 0.30980175984036, -1.33, 0.73, -0.764], a = 0.2, v = 0.2, t = 0.2)
movej(p[0.38242826344737, 0.212955186974707, 0.31048766898761, -1.33, 0.73, -0.764], a = 0.2, v = 0.2, t = 0.2)
movej(p[0.382392010296584, 0.212911323996521, 0.311028181705501, -1.33, 0.73, -0.764], a = 0.2, v = 0.2, t = 0.2)
movej(p[0.382367256765294, 0.212881374500284, 0.311397241999171, -1.33, 0.73, -0.764], a = 0.2, v = 0.2, t = 0.2)
movej(p[0.382360783226593, 0.212873542113839, 0.311493758575568, -1.33, 0.73, -0.764], a = 0.2, v = 0.2, t = 0.2)
movej(p[0.382383065406943, 0.212900501502731, 0.311161544641047, -1.33, 0.73, -0.764], a = 0.2, v = 0.2, t = 0.2)
movej(p[0.382424147864291, 0.212950207497698, 0.310549029861011, -1.33, 0.73, -0.764], a = 0.2, v = 0.2, t = 0.2)
movej(p[0.382474295276914, 0.213010881254828, 0.309801362038912, -1.33, 0.73, -0.764], a = 0.2, v = 0.2, t = 0.2)
movej(p[0.382516178171814, 0.213061555705615, 0.309176913215427, -1.33, 0.73, -0.764], a = 0.2, v = 0.2, t = 0.2)
movej(p[0.382551644225674, 0.213104466368911, 0.30864813564026, -1.33, 0.73, -0.764], a = 0.2, v = 0.2, t = 0.2)
movej(p[0.382538517049824, 0.213088583693461, 0.308843853952829, -1.33, 0.73, -0.764], a = 0.2, v = 0.2, t = 0.2)
movej(p[0.382492912120307, 0.213033405923111, 0.309523796078353, -1.33, 0.73, -0.764], a = 0.2, v = 0.2, t = 0.2)
movej(p[0.3824181179014, 0.212942911797187, 0.31063893298833, -1.33, 0.73, -0.764], a = 0.2, v = 0.2, t = 0.2)
movej(p[0.382358407928158, 0.212870668221193, 0.311529172849504, -1.33, 0.73, -0.764], a = 0.2, v = 0.2, t = 0.2)
movej(p[0.382315405087717, 0.212818638739304, 0.312170319388782, -1.33, 0.73, -0.764], a = 0.2, v = 0.2, t = 0.2)
movej(p[0.382295516349053, 0.212794575194724, 0.312466848544381, -1.33, 0.73, -0.764], a = 0.2, v = 0.2, t = 0.2)
movej(p[0.382297799530467, 0.212797337634246, 0.312432807679946, -1.33, 0.73, -0.764], a = 0.2, v = 0.2, t = 0.2)
movej(p[0.38231848076901, 0.212822360030793, 0.312124462826828, -1.33, 0.73, -0.764], a = 0.2, v = 0.2, t = 0.2)
movej(p[0.382362123292461, 0.212875163470291, 0.311473778997826, -1.33, 0.73, -0.764], a = 0.2, v = 0.2, t = 0.2)
movej(p[0.382419271865538, 0.212944307987661, 0.31062172807569, -1.33, 0.73, -0.764], a = 0.2, v = 0.2, t = 0.2)
movej(p[0.38247917794598, 0.213016788835331, 0.309728564373871, -1.33, 0.73, -0.764], a = 0.2, v = 0.2, t = 0.2)
movej(p[0.382523141978515, 0.21306998127125, 0.309073087037418, -1.33, 0.73, -0.764], a = 0.2, v = 0.2, t = 0.2)
movej(p[0.382549469703658, 0.213101835397266, 0.308680556458297, -1.33, 0.73, -0.764], a = 0.2, v = 0.2, t = 0.2)
movej(p[0.382552464674165, 0.213105459036126, 0.308635903245724, -1.33, 0.73, -0.764], a = 0.2, v = 0.2, t = 0.2)
movej(p[0.382524876259878, 0.213072079592194, 0.309047229943277, -1.33, 0.73, -0.764], a = 0.2, v = 0.2, t = 0.2)
movej(p[0.382457959680544, 0.212991116685633, 0.31004491597564, -1.33, 0.73, -0.764], a = 0.2, v = 0.2, t = 0.2)
movej(p[0.382385279950836, 0.212903180897167, 0.311128527120838, -1.33, 0.73, -0.764], a = 0.2, v = 0.2, t = 0.2)
movej(p[0.382335684173093, 0.212843174567507, 0.311867970397993, -1.33, 0.73, -0.764], a = 0.2, v = 0.2, t = 0.2)
movej(p[0.382307631505026, 0.212809233419198, 0.312286218840747, -1.33, 0.73, -0.764], a = 0.2, v = 0.2, t = 0.2)
movej(p[0.382296607011921, 0.212795894796483, 0.312450587415678, -1.33, 0.73, -0.764], a = 0.2, v = 0.2, t = 0.2)
movej(p[0.38230003898331, 0.21280004716622, 0.312399418782249, -1.33, 0.73, -0.764], a = 0.2, v = 0.2, t = 0.2)
movej(p[0.382322913191953, 0.212827722854897, 0.312058378061227, -1.33, 0.73, -0.764], a = 0.2, v = 0.2, t = 0.2)
movej(p[0.382362208005435, 0.212875265965199, 0.311472515978228, -1.33, 0.73, -0.764], a = 0.2, v = 0.2, t = 0.2)
movej(p[0.382414315823029, 0.212938311632041, 0.310695619694714, -1.33, 0.73, -0.764], a = 0.2, v = 0.2, t = 0.2)
movej(p[0.382476229667664, 0.213013221689727, 0.309772521433909, -1.33, 0.73, -0.764], a = 0.2, v = 0.2, t = 0.2)
movej(p[0.382518552803218, 0.213064428791215, 0.309141508886527, -1.33, 0.73, -0.764], a = 0.2, v = 0.2, t = 0.2)
movej(p[0.382535568771508, 0.213085016547857, 0.308887811012867, -1.33, 0.73, -0.764], a = 0.2, v = 0.2, t = 0.2)
movej(p[0.382518412726647, 0.213064259311446, 0.309143597344131, -1.33, 0.73, -0.764], a = 0.2, v = 0.2, t = 0.2)
movej(p[0.382479931691342, 0.213017700797895, 0.309717326482956, -1.33, 0.73, -0.764], a = 0.2, v = 0.2, t = 0.2)
movej(p[0.382418878317075, 0.212943831830216, 0.310627595647053, -1.33, 0.73, -0.764], a = 0.2, v = 0.2, t = 0.2)
movej(p[0.382355342919366, 0.212866959842449, 0.311574870290878, -1.33, 0.73, -0.764], a = 0.2, v = 0.2, t = 0.2)
movej(p[0.382306789711534, 0.212808214926494, 0.312298769476441, -1.33, 0.73, -0.764], a = 0.2, v = 0.2, t = 0.2)
movej(p[0.382293621313149, 0.21279228237557, 0.312495102392248, -1.33, 0.73, -0.764], a = 0.2, v = 0.2, t = 0.2)
movej(p[0.382281086327681, 0.212777116196017, 0.312681991501671, -1.33, 0.73, -0.764], a = 0.2, v = 0.2, t = 0.2)
movej(p[0.382278187409681, 0.212773608771856, 0.31272521262903, -1.33, 0.73, -0.764], a = 0.2, v = 0.2, t = 0.2)
movej(p[0.382275036353852, 0.21276979628411, 0.312772192980075, -1.33, 0.73, -0.764], a = 0.2, v = 0.2, t = 0.2)
movej(p[0.382280195173874, 0.212776037981871, 0.312695278070045, -1.33, 0.73, -0.764], a = 0.2, v = 0.2, t = 0.2)
movej(p[0.382289925159348, 0.212787810369411, 0.312550209826882, -1.33, 0.73, -0.764], a = 0.2, v = 0.2, t = 0.2)
movej(p[0.382321911977982, 0.212826511478075, 0.312073305560575, -1.33, 0.73, -0.764], a = 0.2, v = 0.2, t = 0.2)
movej(p[0.38237723555344, 0.212893447916175, 0.311248464257503, -1.33, 0.73, -0.764], a = 0.2, v = 0.2, t = 0.2)
movej(p[0.38243420002588, 0.212962369688706, 0.31039915816536, -1.33, 0.73, -0.764], a = 0.2, v = 0.2, t = 0.2)
movej(p[0.382485861599538, 0.213024875441429, 0.309628915111069, -1.33, 0.73, -0.764], a = 0.2, v = 0.2, t = 0.2)
movej(p[0.382526930716261, 0.213074565295465, 0.309016599231758, -1.33, 0.73, -0.764], a = 0.2, v = 0.2, t = 0.2)
movej(p[0.382566639089145, 0.213122608774608, 0.30842457122631, -1.33, 0.73, -0.764], a = 0.2, v = 0.2, t = 0.2)
movej(p[0.382564938159347, 0.21312055080599, 0.308449931068639, -1.33, 0.73, -0.764], a = 0.2, v = 0.2, t = 0.2)
movej(p[0.382527784516316, 0.213075598315007, 0.309003869585412, -1.33, 0.73, -0.764], a = 0.2, v = 0.2, t = 0.2)
movej(p[0.382456485541386, 0.212989333112831, 0.310066894505659, -1.33, 0.73, -0.764], a = 0.2, v = 0.2, t = 0.2)
movej(p[0.382386707397804, 0.212904907976713, 0.311107244743353, -1.33, 0.73, -0.764], a = 0.2, v = 0.2, t = 0.2)
movej(p[0.382324234580945, 0.212829321614047, 0.3120386769445, -1.33, 0.73, -0.764], a = 0.2, v = 0.2, t = 0.2)
movej(p[0.382287862031558, 0.212785314174535, 0.312580969823873, -1.33, 0.73, -0.764], a = 0.2, v = 0.2, t = 0.2)
movej(p[0.3822769387271, 0.212772097980776, 0.312743829736811, -1.33, 0.73, -0.764], a = 0.2, v = 0.2, t = 0.2)
movej(p[0.382276515162229, 0.212771585506238, 0.312750144834803, -1.33, 0.73, -0.764], a = 0.2, v = 0.2, t = 0.2)
movej(p[0.382275446578097, 0.212770292617718, 0.312766076782808, -1.33, 0.73, -0.764], a = 0.2, v = 0.2, t = 0.2)
movej(p[0.382277175523209, 0.21277238448229, 0.312740299248957, -1.33, 0.73, -0.764], a = 0.2, v = 0.2, t = 0.2)
movej(p[0.382292886778289, 0.212791393655945, 0.31250605386612, -1.33, 0.73, -0.764], a = 0.2, v = 0.2, t = 0.2)
movej(p[0.382324273935791, 0.212829369229791, 0.312038090187363, -1.33, 0.73, -0.764], a = 0.2, v = 0.2, t = 0.2)
movej(p[0.382373993781355, 0.212889525670104, 0.311296797133473, -1.33, 0.73, -0.764], a = 0.2, v = 0.2, t = 0.2)
movej(p[0.38243363304928, 0.212961683699167, 0.310407611446137, -1.33, 0.73, -0.764], a = 0.2, v = 0.2, t = 0.2)
movej(p[0.382488082813745, 0.213027562906329, 0.309595798140498, -1.33, 0.73, -0.764], a = 0.2, v = 0.2, t = 0.2)
movej(p[0.382521894629997, 0.213068472094264, 0.309091684255126, -1.33, 0.73, -0.764], a = 0.2, v = 0.2, t = 0.2)
movej(p[0.38253332087605, 0.213082296801096, 0.308921325784887, -1.33, 0.73, -0.764], a = 0.2, v = 0.2, t = 0.2)
movej(p[0.382531760022824, 0.213080408312246, 0.308944597169613, -1.33, 0.73, -0.764], a = 0.2, v = 0.2, t = 0.2)
movej(p[0.382491538035843, 0.213031743407286, 0.309544282852941, -1.33, 0.73, -0.764], a = 0.2, v = 0.2, t = 0.2)
movej(p[0.382427656448893, 0.212954452562377, 0.310496718970559, -1.33, 0.73, -0.764], a = 0.2, v = 0.2, t = 0.2)
movej(p[0.382354929359964, 0.212866459473608, 0.311581036213327, -1.33, 0.73, -0.764], a = 0.2, v = 0.2, t = 0.2)
movej(p[0.382314240451079, 0.212817229636086, 0.312187683422, -1.33, 0.73, -0.764], a = 0.2, v = 0.2, t = 0.2)
movej(p[0.38228567617001, 0.212782669483099, 0.312613559707525, -1.33, 0.73, -0.764], a = 0.2, v = 0.2, t = 0.2)
movej(p[0.382276058245793, 0.212771032679374, 0.312756957184605, -1.33, 0.73, -0.764], a = 0.2, v = 0.2, t = 0.2)
movej(p[0.382269994931338, 0.212763696626537, 0.312847357563734, -1.33, 0.73, -0.764], a = 0.2, v = 0.2, t = 0.2)
movej(p[0.382272411585713, 0.212766620556067, 0.312811326697553, -1.33, 0.73, -0.764], a = 0.2, v = 0.2, t = 0.2)
movej(p[0.382273956430188, 0.2127684896758, 0.312788293993696, -1.33, 0.73, -0.764], a = 0.2, v = 0.2, t = 0.2)
movej(p[0.382292205072308, 0.212790568854405, 0.312516217693124, -1.33, 0.73, -0.764], a = 0.2, v = 0.2, t = 0.2)
movej(p[0.382333939886261, 0.212841064140866, 0.311893976667677, -1.33, 0.73, -0.764], a = 0.2, v = 0.2, t = 0.2)
movej(p[0.382380317238015, 0.212897176471082, 0.311202518190223, -1.33, 0.73, -0.764], a = 0.2, v = 0.2, t = 0.2)
movej(p[0.382430237859998, 0.212957575832396, 0.310458231680435, -1.33, 0.73, -0.764], a = 0.2, v = 0.2, t = 0.2)
movej(p[0.382479391395994, 0.213017047090216, 0.309725381962285, -1.33, 0.73, -0.764], a = 0.2, v = 0.2, t = 0.2)
movej(p[0.382522795122243, 0.213069561607061, 0.309078258456246, -1.33, 0.73, -0.764], a = 0.2, v = 0.2, t = 0.2)
movej(p[0.3825396910249, 0.213090004095331, 0.308826350689103, -1.33, 0.73, -0.764], a = 0.2, v = 0.2, t = 0.2)
movej(p[0.382525263138028, 0.213072547679173, 0.309041461822277, -1.33, 0.73, -0.764], a = 0.2, v = 0.2, t = 0.2)
movej(p[0.382486168433933, 0.213025246682826, 0.309624340394414, -1.33, 0.73, -0.764], a = 0.2, v = 0.2, t = 0.2)
movej(p[0.382419218503034, 0.21294424342394, 0.310622523678587, -1.33, 0.73, -0.764], a = 0.2, v = 0.2, t = 0.2)
movej(p[0.382349823902446, 0.212860282339569, 0.311657155520461, -1.33, 0.73, -0.764], a = 0.2, v = 0.2, t = 0.2)
movej(p[0.382302219146409, 0.212802684963057, 0.31236691385904, -1.33, 0.73, -0.764], a = 0.2, v = 0.2, t = 0.2)
movej(p[0.382285200576698, 0.212782094058933, 0.312620650518342, -1.33, 0.73, -0.764], a = 0.2, v = 0.2, t = 0.2)
movej(p[0.382277661789022, 0.2127729728192, 0.312733049317562, -1.33, 0.73, -0.764], a = 0.2, v = 0.2, t = 0.2)
movej(p[0.382281875425701, 0.212778070932047, 0.312670226523837, -1.33, 0.73, -0.764], a = 0.2, v = 0.2, t = 0.2)
movej(p[0.38230362491486, 0.212804385813591, 0.312345954695233, -1.33, 0.73, -0.764], a = 0.2, v = 0.2, t = 0.2)
movej(p[0.382344578368356, 0.212853935725761, 0.311735363285199, -1.33, 0.73, -0.764], a = 0.2, v = 0.2, t = 0.2)
movej(p[0.38239557224369, 0.212915633624921, 0.310975075212152, -1.33, 0.73, -0.764], a = 0.2, v = 0.2, t = 0.2)
movej(p[0.382449495053433, 0.212980875265335, 0.310171118485117, -1.33, 0.73, -0.764], a = 0.2, v = 0.2, t = 0.2)
movej(p[0.382505472319558, 0.213048602609021, 0.309336531046561, -1.33, 0.73, -0.764], a = 0.2, v = 0.2, t = 0.2)
movej(p[0.382532913986961, 0.21308180450272, 0.308927392256974, -1.33, 0.73, -0.764], a = 0.2, v = 0.2, t = 0.2)
movej(p[0.382527664450683, 0.213075453046634, 0.309005659691929, -1.33, 0.73, -0.764], a = 0.2, v = 0.2, t = 0.2)
movej(p[0.382484047274421, 0.213022680274903, 0.309655965609555, -1.33, 0.73, -0.764], a = 0.2, v = 0.2, t = 0.2)
movej(p[0.382424067820536, 0.212950110652116, 0.310550223265356, -1.33, 0.73, -0.764], a = 0.2, v = 0.2, t = 0.2)
movej(p[0.382355655757042, 0.212867338347265, 0.311570206068897, -1.33, 0.73, -0.764], a = 0.2, v = 0.2, t = 0.2)
movej(p[0.382306095331957, 0.21280737479107, 0.312309122259133, -1.33, 0.73, -0.764], a = 0.2, v = 0.2, t = 0.2)
movej(p[0.382287807334992, 0.21278524799672, 0.312581785316842, -1.33, 0.73, -0.764], a = 0.2, v = 0.2, t = 0.2)
movej(p[0.382281439187235, 0.212777543123625, 0.312676730577517, -1.33, 0.73, -0.764], a = 0.2, v = 0.2, t = 0.2)
movej(p[0.382278552275798, 0.2127740502263, 0.312719772694224, -1.33, 0.73, -0.764], a = 0.2, v = 0.2, t = 0.2)
movej(p[0.382285812911425, 0.212782834927635, 0.312611520975103, -1.33, 0.73, -0.764], a = 0.2, v = 0.2, t = 0.2)
movej(p[0.382314401872652, 0.212817424941343, 0.312185276723238, -1.33, 0.73, -0.764], a = 0.2, v = 0.2, t = 0.2)
movej(p[0.382359768004965, 0.212872313789041, 0.311508894920676, -1.33, 0.73, -0.764], a = 0.2, v = 0.2, t = 0.2)
movej(p[0.38241918515147, 0.212944203071614, 0.310623020930397, -1.33, 0.73, -0.764], a = 0.2, v = 0.2, t = 0.2)
movej(p[0.382478297464673, 0.213015723533929, 0.309741691821665, -1.33, 0.73, -0.764], a = 0.2, v = 0.2, t = 0.2)
movej(p[0.382524282602027, 0.213071361320794, 0.309056081025502, -1.33, 0.73, -0.764], a = 0.2, v = 0.2, t = 0.2)
movej(p[0.382545260736198, 0.213096742933746, 0.308743309636768, -1.33, 0.73, -0.764], a = 0.2, v = 0.2, t = 0.2)
movej(p[0.382533127436975, 0.213082062757606, 0.308924209845387, -1.33, 0.73, -0.764], a = 0.2, v = 0.2, t = 0.2)
movej(p[0.382495173356391, 0.213036141810802, 0.309490082405609, -1.33, 0.73, -0.764], a = 0.2, v = 0.2, t = 0.2)
movej(p[0.382422066726656, 0.212947689512566, 0.31058005837398, -1.33, 0.73, -0.764], a = 0.2, v = 0.2, t = 0.2)
movej(p[0.382353261781731, 0.212864441857316, 0.311605898803846, -1.33, 0.73, -0.764], a = 0.2, v = 0.2, t = 0.2)
movej(p[0.382305139209302, 0.212806217970593, 0.312323377474034, -1.33, 0.73, -0.764], a = 0.2, v = 0.2, t = 0.2)
movej(p[0.382288085487041, 0.212785584535118, 0.312577638236743, -1.33, 0.73, -0.764], a = 0.2, v = 0.2, t = 0.2)
movej(p[0.382282312998229, 0.212778600354562, 0.312663702580085, -1.33, 0.73, -0.764], a = 0.2, v = 0.2, t = 0.2)
movej(p[0.382280355261384, 0.212776231673035, 0.312692891261355, -1.33, 0.73, -0.764], a = 0.2, v = 0.2, t = 0.2)
movej(p[0.382286272495986, 0.212783390982685, 0.312604668845156, -1.33, 0.73, -0.764], a = 0.2, v = 0.2, t = 0.2)
movej(p[0.382286677383981, 0.212783880859921, 0.312598632208178, -1.33, 0.73, -0.764], a = 0.2, v = 0.2, t = 0.2)
movej(p[0.382304766005293, 0.212805766428067, 0.312328941721792, -1.33, 0.73, -0.764], a = 0.2, v = 0.2, t = 0.2)
movej(p[0.382339238782854, 0.212847475318395, 0.311814973300042, -1.33, 0.73, -0.764], a = 0.2, v = 0.2, t = 0.2)
movej(p[0.382388621777615, 0.212907224200216, 0.311078702489437, -1.33, 0.73, -0.764], a = 0.2, v = 0.2, t = 0.2)
movej(p[0.382434767002479, 0.212963055678245, 0.310390704884584, -1.33, 0.73, -0.764], a = 0.2, v = 0.2, t = 0.2)
movej(p[0.382478210750605, 0.213015618617881, 0.309742984676372, -1.33, 0.73, -0.764], a = 0.2, v = 0.2, t = 0.2)
movej(p[0.382517425520333, 0.213063064882601, 0.309158315997718, -1.33, 0.73, -0.764], a = 0.2, v = 0.2, t = 0.2)
movej(p[0.382531880088456, 0.213080553580619, 0.308942807063096, -1.33, 0.73, -0.764], a = 0.2, v = 0.2, t = 0.2)
movej(p[0.382516431643706, 0.213061862383291, 0.309173134101668, -1.33, 0.73, -0.764], a = 0.2, v = 0.2, t = 0.2)
movej(p[0.382468425401534, 0.213003779245481, 0.30988887835754, -1.33, 0.73, -0.764], a = 0.2, v = 0.2, t = 0.2)
movej(p[0.382410727194672, 0.212933969721781, 0.310749123989512, -1.33, 0.73, -0.764], a = 0.2, v = 0.2, t = 0.2)
movej(p[0.382347449271042, 0.212857409253969, 0.311692559849361, -1.33, 0.73, -0.764], a = 0.2, v = 0.2, t = 0.2)
movej(p[0.382307762243159, 0.212809391600315, 0.31228426961365, -1.33, 0.73, -0.764], a = 0.2, v = 0.2, t = 0.2)
movej(p[0.382289841780436, 0.212787709488596, 0.312551452956408, -1.33, 0.73, -0.764], a = 0.2, v = 0.2, t = 0.2)
movej(p[0.382281510559584, 0.212777629477602, 0.312675666458643, -1.33, 0.73, -0.764], a = 0.2, v = 0.2, t = 0.2)
movej(p[0.382277236890088, 0.212772458730569, 0.312739384305626, -1.33, 0.73, -0.764], a = 0.2, v = 0.2, t = 0.2)
movej(p[0.382279410078041, 0.212775088088121, 0.312706983377661, -1.33, 0.73, -0.764], a = 0.2, v = 0.2, t = 0.2)
movej(p[0.382289825104653, 0.212787689312433, 0.312551701582313, -1.33, 0.73, -0.764], a = 0.2, v = 0.2, t = 0.2)
movej(p[0.382313190543823, 0.212815959344869, 0.312203336908991, -1.33, 0.73, -0.764], a = 0.2, v = 0.2, t = 0.2)
movej(p[0.382354899343556, 0.212866423156515, 0.311581483739956, -1.33, 0.73, -0.764], a = 0.2, v = 0.2, t = 0.2)
movej(p[0.382411447588468, 0.212934841332019, 0.310738383350407, -1.33, 0.73, -0.764], a = 0.2, v = 0.2, t = 0.2)
movej(p[0.382453917470907, 0.212986225983741, 0.310105182895059, -1.33, 0.73, -0.764], a = 0.2, v = 0.2, t = 0.2)
movej(p[0.382490457445148, 0.213030435991929, 0.309560393811598, -1.33, 0.73, -0.764], a = 0.2, v = 0.2, t = 0.2)
movej(p[0.38251812590319, 0.213063912281444, 0.3091478737097, -1.33, 0.73, -0.764], a = 0.2, v = 0.2, t = 0.2)
movej(p[0.38252765778037, 0.213075444976168, 0.309005759142291, -1.33, 0.73, -0.764], a = 0.2, v = 0.2, t = 0.2)
movej(p[0.382497894844068, 0.213039434560591, 0.309449506657881, -1.33, 0.73, -0.764], a = 0.2, v = 0.2, t = 0.2)
movej(p[0.382438048796441, 0.212967026347108, 0.310341775306442, -1.33, 0.73, -0.764], a = 0.2, v = 0.2, t = 0.2)
movej(p[0.382376148292432, 0.212892132430353, 0.311264674666522, -1.33, 0.73, -0.764], a = 0.2, v = 0.2, t = 0.2)
movej(p[0.382327076134254, 0.212832759632208, 0.311996311090255, -1.33, 0.73, -0.764], a = 0.2, v = 0.2, t = 0.2)
movej(p[0.38229797395915, 0.21279754867691, 0.312430207052977, -1.33, 0.73, -0.764], a = 0.2, v = 0.2, t = 0.2)
movej(p[0.382280550034521, 0.212776467330618, 0.312689987310782, -1.33, 0.73, -0.764], a = 0.2, v = 0.2, t = 0.2)
movej(p[0.38228265385122, 0.212779012755332, 0.312658620666583, -1.33, 0.73, -0.764], a = 0.2, v = 0.2, t = 0.2)
movej(p[0.382291826865564, 0.21279011125903, 0.312521856528654, -1.33, 0.73, -0.764], a = 0.2, v = 0.2, t = 0.2)
movej(p[0.382328981175627, 0.21283506455706, 0.311967908066845, -1.33, 0.73, -0.764], a = 0.2, v = 0.2, t = 0.2)
movej(p[0.382385239928959, 0.212903132474376, 0.31112912382301, -1.33, 0.73, -0.764], a = 0.2, v = 0.2, t = 0.2)
movej(p[0.38244250456548, 0.212972417417839, 0.310275342464574, -1.33, 0.73, -0.764], a = 0.2, v = 0.2, t = 0.2)
movej(p[0.382491904903055, 0.21303218728287, 0.309538813083027, -1.33, 0.73, -0.764], a = 0.2, v = 0.2, t = 0.2)
movej(p[0.382534588235507, 0.213083830189477, 0.308902430216092, -1.33, 0.73, -0.764], a = 0.2, v = 0.2, t = 0.2)
movej(p[0.38256544510313, 0.213121164161343, 0.308442372841121, -1.33, 0.73, -0.764], a = 0.2, v = 0.2, t = 0.2)
movej(p[0.3825599621059, 0.213114530238975, 0.308524121038749, -1.33, 0.73, -0.764], a = 0.2, v = 0.2, t = 0.2)
movej(p[0.382516865214046, 0.213062386963527, 0.309166669828133, -1.33, 0.73, -0.764], a = 0.2, v = 0.2, t = 0.2)
movej(p[0.382449014790902, 0.212980294191843, 0.310178278911186, -1.33, 0.73, -0.764], a = 0.2, v = 0.2, t = 0.2)
movej(p[0.382380764148981, 0.212897717192249, 0.311195855015964, -1.33, 0.73, -0.764], a = 0.2, v = 0.2, t = 0.2)
movej(p[0.382322630370685, 0.212827380667174, 0.312062594756579, -1.33, 0.73, -0.764], a = 0.2, v = 0.2, t = 0.2)
movej(p[0.382291756160247, 0.212790025712099, 0.312522910702492, -1.33, 0.73, -0.764], a = 0.2, v = 0.2, t = 0.2)
movej(p[0.382281908777266, 0.212778111284373, 0.312669729272027, -1.33, 0.73, -0.764], a = 0.2, v = 0.2, t = 0.2)
movej(p[0.38227915660615, 0.212774781410444, 0.31271076249142, -1.33, 0.73, -0.764], a = 0.2, v = 0.2, t = 0.2)
movej(p[0.38227826945453, 0.212773708038577, 0.312723989389576, -1.33, 0.73, -0.764], a = 0.2, v = 0.2, t = 0.2)
movej(p[0.382286575328193, 0.212783757381804, 0.312600153798717, -1.33, 0.73, -0.764], a = 0.2, v = 0.2, t = 0.2)
movej(p[0.382318450752601, 0.2128223237137, 0.312124910353457, -1.33, 0.73, -0.764], a = 0.2, v = 0.2, t = 0.2)
movej(p[0.382359249054619, 0.212871685906851, 0.311516632158846, -1.33, 0.73, -0.764], a = 0.2, v = 0.2, t = 0.2)
movej(p[0.382415256337153, 0.21293944956763, 0.310681597193661, -1.33, 0.73, -0.764], a = 0.2, v = 0.2, t = 0.2)
movej(p[0.382471907304884, 0.213007992028298, 0.309836965268536, -1.33, 0.73, -0.764], a = 0.2, v = 0.2, t = 0.2)
movej(p[0.382517792387544, 0.213063508758186, 0.309152846227804, -1.33, 0.73, -0.764], a = 0.2, v = 0.2, t = 0.2)
movej(p[0.382547515301969, 0.213099470750972, 0.308709695414386, -1.33, 0.73, -0.764], a = 0.2, v = 0.2, t = 0.2)
movej(p[0.382551090589701, 0.213103796520302, 0.308656390020312, -1.33, 0.73, -0.764], a = 0.2, v = 0.2, t = 0.2)
movej(p[0.382523275384774, 0.213070142680553, 0.309071098030176, -1.33, 0.73, -0.764], a = 0.2, v = 0.2, t = 0.2)
movej(p[0.382455665092895, 0.212988340445615, 0.310079126900195, -1.33, 0.73, -0.764], a = 0.2, v = 0.2, t = 0.2)
movej(p[0.382376021556486, 0.212891979091515, 0.311266564223401, -1.33, 0.73, -0.764], a = 0.2, v = 0.2, t = 0.2)
movej(p[0.382314071692161, 0.212817025453317, 0.312190199516161, -1.33, 0.73, -0.764], a = 0.2, v = 0.2, t = 0.2)
movej(p[0.38228805947282, 0.212785553060304, 0.312578026093155, -1.33, 0.73, -0.764], a = 0.2, v = 0.2, t = 0.2)
movej(p[0.382274997666037, 0.212769749475412, 0.312772769792175, -1.33, 0.73, -0.764], a = 0.2, v = 0.2, t = 0.2)
movej(p[0.382280023746831, 0.212775830570916, 0.31269783394435, -1.33, 0.73, -0.764], a = 0.2, v = 0.2, t = 0.2)
movej(p[0.382301316786476, 0.212801593190529, 0.312380367504022, -1.33, 0.73, -0.764], a = 0.2, v = 0.2, t = 0.2)
movej(p[0.382340516814812, 0.212849021619521, 0.311795918610668, -1.33, 0.73, -0.764], a = 0.2, v = 0.2, t = 0.2)
movej(p[0.382397033042222, 0.212917401056792, 0.310953295582857, -1.33, 0.73, -0.764], a = 0.2, v = 0.2, t = 0.2)
movej(p[0.382459767335348, 0.212993303781693, 0.310017964927517, -1.33, 0.73, -0.764], a = 0.2, v = 0.2, t = 0.2)
movej(p[0.382518446078211, 0.213064299663772, 0.30914310009232, -1.33, 0.73, -0.764], a = 0.2, v = 0.2, t = 0.2)
movej(p[0.382553111694519, 0.213106241871248, 0.308626256560603, -1.33, 0.73, -0.764], a = 0.2, v = 0.2, t = 0.2)
movej(p[0.382560242259043, 0.213114869198512, 0.308519944123542, -1.33, 0.73, -0.764], a = 0.2, v = 0.2, t = 0.2)
movej(p[0.382544160134564, 0.213095411306993, 0.308759718946511, -1.33, 0.73, -0.764], a = 0.2, v = 0.2, t = 0.2)
movej(p[0.382484367449441, 0.213023067657231, 0.309651191992175, -1.33, 0.73, -0.764], a = 0.2, v = 0.2, t = 0.2)
movej(p[0.382411440918155, 0.212934833261554, 0.310738482800769, -1.33, 0.73, -0.764], a = 0.2, v = 0.2, t = 0.2)
movej(p[0.382344082764105, 0.212853336090199, 0.311742752447101, -1.33, 0.73, -0.764], a = 0.2, v = 0.2, t = 0.2)
movej(p[0.38230796368661, 0.212809635328364, 0.312281266212716, -1.33, 0.73, -0.764], a = 0.2, v = 0.2, t = 0.2)
movej(p[0.382288191545016, 0.212785712855514, 0.312576056975986, -1.33, 0.73, -0.764], a = 0.2, v = 0.2, t = 0.2)
movej(p[0.38228418068585, 0.212780860084809, 0.312635856478703, -1.33, 0.73, -0.764], a = 0.2, v = 0.2, t = 0.2)
movej(p[0.382298055870593, 0.212797647782222, 0.312428985802531, -1.33, 0.73, -0.764], a = 0.2, v = 0.2, t = 0.2)
movej(p[0.382332668524616, 0.212839525910205, 0.311912931906689, -1.33, 0.73, -0.764], a = 0.2, v = 0.2, t = 0.2)
movej(p[0.382386073718075, 0.212904141282522, 0.31111669252775, -1.33, 0.73, -0.764], a = 0.2, v = 0.2, t = 0.2)
movej(p[0.382447293850165, 0.21297821201183, 0.310203937104602, -1.33, 0.73, -0.764], a = 0.2, v = 0.2, t = 0.2)
movej(p[0.382506346130553, 0.213049659839958, 0.309323503049129, -1.33, 0.73, -0.764], a = 0.2, v = 0.2, t = 0.2)
movej(p[0.382543079543869, 0.213094103891636, 0.308775829905168, -1.33, 0.73, -0.764], a = 0.2, v = 0.2, t = 0.2)
movej(p[0.382560042149655, 0.213114627084557, 0.308522927634404, -1.33, 0.73, -0.764], a = 0.2, v = 0.2, t = 0.2)
movej(p[0.382548675936419, 0.213100875011911, 0.308692391051385, -1.33, 0.73, -0.764], a = 0.2, v = 0.2, t = 0.2)
movej(p[0.382508947552596, 0.213052807321373, 0.309284717407919, -1.33, 0.73, -0.764], a = 0.2, v = 0.2, t = 0.2)
movej(p[0.382434780343105, 0.212963071819175, 0.31039050598386, -1.33, 0.73, -0.764], a = 0.2, v = 0.2, t = 0.2)
movej(p[0.382360493067981, 0.212873191048604, 0.311498084666318, -1.33, 0.73, -0.764], a = 0.2, v = 0.2, t = 0.2)
movej(p[0.382313883589337, 0.2128167978662, 0.312193004016372, -1.33, 0.73, -0.764], a = 0.2, v = 0.2, t = 0.2)
movej(p[0.382287212343078, 0.212784528111227, 0.312590656289139, -1.33, 0.73, -0.764], a = 0.2, v = 0.2, t = 0.2)
movej(p[0.38227701610273, 0.212772191598172, 0.312742676112611, -1.33, 0.73, -0.764], a = 0.2, v = 0.2, t = 0.2)
movej(p[0.382275797436557, 0.212770717124186, 0.312760845693762, -1.33, 0.73, -0.764], a = 0.2, v = 0.2, t = 0.2)
movej(p[0.382280370603104, 0.212776250235105, 0.312692662525522, -1.33, 0.73, -0.764], a = 0.2, v = 0.2, t = 0.2)
movej(p[0.382297236355946, 0.212796656244872, 0.312441204274016, -1.33, 0.73, -0.764], a = 0.2, v = 0.2, t = 0.2)
movej(p[0.382336099733588, 0.212843677357487, 0.311861774640436, -1.33, 0.73, -0.764], a = 0.2, v = 0.2, t = 0.2)
movej(p[0.382395332112425, 0.212915343088175, 0.310978655425187, -1.33, 0.73, -0.764], a = 0.2, v = 0.2, t = 0.2)
movej(p[0.382447767442383, 0.212978785014857, 0.310196876128895, -1.33, 0.73, -0.764], a = 0.2, v = 0.2, t = 0.2)
movej(p[0.382492712010919, 0.213033163809156, 0.309526779589216, -1.33, 0.73, -0.764], a = 0.2, v = 0.2, t = 0.2)
movej(p[0.382530552696183, 0.213078947558051, 0.308962597685149, -1.33, 0.73, -0.764], a = 0.2, v = 0.2, t = 0.2)
movej(p[0.382556807047883, 0.213110712908951, 0.308571161060012, -1.33, 0.73, -0.764], a = 0.2, v = 0.2, t = 0.2)
movej(p[0.382548302398895, 0.213100423065862, 0.308697960271661, -1.33, 0.73, -0.764], a = 0.2, v = 0.2, t = 0.2)
movej(p[0.382507466743125, 0.213051015678106, 0.3093067953883, -1.33, 0.73, -0.764], a = 0.2, v = 0.2, t = 0.2)
movej(p[0.382448434473677, 0.212979592061373, 0.310186931092687, -1.33, 0.73, -0.764], a = 0.2, v = 0.2, t = 0.2)
movej(p[0.382381597938098, 0.212898726000395, 0.311183423720705, -1.33, 0.73, -0.764], a = 0.2, v = 0.2, t = 0.2)
movej(p[0.382326328392174, 0.212831854933063, 0.312007459475843, -1.33, 0.73, -0.764], a = 0.2, v = 0.2, t = 0.2)
movej(p[0.382287064262131, 0.212784348946901, 0.312592864087177, -1.33, 0.73, -0.764], a = 0.2, v = 0.2, t = 0.2)
movej(p[0.382277916594976, 0.21277328111097, 0.31272925031373, -1.33, 0.73, -0.764], a = 0.2, v = 0.2, t = 0.2)
movej(p[0.382272038048189, 0.212766168610018, 0.312816895917829, -1.33, 0.73, -0.764], a = 0.2, v = 0.2, t = 0.2)
movej(p[0.382274974319942, 0.212769721228784, 0.312773117868443, -1.33, 0.73, -0.764], a = 0.2, v = 0.2, t = 0.2)
movej(p[0.382290592190641, 0.212788617415928, 0.312540264790674, -1.33, 0.73, -0.764], a = 0.2, v = 0.2, t = 0.2)
movej(p[0.382320981469328, 0.212825385648185, 0.312087178886085, -1.33, 0.73, -0.764], a = 0.2, v = 0.2, t = 0.2)
movej(p[0.382366736480885, 0.212880745004001, 0.311404999127413, -1.33, 0.73, -0.764], a = 0.2, v = 0.2, t = 0.2)
movej(p[0.382423047262657, 0.212948875870946, 0.310565439170754, -1.33, 0.73, -0.764], a = 0.2, v = 0.2, t = 0.2)
movej(p[0.382476656567692, 0.213013738199497, 0.309766156610736, -1.33, 0.73, -0.764], a = 0.2, v = 0.2, t = 0.2)
movej(p[0.382515424426453, 0.213060643743051, 0.309188151106341, -1.33, 0.73, -0.764], a = 0.2, v = 0.2, t = 0.2)
movej(p[0.38253591562778, 0.213085436212046, 0.308882639594039, -1.33, 0.73, -0.764], a = 0.2, v = 0.2, t = 0.2)
movej(p[0.382531413166551, 0.213079988648058, 0.308949768588441, -1.33, 0.73, -0.764], a = 0.2, v = 0.2, t = 0.2)
movej(p[0.382499368983226, 0.213041218133393, 0.309427528127862, -1.33, 0.73, -0.764], a = 0.2, v = 0.2, t = 0.2)
movej(p[0.3824358609338, 0.212964379234533, 0.310374395025203, -1.33, 0.73, -0.764], a = 0.2, v = 0.2, t = 0.2)
movej(p[0.382371318985869, 0.212886289413571, 0.311336676728666, -1.33, 0.73, -0.764], a = 0.2, v = 0.2, t = 0.2)
movej(p[0.382323095291496, 0.212827943178596, 0.312055663066342, -1.33, 0.73, -0.764], a = 0.2, v = 0.2, t = 0.2)
movej(p[0.382295380474779, 0.212794410799348, 0.312468874348257, -1.33, 0.73, -0.764], a = 0.2, v = 0.2, t = 0.2)
movej(p[0.382283022719525, 0.212779459052056, 0.31265312106156, -1.33, 0.73, -0.764], a = 0.2, v = 0.2, t = 0.2)
movej(p[0.382281569925369, 0.212777701304742, 0.31267478135042, -1.33, 0.73, -0.764], a = 0.2, v = 0.2, t = 0.2)
movej(p[0.382289744393867, 0.212787591659805, 0.312552904931694, -1.33, 0.73, -0.764], a = 0.2, v = 0.2, t = 0.2)
movej(p[0.382309829373137, 0.212811892637471, 0.312253449946442, -1.33, 0.73, -0.764], a = 0.2, v = 0.2, t = 0.2)
movej(p[0.382356584931634, 0.212868462563063, 0.311556352633459, -1.33, 0.73, -0.764], a = 0.2, v = 0.2, t = 0.2)
movej(p[0.382423407459556, 0.212949311676065, 0.310560068851202, -1.33, 0.73, -0.764], a = 0.2, v = 0.2, t = 0.2)
movej(p[0.382484554218204, 0.213023293630256, 0.309648407382037, -1.33, 0.73, -0.764], a = 0.2, v = 0.2, t = 0.2)
movej(p[0.382534194687044, 0.213083354032033, 0.308908297787455, -1.33, 0.73, -0.764], a = 0.2, v = 0.2, t = 0.2)
movej(p[0.382572482283274, 0.213129678502094, 0.308337452709129, -1.33, 0.73, -0.764], a = 0.2, v = 0.2, t = 0.2)
movej(p[0.382593060198669, 0.213154575887136, 0.30803064834212, -1.33, 0.73, -0.764], a = 0.2, v = 0.2, t = 0.2)
movej(p[0.382567886437663, 0.213124117951594, 0.308405974008601, -1.33, 0.73, -0.764], a = 0.2, v = 0.2, t = 0.2)
movej(p[0.382501109934901, 0.213043324524802, 0.30940157158336, -1.33, 0.73, -0.764], a = 0.2, v = 0.2, t = 0.2)
movej(p[0.382414309152716, 0.212938303561576, 0.310695719145076, -1.33, 0.73, -0.764], a = 0.2, v = 0.2, t = 0.2)
movej(p[0.382343499111724, 0.212852629924497, 0.311751454353783, -1.33, 0.73, -0.764], a = 0.2, v = 0.2, t = 0.2)
movej(p[0.382294573633727, 0.212793434595882, 0.312480903864054, -1.33, 0.73, -0.764], a = 0.2, v = 0.2, t = 0.2)
movej(p[0.382274840246652, 0.212769559012435, 0.312775116820721, -1.33, 0.73, -0.764], a = 0.2, v = 0.2, t = 0.2)
movej(p[0.382273954429094, 0.21276848725466, 0.312788323828804, -1.33, 0.73, -0.764], a = 0.2, v = 0.2, t = 0.2)
movej(p[0.382274914287125, 0.212769648594598, 0.312774012921701, -1.33, 0.73, -0.764], a = 0.2, v = 0.2, t = 0.2)
movej(p[0.382294553489382, 0.212793410223077, 0.312481204204147, -1.33, 0.73, -0.764], a = 0.2, v = 0.2, t = 0.2)
movej(p[0.382332122225987, 0.212838864939107, 0.311921076891343, -1.33, 0.73, -0.764], a = 0.2, v = 0.2, t = 0.2)
movej(p[0.382387687933805, 0.212906094335093, 0.311092625540128, -1.33, 0.73, -0.764], a = 0.2, v = 0.2, t = 0.2)
movej(p[0.382446673511063, 0.212977461458569, 0.310213185988275, -1.33, 0.73, -0.764], a = 0.2, v = 0.2, t = 0.2)
movej(p[0.382502577403746, 0.213045100027138, 0.309379692503703, -1.33, 0.73, -0.764], a = 0.2, v = 0.2, t = 0.2)
movej(p[0.382557374024483, 0.21311139889849, 0.308562707779235, -1.33, 0.73, -0.764], a = 0.2, v = 0.2, t = 0.2)
movej(p[0.382574983650623, 0.213132704926532, 0.30830015882335, -1.33, 0.73, -0.764], a = 0.2, v = 0.2, t = 0.2)
movej(p[0.382564331160871, 0.21311981639366, 0.308458981051588, -1.33, 0.73, -0.764], a = 0.2, v = 0.2, t = 0.2)
movej(p[0.382519019725123, 0.213064993723776, 0.309134547361182, -1.33, 0.73, -0.764], a = 0.2, v = 0.2, t = 0.2)
movej(p[0.382451202653543, 0.212982941304418, 0.310145659192425, -1.33, 0.73, -0.764], a = 0.2, v = 0.2, t = 0.2)
movej(p[0.382376361742446, 0.212892390685238, 0.311261492254935, -1.33, 0.73, -0.764], a = 0.2, v = 0.2, t = 0.2)
movej(p[0.382322713082565, 0.212827480740942, 0.312061361572089, -1.33, 0.73, -0.764], a = 0.2, v = 0.2, t = 0.2)
movej(p[0.382296342867529, 0.212795575206063, 0.312454525650016, -1.33, 0.73, -0.764], a = 0.2, v = 0.2, t = 0.2)
movej(p[0.382282911325299, 0.212779324275287, 0.312654781882607, -1.33, 0.73, -0.764], a = 0.2, v = 0.2, t = 0.2)
movej(p[0.382282712549974, 0.212779083775425, 0.312657745503396, -1.33, 0.73, -0.764], a = 0.2, v = 0.2, t = 0.2)
movej(p[0.382302518309944, 0.212803046923419, 0.312362453510301, -1.33, 0.73, -0.764], a = 0.2, v = 0.2, t = 0.2)
movej(p[0.382343647859702, 0.21285280989587, 0.311749236610709, -1.33, 0.73, -0.764], a = 0.2, v = 0.2, t = 0.2)
movej(p[0.382400868472158, 0.212922041574264, 0.310896111624662, -1.33, 0.73, -0.764], a = 0.2, v = 0.2, t = 0.2)
movej(p[0.382468091885887, 0.213003375722222, 0.309893850875644, -1.33, 0.73, -0.764], a = 0.2, v = 0.2, t = 0.2)
movej(p[0.38253591562778, 0.213085436212046, 0.308882639594039, -1.33, 0.73, -0.764], a = 0.2, v = 0.2, t = 0.2)
movej(p[0.382578825750872, 0.213137353514469, 0.308242875414794, -1.33, 0.73, -0.764], a = 0.2, v = 0.2, t = 0.2)
movej(p[0.382597789450538, 0.21316029784694, 0.307960138035407, -1.33, 0.73, -0.764], a = 0.2, v = 0.2, t = 0.2)
movej(p[0.382583361563666, 0.213142841430783, 0.308175249168581, -1.33, 0.73, -0.764], a = 0.2, v = 0.2, t = 0.2)
movej(p[0.38253409463235, 0.213083232975055, 0.308909789542886, -1.33, 0.73, -0.764], a = 0.2, v = 0.2, t = 0.2)
movej(p[0.382459253721252, 0.212992682355875, 0.310025622605397, -1.33, 0.73, -0.764], a = 0.2, v = 0.2, t = 0.2)
movej(p[0.382381464531839, 0.212898564591091, 0.311185412727946, -1.33, 0.73, -0.764], a = 0.2, v = 0.2, t = 0.2)
movej(p[0.382334102641896, 0.212841261060216, 0.311891550078842, -1.33, 0.73, -0.764], a = 0.2, v = 0.2, t = 0.2)
movej(p[0.382298749249622, 0.212798486707076, 0.312418647937393, -1.33, 0.73, -0.764], a = 0.2, v = 0.2, t = 0.2)
movej(p[0.382286313184895, 0.212783440212523, 0.312604062197947, -1.33, 0.73, -0.764], a = 0.2, v = 0.2, t = 0.2)
movej(p[0.382283769794574, 0.212780362944154, 0.312641982621007, -1.33, 0.73, -0.764], a = 0.2, v = 0.2, t = 0.2)
movej(p[0.382304656211942, 0.21280563358821, 0.312330578674752, -1.33, 0.73, -0.764], a = 0.2, v = 0.2, t = 0.2)
movej(p[0.382345841058594, 0.212855463464817, 0.311716537331658, -1.33, 0.73, -0.764], a = 0.2, v = 0.2, t = 0.2)
movej(p[0.382411641027543, 0.212935075375509, 0.310735499289907, -1.33, 0.73, -0.764], a = 0.2, v = 0.2, t = 0.2)
movej(p[0.382486461927702, 0.213025601783294, 0.309619964578482, -1.33, 0.73, -0.764], a = 0.2, v = 0.2, t = 0.2)
movej(p[0.382540791626533, 0.213091335722083, 0.30880994137936, -1.33, 0.73, -0.764], a = 0.2, v = 0.2, t = 0.2)
movej(p[0.382582747894876, 0.213142098947987, 0.308184398601892, -1.33, 0.73, -0.764], a = 0.2, v = 0.2, t = 0.2)
movej(p[0.382602371955522, 0.21316584225651, 0.30789181563666, -1.33, 0.73, -0.764], a = 0.2, v = 0.2, t = 0.2)
movej(p[0.382600504267901, 0.213163582526263, 0.307919661738041, -1.33, 0.73, -0.764], a = 0.2, v = 0.2, t = 0.2)
movej(p[0.382547501961343, 0.213099454610042, 0.30870989431511, -1.33, 0.73, -0.764], a = 0.2, v = 0.2, t = 0.2)
movej(p[0.382474568759744, 0.2130112121439, 0.309797284574067, -1.33, 0.73, -0.764], a = 0.2, v = 0.2, t = 0.2)
movej(p[0.382402289248813, 0.212923760583344, 0.31087492869754, -1.33, 0.73, -0.764], a = 0.2, v = 0.2, t = 0.2)
movej(p[0.382343214289362, 0.212852285315634, 0.311755700884244, -1.33, 0.73, -0.764], a = 0.2, v = 0.2, t = 0.2)
movej(p[0.382305161421444, 0.212806244845242, 0.312323046304328, -1.33, 0.73, -0.764], a = 0.2, v = 0.2, t = 0.2)
movej(p[0.382288200883455, 0.212785724154165, 0.312575917745479, -1.33, 0.73, -0.764], a = 0.2, v = 0.2, t = 0.2)
movej(p[0.382291285903186, 0.212789456744305, 0.312529921953018, -1.33, 0.73, -0.764], a = 0.2, v = 0.2, t = 0.2)
movej(p[0.382300074213902, 0.212800089791995, 0.312398893515272, -1.33, 0.73, -0.764], a = 0.2, v = 0.2, t = 0.2)
movej(p[0.382326948064245, 0.212832604679277, 0.311998220537206, -1.33, 0.73, -0.764], a = 0.2, v = 0.2, t = 0.2)
movej(p[0.382377295586256, 0.212893520550362, 0.311247569204245, -1.33, 0.73, -0.764], a = 0.2, v = 0.2, t = 0.2)
movej(p[0.382430678100652, 0.212958108483097, 0.310451667956537, -1.33, 0.73, -0.764], a = 0.2, v = 0.2, t = 0.2)
movej(p[0.382482593146202, 0.213020920913496, 0.309677645788487, -1.33, 0.73, -0.764], a = 0.2, v = 0.2, t = 0.2)
movej(p[0.382522054717507, 0.213068665785428, 0.309089297446436, -1.33, 0.73, -0.764], a = 0.2, v = 0.2, t = 0.2)
movej(p[0.382557634166687, 0.213111713646631, 0.308558829215114, -1.33, 0.73, -0.764], a = 0.2, v = 0.2, t = 0.2)
movej(p[0.382557067190088, 0.213111027657092, 0.308567282495891, -1.33, 0.73, -0.764], a = 0.2, v = 0.2, t = 0.2)
movej(p[0.382520693973669, 0.213067019410533, 0.3091095853203, -1.33, 0.73, -0.764], a = 0.2, v = 0.2, t = 0.2)
movej(p[0.382458766788408, 0.212992093211918, 0.310032882481829, -1.33, 0.73, -0.764], a = 0.2, v = 0.2, t = 0.2)
movej(p[0.382396499417188, 0.212916755419579, 0.310961251611823, -1.33, 0.73, -0.764], a = 0.2, v = 0.2, t = 0.2)
movej(p[0.382336288503444, 0.212843905751651, 0.311858960195189, -1.33, 0.73, -0.764], a = 0.2, v = 0.2, t = 0.2)
movej(p[0.382300117410848, 0.212800142056328, 0.312398249474727, -1.33, 0.73, -0.764], a = 0.2, v = 0.2, t = 0.2)
movej(p[0.382284662949475, 0.21278144357944, 0.312628666217525, -1.33, 0.73, -0.764], a = 0.2, v = 0.2, t = 0.2)
movej(p[0.382280768153754, 0.212776731234829, 0.312686735283942, -1.33, 0.73, -0.764], a = 0.2, v = 0.2, t = 0.2)
movej(p[0.382278949826449, 0.212774531226024, 0.312713845452644, -1.33, 0.73, -0.764], a = 0.2, v = 0.2, t = 0.2)
movej(p[0.382285181899822, 0.21278207146163, 0.312620928979355, -1.33, 0.73, -0.764], a = 0.2, v = 0.2, t = 0.2)
movej(p[0.382308926212766, 0.212810799896487, 0.312266915525468, -1.33, 0.73, -0.764], a = 0.2, v = 0.2, t = 0.2)
movej(p[0.38234691698007, 0.212856765230849, 0.311700495988255, -1.33, 0.73, -0.764], a = 0.2, v = 0.2, t = 0.2)
movej(p[0.382396806251583, 0.212917126660977, 0.310956676895168, -1.33, 0.73, -0.764], a = 0.2, v = 0.2, t = 0.2)
movej(p[0.382458093086802, 0.212991278094936, 0.310042926968398, -1.33, 0.73, -0.764], a = 0.2, v = 0.2, t = 0.2)
movej(p[0.382503504577243, 0.213046221821797, 0.309365868903374, -1.33, 0.73, -0.764], a = 0.2, v = 0.2, t = 0.2)
movej(p[0.382536722735645, 0.213086412738331, 0.308870606100228, -1.33, 0.73, -0.764], a = 0.2, v = 0.2, t = 0.2)
movej(p[0.382548896056746, 0.213101141337262, 0.308689109189436, -1.33, 0.73, -0.764], a = 0.2, v = 0.2, t = 0.2)
movej(p[0.382550236789645, 0.213102763500761, 0.308669119666658, -1.33, 0.73, -0.764], a = 0.2, v = 0.2, t = 0.2)
movej(p[0.38250777357752, 0.213051386919504, 0.309302220671644, -1.33, 0.73, -0.764], a = 0.2, v = 0.2, t = 0.2)
movej(p[0.382439669682484, 0.212968987470143, 0.310317608868457, -1.33, 0.73, -0.764], a = 0.2, v = 0.2, t = 0.2)
movej(p[0.382370385142059, 0.212885159548448, 0.311350599779357, -1.33, 0.73, -0.764], a = 0.2, v = 0.2, t = 0.2)
movej(p[0.38232676463064, 0.212832382741485, 0.312000955422164, -1.33, 0.73, -0.764], a = 0.2, v = 0.2, t = 0.2)
movej(p[0.382299053749407, 0.212798855123811, 0.312414108028364, -1.33, 0.73, -0.764], a = 0.2, v = 0.2, t = 0.2)
movej(p[0.382284416814928, 0.212781145779276, 0.312632335935886, -1.33, 0.73, -0.764], a = 0.2, v = 0.2, t = 0.2)
movej(p[0.38228692952181, 0.212784185923504, 0.312594872984491, -1.33, 0.73, -0.764], a = 0.2, v = 0.2, t = 0.2)
movej(p[0.382294663549545, 0.212793543385752, 0.312479563273173, -1.33, 0.73, -0.764], a = 0.2, v = 0.2, t = 0.2)
movej(p[0.382328130710728, 0.212834035572751, 0.31198058798801, -1.33, 0.73, -0.764], a = 0.2, v = 0.2, t = 0.2)
movej(p[0.382379336702014, 0.212895990112703, 0.311217137393449, -1.33, 0.73, -0.764], a = 0.2, v = 0.2, t = 0.2)
movej(p[0.382445019273455, 0.212975459983208, 0.310237849678071, -1.33, 0.73, -0.764], a = 0.2, v = 0.2, t = 0.2)
movej(p[0.382500222783281, 0.213042251152934, 0.309414798481516, -1.33, 0.73, -0.764], a = 0.2, v = 0.2, t = 0.2)
movej(p[0.382550750403741, 0.213103384926578, 0.308661461988778, -1.33, 0.73, -0.764], a = 0.2, v = 0.2, t = 0.2)
movej(p[0.382589078021848, 0.213149757819431, 0.30809002020828, -1.33, 0.73, -0.764], a = 0.2, v = 0.2, t = 0.2)
movej(p[0.382593347022125, 0.213154922917138, 0.308026371976551, -1.33, 0.73, -0.764], a = 0.2, v = 0.2, t = 0.2)
movej(p[0.382559101635532, 0.213113489148968, 0.308536950135457, -1.33, 0.73, -0.764], a = 0.2, v = 0.2, t = 0.2)
movej(p[0.382491964935871, 0.213032259917057, 0.309537918029768, -1.33, 0.73, -0.764], a = 0.2, v = 0.2, t = 0.2)
movej(p[0.382421152893785, 0.212946583858838, 0.310593683073584, -1.33, 0.73, -0.764], a = 0.2, v = 0.2, t = 0.2)
movej(p[0.382352726155603, 0.212863793798963, 0.311613884667921, -1.33, 0.73, -0.764], a = 0.2, v = 0.2, t = 0.2)
movej(p[0.382313005776155, 0.212815735792984, 0.312206091684021, -1.33, 0.73, -0.764], a = 0.2, v = 0.2, t = 0.2)
movej(p[0.382295878747155, 0.212795013663096, 0.31246144540621, -1.33, 0.73, -0.764], a = 0.2, v = 0.2, t = 0.2)
movej(p[0.382289289478525, 0.21278704125408, 0.312559687446388, -1.33, 0.73, -0.764], a = 0.2, v = 0.2, t = 0.2)
movej(p[0.382286942195404, 0.212784201257388, 0.312594684028803, -1.33, 0.73, -0.764], a = 0.2, v = 0.2, t = 0.2)
movej(p[0.382290051895293, 0.212787963708249, 0.312548320270003, -1.33, 0.73, -0.764], a = 0.2, v = 0.2, t = 0.2)
movej(p[0.382306957136388, 0.21280841749517, 0.312296273272353, -1.33, 0.73, -0.764], a = 0.2, v = 0.2, t = 0.2)
movej(p[0.382339592976471, 0.212847903860095, 0.311809692485816, -1.33, 0.73, -0.764], a = 0.2, v = 0.2, t = 0.2)
movej(p[0.382392570602871, 0.212912001915595, 0.311019827875087, -1.33, 0.73, -0.764], a = 0.2, v = 0.2, t = 0.2)
movej(p[0.382453717361519, 0.212985983869786, 0.310108166405921, -1.33, 0.73, -0.764], a = 0.2, v = 0.2, t = 0.2)
movej(p[0.382498028250326, 0.213039595969894, 0.30944751765064, -1.33, 0.73, -0.764], a = 0.2, v = 0.2, t = 0.2)
movej(p[0.382537976754476, 0.213087929985783, 0.308851909432157, -1.33, 0.73, -0.764], a = 0.2, v = 0.2, t = 0.2)
movej(p[0.382566965934479, 0.213123004227401, 0.308419698158568, -1.33, 0.73, -0.764], a = 0.2, v = 0.2, t = 0.2)
movej(p[0.382567899778289, 0.213124134092524, 0.308405775107877, -1.33, 0.73, -0.764], a = 0.2, v = 0.2, t = 0.2)
