def moving():
set_payload_mass(0)
set_tcp(p[0,0,0,0,0,0])
movej(p[-0.5161, -0.2289, 0.4091, -0.872, -1.588, 1.666], a = 0.2, v = 0.2, t = 0.2)
movej(p[-0.516095708581502, -0.228891768030984, 0.409319564093063, -0.872, -1.588, 1.666], a = 0.2, v = 0.2, t = 0.2)
movej(p[-0.516091417163004, -0.228883536061968, 0.409539128186125, -0.872, -1.588, 1.666], a = 0.2, v = 0.2, t = 0.2)
movej(p[-0.516087125744506, -0.228875304092951, 0.409758692279188, -0.872, -1.588, 1.666], a = 0.2, v = 0.2, t = 0.2)
movej(p[-0.516082834326008, -0.228867072123935, 0.40997825637225, -0.872, -1.588, 1.666], a = 0.2, v = 0.2, t = 0.2)
movej(p[-0.51607854290751, -0.228858840154919, 0.410197820465313, -0.872, -1.588, 1.666], a = 0.2, v = 0.2, t = 0.2)
movej(p[-0.516074251489012, -0.228850608185903, 0.410417384558375, -0.872, -1.588, 1.666], a = 0.2, v = 0.2, t = 0.2)
movej(p[-0.516069960070514, -0.228842376216886, 0.410636948651438, -0.872, -1.588, 1.666], a = 0.2, v = 0.2, t = 0.2)
movej(p[-0.516065668652016, -0.22883414424787, 0.410856512744501, -0.872, -1.588, 1.666], a = 0.2, v = 0.2, t = 0.2)
movej(p[-0.516061377233518, -0.228825912278854, 0.411076076837563, -0.872, -1.588, 1.666], a = 0.2, v = 0.2, t = 0.2)
movej(p[-0.51605708581502, -0.228817680309838, 0.411295640930626, -0.872, -1.588, 1.666], a = 0.2, v = 0.2, t = 0.2)
movej(p[-0.516068349901921, -0.228839287527685, 0.410719330550819, -0.872, -1.588, 1.666], a = 0.2, v = 0.2, t = 0.2)
movej(p[-0.516074630978086, -0.228851336136882, 0.410397968560063, -0.872, -1.588, 1.666], a = 0.2, v = 0.2, t = 0.2)
movej(p[-0.516080128249715, -0.228861881221159, 0.410116708771429, -0.872, -1.588, 1.666], a = 0.2, v = 0.2, t = 0.2)
movej(p[-0.51608206470798, -0.228865595812136, 0.410017632742659, -0.872, -1.588, 1.666], a = 0.2, v = 0.2, t = 0.2)
movej(p[-0.516082667634546, -0.228866752369767, 0.409986784894873, -0.872, -1.588, 1.666], a = 0.2, v = 0.2, t = 0.2)
movej(p[-0.516083252827977, -0.228867874910996, 0.409956844336728, -0.872, -1.588, 1.666], a = 0.2, v = 0.2, t = 0.2)
movej(p[-0.516085419816987, -0.228872031715185, 0.409845973542628, -0.872, -1.588, 1.666], a = 0.2, v = 0.2, t = 0.2)
movej(p[-0.516083405332932, -0.228868167452044, 0.409949041645818, -0.872, -1.588, 1.666], a = 0.2, v = 0.2, t = 0.2)
movej(p[-0.516070162228245, -0.228842764003857, 0.410626605549533, -0.872, -1.588, 1.666], a = 0.2, v = 0.2, t = 0.2)
movej(p[-0.51605269509097, -0.228809257848976, 0.411520285845676, -0.872, -1.588, 1.666], a = 0.2, v = 0.2, t = 0.2)
movej(p[-0.516033685171012, -0.228772792267219, 0.412492900340565, -0.872, -1.588, 1.666], a = 0.2, v = 0.2, t = 0.2)
movej(p[-0.516008231030053, -0.228723965125376, 0.413795223890904, -0.872, -1.588, 1.666], a = 0.2, v = 0.2, t = 0.2)
movej(p[-0.515987086040726, -0.228683403968951, 0.41487707605854, -0.872, -1.588, 1.666], a = 0.2, v = 0.2, t = 0.2)
movej(p[-0.515982571184736, -0.228674743393283, 0.415108072001076, -0.872, -1.588, 1.666], a = 0.2, v = 0.2, t = 0.2)
movej(p[-0.516004347473644, -0.22871651553358, 0.413993920322229, -0.872, -1.588, 1.666], a = 0.2, v = 0.2, t = 0.2)
movej(p[-0.516034234898175, -0.228773846775646, 0.412464774361702, -0.872, -1.588, 1.666], a = 0.2, v = 0.2, t = 0.2)
movej(p[-0.516056099852753, -0.228815788997948, 0.411346086234652, -0.872, -1.588, 1.666], a = 0.2, v = 0.2, t = 0.2)
movej(p[-0.516072350497016, -0.228846961627727, 0.410514646007864, -0.872, -1.588, 1.666], a = 0.2, v = 0.2, t = 0.2)
movej(p[-0.516077872595034, -0.228857554334965, 0.410232116013733, -0.872, -1.588, 1.666], a = 0.2, v = 0.2, t = 0.2)
movej(p[-0.516080323314193, -0.228862255401569, 0.410106728585381, -0.872, -1.588, 1.666], a = 0.2, v = 0.2, t = 0.2)
movej(p[-0.51608324928135, -0.228867868107716, 0.409957025794657, -0.872, -1.588, 1.666], a = 0.2, v = 0.2, t = 0.2)
movej(p[-0.516083572024394, -0.228868487206212, 0.409940513123195, -0.872, -1.588, 1.666], a = 0.2, v = 0.2, t = 0.2)
movej(p[-0.516078142138675, -0.228858071384259, 0.410218325211194, -0.872, -1.588, 1.666], a = 0.2, v = 0.2, t = 0.2)
movej(p[-0.516062171677934, -0.228827436213614, 0.411035430261657, -0.872, -1.588, 1.666], a = 0.2, v = 0.2, t = 0.2)
movej(p[-0.516042055210396, -0.22878884800844, 0.412064659630129, -0.872, -1.588, 1.666], a = 0.2, v = 0.2, t = 0.2)
movej(p[-0.516018292810449, -0.228743266031243, 0.41328042774874, -0.872, -1.588, 1.666], a = 0.2, v = 0.2, t = 0.2)
movej(p[-0.515995917141602, -0.228700344136596, 0.414425245817444, -0.872, -1.588, 1.666], a = 0.2, v = 0.2, t = 0.2)
movej(p[-0.515983847970405, -0.228677192574148, 0.415042747146941, -0.872, -1.588, 1.666], a = 0.2, v = 0.2, t = 0.2)
movej(p[-0.51599395585695, -0.228696581922657, 0.414525592051711, -0.872, -1.588, 1.666], a = 0.2, v = 0.2, t = 0.2)
movej(p[-0.51602115848495, -0.228748763081627, 0.413133809742794, -0.872, -1.588, 1.666], a = 0.2, v = 0.2, t = 0.2)
movej(p[-0.516047864585189, -0.228799991781373, 0.411767431543818, -0.872, -1.588, 1.666], a = 0.2, v = 0.2, t = 0.2)
movej(p[-0.516068151290816, -0.228838906543995, 0.410729492194795, -0.872, -1.588, 1.666], a = 0.2, v = 0.2, t = 0.2)
movej(p[-0.516075794271695, -0.22885356761278, 0.41033845035963, -0.872, -1.588, 1.666], a = 0.2, v = 0.2, t = 0.2)
movej(p[-0.51607977358703, -0.228861200893141, 0.410134854564244, -0.872, -1.588, 1.666], a = 0.2, v = 0.2, t = 0.2)
movej(p[-0.516082110814129, -0.228865684254779, 0.410015273789593, -0.872, -1.588, 1.666], a = 0.2, v = 0.2, t = 0.2)
movej(p[-0.516084001166244, -0.228869310403114, 0.409918556713889, -0.872, -1.588, 1.666], a = 0.2, v = 0.2, t = 0.2)
movej(p[-0.516082390997651, -0.228866221713913, 0.410000938613269, -0.872, -1.588, 1.666], a = 0.2, v = 0.2, t = 0.2)
movej(p[-0.516070999232183, -0.228844369577979, 0.41058378147849, -0.872, -1.588, 1.666], a = 0.2, v = 0.2, t = 0.2)
movej(p[-0.51605393641037, -0.228811638997039, 0.411456775570824, -0.872, -1.588, 1.666], a = 0.2, v = 0.2, t = 0.2)
movej(p[-0.516028230458904, -0.228762328822304, 0.412771982634061, -0.872, -1.588, 1.666], a = 0.2, v = 0.2, t = 0.2)
movej(p[-0.516005663272208, -0.228719039550527, 0.413926599430885, -0.872, -1.588, 1.666], a = 0.2, v = 0.2, t = 0.2)
movej(p[-0.515989419721199, -0.228687880527308, 0.414757676741816, -0.872, -1.588, 1.666], a = 0.2, v = 0.2, t = 0.2)
movej(p[-0.515983234403959, -0.228676015606677, 0.415074139368512, -0.872, -1.588, 1.666], a = 0.2, v = 0.2, t = 0.2)
movej(p[-0.515997775574076, -0.228703909055409, 0.414330161863093, -0.872, -1.588, 1.666], a = 0.2, v = 0.2, t = 0.2)
movej(p[-0.516029031996574, -0.228763866363624, 0.412730973142299, -0.872, -1.588, 1.666], a = 0.2, v = 0.2, t = 0.2)
movej(p[-0.51605646515532, -0.228816489735806, 0.411327396068052, -0.872, -1.588, 1.666], a = 0.2, v = 0.2, t = 0.2)
movej(p[-0.516069013121143, -0.228840559741079, 0.410685397918254, -0.872, -1.588, 1.666], a = 0.2, v = 0.2, t = 0.2)
movej(p[-0.516076269519694, -0.228854479252324, 0.410314134997258, -0.872, -1.588, 1.666], a = 0.2, v = 0.2, t = 0.2)
movej(p[-0.516080660243744, -0.228862901713186, 0.410089490082207, -0.872, -1.588, 1.666], a = 0.2, v = 0.2, t = 0.2)
movej(p[-0.516083118056157, -0.228867616386349, 0.409963739737998, -0.872, -1.588, 1.666], a = 0.2, v = 0.2, t = 0.2)
movej(p[-0.516083522371618, -0.22886839196029, 0.409943053534189, -0.872, -1.588, 1.666], a = 0.2, v = 0.2, t = 0.2)
movej(p[-0.516078592560286, -0.228858935400841, 0.410195280054319, -0.872, -1.588, 1.666], a = 0.2, v = 0.2, t = 0.2)
movej(p[-0.516062710765216, -0.228828470312201, 0.411007848656578, -0.872, -1.588, 1.666], a = 0.2, v = 0.2, t = 0.2)
movej(p[-0.516037114759183, -0.228779371039151, 0.412317430524043, -0.872, -1.588, 1.666], a = 0.2, v = 0.2, t = 0.2)
movej(p[-0.516012274184671, -0.22873172086478, 0.413588361852812, -0.872, -1.588, 1.666], a = 0.2, v = 0.2, t = 0.2)
movej(p[-0.515996211511632, -0.22870090880885, 0.414410184809407, -0.872, -1.588, 1.666], a = 0.2, v = 0.2, t = 0.2)
movej(p[-0.51598128021256, -0.228672266999298, 0.415174122686923, -0.872, -1.588, 1.666], a = 0.2, v = 0.2, t = 0.2)
movej(p[-0.515986022052669, -0.228681362984897, 0.414931513436985, -0.872, -1.588, 1.666], a = 0.2, v = 0.2, t = 0.2)
movej(p[-0.51601794169439, -0.228742592506505, 0.413298392083627, -0.872, -1.588, 1.666], a = 0.2, v = 0.2, t = 0.2)
movej(p[-0.516050421703154, -0.228804896946382, 0.411636600377621, -0.872, -1.588, 1.666], a = 0.2, v = 0.2, t = 0.2)
movej(p[-0.516066562401984, -0.228835858674475, 0.410810785346607, -0.872, -1.588, 1.666], a = 0.2, v = 0.2, t = 0.2)
movej(p[-0.516074677084235, -0.228851424579524, 0.410395609606997, -0.872, -1.588, 1.666], a = 0.2, v = 0.2, t = 0.2)
movej(p[-0.516080922694132, -0.228863405155919, 0.410076062195524, -0.872, -1.588, 1.666], a = 0.2, v = 0.2, t = 0.2)
movej(p[-0.516082589608755, -0.228866602697603, 0.409990776969293, -0.872, -1.588, 1.666], a = 0.2, v = 0.2, t = 0.2)
movej(p[-0.516083008110724, -0.228867405484664, 0.409969364933771, -0.872, -1.588, 1.666], a = 0.2, v = 0.2, t = 0.2)
movej(p[-0.516079003969002, -0.228859724581342, 0.410174230934653, -0.872, -1.588, 1.666], a = 0.2, v = 0.2, t = 0.2)
movej(p[-0.516065877903001, -0.228834545641401, 0.41084580672674, -0.872, -1.588, 1.666], a = 0.2, v = 0.2, t = 0.2)
movej(p[-0.516042530458395, -0.228789759647984, 0.412040344267757, -0.872, -1.588, 1.666], a = 0.2, v = 0.2, t = 0.2)
movej(p[-0.516019981004833, -0.228746504392608, 0.41319405377494, -0.872, -1.588, 1.666], a = 0.2, v = 0.2, t = 0.2)
movej(p[-0.516001974780276, -0.228711964139141, 0.414115315676162, -0.872, -1.588, 1.666], a = 0.2, v = 0.2, t = 0.2)
movej(p[-0.515984702707478, -0.228678832164671, 0.414999015786257, -0.872, -1.588, 1.666], a = 0.2, v = 0.2, t = 0.2)
movej(p[-0.515983886983301, -0.22867726741023, 0.415040751109732, -0.872, -1.588, 1.666], a = 0.2, v = 0.2, t = 0.2)
movej(p[-0.516009823465512, -0.228727019798176, 0.413713749281164, -0.872, -1.588, 1.666], a = 0.2, v = 0.2, t = 0.2)
movej(p[-0.516043126291707, -0.228790902599054, 0.412009859335828, -0.872, -1.588, 1.666], a = 0.2, v = 0.2, t = 0.2)
movej(p[-0.516062721405097, -0.228828490722042, 0.411007304282794, -0.872, -1.588, 1.666], a = 0.2, v = 0.2, t = 0.2)
movej(p[-0.516073708855103, -0.228849567284035, 0.410445147621383, -0.872, -1.588, 1.666], a = 0.2, v = 0.2, t = 0.2)
movej(p[-0.516081131945116, -0.228863806549449, 0.410065356177763, -0.872, -1.588, 1.666], a = 0.2, v = 0.2, t = 0.2)
movej(p[-0.516082593155382, -0.228866609500883, 0.409990595511365, -0.872, -1.588, 1.666], a = 0.2, v = 0.2, t = 0.2)
movej(p[-0.516082699554187, -0.228866813599288, 0.40998515177352, -0.872, -1.588, 1.666], a = 0.2, v = 0.2, t = 0.2)
movej(p[-0.516080351687207, -0.22886230982781, 0.410105276921956, -0.872, -1.588, 1.666], a = 0.2, v = 0.2, t = 0.2)
movej(p[-0.516066870958521, -0.228836450559851, 0.410794998506857, -0.872, -1.588, 1.666], a = 0.2, v = 0.2, t = 0.2)
movej(p[-0.516043903002989, -0.228792392517413, 0.411970120049563, -0.872, -1.588, 1.666], a = 0.2, v = 0.2, t = 0.2)
movej(p[-0.516022765106916, -0.228751844967548, 0.413051609301342, -0.872, -1.588, 1.666], a = 0.2, v = 0.2, t = 0.2)
movej(p[-0.516004613470658, -0.228717025779594, 0.413980310977618, -0.872, -1.588, 1.666], a = 0.2, v = 0.2, t = 0.2)
movej(p[-0.515986770390936, -0.228682798477015, 0.414893225814145, -0.872, -1.588, 1.666], a = 0.2, v = 0.2, t = 0.2)
movej(p[-0.515982351293871, -0.228674321589912, 0.415119322392621, -0.872, -1.588, 1.666], a = 0.2, v = 0.2, t = 0.2)
movej(p[-0.516007769968561, -0.228723080698953, 0.413818813421564, -0.872, -1.588, 1.666], a = 0.2, v = 0.2, t = 0.2)
movej(p[-0.516036653697692, -0.228778486612728, 0.412341020054703, -0.872, -1.588, 1.666], a = 0.2, v = 0.2, t = 0.2)
movej(p[-0.516058295214778, -0.228820000228379, 0.411233763777126, -0.872, -1.588, 1.666], a = 0.2, v = 0.2, t = 0.2)
movej(p[-0.516071892982152, -0.228846084004584, 0.410538054080596, -0.872, -1.588, 1.666], a = 0.2, v = 0.2, t = 0.2)
movej(p[-0.516080805655445, -0.228863180647673, 0.410082050307153, -0.872, -1.588, 1.666], a = 0.2, v = 0.2, t = 0.2)
movej(p[-0.516082607341889, -0.228866636714004, 0.409989869679652, -0.872, -1.588, 1.666], a = 0.2, v = 0.2, t = 0.2)
movej(p[-0.516083423066066, -0.228868201468445, 0.409948134356177, -0.872, -1.588, 1.666], a = 0.2, v = 0.2, t = 0.2)
movej(p[-0.516084678571974, -0.228870609829628, 0.409883898249612, -0.872, -1.588, 1.666], a = 0.2, v = 0.2, t = 0.2)
movej(p[-0.516080138889596, -0.228861901630999, 0.410116164397645, -0.872, -1.588, 1.666], a = 0.2, v = 0.2, t = 0.2)
movej(p[-0.516060770760325, -0.228824748917943, 0.411107106143277, -0.872, -1.588, 1.666], a = 0.2, v = 0.2, t = 0.2)
movej(p[-0.516038930632135, -0.228782854318603, 0.41222452406483, -0.872, -1.588, 1.666], a = 0.2, v = 0.2, t = 0.2)
movej(p[-0.516020129963161, -0.228746790130376, 0.413186432541958, -0.872, -1.588, 1.666], a = 0.2, v = 0.2, t = 0.2)
movej(p[-0.515996754145541, -0.228701949710718, 0.4143824217464, -0.872, -1.588, 1.666], a = 0.2, v = 0.2, t = 0.2)
movej(p[-0.515980315530055, -0.22867041650709, 0.41522347924338, -0.872, -1.588, 1.666], a = 0.2, v = 0.2, t = 0.2)
movej(p[-0.515989175003946, -0.228687411100976, 0.414770197338859, -0.872, -1.588, 1.666], a = 0.2, v = 0.2, t = 0.2)
movej(p[-0.516017835295584, -0.2287423884081, 0.413303835821472, -0.872, -1.588, 1.666], a = 0.2, v = 0.2, t = 0.2)
movej(p[-0.516044527209316, -0.228793589894725, 0.411938183454208, -0.872, -1.588, 1.666], a = 0.2, v = 0.2, t = 0.2)
movej(p[-0.516063909525094, -0.228830769820902, 0.410946515876863, -0.872, -1.588, 1.666], a = 0.2, v = 0.2, t = 0.2)
movej(p[-0.516076900819275, -0.228855690236196, 0.410281835486047, -0.872, -1.588, 1.666], a = 0.2, v = 0.2, t = 0.2)
movej(p[-0.516080674430252, -0.228862928926306, 0.410088764250494, -0.872, -1.588, 1.666], a = 0.2, v = 0.2, t = 0.2)
movej(p[-0.516082341344875, -0.22886612646799, 0.410003479024263, -0.872, -1.588, 1.666], a = 0.2, v = 0.2, t = 0.2)
movej(p[-0.516084948115615, -0.228871126878922, 0.409870107447072, -0.872, -1.588, 1.666], a = 0.2, v = 0.2, t = 0.2)
movej(p[-0.51608496584875, -0.228871160895322, 0.409869200157432, -0.872, -1.588, 1.666], a = 0.2, v = 0.2, t = 0.2)
movej(p[-0.516080383606849, -0.228862371057332, 0.410103643800603, -0.872, -1.588, 1.666], a = 0.2, v = 0.2, t = 0.2)
movej(p[-0.516064959326644, -0.228832783591834, 0.410892804330131, -0.872, -1.588, 1.666], a = 0.2, v = 0.2, t = 0.2)
movej(p[-0.516048435592114, -0.228801087109482, 0.411738216817386, -0.872, -1.588, 1.666], a = 0.2, v = 0.2, t = 0.2)
movej(p[-0.516026223068103, -0.228758478165723, 0.412874687821395, -0.872, -1.588, 1.666], a = 0.2, v = 0.2, t = 0.2)
movej(p[-0.516006613768206, -0.228720862829615, 0.413877968706141, -0.872, -1.588, 1.666], a = 0.2, v = 0.2, t = 0.2)
movej(p[-0.51599724003342, -0.228702881760102, 0.414357562010244, -0.872, -1.588, 1.666], a = 0.2, v = 0.2, t = 0.2)
movej(p[-0.516008926168917, -0.228725298568291, 0.413759658136987, -0.872, -1.588, 1.666], a = 0.2, v = 0.2, t = 0.2)
movej(p[-0.516035586163008, -0.228776438825394, 0.412395638891076, -0.872, -1.588, 1.666], a = 0.2, v = 0.2, t = 0.2)
movej(p[-0.516057064535259, -0.228817639490157, 0.411296729678195, -0.872, -1.588, 1.666], a = 0.2, v = 0.2, t = 0.2)
movej(p[-0.516073616642804, -0.228849390398751, 0.410449865527514, -0.872, -1.588, 1.666], a = 0.2, v = 0.2, t = 0.2)
movej(p[-0.516078869197181, -0.228859466056695, 0.410181126335923, -0.872, -1.588, 1.666], a = 0.2, v = 0.2, t = 0.2)
movej(p[-0.516081717138548, -0.228864929090679, 0.410035415619618, -0.872, -1.588, 1.666], a = 0.2, v = 0.2, t = 0.2)
movej(p[-0.516084667932094, -0.228870589419787, 0.409884442623396, -0.872, -1.588, 1.666], a = 0.2, v = 0.2, t = 0.2)
movej(p[-0.516084997768391, -0.228871222124844, 0.409867567036078, -0.872, -1.588, 1.666], a = 0.2, v = 0.2, t = 0.2)
movej(p[-0.516084972942003, -0.228871174501883, 0.409868837241575, -0.872, -1.588, 1.666], a = 0.2, v = 0.2, t = 0.2)
movej(p[-0.516080695710013, -0.228862969745987, 0.410087675502925, -0.872, -1.588, 1.666], a = 0.2, v = 0.2, t = 0.2)
movej(p[-0.516067583830519, -0.228837818019167, 0.410758525463299, -0.872, -1.588, 1.666], a = 0.2, v = 0.2, t = 0.2)
movej(p[-0.516047967437368, -0.228800189076498, 0.411762169263902, -0.872, -1.588, 1.666], a = 0.2, v = 0.2, t = 0.2)
movej(p[-0.516029106475738, -0.228764009232508, 0.412727162525808, -0.872, -1.588, 1.666], a = 0.2, v = 0.2, t = 0.2)
movej(p[-0.516014763916725, -0.228736496767465, 0.41346097838725, -0.872, -1.588, 1.666], a = 0.2, v = 0.2, t = 0.2)
movej(p[-0.51599871897682, -0.228705718727937, 0.414281894054205, -0.872, -1.588, 1.666], a = 0.2, v = 0.2, t = 0.2)
movej(p[-0.515998495539328, -0.228705290121286, 0.414293325903678, -0.872, -1.588, 1.666], a = 0.2, v = 0.2, t = 0.2)
movej(p[-0.516021952929366, -0.228750287016387, 0.413093163166888, -0.872, -1.588, 1.666], a = 0.2, v = 0.2, t = 0.2)
movej(p[-0.516048687402621, -0.228801570142375, 0.411725333304487, -0.872, -1.588, 1.666], a = 0.2, v = 0.2, t = 0.2)
movej(p[-0.516065207590524, -0.228833259821447, 0.41088010227516, -0.872, -1.588, 1.666], a = 0.2, v = 0.2, t = 0.2)
movej(p[-0.516074652257847, -0.228851376956563, 0.410396879812494, -0.872, -1.588, 1.666], a = 0.2, v = 0.2, t = 0.2)
movej(p[-0.516081688765533, -0.228864874664437, 0.410036867283043, -0.872, -1.588, 1.666], a = 0.2, v = 0.2, t = 0.2)
movej(p[-0.516083827381528, -0.228868977042385, 0.409927448152368, -0.872, -1.588, 1.666], a = 0.2, v = 0.2, t = 0.2)
movej(p[-0.516084870089824, -0.228870977206758, 0.409874099521492, -0.872, -1.588, 1.666], a = 0.2, v = 0.2, t = 0.2)
movej(p[-0.516085331151316, -0.228871861633181, 0.409850509990832, -0.872, -1.588, 1.666], a = 0.2, v = 0.2, t = 0.2)
movej(p[-0.516087735764326, -0.228876474257142, 0.409727481515546, -0.872, -1.588, 1.666], a = 0.2, v = 0.2, t = 0.2)
movej(p[-0.516087693204803, -0.22887639261778, 0.409729659010684, -0.872, -1.588, 1.666], a = 0.2, v = 0.2, t = 0.2)
movej(p[-0.516082178200039, -0.228865813517102, 0.410011826088958, -0.872, -1.588, 1.666], a = 0.2, v = 0.2, t = 0.2)
movej(p[-0.516070070015947, -0.228842587118572, 0.410631323455665, -0.872, -1.588, 1.666], a = 0.2, v = 0.2, t = 0.2)
movej(p[-0.516055074877592, -0.228813822849976, 0.411398527575887, -0.872, -1.588, 1.666], a = 0.2, v = 0.2, t = 0.2)
movej(p[-0.516036334501275, -0.228777874317512, 0.412357351268237, -0.872, -1.588, 1.666], a = 0.2, v = 0.2, t = 0.2)
movej(p[-0.516020594571279, -0.228747681360079, 0.41316266155337, -0.872, -1.588, 1.666], a = 0.2, v = 0.2, t = 0.2)
movej(p[-0.516007411759249, -0.228722393567655, 0.413837140672307, -0.872, -1.588, 1.666], a = 0.2, v = 0.2, t = 0.2)
movej(p[-0.51599866223079, -0.228705609875454, 0.414284797381055, -0.872, -1.588, 1.666], a = 0.2, v = 0.2, t = 0.2)
movej(p[-0.516015668306574, -0.228738231603911, 0.413414706615572, -0.872, -1.588, 1.666], a = 0.2, v = 0.2, t = 0.2)
movej(p[-0.51604218643559, -0.228789099729807, 0.412057945686788, -0.872, -1.588, 1.666], a = 0.2, v = 0.2, t = 0.2)
movej(p[-0.516065360095479, -0.228833552362495, 0.41087229958425, -0.872, -1.588, 1.666], a = 0.2, v = 0.2, t = 0.2)
movej(p[-0.516075219718144, -0.228852465481391, 0.41036784654399, -0.872, -1.588, 1.666], a = 0.2, v = 0.2, t = 0.2)
movej(p[-0.516080745362789, -0.22886306499191, 0.410085135091931, -0.872, -1.588, 1.666], a = 0.2, v = 0.2, t = 0.2)
movej(p[-0.516084788517407, -0.228870820731314, 0.409878273053839, -0.872, -1.588, 1.666], a = 0.2, v = 0.2, t = 0.2)
movej(p[-0.516085852505464, -0.228872861715367, 0.409823835675394, -0.872, -1.588, 1.666], a = 0.2, v = 0.2, t = 0.2)
movej(p[-0.516086451885403, -0.228874011469717, 0.409793169285536, -0.872, -1.588, 1.666], a = 0.2, v = 0.2, t = 0.2)
movej(p[-0.516086427059015, -0.228873963846756, 0.409794439491033, -0.872, -1.588, 1.666], a = 0.2, v = 0.2, t = 0.2)
movej(p[-0.516088086880384, -0.22887714778188, 0.409709517180659, -0.872, -1.588, 1.666], a = 0.2, v = 0.2, t = 0.2)
movej(p[-0.516085146726719, -0.228871507862612, 0.409859945803096, -0.872, -1.588, 1.666], a = 0.2, v = 0.2, t = 0.2)
movej(p[-0.516071226216302, -0.22884480498791, 0.410572168171088, -0.872, -1.588, 1.666], a = 0.2, v = 0.2, t = 0.2)
movej(p[-0.516056046653351, -0.228815686948745, 0.411348808103574, -0.872, -1.588, 1.666], a = 0.2, v = 0.2, t = 0.2)
movej(p[-0.516038200027002, -0.228781452842886, 0.412261904398029, -0.872, -1.588, 1.666], a = 0.2, v = 0.2, t = 0.2)
movej(p[-0.516018182865016, -0.228743055129558, 0.413286052944513, -0.872, -1.588, 1.666], a = 0.2, v = 0.2, t = 0.2)
movej(p[-0.516002996208811, -0.228713923483832, 0.414063055792855, -0.872, -1.588, 1.666], a = 0.2, v = 0.2, t = 0.2)
movej(p[-0.516001964140395, -0.2287119437293, 0.414115860049947, -0.872, -1.588, 1.666], a = 0.2, v = 0.2, t = 0.2)
movej(p[-0.516023350300348, -0.228752967508778, 0.413021668743197, -0.872, -1.588, 1.666], a = 0.2, v = 0.2, t = 0.2)
movej(p[-0.51604627214973, -0.228796937108573, 0.411848906153558, -0.872, -1.588, 1.666], a = 0.2, v = 0.2, t = 0.2)
movej(p[-0.516064335120317, -0.228831586214523, 0.410924740925485, -0.872, -1.588, 1.666], a = 0.2, v = 0.2, t = 0.2)
movej(p[-0.516076776687335, -0.22885545212139, 0.410288186513532, -0.872, -1.588, 1.666], a = 0.2, v = 0.2, t = 0.2)
movej(p[-0.516081561086966, -0.228864629746351, 0.410043399768456, -0.872, -1.588, 1.666], a = 0.2, v = 0.2, t = 0.2)
movej(p[-0.51608386994105, -0.228869058681747, 0.40992527065723, -0.872, -1.588, 1.666], a = 0.2, v = 0.2, t = 0.2)
movej(p[-0.516087100918118, -0.22887525646999, 0.409759962484685, -0.872, -1.588, 1.666], a = 0.2, v = 0.2, t = 0.2)
movej(p[-0.516086955506417, -0.228874977535503, 0.409767402259739, -0.872, -1.588, 1.666], a = 0.2, v = 0.2, t = 0.2)
movej(p[-0.516087214410177, -0.228875474174956, 0.409754155830984, -0.872, -1.588, 1.666], a = 0.2, v = 0.2, t = 0.2)
movej(p[-0.516086310020329, -0.22887373933851, 0.409800427602662, -0.872, -1.588, 1.666], a = 0.2, v = 0.2, t = 0.2)
movej(p[-0.516077088790498, -0.228856050810046, 0.410272218215855, -0.872, -1.588, 1.666], a = 0.2, v = 0.2, t = 0.2)
movej(p[-0.516059306003433, -0.22882193916323, 0.411182048267603, -0.872, -1.588, 1.666], a = 0.2, v = 0.2, t = 0.2)
movej(p[-0.5160418707858, -0.228788494237871, 0.412074095442393, -0.872, -1.588, 1.666], a = 0.2, v = 0.2, t = 0.2)
movej(p[-0.516028634774366, -0.228763104396244, 0.412751296430252, -0.872, -1.588, 1.666], a = 0.2, v = 0.2, t = 0.2)
movej(p[-0.516009004194708, -0.228725448240455, 0.413755666062567, -0.872, -1.588, 1.666], a = 0.2, v = 0.2, t = 0.2)
movej(p[-0.515991771134806, -0.228692391102067, 0.414637370135452, -0.872, -1.588, 1.666], a = 0.2, v = 0.2, t = 0.2)
movej(p[-0.516000790206905, -0.228709691843561, 0.414175922624165, -0.872, -1.588, 1.666], a = 0.2, v = 0.2, t = 0.2)
movej(p[-0.516030113717766, -0.228765941364079, 0.412675628474213, -0.872, -1.588, 1.666], a = 0.2, v = 0.2, t = 0.2)
movej(p[-0.516050953697183, -0.228805917438409, 0.411609381688399, -0.872, -1.588, 1.666], a = 0.2, v = 0.2, t = 0.2)
movej(p[-0.516067988145981, -0.228838593593107, 0.41073783925949, -0.872, -1.588, 1.666], a = 0.2, v = 0.2, t = 0.2)
movej(p[-0.516080263021536, -0.228862139745806, 0.41010981337016, -0.872, -1.588, 1.666], a = 0.2, v = 0.2, t = 0.2)
movej(p[-0.516083284747619, -0.228867936140518, 0.409955211215375, -0.872, -1.588, 1.666], a = 0.2, v = 0.2, t = 0.2)
movej(p[-0.516084958755496, -0.228871147288762, 0.409869563073288, -0.872, -1.588, 1.666], a = 0.2, v = 0.2, t = 0.2)
movej(p[-0.516085848958837, -0.228872854912087, 0.409824017133322, -0.872, -1.588, 1.666], a = 0.2, v = 0.2, t = 0.2)
movej(p[-0.516087906002415, -0.228876800814591, 0.409718771534995, -0.872, -1.588, 1.666], a = 0.2, v = 0.2, t = 0.2)
movej(p[-0.516087693204803, -0.22887639261778, 0.409729659010684, -0.872, -1.588, 1.666], a = 0.2, v = 0.2, t = 0.2)
movej(p[-0.516086380952866, -0.228873875404114, 0.409796798444099, -0.872, -1.588, 1.666], a = 0.2, v = 0.2, t = 0.2)
movej(p[-0.516077514385721, -0.228856867203667, 0.410250443264477, -0.872, -1.588, 1.666], a = 0.2, v = 0.2, t = 0.2)
movej(p[-0.516060646628385, -0.228824510803137, 0.411113457170762, -0.872, -1.588, 1.666], a = 0.2, v = 0.2, t = 0.2)
movej(p[-0.516042658136962, -0.228790004566071, 0.412033811782344, -0.872, -1.588, 1.666], a = 0.2, v = 0.2, t = 0.2)
movej(p[-0.516027457294249, -0.228760845707225, 0.412811540462398, -0.872, -1.588, 1.666], a = 0.2, v = 0.2, t = 0.2)
movej(p[-0.51601430640186, -0.228735619144322, 0.413484386459982, -0.872, -1.588, 1.666], a = 0.2, v = 0.2, t = 0.2)
movej(p[-0.516001261908277, -0.228710596679825, 0.414151788719721, -0.872, -1.588, 1.666], a = 0.2, v = 0.2, t = 0.2)
movej(p[-0.516008486387187, -0.228724454961549, 0.413782158920077, -0.872, -1.588, 1.666], a = 0.2, v = 0.2, t = 0.2)
movej(p[-0.516036777829632, -0.228778724727534, 0.412334669027218, -0.872, -1.588, 1.666], a = 0.2, v = 0.2, t = 0.2)
movej(p[-0.516057036162244, -0.228817585063915, 0.41129818134162, -0.872, -1.588, 1.666], a = 0.2, v = 0.2, t = 0.2)
movej(p[-0.516071545412719, -0.228845417283126, 0.410555836957555, -0.872, -1.588, 1.666], a = 0.2, v = 0.2, t = 0.2)
movej(p[-0.51607859965354, -0.228858949007402, 0.410194917138462, -0.872, -1.588, 1.666], a = 0.2, v = 0.2, t = 0.2)
movej(p[-0.516085313418182, -0.22887182761678, 0.409851417280473, -0.872, -1.588, 1.666], a = 0.2, v = 0.2, t = 0.2)
movej(p[-0.516086558284209, -0.228874215568123, 0.409787725547692, -0.872, -1.588, 1.666], a = 0.2, v = 0.2, t = 0.2)
movej(p[-0.516086916493521, -0.228874902699421, 0.409769398296949, -0.872, -1.588, 1.666], a = 0.2, v = 0.2, t = 0.2)
movej(p[-0.516089296280143, -0.228879467700421, 0.409647640027159, -0.872, -1.588, 1.666], a = 0.2, v = 0.2, t = 0.2)
movej(p[-0.516089115402173, -0.228879120733132, 0.409656894381495, -0.872, -1.588, 1.666], a = 0.2, v = 0.2, t = 0.2)
movej(p[-0.516088647247428, -0.228878222700148, 0.409680846828011, -0.872, -1.588, 1.666], a = 0.2, v = 0.2, t = 0.2)
movej(p[-0.516079422470971, -0.228860527368403, 0.410152818899131, -0.872, -1.588, 1.666], a = 0.2, v = 0.2, t = 0.2)
movej(p[-0.516066257392074, -0.22883527359238, 0.410826390728428, -0.872, -1.588, 1.666], a = 0.2, v = 0.2, t = 0.2)
movej(p[-0.516048311460174, -0.228800848994676, 0.411744567844871, -0.872, -1.588, 1.666], a = 0.2, v = 0.2, t = 0.2)
movej(p[-0.516030110171139, -0.228765934560799, 0.412675809932141, -0.872, -1.588, 1.666], a = 0.2, v = 0.2, t = 0.2)
movej(p[-0.516018140305494, -0.228742973490195, 0.413288230439651, -0.872, -1.588, 1.666], a = 0.2, v = 0.2, t = 0.2)
movej(p[-0.516005879616446, -0.228719454550618, 0.413915530497268, -0.872, -1.588, 1.666], a = 0.2, v = 0.2, t = 0.2)
movej(p[-0.51600421624845, -0.228716263812214, 0.414000634265571, -0.872, -1.588, 1.666], a = 0.2, v = 0.2, t = 0.2)
movej(p[-0.516029961212811, -0.228765648823031, 0.412683431165124, -0.872, -1.588, 1.666], a = 0.2, v = 0.2, t = 0.2)
movej(p[-0.516055383434128, -0.228814414735352, 0.411382740736138, -0.872, -1.588, 1.666], a = 0.2, v = 0.2, t = 0.2)
movej(p[-0.516069491915769, -0.228841478183903, 0.410660901097954, -0.872, -1.588, 1.666], a = 0.2, v = 0.2, t = 0.2)
movej(p[-0.516078064112884, -0.228857921712095, 0.410222317285613, -0.872, -1.588, 1.666], a = 0.2, v = 0.2, t = 0.2)
movej(p[-0.516082344891502, -0.22886613327127, 0.410003297566335, -0.872, -1.588, 1.666], a = 0.2, v = 0.2, t = 0.2)
movej(p[-0.51608695195979, -0.228874970732223, 0.409767583717667, -0.872, -1.588, 1.666], a = 0.2, v = 0.2, t = 0.2)
movej(p[-0.516087349181998, -0.228875732699603, 0.409747260429714, -0.872, -1.588, 1.666], a = 0.2, v = 0.2, t = 0.2)
movej(p[-0.516087281796088, -0.228875603437279, 0.409750708130349, -0.872, -1.588, 1.666], a = 0.2, v = 0.2, t = 0.2)
movej(p[-0.516088650794055, -0.228878229503428, 0.409680665370083, -0.872, -1.588, 1.666], a = 0.2, v = 0.2, t = 0.2)
movej(p[-0.516078688319211, -0.228859119089406, 0.410190380690259, -0.872, -1.588, 1.666], a = 0.2, v = 0.2, t = 0.2)
movej(p[-0.516061299207727, -0.22882576260669, 0.411080068911982, -0.872, -1.588, 1.666], a = 0.2, v = 0.2, t = 0.2)
movej(p[-0.516042924133976, -0.228790514812084, 0.412020202437732, -0.872, -1.588, 1.666], a = 0.2, v = 0.2, t = 0.2)
movej(p[-0.516027631078965, -0.228761179067954, 0.412802649023919, -0.872, -1.588, 1.666], a = 0.2, v = 0.2, t = 0.2)
movej(p[-0.516008106898113, -0.22872372701057, 0.413801574918389, -0.872, -1.588, 1.666], a = 0.2, v = 0.2, t = 0.2)
movej(p[-0.515993977136711, -0.228696622742338, 0.414524503304142, -0.872, -1.588, 1.666], a = 0.2, v = 0.2, t = 0.2)
movej(p[-0.516007039363429, -0.228721679223236, 0.413856193754763, -0.872, -1.588, 1.666], a = 0.2, v = 0.2, t = 0.2)
movej(p[-0.516034071753339, -0.228773533824758, 0.412473121426397, -0.872, -1.588, 1.666], a = 0.2, v = 0.2, t = 0.2)
movej(p[-0.516056585740633, -0.228816721047333, 0.411321226498495, -0.872, -1.588, 1.666], a = 0.2, v = 0.2, t = 0.2)
movej(p[-0.516071534772839, -0.228845396873286, 0.410556381331339, -0.872, -1.588, 1.666], a = 0.2, v = 0.2, t = 0.2)
movej(p[-0.516081990228816, -0.228865452943253, 0.41002144335915, -0.872, -1.588, 1.666], a = 0.2, v = 0.2, t = 0.2)
movej(p[-0.516084589906303, -0.228870439747624, 0.409888434697816, -0.872, -1.588, 1.666], a = 0.2, v = 0.2, t = 0.2)
movej(p[-0.516085767386419, -0.228872698436643, 0.40982819066567, -0.872, -1.588, 1.666], a = 0.2, v = 0.2, t = 0.2)
movej(p[-0.516087334995491, -0.228875705486482, 0.409747986261427, -0.872, -1.588, 1.666], a = 0.2, v = 0.2, t = 0.2)
movej(p[-0.516089001910114, -0.228878903028166, 0.409662701035196, -0.872, -1.588, 1.666], a = 0.2, v = 0.2, t = 0.2)
movej(p[-0.516088533755369, -0.228878004995182, 0.409686653481712, -0.872, -1.588, 1.666], a = 0.2, v = 0.2, t = 0.2)
movej(p[-0.516080142436223, -0.228861908434279, 0.410115982939717, -0.872, -1.588, 1.666], a = 0.2, v = 0.2, t = 0.2)
movej(p[-0.516064771355421, -0.228832423017985, 0.410902421600323, -0.872, -1.588, 1.666], a = 0.2, v = 0.2, t = 0.2)
movej(p[-0.516045045016837, -0.228794583173631, 0.411911690596698, -0.872, -1.588, 1.666], a = 0.2, v = 0.2, t = 0.2)
movej(p[-0.516024964015568, -0.228756063001259, 0.412939105385888, -0.872, -1.588, 1.666], a = 0.2, v = 0.2, t = 0.2)
movej(p[-0.516010742041868, -0.228728781847743, 0.413666751677773, -0.872, -1.588, 1.666], a = 0.2, v = 0.2, t = 0.2)
movej(p[-0.515998931774432, -0.228706126924748, 0.414271006578516, -0.872, -1.588, 1.666], a = 0.2, v = 0.2, t = 0.2)
movej(p[-0.516001432146366, -0.228710923237274, 0.414143078739169, -0.872, -1.588, 1.666], a = 0.2, v = 0.2, t = 0.2)
movej(p[-0.516030223663199, -0.228766152265764, 0.412670003278441, -0.872, -1.588, 1.666], a = 0.2, v = 0.2, t = 0.2)
movej(p[-0.516058706623494, -0.228820789408879, 0.411212714657461, -0.872, -1.588, 1.666], a = 0.2, v = 0.2, t = 0.2)
movej(p[-0.516072378870031, -0.228847016053968, 0.410513194344439, -0.872, -1.588, 1.666], a = 0.2, v = 0.2, t = 0.2)
movej(p[-0.516079954464999, -0.22886154786043, 0.410125600209909, -0.872, -1.588, 1.666], a = 0.2, v = 0.2, t = 0.2)
movej(p[-0.51608460409281, -0.228870466960744, 0.409887708866103, -0.872, -1.588, 1.666], a = 0.2, v = 0.2, t = 0.2)
movej(p[-0.516087228596685, -0.228875501388076, 0.409753429999271, -0.872, -1.588, 1.666], a = 0.2, v = 0.2, t = 0.2)
movej(p[-0.516087728671072, -0.228876460650582, 0.409727844431402, -0.872, -1.588, 1.666], a = 0.2, v = 0.2, t = 0.2)
movej(p[-0.516087668378415, -0.228876344994819, 0.409730929216181, -0.872, -1.588, 1.666], a = 0.2, v = 0.2, t = 0.2)
movej(p[-0.516089775074769, -0.228880386143245, 0.409623143206859, -0.872, -1.588, 1.666], a = 0.2, v = 0.2, t = 0.2)
movej(p[-0.516086427059015, -0.228873963846756, 0.409794439491033, -0.872, -1.588, 1.666], a = 0.2, v = 0.2, t = 0.2)
movej(p[-0.516072690973195, -0.228847614742624, 0.410497226046762, -0.872, -1.588, 1.666], a = 0.2, v = 0.2, t = 0.2)
movej(p[-0.516059054192926, -0.228821456130337, 0.411194931780502, -0.872, -1.588, 1.666], a = 0.2, v = 0.2, t = 0.2)
movej(p[-0.516041711187591, -0.228788188090263, 0.41208226104916, -0.872, -1.588, 1.666], a = 0.2, v = 0.2, t = 0.2)
movej(p[-0.516022559402559, -0.228751450377298, 0.413062133861175, -0.872, -1.588, 1.666], a = 0.2, v = 0.2, t = 0.2)
movej(p[-0.516007660023129, -0.228722869797267, 0.413824438617336, -0.872, -1.588, 1.666], a = 0.2, v = 0.2, t = 0.2)
movej(p[-0.515999392835923, -0.228707011351171, 0.414247417047856, -0.872, -1.588, 1.666], a = 0.2, v = 0.2, t = 0.2)
movej(p[-0.516012259998163, -0.228731693651659, 0.413589087684525, -0.872, -1.588, 1.666], a = 0.2, v = 0.2, t = 0.2)
movej(p[-0.51603605786438, -0.228777343661658, 0.412371504986632, -0.872, -1.588, 1.666], a = 0.2, v = 0.2, t = 0.2)
movej(p[-0.516060469297042, -0.228824170639128, 0.41112253006717, -0.872, -1.588, 1.666], a = 0.2, v = 0.2, t = 0.2)
movej(p[-0.516075074306443, -0.228852186546904, 0.410375286319044, -0.872, -1.588, 1.666], a = 0.2, v = 0.2, t = 0.2)
movej(p[-0.51608077728243, -0.228863126221431, 0.410083501970578, -0.872, -1.588, 1.666], a = 0.2, v = 0.2, t = 0.2)
movej(p[-0.51608435582893, -0.228869990731132, 0.409900410921074, -0.872, -1.588, 1.666], a = 0.2, v = 0.2, t = 0.2)
movej(p[-0.516088189732563, -0.228877345077005, 0.409704254900742, -0.872, -1.588, 1.666], a = 0.2, v = 0.2, t = 0.2)
movej(p[-0.516088278398235, -0.228877515159009, 0.409699718452539, -0.872, -1.588, 1.666], a = 0.2, v = 0.2, t = 0.2)
movej(p[-0.516087980481579, -0.228876943683474, 0.409714960918503, -0.872, -1.588, 1.666], a = 0.2, v = 0.2, t = 0.2)
movej(p[-0.516088590501398, -0.228878113847665, 0.409683750154861, -0.872, -1.588, 1.666], a = 0.2, v = 0.2, t = 0.2)
movej(p[-0.516080273661417, -0.228862160155646, 0.410109268996375, -0.872, -1.588, 1.666], a = 0.2, v = 0.2, t = 0.2)
movej(p[-0.516064182615362, -0.228831293673475, 0.410932543616396, -0.872, -1.588, 1.666], a = 0.2, v = 0.2, t = 0.2)
movej(p[-0.516048031276652, -0.228800311535541, 0.411758903021195, -0.872, -1.588, 1.666], a = 0.2, v = 0.2, t = 0.2)
movej(p[-0.516034855557875, -0.228775037349678, 0.412433019224275, -0.872, -1.588, 1.666], a = 0.2, v = 0.2, t = 0.2)
movej(p[-0.516022272125783, -0.228750899311604, 0.413076831953355, -0.872, -1.588, 1.666], a = 0.2, v = 0.2, t = 0.2)
movej(p[-0.516033117710714, -0.22877170374239, 0.412521933609069, -0.872, -1.588, 1.666], a = 0.2, v = 0.2, t = 0.2)
movej(p[-0.516057185120572, -0.228817870801683, 0.411290560108637, -0.872, -1.588, 1.666], a = 0.2, v = 0.2, t = 0.2)
movej(p[-0.516073247793611, -0.228848682857612, 0.410468737152042, -0.872, -1.588, 1.666], a = 0.2, v = 0.2, t = 0.2)
movej(p[-0.516080263021536, -0.228862139745806, 0.41010981337016, -0.872, -1.588, 1.666], a = 0.2, v = 0.2, t = 0.2)
movej(p[-0.516084004712871, -0.228869317206394, 0.40991837525596, -0.872, -1.588, 1.666], a = 0.2, v = 0.2, t = 0.2)
movej(p[-0.516088218105578, -0.228877399503246, 0.409702803237317, -0.872, -1.588, 1.666], a = 0.2, v = 0.2, t = 0.2)
movej(p[-0.516088370610533, -0.228877692044294, 0.409695000546407, -0.872, -1.588, 1.666], a = 0.2, v = 0.2, t = 0.2)
movej(p[-0.516087909549042, -0.228876807617871, 0.409718590077066, -0.872, -1.588, 1.666], a = 0.2, v = 0.2, t = 0.2)
movej(p[-0.516081103572101, -0.228863752123208, 0.410066807841188, -0.872, -1.588, 1.666], a = 0.2, v = 0.2, t = 0.2)
movej(p[-0.516066502109327, -0.228835743018712, 0.410813870131385, -0.872, -1.588, 1.666], a = 0.2, v = 0.2, t = 0.2)
movej(p[-0.516044325051585, -0.228793202107755, 0.411948526556113, -0.872, -1.588, 1.666], a = 0.2, v = 0.2, t = 0.2)
movej(p[-0.51602363048387, -0.228753504967912, 0.413007333566873, -0.872, -1.588, 1.666], a = 0.2, v = 0.2, t = 0.2)
movej(p[-0.516007847994352, -0.228723230371117, 0.413814821347144, -0.872, -1.588, 1.666], a = 0.2, v = 0.2, t = 0.2)
movej(p[-0.515994682915456, -0.228697976595093, 0.41448839317644, -0.872, -1.588, 1.666], a = 0.2, v = 0.2, t = 0.2)
movej(p[-0.516003418257407, -0.228714733074174, 0.414041462299405, -0.872, -1.588, 1.666], a = 0.2, v = 0.2, t = 0.2)
movej(p[-0.5160295107912, -0.228764784806448, 0.412706476321999, -0.872, -1.588, 1.666], a = 0.2, v = 0.2, t = 0.2)
movej(p[-0.516052712824104, -0.228809291865377, 0.411519378556036, -0.872, -1.588, 1.666], a = 0.2, v = 0.2, t = 0.2)
movej(p[-0.516066995090461, -0.228836688674657, 0.410788647479372, -0.872, -1.588, 1.666], a = 0.2, v = 0.2, t = 0.2)
movej(p[-0.516076716394678, -0.228855336465627, 0.410291271298311, -0.872, -1.588, 1.666], a = 0.2, v = 0.2, t = 0.2)
movej(p[-0.516084607639437, -0.228870473764024, 0.409887527408175, -0.872, -1.588, 1.666], a = 0.2, v = 0.2, t = 0.2)
movej(p[-0.516085973090777, -0.228873093026893, 0.409817666105837, -0.872, -1.588, 1.666], a = 0.2, v = 0.2, t = 0.2)
movej(p[-0.516086576017343, -0.228874249584524, 0.409786818258051, -0.872, -1.588, 1.666], a = 0.2, v = 0.2, t = 0.2)
movej(p[-0.516085451736629, -0.228872092944707, 0.409844340421275, -0.872, -1.588, 1.666], a = 0.2, v = 0.2, t = 0.2)
movej(p[-0.51607680506035, -0.228855506547631, 0.410286734850107, -0.872, -1.588, 1.666], a = 0.2, v = 0.2, t = 0.2)
movej(p[-0.51605838388045, -0.228820170310383, 0.411229227328922, -0.872, -1.588, 1.666], a = 0.2, v = 0.2, t = 0.2)
movej(p[-0.516036408980439, -0.228778017186396, 0.412353540651745, -0.872, -1.588, 1.666], a = 0.2, v = 0.2, t = 0.2)
movej(p[-0.516012604020969, -0.228732353569836, 0.413571486265494, -0.872, -1.588, 1.666], a = 0.2, v = 0.2, t = 0.2)
movej(p[-0.51599147321815, -0.228691819626532, 0.414652612601417, -0.872, -1.588, 1.666], a = 0.2, v = 0.2, t = 0.2)
movej(p[-0.515985752509028, -0.228680845935604, 0.414945304239524, -0.872, -1.588, 1.666], a = 0.2, v = 0.2, t = 0.2)
movej(p[-0.516010390925809, -0.228728108323005, 0.41368471601266, -0.872, -1.588, 1.666], a = 0.2, v = 0.2, t = 0.2)
movej(p[-0.516035348539008, -0.228775983005622, 0.412407796572262, -0.872, -1.588, 1.666], a = 0.2, v = 0.2, t = 0.2)
movej(p[-0.516056163692037, -0.228815911456991, 0.411342819991945, -0.872, -1.588, 1.666], a = 0.2, v = 0.2, t = 0.2)
movej(p[-0.516070942486154, -0.228844260725496, 0.41058668480534, -0.872, -1.588, 1.666], a = 0.2, v = 0.2, t = 0.2)
movej(p[-0.516081859003622, -0.228865201221886, 0.410028157302492, -0.872, -1.588, 1.666], a = 0.2, v = 0.2, t = 0.2)
movej(p[-0.516084483507497, -0.228870235649218, 0.40989387843566, -0.872, -1.588, 1.666], a = 0.2, v = 0.2, t = 0.2)
movej(p[-0.516085990823911, -0.228873127043294, 0.409816758816196, -0.872, -1.588, 1.666], a = 0.2, v = 0.2, t = 0.2)
movej(p[-0.516087817336743, -0.228876630732586, 0.409723307983198, -0.872, -1.588, 1.666], a = 0.2, v = 0.2, t = 0.2)
movej(p[-0.516088899057935, -0.228878705733041, 0.409667963315112, -0.872, -1.588, 1.666], a = 0.2, v = 0.2, t = 0.2)
movej(p[-0.516084189137468, -0.228869670976963, 0.409908939443697, -0.872, -1.588, 1.666], a = 0.2, v = 0.2, t = 0.2)
movej(p[-0.516068509500129, -0.228839593675293, 0.410711164944052, -0.872, -1.588, 1.666], a = 0.2, v = 0.2, t = 0.2)
movej(p[-0.516050503275572, -0.228805053421826, 0.411632426845274, -0.872, -1.588, 1.666], a = 0.2, v = 0.2, t = 0.2)
movej(p[-0.516026556451027, -0.228759117674059, 0.412857630776148, -0.872, -1.588, 1.666], a = 0.2, v = 0.2, t = 0.2)
movej(p[-0.516003492736571, -0.228714875943057, 0.414037651682914, -0.872, -1.588, 1.666], a = 0.2, v = 0.2, t = 0.2)
movej(p[-0.515990246085257, -0.22868946569159, 0.414715397044557, -0.872, -1.588, 1.666], a = 0.2, v = 0.2, t = 0.2)
movej(p[-0.515997094621719, -0.228702602825615, 0.414365001785298, -0.872, -1.588, 1.666], a = 0.2, v = 0.2, t = 0.2)
movej(p[-0.516020495265727, -0.228747490868234, 0.413167742375358, -0.872, -1.588, 1.666], a = 0.2, v = 0.2, t = 0.2)
movej(p[-0.516047584401668, -0.228799454322239, 0.411781766720142, -0.872, -1.588, 1.666], a = 0.2, v = 0.2, t = 0.2)
movej(p[-0.516070070015947, -0.228842587118572, 0.410631323455665, -0.872, -1.588, 1.666], a = 0.2, v = 0.2, t = 0.2)
movej(p[-0.51607879117139, -0.228859316384531, 0.410185118410342, -0.872, -1.588, 1.666], a = 0.2, v = 0.2, t = 0.2)
movej(p[-0.516083107416276, -0.228867595976509, 0.409964284111783, -0.872, -1.588, 1.666], a = 0.2, v = 0.2, t = 0.2)
movej(p[-0.516085930531255, -0.228873011387531, 0.409819843600975, -0.872, -1.588, 1.666], a = 0.2, v = 0.2, t = 0.2)
movej(p[-0.516089094122412, -0.22887907991345, 0.409657983129064, -0.872, -1.588, 1.666], a = 0.2, v = 0.2, t = 0.2)
movej(p[-0.516088615327786, -0.228878161470626, 0.409682479949364, -0.872, -1.588, 1.666], a = 0.2, v = 0.2, t = 0.2)
movej(p[-0.516082167560159, -0.228865793107261, 0.410012370462743, -0.872, -1.588, 1.666], a = 0.2, v = 0.2, t = 0.2)
movej(p[-0.516068810963412, -0.228840171954108, 0.410695741020159, -0.872, -1.588, 1.666], a = 0.2, v = 0.2, t = 0.2)
movej(p[-0.516045740155702, -0.228795916616546, 0.41187612484278, -0.872, -1.588, 1.666], a = 0.2, v = 0.2, t = 0.2)
movej(p[-0.516022921158498, -0.228752144311876, 0.413043625152503, -0.872, -1.588, 1.666], a = 0.2, v = 0.2, t = 0.2)
movej(p[-0.516006404517221, -0.228720461436084, 0.413888674723902, -0.872, -1.588, 1.666], a = 0.2, v = 0.2, t = 0.2)
movej(p[-0.515991764041552, -0.228692377495506, 0.414637733051309, -0.872, -1.588, 1.666], a = 0.2, v = 0.2, t = 0.2)
movej(p[-0.516000158907324, -0.228708480859689, 0.414208222135376, -0.872, -1.588, 1.666], a = 0.2, v = 0.2, t = 0.2)
movej(p[-0.516025371877657, -0.22875684537848, 0.412918237724151, -0.872, -1.588, 1.666], a = 0.2, v = 0.2, t = 0.2)
movej(p[-0.516054447124638, -0.228812618669385, 0.41143064562917, -0.872, -1.588, 1.666], a = 0.2, v = 0.2, t = 0.2)
movej(p[-0.516068374728308, -0.228839335150647, 0.410718060345321, -0.872, -1.588, 1.666], a = 0.2, v = 0.2, t = 0.2)
movej(p[-0.516077705903571, -0.228857234580797, 0.410240644536356, -0.872, -1.588, 1.666], a = 0.2, v = 0.2, t = 0.2)
movej(p[-0.516082823686127, -0.228867051714095, 0.409978800746035, -0.872, -1.588, 1.666], a = 0.2, v = 0.2, t = 0.2)
movej(p[-0.516087533606595, -0.228876086470172, 0.40973782461745, -0.872, -1.588, 1.666], a = 0.2, v = 0.2, t = 0.2)
movej(p[-0.516088175546056, -0.228877317863884, 0.409704980732455, -0.872, -1.588, 1.666], a = 0.2, v = 0.2, t = 0.2)
movej(p[-0.516087342088744, -0.228875719093042, 0.409747623345571, -0.872, -1.588, 1.666], a = 0.2, v = 0.2, t = 0.2)
movej(p[-0.516080848214968, -0.228863262287035, 0.410079872812015, -0.872, -1.588, 1.666], a = 0.2, v = 0.2, t = 0.2)
movej(p[-0.516060898438892, -0.22882499383603, 0.411100573657864, -0.872, -1.588, 1.666], a = 0.2, v = 0.2, t = 0.2)
movej(p[-0.516039813742222, -0.228784548335367, 0.41217934104072, -0.872, -1.588, 1.666], a = 0.2, v = 0.2, t = 0.2)
movej(p[-0.516021300350024, -0.228749035212835, 0.413126551425668, -0.872, -1.588, 1.666], a = 0.2, v = 0.2, t = 0.2)
movej(p[-0.51600620235949, -0.228720073649114, 0.413899017825806, -0.872, -1.588, 1.666], a = 0.2, v = 0.2, t = 0.2)
movej(p[-0.51599309757325, -0.228694935528854, 0.414569504870324, -0.872, -1.588, 1.666], a = 0.2, v = 0.2, t = 0.2)
movej(p[-0.516008585692739, -0.228724645453394, 0.413777078098089, -0.872, -1.588, 1.666], a = 0.2, v = 0.2, t = 0.2)
movej(p[-0.516037799258167, -0.228780684072226, 0.41228240914391, -0.872, -1.588, 1.666], a = 0.2, v = 0.2, t = 0.2)
movej(p[-0.516059394669104, -0.228822109245234, 0.411177511819399, -0.872, -1.588, 1.666], a = 0.2, v = 0.2, t = 0.2)
movej(p[-0.516073559896775, -0.228849281546268, 0.410452768854365, -0.872, -1.588, 1.666], a = 0.2, v = 0.2, t = 0.2)
movej(p[-0.516081671032399, -0.228864840648036, 0.410037774572684, -0.872, -1.588, 1.666], a = 0.2, v = 0.2, t = 0.2)
movej(p[-0.51608714347764, -0.228875338109352, 0.409757784989547, -0.872, -1.588, 1.666], a = 0.2, v = 0.2, t = 0.2)
movej(p[-0.516088101066892, -0.228877174995, 0.409708791348946, -0.872, -1.588, 1.666], a = 0.2, v = 0.2, t = 0.2)
movej(p[-0.516088388343667, -0.228877726060695, 0.409694093256766, -0.872, -1.588, 1.666], a = 0.2, v = 0.2, t = 0.2)
movej(p[-0.516088984176979, -0.228878869011765, 0.409663608324837, -0.872, -1.588, 1.666], a = 0.2, v = 0.2, t = 0.2)
movej(p[-0.516075361583218, -0.228852737612599, 0.410360588226864, -0.872, -1.588, 1.666], a = 0.2, v = 0.2, t = 0.2)
movej(p[-0.516054362005593, -0.22881245539066, 0.411435000619446, -0.872, -1.588, 1.666], a = 0.2, v = 0.2, t = 0.2)
movej(p[-0.516035522323724, -0.228776316366351, 0.412398905133783, -0.872, -1.588, 1.666], a = 0.2, v = 0.2, t = 0.2)
movej(p[-0.516018023266807, -0.228742748981949, 0.41329421855128, -0.872, -1.588, 1.666], a = 0.2, v = 0.2, t = 0.2)
movej(p[-0.515999602086908, -0.228707412744701, 0.414236711030095, -0.872, -1.588, 1.666], a = 0.2, v = 0.2, t = 0.2)
movej(p[-0.515988022350217, -0.228685200034918, 0.414829171165508, -0.872, -1.588, 1.666], a = 0.2, v = 0.2, t = 0.2)
movej(p[-0.516000985271382, -0.228710066023971, 0.414165942438116, -0.872, -1.588, 1.666], a = 0.2, v = 0.2, t = 0.2)
movej(p[-0.51602659901055, -0.228759199313422, 0.412855453281011, -0.872, -1.588, 1.666], a = 0.2, v = 0.2, t = 0.2)
movej(p[-0.516050567114855, -0.228805175880869, 0.411629160602567, -0.872, -1.588, 1.666], a = 0.2, v = 0.2, t = 0.2)
movej(p[-0.516068931548725, -0.228840403265635, 0.410689571450602, -0.872, -1.588, 1.666], a = 0.2, v = 0.2, t = 0.2)
movej(p[-0.516081032639564, -0.228863616057604, 0.410070436999751, -0.872, -1.588, 1.666], a = 0.2, v = 0.2, t = 0.2)
movej(p[-0.516084561533288, -0.228870385321382, 0.409889886361241, -0.872, -1.588, 1.666], a = 0.2, v = 0.2, t = 0.2)
movej(p[-0.516086363219732, -0.228873841387713, 0.40979770573374, -0.872, -1.588, 1.666], a = 0.2, v = 0.2, t = 0.2)
movej(p[-0.516088877778174, -0.22887866491336, 0.409669052062681, -0.872, -1.588, 1.666], a = 0.2, v = 0.2, t = 0.2)
movej(p[-0.516089019643248, -0.228878937044567, 0.409661793745555, -0.872, -1.588, 1.666], a = 0.2, v = 0.2, t = 0.2)
movej(p[-0.516087164757401, -0.228875378929033, 0.409756696241978, -0.872, -1.588, 1.666], a = 0.2, v = 0.2, t = 0.2)
movej(p[-0.516073265526745, -0.228848716874013, 0.410467829862401, -0.872, -1.588, 1.666], a = 0.2, v = 0.2, t = 0.2)
movej(p[-0.516058000844749, -0.228819435556124, 0.411248824785163, -0.872, -1.588, 1.666], a = 0.2, v = 0.2, t = 0.2)
movej(p[-0.516035564883246, -0.228776398005713, 0.412396727638645, -0.872, -1.588, 1.666], a = 0.2, v = 0.2, t = 0.2)
movej(p[-0.516014338321502, -0.228735680373844, 0.413482753338628, -0.872, -1.588, 1.666], a = 0.2, v = 0.2, t = 0.2)
movej(p[-0.516001059750546, -0.228710208892855, 0.414162131821625, -0.872, -1.588, 1.666], a = 0.2, v = 0.2, t = 0.2)
movej(p[-0.515989540306512, -0.228688111838834, 0.414751507172259, -0.872, -1.588, 1.666], a = 0.2, v = 0.2, t = 0.2)
movej(p[-0.516006333584684, -0.228720325370481, 0.413892303882465, -0.872, -1.588, 1.666], a = 0.2, v = 0.2, t = 0.2)
movej(p[-0.516036242288976, -0.228777697432227, 0.412362069174368, -0.872, -1.588, 1.666], a = 0.2, v = 0.2, t = 0.2)
movej(p[-0.516062728498351, -0.228828504328602, 0.411006941366938, -0.872, -1.588, 1.666], a = 0.2, v = 0.2, t = 0.2)
movej(p[-0.516074496206265, -0.228851077612235, 0.410404863961333, -0.872, -1.588, 1.666], a = 0.2, v = 0.2, t = 0.2)
movej(p[-0.51608083402846, -0.228863235073914, 0.410080598643727, -0.872, -1.588, 1.666], a = 0.2, v = 0.2, t = 0.2)
movej(p[-0.51608627455406, -0.228873671305708, 0.409802242181944, -0.872, -1.588, 1.666], a = 0.2, v = 0.2, t = 0.2)
movej(p[-0.516087735764326, -0.228876474257142, 0.409727481515546, -0.872, -1.588, 1.666], a = 0.2, v = 0.2, t = 0.2)
movej(p[-0.516087632912147, -0.228876276962017, 0.409732743795462, -0.872, -1.588, 1.666], a = 0.2, v = 0.2, t = 0.2)
movej(p[-0.516083267014485, -0.228867902124117, 0.409956118505016, -0.872, -1.588, 1.666], a = 0.2, v = 0.2, t = 0.2)
movej(p[-0.516070665849259, -0.228843730069642, 0.410600838523736, -0.872, -1.588, 1.666], a = 0.2, v = 0.2, t = 0.2)
movej(p[-0.516049464113902, -0.228803060060734, 0.411685594018222, -0.872, -1.588, 1.666], a = 0.2, v = 0.2, t = 0.2)
movej(p[-0.516025754913358, -0.228757580132739, 0.412898640267911, -0.872, -1.588, 1.666], a = 0.2, v = 0.2, t = 0.2)
movej(p[-0.516007574904084, -0.228722706518543, 0.413828793607612, -0.872, -1.588, 1.666], a = 0.2, v = 0.2, t = 0.2)
movej(p[-0.515989965901735, -0.228688928232456, 0.414729732220881, -0.872, -1.588, 1.666], a = 0.2, v = 0.2, t = 0.2)
movej(p[-0.515987664140904, -0.22868451290362, 0.414847498416251, -0.872, -1.588, 1.666], a = 0.2, v = 0.2, t = 0.2)
movej(p[-0.51601472490383, -0.228736421931383, 0.41346297442446, -0.872, -1.588, 1.666], a = 0.2, v = 0.2, t = 0.2)
movej(p[-0.516045321653732, -0.228795113829485, 0.411897536878302, -0.872, -1.588, 1.666], a = 0.2, v = 0.2, t = 0.2)
movej(p[-0.516062632739426, -0.228828320640037, 0.411011840730998, -0.872, -1.588, 1.666], a = 0.2, v = 0.2, t = 0.2)
movej(p[-0.516074347247937, -0.228850791874467, 0.410412485194315, -0.872, -1.588, 1.666], a = 0.2, v = 0.2, t = 0.2)
movej(p[-0.516081780977831, -0.228865051549722, 0.410032149376911, -0.872, -1.588, 1.666], a = 0.2, v = 0.2, t = 0.2)
movej(p[-0.516086689509403, -0.228874467289489, 0.40978101160435, -0.872, -1.588, 1.666], a = 0.2, v = 0.2, t = 0.2)
movej(p[-0.516087508780207, -0.228876038847211, 0.409739094822947, -0.872, -1.588, 1.666], a = 0.2, v = 0.2, t = 0.2)
movej(p[-0.516087317262356, -0.228875671470081, 0.409748893551068, -0.872, -1.588, 1.666], a = 0.2, v = 0.2, t = 0.2)
movej(p[-0.51608496584875, -0.228871160895322, 0.409869200157432, -0.872, -1.588, 1.666], a = 0.2, v = 0.2, t = 0.2)
movej(p[-0.516067715055713, -0.228838069740533, 0.410751811519957, -0.872, -1.588, 1.666], a = 0.2, v = 0.2, t = 0.2)
movej(p[-0.51604836111295, -0.228800944240598, 0.411742027433877, -0.872, -1.588, 1.666], a = 0.2, v = 0.2, t = 0.2)
movej(p[-0.516029411485648, -0.228764594314603, 0.412711557143987, -0.872, -1.588, 1.666], a = 0.2, v = 0.2, t = 0.2)
movej(p[-0.51601337009237, -0.228733823078355, 0.413532291353013, -0.872, -1.588, 1.666], a = 0.2, v = 0.2, t = 0.2)
movej(p[-0.515994789314262, -0.228698180693499, 0.414482949438596, -0.872, -1.588, 1.666], a = 0.2, v = 0.2, t = 0.2)
movej(p[-0.51598950838687, -0.228688050609313, 0.414753140293613, -0.872, -1.588, 1.666], a = 0.2, v = 0.2, t = 0.2)
movej(p[-0.51600910350026, -0.2287256387323, 0.413750585240579, -0.872, -1.588, 1.666], a = 0.2, v = 0.2, t = 0.2)
movej(p[-0.516030854962779, -0.228767363249636, 0.41263770376723, -0.872, -1.588, 1.666], a = 0.2, v = 0.2, t = 0.2)
movej(p[-0.516051567263629, -0.22880709440588, 0.411577989466828, -0.872, -1.588, 1.666], a = 0.2, v = 0.2, t = 0.2)
movej(p[-0.516067250447594, -0.22883717851083, 0.410775582508545, -0.872, -1.588, 1.666], a = 0.2, v = 0.2, t = 0.2)
movej(p[-0.516080252381655, -0.228862119335965, 0.410110357743944, -0.872, -1.588, 1.666], a = 0.2, v = 0.2, t = 0.2)
movej(p[-0.516084210417229, -0.228869711796644, 0.409907850696128, -0.872, -1.588, 1.666], a = 0.2, v = 0.2, t = 0.2)
movej(p[-0.516085774479673, -0.228872712043203, 0.409827827749813, -0.872, -1.588, 1.666], a = 0.2, v = 0.2, t = 0.2)
movej(p[-0.516087476860565, -0.228875977617689, 0.409740727944301, -0.872, -1.588, 1.666], a = 0.2, v = 0.2, t = 0.2)
movej(p[-0.516087441394296, -0.228875909584887, 0.409742542523582, -0.872, -1.588, 1.666], a = 0.2, v = 0.2, t = 0.2)
movej(p[-0.516076301439336, -0.228854540481846, 0.410312501875904, -0.872, -1.588, 1.666], a = 0.2, v = 0.2, t = 0.2)
movej(p[-0.516059894743491, -0.228823068507739, 0.41115192625153, -0.872, -1.588, 1.666], a = 0.2, v = 0.2, t = 0.2)
movej(p[-0.51604359799308, -0.228791807435318, 0.411985725431384, -0.872, -1.588, 1.666], a = 0.2, v = 0.2, t = 0.2)
movej(p[-0.516021850077187, -0.228750089721262, 0.413098425446805, -0.872, -1.588, 1.666], a = 0.2, v = 0.2, t = 0.2)
movej(p[-0.516001627210844, -0.228711297417683, 0.414133098553121, -0.872, -1.588, 1.666], a = 0.2, v = 0.2, t = 0.2)
movej(p[-0.515990551095166, -0.228690050773685, 0.414699791662736, -0.872, -1.588, 1.666], a = 0.2, v = 0.2, t = 0.2)
movej(p[-0.516005415008328, -0.228718563320914, 0.413939301485856, -0.872, -1.588, 1.666], a = 0.2, v = 0.2, t = 0.2)
movej(p[-0.516030500300093, -0.228766682921618, 0.412655849560045, -0.872, -1.588, 1.666], a = 0.2, v = 0.2, t = 0.2)
movej(p[-0.516054106648459, -0.228811965554488, 0.411448065590272, -0.872, -1.588, 1.666], a = 0.2, v = 0.2, t = 0.2)
movej(p[-0.516072776092239, -0.228847778021348, 0.410492871056486, -0.872, -1.588, 1.666], a = 0.2, v = 0.2, t = 0.2)
movej(p[-0.51608040488661, -0.228862411877013, 0.410102555053034, -0.872, -1.588, 1.666], a = 0.2, v = 0.2, t = 0.2)
movej(p[-0.516084199777348, -0.228869691386804, 0.409908395069912, -0.872, -1.588, 1.666], a = 0.2, v = 0.2, t = 0.2)
movej(p[-0.51608584541221, -0.228872848108807, 0.40982419859125, -0.872, -1.588, 1.666], a = 0.2, v = 0.2, t = 0.2)
movej(p[-0.516088888418054, -0.2288786853232, 0.409668507688897, -0.872, -1.588, 1.666], a = 0.2, v = 0.2, t = 0.2)
movej(p[-0.516087519420087, -0.228876059257051, 0.409738550449163, -0.872, -1.588, 1.666], a = 0.2, v = 0.2, t = 0.2)
movej(p[-0.516075432515756, -0.228852873678202, 0.410356959068301, -0.872, -1.588, 1.666], a = 0.2, v = 0.2, t = 0.2)
movej(p[-0.516061721256323, -0.228826572197031, 0.411058475418532, -0.872, -1.588, 1.666], a = 0.2, v = 0.2, t = 0.2)
movej(p[-0.516040870637026, -0.228786575712861, 0.412125266578132, -0.872, -1.588, 1.666], a = 0.2, v = 0.2, t = 0.2)
movej(p[-0.516017402607107, -0.228741558407918, 0.413325973688706, -0.872, -1.588, 1.666], a = 0.2, v = 0.2, t = 0.2)
movej(p[-0.515998343034373, -0.228704997580238, 0.414301128594589, -0.872, -1.588, 1.666], a = 0.2, v = 0.2, t = 0.2)
movej(p[-0.515991047622927, -0.22869100323291, 0.414674387552795, -0.872, -1.588, 1.666], a = 0.2, v = 0.2, t = 0.2)
movej(p[-0.516005656178954, -0.228719025943966, 0.413926962346742, -0.872, -1.588, 1.666], a = 0.2, v = 0.2, t = 0.2)
movej(p[-0.516031461435972, -0.228768526610547, 0.412606674461516, -0.872, -1.588, 1.666], a = 0.2, v = 0.2, t = 0.2)
movej(p[-0.516055901241649, -0.228815408014258, 0.411356247878628, -0.872, -1.588, 1.666], a = 0.2, v = 0.2, t = 0.2)
movej(p[-0.516073481870984, -0.228849131874104, 0.410456760928784, -0.872, -1.588, 1.666], a = 0.2, v = 0.2, t = 0.2)
movej(p[-0.516080330407446, -0.228862269008129, 0.410106365669525, -0.872, -1.588, 1.666], a = 0.2, v = 0.2, t = 0.2)
movej(p[-0.516084054365647, -0.228869412452317, 0.409915834844966, -0.872, -1.588, 1.666], a = 0.2, v = 0.2, t = 0.2)
movej(p[-0.516087976934952, -0.228876936880194, 0.409715142376432, -0.872, -1.588, 1.666], a = 0.2, v = 0.2, t = 0.2)
movej(p[-0.516088668527189, -0.228878263519829, 0.409679758080442, -0.872, -1.588, 1.666], a = 0.2, v = 0.2, t = 0.2)
movej(p[-0.516088544395249, -0.228878025405023, 0.409686109107927, -0.872, -1.588, 1.666], a = 0.2, v = 0.2, t = 0.2)
movej(p[-0.516082699554187, -0.228866813599288, 0.40998515177352, -0.872, -1.588, 1.666], a = 0.2, v = 0.2, t = 0.2)
movej(p[-0.516072123512897, -0.228846526217795, 0.410526259315266, -0.872, -1.588, 1.666], a = 0.2, v = 0.2, t = 0.2)
movej(p[-0.516049396727992, -0.22880293079841, 0.411689041718857, -0.872, -1.588, 1.666], a = 0.2, v = 0.2, t = 0.2)
movej(p[-0.516028563841829, -0.228762968330641, 0.412754925588815, -0.872, -1.588, 1.666], a = 0.2, v = 0.2, t = 0.2)
movej(p[-0.516015384576425, -0.228737687341497, 0.413429223249824, -0.872, -1.588, 1.666], a = 0.2, v = 0.2, t = 0.2)
movej(p[-0.515998672870671, -0.228705630285295, 0.414284253007271, -0.872, -1.588, 1.666], a = 0.2, v = 0.2, t = 0.2)
movej(p[-0.515980155931846, -0.228670110359482, 0.415231644850146, -0.872, -1.588, 1.666], a = 0.2, v = 0.2, t = 0.2)
movej(p[-0.515970994994672, -0.22865253748678, 0.41570035067856, -0.872, -1.588, 1.666], a = 0.2, v = 0.2, t = 0.2)
movej(p[-0.516000534849771, -0.228709202007388, 0.414188987594992, -0.872, -1.588, 1.666], a = 0.2, v = 0.2, t = 0.2)
movej(p[-0.516029581723737, -0.228764920872052, 0.412702847163436, -0.872, -1.588, 1.666], a = 0.2, v = 0.2, t = 0.2)
movej(p[-0.516050755086079, -0.228805536454719, 0.411619543332375, -0.872, -1.588, 1.666], a = 0.2, v = 0.2, t = 0.2)
movej(p[-0.516069357143948, -0.228841219659256, 0.410667796499224, -0.872, -1.588, 1.666], a = 0.2, v = 0.2, t = 0.2)
movej(p[-0.516079667188224, -0.228860996794736, 0.410140298302089, -0.872, -1.588, 1.666], a = 0.2, v = 0.2, t = 0.2)
movej(p[-0.516084160764453, -0.228869616550722, 0.409910391107122, -0.872, -1.588, 1.666], a = 0.2, v = 0.2, t = 0.2)
movej(p[-0.516086352579851, -0.228873820977872, 0.409798250107525, -0.872, -1.588, 1.666], a = 0.2, v = 0.2, t = 0.2)
movej(p[-0.516089395585695, -0.228879658192266, 0.409642559205171, -0.872, -1.588, 1.666], a = 0.2, v = 0.2, t = 0.2)
movej(p[-0.516089157961696, -0.228879202372494, 0.409654716886357, -0.872, -1.588, 1.666], a = 0.2, v = 0.2, t = 0.2)
movej(p[-0.516089399132322, -0.228879664995546, 0.409642377747243, -0.872, -1.588, 1.666], a = 0.2, v = 0.2, t = 0.2)
movej(p[-0.516089235987486, -0.228879352044658, 0.409650724811938, -0.872, -1.588, 1.666], a = 0.2, v = 0.2, t = 0.2)
movej(p[-0.516085093527316, -0.228871405813409, 0.409862667672018, -0.872, -1.588, 1.666], a = 0.2, v = 0.2, t = 0.2)
movej(p[-0.516067431325564, -0.228837525478119, 0.41076632815421, -0.872, -1.588, 1.666], a = 0.2, v = 0.2, t = 0.2)
movej(p[-0.516046098365014, -0.228796603747844, 0.411857797592037, -0.872, -1.588, 1.666], a = 0.2, v = 0.2, t = 0.2)
movej(p[-0.516030769843735, -0.228767199970912, 0.412642058757505, -0.872, -1.588, 1.666], a = 0.2, v = 0.2, t = 0.2)
movej(p[-0.516010057542885, -0.228727468814668, 0.413701773057906, -0.872, -1.588, 1.666], a = 0.2, v = 0.2, t = 0.2)
movej(p[-0.515993044373848, -0.228694833479651, 0.414572226739246, -0.872, -1.588, 1.666], a = 0.2, v = 0.2, t = 0.2)
movej(p[-0.516000325598787, -0.228708800613858, 0.414199693612752, -0.872, -1.588, 1.666], a = 0.2, v = 0.2, t = 0.2)
movej(p[-0.516030088891378, -0.228765893741117, 0.41267689867971, -0.872, -1.588, 1.666], a = 0.2, v = 0.2, t = 0.2)
movej(p[-0.516051404118794, -0.228806781454991, 0.411586336531523, -0.872, -1.588, 1.666], a = 0.2, v = 0.2, t = 0.2)
movej(p[-0.516066509202581, -0.228835756625273, 0.410813507215529, -0.872, -1.588, 1.666], a = 0.2, v = 0.2, t = 0.2)
movej(p[-0.516077961260705, -0.22885772441697, 0.41022757956553, -0.872, -1.588, 1.666], a = 0.2, v = 0.2, t = 0.2)
movej(p[-0.516085029688033, -0.228871283354366, 0.409865933914725, -0.872, -1.588, 1.666], a = 0.2, v = 0.2, t = 0.2)
movej(p[-0.516087068998476, -0.228875195240468, 0.409761595606038, -0.872, -1.588, 1.666], a = 0.2, v = 0.2, t = 0.2)
movej(p[-0.516086944866536, -0.228874957125662, 0.409767946633523, -0.872, -1.588, 1.666], a = 0.2, v = 0.2, t = 0.2)
movej(p[-0.516081121305236, -0.228863786139609, 0.410065900551547, -0.872, -1.588, 1.666], a = 0.2, v = 0.2, t = 0.2)
movej(p[-0.516059894743491, -0.228823068507739, 0.41115192625153, -0.872, -1.588, 1.666], a = 0.2, v = 0.2, t = 0.2)
movej(p[-0.516033773836683, -0.228772962349223, 0.412488363892361, -0.872, -1.588, 1.666], a = 0.2, v = 0.2, t = 0.2)
movej(p[-0.516011415900971, -0.228730074470977, 0.413632274671425, -0.872, -1.588, 1.666], a = 0.2, v = 0.2, t = 0.2)
movej(p[-0.515995622771573, -0.228699779464341, 0.414440306825481, -0.872, -1.588, 1.666], a = 0.2, v = 0.2, t = 0.2)
movej(p[-0.5159805460608, -0.228670858720301, 0.41521168447805, -0.872, -1.588, 1.666], a = 0.2, v = 0.2, t = 0.2)
movej(p[-0.515997892612762, -0.228704133563655, 0.414324173751464, -0.872, -1.588, 1.666], a = 0.2, v = 0.2, t = 0.2)
movej(p[-0.51602790771586, -0.228761709723808, 0.412788495305523, -0.872, -1.588, 1.666], a = 0.2, v = 0.2, t = 0.2)
movej(p[-0.516047545388772, -0.228799379486157, 0.411783762757352, -0.872, -1.588, 1.666], a = 0.2, v = 0.2, t = 0.2)
movej(p[-0.516061270834712, -0.228825708180449, 0.411081520575408, -0.872, -1.588, 1.666], a = 0.2, v = 0.2, t = 0.2)
movej(p[-0.516068952828486, -0.228840444085316, 0.410688482703033, -0.872, -1.588, 1.666], a = 0.2, v = 0.2, t = 0.2)
movej(p[-0.516073240700357, -0.228848669251052, 0.410469100067898, -0.872, -1.588, 1.666], a = 0.2, v = 0.2, t = 0.2)
movej(p[-0.516069683433619, -0.228841845561032, 0.410651102369834, -0.872, -1.588, 1.666], a = 0.2, v = 0.2, t = 0.2)
movej(p[-0.516045101762867, -0.228794692026114, 0.411908787269848, -0.872, -1.588, 1.666], a = 0.2, v = 0.2, t = 0.2)
movej(p[-0.516018342463225, -0.228743361277166, 0.413277887337746, -0.872, -1.588, 1.666], a = 0.2, v = 0.2, t = 0.2)
movej(p[-0.515993473515697, -0.228695656676553, 0.41455027032994, -0.872, -1.588, 1.666], a = 0.2, v = 0.2, t = 0.2)
movej(p[-0.515970725451031, -0.228652020437486, 0.4157141414811, -0.872, -1.588, 1.666], a = 0.2, v = 0.2, t = 0.2)
movej(p[-0.515940607495754, -0.228594246982209, 0.417255082206957, -0.872, -1.588, 1.666], a = 0.2, v = 0.2, t = 0.2)
movej(p[-0.515911255611878, -0.22853794303545, 0.418756828020334, -0.872, -1.588, 1.666], a = 0.2, v = 0.2, t = 0.2)
movej(p[-0.515904722725206, -0.228525411393361, 0.419091073523988, -0.872, -1.588, 1.666], a = 0.2, v = 0.2, t = 0.2)
movej(p[-0.515948300129409, -0.228609003296916, 0.416861499960798, -0.872, -1.588, 1.666], a = 0.2, v = 0.2, t = 0.2)
movej(p[-0.515985312727297, -0.228680002328861, 0.414967805022615, -0.872, -1.588, 1.666], a = 0.2, v = 0.2, t = 0.2)
movej(p[-0.516011440727359, -0.228730122093938, 0.413631004465928, -0.872, -1.588, 1.666], a = 0.2, v = 0.2, t = 0.2)
movej(p[-0.516029638469767, -0.228765029724535, 0.412699943836585, -0.872, -1.588, 1.666], a = 0.2, v = 0.2, t = 0.2)
movej(p[-0.516045215254927, -0.22879490973108, 0.411902980616147, -0.872, -1.588, 1.666], a = 0.2, v = 0.2, t = 0.2)
movej(p[-0.516060064981581, -0.228823395065188, 0.411143216270979, -0.872, -1.588, 1.666], a = 0.2, v = 0.2, t = 0.2)
movej(p[-0.516068527233263, -0.228839627691694, 0.410710257654411, -0.872, -1.588, 1.666], a = 0.2, v = 0.2, t = 0.2)
movej(p[-0.516075514088173, -0.228853030153646, 0.410352785535954, -0.872, -1.588, 1.666], a = 0.2, v = 0.2, t = 0.2)
movej(p[-0.516080131796342, -0.228861888024439, 0.410116527313501, -0.872, -1.588, 1.666], a = 0.2, v = 0.2, t = 0.2)
movej(p[-0.516084348735676, -0.228869977124571, 0.40990077383693, -0.872, -1.588, 1.666], a = 0.2, v = 0.2, t = 0.2)
movej(p[-0.516081908656398, -0.228865296467808, 0.410025616891498, -0.872, -1.588, 1.666], a = 0.2, v = 0.2, t = 0.2)
movej(p[-0.516062696578709, -0.22882844309908, 0.411008574488291, -0.872, -1.588, 1.666], a = 0.2, v = 0.2, t = 0.2)
movej(p[-0.516044009401795, -0.228792596615819, 0.411964676311718, -0.872, -1.588, 1.666], a = 0.2, v = 0.2, t = 0.2)
movej(p[-0.516018920563402, -0.228744470211835, 0.413248309695457, -0.872, -1.588, 1.666], a = 0.2, v = 0.2, t = 0.2)
movej(p[-0.516000431997592, -0.228709004712263, 0.414194249874908, -0.872, -1.588, 1.666], a = 0.2, v = 0.2, t = 0.2)
movej(p[-0.516003035221706, -0.228713998319914, 0.414061059755645, -0.872, -1.588, 1.666], a = 0.2, v = 0.2, t = 0.2)
movej(p[-0.51603562872253, -0.228776520464757, 0.412393461395939, -0.872, -1.588, 1.666], a = 0.2, v = 0.2, t = 0.2)
movej(p[-0.516058610864569, -0.228820605720315, 0.411217614021521, -0.872, -1.588, 1.666], a = 0.2, v = 0.2, t = 0.2)
movej(p[-0.516073205234089, -0.22884860121825, 0.41047091464718, -0.872, -1.588, 1.666], a = 0.2, v = 0.2, t = 0.2)
movej(p[-0.516081972495682, -0.228865418926852, 0.410022350648791, -0.872, -1.588, 1.666], a = 0.2, v = 0.2, t = 0.2)
movej(p[-0.516085813492569, -0.228872786879285, 0.409825831712604, -0.872, -1.588, 1.666], a = 0.2, v = 0.2, t = 0.2)
movej(p[-0.516087093824864, -0.22887524286343, 0.409760325400541, -0.872, -1.588, 1.666], a = 0.2, v = 0.2, t = 0.2)
movej(p[-0.516086604390358, -0.228874304010765, 0.409785366594626, -0.872, -1.588, 1.666], a = 0.2, v = 0.2, t = 0.2)
movej(p[-0.516080078596939, -0.228861785975236, 0.410119249182424, -0.872, -1.588, 1.666], a = 0.2, v = 0.2, t = 0.2)
movej(p[-0.516058656970718, -0.228820694162957, 0.411215255068455, -0.872, -1.588, 1.666], a = 0.2, v = 0.2, t = 0.2)
movej(p[-0.516038437651001, -0.228781908662658, 0.412249746716843, -0.872, -1.588, 1.666], a = 0.2, v = 0.2, t = 0.2)
movej(p[-0.51601999519134, -0.228746531605729, 0.413193327943228, -0.872, -1.588, 1.666], a = 0.2, v = 0.2, t = 0.2)
movej(p[-0.516002010246544, -0.228712032171943, 0.414113501096881, -0.872, -1.588, 1.666], a = 0.2, v = 0.2, t = 0.2)
movej(p[-0.515993466422444, -0.228695643069992, 0.414550633245796, -0.872, -1.588, 1.666], a = 0.2, v = 0.2, t = 0.2)
movej(p[-0.516015590280783, -0.228738081931747, 0.413418698689991, -0.872, -1.588, 1.666], a = 0.2, v = 0.2, t = 0.2)
movej(p[-0.516047609228056, -0.2287995019452, 0.411780496514645, -0.872, -1.588, 1.666], a = 0.2, v = 0.2, t = 0.2)
movej(p[-0.516065204043898, -0.228833253018167, 0.410880283733088, -0.872, -1.588, 1.666], a = 0.2, v = 0.2, t = 0.2)
movej(p[-0.516076379465127, -0.22885469015401, 0.410308509801485, -0.872, -1.588, 1.666], a = 0.2, v = 0.2, t = 0.2)
movej(p[-0.516081734871682, -0.22886496310708, 0.410034508329977, -0.872, -1.588, 1.666], a = 0.2, v = 0.2, t = 0.2)
movej(p[-0.51608689521376, -0.22887486187974, 0.409770487044518, -0.872, -1.588, 1.666], a = 0.2, v = 0.2, t = 0.2)
movej(p[-0.516087547793102, -0.228876113683293, 0.409737098785738, -0.872, -1.588, 1.666], a = 0.2, v = 0.2, t = 0.2)
movej(p[-0.516086302927075, -0.22887372573195, 0.409800790518519, -0.872, -1.588, 1.666], a = 0.2, v = 0.2, t = 0.2)
movej(p[-0.516078025099989, -0.228857846876013, 0.410224313322823, -0.872, -1.588, 1.666], a = 0.2, v = 0.2, t = 0.2)
movej(p[-0.516059923116506, -0.228823122933981, 0.411150474588105, -0.872, -1.588, 1.666], a = 0.2, v = 0.2, t = 0.2)
movej(p[-0.516039047670821, -0.228783078826849, 0.412218535953201, -0.872, -1.588, 1.666], a = 0.2, v = 0.2, t = 0.2)
movej(p[-0.516022318231932, -0.228750987754246, 0.413074473000289, -0.872, -1.588, 1.666], a = 0.2, v = 0.2, t = 0.2)
movej(p[-0.516009660320677, -0.228726706847288, 0.413722096345859, -0.872, -1.588, 1.666], a = 0.2, v = 0.2, t = 0.2)
movej(p[-0.51600625910552, -0.228720182501597, 0.413896114498956, -0.872, -1.588, 1.666], a = 0.2, v = 0.2, t = 0.2)
movej(p[-0.516029124208873, -0.228764043248909, 0.412726255236167, -0.872, -1.588, 1.666], a = 0.2, v = 0.2, t = 0.2)
movej(p[-0.51605207443127, -0.228808067274945, 0.411552040983103, -0.872, -1.588, 1.666], a = 0.2, v = 0.2, t = 0.2)
movej(p[-0.516071141097258, -0.228844641709186, 0.410576523161364, -0.872, -1.588, 1.666], a = 0.2, v = 0.2, t = 0.2)
movej(p[-0.516078581920405, -0.228858914991001, 0.410195824428103, -0.872, -1.588, 1.666], a = 0.2, v = 0.2, t = 0.2)
movej(p[-0.516082586062128, -0.228866595894323, 0.409990958427221, -0.872, -1.588, 1.666], a = 0.2, v = 0.2, t = 0.2)
movej(p[-0.516086061756449, -0.228873263108898, 0.409813129657633, -0.872, -1.588, 1.666], a = 0.2, v = 0.2, t = 0.2)
movej(p[-0.516088150719668, -0.228877270240923, 0.409706250937952, -0.872, -1.588, 1.666], a = 0.2, v = 0.2, t = 0.2)
movej(p[-0.516088328051011, -0.228877610404932, 0.409697178041545, -0.872, -1.588, 1.666], a = 0.2, v = 0.2, t = 0.2)
movej(p[-0.516088345784145, -0.228877644421333, 0.409696270751904, -0.872, -1.588, 1.666], a = 0.2, v = 0.2, t = 0.2)
movej(p[-0.516090526959663, -0.228881828438643, 0.409584674126091, -0.872, -1.588, 1.666], a = 0.2, v = 0.2, t = 0.2)
movej(p[-0.516086724975671, -0.228874535322291, 0.409779197025069, -0.872, -1.588, 1.666], a = 0.2, v = 0.2, t = 0.2)
movej(p[-0.516074808309429, -0.228851676300891, 0.410388895663656, -0.872, -1.588, 1.666], a = 0.2, v = 0.2, t = 0.2)
movej(p[-0.516059777704805, -0.228822843999493, 0.411157914363159, -0.872, -1.588, 1.666], a = 0.2, v = 0.2, t = 0.2)
movej(p[-0.516043438394871, -0.22879150128771, 0.41199389103815, -0.872, -1.588, 1.666], a = 0.2, v = 0.2, t = 0.2)
movej(p[-0.516022215379753, -0.228750790459121, 0.413079735280205, -0.872, -1.588, 1.666], a = 0.2, v = 0.2, t = 0.2)
movej(p[-0.516002095365589, -0.228712195450667, 0.414109146106605, -0.872, -1.588, 1.666], a = 0.2, v = 0.2, t = 0.2)
movej(p[-0.515992487553431, -0.228693765364663, 0.414600715633966, -0.872, -1.588, 1.666], a = 0.2, v = 0.2, t = 0.2)
movej(p[-0.516014196456428, -0.228735408242637, 0.413490011655754, -0.872, -1.588, 1.666], a = 0.2, v = 0.2, t = 0.2)
movej(p[-0.516039395240253, -0.228783745548306, 0.412200753076242, -0.872, -1.588, 1.666], a = 0.2, v = 0.2, t = 0.2)
movej(p[-0.516060249406177, -0.228823748835757, 0.411133780458715, -0.872, -1.588, 1.666], a = 0.2, v = 0.2, t = 0.2)
movej(p[-0.516075989336172, -0.22885394179319, 0.410328470173581, -0.872, -1.588, 1.666], a = 0.2, v = 0.2, t = 0.2)
movej(p[-0.51608232361174, -0.228866092451589, 0.410004386313904, -0.872, -1.588, 1.666], a = 0.2, v = 0.2, t = 0.2)
movej(p[-0.516085036781287, -0.228871296960926, 0.409865570998869, -0.872, -1.588, 1.666], a = 0.2, v = 0.2, t = 0.2)
movej(p[-0.51608634193997, -0.228873800568032, 0.409798794481309, -0.872, -1.588, 1.666], a = 0.2, v = 0.2, t = 0.2)
movej(p[-0.51608906220277, -0.228879018683929, 0.409659616250417, -0.872, -1.588, 1.666], a = 0.2, v = 0.2, t = 0.2)
movej(p[-0.516088732366473, -0.228878385978872, 0.409676491837735, -0.872, -1.588, 1.666], a = 0.2, v = 0.2, t = 0.2)
movej(p[-0.516088703993458, -0.228878331552631, 0.409677943501161, -0.872, -1.588, 1.666], a = 0.2, v = 0.2, t = 0.2)
movej(p[-0.516084171404333, -0.228869636960562, 0.409909846733337, -0.872, -1.588, 1.666], a = 0.2, v = 0.2, t = 0.2)
movej(p[-0.516072197992061, -0.228846669086679, 0.410522448698775, -0.872, -1.588, 1.666], a = 0.2, v = 0.2, t = 0.2)
movej(p[-0.516053585294311, -0.228810965472301, 0.411474739905711, -0.872, -1.588, 1.666], a = 0.2, v = 0.2, t = 0.2)
movej(p[-0.516034930037039, -0.228775180218561, 0.412429208607784, -0.872, -1.588, 1.666], a = 0.2, v = 0.2, t = 0.2)
movej(p[-0.516020860568294, -0.228748191606092, 0.413149052208759, -0.872, -1.588, 1.666], a = 0.2, v = 0.2, t = 0.2)
movej(p[-0.516006691793997, -0.228721012501779, 0.413873976631722, -0.872, -1.588, 1.666], a = 0.2, v = 0.2, t = 0.2)
movej(p[-0.516001095216815, -0.228710276925657, 0.414160317242344, -0.872, -1.588, 1.666], a = 0.2, v = 0.2, t = 0.2)
movej(p[-0.516023126862856, -0.228752538902127, 0.41303310059267, -0.872, -1.588, 1.666], a = 0.2, v = 0.2, t = 0.2)
movej(p[-0.516052475200105, -0.228808836045605, 0.411531536237222, -0.872, -1.588, 1.666], a = 0.2, v = 0.2, t = 0.2)
movej(p[-0.516067796628131, -0.228838226215977, 0.41074763798761, -0.872, -1.588, 1.666], a = 0.2, v = 0.2, t = 0.2)
movej(p[-0.516076131201247, -0.228854213924397, 0.410321211856455, -0.872, -1.588, 1.666], a = 0.2, v = 0.2, t = 0.2)
movej(p[-0.51608218883992, -0.228865833926943, 0.410011281715174, -0.872, -1.588, 1.666], a = 0.2, v = 0.2, t = 0.2)
movej(p[-0.516086352579851, -0.228873820977872, 0.409798250107525, -0.872, -1.588, 1.666], a = 0.2, v = 0.2, t = 0.2)
movej(p[-0.516087278249461, -0.228875596633999, 0.409750889588277, -0.872, -1.588, 1.666], a = 0.2, v = 0.2, t = 0.2)
movej(p[-0.516087785417102, -0.228876569503065, 0.409724941104552, -0.872, -1.588, 1.666], a = 0.2, v = 0.2, t = 0.2)
movej(p[-0.516090076538052, -0.22888096442206, 0.409607719282966, -0.872, -1.588, 1.666], a = 0.2, v = 0.2, t = 0.2)
movej(p[-0.516089342386292, -0.228879556143063, 0.409645281074093, -0.872, -1.588, 1.666], a = 0.2, v = 0.2, t = 0.2)
movej(p[-0.516081745511563, -0.22886498351692, 0.410033963956193, -0.872, -1.588, 1.666], a = 0.2, v = 0.2, t = 0.2)
movej(p[-0.516067012823595, -0.228836722691058, 0.410787740189731, -0.872, -1.588, 1.666], a = 0.2, v = 0.2, t = 0.2)
movej(p[-0.516054056995683, -0.228811870308565, 0.411450606001267, -0.872, -1.588, 1.666], a = 0.2, v = 0.2, t = 0.2)
movej(p[-0.516035068355486, -0.228775445546488, 0.412422131748586, -0.872, -1.588, 1.666], a = 0.2, v = 0.2, t = 0.2)
movej(p[-0.516019136907641, -0.228744885211926, 0.41323724076184, -0.872, -1.588, 1.666], a = 0.2, v = 0.2, t = 0.2)
movej(p[-0.516008401268142, -0.228724291682825, 0.413786513910353, -0.872, -1.588, 1.666], a = 0.2, v = 0.2, t = 0.2)
movej(p[-0.516002325896335, -0.228712637663879, 0.414097351341275, -0.872, -1.588, 1.666], a = 0.2, v = 0.2, t = 0.2)
movej(p[-0.516024304342973, -0.228754797591146, 0.412972856560524, -0.872, -1.588, 1.666], a = 0.2, v = 0.2, t = 0.2)
movej(p[-0.51604874414865, -0.228801678994857, 0.411722429977637, -0.872, -1.588, 1.666], a = 0.2, v = 0.2, t = 0.2)
movej(p[-0.516069562848306, -0.228841614249506, 0.410657271939391, -0.872, -1.588, 1.666], a = 0.2, v = 0.2, t = 0.2)
movej(p[-0.516077993180347, -0.228857785646491, 0.410225946444176, -0.872, -1.588, 1.666], a = 0.2, v = 0.2, t = 0.2)
movej(p[-0.51608293363156, -0.22886726261578, 0.409973175550262, -0.872, -1.588, 1.666], a = 0.2, v = 0.2, t = 0.2)
movej(p[-0.516086182341762, -0.228873494420424, 0.409806960088076, -0.872, -1.588, 1.666], a = 0.2, v = 0.2, t = 0.2)
movej(p[-0.516088778472622, -0.228878474421515, 0.409674132884669, -0.872, -1.588, 1.666], a = 0.2, v = 0.2, t = 0.2)
movej(p[-0.516088484102593, -0.22887790974926, 0.409689193892706, -0.872, -1.588, 1.666], a = 0.2, v = 0.2, t = 0.2)
movej(p[-0.516079621082075, -0.228860908352093, 0.410142657255155, -0.872, -1.588, 1.666], a = 0.2, v = 0.2, t = 0.2)
movej(p[-0.516065753771061, -0.228834307526594, 0.410852157754225, -0.872, -1.588, 1.666], a = 0.2, v = 0.2, t = 0.2)
movej(p[-0.516045850101134, -0.228796127518232, 0.411870499647008, -0.872, -1.588, 1.666], a = 0.2, v = 0.2, t = 0.2)
movej(p[-0.516025751366731, -0.228757573329459, 0.412898821725839, -0.872, -1.588, 1.666], a = 0.2, v = 0.2, t = 0.2)
movej(p[-0.516009699333572, -0.22872678168337, 0.41372010030865, -0.872, -1.588, 1.666], a = 0.2, v = 0.2, t = 0.2)
movej(p[-0.516002744398304, -0.22871344045094, 0.414075939305753, -0.872, -1.588, 1.666], a = 0.2, v = 0.2, t = 0.2)
movej(p[-0.516021240057367, -0.228748919557072, 0.413129636210447, -0.872, -1.588, 1.666], a = 0.2, v = 0.2, t = 0.2)
movej(p[-0.516047495735996, -0.228799284240234, 0.411786303168346, -0.872, -1.588, 1.666], a = 0.2, v = 0.2, t = 0.2)
movej(p[-0.516068683284845, -0.228839927036022, 0.410702273505572, -0.872, -1.588, 1.666], a = 0.2, v = 0.2, t = 0.2)
movej(p[-0.516078447148585, -0.228858656466354, 0.410202719829373, -0.872, -1.588, 1.666], a = 0.2, v = 0.2, t = 0.2)
movej(p[-0.516083178348813, -0.228867732042112, 0.40996065495322, -0.872, -1.588, 1.666], a = 0.2, v = 0.2, t = 0.2)
movej(p[-0.516085607788211, -0.228872392289035, 0.409836356272436, -0.872, -1.588, 1.666], a = 0.2, v = 0.2, t = 0.2)
movej(p[-0.516088941617457, -0.228878787372403, 0.409665785819974, -0.872, -1.588, 1.666], a = 0.2, v = 0.2, t = 0.2)
movej(p[-0.516089115402173, -0.228879120733132, 0.409656894381495, -0.872, -1.588, 1.666], a = 0.2, v = 0.2, t = 0.2)
movej(p[-0.516086920040148, -0.228874909502701, 0.40976921683902, -0.872, -1.588, 1.666], a = 0.2, v = 0.2, t = 0.2)
movej(p[-0.516076787327215, -0.22885547253123, 0.410287642139748, -0.872, -1.588, 1.666], a = 0.2, v = 0.2, t = 0.2)
movej(p[-0.51605794409872, -0.228819326703641, 0.411251728112013, -0.872, -1.588, 1.666], a = 0.2, v = 0.2, t = 0.2)
movej(p[-0.516036696257214, -0.22877856825209, 0.412338842559565, -0.872, -1.588, 1.666], a = 0.2, v = 0.2, t = 0.2)
movej(p[-0.516019041148716, -0.228744701523361, 0.4132421401259, -0.872, -1.588, 1.666], a = 0.2, v = 0.2, t = 0.2)
movej(p[-0.516006862032086, -0.228721339059227, 0.41386526665117, -0.872, -1.588, 1.666], a = 0.2, v = 0.2, t = 0.2)
movej(p[-0.516001013644397, -0.228710120450212, 0.414164490774691, -0.872, -1.588, 1.666], a = 0.2, v = 0.2, t = 0.2)
movej(p[-0.516022977904528, -0.228752253164359, 0.413040721825653, -0.872, -1.588, 1.666], a = 0.2, v = 0.2, t = 0.2)
movej(p[-0.516052429093956, -0.228808747602963, 0.411533895190288, -0.872, -1.588, 1.666], a = 0.2, v = 0.2, t = 0.2)
movej(p[-0.516070360839349, -0.228843144987547, 0.410616443905557, -0.872, -1.588, 1.666], a = 0.2, v = 0.2, t = 0.2)
movej(p[-0.51607928769915, -0.228860268843756, 0.410159714300401, -0.872, -1.588, 1.666], a = 0.2, v = 0.2, t = 0.2)
movej(p[-0.516084182044214, -0.228869657370403, 0.409909302359553, -0.872, -1.588, 1.666], a = 0.2, v = 0.2, t = 0.2)
movej(p[-0.516088696900204, -0.22887831794607, 0.409678306417017, -0.872, -1.588, 1.666], a = 0.2, v = 0.2, t = 0.2)
movej(p[-0.516088977083726, -0.228878855405205, 0.409663971240693, -0.872, -1.588, 1.666], a = 0.2, v = 0.2, t = 0.2)
movej(p[-0.51608906220277, -0.228879018683929, 0.409659616250417, -0.872, -1.588, 1.666], a = 0.2, v = 0.2, t = 0.2)
movej(p[-0.516089519717635, -0.228879896307072, 0.409636208177686, -0.872, -1.588, 1.666], a = 0.2, v = 0.2, t = 0.2)
movej(p[-0.516090892262229, -0.228882529176501, 0.409565983959492, -0.872, -1.588, 1.666], a = 0.2, v = 0.2, t = 0.2)
movej(p[-0.516083469172215, -0.228868289911087, 0.409945775403111, -0.872, -1.588, 1.666], a = 0.2, v = 0.2, t = 0.2)
movej(p[-0.516068442114219, -0.22883946441297, 0.410714612644687, -0.872, -1.588, 1.666], a = 0.2, v = 0.2, t = 0.2)
movej(p[-0.516055706177172, -0.228815033833848, 0.411366228064676, -0.872, -1.588, 1.666], a = 0.2, v = 0.2, t = 0.2)
movej(p[-0.516039611584491, -0.228784160548397, 0.412189684142625, -0.872, -1.588, 1.666], a = 0.2, v = 0.2, t = 0.2)
movej(p[-0.516022382071216, -0.228751110213289, 0.413071206757582, -0.872, -1.588, 1.666], a = 0.2, v = 0.2, t = 0.2)
movej(p[-0.516009678053811, -0.228726740863689, 0.413721189056219, -0.872, -1.588, 1.666], a = 0.2, v = 0.2, t = 0.2)
movej(p[-0.51601274943267, -0.228732632504324, 0.41356404649044, -0.872, -1.588, 1.666], a = 0.2, v = 0.2, t = 0.2)
movej(p[-0.51603413913925, -0.228773663087082, 0.412469673725762, -0.872, -1.588, 1.666], a = 0.2, v = 0.2, t = 0.2)
movej(p[-0.51605659992714, -0.228816748260453, 0.411320500666782, -0.872, -1.588, 1.666], a = 0.2, v = 0.2, t = 0.2)
movej(p[-0.516074233755878, -0.228850574169502, 0.410418291848016, -0.872, -1.588, 1.666], a = 0.2, v = 0.2, t = 0.2)
movej(p[-0.516080968800281, -0.228863493598561, 0.410073703242458, -0.872, -1.588, 1.666], a = 0.2, v = 0.2, t = 0.2)
movej(p[-0.516085008408272, -0.228871242534685, 0.409867022662294, -0.872, -1.588, 1.666], a = 0.2, v = 0.2, t = 0.2)
movej(p[-0.516086987426059, -0.228875038765024, 0.409765769138386, -0.872, -1.588, 1.666], a = 0.2, v = 0.2, t = 0.2)
movej(p[-0.516090385094588, -0.228881556307436, 0.409591932443217, -0.872, -1.588, 1.666], a = 0.2, v = 0.2, t = 0.2)
movej(p[-0.516090576612439, -0.228881923684565, 0.409582133715097, -0.872, -1.588, 1.666], a = 0.2, v = 0.2, t = 0.2)
movej(p[-0.516090246776141, -0.228881290979509, 0.409599009302415, -0.872, -1.588, 1.666], a = 0.2, v = 0.2, t = 0.2)
movej(p[-0.516089895660082, -0.228880617454771, 0.409616973637302, -0.872, -1.588, 1.666], a = 0.2, v = 0.2, t = 0.2)
movej(p[-0.516076737674439, -0.228855377285308, 0.410290182550742, -0.872, -1.588, 1.666], a = 0.2, v = 0.2, t = 0.2)
movej(p[-0.516061607764264, -0.228826354492066, 0.411064282072233, -0.872, -1.588, 1.666], a = 0.2, v = 0.2, t = 0.2)
movej(p[-0.516045811088239, -0.22879605268215, 0.411872495684217, -0.872, -1.588, 1.666], a = 0.2, v = 0.2, t = 0.2)
movej(p[-0.516033252482535, -0.228771962267037, 0.4125150382078, -0.872, -1.588, 1.666], a = 0.2, v = 0.2, t = 0.2)
movej(p[-0.516017785642808, -0.228742293162178, 0.413306376232466, -0.872, -1.588, 1.666], a = 0.2, v = 0.2, t = 0.2)
movej(p[-0.516006670514235, -0.228720971682097, 0.41387506537929, -0.872, -1.588, 1.666], a = 0.2, v = 0.2, t = 0.2)
movej(p[-0.516025446356821, -0.228756988247364, 0.41291442710766, -0.872, -1.588, 1.666], a = 0.2, v = 0.2, t = 0.2)
movej(p[-0.516048751241904, -0.228801692601418, 0.41172206706178, -0.872, -1.588, 1.666], a = 0.2, v = 0.2, t = 0.2)
movej(p[-0.516065480680793, -0.228833783674021, 0.410866130014693, -0.872, -1.588, 1.666], a = 0.2, v = 0.2, t = 0.2)
movej(p[-0.516076429117903, -0.228854785399932, 0.410305969390491, -0.872, -1.588, 1.666], a = 0.2, v = 0.2, t = 0.2)
movej(p[-0.51608503323466, -0.228871290157646, 0.409865752456797, -0.872, -1.588, 1.666], a = 0.2, v = 0.2, t = 0.2)
movej(p[-0.516087242783192, -0.228875528601197, 0.409752704167559, -0.872, -1.588, 1.666], a = 0.2, v = 0.2, t = 0.2)
movej(p[-0.516088228745459, -0.228877419913087, 0.409702258863533, -0.872, -1.588, 1.666], a = 0.2, v = 0.2, t = 0.2)
movej(p[-0.516089540997396, -0.228879937126753, 0.409635119430117, -0.872, -1.588, 1.666], a = 0.2, v = 0.2, t = 0.2)
movej(p[-0.516085980184031, -0.228873106633454, 0.40981730318998, -0.872, -1.588, 1.666], a = 0.2, v = 0.2, t = 0.2)
movej(p[-0.516070304093319, -0.228843036135064, 0.410619347232407, -0.872, -1.588, 1.666], a = 0.2, v = 0.2, t = 0.2)
movej(p[-0.516054156301235, -0.22881206080041, 0.411445525179278, -0.872, -1.588, 1.666], a = 0.2, v = 0.2, t = 0.2)
movej(p[-0.516039682517028, -0.228784296614001, 0.412186054984062, -0.872, -1.588, 1.666], a = 0.2, v = 0.2, t = 0.2)
movej(p[-0.516020197349071, -0.228746919392699, 0.413182984841323, -0.872, -1.588, 1.666], a = 0.2, v = 0.2, t = 0.2)
movej(p[-0.516002801144334, -0.228713549303423, 0.414073035978903, -0.872, -1.588, 1.666], a = 0.2, v = 0.2, t = 0.2)
movej(p[-0.515998648044283, -0.228705582662333, 0.414285523212768, -0.872, -1.588, 1.666], a = 0.2, v = 0.2, t = 0.2)
movej(p[-0.516025776193119, -0.22875762095242, 0.412897551520342, -0.872, -1.588, 1.666], a = 0.2, v = 0.2, t = 0.2)
movej(p[-0.516047995810383, -0.22880024350274, 0.411760717600476, -0.872, -1.588, 1.666], a = 0.2, v = 0.2, t = 0.2)
movej(p[-0.516066211285925, -0.228835185149737, 0.410828749681493, -0.872, -1.588, 1.666], a = 0.2, v = 0.2, t = 0.2)
movej(p[-0.516079926091985, -0.228861493434189, 0.410127051873334, -0.872, -1.588, 1.666], a = 0.2, v = 0.2, t = 0.2)
movej(p[-0.516085093527316, -0.228871405813409, 0.409862667672018, -0.872, -1.588, 1.666], a = 0.2, v = 0.2, t = 0.2)
movej(p[-0.516087554886356, -0.228876127289853, 0.409736735869881, -0.872, -1.588, 1.666], a = 0.2, v = 0.2, t = 0.2)
movej(p[-0.516088608234533, -0.228878147864066, 0.409682842865221, -0.872, -1.588, 1.666], a = 0.2, v = 0.2, t = 0.2)
movej(p[-0.516091502282049, -0.228883699340692, 0.40953477319585, -0.872, -1.588, 1.666], a = 0.2, v = 0.2, t = 0.2)
movej(p[-0.516091431349511, -0.228883563275088, 0.409538402354413, -0.872, -1.588, 1.666], a = 0.2, v = 0.2, t = 0.2)
movej(p[-0.516088292584742, -0.22887754237213, 0.409698992620826, -0.872, -1.588, 1.666], a = 0.2, v = 0.2, t = 0.2)
movej(p[-0.516077851315273, -0.228857513515284, 0.410233204761302, -0.872, -1.588, 1.666], a = 0.2, v = 0.2, t = 0.2)
movej(p[-0.516062143304919, -0.228827381787373, 0.411036881925083, -0.872, -1.588, 1.666], a = 0.2, v = 0.2, t = 0.2)
movej(p[-0.516042087130038, -0.228788909237962, 0.412063026508776, -0.872, -1.588, 1.666], a = 0.2, v = 0.2, t = 0.2)
movej(p[-0.516023673043392, -0.228753586607274, 0.413005156071735, -0.872, -1.588, 1.666], a = 0.2, v = 0.2, t = 0.2)
movej(p[-0.516009536188737, -0.228726468732482, 0.413728447373345, -0.872, -1.588, 1.666], a = 0.2, v = 0.2, t = 0.2)
movej(p[-0.515996722225899, -0.228701888481196, 0.414384054867754, -0.872, -1.588, 1.666], a = 0.2, v = 0.2, t = 0.2)
movej(p[-0.516011628698583, -0.228730482667787, 0.413621387195736, -0.872, -1.588, 1.666], a = 0.2, v = 0.2, t = 0.2)
movej(p[-0.516042505632007, -0.228789712025023, 0.412041614473254, -0.872, -1.588, 1.666], a = 0.2, v = 0.2, t = 0.2)
movej(p[-0.516067083756132, -0.228836858756661, 0.410784111031168, -0.872, -1.588, 1.666], a = 0.2, v = 0.2, t = 0.2)
movej(p[-0.516078166965063, -0.22885811900722, 0.410217055005697, -0.872, -1.588, 1.666], a = 0.2, v = 0.2, t = 0.2)
movej(p[-0.51608379191526, -0.228868909009583, 0.40992926273165, -0.872, -1.588, 1.666], a = 0.2, v = 0.2, t = 0.2)
movej(p[-0.516089012549994, -0.228878923438006, 0.409662156661411, -0.872, -1.588, 1.666], a = 0.2, v = 0.2, t = 0.2)
movej(p[-0.516089959499365, -0.228880739913814, 0.409613707394595, -0.872, -1.588, 1.666], a = 0.2, v = 0.2, t = 0.2)
movej(p[-0.516089498437874, -0.228879855487391, 0.409637296925255, -0.872, -1.588, 1.666], a = 0.2, v = 0.2, t = 0.2)
movej(p[-0.516078957862852, -0.2288596361387, 0.410176589887719, -0.872, -1.588, 1.666], a = 0.2, v = 0.2, t = 0.2)
movej(p[-0.516064413146108, -0.228831735886687, 0.410920748851066, -0.872, -1.588, 1.666], a = 0.2, v = 0.2, t = 0.2)
movej(p[-0.516044434997018, -0.22879341300944, 0.41194290136034, -0.872, -1.588, 1.666], a = 0.2, v = 0.2, t = 0.2)
movej(p[-0.516023559551333, -0.228753368902308, 0.413010962725436, -0.872, -1.588, 1.666], a = 0.2, v = 0.2, t = 0.2)
movej(p[-0.516008638892142, -0.228724747502597, 0.413774356229167, -0.872, -1.588, 1.666], a = 0.2, v = 0.2, t = 0.2)
movej(p[-0.515995587305305, -0.228699711431539, 0.414442121404762, -0.872, -1.588, 1.666], a = 0.2, v = 0.2, t = 0.2)
movej(p[-0.516005961188864, -0.228719611026062, 0.413911356964921, -0.872, -1.588, 1.666], a = 0.2, v = 0.2, t = 0.2)
movej(p[-0.516033628424982, -0.228772683414736, 0.412495803667416, -0.872, -1.588, 1.666], a = 0.2, v = 0.2, t = 0.2)
movej(p[-0.516061320487488, -0.228825803426371, 0.411078980164414, -0.872, -1.588, 1.666], a = 0.2, v = 0.2, t = 0.2)
movej(p[-0.516074453646743, -0.228850995972873, 0.410407041456471, -0.872, -1.588, 1.666], a = 0.2, v = 0.2, t = 0.2)
movej(p[-0.516082224306188, -0.228865901959744, 0.410009467135892, -0.872, -1.588, 1.666], a = 0.2, v = 0.2, t = 0.2)
movej(p[-0.51608677108182, -0.228874623764933, 0.409776838072003, -0.872, -1.588, 1.666], a = 0.2, v = 0.2, t = 0.2)
movej(p[-0.516089998512261, -0.228880814749896, 0.409611711357386, -0.872, -1.588, 1.666], a = 0.2, v = 0.2, t = 0.2)
movej(p[-0.516090133284081, -0.228881073274543, 0.409604815956116, -0.872, -1.588, 1.666], a = 0.2, v = 0.2, t = 0.2)
movej(p[-0.516085700000509, -0.228872569174319, 0.409831638366304, -0.872, -1.588, 1.666], a = 0.2, v = 0.2, t = 0.2)
movej(p[-0.516071811409734, -0.22884592752914, 0.410542227612943, -0.872, -1.588, 1.666], a = 0.2, v = 0.2, t = 0.2)
movej(p[-0.516050386236885, -0.22880482891358, 0.411638414956903, -0.872, -1.588, 1.666], a = 0.2, v = 0.2, t = 0.2)
movej(p[-0.516029117115619, -0.228764029642348, 0.412726618152024, -0.872, -1.588, 1.666], a = 0.2, v = 0.2, t = 0.2)
movej(p[-0.516011355608315, -0.228729958815214, 0.413635359456203, -0.872, -1.588, 1.666], a = 0.2, v = 0.2, t = 0.2)
movej(p[-0.515997271953062, -0.228702942989624, 0.41435592888889, -0.872, -1.588, 1.666], a = 0.2, v = 0.2, t = 0.2)
movej(p[-0.515997282592943, -0.228702963399464, 0.414355384515106, -0.872, -1.588, 1.666], a = 0.2, v = 0.2, t = 0.2)
movej(p[-0.516023846828108, -0.228753919968003, 0.412996264633256, -0.872, -1.588, 1.666], a = 0.2, v = 0.2, t = 0.2)
movej(p[-0.516052578052284, -0.228809033340731, 0.411526273957305, -0.872, -1.588, 1.666], a = 0.2, v = 0.2, t = 0.2)
movej(p[-0.516069477729261, -0.228841450970782, 0.410661626929667, -0.872, -1.588, 1.666], a = 0.2, v = 0.2, t = 0.2)
movej(p[-0.516080142436223, -0.228861908434279, 0.410115982939717, -0.872, -1.588, 1.666], a = 0.2, v = 0.2, t = 0.2)
movej(p[-0.516085061607675, -0.228871344583887, 0.409864300793372, -0.872, -1.588, 1.666], a = 0.2, v = 0.2, t = 0.2)
movej(p[-0.516089991419007, -0.228880801143336, 0.409612074273242, -0.872, -1.588, 1.666], a = 0.2, v = 0.2, t = 0.2)
movej(p[-0.516090636905095, -0.228882039340328, 0.409579048930318, -0.872, -1.588, 1.666], a = 0.2, v = 0.2, t = 0.2)
movej(p[-0.516090768130289, -0.228882291061695, 0.409572334986977, -0.872, -1.588, 1.666], a = 0.2, v = 0.2, t = 0.2)
movej(p[-0.516092463417927, -0.22888554302962, 0.409485598097321, -0.872, -1.588, 1.666], a = 0.2, v = 0.2, t = 0.2)
movej(p[-0.516084827530302, -0.228870895567396, 0.409876277016629, -0.872, -1.588, 1.666], a = 0.2, v = 0.2, t = 0.2)
movej(p[-0.516068974108247, -0.228840484904997, 0.410687393955464, -0.872, -1.588, 1.666], a = 0.2, v = 0.2, t = 0.2)
movej(p[-0.516052315601896, -0.228808529897997, 0.411539701843989, -0.872, -1.588, 1.666], a = 0.2, v = 0.2, t = 0.2)
movej(p[-0.51603748006175, -0.22878007177701, 0.412298740357444, -0.872, -1.588, 1.666], a = 0.2, v = 0.2, t = 0.2)
movej(p[-0.516017597671585, -0.228741932588328, 0.413315993502658, -0.872, -1.588, 1.666], a = 0.2, v = 0.2, t = 0.2)
movej(p[-0.516001549185053, -0.228711147745519, 0.41413709062754, -0.872, -1.588, 1.666], a = 0.2, v = 0.2, t = 0.2)
movej(p[-0.516005099358537, -0.228717957828978, 0.413955451241461, -0.872, -1.588, 1.666], a = 0.2, v = 0.2, t = 0.2)
movej(p[-0.516024545513599, -0.228755260214198, 0.41296051742141, -0.872, -1.588, 1.666], a = 0.2, v = 0.2, t = 0.2)
movej(p[-0.516046119644775, -0.228796644567525, 0.411856708844468, -0.872, -1.588, 1.666], a = 0.2, v = 0.2, t = 0.2)
movej(p[-0.516064952233391, -0.228832769985274, 0.410893167245987, -0.872, -1.588, 1.666], a = 0.2, v = 0.2, t = 0.2)
movej(p[-0.516079493403508, -0.228860663434007, 0.410149189740568, -0.872, -1.588, 1.666], a = 0.2, v = 0.2, t = 0.2)
movej(p[-0.516084096925169, -0.228869494091679, 0.409913657349829, -0.872, -1.588, 1.666], a = 0.2, v = 0.2, t = 0.2)
movej(p[-0.516086998065939, -0.228875059174865, 0.409765224764601, -0.872, -1.588, 1.666], a = 0.2, v = 0.2, t = 0.2)
movej(p[-0.516089289186889, -0.22887945409386, 0.409648002943016, -0.872, -1.588, 1.666], a = 0.2, v = 0.2, t = 0.2)
movej(p[-0.516091559028078, -0.228883808193175, 0.409531869868999, -0.872, -1.588, 1.666], a = 0.2, v = 0.2, t = 0.2)
movej(p[-0.516091520015183, -0.228883733357093, 0.409533865906209, -0.872, -1.588, 1.666], a = 0.2, v = 0.2, t = 0.2)
movej(p[-0.516085387897346, -0.228871970485664, 0.409847606663982, -0.872, -1.588, 1.666], a = 0.2, v = 0.2, t = 0.2)
movej(p[-0.516073786880894, -0.228849716956199, 0.410441155546963, -0.872, -1.588, 1.666], a = 0.2, v = 0.2, t = 0.2)
movej(p[-0.516056245264455, -0.228816067932435, 0.411338646459597, -0.872, -1.588, 1.666], a = 0.2, v = 0.2, t = 0.2)
movej(p[-0.516036909054826, -0.228778976448901, 0.412327955083876, -0.872, -1.588, 1.666], a = 0.2, v = 0.2, t = 0.2)
movej(p[-0.516021005979995, -0.22874847054058, 0.413141612433705, -0.872, -1.588, 1.666], a = 0.2, v = 0.2, t = 0.2)
movej(p[-0.516008745290947, -0.228724951601002, 0.413768912491322, -0.872, -1.588, 1.666], a = 0.2, v = 0.2, t = 0.2)
movej(p[-0.516004489338718, -0.228716787664788, 0.413986662005103, -0.872, -1.588, 1.666], a = 0.2, v = 0.2, t = 0.2)
movej(p[-0.516024180211033, -0.22875455947634, 0.41297920758801, -0.872, -1.588, 1.666], a = 0.2, v = 0.2, t = 0.2)
movej(p[-0.51605325900464, -0.228810339570525, 0.4114914340351, -0.872, -1.588, 1.666], a = 0.2, v = 0.2, t = 0.2)
movej(p[-0.516068991841382, -0.228840518921398, 0.410686486665823, -0.872, -1.588, 1.666], a = 0.2, v = 0.2, t = 0.2)
movej(p[-0.516078869197181, -0.228859466056695, 0.410181126335923, -0.872, -1.588, 1.666], a = 0.2, v = 0.2, t = 0.2)
movej(p[-0.516084582813049, -0.228870426141063, 0.409888797613672, -0.872, -1.588, 1.666], a = 0.2, v = 0.2, t = 0.2)
movej(p[-0.516090069444798, -0.2288809508155, 0.409608082198823, -0.872, -1.588, 1.666], a = 0.2, v = 0.2, t = 0.2)
movej(p[-0.516090909995363, -0.228882563192902, 0.409565076669851, -0.872, -1.588, 1.666], a = 0.2, v = 0.2, t = 0.2)
movej(p[-0.516091030580677, -0.228882794504428, 0.409558907100294, -0.872, -1.588, 1.666], a = 0.2, v = 0.2, t = 0.2)
movej(p[-0.516092413765151, -0.228885447783698, 0.409488138508315, -0.872, -1.588, 1.666], a = 0.2, v = 0.2, t = 0.2)
movej(p[-0.516083501091857, -0.228868351140609, 0.409944142281758, -0.872, -1.588, 1.666], a = 0.2, v = 0.2, t = 0.2)
movej(p[-0.516065466494285, -0.2288337564609, 0.410866855846405, -0.872, -1.588, 1.666], a = 0.2, v = 0.2, t = 0.2)
movej(p[-0.516045665676538, -0.228795773747662, 0.411879935459272, -0.872, -1.588, 1.666], a = 0.2, v = 0.2, t = 0.2)
movej(p[-0.516025793926253, -0.228757654968821, 0.412896644230701, -0.872, -1.588, 1.666], a = 0.2, v = 0.2, t = 0.2)
movej(p[-0.516004535444867, -0.22871687610743, 0.413984303052037, -0.872, -1.588, 1.666], a = 0.2, v = 0.2, t = 0.2)
movej(p[-0.515989430361079, -0.228687900937149, 0.414757132368032, -0.872, -1.588, 1.666], a = 0.2, v = 0.2, t = 0.2)
movej(p[-0.516000024135504, -0.228708222335043, 0.414215117536645, -0.872, -1.588, 1.666], a = 0.2, v = 0.2, t = 0.2)
movej(p[-0.516031975696866, -0.228769513086173, 0.412580363061934, -0.872, -1.588, 1.666], a = 0.2, v = 0.2, t = 0.2)
movej(p[-0.516057685194959, -0.228818830064188, 0.411264974540768, -0.872, -1.588, 1.666], a = 0.2, v = 0.2, t = 0.2)
movej(p[-0.516073176861074, -0.228848546792008, 0.410472366310605, -0.872, -1.588, 1.666], a = 0.2, v = 0.2, t = 0.2)
movej(p[-0.516085192832868, -0.228871596305254, 0.40985758685003, -0.872, -1.588, 1.666], a = 0.2, v = 0.2, t = 0.2)
movej(p[-0.516087835069878, -0.228876664748987, 0.409722400693558, -0.872, -1.588, 1.666], a = 0.2, v = 0.2, t = 0.2)
movej(p[-0.516089484251366, -0.22887982827427, 0.409638022756967, -0.872, -1.588, 1.666], a = 0.2, v = 0.2, t = 0.2)
movej(p[-0.516091019940796, -0.228882774094588, 0.409559451474078, -0.872, -1.588, 1.666], a = 0.2, v = 0.2, t = 0.2)
movej(p[-0.51609282162724, -0.228886230160918, 0.409467270846577, -0.872, -1.588, 1.666], a = 0.2, v = 0.2, t = 0.2)
movej(p[-0.51608638804612, -0.228873889010674, 0.409796435528243, -0.872, -1.588, 1.666], a = 0.2, v = 0.2, t = 0.2)
movej(p[-0.516069417436605, -0.228841335315019, 0.410664711714445, -0.872, -1.588, 1.666], a = 0.2, v = 0.2, t = 0.2)
movej(p[-0.516053078126671, -0.228809992603236, 0.411500688389436, -0.872, -1.588, 1.666], a = 0.2, v = 0.2, t = 0.2)
movej(p[-0.516030918802063, -0.228767485708679, 0.412634437524523, -0.872, -1.588, 1.666], a = 0.2, v = 0.2, t = 0.2)
movej(p[-0.516009341124259, -0.228726094552072, 0.413738427559393, -0.872, -1.588, 1.666], a = 0.2, v = 0.2, t = 0.2)
movej(p[-0.515996871184227, -0.228702174218964, 0.414376433634771, -0.872, -1.588, 1.666], a = 0.2, v = 0.2, t = 0.2)
movej(p[-0.515997243580047, -0.228702888563383, 0.414357380552316, -0.872, -1.588, 1.666], a = 0.2, v = 0.2, t = 0.2)
movej(p[-0.516019395811401, -0.228745381851379, 0.413223994333085, -0.872, -1.588, 1.666], a = 0.2, v = 0.2, t = 0.2)
movej(p[-0.516046970835221, -0.228798277354768, 0.411813158941712, -0.872, -1.588, 1.666], a = 0.2, v = 0.2, t = 0.2)
movej(p[-0.516069853671708, -0.228842172118481, 0.410642392389283, -0.872, -1.588, 1.666], a = 0.2, v = 0.2, t = 0.2)
movej(p[-0.51607977358703, -0.228861200893141, 0.410134854564244, -0.872, -1.588, 1.666], a = 0.2, v = 0.2, t = 0.2)
movej(p[-0.516084703398362, -0.228870657452589, 0.409882628044115, -0.872, -1.588, 1.666], a = 0.2, v = 0.2, t = 0.2)
movej(p[-0.516088395436921, -0.228877739667255, 0.40969373034091, -0.872, -1.588, 1.666], a = 0.2, v = 0.2, t = 0.2)
movej(p[-0.516091459722526, -0.22888361770133, 0.409536950690987, -0.872, -1.588, 1.666], a = 0.2, v = 0.2, t = 0.2)
movej(p[-0.516091452629273, -0.228883604094769, 0.409537313606844, -0.872, -1.588, 1.666], a = 0.2, v = 0.2, t = 0.2)
movej(p[-0.516084678571974, -0.228870609829628, 0.409883898249612, -0.872, -1.588, 1.666], a = 0.2, v = 0.2, t = 0.2)
movej(p[-0.516071041791706, -0.228844451217341, 0.410581603983352, -0.872, -1.588, 1.666], a = 0.2, v = 0.2, t = 0.2)
movej(p[-0.516048715775635, -0.228801624568616, 0.411723881641062, -0.872, -1.588, 1.666], a = 0.2, v = 0.2, t = 0.2)
movej(p[-0.516025776193119, -0.22875762095242, 0.412897551520342, -0.872, -1.588, 1.666], a = 0.2, v = 0.2, t = 0.2)
movej(p[-0.516007649383248, -0.228722849387427, 0.413824982991121, -0.872, -1.588, 1.666], a = 0.2, v = 0.2, t = 0.2)
movej(p[-0.515993161412534, -0.228695057987897, 0.414566238627617, -0.872, -1.588, 1.666], a = 0.2, v = 0.2, t = 0.2)
movej(p[-0.515993966496831, -0.228696602332497, 0.414525047677927, -0.872, -1.588, 1.666], a = 0.2, v = 0.2, t = 0.2)
movej(p[-0.516020693876831, -0.228747871851924, 0.413157580731382, -0.872, -1.588, 1.666], a = 0.2, v = 0.2, t = 0.2)
movej(p[-0.516051925472942, -0.228807781537178, 0.411559662216085, -0.872, -1.588, 1.666], a = 0.2, v = 0.2, t = 0.2)
movej(p[-0.516067839187653, -0.22883830785534, 0.410745460492472, -0.872, -1.588, 1.666], a = 0.2, v = 0.2, t = 0.2)
movej(p[-0.516078510987868, -0.228858778925397, 0.410199453586666, -0.872, -1.588, 1.666], a = 0.2, v = 0.2, t = 0.2)
movej(p[-0.51608479561066, -0.228870834337874, 0.409877910137983, -0.872, -1.588, 1.666], a = 0.2, v = 0.2, t = 0.2)
movej(p[-0.516090069444798, -0.2288809508155, 0.409608082198823, -0.872, -1.588, 1.666], a = 0.2, v = 0.2, t = 0.2)
movej(p[-0.51609078941005, -0.228882331881376, 0.409571246239408, -0.872, -1.588, 1.666], a = 0.2, v = 0.2, t = 0.2)
movej(p[-0.516091019940796, -0.228882774094588, 0.409559451474078, -0.872, -1.588, 1.666], a = 0.2, v = 0.2, t = 0.2)
movej(p[-0.516087232143312, -0.228875508191357, 0.409753248541343, -0.872, -1.588, 1.666], a = 0.2, v = 0.2, t = 0.2)
movej(p[-0.516067608656907, -0.228837865642128, 0.410757255257802, -0.872, -1.588, 1.666], a = 0.2, v = 0.2, t = 0.2)
movej(p[-0.516044530755943, -0.228793596698005, 0.41193800199628, -0.872, -1.588, 1.666], a = 0.2, v = 0.2, t = 0.2)
movej(p[-0.516023559551333, -0.228753368902308, 0.413010962725436, -0.872, -1.588, 1.666], a = 0.2, v = 0.2, t = 0.2)
movej(p[-0.516006585395191, -0.228720808403373, 0.413879420369566, -0.872, -1.588, 1.666], a = 0.2, v = 0.2, t = 0.2)
movej(p[-0.515988848714275, -0.228686785199199, 0.414786891468249, -0.872, -1.588, 1.666], a = 0.2, v = 0.2, t = 0.2)
movej(p[-0.515990412776719, -0.228689785445758, 0.414706868521934, -0.872, -1.588, 1.666], a = 0.2, v = 0.2, t = 0.2)
movej(p[-0.516018466595165, -0.228743599391972, 0.413271536310261, -0.872, -1.588, 1.666], a = 0.2, v = 0.2, t = 0.2)
movej(p[-0.51604547061206, -0.228795399567252, 0.41188991564532, -0.872, -1.588, 1.666], a = 0.2, v = 0.2, t = 0.2)
movej(p[-0.516065165031002, -0.228833178182085, 0.410882279770298, -0.872, -1.588, 1.666], a = 0.2, v = 0.2, t = 0.2)
movej(p[-0.516077376067274, -0.22885660187574, 0.410257520123675, -0.872, -1.588, 1.666], a = 0.2, v = 0.2, t = 0.2)
movej(p[-0.516086622123492, -0.228874338027166, 0.409784459304985, -0.872, -1.588, 1.666], a = 0.2, v = 0.2, t = 0.2)
movej(p[-0.51608948070474, -0.22887982147099, 0.409638204214896, -0.872, -1.588, 1.666], a = 0.2, v = 0.2, t = 0.2)
movej(p[-0.516090626265215, -0.228882018930488, 0.409579593304103, -0.872, -1.588, 1.666], a = 0.2, v = 0.2, t = 0.2)
movej(p[-0.51609240312527, -0.228885427373857, 0.409488682882099, -0.872, -1.588, 1.666], a = 0.2, v = 0.2, t = 0.2)
movej(p[-0.516091097966587, -0.228882923766751, 0.409555459399659, -0.872, -1.588, 1.666], a = 0.2, v = 0.2, t = 0.2)
movej(p[-0.516079606895567, -0.228860881138972, 0.410143383086868, -0.872, -1.588, 1.666], a = 0.2, v = 0.2, t = 0.2)
movej(p[-0.516060295512326, -0.228823837278399, 0.411131421505649, -0.872, -1.588, 1.666], a = 0.2, v = 0.2, t = 0.2)
movej(p[-0.51604218643559, -0.228789099729807, 0.412057945686788, -0.872, -1.588, 1.666], a = 0.2, v = 0.2, t = 0.2)
movej(p[-0.516019931352057, -0.228746409146686, 0.413196594185934, -0.872, -1.588, 1.666], a = 0.2, v = 0.2, t = 0.2)
movej(p[-0.516000683808099, -0.228709487745156, 0.414181366362009, -0.872, -1.588, 1.666], a = 0.2, v = 0.2, t = 0.2)
movej(p[-0.51599296280143, -0.228694677004207, 0.414576400271594, -0.872, -1.588, 1.666], a = 0.2, v = 0.2, t = 0.2)
movej(p[-0.51601084134742, -0.228728972339588, 0.413661670855785, -0.872, -1.588, 1.666], a = 0.2, v = 0.2, t = 0.2)
movej(p[-0.516037136038944, -0.228779411858833, 0.412316341776474, -0.872, -1.588, 1.666], a = 0.2, v = 0.2, t = 0.2)
movej(p[-0.516059653572865, -0.228822605884687, 0.411164265390644, -0.872, -1.588, 1.666], a = 0.2, v = 0.2, t = 0.2)
movej(p[-0.516077496652587, -0.228856833187266, 0.410251350554117, -0.872, -1.588, 1.666], a = 0.2, v = 0.2, t = 0.2)
movej(p[-0.51608380255514, -0.228868929419424, 0.409928718357865, -0.872, -1.588, 1.666], a = 0.2, v = 0.2, t = 0.2)
movej(p[-0.516087728671072, -0.228876460650582, 0.409727844431402, -0.872, -1.588, 1.666], a = 0.2, v = 0.2, t = 0.2)
movej(p[-0.51608968286247, -0.22888020925796, 0.409627861112991, -0.872, -1.588, 1.666], a = 0.2, v = 0.2, t = 0.2)
movej(p[-0.516092857093508, -0.22888629819372, 0.409465456267296, -0.872, -1.588, 1.666], a = 0.2, v = 0.2, t = 0.2)
