def moving():
set_payload_mass(0)
set_tcp(p[0,0,0,0,0,0])
movej(p[-0.4711, -0.0438, 0.2571, -1.217, -1.191, 1.208], a = 0.2, v = 0.2, t = 0.2)
movej(p[-0.471198031706893, -0.0436978611998402, 0.257199787022932, -1.21615313815338, -1.19016314921599, 1.21138469046468], a = 0.2, v = 0.2, t = 0.2)
movej(p[-0.4711, -0.0438, 0.2571, -1.217, -1.191, 1.208], a = 0.2, v = 0.2, t = 0.2)
movej(p[-0.471198031706893, -0.0436978611998402, 0.257199787022932, -1.21615313815338, -1.19016314921599, 1.21138469046468], a = 0.2, v = 0.2, t = 0.2)
movej(p[-0.4711, -0.0438, 0.2571, -1.217, -1.191, 1.208], a = 0.2, v = 0.2, t = 0.2)
movej(p[-0.471198031706893, -0.0436978611998402, 0.257199787022932, -1.21615313815338, -1.19016314921599, 1.21138469046468], a = 0.2, v = 0.2, t = 0.2)
movej(p[-0.4711, -0.0438, 0.2571, -1.217, -1.191, 1.208], a = 0.2, v = 0.2, t = 0.2)
movej(p[-0.471177678187499, -0.0439428140350226, 0.256958377665647, -1.21624266554376, -1.18784032385066, 1.20030332073696], a = 0.2, v = 0.2, t = 0.2)
movej(p[-0.471436139564824, -0.0439973108705947, 0.256825492965837, -1.21753647665958, -1.18965792252347, 1.19316329770702], a = 0.2, v = 0.2, t = 0.2)
movej(p[-0.471462362170975, -0.0440017319686897, 0.256737043777495, -1.22088896455439, -1.18860522762643, 1.19409610357902], a = 0.2, v = 0.2, t = 0.2)
movej(p[-0.471449928809536, -0.0438494370690996, 0.256762522494617, -1.21913256793792, -1.19094957022131, 1.18742273544039], a = 0.2, v = 0.2, t = 0.2)
movej(p[-0.471391021992868, -0.0438250658612405, 0.256719266267336, -1.22065178722858, -1.18767235192683, 1.18779871901615], a = 0.2, v = 0.2, t = 0.2)
movej(p[-0.471258012897209, -0.0438601169122812, 0.256585498181763, -1.21832584320092, -1.18702096574349, 1.18544347556863], a = 0.2, v = 0.2, t = 0.2)
movej(p[-0.470776366058058, -0.0437765940167762, 0.256492828150135, -1.22058527031345, -1.18234676981859, 1.19521210018666], a = 0.2, v = 0.2, t = 0.2)
movej(p[-0.469880454587218, -0.0437103934358879, 0.256449151957958, -1.21322438937483, -1.17469242729821, 1.188862840747], a = 0.2, v = 0.2, t = 0.2)
movej(p[-0.4689325027535, -0.0438681579381605, 0.256379296314273, -1.20466348714419, -1.17167532509298, 1.18466057387918], a = 0.2, v = 0.2, t = 0.2)
movej(p[-0.467979838150684, -0.0441848705123279, 0.256369784851354, -1.19310897071685, -1.17010812322487, 1.17934172335046], a = 0.2, v = 0.2, t = 0.2)
movej(p[-0.467131892700136, -0.0443148741310264, 0.256488386981691, -1.19147087810405, -1.16789082058159, 1.19714697771721], a = 0.2, v = 0.2, t = 0.2)
movej(p[-0.466612006598781, -0.0444674300573703, 0.256587209462712, -1.18219710568864, -1.16521751793036, 1.19818723333837], a = 0.2, v = 0.2, t = 0.2)
movej(p[-0.466796247349446, -0.044620411855699, 0.256595225956611, -1.17534166528063, -1.17108509149659, 1.19737055881236], a = 0.2, v = 0.2, t = 0.2)
movej(p[-0.467689471356446, -0.0446403516866045, 0.256635836010313, -1.17224321281442, -1.17682989724352, 1.19416294328129], a = 0.2, v = 0.2, t = 0.2)
movej(p[-0.468785195007898, -0.0445622460452369, 0.256709279665158, -1.17701951645456, -1.17921333531831, 1.19511168391715], a = 0.2, v = 0.2, t = 0.2)
movej(p[-0.469963323318578, -0.0445879895504713, 0.256684020684337, -1.18616983019222, -1.17978518077782, 1.18964122447675], a = 0.2, v = 0.2, t = 0.2)
movej(p[-0.470879053560467, -0.0445967478475796, 0.256605302665931, -1.19828180970457, -1.1818782914037, 1.18718903746572], a = 0.2, v = 0.2, t = 0.2)
movej(p[-0.471388061814583, -0.0444371589470842, 0.256586851701718, -1.20677779614433, -1.18854701660827, 1.18170784379022], a = 0.2, v = 0.2, t = 0.2)
movej(p[-0.471446404702304, -0.0442588924100309, 0.256560642050455, -1.21177244402899, -1.18734266404392, 1.18197822649513], a = 0.2, v = 0.2, t = 0.2)
movej(p[-0.471392001125911, -0.0442173275160332, 0.256463103185572, -1.21574965938958, -1.18645515633704, 1.1847143316064], a = 0.2, v = 0.2, t = 0.2)
movej(p[-0.471062783536637, -0.0441116469985956, 0.256379246399491, -1.21768687402027, -1.18208692991659, 1.19385645630296], a = 0.2, v = 0.2, t = 0.2)
movej(p[-0.470362128807355, -0.0439604390787651, 0.256399015338278, -1.21525001066059, -1.17862064026322, 1.19136499298627], a = 0.2, v = 0.2, t = 0.2)
movej(p[-0.469434930093056, -0.043951358213839, 0.256354704606018, -1.2049933125748, -1.17394173940237, 1.18330056157598], a = 0.2, v = 0.2, t = 0.2)
movej(p[-0.468403194201641, -0.0441660552323879, 0.256342385633137, -1.19546838855431, -1.17185124520165, 1.17801535431069], a = 0.2, v = 0.2, t = 0.2)
movej(p[-0.46756144941491, -0.0442788518795843, 0.256438846997905, -1.1897702902245, -1.17101520111598, 1.18762786009032], a = 0.2, v = 0.2, t = 0.2)
movej(p[-0.466814821248336, -0.0444270935069302, 0.25658088405962, -1.17890855525164, -1.17233672614778, 1.18610219451195], a = 0.2, v = 0.2, t = 0.2)
movej(p[-0.466669700080895, -0.0445692301845049, 0.256618816301163, -1.17199869476455, -1.17556507703357, 1.18797205461244], a = 0.2, v = 0.2, t = 0.2)
movej(p[-0.467095313824708, -0.0446818342722857, 0.256594690966091, -1.17116440119567, -1.17665813655088, 1.19276599112239], a = 0.2, v = 0.2, t = 0.2)
movej(p[-0.468069048997533, -0.0445692997875666, 0.256653044663088, -1.17413551423107, -1.17925264356525, 1.19444250444632], a = 0.2, v = 0.2, t = 0.2)
movej(p[-0.46924570975828, -0.0445318040433256, 0.256646522440871, -1.18200903768199, -1.17822602529575, 1.19275534686591], a = 0.2, v = 0.2, t = 0.2)
movej(p[-0.470342499129098, -0.044551546677783, 0.256591037820073, -1.18853600556894, -1.18554385341912, 1.18219382256951], a = 0.2, v = 0.2, t = 0.2)
movej(p[-0.471002618619132, -0.0444484664865105, 0.256569149929704, -1.20553397061376, -1.18493904625227, 1.19126213538307], a = 0.2, v = 0.2, t = 0.2)
movej(p[-0.471225874576734, -0.0443140366380655, 0.256580948397499, -1.20836038598057, -1.18759386010396, 1.18271226187517], a = 0.2, v = 0.2, t = 0.2)
movej(p[-0.471261413086327, -0.0442405590021035, 0.256507814455658, -1.20946682223115, -1.18847996689325, 1.17868700063827], a = 0.2, v = 0.2, t = 0.2)
movej(p[-0.471146426776123, -0.0442104383889201, 0.256397066798224, -1.20736714638065, -1.18985716655559, 1.17571629107922], a = 0.2, v = 0.2, t = 0.2)
movej(p[-0.47070440038424, -0.0439968306616281, 0.256366962329785, -1.2081342258241, -1.18480197244738, 1.18364971817137], a = 0.2, v = 0.2, t = 0.2)
movej(p[-0.469957813176027, -0.043998256590828, 0.256289325591969, -1.20437084836412, -1.17581141050033, 1.18529659494647], a = 0.2, v = 0.2, t = 0.2)
movej(p[-0.469018469252925, -0.0441419408260234, 0.256219909987911, -1.19736248269034, -1.17032784698561, 1.18279343436602], a = 0.2, v = 0.2, t = 0.2)
movej(p[-0.468022594751791, -0.0443133233652954, 0.256250455884936, -1.19346278450525, -1.16745440709628, 1.18879145381005], a = 0.2, v = 0.2, t = 0.2)
movej(p[-0.467122985016785, -0.0444065656478205, 0.25637932968379, -1.18737078277665, -1.16584313246786, 1.19105708398291], a = 0.2, v = 0.2, t = 0.2)
movej(p[-0.466718979625141, -0.0445987773933339, 0.2564394639079, -1.1802223845727, -1.17042840852114, 1.19304073101905], a = 0.2, v = 0.2, t = 0.2)
movej(p[-0.466815857964519, -0.0446824917747793, 0.256500256757797, -1.17194128961253, -1.17713371699543, 1.1907867319451], a = 0.2, v = 0.2, t = 0.2)
movej(p[-0.467341985039358, -0.0446138387225905, 0.256617443583192, -1.17312996963407, -1.17977873266959, 1.19675829702741], a = 0.2, v = 0.2, t = 0.2)
movej(p[-0.468348504511777, -0.044543530823402, 0.256674174543456, -1.17576046063122, -1.18226322898212, 1.19139154198788], a = 0.2, v = 0.2, t = 0.2)
movej(p[-0.469558737562412, -0.0445100184064166, 0.256681879656046, -1.18905464444823, -1.18335269709034, 1.19403487944787], a = 0.2, v = 0.2, t = 0.2)
movej(p[-0.470583887917963, -0.0443789668136992, 0.256683496182718, -1.20130306735904, -1.18753924316587, 1.1948252765248], a = 0.2, v = 0.2, t = 0.2)
movej(p[-0.471022185600945, -0.0442059593229438, 0.256719519428828, -1.21106558122359, -1.18659914854796, 1.19765211083991], a = 0.2, v = 0.2, t = 0.2)
movej(p[-0.471231705404675, -0.0441155705835072, 0.256680443392014, -1.21943568748772, -1.18483414804153, 1.20155919407516], a = 0.2, v = 0.2, t = 0.2)
movej(p[-0.471263574360514, -0.0439911595955665, 0.256639091750773, -1.2222124597642, -1.1835818834157, 1.20345943450363], a = 0.2, v = 0.2, t = 0.2)
movej(p[-0.471024922637772, -0.0438214174612805, 0.256588747306661, -1.22438549599217, -1.17885922064276, 1.20716383074546], a = 0.2, v = 0.2, t = 0.2)
movej(p[-0.470441122240194, -0.0437694194480674, 0.256469484652347, -1.21215632814074, -1.17838238144535, 1.19180372128082], a = 0.2, v = 0.2, t = 0.2)
movej(p[-0.469489617833287, -0.0438642283637711, 0.256344701593244, -1.20584065572242, -1.17490359728271, 1.19021584995999], a = 0.2, v = 0.2, t = 0.2)
movej(p[-0.468454469045821, -0.043940050167183, 0.256371544267484, -1.19672334729395, -1.17683005625301, 1.18559128623674], a = 0.2, v = 0.2, t = 0.2)
movej(p[-0.467446792322158, -0.044066207328713, 0.25645038929258, -1.1934927453353, -1.17052537640705, 1.19565428395894], a = 0.2, v = 0.2, t = 0.2)
movej(p[-0.466799989545236, -0.0443150816342191, 0.256466632919779, -1.18879378278337, -1.17040972440851, 1.20143895603873], a = 0.2, v = 0.2, t = 0.2)
movej(p[-0.466660532416572, -0.0444426862203464, 0.256511253949172, -1.18693659766169, -1.17108892212638, 1.21138571479737], a = 0.2, v = 0.2, t = 0.2)
movej(p[-0.466961030664841, -0.0444297426600925, 0.256638029993973, -1.18267680401, -1.17575911661177, 1.21037038037828], a = 0.2, v = 0.2, t = 0.2)
movej(p[-0.467927928539282, -0.0443953104208474, 0.256728537588133, -1.18085001876693, -1.1797113536168, 1.20188956166716], a = 0.2, v = 0.2, t = 0.2)
movej(p[-0.469208629202476, -0.0444073585177872, 0.256745617024754, -1.19068804402619, -1.18232488340432, 1.20180814171202], a = 0.2, v = 0.2, t = 0.2)
movej(p[-0.470382432913999, -0.044293703576315, 0.256768620409166, -1.204447300635, -1.18622857716735, 1.20481122802393], a = 0.2, v = 0.2, t = 0.2)
movej(p[-0.470956399447867, -0.0441726979520074, 0.256776965298928, -1.21517067903577, -1.1859605901433, 1.20743768767692], a = 0.2, v = 0.2, t = 0.2)
movej(p[-0.471217811023347, -0.0440862239870492, 0.256706485493386, -1.21858628518298, -1.18760912863932, 1.2033147581252], a = 0.2, v = 0.2, t = 0.2)
movej(p[-0.471254373851802, -0.04395270817693, 0.256654039183472, -1.21983332919771, -1.18711430047827, 1.20279197517181], a = 0.2, v = 0.2, t = 0.2)
movej(p[-0.47100438155089, -0.0438308196545793, 0.256593917383247, -1.21801257368932, -1.18337113918979, 1.19802022639585], a = 0.2, v = 0.2, t = 0.2)
movej(p[-0.470528982176773, -0.0438077692822053, 0.256475867310895, -1.21143163656779, -1.18001632550805, 1.19067527310543], a = 0.2, v = 0.2, t = 0.2)
movej(p[-0.469670168597486, -0.0439033950235983, 0.256377847546982, -1.20665840588356, -1.17532882423336, 1.19050691697818], a = 0.2, v = 0.2, t = 0.2)
movej(p[-0.468675148338459, -0.0438872921625408, 0.256443552558369, -1.20381371756231, -1.17294766280226, 1.19498995732909], a = 0.2, v = 0.2, t = 0.2)
movej(p[-0.4677352938001, -0.0440419653327556, 0.256517528877456, -1.19920914573692, -1.16631557730387, 1.20178342301681], a = 0.2, v = 0.2, t = 0.2)
movej(p[-0.467124927330297, -0.0443065573044807, 0.256530470173338, -1.19019237216758, -1.16921882599338, 1.19981738121717], a = 0.2, v = 0.2, t = 0.2)
movej(p[-0.466782281036904, -0.0444541218067059, 0.256547859831376, -1.18373966662605, -1.17148192431353, 1.20456752983174], a = 0.2, v = 0.2, t = 0.2)
movej(p[-0.466882419679717, -0.0444264973237056, 0.256631104186466, -1.17292898717985, -1.17914020701303, 1.19075314262581], a = 0.2, v = 0.2, t = 0.2)
movej(p[-0.467625556080354, -0.0443862303598746, 0.256697929016224, -1.17217777004239, -1.18340734123189, 1.18510456976501], a = 0.2, v = 0.2, t = 0.2)
movej(p[-0.468871165557062, -0.0444128488127675, 0.256695709827028, -1.18058962501757, -1.18617713689277, 1.18590041126425], a = 0.2, v = 0.2, t = 0.2)
movej(p[-0.470066413801912, -0.0442741544900692, 0.256780337090563, -1.19152443795662, -1.19025074886952, 1.18651091236627], a = 0.2, v = 0.2, t = 0.2)
movej(p[-0.470793209529446, -0.0441713102450206, 0.256759157848382, -1.20585594838493, -1.18646085588138, 1.19571016299648], a = 0.2, v = 0.2, t = 0.2)
movej(p[-0.471170982143605, -0.0440686355614322, 0.256706139299311, -1.2103743927811, -1.1893428423758, 1.19147896558647], a = 0.2, v = 0.2, t = 0.2)
movej(p[-0.471227668016206, -0.0439286184267519, 0.25665857404637, -1.21771270175352, -1.18845222779893, 1.19935198255943], a = 0.2, v = 0.2, t = 0.2)
movej(p[-0.471032294438888, -0.0437859645050104, 0.256651102181627, -1.21125325084224, -1.19137734205832, 1.18517158029338], a = 0.2, v = 0.2, t = 0.2)
movej(p[-0.47051381598225, -0.0437580925639547, 0.256518060047129, -1.20448762836153, -1.19071547451378, 1.17656310053951], a = 0.2, v = 0.2, t = 0.2)
movej(p[-0.469672983291767, -0.0438044951603388, 0.256402595828606, -1.19998588849559, -1.18640020894971, 1.17613364261896], a = 0.2, v = 0.2, t = 0.2)
movej(p[-0.468662305339507, -0.0438004597562795, 0.256404738526566, -1.19966770005228, -1.1780368675845, 1.1872127702127], a = 0.2, v = 0.2, t = 0.2)
movej(p[-0.467751612397569, -0.0439851321844418, 0.256436530273583, -1.19755376850174, -1.16985374899615, 1.19758378226213], a = 0.2, v = 0.2, t = 0.2)
movej(p[-0.46710082595264, -0.0442299219424535, 0.256457447203787, -1.18768475514051, -1.17130679063873, 1.19824929651255], a = 0.2, v = 0.2, t = 0.2)
movej(p[-0.466740680145087, -0.0443244086740324, 0.256521548421073, -1.18390555680572, -1.17455917851277, 1.20682247194834], a = 0.2, v = 0.2, t = 0.2)
movej(p[-0.466622206580785, -0.044272501228561, 0.256631486579444, -1.1743457568926, -1.17833258348653, 1.20042101581547], a = 0.2, v = 0.2, t = 0.2)
movej(p[-0.467284375922791, -0.0442367838726132, 0.256684913178544, -1.17269249659866, -1.18427855960026, 1.19525988239971], a = 0.2, v = 0.2, t = 0.2)
movej(p[-0.468440480667167, -0.0442437078660675, 0.256720852590705, -1.17486442132768, -1.18803133149541, 1.18858640600882], a = 0.2, v = 0.2, t = 0.2)
movej(p[-0.4697596793988, -0.0441142802945232, 0.256803539893115, -1.18864792338661, -1.18895415732191, 1.19222294507581], a = 0.2, v = 0.2, t = 0.2)
movej(p[-0.47069910559016, -0.0440745391228699, 0.256803402915097, -1.20035184846581, -1.18886259609528, 1.19161664322739], a = 0.2, v = 0.2, t = 0.2)
movej(p[-0.471244128070043, -0.0439645547619262, 0.256773347357039, -1.21229276602685, -1.18842807054663, 1.19742185711043], a = 0.2, v = 0.2, t = 0.2)
movej(p[-0.471369854957073, -0.0438429702547996, 0.256758792187729, -1.21499231590141, -1.19161393333913, 1.19215969755806], a = 0.2, v = 0.2, t = 0.2)
movej(p[-0.471292300676743, -0.0437060954906871, 0.256752945278142, -1.21600887966406, -1.19072936325889, 1.19048586621171], a = 0.2, v = 0.2, t = 0.2)
movej(p[-0.47103487699145, -0.043642424933615, 0.256655571383668, -1.21378382755858, -1.19099273681585, 1.18703884004743], a = 0.2, v = 0.2, t = 0.2)
movej(p[-0.470400465074619, -0.043566624498483, 0.256551350593125, -1.21108150923508, -1.18750436425191, 1.19106787744162], a = 0.2, v = 0.2, t = 0.2)
movej(p[-0.469377593264223, -0.0434729564673803, 0.256515190873171, -1.2105340959002, -1.1781478078271, 1.19843699778761], a = 0.2, v = 0.2, t = 0.2)
movej(p[-0.468342328535406, -0.0436719468591084, 0.256472173338752, -1.20337909581834, -1.17095384574211, 1.19928659230416], a = 0.2, v = 0.2, t = 0.2)
movej(p[-0.467459282023358, -0.043959744144495, 0.25647910636712, -1.19561484543748, -1.16920071284403, 1.20115778933688], a = 0.2, v = 0.2, t = 0.2)
movej(p[-0.466759769208065, -0.0441048357936318, 0.256562262693352, -1.18974526883557, -1.17247507611809, 1.20901462038801], a = 0.2, v = 0.2, t = 0.2)
movej(p[-0.466464128659156, -0.0441617726942344, 0.25667543987829, -1.18191180172414, -1.17366865660391, 1.20685570537968], a = 0.2, v = 0.2, t = 0.2)
movej(p[-0.466806630032424, -0.0442465578385667, 0.256722598902986, -1.17799438301939, -1.17874726359235, 1.20409208132962], a = 0.2, v = 0.2, t = 0.2)
movej(p[-0.467913277455245, -0.0442630400520149, 0.256772083671372, -1.18045884581319, -1.18065323891776, 1.20321357478693], a = 0.2, v = 0.2, t = 0.2)
movej(p[-0.469213703097554, -0.0442351971816195, 0.256828846735901, -1.19003853053901, -1.18269759211526, 1.20165691785518], a = 0.2, v = 0.2, t = 0.2)
movej(p[-0.470352197696292, -0.0441977705108172, 0.25683783303413, -1.19906465966718, -1.18660283844667, 1.19422928485639], a = 0.2, v = 0.2, t = 0.2)
movej(p[-0.471108236288614, -0.0441315785954183, 0.256821385239084, -1.21354691761366, -1.18884983471737, 1.19781586947789], a = 0.2, v = 0.2, t = 0.2)
movej(p[-0.471440038419561, -0.0439129927454152, 0.256865785143712, -1.22012227741664, -1.19407488647929, 1.19582747859767], a = 0.2, v = 0.2, t = 0.2)
movej(p[-0.471423472363593, -0.0437561258572535, 0.256832919176754, -1.22881158897914, -1.18692976644314, 1.20768607601738], a = 0.2, v = 0.2, t = 0.2)
movej(p[-0.471380594940786, -0.043731761599708, 0.256746678613254, -1.22927750187364, -1.18603086705203, 1.20707750489187], a = 0.2, v = 0.2, t = 0.2)
movej(p[-0.471124921331398, -0.0436226105306002, 0.256671523160384, -1.23021953944848, -1.18346320997491, 1.21418700002307], a = 0.2, v = 0.2, t = 0.2)
movej(p[-0.470545372535615, -0.0435462848313661, 0.256595304254966, -1.22402228050693, -1.17954063581667, 1.20913386747683], a = 0.2, v = 0.2, t = 0.2)
movej(p[-0.469754542506483, -0.0435832778194875, 0.256495790684272, -1.21311390113984, -1.17805788049299, 1.19814391630247], a = 0.2, v = 0.2, t = 0.2)
movej(p[-0.468745591182654, -0.0437420542689006, 0.256410330237955, -1.20692224103556, -1.17311790866743, 1.19889551354931], a = 0.2, v = 0.2, t = 0.2)
movej(p[-0.467872776018914, -0.0438088064054384, 0.256530885427238, -1.19989252025319, -1.17507683539534, 1.19967334970145], a = 0.2, v = 0.2, t = 0.2)
movej(p[-0.46720067675321, -0.0439629682248274, 0.256599370699978, -1.19482905157883, -1.17084812042061, 1.20471676318768], a = 0.2, v = 0.2, t = 0.2)
movej(p[-0.46716207959349, -0.0441496486575559, 0.256635628529448, -1.18770142906614, -1.17630955361927, 1.20322699236899], a = 0.2, v = 0.2, t = 0.2)
movej(p[-0.467670098978327, -0.0442099910638054, 0.256644329997006, -1.18922324241064, -1.17657117775647, 1.21227658565838], a = 0.2, v = 0.2, t = 0.2)
movej(p[-0.468619343076107, -0.0441444363761129, 0.256756702361281, -1.19130828926765, -1.18017065029878, 1.20727695091291], a = 0.2, v = 0.2, t = 0.2)
movej(p[-0.469768303871424, -0.0440958792789324, 0.256791464881844, -1.19807665518753, -1.18413858978641, 1.20202902956282], a = 0.2, v = 0.2, t = 0.2)
movej(p[-0.470653452906065, -0.0440840341428665, 0.25680108017315, -1.206111905828, -1.19063919440057, 1.1940145775101], a = 0.2, v = 0.2, t = 0.2)
movej(p[-0.471170417103019, -0.0438569058199253, 0.256852001654052, -1.21564135781493, -1.19322222956032, 1.19640416995632], a = 0.2, v = 0.2, t = 0.2)
movej(p[-0.471292441853141, -0.0437399484725142, 0.256815799775631, -1.2236536945073, -1.18917700553124, 1.19982295180037], a = 0.2, v = 0.2, t = 0.2)
movej(p[-0.471355707579894, -0.0437039206515243, 0.256729683511841, -1.22612432892525, -1.18688202967863, 1.20008077040902], a = 0.2, v = 0.2, t = 0.2)
movej(p[-0.471292862046777, -0.0436453449845379, 0.256657348520272, -1.22907053981316, -1.18472971731901, 1.20599451520115], a = 0.2, v = 0.2, t = 0.2)
movej(p[-0.471046858267619, -0.0435296715788108, 0.256657803764854, -1.21815254594136, -1.1896411706422, 1.19005737239598], a = 0.2, v = 0.2, t = 0.2)
movej(p[-0.470548624390989, -0.0435598737691619, 0.256545610146601, -1.21102077732459, -1.18885598275087, 1.18350303378628], a = 0.2, v = 0.2, t = 0.2)
movej(p[-0.469770864732525, -0.0436518420502582, 0.256480217242268, -1.20040788881817, -1.1894850679553, 1.1723221496654], a = 0.2, v = 0.2, t = 0.2)
movej(p[-0.468774175787673, -0.0436518392346317, 0.256543620586055, -1.2054952978536, -1.17849357396369, 1.19229581931159], a = 0.2, v = 0.2, t = 0.2)
movej(p[-0.46795576863013, -0.0438129384583236, 0.256609718679857, -1.19966144317848, -1.17249992773551, 1.19460165794186], a = 0.2, v = 0.2, t = 0.2)
movej(p[-0.467467835450987, -0.0440636775406461, 0.256604765244404, -1.19177683355544, -1.17329167931114, 1.19560620956992], a = 0.2, v = 0.2, t = 0.2)
movej(p[-0.467302082254983, -0.0442202058461948, 0.256630075970917, -1.1836877683725, -1.17854030440144, 1.19503744006424], a = 0.2, v = 0.2, t = 0.2)
movej(p[-0.467424520053829, -0.0441441699910559, 0.256754821676442, -1.17874811372618, -1.18197971330344, 1.19336337760084], a = 0.2, v = 0.2, t = 0.2)
movej(p[-0.468137882111707, -0.0441305885809709, 0.256776905819632, -1.18303094469342, -1.18237201233642, 1.19690481437458], a = 0.2, v = 0.2, t = 0.2)
movej(p[-0.469191365039256, -0.0441395286182624, 0.256769093131519, -1.19283864626553, -1.18249702807839, 1.20253870745655], a = 0.2, v = 0.2, t = 0.2)
movej(p[-0.470227946487694, -0.0440668480674834, 0.256805667496775, -1.20668317807928, -1.18516343781676, 1.20700369756657], a = 0.2, v = 0.2, t = 0.2)
movej(p[-0.470824336773156, -0.04399161525448, 0.256820295181278, -1.21659859332616, -1.18469885328062, 1.20793423021596], a = 0.2, v = 0.2, t = 0.2)
movej(p[-0.471194591356676, -0.0440108343773763, 0.256725462502873, -1.22367152270094, -1.18600166751523, 1.20691507435841], a = 0.2, v = 0.2, t = 0.2)
movej(p[-0.471318964137313, -0.0439355419927047, 0.256624774562566, -1.22726102646775, -1.18433725330065, 1.21363208500284], a = 0.2, v = 0.2, t = 0.2)
movej(p[-0.471266617594593, -0.0438613806970793, 0.25656101953076, -1.22512903702945, -1.18297754986753, 1.20712469489104], a = 0.2, v = 0.2, t = 0.2)
movej(p[-0.471213077889579, -0.0438692034536089, 0.256472500962859, -1.21734784614015, -1.1843363850346, 1.19194823826583], a = 0.2, v = 0.2, t = 0.2)
movej(p[-0.47114250652208, -0.0439565850334781, 0.256355542681917, -1.21390324170419, -1.18505540507472, 1.18428051705557], a = 0.2, v = 0.2, t = 0.2)
movej(p[-0.470968019361288, -0.0438425096010751, 0.256314074829001, -1.21635578970983, -1.18357669654026, 1.1921614744661], a = 0.2, v = 0.2, t = 0.2)
movej(p[-0.470378916585982, -0.0438056169732587, 0.256253903496448, -1.20979938074343, -1.17582461897613, 1.18760288999602], a = 0.2, v = 0.2, t = 0.2)
movej(p[-0.46975865123701, -0.0439484019521163, 0.256133444519527, -1.20284317275667, -1.17221922542558, 1.18281643921141], a = 0.2, v = 0.2, t = 0.2)
movej(p[-0.46906903550569, -0.0442048721578001, 0.256034691862281, -1.19221119197342, -1.17156151244298, 1.17462074041973], a = 0.2, v = 0.2, t = 0.2)
movej(p[-0.468461008051841, -0.0442473537827544, 0.256140737628849, -1.18913972182539, -1.17182189618725, 1.17796993422101], a = 0.2, v = 0.2, t = 0.2)
movej(p[-0.467882603913528, -0.044425708661544, 0.256182896400114, -1.18222428874768, -1.16814798502277, 1.17893857045056], a = 0.2, v = 0.2, t = 0.2)
movej(p[-0.467631753659611, -0.0446796534762049, 0.256192355518289, -1.17687293295925, -1.16995930213495, 1.17939342667897], a = 0.2, v = 0.2, t = 0.2)
movej(p[-0.467727902580886, -0.0448191952061998, 0.256217138119601, -1.1749563087485, -1.17147160308884, 1.18768483612154], a = 0.2, v = 0.2, t = 0.2)
movej(p[-0.468192186129022, -0.0447335584377785, 0.256318821226479, -1.16932701808659, -1.17879004532367, 1.17878923716491], a = 0.2, v = 0.2, t = 0.2)
movej(p[-0.469140648906552, -0.0446703754574495, 0.256366654512337, -1.17521067106303, -1.18046700425627, 1.17987055969766], a = 0.2, v = 0.2, t = 0.2)
movej(p[-0.470108543658271, -0.0446479412913529, 0.256367949536327, -1.17983929598201, -1.18593638032704, 1.17140618750592], a = 0.2, v = 0.2, t = 0.2)
movej(p[-0.470852373981916, -0.044469263014967, 0.256420512072171, -1.20001202860662, -1.18236319476588, 1.19105939846245], a = 0.2, v = 0.2, t = 0.2)
movej(p[-0.471117190004162, -0.0443237575469598, 0.256429125410684, -1.20245733245525, -1.18251462606125, 1.1842196352999], a = 0.2, v = 0.2, t = 0.2)
movej(p[-0.471230232535065, -0.0442919749684269, 0.256352997208137, -1.2077398451574, -1.18002062538075, 1.18803998150816], a = 0.2, v = 0.2, t = 0.2)
movej(p[-0.471255908953347, -0.044233692125883, 0.256295965316101, -1.21087598172913, -1.17830713870826, 1.19248671223293], a = 0.2, v = 0.2, t = 0.2)
movej(p[-0.471188877945267, -0.044094224653315, 0.256267890762013, -1.21541134123614, -1.17257219536687, 1.19940146425066], a = 0.2, v = 0.2, t = 0.2)
movej(p[-0.471142582661361, -0.044080938972674, 0.256215579573402, -1.20985302836375, -1.17381159605159, 1.18930824305551], a = 0.2, v = 0.2, t = 0.2)
movej(p[-0.471008190355879, -0.0440834500139577, 0.256109024453867, -1.20881662743947, -1.17231849174079, 1.18883922657815], a = 0.2, v = 0.2, t = 0.2)
movej(p[-0.470584715035726, -0.0440063475632361, 0.256110095301082, -1.20662302615992, -1.17490057420251, 1.18737819628247], a = 0.2, v = 0.2, t = 0.2)
movej(p[-0.469831216266908, -0.043949539968309, 0.256093104222614, -1.20217255435541, -1.16817219680985, 1.18671254273938], a = 0.2, v = 0.2, t = 0.2)
movej(p[-0.46907711401006, -0.0441155526357068, 0.256037127666085, -1.19564064010485, -1.16781834372983, 1.18221658834454], a = 0.2, v = 0.2, t = 0.2)
movej(p[-0.468356899998104, -0.0443285224766624, 0.256039635937585, -1.18993037325276, -1.16596288838821, 1.18634382154475], a = 0.2, v = 0.2, t = 0.2)
movej(p[-0.467721655036374, -0.0443906458995831, 0.256192434962193, -1.18601750790685, -1.16892487426041, 1.19036240089506], a = 0.2, v = 0.2, t = 0.2)
movej(p[-0.467327683274025, -0.0445043651701329, 0.256286965031361, -1.18309835097374, -1.16550474125009, 1.19589441234733], a = 0.2, v = 0.2, t = 0.2)
movej(p[-0.467575268984689, -0.044638148528914, 0.256328756256371, -1.17903396301105, -1.17009694189477, 1.19524268845907], a = 0.2, v = 0.2, t = 0.2)
movej(p[-0.468257002122152, -0.0446028524157155, 0.256339463402503, -1.18549035087409, -1.16780146487651, 1.21242222744168], a = 0.2, v = 0.2, t = 0.2)
movej(p[-0.469129647695501, -0.0444629556690891, 0.25643262360322, -1.18368764446301, -1.173891243877, 1.20034272259467], a = 0.2, v = 0.2, t = 0.2)
movej(p[-0.470080207206491, -0.0443667726331759, 0.256456634829129, -1.18812998325112, -1.17946899723767, 1.19151206943741], a = 0.2, v = 0.2, t = 0.2)
movej(p[-0.470773683407676, -0.0443345898955992, 0.256447367472848, -1.195671155384, -1.18500476556288, 1.18642418082096], a = 0.2, v = 0.2, t = 0.2)
movej(p[-0.471180883167062, -0.0440910732670598, 0.256499428513756, -1.21046985575888, -1.18364867193294, 1.19843548675806], a = 0.2, v = 0.2, t = 0.2)
movej(p[-0.471250056339282, -0.0439588513371018, 0.256478813073349, -1.21786143312571, -1.17745030287427, 1.20356384238761], a = 0.2, v = 0.2, t = 0.2)
movej(p[-0.471304067987524, -0.0439256064381742, 0.2564395449597, -1.2229179944763, -1.17447130687413, 1.20425392516794], a = 0.2, v = 0.2, t = 0.2)
movej(p[-0.471257586526065, -0.0439003962117662, 0.256440460055932, -1.22250880487817, -1.17567937711923, 1.20186218165479], a = 0.2, v = 0.2, t = 0.2)
movej(p[-0.47112001078526, -0.0437860423412029, 0.256459218182091, -1.21399805028833, -1.18158548150579, 1.18659311042977], a = 0.2, v = 0.2, t = 0.2)
movej(p[-0.470737947114876, -0.0437484040112252, 0.256359901859956, -1.20712102791924, -1.18320921063037, 1.17991791380189], a = 0.2, v = 0.2, t = 0.2)
movej(p[-0.470117174875832, -0.0437240877589804, 0.256260685846165, -1.20087068322023, -1.18255829793885, 1.17566228576534], a = 0.2, v = 0.2, t = 0.2)
movej(p[-0.469170469246871, -0.0436154277277583, 0.256269493239071, -1.21030338637567, -1.16928264394561, 1.20195678825939], a = 0.2, v = 0.2, t = 0.2)
movej(p[-0.468311719601798, -0.043701478028026, 0.256289403322213, -1.20720378156019, -1.16166842660664, 1.20754967997597], a = 0.2, v = 0.2, t = 0.2)
movej(p[-0.467730223080934, -0.0439696017973673, 0.256282477938608, -1.20015868417539, -1.16173848510309, 1.20746799981364], a = 0.2, v = 0.2, t = 0.2)
movej(p[-0.467257691983841, -0.0442074201342251, 0.25633174796838, -1.19049491952598, -1.16628331835772, 1.20618158118819], a = 0.2, v = 0.2, t = 0.2)
movej(p[-0.466956526331357, -0.0442509273285554, 0.256468775361282, -1.18327408554313, -1.16744109532115, 1.2062113794098], a = 0.2, v = 0.2, t = 0.2)
movej(p[-0.467289168832848, -0.0443004512681543, 0.2564960715315, -1.18330725800862, -1.16847938033224, 1.21122637018183], a = 0.2, v = 0.2, t = 0.2)
movej(p[-0.468214898785993, -0.0443350996591171, 0.25653609735384, -1.18634663780276, -1.17169034870147, 1.21133080574315], a = 0.2, v = 0.2, t = 0.2)
movej(p[-0.469394529418949, -0.0442983499775444, 0.256569721236659, -1.19832627826861, -1.17214865545008, 1.21679997993283], a = 0.2, v = 0.2, t = 0.2)
movej(p[-0.470364262745485, -0.0442651533286535, 0.256590392470462, -1.20265075398595, -1.17638094914169, 1.20607931445752], a = 0.2, v = 0.2, t = 0.2)
movej(p[-0.471087883664731, -0.0442105147506219, 0.256560918571218, -1.20703634974493, -1.18235006998752, 1.19810454594689], a = 0.2, v = 0.2, t = 0.2)
movej(p[-0.471378721114174, -0.0440693361140174, 0.256571155291603, -1.2102878591488, -1.18833298965116, 1.19181346679851], a = 0.2, v = 0.2, t = 0.2)
movej(p[-0.471379306375628, -0.0438813848805397, 0.256588398138359, -1.21124687084968, -1.18743327268067, 1.18988369741876], a = 0.2, v = 0.2, t = 0.2)
movej(p[-0.471366308535581, -0.0438367116790825, 0.256523698675837, -1.21938752931639, -1.18045785414039, 1.19955854305297], a = 0.2, v = 0.2, t = 0.2)
movej(p[-0.471353326777618, -0.043779213716316, 0.256499138878731, -1.22030435471072, -1.1789997380127, 1.20223552612928], a = 0.2, v = 0.2, t = 0.2)
movej(p[-0.471283575194773, -0.0436360440278986, 0.256553882335045, -1.22457501078234, -1.17858642633475, 1.20813275460432], a = 0.2, v = 0.2, t = 0.2)
movej(p[-0.470872144916677, -0.0435667718665412, 0.256500236451452, -1.21496463563174, -1.18008379575277, 1.19383793676033], a = 0.2, v = 0.2, t = 0.2)
movej(p[-0.470238911940594, -0.043583374580105, 0.25638144035049, -1.20938682129289, -1.17914476100489, 1.18811489860922], a = 0.2, v = 0.2, t = 0.2)
movej(p[-0.469401668624706, -0.0435542631657035, 0.256352749108758, -1.20601977768401, -1.17620801156148, 1.18957120200725], a = 0.2, v = 0.2, t = 0.2)
movej(p[-0.468596380186446, -0.0435932619206027, 0.256424131999716, -1.20108542131747, -1.17121183370561, 1.19116674963593], a = 0.2, v = 0.2, t = 0.2)
movej(p[-0.468039248048292, -0.043797362088918, 0.256446005192324, -1.19635484156509, -1.16869346485426, 1.19459552460067], a = 0.2, v = 0.2, t = 0.2)
movej(p[-0.46764389336888, -0.0440444038040425, 0.256421295951538, -1.19062372191189, -1.16950724548433, 1.19909799001017], a = 0.2, v = 0.2, t = 0.2)
movej(p[-0.467540607730528, -0.0440550439816603, 0.256524476125654, -1.18725433464683, -1.17489475929037, 1.20386409262752], a = 0.2, v = 0.2, t = 0.2)
movej(p[-0.467718720913903, -0.0440131963312598, 0.256631363689776, -1.18336354746283, -1.17529953500384, 1.20168719955356], a = 0.2, v = 0.2, t = 0.2)
movej(p[-0.468534014587083, -0.0440540871553696, 0.256689516635327, -1.18429216096262, -1.18162946385913, 1.19838592190213], a = 0.2, v = 0.2, t = 0.2)
movej(p[-0.469515696937899, -0.0440380134181249, 0.256707487421847, -1.1954301491623, -1.18021422168088, 1.20790667132329], a = 0.2, v = 0.2, t = 0.2)
movej(p[-0.470359932500319, -0.0439745327093081, 0.256750612301594, -1.19745970617597, -1.18907203206502, 1.19336466838778], a = 0.2, v = 0.2, t = 0.2)
movej(p[-0.47093384817161, -0.0439356169346106, 0.256715710534792, -1.20352118069693, -1.19128710375146, 1.18866436473407], a = 0.2, v = 0.2, t = 0.2)
movej(p[-0.471168204633092, -0.0439434732634526, 0.256632328671155, -1.20568282962155, -1.19458832494554, 1.18053668967598], a = 0.2, v = 0.2, t = 0.2)
movej(p[-0.471231623177134, -0.0438029259521237, 0.256602771161779, -1.21948484584303, -1.18623896962081, 1.19904585025055], a = 0.2, v = 0.2, t = 0.2)
movej(p[-0.471156527663484, -0.0437639406151311, 0.256524017633211, -1.22328234749759, -1.17723660492498, 1.20347904849467], a = 0.2, v = 0.2, t = 0.2)
movej(p[-0.471188759978616, -0.0438146075646828, 0.256441624881198, -1.22378971072101, -1.17514058863287, 1.20236547634825], a = 0.2, v = 0.2, t = 0.2)
movej(p[-0.471142842619232, -0.0438219287059179, 0.256364239364774, -1.22354700282935, -1.17493830891166, 1.2039184804051], a = 0.2, v = 0.2, t = 0.2)
movej(p[-0.470852507368469, -0.0436569098739749, 0.256362419836647, -1.22112268955088, -1.17317769403074, 1.20235633019771], a = 0.2, v = 0.2, t = 0.2)
movej(p[-0.470356419026727, -0.0436820454278527, 0.256236238120778, -1.21348197222903, -1.17060368068695, 1.19434342668696], a = 0.2, v = 0.2, t = 0.2)
movej(p[-0.469671167681409, -0.0437975988657991, 0.256122565509568, -1.204517705454, -1.16935061498583, 1.18819624358705], a = 0.2, v = 0.2, t = 0.2)
movej(p[-0.468935636112232, -0.0438550252116205, 0.256143868612892, -1.19789402772051, -1.17034723911165, 1.18774432374284], a = 0.2, v = 0.2, t = 0.2)
movej(p[-0.468255387323468, -0.043924736412942, 0.256213469530237, -1.19633564049671, -1.16642896451389, 1.19571177808053], a = 0.2, v = 0.2, t = 0.2)
movej(p[-0.467788610119222, -0.0441241356160099, 0.256200524574701, -1.19515414594552, -1.16611859701295, 1.20314752479959], a = 0.2, v = 0.2, t = 0.2)
movej(p[-0.467605338822812, -0.0442767790287527, 0.256253148782611, -1.19381653391217, -1.1666750092105, 1.21165563820553], a = 0.2, v = 0.2, t = 0.2)
movej(p[-0.467766079492947, -0.0442155625208367, 0.256428249076794, -1.19131464014117, -1.17128752820189, 1.2138986006597], a = 0.2, v = 0.2, t = 0.2)
movej(p[-0.468431771370382, -0.0441605339859229, 0.256551226394877, -1.18627402845023, -1.1770092972939, 1.20057672996584], a = 0.2, v = 0.2, t = 0.2)
movej(p[-0.4694161597178, -0.0441808027971778, 0.256583504761588, -1.19086717924774, -1.18340612334793, 1.19467478106876], a = 0.2, v = 0.2, t = 0.2)
movej(p[-0.47033859981211, -0.044061014445177, 0.256628736940775, -1.20240139065007, -1.18545078680891, 1.200632774389], a = 0.2, v = 0.2, t = 0.2)
movej(p[-0.470797670294559, -0.0439331853990182, 0.256665657890141, -1.21077697553737, -1.18226937967135, 1.20256469233624], a = 0.2, v = 0.2, t = 0.2)
movej(p[-0.471107167528739, -0.0438789326184307, 0.25662577037829, -1.21284066967623, -1.18302311786168, 1.19865191473055], a = 0.2, v = 0.2, t = 0.2)
movej(p[-0.471182195917968, -0.0438805088542912, 0.256522815445673, -1.21461859353304, -1.1841406687868, 1.1967732694595], a = 0.2, v = 0.2, t = 0.2)
movej(p[-0.471270162232543, -0.043712603466999, 0.256546661805298, -1.21870648991218, -1.18602160049198, 1.20096391103399], a = 0.2, v = 0.2, t = 0.2)
movej(p[-0.471157014753146, -0.0436279219938622, 0.256519963709215, -1.22316258382, -1.17813508577356, 1.20825294257605], a = 0.2, v = 0.2, t = 0.2)
movej(p[-0.470896115759732, -0.0436451148298679, 0.256405293781485, -1.2230410366578, -1.17541444537958, 1.20912755286466], a = 0.2, v = 0.2, t = 0.2)
movej(p[-0.470314082723726, -0.0436298850997929, 0.256307396739546, -1.2209809281381, -1.1707064346424, 1.21257969869272], a = 0.2, v = 0.2, t = 0.2)
movej(p[-0.469441789484685, -0.0435626813000012, 0.256302238550362, -1.20710578937798, -1.17306957876786, 1.19706512846559], a = 0.2, v = 0.2, t = 0.2)
movej(p[-0.46863767822828, -0.0436998021851253, 0.256265097064321, -1.19968883112669, -1.16924924742754, 1.19466411018977], a = 0.2, v = 0.2, t = 0.2)
movej(p[-0.467982979511786, -0.0439734986612737, 0.256236398566705, -1.19073398976084, -1.17045280148525, 1.19313494630719], a = 0.2, v = 0.2, t = 0.2)
movej(p[-0.467440901634849, -0.0440925840549131, 0.256291286052142, -1.19726438197616, -1.16618158790065, 1.21808092746812], a = 0.2, v = 0.2, t = 0.2)
movej(p[-0.467149223615912, -0.0441127239962839, 0.256427884610812, -1.19162695512531, -1.16623045220018, 1.21836599248366], a = 0.2, v = 0.2, t = 0.2)
movej(p[-0.467527540191627, -0.0441293334391712, 0.25650288884167, -1.18679830241448, -1.17331336981093, 1.21309241704159], a = 0.2, v = 0.2, t = 0.2)
movej(p[-0.468410521360232, -0.0441247747769813, 0.256578622462925, -1.18453025617335, -1.17887629173263, 1.20638677358488], a = 0.2, v = 0.2, t = 0.2)
movej(p[-0.469547860502989, -0.0439542446976089, 0.256692003586929, -1.1972613431264, -1.17776419309723, 1.21599961166458], a = 0.2, v = 0.2, t = 0.2)
movej(p[-0.470483168136489, -0.0439183727992125, 0.256685262064595, -1.20879593111417, -1.17592660917528, 1.21822206250165], a = 0.2, v = 0.2, t = 0.2)
movej(p[-0.471131325265068, -0.0438725995257225, 0.256684230097911, -1.22248735849319, -1.17743835597728, 1.22197893649862], a = 0.2, v = 0.2, t = 0.2)
movej(p[-0.47131762652706, -0.043748035517558, 0.256698542088706, -1.22683916563459, -1.18152520616627, 1.21805159207637], a = 0.2, v = 0.2, t = 0.2)
movej(p[-0.471282876779263, -0.0436009676580452, 0.256749827739159, -1.2281166616166, -1.18218057918098, 1.21195153182578], a = 0.2, v = 0.2, t = 0.2)
movej(p[-0.471297085369566, -0.0435889618896133, 0.256693185633037, -1.23064455238336, -1.18126601619114, 1.21382391789768], a = 0.2, v = 0.2, t = 0.2)
movej(p[-0.471257849097633, -0.043523327071744, 0.256645529508057, -1.23215547585348, -1.18047944662758, 1.21620576527033], a = 0.2, v = 0.2, t = 0.2)
movej(p[-0.47097720727458, -0.0433812424418048, 0.256587089477357, -1.23217375906117, -1.17658740779411, 1.21976912435725], a = 0.2, v = 0.2, t = 0.2)
movej(p[-0.47041018002518, -0.0433901998151476, 0.25644628504099, -1.22683471232755, -1.17261260580473, 1.21370477753856], a = 0.2, v = 0.2, t = 0.2)
movej(p[-0.469553294232941, -0.0434608945182662, 0.25630742579243, -1.21700964768629, -1.17147803202989, 1.20509537257079], a = 0.2, v = 0.2, t = 0.2)
movej(p[-0.468636771855704, -0.0435118793279649, 0.256326043246691, -1.21215356123413, -1.17138241884242, 1.20760689748922], a = 0.2, v = 0.2, t = 0.2)
movej(p[-0.467789421075394, -0.0435801313173688, 0.256389632874387, -1.20530598647155, -1.16749623832155, 1.21149204047535], a = 0.2, v = 0.2, t = 0.2)
movej(p[-0.467272904190069, -0.0438396694959388, 0.256401296215251, -1.20114084682505, -1.16830158912139, 1.21784854512549], a = 0.2, v = 0.2, t = 0.2)
movej(p[-0.46713718514479, -0.0439954571125672, 0.256419783888843, -1.19554277833261, -1.17023001460581, 1.22254635956485], a = 0.2, v = 0.2, t = 0.2)
movej(p[-0.46743263435883, -0.0439784792594226, 0.256545546852096, -1.18919671582039, -1.17763518855352, 1.21461100076395], a = 0.2, v = 0.2, t = 0.2)
movej(p[-0.468266878501046, -0.0439013340140348, 0.256646344527741, -1.18713962039384, -1.18184731903367, 1.20494803196514], a = 0.2, v = 0.2, t = 0.2)
movej(p[-0.469388213944371, -0.0438993060883876, 0.256723082387774, -1.19516878660098, -1.18695871685818, 1.20432655680379], a = 0.2, v = 0.2, t = 0.2)
movej(p[-0.470390204349201, -0.0437939235285416, 0.256832268149444, -1.21355323834772, -1.18721041272936, 1.21712490252701], a = 0.2, v = 0.2, t = 0.2)
movej(p[-0.470950436431019, -0.0437117779506514, 0.256900432744391, -1.22565580271669, -1.18437165122788, 1.22302489103488], a = 0.2, v = 0.2, t = 0.2)
movej(p[-0.471260630929116, -0.0436709157381612, 0.256846505757547, -1.23396027515003, -1.18189786217617, 1.22497418390303], a = 0.2, v = 0.2, t = 0.2)
movej(p[-0.471315810938533, -0.0435823594450688, 0.256771161050271, -1.23416229186954, -1.18151250943384, 1.22399744464805], a = 0.2, v = 0.2, t = 0.2)
movej(p[-0.471307471058498, -0.0434160605362103, 0.256776211823825, -1.23034887310869, -1.18574242325924, 1.21514314605523], a = 0.2, v = 0.2, t = 0.2)
movej(p[-0.471252738480118, -0.0433500171050991, 0.256751769079076, -1.22722046546346, -1.18656046198445, 1.20743794846646], a = 0.2, v = 0.2, t = 0.2)
movej(p[-0.471117060610984, -0.0433654758169876, 0.256644129505299, -1.22906824367242, -1.18625430637846, 1.20918580192185], a = 0.2, v = 0.2, t = 0.2)
movej(p[-0.470671638929566, -0.0432620479075307, 0.256579272826861, -1.23393885743195, -1.18013091310005, 1.21884742800415], a = 0.2, v = 0.2, t = 0.2)
movej(p[-0.46995365631201, -0.0432584197817621, 0.256515020875998, -1.2274426546971, -1.17314580379978, 1.21563708880957], a = 0.2, v = 0.2, t = 0.2)
movej(p[-0.46921155793315, -0.0433933280759261, 0.256455178846795, -1.22056887075032, -1.16866895814073, 1.21457660907066], a = 0.2, v = 0.2, t = 0.2)
movej(p[-0.46844994440634, -0.0435776709587973, 0.256425624251288, -1.21407283512397, -1.16627168363674, 1.217212490126], a = 0.2, v = 0.2, t = 0.2)
movej(p[-0.467729634181993, -0.0436149048205279, 0.256498211472902, -1.20701734611434, -1.16757902860117, 1.21837513627512], a = 0.2, v = 0.2, t = 0.2)
movej(p[-0.467234862939502, -0.0437580117282117, 0.256523617955567, -1.20299134041267, -1.1670607394732, 1.22190060543243], a = 0.2, v = 0.2, t = 0.2)
movej(p[-0.467166607549124, -0.0439455825843491, 0.256571062547811, -1.19598345647622, -1.17251225974153, 1.22052250550937], a = 0.2, v = 0.2, t = 0.2)
movej(p[-0.46760797647823, -0.0439438195889515, 0.256680466355591, -1.200672737361, -1.17278046324258, 1.23286194218227], a = 0.2, v = 0.2, t = 0.2)
movej(p[-0.468414772093965, -0.0438896977332814, 0.256807441857042, -1.199818495014, -1.17534295782425, 1.22439455814279], a = 0.2, v = 0.2, t = 0.2)
movej(p[-0.46957278846348, -0.0439124903724757, 0.256827218892654, -1.2040144010704, -1.18356241104084, 1.21700872164607], a = 0.2, v = 0.2, t = 0.2)
movej(p[-0.470510400307973, -0.043911808762988, 0.256850834104701, -1.21010749532673, -1.190252778205, 1.2090157681522], a = 0.2, v = 0.2, t = 0.2)
movej(p[-0.471034504715448, -0.0436983472733683, 0.256944210474104, -1.21423942242517, -1.1946522444182, 1.20648783385545], a = 0.2, v = 0.2, t = 0.2)
movej(p[-0.471233259970126, -0.0436169257496629, 0.25690624047062, -1.22129873598734, -1.18959430360814, 1.21015775420311], a = 0.2, v = 0.2, t = 0.2)
movej(p[-0.47133693686721, -0.04356227060278, 0.256837042752231, -1.22261960527631, -1.18960669467624, 1.20813692899194], a = 0.2, v = 0.2, t = 0.2)
movej(p[-0.471330203481561, -0.0435002511388057, 0.256802664450847, -1.2255093180116, -1.1899402182851, 1.20962519779289], a = 0.2, v = 0.2, t = 0.2)
movej(p[-0.471217622198224, -0.0433955221149808, 0.256793120509784, -1.22558089191213, -1.18990695908404, 1.20607055319239], a = 0.2, v = 0.2, t = 0.2)
movej(p[-0.470921257124417, -0.0433882824476874, 0.256657057958931, -1.22778875532236, -1.18593600531584, 1.20908616753299], a = 0.2, v = 0.2, t = 0.2)
movej(p[-0.470313551594962, -0.0433332538939374, 0.25657276703746, -1.22560396210659, -1.18180137368484, 1.20966937464124], a = 0.2, v = 0.2, t = 0.2)
movej(p[-0.469467088664556, -0.0432488359955645, 0.256579249473939, -1.22584255150304, -1.17162639056278, 1.21914016345658], a = 0.2, v = 0.2, t = 0.2)
movej(p[-0.468742675667803, -0.0433712220367775, 0.256594049053379, -1.21711120996966, -1.16745866900943, 1.21565078602164], a = 0.2, v = 0.2, t = 0.2)
movej(p[-0.468281038325497, -0.0436075250996761, 0.256591070789864, -1.21245182872451, -1.16687813498851, 1.21856040078895], a = 0.2, v = 0.2, t = 0.2)
movej(p[-0.468323218996256, -0.0436379349691211, 0.256697076401766, -1.20745832182331, -1.17235280184212, 1.21801121720592], a = 0.2, v = 0.2, t = 0.2)
movej(p[-0.468740112732004, -0.0435698406440488, 0.25686916413749, -1.20810530607231, -1.17243821335149, 1.22080983543228], a = 0.2, v = 0.2, t = 0.2)
movej(p[-0.469680400687546, -0.0435927471900525, 0.25692334567045, -1.21692592950566, -1.17176820700173, 1.22805878976095], a = 0.2, v = 0.2, t = 0.2)
movej(p[-0.470523365171338, -0.0435969744467469, 0.256952533030137, -1.22764586929429, -1.17224551926305, 1.23512979779335], a = 0.2, v = 0.2, t = 0.2)
movej(p[-0.47114276683608, -0.0435093581100236, 0.256979792787626, -1.23186824842885, -1.17805522143614, 1.23185447528884], a = 0.2, v = 0.2, t = 0.2)
movej(p[-0.471379029019249, -0.0434195637124478, 0.256981036665604, -1.23359563507673, -1.18113693471882, 1.22697785233153], a = 0.2, v = 0.2, t = 0.2)
movej(p[-0.471473542957429, -0.0434436999736935, 0.256894711673957, -1.2331459885718, -1.18438886622255, 1.22214676922723], a = 0.2, v = 0.2, t = 0.2)
movej(p[-0.471425368278478, -0.0433292689163755, 0.256853331494775, -1.23743752207916, -1.18361226252056, 1.22928986857317], a = 0.2, v = 0.2, t = 0.2)
movej(p[-0.471047701893615, -0.0432495352487125, 0.256769366460475, -1.23363585702252, -1.17851309461882, 1.22527664935462], a = 0.2, v = 0.2, t = 0.2)
movej(p[-0.470435187642946, -0.0432519380570108, 0.256654163479002, -1.22720786073571, -1.1761504087936, 1.2193414860915], a = 0.2, v = 0.2, t = 0.2)
movej(p[-0.469424557870414, -0.0433267899683216, 0.256559261820725, -1.22181490130054, -1.17192610106184, 1.21766969910631], a = 0.2, v = 0.2, t = 0.2)
movej(p[-0.468350958588496, -0.0433265157233588, 0.256622373825563, -1.21146895386955, -1.17301677423826, 1.21311020348447], a = 0.2, v = 0.2, t = 0.2)
movej(p[-0.467460883037765, -0.0434974931065203, 0.256654111923158, -1.20351714814568, -1.16923020048571, 1.21538904784474], a = 0.2, v = 0.2, t = 0.2)
movej(p[-0.466933676855731, -0.0437588075699283, 0.256634422666218, -1.19607370353909, -1.17040332852419, 1.21846228742807], a = 0.2, v = 0.2, t = 0.2)
movej(p[-0.466735890205792, -0.0438500607199189, 0.25666762688504, -1.1954294224834, -1.16987779848522, 1.22957630362571], a = 0.2, v = 0.2, t = 0.2)
movej(p[-0.466928113799689, -0.0437773379529416, 0.256786804474193, -1.19331369383441, -1.17142050693647, 1.22825035999337], a = 0.2, v = 0.2, t = 0.2)
movej(p[-0.467704010663396, -0.0437482522241536, 0.256886060112318, -1.1939624984152, -1.17698569148473, 1.22289952777491], a = 0.2, v = 0.2, t = 0.2)
movej(p[-0.468761244982743, -0.0438012032846223, 0.256918993982629, -1.19778508466868, -1.1810696036117, 1.21853115295435], a = 0.2, v = 0.2, t = 0.2)
movej(p[-0.469841869339037, -0.0437260505390156, 0.256982018596378, -1.20476492964311, -1.18553621765595, 1.21648880073157], a = 0.2, v = 0.2, t = 0.2)
movej(p[-0.470664786358722, -0.043728144676055, 0.256938842967926, -1.2166287670363, -1.18253566713603, 1.22202681282688], a = 0.2, v = 0.2, t = 0.2)
movej(p[-0.47123045543588, -0.0437224609991086, 0.25688809559652, -1.22284823653822, -1.18561388608766, 1.21803790520506], a = 0.2, v = 0.2, t = 0.2)
movej(p[-0.471390978838754, -0.0436127230402548, 0.256846415962163, -1.23006718317622, -1.18457389591732, 1.22154551348903], a = 0.2, v = 0.2, t = 0.2)
movej(p[-0.471243691049151, -0.0435064036959258, 0.256830397277596, -1.22655564088496, -1.1857850808698, 1.20833211252568], a = 0.2, v = 0.2, t = 0.2)
movej(p[-0.470810490990937, -0.0434507467821604, 0.256708573929202, -1.22346389262183, -1.18531079933237, 1.2034262311137], a = 0.2, v = 0.2, t = 0.2)
movej(p[-0.469958221642297, -0.0434338274996629, 0.256633026067241, -1.221885039475, -1.18288464141265, 1.20348930488696], a = 0.2, v = 0.2, t = 0.2)
movej(p[-0.468821234184617, -0.0433152666966146, 0.256659714537792, -1.21806939687045, -1.17675823195292, 1.21002841045535], a = 0.2, v = 0.2, t = 0.2)
movej(p[-0.46764350796299, -0.0434636132912351, 0.256643584734421, -1.21334699480226, -1.16938971239855, 1.21874887609867], a = 0.2, v = 0.2, t = 0.2)
movej(p[-0.46666275900223, -0.0436942244213296, 0.25662022336795, -1.20002141378037, -1.17032725608382, 1.22002208125184], a = 0.2, v = 0.2, t = 0.2)
movej(p[-0.466132511098917, -0.0438424926158912, 0.256652735035672, -1.19073920631342, -1.17540519441747, 1.22260227751556], a = 0.2, v = 0.2, t = 0.2)
movej(p[-0.466061400969043, -0.0438491712147208, 0.256751649615846, -1.17669946489458, -1.18064972109734, 1.21078573536537], a = 0.2, v = 0.2, t = 0.2)
movej(p[-0.466846716722861, -0.0438740441868941, 0.256786110527059, -1.17903509239315, -1.18443352582705, 1.21252779161947], a = 0.2, v = 0.2, t = 0.2)
movej(p[-0.468018865431461, -0.0438857634145911, 0.256842517152429, -1.18418898700392, -1.18642403033602, 1.21310804819153], a = 0.2, v = 0.2, t = 0.2)
movej(p[-0.46927425544403, -0.0438228546436809, 0.256925406666798, -1.19948741065324, -1.18385385028778, 1.22181242658849], a = 0.2, v = 0.2, t = 0.2)
movej(p[-0.470289160458911, -0.0438504130914808, 0.256928517951615, -1.20548252443239, -1.1866782514236, 1.20872573034687], a = 0.2, v = 0.2, t = 0.2)
movej(p[-0.470984993238287, -0.0438515469391879, 0.256856527977179, -1.21685257901848, -1.18859089435275, 1.20846645843337], a = 0.2, v = 0.2, t = 0.2)
movej(p[-0.471321039337982, -0.0437179288229125, 0.256845489800155, -1.22316539856345, -1.19414109651624, 1.20588361438273], a = 0.2, v = 0.2, t = 0.2)
movej(p[-0.471342730921027, -0.0435765111573772, 0.256848582450889, -1.2292178406949, -1.18933789895574, 1.21250990815522], a = 0.2, v = 0.2, t = 0.2)
movej(p[-0.471354088843554, -0.0435500036189492, 0.25678430671128, -1.23445798697958, -1.18490525633368, 1.21632110619606], a = 0.2, v = 0.2, t = 0.2)
movej(p[-0.471093082198729, -0.0434537689238299, 0.256735923271743, -1.23395128654615, -1.18278552158858, 1.21732889136639], a = 0.2, v = 0.2, t = 0.2)
movej(p[-0.470459288451411, -0.0433323003486408, 0.25671399555414, -1.23078140504445, -1.17944388742523, 1.21278035696627], a = 0.2, v = 0.2, t = 0.2)
movej(p[-0.469501579009092, -0.0433587511323873, 0.256629270535813, -1.2161808796862, -1.17814491118923, 1.19603217281574], a = 0.2, v = 0.2, t = 0.2)
movej(p[-0.468428809106981, -0.0435352280026848, 0.256552312637092, -1.20548350668108, -1.1753013667581, 1.19259784053261], a = 0.2, v = 0.2, t = 0.2)
movej(p[-0.467425306798389, -0.0436139377114504, 0.256611873081145, -1.20320993806563, -1.17340502800551, 1.20673302214121], a = 0.2, v = 0.2, t = 0.2)
movej(p[-0.466597302740568, -0.0437181971053681, 0.256715900440592, -1.19270144815876, -1.17122287160734, 1.21213183634888], a = 0.2, v = 0.2, t = 0.2)
movej(p[-0.466381383976159, -0.043900799484684, 0.256743323575129, -1.18530213902579, -1.17453508134824, 1.2146870536764], a = 0.2, v = 0.2, t = 0.2)
movej(p[-0.466755737157281, -0.0440220910387241, 0.256747976409328, -1.18208378877506, -1.17647094179136, 1.2190948859181], a = 0.2, v = 0.2, t = 0.2)
movej(p[-0.467636857052872, -0.0439490471487171, 0.25684624266766, -1.18210309768049, -1.18215985212637, 1.21649647574181], a = 0.2, v = 0.2, t = 0.2)
movej(p[-0.468773668154356, -0.0439309294289203, 0.256874323925749, -1.19168444074346, -1.18189149432008, 1.2172570658556], a = 0.2, v = 0.2, t = 0.2)
movej(p[-0.469997983062637, -0.0439838253691986, 0.256846663491768, -1.20176230684016, -1.18709980028268, 1.211573195994], a = 0.2, v = 0.2, t = 0.2)
movej(p[-0.470918815109612, -0.0438940180741262, 0.256842372886852, -1.22065884073643, -1.18497464397551, 1.22372748083346], a = 0.2, v = 0.2, t = 0.2)
movej(p[-0.471258907266011, -0.043763450589407, 0.256880676256027, -1.22306961720093, -1.18868108660529, 1.21077279563928], a = 0.2, v = 0.2, t = 0.2)
movej(p[-0.471415739905321, -0.0437048855346067, 0.256811011528566, -1.22156858452157, -1.19063320537598, 1.20120013043292], a = 0.2, v = 0.2, t = 0.2)
movej(p[-0.471335011701507, -0.043714638720038, 0.256726102714984, -1.21818210694299, -1.19393901702317, 1.19122265013732], a = 0.2, v = 0.2, t = 0.2)
movej(p[-0.471000183113495, -0.0434705069019507, 0.256709378967428, -1.22285417154862, -1.18731816768972, 1.20401826760445], a = 0.2, v = 0.2, t = 0.2)
movej(p[-0.470327514862581, -0.0434270735253724, 0.256628994605563, -1.22138825206351, -1.17803696623395, 1.2063818477368], a = 0.2, v = 0.2, t = 0.2)
movej(p[-0.469402517053105, -0.0435056117666069, 0.256501923131079, -1.21650895617976, -1.17249815907903, 1.2082523754472], a = 0.2, v = 0.2, t = 0.2)
movej(p[-0.468395921221666, -0.043653496707419, 0.256482803389649, -1.20827832549042, -1.17023907210926, 1.20793090034417], a = 0.2, v = 0.2, t = 0.2)
movej(p[-0.467451187513496, -0.043773919805462, 0.256576057286234, -1.20164145938955, -1.16637761291853, 1.21143242832631], a = 0.2, v = 0.2, t = 0.2)
movej(p[-0.466916570043877, -0.0440066325349695, 0.256610397042594, -1.19320387744705, -1.16920953279078, 1.21071484219921], a = 0.2, v = 0.2, t = 0.2)
movej(p[-0.466800035156285, -0.0441677173762401, 0.256627143973261, -1.1859361992561, -1.17290563765197, 1.21191032661585], a = 0.2, v = 0.2, t = 0.2)
movej(p[-0.467104897201598, -0.0440842139109598, 0.256700940238164, -1.1901871126156, -1.17311330571711, 1.2267907452535], a = 0.2, v = 0.2, t = 0.2)
movej(p[-0.467824666829258, -0.0439925966472239, 0.256796113710223, -1.19127642285302, -1.17478794525431, 1.22524324258425], a = 0.2, v = 0.2, t = 0.2)
movej(p[-0.468829948057165, -0.0439715950047931, 0.25685365107924, -1.19799709836873, -1.17821937011771, 1.22279603389969], a = 0.2, v = 0.2, t = 0.2)
movej(p[-0.46987416431483, -0.0439141048295788, 0.25690715423247, -1.20509050535923, -1.1841564362453, 1.21720147719708], a = 0.2, v = 0.2, t = 0.2)
movej(p[-0.470578279214764, -0.0438001702964791, 0.25694245088628, -1.21410713644023, -1.18385876434182, 1.21792036307987], a = 0.2, v = 0.2, t = 0.2)
movej(p[-0.471083699273545, -0.0437855872402354, 0.256879034254118, -1.22167602680154, -1.18455769838162, 1.21840045714233], a = 0.2, v = 0.2, t = 0.2)
movej(p[-0.471264783923547, -0.043722321188351, 0.256820230455892, -1.22158887818357, -1.1877716434675, 1.21095551010094], a = 0.2, v = 0.2, t = 0.2)
movej(p[-0.471212415470735, -0.0436087044385077, 0.25678124132107, -1.22074246457134, -1.18870450914443, 1.20531151219256], a = 0.2, v = 0.2, t = 0.2)
movej(p[-0.470858458854704, -0.0435230667870047, 0.256654381581542, -1.21294892116811, -1.18660896034041, 1.19199892589037], a = 0.2, v = 0.2, t = 0.2)
movej(p[-0.470226621800412, -0.043537302921076, 0.256509253758193, -1.20694272608069, -1.18344138403057, 1.18727834723868], a = 0.2, v = 0.2, t = 0.2)
movej(p[-0.469323991791267, -0.0435097807082414, 0.256447354674266, -1.20390314007724, -1.17983272176412, 1.19038996410181], a = 0.2, v = 0.2, t = 0.2)
movej(p[-0.468337086199494, -0.0435849192424716, 0.256483016620391, -1.19955558571481, -1.17201125050153, 1.1945592992244], a = 0.2, v = 0.2, t = 0.2)
movej(p[-0.467673522219361, -0.0438507342423383, 0.256463951563752, -1.19556357679216, -1.16967474997455, 1.19926869696023], a = 0.2, v = 0.2, t = 0.2)
movej(p[-0.467205660473287, -0.0440881414393024, 0.256467424478311, -1.19400882655544, -1.16785631533019, 1.20856170743327], a = 0.2, v = 0.2, t = 0.2)
movej(p[-0.467063824032089, -0.0441343287014095, 0.256575153716531, -1.18895618205183, -1.17363978517349, 1.20950124295489], a = 0.2, v = 0.2, t = 0.2)
movej(p[-0.467422923511184, -0.0440629868811684, 0.256671139115412, -1.18488286217786, -1.17668701765414, 1.20481390426488], a = 0.2, v = 0.2, t = 0.2)
movej(p[-0.468370160823407, -0.044076387818738, 0.256729137289567, -1.18914294698503, -1.18072655323326, 1.20479665466788], a = 0.2, v = 0.2, t = 0.2)
movej(p[-0.469650891949907, -0.0439593726942171, 0.256800348524959, -1.20565076028109, -1.17863588750607, 1.22099916086648], a = 0.2, v = 0.2, t = 0.2)
movej(p[-0.470521492401357, -0.0438950756966606, 0.256839627515584, -1.21636609919671, -1.17708437975728, 1.22225600462427], a = 0.2, v = 0.2, t = 0.2)
movej(p[-0.471180571934595, -0.0438443542079585, 0.256821551782218, -1.21903405542576, -1.18361551856213, 1.21102896911374], a = 0.2, v = 0.2, t = 0.2)
movej(p[-0.471364623359353, -0.0438156142760183, 0.256753971476762, -1.22016006787644, -1.18840856934853, 1.2015893602564], a = 0.2, v = 0.2, t = 0.2)
movej(p[-0.471437378705805, -0.0436007122527906, 0.256770109190365, -1.2264889816693, -1.19012795896687, 1.20772086189931], a = 0.2, v = 0.2, t = 0.2)
movej(p[-0.471249929215305, -0.0434818599152066, 0.256698652587718, -1.2317337256278, -1.18273430637916, 1.21707507376801], a = 0.2, v = 0.2, t = 0.2)
movej(p[-0.470802567966242, -0.0434574592737533, 0.256560521746725, -1.23082131981603, -1.17926334858991, 1.21864951346561], a = 0.2, v = 0.2, t = 0.2)
movej(p[-0.469970112733651, -0.0434166276172941, 0.256479083411382, -1.22675638071147, -1.17484941615803, 1.21981097678414], a = 0.2, v = 0.2, t = 0.2)
movej(p[-0.468972301887236, -0.0434449209909971, 0.256459771798805, -1.21570862097781, -1.17047296955825, 1.21022327141804], a = 0.2, v = 0.2, t = 0.2)
movej(p[-0.468115246750664, -0.0436459991663401, 0.256423118350439, -1.20395579952921, -1.17037492869386, 1.20430532554267], a = 0.2, v = 0.2, t = 0.2)
movej(p[-0.467440827058312, -0.0439405373569296, 0.256411216913023, -1.19131410289432, -1.17332598315456, 1.19791550733142], a = 0.2, v = 0.2, t = 0.2)
movej(p[-0.466901112021999, -0.0439656019259721, 0.25651050989685, -1.19172880738305, -1.17288943658755, 1.21077601199014], a = 0.2, v = 0.2, t = 0.2)
movej(p[-0.466651189175884, -0.0440082190213451, 0.256589249816661, -1.18739526813123, -1.17235093643229, 1.2132352526213], a = 0.2, v = 0.2, t = 0.2)
movej(p[-0.467026744183779, -0.0440699289505154, 0.256592673905858, -1.18557383594109, -1.17464315773276, 1.21546411128202], a = 0.2, v = 0.2, t = 0.2)
movej(p[-0.467946527254499, -0.0440665791131237, 0.256638110146974, -1.18268114589208, -1.18098105166762, 1.20801527863286], a = 0.2, v = 0.2, t = 0.2)
movej(p[-0.46904404429251, -0.0439665138987565, 0.25674658107003, -1.18517444814836, -1.18552882818849, 1.19769379413187], a = 0.2, v = 0.2, t = 0.2)
movej(p[-0.470151659450391, -0.0439363045451284, 0.25677286753777, -1.19786242756313, -1.1881411424903, 1.19705451758819], a = 0.2, v = 0.2, t = 0.2)
movej(p[-0.470902436030527, -0.0438883764054562, 0.256769104199462, -1.20785563477763, -1.19070852955308, 1.19647948234071], a = 0.2, v = 0.2, t = 0.2)
movej(p[-0.47125537029939, -0.0437155469575548, 0.256770326390062, -1.22378415696286, -1.1853133976535, 1.21355429238426], a = 0.2, v = 0.2, t = 0.2)
movej(p[-0.471324593548041, -0.0436239545660391, 0.256737915259836, -1.22156573242254, -1.18545441151644, 1.20195486027948], a = 0.2, v = 0.2, t = 0.2)
movej(p[-0.471354041977352, -0.043608417938191, 0.256676947689716, -1.22050573621738, -1.18733998543396, 1.19709742507809], a = 0.2, v = 0.2, t = 0.2)
movej(p[-0.471250234190995, -0.043521355378301, 0.256615055764903, -1.22301097573008, -1.18654384675204, 1.20223209157646], a = 0.2, v = 0.2, t = 0.2)
movej(p[-0.470742326744434, -0.0433603714163993, 0.256582519722758, -1.22253975676407, -1.1801203576459, 1.20626726607202], a = 0.2, v = 0.2, t = 0.2)
movej(p[-0.470049150417969, -0.0434287611184865, 0.256434860247694, -1.22125465103057, -1.17137243850413, 1.20994881939292], a = 0.2, v = 0.2, t = 0.2)
movej(p[-0.469091357631638, -0.043583303785674, 0.256364388802615, -1.21354569121514, -1.16859464179043, 1.2065556240379], a = 0.2, v = 0.2, t = 0.2)
movej(p[-0.468137751852909, -0.0437158868740777, 0.256396812655615, -1.20571445063784, -1.16962108211189, 1.20468342006224], a = 0.2, v = 0.2, t = 0.2)
movej(p[-0.467355205534381, -0.0438731873187748, 0.256444838239236, -1.19741686984682, -1.1682681429531, 1.20433625129802], a = 0.2, v = 0.2, t = 0.2)
movej(p[-0.466879924936385, -0.0441233267388955, 0.256429986694036, -1.1928728789389, -1.17108961656598, 1.20825665628674], a = 0.2, v = 0.2, t = 0.2)
movej(p[-0.466949248090987, -0.0441720562197774, 0.256487291776088, -1.19484061104133, -1.17217602680522, 1.22318524232269], a = 0.2, v = 0.2, t = 0.2)
movej(p[-0.467450732249401, -0.0440824316067488, 0.256630622052021, -1.19444840862418, -1.17542694622284, 1.22337179352409], a = 0.2, v = 0.2, t = 0.2)
movej(p[-0.468571315406974, -0.0440393526484554, 0.256706877330631, -1.19281863729895, -1.18073156861465, 1.21033165938278], a = 0.2, v = 0.2, t = 0.2)
movej(p[-0.46982311281549, -0.0440751544227454, 0.256727510410645, -1.19909402870915, -1.18577538638301, 1.201544863483], a = 0.2, v = 0.2, t = 0.2)
movej(p[-0.470877880208572, -0.0439141172267318, 0.25679267124928, -1.21269921426482, -1.18792233141388, 1.20682372217741], a = 0.2, v = 0.2, t = 0.2)
movej(p[-0.471288755649742, -0.0437987769255717, 0.256826027803203, -1.21901067238405, -1.18514311528895, 1.204668723244], a = 0.2, v = 0.2, t = 0.2)
movej(p[-0.471514610751155, -0.0437567896923574, 0.256774597481164, -1.22476406044044, -1.18395547561011, 1.20678120149787], a = 0.2, v = 0.2, t = 0.2)
movej(p[-0.471482985773415, -0.0437114804517584, 0.256700968859859, -1.2269653332202, -1.18321945466362, 1.20885796228546], a = 0.2, v = 0.2, t = 0.2)
movej(p[-0.471238843435203, -0.0435451564568499, 0.25669873066163, -1.22308236039549, -1.18504302060974, 1.20302302503074], a = 0.2, v = 0.2, t = 0.2)
movej(p[-0.470674842518735, -0.0434692826527964, 0.256607479449684, -1.22066131564185, -1.18027159109655, 1.2030525922489], a = 0.2, v = 0.2, t = 0.2)
movej(p[-0.469722596462723, -0.0435334985794852, 0.256507378697599, -1.21471120940117, -1.17651704991397, 1.19983220100523], a = 0.2, v = 0.2, t = 0.2)
movej(p[-0.468605964721007, -0.0435047177654141, 0.256527478283051, -1.2145719109192, -1.16973766184289, 1.21377779797532], a = 0.2, v = 0.2, t = 0.2)
movej(p[-0.467494832982668, -0.0435865525964889, 0.256613728499731, -1.1990594270256, -1.17015185195888, 1.20460338886898], a = 0.2, v = 0.2, t = 0.2)
movej(p[-0.466741945991738, -0.0438053291168553, 0.256640925103378, -1.18633092575215, -1.17437702147564, 1.2017056039832], a = 0.2, v = 0.2, t = 0.2)
movej(p[-0.466323708278097, -0.043961182249497, 0.256640828987918, -1.18187210262395, -1.17560087771335, 1.2107496749488], a = 0.2, v = 0.2, t = 0.2)
movej(p[-0.466285549750139, -0.0438538487980258, 0.256791536316749, -1.18471321790477, -1.17428788375462, 1.22419061654705], a = 0.2, v = 0.2, t = 0.2)
movej(p[-0.46700287805681, -0.0438365549553868, 0.25686101738907, -1.19037806009343, -1.17056111656532, 1.23177147125367], a = 0.2, v = 0.2, t = 0.2)
movej(p[-0.46819428380114, -0.0438954157828148, 0.256897817119768, -1.19323640858089, -1.17488425295636, 1.22492492783076], a = 0.2, v = 0.2, t = 0.2)
movej(p[-0.469597232875194, -0.0439063314497078, 0.256906492804046, -1.20671823562219, -1.17743600973278, 1.22742599802867], a = 0.2, v = 0.2, t = 0.2)
movej(p[-0.470565338244016, -0.0438011766895515, 0.256941309928623, -1.21586542912005, -1.17952040692107, 1.22253311143342], a = 0.2, v = 0.2, t = 0.2)
movej(p[-0.471150131016103, -0.0437791558804757, 0.256859767134732, -1.22463053551441, -1.182168199804, 1.21957975348834], a = 0.2, v = 0.2, t = 0.2)
movej(p[-0.471398882575443, -0.0437212341961184, 0.256775387512507, -1.22834766060991, -1.1834828687939, 1.2168143778897], a = 0.2, v = 0.2, t = 0.2)
movej(p[-0.471363216643153, -0.043593908241897, 0.256727040264225, -1.2326000234896, -1.18172940315496, 1.21888409237625], a = 0.2, v = 0.2, t = 0.2)
movej(p[-0.471081332909324, -0.0434926832028558, 0.256682499798635, -1.22685809039245, -1.18156516437641, 1.20774814094753], a = 0.2, v = 0.2, t = 0.2)
movej(p[-0.47050183314181, -0.0435040897715812, 0.256567610156013, -1.2242538444172, -1.1789614762951, 1.20624644661445], a = 0.2, v = 0.2, t = 0.2)
movej(p[-0.4696507800425, -0.043449867119599, 0.256570415644731, -1.21885853780007, -1.17809514446819, 1.20445140955549], a = 0.2, v = 0.2, t = 0.2)
movej(p[-0.468649648021485, -0.0434813304542858, 0.256595111321853, -1.21145221026617, -1.17129698509225, 1.2044496308906], a = 0.2, v = 0.2, t = 0.2)
movej(p[-0.467876714996591, -0.0437030145164302, 0.256586117044768, -1.20058324545155, -1.17051284291479, 1.20021359679185], a = 0.2, v = 0.2, t = 0.2)
movej(p[-0.467243870189047, -0.0439433742330832, 0.256540344657556, -1.19419516298585, -1.16963503000191, 1.20650061988828], a = 0.2, v = 0.2, t = 0.2)
movej(p[-0.466874631457581, -0.0439989704147472, 0.25659877941404, -1.18715912236741, -1.17460537417553, 1.20849378572352], a = 0.2, v = 0.2, t = 0.2)
movej(p[-0.466744069999278, -0.0439847150738715, 0.256641241239982, -1.18568177706356, -1.17230711622257, 1.21361202343622], a = 0.2, v = 0.2, t = 0.2)
movej(p[-0.467207989436976, -0.0440220699944438, 0.256647319910445, -1.18339760504472, -1.17714833805923, 1.20866168579112], a = 0.2, v = 0.2, t = 0.2)
movej(p[-0.468047923803912, -0.0439761389921269, 0.256686778577, -1.19252100490368, -1.17662896825302, 1.21867365772283], a = 0.2, v = 0.2, t = 0.2)
movej(p[-0.469003672731057, -0.0438463148954107, 0.25682031822423, -1.19253483496063, -1.1825116693342, 1.2060464613448], a = 0.2, v = 0.2, t = 0.2)
movej(p[-0.469988022598855, -0.0438097224694807, 0.256847521819654, -1.2032440440915, -1.18397007190096, 1.20719279264002], a = 0.2, v = 0.2, t = 0.2)
movej(p[-0.470721468389629, -0.0437960444954094, 0.256814054896349, -1.21220818814283, -1.18717873443316, 1.20536804670137], a = 0.2, v = 0.2, t = 0.2)
movej(p[-0.471156825563842, -0.0436289293232505, 0.256824185972528, -1.22689925022495, -1.18410305643417, 1.21954019010065], a = 0.2, v = 0.2, t = 0.2)
movej(p[-0.471239135039117, -0.0435001074977405, 0.256785396910253, -1.22445126733235, -1.18380498577866, 1.20922527455656], a = 0.2, v = 0.2, t = 0.2)
movej(p[-0.47114972144555, -0.0434914302885046, 0.256714878596984, -1.22410255798687, -1.18390295970369, 1.20485694635489], a = 0.2, v = 0.2, t = 0.2)
movej(p[-0.470758529205698, -0.0434627206745757, 0.256631468727853, -1.21818214353949, -1.18631994347936, 1.19703271561662], a = 0.2, v = 0.2, t = 0.2)
movej(p[-0.469971613435745, -0.0433076428223385, 0.256683662191468, -1.21978686547408, -1.18029354202008, 1.20378573828237], a = 0.2, v = 0.2, t = 0.2)
movej(p[-0.469125484775687, -0.0433737693321757, 0.256621955963053, -1.21703285900283, -1.17104558726615, 1.20741920131631], a = 0.2, v = 0.2, t = 0.2)
movej(p[-0.468318423934762, -0.0436137821043031, 0.256541516328783, -1.21376516023259, -1.16501851021248, 1.21265355828365], a = 0.2, v = 0.2, t = 0.2)
movej(p[-0.467605802372024, -0.0437563375140014, 0.256570099671416, -1.20824745243756, -1.16613825321926, 1.21922842701889], a = 0.2, v = 0.2, t = 0.2)
movej(p[-0.466973594854879, -0.0438130758313428, 0.256671171588148, -1.19853415902168, -1.16673140162589, 1.21884832495217], a = 0.2, v = 0.2, t = 0.2)
movej(p[-0.466883800545473, -0.0439522329914384, 0.25669890700609, -1.1918176833039, -1.17115385008394, 1.21657164588283], a = 0.2, v = 0.2, t = 0.2)
movej(p[-0.467341358071171, -0.0440396778981655, 0.256711417376383, -1.18929186351491, -1.17358308193271, 1.21666579678827], a = 0.2, v = 0.2, t = 0.2)
movej(p[-0.468302822852228, -0.0440297696311442, 0.256762555768333, -1.19054033945352, -1.17867225204412, 1.21210679272414], a = 0.2, v = 0.2, t = 0.2)
movej(p[-0.469378609726904, -0.044009098670555, 0.256787804234873, -1.19503159920114, -1.18081355248163, 1.20501156531408], a = 0.2, v = 0.2, t = 0.2)
movej(p[-0.470466008364625, -0.0440584273143338, 0.256705577350066, -1.20870219786514, -1.18359169156342, 1.20878813471227], a = 0.2, v = 0.2, t = 0.2)
movej(p[-0.47115302254024, -0.0439264645174198, 0.256713014248577, -1.22058018800499, -1.1869294878315, 1.21357454092282], a = 0.2, v = 0.2, t = 0.2)
movej(p[-0.471387645159038, -0.0437447664122408, 0.256766106500391, -1.22766425751427, -1.18684835017341, 1.21253622568767], a = 0.2, v = 0.2, t = 0.2)
movej(p[-0.47145577986024, -0.043667126845164, 0.256734880262829, -1.22043403583143, -1.19180342905386, 1.19464104566467], a = 0.2, v = 0.2, t = 0.2)
movej(p[-0.471290897624212, -0.0436533217023228, 0.256632659018103, -1.21967319271434, -1.19091391788074, 1.19461820776074], a = 0.2, v = 0.2, t = 0.2)
movej(p[-0.470899026175885, -0.0434410895358923, 0.256602411479057, -1.21930077660563, -1.1886478983835, 1.20142545949449], a = 0.2, v = 0.2, t = 0.2)
movej(p[-0.470109919655135, -0.0433687387087108, 0.256579358706645, -1.21734710867835, -1.17783569026608, 1.20513543912276], a = 0.2, v = 0.2, t = 0.2)
movej(p[-0.469253444173623, -0.0434963175374732, 0.256507079787724, -1.21366917051452, -1.17244089916224, 1.20538494326424], a = 0.2, v = 0.2, t = 0.2)
movej(p[-0.468321427610532, -0.0437294921545608, 0.256484986235017, -1.20751470555532, -1.16923857708631, 1.20716176652586], a = 0.2, v = 0.2, t = 0.2)
movej(p[-0.467464355289167, -0.0437816196351992, 0.256649122817518, -1.19820403370531, -1.17253452541876, 1.20375298788355], a = 0.2, v = 0.2, t = 0.2)
movej(p[-0.466858891188639, -0.0439353188614696, 0.256728601426669, -1.18901219013958, -1.17230836748988, 1.20450742866527], a = 0.2, v = 0.2, t = 0.2)
movej(p[-0.466851034313902, -0.0441163647853212, 0.25674598080353, -1.18250748971082, -1.17649558833946, 1.2056594639934], a = 0.2, v = 0.2, t = 0.2)
movej(p[-0.467426639886523, -0.0441616168988669, 0.25677423497645, -1.18713466677104, -1.17666648202801, 1.21639678876577], a = 0.2, v = 0.2, t = 0.2)
movej(p[-0.468346844766607, -0.0440642706658166, 0.256854254574546, -1.18736758970677, -1.18018325087487, 1.20891958068482], a = 0.2, v = 0.2, t = 0.2)
movej(p[-0.469566309139744, -0.0440442696694493, 0.256854013543558, -1.20026635338756, -1.1808753432058, 1.20837217199118], a = 0.2, v = 0.2, t = 0.2)
movej(p[-0.47057611017584, -0.0440057366550465, 0.256832044403843, -1.2093267295084, -1.18356836923881, 1.20608453707815], a = 0.2, v = 0.2, t = 0.2)
movej(p[-0.471203132659598, -0.0438616435462759, 0.256871710066767, -1.22802593982124, -1.17947011776344, 1.21989036975963], a = 0.2, v = 0.2, t = 0.2)
movej(p[-0.471463247063629, -0.0437909621692404, 0.256859741475826, -1.22730925454024, -1.1803313500812, 1.20761142379848], a = 0.2, v = 0.2, t = 0.2)
movej(p[-0.471572364851404, -0.0437743401007489, 0.256789540753186, -1.22711658870993, -1.18246095472934, 1.20177508954532], a = 0.2, v = 0.2, t = 0.2)
movej(p[-0.47157520488788, -0.0436772016221238, 0.256755620297599, -1.22871264481514, -1.18347146227385, 1.20286423207998], a = 0.2, v = 0.2, t = 0.2)
movej(p[-0.471274884980645, -0.0434678050492775, 0.256751545202703, -1.22897619407237, -1.17901648437543, 1.20728263321262], a = 0.2, v = 0.2, t = 0.2)
movej(p[-0.470739873330515, -0.0434694754881746, 0.256637339189029, -1.2251931253248, -1.17408743923658, 1.20462214368463], a = 0.2, v = 0.2, t = 0.2)
movej(p[-0.469818372186362, -0.0435279915552327, 0.256534130287181, -1.21841636437634, -1.17068954245504, 1.20068925242481], a = 0.2, v = 0.2, t = 0.2)
movej(p[-0.468746731777331, -0.043567120591056, 0.25659292882702, -1.2117152199861, -1.17028515154498, 1.19791958797569], a = 0.2, v = 0.2, t = 0.2)
movej(p[-0.467854897034862, -0.0436673758181594, 0.2567085654132, -1.20685084562641, -1.16663565813979, 1.20246810137106], a = 0.2, v = 0.2, t = 0.2)
movej(p[-0.467194614797798, -0.0439249285791381, 0.256807480326429, -1.20029399123867, -1.16839112851106, 1.20716337262118], a = 0.2, v = 0.2, t = 0.2)
movej(p[-0.466650638565526, -0.0440806428711495, 0.257028173246867, -1.19420062331677, -1.17325069748879, 1.2142262321726], a = 0.2, v = 0.2, t = 0.2)
movej(p[-0.466144789530993, -0.0440947858126329, 0.257326079592662, -1.18834755472542, -1.17710449504109, 1.21786543140507], a = 0.2, v = 0.2, t = 0.2)
movej(p[-0.466165055521339, -0.0441530458575494, 0.257513678149164, -1.1813280147758, -1.17885504970454, 1.21281589961544], a = 0.2, v = 0.2, t = 0.2)
movej(p[-0.466897993302763, -0.0443001018418998, 0.257502143383141, -1.17864379529561, -1.1805396489686, 1.21025984033117], a = 0.2, v = 0.2, t = 0.2)
movej(p[-0.468022711075414, -0.0442596786603842, 0.257495240899589, -1.1848993792494, -1.17983625228367, 1.21636535566435], a = 0.2, v = 0.2, t = 0.2)
movej(p[-0.469051815865506, -0.0441924713662565, 0.257511762371248, -1.18896348884909, -1.17897334019544, 1.20755480928467], a = 0.2, v = 0.2, t = 0.2)
movej(p[-0.470020708689487, -0.0441175765731904, 0.257478452612769, -1.19577835369842, -1.18378709883461, 1.19851681741877], a = 0.2, v = 0.2, t = 0.2)
movej(p[-0.470760569123682, -0.0440685881261449, 0.257394680172384, -1.20473062595317, -1.18638780490248, 1.1933676061923], a = 0.2, v = 0.2, t = 0.2)
movej(p[-0.471221133567949, -0.0438458972097281, 0.257383779941242, -1.21370358545344, -1.18886059849243, 1.19469025195951], a = 0.2, v = 0.2, t = 0.2)
movej(p[-0.471375095307329, -0.0437759889671927, 0.257300296379184, -1.22219772653683, -1.18370652137084, 1.20110627392172], a = 0.2, v = 0.2, t = 0.2)
movej(p[-0.471468522852003, -0.0437768689751485, 0.257180892288668, -1.22344568798637, -1.18453810185441, 1.19762331888324], a = 0.2, v = 0.2, t = 0.2)
movej(p[-0.471465172520358, -0.0437208374424724, 0.257116185931075, -1.22898318087034, -1.18287113879156, 1.20485968868263], a = 0.2, v = 0.2, t = 0.2)
movej(p[-0.471384846793107, -0.0435622752530377, 0.25711332399952, -1.22674965787298, -1.18426701040879, 1.20034276541779], a = 0.2, v = 0.2, t = 0.2)
movej(p[-0.471140028478439, -0.0435232216303135, 0.2570089203146, -1.22790977043188, -1.18212944104768, 1.20124314302042], a = 0.2, v = 0.2, t = 0.2)
movej(p[-0.470554072680241, -0.04349208861402, 0.256900389750703, -1.22322474952408, -1.18003189665074, 1.19890726832251], a = 0.2, v = 0.2, t = 0.2)
movej(p[-0.469586333880023, -0.0433997425951314, 0.256914449443055, -1.22115820771394, -1.17562078530004, 1.20322751520373], a = 0.2, v = 0.2, t = 0.2)
movej(p[-0.468612778762343, -0.0434879554465042, 0.256954747516095, -1.20825860682, -1.17201521493379, 1.1947347290906], a = 0.2, v = 0.2, t = 0.2)
movej(p[-0.467879195391372, -0.0437696968251504, 0.256956893650618, -1.19815359175403, -1.17407822126654, 1.19070973796957], a = 0.2, v = 0.2, t = 0.2)
movej(p[-0.46732666576109, -0.0439861393924365, 0.257006286915862, -1.19124928487726, -1.17479494301936, 1.19543456434592], a = 0.2, v = 0.2, t = 0.2)
movej(p[-0.466972256085847, -0.0440029513578479, 0.257139513050768, -1.19167493951777, -1.17452316651594, 1.20839542785791], a = 0.2, v = 0.2, t = 0.2)
movej(p[-0.467197622644196, -0.0440061106603748, 0.25722309825787, -1.18766027136117, -1.17593781049834, 1.20591017725234], a = 0.2, v = 0.2, t = 0.2)
movej(p[-0.467966599052308, -0.0440489087121981, 0.25723752169463, -1.18717985843727, -1.18055689111411, 1.20420245650161], a = 0.2, v = 0.2, t = 0.2)
movej(p[-0.469091334486295, -0.0439465877541006, 0.257304948555501, -1.19160886142041, -1.18442107573106, 1.20357418796676], a = 0.2, v = 0.2, t = 0.2)
movej(p[-0.469994567739617, -0.0438934855059768, 0.257312874461315, -1.19881819796518, -1.18259950438087, 1.2005492792598], a = 0.2, v = 0.2, t = 0.2)
movej(p[-0.47085723046644, -0.0439051490057925, 0.257244336454009, -1.20339768308184, -1.18816029596972, 1.18807724968766], a = 0.2, v = 0.2, t = 0.2)
movej(p[-0.471301085741673, -0.043898128704311, 0.257138913573303, -1.21355623551907, -1.1888105217582, 1.19065921154814], a = 0.2, v = 0.2, t = 0.2)
movej(p[-0.471445574417858, -0.0437051259548213, 0.257123447225393, -1.21871279102053, -1.19160773406089, 1.19227853872705], a = 0.2, v = 0.2, t = 0.2)
movej(p[-0.471112754690175, -0.0436023449987106, 0.25701187723145, -1.225863535442, -1.18096563955909, 1.20661677585828], a = 0.2, v = 0.2, t = 0.2)
movej(p[-0.47040357096794, -0.0436299230713475, 0.256838479755002, -1.22115171848983, -1.17644992252769, 1.20522692039515], a = 0.2, v = 0.2, t = 0.2)
movej(p[-0.46932184462151, -0.0436562119969022, 0.256768967704728, -1.21869676938354, -1.16947752319546, 1.21386852600211], a = 0.2, v = 0.2, t = 0.2)
movej(p[-0.468164697757698, -0.0437287912584162, 0.256869393998434, -1.20368206426816, -1.17050044982568, 1.19892295256496], a = 0.2, v = 0.2, t = 0.2)
movej(p[-0.467342656108068, -0.0439873311348926, 0.256960809681146, -1.19143920706743, -1.17489524625125, 1.19061250559592], a = 0.2, v = 0.2, t = 0.2)
movej(p[-0.466853557526993, -0.0442802352828479, 0.257011839833425, -1.17861134947072, -1.180328534697, 1.18428049381964], a = 0.2, v = 0.2, t = 0.2)
movej(p[-0.46678084799283, -0.0442519723885962, 0.257131908568633, -1.1820357862654, -1.18061870316606, 1.2036506771178], a = 0.2, v = 0.2, t = 0.2)
movej(p[-0.467011590240125, -0.0441822420619378, 0.257205359720199, -1.18057217117587, -1.17833375368005, 1.20574758449993], a = 0.2, v = 0.2, t = 0.2)
movej(p[-0.467748326400917, -0.0441645222611386, 0.257222853151546, -1.18234192689392, -1.181914816646, 1.20364652041804], a = 0.2, v = 0.2, t = 0.2)
movej(p[-0.468567849713589, -0.0441064395217124, 0.257253049758446, -1.18609101161304, -1.18468055999477, 1.19849563625338], a = 0.2, v = 0.2, t = 0.2)
movej(p[-0.469217634580941, -0.0439162528493865, 0.257322227509417, -1.19658230123003, -1.18305342363769, 1.20515767776614], a = 0.2, v = 0.2, t = 0.2)
movej(p[-0.469628882400615, -0.0438459896493802, 0.257263321807152, -1.20437594527175, -1.17909398942353, 1.20736356516024], a = 0.2, v = 0.2, t = 0.2)
movej(p[-0.470092369097639, -0.043841005249567, 0.257062475123294, -1.18923418804366, -1.19627138487711, 1.1858004219598], a = 0.2, v = 0.2, t = 0.2)
movej(p[-0.470189961425921, -0.0438265558951344, 0.25694113286966, -1.18926704735411, -1.1999840461029, 1.1770776684197], a = 0.2, v = 0.2, t = 0.2)
movej(p[-0.469853742408581, -0.0436511972172686, 0.256901248918039, -1.19508877449562, -1.19424251073457, 1.1871962634654], a = 0.2, v = 0.2, t = 0.2)
movej(p[-0.469239331656389, -0.0437334971639904, 0.256827214768097, -1.19369796326956, -1.18530885135004, 1.18759831760193], a = 0.2, v = 0.2, t = 0.2)
movej(p[-0.468491766764169, -0.0440148602309948, 0.256741718164645, -1.18842265041743, -1.18125238888057, 1.18417195885705], a = 0.2, v = 0.2, t = 0.2)
movej(p[-0.467867009070724, -0.0442601845139492, 0.256759517984119, -1.18316958459689, -1.18071435230266, 1.18574624048505], a = 0.2, v = 0.2, t = 0.2)
movej(p[-0.467333534087333, -0.0442013935517667, 0.256913341842352, -1.18030168474968, -1.18037021542808, 1.19117813111365], a = 0.2, v = 0.2, t = 0.2)
movej(p[-0.467529501051872, -0.0441654229468414, 0.256974772972006, -1.18173668618813, -1.17824524643974, 1.20167623653424], a = 0.2, v = 0.2, t = 0.2)
movej(p[-0.468213077018028, -0.0441489431219617, 0.256970760944373, -1.18560936460795, -1.1793219849264, 1.2073786419079], a = 0.2, v = 0.2, t = 0.2)
movej(p[-0.469333754078937, -0.0441032264984384, 0.256992012943951, -1.19631705324803, -1.18172858387844, 1.21407056090962], a = 0.2, v = 0.2, t = 0.2)
movej(p[-0.470228308545147, -0.0440511876793796, 0.256991964001999, -1.20232516593438, -1.18543375285145, 1.20509671742218], a = 0.2, v = 0.2, t = 0.2)
movej(p[-0.470873505233451, -0.0440511919934509, 0.256919186081698, -1.21093040594886, -1.18802374125818, 1.20192852328118], a = 0.2, v = 0.2, t = 0.2)
movej(p[-0.471170675750924, -0.0439458464725345, 0.256853343871139, -1.21699025488447, -1.18804882779868, 1.20321250104804], a = 0.2, v = 0.2, t = 0.2)
movej(p[-0.471134045136944, -0.0437649470697412, 0.256845244758508, -1.22205873497374, -1.1849527320273, 1.20416568724182], a = 0.2, v = 0.2, t = 0.2)
movej(p[-0.470823136918219, -0.0436743102469289, 0.25677842070897, -1.21558603917536, -1.18495775552847, 1.19251564953567], a = 0.2, v = 0.2, t = 0.2)
movej(p[-0.47016982182118, -0.0437067616200182, 0.256678689688893, -1.20920925567931, -1.18323745060751, 1.18466681607874], a = 0.2, v = 0.2, t = 0.2)
movej(p[-0.469312532479418, -0.0436846457002327, 0.256701474655274, -1.20336554477384, -1.18351084700762, 1.18045993049074], a = 0.2, v = 0.2, t = 0.2)
movej(p[-0.468415411701493, -0.0437933506819477, 0.256766993971924, -1.19779311361054, -1.177415066943, 1.18093640225747], a = 0.2, v = 0.2, t = 0.2)
movej(p[-0.467759553744118, -0.0440530400422247, 0.256799999613509, -1.19315600529547, -1.17611171962851, 1.18416706039189], a = 0.2, v = 0.2, t = 0.2)
movej(p[-0.467367491602396, -0.0442584278089654, 0.256816109734608, -1.18937662005672, -1.17482656538384, 1.19662802159858], a = 0.2, v = 0.2, t = 0.2)
movej(p[-0.467320687647285, -0.0441846552785537, 0.256966532439153, -1.18710983910381, -1.17971957660791, 1.20347585408136], a = 0.2, v = 0.2, t = 0.2)
movej(p[-0.467732208873483, -0.0440771939541429, 0.257078469449658, -1.18414236198989, -1.18139991713207, 1.19934470241428], a = 0.2, v = 0.2, t = 0.2)
movej(p[-0.468735335603783, -0.0440643835708839, 0.257080099693934, -1.18579257117952, -1.1865042640929, 1.19302121480641], a = 0.2, v = 0.2, t = 0.2)
movej(p[-0.469824433547354, -0.0440042605433903, 0.257048087272096, -1.19764470610408, -1.18569388345976, 1.20112601863309], a = 0.2, v = 0.2, t = 0.2)
movej(p[-0.470565692020548, -0.0438471367282092, 0.257086134590807, -1.20031767544646, -1.19167638572311, 1.19098848441381], a = 0.2, v = 0.2, t = 0.2)
movej(p[-0.47098548434713, -0.0437629684303273, 0.257031969158132, -1.2071501419658, -1.19391162007389, 1.19006635109065], a = 0.2, v = 0.2, t = 0.2)
movej(p[-0.471150868343284, -0.0437276459131835, 0.256937414027833, -1.20899324272862, -1.19654120748521, 1.18593623626703], a = 0.2, v = 0.2, t = 0.2)
movej(p[-0.471097600883718, -0.0435697733320409, 0.256883245070045, -1.21456861881488, -1.19244745959298, 1.19579300348652], a = 0.2, v = 0.2, t = 0.2)
movej(p[-0.470754004261043, -0.0434789721903562, 0.256784048671852, -1.20734112287819, -1.18980269106936, 1.18337190958923], a = 0.2, v = 0.2, t = 0.2)
movej(p[-0.47016656336711, -0.0435502391875107, 0.256657258228396, -1.19951623678503, -1.1883716986588, 1.17379114986079], a = 0.2, v = 0.2, t = 0.2)
movej(p[-0.469387136971587, -0.0436610367959753, 0.256598735936731, -1.19657027025837, -1.18441984958397, 1.17418467214892], a = 0.2, v = 0.2, t = 0.2)
movej(p[-0.468458329420004, -0.0436787687675293, 0.256723198132225, -1.20165715549079, -1.17559858344719, 1.19408132860376], a = 0.2, v = 0.2, t = 0.2)
movej(p[-0.467826208059688, -0.0438819982183947, 0.256773318358652, -1.19840307830334, -1.16937733295829, 1.19926364499986], a = 0.2, v = 0.2, t = 0.2)
movej(p[-0.467574664521449, -0.0441478730979403, 0.256775188176946, -1.19148067221496, -1.17350877900901, 1.1976351795851], a = 0.2, v = 0.2, t = 0.2)
movej(p[-0.467832087601087, -0.0441886790402341, 0.256834747485561, -1.1874240733925, -1.17882576716956, 1.19756341498216], a = 0.2, v = 0.2, t = 0.2)
movej(p[-0.468407016590669, -0.044088652616104, 0.256948461178291, -1.18558379933112, -1.18176605927093, 1.19406459517955], a = 0.2, v = 0.2, t = 0.2)
movej(p[-0.469321802408921, -0.0440444004128501, 0.256951107993907, -1.18956232676806, -1.18313456501535, 1.19037785637597], a = 0.2, v = 0.2, t = 0.2)
movej(p[-0.470275081819416, -0.0440657952891428, 0.256888380791723, -1.19768931548066, -1.18617633094338, 1.1899920095208], a = 0.2, v = 0.2, t = 0.2)
movej(p[-0.471000783674334, -0.0439018083772444, 0.256898407967746, -1.20883763086086, -1.19007748719777, 1.19457332459004], a = 0.2, v = 0.2, t = 0.2)
movej(p[-0.47119690545004, -0.043800536693072, 0.256889774793636, -1.21185117855831, -1.18862769535794, 1.19203916399863], a = 0.2, v = 0.2, t = 0.2)
movej(p[-0.471385113440682, -0.0437825138514214, 0.256804804586629, -1.20984588641151, -1.19109828846651, 1.18401357877771], a = 0.2, v = 0.2, t = 0.2)
movej(p[-0.471429027623513, -0.0437756722710686, 0.25671436323621, -1.21097427922113, -1.19081235616072, 1.18319549448579], a = 0.2, v = 0.2, t = 0.2)
movej(p[-0.471473106586295, -0.0435545581069012, 0.256743727060563, -1.21846379513556, -1.18698438070921, 1.19338690971953], a = 0.2, v = 0.2, t = 0.2)
movej(p[-0.471395053987296, -0.0434804814976482, 0.256694056609075, -1.22158513225764, -1.18023164671215, 1.19659781237138], a = 0.2, v = 0.2, t = 0.2)
movej(p[-0.471249999095753, -0.043501887971502, 0.256603678225505, -1.21928879545047, -1.18222717172243, 1.19386374069016], a = 0.2, v = 0.2, t = 0.2)
movej(p[-0.470769839699646, -0.0434433233165913, 0.256566119449893, -1.21499401417494, -1.18380238288314, 1.18952711543157], a = 0.2, v = 0.2, t = 0.2)
movej(p[-0.469937479133326, -0.0432678081056758, 0.256648933965963, -1.21117803685085, -1.18047397455304, 1.18734993480972], a = 0.2, v = 0.2, t = 0.2)
movej(p[-0.469085069761046, -0.0433876236549503, 0.256638300941855, -1.20639267499132, -1.17485423116257, 1.18596925316531], a = 0.2, v = 0.2, t = 0.2)
movej(p[-0.468314217579952, -0.0436539292302222, 0.256616415200334, -1.19928184616849, -1.1724502299286, 1.18639108903401], a = 0.2, v = 0.2, t = 0.2)
movej(p[-0.467700355210115, -0.0438227340090159, 0.256679472432577, -1.19519294665522, -1.17372985716325, 1.19564758449859], a = 0.2, v = 0.2, t = 0.2)
movej(p[-0.467104863067538, -0.043871922420988, 0.256811679569047, -1.18677558997325, -1.17359025395475, 1.19772563754239], a = 0.2, v = 0.2, t = 0.2)
movej(p[-0.467131965593338, -0.0440040142021403, 0.256842821786555, -1.1842242233925, -1.17591917168896, 1.20309402175528], a = 0.2, v = 0.2, t = 0.2)
movej(p[-0.467690388605877, -0.0441014520674358, 0.256835416270142, -1.17809545372925, -1.18068496734383, 1.19774380680721], a = 0.2, v = 0.2, t = 0.2)
movej(p[-0.468757759869963, -0.0440025535094819, 0.256886849742104, -1.18449327422522, -1.18456850388157, 1.20192872712679], a = 0.2, v = 0.2, t = 0.2)
movej(p[-0.469803411377106, -0.0439561855647493, 0.256876147265269, -1.19365458934459, -1.17977102298012, 1.20149508024674], a = 0.2, v = 0.2, t = 0.2)
movej(p[-0.470741400681894, -0.0439975199293623, 0.256751342958828, -1.20609263055082, -1.18095479943193, 1.20314025442992], a = 0.2, v = 0.2, t = 0.2)
movej(p[-0.471287225703325, -0.0439881750737553, 0.25665092277832, -1.21881524332317, -1.18088779442774, 1.20656854338468], a = 0.2, v = 0.2, t = 0.2)
movej(p[-0.471448462785778, -0.0438007255448084, 0.256651898793164, -1.2184160387962, -1.18749702312129, 1.19637006242857], a = 0.2, v = 0.2, t = 0.2)
movej(p[-0.47145365504808, -0.0437047959044749, 0.256628722886802, -1.21950879495382, -1.18557398423981, 1.19343295152223], a = 0.2, v = 0.2, t = 0.2)
movej(p[-0.471470621187869, -0.0437326454529375, 0.256533974091817, -1.21793421931599, -1.18512906413351, 1.1905857028291], a = 0.2, v = 0.2, t = 0.2)
movej(p[-0.471443940246655, -0.043648949033794, 0.256471599512063, -1.22412690473722, -1.18139335132993, 1.20134580740007], a = 0.2, v = 0.2, t = 0.2)
movej(p[-0.471206366160876, -0.0435070226527669, 0.256486447162888, -1.21724136122309, -1.18208763349364, 1.19013594592963], a = 0.2, v = 0.2, t = 0.2)
movej(p[-0.470736620846128, -0.0435315806325173, 0.256398993482561, -1.21599845561029, -1.17855695187307, 1.1918336023589], a = 0.2, v = 0.2, t = 0.2)
movej(p[-0.469992157452033, -0.0435896583246544, 0.256361824351169, -1.20815500590396, -1.17707821671682, 1.18548852625727], a = 0.2, v = 0.2, t = 0.2)
movej(p[-0.46909761445842, -0.0436111865682057, 0.256468014968022, -1.2084357054743, -1.17166996186361, 1.19385511224027], a = 0.2, v = 0.2, t = 0.2)
movej(p[-0.46828198216785, -0.0437264601575803, 0.256601837296398, -1.19600152188603, -1.17094330649398, 1.18146188668647], a = 0.2, v = 0.2, t = 0.2)
movej(p[-0.46777880103222, -0.044021908299963, 0.25663875015607, -1.18604335305946, -1.17593637086692, 1.17630008196477], a = 0.2, v = 0.2, t = 0.2)
movej(p[-0.467609610072686, -0.0441925368762485, 0.256668742799611, -1.18031826625682, -1.178121367431, 1.18013504511429], a = 0.2, v = 0.2, t = 0.2)
movej(p[-0.46763143884955, -0.0441416732575389, 0.256816587061563, -1.17885851681446, -1.18192155109629, 1.1847746280494], a = 0.2, v = 0.2, t = 0.2)
movej(p[-0.468233755223231, -0.0441187038765079, 0.256889841404311, -1.17856097927328, -1.18339183865861, 1.18180340216749], a = 0.2, v = 0.2, t = 0.2)
movej(p[-0.469191911078074, -0.0441462094147214, 0.256893326113453, -1.18241688913835, -1.18912265807888, 1.17834794920884], a = 0.2, v = 0.2, t = 0.2)
movej(p[-0.470281040544781, -0.0440497199458277, 0.256892478916822, -1.19404592405233, -1.19141505616125, 1.18658426640698], a = 0.2, v = 0.2, t = 0.2)
movej(p[-0.470889723627621, -0.0439397153594439, 0.256875122170602, -1.20533299640185, -1.18773005502397, 1.19342261121002], a = 0.2, v = 0.2, t = 0.2)
movej(p[-0.471317971482634, -0.0439027942570765, 0.256796635559153, -1.21667994904052, -1.18440017526493, 1.20207965188529], a = 0.2, v = 0.2, t = 0.2)
movej(p[-0.471461947767929, -0.0438527182345802, 0.256721919973547, -1.21960674456915, -1.18577306070068, 1.20001299238865], a = 0.2, v = 0.2, t = 0.2)
movej(p[-0.471550426306555, -0.0436761977827711, 0.256729299797717, -1.22436293547976, -1.18746923176694, 1.20219379612527], a = 0.2, v = 0.2, t = 0.2)
movej(p[-0.471513210282056, -0.0435969010714836, 0.256714228493874, -1.22559825588991, -1.18523262347697, 1.20103787494829], a = 0.2, v = 0.2, t = 0.2)
movej(p[-0.471490886408918, -0.0436207205030283, 0.256628028262616, -1.229952856135, -1.18189040293039, 1.20687808454954], a = 0.2, v = 0.2, t = 0.2)
movej(p[-0.471216156276636, -0.0435187481102139, 0.256584835531515, -1.23218348160855, -1.17799255193222, 1.21506373893057], a = 0.2, v = 0.2, t = 0.2)
movej(p[-0.470588541869174, -0.0433784787039346, 0.256579666149693, -1.22178028960859, -1.17682662834432, 1.19957827150796], a = 0.2, v = 0.2, t = 0.2)
movej(p[-0.469893964569691, -0.0434049766155446, 0.256509507358918, -1.21676980818215, -1.17311514092877, 1.19608513475407], a = 0.2, v = 0.2, t = 0.2)
movej(p[-0.469148054754789, -0.0435710955907591, 0.256455181709294, -1.21024077995535, -1.16967871903597, 1.19378151057748], a = 0.2, v = 0.2, t = 0.2)
movej(p[-0.468410739615355, -0.0435933565217494, 0.256561247268799, -1.21132375144801, -1.16650698811262, 1.20952038138744], a = 0.2, v = 0.2, t = 0.2)
movej(p[-0.467761145224752, -0.0437175077874324, 0.256645050833316, -1.20398524689282, -1.16411433436616, 1.20967161942771], a = 0.2, v = 0.2, t = 0.2)
movej(p[-0.467510896034229, -0.0439576415979107, 0.256673244224529, -1.19570314390882, -1.16982985243869, 1.20650985562145], a = 0.2, v = 0.2, t = 0.2)
movej(p[-0.467728934092765, -0.0441041720272623, 0.256717837189268, -1.19116341562275, -1.17377000726618, 1.20651536340066], a = 0.2, v = 0.2, t = 0.2)
movej(p[-0.468313096291114, -0.0440046258831406, 0.256827260825243, -1.19469283459814, -1.17373142830547, 1.21307666196296], a = 0.2, v = 0.2, t = 0.2)
movej(p[-0.469316402003504, -0.0439779318156024, 0.256851138964696, -1.19769547425733, -1.17547836311482, 1.20821287693813], a = 0.2, v = 0.2, t = 0.2)
movej(p[-0.470357374010796, -0.0439957975347791, 0.25680664941634, -1.20797171814608, -1.17858395059818, 1.20863292970239], a = 0.2, v = 0.2, t = 0.2)
movej(p[-0.471069358923957, -0.0438722805931683, 0.25682396661265, -1.21494730196652, -1.18555364996189, 1.20502235509544], a = 0.2, v = 0.2, t = 0.2)
movej(p[-0.471321726851541, -0.0436806364982485, 0.256858556715448, -1.2211939134606, -1.18578739421021, 1.20429370239733], a = 0.2, v = 0.2, t = 0.2)
movej(p[-0.47143445120617, -0.0436240662790256, 0.256782288529613, -1.22485603515945, -1.18649950588554, 1.20441434766899], a = 0.2, v = 0.2, t = 0.2)
movej(p[-0.471370855337534, -0.0435608033569653, 0.256709431486817, -1.22485708312525, -1.18528033931956, 1.20509351372628], a = 0.2, v = 0.2, t = 0.2)
movej(p[-0.471043874532244, -0.0434700441009149, 0.256651648872574, -1.22308052352844, -1.18415328058059, 1.20230522999119], a = 0.2, v = 0.2, t = 0.2)
movej(p[-0.470431084309881, -0.0435170639819777, 0.25655034136783, -1.21172529842864, -1.18178084420734, 1.18612568823001], a = 0.2, v = 0.2, t = 0.2)
movej(p[-0.469669914935429, -0.0437116739919906, 0.25642143648934, -1.20360061543415, -1.1801339976099, 1.17794246037784], a = 0.2, v = 0.2, t = 0.2)
movej(p[-0.46886312575371, -0.0438387537343634, 0.256424660485685, -1.20346193685917, -1.1745914103363, 1.19070335096103], a = 0.2, v = 0.2, t = 0.2)
movej(p[-0.468024911132795, -0.0439571760589381, 0.256512157876815, -1.19982843207472, -1.16777963702405, 1.19783002179436], a = 0.2, v = 0.2, t = 0.2)
movej(p[-0.467616421420724, -0.0441766988332448, 0.25651440001704, -1.19410479635104, -1.16576981160239, 1.20282530225414], a = 0.2, v = 0.2, t = 0.2)
movej(p[-0.467697631365337, -0.044364054156089, 0.256519802507023, -1.18533981162211, -1.17134822699403, 1.19845137693061], a = 0.2, v = 0.2, t = 0.2)
movej(p[-0.4683496991471, -0.0442680413804997, 0.256620818173679, -1.18532252563886, -1.17627990528916, 1.20166559054771], a = 0.2, v = 0.2, t = 0.2)
movej(p[-0.469247728170719, -0.0441978814034791, 0.256674308356532, -1.18791764981847, -1.17639580604909, 1.19895644276575], a = 0.2, v = 0.2, t = 0.2)
movej(p[-0.470273803696984, -0.0442087817828221, 0.256641612886945, -1.19831143703007, -1.17776233778377, 1.19850904916945], a = 0.2, v = 0.2, t = 0.2)
movej(p[-0.471016941589309, -0.0441806149275059, 0.256568597332079, -1.21007899548118, -1.17847061366628, 1.20326084820031], a = 0.2, v = 0.2, t = 0.2)
movej(p[-0.471288583342629, -0.0440054384791372, 0.256600176418351, -1.21469582155841, -1.18470236915976, 1.1955104059626], a = 0.2, v = 0.2, t = 0.2)
movej(p[-0.471382659656609, -0.0438847756867719, 0.256562184359239, -1.21769965652917, -1.18609431139967, 1.19361349095625], a = 0.2, v = 0.2, t = 0.2)
movej(p[-0.471426148846634, -0.043864009791586, 0.256481199648897, -1.21663490448498, -1.18745609423984, 1.18932972008919], a = 0.2, v = 0.2, t = 0.2)
movej(p[-0.471315178612929, -0.0436978002270741, 0.25645793365697, -1.22060073430916, -1.18416749291949, 1.20049190560403], a = 0.2, v = 0.2, t = 0.2)
movej(p[-0.470885755970614, -0.043612337338455, 0.256394518173562, -1.21375868082006, -1.18063951542355, 1.19072372732684], a = 0.2, v = 0.2, t = 0.2)
movej(p[-0.470207151651783, -0.0436787801379809, 0.256279113663448, -1.2086343108012, -1.17724553279058, 1.18593907659803], a = 0.2, v = 0.2, t = 0.2)
movej(p[-0.469317864641223, -0.0437727073523711, 0.256227346777282, -1.20664775323417, -1.17178894244692, 1.18983416558158], a = 0.2, v = 0.2, t = 0.2)
movej(p[-0.468431342614228, -0.0437963215511153, 0.256318202212836, -1.20440356437783, -1.1665042392632, 1.19878358542267], a = 0.2, v = 0.2, t = 0.2)
movej(p[-0.467744072241759, -0.0439869271341801, 0.256380385782261, -1.19508937004401, -1.16643916220153, 1.19704713161265], a = 0.2, v = 0.2, t = 0.2)
movej(p[-0.467432291429205, -0.0442100304570091, 0.256424368564868, -1.18288454725823, -1.17454612660808, 1.19055055818531], a = 0.2, v = 0.2, t = 0.2)
movej(p[-0.467614606170503, -0.0442731243949741, 0.256500868630864, -1.18014870550783, -1.17979150087503, 1.1914410637309], a = 0.2, v = 0.2, t = 0.2)
movej(p[-0.468181604655268, -0.04416952945908, 0.256611475280442, -1.17909791741958, -1.18093806433869, 1.18950465842509], a = 0.2, v = 0.2, t = 0.2)
movej(p[-0.469277252924081, -0.0441411455037879, 0.256626122745349, -1.18854489507758, -1.18289282234761, 1.19087402467681], a = 0.2, v = 0.2, t = 0.2)
movej(p[-0.470307843256234, -0.0440626296161494, 0.25662123184961, -1.19893962827977, -1.18399346174099, 1.19595797482777], a = 0.2, v = 0.2, t = 0.2)
movej(p[-0.471026819882638, -0.0438942579751134, 0.25666617473466, -1.20906128226371, -1.18885349746525, 1.19563658226124], a = 0.2, v = 0.2, t = 0.2)
movej(p[-0.471280885366702, -0.0437706545874804, 0.256658986678009, -1.20917341603633, -1.19185741082206, 1.18491170193748], a = 0.2, v = 0.2, t = 0.2)
movej(p[-0.471367266608201, -0.0437322126119036, 0.256600303518247, -1.21016434596983, -1.19444865359183, 1.17916297620828], a = 0.2, v = 0.2, t = 0.2)
movej(p[-0.471395127470009, -0.0436184758536133, 0.256592664410055, -1.21951649443262, -1.19086215559337, 1.19153799365483], a = 0.2, v = 0.2, t = 0.2)
movej(p[-0.471305158980912, -0.0435270697332769, 0.256594775437001, -1.22724196311865, -1.1813806171342, 1.20439044302566], a = 0.2, v = 0.2, t = 0.2)
movej(p[-0.471299444029404, -0.0435345112096674, 0.256552207877071, -1.23736894460333, -1.17352205660832, 1.21758682700952], a = 0.2, v = 0.2, t = 0.2)
movej(p[-0.47102831325881, -0.0435058897007021, 0.256474281367957, -1.2362912725677, -1.1732645818091, 1.21713225372156], a = 0.2, v = 0.2, t = 0.2)
movej(p[-0.47050963528487, -0.0433856522256233, 0.256505388375493, -1.23305725186095, -1.17544627251064, 1.21253538086137], a = 0.2, v = 0.2, t = 0.2)
movej(p[-0.469769593955897, -0.0434001227483945, 0.256474688155907, -1.22645982792389, -1.17010116998815, 1.20896925451746], a = 0.2, v = 0.2, t = 0.2)
movej(p[-0.46908018869453, -0.0435655853884459, 0.256435842724435, -1.21917888227032, -1.16846739934723, 1.20488405451147], a = 0.2, v = 0.2, t = 0.2)
movej(p[-0.468430231801929, -0.0436637221419036, 0.256421291271561, -1.22026375322941, -1.16303958712529, 1.22045935092857], a = 0.2, v = 0.2, t = 0.2)
movej(p[-0.467843515549034, -0.0437772523549733, 0.25646923172852, -1.21105765804808, -1.16465168465357, 1.21447444925134], a = 0.2, v = 0.2, t = 0.2)
movej(p[-0.467629055362535, -0.0439544469048676, 0.256491390289816, -1.20438726804648, -1.16844160793729, 1.21359692848556], a = 0.2, v = 0.2, t = 0.2)
movej(p[-0.467862197896587, -0.0440930417857326, 0.256550982750866, -1.19547798634857, -1.17454684291905, 1.20601410096283], a = 0.2, v = 0.2, t = 0.2)
movej(p[-0.468579575522097, -0.0439738485444506, 0.256682683164874, -1.19482084395363, -1.17950398914555, 1.20635970030707], a = 0.2, v = 0.2, t = 0.2)
movej(p[-0.469443361043085, -0.0438960869171921, 0.256725653198005, -1.19659646114341, -1.17977685425739, 1.20022609514262], a = 0.2, v = 0.2, t = 0.2)
movej(p[-0.470392109463267, -0.0438829523484714, 0.256696904207926, -1.20378834632961, -1.18505799459883, 1.19416268211458], a = 0.2, v = 0.2, t = 0.2)
movej(p[-0.470986094222447, -0.0438015255645304, 0.256690086649856, -1.21634877768244, -1.18697508368076, 1.20118688480897], a = 0.2, v = 0.2, t = 0.2)
movej(p[-0.471251484212302, -0.0435961196838285, 0.256777128890885, -1.22120015988277, -1.19009953929152, 1.19998940388148], a = 0.2, v = 0.2, t = 0.2)
movej(p[-0.471376032292453, -0.0435446699759059, 0.256722024808593, -1.2322884396434, -1.18381764878924, 1.21422720477992], a = 0.2, v = 0.2, t = 0.2)
movej(p[-0.471439827587403, -0.0435014626679718, 0.256671526215708, -1.23013604394494, -1.18626742359468, 1.20827048076383], a = 0.2, v = 0.2, t = 0.2)
movej(p[-0.471406141117106, -0.0434036113138153, 0.25663474710739, -1.23764934557134, -1.17949872592509, 1.2193080565359], a = 0.2, v = 0.2, t = 0.2)
movej(p[-0.471249517566305, -0.0433449839460346, 0.256580280556357, -1.22598572987452, -1.18225437638316, 1.19845359181621], a = 0.2, v = 0.2, t = 0.2)
movej(p[-0.470899985989752, -0.0433506637259498, 0.256460137709325, -1.22410665993709, -1.18181139098809, 1.19687307701935], a = 0.2, v = 0.2, t = 0.2)
movej(p[-0.470274749682229, -0.0433380210254046, 0.256411230269429, -1.2191915916349, -1.18153572902411, 1.19390272842895], a = 0.2, v = 0.2, t = 0.2)
movej(p[-0.469425324498671, -0.0432551962784818, 0.256486720850534, -1.21970722911724, -1.17342795907744, 1.20278978430866], a = 0.2, v = 0.2, t = 0.2)
movej(p[-0.468791415218736, -0.0434532468571631, 0.256456344728408, -1.2179525203677, -1.1662344236795, 1.20822459647125], a = 0.2, v = 0.2, t = 0.2)
movej(p[-0.468247176295347, -0.0437086658734766, 0.256428504058984, -1.21308994887382, -1.16478170490939, 1.21102078984343], a = 0.2, v = 0.2, t = 0.2)
movej(p[-0.467833595644097, -0.0438175655600199, 0.256463212986052, -1.20412800462561, -1.17042863128969, 1.20997312571831], a = 0.2, v = 0.2, t = 0.2)
movej(p[-0.467690088236494, -0.0438339319716382, 0.256598905196992, -1.1960531456139, -1.17282048575997, 1.2041185466675], a = 0.2, v = 0.2, t = 0.2)
movej(p[-0.468136791181197, -0.0439074882521408, 0.256689122319688, -1.19206309554628, -1.17823913191395, 1.19976200254385], a = 0.2, v = 0.2, t = 0.2)
movej(p[-0.46903338398888, -0.0438846698027879, 0.256755332608785, -1.20166764269324, -1.17700840749523, 1.21284668041428], a = 0.2, v = 0.2, t = 0.2)
movej(p[-0.469960279427447, -0.0438199321074446, 0.256810502282724, -1.21134366469571, -1.1771646342697, 1.21833449968428], a = 0.2, v = 0.2, t = 0.2)
movej(p[-0.470695735841466, -0.0437781334755394, 0.256766912449146, -1.21743048921614, -1.17869213573688, 1.21434274394524], a = 0.2, v = 0.2, t = 0.2)
movej(p[-0.471132585566752, -0.0437827031148859, 0.256692449993736, -1.21966433323795, -1.18434346919287, 1.20487818393784], a = 0.2, v = 0.2, t = 0.2)
movej(p[-0.471391368033708, -0.0436003639843281, 0.256691821786128, -1.22440438740186, -1.1874966759544, 1.20647324458213], a = 0.2, v = 0.2, t = 0.2)
movej(p[-0.471358580446469, -0.0434981492376426, 0.256668763993887, -1.22630848145637, -1.18397241414078, 1.20367409201049], a = 0.2, v = 0.2, t = 0.2)
movej(p[-0.471221380193292, -0.0434776888821793, 0.256566718448748, -1.22384171056504, -1.18480619698396, 1.19741287693398], a = 0.2, v = 0.2, t = 0.2)
movej(p[-0.470664998377415, -0.0434826831058741, 0.256462989160256, -1.22233661731534, -1.1826504432767, 1.1978698952593], a = 0.2, v = 0.2, t = 0.2)
movej(p[-0.469819574790906, -0.0433623859384234, 0.256510463358282, -1.2156509518373, -1.18267471378124, 1.19201126780108], a = 0.2, v = 0.2, t = 0.2)
movej(p[-0.468961738211507, -0.0434136663244874, 0.256499809680573, -1.21750726470363, -1.17099228186484, 1.20559542282982], a = 0.2, v = 0.2, t = 0.2)
