def moving():
set_payload_mass(0)
set_tcp(p[0,0,0,0,0,0])
movej(p[0.5209, 0.074, 0.3936, -1.291, 1.075, -1.064], a = 0.2, v = 0.2, t = 0.2)
movej(p[0.520897627144242, 0.0740027986572398, 0.393049202221162, -1.291, 1.075, -1.064], a = 0.2, v = 0.2, t = 0.2)
movej(p[0.520893381713657, 0.074007805916954, 0.392063734086837, -1.291, 1.075, -1.064], a = 0.2, v = 0.2, t = 0.2)
movej(p[0.520886708285697, 0.0740156768705135, 0.390514668457676, -1.291, 1.075, -1.064], a = 0.2, v = 0.2, t = 0.2)
movej(p[0.520879510581589, 0.0740241661799236, 0.388843905528747, -1.291, 1.075, -1.064], a = 0.2, v = 0.2, t = 0.2)
movej(p[0.520871862267084, 0.0740331869603442, 0.387068544920644, -1.291, 1.075, -1.064], a = 0.2, v = 0.2, t = 0.2)
movej(p[0.520864948886934, 0.0740413409247573, 0.385463780527333, -1.291, 1.075, -1.064], a = 0.2, v = 0.2, t = 0.2)
movej(p[0.520859444202765, 0.0740478334071395, 0.38418600887867, -1.291, 1.075, -1.064], a = 0.2, v = 0.2, t = 0.2)
movej(p[0.520856351964311, 0.0740514805380316, 0.383468224804942, -1.291, 1.075, -1.064], a = 0.2, v = 0.2, t = 0.2)
movej(p[0.520855154357331, 0.0740528930518071, 0.3831902309731, -1.291, 1.075, -1.064], a = 0.2, v = 0.2, t = 0.2)
movej(p[0.520855374062209, 0.0740526339215821, 0.383241229841532, -1.291, 1.075, -1.064], a = 0.2, v = 0.2, t = 0.2)
movej(p[0.52085963030572, 0.074047613908596, 0.384229207920165, -1.291, 1.075, -1.064], a = 0.2, v = 0.2, t = 0.2)
movej(p[0.520865335309043, 0.0740408851604204, 0.385553478537103, -1.291, 1.075, -1.064], a = 0.2, v = 0.2, t = 0.2)
movej(p[0.520872071202114, 0.0740329405325812, 0.387117043844544, -1.291, 1.075, -1.064], a = 0.2, v = 0.2, t = 0.2)
movej(p[0.520878265587282, 0.0740256345845319, 0.388554911940969, -1.291, 1.075, -1.064], a = 0.2, v = 0.2, t = 0.2)
movej(p[0.520883974898543, 0.0740189007553715, 0.389880182535719, -1.291, 1.075, -1.064], a = 0.2, v = 0.2, t = 0.2)
movej(p[0.520887577196949, 0.0740146520358786, 0.390716363982433, -1.291, 1.075, -1.064], a = 0.2, v = 0.2, t = 0.2)
movej(p[0.520889254277515, 0.0740126740084945, 0.391105655344794, -1.291, 1.075, -1.064], a = 0.2, v = 0.2, t = 0.2)
movej(p[0.520890532873744, 0.0740111659722047, 0.391402448759509, -1.291, 1.075, -1.064], a = 0.2, v = 0.2, t = 0.2)
movej(p[0.520892097517107, 0.074009320558524, 0.391765640700966, -1.291, 1.075, -1.064], a = 0.2, v = 0.2, t = 0.2)
movej(p[0.520892748877451, 0.0740085523136217, 0.391916837346198, -1.291, 1.075, -1.064], a = 0.2, v = 0.2, t = 0.2)
movej(p[0.520892732076489, 0.0740085721294624, 0.39191293743273, -1.291, 1.075, -1.064], a = 0.2, v = 0.2, t = 0.2)
movej(p[0.520893457533379, 0.0740077164916215, 0.392081333696335, -1.291, 1.075, -1.064], a = 0.2, v = 0.2, t = 0.2)
movej(p[0.520893345957765, 0.0740078480891279, 0.392055434270994, -1.291, 1.075, -1.064], a = 0.2, v = 0.2, t = 0.2)
movej(p[0.520893001322663, 0.0740082545679122, 0.391975436046004, -1.291, 1.075, -1.064], a = 0.2, v = 0.2, t = 0.2)
movej(p[0.520893392483504, 0.074007793214492, 0.392066234031368, -1.291, 1.075, -1.064], a = 0.2, v = 0.2, t = 0.2)
movej(p[0.520895691199635, 0.0740050820010007, 0.392599822192055, -1.291, 1.075, -1.064], a = 0.2, v = 0.2, t = 0.2)
movej(p[0.520897264975829, 0.0740032258156322, 0.392965134086475, -1.291, 1.075, -1.064], a = 0.2, v = 0.2, t = 0.2)
movej(p[0.520897271394658, 0.0740032182449649, 0.392966624053415, -1.291, 1.075, -1.064], a = 0.2, v = 0.2, t = 0.2)
movej(p[0.520897103600443, 0.0740034161493229, 0.392927674917623, -1.291, 1.075, -1.064], a = 0.2, v = 0.2, t = 0.2)
movej(p[0.520895753277033, 0.0740050087840097, 0.392614231872332, -1.291, 1.075, -1.064], a = 0.2, v = 0.2, t = 0.2)
movej(p[0.520891091182609, 0.0740105074765742, 0.391532045883993, -1.291, 1.075, -1.064], a = 0.2, v = 0.2, t = 0.2)
movej(p[0.520883557459276, 0.074019393102799, 0.389783284685699, -1.291, 1.075, -1.064], a = 0.2, v = 0.2, t = 0.2)
movej(p[0.520876624262608, 0.0740275704397421, 0.388173920394451, -1.291, 1.075, -1.064], a = 0.2, v = 0.2, t = 0.2)
movej(p[0.52087110191589, 0.0740340837541621, 0.386892048836758, -1.291, 1.075, -1.064], a = 0.2, v = 0.2, t = 0.2)
movej(p[0.520868125130195, 0.0740375947146615, 0.386201064168402, -1.291, 1.075, -1.064], a = 0.2, v = 0.2, t = 0.2)
movej(p[0.520869409326744, 0.0740360800730915, 0.386499157554273, -1.291, 1.075, -1.064], a = 0.2, v = 0.2, t = 0.2)
movej(p[0.520875275016183, 0.0740291618041827, 0.387860727343613, -1.291, 1.075, -1.064], a = 0.2, v = 0.2, t = 0.2)
movej(p[0.520881496110571, 0.0740218243540276, 0.389304795302474, -1.291, 1.075, -1.064], a = 0.2, v = 0.2, t = 0.2)
movej(p[0.520885468030123, 0.0740171396860385, 0.390226774845491, -1.291, 1.075, -1.064], a = 0.2, v = 0.2, t = 0.2)
movej(p[0.520888670982604, 0.0740133619738369, 0.390970258348997, -1.291, 1.075, -1.064], a = 0.2, v = 0.2, t = 0.2)
movej(p[0.520891095921342, 0.0740105018874909, 0.391533145859587, -1.291, 1.075, -1.064], a = 0.2, v = 0.2, t = 0.2)
movej(p[0.520892729491726, 0.0740085751780533, 0.391912337446042, -1.291, 1.075, -1.064], a = 0.2, v = 0.2, t = 0.2)
movej(p[0.520893441594006, 0.0740077352912652, 0.392077633778429, -1.291, 1.075, -1.064], a = 0.2, v = 0.2, t = 0.2)
movej(p[0.520894528917753, 0.0740064528507008, 0.392330028178274, -1.291, 1.075, -1.064], a = 0.2, v = 0.2, t = 0.2)
movej(p[0.520893126683681, 0.0740081067112544, 0.392004535400344, -1.291, 1.075, -1.064], a = 0.2, v = 0.2, t = 0.2)
movej(p[0.520888420691361, 0.074013657179054, 0.390912159638098, -1.291, 1.075, -1.064], a = 0.2, v = 0.2, t = 0.2)
movej(p[0.520881799820255, 0.0740214661445989, 0.389375293738247, -1.291, 1.075, -1.064], a = 0.2, v = 0.2, t = 0.2)
movej(p[0.52087570236371, 0.0740286577704901, 0.387959925142601, -1.291, 1.075, -1.064], a = 0.2, v = 0.2, t = 0.2)
movej(p[0.520870477695561, 0.0740348199888601, 0.386747152051744, -1.291, 1.075, -1.064], a = 0.2, v = 0.2, t = 0.2)
movej(p[0.520868091097478, 0.0740376348544414, 0.386193164343684, -1.291, 1.075, -1.064], a = 0.2, v = 0.2, t = 0.2)
movej(p[0.520871090715249, 0.0740340969647225, 0.386889448894446, -1.291, 1.075, -1.064], a = 0.2, v = 0.2, t = 0.2)
movej(p[0.520876990868198, 0.0740271380479353, 0.388259018506285, -1.291, 1.075, -1.064], a = 0.2, v = 0.2, t = 0.2)
movej(p[0.520882384407547, 0.074020776654961, 0.389510990727387, -1.291, 1.075, -1.064], a = 0.2, v = 0.2, t = 0.2)
movej(p[0.520885422796766, 0.0740171930363789, 0.390216275078461, -1.291, 1.075, -1.064], a = 0.2, v = 0.2, t = 0.2)
movej(p[0.520888528389831, 0.0740135301544339, 0.390937159083407, -1.291, 1.075, -1.064], a = 0.2, v = 0.2, t = 0.2)
movej(p[0.520890576814719, 0.0740111141461597, 0.391412648533195, -1.291, 1.075, -1.064], a = 0.2, v = 0.2, t = 0.2)
movej(p[0.520892003604042, 0.0740094313239927, 0.391743841184656, -1.291, 1.075, -1.064], a = 0.2, v = 0.2, t = 0.2)
movej(p[0.520893057756661, 0.0740081880070112, 0.391988535755346, -1.291, 1.075, -1.064], a = 0.2, v = 0.2, t = 0.2)
movej(p[0.5208946030143, 0.0740063654577621, 0.392347227796647, -1.291, 1.075, -1.064], a = 0.2, v = 0.2, t = 0.2)
movej(p[0.520893220165953, 0.0740079964538841, 0.392026234918873, -1.291, 1.075, -1.064], a = 0.2, v = 0.2, t = 0.2)
movej(p[0.520889267201331, 0.0740126587655401, 0.391108655278231, -1.291, 1.075, -1.064], a = 0.2, v = 0.2, t = 0.2)
movej(p[0.520885490431405, 0.0740171132649175, 0.390231974730115, -1.291, 1.075, -1.064], a = 0.2, v = 0.2, t = 0.2)
movej(p[0.520882608851157, 0.0740205119356527, 0.389563089571413, -1.291, 1.075, -1.064], a = 0.2, v = 0.2, t = 0.2)
movej(p[0.520881761048806, 0.0740215118734621, 0.389366293937936, -1.291, 1.075, -1.064], a = 0.2, v = 0.2, t = 0.2)
movej(p[0.520882383545959, 0.074020777671158, 0.389510790731825, -1.291, 1.075, -1.064], a = 0.2, v = 0.2, t = 0.2)
movej(p[0.520886314109299, 0.074016141780623, 0.390423170487843, -1.291, 1.075, -1.064], a = 0.2, v = 0.2, t = 0.2)
movej(p[0.520889616144372, 0.074012247205771, 0.391189653481034, -1.291, 1.075, -1.064], a = 0.2, v = 0.2, t = 0.2)
movej(p[0.520891700325152, 0.0740097890253229, 0.391673442746664, -1.291, 1.075, -1.064], a = 0.2, v = 0.2, t = 0.2)
movej(p[0.520892655395179, 0.0740086625709919, 0.391895137827669, -1.291, 1.075, -1.064], a = 0.2, v = 0.2, t = 0.2)
movej(p[0.520895508973825, 0.0740052969266579, 0.392557523130591, -1.291, 1.075, -1.064], a = 0.2, v = 0.2, t = 0.2)
movej(p[0.520896981082664, 0.0740035606525308, 0.392899235548639, -1.291, 1.075, -1.064], a = 0.2, v = 0.2, t = 0.2)
movej(p[0.520896413770206, 0.0740042297674196, 0.392767548470526, -1.291, 1.075, -1.064], a = 0.2, v = 0.2, t = 0.2)
movej(p[0.520894438881833, 0.0740065590432832, 0.392309128641996, -1.291, 1.075, -1.064], a = 0.2, v = 0.2, t = 0.2)
movej(p[0.52089226552672, 0.0740091224001167, 0.391804639835649, -1.291, 1.075, -1.064], a = 0.2, v = 0.2, t = 0.2)
movej(p[0.520889719965696, 0.0740121247540372, 0.391213752946312, -1.291, 1.075, -1.064], a = 0.2, v = 0.2, t = 0.2)
movej(p[0.520886743610795, 0.0740156352064381, 0.390522868275737, -1.291, 1.075, -1.064], a = 0.2, v = 0.2, t = 0.2)
movej(p[0.520887128309728, 0.0740151814744951, 0.390612166294383, -1.291, 1.075, -1.064], a = 0.2, v = 0.2, t = 0.2)
movej(p[0.520889090145047, 0.0740128675940155, 0.391067556190142, -1.291, 1.075, -1.064], a = 0.2, v = 0.2, t = 0.2)
movej(p[0.520891549978089, 0.0740099663516926, 0.391638543521012, -1.291, 1.075, -1.064], a = 0.2, v = 0.2, t = 0.2)
movej(p[0.520892893193399, 0.0740083821006308, 0.391950336602913, -1.291, 1.075, -1.064], a = 0.2, v = 0.2, t = 0.2)
movej(p[0.520895279791482, 0.0740055672350495, 0.392504324310973, -1.291, 1.075, -1.064], a = 0.2, v = 0.2, t = 0.2)
movej(p[0.520897033122564, 0.0740034992742343, 0.392911315280612, -1.291, 1.075, -1.064], a = 0.2, v = 0.2, t = 0.2)
movej(p[0.520898164516525, 0.0740021648551953, 0.393173939453478, -1.291, 1.075, -1.064], a = 0.2, v = 0.2, t = 0.2)
movej(p[0.520898894065957, 0.0740013043904188, 0.393343285696005, -1.291, 1.075, -1.064], a = 0.2, v = 0.2, t = 0.2)
movej(p[0.520900426080993, 0.073999497460117, 0.393698903805511, -1.291, 1.075, -1.064], a = 0.2, v = 0.2, t = 0.2)
movej(p[0.520900204752022, 0.0739997585058733, 0.393647527945445, -1.291, 1.075, -1.064], a = 0.2, v = 0.2, t = 0.2)
movej(p[0.520897153443294, 0.0740033573623288, 0.392939244660912, -1.291, 1.075, -1.064], a = 0.2, v = 0.2, t = 0.2)
movej(p[0.520893280046302, 0.0740079258281954, 0.392040134610465, -1.291, 1.075, -1.064], a = 0.2, v = 0.2, t = 0.2)
movej(p[0.520891104968013, 0.0740104912174228, 0.391535245812993, -1.291, 1.075, -1.064], a = 0.2, v = 0.2, t = 0.2)
movej(p[0.520890659957937, 0.074011016083153, 0.391431948104974, -1.291, 1.075, -1.064], a = 0.2, v = 0.2, t = 0.2)
movej(p[0.520891261776985, 0.0740103062695759, 0.391571645005364, -1.291, 1.075, -1.064], a = 0.2, v = 0.2, t = 0.2)
movej(p[0.520893972762857, 0.0740071088058389, 0.392200931042696, -1.291, 1.075, -1.064], a = 0.2, v = 0.2, t = 0.2)
movej(p[0.520896457754261, 0.0740041778905647, 0.392777758243991, -1.291, 1.075, -1.064], a = 0.2, v = 0.2, t = 0.2)
movej(p[0.520897888076094, 0.0740024909019902, 0.393109770877258, -1.291, 1.075, -1.064], a = 0.2, v = 0.2, t = 0.2)
movej(p[0.520898110925767, 0.0740022280626463, 0.393161499729492, -1.291, 1.075, -1.064], a = 0.2, v = 0.2, t = 0.2)
movej(p[0.520899713009427, 0.0740003384901266, 0.393533382478117, -1.291, 1.075, -1.064], a = 0.2, v = 0.2, t = 0.2)
movej(p[0.520901542715955, 0.0739981804485319, 0.393958102054392, -1.291, 1.075, -1.064], a = 0.2, v = 0.2, t = 0.2)
movej(p[0.520900974154196, 0.0739988510369063, 0.393826124982714, -1.291, 1.075, -1.064], a = 0.2, v = 0.2, t = 0.2)
movej(p[0.520898288843638, 0.0740020182179739, 0.393202798813144, -1.291, 1.075, -1.064], a = 0.2, v = 0.2, t = 0.2)
movej(p[0.520895668798354, 0.0740051084221217, 0.392594622307431, -1.291, 1.075, -1.064], a = 0.2, v = 0.2, t = 0.2)
movej(p[0.520893019416006, 0.074008233227776, 0.391979635952816, -1.291, 1.075, -1.064], a = 0.2, v = 0.2, t = 0.2)
movej(p[0.520891327688448, 0.0740102285305084, 0.391586944665893, -1.291, 1.075, -1.064], a = 0.2, v = 0.2, t = 0.2)
movej(p[0.520891019670825, 0.0740105918209219, 0.391515446252308, -1.291, 1.075, -1.064], a = 0.2, v = 0.2, t = 0.2)
movej(p[0.520893886173288, 0.0740072109336335, 0.392180831488667, -1.291, 1.075, -1.064], a = 0.2, v = 0.2, t = 0.2)
movej(p[0.520895803335282, 0.0740049497429663, 0.392625851614512, -1.291, 1.075, -1.064], a = 0.2, v = 0.2, t = 0.2)
movej(p[0.520897073057157, 0.0740034521735052, 0.392920585074933, -1.291, 1.075, -1.064], a = 0.2, v = 0.2, t = 0.2)
movej(p[0.520897876918533, 0.0740025040617408, 0.393107180934724, -1.291, 1.075, -1.064], a = 0.2, v = 0.2, t = 0.2)
movej(p[0.520900192448549, 0.0739997730171659, 0.393644672008813, -1.291, 1.075, -1.064], a = 0.2, v = 0.2, t = 0.2)
movej(p[0.520901505150729, 0.0739982247547194, 0.393949382247868, -1.291, 1.075, -1.064], a = 0.2, v = 0.2, t = 0.2)
movej(p[0.520901180289066, 0.0739986079117835, 0.393873973921037, -1.291, 1.075, -1.064], a = 0.2, v = 0.2, t = 0.2)
movej(p[0.520899837663943, 0.0740001914667504, 0.393562317836096, -1.291, 1.075, -1.064], a = 0.2, v = 0.2, t = 0.2)
movej(p[0.520898434322731, 0.0740018466331171, 0.393236568063868, -1.291, 1.075, -1.064], a = 0.2, v = 0.2, t = 0.2)
movej(p[0.520895316408962, 0.0740055240466786, 0.392512824122378, -1.291, 1.075, -1.064], a = 0.2, v = 0.2, t = 0.2)
movej(p[0.52089119241917, 0.0740103880734313, 0.391555545362584, -1.291, 1.075, -1.064], a = 0.2, v = 0.2, t = 0.2)
movej(p[0.520889479151919, 0.0740124087810877, 0.3911578541866, -1.291, 1.075, -1.064], a = 0.2, v = 0.2, t = 0.2)
movej(p[0.520890349786346, 0.0740113819140589, 0.391359949702482, -1.291, 1.075, -1.064], a = 0.2, v = 0.2, t = 0.2)
movej(p[0.520892748446657, 0.0740085528217202, 0.391916737348417, -1.291, 1.075, -1.064], a = 0.2, v = 0.2, t = 0.2)
movej(p[0.52089458965969, 0.074006381208815, 0.392344127865429, -1.291, 1.075, -1.064], a = 0.2, v = 0.2, t = 0.2)
movej(p[0.520896889840521, 0.0740036682677889, 0.392878056018572, -1.291, 1.075, -1.064], a = 0.2, v = 0.2, t = 0.2)
movej(p[0.520899061257061, 0.0740011071973986, 0.393382094834904, -1.291, 1.075, -1.064], a = 0.2, v = 0.2, t = 0.2)
movej(p[0.520900179731514, 0.073999788016233, 0.39364172007431, -1.291, 1.075, -1.064], a = 0.2, v = 0.2, t = 0.2)
movej(p[0.520900733771212, 0.0739991345558584, 0.393770326220783, -1.291, 1.075, -1.064], a = 0.2, v = 0.2, t = 0.2)
movej(p[0.52090234102009, 0.0739972388912379, 0.394143407942805, -1.291, 1.075, -1.064], a = 0.2, v = 0.2, t = 0.2)
movej(p[0.520903168876685, 0.0739962624783882, 0.39433557367901, -1.291, 1.075, -1.064], a = 0.2, v = 0.2, t = 0.2)
movej(p[0.520901812651399, 0.0739978620740241, 0.394020760664116, -1.291, 1.075, -1.064], a = 0.2, v = 0.2, t = 0.2)
movej(p[0.520898619736416, 0.0740016279475311, 0.393279607108913, -1.291, 1.075, -1.064], a = 0.2, v = 0.2, t = 0.2)
movej(p[0.520895903150223, 0.0740048320165484, 0.392649021100424, -1.291, 1.075, -1.064], a = 0.2, v = 0.2, t = 0.2)
movej(p[0.520892741123161, 0.0740085614593943, 0.391915037386136, -1.291, 1.075, -1.064], a = 0.2, v = 0.2, t = 0.2)
movej(p[0.520889666116462, 0.0740121882663472, 0.391201253223657, -1.291, 1.075, -1.064], a = 0.2, v = 0.2, t = 0.2)
movej(p[0.520888067871175, 0.0740140733117094, 0.390830261455263, -1.291, 1.075, -1.064], a = 0.2, v = 0.2, t = 0.2)
movej(p[0.520890080540172, 0.0740116994756091, 0.391297451089208, -1.291, 1.075, -1.064], a = 0.2, v = 0.2, t = 0.2)
movej(p[0.520892922918177, 0.0740083470418356, 0.391957236449818, -1.291, 1.075, -1.064], a = 0.2, v = 0.2, t = 0.2)
movej(p[0.520894803764247, 0.0740061286838703, 0.392393826762704, -1.291, 1.075, -1.064], a = 0.2, v = 0.2, t = 0.2)
movej(p[0.520896353803698, 0.074004300494728, 0.392753628779378, -1.291, 1.075, -1.064], a = 0.2, v = 0.2, t = 0.2)
movej(p[0.520898444144831, 0.0740018350484717, 0.39323884801328, -1.291, 1.075, -1.064], a = 0.2, v = 0.2, t = 0.2)
movej(p[0.520899884056136, 0.074000136749625, 0.393573086597158, -1.291, 1.075, -1.064], a = 0.2, v = 0.2, t = 0.2)
movej(p[0.520900619093882, 0.0739992698116738, 0.393743706811417, -1.291, 1.075, -1.064], a = 0.2, v = 0.2, t = 0.2)
movej(p[0.520902256713728, 0.0739973383261106, 0.394123838377016, -1.291, 1.075, -1.064], a = 0.2, v = 0.2, t = 0.2)
movej(p[0.520903591528558, 0.0739957639829691, 0.394433681502183, -1.291, 1.075, -1.064], a = 0.2, v = 0.2, t = 0.2)
movej(p[0.520902630039703, 0.0739968980079675, 0.394210496454238, -1.291, 1.075, -1.064], a = 0.2, v = 0.2, t = 0.2)
movej(p[0.520898989099087, 0.074001192303894, 0.393365345206546, -1.291, 1.075, -1.064], a = 0.2, v = 0.2, t = 0.2)
movej(p[0.52089596458143, 0.0740047595617051, 0.392663280784029, -1.291, 1.075, -1.064], a = 0.2, v = 0.2, t = 0.2)
movej(p[0.520894916201449, 0.0740059960701669, 0.392419926183608, -1.291, 1.075, -1.064], a = 0.2, v = 0.2, t = 0.2)
movej(p[0.520894888199847, 0.0740060290965681, 0.392413426327827, -1.291, 1.075, -1.064], a = 0.2, v = 0.2, t = 0.2)
movej(p[0.520895592547837, 0.0740051983555527, 0.392576922700152, -1.291, 1.075, -1.064], a = 0.2, v = 0.2, t = 0.2)
movej(p[0.520897799763349, 0.0740025950621787, 0.393089271332104, -1.291, 1.075, -1.064], a = 0.2, v = 0.2, t = 0.2)
movej(p[0.520899625877057, 0.0740004412581253, 0.393513156926884, -1.291, 1.075, -1.064], a = 0.2, v = 0.2, t = 0.2)
movej(p[0.52090079653788, 0.0739990605259098, 0.393784895897509, -1.291, 1.075, -1.064], a = 0.2, v = 0.2, t = 0.2)
movej(p[0.520901151813591, 0.073998641497093, 0.393867364067697, -1.291, 1.075, -1.064], a = 0.2, v = 0.2, t = 0.2)
movej(p[0.520903184902217, 0.0739962435771247, 0.394339293596472, -1.291, 1.075, -1.064], a = 0.2, v = 0.2, t = 0.2)
movej(p[0.520903689835721, 0.0739956480348959, 0.394456500995862, -1.291, 1.075, -1.064], a = 0.2, v = 0.2, t = 0.2)
movej(p[0.520901828203058, 0.073997843731669, 0.394024370584019, -1.291, 1.075, -1.064], a = 0.2, v = 0.2, t = 0.2)
movej(p[0.520897966652897, 0.0740023982248274, 0.393128010472556, -1.291, 1.075, -1.064], a = 0.2, v = 0.2, t = 0.2)
movej(p[0.52089547623349, 0.0740053355421424, 0.392549923299217, -1.291, 1.075, -1.064], a = 0.2, v = 0.2, t = 0.2)
movej(p[0.520894118801982, 0.0740069365604541, 0.392234830290536, -1.291, 1.075, -1.064], a = 0.2, v = 0.2, t = 0.2)
movej(p[0.520893714717324, 0.0740074131568287, 0.392141032371734, -1.291, 1.075, -1.064], a = 0.2, v = 0.2, t = 0.2)
movej(p[0.520894939033525, 0.0740059691409474, 0.392425226066013, -1.291, 1.075, -1.064], a = 0.2, v = 0.2, t = 0.2)
movej(p[0.520897682372017, 0.0740027335190146, 0.393062021936716, -1.291, 1.075, -1.064], a = 0.2, v = 0.2, t = 0.2)
movej(p[0.520899577895235, 0.074000497850134, 0.393502019174009, -1.291, 1.075, -1.064], a = 0.2, v = 0.2, t = 0.2)
movej(p[0.520900435963404, 0.0739994858043379, 0.393701197754613, -1.291, 1.075, -1.064], a = 0.2, v = 0.2, t = 0.2)
movej(p[0.520901733471485, 0.0739979554625248, 0.394002381071925, -1.291, 1.075, -1.064], a = 0.2, v = 0.2, t = 0.2)
movej(p[0.52090361608381, 0.0739957350213557, 0.394439381375714, -1.291, 1.075, -1.064], a = 0.2, v = 0.2, t = 0.2)
movej(p[0.520904005564554, 0.0739952756495196, 0.394529789369731, -1.291, 1.075, -1.064], a = 0.2, v = 0.2, t = 0.2)
movej(p[0.520901847588783, 0.0739978208672374, 0.394028870484175, -1.291, 1.075, -1.064], a = 0.2, v = 0.2, t = 0.2)
movej(p[0.520899453753363, 0.0740006442688731, 0.39347320281339, -1.291, 1.075, -1.064], a = 0.2, v = 0.2, t = 0.2)
movej(p[0.520896553864375, 0.0740040645337938, 0.392800067748985, -1.291, 1.075, -1.064], a = 0.2, v = 0.2, t = 0.2)
movej(p[0.520892094932344, 0.0740093236071149, 0.391765040714278, -1.291, 1.075, -1.064], a = 0.2, v = 0.2, t = 0.2)
movej(p[0.520885595975905, 0.0740169887807898, 0.390256474186518, -1.291, 1.075, -1.064], a = 0.2, v = 0.2, t = 0.2)
movej(p[0.520878947964784, 0.074024829756539, 0.38871330842645, -1.291, 1.075, -1.064], a = 0.2, v = 0.2, t = 0.2)
movej(p[0.52087279278186, 0.0740320894676266, 0.387284540128118, -1.291, 1.075, -1.064], a = 0.2, v = 0.2, t = 0.2)
movej(p[0.520868513275478, 0.0740371369179306, 0.386291162169298, -1.291, 1.075, -1.064], a = 0.2, v = 0.2, t = 0.2)
movej(p[0.520867354009154, 0.0740385042109413, 0.386022068139986, -1.291, 1.075, -1.064], a = 0.2, v = 0.2, t = 0.2)
movej(p[0.520872032430665, 0.0740329862614444, 0.387108044044233, -1.291, 1.075, -1.064], a = 0.2, v = 0.2, t = 0.2)
movej(p[0.520878461167703, 0.0740254039078218, 0.388600310933651, -1.291, 1.075, -1.064], a = 0.2, v = 0.2, t = 0.2)
movej(p[0.520884568532507, 0.0740182005956655, 0.390017979478265, -1.291, 1.075, -1.064], a = 0.2, v = 0.2, t = 0.2)
movej(p[0.520887973096522, 0.0740141850933751, 0.390808261943391, -1.291, 1.075, -1.064], a = 0.2, v = 0.2, t = 0.2)
movej(p[0.520891349228142, 0.0740102031255844, 0.391591944554955, -1.291, 1.075, -1.064], a = 0.2, v = 0.2, t = 0.2)
movej(p[0.52089360314171, 0.0740075447543351, 0.392115132946394, -1.291, 1.075, -1.064], a = 0.2, v = 0.2, t = 0.2)
movej(p[0.520894652124802, 0.0740063075345354, 0.392358627543709, -1.291, 1.075, -1.064], a = 0.2, v = 0.2, t = 0.2)
movej(p[0.520894733975639, 0.0740062109958241, 0.392377627122144, -1.291, 1.075, -1.064], a = 0.2, v = 0.2, t = 0.2)
movej(p[0.520894712005151, 0.0740062369088466, 0.392372527235301, -1.291, 1.075, -1.064], a = 0.2, v = 0.2, t = 0.2)
movej(p[0.52089204452946, 0.0740093830546371, 0.391753340973874, -1.291, 1.075, -1.064], a = 0.2, v = 0.2, t = 0.2)
movej(p[0.520887717635753, 0.074014486395774, 0.390748963259117, -1.291, 1.075, -1.064], a = 0.2, v = 0.2, t = 0.2)
movej(p[0.520883372217908, 0.0740196115851455, 0.389740285639767, -1.291, 1.075, -1.064], a = 0.2, v = 0.2, t = 0.2)
movej(p[0.520879634219432, 0.0740240203556597, 0.388872604891963, -1.291, 1.075, -1.064], a = 0.2, v = 0.2, t = 0.2)
movej(p[0.520877018439006, 0.0740271055296326, 0.388265418364284, -1.291, 1.075, -1.064], a = 0.2, v = 0.2, t = 0.2)
movej(p[0.520876662172469, 0.0740275257270759, 0.3881827201992, -1.291, 1.075, -1.064], a = 0.2, v = 0.2, t = 0.2)
movej(p[0.520880248531501, 0.0740232958072267, 0.389015201728008, -1.291, 1.075, -1.064], a = 0.2, v = 0.2, t = 0.2)
movej(p[0.520885608468928, 0.0740169740459339, 0.390259374122174, -1.291, 1.075, -1.064], a = 0.2, v = 0.2, t = 0.2)
movej(p[0.520889447703966, 0.0740124458722768, 0.39115055434857, -1.291, 1.075, -1.064], a = 0.2, v = 0.2, t = 0.2)
movej(p[0.520891290209381, 0.0740102727350762, 0.391578244858925, -1.291, 1.075, -1.064], a = 0.2, v = 0.2, t = 0.2)
movej(p[0.520893722902408, 0.0740074035029576, 0.392142932329578, -1.291, 1.075, -1.064], a = 0.2, v = 0.2, t = 0.2)
movej(p[0.520894937741143, 0.0740059706652429, 0.39242492607267, -1.291, 1.075, -1.064], a = 0.2, v = 0.2, t = 0.2)
movej(p[0.520893698777951, 0.0740074319564724, 0.392137332453828, -1.291, 1.075, -1.064], a = 0.2, v = 0.2, t = 0.2)
movej(p[0.520889809140029, 0.0740120195776518, 0.391234452487028, -1.291, 1.075, -1.064], a = 0.2, v = 0.2, t = 0.2)
movej(p[0.520886472641446, 0.0740159548003823, 0.390459969671338, -1.291, 1.075, -1.064], a = 0.2, v = 0.2, t = 0.2)
movej(p[0.520882858711606, 0.0740202172385341, 0.389621088284531, -1.291, 1.075, -1.064], a = 0.2, v = 0.2, t = 0.2)
movej(p[0.520878172966598, 0.0740257438257052, 0.388533412418003, -1.291, 1.075, -1.064], a = 0.2, v = 0.2, t = 0.2)
movej(p[0.52087350273017, 0.0740312521213309, 0.387449336471599, -1.291, 1.075, -1.064], a = 0.2, v = 0.2, t = 0.2)
movej(p[0.520872251704749, 0.0740327276393179, 0.387158942914883, -1.291, 1.075, -1.064], a = 0.2, v = 0.2, t = 0.2)
movej(p[0.520874439706854, 0.0740301470071361, 0.387666831645792, -1.291, 1.075, -1.064], a = 0.2, v = 0.2, t = 0.2)
movej(p[0.520878487446129, 0.0740253729138145, 0.388606410798306, -1.291, 1.075, -1.064], a = 0.2, v = 0.2, t = 0.2)
movej(p[0.520883372217908, 0.0740196115851455, 0.389740285639767, -1.291, 1.075, -1.064], a = 0.2, v = 0.2, t = 0.2)
movej(p[0.520887612522047, 0.0740146103718032, 0.390724563800495, -1.291, 1.075, -1.064], a = 0.2, v = 0.2, t = 0.2)
movej(p[0.52089017143768, 0.0740115922668298, 0.39131855062105, -1.291, 1.075, -1.064], a = 0.2, v = 0.2, t = 0.2)
movej(p[0.520891333719562, 0.0740102214171297, 0.391588344634831, -1.291, 1.075, -1.064], a = 0.2, v = 0.2, t = 0.2)
movej(p[0.520893874972647, 0.074007224144194, 0.392178231546355, -1.291, 1.075, -1.064], a = 0.2, v = 0.2, t = 0.2)
movej(p[0.520895199663821, 0.0740056617413668, 0.392485724723662, -1.291, 1.075, -1.064], a = 0.2, v = 0.2, t = 0.2)
movej(p[0.520893654836975, 0.0740074837825174, 0.392127132680142, -1.291, 1.075, -1.064], a = 0.2, v = 0.2, t = 0.2)
movej(p[0.520889112977123, 0.074012840664796, 0.391072856072547, -1.291, 1.075, -1.064], a = 0.2, v = 0.2, t = 0.2)
movej(p[0.520885237124605, 0.074017412026824, 0.390173176034747, -1.291, 1.075, -1.064], a = 0.2, v = 0.2, t = 0.2)
movej(p[0.520881193693269, 0.0740221810391608, 0.389234596860045, -1.291, 1.075, -1.064], a = 0.2, v = 0.2, t = 0.2)
movej(p[0.520877471634165, 0.0740265710100312, 0.388370616030147, -1.291, 1.075, -1.064], a = 0.2, v = 0.2, t = 0.2)
movej(p[0.520875989703226, 0.0740283188688037, 0.388026623662687, -1.291, 1.075, -1.064], a = 0.2, v = 0.2, t = 0.2)
movej(p[0.520878785555492, 0.0740250213096661, 0.388675609262923, -1.291, 1.075, -1.064], a = 0.2, v = 0.2, t = 0.2)
movej(p[0.520883170606374, 0.0740198493752343, 0.389693486678147, -1.291, 1.075, -1.064], a = 0.2, v = 0.2, t = 0.2)
movej(p[0.520886574739595, 0.0740158343810424, 0.390483669145492, -1.291, 1.075, -1.064], a = 0.2, v = 0.2, t = 0.2)
movej(p[0.520889083683139, 0.0740128752154927, 0.391066056223423, -1.291, 1.075, -1.064], a = 0.2, v = 0.2, t = 0.2)
movej(p[0.520891863596032, 0.0740095964559988, 0.391711341905754, -1.291, 1.075, -1.064], a = 0.2, v = 0.2, t = 0.2)
movej(p[0.520894064952747, 0.0740070000727641, 0.392222330567881, -1.291, 1.075, -1.064], a = 0.2, v = 0.2, t = 0.2)
movej(p[0.520894982543706, 0.0740059178230009, 0.392435325841918, -1.291, 1.075, -1.064], a = 0.2, v = 0.2, t = 0.2)
movej(p[0.520895984828742, 0.0740047356810765, 0.392667980679747, -1.291, 1.075, -1.064], a = 0.2, v = 0.2, t = 0.2)
movej(p[0.520895359488349, 0.0740054732368306, 0.392522823900502, -1.291, 1.075, -1.064], a = 0.2, v = 0.2, t = 0.2)
movej(p[0.520892753185389, 0.0740085472326369, 0.39191783732401, -1.291, 1.075, -1.064], a = 0.2, v = 0.2, t = 0.2)
movej(p[0.520888163507416, 0.0740139605138468, 0.390852460962698, -1.291, 1.075, -1.064], a = 0.2, v = 0.2, t = 0.2)
movej(p[0.520885549019372, 0.0740170441635242, 0.390245574428364, -1.291, 1.075, -1.064], a = 0.2, v = 0.2, t = 0.2)
movej(p[0.520885015696552, 0.0740176731894429, 0.390121777175191, -1.291, 1.075, -1.064], a = 0.2, v = 0.2, t = 0.2)
movej(p[0.520886416207448, 0.0740160213612832, 0.390446869961996, -1.291, 1.075, -1.064], a = 0.2, v = 0.2, t = 0.2)
movej(p[0.52088886053191, 0.0740131384105055, 0.391014257372742, -1.291, 1.075, -1.064], a = 0.2, v = 0.2, t = 0.2)
movej(p[0.520892194876524, 0.0740092057282674, 0.391788240199526, -1.291, 1.075, -1.064], a = 0.2, v = 0.2, t = 0.2)
movej(p[0.520894450944061, 0.0740065448165257, 0.39231192857987, -1.291, 1.075, -1.064], a = 0.2, v = 0.2, t = 0.2)
movej(p[0.520895611071974, 0.0740051765073181, 0.392581222604745, -1.291, 1.075, -1.064], a = 0.2, v = 0.2, t = 0.2)
movej(p[0.520897215736089, 0.0740032838912885, 0.392953704340079, -1.291, 1.075, -1.064], a = 0.2, v = 0.2, t = 0.2)
movej(p[0.520899756687618, 0.0740002869740217, 0.393543521253157, -1.291, 1.075, -1.064], a = 0.2, v = 0.2, t = 0.2)
movej(p[0.520900088773694, 0.0739998952961461, 0.39362060654278, -1.291, 1.075, -1.064], a = 0.2, v = 0.2, t = 0.2)
movej(p[0.520897423594135, 0.0740030387337717, 0.393001953269527, -1.291, 1.075, -1.064], a = 0.2, v = 0.2, t = 0.2)
movej(p[0.520893931837439, 0.0740071570751946, 0.392191431253478, -1.291, 1.075, -1.064], a = 0.2, v = 0.2, t = 0.2)
movej(p[0.520890659957937, 0.074011016083153, 0.391431948104974, -1.291, 1.075, -1.064], a = 0.2, v = 0.2, t = 0.2)
movej(p[0.520888473679008, 0.0740135946829409, 0.39092445936519, -1.291, 1.075, -1.064], a = 0.2, v = 0.2, t = 0.2)
movej(p[0.520887539717881, 0.0740146962404464, 0.390707664175465, -1.291, 1.075, -1.064], a = 0.2, v = 0.2, t = 0.2)
movej(p[0.520889760029527, 0.0740120775008785, 0.391223052739967, -1.291, 1.075, -1.064], a = 0.2, v = 0.2, t = 0.2)
movej(p[0.520892190137791, 0.0740092113173507, 0.391787140223932, -1.291, 1.075, -1.064], a = 0.2, v = 0.2, t = 0.2)
movej(p[0.520893781490375, 0.0740073344015642, 0.392156532027826, -1.291, 1.075, -1.064], a = 0.2, v = 0.2, t = 0.2)
movej(p[0.520894988574821, 0.0740059107096222, 0.392436725810856, -1.291, 1.075, -1.064], a = 0.2, v = 0.2, t = 0.2)
movej(p[0.520897404079172, 0.0740030617506329, 0.392997423370037, -1.291, 1.075, -1.064], a = 0.2, v = 0.2, t = 0.2)
movej(p[0.520898804805466, 0.0740014096684239, 0.393322566155733, -1.291, 1.075, -1.064], a = 0.2, v = 0.2, t = 0.2)
movej(p[0.520899065995794, 0.0740011016083153, 0.393383194810497, -1.291, 1.075, -1.064], a = 0.2, v = 0.2, t = 0.2)
movej(p[0.520898951706178, 0.0740012364068421, 0.393356665399135, -1.291, 1.075, -1.064], a = 0.2, v = 0.2, t = 0.2)
movej(p[0.520899131778019, 0.0740010240216773, 0.393398464471692, -1.291, 1.075, -1.064], a = 0.2, v = 0.2, t = 0.2)
movej(p[0.520896902936654, 0.0740036528215951, 0.392881095951122, -1.291, 1.075, -1.064], a = 0.2, v = 0.2, t = 0.2)
movej(p[0.5208930620646, 0.0740081829260264, 0.391989535733158, -1.291, 1.075, -1.064], a = 0.2, v = 0.2, t = 0.2)
movej(p[0.520890380803505, 0.0740113453309683, 0.391367149542732, -1.291, 1.075, -1.064], a = 0.2, v = 0.2, t = 0.2)
movej(p[0.520889765629847, 0.0740120708955983, 0.391224352711123, -1.291, 1.075, -1.064], a = 0.2, v = 0.2, t = 0.2)
movej(p[0.520890566044872, 0.0740111268486217, 0.391410148588664, -1.291, 1.075, -1.064], a = 0.2, v = 0.2, t = 0.2)
movej(p[0.52089234005406, 0.0740090344990796, 0.391821939451803, -1.291, 1.075, -1.064], a = 0.2, v = 0.2, t = 0.2)
movej(p[0.520895315978168, 0.0740055245547771, 0.392512724124597, -1.291, 1.075, -1.064], a = 0.2, v = 0.2, t = 0.2)
movej(p[0.520897698656026, 0.074002714312892, 0.393065801852847, -1.291, 1.075, -1.064], a = 0.2, v = 0.2, t = 0.2)
movej(p[0.520898703999698, 0.0740015285634684, 0.393299166674923, -1.291, 1.075, -1.064], a = 0.2, v = 0.2, t = 0.2)
movej(p[0.520899103991814, 0.0740010567940293, 0.393392014614803, -1.291, 1.075, -1.064], a = 0.2, v = 0.2, t = 0.2)
movej(p[0.520900448327189, 0.0739994712219115, 0.393704067690935, -1.291, 1.075, -1.064], a = 0.2, v = 0.2, t = 0.2)
movej(p[0.520899749023795, 0.0740002960130937, 0.393541742292628, -1.291, 1.075, -1.064], a = 0.2, v = 0.2, t = 0.2)
movej(p[0.520896377669679, 0.0740042723460722, 0.392759168656458, -1.291, 1.075, -1.064], a = 0.2, v = 0.2, t = 0.2)
movej(p[0.520892329284214, 0.0740090472015416, 0.391819439507272, -1.291, 1.075, -1.064], a = 0.2, v = 0.2, t = 0.2)
movej(p[0.520889978011229, 0.0740118204030474, 0.391273651617274, -1.291, 1.075, -1.064], a = 0.2, v = 0.2, t = 0.2)
movej(p[0.520889007001829, 0.0740129656570222, 0.391048256618363, -1.291, 1.075, -1.064], a = 0.2, v = 0.2, t = 0.2)
movej(p[0.520889203874631, 0.0740127334560167, 0.391093955604389, -1.291, 1.075, -1.064], a = 0.2, v = 0.2, t = 0.2)
movej(p[0.520891372921805, 0.074010175180168, 0.391597444432923, -1.291, 1.075, -1.064], a = 0.2, v = 0.2, t = 0.2)
movej(p[0.520894393648476, 0.0740066123936236, 0.392298628874966, -1.291, 1.075, -1.064], a = 0.2, v = 0.2, t = 0.2)
movej(p[0.520896438670092, 0.0740042003993274, 0.392773328342282, -1.291, 1.075, -1.064], a = 0.2, v = 0.2, t = 0.2)
movej(p[0.520897045615587, 0.0740034845393784, 0.392914215216268, -1.291, 1.075, -1.064], a = 0.2, v = 0.2, t = 0.2)
movej(p[0.520898734499905, 0.0740014925900959, 0.393306246517835, -1.291, 1.075, -1.064], a = 0.2, v = 0.2, t = 0.2)
movej(p[0.520900457072304, 0.0739994609075123, 0.393706097645894, -1.291, 1.075, -1.064], a = 0.2, v = 0.2, t = 0.2)
movej(p[0.520900081325268, 0.0739999040811689, 0.393618877581142, -1.291, 1.075, -1.064], a = 0.2, v = 0.2, t = 0.2)
movej(p[0.520897429366773, 0.0740030319252521, 0.393003293239795, -1.291, 1.075, -1.064], a = 0.2, v = 0.2, t = 0.2)
movej(p[0.520895169508249, 0.0740056973082604, 0.392478724878976, -1.291, 1.075, -1.064], a = 0.2, v = 0.2, t = 0.2)
movej(p[0.520892222447332, 0.0740091732099647, 0.391794640057525, -1.291, 1.075, -1.064], a = 0.2, v = 0.2, t = 0.2)
movej(p[0.520890235195174, 0.0740115170682547, 0.391333350292673, -1.291, 1.075, -1.064], a = 0.2, v = 0.2, t = 0.2)
movej(p[0.520888629195598, 0.0740134112593895, 0.390960558564217, -1.291, 1.075, -1.064], a = 0.2, v = 0.2, t = 0.2)
movej(p[0.52089059576965, 0.0740110917898266, 0.391417048435569, -1.291, 1.075, -1.064], a = 0.2, v = 0.2, t = 0.2)
movej(p[0.520892767832381, 0.0740085299572885, 0.391921237248573, -1.291, 1.075, -1.064], a = 0.2, v = 0.2, t = 0.2)
movej(p[0.520894297150647, 0.0740067262076832, 0.392276229371968, -1.291, 1.075, -1.064], a = 0.2, v = 0.2, t = 0.2)
movej(p[0.520895728247909, 0.0740050383045314, 0.392608422001242, -1.291, 1.075, -1.064], a = 0.2, v = 0.2, t = 0.2)
movej(p[0.520898152798932, 0.074002178675474, 0.393171219513829, -1.291, 1.075, -1.064], a = 0.2, v = 0.2, t = 0.2)
movej(p[0.520900068862401, 0.0739999187804579, 0.393615984645331, -1.291, 1.075, -1.064], a = 0.2, v = 0.2, t = 0.2)
movej(p[0.520900445570108, 0.0739994744737418, 0.393703427705135, -1.291, 1.075, -1.064], a = 0.2, v = 0.2, t = 0.2)
movej(p[0.520900768536278, 0.073999093552311, 0.393778396041729, -1.291, 1.075, -1.064], a = 0.2, v = 0.2, t = 0.2)
movej(p[0.520900329617628, 0.0739996112335287, 0.393676512302337, -1.291, 1.075, -1.064], a = 0.2, v = 0.2, t = 0.2)
movej(p[0.52089784193807, 0.0740025453193374, 0.393099061114887, -1.291, 1.075, -1.064], a = 0.2, v = 0.2, t = 0.2)
movej(p[0.520894015411451, 0.0740070585040894, 0.392210830823038, -1.291, 1.075, -1.064], a = 0.2, v = 0.2, t = 0.2)
movej(p[0.520891428925009, 0.0740101091273655, 0.391610444144484, -1.291, 1.075, -1.064], a = 0.2, v = 0.2, t = 0.2)
movej(p[0.520890670727784, 0.074011003380691, 0.391434448049505, -1.291, 1.075, -1.064], a = 0.2, v = 0.2, t = 0.2)
movej(p[0.520891221713154, 0.0740103535227346, 0.391562345211709, -1.291, 1.075, -1.064], a = 0.2, v = 0.2, t = 0.2)
movej(p[0.520892383995036, 0.0740089826730345, 0.391832139225489, -1.291, 1.075, -1.064], a = 0.2, v = 0.2, t = 0.2)
movej(p[0.52089504845517, 0.0740058400839334, 0.392450625502448, -1.291, 1.075, -1.064], a = 0.2, v = 0.2, t = 0.2)
movej(p[0.520896934427687, 0.0740036156795962, 0.392888405788931, -1.291, 1.075, -1.064], a = 0.2, v = 0.2, t = 0.2)
movej(p[0.520898216125632, 0.0740021039849974, 0.393185919187671, -1.291, 1.075, -1.064], a = 0.2, v = 0.2, t = 0.2)
movej(p[0.520899090034092, 0.0740010732564201, 0.39338877468669, -1.291, 1.075, -1.064], a = 0.2, v = 0.2, t = 0.2)
movej(p[0.520901502695204, 0.0739982276508808, 0.393948812260515, -1.291, 1.075, -1.064], a = 0.2, v = 0.2, t = 0.2)
movej(p[0.520902024515828, 0.0739976121911915, 0.394069939572929, -1.291, 1.075, -1.064], a = 0.2, v = 0.2, t = 0.2)
movej(p[0.520899897285816, 0.0740001211459207, 0.393576157529019, -1.291, 1.075, -1.064], a = 0.2, v = 0.2, t = 0.2)
movej(p[0.520895862009408, 0.0740048805399532, 0.392639471312316, -1.291, 1.075, -1.064], a = 0.2, v = 0.2, t = 0.2)
movej(p[0.520893437716861, 0.0740077398641516, 0.392076733798398, -1.291, 1.075, -1.064], a = 0.2, v = 0.2, t = 0.2)
movej(p[0.520891915722091, 0.0740095349760827, 0.391723441637283, -1.291, 1.075, -1.064], a = 0.2, v = 0.2, t = 0.2)
movej(p[0.520891742973746, 0.0740097387235733, 0.391683342527007, -1.291, 1.075, -1.064], a = 0.2, v = 0.2, t = 0.2)
movej(p[0.520892883715934, 0.0740083932787973, 0.391948136651726, -1.291, 1.075, -1.064], a = 0.2, v = 0.2, t = 0.2)
movej(p[0.520895421953462, 0.074005399562551, 0.392537323578781, -1.291, 1.075, -1.064], a = 0.2, v = 0.2, t = 0.2)
movej(p[0.520897064484359, 0.074003462284665, 0.392918595119086, -1.291, 1.075, -1.064], a = 0.2, v = 0.2, t = 0.2)
movej(p[0.520897563645225, 0.0740028735509558, 0.393034462548207, -1.291, 1.075, -1.064], a = 0.2, v = 0.2, t = 0.2)
movej(p[0.520898391674137, 0.0740018969348666, 0.393226668283525, -1.291, 1.075, -1.064], a = 0.2, v = 0.2, t = 0.2)
movej(p[0.520900206410579, 0.0739997565496941, 0.393647912936902, -1.291, 1.075, -1.064], a = 0.2, v = 0.2, t = 0.2)
movej(p[0.520900789300543, 0.0739990690619643, 0.393783215934785, -1.291, 1.075, -1.064], a = 0.2, v = 0.2, t = 0.2)
movej(p[0.520899613694206, 0.0740004556271503, 0.39351032898963, -1.291, 1.075, -1.064], a = 0.2, v = 0.2, t = 0.2)
movej(p[0.520897810145482, 0.0740025828170053, 0.393091681278632, -1.291, 1.075, -1.064], a = 0.2, v = 0.2, t = 0.2)
movej(p[0.520895038116117, 0.074005852278297, 0.392448225555698, -1.291, 1.075, -1.064], a = 0.2, v = 0.2, t = 0.2)
movej(p[0.520892041083109, 0.0740093871194249, 0.391752540991624, -1.291, 1.075, -1.064], a = 0.2, v = 0.2, t = 0.2)
movej(p[0.520889215936859, 0.0740127192292592, 0.391096755542263, -1.291, 1.075, -1.064], a = 0.2, v = 0.2, t = 0.2)
movej(p[0.520889948717245, 0.0740118549537441, 0.39126685176815, -1.291, 1.075, -1.064], a = 0.2, v = 0.2, t = 0.2)
movej(p[0.520891853687773, 0.0740096081422639, 0.391709041956785, -1.291, 1.075, -1.064], a = 0.2, v = 0.2, t = 0.2)
movej(p[0.520894123540714, 0.0740069309713708, 0.392235930266129, -1.291, 1.075, -1.064], a = 0.2, v = 0.2, t = 0.2)
movej(p[0.520895664490415, 0.0740051135031065, 0.392593622329618, -1.291, 1.075, -1.064], a = 0.2, v = 0.2, t = 0.2)
movej(p[0.520898084216546, 0.0740022595647521, 0.393155299867055, -1.291, 1.075, -1.064], a = 0.2, v = 0.2, t = 0.2)
movej(p[0.520899380044531, 0.0740007312045231, 0.39345609319302, -1.291, 1.075, -1.064], a = 0.2, v = 0.2, t = 0.2)
movej(p[0.520899683422503, 0.0740003733863303, 0.393526514630501, -1.291, 1.075, -1.064], a = 0.2, v = 0.2, t = 0.2)
movej(p[0.520899466547941, 0.0740006291783483, 0.393476172747493, -1.291, 1.075, -1.064], a = 0.2, v = 0.2, t = 0.2)
movej(p[0.520899298624488, 0.0740008272351359, 0.393437193612366, -1.291, 1.075, -1.064], a = 0.2, v = 0.2, t = 0.2)
movej(p[0.520896281344168, 0.0740043859568924, 0.392736809152573, -1.291, 1.075, -1.064], a = 0.2, v = 0.2, t = 0.2)
movej(p[0.520890586722978, 0.0740111024598947, 0.391414948482163, -1.291, 1.075, -1.064], a = 0.2, v = 0.2, t = 0.2)
movej(p[0.520883320522643, 0.0740196725569632, 0.389728285906018, -1.291, 1.075, -1.064], a = 0.2, v = 0.2, t = 0.2)
movej(p[0.520876026320706, 0.0740282756804329, 0.388035123474092, -1.291, 1.075, -1.064], a = 0.2, v = 0.2, t = 0.2)
movej(p[0.520868579617736, 0.0740370586707647, 0.386306561827608, -1.291, 1.075, -1.064], a = 0.2, v = 0.2, t = 0.2)
movej(p[0.520861980286323, 0.0740448422313855, 0.38477469581682, -1.291, 1.075, -1.064], a = 0.2, v = 0.2, t = 0.2)
movej(p[0.520860060668804, 0.0740471063182141, 0.384329105703622, -1.291, 1.075, -1.064], a = 0.2, v = 0.2, t = 0.2)
movej(p[0.520862408926231, 0.0740443366733975, 0.384874193609152, -1.291, 1.075, -1.064], a = 0.2, v = 0.2, t = 0.2)
movej(p[0.52086864897555, 0.0740369768669093, 0.386322661470388, -1.291, 1.075, -1.064], a = 0.2, v = 0.2, t = 0.2)
movej(p[0.52087497690682, 0.0740295134083311, 0.387791528878996, -1.291, 1.075, -1.064], a = 0.2, v = 0.2, t = 0.2)
movej(p[0.520881211355818, 0.0740221602071231, 0.389238696769076, -1.291, 1.075, -1.064], a = 0.2, v = 0.2, t = 0.2)
movej(p[0.520885310790358, 0.0740173251419838, 0.390190275655339, -1.291, 1.075, -1.064], a = 0.2, v = 0.2, t = 0.2)
movej(p[0.520888023068612, 0.0740141261539514, 0.390819861686015, -1.291, 1.075, -1.064], a = 0.2, v = 0.2, t = 0.2)
movej(p[0.520889353360106, 0.074012557145844, 0.391128654834478, -1.291, 1.075, -1.064], a = 0.2, v = 0.2, t = 0.2)
movej(p[0.520891360859577, 0.0740101894069254, 0.391594644495048, -1.291, 1.075, -1.064], a = 0.2, v = 0.2, t = 0.2)
movej(p[0.520890127927499, 0.0740116435847763, 0.391308450845145, -1.291, 1.075, -1.064], a = 0.2, v = 0.2, t = 0.2)
movej(p[0.520885405995805, 0.0740172128522197, 0.390212375164992, -1.291, 1.075, -1.064], a = 0.2, v = 0.2, t = 0.2)
movej(p[0.520878854051719, 0.0740249405220077, 0.38869150891014, -1.291, 1.075, -1.064], a = 0.2, v = 0.2, t = 0.2)
movej(p[0.520873871058936, 0.0740308176971302, 0.387534834574558, -1.291, 1.075, -1.064], a = 0.2, v = 0.2, t = 0.2)
movej(p[0.52086939554134, 0.0740360963322428, 0.386495957625274, -1.291, 1.075, -1.064], a = 0.2, v = 0.2, t = 0.2)
movej(p[0.520864425903167, 0.0740419577563124, 0.385342383220909, -1.291, 1.075, -1.064], a = 0.2, v = 0.2, t = 0.2)
movej(p[0.520861256552609, 0.0740456958368326, 0.38460669954434, -1.291, 1.075, -1.064], a = 0.2, v = 0.2, t = 0.2)
movej(p[0.52086094896578, 0.0740460586191475, 0.384535301128536, -1.291, 1.075, -1.064], a = 0.2, v = 0.2, t = 0.2)
movej(p[0.520863909381307, 0.0740425669663904, 0.385222485881205, -1.291, 1.075, -1.064], a = 0.2, v = 0.2, t = 0.2)
movej(p[0.520869214177118, 0.0740363102417031, 0.386453858559372, -1.291, 1.075, -1.064], a = 0.2, v = 0.2, t = 0.2)
movej(p[0.520876168482685, 0.0740281080079344, 0.388068122741901, -1.291, 1.075, -1.064], a = 0.2, v = 0.2, t = 0.2)
movej(p[0.52088241370153, 0.0740207421042644, 0.389517790576512, -1.291, 1.075, -1.064], a = 0.2, v = 0.2, t = 0.2)
movej(p[0.520886097419979, 0.0740163973541587, 0.39037287160388, -1.291, 1.075, -1.064], a = 0.2, v = 0.2, t = 0.2)
movej(p[0.520888081656579, 0.0740140570525581, 0.390833461384263, -1.291, 1.075, -1.064], a = 0.2, v = 0.2, t = 0.2)
movej(p[0.520890512626431, 0.0740111898528333, 0.39139774886379, -1.291, 1.075, -1.064], a = 0.2, v = 0.2, t = 0.2)
movej(p[0.52089211001013, 0.0740093058236681, 0.391768540636622, -1.291, 1.075, -1.064], a = 0.2, v = 0.2, t = 0.2)
movej(p[0.520892580867838, 0.074008750472029, 0.391877838211515, -1.291, 1.075, -1.064], a = 0.2, v = 0.2, t = 0.2)
movej(p[0.520892610161822, 0.0740087159213324, 0.391884638060639, -1.291, 1.075, -1.064], a = 0.2, v = 0.2, t = 0.2)
movej(p[0.52089401971939, 0.0740070534231046, 0.392211830800851, -1.291, 1.075, -1.064], a = 0.2, v = 0.2, t = 0.2)
movej(p[0.520893681546196, 0.0740074522804117, 0.392133332542579, -1.291, 1.075, -1.064], a = 0.2, v = 0.2, t = 0.2)
movej(p[0.520893208965312, 0.0740080096644446, 0.392023634976561, -1.291, 1.075, -1.064], a = 0.2, v = 0.2, t = 0.2)
movej(p[0.520893386021596, 0.0740078008359692, 0.392064734064649, -1.291, 1.075, -1.064], a = 0.2, v = 0.2, t = 0.2)
movej(p[0.520895605471654, 0.0740051831125983, 0.392579922633589, -1.291, 1.075, -1.064], a = 0.2, v = 0.2, t = 0.2)
movej(p[0.52089666892942, 0.0740039288206897, 0.392826777156354, -1.291, 1.075, -1.064], a = 0.2, v = 0.2, t = 0.2)
movej(p[0.520896910001674, 0.07400364448878, 0.392882735914734, -1.291, 1.075, -1.064], a = 0.2, v = 0.2, t = 0.2)
movej(p[0.520897765816791, 0.0740026351003389, 0.393081391506942, -1.291, 1.075, -1.064], a = 0.2, v = 0.2, t = 0.2)
movej(p[0.520897337952312, 0.0740031397437496, 0.392982073710617, -1.291, 1.075, -1.064], a = 0.2, v = 0.2, t = 0.2)
movej(p[0.520894327306218, 0.0740066906407896, 0.392283229216655, -1.291, 1.075, -1.064], a = 0.2, v = 0.2, t = 0.2)
movej(p[0.520888584393035, 0.0740134641016315, 0.390950158794968, -1.291, 1.075, -1.064], a = 0.2, v = 0.2, t = 0.2)
movej(p[0.520883601831045, 0.0740193407686555, 0.389793584457167, -1.291, 1.075, -1.064], a = 0.2, v = 0.2, t = 0.2)
movej(p[0.520878353469233, 0.0740255309324419, 0.388575311488341, -1.291, 1.075, -1.064], a = 0.2, v = 0.2, t = 0.2)
movej(p[0.520874478047509, 0.0740301017863714, 0.387675731448322, -1.291, 1.075, -1.064], a = 0.2, v = 0.2, t = 0.2)
movej(p[0.520874027006319, 0.0740306337654803, 0.387571033771366, -1.291, 1.075, -1.064], a = 0.2, v = 0.2, t = 0.2)
movej(p[0.520877969201094, 0.0740259841562864, 0.388486113467477, -1.291, 1.075, -1.064], a = 0.2, v = 0.2, t = 0.2)
movej(p[0.520882916007192, 0.0740201496614362, 0.389634387989435, -1.291, 1.075, -1.064], a = 0.2, v = 0.2, t = 0.2)
movej(p[0.520886089234895, 0.0740164070080298, 0.390370971646036, -1.291, 1.075, -1.064], a = 0.2, v = 0.2, t = 0.2)
movej(p[0.520889003555478, 0.0740129697218101, 0.391047456636113, -1.291, 1.075, -1.064], a = 0.2, v = 0.2, t = 0.2)
movej(p[0.520891149339783, 0.0740104388832793, 0.391545545584461, -1.291, 1.075, -1.064], a = 0.2, v = 0.2, t = 0.2)
movej(p[0.520893014677273, 0.0740082388168593, 0.391978535977222, -1.291, 1.075, -1.064], a = 0.2, v = 0.2, t = 0.2)
movej(p[0.5208937164405, 0.0740074111244347, 0.392141432362859, -1.291, 1.075, -1.064], a = 0.2, v = 0.2, t = 0.2)
movej(p[0.520894795579164, 0.0740061383377414, 0.392391926804861, -1.291, 1.075, -1.064], a = 0.2, v = 0.2, t = 0.2)
movej(p[0.520893361466345, 0.0740078297975826, 0.392059034191119, -1.291, 1.075, -1.064], a = 0.2, v = 0.2, t = 0.2)
movej(p[0.520889224121943, 0.0740127095753881, 0.391098655500107, -1.291, 1.075, -1.064], a = 0.2, v = 0.2, t = 0.2)
movej(p[0.520883113310788, 0.0740199169523322, 0.389680186973243, -1.291, 1.075, -1.064], a = 0.2, v = 0.2, t = 0.2)
movej(p[0.520877598718359, 0.0740264211209795, 0.388400115375612, -1.291, 1.075, -1.064], a = 0.2, v = 0.2, t = 0.2)
movej(p[0.520872821214256, 0.0740320559331269, 0.38729113998168, -1.291, 1.075, -1.064], a = 0.2, v = 0.2, t = 0.2)
movej(p[0.520869536841732, 0.0740359296759413, 0.38652875689752, -1.291, 1.075, -1.064], a = 0.2, v = 0.2, t = 0.2)
movej(p[0.5208705453302, 0.0740347402173987, 0.386762851703398, -1.291, 1.075, -1.064], a = 0.2, v = 0.2, t = 0.2)
movej(p[0.520874795973391, 0.0740297268096928, 0.387749529810876, -1.291, 1.075, -1.064], a = 0.2, v = 0.2, t = 0.2)
movej(p[0.520880398016977, 0.074023119497054, 0.389049900958098, -1.291, 1.075, -1.064], a = 0.2, v = 0.2, t = 0.2)
movej(p[0.520884030901747, 0.074018834702569, 0.38989318224728, -1.291, 1.075, -1.064], a = 0.2, v = 0.2, t = 0.2)
movej(p[0.520887576335361, 0.0740146530520755, 0.390716163986871, -1.291, 1.075, -1.064], a = 0.2, v = 0.2, t = 0.2)
movej(p[0.520889807416854, 0.0740120216100457, 0.391234052495903, -1.291, 1.075, -1.064], a = 0.2, v = 0.2, t = 0.2)
movej(p[0.52089160899685, 0.0740098967422008, 0.391652243217042, -1.291, 1.075, -1.064], a = 0.2, v = 0.2, t = 0.2)
movej(p[0.520892268973071, 0.0740091183353288, 0.391805439817899, -1.291, 1.075, -1.064], a = 0.2, v = 0.2, t = 0.2)
movej(p[0.520893725917965, 0.0740073999462682, 0.392143632314046, -1.291, 1.075, -1.064], a = 0.2, v = 0.2, t = 0.2)
movej(p[0.520893200349434, 0.0740080198264142, 0.392021635020936, -1.291, 1.075, -1.064], a = 0.2, v = 0.2, t = 0.2)
movej(p[0.520890543643591, 0.0740111532697427, 0.39140494870404, -1.291, 1.075, -1.064], a = 0.2, v = 0.2, t = 0.2)
movej(p[0.520886793582885, 0.0740155762670144, 0.390534468018361, -1.291, 1.075, -1.064], a = 0.2, v = 0.2, t = 0.2)
movej(p[0.520884764112927, 0.0740179699189554, 0.390063378470947, -1.291, 1.075, -1.064], a = 0.2, v = 0.2, t = 0.2)
movej(p[0.520883744854613, 0.07401917207996, 0.389826783720538, -1.291, 1.075, -1.064], a = 0.2, v = 0.2, t = 0.2)
movej(p[0.520883840490853, 0.0740190592820974, 0.389848983227973, -1.291, 1.075, -1.064], a = 0.2, v = 0.2, t = 0.2)
movej(p[0.520886369250916, 0.0740160767440176, 0.390435970203841, -1.291, 1.075, -1.064], a = 0.2, v = 0.2, t = 0.2)
movej(p[0.520889791908274, 0.074012039901591, 0.391230452575779, -1.291, 1.075, -1.064], a = 0.2, v = 0.2, t = 0.2)
movej(p[0.520892198753669, 0.0740092011553811, 0.391789140179557, -1.291, 1.075, -1.064], a = 0.2, v = 0.2, t = 0.2)
movej(p[0.52089324429041, 0.0740079680003692, 0.392031834794622, -1.291, 1.075, -1.064], a = 0.2, v = 0.2, t = 0.2)
movej(p[0.520895073441215, 0.0740058106142216, 0.39245642537376, -1.291, 1.075, -1.064], a = 0.2, v = 0.2, t = 0.2)
movej(p[0.52089667104031, 0.0740039263310071, 0.392827267145482, -1.291, 1.075, -1.064], a = 0.2, v = 0.2, t = 0.2)
movej(p[0.520896668455547, 0.074003929379598, 0.392826667158794, -1.291, 1.075, -1.064], a = 0.2, v = 0.2, t = 0.2)
movej(p[0.520894545718714, 0.07400643303486, 0.392333928091743, -1.291, 1.075, -1.064], a = 0.2, v = 0.2, t = 0.2)
movej(p[0.520892650225652, 0.0740086686681737, 0.391893937854295, -1.291, 1.075, -1.064], a = 0.2, v = 0.2, t = 0.2)
movej(p[0.520890192115786, 0.0740115678781027, 0.391323350514549, -1.291, 1.075, -1.064], a = 0.2, v = 0.2, t = 0.2)
movej(p[0.520888033407665, 0.0740141139595879, 0.390822261632764, -1.291, 1.075, -1.064], a = 0.2, v = 0.2, t = 0.2)
movej(p[0.520887586674414, 0.074014640857712, 0.39071856393362, -1.291, 1.075, -1.064], a = 0.2, v = 0.2, t = 0.2)
movej(p[0.520889763045084, 0.0740120739441892, 0.391223752724436, -1.291, 1.075, -1.064], a = 0.2, v = 0.2, t = 0.2)
movej(p[0.520891842487132, 0.0740096213528244, 0.391706442014473, -1.291, 1.075, -1.064], a = 0.2, v = 0.2, t = 0.2)
movej(p[0.52089294101152, 0.0740083257016994, 0.39196143635663, -1.291, 1.075, -1.064], a = 0.2, v = 0.2, t = 0.2)
movej(p[0.520894491007892, 0.074006497563367, 0.392321228373526, -1.291, 1.075, -1.064], a = 0.2, v = 0.2, t = 0.2)
movej(p[0.520896326060573, 0.0740043332162702, 0.392747188922266, -1.291, 1.075, -1.064], a = 0.2, v = 0.2, t = 0.2)
movej(p[0.520897297414608, 0.0740031875558166, 0.392972663919402, -1.291, 1.075, -1.064], a = 0.2, v = 0.2, t = 0.2)
movej(p[0.520897463744124, 0.0740029913789934, 0.393011273062738, -1.291, 1.075, -1.064], a = 0.2, v = 0.2, t = 0.2)
movej(p[0.520899063324872, 0.0740011047585259, 0.393382574824254, -1.291, 1.075, -1.064], a = 0.2, v = 0.2, t = 0.2)
movej(p[0.520900378400726, 0.0739995536964568, 0.393687836051084, -1.291, 1.075, -1.064], a = 0.2, v = 0.2, t = 0.2)
movej(p[0.52090035997998, 0.0739995754227478, 0.393683560145958, -1.291, 1.075, -1.064], a = 0.2, v = 0.2, t = 0.2)
movej(p[0.520899105370354, 0.0740010551681142, 0.393392334607703, -1.291, 1.075, -1.064], a = 0.2, v = 0.2, t = 0.2)
movej(p[0.520898824277349, 0.0740013867023726, 0.393327086055445, -1.291, 1.075, -1.064], a = 0.2, v = 0.2, t = 0.2)
movej(p[0.520898289015956, 0.0740020180147345, 0.393202838812256, -1.291, 1.075, -1.064], a = 0.2, v = 0.2, t = 0.2)
movej(p[0.520897593413082, 0.0740028384413508, 0.393041372394891, -1.291, 1.075, -1.064], a = 0.2, v = 0.2, t = 0.2)
movej(p[0.520897649760921, 0.0740027719820695, 0.393054452104677, -1.291, 1.075, -1.064], a = 0.2, v = 0.2, t = 0.2)
movej(p[0.520899319733388, 0.0740008023383104, 0.393442093503647, -1.291, 1.075, -1.064], a = 0.2, v = 0.2, t = 0.2)
movej(p[0.520900542412571, 0.0739993602532034, 0.393725907206357, -1.291, 1.075, -1.064], a = 0.2, v = 0.2, t = 0.2)
movej(p[0.52090079722715, 0.0739990597129522, 0.393785055893959, -1.291, 1.075, -1.064], a = 0.2, v = 0.2, t = 0.2)
movej(p[0.520901568606668, 0.0739981499118132, 0.393964111921045, -1.291, 1.075, -1.064], a = 0.2, v = 0.2, t = 0.2)
movej(p[0.520901542500559, 0.0739981807025812, 0.393958052055502, -1.291, 1.075, -1.064], a = 0.2, v = 0.2, t = 0.2)
movej(p[0.520899492223256, 0.0740005988956788, 0.393482132615255, -1.291, 1.075, -1.064], a = 0.2, v = 0.2, t = 0.2)
movej(p[0.520895604610066, 0.0740051841287953, 0.392579722638026, -1.291, 1.075, -1.064], a = 0.2, v = 0.2, t = 0.2)
movej(p[0.52089234005406, 0.0740090344990796, 0.391821939451803, -1.291, 1.075, -1.064], a = 0.2, v = 0.2, t = 0.2)
movej(p[0.520889891852453, 0.0740119220227435, 0.391253652061026, -1.291, 1.075, -1.064], a = 0.2, v = 0.2, t = 0.2)
movej(p[0.520888991062455, 0.074012984456666, 0.391044556700457, -1.291, 1.075, -1.064], a = 0.2, v = 0.2, t = 0.2)
movej(p[0.520890328677446, 0.0740114068108844, 0.391355049811202, -1.291, 1.075, -1.064], a = 0.2, v = 0.2, t = 0.2)
movej(p[0.520893773736086, 0.0740073435473369, 0.392154732067764, -1.291, 1.075, -1.064], a = 0.2, v = 0.2, t = 0.2)
movej(p[0.520896517031499, 0.0740041079762138, 0.392791517938689, -1.291, 1.075, -1.064], a = 0.2, v = 0.2, t = 0.2)
movej(p[0.520897583117108, 0.0740028505849044, 0.393038982447919, -1.291, 1.075, -1.064], a = 0.2, v = 0.2, t = 0.2)
movej(p[0.520898871793914, 0.0740013306591103, 0.393338115810715, -1.291, 1.075, -1.064], a = 0.2, v = 0.2, t = 0.2)
movej(p[0.520900663939524, 0.073999216918622, 0.393754116580444, -1.291, 1.075, -1.064], a = 0.2, v = 0.2, t = 0.2)
movej(p[0.520901496147137, 0.0739982353739777, 0.39394729229424, -1.291, 1.075, -1.064], a = 0.2, v = 0.2, t = 0.2)
movej(p[0.520900307362816, 0.0739996374818962, 0.393671346416958, -1.291, 1.075, -1.064], a = 0.2, v = 0.2, t = 0.2)
movej(p[0.52089859268256, 0.0740016598561157, 0.393273327248251, -1.291, 1.075, -1.064], a = 0.2, v = 0.2, t = 0.2)
movej(p[0.520896436559202, 0.07400420288901, 0.392772838353154, -1.291, 1.075, -1.064], a = 0.2, v = 0.2, t = 0.2)
movej(p[0.520893363620314, 0.0740078272570902, 0.392059534180025, -1.291, 1.075, -1.064], a = 0.2, v = 0.2, t = 0.2)
movej(p[0.520890742670362, 0.0740109185282448, 0.391451147678972, -1.291, 1.075, -1.064], a = 0.2, v = 0.2, t = 0.2)
movej(p[0.520890924896172, 0.0740107036025876, 0.391493446740435, -1.291, 1.075, -1.064], a = 0.2, v = 0.2, t = 0.2)
movej(p[0.520892727337757, 0.0740085777185457, 0.391911837457136, -1.291, 1.075, -1.064], a = 0.2, v = 0.2, t = 0.2)
movej(p[0.520894804195041, 0.0740061281757718, 0.392393926760486, -1.291, 1.075, -1.064], a = 0.2, v = 0.2, t = 0.2)
movej(p[0.520896308010309, 0.0740043545055965, 0.392742999015232, -1.291, 1.075, -1.064], a = 0.2, v = 0.2, t = 0.2)
movej(p[0.520898835908784, 0.0740013729837137, 0.393329785995538, -1.291, 1.075, -1.064], a = 0.2, v = 0.2, t = 0.2)
movej(p[0.520900404312978, 0.0739995231343332, 0.393693850917626, -1.291, 1.075, -1.064], a = 0.2, v = 0.2, t = 0.2)
movej(p[0.520900696464462, 0.0739991785571868, 0.393761666412928, -1.291, 1.075, -1.064], a = 0.2, v = 0.2, t = 0.2)
movej(p[0.520899892142137, 0.0740001272126165, 0.393574963555511, -1.291, 1.075, -1.064], a = 0.2, v = 0.2, t = 0.2)
movej(p[0.52089936600065, 0.0740007477685336, 0.393452833265352, -1.291, 1.075, -1.064], a = 0.2, v = 0.2, t = 0.2)
movej(p[0.520896657771859, 0.0740039419804403, 0.392824187213819, -1.291, 1.075, -1.064], a = 0.2, v = 0.2, t = 0.2)
movej(p[0.520891408246903, 0.0740101335160926, 0.391605644250985, -1.291, 1.075, -1.064], a = 0.2, v = 0.2, t = 0.2)
movej(p[0.520884438001962, 0.0740183545495051, 0.38998768015055, -1.291, 1.075, -1.064], a = 0.2, v = 0.2, t = 0.2)
movej(p[0.520877269161043, 0.074026809816317, 0.388323617072965, -1.291, 1.075, -1.064], a = 0.2, v = 0.2, t = 0.2)
movej(p[0.52086948773123, 0.074035987599168, 0.386517357150459, -1.291, 1.075, -1.064], a = 0.2, v = 0.2, t = 0.2)
movej(p[0.520861944961225, 0.0740448838954609, 0.384766495998758, -1.291, 1.075, -1.064], a = 0.2, v = 0.2, t = 0.2)
movej(p[0.52085617964676, 0.0740516837774238, 0.383428225692447, -1.291, 1.075, -1.064], a = 0.2, v = 0.2, t = 0.2)
movej(p[0.520853004695881, 0.0740554284632241, 0.382691242044721, -1.291, 1.075, -1.064], a = 0.2, v = 0.2, t = 0.2)
movej(p[0.520853646578759, 0.0740546713964884, 0.382840238738766, -1.291, 1.075, -1.064], a = 0.2, v = 0.2, t = 0.2)
movej(p[0.520855593767086, 0.0740523747913571, 0.383292228709963, -1.291, 1.075, -1.064], a = 0.2, v = 0.2, t = 0.2)
movej(p[0.520858433560328, 0.0740490254061745, 0.383951414083886, -1.291, 1.075, -1.064], a = 0.2, v = 0.2, t = 0.2)
movej(p[0.520860222216508, 0.0740469157812839, 0.384366604871587, -1.291, 1.075, -1.064], a = 0.2, v = 0.2, t = 0.2)
movej(p[0.520863499265536, 0.0740430506761437, 0.385127287993466, -1.291, 1.075, -1.064], a = 0.2, v = 0.2, t = 0.2)
movej(p[0.520869185313928, 0.0740363442843012, 0.386447158708029, -1.291, 1.075, -1.064], a = 0.2, v = 0.2, t = 0.2)
movej(p[0.520876772886496, 0.0740273951457664, 0.388208419628978, -1.291, 1.075, -1.064], a = 0.2, v = 0.2, t = 0.2)
movej(p[0.520881037745885, 0.0740223649708107, 0.389198397663237, -1.291, 1.075, -1.064], a = 0.2, v = 0.2, t = 0.2)
movej(p[0.520883641033288, 0.0740192945316938, 0.389802684255259, -1.291, 1.075, -1.064], a = 0.2, v = 0.2, t = 0.2)
movej(p[0.520885507232366, 0.0740170934490768, 0.390235874643583, -1.291, 1.075, -1.064], a = 0.2, v = 0.2, t = 0.2)
movej(p[0.520888692091504, 0.0740133370770114, 0.390975158240278, -1.291, 1.075, -1.064], a = 0.2, v = 0.2, t = 0.2)
movej(p[0.520888661074345, 0.074013373660102, 0.390967958400029, -1.291, 1.075, -1.064], a = 0.2, v = 0.2, t = 0.2)
movej(p[0.52088478996056, 0.0740179394330466, 0.390069378337822, -1.291, 1.075, -1.064], a = 0.2, v = 0.2, t = 0.2)
movej(p[0.520879168100456, 0.0740245701182155, 0.388764407292663, -1.291, 1.075, -1.064], a = 0.2, v = 0.2, t = 0.2)
movej(p[0.52087403820696, 0.0740306205549198, 0.387573633713678, -1.291, 1.075, -1.064], a = 0.2, v = 0.2, t = 0.2)
movej(p[0.520868247475656, 0.074037450414693, 0.386229463538274, -1.291, 1.075, -1.064], a = 0.2, v = 0.2, t = 0.2)
movej(p[0.520862069460656, 0.0740447370550001, 0.384795395357536, -1.291, 1.075, -1.064], a = 0.2, v = 0.2, t = 0.2)
movej(p[0.520858484394006, 0.0740489654505538, 0.383963213822072, -1.291, 1.075, -1.064], a = 0.2, v = 0.2, t = 0.2)
movej(p[0.520858712714761, 0.0740486961583592, 0.384016212646128, -1.291, 1.075, -1.064], a = 0.2, v = 0.2, t = 0.2)
movej(p[0.520861698116333, 0.0740451750358902, 0.384709197270109, -1.291, 1.075, -1.064], a = 0.2, v = 0.2, t = 0.2)
movej(p[0.520867163167466, 0.0740387292985681, 0.385977769122897, -1.291, 1.075, -1.064], a = 0.2, v = 0.2, t = 0.2)
movej(p[0.520874086455874, 0.07403056364789, 0.387584833465177, -1.291, 1.075, -1.064], a = 0.2, v = 0.2, t = 0.2)
movej(p[0.52087975958045, 0.074023872499002, 0.388901704246303, -1.291, 1.075, -1.064], a = 0.2, v = 0.2, t = 0.2)
movej(p[0.520883067646637, 0.0740199708107711, 0.389669587208431, -1.291, 1.075, -1.064], a = 0.2, v = 0.2, t = 0.2)
movej(p[0.520885147519478, 0.0740175177113079, 0.39015237649625, -1.291, 1.075, -1.064], a = 0.2, v = 0.2, t = 0.2)
movej(p[0.520888340132906, 0.0740137521934698, 0.390893460053006, -1.291, 1.075, -1.064], a = 0.2, v = 0.2, t = 0.2)
movej(p[0.520889792339068, 0.0740120393934925, 0.39123055257356, -1.291, 1.075, -1.064], a = 0.2, v = 0.2, t = 0.2)
movej(p[0.520888386227851, 0.0740136978269324, 0.390904159815599, -1.291, 1.075, -1.064], a = 0.2, v = 0.2, t = 0.2)
movej(p[0.520885265126207, 0.0740173790004228, 0.390179675890528, -1.291, 1.075, -1.064], a = 0.2, v = 0.2, t = 0.2)
movej(p[0.520881808866926, 0.0740214554745308, 0.389377393691653, -1.291, 1.075, -1.064], a = 0.2, v = 0.2, t = 0.2)
movej(p[0.520876892647194, 0.0740272538943889, 0.388236219012162, -1.291, 1.075, -1.064], a = 0.2, v = 0.2, t = 0.2)
movej(p[0.520870197248747, 0.0740351507609709, 0.386682053496158, -1.291, 1.075, -1.064], a = 0.2, v = 0.2, t = 0.2)
movej(p[0.520864503876859, 0.0740418657904875, 0.385360482819313, -1.291, 1.075, -1.064], a = 0.2, v = 0.2, t = 0.2)
movej(p[0.520860348869908, 0.0740467664003307, 0.384396004219271, -1.291, 1.075, -1.064], a = 0.2, v = 0.2, t = 0.2)
movej(p[0.520859191326759, 0.0740481316609475, 0.384127310181084, -1.291, 1.075, -1.064], a = 0.2, v = 0.2, t = 0.2)
movej(p[0.520861203995755, 0.0740457578248472, 0.384594499815029, -1.291, 1.075, -1.064], a = 0.2, v = 0.2, t = 0.2)
movej(p[0.52086737468726, 0.0740384798222143, 0.386026868033485, -1.291, 1.075, -1.064], a = 0.2, v = 0.2, t = 0.2)
movej(p[0.520873704772499, 0.0740310138231436, 0.387496235431, -1.291, 1.075, -1.064], a = 0.2, v = 0.2, t = 0.2)
movej(p[0.520878785986286, 0.0740250208015676, 0.388675709260705, -1.291, 1.075, -1.064], a = 0.2, v = 0.2, t = 0.2)
movej(p[0.520882217259522, 0.0740209737971714, 0.389472191588267, -1.291, 1.075, -1.064], a = 0.2, v = 0.2, t = 0.2)
movej(p[0.520885617946393, 0.0740169628677673, 0.390261574073362, -1.291, 1.075, -1.064], a = 0.2, v = 0.2, t = 0.2)
movej(p[0.520886782382244, 0.0740155894775749, 0.390531868076049, -1.291, 1.075, -1.064], a = 0.2, v = 0.2, t = 0.2)
movej(p[0.520884796422468, 0.0740179318115694, 0.39007087830454, -1.291, 1.075, -1.064], a = 0.2, v = 0.2, t = 0.2)
movej(p[0.52088066941712, 0.0740227993950114, 0.389112899560278, -1.291, 1.075, -1.064], a = 0.2, v = 0.2, t = 0.2)
movej(p[0.520875719595465, 0.0740286374465509, 0.387963925053851, -1.291, 1.075, -1.064], a = 0.2, v = 0.2, t = 0.2)
movej(p[0.520870448832371, 0.0740348540314583, 0.386740452200401, -1.291, 1.075, -1.064], a = 0.2, v = 0.2, t = 0.2)
movej(p[0.520865028153008, 0.0740412474346369, 0.38548218011908, -1.291, 1.075, -1.064], a = 0.2, v = 0.2, t = 0.2)
movej(p[0.520862486469129, 0.0740442452156711, 0.384892193209775, -1.291, 1.075, -1.064], a = 0.2, v = 0.2, t = 0.2)
movej(p[0.520863743956458, 0.0740427620762069, 0.385184086733209, -1.291, 1.075, -1.064], a = 0.2, v = 0.2, t = 0.2)
movej(p[0.520867294990392, 0.0740385738204331, 0.386008368443956, -1.291, 1.075, -1.064], a = 0.2, v = 0.2, t = 0.2)
movej(p[0.52087236284957, 0.07403259654991, 0.387184742342442, -1.291, 1.075, -1.064], a = 0.2, v = 0.2, t = 0.2)
movej(p[0.520878405164498, 0.0740254699606243, 0.38858731122209, -1.291, 1.075, -1.064], a = 0.2, v = 0.2, t = 0.2)
movej(p[0.520882787630616, 0.0740203010747834, 0.389604588650626, -1.291, 1.075, -1.064], a = 0.2, v = 0.2, t = 0.2)
movej(p[0.520885569697479, 0.0740170197747971, 0.390250374321863, -1.291, 1.075, -1.064], a = 0.2, v = 0.2, t = 0.2)
movej(p[0.520886837093067, 0.0740155249490679, 0.390544567794266, -1.291, 1.075, -1.064], a = 0.2, v = 0.2, t = 0.2)
movej(p[0.520890112849713, 0.0740116613682231, 0.391304950922801, -1.291, 1.075, -1.064], a = 0.2, v = 0.2, t = 0.2)
movej(p[0.520891849810628, 0.0740096127151502, 0.391708141976754, -1.291, 1.075, -1.064], a = 0.2, v = 0.2, t = 0.2)
movej(p[0.520892116902832, 0.0740092976940924, 0.391770140601122, -1.291, 1.075, -1.064], a = 0.2, v = 0.2, t = 0.2)
movej(p[0.520892246571789, 0.0740091447564498, 0.391800239933274, -1.291, 1.075, -1.064], a = 0.2, v = 0.2, t = 0.2)
movej(p[0.520893403684145, 0.0740077800039315, 0.39206883397368, -1.291, 1.075, -1.064], a = 0.2, v = 0.2, t = 0.2)
movej(p[0.52089376425862, 0.0740073547255034, 0.392152532116577, -1.291, 1.075, -1.064], a = 0.2, v = 0.2, t = 0.2)
movej(p[0.52089348984292, 0.0740076783842354, 0.392088833529928, -1.291, 1.075, -1.064], a = 0.2, v = 0.2, t = 0.2)
movej(p[0.520893837924373, 0.0740072678406633, 0.392169631737168, -1.291, 1.075, -1.064], a = 0.2, v = 0.2, t = 0.2)
movej(p[0.520894943341463, 0.0740059640599626, 0.392426226043826, -1.291, 1.075, -1.064], a = 0.2, v = 0.2, t = 0.2)
movej(p[0.520895127290449, 0.0740057471019115, 0.392468925096414, -1.291, 1.075, -1.064], a = 0.2, v = 0.2, t = 0.2)
movej(p[0.520893783213551, 0.0740073323691703, 0.392156932018951, -1.291, 1.075, -1.064], a = 0.2, v = 0.2, t = 0.2)
movej(p[0.520891330704005, 0.0740102249738191, 0.391587644650362, -1.291, 1.075, -1.064], a = 0.2, v = 0.2, t = 0.2)
movej(p[0.520885686011826, 0.0740168825882074, 0.390277373722797, -1.291, 1.075, -1.064], a = 0.2, v = 0.2, t = 0.2)
movej(p[0.52087669448201, 0.0740274876196898, 0.388190220032793, -1.291, 1.075, -1.064], a = 0.2, v = 0.2, t = 0.2)
movej(p[0.520868325449348, 0.0740373584488681, 0.386247563136678, -1.291, 1.075, -1.064], a = 0.2, v = 0.2, t = 0.2)
movej(p[0.52086272211338, 0.0740439672858023, 0.384946891996112, -1.291, 1.075, -1.064], a = 0.2, v = 0.2, t = 0.2)
movej(p[0.520859491159298, 0.0740477780244051, 0.384196908636825, -1.291, 1.075, -1.064], a = 0.2, v = 0.2, t = 0.2)
movej(p[0.520857908422591, 0.074049644778222, 0.383829516788556, -1.291, 1.075, -1.064], a = 0.2, v = 0.2, t = 0.2)
movej(p[0.5208606168237, 0.0740464503630759, 0.384458202839201, -1.291, 1.075, -1.064], a = 0.2, v = 0.2, t = 0.2)
movej(p[0.520866488975047, 0.0740395244726899, 0.385821272595259, -1.291, 1.075, -1.064], a = 0.2, v = 0.2, t = 0.2)
movej(p[0.520873491529529, 0.0740312653318914, 0.387446736529287, -1.291, 1.075, -1.064], a = 0.2, v = 0.2, t = 0.2)
movej(p[0.520878511570586, 0.0740253444602996, 0.388612010674056, -1.291, 1.075, -1.064], a = 0.2, v = 0.2, t = 0.2)
movej(p[0.52088360010787, 0.0740193428010494, 0.389793184466042, -1.291, 1.075, -1.064], a = 0.2, v = 0.2, t = 0.2)
movej(p[0.520886662190752, 0.0740157312370509, 0.390503968695083, -1.291, 1.075, -1.064], a = 0.2, v = 0.2, t = 0.2)
movej(p[0.52088864384259, 0.0740133939840412, 0.390963958488779, -1.291, 1.075, -1.064], a = 0.2, v = 0.2, t = 0.2)
movej(p[0.520889851357829, 0.0740119697840007, 0.39124425226959, -1.291, 1.075, -1.064], a = 0.2, v = 0.2, t = 0.2)
movej(p[0.520892341346442, 0.0740090329747841, 0.391822239445147, -1.291, 1.075, -1.064], a = 0.2, v = 0.2, t = 0.2)
movej(p[0.520893763827826, 0.0740073552336019, 0.392152432118795, -1.291, 1.075, -1.064], a = 0.2, v = 0.2, t = 0.2)
movej(p[0.52089286217624, 0.0740084186837213, 0.391943136762664, -1.291, 1.075, -1.064], a = 0.2, v = 0.2, t = 0.2)
movej(p[0.520890538474064, 0.0740111593669245, 0.391403748730665, -1.291, 1.075, -1.064], a = 0.2, v = 0.2, t = 0.2)
movej(p[0.520888370719271, 0.0740137161184777, 0.390900559895474, -1.291, 1.075, -1.064], a = 0.2, v = 0.2, t = 0.2)
movej(p[0.520884573702033, 0.0740181944984838, 0.39001917945164, -1.291, 1.075, -1.064], a = 0.2, v = 0.2, t = 0.2)
movej(p[0.520880411371587, 0.0740231037460011, 0.389053000889316, -1.291, 1.075, -1.064], a = 0.2, v = 0.2, t = 0.2)
movej(p[0.520879226688423, 0.0740245010168222, 0.388778006990911, -1.291, 1.075, -1.064], a = 0.2, v = 0.2, t = 0.2)
movej(p[0.520881091164326, 0.0740223019665991, 0.38921079738811, -1.291, 1.075, -1.064], a = 0.2, v = 0.2, t = 0.2)
movej(p[0.520884590072201, 0.0740181751907415, 0.390022979367327, -1.291, 1.075, -1.064], a = 0.2, v = 0.2, t = 0.2)
movej(p[0.52088722739232, 0.0740150646118447, 0.390635165784068, -1.291, 1.075, -1.064], a = 0.2, v = 0.2, t = 0.2)
movej(p[0.520890432067976, 0.0740112848672491, 0.391379049278699, -1.291, 1.075, -1.064], a = 0.2, v = 0.2, t = 0.2)
movej(p[0.520892682104399, 0.0740086310688861, 0.391901337690106, -1.291, 1.075, -1.064], a = 0.2, v = 0.2, t = 0.2)
movej(p[0.520893670345555, 0.0740074654909721, 0.392130732600267, -1.291, 1.075, -1.064], a = 0.2, v = 0.2, t = 0.2)
movej(p[0.520894027042886, 0.0740070447854304, 0.392213530763132, -1.291, 1.075, -1.064], a = 0.2, v = 0.2, t = 0.2)
movej(p[0.520895811778842, 0.0740049397842361, 0.392627811571024, -1.291, 1.075, -1.064], a = 0.2, v = 0.2, t = 0.2)
movej(p[0.52089590336562, 0.0740048317624991, 0.392649071099315, -1.291, 1.075, -1.064], a = 0.2, v = 0.2, t = 0.2)
movej(p[0.520893221458334, 0.0740079949295887, 0.392026534912216, -1.291, 1.075, -1.064], a = 0.2, v = 0.2, t = 0.2)
movej(p[0.520888935920839, 0.0740130494932715, 0.391031756984459, -1.291, 1.075, -1.064], a = 0.2, v = 0.2, t = 0.2)
movej(p[0.520885667918483, 0.0740169039283436, 0.390273173815985, -1.291, 1.075, -1.064], a = 0.2, v = 0.2, t = 0.2)
movej(p[0.52088346354621, 0.0740195038682677, 0.389761485169389, -1.291, 1.075, -1.064], a = 0.2, v = 0.2, t = 0.2)
movej(p[0.520883185684159, 0.0740198315917875, 0.389696986600491, -1.291, 1.075, -1.064], a = 0.2, v = 0.2, t = 0.2)
movej(p[0.520885766570281, 0.0740167875737916, 0.390296073307889, -1.291, 1.075, -1.064], a = 0.2, v = 0.2, t = 0.2)
movej(p[0.520889824648609, 0.0740120012861065, 0.391238052407153, -1.291, 1.075, -1.064], a = 0.2, v = 0.2, t = 0.2)
movej(p[0.520892284050856, 0.074009100551882, 0.391808939740242, -1.291, 1.075, -1.064], a = 0.2, v = 0.2, t = 0.2)
movej(p[0.520893395068267, 0.0740077901659011, 0.392066834018055, -1.291, 1.075, -1.064], a = 0.2, v = 0.2, t = 0.2)
movej(p[0.520894987713233, 0.0740059117258192, 0.392436525815293, -1.291, 1.075, -1.064], a = 0.2, v = 0.2, t = 0.2)
movej(p[0.520896844305608, 0.0740037219737983, 0.392867486253096, -1.291, 1.075, -1.064], a = 0.2, v = 0.2, t = 0.2)
movej(p[0.520897275271803, 0.0740032136720785, 0.392967524033446, -1.291, 1.075, -1.064], a = 0.2, v = 0.2, t = 0.2)
movej(p[0.520896111568301, 0.0740045861985036, 0.392697400026988, -1.291, 1.075, -1.064], a = 0.2, v = 0.2, t = 0.2)
movej(p[0.520895301331176, 0.0740055418301254, 0.392509324200035, -1.291, 1.075, -1.064], a = 0.2, v = 0.2, t = 0.2)
movej(p[0.520893319679339, 0.0740078790831352, 0.392049334406339, -1.291, 1.075, -1.064], a = 0.2, v = 0.2, t = 0.2)
movej(p[0.520890319630774, 0.0740114174809525, 0.391352949857796, -1.291, 1.075, -1.064], a = 0.2, v = 0.2, t = 0.2)
movej(p[0.520888404321194, 0.0740136764867963, 0.390908359722411, -1.291, 1.075, -1.064], a = 0.2, v = 0.2, t = 0.2)
movej(p[0.520889374469006, 0.0740125322490185, 0.391133554725759, -1.291, 1.075, -1.064], a = 0.2, v = 0.2, t = 0.2)
movej(p[0.520891176049003, 0.0740104073811735, 0.391551745446897, -1.291, 1.075, -1.064], a = 0.2, v = 0.2, t = 0.2)
movej(p[0.520892905255628, 0.0740083678738733, 0.391953136540788, -1.291, 1.075, -1.064], a = 0.2, v = 0.2, t = 0.2)
movej(p[0.52089461852288, 0.0740063471662168, 0.392350827716772, -1.291, 1.075, -1.064], a = 0.2, v = 0.2, t = 0.2)
movej(p[0.520897235983401, 0.0740032600106599, 0.392958404235797, -1.291, 1.075, -1.064], a = 0.2, v = 0.2, t = 0.2)
movej(p[0.520898619908733, 0.0740016277442917, 0.393279647108025, -1.291, 1.075, -1.064], a = 0.2, v = 0.2, t = 0.2)
movej(p[0.520898876532646, 0.074001325070027, 0.393339215786309, -1.291, 1.075, -1.064], a = 0.2, v = 0.2, t = 0.2)
movej(p[0.520900048692632, 0.0739999425696288, 0.393611302749213, -1.291, 1.075, -1.064], a = 0.2, v = 0.2, t = 0.2)
movej(p[0.52090167117869, 0.0739980289335651, 0.393987921392757, -1.291, 1.075, -1.064], a = 0.2, v = 0.2, t = 0.2)
movej(p[0.520900629906808, 0.073999257058402, 0.393746216755727, -1.291, 1.075, -1.064], a = 0.2, v = 0.2, t = 0.2)
movej(p[0.520897351005367, 0.0740031243483657, 0.392985103643388, -1.291, 1.075, -1.064], a = 0.2, v = 0.2, t = 0.2)
movej(p[0.520894496177418, 0.0740064914661853, 0.3923224283469, -1.291, 1.075, -1.064], a = 0.2, v = 0.2, t = 0.2)
movej(p[0.520892675211697, 0.0740086391984618, 0.391899737725606, -1.291, 1.075, -1.064], a = 0.2, v = 0.2, t = 0.2)
movej(p[0.52089237667154, 0.0740089913107087, 0.391830439263208, -1.291, 1.075, -1.064], a = 0.2, v = 0.2, t = 0.2)
movej(p[0.520893123668124, 0.0740081102679438, 0.392003835415875, -1.291, 1.075, -1.064], a = 0.2, v = 0.2, t = 0.2)
movej(p[0.520896143016254, 0.0740045491073145, 0.392704699865018, -1.291, 1.075, -1.064], a = 0.2, v = 0.2, t = 0.2)
movej(p[0.520898328088961, 0.0740019719302023, 0.393211908611014, -1.291, 1.075, -1.064], a = 0.2, v = 0.2, t = 0.2)
movej(p[0.520899463273908, 0.0740006330398967, 0.393475412764355, -1.291, 1.075, -1.064], a = 0.2, v = 0.2, t = 0.2)
movej(p[0.520900159234341, 0.0739998121915587, 0.393636962179879, -1.291, 1.075, -1.064], a = 0.2, v = 0.2, t = 0.2)
movej(p[0.520902169004095, 0.0739974417749611, 0.394103478828756, -1.291, 1.075, -1.064], a = 0.2, v = 0.2, t = 0.2)
movej(p[0.520902829540348, 0.0739966627075612, 0.394256805426729, -1.291, 1.075, -1.064], a = 0.2, v = 0.2, t = 0.2)
movej(p[0.52090079089448, 0.0739990671819999, 0.393783585926575, -1.291, 1.075, -1.064], a = 0.2, v = 0.2, t = 0.2)
movej(p[0.520897563171351, 0.0740028741098641, 0.393034352550648, -1.291, 1.075, -1.064], a = 0.2, v = 0.2, t = 0.2)
movej(p[0.520895316408962, 0.0740055240466786, 0.392512824122378, -1.291, 1.075, -1.064], a = 0.2, v = 0.2, t = 0.2)
movej(p[0.520894217022986, 0.0740068207140006, 0.392257629784658, -1.291, 1.075, -1.064], a = 0.2, v = 0.2, t = 0.2)
movej(p[0.520894277764922, 0.0740067490721148, 0.392271729471813, -1.291, 1.075, -1.064], a = 0.2, v = 0.2, t = 0.2)
movej(p[0.52089570916374, 0.0740050608132941, 0.392603992099533, -1.291, 1.075, -1.064], a = 0.2, v = 0.2, t = 0.2)
movej(p[0.520898351998021, 0.0740019437307367, 0.393217458487873, -1.291, 1.075, -1.064], a = 0.2, v = 0.2, t = 0.2)
movej(p[0.520899732412383, 0.0740003156053711, 0.393537886378184, -1.291, 1.075, -1.064], a = 0.2, v = 0.2, t = 0.2)
movej(p[0.520900242468026, 0.0739997140218513, 0.393656282751192, -1.291, 1.075, -1.064], a = 0.2, v = 0.2, t = 0.2)
movej(p[0.520901419810462, 0.0739983254090284, 0.393929572687405, -1.291, 1.075, -1.064], a = 0.2, v = 0.2, t = 0.2)
movej(p[0.52090332189467, 0.073996082001808, 0.394371092890906, -1.291, 1.075, -1.064], a = 0.2, v = 0.2, t = 0.2)
movej(p[0.520903269208579, 0.0739961441422521, 0.394358863162261, -1.291, 1.075, -1.064], a = 0.2, v = 0.2, t = 0.2)
movej(p[0.520901192351295, 0.073998593685026, 0.393876773858911, -1.291, 1.075, -1.064], a = 0.2, v = 0.2, t = 0.2)
movej(p[0.520898761510681, 0.0740014607323212, 0.393312516378718, -1.291, 1.075, -1.064], a = 0.2, v = 0.2, t = 0.2)
movej(p[0.520897249854964, 0.0740032436498889, 0.392961624164353, -1.291, 1.075, -1.064], a = 0.2, v = 0.2, t = 0.2)
movej(p[0.520896072322979, 0.0740046324862751, 0.392688290229117, -1.291, 1.075, -1.064], a = 0.2, v = 0.2, t = 0.2)
movej(p[0.520895823539514, 0.0740049259131475, 0.392630541510452, -1.291, 1.075, -1.064], a = 0.2, v = 0.2, t = 0.2)
movej(p[0.520898253346223, 0.0740020600852887, 0.39319455899597, -1.291, 1.075, -1.064], a = 0.2, v = 0.2, t = 0.2)
movej(p[0.520900349128282, 0.0739995882217485, 0.393681041201849, -1.291, 1.075, -1.064], a = 0.2, v = 0.2, t = 0.2)
movej(p[0.52090194068334, 0.0739977110671557, 0.3940504800047, -1.291, 1.075, -1.064], a = 0.2, v = 0.2, t = 0.2)
movej(p[0.520902209154084, 0.0739973944201828, 0.394112798621968, -1.291, 1.075, -1.064], a = 0.2, v = 0.2, t = 0.2)
movej(p[0.520903687983308, 0.0739956502197194, 0.394456071005402, -1.291, 1.075, -1.064], a = 0.2, v = 0.2, t = 0.2)
movej(p[0.52090489597242, 0.0739942254607705, 0.394736474783773, -1.291, 1.075, -1.064], a = 0.2, v = 0.2, t = 0.2)
movej(p[0.520904883048604, 0.0739942407037249, 0.394733474850335, -1.291, 1.075, -1.064], a = 0.2, v = 0.2, t = 0.2)
movej(p[0.520903796543365, 0.0739955221789023, 0.394481270446274, -1.291, 1.075, -1.064], a = 0.2, v = 0.2, t = 0.2)
movej(p[0.520903320300733, 0.0739960838817724, 0.394370722899116, -1.291, 1.075, -1.064], a = 0.2, v = 0.2, t = 0.2)
movej(p[0.520902085947035, 0.0739975397363482, 0.394084199256534, -1.291, 1.075, -1.064], a = 0.2, v = 0.2, t = 0.2)
movej(p[0.52090056925103, 0.073999328598668, 0.393732137068128, -1.291, 1.075, -1.064], a = 0.2, v = 0.2, t = 0.2)
movej(p[0.52089957949348, 0.0740004959650887, 0.393502390165778, -1.291, 1.075, -1.064], a = 0.2, v = 0.2, t = 0.2)
movej(p[0.520900518072717, 0.0739993889607675, 0.393720257331717, -1.291, 1.075, -1.064], a = 0.2, v = 0.2, t = 0.2)
movej(p[0.520901806620285, 0.0739978691874029, 0.394019360695179, -1.291, 1.075, -1.064], a = 0.2, v = 0.2, t = 0.2)
movej(p[0.520902355667082, 0.0739972216158896, 0.394146807867367, -1.291, 1.075, -1.064], a = 0.2, v = 0.2, t = 0.2)
movej(p[0.520902924918112, 0.0739965502145576, 0.394278944935495, -1.291, 1.075, -1.064], a = 0.2, v = 0.2, t = 0.2)
movej(p[0.520904630603392, 0.0739945384494344, 0.39467487615053, -1.291, 1.075, -1.064], a = 0.2, v = 0.2, t = 0.2)
movej(p[0.520905642107416, 0.0739933454342025, 0.394909670940877, -1.291, 1.075, -1.064], a = 0.2, v = 0.2, t = 0.2)
movej(p[0.520905793746861, 0.0739931665835374, 0.394944870159873, -1.291, 1.075, -1.064], a = 0.2, v = 0.2, t = 0.2)
movej(p[0.520905263870392, 0.0739937915446683, 0.39482187288895, -1.291, 1.075, -1.064], a = 0.2, v = 0.2, t = 0.2)
movej(p[0.52090533925932, 0.0739937026274342, 0.394839372500667, -1.291, 1.075, -1.064], a = 0.2, v = 0.2, t = 0.2)
movej(p[0.520904298245915, 0.0739949304474121, 0.394597727862304, -1.291, 1.075, -1.064], a = 0.2, v = 0.2, t = 0.2)
movej(p[0.520902261107826, 0.0739973331435061, 0.394124858354385, -1.291, 1.075, -1.064], a = 0.2, v = 0.2, t = 0.2)
movej(p[0.520901221645278, 0.0739985591343293, 0.393883573708035, -1.291, 1.075, -1.064], a = 0.2, v = 0.2, t = 0.2)
movej(p[0.520902176973782, 0.0739974323751393, 0.394105328787709, -1.291, 1.075, -1.064], a = 0.2, v = 0.2, t = 0.2)
movej(p[0.520903367343424, 0.0739960283974183, 0.394381642656827, -1.291, 1.075, -1.064], a = 0.2, v = 0.2, t = 0.2)
movej(p[0.520903917251809, 0.0739953798097081, 0.394509289824577, -1.291, 1.075, -1.064], a = 0.2, v = 0.2, t = 0.2)
movej(p[0.520904685745008, 0.073994473412829, 0.394687675866528, -1.291, 1.075, -1.064], a = 0.2, v = 0.2, t = 0.2)
movej(p[0.520906190508023, 0.073992698624837, 0.395036968116393, -1.291, 1.075, -1.064], a = 0.2, v = 0.2, t = 0.2)
movej(p[0.52090667902828, 0.0739921224411603, 0.395150365600318, -1.291, 1.075, -1.064], a = 0.2, v = 0.2, t = 0.2)
movej(p[0.520906148290223, 0.0739927484184881, 0.395027168333832, -1.291, 1.075, -1.064], a = 0.2, v = 0.2, t = 0.2)
movej(p[0.520905595581678, 0.0739934003088384, 0.394898871180503, -1.291, 1.075, -1.064], a = 0.2, v = 0.2, t = 0.2)
movej(p[0.520905881198019, 0.0739930634395459, 0.394965169709464, -1.291, 1.075, -1.064], a = 0.2, v = 0.2, t = 0.2)
movej(p[0.520905048904247, 0.07399404508581, 0.394771973996112, -1.291, 1.075, -1.064], a = 0.2, v = 0.2, t = 0.2)
movej(p[0.520902437560998, 0.0739971250263685, 0.39416581744558, -1.291, 1.075, -1.064], a = 0.2, v = 0.2, t = 0.2)
movej(p[0.52090051932202, 0.0739993874872819, 0.393720547325283, -1.291, 1.075, -1.064], a = 0.2, v = 0.2, t = 0.2)
movej(p[0.520900141231465, 0.0739998334249942, 0.393632783272601, -1.291, 1.075, -1.064], a = 0.2, v = 0.2, t = 0.2)
movej(p[0.520901179858272, 0.0739986084198819, 0.393873873923255, -1.291, 1.075, -1.064], a = 0.2, v = 0.2, t = 0.2)
movej(p[0.520902041747583, 0.0739975918672523, 0.394073939484179, -1.291, 1.075, -1.064], a = 0.2, v = 0.2, t = 0.2)
movej(p[0.520903266968451, 0.0739961467843642, 0.394358343173798, -1.291, 1.075, -1.064], a = 0.2, v = 0.2, t = 0.2)
movej(p[0.520905091552841, 0.0739939947840604, 0.394781873776455, -1.291, 1.075, -1.064], a = 0.2, v = 0.2, t = 0.2)
movej(p[0.520906237464555, 0.0739926432421026, 0.395047867874548, -1.291, 1.075, -1.064], a = 0.2, v = 0.2, t = 0.2)
movej(p[0.520906230141059, 0.0739926518797768, 0.395046167912267, -1.291, 1.075, -1.064], a = 0.2, v = 0.2, t = 0.2)
movej(p[0.52090575799097, 0.0739932087557113, 0.39493657034403, -1.291, 1.075, -1.064], a = 0.2, v = 0.2, t = 0.2)
movej(p[0.520905083798551, 0.0739940039298331, 0.394780073816392, -1.291, 1.075, -1.064], a = 0.2, v = 0.2, t = 0.2)
movej(p[0.520902760311771, 0.073996744358987, 0.394240735783284, -1.291, 1.075, -1.064], a = 0.2, v = 0.2, t = 0.2)
movej(p[0.520898083699594, 0.0740022601744702, 0.393155179869718, -1.291, 1.075, -1.064], a = 0.2, v = 0.2, t = 0.2)
movej(p[0.520893687146516, 0.0740074456751314, 0.392134632513735, -1.291, 1.075, -1.064], a = 0.2, v = 0.2, t = 0.2)
movej(p[0.520889067312972, 0.074012894523235, 0.391062256307736, -1.291, 1.075, -1.064], a = 0.2, v = 0.2, t = 0.2)
movej(p[0.520884251468213, 0.0740185745561471, 0.389944381111274, -1.291, 1.075, -1.064], a = 0.2, v = 0.2, t = 0.2)
movej(p[0.520878767892943, 0.0740250421417038, 0.388671509353893, -1.291, 1.075, -1.064], a = 0.2, v = 0.2, t = 0.2)
movej(p[0.520875371083218, 0.0740290484982215, 0.387883026848829, -1.291, 1.075, -1.064], a = 0.2, v = 0.2, t = 0.2)
movej(p[0.520876999914869, 0.0740271273778672, 0.388261118459691, -1.291, 1.075, -1.064], a = 0.2, v = 0.2, t = 0.2)
movej(p[0.520881254865999, 0.0740221088891766, 0.389248796544981, -1.291, 1.075, -1.064], a = 0.2, v = 0.2, t = 0.2)
movej(p[0.52088587986907, 0.0740166539438913, 0.390322372724354, -1.291, 1.075, -1.064], a = 0.2, v = 0.2, t = 0.2)
movej(p[0.520890591030917, 0.0740110973789099, 0.391415948459976, -1.291, 1.075, -1.064], a = 0.2, v = 0.2, t = 0.2)
movej(p[0.520894263979518, 0.0740067653312662, 0.392268529542813, -1.291, 1.075, -1.064], a = 0.2, v = 0.2, t = 0.2)
movej(p[0.520896079215681, 0.0740046243566994, 0.392689890193617, -1.291, 1.075, -1.064], a = 0.2, v = 0.2, t = 0.2)
movej(p[0.520894522455845, 0.074006460472178, 0.392328528211556, -1.291, 1.075, -1.064], a = 0.2, v = 0.2, t = 0.2)
movej(p[0.520891058873068, 0.0740105455839602, 0.3915245460504, -1.291, 1.075, -1.064], a = 0.2, v = 0.2, t = 0.2)
movej(p[0.520886550184344, 0.0740158633426558, 0.390477969271961, -1.291, 1.075, -1.064], a = 0.2, v = 0.2, t = 0.2)
movej(p[0.520881086425593, 0.0740223075556824, 0.389209697412517, -1.291, 1.075, -1.064], a = 0.2, v = 0.2, t = 0.2)
movej(p[0.520874693013654, 0.0740298482452297, 0.38772563034116, -1.291, 1.075, -1.064], a = 0.2, v = 0.2, t = 0.2)
movej(p[0.520869826766012, 0.074035587725664, 0.386596055404293, -1.291, 1.075, -1.064], a = 0.2, v = 0.2, t = 0.2)
movej(p[0.520865648926986, 0.0740405152647266, 0.385626276921845, -1.291, 1.075, -1.064], a = 0.2, v = 0.2, t = 0.2)
movej(p[0.520862260302344, 0.0740445119673733, 0.384839694374625, -1.291, 1.075, -1.064], a = 0.2, v = 0.2, t = 0.2)
movej(p[0.52085917926453, 0.0740481458877049, 0.384124510243209, -1.291, 1.075, -1.064], a = 0.2, v = 0.2, t = 0.2)
movej(p[0.5208587592405, 0.0740486412837233, 0.384027012406502, -1.291, 1.075, -1.064], a = 0.2, v = 0.2, t = 0.2)
movej(p[0.520861073896004, 0.0740459112705882, 0.384564300485095, -1.291, 1.075, -1.064], a = 0.2, v = 0.2, t = 0.2)
movej(p[0.520865098803204, 0.0740411641064861, 0.385498579755203, -1.291, 1.075, -1.064], a = 0.2, v = 0.2, t = 0.2)
movej(p[0.520870724540453, 0.0740345288484309, 0.386804450780393, -1.291, 1.075, -1.064], a = 0.2, v = 0.2, t = 0.2)
movej(p[0.520878072591625, 0.0740258622126511, 0.388510112934974, -1.291, 1.075, -1.064], a = 0.2, v = 0.2, t = 0.2)
movej(p[0.520883324830582, 0.0740196674759784, 0.389729285883831, -1.291, 1.075, -1.064], a = 0.2, v = 0.2, t = 0.2)
movej(p[0.520886563969748, 0.0740158470835044, 0.390481169200961, -1.291, 1.075, -1.064], a = 0.2, v = 0.2, t = 0.2)
movej(p[0.520887187759283, 0.0740151113569048, 0.390625965988194, -1.291, 1.075, -1.064], a = 0.2, v = 0.2, t = 0.2)
movej(p[0.520886759550169, 0.0740156164067943, 0.390526568193643, -1.291, 1.075, -1.064], a = 0.2, v = 0.2, t = 0.2)
movej(p[0.520883143897153, 0.0740198808773401, 0.38968728681571, -1.291, 1.075, -1.064], a = 0.2, v = 0.2, t = 0.2)
movej(p[0.520875997026722, 0.0740283102311295, 0.388028323624968, -1.291, 1.075, -1.064], a = 0.2, v = 0.2, t = 0.2)
movej(p[0.520868749350524, 0.0740368584799634, 0.386345960953416, -1.291, 1.075, -1.064], a = 0.2, v = 0.2, t = 0.2)
movej(p[0.520863591024632, 0.0740429424511674, 0.38514858752087, -1.291, 1.075, -1.064], a = 0.2, v = 0.2, t = 0.2)
movej(p[0.520859429986567, 0.0740478501743893, 0.38418270895189, -1.291, 1.075, -1.064], a = 0.2, v = 0.2, t = 0.2)
movej(p[0.520855959941882, 0.0740519429076488, 0.383377226824016, -1.291, 1.075, -1.064], a = 0.2, v = 0.2, t = 0.2)
movej(p[0.52085434877278, 0.0740538431959654, 0.383003235122185, -1.291, 1.075, -1.064], a = 0.2, v = 0.2, t = 0.2)
movej(p[0.520856373504005, 0.0740514551331076, 0.383473224694004, -1.291, 1.075, -1.064], a = 0.2, v = 0.2, t = 0.2)
movej(p[0.520859625997781, 0.0740476189895808, 0.384228207942353, -1.291, 1.075, -1.064], a = 0.2, v = 0.2, t = 0.2)
movej(p[0.52086303530053, 0.0740435978982071, 0.385019590383072, -1.291, 1.075, -1.064], a = 0.2, v = 0.2, t = 0.2)
movej(p[0.520867917487546, 0.074037839618129, 0.386152865237845, -1.291, 1.075, -1.064], a = 0.2, v = 0.2, t = 0.2)
movej(p[0.520874094210164, 0.0740305545021174, 0.387586633425239, -1.291, 1.075, -1.064], a = 0.2, v = 0.2, t = 0.2)
movej(p[0.520879511443176, 0.0740241651637266, 0.38884410552431, -1.291, 1.075, -1.064], a = 0.2, v = 0.2, t = 0.2)
movej(p[0.52088307583172, 0.0740199611569, 0.389671487166275, -1.291, 1.075, -1.064], a = 0.2, v = 0.2, t = 0.2)
movej(p[0.520886752657467, 0.07401562453637, 0.390524968229143, -1.291, 1.075, -1.064], a = 0.2, v = 0.2, t = 0.2)
movej(p[0.5208889949396, 0.0740129798837797, 0.391045456680488, -1.291, 1.075, -1.064], a = 0.2, v = 0.2, t = 0.2)
movej(p[0.520888187631873, 0.0740139320603319, 0.390858060838448, -1.291, 1.075, -1.064], a = 0.2, v = 0.2, t = 0.2)
movej(p[0.520883664296157, 0.0740192670943758, 0.389808084135446, -1.291, 1.075, -1.064], a = 0.2, v = 0.2, t = 0.2)
movej(p[0.520878977258768, 0.0740247952058423, 0.388720108275574, -1.291, 1.075, -1.064], a = 0.2, v = 0.2, t = 0.2)
movej(p[0.520874048546013, 0.0740306083605563, 0.387576033660428, -1.291, 1.075, -1.064], a = 0.2, v = 0.2, t = 0.2)
movej(p[0.520870160631267, 0.0740351939493417, 0.386673553684753, -1.291, 1.075, -1.064], a = 0.2, v = 0.2, t = 0.2)
movej(p[0.520867936011682, 0.0740378177698943, 0.386157165142438, -1.291, 1.075, -1.064], a = 0.2, v = 0.2, t = 0.2)
movej(p[0.52086847795038, 0.074037178582006, 0.386282962351236, -1.291, 1.075, -1.064], a = 0.2, v = 0.2, t = 0.2)
movej(p[0.520869019889079, 0.0740365393941177, 0.386408759560034, -1.291, 1.075, -1.064], a = 0.2, v = 0.2, t = 0.2)
movej(p[0.520869082784985, 0.0740364652117396, 0.386423359236095, -1.291, 1.075, -1.064], a = 0.2, v = 0.2, t = 0.2)
movej(p[0.52086964324782, 0.0740358041756166, 0.386553456349486, -1.291, 1.075, -1.064], a = 0.2, v = 0.2, t = 0.2)
movej(p[0.520870517759391, 0.0740347727357014, 0.386756451845399, -1.291, 1.075, -1.064], a = 0.2, v = 0.2, t = 0.2)
movej(p[0.52086988880033, 0.0740355145594828, 0.386610455084791, -1.291, 1.075, -1.064], a = 0.2, v = 0.2, t = 0.2)
movej(p[0.52086890443632, 0.0740366755645104, 0.386381960154662, -1.291, 1.075, -1.064], a = 0.2, v = 0.2, t = 0.2)
movej(p[0.520869917232726, 0.0740354810249831, 0.386617054938353, -1.291, 1.075, -1.064], a = 0.2, v = 0.2, t = 0.2)
movej(p[0.520872741948182, 0.0740321494232473, 0.387272740389932, -1.291, 1.075, -1.064], a = 0.2, v = 0.2, t = 0.2)
movej(p[0.520876695774392, 0.0740274860953944, 0.388190520026137, -1.291, 1.075, -1.064], a = 0.2, v = 0.2, t = 0.2)
movej(p[0.520880332967101, 0.0740231962199246, 0.389034801293131, -1.291, 1.075, -1.064], a = 0.2, v = 0.2, t = 0.2)
movej(p[0.52088451339089, 0.074018265632271, 0.390005179762267, -1.291, 1.075, -1.064], a = 0.2, v = 0.2, t = 0.2)
movej(p[0.520886898696591, 0.0740154522909852, 0.390558867476983, -1.291, 1.075, -1.064], a = 0.2, v = 0.2, t = 0.2)
movej(p[0.520888155322332, 0.0740139701677179, 0.390850561004855, -1.291, 1.075, -1.064], a = 0.2, v = 0.2, t = 0.2)
movej(p[0.520888560699371, 0.0740134920470479, 0.390944658917, -1.291, 1.075, -1.064], a = 0.2, v = 0.2, t = 0.2)
movej(p[0.520888024791788, 0.0740141241215575, 0.39082026167714, -1.291, 1.075, -1.064], a = 0.2, v = 0.2, t = 0.2)
movej(p[0.520884718448776, 0.0740180237773943, 0.390052778706136, -1.291, 1.075, -1.064], a = 0.2, v = 0.2, t = 0.2)
movej(p[0.520878693365603, 0.0740251300427409, 0.388654209737738, -1.291, 1.075, -1.064], a = 0.2, v = 0.2, t = 0.2)
movej(p[0.52087313827855, 0.0740316819726453, 0.387364738348671, -1.291, 1.075, -1.064], a = 0.2, v = 0.2, t = 0.2)
movej(p[0.52086805577238, 0.0740376765185168, 0.386184964525623, -1.291, 1.075, -1.064], a = 0.2, v = 0.2, t = 0.2)
movej(p[0.520866006916698, 0.0740400930348895, 0.385709375078054, -1.291, 1.075, -1.064], a = 0.2, v = 0.2, t = 0.2)
movej(p[0.520867730092209, 0.0740380606409679, 0.386109366203007, -1.291, 1.075, -1.064], a = 0.2, v = 0.2, t = 0.2)
movej(p[0.520873526854627, 0.074031223667816, 0.387454936347348, -1.291, 1.075, -1.064], a = 0.2, v = 0.2, t = 0.2)
movej(p[0.520878565850615, 0.0740252804398911, 0.388624610394492, -1.291, 1.075, -1.064], a = 0.2, v = 0.2, t = 0.2)
movej(p[0.520882368898967, 0.0740207949465063, 0.389507390807263, -1.291, 1.075, -1.064], a = 0.2, v = 0.2, t = 0.2)
movej(p[0.520885263403031, 0.0740173810328167, 0.390179275899403, -1.291, 1.075, -1.064], a = 0.2, v = 0.2, t = 0.2)
movej(p[0.520888359518631, 0.0740137293290382, 0.390897959953162, -1.291, 1.075, -1.064], a = 0.2, v = 0.2, t = 0.2)
movej(p[0.520889964225825, 0.0740118366621988, 0.391270451688274, -1.291, 1.075, -1.064], a = 0.2, v = 0.2, t = 0.2)
movej(p[0.520891051980366, 0.0740105537135359, 0.391522946085901, -1.291, 1.075, -1.064], a = 0.2, v = 0.2, t = 0.2)
movej(p[0.520892683396781, 0.0740086295445907, 0.39190163768345, -1.291, 1.075, -1.064], a = 0.2, v = 0.2, t = 0.2)
movej(p[0.520893644497922, 0.074007495976881, 0.392124732733392, -1.291, 1.075, -1.064], a = 0.2, v = 0.2, t = 0.2)
movej(p[0.520891528438395, 0.0740099917566166, 0.39163354363195, -1.291, 1.075, -1.064], a = 0.2, v = 0.2, t = 0.2)
movej(p[0.520887130032904, 0.0740151794421012, 0.390612566285508, -1.291, 1.075, -1.064], a = 0.2, v = 0.2, t = 0.2)
movej(p[0.520882849664935, 0.0740202279086022, 0.389618988331125, -1.291, 1.075, -1.064], a = 0.2, v = 0.2, t = 0.2)
movej(p[0.52087918964015, 0.0740245447132915, 0.388769407181725, -1.291, 1.075, -1.064], a = 0.2, v = 0.2, t = 0.2)
movej(p[0.520878467198817, 0.0740253967944431, 0.388601710902588, -1.291, 1.075, -1.064], a = 0.2, v = 0.2, t = 0.2)
movej(p[0.520880333397895, 0.0740231957118261, 0.389034901290912, -1.291, 1.075, -1.064], a = 0.2, v = 0.2, t = 0.2)
movej(p[0.520885218169674, 0.0740174343831571, 0.390168776132373, -1.291, 1.075, -1.064], a = 0.2, v = 0.2, t = 0.2)
movej(p[0.520888005836857, 0.0740141464778906, 0.390815861774765, -1.291, 1.075, -1.064], a = 0.2, v = 0.2, t = 0.2)
movej(p[0.520889909084209, 0.0740119016988043, 0.391257651972276, -1.291, 1.075, -1.064], a = 0.2, v = 0.2, t = 0.2)
movej(p[0.520891237652528, 0.0740103347230908, 0.391566045129614, -1.291, 1.075, -1.064], a = 0.2, v = 0.2, t = 0.2)
movej(p[0.520894296719853, 0.0740067267157817, 0.392276129374187, -1.291, 1.075, -1.064], a = 0.2, v = 0.2, t = 0.2)
movej(p[0.520895525774786, 0.0740052771108172, 0.39256142304406, -1.291, 1.075, -1.064], a = 0.2, v = 0.2, t = 0.2)
movej(p[0.520894410449437, 0.0740065925777829, 0.392302528788434, -1.291, 1.075, -1.064], a = 0.2, v = 0.2, t = 0.2)
movej(p[0.520891937692579, 0.0740095090630602, 0.391728541524127, -1.291, 1.075, -1.064], a = 0.2, v = 0.2, t = 0.2)
movej(p[0.520889971118527, 0.0740118285326231, 0.391272051652774, -1.291, 1.075, -1.064], a = 0.2, v = 0.2, t = 0.2)
movej(p[0.520887241177724, 0.0740150483526933, 0.390638365713067, -1.291, 1.075, -1.064], a = 0.2, v = 0.2, t = 0.2)
movej(p[0.520883941296621, 0.074018940387053, 0.389872382708782, -1.291, 1.075, -1.064], a = 0.2, v = 0.2, t = 0.2)
movej(p[0.520883261073088, 0.0740197426745535, 0.389714486212207, -1.291, 1.075, -1.064], a = 0.2, v = 0.2, t = 0.2)
movej(p[0.520885181121401, 0.0740174780796264, 0.390160176323186, -1.291, 1.075, -1.064], a = 0.2, v = 0.2, t = 0.2)
movej(p[0.520887990759071, 0.0740141642613374, 0.390812361852422, -1.291, 1.075, -1.064], a = 0.2, v = 0.2, t = 0.2)
movej(p[0.520889852650211, 0.0740119682597052, 0.391244552262933, -1.291, 1.075, -1.064], a = 0.2, v = 0.2, t = 0.2)
movej(p[0.520892506771291, 0.0740088378649676, 0.391860638593142, -1.291, 1.075, -1.064], a = 0.2, v = 0.2, t = 0.2)
movej(p[0.520894702527686, 0.0740062480870132, 0.392370327284113, -1.291, 1.075, -1.064], a = 0.2, v = 0.2, t = 0.2)
movej(p[0.520896017612156, 0.0740046970147821, 0.392675590510899, -1.291, 1.075, -1.064], a = 0.2, v = 0.2, t = 0.2)
movej(p[0.520895834567838, 0.0740049129058264, 0.392633101453651, -1.291, 1.075, -1.064], a = 0.2, v = 0.2, t = 0.2)
movej(p[0.520896385423969, 0.0740042632002996, 0.392760968616521, -1.291, 1.075, -1.064], a = 0.2, v = 0.2, t = 0.2)
movej(p[0.520895709422216, 0.074005060508435, 0.392604052098202, -1.291, 1.075, -1.064], a = 0.2, v = 0.2, t = 0.2)
movej(p[0.520892539080832, 0.0740087997575816, 0.391868138426735, -1.291, 1.075, -1.064], a = 0.2, v = 0.2, t = 0.2)
movej(p[0.520887570304247, 0.0740146601654543, 0.390714764017933, -1.291, 1.075, -1.064], a = 0.2, v = 0.2, t = 0.2)
movej(p[0.520882669593094, 0.074020440293767, 0.389577189258567, -1.291, 1.075, -1.064], a = 0.2, v = 0.2, t = 0.2)
movej(p[0.520877403568733, 0.0740266512895911, 0.388354816380711, -1.291, 1.075, -1.064], a = 0.2, v = 0.2, t = 0.2)
movej(p[0.520871999259537, 0.0740330253850274, 0.387100344215077, -1.291, 1.075, -1.064], a = 0.2, v = 0.2, t = 0.2)
movej(p[0.520869363231799, 0.0740361344396289, 0.386488457791681, -1.291, 1.075, -1.064], a = 0.2, v = 0.2, t = 0.2)
movej(p[0.520872268074917, 0.0740327083315757, 0.38716274283057, -1.291, 1.075, -1.064], a = 0.2, v = 0.2, t = 0.2)
movej(p[0.52087727993089, 0.074026797113855, 0.388326117017496, -1.291, 1.075, -1.064], a = 0.2, v = 0.2, t = 0.2)
movej(p[0.520882074235955, 0.0740211424858669, 0.389438992324896, -1.291, 1.075, -1.064], a = 0.2, v = 0.2, t = 0.2)
movej(p[0.520884988125744, 0.0740177057077456, 0.390115377317191, -1.291, 1.075, -1.064], a = 0.2, v = 0.2, t = 0.2)
movej(p[0.520888836407453, 0.0740131668640204, 0.391008657496992, -1.291, 1.075, -1.064], a = 0.2, v = 0.2, t = 0.2)
movej(p[0.520890983053346, 0.0740106350092927, 0.391506946440903, -1.291, 1.075, -1.064], a = 0.2, v = 0.2, t = 0.2)
movej(p[0.520892457229995, 0.0740088962962929, 0.3918491388483, -1.291, 1.075, -1.064], a = 0.2, v = 0.2, t = 0.2)
movej(p[0.520893114190659, 0.0740081214461103, 0.392001635464688, -1.291, 1.075, -1.064], a = 0.2, v = 0.2, t = 0.2)
movej(p[0.52089388315773, 0.0740072144903228, 0.392180131504198, -1.291, 1.075, -1.064], a = 0.2, v = 0.2, t = 0.2)
movej(p[0.520892457660789, 0.0740088957881944, 0.391849238846081, -1.291, 1.075, -1.064], a = 0.2, v = 0.2, t = 0.2)
movej(p[0.520888007129239, 0.0740141449535952, 0.390816161768109, -1.291, 1.075, -1.064], a = 0.2, v = 0.2, t = 0.2)
movej(p[0.520882270677963, 0.0740209107929598, 0.389484591313141, -1.291, 1.075, -1.064], a = 0.2, v = 0.2, t = 0.2)
movej(p[0.520876994314549, 0.0740271339831475, 0.388259818488535, -1.291, 1.075, -1.064], a = 0.2, v = 0.2, t = 0.2)
movej(p[0.520871518924363, 0.0740335919148331, 0.386988846688997, -1.291, 1.075, -1.064], a = 0.2, v = 0.2, t = 0.2)
movej(p[0.52086628262478, 0.074039767851862, 0.385773373658046, -1.291, 1.075, -1.064], a = 0.2, v = 0.2, t = 0.2)
movej(p[0.520863963661336, 0.0740425029459819, 0.385235085601641, -1.291, 1.075, -1.064], a = 0.2, v = 0.2, t = 0.2)
movej(p[0.520866344228304, 0.0740396951937793, 0.385787673340763, -1.291, 1.075, -1.064], a = 0.2, v = 0.2, t = 0.2)
movej(p[0.520871552526286, 0.0740335522831516, 0.386996646515933, -1.291, 1.075, -1.064], a = 0.2, v = 0.2, t = 0.2)
movej(p[0.520877301470584, 0.074026771708931, 0.388331116906558, -1.291, 1.075, -1.064], a = 0.2, v = 0.2, t = 0.2)
movej(p[0.520882004447347, 0.0740212247978207, 0.389422792684335, -1.291, 1.075, -1.064], a = 0.2, v = 0.2, t = 0.2)
movej(p[0.520886334787405, 0.074016117391896, 0.390427970381342, -1.291, 1.075, -1.064], a = 0.2, v = 0.2, t = 0.2)
movej(p[0.520888795912829, 0.0740132146252776, 0.390999257705556, -1.291, 1.075, -1.064], a = 0.2, v = 0.2, t = 0.2)
movej(p[0.520889752706031, 0.0740120861385527, 0.391221352777686, -1.291, 1.075, -1.064], a = 0.2, v = 0.2, t = 0.2)
movej(p[0.520891700325152, 0.0740097890253229, 0.391673442746664, -1.291, 1.075, -1.064], a = 0.2, v = 0.2, t = 0.2)
movej(p[0.520893514398171, 0.074007649422622, 0.392094533403458, -1.291, 1.075, -1.064], a = 0.2, v = 0.2, t = 0.2)
movej(p[0.520892886731491, 0.074008389722108, 0.391948836636194, -1.291, 1.075, -1.064], a = 0.2, v = 0.2, t = 0.2)
movej(p[0.520889573064984, 0.074012298015619, 0.39117965370291, -1.291, 1.075, -1.064], a = 0.2, v = 0.2, t = 0.2)
movej(p[0.520886049171064, 0.0740164542611885, 0.390361671852381, -1.291, 1.075, -1.064], a = 0.2, v = 0.2, t = 0.2)
movej(p[0.52088318353019, 0.0740198341322799, 0.389696486611584, -1.291, 1.075, -1.064], a = 0.2, v = 0.2, t = 0.2)
movej(p[0.52088094167885, 0.0740224782767718, 0.389176098158021, -1.291, 1.075, -1.064], a = 0.2, v = 0.2, t = 0.2)
movej(p[0.520880150310497, 0.0740234116536802, 0.388992402233886, -1.291, 1.075, -1.064], a = 0.2, v = 0.2, t = 0.2)
movej(p[0.520882694579139, 0.0740204108240552, 0.389582989129879, -1.291, 1.075, -1.064], a = 0.2, v = 0.2, t = 0.2)
movej(p[0.520886189609869, 0.0740162886210839, 0.390394271129065, -1.291, 1.075, -1.064], a = 0.2, v = 0.2, t = 0.2)
movej(p[0.520888737324861, 0.0740132837266709, 0.390985658007308, -1.291, 1.075, -1.064], a = 0.2, v = 0.2, t = 0.2)
movej(p[0.520890682790013, 0.0740109891539336, 0.39143724798738, -1.291, 1.075, -1.064], a = 0.2, v = 0.2, t = 0.2)
movej(p[0.520893590217894, 0.0740075599972895, 0.392112133012956, -1.291, 1.075, -1.064], a = 0.2, v = 0.2, t = 0.2)
movej(p[0.520895545160511, 0.0740052542463856, 0.392565922944215, -1.291, 1.075, -1.064], a = 0.2, v = 0.2, t = 0.2)
movej(p[0.520896329851559, 0.0740043287450036, 0.392748068902741, -1.291, 1.075, -1.064], a = 0.2, v = 0.2, t = 0.2)
movej(p[0.52089615245064, 0.0740045379799578, 0.392706889816427, -1.291, 1.075, -1.064], a = 0.2, v = 0.2, t = 0.2)
movej(p[0.520896435956091, 0.0740042036003478, 0.39277269835626, -1.291, 1.075, -1.064], a = 0.2, v = 0.2, t = 0.2)
movej(p[0.520893949930782, 0.0740071357350584, 0.39219563116029, -1.291, 1.075, -1.064], a = 0.2, v = 0.2, t = 0.2)
movej(p[0.520889953455978, 0.0740118493646608, 0.391267951743743, -1.291, 1.075, -1.064], a = 0.2, v = 0.2, t = 0.2)
movej(p[0.520886034093279, 0.0740164720446353, 0.390358171930038, -1.291, 1.075, -1.064], a = 0.2, v = 0.2, t = 0.2)
movej(p[0.520884209681207, 0.0740186238416997, 0.389934681326494, -1.291, 1.075, -1.064], a = 0.2, v = 0.2, t = 0.2)
movej(p[0.520883541950696, 0.0740194113943443, 0.389779684765575, -1.291, 1.075, -1.064], a = 0.2, v = 0.2, t = 0.2)
movej(p[0.52088459222617, 0.0740181726502491, 0.390023479356233, -1.291, 1.075, -1.064], a = 0.2, v = 0.2, t = 0.2)
movej(p[0.520887749945294, 0.0740144482883879, 0.39075646309271, -1.291, 1.075, -1.064], a = 0.2, v = 0.2, t = 0.2)
movej(p[0.520891117030242, 0.0740104769906653, 0.391538045750868, -1.291, 1.075, -1.064], a = 0.2, v = 0.2, t = 0.2)
movej(p[0.520893282200271, 0.074007923287703, 0.392040634599371, -1.291, 1.075, -1.064], a = 0.2, v = 0.2, t = 0.2)
movej(p[0.520894287242388, 0.0740067378939483, 0.392273929423, -1.291, 1.075, -1.064], a = 0.2, v = 0.2, t = 0.2)
movej(p[0.520896487091324, 0.0740041432890582, 0.392784568092893, -1.291, 1.075, -1.064], a = 0.2, v = 0.2, t = 0.2)
movej(p[0.520897925727479, 0.074002446494183, 0.393118510683338, -1.291, 1.075, -1.064], a = 0.2, v = 0.2, t = 0.2)
movej(p[0.52089783345143, 0.0740025553288775, 0.393097091158597, -1.291, 1.075, -1.064], a = 0.2, v = 0.2, t = 0.2)
movej(p[0.520895915901722, 0.0740048169768334, 0.392651981034749, -1.291, 1.075, -1.064], a = 0.2, v = 0.2, t = 0.2)
movej(p[0.520894402695147, 0.0740066017235555, 0.392300728828372, -1.291, 1.075, -1.064], a = 0.2, v = 0.2, t = 0.2)
movej(p[0.520891628382575, 0.0740098738777691, 0.391656743117197, -1.291, 1.075, -1.064], a = 0.2, v = 0.2, t = 0.2)
movej(p[0.520888524512686, 0.0740135347273202, 0.390936259103376, -1.291, 1.075, -1.064], a = 0.2, v = 0.2, t = 0.2)
movej(p[0.520886638497089, 0.0740157591824673, 0.390498468817115, -1.291, 1.075, -1.064], a = 0.2, v = 0.2, t = 0.2)
movej(p[0.520888099749922, 0.0740140357124219, 0.390837661291075, -1.291, 1.075, -1.064], a = 0.2, v = 0.2, t = 0.2)
movej(p[0.520890634971893, 0.0740110455528649, 0.391426148233662, -1.291, 1.075, -1.064], a = 0.2, v = 0.2, t = 0.2)
movej(p[0.520892285343238, 0.0740090990275866, 0.391809239733586, -1.291, 1.075, -1.064], a = 0.2, v = 0.2, t = 0.2)
movej(p[0.520894381155453, 0.0740066271284795, 0.39229572893931, -1.291, 1.075, -1.064], a = 0.2, v = 0.2, t = 0.2)
movej(p[0.520896454695625, 0.0740041814980639, 0.392777048259744, -1.291, 1.075, -1.064], a = 0.2, v = 0.2, t = 0.2)
movej(p[0.520898086973627, 0.0740022563129218, 0.393155939852855, -1.291, 1.075, -1.064], a = 0.2, v = 0.2, t = 0.2)
movej(p[0.520898469260114, 0.0740018054263303, 0.393244677883926, -1.291, 1.075, -1.064], a = 0.2, v = 0.2, t = 0.2)
movej(p[0.520899797798278, 0.0740002384861837, 0.39355306404142, -1.291, 1.075, -1.064], a = 0.2, v = 0.2, t = 0.2)
movej(p[0.520900611253433, 0.0739992790590662, 0.393741886851799, -1.291, 1.075, -1.064], a = 0.2, v = 0.2, t = 0.2)
movej(p[0.520899219789208, 0.0740009202171578, 0.393418894018399, -1.291, 1.075, -1.064], a = 0.2, v = 0.2, t = 0.2)
movej(p[0.520895348287709, 0.0740054864473911, 0.39252022395819, -1.291, 1.075, -1.064], a = 0.2, v = 0.2, t = 0.2)
movej(p[0.520891739527395, 0.0740097427883612, 0.391682542544757, -1.291, 1.075, -1.064], a = 0.2, v = 0.2, t = 0.2)
movej(p[0.520887910200616, 0.0740142592757533, 0.39079366226733, -1.291, 1.075, -1.064], a = 0.2, v = 0.2, t = 0.2)
movej(p[0.520883191715274, 0.0740198244784088, 0.389698386569428, -1.291, 1.075, -1.064], a = 0.2, v = 0.2, t = 0.2)
movej(p[0.520879008706721, 0.0740247581146532, 0.388727408113605, -1.291, 1.075, -1.064], a = 0.2, v = 0.2, t = 0.2)
