def moving():
set_payload_mass(0)
set_tcp(p[0,0,0,0,0,0])
movej(p[0.404, -0.093, 0.2789, -1.119, 1.017, -1.215], a = 0.2, v = 0.2, t = 0.2)
movej(p[0.403987067813645, -0.093001001044612, 0.278973758176264, -1.119, 1.017, -1.215], a = 0.2, v = 0.2, t = 0.2)
movej(p[0.403942705700218, -0.0930044349925467, 0.27922677560826, -1.119, 1.017, -1.215], a = 0.2, v = 0.2, t = 0.2)
movej(p[0.403938279849821, -0.0930047775853282, 0.279252018258248, -1.119, 1.017, -1.215], a = 0.2, v = 0.2, t = 0.2)
movej(p[0.403940044664142, -0.0930046409759553, 0.279241952714632, -1.119, 1.017, -1.215], a = 0.2, v = 0.2, t = 0.2)
movej(p[0.403950203570849, -0.0930038546032149, 0.279184011821194, -1.119, 1.017, -1.215], a = 0.2, v = 0.2, t = 0.2)
movej(p[0.403973389639241, -0.0930020598340861, 0.279051771063724, -1.119, 1.017, -1.215], a = 0.2, v = 0.2, t = 0.2)
movej(p[0.404056453336402, -0.0929956301040919, 0.278578020790704, -1.119, 1.017, -1.215], a = 0.2, v = 0.2, t = 0.2)
movej(p[0.404211035184193, -0.0929836643527795, 0.277696369779516, -1.119, 1.017, -1.215], a = 0.2, v = 0.2, t = 0.2)
movej(p[0.404375152555158, -0.0929709604831139, 0.276760333316421, -1.119, 1.017, -1.215], a = 0.2, v = 0.2, t = 0.2)
movej(p[0.404540392361846, -0.0929581697288177, 0.275817895088795, -1.119, 1.017, -1.215], a = 0.2, v = 0.2, t = 0.2)
movej(p[0.404686982467289, -0.0929468225960745, 0.274981824641067, -1.119, 1.017, -1.215], a = 0.2, v = 0.2, t = 0.2)
movej(p[0.404777001812284, -0.0929398544487085, 0.274468403125693, -1.119, 1.017, -1.215], a = 0.2, v = 0.2, t = 0.2)
movej(p[0.404745539075553, -0.0929422898917357, 0.274647849509927, -1.119, 1.017, -1.215], a = 0.2, v = 0.2, t = 0.2)
movej(p[0.404591316407193, -0.0929542278399663, 0.275527451956465, -1.119, 1.017, -1.215], a = 0.2, v = 0.2, t = 0.2)
movej(p[0.404401866525369, -0.092968892628908, 0.276607971320587, -1.119, 1.017, -1.215], a = 0.2, v = 0.2, t = 0.2)
movej(p[0.404198532977061, -0.0929846321138946, 0.277767675587521, -1.119, 1.017, -1.215], a = 0.2, v = 0.2, t = 0.2)
movej(p[0.40404052165643, -0.0929968633311703, 0.278668886451568, -1.119, 1.017, -1.215], a = 0.2, v = 0.2, t = 0.2)
movej(p[0.403952280940349, -0.0930036937998142, 0.279172163632378, -1.119, 1.017, -1.215], a = 0.2, v = 0.2, t = 0.2)
movej(p[0.403941818112585, -0.0930045036982391, 0.279231837926674, -1.119, 1.017, -1.215], a = 0.2, v = 0.2, t = 0.2)
movej(p[0.403951215489824, -0.0930037762733788, 0.279178240384248, -1.119, 1.017, -1.215], a = 0.2, v = 0.2, t = 0.2)
movej(p[0.404007899357255, -0.0929993885327043, 0.278854946351006, -1.119, 1.017, -1.215], a = 0.2, v = 0.2, t = 0.2)
movej(p[0.404128503348882, -0.0929900529128258, 0.278167086601035, -1.119, 1.017, -1.215], a = 0.2, v = 0.2, t = 0.2)
movej(p[0.404288621395025, -0.0929776586197821, 0.277253860117407, -1.119, 1.017, -1.215], a = 0.2, v = 0.2, t = 0.2)
movej(p[0.404467278625665, -0.0929638292599798, 0.276234896181466, -1.119, 1.017, -1.215], a = 0.2, v = 0.2, t = 0.2)
movej(p[0.404612780831868, -0.0929525663384938, 0.275405030520898, -1.119, 1.017, -1.215], a = 0.2, v = 0.2, t = 0.2)
movej(p[0.404741895476513, -0.0929425719326132, 0.274668630622481, -1.119, 1.017, -1.215], a = 0.2, v = 0.2, t = 0.2)
movej(p[0.404767245255614, -0.0929406096766505, 0.274524049232769, -1.119, 1.017, -1.215], a = 0.2, v = 0.2, t = 0.2)
movej(p[0.404694045178223, -0.0929462758912457, 0.274941542768865, -1.119, 1.017, -1.215], a = 0.2, v = 0.2, t = 0.2)
movej(p[0.404525593478543, -0.0929593152692537, 0.275902299891918, -1.119, 1.017, -1.215], a = 0.2, v = 0.2, t = 0.2)
movej(p[0.404322346271444, -0.0929750480708072, 0.277061511715426, -1.119, 1.017, -1.215], a = 0.2, v = 0.2, t = 0.2)
movej(p[0.404133074252512, -0.0929896990918767, 0.278141016646091, -1.119, 1.017, -1.215], a = 0.2, v = 0.2, t = 0.2)
movej(p[0.404018877642039, -0.0929985387341837, 0.27879233216946, -1.119, 1.017, -1.215], a = 0.2, v = 0.2, t = 0.2)
movej(p[0.403980003375886, -0.0930015478831095, 0.279014049897334, -1.119, 1.017, -1.215], a = 0.2, v = 0.2, t = 0.2)
movej(p[0.403973771267386, -0.0930020302933118, 0.279049594463783, -1.119, 1.017, -1.215], a = 0.2, v = 0.2, t = 0.2)
movej(p[0.403993669462522, -0.093000490029316, 0.278936105951954, -1.119, 1.017, -1.215], a = 0.2, v = 0.2, t = 0.2)
movej(p[0.404069523668691, -0.0929946183659869, 0.278503474704959, -1.119, 1.017, -1.215], a = 0.2, v = 0.2, t = 0.2)
movej(p[0.404198515708819, -0.0929846334505812, 0.277767774076206, -1.119, 1.017, -1.215], a = 0.2, v = 0.2, t = 0.2)
movej(p[0.404361113474498, -0.0929720472093384, 0.276840404617399, -1.119, 1.017, -1.215], a = 0.2, v = 0.2, t = 0.2)
movej(p[0.404533433260363, -0.0929587084135268, 0.275857586028887, -1.119, 1.017, -1.215], a = 0.2, v = 0.2, t = 0.2)
movej(p[0.404688847437413, -0.0929466782339192, 0.274971187863077, -1.119, 1.017, -1.215], a = 0.2, v = 0.2, t = 0.2)
movej(p[0.404758991035989, -0.0929412486128563, 0.274571126824242, -1.119, 1.017, -1.215], a = 0.2, v = 0.2, t = 0.2)
movej(p[0.404742396255528, -0.0929425331687011, 0.274665774450613, -1.119, 1.017, -1.215], a = 0.2, v = 0.2, t = 0.2)
movej(p[0.404651271743051, -0.092949586864011, 0.275185499241833, -1.119, 1.017, -1.215], a = 0.2, v = 0.2, t = 0.2)
movej(p[0.40447725966948, -0.0929630566551117, 0.276177969721484, -1.119, 1.017, -1.215], a = 0.2, v = 0.2, t = 0.2)
movej(p[0.404268210333105, -0.0929792385833705, 0.277370273743183, -1.119, 1.017, -1.215], a = 0.2, v = 0.2, t = 0.2)
movej(p[0.404090896571684, -0.0929929639489535, 0.278381575259424, -1.119, 1.017, -1.215], a = 0.2, v = 0.2, t = 0.2)
movej(p[0.404014777298001, -0.0929988561304223, 0.278815718307734, -1.119, 1.017, -1.215], a = 0.2, v = 0.2, t = 0.2)
movej(p[0.40397843023905, -0.0930016696552609, 0.279023022216546, -1.119, 1.017, -1.215], a = 0.2, v = 0.2, t = 0.2)
movej(p[0.403972679914499, -0.0930021147719064, 0.279055818948681, -1.119, 1.017, -1.215], a = 0.2, v = 0.2, t = 0.2)
movej(p[0.404013542100659, -0.0929989517436165, 0.278822763203379, -1.119, 1.017, -1.215], a = 0.2, v = 0.2, t = 0.2)
movej(p[0.404114345117353, -0.092991148862188, 0.27824783747394, -1.119, 1.017, -1.215], a = 0.2, v = 0.2, t = 0.2)
movej(p[0.404278985716047, -0.0929784044909177, 0.277308816803687, -1.119, 1.017, -1.215], a = 0.2, v = 0.2, t = 0.2)
movej(p[0.404457867433832, -0.0929645577541894, 0.27628857251484, -1.119, 1.017, -1.215], a = 0.2, v = 0.2, t = 0.2)
movej(p[0.404632069458064, -0.0929510732595359, 0.275295018659653, -1.119, 1.017, -1.215], a = 0.2, v = 0.2, t = 0.2)
movej(p[0.404744313030378, -0.0929423847964859, 0.274654842206568, -1.119, 1.017, -1.215], a = 0.2, v = 0.2, t = 0.2)
movej(p[0.404768643983208, -0.092940501405034, 0.274516071649277, -1.119, 1.017, -1.215], a = 0.2, v = 0.2, t = 0.2)
movej(p[0.404716597502138, -0.092944530178516, 0.274812916546138, -1.119, 1.017, -1.215], a = 0.2, v = 0.2, t = 0.2)
movej(p[0.404549475457083, -0.092957466631654, 0.275766090040438, -1.119, 1.017, -1.215], a = 0.2, v = 0.2, t = 0.2)
movej(p[0.404328355619624, -0.0929745829038624, 0.277027237653015, -1.119, 1.017, -1.215], a = 0.2, v = 0.2, t = 0.2)
movej(p[0.404125393338517, -0.0929902936500866, 0.278184824413219, -1.119, 1.017, -1.215], a = 0.2, v = 0.2, t = 0.2)
movej(p[0.404025999064996, -0.0929979874846203, 0.278751715435729, -1.119, 1.017, -1.215], a = 0.2, v = 0.2, t = 0.2)
movej(p[0.403980733822518, -0.0930014913412654, 0.279009883825955, -1.119, 1.017, -1.215], a = 0.2, v = 0.2, t = 0.2)
movej(p[0.403974163256478, -0.0930019999505254, 0.279047358770632, -1.119, 1.017, -1.215], a = 0.2, v = 0.2, t = 0.2)
movej(p[0.404017105402373, -0.0929986759183318, 0.27880244006321, -1.119, 1.017, -1.215], a = 0.2, v = 0.2, t = 0.2)
movej(p[0.40409925785441, -0.0929923167252906, 0.278333887038103, -1.119, 1.017, -1.215], a = 0.2, v = 0.2, t = 0.2)
movej(p[0.404247868344154, -0.0929808132002125, 0.277486293414219, -1.119, 1.017, -1.215], a = 0.2, v = 0.2, t = 0.2)
movej(p[0.40441956647331, -0.0929675225251193, 0.27650702041837, -1.119, 1.017, -1.215], a = 0.2, v = 0.2, t = 0.2)
movej(p[0.404582129702505, -0.0929549389572498, 0.275579847936933, -1.119, 1.017, -1.215], a = 0.2, v = 0.2, t = 0.2)
movej(p[0.404688122171254, -0.0929467343747574, 0.274975324387851, -1.119, 1.017, -1.215], a = 0.2, v = 0.2, t = 0.2)
movej(p[0.40474761126458, -0.0929421294893409, 0.274636030867716, -1.119, 1.017, -1.215], a = 0.2, v = 0.2, t = 0.2)
movej(p[0.404730170340267, -0.0929434795428302, 0.274735504439657, -1.119, 1.017, -1.215], a = 0.2, v = 0.2, t = 0.2)
movej(p[0.404601694620572, -0.0929534244913059, 0.275468260256726, -1.119, 1.017, -1.215], a = 0.2, v = 0.2, t = 0.2)
movej(p[0.404386687740743, -0.0929700675764497, 0.276694542874781, -1.119, 1.017, -1.215], a = 0.2, v = 0.2, t = 0.2)
movej(p[0.404179900544057, -0.0929860743987609, 0.277873944878733, -1.119, 1.017, -1.215], a = 0.2, v = 0.2, t = 0.2)
movej(p[0.404054191196713, -0.0929958052100395, 0.278590922808451, -1.119, 1.017, -1.215], a = 0.2, v = 0.2, t = 0.2)
movej(p[0.403988778751052, -0.0930008686057014, 0.278963999917345, -1.119, 1.017, -1.215], a = 0.2, v = 0.2, t = 0.2)
movej(p[0.403978713438217, -0.0930016477336003, 0.27902140700211, -1.119, 1.017, -1.215], a = 0.2, v = 0.2, t = 0.2)
movej(p[0.404012121960445, -0.0929990616727243, 0.278830862912841, -1.119, 1.017, -1.215], a = 0.2, v = 0.2, t = 0.2)
movej(p[0.404101716852055, -0.0929921263811155, 0.278319862249346, -1.119, 1.017, -1.215], a = 0.2, v = 0.2, t = 0.2)
movej(p[0.404247125809752, -0.0929808706777373, 0.277490528427678, -1.119, 1.017, -1.215], a = 0.2, v = 0.2, t = 0.2)
movej(p[0.404421621394096, -0.0929673634594112, 0.276495300264844, -1.119, 1.017, -1.215], a = 0.2, v = 0.2, t = 0.2)
movej(p[0.404579263174351, -0.0929551608472292, 0.275596197058658, -1.119, 1.017, -1.215], a = 0.2, v = 0.2, t = 0.2)
movej(p[0.404692180208099, -0.092946420253401, 0.274952179546855, -1.119, 1.017, -1.215], a = 0.2, v = 0.2, t = 0.2)
movej(p[0.404754518561338, -0.0929415948146917, 0.27459663539368, -1.119, 1.017, -1.215], a = 0.2, v = 0.2, t = 0.2)
movej(p[0.404774739672596, -0.0929400295546561, 0.27448130514344, -1.119, 1.017, -1.215], a = 0.2, v = 0.2, t = 0.2)
movej(p[0.404660268497078, -0.0929488904502804, 0.275134186636901, -1.119, 1.017, -1.215], a = 0.2, v = 0.2, t = 0.2)
movej(p[0.404460630352536, -0.0929643438843297, 0.276272814325226, -1.119, 1.017, -1.215], a = 0.2, v = 0.2, t = 0.2)
movej(p[0.404232465072384, -0.0929820055246803, 0.277574145321319, -1.119, 1.017, -1.215], a = 0.2, v = 0.2, t = 0.2)
movej(p[0.404070167774114, -0.0929945685075758, 0.278499801077006, -1.119, 1.017, -1.215], a = 0.2, v = 0.2, t = 0.2)
movej(p[0.403975836549117, -0.0930018704255917, 0.279037815217046, -1.119, 1.017, -1.215], a = 0.2, v = 0.2, t = 0.2)
movej(p[0.403953859257658, -0.0930035716266568, 0.27916316176656, -1.119, 1.017, -1.215], a = 0.2, v = 0.2, t = 0.2)
movej(p[0.403966936497245, -0.0930025593538772, 0.279088576285342, -1.119, 1.017, -1.215], a = 0.2, v = 0.2, t = 0.2)
movej(p[0.404011336255439, -0.0929991224919657, 0.278835344148012, -1.119, 1.017, -1.215], a = 0.2, v = 0.2, t = 0.2)
movej(p[0.40412080689347, -0.0929906486740537, 0.278210983007979, -1.119, 1.017, -1.215], a = 0.2, v = 0.2, t = 0.2)
movej(p[0.40429723824773, -0.0929769916131571, 0.277204714263547, -1.119, 1.017, -1.215], a = 0.2, v = 0.2, t = 0.2)
movej(p[0.404476499866837, -0.0929631154693231, 0.276182303223628, -1.119, 1.017, -1.215], a = 0.2, v = 0.2, t = 0.2)
movej(p[0.404629634635957, -0.0929512617323497, 0.275308905564251, -1.119, 1.017, -1.215], a = 0.2, v = 0.2, t = 0.2)
movej(p[0.404750667743395, -0.0929418928958086, 0.274618598370455, -1.119, 1.017, -1.215], a = 0.2, v = 0.2, t = 0.2)
movej(p[0.404801729934677, -0.0929379403134642, 0.274327367328644, -1.119, 1.017, -1.215], a = 0.2, v = 0.2, t = 0.2)
movej(p[0.404742741620366, -0.0929425064349686, 0.274663804676912, -1.119, 1.017, -1.215], a = 0.2, v = 0.2, t = 0.2)
movej(p[0.404551651255561, -0.0929572982091395, 0.275753680466117, -1.119, 1.017, -1.215], a = 0.2, v = 0.2, t = 0.2)
movej(p[0.404326991428514, -0.0929746885021056, 0.277035018259137, -1.119, 1.017, -1.215], a = 0.2, v = 0.2, t = 0.2)
movej(p[0.404130318241105, -0.0929899124270617, 0.278156735440232, -1.119, 1.017, -1.215], a = 0.2, v = 0.2, t = 0.2)
movej(p[0.403999640406131, -0.0930000278351622, 0.278902050928378, -1.119, 1.017, -1.215], a = 0.2, v = 0.2, t = 0.2)
movej(p[0.403941793937046, -0.0930045055696004, 0.279231975810833, -1.119, 1.017, -1.215], a = 0.2, v = 0.2, t = 0.2)
movej(p[0.40394432200766, -0.0930043098786787, 0.279217557067335, -1.119, 1.017, -1.215], a = 0.2, v = 0.2, t = 0.2)
movej(p[0.403951757712619, -0.0930037343014189, 0.279175147839536, -1.119, 1.017, -1.215], a = 0.2, v = 0.2, t = 0.2)
movej(p[0.403995726110131, -0.0930003308299392, 0.27892437594956, -1.119, 1.017, -1.215], a = 0.2, v = 0.2, t = 0.2)
movej(p[0.404095693689283, -0.0929925926174096, 0.278354215102706, -1.119, 1.017, -1.215], a = 0.2, v = 0.2, t = 0.2)
movej(p[0.4042324305359, -0.0929820081980535, 0.277574342298689, -1.119, 1.017, -1.215], a = 0.2, v = 0.2, t = 0.2)
movej(p[0.404407098802663, -0.0929684876128612, 0.276578129249005, -1.119, 1.017, -1.215], a = 0.2, v = 0.2, t = 0.2)
movej(p[0.40455783328616, -0.0929568196753284, 0.275718421516855, -1.119, 1.017, -1.215], a = 0.2, v = 0.2, t = 0.2)
movej(p[0.404674169431803, -0.0929478144175488, 0.275054903245404, -1.119, 1.017, -1.215], a = 0.2, v = 0.2, t = 0.2)
movej(p[0.404681232142738, -0.09294726771272, 0.275014621373202, -1.119, 1.017, -1.215], a = 0.2, v = 0.2, t = 0.2)
movej(p[0.404593647619849, -0.0929540473872722, 0.275514155983978, -1.119, 1.017, -1.215], a = 0.2, v = 0.2, t = 0.2)
movej(p[0.404429478444158, -0.0929667552669977, 0.276450487913128, -1.119, 1.017, -1.215], a = 0.2, v = 0.2, t = 0.2)
movej(p[0.404230945467097, -0.0929821231531031, 0.277582812325607, -1.119, 1.017, -1.215], a = 0.2, v = 0.2, t = 0.2)
movej(p[0.404078074902078, -0.0929939564387711, 0.278454703108103, -1.119, 1.017, -1.215], a = 0.2, v = 0.2, t = 0.2)
movej(p[0.403988231002419, -0.0930009110054011, 0.278967123978436, -1.119, 1.017, -1.215], a = 0.2, v = 0.2, t = 0.2)
movej(p[0.4039669261363, -0.0930025601558892, 0.279088635378553, -1.119, 1.017, -1.215], a = 0.2, v = 0.2, t = 0.2)
movej(p[0.40395600742695, -0.0930034053428409, 0.279150909774135, -1.119, 1.017, -1.215], a = 0.2, v = 0.2, t = 0.2)
movej(p[0.403966796624485, -0.0930025701810388, 0.279089374043691, -1.119, 1.017, -1.215], a = 0.2, v = 0.2, t = 0.2)
movej(p[0.4040090019345, -0.0929993031852634, 0.278848657848463, -1.119, 1.017, -1.215], a = 0.2, v = 0.2, t = 0.2)
movej(p[0.404095215358982, -0.0929926296436291, 0.278356943239283, -1.119, 1.017, -1.215], a = 0.2, v = 0.2, t = 0.2)
movej(p[0.40422978849489, -0.0929822127111068, 0.277589411067508, -1.119, 1.017, -1.215], a = 0.2, v = 0.2, t = 0.2)
movej(p[0.404401814720643, -0.0929688966389678, 0.276608266786642, -1.119, 1.017, -1.215], a = 0.2, v = 0.2, t = 0.2)
movej(p[0.40454343157242, -0.0929579344719721, 0.27580056108022, -1.119, 1.017, -1.215], a = 0.2, v = 0.2, t = 0.2)
movej(p[0.404628270444847, -0.0929513673305929, 0.275316686170373, -1.119, 1.017, -1.215], a = 0.2, v = 0.2, t = 0.2)
movej(p[0.404657229286504, -0.0929491257071261, 0.275151520645477, -1.119, 1.017, -1.215], a = 0.2, v = 0.2, t = 0.2)
movej(p[0.404635782130071, -0.0929507858719119, 0.275273843592359, -1.119, 1.017, -1.215], a = 0.2, v = 0.2, t = 0.2)
movej(p[0.404512555955912, -0.0929603244676541, 0.27597665884916, -1.119, 1.017, -1.215], a = 0.2, v = 0.2, t = 0.2)
movej(p[0.40433068683228, -0.0929744024511683, 0.277013941680528, -1.119, 1.017, -1.215], a = 0.2, v = 0.2, t = 0.2)
movej(p[0.404151499466613, -0.0929882728472499, 0.2780359292191, -1.119, 1.017, -1.215], a = 0.2, v = 0.2, t = 0.2)
movej(p[0.404048333809063, -0.092996258614142, 0.278624330170433, -1.119, 1.017, -1.215], a = 0.2, v = 0.2, t = 0.2)
movej(p[0.403984547341058, -0.0930011961473915, 0.27898813358474, -1.119, 1.017, -1.215], a = 0.2, v = 0.2, t = 0.2)
movej(p[0.403963001064917, -0.0930028639847586, 0.279111021856674, -1.119, 1.017, -1.215], a = 0.2, v = 0.2, t = 0.2)
movej(p[0.403971932199625, -0.0930021726504371, 0.279060083508745, -1.119, 1.017, -1.215], a = 0.2, v = 0.2, t = 0.2)
movej(p[0.403981286406259, -0.0930014485672934, 0.279006732188032, -1.119, 1.017, -1.215], a = 0.2, v = 0.2, t = 0.2)
movej(p[0.403993796556782, -0.0930004801913025, 0.278935381075232, -1.119, 1.017, -1.215], a = 0.2, v = 0.2, t = 0.2)
movej(p[0.404023700662, -0.0929981653976098, 0.278764824279714, -1.119, 1.017, -1.215], a = 0.2, v = 0.2, t = 0.2)
movej(p[0.404125393338517, -0.0929902936500866, 0.278184824413219, -1.119, 1.017, -1.215], a = 0.2, v = 0.2, t = 0.2)
movej(p[0.404232948583157, -0.0929819680974548, 0.277571387638137, -1.119, 1.017, -1.215], a = 0.2, v = 0.2, t = 0.2)
movej(p[0.404352721108937, -0.0929726968390372, 0.276888270118353, -1.119, 1.017, -1.215], a = 0.2, v = 0.2, t = 0.2)
movej(p[0.404457694751413, -0.0929645711210556, 0.276289557401691, -1.119, 1.017, -1.215], a = 0.2, v = 0.2, t = 0.2)
movej(p[0.404557936895611, -0.0929568116552087, 0.275717830584744, -1.119, 1.017, -1.215], a = 0.2, v = 0.2, t = 0.2)
movej(p[0.404601832766507, -0.0929534137978129, 0.275467472347245, -1.119, 1.017, -1.215], a = 0.2, v = 0.2, t = 0.2)
movej(p[0.404585531546158, -0.092954675629985, 0.27556044566597, -1.119, 1.017, -1.215], a = 0.2, v = 0.2, t = 0.2)
movej(p[0.40450506153893, -0.0929609045896485, 0.276019402938489, -1.119, 1.017, -1.215], a = 0.2, v = 0.2, t = 0.2)
movej(p[0.404341099582142, -0.0929735964291346, 0.276954553003418, -1.119, 1.017, -1.215], a = 0.2, v = 0.2, t = 0.2)
movej(p[0.404173925732361, -0.0929865368923325, 0.277908021963774, -1.119, 1.017, -1.215], a = 0.2, v = 0.2, t = 0.2)
movej(p[0.404045021760267, -0.0929965149906363, 0.278643220300233, -1.119, 1.017, -1.215], a = 0.2, v = 0.2, t = 0.2)
movej(p[0.403998949020262, -0.0930000813534212, 0.278905994218352, -1.119, 1.017, -1.215], a = 0.2, v = 0.2, t = 0.2)
movej(p[0.403979435250728, -0.0930015918600994, 0.279017290175074, -1.119, 1.017, -1.215], a = 0.2, v = 0.2, t = 0.2)
movej(p[0.403974924785945, -0.0930019410026454, 0.279043015419619, -1.119, 1.017, -1.215], a = 0.2, v = 0.2, t = 0.2)
movej(p[0.403986201983997, -0.0930010680660793, 0.278978696398934, -1.119, 1.017, -1.215], a = 0.2, v = 0.2, t = 0.2)
movej(p[0.403994218592614, -0.0930004475226814, 0.278932974011768, -1.119, 1.017, -1.215], a = 0.2, v = 0.2, t = 0.2)
movej(p[0.404017539353292, -0.0929986423273969, 0.278799965042554, -1.119, 1.017, -1.215], a = 0.2, v = 0.2, t = 0.2)
movej(p[0.404090476953406, -0.0929929964304384, 0.278383968534471, -1.119, 1.017, -1.215], a = 0.2, v = 0.2, t = 0.2)
movej(p[0.404220463644267, -0.0929829345218833, 0.277642594957457, -1.119, 1.017, -1.215], a = 0.2, v = 0.2, t = 0.2)
movej(p[0.404351115162441, -0.0929728211508932, 0.276897429566066, -1.119, 1.017, -1.215], a = 0.2, v = 0.2, t = 0.2)
movej(p[0.404475964551338, -0.0929631569066084, 0.276185356372866, -1.119, 1.017, -1.215], a = 0.2, v = 0.2, t = 0.2)
movej(p[0.40458563515561, -0.0929546676098653, 0.27555985473386, -1.119, 1.017, -1.215], a = 0.2, v = 0.2, t = 0.2)
movej(p[0.404653827442851, -0.0929493890343908, 0.27517092291644, -1.119, 1.017, -1.215], a = 0.2, v = 0.2, t = 0.2)
movej(p[0.404611347567791, -0.0929526772834836, 0.275413205081761, -1.119, 1.017, -1.215], a = 0.2, v = 0.2, t = 0.2)
movej(p[0.404493543621586, -0.0929617961596261, 0.276085094891444, -1.119, 1.017, -1.215], a = 0.2, v = 0.2, t = 0.2)
movej(p[0.40434244650501, -0.092973492167578, 0.276946870885981, -1.119, 1.017, -1.215], a = 0.2, v = 0.2, t = 0.2)
movej(p[0.404178070110416, -0.0929862160875429, 0.277884384679353, -1.119, 1.017, -1.215], a = 0.2, v = 0.2, t = 0.2)
movej(p[0.4040582665018, -0.0929954897519965, 0.27856767947877, -1.119, 1.017, -1.215], a = 0.2, v = 0.2, t = 0.2)
movej(p[0.403987335471395, -0.0930009803259694, 0.278972231601645, -1.119, 1.017, -1.215], a = 0.2, v = 0.2, t = 0.2)
movej(p[0.403975104375661, -0.0930019271011045, 0.279041991137294, -1.119, 1.017, -1.215], a = 0.2, v = 0.2, t = 0.2)
movej(p[0.403965741534906, -0.0930026518525915, 0.27909539170235, -1.119, 1.017, -1.215], a = 0.2, v = 0.2, t = 0.2)
movej(p[0.403973707374891, -0.0930020352390523, 0.279049958871918, -1.119, 1.017, -1.215], a = 0.2, v = 0.2, t = 0.2)
movej(p[0.403997175260991, -0.0930002186551978, 0.278916110779107, -1.119, 1.017, -1.215], a = 0.2, v = 0.2, t = 0.2)
movej(p[0.404063158594729, -0.0929951110686761, 0.278539777634284, -1.119, 1.017, -1.215], a = 0.2, v = 0.2, t = 0.2)
movej(p[0.404170389196421, -0.0929868106457529, 0.277928192446481, -1.119, 1.017, -1.215], a = 0.2, v = 0.2, t = 0.2)
movej(p[0.404333587896918, -0.0929741778878156, 0.276997395581433, -1.119, 1.017, -1.215], a = 0.2, v = 0.2, t = 0.2)
movej(p[0.404482042972485, -0.0929626863929171, 0.276150688355714, -1.119, 1.017, -1.215], a = 0.2, v = 0.2, t = 0.2)
movej(p[0.404583079455809, -0.0929548654394855, 0.275574431059253, -1.119, 1.017, -1.215], a = 0.2, v = 0.2, t = 0.2)
movej(p[0.404665172677776, -0.0929485108312794, 0.275106215850336, -1.119, 1.017, -1.215], a = 0.2, v = 0.2, t = 0.2)
movej(p[0.404717132817636, -0.0929444887412306, 0.2748098633969, -1.119, 1.017, -1.215], a = 0.2, v = 0.2, t = 0.2)
movej(p[0.404659784986305, -0.0929489278775058, 0.275136944320084, -1.119, 1.017, -1.215], a = 0.2, v = 0.2, t = 0.2)
movej(p[0.404499984675813, -0.0929612975755157, 0.276048358611906, -1.119, 1.017, -1.215], a = 0.2, v = 0.2, t = 0.2)
movej(p[0.404296184884974, -0.0929770731510411, 0.277210722073337, -1.119, 1.017, -1.215], a = 0.2, v = 0.2, t = 0.2)
movej(p[0.404128648402114, -0.0929900416846581, 0.27816625929608, -1.119, 1.017, -1.215], a = 0.2, v = 0.2, t = 0.2)
movej(p[0.404003608371826, -0.0929997206859632, 0.278879419804364, -1.119, 1.017, -1.215], a = 0.2, v = 0.2, t = 0.2)
movej(p[0.403953051103937, -0.0930036341835908, 0.279167771037023, -1.119, 1.017, -1.215], a = 0.2, v = 0.2, t = 0.2)
movej(p[0.403952493339724, -0.0930036773585687, 0.279170952221551, -1.119, 1.017, -1.215], a = 0.2, v = 0.2, t = 0.2)
movej(p[0.403954700221038, -0.0930035065300183, 0.279158365367596, -1.119, 1.017, -1.215], a = 0.2, v = 0.2, t = 0.2)
movej(p[0.403956832848912, -0.0930033414492203, 0.279146202014988, -1.119, 1.017, -1.215], a = 0.2, v = 0.2, t = 0.2)
movej(p[0.403968485458543, -0.0930024394530871, 0.279079741850289, -1.119, 1.017, -1.215], a = 0.2, v = 0.2, t = 0.2)
movej(p[0.404039418215773, -0.0929969487454455, 0.278675179878545, -1.119, 1.017, -1.215], a = 0.2, v = 0.2, t = 0.2)
movej(p[0.404148916137626, -0.0929884728155687, 0.27805066312639, -1.119, 1.017, -1.215], a = 0.2, v = 0.2, t = 0.2)
movej(p[0.404293439234513, -0.0929772856842142, 0.277226381774267, -1.119, 1.017, -1.215], a = 0.2, v = 0.2, t = 0.2)
movej(p[0.404432500386489, -0.0929665213468387, 0.276433252393237, -1.119, 1.017, -1.215], a = 0.2, v = 0.2, t = 0.2)
movej(p[0.404529150736373, -0.0929590399118094, 0.275882011222789, -1.119, 1.017, -1.215], a = 0.2, v = 0.2, t = 0.2)
movej(p[0.404598016485048, -0.0929537092055566, 0.27548923834665, -1.119, 1.017, -1.215], a = 0.2, v = 0.2, t = 0.2)
movej(p[0.404615768237716, -0.092952335091708, 0.275387991978378, -1.119, 1.017, -1.215], a = 0.2, v = 0.2, t = 0.2)
movej(p[0.404584806279999, -0.0929547317708232, 0.275564582190744, -1.119, 1.017, -1.215], a = 0.2, v = 0.2, t = 0.2)
movej(p[0.404444070108559, -0.0929656257668012, 0.276367264974227, -1.119, 1.017, -1.215], a = 0.2, v = 0.2, t = 0.2)
movej(p[0.404274513241397, -0.0929787506927531, 0.277334325373125, -1.119, 1.017, -1.215], a = 0.2, v = 0.2, t = 0.2)
movej(p[0.404128551699959, -0.0929900491701032, 0.278166810832716, -1.119, 1.017, -1.215], a = 0.2, v = 0.2, t = 0.2)
movej(p[0.404029402635474, -0.0929977240236869, 0.278732303315897, -1.119, 1.017, -1.215], a = 0.2, v = 0.2, t = 0.2)
movej(p[0.403989042437106, -0.0930008481944967, 0.278962495995124, -1.119, 1.017, -1.215], a = 0.2, v = 0.2, t = 0.2)
movej(p[0.403977794767748, -0.0930017188453286, 0.279026646600157, -1.119, 1.017, -1.215], a = 0.2, v = 0.2, t = 0.2)
movej(p[0.403990751475006, -0.0930007159026216, 0.27895274856996, -1.119, 1.017, -1.215], a = 0.2, v = 0.2, t = 0.2)
movej(p[0.403985389685898, -0.093001130943818, 0.278983329306681, -1.119, 1.017, -1.215], a = 0.2, v = 0.2, t = 0.2)
movej(p[0.403993415101318, -0.09300050971871, 0.278937556690285, -1.119, 1.017, -1.215], a = 0.2, v = 0.2, t = 0.2)
movej(p[0.404043161970615, -0.0929966589517856, 0.278653827531618, -1.119, 1.017, -1.215], a = 0.2, v = 0.2, t = 0.2)
movej(p[0.404129007581545, -0.0929900138815764, 0.27816421073143, -1.119, 1.017, -1.215], a = 0.2, v = 0.2, t = 0.2)
movej(p[0.404247712929976, -0.0929808252303921, 0.277487179812385, -1.119, 1.017, -1.215], a = 0.2, v = 0.2, t = 0.2)
movej(p[0.404374824458562, -0.0929709858801597, 0.276762204601438, -1.119, 1.017, -1.215], a = 0.2, v = 0.2, t = 0.2)
movej(p[0.404492369381138, -0.0929618870543165, 0.276091792122031, -1.119, 1.017, -1.215], a = 0.2, v = 0.2, t = 0.2)
movej(p[0.404573443776832, -0.0929556113106212, 0.275629387745533, -1.119, 1.017, -1.215], a = 0.2, v = 0.2, t = 0.2)
movej(p[0.404605390024337, -0.0929531384403685, 0.275447183678117, -1.119, 1.017, -1.215], a = 0.2, v = 0.2, t = 0.2)
movej(p[0.404577311863017, -0.0929553118928176, 0.275607326280073, -1.119, 1.017, -1.215], a = 0.2, v = 0.2, t = 0.2)
movej(p[0.404462115421338, -0.0929642289292801, 0.276264344298308, -1.119, 1.017, -1.215], a = 0.2, v = 0.2, t = 0.2)
movej(p[0.404292161384613, -0.0929773845990243, 0.277233669936963, -1.119, 1.017, -1.215], a = 0.2, v = 0.2, t = 0.2)
movej(p[0.404132563112551, -0.0929897386578007, 0.27814393191117, -1.119, 1.017, -1.215], a = 0.2, v = 0.2, t = 0.2)
movej(p[0.40405296169789, -0.0929959003821271, 0.278597935202829, -1.119, 1.017, -1.215], a = 0.2, v = 0.2, t = 0.2)
movej(p[0.403999437400679, -0.0930000435492502, 0.27890320876136, -1.119, 1.017, -1.215], a = 0.2, v = 0.2, t = 0.2)
movej(p[0.403986592936993, -0.0930010378034942, 0.278976466615104, -1.119, 1.017, -1.215], a = 0.2, v = 0.2, t = 0.2)
movej(p[0.403970987626793, -0.0930022457671954, 0.27906547083982, -1.119, 1.017, -1.215], a = 0.2, v = 0.2, t = 0.2)
movej(p[0.403990353960078, -0.0930007466731476, 0.278955015779491, -1.119, 1.017, -1.215], a = 0.2, v = 0.2, t = 0.2)
movej(p[0.404035560490533, -0.0929972473612371, 0.278697182250794, -1.119, 1.017, -1.215], a = 0.2, v = 0.2, t = 0.2)
movej(p[0.404136122097206, -0.0929894631666877, 0.278123633393173, -1.119, 1.017, -1.215], a = 0.2, v = 0.2, t = 0.2)
movej(p[0.404286583742481, -0.0929778163488036, 0.277265481782247, -1.119, 1.017, -1.215], a = 0.2, v = 0.2, t = 0.2)
movej(p[0.404425783040392, -0.092967041317935, 0.276471564491737, -1.119, 1.017, -1.215], a = 0.2, v = 0.2, t = 0.2)
movej(p[0.404539494413268, -0.0929582392365221, 0.27582301650042, -1.119, 1.017, -1.215], a = 0.2, v = 0.2, t = 0.2)
movej(p[0.40463331277148, -0.092950977018099, 0.275287927474327, -1.119, 1.017, -1.215], a = 0.2, v = 0.2, t = 0.2)
movej(p[0.404683580623635, -0.0929470859233393, 0.27500122691203, -1.119, 1.017, -1.215], a = 0.2, v = 0.2, t = 0.2)
movej(p[0.404618220328065, -0.0929521452822076, 0.275374006585095, -1.119, 1.017, -1.215], a = 0.2, v = 0.2, t = 0.2)
movej(p[0.404465672679169, -0.0929639535718357, 0.27624405562918, -1.119, 1.017, -1.215], a = 0.2, v = 0.2, t = 0.2)
movej(p[0.404268780185088, -0.092979194472712, 0.277367023616575, -1.119, 1.017, -1.215], a = 0.2, v = 0.2, t = 0.2)
movej(p[0.404107209879802, -0.0929917011811007, 0.278288532998619, -1.119, 1.017, -1.215], a = 0.2, v = 0.2, t = 0.2)
movej(p[0.403995190967315, -0.0930003722538577, 0.278927428113911, -1.119, 1.017, -1.215], a = 0.2, v = 0.2, t = 0.2)
movej(p[0.40396271786575, -0.0930028859064192, 0.279112637071109, -1.119, 1.017, -1.215], a = 0.2, v = 0.2, t = 0.2)
movej(p[0.403968321410245, -0.09300245215161, 0.279080677492797, -1.119, 1.017, -1.215], a = 0.2, v = 0.2, t = 0.2)
movej(p[0.403965898675907, -0.0930026396887432, 0.279094495455316, -1.119, 1.017, -1.215], a = 0.2, v = 0.2, t = 0.2)
movej(p[0.403972569397751, -0.0930021233267007, 0.279056449276265, -1.119, 1.017, -1.215], a = 0.2, v = 0.2, t = 0.2)
movej(p[0.404020754699933, -0.0929983934363477, 0.27878162644939, -1.119, 1.017, -1.215], a = 0.2, v = 0.2, t = 0.2)
movej(p[0.404118826226124, -0.0929908019920093, 0.278222279660159, -1.119, 1.017, -1.215], a = 0.2, v = 0.2, t = 0.2)
movej(p[0.404267087897382, -0.092979325468001, 0.277376675507714, -1.119, 1.017, -1.215], a = 0.2, v = 0.2, t = 0.2)
movej(p[0.404425437675555, -0.0929670680516675, 0.276473534265439, -1.119, 1.017, -1.215], a = 0.2, v = 0.2, t = 0.2)
movej(p[0.404571837830336, -0.0929557356224771, 0.275638547193247, -1.119, 1.017, -1.215], a = 0.2, v = 0.2, t = 0.2)
movej(p[0.404661615419946, -0.0929487861887238, 0.275126504519464, -1.119, 1.017, -1.215], a = 0.2, v = 0.2, t = 0.2)
movej(p[0.404685393789034, -0.0929469455712438, 0.274990885600095, -1.119, 1.017, -1.215], a = 0.2, v = 0.2, t = 0.2)
movej(p[0.404634210720059, -0.0929509075103946, 0.275282806062702, -1.119, 1.017, -1.215], a = 0.2, v = 0.2, t = 0.2)
movej(p[0.404489882754305, -0.0929620795371902, 0.276105974492684, -1.119, 1.017, -1.215], a = 0.2, v = 0.2, t = 0.2)
movej(p[0.404296184884974, -0.0929770731510411, 0.277210722073337, -1.119, 1.017, -1.215], a = 0.2, v = 0.2, t = 0.2)
movej(p[0.40412281864365, -0.0929904929500621, 0.278199509076166, -1.119, 1.017, -1.215], a = 0.2, v = 0.2, t = 0.2)
movej(p[0.404025824655753, -0.0929980009851552, 0.278752710171448, -1.119, 1.017, -1.215], a = 0.2, v = 0.2, t = 0.2)
movej(p[0.403972225759737, -0.0930021499267645, 0.279058409201099, -1.119, 1.017, -1.215], a = 0.2, v = 0.2, t = 0.2)
movej(p[0.40396256935887, -0.0930028974019242, 0.279113484073801, -1.119, 1.017, -1.215], a = 0.2, v = 0.2, t = 0.2)
movej(p[0.403963615814328, -0.0930028163987148, 0.279107515659485, -1.119, 1.017, -1.215], a = 0.2, v = 0.2, t = 0.2)
movej(p[0.403972937211303, -0.0930020948552757, 0.279054351467273, -1.119, 1.017, -1.215], a = 0.2, v = 0.2, t = 0.2)
movej(p[0.40399651129709, -0.0930002700507985, 0.278919897669049, -1.119, 1.017, -1.215], a = 0.2, v = 0.2, t = 0.2)
movej(p[0.40407324497482, -0.0929943303100196, 0.278482250393322, -1.119, 1.017, -1.215], a = 0.2, v = 0.2, t = 0.2)
movej(p[0.404197272395403, -0.0929847296920181, 0.277774865261533, -1.119, 1.017, -1.215], a = 0.2, v = 0.2, t = 0.2)
movej(p[0.404325782651581, -0.0929747820701692, 0.277041912467093, -1.119, 1.017, -1.215], a = 0.2, v = 0.2, t = 0.2)
movej(p[0.404457746556139, -0.0929645671109957, 0.276289261935636, -1.119, 1.017, -1.215], a = 0.2, v = 0.2, t = 0.2)
movej(p[0.404582129702505, -0.0929549389572498, 0.275579847936933, -1.119, 1.017, -1.215], a = 0.2, v = 0.2, t = 0.2)
movej(p[0.404667866523511, -0.0929483023081663, 0.275090851615462, -1.119, 1.017, -1.215], a = 0.2, v = 0.2, t = 0.2)
movej(p[0.404680040634047, -0.092947359944097, 0.275021417092473, -1.119, 1.017, -1.215], a = 0.2, v = 0.2, t = 0.2)
movej(p[0.404603715004873, -0.0929532680989709, 0.275456737080571, -1.119, 1.017, -1.215], a = 0.2, v = 0.2, t = 0.2)
movej(p[0.404464153073882, -0.0929640712002586, 0.276252722633468, -1.119, 1.017, -1.215], a = 0.2, v = 0.2, t = 0.2)
movej(p[0.40426423863747, -0.0929795460212938, 0.277392926140754, -1.119, 1.017, -1.215], a = 0.2, v = 0.2, t = 0.2)
movej(p[0.404102321240522, -0.0929920795970837, 0.278316415145368, -1.119, 1.017, -1.215], a = 0.2, v = 0.2, t = 0.2)
movej(p[0.404011232473305, -0.0929991305254523, 0.27883593606501, -1.119, 1.017, -1.215], a = 0.2, v = 0.2, t = 0.2)
movej(p[0.403976763853707, -0.09300179864552, 0.279032526374657, -1.119, 1.017, -1.215], a = 0.2, v = 0.2, t = 0.2)
movej(p[0.403958806608961, -0.0930031886659393, 0.279134944758282, -1.119, 1.017, -1.215], a = 0.2, v = 0.2, t = 0.2)
movej(p[0.403959859971716, -0.0930031071280553, 0.279128936948492, -1.119, 1.017, -1.215], a = 0.2, v = 0.2, t = 0.2)
movej(p[0.403979063983527, -0.0930016205988618, 0.279019407681803, -1.119, 1.017, -1.215], a = 0.2, v = 0.2, t = 0.2)
movej(p[0.404030359296075, -0.092997649971248, 0.278726847042743, -1.119, 1.017, -1.215], a = 0.2, v = 0.2, t = 0.2)
movej(p[0.404135246597342, -0.0929895309366995, 0.278128626769507, -1.119, 1.017, -1.215], a = 0.2, v = 0.2, t = 0.2)
movej(p[0.40428119605101, -0.09297823339503, 0.277296210251995, -1.119, 1.017, -1.215], a = 0.2, v = 0.2, t = 0.2)
movej(p[0.404406546218922, -0.0929685303868331, 0.276581280886928, -1.119, 1.017, -1.215], a = 0.2, v = 0.2, t = 0.2)
movej(p[0.404486809007248, -0.0929623174674091, 0.27612350547863, -1.119, 1.017, -1.215], a = 0.2, v = 0.2, t = 0.2)
movej(p[0.404479487272684, -0.0929628842225373, 0.276165264681108, -1.119, 1.017, -1.215], a = 0.2, v = 0.2, t = 0.2)
movej(p[0.40440716787563, -0.0929684822661147, 0.276577735294264, -1.119, 1.017, -1.215], a = 0.2, v = 0.2, t = 0.2)
movej(p[0.404244811865338, -0.0929810497937448, 0.27750372591148, -1.119, 1.017, -1.215], a = 0.2, v = 0.2, t = 0.2)
movej(p[0.404099242312992, -0.0929923179283086, 0.27833397567792, -1.119, 1.017, -1.215], a = 0.2, v = 0.2, t = 0.2)
movej(p[0.403992061443836, -0.0930006145015744, 0.27894527721831, -1.119, 1.017, -1.215], a = 0.2, v = 0.2, t = 0.2)
movej(p[0.403951056621998, -0.0930037885708958, 0.27917914648015, -1.119, 1.017, -1.215], a = 0.2, v = 0.2, t = 0.2)
movej(p[0.40393488318664, -0.0930050405115869, 0.279271390982606, -1.119, 1.017, -1.215], a = 0.2, v = 0.2, t = 0.2)
movej(p[0.403942976811616, -0.0930044140065667, 0.279225229335904, -1.119, 1.017, -1.215], a = 0.2, v = 0.2, t = 0.2)
movej(p[0.404008086717679, -0.0929993740296544, 0.278853877748772, -1.119, 1.017, -1.215], a = 0.2, v = 0.2, t = 0.2)
movej(p[0.404113970396504, -0.0929911778682878, 0.278249974678406, -1.119, 1.017, -1.215], a = 0.2, v = 0.2, t = 0.2)
movej(p[0.404288742272718, -0.0929776492629757, 0.277253170696611, -1.119, 1.017, -1.215], a = 0.2, v = 0.2, t = 0.2)
movej(p[0.404474047776488, -0.0929633052788236, 0.276196288616911, -1.119, 1.017, -1.215], a = 0.2, v = 0.2, t = 0.2)
movej(p[0.404628097762428, -0.0929513806974592, 0.275317671057224, -1.119, 1.017, -1.215], a = 0.2, v = 0.2, t = 0.2)
movej(p[0.404719757590404, -0.0929442855648639, 0.274794893116766, -1.119, 1.017, -1.215], a = 0.2, v = 0.2, t = 0.2)
movej(p[0.404754086855291, -0.0929416282318573, 0.274599097610807, -1.119, 1.017, -1.215], a = 0.2, v = 0.2, t = 0.2)
movej(p[0.404720603734257, -0.0929442200672194, 0.274790067171197, -1.119, 1.017, -1.215], a = 0.2, v = 0.2, t = 0.2)
movej(p[0.404586464031221, -0.0929546034489074, 0.275555127276976, -1.119, 1.017, -1.215], a = 0.2, v = 0.2, t = 0.2)
movej(p[0.404404007787364, -0.0929687268797667, 0.276595758723636, -1.119, 1.017, -1.215], a = 0.2, v = 0.2, t = 0.2)
movej(p[0.404217182678307, -0.0929831884923417, 0.277661307807624, -1.119, 1.017, -1.215], a = 0.2, v = 0.2, t = 0.2)
movej(p[0.404075144481428, -0.0929941832744911, 0.278471416637963, -1.119, 1.017, -1.215], a = 0.2, v = 0.2, t = 0.2)
movej(p[0.403977513295405, -0.0930017406333206, 0.279028251965724, -1.119, 1.017, -1.215], a = 0.2, v = 0.2, t = 0.2)
movej(p[0.403949583640965, -0.0930039025902647, 0.279187547564989, -1.119, 1.017, -1.215], a = 0.2, v = 0.2, t = 0.2)
movej(p[0.403974783186361, -0.0930019519634757, 0.279043823026837, -1.119, 1.017, -1.215], a = 0.2, v = 0.2, t = 0.2)
movej(p[0.404049577122479, -0.0929961623727052, 0.278617238985107, -1.119, 1.017, -1.215], a = 0.2, v = 0.2, t = 0.2)
movej(p[0.404196771616388, -0.0929847684559302, 0.2777777214334, -1.119, 1.017, -1.215], a = 0.2, v = 0.2, t = 0.2)
movej(p[0.404392783430132, -0.0929695957260717, 0.276659776368944, -1.119, 1.017, -1.215], a = 0.2, v = 0.2, t = 0.2)
movej(p[0.404596496879761, -0.0929538268339794, 0.275497905350938, -1.119, 1.017, -1.215], a = 0.2, v = 0.2, t = 0.2)
movej(p[0.404766399111761, -0.092940675174295, 0.274528875178338, -1.119, 1.017, -1.215], a = 0.2, v = 0.2, t = 0.2)
movej(p[0.40485826615864, -0.0929335640014603, 0.27400491537366, -1.119, 1.017, -1.215], a = 0.2, v = 0.2, t = 0.2)
movej(p[0.404870457537418, -0.0929326203007044, 0.273935382361986, -1.119, 1.017, -1.215], a = 0.2, v = 0.2, t = 0.2)
movej(p[0.404734884570304, -0.0929431146273821, 0.274708617028627, -1.119, 1.017, -1.215], a = 0.2, v = 0.2, t = 0.2)
movej(p[0.404532466238817, -0.0929587832679777, 0.275863101395252, -1.119, 1.017, -1.215], a = 0.2, v = 0.2, t = 0.2)
movej(p[0.40431547351117, -0.0929755800720832, 0.277100710212092, -1.119, 1.017, -1.215], a = 0.2, v = 0.2, t = 0.2)
movej(p[0.404140297558096, -0.0929891399558622, 0.278099818829118, -1.119, 1.017, -1.215], a = 0.2, v = 0.2, t = 0.2)
movej(p[0.404020229745379, -0.0929984340716211, 0.278784620505417, -1.119, 1.017, -1.215], a = 0.2, v = 0.2, t = 0.2)
movej(p[0.403961906258381, -0.0930029487306905, 0.279117266039308, -1.119, 1.017, -1.215], a = 0.2, v = 0.2, t = 0.2)
movej(p[0.403957827499645, -0.0930032644560709, 0.279140529066727, -1.119, 1.017, -1.215], a = 0.2, v = 0.2, t = 0.2)
movej(p[0.403955871007839, -0.0930034159026653, 0.279151687834747, -1.119, 1.017, -1.215], a = 0.2, v = 0.2, t = 0.2)
movej(p[0.40400076268644, -0.0929999409625619, 0.278895650050246, -1.119, 1.017, -1.215], a = 0.2, v = 0.2, t = 0.2)
movej(p[0.404109934808373, -0.0929914902519516, 0.278272991484112, -1.119, 1.017, -1.215], a = 0.2, v = 0.2, t = 0.2)
movej(p[0.404275445726459, -0.0929786785116755, 0.27732900698413, -1.119, 1.017, -1.215], a = 0.2, v = 0.2, t = 0.2)
movej(p[0.404461165668034, -0.0929643024470444, 0.276269761175988, -1.119, 1.017, -1.215], a = 0.2, v = 0.2, t = 0.2)
movej(p[0.404634556084897, -0.0929508807766622, 0.275280836289, -1.119, 1.017, -1.215], a = 0.2, v = 0.2, t = 0.2)
movej(p[0.404777658005476, -0.0929398036546168, 0.27446466055566, -1.119, 1.017, -1.215], a = 0.2, v = 0.2, t = 0.2)
movej(p[0.40481533730929, -0.0929368870044053, 0.274249758244793, -1.119, 1.017, -1.215], a = 0.2, v = 0.2, t = 0.2)
movej(p[0.40475097857175, -0.0929418688354494, 0.274616825574124, -1.119, 1.017, -1.215], a = 0.2, v = 0.2, t = 0.2)
movej(p[0.404598569068789, -0.0929536664315846, 0.275486086708727, -1.119, 1.017, -1.215], a = 0.2, v = 0.2, t = 0.2)
movej(p[0.404402211890206, -0.0929688658951755, 0.276606001546885, -1.119, 1.017, -1.215], a = 0.2, v = 0.2, t = 0.2)
movej(p[0.404190969487111, -0.0929852175826355, 0.27781081363159, -1.119, 1.017, -1.215], a = 0.2, v = 0.2, t = 0.2)
movej(p[0.404031770111437, -0.0929975407639509, 0.278718800517172, -1.119, 1.017, -1.215], a = 0.2, v = 0.2, t = 0.2)
movej(p[0.403972704090037, -0.0930021129005451, 0.279055681064522, -1.119, 1.017, -1.215], a = 0.2, v = 0.2, t = 0.2)
movej(p[0.403945560140603, -0.0930042140382479, 0.279210495428615, -1.119, 1.017, -1.215], a = 0.2, v = 0.2, t = 0.2)
movej(p[0.403959609582209, -0.0930031265100114, 0.279130365034425, -1.119, 1.017, -1.215], a = 0.2, v = 0.2, t = 0.2)
movej(p[0.404016869518189, -0.0929986941774711, 0.278803785418649, -1.119, 1.017, -1.215], a = 0.2, v = 0.2, t = 0.2)
movej(p[0.404132996545423, -0.0929897051069665, 0.278141459845174, -1.119, 1.017, -1.215], a = 0.2, v = 0.2, t = 0.2)
movej(p[0.404293024796708, -0.0929773177646932, 0.277228745502709, -1.119, 1.017, -1.215], a = 0.2, v = 0.2, t = 0.2)
movej(p[0.404467192284455, -0.0929638359434129, 0.276235388624892, -1.119, 1.017, -1.215], a = 0.2, v = 0.2, t = 0.2)
movej(p[0.404630498048052, -0.0929511948980186, 0.275303981129996, -1.119, 1.017, -1.215], a = 0.2, v = 0.2, t = 0.2)
movej(p[0.404723314848235, -0.0929440102074196, 0.274774604447638, -1.119, 1.017, -1.215], a = 0.2, v = 0.2, t = 0.2)
movej(p[0.404743794983121, -0.0929424248970846, 0.274657796867121, -1.119, 1.017, -1.215], a = 0.2, v = 0.2, t = 0.2)
movej(p[0.404690885089957, -0.0929465205048977, 0.274959566198237, -1.119, 1.017, -1.215], a = 0.2, v = 0.2, t = 0.2)
movej(p[0.404566294724688, -0.0929561646988831, 0.275670162061161, -1.119, 1.017, -1.215], a = 0.2, v = 0.2, t = 0.2)
movej(p[0.404392610747713, -0.0929696090929379, 0.276660761255795, -1.119, 1.017, -1.215], a = 0.2, v = 0.2, t = 0.2)
movej(p[0.404212123083432, -0.0929835801415222, 0.277690164992355, -1.119, 1.017, -1.215], a = 0.2, v = 0.2, t = 0.2)
movej(p[0.404090245558965, -0.0929930143420392, 0.278385288282851, -1.119, 1.017, -1.215], a = 0.2, v = 0.2, t = 0.2)
movej(p[0.404003009509197, -0.0929997670422553, 0.278882835391963, -1.119, 1.017, -1.215], a = 0.2, v = 0.2, t = 0.2)
movej(p[0.403971655907754, -0.0930021940374231, 0.279061659327707, -1.119, 1.017, -1.215], a = 0.2, v = 0.2, t = 0.2)
movej(p[0.403980473072066, -0.0930015115252334, 0.2790113710051, -1.119, 1.017, -1.215], a = 0.2, v = 0.2, t = 0.2)
movej(p[0.404041519760811, -0.0929967860706835, 0.27866319380557, -1.119, 1.017, -1.215], a = 0.2, v = 0.2, t = 0.2)
movej(p[0.404150798375992, -0.0929883271167267, 0.278039927859715, -1.119, 1.017, -1.215], a = 0.2, v = 0.2, t = 0.2)
movej(p[0.404306649439562, -0.0929762631189476, 0.277151037930173, -1.119, 1.017, -1.215], a = 0.2, v = 0.2, t = 0.2)
movej(p[0.404477190596512, -0.0929630620018582, 0.276178363676225, -1.119, 1.017, -1.215], a = 0.2, v = 0.2, t = 0.2)
movej(p[0.404592404306432, -0.0929541436287091, 0.275521247169305, -1.119, 1.017, -1.215], a = 0.2, v = 0.2, t = 0.2)
movej(p[0.404673737725755, -0.0929478478347144, 0.275057365462531, -1.119, 1.017, -1.215], a = 0.2, v = 0.2, t = 0.2)
movej(p[0.404698224092762, -0.0929459524130829, 0.274917708507073, -1.119, 1.017, -1.215], a = 0.2, v = 0.2, t = 0.2)
movej(p[0.40463595481249, -0.0929507725050457, 0.275272858705508, -1.119, 1.017, -1.215], a = 0.2, v = 0.2, t = 0.2)
movej(p[0.404472372757024, -0.092963434937426, 0.276205842019365, -1.119, 1.017, -1.215], a = 0.2, v = 0.2, t = 0.2)
movej(p[0.404250890286485, -0.0929805792800535, 0.277469057894328, -1.119, 1.017, -1.215], a = 0.2, v = 0.2, t = 0.2)
movej(p[0.404100378563308, -0.0929922299743288, 0.278327495122441, -1.119, 1.017, -1.215], a = 0.2, v = 0.2, t = 0.2)
movej(p[0.403986479830009, -0.0930010465587915, 0.278977111715991, -1.119, 1.017, -1.215], a = 0.2, v = 0.2, t = 0.2)
movej(p[0.403954703674687, -0.093003506262681, 0.279158345669859, -1.119, 1.017, -1.215], a = 0.2, v = 0.2, t = 0.2)
movej(p[0.403941622981452, -0.0930045188027979, 0.279232950848815, -1.119, 1.017, -1.215], a = 0.2, v = 0.2, t = 0.2)
movej(p[0.40397378508198, -0.0930020292239625, 0.279049515672835, -1.119, 1.017, -1.215], a = 0.2, v = 0.2, t = 0.2)
movej(p[0.404051113996008, -0.0929960434075957, 0.278608473492134, -1.119, 1.017, -1.215], a = 0.2, v = 0.2, t = 0.2)
movej(p[0.404194837573296, -0.0929849181648319, 0.27778875216613, -1.119, 1.017, -1.215], a = 0.2, v = 0.2, t = 0.2)
movej(p[0.404367209163886, -0.0929715753589605, 0.276805638111562, -1.119, 1.017, -1.215], a = 0.2, v = 0.2, t = 0.2)
movej(p[0.404515698775937, -0.0929600811906887, 0.275958733908474, -1.119, 1.017, -1.215], a = 0.2, v = 0.2, t = 0.2)
movej(p[0.404632846528949, -0.0929510131086378, 0.275290586668824, -1.119, 1.017, -1.215], a = 0.2, v = 0.2, t = 0.2)
movej(p[0.404725991425728, -0.092943803020993, 0.274759338701449, -1.119, 1.017, -1.215], a = 0.2, v = 0.2, t = 0.2)
movej(p[0.404769162030464, -0.0929404613044353, 0.274513116988724, -1.119, 1.017, -1.215], a = 0.2, v = 0.2, t = 0.2)
movej(p[0.404704457928086, -0.092945469869212, 0.274882154091756, -1.119, 1.017, -1.215], a = 0.2, v = 0.2, t = 0.2)
movej(p[0.404545590102656, -0.0929577673861442, 0.275788249994583, -1.119, 1.017, -1.215], a = 0.2, v = 0.2, t = 0.2)
movej(p[0.404355743051268, -0.0929724629188782, 0.276871034598462, -1.119, 1.017, -1.215], a = 0.2, v = 0.2, t = 0.2)
movej(p[0.404164400570132, -0.0929872742086738, 0.27796234832247, -1.119, 1.017, -1.215], a = 0.2, v = 0.2, t = 0.2)
movej(p[0.404034660815131, -0.0929973170026102, 0.278702313511287, -1.119, 1.017, -1.215], a = 0.2, v = 0.2, t = 0.2)
movej(p[0.403973317112625, -0.09300206544817, 0.279052184716201, -1.119, 1.017, -1.215], a = 0.2, v = 0.2, t = 0.2)
movej(p[0.40396118444587, -0.0930030046041913, 0.279121382866345, -1.119, 1.017, -1.215], a = 0.2, v = 0.2, t = 0.2)
movej(p[0.403956126577819, -0.0930033961197032, 0.279150230202208, -1.119, 1.017, -1.215], a = 0.2, v = 0.2, t = 0.2)
movej(p[0.403973911140146, -0.0930020194661501, 0.279048796705434, -1.119, 1.017, -1.215], a = 0.2, v = 0.2, t = 0.2)
movej(p[0.404061265995417, -0.09299525756953, 0.278550571994169, -1.119, 1.017, -1.215], a = 0.2, v = 0.2, t = 0.2)
movej(p[0.404181264735166, -0.0929859688005177, 0.277866164272611, -1.119, 1.017, -1.215], a = 0.2, v = 0.2, t = 0.2)
movej(p[0.404347074393837, -0.092973133935563, 0.276920475918377, -1.119, 1.017, -1.215], a = 0.2, v = 0.2, t = 0.2)
movej(p[0.404512003372172, -0.0929603672416261, 0.275979810487083, -1.119, 1.017, -1.215], a = 0.2, v = 0.2, t = 0.2)
movej(p[0.40464743819335, -0.0929498836084413, 0.275207363729923, -1.119, 1.017, -1.215], a = 0.2, v = 0.2, t = 0.2)
movej(p[0.404730101267299, -0.0929434848895767, 0.274735898394397, -1.119, 1.017, -1.215], a = 0.2, v = 0.2, t = 0.2)
movej(p[0.404718186180392, -0.0929444072033466, 0.274803855587109, -1.119, 1.017, -1.215], a = 0.2, v = 0.2, t = 0.2)
movej(p[0.404631240582453, -0.0929511374204938, 0.275299746116537, -1.119, 1.017, -1.215], a = 0.2, v = 0.2, t = 0.2)
movej(p[0.404437577249606, -0.0929661283609715, 0.276404296719821, -1.119, 1.017, -1.215], a = 0.2, v = 0.2, t = 0.2)
movej(p[0.404221499738781, -0.0929828543206859, 0.277636685636351, -1.119, 1.017, -1.215], a = 0.2, v = 0.2, t = 0.2)
movej(p[0.404038936431824, -0.0929969860390023, 0.278677927712859, -1.119, 1.017, -1.215], a = 0.2, v = 0.2, t = 0.2)
movej(p[0.403967689392591, -0.0930025010743404, 0.279084282178672, -1.119, 1.017, -1.215], a = 0.2, v = 0.2, t = 0.2)
movej(p[0.403928647624492, -0.0930055231891265, 0.279306955246792, -1.119, 1.017, -1.215], a = 0.2, v = 0.2, t = 0.2)
movej(p[0.403934078486568, -0.0930051028011836, 0.279275980555331, -1.119, 1.017, -1.215], a = 0.2, v = 0.2, t = 0.2)
movej(p[0.403975846910062, -0.0930018696235797, 0.279037756123835, -1.119, 1.017, -1.215], a = 0.2, v = 0.2, t = 0.2)
movej(p[0.404073146545841, -0.0929943379291334, 0.278482811778828, -1.119, 1.017, -1.215], a = 0.2, v = 0.2, t = 0.2)
movej(p[0.404237818227371, -0.0929815911518271, 0.277543613828941, -1.119, 1.017, -1.215], a = 0.2, v = 0.2, t = 0.2)
movej(p[0.404430531806913, -0.0929666737291137, 0.276444480103338, -1.119, 1.017, -1.215], a = 0.2, v = 0.2, t = 0.2)
movej(p[0.404622485583813, -0.0929518151206117, 0.275349679879878, -1.119, 1.017, -1.215], a = 0.2, v = 0.2, t = 0.2)
movej(p[0.404752964419567, -0.0929417151164878, 0.274605499375338, -1.119, 1.017, -1.215], a = 0.2, v = 0.2, t = 0.2)
movej(p[0.40482554284025, -0.092936097022611, 0.274191551431905, -1.119, 1.017, -1.215], a = 0.2, v = 0.2, t = 0.2)
movej(p[0.404831724870848, -0.0929356184888, 0.274156292482643, -1.119, 1.017, -1.215], a = 0.2, v = 0.2, t = 0.2)
movej(p[0.404707756162288, -0.092945214562067, 0.274863342752904, -1.119, 1.017, -1.215], a = 0.2, v = 0.2, t = 0.2)
movej(p[0.40450214320605, -0.0929611304896878, 0.27603604752627, -1.119, 1.017, -1.215], a = 0.2, v = 0.2, t = 0.2)
movej(p[0.404259921576996, -0.0929798801929496, 0.277417548312026, -1.119, 1.017, -1.215], a = 0.2, v = 0.2, t = 0.2)
movej(p[0.404092483523114, -0.0929928411074528, 0.278372524149264, -1.119, 1.017, -1.215], a = 0.2, v = 0.2, t = 0.2)
movej(p[0.403991544087309, -0.0930006545487056, 0.278948227939315, -1.119, 1.017, -1.215], a = 0.2, v = 0.2, t = 0.2)
movej(p[0.403948545819627, -0.0930039829251307, 0.279193466734962, -1.119, 1.017, -1.215], a = 0.2, v = 0.2, t = 0.2)
movej(p[0.403954456738828, -0.0930035253772997, 0.279159754058056, -1.119, 1.017, -1.215], a = 0.2, v = 0.2, t = 0.2)
movej(p[0.404002937500629, -0.0929997726162386, 0.278883246089779, -1.119, 1.017, -1.215], a = 0.2, v = 0.2, t = 0.2)
movej(p[0.404103141482012, -0.0929920161044691, 0.278311736932826, -1.119, 1.017, -1.215], a = 0.2, v = 0.2, t = 0.2)
movej(p[0.404249957801423, -0.0929806514611311, 0.277474376283323, -1.119, 1.017, -1.215], a = 0.2, v = 0.2, t = 0.2)
movej(p[0.404422864707512, -0.0929672672179743, 0.276488209079518, -1.119, 1.017, -1.215], a = 0.2, v = 0.2, t = 0.2)
movej(p[0.404556848996372, -0.092956895866466, 0.275724035371905, -1.119, 1.017, -1.215], a = 0.2, v = 0.2, t = 0.2)
movej(p[0.404666726819546, -0.0929483905294834, 0.275097351868677, -1.119, 1.017, -1.215], a = 0.2, v = 0.2, t = 0.2)
movej(p[0.404730550241588, -0.0929434501357245, 0.274733337688585, -1.119, 1.017, -1.215], a = 0.2, v = 0.2, t = 0.2)
movej(p[0.404753016224293, -0.0929417111064279, 0.274605203909283, -1.119, 1.017, -1.215], a = 0.2, v = 0.2, t = 0.2)
movej(p[0.404672995191354, -0.0929479053122392, 0.27506160047599, -1.119, 1.017, -1.215], a = 0.2, v = 0.2, t = 0.2)
movej(p[0.404527821081747, -0.0929591428366793, 0.275889594851541, -1.119, 1.017, -1.215], a = 0.2, v = 0.2, t = 0.2)
movej(p[0.404362356787914, -0.0929719509679016, 0.276833313432073, -1.119, 1.017, -1.215], a = 0.2, v = 0.2, t = 0.2)
movej(p[0.404192281873495, -0.0929851159944522, 0.277803328491524, -1.119, 1.017, -1.215], a = 0.2, v = 0.2, t = 0.2)
movej(p[0.404065645221562, -0.0929949185858024, 0.278525595263631, -1.119, 1.017, -1.215], a = 0.2, v = 0.2, t = 0.2)
movej(p[0.403990074214559, -0.0930007683274709, 0.27895661129619, -1.119, 1.017, -1.215], a = 0.2, v = 0.2, t = 0.2)
movej(p[0.403975601701027, -0.0930018886045297, 0.279039154663164, -1.119, 1.017, -1.215], a = 0.2, v = 0.2, t = 0.2)
movej(p[0.403991092868148, -0.093000689476327, 0.278950801448656, -1.119, 1.017, -1.215], a = 0.2, v = 0.2, t = 0.2)
movej(p[0.404058656764067, -0.0929954595428788, 0.278565453634486, -1.119, 1.017, -1.215], a = 0.2, v = 0.2, t = 0.2)
movej(p[0.404194112307136, -0.0929849743056701, 0.277792888690904, -1.119, 1.017, -1.215], a = 0.2, v = 0.2, t = 0.2)
movej(p[0.404340426120708, -0.0929736485599129, 0.276958394062137, -1.119, 1.017, -1.215], a = 0.2, v = 0.2, t = 0.2)
movej(p[0.404480419757747, -0.0929628120414596, 0.276159946292113, -1.119, 1.017, -1.215], a = 0.2, v = 0.2, t = 0.2)
movej(p[0.404603766809599, -0.0929532640889111, 0.275456441614515, -1.119, 1.017, -1.215], a = 0.2, v = 0.2, t = 0.2)
movej(p[0.404712953903098, -0.0929448122193934, 0.274833697658692, -1.119, 1.017, -1.215], a = 0.2, v = 0.2, t = 0.2)
movej(p[0.404728754344431, -0.0929435891511333, 0.274743580511834, -1.119, 1.017, -1.215], a = 0.2, v = 0.2, t = 0.2)
movej(p[0.404649942088425, -0.092949689788881, 0.275193082870585, -1.119, 1.017, -1.215], a = 0.2, v = 0.2, t = 0.2)
movej(p[0.404483856137884, -0.0929625460408217, 0.27614034704378, -1.119, 1.017, -1.215], a = 0.2, v = 0.2, t = 0.2)
movej(p[0.404298032586857, -0.0929769301255725, 0.277200183784033, -1.119, 1.017, -1.215], a = 0.2, v = 0.2, t = 0.2)
movej(p[0.404110478757993, -0.0929914481463229, 0.278269889090532, -1.119, 1.017, -1.215], a = 0.2, v = 0.2, t = 0.2)
movej(p[0.403991540633661, -0.0930006548160429, 0.278948247637052, -1.119, 1.017, -1.215], a = 0.2, v = 0.2, t = 0.2)
movej(p[0.403950550662511, -0.0930038277358138, 0.279182032198624, -1.119, 1.017, -1.215], a = 0.2, v = 0.2, t = 0.2)
movej(p[0.403938637302428, -0.0930047499159151, 0.279249979542467, -1.119, 1.017, -1.215], a = 0.2, v = 0.2, t = 0.2)
movej(p[0.403967179979455, -0.0930025405065958, 0.279087187594882, -1.119, 1.017, -1.215], a = 0.2, v = 0.2, t = 0.2)
movej(p[0.404034377615964, -0.0929973389242708, 0.278703928725723, -1.119, 1.017, -1.215], a = 0.2, v = 0.2, t = 0.2)
movej(p[0.404170482444928, -0.0929868034276451, 0.277927660607581, -1.119, 1.017, -1.215], a = 0.2, v = 0.2, t = 0.2)
movej(p[0.404318737208889, -0.0929753274383114, 0.27708209585061, -1.119, 1.017, -1.215], a = 0.2, v = 0.2, t = 0.2)
movej(p[0.404480229807086, -0.0929628267450125, 0.276161029667649, -1.119, 1.017, -1.215], a = 0.2, v = 0.2, t = 0.2)
movej(p[0.404628166835396, -0.0929513753507127, 0.275317277102483, -1.119, 1.017, -1.215], a = 0.2, v = 0.2, t = 0.2)
movej(p[0.404732985063695, -0.0929432616629107, 0.274719450783987, -1.119, 1.017, -1.215], a = 0.2, v = 0.2, t = 0.2)
movej(p[0.404734746424369, -0.0929431253208751, 0.274709404938108, -1.119, 1.017, -1.215], a = 0.2, v = 0.2, t = 0.2)
movej(p[0.404635436765234, -0.0929508126056444, 0.27527581336606, -1.119, 1.017, -1.215], a = 0.2, v = 0.2, t = 0.2)
movej(p[0.404476240843208, -0.0929631355196224, 0.276183780553905, -1.119, 1.017, -1.215], a = 0.2, v = 0.2, t = 0.2)
movej(p[0.404265637365063, -0.0929794377496774, 0.277384948557261, -1.119, 1.017, -1.215], a = 0.2, v = 0.2, t = 0.2)
movej(p[0.404091214307335, -0.0929929393539196, 0.278379763067618, -1.119, 1.017, -1.215], a = 0.2, v = 0.2, t = 0.2)
movej(p[0.40398257289028, -0.09300134898414, 0.278999394780993, -1.119, 1.017, -1.215], a = 0.2, v = 0.2, t = 0.2)
movej(p[0.403937507959408, -0.0930048373352202, 0.279256420702472, -1.119, 1.017, -1.215], a = 0.2, v = 0.2, t = 0.2)
movej(p[0.403918701117161, -0.0930062931206214, 0.279363684729403, -1.119, 1.017, -1.215], a = 0.2, v = 0.2, t = 0.2)
movej(p[0.403918019021606, -0.093006345919743, 0.279367575032464, -1.119, 1.017, -1.215], a = 0.2, v = 0.2, t = 0.2)
movej(p[0.403969388587594, -0.0930023695443767, 0.279074590892059, -1.119, 1.017, -1.215], a = 0.2, v = 0.2, t = 0.2)
movej(p[0.404061887652126, -0.0929952094488116, 0.278547026401506, -1.119, 1.017, -1.215], a = 0.2, v = 0.2, t = 0.2)
movej(p[0.404221240715152, -0.0929828743709853, 0.277638162966628, -1.119, 1.017, -1.215], a = 0.2, v = 0.2, t = 0.2)
movej(p[0.404406304463535, -0.0929685491004459, 0.276582659728519, -1.119, 1.017, -1.215], a = 0.2, v = 0.2, t = 0.2)
movej(p[0.404560406254202, -0.0929566205090216, 0.275703746702776, -1.119, 1.017, -1.215], a = 0.2, v = 0.2, t = 0.2)
movej(p[0.404674911966204, -0.092947756940024, 0.275050668231945, -1.119, 1.017, -1.215], a = 0.2, v = 0.2, t = 0.2)
movej(p[0.404768972079804, -0.0929404760079882, 0.27451420036426, -1.119, 1.017, -1.215], a = 0.2, v = 0.2, t = 0.2)
movej(p[0.404856038555436, -0.0929337364340347, 0.274017620414036, -1.119, 1.017, -1.215], a = 0.2, v = 0.2, t = 0.2)
movej(p[0.404852481297605, -0.092934011791479, 0.274037909083165, -1.119, 1.017, -1.215], a = 0.2, v = 0.2, t = 0.2)
movej(p[0.40472628498584, -0.0929437802973204, 0.274757664393802, -1.119, 1.017, -1.215], a = 0.2, v = 0.2, t = 0.2)
movej(p[0.404531999996285, -0.0929588193585165, 0.275865760589749, -1.119, 1.017, -1.215], a = 0.2, v = 0.2, t = 0.2)
movej(p[0.404354137104772, -0.0929725872307341, 0.276880194046176, -1.119, 1.017, -1.215], a = 0.2, v = 0.2, t = 0.2)
movej(p[0.404186704231363, -0.0929855477442314, 0.277835140336808, -1.119, 1.017, -1.215], a = 0.2, v = 0.2, t = 0.2)
movej(p[0.404058929602289, -0.0929954384232301, 0.278563897513262, -1.119, 1.017, -1.215], a = 0.2, v = 0.2, t = 0.2)
movej(p[0.403978898208405, -0.0930016334310534, 0.27902035317318, -1.119, 1.017, -1.215], a = 0.2, v = 0.2, t = 0.2)
movej(p[0.403952237769744, -0.0930036971415307, 0.27917240985409, -1.119, 1.017, -1.215], a = 0.2, v = 0.2, t = 0.2)
movej(p[0.403936231836332, -0.0930049361163617, 0.2792636990163, -1.119, 1.017, -1.215], a = 0.2, v = 0.2, t = 0.2)
movej(p[0.40393674642994, -0.0930048962831003, 0.279260764053484, -1.119, 1.017, -1.215], a = 0.2, v = 0.2, t = 0.2)
movej(p[0.403950248468278, -0.0930038511278297, 0.279183755750613, -1.119, 1.017, -1.215], a = 0.2, v = 0.2, t = 0.2)
movej(p[0.403992536493171, -0.0930005777293254, 0.278942567794583, -1.119, 1.017, -1.215], a = 0.2, v = 0.2, t = 0.2)
movej(p[0.404093749285245, -0.0929927431283234, 0.278365304928647, -1.119, 1.017, -1.215], a = 0.2, v = 0.2, t = 0.2)
movej(p[0.404260612306672, -0.0929798267254847, 0.277413608764623, -1.119, 1.017, -1.215], a = 0.2, v = 0.2, t = 0.2)
movej(p[0.404428874055692, -0.0929668020510295, 0.276453935017106, -1.119, 1.017, -1.215], a = 0.2, v = 0.2, t = 0.2)
movej(p[0.40455619280318, -0.0929569466605576, 0.275727777941938, -1.119, 1.017, -1.215], a = 0.2, v = 0.2, t = 0.2)
movej(p[0.404652048813936, -0.092949526713113, 0.275181067251004, -1.119, 1.017, -1.215], a = 0.2, v = 0.2, t = 0.2)
movej(p[0.404713143853759, -0.0929447975158406, 0.274832614283156, -1.119, 1.017, -1.215], a = 0.2, v = 0.2, t = 0.2)
movej(p[0.404674152163561, -0.0929478157542355, 0.275055001734089, -1.119, 1.017, -1.215], a = 0.2, v = 0.2, t = 0.2)
movej(p[0.404541462992844, -0.0929580868542471, 0.27581178879032, -1.119, 1.017, -1.215], a = 0.2, v = 0.2, t = 0.2)
movej(p[0.404346953516144, -0.0929731432923693, 0.276921165339173, -1.119, 1.017, -1.215], a = 0.2, v = 0.2, t = 0.2)
movej(p[0.40419086587766, -0.0929852256027552, 0.277811404563701, -1.119, 1.017, -1.215], a = 0.2, v = 0.2, t = 0.2)
movej(p[0.404042013632529, -0.0929967478414461, 0.278660377029176, -1.119, 1.017, -1.215], a = 0.2, v = 0.2, t = 0.2)
movej(p[0.403965468696684, -0.0930026729722401, 0.279096947823574, -1.119, 1.017, -1.215], a = 0.2, v = 0.2, t = 0.2)
movej(p[0.403940086107923, -0.0930046377679074, 0.279241716341788, -1.119, 1.017, -1.215], a = 0.2, v = 0.2, t = 0.2)
movej(p[0.403997427377323, -0.0930001991395731, 0.278914672844305, -1.119, 1.017, -1.215], a = 0.2, v = 0.2, t = 0.2)
movej(p[0.404120121344267, -0.0929907017405126, 0.278214893008777, -1.119, 1.017, -1.215], a = 0.2, v = 0.2, t = 0.2)
movej(p[0.404307029340884, -0.0929762337118419, 0.277148871179101, -1.119, 1.017, -1.215], a = 0.2, v = 0.2, t = 0.2)
movej(p[0.404506891972571, -0.0929607629008665, 0.27600896313787, -1.119, 1.017, -1.215], a = 0.2, v = 0.2, t = 0.2)
movej(p[0.404649337699959, -0.0929497365729128, 0.275196529974563, -1.119, 1.017, -1.215], a = 0.2, v = 0.2, t = 0.2)
movej(p[0.404734418327773, -0.0929431507179209, 0.274711276223125, -1.119, 1.017, -1.215], a = 0.2, v = 0.2, t = 0.2)
movej(p[0.404746782388969, -0.0929421936502988, 0.274640758324601, -1.119, 1.017, -1.215], a = 0.2, v = 0.2, t = 0.2)
movej(p[0.404706702799532, -0.092945296099951, 0.274869350562694, -1.119, 1.017, -1.215], a = 0.2, v = 0.2, t = 0.2)
movej(p[0.40457943585677, -0.092955147480363, 0.275595212171807, -1.119, 1.017, -1.215], a = 0.2, v = 0.2, t = 0.2)
movej(p[0.404437767200267, -0.0929661136574186, 0.276403213344285, -1.119, 1.017, -1.215], a = 0.2, v = 0.2, t = 0.2)
movej(p[0.404325057385422, -0.0929748382110074, 0.277046048991867, -1.119, 1.017, -1.215], a = 0.2, v = 0.2, t = 0.2)
movej(p[0.4042539467653, -0.0929803426865212, 0.277451625397067, -1.119, 1.017, -1.215], a = 0.2, v = 0.2, t = 0.2)
movej(p[0.404243395869503, -0.0929811594020479, 0.277511801983657, -1.119, 1.017, -1.215], a = 0.2, v = 0.2, t = 0.2)
movej(p[0.404336402620347, -0.092973960007896, 0.276981341925763, -1.119, 1.017, -1.215], a = 0.2, v = 0.2, t = 0.2)
movej(p[0.4045148180956, -0.0929601493617065, 0.275963756831414, -1.119, 1.017, -1.215], a = 0.2, v = 0.2, t = 0.2)
movej(p[0.404702921054557, -0.0929455888343214, 0.274890919584729, -1.119, 1.017, -1.215], a = 0.2, v = 0.2, t = 0.2)
movej(p[0.404870440269176, -0.0929326216373911, 0.273935480850671, -1.119, 1.017, -1.215], a = 0.2, v = 0.2, t = 0.2)
movej(p[0.405042069325365, -0.0929193363090444, 0.272956601809563, -1.119, 1.017, -1.215], a = 0.2, v = 0.2, t = 0.2)
movej(p[0.405182978179224, -0.0929084289462002, 0.272152934139229, -1.119, 1.017, -1.215], a = 0.2, v = 0.2, t = 0.2)
movej(p[0.40527263489114, -0.0929014888692532, 0.271641580886242, -1.119, 1.017, -1.215], a = 0.2, v = 0.2, t = 0.2)
movej(p[0.405242519077276, -0.0929038200507238, 0.271813345153039, -1.119, 1.017, -1.215], a = 0.2, v = 0.2, t = 0.2)
movej(p[0.405156195136046, -0.0929105021471525, 0.272305690089803, -1.119, 1.017, -1.215], a = 0.2, v = 0.2, t = 0.2)
movej(p[0.404994270831801, -0.092923036257617, 0.273229218489892, -1.119, 1.017, -1.215], a = 0.2, v = 0.2, t = 0.2)
movej(p[0.404847628921633, -0.0929343874004201, 0.274065584403675, -1.119, 1.017, -1.215], a = 0.2, v = 0.2, t = 0.2)
movej(p[0.404705994801614, -0.0929453509041025, 0.274873388598783, -1.119, 1.017, -1.215], a = 0.2, v = 0.2, t = 0.2)
movej(p[0.404584081013839, -0.0929547879116614, 0.275568718715518, -1.119, 1.017, -1.215], a = 0.2, v = 0.2, t = 0.2)
movej(p[0.404451150087735, -0.0929650777252857, 0.27632688461334, -1.119, 1.017, -1.215], a = 0.2, v = 0.2, t = 0.2)
movej(p[0.404332051023389, -0.092974296852925, 0.277006161074406, -1.119, 1.017, -1.215], a = 0.2, v = 0.2, t = 0.2)
movej(p[0.404238198128693, -0.0929815617447214, 0.277541447077869, -1.119, 1.017, -1.215], a = 0.2, v = 0.2, t = 0.2)
movej(p[0.404174115683022, -0.0929865221887796, 0.277906938588238, -1.119, 1.017, -1.215], a = 0.2, v = 0.2, t = 0.2)
movej(p[0.404157356854264, -0.0929878194431473, 0.278002521857118, -1.119, 1.017, -1.215], a = 0.2, v = 0.2, t = 0.2)
movej(p[0.404215041416312, -0.0929833542414829, 0.277673520404575, -1.119, 1.017, -1.215], a = 0.2, v = 0.2, t = 0.2)
movej(p[0.40432139651814, -0.0929751215885715, 0.277066928593106, -1.119, 1.017, -1.215], a = 0.2, v = 0.2, t = 0.2)
movej(p[0.404451219160703, -0.0929650723785393, 0.2763264906586, -1.119, 1.017, -1.215], a = 0.2, v = 0.2, t = 0.2)
movej(p[0.404559646451559, -0.092956679323233, 0.27570808020492, -1.119, 1.017, -1.215], a = 0.2, v = 0.2, t = 0.2)
movej(p[0.404651461693712, -0.0929495721604582, 0.275184415866297, -1.119, 1.017, -1.215], a = 0.2, v = 0.2, t = 0.2)
movej(p[0.404617477793663, -0.0929522027597324, 0.275378241598554, -1.119, 1.017, -1.215], a = 0.2, v = 0.2, t = 0.2)
movej(p[0.404499414823831, -0.0929613416861743, 0.276051608738514, -1.119, 1.017, -1.215], a = 0.2, v = 0.2, t = 0.2)
movej(p[0.404305786027468, -0.0929763299532787, 0.277155962364427, -1.119, 1.017, -1.215], a = 0.2, v = 0.2, t = 0.2)
movej(p[0.404151207633325, -0.0929882954372538, 0.278037593677878, -1.119, 1.017, -1.215], a = 0.2, v = 0.2, t = 0.2)
movej(p[0.404039881004655, -0.092996912922244, 0.278672540381785, -1.119, 1.017, -1.215], a = 0.2, v = 0.2, t = 0.2)
movej(p[0.403988392633163, -0.0930008984940143, 0.278966202124344, -1.119, 1.017, -1.215], a = 0.2, v = 0.2, t = 0.2)
movej(p[0.403994303379681, -0.0930004409595501, 0.278932490432324, -1.119, 1.017, -1.215], a = 0.2, v = 0.2, t = 0.2)
movej(p[0.404047843390993, -0.0929962965760421, 0.27862712724909, -1.119, 1.017, -1.215], a = 0.2, v = 0.2, t = 0.2)
movej(p[0.40416082604406, -0.0929875509028047, 0.277982735480283, -1.119, 1.017, -1.215], a = 0.2, v = 0.2, t = 0.2)
movej(p[0.404308773433315, -0.0929760987064929, 0.277138923821907, -1.119, 1.017, -1.215], a = 0.2, v = 0.2, t = 0.2)
movej(p[0.40446385951377, -0.0929640939239312, 0.276254396941114, -1.119, 1.017, -1.215], a = 0.2, v = 0.2, t = 0.2)
movej(p[0.404577674496096, -0.0929552838223985, 0.275605258017686, -1.119, 1.017, -1.215], a = 0.2, v = 0.2, t = 0.2)
movej(p[0.404645832246854, -0.0929500079202973, 0.275216523177636, -1.119, 1.017, -1.215], a = 0.2, v = 0.2, t = 0.2)
movej(p[0.404653585687465, -0.0929494077480035, 0.275172301758031, -1.119, 1.017, -1.215], a = 0.2, v = 0.2, t = 0.2)
movej(p[0.404582164238989, -0.0929549362838765, 0.275579650959563, -1.119, 1.017, -1.215], a = 0.2, v = 0.2, t = 0.2)
movej(p[0.404408929236303, -0.0929683459240791, 0.276567689448385, -1.119, 1.017, -1.215], a = 0.2, v = 0.2, t = 0.2)
movej(p[0.404220774472621, -0.0929829104615241, 0.277640822161125, -1.119, 1.017, -1.215], a = 0.2, v = 0.2, t = 0.2)
movej(p[0.404092379913663, -0.0929928491275726, 0.278373115081374, -1.119, 1.017, -1.215], a = 0.2, v = 0.2, t = 0.2)
movej(p[0.404019756595552, -0.0929984706968345, 0.278787319095389, -1.119, 1.017, -1.215], a = 0.2, v = 0.2, t = 0.2)
movej(p[0.403991216163396, -0.0930006799323846, 0.278950098239445, -1.119, 1.017, -1.215], a = 0.2, v = 0.2, t = 0.2)
movej(p[0.404000100920786, -0.0929999921880024, 0.278899424402578, -1.119, 1.017, -1.215], a = 0.2, v = 0.2, t = 0.2)
movej(p[0.404059318137732, -0.0929954083477811, 0.278561681517848, -1.119, 1.017, -1.215], a = 0.2, v = 0.2, t = 0.2)
movej(p[0.404161045350732, -0.0929875339268846, 0.277981484673983, -1.119, 1.017, -1.215], a = 0.2, v = 0.2, t = 0.2)
movej(p[0.404295943129588, -0.0929770918646539, 0.277212100914929, -1.119, 1.017, -1.215], a = 0.2, v = 0.2, t = 0.2)
movej(p[0.404456226950852, -0.0929646847394186, 0.276297928939924, -1.119, 1.017, -1.215], a = 0.2, v = 0.2, t = 0.2)
movej(p[0.404565793945673, -0.0929562034627952, 0.275673018233028, -1.119, 1.017, -1.215], a = 0.2, v = 0.2, t = 0.2)
movej(p[0.404609845230746, -0.0929527935752198, 0.275421773597364, -1.119, 1.017, -1.215], a = 0.2, v = 0.2, t = 0.2)
movej(p[0.404565431312593, -0.0929562315332143, 0.275675086495415, -1.119, 1.017, -1.215], a = 0.2, v = 0.2, t = 0.2)
movej(p[0.404465810825104, -0.0929639428783428, 0.276243267719699, -1.119, 1.017, -1.215], a = 0.2, v = 0.2, t = 0.2)
movej(p[0.404307754607044, -0.0929761775710037, 0.277144734654327, -1.119, 1.017, -1.215], a = 0.2, v = 0.2, t = 0.2)
movej(p[0.404143272876174, -0.0929889096447571, 0.278082849228677, -1.119, 1.017, -1.215], a = 0.2, v = 0.2, t = 0.2)
movej(p[0.404017577343424, -0.0929986393866864, 0.278799748367447, -1.119, 1.017, -1.215], a = 0.2, v = 0.2, t = 0.2)
movej(p[0.403983486725641, -0.0930012782466839, 0.278994182759778, -1.119, 1.017, -1.215], a = 0.2, v = 0.2, t = 0.2)
movej(p[0.403951035900108, -0.0930037901749197, 0.279179264666573, -1.119, 1.017, -1.215], a = 0.2, v = 0.2, t = 0.2)
movej(p[0.403943531122181, -0.0930043710989261, 0.279222067849113, -1.119, 1.017, -1.215], a = 0.2, v = 0.2, t = 0.2)
movej(p[0.40393537360471, -0.0930050025496868, 0.279268593903949, -1.119, 1.017, -1.215], a = 0.2, v = 0.2, t = 0.2)
movej(p[0.403948728862991, -0.0930039687562526, 0.279192422754901, -1.119, 1.017, -1.215], a = 0.2, v = 0.2, t = 0.2)
movej(p[0.403973918047443, -0.0930020189314755, 0.27904875730996, -1.119, 1.017, -1.215], a = 0.2, v = 0.2, t = 0.2)
movej(p[0.404056726174623, -0.0929956089844432, 0.27857646466948, -1.119, 1.017, -1.215], a = 0.2, v = 0.2, t = 0.2)
movej(p[0.404199948972896, -0.0929845225055915, 0.277759599515344, -1.119, 1.017, -1.215], a = 0.2, v = 0.2, t = 0.2)
movej(p[0.404347419758675, -0.0929731072018305, 0.276918506144676, -1.119, 1.017, -1.215], a = 0.2, v = 0.2, t = 0.2)
movej(p[0.404481162292148, -0.0929627545639349, 0.276155711278654, -1.119, 1.017, -1.215], a = 0.2, v = 0.2, t = 0.2)
movej(p[0.404587482857492, -0.0929545245843966, 0.275549316444555, -1.119, 1.017, -1.215], a = 0.2, v = 0.2, t = 0.2)
movej(p[0.40469028070149, -0.0929465672889295, 0.274963013302215, -1.119, 1.017, -1.215], a = 0.2, v = 0.2, t = 0.2)
movej(p[0.404685877299807, -0.0929469081440184, 0.274988127916913, -1.119, 1.017, -1.215], a = 0.2, v = 0.2, t = 0.2)
movej(p[0.404589693192455, -0.0929543534885089, 0.275536709892864, -1.119, 1.017, -1.215], a = 0.2, v = 0.2, t = 0.2)
movej(p[0.404405112954845, -0.0929686413318228, 0.27658945544779, -1.119, 1.017, -1.215], a = 0.2, v = 0.2, t = 0.2)
movej(p[0.404224469876386, -0.0929826244105867, 0.277619745582516, -1.119, 1.017, -1.215], a = 0.2, v = 0.2, t = 0.2)
movej(p[0.404062738976451, -0.0929951435501611, 0.278542170909331, -1.119, 1.017, -1.215], a = 0.2, v = 0.2, t = 0.2)
movej(p[0.403968576980225, -0.093002432368648, 0.279079219860258, -1.119, 1.017, -1.215], a = 0.2, v = 0.2, t = 0.2)
movej(p[0.403940298507298, -0.0930046213266619, 0.279240504930961, -1.119, 1.017, -1.215], a = 0.2, v = 0.2, t = 0.2)
movej(p[0.403939201973938, -0.0930047062062625, 0.279246758962465, -1.119, 1.017, -1.215], a = 0.2, v = 0.2, t = 0.2)
movej(p[0.403936435601586, -0.0930049203434595, 0.279262536849816, -1.119, 1.017, -1.215], a = 0.2, v = 0.2, t = 0.2)
movej(p[0.403940911529885, -0.0930045738742868, 0.279237008582641, -1.119, 1.017, -1.215], a = 0.2, v = 0.2, t = 0.2)
movej(p[0.403981585146844, -0.0930014254426148, 0.27900502833378, -1.119, 1.017, -1.215], a = 0.2, v = 0.2, t = 0.2)
movej(p[0.404062840859078, -0.09299513566371, 0.278541589826089, -1.119, 1.017, -1.215], a = 0.2, v = 0.2, t = 0.2)
movej(p[0.404191556607336, -0.0929851721352903, 0.277807465016297, -1.119, 1.017, -1.215], a = 0.2, v = 0.2, t = 0.2)
movej(p[0.404345951958114, -0.0929732208201935, 0.276926877682908, -1.119, 1.017, -1.215], a = 0.2, v = 0.2, t = 0.2)
movej(p[0.404486912616699, -0.0929623094472894, 0.276122914546519, -1.119, 1.017, -1.215], a = 0.2, v = 0.2, t = 0.2)
movej(p[0.404574445334862, -0.092955533782797, 0.275623675401798, -1.119, 1.017, -1.215], a = 0.2, v = 0.2, t = 0.2)
movej(p[0.404604025833227, -0.0929532440386117, 0.275454964284239, -1.119, 1.017, -1.215], a = 0.2, v = 0.2, t = 0.2)
movej(p[0.404599985064624, -0.0929535568232815, 0.27547801063655, -1.119, 1.017, -1.215], a = 0.2, v = 0.2, t = 0.2)
movej(p[0.404495857566, -0.0929616170436186, 0.276071897407642, -1.119, 1.017, -1.215], a = 0.2, v = 0.2, t = 0.2)
movej(p[0.404330479613377, -0.0929744184914077, 0.277015123544749, -1.119, 1.017, -1.215], a = 0.2, v = 0.2, t = 0.2)
movej(p[0.404142202245177, -0.0929889925193277, 0.278088955527153, -1.119, 1.017, -1.215], a = 0.2, v = 0.2, t = 0.2)
movej(p[0.404036865969621, -0.0929971463077284, 0.278689736506201, -1.119, 1.017, -1.215], a = 0.2, v = 0.2, t = 0.2)
movej(p[0.403962918177356, -0.0930028704008544, 0.279111494602362, -1.119, 1.017, -1.215], a = 0.2, v = 0.2, t = 0.2)
movej(p[0.403938019099368, -0.0930047977692962, 0.279253505437393, -1.119, 1.017, -1.215], a = 0.2, v = 0.2, t = 0.2)
movej(p[0.403922322267486, -0.0930060128174365, 0.27934303165214, -1.119, 1.017, -1.215], a = 0.2, v = 0.2, t = 0.2)
movej(p[0.403928578551524, -0.093005528535873, 0.279307349201532, -1.119, 1.017, -1.215], a = 0.2, v = 0.2, t = 0.2)
movej(p[0.403932577876347, -0.0930052189592511, 0.279284539222065, -1.119, 1.017, -1.215], a = 0.2, v = 0.2, t = 0.2)
movej(p[0.403979820332522, -0.0930015620519877, 0.279015093877396, -1.119, 1.017, -1.215], a = 0.2, v = 0.2, t = 0.2)
movej(p[0.404087864268408, -0.0929931986711245, 0.278398869872525, -1.119, 1.017, -1.215], a = 0.2, v = 0.2, t = 0.2)
movej(p[0.404207926900652, -0.0929839049563716, 0.277714097742832, -1.119, 1.017, -1.215], a = 0.2, v = 0.2, t = 0.2)
movej(p[0.40433716242299, -0.0929739011936846, 0.276977008423619, -1.119, 1.017, -1.215], a = 0.2, v = 0.2, t = 0.2)
movej(p[0.40446441209751, -0.0929640511499592, 0.276251245303191, -1.119, 1.017, -1.215], a = 0.2, v = 0.2, t = 0.2)
movej(p[0.404576776547518, -0.0929553533301029, 0.275610379429311, -1.119, 1.017, -1.215], a = 0.2, v = 0.2, t = 0.2)
movej(p[0.404620517004237, -0.0929519675028867, 0.275360907589978, -1.119, 1.017, -1.215], a = 0.2, v = 0.2, t = 0.2)
movej(p[0.404583165797019, -0.0929548587560524, 0.275573938615828, -1.119, 1.017, -1.215], a = 0.2, v = 0.2, t = 0.2)
movej(p[0.404481956631275, -0.0929626930763502, 0.27615118079914, -1.119, 1.017, -1.215], a = 0.2, v = 0.2, t = 0.2)
movej(p[0.40430863528738, -0.0929761093999859, 0.277139711731388, -1.119, 1.017, -1.215], a = 0.2, v = 0.2, t = 0.2)
movej(p[0.404128985132831, -0.092990015619269, 0.278164338766721, -1.119, 1.017, -1.215], a = 0.2, v = 0.2, t = 0.2)
movej(p[0.404005744971396, -0.0929995552977274, 0.278867233799357, -1.119, 1.017, -1.215], a = 0.2, v = 0.2, t = 0.2)
movej(p[0.403961686951709, -0.0930029657066106, 0.279118516845609, -1.119, 1.017, -1.215], a = 0.2, v = 0.2, t = 0.2)
movej(p[0.40394217038472, -0.093004476429832, 0.279229828757498, -1.119, 1.017, -1.215], a = 0.2, v = 0.2, t = 0.2)
movej(p[0.403953078733124, -0.0930036320448922, 0.279167613455126, -1.119, 1.017, -1.215], a = 0.2, v = 0.2, t = 0.2)
movej(p[0.404009384253375, -0.0929992735910216, 0.278846477308975, -1.119, 1.017, -1.215], a = 0.2, v = 0.2, t = 0.2)
movej(p[0.404115405387405, -0.0929910667896294, 0.278241790268675, -1.119, 1.017, -1.215], a = 0.2, v = 0.2, t = 0.2)
movej(p[0.404247419369864, -0.0929808479540647, 0.277488854120031, -1.119, 1.017, -1.215], a = 0.2, v = 0.2, t = 0.2)
movej(p[0.404387015837339, -0.0929700421794038, 0.276692671589764, -1.119, 1.017, -1.215], a = 0.2, v = 0.2, t = 0.2)
movej(p[0.404531930923318, -0.092958824705263, 0.27586615454449, -1.119, 1.017, -1.215], a = 0.2, v = 0.2, t = 0.2)
movej(p[0.404602972470472, -0.0929533255764957, 0.27546097209403, -1.119, 1.017, -1.215], a = 0.2, v = 0.2, t = 0.2)
movej(p[0.404589382364101, -0.0929543775488681, 0.275538482689195, -1.119, 1.017, -1.215], a = 0.2, v = 0.2, t = 0.2)
movej(p[0.404476465330353, -0.0929631181426963, 0.276182500200998, -1.119, 1.017, -1.215], a = 0.2, v = 0.2, t = 0.2)
movej(p[0.404321189299238, -0.0929751376288109, 0.277068110457327, -1.119, 1.017, -1.215], a = 0.2, v = 0.2, t = 0.2)
movej(p[0.404144082756719, -0.0929888469541545, 0.278078230109347, -1.119, 1.017, -1.215], a = 0.2, v = 0.2, t = 0.2)
movej(p[0.404015779719443, -0.0929987785357638, 0.278810001039565, -1.119, 1.017, -1.215], a = 0.2, v = 0.2, t = 0.2)
movej(p[0.403968435380641, -0.0930024433294783, 0.279080027467476, -1.119, 1.017, -1.215], a = 0.2, v = 0.2, t = 0.2)
movej(p[0.403951949390104, -0.0930037194641973, 0.279174054615131, -1.119, 1.017, -1.215], a = 0.2, v = 0.2, t = 0.2)
movej(p[0.403944475695012, -0.0930042979821678, 0.279216680518038, -1.119, 1.017, -1.215], a = 0.2, v = 0.2, t = 0.2)
movej(p[0.403963272176315, -0.0930028429987786, 0.279109475584318, -1.119, 1.017, -1.215], a = 0.2, v = 0.2, t = 0.2)
movej(p[0.404037283861074, -0.0929971139599121, 0.278687353080022, -1.119, 1.017, -1.215], a = 0.2, v = 0.2, t = 0.2)
movej(p[0.404154728627847, -0.0929880228868513, 0.278017511834989, -1.119, 1.017, -1.215], a = 0.2, v = 0.2, t = 0.2)
movej(p[0.404308548946171, -0.092976116083419, 0.277140204174813, -1.119, 1.017, -1.215], a = 0.2, v = 0.2, t = 0.2)
movej(p[0.40446158010584, -0.0929642703665654, 0.276267397447546, -1.119, 1.017, -1.215], a = 0.2, v = 0.2, t = 0.2)
movej(p[0.40458062736546, -0.092955055248986, 0.275588416452536, -1.119, 1.017, -1.215], a = 0.2, v = 0.2, t = 0.2)
movej(p[0.404634935986219, -0.0929508513695564, 0.275278669537928, -1.119, 1.017, -1.215], a = 0.2, v = 0.2, t = 0.2)
movej(p[0.404603525054212, -0.0929532828025238, 0.275457820456107, -1.119, 1.017, -1.215], a = 0.2, v = 0.2, t = 0.2)
movej(p[0.404505268757833, -0.0929608885494091, 0.276018221074268, -1.119, 1.017, -1.215], a = 0.2, v = 0.2, t = 0.2)
movej(p[0.404316008826669, -0.0929755386347979, 0.277097657062854, -1.119, 1.017, -1.215], a = 0.2, v = 0.2, t = 0.2)
movej(p[0.404137885184703, -0.0929893266909835, 0.278113577698425, -1.119, 1.017, -1.215], a = 0.2, v = 0.2, t = 0.2)
movej(p[0.40401330448965, -0.0929989701364244, 0.278824118407686, -1.119, 1.017, -1.215], a = 0.2, v = 0.2, t = 0.2)
movej(p[0.403969155466328, -0.0930023875896461, 0.279075920489308, -1.119, 1.017, -1.215], a = 0.2, v = 0.2, t = 0.2)
movej(p[0.403954211529793, -0.0930035443582497, 0.279161152597384, -1.119, 1.017, -1.215], a = 0.2, v = 0.2, t = 0.2)
movej(p[0.403949143300797, -0.0930039366757736, 0.279190059026458, -1.119, 1.017, -1.215], a = 0.2, v = 0.2, t = 0.2)
movej(p[0.403964461958181, -0.0930027509010703, 0.279102689713915, -1.119, 1.017, -1.215], a = 0.2, v = 0.2, t = 0.2)
movej(p[0.403965510140464, -0.0930026697641922, 0.27909671145073, -1.119, 1.017, -1.215], a = 0.2, v = 0.2, t = 0.2)
movej(p[0.404012338331516, -0.092999044924041, 0.278829628849616, -1.119, 1.017, -1.215], a = 0.2, v = 0.2, t = 0.2)
movej(p[0.404101582159769, -0.0929921368072711, 0.27832063046109, -1.119, 1.017, -1.215], a = 0.2, v = 0.2, t = 0.2)
movej(p[0.40422942586181, -0.0929822407815259, 0.277591479329895, -1.119, 1.017, -1.215], a = 0.2, v = 0.2, t = 0.2)
movej(p[0.404348887559236, -0.0929729935834676, 0.276910134606443, -1.119, 1.017, -1.215], a = 0.2, v = 0.2, t = 0.2)
movej(p[0.404461355618695, -0.0929642877434915, 0.276268677800452, -1.119, 1.017, -1.215], a = 0.2, v = 0.2, t = 0.2)
movej(p[0.404562875612793, -0.0929564293628345, 0.275689662820808, -1.119, 1.017, -1.215], a = 0.2, v = 0.2, t = 0.2)
movej(p[0.404600295892978, -0.0929535327629223, 0.275476237840218, -1.119, 1.017, -1.215], a = 0.2, v = 0.2, t = 0.2)
movej(p[0.404560302644751, -0.0929566285291413, 0.275704337634887, -1.119, 1.017, -1.215], a = 0.2, v = 0.2, t = 0.2)
movej(p[0.404436023107836, -0.0929662486627676, 0.276413160701479, -1.119, 1.017, -1.215], a = 0.2, v = 0.2, t = 0.2)
movej(p[0.404286652815449, -0.0929778110020571, 0.277265087827507, -1.119, 1.017, -1.215], a = 0.2, v = 0.2, t = 0.2)
movej(p[0.404122837638716, -0.0929904914797068, 0.278199400738613, -1.119, 1.017, -1.215], a = 0.2, v = 0.2, t = 0.2)
movej(p[0.404020095053093, -0.0929984444977767, 0.278785388717161, -1.119, 1.017, -1.215], a = 0.2, v = 0.2, t = 0.2)
movej(p[0.403973702194419, -0.0930020356400583, 0.279049988418523, -1.119, 1.017, -1.215], a = 0.2, v = 0.2, t = 0.2)
movej(p[0.403952134160293, -0.0930037051616505, 0.279173000786201, -1.119, 1.017, -1.215], a = 0.2, v = 0.2, t = 0.2)
movej(p[0.403941070397711, -0.0930045615767699, 0.279236102486738, -1.119, 1.017, -1.215], a = 0.2, v = 0.2, t = 0.2)
movej(p[0.40394669639092, -0.0930041260842681, 0.279204014873136, -1.119, 1.017, -1.215], a = 0.2, v = 0.2, t = 0.2)
movej(p[0.403973659023814, -0.0930020389817748, 0.279050234640236, -1.119, 1.017, -1.215], a = 0.2, v = 0.2, t = 0.2)
movej(p[0.404034147948346, -0.0929973567022029, 0.278705238625235, -1.119, 1.017, -1.215], a = 0.2, v = 0.2, t = 0.2)
movej(p[0.404142124538088, -0.0929889985344175, 0.278089398726236, -1.119, 1.017, -1.215], a = 0.2, v = 0.2, t = 0.2)
movej(p[0.404288517785573, -0.0929776666399018, 0.277254451049517, -1.119, 1.017, -1.215], a = 0.2, v = 0.2, t = 0.2)
movej(p[0.404398464681715, -0.0929691559561727, 0.27662737359155, -1.119, 1.017, -1.215], a = 0.2, v = 0.2, t = 0.2)
movej(p[0.404493060110813, -0.0929618335868516, 0.276087852574627, -1.119, 1.017, -1.215], a = 0.2, v = 0.2, t = 0.2)
movej(p[0.404564688778192, -0.0929562890107391, 0.275679321508874, -1.119, 1.017, -1.215], a = 0.2, v = 0.2, t = 0.2)
movej(p[0.404589365095859, -0.0929543788855547, 0.27553858117788, -1.119, 1.017, -1.215], a = 0.2, v = 0.2, t = 0.2)
movej(p[0.404512314200526, -0.0929603431812669, 0.275978037690752, -1.119, 1.017, -1.215], a = 0.2, v = 0.2, t = 0.2)
movej(p[0.404357383534248, -0.092972335933649, 0.276861678173379, -1.119, 1.017, -1.215], a = 0.2, v = 0.2, t = 0.2)
movej(p[0.404197134249468, -0.0929847403855111, 0.277775653171013, -1.119, 1.017, -1.215], a = 0.2, v = 0.2, t = 0.2)
movej(p[0.404070095247498, -0.0929945741216597, 0.278500214729483, -1.119, 1.017, -1.215], a = 0.2, v = 0.2, t = 0.2)
movej(p[0.403994754944207, -0.0930004060051949, 0.278929914953209, -1.119, 1.017, -1.215], a = 0.2, v = 0.2, t = 0.2)
movej(p[0.40394964753346, -0.0930038976445242, 0.279187183156854, -1.119, 1.017, -1.215], a = 0.2, v = 0.2, t = 0.2)
movej(p[0.403955093936953, -0.0930034760535633, 0.279156119825576, -1.119, 1.017, -1.215], a = 0.2, v = 0.2, t = 0.2)
movej(p[0.403978841223207, -0.0930016378421192, 0.279020678185841, -1.119, 1.017, -1.215], a = 0.2, v = 0.2, t = 0.2)
movej(p[0.404075027057383, -0.0929941923639601, 0.278472086361021, -1.119, 1.017, -1.215], a = 0.2, v = 0.2, t = 0.2)
movej(p[0.40422067086317, -0.0929829184816438, 0.277641413093236, -1.119, 1.017, -1.215], a = 0.2, v = 0.2, t = 0.2)
movej(p[0.404368918719834, -0.0929714430269848, 0.276795887731739, -1.119, 1.017, -1.215], a = 0.2, v = 0.2, t = 0.2)
movej(p[0.404496807319304, -0.0929615435258544, 0.276066480529962, -1.119, 1.017, -1.215], a = 0.2, v = 0.2, t = 0.2)
movej(p[0.404607306799187, -0.0929529900681534, 0.275436251434072, -1.119, 1.017, -1.215], a = 0.2, v = 0.2, t = 0.2)
movej(p[0.404687189686191, -0.092946806555835, 0.274980642776846, -1.119, 1.017, -1.215], a = 0.2, v = 0.2, t = 0.2)
movej(p[0.404672995191354, -0.0929479053122392, 0.27506160047599, -1.119, 1.017, -1.215], a = 0.2, v = 0.2, t = 0.2)
movej(p[0.404561425080474, -0.0929565416445108, 0.275697935870356, -1.119, 1.017, -1.215], a = 0.2, v = 0.2, t = 0.2)
movej(p[0.404385772523923, -0.0929701384208407, 0.276699762775091, -1.119, 1.017, -1.215], a = 0.2, v = 0.2, t = 0.2)
movej(p[0.404209083872859, -0.0929838153983679, 0.277707499000931, -1.119, 1.017, -1.215], a = 0.2, v = 0.2, t = 0.2)
movej(p[0.404058585964275, -0.0929954650232939, 0.278565857438095, -1.119, 1.017, -1.215], a = 0.2, v = 0.2, t = 0.2)
movej(p[0.403978658179843, -0.0930016520109974, 0.279021722165903, -1.119, 1.017, -1.215], a = 0.2, v = 0.2, t = 0.2)
movej(p[0.403953165074334, -0.0930036253614591, 0.279167121011701, -1.119, 1.017, -1.215], a = 0.2, v = 0.2, t = 0.2)
movej(p[0.403946040197728, -0.0930041768783598, 0.279207757443169, -1.119, 1.017, -1.215], a = 0.2, v = 0.2, t = 0.2)
movej(p[0.403943743521556, -0.0930043546576806, 0.279220856438286, -1.119, 1.017, -1.215], a = 0.2, v = 0.2, t = 0.2)
movej(p[0.403965245936363, -0.0930026902154976, 0.279098218327612, -1.119, 1.017, -1.215], a = 0.2, v = 0.2, t = 0.2)
movej(p[0.404047765683904, -0.0929963025911319, 0.278627570448173, -1.119, 1.017, -1.215], a = 0.2, v = 0.2, t = 0.2)
movej(p[0.404153385158628, -0.0929881268810706, 0.278025174254689, -1.119, 1.017, -1.215], a = 0.2, v = 0.2, t = 0.2)
movej(p[0.404298377951695, -0.09297690339184, 0.277198214010331, -1.119, 1.017, -1.215], a = 0.2, v = 0.2, t = 0.2)
movej(p[0.404445037130105, -0.0929655509123503, 0.276361749607862, -1.119, 1.017, -1.215], a = 0.2, v = 0.2, t = 0.2)
movej(p[0.404563825366097, -0.0929563558450702, 0.275684245943128, -1.119, 1.017, -1.215], a = 0.2, v = 0.2, t = 0.2)
movej(p[0.404640772651979, -0.0929503995694778, 0.275245380362368, -1.119, 1.017, -1.215], a = 0.2, v = 0.2, t = 0.2)
movej(p[0.404650028429634, -0.0929496831054479, 0.275192590427159, -1.119, 1.017, -1.215], a = 0.2, v = 0.2, t = 0.2)
movej(p[0.404578019860934, -0.0929552570886661, 0.275603288243984, -1.119, 1.017, -1.215], a = 0.2, v = 0.2, t = 0.2)
movej(p[0.404402988961092, -0.0929688057442775, 0.276601569556056, -1.119, 1.017, -1.215], a = 0.2, v = 0.2, t = 0.2)
movej(p[0.404196806152872, -0.0929847657825569, 0.27777752445603, -1.119, 1.017, -1.215], a = 0.2, v = 0.2, t = 0.2)
movej(p[0.404036429083101, -0.0929971801259, 0.278692228269934, -1.119, 1.017, -1.215], a = 0.2, v = 0.2, t = 0.2)
movej(p[0.403969088120185, -0.0930023928027239, 0.279076304595179, -1.119, 1.017, -1.215], a = 0.2, v = 0.2, t = 0.2)
movej(p[0.403935273448907, -0.0930050103024692, 0.279269165138323, -1.119, 1.017, -1.215], a = 0.2, v = 0.2, t = 0.2)
movej(p[0.403948285069174, -0.0930040031090988, 0.279194953914107, -1.119, 1.017, -1.215], a = 0.2, v = 0.2, t = 0.2)
movej(p[0.404003408923632, -0.0929997361246937, 0.278880557348676, -1.119, 1.017, -1.215], a = 0.2, v = 0.2, t = 0.2)
movej(p[0.404104890754916, -0.0929918806981142, 0.278301760029027, -1.119, 1.017, -1.215], a = 0.2, v = 0.2, t = 0.2)
movej(p[0.404251201114839, -0.0929805552196942, 0.277467285097997, -1.119, 1.017, -1.215], a = 0.2, v = 0.2, t = 0.2)
movej(p[0.404413608929857, -0.0929679836820043, 0.276540999014726, -1.119, 1.017, -1.215], a = 0.2, v = 0.2, t = 0.2)
movej(p[0.404565517653803, -0.0929562248497812, 0.27567459405199, -1.119, 1.017, -1.215], a = 0.2, v = 0.2, t = 0.2)
movej(p[0.404655260706928, -0.0929492780894011, 0.275162748355577, -1.119, 1.017, -1.215], a = 0.2, v = 0.2, t = 0.2)
movej(p[0.404673720457514, -0.092947849171401, 0.275057463951216, -1.119, 1.017, -1.215], a = 0.2, v = 0.2, t = 0.2)
movej(p[0.404632086726306, -0.0929510719228493, 0.275294920170968, -1.119, 1.017, -1.215], a = 0.2, v = 0.2, t = 0.2)
movej(p[0.404477294205964, -0.0929630539817384, 0.276177772744114, -1.119, 1.017, -1.215], a = 0.2, v = 0.2, t = 0.2)
movej(p[0.404288500517331, -0.0929776679765884, 0.277254549538202, -1.119, 1.017, -1.215], a = 0.2, v = 0.2, t = 0.2)
movej(p[0.404114122357032, -0.0929911661054455, 0.278249107977978, -1.119, 1.017, -1.215], a = 0.2, v = 0.2, t = 0.2)
movej(p[0.404020616553998, -0.0929984041298407, 0.278782414358871, -1.119, 1.017, -1.215], a = 0.2, v = 0.2, t = 0.2)
movej(p[0.403969430031374, -0.0930023663363288, 0.279074354519215, -1.119, 1.017, -1.215], a = 0.2, v = 0.2, t = 0.2)
movej(p[0.403959046637523, -0.0930031700859953, 0.279133575765559, -1.119, 1.017, -1.215], a = 0.2, v = 0.2, t = 0.2)
movej(p[0.403994966998217, -0.0930003895906832, 0.278928705512156, -1.119, 1.017, -1.215], a = 0.2, v = 0.2, t = 0.2)
movej(p[0.404084572941502, -0.0929934534435949, 0.278417641815904, -1.119, 1.017, -1.215], a = 0.2, v = 0.2, t = 0.2)
movej(p[0.404222829393407, -0.0929827513958159, 0.277629102007599, -1.119, 1.017, -1.215], a = 0.2, v = 0.2, t = 0.2)
movej(p[0.404381317317514, -0.0929704832859894, 0.276725172855844, -1.119, 1.017, -1.215], a = 0.2, v = 0.2, t = 0.2)
movej(p[0.404534193063006, -0.0929586495993154, 0.275853252526743, -1.119, 1.017, -1.215], a = 0.2, v = 0.2, t = 0.2)
movej(p[0.404629289271119, -0.0929512884660822, 0.275310875337952, -1.119, 1.017, -1.215], a = 0.2, v = 0.2, t = 0.2)
movej(p[0.404673202410257, -0.0929478892719997, 0.275060418611769, -1.119, 1.017, -1.215], a = 0.2, v = 0.2, t = 0.2)
movej(p[0.404643777326069, -0.0929501669860054, 0.275228243331162, -1.119, 1.017, -1.215], a = 0.2, v = 0.2, t = 0.2)
movej(p[0.404540927677345, -0.0929581282915324, 0.275814841939558, -1.119, 1.017, -1.215], a = 0.2, v = 0.2, t = 0.2)
movej(p[0.40434892209572, -0.0929729909100943, 0.276909937629073, -1.119, 1.017, -1.215], a = 0.2, v = 0.2, t = 0.2)
movej(p[0.404156605685741, -0.0929878775890154, 0.278006806114919, -1.119, 1.017, -1.215], a = 0.2, v = 0.2, t = 0.2)
movej(p[0.404035942118679, -0.0929972178204627, 0.278695005650854, -1.119, 1.017, -1.215], a = 0.2, v = 0.2, t = 0.2)
movej(p[0.403966895053464, -0.0930025625619251, 0.279088812658186, -1.119, 1.017, -1.215], a = 0.2, v = 0.2, t = 0.2)
movej(p[0.403940498818904, -0.0930046058210971, 0.279239362462214, -1.119, 1.017, -1.215], a = 0.2, v = 0.2, t = 0.2)
movej(p[0.40393734391111, -0.0930048500337431, 0.27925735634498, -1.119, 1.017, -1.215], a = 0.2, v = 0.2, t = 0.2)
movej(p[0.403949183017753, -0.0930039336013944, 0.279189832502483, -1.119, 1.017, -1.215], a = 0.2, v = 0.2, t = 0.2)
movej(p[0.403992845422018, -0.0930005538160017, 0.278940805832006, -1.119, 1.017, -1.215], a = 0.2, v = 0.2, t = 0.2)
movej(p[0.404093455725133, -0.092992765851996, 0.278366979236293, -1.119, 1.017, -1.215], a = 0.2, v = 0.2, t = 0.2)
movej(p[0.404246797713156, -0.0929808960747831, 0.277492399712695, -1.119, 1.017, -1.215], a = 0.2, v = 0.2, t = 0.2)
movej(p[0.404382543362689, -0.0929703883812392, 0.276718180159203, -1.119, 1.017, -1.215], a = 0.2, v = 0.2, t = 0.2)
movej(p[0.404498896776574, -0.092961381786773, 0.276054563399067, -1.119, 1.017, -1.215], a = 0.2, v = 0.2, t = 0.2)
movej(p[0.404596859512841, -0.0929537987635603, 0.275495837088551, -1.119, 1.017, -1.215], a = 0.2, v = 0.2, t = 0.2)
movej(p[0.404664827312938, -0.0929485375650119, 0.275108185624037, -1.119, 1.017, -1.215], a = 0.2, v = 0.2, t = 0.2)
movej(p[0.404642810304522, -0.0929502418404563, 0.275233758697527, -1.119, 1.017, -1.215], a = 0.2, v = 0.2, t = 0.2)
movej(p[0.404537094127644, -0.0929584250359627, 0.275836706427648, -1.119, 1.017, -1.215], a = 0.2, v = 0.2, t = 0.2)
movej(p[0.404384270186878, -0.0929702547125769, 0.276708331290694, -1.119, 1.017, -1.215], a = 0.2, v = 0.2, t = 0.2)
movej(p[0.404211242403095, -0.09298364831254, 0.277695187915295, -1.119, 1.017, -1.215], a = 0.2, v = 0.2, t = 0.2)
movej(p[0.404068159477582, -0.0929947239642301, 0.278511255311082, -1.119, 1.017, -1.215], a = 0.2, v = 0.2, t = 0.2)
movej(p[0.403966511698494, -0.0930025922363681, 0.279090999106995, -1.119, 1.017, -1.215], a = 0.2, v = 0.2, t = 0.2)
movej(p[0.40394283003156, -0.093004425368403, 0.279226066489727, -1.119, 1.017, -1.215], a = 0.2, v = 0.2, t = 0.2)
movej(p[0.403927611529978, -0.0930056033903239, 0.279312864567897, -1.119, 1.017, -1.215], a = 0.2, v = 0.2, t = 0.2)
movej(p[0.40393521301006, -0.0930050149808724, 0.27926950984872, -1.119, 1.017, -1.215], a = 0.2, v = 0.2, t = 0.2)
movej(p[0.403975644871632, -0.0930018852628132, 0.279038908441451, -1.119, 1.017, -1.215], a = 0.2, v = 0.2, t = 0.2)
movej(p[0.404054317254879, -0.0929957954522271, 0.27859020384105, -1.119, 1.017, -1.215], a = 0.2, v = 0.2, t = 0.2)
movej(p[0.404172768760154, -0.0929866264503362, 0.277914620705675, -1.119, 1.017, -1.215], a = 0.2, v = 0.2, t = 0.2)
movej(p[0.404318547258228, -0.0929753421418643, 0.277083179226146, -1.119, 1.017, -1.215], a = 0.2, v = 0.2, t = 0.2)
movej(p[0.404457332118334, -0.0929645991914747, 0.276291625664078, -1.119, 1.017, -1.215], a = 0.2, v = 0.2, t = 0.2)
movej(p[0.404557695140224, -0.0929568303688214, 0.275719209426335, -1.119, 1.017, -1.215], a = 0.2, v = 0.2, t = 0.2)
movej(p[0.404610743179324, -0.0929527240675154, 0.275416652185739, -1.119, 1.017, -1.215], a = 0.2, v = 0.2, t = 0.2)
movej(p[0.404599087116046, -0.0929536263309859, 0.275483132048175, -1.119, 1.017, -1.215], a = 0.2, v = 0.2, t = 0.2)
movej(p[0.404516130481984, -0.0929600477735231, 0.275956271691347, -1.119, 1.017, -1.215], a = 0.2, v = 0.2, t = 0.2)
movej(p[0.404351719550907, -0.0929727743668614, 0.276893982462088, -1.119, 1.017, -1.215], a = 0.2, v = 0.2, t = 0.2)
movej(p[0.404184632042336, -0.0929857081466262, 0.277846958979018, -1.119, 1.017, -1.215], a = 0.2, v = 0.2, t = 0.2)
movej(p[0.404059789560736, -0.0929953718562363, 0.278558992776745, -1.119, 1.017, -1.215], a = 0.2, v = 0.2, t = 0.2)
movej(p[0.403988040879076, -0.0930009257223208, 0.278968208338859, -1.119, 1.017, -1.215], a = 0.2, v = 0.2, t = 0.2)
movej(p[0.40395604887073, -0.093003402134793, 0.279150673401291, -1.119, 1.017, -1.215], a = 0.2, v = 0.2, t = 0.2)
movej(p[0.403952287847646, -0.0930036932651395, 0.279172124236903, -1.119, 1.017, -1.215], a = 0.2, v = 0.2, t = 0.2)
movej(p[0.403973450078087, -0.093002055155683, 0.279051426353326, -1.119, 1.017, -1.215], a = 0.2, v = 0.2, t = 0.2)
movej(p[0.404025446481256, -0.0929980302585923, 0.278754867073651, -1.119, 1.017, -1.215], a = 0.2, v = 0.2, t = 0.2)
movej(p[0.404146488222815, -0.0929886607537079, 0.278064510635514, -1.119, 1.017, -1.215], a = 0.2, v = 0.2, t = 0.2)
movej(p[0.40431947974329, -0.0929752699607866, 0.277077860837151, -1.119, 1.017, -1.215], a = 0.2, v = 0.2, t = 0.2)
movej(p[0.404477777716737, -0.092963016554513, 0.276175015060932, -1.119, 1.017, -1.215], a = 0.2, v = 0.2, t = 0.2)
movej(p[0.404606287972916, -0.0929530689326641, 0.275442062266492, -1.119, 1.017, -1.215], a = 0.2, v = 0.2, t = 0.2)
movej(p[0.40470540768139, -0.0929453963514477, 0.274876737214076, -1.119, 1.017, -1.215], a = 0.2, v = 0.2, t = 0.2)
movej(p[0.404758680207634, -0.0929412726732155, 0.274572899620574, -1.119, 1.017, -1.215], a = 0.2, v = 0.2, t = 0.2)
movej(p[0.404693509862725, -0.092946317328531, 0.274944595918103, -1.119, 1.017, -1.215], a = 0.2, v = 0.2, t = 0.2)
movej(p[0.404520637493119, -0.0929596988983145, 0.275930566144538, -1.119, 1.017, -1.215], a = 0.2, v = 0.2, t = 0.2)
movej(p[0.404295925861346, -0.0929770932013405, 0.277212199403614, -1.119, 1.017, -1.215], a = 0.2, v = 0.2, t = 0.2)
movej(p[0.404112611385867, -0.092991283065525, 0.278257725737923, -1.119, 1.017, -1.215], a = 0.2, v = 0.2, t = 0.2)
movej(p[0.403985952112536, -0.0930010874079347, 0.278980121530208, -1.119, 1.017, -1.215], a = 0.2, v = 0.2, t = 0.2)
movej(p[0.403934865918398, -0.0930050418482735, 0.279271489471291, -1.119, 1.017, -1.215], a = 0.2, v = 0.2, t = 0.2)
movej(p[0.403932572695875, -0.0930052193602571, 0.279284568768671, -1.119, 1.017, -1.215], a = 0.2, v = 0.2, t = 0.2)
movej(p[0.403935057595883, -0.093005027011052, 0.279270396246886, -1.119, 1.017, -1.215], a = 0.2, v = 0.2, t = 0.2)
movej(p[0.403985899962446, -0.0930010914447283, 0.278980418966036, -1.119, 1.017, -1.215], a = 0.2, v = 0.2, t = 0.2)
movej(p[0.404083158672491, -0.0929935629182293, 0.278425708039212, -1.119, 1.017, -1.215], a = 0.2, v = 0.2, t = 0.2)
movej(p[0.404227008307945, -0.0929824279176532, 0.277605267745808, -1.119, 1.017, -1.215], a = 0.2, v = 0.2, t = 0.2)
movej(p[0.404379711371018, -0.0929706075978454, 0.276734332303557, -1.119, 1.017, -1.215], a = 0.2, v = 0.2, t = 0.2)
movej(p[0.404524436506336, -0.0929594048272575, 0.275908898633819, -1.119, 1.017, -1.215], a = 0.2, v = 0.2, t = 0.2)
movej(p[0.404666295113499, -0.092948423946649, 0.275099814085805, -1.119, 1.017, -1.215], a = 0.2, v = 0.2, t = 0.2)
movej(p[0.4047118832721, -0.0929448950939641, 0.274839803957167, -1.119, 1.017, -1.215], a = 0.2, v = 0.2, t = 0.2)
movej(p[0.404684305889795, -0.0929470297825011, 0.274997090387256, -1.119, 1.017, -1.215], a = 0.2, v = 0.2, t = 0.2)
movej(p[0.404567002722606, -0.0929561098947316, 0.275666124025072, -1.119, 1.017, -1.215], a = 0.2, v = 0.2, t = 0.2)
movej(p[0.404391436507264, -0.0929696999876283, 0.276667458486381, -1.119, 1.017, -1.215], a = 0.2, v = 0.2, t = 0.2)
movej(p[0.404197686833208, -0.0929846976115391, 0.27777250153309, -1.119, 1.017, -1.215], a = 0.2, v = 0.2, t = 0.2)
movej(p[0.404058800090475, -0.0929954484483798, 0.2785646361784, -1.119, 1.017, -1.215], a = 0.2, v = 0.2, t = 0.2)
movej(p[0.403990532341017, -0.0930007328651748, 0.278953998391374, -1.119, 1.017, -1.215], a = 0.2, v = 0.2, t = 0.2)
movej(p[0.403955760491091, -0.0930034244574596, 0.279152318162332, -1.119, 1.017, -1.215], a = 0.2, v = 0.2, t = 0.2)
movej(p[0.403955245897482, -0.093003464290721, 0.279155253125148, -1.119, 1.017, -1.215], a = 0.2, v = 0.2, t = 0.2)
movej(p[0.404006519452045, -0.0929994953473323, 0.278862816581831, -1.119, 1.017, -1.215], a = 0.2, v = 0.2, t = 0.2)
movej(p[0.404112996467661, -0.0929912532574133, 0.278255529440245, -1.119, 1.017, -1.215], a = 0.2, v = 0.2, t = 0.2)
movej(p[0.404261130353929, -0.092979786624886, 0.27741065410407, -1.119, 1.017, -1.215], a = 0.2, v = 0.2, t = 0.2)
movej(p[0.404435159695741, -0.0929663154970987, 0.276418085135734, -1.119, 1.017, -1.215], a = 0.2, v = 0.2, t = 0.2)
movej(p[0.404610743179324, -0.0929527240675154, 0.275416652185739, -1.119, 1.017, -1.215], a = 0.2, v = 0.2, t = 0.2)
movej(p[0.404721829779432, -0.0929441251624692, 0.274783074474555, -1.119, 1.017, -1.215], a = 0.2, v = 0.2, t = 0.2)
movej(p[0.404770923391138, -0.0929403249623998, 0.274503071142845, -1.119, 1.017, -1.215], a = 0.2, v = 0.2, t = 0.2)
movej(p[0.40473357218392, -0.0929432162155655, 0.274716102168694, -1.119, 1.017, -1.215], a = 0.2, v = 0.2, t = 0.2)
movej(p[0.404606028949287, -0.0929530889829635, 0.275443539596769, -1.119, 1.017, -1.215], a = 0.2, v = 0.2, t = 0.2)
movej(p[0.404412279275231, -0.0929680866068743, 0.276548582643478, -1.119, 1.017, -1.215], a = 0.2, v = 0.2, t = 0.2)
movej(p[0.404210897038257, -0.0929836750462725, 0.277697157688997, -1.119, 1.017, -1.215], a = 0.2, v = 0.2, t = 0.2)
movej(p[0.40408828561351, -0.0929931660559709, 0.278396466748609, -1.119, 1.017, -1.215], a = 0.2, v = 0.2, t = 0.2)
movej(p[0.403996762031962, -0.0930002506421087, 0.278918467613341, -1.119, 1.017, -1.215], a = 0.2, v = 0.2, t = 0.2)
movej(p[0.403964567294457, -0.0930027427472819, 0.279102088932936, -1.119, 1.017, -1.215], a = 0.2, v = 0.2, t = 0.2)
movej(p[0.403957982913822, -0.0930032524258912, 0.279139642668561, -1.119, 1.017, -1.215], a = 0.2, v = 0.2, t = 0.2)
movej(p[0.404012054096254, -0.0929990669259028, 0.278831249973373, -1.119, 1.017, -1.215], a = 0.2, v = 0.2, t = 0.2)
movej(p[0.404118674265596, -0.0929908137548516, 0.278223146360588, -1.119, 1.017, -1.215], a = 0.2, v = 0.2, t = 0.2)
movej(p[0.404289018564588, -0.0929776278759897, 0.27725159487765, -1.119, 1.017, -1.215], a = 0.2, v = 0.2, t = 0.2)
movej(p[0.404482716433919, -0.0929626342621388, 0.276146847296996, -1.119, 1.017, -1.215], a = 0.2, v = 0.2, t = 0.2)
movej(p[0.404623366264149, -0.0929517469495939, 0.275344656956938, -1.119, 1.017, -1.215], a = 0.2, v = 0.2, t = 0.2)
movej(p[0.404731983505666, -0.0929433391907348, 0.274725163127723, -1.119, 1.017, -1.215], a = 0.2, v = 0.2, t = 0.2)
movej(p[0.404782786673319, -0.0929394066586897, 0.274435409416188, -1.119, 1.017, -1.215], a = 0.2, v = 0.2, t = 0.2)
movej(p[0.404777951565589, -0.0929397809309442, 0.274462986248013, -1.119, 1.017, -1.215], a = 0.2, v = 0.2, t = 0.2)
movej(p[0.404640738115495, -0.0929504022428511, 0.275245577339738, -1.119, 1.017, -1.215], a = 0.2, v = 0.2, t = 0.2)
movej(p[0.404451927158621, -0.0929650175743877, 0.276322452622511, -1.119, 1.017, -1.215], a = 0.2, v = 0.2, t = 0.2)
movej(p[0.404264808489452, -0.0929795019106353, 0.277389676014146, -1.119, 1.017, -1.215], a = 0.2, v = 0.2, t = 0.2)
movej(p[0.404111874031938, -0.0929913401420438, 0.278261931204776, -1.119, 1.017, -1.215], a = 0.2, v = 0.2, t = 0.2)
movej(p[0.404013361992896, -0.0929989656852579, 0.278823790440364, -1.119, 1.017, -1.215], a = 0.2, v = 0.2, t = 0.2)
movej(p[0.403969454206913, -0.0930023644649675, 0.279074216635056, -1.119, 1.017, -1.215], a = 0.2, v = 0.2, t = 0.2)
movej(p[0.403977440768789, -0.0930017462474044, 0.279028665618202, -1.119, 1.017, -1.215], a = 0.2, v = 0.2, t = 0.2)
movej(p[0.404000192126459, -0.0929999851280246, 0.27889890421489, -1.119, 1.017, -1.215], a = 0.2, v = 0.2, t = 0.2)
movej(p[0.404069763697254, -0.0929945997860428, 0.278502105712237, -1.119, 1.017, -1.215], a = 0.2, v = 0.2, t = 0.2)
movej(p[0.404200104387073, -0.0929845104754119, 0.277758713117178, -1.119, 1.017, -1.215], a = 0.2, v = 0.2, t = 0.2)
movej(p[0.404338302126955, -0.0929738129723675, 0.276970508170403, -1.119, 1.017, -1.215], a = 0.2, v = 0.2, t = 0.2)
movej(p[0.40447270085362, -0.0929634095403802, 0.276203970734348, -1.119, 1.017, -1.215], a = 0.2, v = 0.2, t = 0.2)
movej(p[0.404574859772668, -0.0929555017023181, 0.275621311673356, -1.119, 1.017, -1.215], a = 0.2, v = 0.2, t = 0.2)
movej(p[0.404666968574933, -0.0929483718158707, 0.275095973027086, -1.119, 1.017, -1.215], a = 0.2, v = 0.2, t = 0.2)
movej(p[0.404665500774372, -0.0929484854342336, 0.275104344565319, -1.119, 1.017, -1.215], a = 0.2, v = 0.2, t = 0.2)
movej(p[0.404571337051321, -0.0929557743863892, 0.275641403365114, -1.119, 1.017, -1.215], a = 0.2, v = 0.2, t = 0.2)
movej(p[0.404411018693573, -0.0929681841849977, 0.276555772317489, -1.119, 1.017, -1.215], a = 0.2, v = 0.2, t = 0.2)
movej(p[0.404249819655488, -0.0929806621546241, 0.277475164192804, -1.119, 1.017, -1.215], a = 0.2, v = 0.2, t = 0.2)
movej(p[0.404093944416379, -0.0929927280237645, 0.278364192006505, -1.119, 1.017, -1.215], a = 0.2, v = 0.2, t = 0.2)
movej(p[0.404000303955594, -0.0929999764716421, 0.278898266402165, -1.119, 1.017, -1.215], a = 0.2, v = 0.2, t = 0.2)
movej(p[0.403960295131412, -0.0930030734435524, 0.279126455033627, -1.119, 1.017, -1.215], a = 0.2, v = 0.2, t = 0.2)
movej(p[0.40395021220497, -0.0930038539348716, 0.279183962576851, -1.119, 1.017, -1.215], a = 0.2, v = 0.2, t = 0.2)
movej(p[0.403945504882229, -0.0930042183156451, 0.279210810592407, -1.119, 1.017, -1.215], a = 0.2, v = 0.2, t = 0.2)
movej(p[0.403961638600631, -0.0930029694493331, 0.279118792613927, -1.119, 1.017, -1.215], a = 0.2, v = 0.2, t = 0.2)
movej(p[0.404023108361303, -0.092998211245961, 0.278768202441613, -1.119, 1.017, -1.215], a = 0.2, v = 0.2, t = 0.2)
movej(p[0.404121459633013, -0.0929905981472993, 0.278207260135683, -1.119, 1.017, -1.215], a = 0.2, v = 0.2, t = 0.2)
movej(p[0.404250613994615, -0.0929806006670394, 0.27747063371329, -1.119, 1.017, -1.215], a = 0.2, v = 0.2, t = 0.2)
movej(p[0.404409274601141, -0.0929683191903467, 0.276565719674683, -1.119, 1.017, -1.215], a = 0.2, v = 0.2, t = 0.2)
movej(p[0.404526836791959, -0.0929592190278168, 0.275895208706591, -1.119, 1.017, -1.215], a = 0.2, v = 0.2, t = 0.2)
movej(p[0.404612832636594, -0.092952562328434, 0.275404735054843, -1.119, 1.017, -1.215], a = 0.2, v = 0.2, t = 0.2)
movej(p[0.404644347178051, -0.0929501228753469, 0.275224993204554, -1.119, 1.017, -1.215], a = 0.2, v = 0.2, t = 0.2)
movej(p[0.404647818094672, -0.0929498542013356, 0.275205196978851, -1.119, 1.017, -1.215], a = 0.2, v = 0.2, t = 0.2)
movej(p[0.404537888466772, -0.0929583635483781, 0.275832175948133, -1.119, 1.017, -1.215], a = 0.2, v = 0.2, t = 0.2)
movej(p[0.404361579717029, -0.0929720111187996, 0.276837745422902, -1.119, 1.017, -1.215], a = 0.2, v = 0.2, t = 0.2)
