def moving():
set_payload_mass(0)
set_tcp(p[0,0,0,0,0,0])
movej(p[0.402, 0.2284, 0.3201, -1.385, 0.72, -0.736], a = 0.2, v = 0.2, t = 0.2)
movej(p[0.401986056907693, 0.228381375581666, 0.320499322828321, -1.385, 0.72, -0.736], a = 0.2, v = 0.2, t = 0.2)
movej(p[0.402, 0.2284, 0.3201, -1.385, 0.72, -0.736], a = 0.2, v = 0.2, t = 0.2)
movej(p[0.401986056907693, 0.228381375581666, 0.320499322828321, -1.385, 0.72, -0.736], a = 0.2, v = 0.2, t = 0.2)
movej(p[0.402, 0.2284, 0.3201, -1.385, 0.72, -0.736], a = 0.2, v = 0.2, t = 0.2)
movej(p[0.401986056907693, 0.228381375581666, 0.320499322828321, -1.385, 0.72, -0.736], a = 0.2, v = 0.2, t = 0.2)
movej(p[0.402, 0.2284, 0.3201, -1.385, 0.72, -0.736], a = 0.2, v = 0.2, t = 0.2)
movej(p[0.401986056907693, 0.228381375581666, 0.320499322828321, -1.385, 0.72, -0.736], a = 0.2, v = 0.2, t = 0.2)
movej(p[0.402, 0.2284, 0.3201, -1.385, 0.72, -0.736], a = 0.2, v = 0.2, t = 0.2)
movej(p[0.401986056907693, 0.228381375581666, 0.320499322828321, -1.385, 0.72, -0.736], a = 0.2, v = 0.2, t = 0.2)
movej(p[0.402, 0.2284, 0.3201, -1.385, 0.72, -0.736], a = 0.2, v = 0.2, t = 0.2)
movej(p[0.401997389504543, 0.228396513043277, 0.320174763216532, -1.385, 0.72, -0.736], a = 0.2, v = 0.2, t = 0.2)
movej(p[0.401988434553509, 0.228384551510603, 0.320431228303022, -1.385, 0.72, -0.736], a = 0.2, v = 0.2, t = 0.2)
movej(p[0.401987541149869, 0.228383358150998, 0.320456814913247, -1.385, 0.72, -0.736], a = 0.2, v = 0.2, t = 0.2)
movej(p[0.401987897395878, 0.228383834004886, 0.320446612214983, -1.385, 0.72, -0.736], a = 0.2, v = 0.2, t = 0.2)
movej(p[0.401989948076179, 0.228386573191213, 0.320387881810008, -1.385, 0.72, -0.736], a = 0.2, v = 0.2, t = 0.2)
movej(p[0.401994628423689, 0.228392824942837, 0.320253839119611, -1.385, 0.72, -0.736], a = 0.2, v = 0.2, t = 0.2)
movej(p[0.402011395689342, 0.228415221737104, 0.319773633452413, -1.385, 0.72, -0.736], a = 0.2, v = 0.2, t = 0.2)
movej(p[0.40204259963277, 0.228456902254114, 0.318879968928771, -1.385, 0.72, -0.736], a = 0.2, v = 0.2, t = 0.2)
movej(p[0.402075728420091, 0.228501153872075, 0.317931177888679, -1.385, 0.72, -0.736], a = 0.2, v = 0.2, t = 0.2)
movej(p[0.402109083782662, 0.228545708136833, 0.316975897852627, -1.385, 0.72, -0.736], a = 0.2, v = 0.2, t = 0.2)
movej(p[0.40213867451031, 0.228585233808642, 0.316128434980222, -1.385, 0.72, -0.736], a = 0.2, v = 0.2, t = 0.2)
movej(p[0.402156845845358, 0.228609506081835, 0.315608017504212, -1.385, 0.72, -0.736], a = 0.2, v = 0.2, t = 0.2)
movej(p[0.402150494766813, 0.228601022659284, 0.315789909052512, -1.385, 0.72, -0.736], a = 0.2, v = 0.2, t = 0.2)
movej(p[0.402119363327465, 0.22855943898925, 0.316681497097447, -1.385, 0.72, -0.736], a = 0.2, v = 0.2, t = 0.2)
movej(p[0.402081120911041, 0.228508356865865, 0.317776739784826, -1.385, 0.72, -0.736], a = 0.2, v = 0.2, t = 0.2)
movej(p[0.402040075933063, 0.228453531234395, 0.318952246360697, -1.385, 0.72, -0.736], a = 0.2, v = 0.2, t = 0.2)
movej(p[0.402008179715102, 0.228410926015015, 0.319865737262765, -1.385, 0.72, -0.736], a = 0.2, v = 0.2, t = 0.2)
movej(p[0.40199036741468, 0.228387133320594, 0.320375872175946, -1.385, 0.72, -0.736], a = 0.2, v = 0.2, t = 0.2)
movej(p[0.401988255384773, 0.228384312186827, 0.320436359601366, -1.385, 0.72, -0.736], a = 0.2, v = 0.2, t = 0.2)
movej(p[0.401990152342481, 0.228386846038941, 0.320382031730573, -1.385, 0.72, -0.736], a = 0.2, v = 0.2, t = 0.2)
movej(p[0.402001594566894, 0.228402129935042, 0.320054332443046, -1.385, 0.72, -0.736], a = 0.2, v = 0.2, t = 0.2)
movej(p[0.402025939728927, 0.228434648867868, 0.319357099810191, -1.385, 0.72, -0.736], a = 0.2, v = 0.2, t = 0.2)
movej(p[0.402058261211204, 0.228477822132007, 0.318431429561859, -1.385, 0.72, -0.736], a = 0.2, v = 0.2, t = 0.2)
movej(p[0.402094325019455, 0.228525994190027, 0.317398581066405, -1.385, 0.72, -0.736], a = 0.2, v = 0.2, t = 0.2)
movej(p[0.402123696143399, 0.228565226527247, 0.316557407528546, -1.385, 0.72, -0.736], a = 0.2, v = 0.2, t = 0.2)
movej(p[0.402149759268694, 0.228600040221217, 0.315810973331706, -1.385, 0.72, -0.736], a = 0.2, v = 0.2, t = 0.2)
movej(p[0.40215487638357, 0.228606875382745, 0.315664421853712, -1.385, 0.72, -0.736], a = 0.2, v = 0.2, t = 0.2)
movej(p[0.402140100191498, 0.228587138155416, 0.316087604221026, -1.385, 0.72, -0.736], a = 0.2, v = 0.2, t = 0.2)
movej(p[0.402106096475135, 0.228541717855205, 0.317061452768595, -1.385, 0.72, -0.736], a = 0.2, v = 0.2, t = 0.2)
movej(p[0.402065068926022, 0.228486915504259, 0.318236460190931, -1.385, 0.72, -0.736], a = 0.2, v = 0.2, t = 0.2)
movej(p[0.402026862413061, 0.228435881338751, 0.319330674622027, -1.385, 0.72, -0.736], a = 0.2, v = 0.2, t = 0.2)
movej(p[0.402003810647127, 0.228405090053531, 0.31999086507102, -1.385, 0.72, -0.736], a = 0.2, v = 0.2, t = 0.2)
movej(p[0.401995963474777, 0.228394608230892, 0.320215603958799, -1.385, 0.72, -0.736], a = 0.2, v = 0.2, t = 0.2)
movej(p[0.401994705459274, 0.228392927842748, 0.320251632860984, -1.385, 0.72, -0.736], a = 0.2, v = 0.2, t = 0.2)
movej(p[0.40199872211559, 0.22839829307206, 0.320136597937216, -1.385, 0.72, -0.736], a = 0.2, v = 0.2, t = 0.2)
movej(p[0.402014034070984, 0.228418745942663, 0.319698071590224, -1.385, 0.72, -0.736], a = 0.2, v = 0.2, t = 0.2)
movej(p[0.40204007244729, 0.228453526578291, 0.318952346191404, -1.385, 0.72, -0.736], a = 0.2, v = 0.2, t = 0.2)
movej(p[0.40207289448658, 0.228497368459048, 0.318012340253535, -1.385, 0.72, -0.736], a = 0.2, v = 0.2, t = 0.2)
movej(p[0.402107679016112, 0.228543831726686, 0.31701612962758, -1.385, 0.72, -0.736], a = 0.2, v = 0.2, t = 0.2)
movej(p[0.402139050973802, 0.228585736667937, 0.316117653263857, -1.385, 0.72, -0.736], a = 0.2, v = 0.2, t = 0.2)
movej(p[0.402153210184039, 0.228604649764755, 0.315712140931697, -1.385, 0.72, -0.736], a = 0.2, v = 0.2, t = 0.2)
movej(p[0.402149860356113, 0.22860017524825, 0.315808078241201, -1.385, 0.72, -0.736], a = 0.2, v = 0.2, t = 0.2)
movej(p[0.402131465931587, 0.228575604984363, 0.316334884882464, -1.385, 0.72, -0.736], a = 0.2, v = 0.2, t = 0.2)
movej(p[0.402096339796293, 0.228528685418476, 0.317340878917713, -1.385, 0.72, -0.736], a = 0.2, v = 0.2, t = 0.2)
movej(p[0.402054141027427, 0.22847231861639, 0.318549429457628, -1.385, 0.72, -0.736], a = 0.2, v = 0.2, t = 0.2)
movej(p[0.402018348412321, 0.228424508803306, 0.31957451112407, -1.385, 0.72, -0.736], a = 0.2, v = 0.2, t = 0.2)
movej(p[0.40200298295031, 0.228403984461497, 0.320014569872416, -1.385, 0.72, -0.736], a = 0.2, v = 0.2, t = 0.2)
movej(p[0.40199564592085, 0.228394184059765, 0.320224698536214, -1.385, 0.72, -0.736], a = 0.2, v = 0.2, t = 0.2)
movej(p[0.401994485158415, 0.228392633576939, 0.320257942161672, -1.385, 0.72, -0.736], a = 0.2, v = 0.2, t = 0.2)
movej(p[0.402002733612962, 0.228403651410336, 0.320021710762893, -1.385, 0.72, -0.736], a = 0.2, v = 0.2, t = 0.2)
movej(p[0.402023081743582, 0.22843083132772, 0.319438951006926, -1.385, 0.72, -0.736], a = 0.2, v = 0.2, t = 0.2)
movej(p[0.402056316149827, 0.22847522402565, 0.31848713509641, -1.385, 0.72, -0.736], a = 0.2, v = 0.2, t = 0.2)
movej(p[0.402092425273128, 0.228523456613029, 0.317452988801764, -1.385, 0.72, -0.736], a = 0.2, v = 0.2, t = 0.2)
movej(p[0.402127589751926, 0.228570427396067, 0.316445896628737, -1.385, 0.72, -0.736], a = 0.2, v = 0.2, t = 0.2)
movej(p[0.402150247276924, 0.228600692075859, 0.315796997032715, -1.385, 0.72, -0.736], a = 0.2, v = 0.2, t = 0.2)
movej(p[0.402155158731189, 0.228607252527217, 0.315656335566439, -1.385, 0.72, -0.736], a = 0.2, v = 0.2, t = 0.2)
movej(p[0.402144652611136, 0.228593219028002, 0.315957225317579, -1.385, 0.72, -0.736], a = 0.2, v = 0.2, t = 0.2)
movej(p[0.4021109172993, 0.228548157247844, 0.316923386900703, -1.385, 0.72, -0.736], a = 0.2, v = 0.2, t = 0.2)
movej(p[0.402066281975053, 0.228488535828654, 0.318201719104867, -1.385, 0.72, -0.736], a = 0.2, v = 0.2, t = 0.2)
movej(p[0.402025311941196, 0.228433810303432, 0.319375079320536, -1.385, 0.72, -0.736], a = 0.2, v = 0.2, t = 0.2)
movej(p[0.402005248179944, 0.228407010231061, 0.31994969488742, -1.385, 0.72, -0.736], a = 0.2, v = 0.2, t = 0.2)
movej(p[0.401996110922978, 0.228394805184116, 0.32021138111989, -1.385, 0.72, -0.736], a = 0.2, v = 0.2, t = 0.2)
movej(p[0.401994784586323, 0.228393033536322, 0.320249366703934, -1.385, 0.72, -0.736], a = 0.2, v = 0.2, t = 0.2)
movej(p[0.402003452902237, 0.228404612197517, 0.320001110696487, -1.385, 0.72, -0.736], a = 0.2, v = 0.2, t = 0.2)
movej(p[0.402020036223645, 0.228426763289145, 0.319526173095702, -1.385, 0.72, -0.736], a = 0.2, v = 0.2, t = 0.2)
movej(p[0.402050034786743, 0.22846683372519, 0.318667030030568, -1.385, 0.72, -0.736], a = 0.2, v = 0.2, t = 0.2)
movej(p[0.402084693828444, 0.228513129373063, 0.317674413310068, -1.385, 0.72, -0.736], a = 0.2, v = 0.2, t = 0.2)
movej(p[0.402117508896188, 0.228556961941611, 0.316734607033614, -1.385, 0.72, -0.736], a = 0.2, v = 0.2, t = 0.2)
movej(p[0.402138904571333, 0.228585541111544, 0.316121846153554, -1.385, 0.72, -0.736], a = 0.2, v = 0.2, t = 0.2)
movej(p[0.402150913059582, 0.228601581391834, 0.315777929367663, -1.385, 0.72, -0.736], a = 0.2, v = 0.2, t = 0.2)
movej(p[0.402147392428774, 0.228596878726205, 0.315878758381814, -1.385, 0.72, -0.736], a = 0.2, v = 0.2, t = 0.2)
movej(p[0.402121458277084, 0.228562237308104, 0.316621498842492, -1.385, 0.72, -0.736], a = 0.2, v = 0.2, t = 0.2)
movej(p[0.402078056916506, 0.228504264149936, 0.317864490976349, -1.385, 0.72, -0.736], a = 0.2, v = 0.2, t = 0.2)
movej(p[0.402036314783913, 0.22844850729755, 0.319059963693637, -1.385, 0.72, -0.736], a = 0.2, v = 0.2, t = 0.2)
movej(p[0.402010939053069, 0.228414611787404, 0.31978671127504, -1.385, 0.72, -0.736], a = 0.2, v = 0.2, t = 0.2)
movej(p[0.401997734874939, 0.22839697437012, 0.320164871990075, -1.385, 0.72, -0.736], a = 0.2, v = 0.2, t = 0.2)
movej(p[0.401995703087528, 0.22839426041988, 0.320223061312618, -1.385, 0.72, -0.736], a = 0.2, v = 0.2, t = 0.2)
movej(p[0.402002446942984, 0.228403268492295, 0.320029920840244, -1.385, 0.72, -0.736], a = 0.2, v = 0.2, t = 0.2)
movej(p[0.402020532597731, 0.228427426318438, 0.319511957203014, -1.385, 0.72, -0.736], a = 0.2, v = 0.2, t = 0.2)
movej(p[0.4020498848985, 0.228466633512693, 0.318671322750973, -1.385, 0.72, -0.736], a = 0.2, v = 0.2, t = 0.2)
movej(p[0.40208510863544, 0.228513683449509, 0.317662533455926, -1.385, 0.72, -0.736], a = 0.2, v = 0.2, t = 0.2)
movej(p[0.402116930257857, 0.22855618902825, 0.316751178930989, -1.385, 0.72, -0.736], a = 0.2, v = 0.2, t = 0.2)
movej(p[0.402139723728006, 0.228586635296121, 0.316098385937391, -1.385, 0.72, -0.736], a = 0.2, v = 0.2, t = 0.2)
movej(p[0.402152307368813, 0.228603443833667, 0.31573799708483, -1.385, 0.72, -0.736], a = 0.2, v = 0.2, t = 0.2)
movej(p[0.402156389209085, 0.228608896132135, 0.315621095326839, -1.385, 0.72, -0.736], a = 0.2, v = 0.2, t = 0.2)
movej(p[0.40213328201936, 0.228578030814851, 0.316282873084075, -1.385, 0.72, -0.736], a = 0.2, v = 0.2, t = 0.2)
movej(p[0.402092982996821, 0.228524201589762, 0.317437015888631, -1.385, 0.72, -0.736], a = 0.2, v = 0.2, t = 0.2)
movej(p[0.402046925477158, 0.228462680479902, 0.318756079021284, -1.385, 0.72, -0.736], a = 0.2, v = 0.2, t = 0.2)
movej(p[0.40201416409032, 0.228418919615364, 0.31969434790485, -1.385, 0.72, -0.736], a = 0.2, v = 0.2, t = 0.2)
movej(p[0.401995122357734, 0.228393484712856, 0.320239693108418, -1.385, 0.72, -0.736], a = 0.2, v = 0.2, t = 0.2)
movej(p[0.401990686014339, 0.228387558888553, 0.320366747649319, -1.385, 0.72, -0.736], a = 0.2, v = 0.2, t = 0.2)
movej(p[0.40199332579029, 0.228391084956554, 0.320291145854847, -1.385, 0.72, -0.736], a = 0.2, v = 0.2, t = 0.2)
movej(p[0.402002288340309, 0.228403056639537, 0.320034463137416, -1.385, 0.72, -0.736], a = 0.2, v = 0.2, t = 0.2)
movej(p[0.402024386119867, 0.228432573642055, 0.319401594356336, -1.385, 0.72, -0.736], a = 0.2, v = 0.2, t = 0.2)
movej(p[0.402060000611969, 0.228480145528194, 0.318381614039026, -1.385, 0.72, -0.736], a = 0.2, v = 0.2, t = 0.2)
movej(p[0.402096186422278, 0.228528480549875, 0.317345271468824, -1.385, 0.72, -0.736], a = 0.2, v = 0.2, t = 0.2)
movej(p[0.402127098257922, 0.22856977088532, 0.316459972758436, -1.385, 0.72, -0.736], a = 0.2, v = 0.2, t = 0.2)
movej(p[0.402151530041417, 0.228602405522345, 0.315760259332509, -1.385, 0.72, -0.736], a = 0.2, v = 0.2, t = 0.2)
movej(p[0.402161837472404, 0.228616173623599, 0.315465059931673, -1.385, 0.72, -0.736], a = 0.2, v = 0.2, t = 0.2)
movej(p[0.402149930071574, 0.228600268370342, 0.315806081627059, -1.385, 0.72, -0.736], a = 0.2, v = 0.2, t = 0.2)
movej(p[0.402111356506708, 0.228548743917022, 0.316910808231611, -1.385, 0.72, -0.736], a = 0.2, v = 0.2, t = 0.2)
movej(p[0.40206600659898, 0.228488167996391, 0.318209605730726, -1.385, 0.72, -0.736], a = 0.2, v = 0.2, t = 0.2)
movej(p[0.402026306083678, 0.22843513822446, 0.319346607602877, -1.385, 0.72, -0.736], a = 0.2, v = 0.2, t = 0.2)
movej(p[0.401999927412261, 0.228399903041278, 0.320102078874644, -1.385, 0.72, -0.736], a = 0.2, v = 0.2, t = 0.2)
movej(p[0.40198825050469, 0.228384305668281, 0.320436499364356, -1.385, 0.72, -0.736], a = 0.2, v = 0.2, t = 0.2)
movej(p[0.401988760821869, 0.228384987321992, 0.320421884148839, -1.385, 0.72, -0.736], a = 0.2, v = 0.2, t = 0.2)
movej(p[0.401990261795756, 0.228386992240625, 0.32037889704637, -1.385, 0.72, -0.736], a = 0.2, v = 0.2, t = 0.2)
movej(p[0.401999137271164, 0.228398847614116, 0.320124708100002, -1.385, 0.72, -0.736], a = 0.2, v = 0.2, t = 0.2)
movej(p[0.402019316760082, 0.228425802269159, 0.319546778153643, -1.385, 0.72, -0.736], a = 0.2, v = 0.2, t = 0.2)
movej(p[0.402046918505612, 0.228462671167693, 0.318756278682698, -1.385, 0.72, -0.736], a = 0.2, v = 0.2, t = 0.2)
movej(p[0.402082177100283, 0.228509767665554, 0.31774649108058, -1.385, 0.72, -0.736], a = 0.2, v = 0.2, t = 0.2)
movej(p[0.402112604413469, 0.228550410802462, 0.316875068838476, -1.385, 0.72, -0.736], a = 0.2, v = 0.2, t = 0.2)
movej(p[0.402136088066687, 0.228581778979041, 0.316202509364875, -1.385, 0.72, -0.736], a = 0.2, v = 0.2, t = 0.2)
movej(p[0.402137513747875, 0.228583683325815, 0.316161678605679, -1.385, 0.72, -0.736], a = 0.2, v = 0.2, t = 0.2)
movej(p[0.40211983390683, 0.228560067563368, 0.316668019951991, -1.385, 0.72, -0.736], a = 0.2, v = 0.2, t = 0.2)
movej(p[0.40208669466219, 0.228515801977094, 0.317617110484204, -1.385, 0.72, -0.736], a = 0.2, v = 0.2, t = 0.2)
movej(p[0.402046618729128, 0.228462270742699, 0.318764864123507, -1.385, 0.72, -0.736], a = 0.2, v = 0.2, t = 0.2)
movej(p[0.402015760225812, 0.228421051645653, 0.319648635424078, -1.385, 0.72, -0.736], a = 0.2, v = 0.2, t = 0.2)
movej(p[0.401997624306217, 0.228396826678482, 0.320168038620104, -1.385, 0.72, -0.736], a = 0.2, v = 0.2, t = 0.2)
movej(p[0.401993323698826, 0.228391082162891, 0.320291205753271, -1.385, 0.72, -0.736], a = 0.2, v = 0.2, t = 0.2)
movej(p[0.40199111964451, 0.228388138107963, 0.320354328709358, -1.385, 0.72, -0.736], a = 0.2, v = 0.2, t = 0.2)
movej(p[0.401993297555528, 0.228391047242107, 0.320291954483574, -1.385, 0.72, -0.736], a = 0.2, v = 0.2, t = 0.2)
movej(p[0.402001817133505, 0.228402427227319, 0.320047958252399, -1.385, 0.72, -0.736], a = 0.2, v = 0.2, t = 0.2)
movej(p[0.402019220204168, 0.228425673295062, 0.31954954346423, -1.385, 0.72, -0.736], a = 0.2, v = 0.2, t = 0.2)
movej(p[0.402046385182331, 0.228461958783691, 0.318771552780882, -1.385, 0.72, -0.736], a = 0.2, v = 0.2, t = 0.2)
movej(p[0.402081110453721, 0.228508342897551, 0.317777039276947, -1.385, 0.72, -0.736], a = 0.2, v = 0.2, t = 0.2)
movej(p[0.402109697278723, 0.22854652761124, 0.316958327648181, -1.385, 0.72, -0.736], a = 0.2, v = 0.2, t = 0.2)
movej(p[0.402126822881849, 0.228569403053058, 0.316467859384295, -1.385, 0.72, -0.736], a = 0.2, v = 0.2, t = 0.2)
movej(p[0.402132668523299, 0.228577211340445, 0.316300443288521, -1.385, 0.72, -0.736], a = 0.2, v = 0.2, t = 0.2)
movej(p[0.402128339193137, 0.228571428458552, 0.316424433026715, -1.385, 0.72, -0.736], a = 0.2, v = 0.2, t = 0.2)
movej(p[0.402103464716462, 0.228538202496245, 0.317136824952441, -1.385, 0.72, -0.736], a = 0.2, v = 0.2, t = 0.2)
movej(p[0.402066752554418, 0.228489164402772, 0.318188241959411, -1.385, 0.72, -0.736], a = 0.2, v = 0.2, t = 0.2)
movej(p[0.402030581732934, 0.228440849402342, 0.319224155257572, -1.385, 0.72, -0.736], a = 0.2, v = 0.2, t = 0.2)
movej(p[0.402009756678842, 0.228413032436729, 0.319820573850882, -1.385, 0.72, -0.736], a = 0.2, v = 0.2, t = 0.2)
movej(p[0.401996880721105, 0.228395833438252, 0.320189334506538, -1.385, 0.72, -0.736], a = 0.2, v = 0.2, t = 0.2)
movej(p[0.401992531382606, 0.22839002383032, 0.32031389727299, -1.385, 0.72, -0.736], a = 0.2, v = 0.2, t = 0.2)
movej(p[0.401994334224441, 0.22839243196761, 0.320262264831288, -1.385, 0.72, -0.736], a = 0.2, v = 0.2, t = 0.2)
movej(p[0.401996222467717, 0.228394954179463, 0.320208186537263, -1.385, 0.72, -0.736], a = 0.2, v = 0.2, t = 0.2)
movej(p[0.40199874777088, 0.228398327340989, 0.320135863183212, -1.385, 0.72, -0.736], a = 0.2, v = 0.2, t = 0.2)
movej(p[0.402004784223548, 0.228406390503541, 0.319962982354532, -1.385, 0.72, -0.736], a = 0.2, v = 0.2, t = 0.2)
movej(p[0.402025311941196, 0.228433810303432, 0.319375079320536, -1.385, 0.72, -0.736], a = 0.2, v = 0.2, t = 0.2)
movej(p[0.402047023078804, 0.22846281085083, 0.318753283761486, -1.385, 0.72, -0.736], a = 0.2, v = 0.2, t = 0.2)
movej(p[0.402071200400864, 0.228495105592221, 0.318060857977176, -1.385, 0.72, -0.736], a = 0.2, v = 0.2, t = 0.2)
movej(p[0.402092390415398, 0.228523410051983, 0.317453987108835, -1.385, 0.72, -0.736], a = 0.2, v = 0.2, t = 0.2)
movej(p[0.402112625328108, 0.22855043873909, 0.316874469854233, -1.385, 0.72, -0.736], a = 0.2, v = 0.2, t = 0.2)
movej(p[0.402121486163269, 0.228562274556941, 0.316620700196835, -1.385, 0.72, -0.736], a = 0.2, v = 0.2, t = 0.2)
movej(p[0.402118195593484, 0.228557879194214, 0.316714940384319, -1.385, 0.72, -0.736], a = 0.2, v = 0.2, t = 0.2)
movej(p[0.402101951890947, 0.228536181746856, 0.317180151479313, -1.385, 0.72, -0.736], a = 0.2, v = 0.2, t = 0.2)
movej(p[0.402068854475584, 0.228491972033836, 0.318128044043042, -1.385, 0.72, -0.736], a = 0.2, v = 0.2, t = 0.2)
movej(p[0.402035108706428, 0.228446896285364, 0.319094505118287, -1.385, 0.72, -0.736], a = 0.2, v = 0.2, t = 0.2)
movej(p[0.402009088107566, 0.22841213939587, 0.3198397213805, -1.385, 0.72, -0.736], a = 0.2, v = 0.2, t = 0.2)
movej(p[0.401999787848879, 0.228399716620163, 0.320106075896494, -1.385, 0.72, -0.736], a = 0.2, v = 0.2, t = 0.2)
movej(p[0.401995848792843, 0.228394455045052, 0.320218888389062, -1.385, 0.72, -0.736], a = 0.2, v = 0.2, t = 0.2)
movej(p[0.401994938308915, 0.228393238870534, 0.320244964169751, -1.385, 0.72, -0.736], a = 0.2, v = 0.2, t = 0.2)
movej(p[0.401997214727881, 0.228396279586194, 0.320179768728185, -1.385, 0.72, -0.736], a = 0.2, v = 0.2, t = 0.2)
movej(p[0.401998832963174, 0.228398441136185, 0.320133423320731, -1.385, 0.72, -0.736], a = 0.2, v = 0.2, t = 0.2)
movej(p[0.402003540499714, 0.228404729205425, 0.319998601950818, -1.385, 0.72, -0.736], a = 0.2, v = 0.2, t = 0.2)
movej(p[0.402018263708035, 0.228424395659965, 0.319576937010252, -1.385, 0.72, -0.736], a = 0.2, v = 0.2, t = 0.2)
movej(p[0.40204450286487, 0.228459444487216, 0.318825461362705, -1.385, 0.72, -0.736], a = 0.2, v = 0.2, t = 0.2)
movej(p[0.402070876223968, 0.228494672574494, 0.318070142232935, -1.385, 0.72, -0.736], a = 0.2, v = 0.2, t = 0.2)
movej(p[0.402096078363313, 0.228528336210633, 0.317348366220744, -1.385, 0.72, -0.736], a = 0.2, v = 0.2, t = 0.2)
movej(p[0.402118216508123, 0.228557907130842, 0.316714341400076, -1.385, 0.72, -0.736], a = 0.2, v = 0.2, t = 0.2)
movej(p[0.402131981826002, 0.228576294087842, 0.316320109937816, -1.385, 0.72, -0.736], a = 0.2, v = 0.2, t = 0.2)
movej(p[0.402123406824234, 0.228564840070566, 0.316565693477234, -1.385, 0.72, -0.736], a = 0.2, v = 0.2, t = 0.2)
movej(p[0.402099626880305, 0.228533076125098, 0.317246738560936, -1.385, 0.72, -0.736], a = 0.2, v = 0.2, t = 0.2)
movej(p[0.402069126365884, 0.228492335209994, 0.318120257247889, -1.385, 0.72, -0.736], a = 0.2, v = 0.2, t = 0.2)
movej(p[0.402035945291967, 0.228448013750464, 0.319070545748587, -1.385, 0.72, -0.736], a = 0.2, v = 0.2, t = 0.2)
movej(p[0.402011761695515, 0.228415710628085, 0.319763151228169, -1.385, 0.72, -0.736], a = 0.2, v = 0.2, t = 0.2)
movej(p[0.401997443534026, 0.228396585212899, 0.320173215840573, -1.385, 0.72, -0.736], a = 0.2, v = 0.2, t = 0.2)
movej(p[0.401994974560955, 0.228393287294022, 0.320243925930398, -1.385, 0.72, -0.736], a = 0.2, v = 0.2, t = 0.2)
movej(p[0.401993084574793, 0.228390762754117, 0.320298054139777, -1.385, 0.72, -0.736], a = 0.2, v = 0.2, t = 0.2)
movej(p[0.401994692561913, 0.228392910615161, 0.320252002234601, -1.385, 0.72, -0.736], a = 0.2, v = 0.2, t = 0.2)
movej(p[0.40199942979724, 0.228399238354412, 0.320116330307064, -1.385, 0.72, -0.736], a = 0.2, v = 0.2, t = 0.2)
movej(p[0.402012749215028, 0.228417029702514, 0.319734869188854, -1.385, 0.72, -0.736], a = 0.2, v = 0.2, t = 0.2)
movej(p[0.402034394820102, 0.228445942715145, 0.319114950447097, -1.385, 0.72, -0.736], a = 0.2, v = 0.2, t = 0.2)
movej(p[0.402067338164295, 0.228489946628342, 0.318171470400621, -1.385, 0.72, -0.736], a = 0.2, v = 0.2, t = 0.2)
movej(p[0.402097305355436, 0.228529975159446, 0.317313225811852, -1.385, 0.72, -0.736], a = 0.2, v = 0.2, t = 0.2)
movej(p[0.402117700613707, 0.228557218027363, 0.316729116344724, -1.385, 0.72, -0.736], a = 0.2, v = 0.2, t = 0.2)
movej(p[0.402134271978914, 0.228579353148553, 0.316254521163264, -1.385, 0.72, -0.736], a = 0.2, v = 0.2, t = 0.2)
movej(p[0.402144760670102, 0.228593363367244, 0.315954130565659, -1.385, 0.72, -0.736], a = 0.2, v = 0.2, t = 0.2)
movej(p[0.402133184417714, 0.228577900443923, 0.316285668343873, -1.385, 0.72, -0.736], a = 0.2, v = 0.2, t = 0.2)
movej(p[0.402100927073662, 0.228534812852108, 0.317209501707195, -1.385, 0.72, -0.736], a = 0.2, v = 0.2, t = 0.2)
movej(p[0.402059787979811, 0.228479861505815, 0.318387703712158, -1.385, 0.72, -0.736], a = 0.2, v = 0.2, t = 0.2)
movej(p[0.402025969009421, 0.228434687979146, 0.319356261232251, -1.385, 0.72, -0.736], a = 0.2, v = 0.2, t = 0.2)
movej(p[0.402000728387142, 0.228400972939614, 0.320079139375448, -1.385, 0.72, -0.736], a = 0.2, v = 0.2, t = 0.2)
movej(p[0.401990522880159, 0.228387340982859, 0.32037141972641, -1.385, 0.72, -0.736], a = 0.2, v = 0.2, t = 0.2)
movej(p[0.401990410289689, 0.228387190590681, 0.320374644258249, -1.385, 0.72, -0.736], a = 0.2, v = 0.2, t = 0.2)
movej(p[0.401990855771488, 0.228387785640846, 0.320361885893884, -1.385, 0.72, -0.736], a = 0.2, v = 0.2, t = 0.2)
movej(p[0.401991286264463, 0.228388360669762, 0.32034955680156, -1.385, 0.72, -0.736], a = 0.2, v = 0.2, t = 0.2)
movej(p[0.401993638464135, 0.228391502609135, 0.320282191040422, -1.385, 0.72, -0.736], a = 0.2, v = 0.2, t = 0.2)
movej(p[0.402007956974202, 0.228410628489933, 0.319872116444948, -1.385, 0.72, -0.736], a = 0.2, v = 0.2, t = 0.2)
movej(p[0.402030060261281, 0.228440152849096, 0.319239089931351, -1.385, 0.72, -0.736], a = 0.2, v = 0.2, t = 0.2)
movej(p[0.402059233741892, 0.228479121185186, 0.318403576794583, -1.385, 0.72, -0.736], a = 0.2, v = 0.2, t = 0.2)
movej(p[0.402087304672479, 0.228516616795396, 0.317599640110465, -1.385, 0.72, -0.736], a = 0.2, v = 0.2, t = 0.2)
movej(p[0.402106814544389, 0.228542677012749, 0.317040887642936, -1.385, 0.72, -0.736], a = 0.2, v = 0.2, t = 0.2)
movej(p[0.402120715807419, 0.228561245557828, 0.3166427627831, -1.385, 0.72, -0.736], a = 0.2, v = 0.2, t = 0.2)
movej(p[0.402124299182141, 0.22856603203334, 0.316540136816221, -1.385, 0.72, -0.736], a = 0.2, v = 0.2, t = 0.2)
movej(p[0.402118049191015, 0.228557683637822, 0.316719133274016, -1.385, 0.72, -0.736], a = 0.2, v = 0.2, t = 0.2)
movej(p[0.40208964014044, 0.228519736385467, 0.317532753536721, -1.385, 0.72, -0.736], a = 0.2, v = 0.2, t = 0.2)
movej(p[0.4020554133346, 0.228474018094562, 0.318512991249543, -1.385, 0.72, -0.736], a = 0.2, v = 0.2, t = 0.2)
movej(p[0.402025949489092, 0.228434661904961, 0.319356820284211, -1.385, 0.72, -0.736], a = 0.2, v = 0.2, t = 0.2)
movej(p[0.402005935225818, 0.228407927949274, 0.319930018255054, -1.385, 0.72, -0.736], a = 0.2, v = 0.2, t = 0.2)
movej(p[0.401997788102694, 0.228397045468837, 0.320163347575178, -1.385, 0.72, -0.736], a = 0.2, v = 0.2, t = 0.2)
movej(p[0.401995517644401, 0.228394012715116, 0.320228372306235, -1.385, 0.72, -0.736], a = 0.2, v = 0.2, t = 0.2)
movej(p[0.401998133089656, 0.228397506283507, 0.320153467330098, -1.385, 0.72, -0.736], a = 0.2, v = 0.2, t = 0.2)
movej(p[0.401997050757115, 0.228396060563034, 0.320184464764647, -1.385, 0.72, -0.736], a = 0.2, v = 0.2, t = 0.2)
movej(p[0.401998670770153, 0.228398224487639, 0.320138068443531, -1.385, 0.72, -0.736], a = 0.2, v = 0.2, t = 0.2)
movej(p[0.402008712689805, 0.228411637933406, 0.319850473147653, -1.385, 0.72, -0.736], a = 0.2, v = 0.2, t = 0.2)
movej(p[0.402026041513501, 0.228434784826122, 0.319354184753544, -1.385, 0.72, -0.736], a = 0.2, v = 0.2, t = 0.2)
movej(p[0.402050003414785, 0.228466791820249, 0.318667928506932, -1.385, 0.72, -0.736], a = 0.2, v = 0.2, t = 0.2)
movej(p[0.402075662190403, 0.228501065406087, 0.317933074672114, -1.385, 0.72, -0.736], a = 0.2, v = 0.2, t = 0.2)
movej(p[0.402099389847735, 0.228532759509987, 0.317253527049017, -1.385, 0.72, -0.736], a = 0.2, v = 0.2, t = 0.2)
movej(p[0.40211575555233, 0.228554619921006, 0.316784821879275, -1.385, 0.72, -0.736], a = 0.2, v = 0.2, t = 0.2)
movej(p[0.402122204232522, 0.228563233714485, 0.316600135071176, -1.385, 0.72, -0.736], a = 0.2, v = 0.2, t = 0.2)
movej(p[0.4021165363655, 0.228555662888433, 0.316762459800889, -1.385, 0.72, -0.736], a = 0.2, v = 0.2, t = 0.2)
movej(p[0.402093282773305, 0.228524602014757, 0.317428430447822, -1.385, 0.72, -0.736], a = 0.2, v = 0.2, t = 0.2)
movej(p[0.402058975794684, 0.228478776633447, 0.318410964266907, -1.385, 0.72, -0.736], a = 0.2, v = 0.2, t = 0.2)
movej(p[0.402026759234178, 0.228435743518055, 0.319333629610956, -1.385, 0.72, -0.736], a = 0.2, v = 0.2, t = 0.2)
movej(p[0.402010690866026, 0.228414280272757, 0.319793819221385, -1.385, 0.72, -0.736], a = 0.2, v = 0.2, t = 0.2)
movej(p[0.401999886433513, 0.228399848304113, 0.320103252484437, -1.385, 0.72, -0.736], a = 0.2, v = 0.2, t = 0.2)
movej(p[0.401997293645783, 0.228396385000401, 0.320177508560977, -1.385, 0.72, -0.736], a = 0.2, v = 0.2, t = 0.2)
movej(p[0.401994143552654, 0.228392177278689, 0.320267725570966, -1.385, 0.72, -0.736], a = 0.2, v = 0.2, t = 0.2)
movej(p[0.401998052847159, 0.22839739909998, 0.320155765432975, -1.385, 0.72, -0.736], a = 0.2, v = 0.2, t = 0.2)
movej(p[0.402007178252497, 0.228409588316169, 0.319894418624909, -1.385, 0.72, -0.736], a = 0.2, v = 0.2, t = 0.2)
movej(p[0.402027477652009, 0.22843670314121, 0.319313054502227, -1.385, 0.72, -0.736], a = 0.2, v = 0.2, t = 0.2)
movej(p[0.402057849889981, 0.228477272711666, 0.318443209585294, -1.385, 0.72, -0.736], a = 0.2, v = 0.2, t = 0.2)
movej(p[0.402085948706752, 0.228514805570713, 0.317638474255519, -1.385, 0.72, -0.736], a = 0.2, v = 0.2, t = 0.2)
movej(p[0.402108902522462, 0.228545466019395, 0.316981089049395, -1.385, 0.72, -0.736], a = 0.2, v = 0.2, t = 0.2)
movej(p[0.402127840727587, 0.228570762635597, 0.316438708817827, -1.385, 0.72, -0.736], a = 0.2, v = 0.2, t = 0.2)
movej(p[0.402137987813014, 0.228584316556039, 0.316148101629517, -1.385, 0.72, -0.736], a = 0.2, v = 0.2, t = 0.2)
movej(p[0.402124794161918, 0.228566693200191, 0.316525960855816, -1.385, 0.72, -0.736], a = 0.2, v = 0.2, t = 0.2)
movej(p[0.402094000842559, 0.228525561172301, 0.317407865322164, -1.385, 0.72, -0.736], a = 0.2, v = 0.2, t = 0.2)
movej(p[0.402054256057939, 0.228472472267841, 0.318546135044294, -1.385, 0.72, -0.736], a = 0.2, v = 0.2, t = 0.2)
movej(p[0.402021641422147, 0.228428907425306, 0.319480201055092, -1.385, 0.72, -0.736], a = 0.2, v = 0.2, t = 0.2)
movej(p[0.401999029247056, 0.228398703321435, 0.320127801853615, -1.385, 0.72, -0.736], a = 0.2, v = 0.2, t = 0.2)
movej(p[0.401992474215927, 0.228389947470204, 0.320315534496587, -1.385, 0.72, -0.736], a = 0.2, v = 0.2, t = 0.2)
movej(p[0.401993605349291, 0.228391458376142, 0.320283139432139, -1.385, 0.72, -0.736], a = 0.2, v = 0.2, t = 0.2)
movej(p[0.401993116295328, 0.228390805124669, 0.320297145680342, -1.385, 0.72, -0.736], a = 0.2, v = 0.2, t = 0.2)
movej(p[0.401994462849468, 0.228392603777869, 0.320258581078197, -1.385, 0.72, -0.736], a = 0.2, v = 0.2, t = 0.2)
movej(p[0.402004189550661, 0.228405596172099, 0.31998001347316, -1.385, 0.72, -0.736], a = 0.2, v = 0.2, t = 0.2)
movej(p[0.402023986301695, 0.228432039586859, 0.319413044938439, -1.385, 0.72, -0.736], a = 0.2, v = 0.2, t = 0.2)
movej(p[0.402053914452177, 0.228472015969592, 0.318555918453588, -1.385, 0.72, -0.736], a = 0.2, v = 0.2, t = 0.2)
movej(p[0.40208587899129, 0.228514712448621, 0.317640470869661, -1.385, 0.72, -0.736], a = 0.2, v = 0.2, t = 0.2)
movej(p[0.402115431375434, 0.22855418690328, 0.316794106135034, -1.385, 0.72, -0.736], a = 0.2, v = 0.2, t = 0.2)
movej(p[0.40213355390966, 0.228578393991009, 0.316275086288923, -1.385, 0.72, -0.736], a = 0.2, v = 0.2, t = 0.2)
movej(p[0.402138353819187, 0.22858480544702, 0.316137619405273, -1.385, 0.72, -0.736], a = 0.2, v = 0.2, t = 0.2)
movej(p[0.402128021987787, 0.228571004753035, 0.316433517621059, -1.385, 0.72, -0.736], a = 0.2, v = 0.2, t = 0.2)
movej(p[0.402098887896412, 0.228532089030927, 0.317267902670837, -1.385, 0.72, -0.736], a = 0.2, v = 0.2, t = 0.2)
movej(p[0.402059787979811, 0.228479861505815, 0.318387703712158, -1.385, 0.72, -0.736], a = 0.2, v = 0.2, t = 0.2)
movej(p[0.402024792212431, 0.228433116078239, 0.319389964078962, -1.385, 0.72, -0.736], a = 0.2, v = 0.2, t = 0.2)
movej(p[0.402005212973636, 0.228406963204404, 0.319950703177561, -1.385, 0.72, -0.736], a = 0.2, v = 0.2, t = 0.2)
movej(p[0.401994393482583, 0.228392511121388, 0.320260567709268, -1.385, 0.72, -0.736], a = 0.2, v = 0.2, t = 0.2)
movej(p[0.401992444238279, 0.228389907427705, 0.320316393040667, -1.385, 0.72, -0.736], a = 0.2, v = 0.2, t = 0.2)
movej(p[0.401992655476127, 0.228390189587643, 0.320310343299818, -1.385, 0.72, -0.736], a = 0.2, v = 0.2, t = 0.2)
movej(p[0.401994537096434, 0.228392702952897, 0.320256454684136, -1.385, 0.72, -0.736], a = 0.2, v = 0.2, t = 0.2)
movej(p[0.401999295769265, 0.228399059327191, 0.320120168797751, -1.385, 0.72, -0.736], a = 0.2, v = 0.2, t = 0.2)
movej(p[0.402014785255082, 0.228419749333201, 0.319676558072848, -1.385, 0.72, -0.736], a = 0.2, v = 0.2, t = 0.2)
movej(p[0.402039821471628, 0.228453191338761, 0.318959534002314, -1.385, 0.72, -0.736], a = 0.2, v = 0.2, t = 0.2)
movej(p[0.402065762594865, 0.228487842069071, 0.318216593880222, -1.385, 0.72, -0.736], a = 0.2, v = 0.2, t = 0.2)
movej(p[0.402092400872717, 0.228523424020297, 0.317453687616714, -1.385, 0.72, -0.736], a = 0.2, v = 0.2, t = 0.2)
movej(p[0.402117508896188, 0.228556961941611, 0.316734607033614, -1.385, 0.72, -0.736], a = 0.2, v = 0.2, t = 0.2)
movej(p[0.402134815759514, 0.228580079500868, 0.31623894757296, -1.385, 0.72, -0.736], a = 0.2, v = 0.2, t = 0.2)
movej(p[0.402137273229533, 0.228583362054599, 0.316168566924468, -1.385, 0.72, -0.736], a = 0.2, v = 0.2, t = 0.2)
movej(p[0.402121866112534, 0.228562782072341, 0.316609818649763, -1.385, 0.72, -0.736], a = 0.2, v = 0.2, t = 0.2)
movej(p[0.402093694094528, 0.228525151435097, 0.317416650424387, -1.385, 0.72, -0.736], a = 0.2, v = 0.2, t = 0.2)
movej(p[0.402053339299619, 0.228471247712335, 0.318572390520256, -1.385, 0.72, -0.736], a = 0.2, v = 0.2, t = 0.2)
movej(p[0.402020654599789, 0.228427589282099, 0.319508463128266, -1.385, 0.72, -0.736], a = 0.2, v = 0.2, t = 0.2)
movej(p[0.402002267390813, 0.228403028656348, 0.320035063119965, -1.385, 0.72, -0.736], a = 0.2, v = 0.2, t = 0.2)
movej(p[0.401995309543748, 0.228393734745673, 0.320234332199447, -1.385, 0.72, -0.736], a = 0.2, v = 0.2, t = 0.2)
movej(p[0.401991684688326, 0.228388892862516, 0.32033814615174, -1.385, 0.72, -0.736], a = 0.2, v = 0.2, t = 0.2)
movej(p[0.401991897320483, 0.228389176884896, 0.320332056478608, -1.385, 0.72, -0.736], a = 0.2, v = 0.2, t = 0.2)
movej(p[0.401995773848722, 0.228394354938803, 0.320221034749264, -1.385, 0.72, -0.736], a = 0.2, v = 0.2, t = 0.2)
movej(p[0.402006128337646, 0.228408185897468, 0.319924487633882, -1.385, 0.72, -0.736], a = 0.2, v = 0.2, t = 0.2)
movej(p[0.402027300923314, 0.228436467076708, 0.319318115919076, -1.385, 0.72, -0.736], a = 0.2, v = 0.2, t = 0.2)
movej(p[0.402056762328781, 0.228475820007036, 0.318474356765903, -1.385, 0.72, -0.736], a = 0.2, v = 0.2, t = 0.2)
movej(p[0.402082065555544, 0.228509618670207, 0.317749685663207, -1.385, 0.72, -0.736], a = 0.2, v = 0.2, t = 0.2)
movej(p[0.402098267428805, 0.228531260244311, 0.317285672536697, -1.385, 0.72, -0.736], a = 0.2, v = 0.2, t = 0.2)
movej(p[0.40209678946102, 0.228529286055968, 0.317328000756499, -1.385, 0.72, -0.736], a = 0.2, v = 0.2, t = 0.2)
movej(p[0.402082191043375, 0.228509786289972, 0.317746091757752, -1.385, 0.72, -0.736], a = 0.2, v = 0.2, t = 0.2)
movej(p[0.402049417804908, 0.228466009594679, 0.318684700065722, -1.385, 0.72, -0.736], a = 0.2, v = 0.2, t = 0.2)
movej(p[0.402020033086449, 0.228426759098651, 0.319526262943338, -1.385, 0.72, -0.736], a = 0.2, v = 0.2, t = 0.2)
movej(p[0.401998397520401, 0.228397859495601, 0.320145894172659, -1.385, 0.72, -0.736], a = 0.2, v = 0.2, t = 0.2)
movej(p[0.401990120273369, 0.228386803202779, 0.320382950173078, -1.385, 0.72, -0.736], a = 0.2, v = 0.2, t = 0.2)
movej(p[0.401986855498305, 0.228382442295226, 0.320476451613329, -1.385, 0.72, -0.736], a = 0.2, v = 0.2, t = 0.2)
movej(p[0.401988489280146, 0.228384624611445, 0.320429660960921, -1.385, 0.72, -0.736], a = 0.2, v = 0.2, t = 0.2)
movej(p[0.402001632387532, 0.228402180453776, 0.320053249279874, -1.385, 0.72, -0.736], a = 0.2, v = 0.2, t = 0.2)
movej(p[0.402023006102306, 0.22843073029025, 0.31944111733327, -1.385, 0.72, -0.736], a = 0.2, v = 0.2, t = 0.2)
movej(p[0.402058285611615, 0.228477854724739, 0.318430730746909, -1.385, 0.72, -0.736], a = 0.2, v = 0.2, t = 0.2)
movej(p[0.402095691442501, 0.228527819383024, 0.31735944742923, -1.385, 0.72, -0.736], a = 0.2, v = 0.2, t = 0.2)
movej(p[0.402126788024118, 0.228569356492012, 0.316468857691366, -1.385, 0.72, -0.736], a = 0.2, v = 0.2, t = 0.2)
movej(p[0.402145290507609, 0.228594071095141, 0.315938956298183, -1.385, 0.72, -0.736], a = 0.2, v = 0.2, t = 0.2)
movej(p[0.402152220224486, 0.228603327431053, 0.315740492852507, -1.385, 0.72, -0.736], a = 0.2, v = 0.2, t = 0.2)
movej(p[0.40214546131049, 0.228594299244266, 0.315934064593536, -1.385, 0.72, -0.736], a = 0.2, v = 0.2, t = 0.2)
movej(p[0.40211838382523, 0.228558130623862, 0.316709549526137, -1.385, 0.72, -0.736], a = 0.2, v = 0.2, t = 0.2)
movej(p[0.402081553146902, 0.228508934222833, 0.317764360777148, -1.385, 0.72, -0.736], a = 0.2, v = 0.2, t = 0.2)
movej(p[0.402043840567985, 0.228458559827346, 0.31884442919705, -1.385, 0.72, -0.736], a = 0.2, v = 0.2, t = 0.2)
movej(p[0.40201516869012, 0.228420261504705, 0.319665576695069, -1.385, 0.72, -0.736], a = 0.2, v = 0.2, t = 0.2)
movej(p[0.4019954608263, 0.228393936820611, 0.32022999954676, -1.385, 0.72, -0.736], a = 0.2, v = 0.2, t = 0.2)
movej(p[0.401989822936925, 0.228386406037058, 0.320391465732392, -1.385, 0.72, -0.736], a = 0.2, v = 0.2, t = 0.2)
movej(p[0.401994909725576, 0.228393200690477, 0.320245782781549, -1.385, 0.72, -0.736], a = 0.2, v = 0.2, t = 0.2)
movej(p[0.402010007654503, 0.228413367676259, 0.319813386039972, -1.385, 0.72, -0.736], a = 0.2, v = 0.2, t = 0.2)
movej(p[0.402039720384209, 0.228453056311728, 0.318962429092819, -1.385, 0.72, -0.736], a = 0.2, v = 0.2, t = 0.2)
movej(p[0.402079287394402, 0.228505907754854, 0.31782925073675, -1.385, 0.72, -0.736], a = 0.2, v = 0.2, t = 0.2)
movej(p[0.402120409059388, 0.228560835820625, 0.316651547885323, -1.385, 0.72, -0.736], a = 0.2, v = 0.2, t = 0.2)
movej(p[0.402154705580689, 0.228606647233621, 0.315669313558359, -1.385, 0.72, -0.736], a = 0.2, v = 0.2, t = 0.2)
movej(p[0.402173249893457, 0.228631417710005, 0.315138214196692, -1.385, 0.72, -0.736], a = 0.2, v = 0.2, t = 0.2)
movej(p[0.402175710849249, 0.228634704919841, 0.315067733717493, -1.385, 0.72, -0.736], a = 0.2, v = 0.2, t = 0.2)
movej(p[0.402148344044824, 0.228598149842756, 0.315851504598781, -1.385, 0.72, -0.736], a = 0.2, v = 0.2, t = 0.2)
movej(p[0.40210748381282, 0.228543570984829, 0.317021720147177, -1.385, 0.72, -0.736], a = 0.2, v = 0.2, t = 0.2)
movej(p[0.402063681588338, 0.228485062374634, 0.318276192812349, -1.385, 0.72, -0.736], a = 0.2, v = 0.2, t = 0.2)
movej(p[0.402028320511939, 0.228437828987298, 0.319288915437255, -1.385, 0.72, -0.736], a = 0.2, v = 0.2, t = 0.2)
movej(p[0.402004083583159, 0.228405454626519, 0.319983048326655, -1.385, 0.72, -0.736], a = 0.2, v = 0.2, t = 0.2)
movej(p[0.401992310384593, 0.228389728633289, 0.320320226539819, -1.385, 0.72, -0.736], a = 0.2, v = 0.2, t = 0.2)
movej(p[0.401991487044992, 0.228388628861386, 0.320343806552832, -1.385, 0.72, -0.736], a = 0.2, v = 0.2, t = 0.2)
movej(p[0.401991092106903, 0.228388101324737, 0.320355117371944, -1.385, 0.72, -0.736], a = 0.2, v = 0.2, t = 0.2)
movej(p[0.40200015395614, 0.228400205646171, 0.32009559077716, -1.385, 0.72, -0.736], a = 0.2, v = 0.2, t = 0.2)
movej(p[0.402022191477138, 0.228429642158609, 0.319464447769514, -1.385, 0.72, -0.736], a = 0.2, v = 0.2, t = 0.2)
movej(p[0.402055601566346, 0.22847426952421, 0.318507600391361, -1.385, 0.72, -0.736], a = 0.2, v = 0.2, t = 0.2)
movej(p[0.402093091055786, 0.228524345929005, 0.317433921136712, -1.385, 0.72, -0.736], a = 0.2, v = 0.2, t = 0.2)
movej(p[0.402128091703249, 0.228571097875127, 0.316431521006918, -1.385, 0.72, -0.736], a = 0.2, v = 0.2, t = 0.2)
movej(p[0.402156978304735, 0.228609683013809, 0.315604223937343, -1.385, 0.72, -0.736], a = 0.2, v = 0.2, t = 0.2)
movej(p[0.402164584261589, 0.22861984263401, 0.315386393334493, -1.385, 0.72, -0.736], a = 0.2, v = 0.2, t = 0.2)
movej(p[0.402151592785332, 0.228602489332228, 0.315758462379782, -1.385, 0.72, -0.736], a = 0.2, v = 0.2, t = 0.2)
movej(p[0.402120827352157, 0.228561394553175, 0.316639568200473, -1.385, 0.72, -0.736], a = 0.2, v = 0.2, t = 0.2)
movej(p[0.402081190626502, 0.228508449987957, 0.317774743170684, -1.385, 0.72, -0.736], a = 0.2, v = 0.2, t = 0.2)
movej(p[0.402038549164455, 0.228451491860588, 0.318995972210398, -1.385, 0.72, -0.736], a = 0.2, v = 0.2, t = 0.2)
movej(p[0.402006413125306, 0.228408566301213, 0.319916331465114, -1.385, 0.72, -0.736], a = 0.2, v = 0.2, t = 0.2)
movej(p[0.401994490038498, 0.228392640095485, 0.320257802398682, -1.385, 0.72, -0.736], a = 0.2, v = 0.2, t = 0.2)
movej(p[0.401989010751798, 0.22838532116469, 0.320414726287142, -1.385, 0.72, -0.736], a = 0.2, v = 0.2, t = 0.2)
movej(p[0.401991846776774, 0.228389109371379, 0.320333504023861, -1.385, 0.72, -0.736], a = 0.2, v = 0.2, t = 0.2)
movej(p[0.402003405286576, 0.228404548595129, 0.320002474383946, -1.385, 0.72, -0.736], a = 0.2, v = 0.2, t = 0.2)
movej(p[0.402026846727082, 0.22843586038628, 0.319331123860208, -1.385, 0.72, -0.736], a = 0.2, v = 0.2, t = 0.2)
movej(p[0.402059150083338, 0.228479009438676, 0.318405972731553, -1.385, 0.72, -0.736], a = 0.2, v = 0.2, t = 0.2)
movej(p[0.40209430759059, 0.228525970909504, 0.317399080219941, -1.385, 0.72, -0.736], a = 0.2, v = 0.2, t = 0.2)
movej(p[0.402127272546576, 0.228570003690549, 0.316454981223082, -1.385, 0.72, -0.736], a = 0.2, v = 0.2, t = 0.2)
movej(p[0.402146008576863, 0.228595030252685, 0.315918391172525, -1.385, 0.72, -0.736], a = 0.2, v = 0.2, t = 0.2)
movej(p[0.402150142703732, 0.228600552392721, 0.315799991953927, -1.385, 0.72, -0.736], a = 0.2, v = 0.2, t = 0.2)
movej(p[0.402139462295025, 0.228586286088278, 0.316105873240422, -1.385, 0.72, -0.736], a = 0.2, v = 0.2, t = 0.2)
movej(p[0.402114312442277, 0.228552692293708, 0.316826151792006, -1.385, 0.72, -0.736], a = 0.2, v = 0.2, t = 0.2)
movej(p[0.402079252536671, 0.228505861193808, 0.317830249043821, -1.385, 0.72, -0.736], a = 0.2, v = 0.2, t = 0.2)
movej(p[0.402042819236474, 0.228457195588703, 0.318873679594225, -1.385, 0.72, -0.736], a = 0.2, v = 0.2, t = 0.2)
movej(p[0.402018216998676, 0.228424333268163, 0.319578274741727, -1.385, 0.72, -0.736], a = 0.2, v = 0.2, t = 0.2)
movej(p[0.402000607500532, 0.228400811465907, 0.32008260150437, -1.385, 0.72, -0.736], a = 0.2, v = 0.2, t = 0.2)
movej(p[0.401994278452072, 0.228392357469937, 0.320263862122602, -1.385, 0.72, -0.736], a = 0.2, v = 0.2, t = 0.2)
movej(p[0.401996058287805, 0.228394734876937, 0.320212888563567, -1.385, 0.72, -0.736], a = 0.2, v = 0.2, t = 0.2)
movej(p[0.402008381192786, 0.22841119513786, 0.319859967047896, -1.385, 0.72, -0.736], a = 0.2, v = 0.2, t = 0.2)
movej(p[0.402030440210547, 0.228440660364496, 0.319228208384279, -1.385, 0.72, -0.736], a = 0.2, v = 0.2, t = 0.2)
movej(p[0.402061900358296, 0.228482683105192, 0.318327206303667, -1.385, 0.72, -0.736], a = 0.2, v = 0.2, t = 0.2)
movej(p[0.402096325853201, 0.228528666794058, 0.317341278240541, -1.385, 0.72, -0.736], a = 0.2, v = 0.2, t = 0.2)
movej(p[0.402119582931169, 0.228559732323838, 0.316675207762901, -1.385, 0.72, -0.736], a = 0.2, v = 0.2, t = 0.2)
movej(p[0.40213600092236, 0.228581662576426, 0.316205005132552, -1.385, 0.72, -0.736], a = 0.2, v = 0.2, t = 0.2)
movej(p[0.402140943748583, 0.228588264932726, 0.316063445189912, -1.385, 0.72, -0.736], a = 0.2, v = 0.2, t = 0.2)
movej(p[0.402128374050868, 0.228571475019598, 0.316423434719644, -1.385, 0.72, -0.736], a = 0.2, v = 0.2, t = 0.2)
movej(p[0.402095353322513, 0.228527367740879, 0.317369131007817, -1.385, 0.72, -0.736], a = 0.2, v = 0.2, t = 0.2)
movej(p[0.402050644797031, 0.228467648543492, 0.318649559656829, -1.385, 0.72, -0.736], a = 0.2, v = 0.2, t = 0.2)
movej(p[0.402020262450317, 0.228427065470333, 0.319519694082813, -1.385, 0.72, -0.736], a = 0.2, v = 0.2, t = 0.2)
movej(p[0.40199727081397, 0.228396354502916, 0.320178162452109, -1.385, 0.72, -0.736], a = 0.2, v = 0.2, t = 0.2)
movej(p[0.401990856468643, 0.228387786572067, 0.320361865927743, -1.385, 0.72, -0.736], a = 0.2, v = 0.2, t = 0.2)
movej(p[0.401988215995537, 0.228384259572845, 0.320437487688356, -1.385, 0.72, -0.736], a = 0.2, v = 0.2, t = 0.2)
movej(p[0.401994708247892, 0.228392931567632, 0.320251552996419, -1.385, 0.72, -0.736], a = 0.2, v = 0.2, t = 0.2)
movej(p[0.402010317888307, 0.228413782069567, 0.319804501107042, -1.385, 0.72, -0.736], a = 0.2, v = 0.2, t = 0.2)
movej(p[0.402039329977624, 0.228452534828015, 0.318973610132012, -1.385, 0.72, -0.736], a = 0.2, v = 0.2, t = 0.2)
movej(p[0.402074124964476, 0.228499012063966, 0.317977100013936, -1.385, 0.72, -0.736], a = 0.2, v = 0.2, t = 0.2)
movej(p[0.402104099127162, 0.228539049907279, 0.317118655763752, -1.385, 0.72, -0.736], a = 0.2, v = 0.2, t = 0.2)
movej(p[0.402127746611714, 0.228570636920773, 0.316441404246919, -1.385, 0.72, -0.736], a = 0.2, v = 0.2, t = 0.2)
movej(p[0.40214654887169, 0.228595751948896, 0.315902917412927, -1.385, 0.72, -0.736], a = 0.2, v = 0.2, t = 0.2)
movej(p[0.402155263304382, 0.228607392210354, 0.315653340645226, -1.385, 0.72, -0.736], a = 0.2, v = 0.2, t = 0.2)
movej(p[0.402142202112663, 0.22858994578648, 0.316027406304656, -1.385, 0.72, -0.736], a = 0.2, v = 0.2, t = 0.2)
movej(p[0.402110133000358, 0.228547109624313, 0.316945848809796, -1.385, 0.72, -0.736], a = 0.2, v = 0.2, t = 0.2)
movej(p[0.402071810411153, 0.228495920410523, 0.318043387603437, -1.385, 0.72, -0.736], a = 0.2, v = 0.2, t = 0.2)
movej(p[0.402033185953999, 0.228444327978076, 0.319149571736312, -1.385, 0.72, -0.736], a = 0.2, v = 0.2, t = 0.2)
movej(p[0.40200699664372, 0.22840934573312, 0.319899619804748, -1.385, 0.72, -0.736], a = 0.2, v = 0.2, t = 0.2)
movej(p[0.401994613783442, 0.228392805387198, 0.320254258408581, -1.385, 0.72, -0.736], a = 0.2, v = 0.2, t = 0.2)
movej(p[0.401992164679278, 0.228389534008117, 0.320324399463375, -1.385, 0.72, -0.736], a = 0.2, v = 0.2, t = 0.2)
movej(p[0.401991143696344, 0.228388170235085, 0.320353639877479, -1.385, 0.72, -0.736], a = 0.2, v = 0.2, t = 0.2)
movej(p[0.401994733694036, 0.228392965557195, 0.320250824232257, -1.385, 0.72, -0.736], a = 0.2, v = 0.2, t = 0.2)
movej(p[0.402012367174299, 0.228416519393451, 0.31974581063435, -1.385, 0.72, -0.736], a = 0.2, v = 0.2, t = 0.2)
movej(p[0.402036590159986, 0.228448875129812, 0.319052077067777, -1.385, 0.72, -0.736], a = 0.2, v = 0.2, t = 0.2)
movej(p[0.402070060553068, 0.228493583046022, 0.318093502618392, -1.385, 0.72, -0.736], a = 0.2, v = 0.2, t = 0.2)
movej(p[0.402103353171724, 0.228538053500898, 0.317140019535067, -1.385, 0.72, -0.736], a = 0.2, v = 0.2, t = 0.2)
movej(p[0.402130692089964, 0.228574571329146, 0.316357047299436, -1.385, 0.72, -0.736], a = 0.2, v = 0.2, t = 0.2)
movej(p[0.402147378485682, 0.228596860101787, 0.315879157704642, -1.385, 0.72, -0.736], a = 0.2, v = 0.2, t = 0.2)
movej(p[0.402144973302259, 0.228593647389624, 0.315948040892527, -1.385, 0.72, -0.736], a = 0.2, v = 0.2, t = 0.2)
movej(p[0.402127422434818, 0.228570203903047, 0.316450688502677, -1.385, 0.72, -0.736], a = 0.2, v = 0.2, t = 0.2)
movej(p[0.402088329489763, 0.228517985690144, 0.317570289882583, -1.385, 0.72, -0.736], a = 0.2, v = 0.2, t = 0.2)
movej(p[0.402044712011255, 0.228459723853491, 0.31881947152028, -1.385, 0.72, -0.736], a = 0.2, v = 0.2, t = 0.2)
movej(p[0.402007859721133, 0.228410498584615, 0.319874901721675, -1.385, 0.72, -0.736], a = 0.2, v = 0.2, t = 0.2)
movej(p[0.401993477769996, 0.228391287962714, 0.320286793236018, -1.385, 0.72, -0.736], a = 0.2, v = 0.2, t = 0.2)
movej(p[0.401985596785647, 0.228380760975861, 0.320512500481656, -1.385, 0.72, -0.736], a = 0.2, v = 0.2, t = 0.2)
movej(p[0.40198669306128, 0.228382225320753, 0.320481103724279, -1.385, 0.72, -0.736], a = 0.2, v = 0.2, t = 0.2)
movej(p[0.401995124449198, 0.228393487506519, 0.320239633209993, -1.385, 0.72, -0.736], a = 0.2, v = 0.2, t = 0.2)
movej(p[0.402014765386176, 0.228419722793405, 0.319677127107878, -1.385, 0.72, -0.736], a = 0.2, v = 0.2, t = 0.2)
movej(p[0.402048006066812, 0.228464123872323, 0.318725131502089, -1.385, 0.72, -0.736], a = 0.2, v = 0.2, t = 0.2)
movej(p[0.402086907294348, 0.228516085999474, 0.317611020811072, -1.385, 0.72, -0.736], a = 0.2, v = 0.2, t = 0.2)
movej(p[0.402125655147868, 0.228567843258023, 0.316501302671167, -1.385, 0.72, -0.736], a = 0.2, v = 0.2, t = 0.2)
movej(p[0.402151993649236, 0.228603024784255, 0.315746981848468, -1.385, 0.72, -0.736], a = 0.2, v = 0.2, t = 0.2)
movej(p[0.402166644353477, 0.228622594391819, 0.315327393386609, -1.385, 0.72, -0.736], a = 0.2, v = 0.2, t = 0.2)
movej(p[0.402167892260238, 0.22862426127726, 0.315291653993474, -1.385, 0.72, -0.736], a = 0.2, v = 0.2, t = 0.2)
movej(p[0.402142867895321, 0.228590835102456, 0.316008338639604, -1.385, 0.72, -0.736], a = 0.2, v = 0.2, t = 0.2)
movej(p[0.402101362795297, 0.228535394865181, 0.31719702286881, -1.385, 0.72, -0.736], a = 0.2, v = 0.2, t = 0.2)
movej(p[0.40205246785635, 0.228470083686189, 0.318597348197026, -1.385, 0.72, -0.736], a = 0.2, v = 0.2, t = 0.2)
movej(p[0.402018668754867, 0.228424936699317, 0.31956533668209, -1.385, 0.72, -0.736], a = 0.2, v = 0.2, t = 0.2)
movej(p[0.40199829308664, 0.228397719998708, 0.320148885100643, -1.385, 0.72, -0.736], a = 0.2, v = 0.2, t = 0.2)
movej(p[0.401989613441963, 0.228386126205173, 0.320397465557887, -1.385, 0.72, -0.736], a = 0.2, v = 0.2, t = 0.2)
movej(p[0.401990806622088, 0.228387719989772, 0.320363293506854, -1.385, 0.72, -0.736], a = 0.2, v = 0.2, t = 0.2)
movej(p[0.402000592964858, 0.228400792049951, 0.320083017798419, -1.385, 0.72, -0.736], a = 0.2, v = 0.2, t = 0.2)
movej(p[0.40202082017401, 0.228427810447066, 0.31950372116968, -1.385, 0.72, -0.736], a = 0.2, v = 0.2, t = 0.2)
movej(p[0.402050456565285, 0.228467397113845, 0.318654950515012, -1.385, 0.72, -0.736], a = 0.2, v = 0.2, t = 0.2)
movej(p[0.402085359611102, 0.228514018689039, 0.317655345645016, -1.385, 0.72, -0.736], a = 0.2, v = 0.2, t = 0.2)
movej(p[0.402112405724404, 0.228550145404501, 0.316880759188779, -1.385, 0.72, -0.736], a = 0.2, v = 0.2, t = 0.2)
movej(p[0.402134585698491, 0.228579772197965, 0.316245536399627, -1.385, 0.72, -0.736], a = 0.2, v = 0.2, t = 0.2)
movej(p[0.402147469115782, 0.228596981160506, 0.315876562106258, -1.385, 0.72, -0.736], a = 0.2, v = 0.2, t = 0.2)
movej(p[0.402152004106555, 0.228603038752569, 0.315746682356346, -1.385, 0.72, -0.736], a = 0.2, v = 0.2, t = 0.2)
movej(p[0.402135851034118, 0.228581462363929, 0.316209297852957, -1.385, 0.72, -0.736], a = 0.2, v = 0.2, t = 0.2)
movej(p[0.402106546139862, 0.228542318492696, 0.317048574607381, -1.385, 0.72, -0.736], a = 0.2, v = 0.2, t = 0.2)
movej(p[0.402073145462241, 0.228497703698578, 0.318005152442626, -1.385, 0.72, -0.736], a = 0.2, v = 0.2, t = 0.2)
movej(p[0.402038814083209, 0.228451845724536, 0.31898838507666, -1.385, 0.72, -0.736], a = 0.2, v = 0.2, t = 0.2)
movej(p[0.402013251166351, 0.228417700181574, 0.319720493567034, -1.385, 0.72, -0.736], a = 0.2, v = 0.2, t = 0.2)
movej(p[0.401997996377636, 0.228397323671085, 0.32015738269043, -1.385, 0.72, -0.736], a = 0.2, v = 0.2, t = 0.2)
movej(p[0.40199507495122, 0.228393421389834, 0.320241050806034, -1.385, 0.72, -0.736], a = 0.2, v = 0.2, t = 0.2)
movej(p[0.401998202003389, 0.228397598334695, 0.320151493677019, -1.385, 0.72, -0.736], a = 0.2, v = 0.2, t = 0.2)
movej(p[0.402011840473987, 0.228415815856049, 0.319760895054189, -1.385, 0.72, -0.736], a = 0.2, v = 0.2, t = 0.2)
movej(p[0.402039183575155, 0.228452339271622, 0.31897780302171, -1.385, 0.72, -0.736], a = 0.2, v = 0.2, t = 0.2)
movej(p[0.402068718530434, 0.228491790445757, 0.318131937440618, -1.385, 0.72, -0.736], a = 0.2, v = 0.2, t = 0.2)
movej(p[0.402096977692766, 0.228529537485615, 0.317322609898317, -1.385, 0.72, -0.736], a = 0.2, v = 0.2, t = 0.2)
movej(p[0.402121876569853, 0.228562796040654, 0.316609519157642, -1.385, 0.72, -0.736], a = 0.2, v = 0.2, t = 0.2)
movej(p[0.402143917113017, 0.228592236589935, 0.315978289596773, -1.385, 0.72, -0.736], a = 0.2, v = 0.2, t = 0.2)
movej(p[0.402147106595382, 0.228596496925629, 0.315886944499794, -1.385, 0.72, -0.736], a = 0.2, v = 0.2, t = 0.2)
movej(p[0.40213119752706, 0.22857524646431, 0.316342571846909, -1.385, 0.72, -0.736], a = 0.2, v = 0.2, t = 0.2)
movej(p[0.402097671361609, 0.228530464050427, 0.317302743587608, -1.385, 0.72, -0.736], a = 0.2, v = 0.2, t = 0.2)
movej(p[0.402060160957531, 0.228480359709005, 0.3183770218265, -1.385, 0.72, -0.736], a = 0.2, v = 0.2, t = 0.2)
movej(p[0.40202230127899, 0.228429788825904, 0.319461303102241, -1.385, 0.72, -0.736], a = 0.2, v = 0.2, t = 0.2)
movej(p[0.401998292389485, 0.228397719067487, 0.320148905066785, -1.385, 0.72, -0.736], a = 0.2, v = 0.2, t = 0.2)
movej(p[0.401990018140218, 0.228386666778915, 0.320385875212795, -1.385, 0.72, -0.736], a = 0.2, v = 0.2, t = 0.2)
movej(p[0.401987613305372, 0.228383454532363, 0.32045474841761, -1.385, 0.72, -0.736], a = 0.2, v = 0.2, t = 0.2)
movej(p[0.401993374939691, 0.228391150607629, 0.320289738241877, -1.385, 0.72, -0.736], a = 0.2, v = 0.2, t = 0.2)
movej(p[0.402006939477041, 0.228409269373005, 0.319901257028344, -1.385, 0.72, -0.736], a = 0.2, v = 0.2, t = 0.2)
movej(p[0.402034413643277, 0.22844596785811, 0.319114411361278, -1.385, 0.72, -0.736], a = 0.2, v = 0.2, t = 0.2)
movej(p[0.402064340399449, 0.228485942378401, 0.318257324808711, -1.385, 0.72, -0.736], a = 0.2, v = 0.2, t = 0.2)
movej(p[0.402096939349263, 0.228529486268465, 0.317323708036095, -1.385, 0.72, -0.736], a = 0.2, v = 0.2, t = 0.2)
movej(p[0.402126801967211, 0.228569375116431, 0.316468458368537, -1.385, 0.72, -0.736], a = 0.2, v = 0.2, t = 0.2)
movej(p[0.402147960609786, 0.228597637671252, 0.31586248597656, -1.385, 0.72, -0.736], a = 0.2, v = 0.2, t = 0.2)
movej(p[0.40214831615864, 0.228598112593919, 0.315852303244437, -1.385, 0.72, -0.736], a = 0.2, v = 0.2, t = 0.2)
movej(p[0.402128269477676, 0.22857133533646, 0.316426429640857, -1.385, 0.72, -0.736], a = 0.2, v = 0.2, t = 0.2)
movej(p[0.402096134135682, 0.228528410708306, 0.317346768929431, -1.385, 0.72, -0.736], a = 0.2, v = 0.2, t = 0.2)
movej(p[0.402053621647239, 0.228471624856807, 0.318564304232983, -1.385, 0.72, -0.736], a = 0.2, v = 0.2, t = 0.2)
movej(p[0.402018412550546, 0.22842459447563, 0.31957267423906, -1.385, 0.72, -0.736], a = 0.2, v = 0.2, t = 0.2)
movej(p[0.401996482157811, 0.228395301059254, 0.320200749149586, -1.385, 0.72, -0.736], a = 0.2, v = 0.2, t = 0.2)
movej(p[0.401987385335813, 0.228383150023123, 0.320461277345853, -1.385, 0.72, -0.736], a = 0.2, v = 0.2, t = 0.2)
movej(p[0.401983588980355, 0.228378079059621, 0.320570002968934, -1.385, 0.72, -0.736], a = 0.2, v = 0.2, t = 0.2)
movej(p[0.401983451292318, 0.22837789514349, 0.320573946281864, -1.385, 0.72, -0.736], a = 0.2, v = 0.2, t = 0.2)
movej(p[0.401993820770067, 0.228391746123405, 0.320276969894441, -1.385, 0.72, -0.736], a = 0.2, v = 0.2, t = 0.2)
movej(p[0.40201249266213, 0.228416687013216, 0.319742216728895, -1.385, 0.72, -0.736], a = 0.2, v = 0.2, t = 0.2)
movej(p[0.402044659724658, 0.228459654011923, 0.318820968980886, -1.385, 0.72, -0.736], a = 0.2, v = 0.2, t = 0.2)
movej(p[0.402082016754721, 0.228509553484743, 0.317751083293106, -1.385, 0.72, -0.736], a = 0.2, v = 0.2, t = 0.2)
movej(p[0.402113123793658, 0.228551104562045, 0.316860194063121, -1.385, 0.72, -0.736], a = 0.2, v = 0.2, t = 0.2)
movej(p[0.402136237954929, 0.228581979191538, 0.316198216644471, -1.385, 0.72, -0.736], a = 0.2, v = 0.2, t = 0.2)
movej(p[0.402155224960878, 0.228607340993204, 0.315654438783004, -1.385, 0.72, -0.736], a = 0.2, v = 0.2, t = 0.2)
movej(p[0.40217280022873, 0.228630817072513, 0.315151092357905, -1.385, 0.72, -0.736], a = 0.2, v = 0.2, t = 0.2)
movej(p[0.402172082159477, 0.228629857914969, 0.315171657483563, -1.385, 0.72, -0.736], a = 0.2, v = 0.2, t = 0.2)
movej(p[0.402146608129832, 0.228595831102674, 0.315901220290907, -1.385, 0.72, -0.736], a = 0.2, v = 0.2, t = 0.2)
movej(p[0.402107389696946, 0.228543445270006, 0.317024415576268, -1.385, 0.72, -0.736], a = 0.2, v = 0.2, t = 0.2)
movej(p[0.402071486234257, 0.228495487392797, 0.318052671859196, -1.385, 0.72, -0.736], a = 0.2, v = 0.2, t = 0.2)
movej(p[0.402037688178505, 0.228450341802756, 0.319020630395047, -1.385, 0.72, -0.736], a = 0.2, v = 0.2, t = 0.2)
movej(p[0.402011895549202, 0.228415889422501, 0.319759317729018, -1.385, 0.72, -0.736], a = 0.2, v = 0.2, t = 0.2)
movej(p[0.4019957403853, 0.228394310240199, 0.320221993124052, -1.385, 0.72, -0.736], a = 0.2, v = 0.2, t = 0.2)
movej(p[0.401990358700247, 0.228387121680333, 0.320376121752714, -1.385, 0.72, -0.736], a = 0.2, v = 0.2, t = 0.2)
movej(p[0.401987127737182, 0.228382805936994, 0.320468654835106, -1.385, 0.72, -0.736], a = 0.2, v = 0.2, t = 0.2)
movej(p[0.40198723161322, 0.228382944688911, 0.320465679880035, -1.385, 0.72, -0.736], a = 0.2, v = 0.2, t = 0.2)
movej(p[0.401989957139189, 0.228386585297085, 0.320387622250169, -1.385, 0.72, -0.736], a = 0.2, v = 0.2, t = 0.2)
movej(p[0.401998493414019, 0.228397987585038, 0.320143147829907, -1.385, 0.72, -0.736], a = 0.2, v = 0.2, t = 0.2)
movej(p[0.402018924262033, 0.228425277991783, 0.319558019091261, -1.385, 0.72, -0.736], a = 0.2, v = 0.2, t = 0.2)
movej(p[0.402052607287273, 0.228470269930373, 0.318593354968743, -1.385, 0.72, -0.736], a = 0.2, v = 0.2, t = 0.2)
movej(p[0.402086572660133, 0.228515639013434, 0.317620604558952, -1.385, 0.72, -0.736], a = 0.2, v = 0.2, t = 0.2)
movej(p[0.402112273265027, 0.228549968472527, 0.316884552755648, -1.385, 0.72, -0.736], a = 0.2, v = 0.2, t = 0.2)
movej(p[0.402131622791376, 0.22857581450907, 0.316330392500645, -1.385, 0.72, -0.736], a = 0.2, v = 0.2, t = 0.2)
movej(p[0.402143955456521, 0.228592287807086, 0.315977191458995, -1.385, 0.72, -0.736], a = 0.2, v = 0.2, t = 0.2)
movej(p[0.402136084580914, 0.228581774322936, 0.316202609195582, -1.385, 0.72, -0.736], a = 0.2, v = 0.2, t = 0.2)
movej(p[0.402109299900592, 0.228545996815317, 0.316969708348788, -1.385, 0.72, -0.736], a = 0.2, v = 0.2, t = 0.2)
movej(p[0.402070036152657, 0.22849355045329, 0.318094201433341, -1.385, 0.72, -0.736], a = 0.2, v = 0.2, t = 0.2)
movej(p[0.402038528249817, 0.22845146392396, 0.318996571194641, -1.385, 0.72, -0.736], a = 0.2, v = 0.2, t = 0.2)
movej(p[0.402008480885896, 0.228411328302451, 0.319857111889673, -1.385, 0.72, -0.736], a = 0.2, v = 0.2, t = 0.2)
movej(p[0.401993029499579, 0.228390689187665, 0.320299631464949, -1.385, 0.72, -0.736], a = 0.2, v = 0.2, t = 0.2)
movej(p[0.401987905761733, 0.228383845179537, 0.320446372621286, -1.385, 0.72, -0.736], a = 0.2, v = 0.2, t = 0.2)
movej(p[0.401999480689527, 0.228399306333539, 0.320114872778741, -1.385, 0.72, -0.736], a = 0.2, v = 0.2, t = 0.2)
movej(p[0.402024247734676, 0.228432388794703, 0.319405557635408, -1.385, 0.72, -0.736], a = 0.2, v = 0.2, t = 0.2)
movej(p[0.402061977045303, 0.228482785539493, 0.318325010028111, -1.385, 0.72, -0.736], a = 0.2, v = 0.2, t = 0.2)
movej(p[0.402102321382893, 0.228536675293941, 0.317169569424363, -1.385, 0.72, -0.736], a = 0.2, v = 0.2, t = 0.2)
movej(p[0.402131075525003, 0.22857508350065, 0.316346065921657, -1.385, 0.72, -0.736], a = 0.2, v = 0.2, t = 0.2)
movej(p[0.402148249928951, 0.228598024127932, 0.315854200027872, -1.385, 0.72, -0.736], a = 0.2, v = 0.2, t = 0.2)
movej(p[0.402150745742474, 0.228601357898814, 0.315782721241602, -1.385, 0.72, -0.736], a = 0.2, v = 0.2, t = 0.2)
movej(p[0.402142655263163, 0.228590551080076, 0.316014428312736, -1.385, 0.72, -0.736], a = 0.2, v = 0.2, t = 0.2)
movej(p[0.402116965115588, 0.228556235589296, 0.316750180623918, -1.385, 0.72, -0.736], a = 0.2, v = 0.2, t = 0.2)
movej(p[0.402088367833267, 0.228518036907294, 0.317569191744806, -1.385, 0.72, -0.736], a = 0.2, v = 0.2, t = 0.2)
movej(p[0.402065616192396, 0.228487646512678, 0.318220786769919, -1.385, 0.72, -0.736], a = 0.2, v = 0.2, t = 0.2)
movej(p[0.402051261778866, 0.228468472674004, 0.318631889621676, -1.385, 0.72, -0.736], a = 0.2, v = 0.2, t = 0.2)
movej(p[0.402049131971516, 0.228465627794103, 0.318692886183702, -1.385, 0.72, -0.736], a = 0.2, v = 0.2, t = 0.2)
movej(p[0.402067906345307, 0.228490705573389, 0.318155197995367, -1.385, 0.72, -0.736], a = 0.2, v = 0.2, t = 0.2)
movej(p[0.402103921352735, 0.228538812445945, 0.317123747129813, -1.385, 0.72, -0.736], a = 0.2, v = 0.2, t = 0.2)
movej(p[0.402141891878859, 0.228589531393172, 0.316036291237587, -1.385, 0.72, -0.736], a = 0.2, v = 0.2, t = 0.2)
movej(p[0.402175707363476, 0.228634700263736, 0.3150678335482, -1.385, 0.72, -0.736], a = 0.2, v = 0.2, t = 0.2)
movej(p[0.402210352462086, 0.22868097728719, 0.314075616150528, -1.385, 0.72, -0.736], a = 0.2, v = 0.2, t = 0.2)
movej(p[0.402238796370391, 0.228718971100591, 0.313260997580752, -1.385, 0.72, -0.736], a = 0.2, v = 0.2, t = 0.2)
movej(p[0.402256894504205, 0.228743145595588, 0.312742676549591, -1.385, 0.72, -0.736], a = 0.2, v = 0.2, t = 0.2)
movej(p[0.40225081531596, 0.228735025349195, 0.312916781302739, -1.385, 0.72, -0.736], a = 0.2, v = 0.2, t = 0.2)
movej(p[0.402233389936349, 0.228711749482382, 0.313415835007434, -1.385, 0.72, -0.736], a = 0.2, v = 0.2, t = 0.2)
movej(p[0.402200703842209, 0.228668089189704, 0.314351947547727, -1.385, 0.72, -0.736], a = 0.2, v = 0.2, t = 0.2)
movej(p[0.402171102657242, 0.228628549549581, 0.315199709912253, -1.385, 0.72, -0.736], a = 0.2, v = 0.2, t = 0.2)
movej(p[0.402142512346467, 0.228590360179788, 0.316018521371726, -1.385, 0.72, -0.736], a = 0.2, v = 0.2, t = 0.2)
movej(p[0.402117902788546, 0.228557488081429, 0.316723326163714, -1.385, 0.72, -0.736], a = 0.2, v = 0.2, t = 0.2)
movej(p[0.402091069307401, 0.228521645388346, 0.317491822946818, -1.385, 0.72, -0.736], a = 0.2, v = 0.2, t = 0.2)
movej(p[0.402067027930492, 0.228489532235034, 0.318180355333552, -1.385, 0.72, -0.736], a = 0.2, v = 0.2, t = 0.2)
movej(p[0.40204808275382, 0.228464226306624, 0.318722935226533, -1.385, 0.72, -0.736], a = 0.2, v = 0.2, t = 0.2)
movej(p[0.402035147049932, 0.228446947502515, 0.319093406980509, -1.385, 0.72, -0.736], a = 0.2, v = 0.2, t = 0.2)
movej(p[0.402031764107161, 0.228442428753016, 0.31919029268173, -1.385, 0.72, -0.736], a = 0.2, v = 0.2, t = 0.2)
movej(p[0.402043408332124, 0.228457982470377, 0.318856808204728, -1.385, 0.72, -0.736], a = 0.2, v = 0.2, t = 0.2)
movej(p[0.402064877208503, 0.228486659418506, 0.31824195087982, -1.385, 0.72, -0.736], a = 0.2, v = 0.2, t = 0.2)
movej(p[0.402091083250494, 0.228521664012764, 0.31749142362399, -1.385, 0.72, -0.736], a = 0.2, v = 0.2, t = 0.2)
movej(p[0.402112970419642, 0.228550899693444, 0.316864586614232, -1.385, 0.72, -0.736], a = 0.2, v = 0.2, t = 0.2)
movej(p[0.402131504275091, 0.228575656201514, 0.316333786744686, -1.385, 0.72, -0.736], a = 0.2, v = 0.2, t = 0.2)
movej(p[0.402124644273676, 0.228566492987694, 0.31653025357622, -1.385, 0.72, -0.736], a = 0.2, v = 0.2, t = 0.2)
movej(p[0.402100812043151, 0.228534659200657, 0.317212796120529, -1.385, 0.72, -0.736], a = 0.2, v = 0.2, t = 0.2)
movej(p[0.402061726069642, 0.228482450299963, 0.318332197839021, -1.385, 0.72, -0.736], a = 0.2, v = 0.2, t = 0.2)
movej(p[0.402030522823369, 0.228440770714174, 0.319225842396521, -1.385, 0.72, -0.736], a = 0.2, v = 0.2, t = 0.2)
movej(p[0.402008050392921, 0.228410753273535, 0.319869440981998, -1.385, 0.72, -0.736], a = 0.2, v = 0.2, t = 0.2)
movej(p[0.401997656933053, 0.228396870259621, 0.320167104204685, -1.385, 0.72, -0.736], a = 0.2, v = 0.2, t = 0.2)
movej(p[0.40199885007832, 0.228398463997659, 0.320132933151959, -1.385, 0.72, -0.736], a = 0.2, v = 0.2, t = 0.2)
movej(p[0.402009657682886, 0.228412900203359, 0.319823409042963, -1.385, 0.72, -0.736], a = 0.2, v = 0.2, t = 0.2)
movej(p[0.402032464398972, 0.228443364164427, 0.319170236692678, -1.385, 0.72, -0.736], a = 0.2, v = 0.2, t = 0.2)
movej(p[0.402062329108384, 0.228483255806056, 0.318314927126696, -1.385, 0.72, -0.736], a = 0.2, v = 0.2, t = 0.2)
movej(p[0.402093634836386, 0.22852507228132, 0.317418347546407, -1.385, 0.72, -0.736], a = 0.2, v = 0.2, t = 0.2)
movej(p[0.402116609566734, 0.228555760666629, 0.31676036335604, -1.385, 0.72, -0.736], a = 0.2, v = 0.2, t = 0.2)
movej(p[0.402130367913068, 0.22857413831142, 0.316366331555194, -1.385, 0.72, -0.736], a = 0.2, v = 0.2, t = 0.2)
movej(p[0.402131933025179, 0.228576228902377, 0.316321507567715, -1.385, 0.72, -0.736], a = 0.2, v = 0.2, t = 0.2)
movej(p[0.402117515867734, 0.22855697125382, 0.3167344073722, -1.385, 0.72, -0.736], a = 0.2, v = 0.2, t = 0.2)
movej(p[0.402082546592229, 0.22851026121264, 0.31773590902563, -1.385, 0.72, -0.736], a = 0.2, v = 0.2, t = 0.2)
movej(p[0.402044565608785, 0.228459528297099, 0.318823664409978, -1.385, 0.72, -0.736], a = 0.2, v = 0.2, t = 0.2)
movej(p[0.402018647840228, 0.22842490876269, 0.319565935666332, -1.385, 0.72, -0.736], a = 0.2, v = 0.2, t = 0.2)
movej(p[0.402003988072977, 0.228405327049254, 0.319985783688029, -1.385, 0.72, -0.736], a = 0.2, v = 0.2, t = 0.2)
movej(p[0.401998226891809, 0.228397631579282, 0.320150780885771, -1.385, 0.72, -0.736], a = 0.2, v = 0.2, t = 0.2)
movej(p[0.402000020371904, 0.228400027211672, 0.320099416559399, -1.385, 0.72, -0.736], a = 0.2, v = 0.2, t = 0.2)
movej(p[0.402011973979096, 0.228415994184854, 0.319757071538108, -1.385, 0.72, -0.736], a = 0.2, v = 0.2, t = 0.2)
movej(p[0.40203250866829, 0.228443423296955, 0.319168968842698, -1.385, 0.72, -0.736], a = 0.2, v = 0.2, t = 0.2)
movej(p[0.402059739178988, 0.22847979632035, 0.318389101342057, -1.385, 0.72, -0.736], a = 0.2, v = 0.2, t = 0.2)
movej(p[0.402092094124686, 0.228523014283094, 0.317462472718937, -1.385, 0.72, -0.736], a = 0.2, v = 0.2, t = 0.2)
movej(p[0.402114211354858, 0.228552557266675, 0.316829046882512, -1.385, 0.72, -0.736], a = 0.2, v = 0.2, t = 0.2)
movej(p[0.402123103561976, 0.228564434989468, 0.31657437874875, -1.385, 0.72, -0.736], a = 0.2, v = 0.2, t = 0.2)
movej(p[0.402114138153623, 0.228552459488479, 0.31683114332736, -1.385, 0.72, -0.736], a = 0.2, v = 0.2, t = 0.2)
movej(p[0.402094028728744, 0.228525598421137, 0.317407066676507, -1.385, 0.72, -0.736], a = 0.2, v = 0.2, t = 0.2)
movej(p[0.402062123447773, 0.228482981095886, 0.318320817138414, -1.385, 0.72, -0.736], a = 0.2, v = 0.2, t = 0.2)
movej(p[0.40202892111064, 0.228438631234118, 0.319271714606425, -1.385, 0.72, -0.736], a = 0.2, v = 0.2, t = 0.2)
movej(p[0.402003548168415, 0.228404739448855, 0.319998382323263, -1.385, 0.72, -0.736], a = 0.2, v = 0.2, t = 0.2)
movej(p[0.401996666624922, 0.228395547460309, 0.320195466108567, -1.385, 0.72, -0.736], a = 0.2, v = 0.2, t = 0.2)
movej(p[0.401990116090441, 0.228386797615454, 0.320383069969926, -1.385, 0.72, -0.736], a = 0.2, v = 0.2, t = 0.2)
movej(p[0.401988601173462, 0.228384774072402, 0.320426456395223, -1.385, 0.72, -0.736], a = 0.2, v = 0.2, t = 0.2)
movej(p[0.401986954494261, 0.228382574528597, 0.320473616421248, -1.385, 0.72, -0.736], a = 0.2, v = 0.2, t = 0.2)
movej(p[0.401989650391158, 0.228386175559881, 0.320396407352392, -1.385, 0.72, -0.736], a = 0.2, v = 0.2, t = 0.2)
movej(p[0.401994735088345, 0.228392967419637, 0.320250784299974, -1.385, 0.72, -0.736], a = 0.2, v = 0.2, t = 0.2)
movej(p[0.402011450764557, 0.228415295303557, 0.319772056127241, -1.385, 0.72, -0.736], a = 0.2, v = 0.2, t = 0.2)
movej(p[0.402040361766455, 0.228453913034971, 0.318944060242716, -1.385, 0.72, -0.736], a = 0.2, v = 0.2, t = 0.2)
movej(p[0.40207013026853, 0.228493676168114, 0.31809150600425, -1.385, 0.72, -0.736], a = 0.2, v = 0.2, t = 0.2)
movej(p[0.402097127581009, 0.228529737698112, 0.317318317177913, -1.385, 0.72, -0.736], a = 0.2, v = 0.2, t = 0.2)
movej(p[0.402118589485842, 0.228558405334032, 0.316703659514419, -1.385, 0.72, -0.736], a = 0.2, v = 0.2, t = 0.2)
movej(p[0.402139340292967, 0.228586123124617, 0.316109367315169, -1.385, 0.72, -0.736], a = 0.2, v = 0.2, t = 0.2)
movej(p[0.402138451420833, 0.228584935817948, 0.316134824145475, -1.385, 0.72, -0.736], a = 0.2, v = 0.2, t = 0.2)
movej(p[0.402119035664796, 0.228559001315419, 0.316690881183913, -1.385, 0.72, -0.736], a = 0.2, v = 0.2, t = 0.2)
movej(p[0.402081776236379, 0.228509232213527, 0.317757971611895, -1.385, 0.72, -0.736], a = 0.2, v = 0.2, t = 0.2)
movej(p[0.402045311564224, 0.22846052470348, 0.318802300638662, -1.385, 0.72, -0.736], a = 0.2, v = 0.2, t = 0.2)
movej(p[0.402012664510742, 0.228416916559172, 0.319737295075036, -1.385, 0.72, -0.736], a = 0.2, v = 0.2, t = 0.2)
movej(p[0.401993656938732, 0.22839152728649, 0.320281661937674, -1.385, 0.72, -0.736], a = 0.2, v = 0.2, t = 0.2)
movej(p[0.401987948636742, 0.228383902449624, 0.320445144703589, -1.385, 0.72, -0.736], a = 0.2, v = 0.2, t = 0.2)
movej(p[0.401987727290152, 0.228383606786983, 0.320451483953489, -1.385, 0.72, -0.736], a = 0.2, v = 0.2, t = 0.2)
movej(p[0.401987168869305, 0.228382860879028, 0.320467476832763, -1.385, 0.72, -0.736], a = 0.2, v = 0.2, t = 0.2)
movej(p[0.401988072381686, 0.228384067741336, 0.320441600713488, -1.385, 0.72, -0.736], a = 0.2, v = 0.2, t = 0.2)
movej(p[0.401996282771591, 0.228395034730072, 0.32020645946603, -1.385, 0.72, -0.736], a = 0.2, v = 0.2, t = 0.2)
movej(p[0.402012685076803, 0.228416944030189, 0.319736706073864, -1.385, 0.72, -0.736], a = 0.2, v = 0.2, t = 0.2)
movej(p[0.40203866768074, 0.228451650168144, 0.318992577966357, -1.385, 0.72, -0.736], a = 0.2, v = 0.2, t = 0.2)
movej(p[0.402069833977818, 0.228493280399224, 0.318099991614352, -1.385, 0.72, -0.736], a = 0.2, v = 0.2, t = 0.2)
movej(p[0.402098288343443, 0.228531288180938, 0.317285073552455, -1.385, 0.72, -0.736], a = 0.2, v = 0.2, t = 0.2)
movej(p[0.402115957727169, 0.228554889975072, 0.316779031698264, -1.385, 0.72, -0.736], a = 0.2, v = 0.2, t = 0.2)
movej(p[0.402121928856449, 0.228562865882223, 0.316608021697036, -1.385, 0.72, -0.736], a = 0.2, v = 0.2, t = 0.2)
movej(p[0.402121113185549, 0.228561776353751, 0.316631382082493, -1.385, 0.72, -0.736], a = 0.2, v = 0.2, t = 0.2)
movej(p[0.402100093973897, 0.228533700043113, 0.317233361246187, -1.385, 0.72, -0.736], a = 0.2, v = 0.2, t = 0.2)
movej(p[0.402066710725142, 0.228489108529517, 0.318189439927896, -1.385, 0.72, -0.736], a = 0.2, v = 0.2, t = 0.2)
movej(p[0.402028704992709, 0.228438342555634, 0.319277904110264, -1.385, 0.72, -0.736], a = 0.2, v = 0.2, t = 0.2)
movej(p[0.402007441776941, 0.228409940317675, 0.319886871423454, -1.385, 0.72, -0.736], a = 0.2, v = 0.2, t = 0.2)
movej(p[0.401992514650895, 0.228390001481018, 0.320314376460384, -1.385, 0.72, -0.736], a = 0.2, v = 0.2, t = 0.2)
movej(p[0.401987488514696, 0.228383287843819, 0.320458322356924, -1.385, 0.72, -0.736], a = 0.2, v = 0.2, t = 0.2)
movej(p[0.401984319946969, 0.228379055444752, 0.32054906846966, -1.385, 0.72, -0.736], a = 0.2, v = 0.2, t = 0.2)
movej(p[0.401985582842555, 0.228380742351443, 0.320512899804484, -1.385, 0.72, -0.736], a = 0.2, v = 0.2, t = 0.2)
movej(p[0.401986390147599, 0.228381820705265, 0.320489779012725, -1.385, 0.72, -0.736], a = 0.2, v = 0.2, t = 0.2)
movej(p[0.401995926525583, 0.228394558876184, 0.320216662164294, -1.385, 0.72, -0.736], a = 0.2, v = 0.2, t = 0.2)
movej(p[0.402017736310569, 0.228423691191341, 0.319592041396234, -1.385, 0.72, -0.736], a = 0.2, v = 0.2, t = 0.2)
movej(p[0.402041972193616, 0.228456064155289, 0.318897938456045, -1.385, 0.72, -0.736], a = 0.2, v = 0.2, t = 0.2)
movej(p[0.402068059719322, 0.228490910441991, 0.318150805444256, -1.385, 0.72, -0.736], a = 0.2, v = 0.2, t = 0.2)
movej(p[0.402093746381124, 0.228525221276666, 0.317415152963781, -1.385, 0.72, -0.736], a = 0.2, v = 0.2, t = 0.2)
movej(p[0.402116428306534, 0.22855551854919, 0.316765554552809, -1.385, 0.72, -0.736], a = 0.2, v = 0.2, t = 0.2)
movej(p[0.402125257769738, 0.2285673124621, 0.316512683371774, -1.385, 0.72, -0.736], a = 0.2, v = 0.2, t = 0.2)
movej(p[0.402117718042573, 0.228557241307886, 0.316728617191189, -1.385, 0.72, -0.736], a = 0.2, v = 0.2, t = 0.2)
movej(p[0.40209728792657, 0.228529951878923, 0.317313724965387, -1.385, 0.72, -0.736], a = 0.2, v = 0.2, t = 0.2)
movej(p[0.4020623012222, 0.228483218557219, 0.318315725772353, -1.385, 0.72, -0.736], a = 0.2, v = 0.2, t = 0.2)
movej(p[0.402026036981996, 0.228434778773186, 0.319354314533463, -1.385, 0.72, -0.736], a = 0.2, v = 0.2, t = 0.2)
movej(p[0.402001159681845, 0.228401549039434, 0.320066787322061, -1.385, 0.72, -0.736], a = 0.2, v = 0.2, t = 0.2)
movej(p[0.401992266115275, 0.228389669500761, 0.320321494389799, -1.385, 0.72, -0.736], a = 0.2, v = 0.2, t = 0.2)
movej(p[0.401988326494544, 0.228384407171361, 0.320434323054941, -1.385, 0.72, -0.736], a = 0.2, v = 0.2, t = 0.2)
movej(p[0.401990528457396, 0.228387348432626, 0.320371259997279, -1.385, 0.72, -0.736], a = 0.2, v = 0.2, t = 0.2)
movej(p[0.402001894308521, 0.228402530313475, 0.320045748000544, -1.385, 0.72, -0.736], a = 0.2, v = 0.2, t = 0.2)
movej(p[0.402023295770049, 0.228431117212541, 0.319432821401511, -1.385, 0.72, -0.736], a = 0.2, v = 0.2, t = 0.2)
movej(p[0.402049944156643, 0.228466712666471, 0.318669625628952, -1.385, 0.72, -0.736], a = 0.2, v = 0.2, t = 0.2)
movej(p[0.402078123146195, 0.228504352615923, 0.317862594192915, -1.385, 0.72, -0.736], a = 0.2, v = 0.2, t = 0.2)
movej(p[0.402107375753854, 0.228543426645587, 0.317024814899096, -1.385, 0.72, -0.736], a = 0.2, v = 0.2, t = 0.2)
movej(p[0.402121716224292, 0.228562581859843, 0.316614111370168, -1.385, 0.72, -0.736], a = 0.2, v = 0.2, t = 0.2)
movej(p[0.40211897292088, 0.228558917505536, 0.31669267813664, -1.385, 0.72, -0.736], a = 0.2, v = 0.2, t = 0.2)
movej(p[0.402096179450732, 0.228528471237665, 0.317345471130238, -1.385, 0.72, -0.736], a = 0.2, v = 0.2, t = 0.2)
movej(p[0.402064835379226, 0.228486603545251, 0.318243148848305, -1.385, 0.72, -0.736], a = 0.2, v = 0.2, t = 0.2)
movej(p[0.402029084593397, 0.228438849605423, 0.319267032546263, -1.385, 0.72, -0.736], a = 0.2, v = 0.2, t = 0.2)
movej(p[0.402003185299438, 0.228404254748368, 0.32000877469987, -1.385, 0.72, -0.736], a = 0.2, v = 0.2, t = 0.2)
movej(p[0.401993628355393, 0.228391489106432, 0.320282480549472, -1.385, 0.72, -0.736], a = 0.2, v = 0.2, t = 0.2)
movej(p[0.401990300487837, 0.228387043923386, 0.320377788925522, -1.385, 0.72, -0.736], a = 0.2, v = 0.2, t = 0.2)
movej(p[0.401988791845249, 0.228385028761322, 0.320420995655546, -1.385, 0.72, -0.736], a = 0.2, v = 0.2, t = 0.2)
movej(p[0.401992586109243, 0.228390096931162, 0.320312329930889, -1.385, 0.72, -0.736], a = 0.2, v = 0.2, t = 0.2)
movej(p[0.40200752613265, 0.228410052995406, 0.319884455520343, -1.385, 0.72, -0.736], a = 0.2, v = 0.2, t = 0.2)
movej(p[0.402031233572499, 0.228441720093899, 0.319205486915348, -1.385, 0.72, -0.736], a = 0.2, v = 0.2, t = 0.2)
movej(p[0.402062283793334, 0.228483195276696, 0.318316224925888, -1.385, 0.72, -0.736], a = 0.2, v = 0.2, t = 0.2)
movej(p[0.40209317471434, 0.228524457675515, 0.317431525199742, -1.385, 0.72, -0.736], a = 0.2, v = 0.2, t = 0.2)
movej(p[0.40211720563393, 0.228556556860513, 0.31674329230513, -1.385, 0.72, -0.736], a = 0.2, v = 0.2, t = 0.2)
movej(p[0.402128168390257, 0.228571200309427, 0.316429324731362, -1.385, 0.72, -0.736], a = 0.2, v = 0.2, t = 0.2)
movej(p[0.40212182776903, 0.22856273085519, 0.316610916787541, -1.385, 0.72, -0.736], a = 0.2, v = 0.2, t = 0.2)
movej(p[0.402101993720224, 0.228536237620111, 0.317178953510828, -1.385, 0.72, -0.736], a = 0.2, v = 0.2, t = 0.2)
movej(p[0.402063789647303, 0.228485206713876, 0.318273098060429, -1.385, 0.72, -0.736], a = 0.2, v = 0.2, t = 0.2)
movej(p[0.40202783354944, 0.228437178529488, 0.319302861787034, -1.385, 0.72, -0.736], a = 0.2, v = 0.2, t = 0.2)
movej(p[0.402002685648725, 0.228403587342337, 0.320023084433423, -1.385, 0.72, -0.736], a = 0.2, v = 0.2, t = 0.2)
movej(p[0.40199377371213, 0.228391683265993, 0.320278317608987, -1.385, 0.72, -0.736], a = 0.2, v = 0.2, t = 0.2)
movej(p[0.40199075712411, 0.228387653873087, 0.320364711102894, -1.385, 0.72, -0.736], a = 0.2, v = 0.2, t = 0.2)
movej(p[0.401989734049712, 0.228386287306391, 0.320394011415422, -1.385, 0.72, -0.736], a = 0.2, v = 0.2, t = 0.2)
movej(p[0.401992826279008, 0.228390417736767, 0.320305451595171, -1.385, 0.72, -0.736], a = 0.2, v = 0.2, t = 0.2)
movej(p[0.401993037865434, 0.228390700362316, 0.320299391871252, -1.385, 0.72, -0.736], a = 0.2, v = 0.2, t = 0.2)
movej(p[0.402002490619721, 0.228403326833286, 0.320028669961484, -1.385, 0.72, -0.736], a = 0.2, v = 0.2, t = 0.2)
movej(p[0.402020505408701, 0.228427390000822, 0.319512735882529, -1.385, 0.72, -0.736], a = 0.2, v = 0.2, t = 0.2)
movej(p[0.402046311981097, 0.228461861005495, 0.31877364922573, -1.385, 0.72, -0.736], a = 0.2, v = 0.2, t = 0.2)
movej(p[0.402070426559241, 0.228494071937003, 0.318083020394148, -1.385, 0.72, -0.736], a = 0.2, v = 0.2, t = 0.2)
movej(p[0.40209312939929, 0.228524397146155, 0.317432822998934, -1.385, 0.72, -0.736], a = 0.2, v = 0.2, t = 0.2)
movej(p[0.402113622259208, 0.228551770385001, 0.316845918272008, -1.385, 0.72, -0.736], a = 0.2, v = 0.2, t = 0.2)
movej(p[0.402121175929465, 0.228561860163633, 0.316629585129765, -1.385, 0.72, -0.736], a = 0.2, v = 0.2, t = 0.2)
movej(p[0.402113102879019, 0.228551076625418, 0.316860793047363, -1.385, 0.72, -0.736], a = 0.2, v = 0.2, t = 0.2)
movej(p[0.402088015770186, 0.228517566640731, 0.317579274646221, -1.385, 0.72, -0.736], a = 0.2, v = 0.2, t = 0.2)
movej(p[0.402057863833073, 0.228477291336085, 0.318442810262466, -1.385, 0.72, -0.736], a = 0.2, v = 0.2, t = 0.2)
movej(p[0.402024796046781, 0.228433121199954, 0.319389854265184, -1.385, 0.72, -0.736], a = 0.2, v = 0.2, t = 0.2)
movej(p[0.402004056394129, 0.228405418308904, 0.319983827006171, -1.385, 0.72, -0.736], a = 0.2, v = 0.2, t = 0.2)
movej(p[0.401994691516182, 0.22839290921833, 0.320252032183813, -1.385, 0.72, -0.736], a = 0.2, v = 0.2, t = 0.2)
movej(p[0.401990337785609, 0.228387093743705, 0.320376720736956, -1.385, 0.72, -0.736], a = 0.2, v = 0.2, t = 0.2)
movej(p[0.401988104450799, 0.228384110577499, 0.320440682270982, -1.385, 0.72, -0.736], a = 0.2, v = 0.2, t = 0.2)
movej(p[0.401989240115667, 0.228385627536372, 0.320408157426616, -1.385, 0.72, -0.736], a = 0.2, v = 0.2, t = 0.2)
movej(p[0.401994682801749, 0.228392897578068, 0.32025228176058, -1.385, 0.72, -0.736], a = 0.2, v = 0.2, t = 0.2)
movej(p[0.402006893116259, 0.228409207446814, 0.319902584776749, -1.385, 0.72, -0.736], a = 0.2, v = 0.2, t = 0.2)
movej(p[0.40202868930673, 0.228438321603163, 0.319278353348446, -1.385, 0.72, -0.736], a = 0.2, v = 0.2, t = 0.2)
movej(p[0.402058240296565, 0.22847779419538, 0.318432028546101, -1.385, 0.72, -0.736], a = 0.2, v = 0.2, t = 0.2)
movej(p[0.402080434213744, 0.228507439613262, 0.31779640643412, -1.385, 0.72, -0.736], a = 0.2, v = 0.2, t = 0.2)
movej(p[0.402099529278659, 0.22853294575417, 0.317249533820734, -1.385, 0.72, -0.736], a = 0.2, v = 0.2, t = 0.2)
movej(p[0.402113988265381, 0.228552259275982, 0.316835436047765, -1.385, 0.72, -0.736], a = 0.2, v = 0.2, t = 0.2)
movej(p[0.402118969435107, 0.228558912849432, 0.316692777967347, -1.385, 0.72, -0.736], a = 0.2, v = 0.2, t = 0.2)
movej(p[0.402103415915639, 0.228538137310781, 0.31713822258234, -1.385, 0.72, -0.736], a = 0.2, v = 0.2, t = 0.2)
movej(p[0.402072141559595, 0.228496362740458, 0.318033903686265, -1.385, 0.72, -0.736], a = 0.2, v = 0.2, t = 0.2)
movej(p[0.402039793585443, 0.228453154089924, 0.318960332647971, -1.385, 0.72, -0.736], a = 0.2, v = 0.2, t = 0.2)
movej(p[0.402014149450073, 0.228418900059725, 0.319694767193819, -1.385, 0.72, -0.736], a = 0.2, v = 0.2, t = 0.2)
movej(p[0.401998941231286, 0.228398585754794, 0.320130322578969, -1.385, 0.72, -0.736], a = 0.2, v = 0.2, t = 0.2)
movej(p[0.401989835834286, 0.228386423264645, 0.320391096358776, -1.385, 0.72, -0.736], a = 0.2, v = 0.2, t = 0.2)
movej(p[0.401990935247114, 0.228387891800031, 0.320359609753762, -1.385, 0.72, -0.736], a = 0.2, v = 0.2, t = 0.2)
movej(p[0.401995728882249, 0.228394294875054, 0.320222322565386, -1.385, 0.72, -0.736], a = 0.2, v = 0.2, t = 0.2)
movej(p[0.402015144986864, 0.228420229843194, 0.319666255543877, -1.385, 0.72, -0.736], a = 0.2, v = 0.2, t = 0.2)
movej(p[0.402044544694147, 0.228459500360471, 0.31882426339422, -1.385, 0.72, -0.736], a = 0.2, v = 0.2, t = 0.2)
movej(p[0.40207447005601, 0.22849947301832, 0.317967216773935, -1.385, 0.72, -0.736], a = 0.2, v = 0.2, t = 0.2)
movej(p[0.402100285691416, 0.228533956128865, 0.317227870557298, -1.385, 0.72, -0.736], a = 0.2, v = 0.2, t = 0.2)
movej(p[0.402122591153334, 0.228563750542094, 0.316589053862691, -1.385, 0.72, -0.736], a = 0.2, v = 0.2, t = 0.2)
movej(p[0.402138716339587, 0.228585289681897, 0.316127237011737, -1.385, 0.72, -0.736], a = 0.2, v = 0.2, t = 0.2)
movej(p[0.402135851034118, 0.228581462363929, 0.316209297852957, -1.385, 0.72, -0.736], a = 0.2, v = 0.2, t = 0.2)
movej(p[0.402113329454269, 0.228551379272216, 0.316854304051403, -1.385, 0.72, -0.736], a = 0.2, v = 0.2, t = 0.2)
movej(p[0.402077872170533, 0.228504017376393, 0.317869782003825, -1.385, 0.72, -0.736], a = 0.2, v = 0.2, t = 0.2)
movej(p[0.402042205740412, 0.228456376114296, 0.318891249798671, -1.385, 0.72, -0.736], a = 0.2, v = 0.2, t = 0.2)
movej(p[0.402011826182317, 0.22841579676602, 0.319761304360088, -1.385, 0.72, -0.736], a = 0.2, v = 0.2, t = 0.2)
movej(p[0.401995691933055, 0.228394245520345, 0.320223380770881, -1.385, 0.72, -0.736], a = 0.2, v = 0.2, t = 0.2)
movej(p[0.401990545886261, 0.228387371713149, 0.320370760843743, -1.385, 0.72, -0.736], a = 0.2, v = 0.2, t = 0.2)
movej(p[0.40198910765629, 0.228385450604398, 0.320411950993485, -1.385, 0.72, -0.736], a = 0.2, v = 0.2, t = 0.2)
movej(p[0.401988644048471, 0.228384831342488, 0.320425228477526, -1.385, 0.72, -0.736], a = 0.2, v = 0.2, t = 0.2)
movej(p[0.401992984533106, 0.228390629123915, 0.32030091928107, -1.385, 0.72, -0.736], a = 0.2, v = 0.2, t = 0.2)
movej(p[0.402009641996907, 0.228412879250888, 0.319823858281145, -1.385, 0.72, -0.736], a = 0.2, v = 0.2, t = 0.2)
movej(p[0.402030962379354, 0.228441357848962, 0.319213253744359, -1.385, 0.72, -0.736], a = 0.2, v = 0.2, t = 0.2)
movej(p[0.402060230672992, 0.228480452831097, 0.318375025212358, -1.385, 0.72, -0.736], a = 0.2, v = 0.2, t = 0.2)
movej(p[0.402089835343732, 0.228519997127324, 0.317527163017125, -1.385, 0.72, -0.736], a = 0.2, v = 0.2, t = 0.2)
movej(p[0.402113813976727, 0.228552026470753, 0.316840427583119, -1.385, 0.72, -0.736], a = 0.2, v = 0.2, t = 0.2)
movej(p[0.402129346581556, 0.228572774072777, 0.316395581952369, -1.385, 0.72, -0.736], a = 0.2, v = 0.2, t = 0.2)
movej(p[0.402131214955926, 0.228575269744833, 0.316342072693374, -1.385, 0.72, -0.736], a = 0.2, v = 0.2, t = 0.2)
movej(p[0.402116679282196, 0.22855585378872, 0.316758366741899, -1.385, 0.72, -0.736], a = 0.2, v = 0.2, t = 0.2)
movej(p[0.402081347486291, 0.228508659512663, 0.317770250788865, -1.385, 0.72, -0.736], a = 0.2, v = 0.2, t = 0.2)
movej(p[0.402039727355755, 0.228453065623937, 0.318962229431405, -1.385, 0.72, -0.736], a = 0.2, v = 0.2, t = 0.2)
movej(p[0.402007353586883, 0.228409822518229, 0.319889397140343, -1.385, 0.72, -0.736], a = 0.2, v = 0.2, t = 0.2)
movej(p[0.401993760117615, 0.228391665107185, 0.320278706948745, -1.385, 0.72, -0.736], a = 0.2, v = 0.2, t = 0.2)
movej(p[0.401986934276777, 0.22838254752319, 0.320474195439349, -1.385, 0.72, -0.736], a = 0.2, v = 0.2, t = 0.2)
movej(p[0.40198956080679, 0.228386055897994, 0.320398973001564, -1.385, 0.72, -0.736], a = 0.2, v = 0.2, t = 0.2)
movej(p[0.402000688126463, 0.228400919161606, 0.320080292420115, -1.385, 0.72, -0.736], a = 0.2, v = 0.2, t = 0.2)
movej(p[0.402021173282822, 0.228428282110461, 0.319493608319052, -1.385, 0.72, -0.736], a = 0.2, v = 0.2, t = 0.2)
movej(p[0.402050707540947, 0.228467732353375, 0.318647762704102, -1.385, 0.72, -0.736], a = 0.2, v = 0.2, t = 0.2)
movej(p[0.402083491236733, 0.228511523016982, 0.317708854904011, -1.385, 0.72, -0.736], a = 0.2, v = 0.2, t = 0.2)
movej(p[0.402114155582488, 0.228552482769002, 0.316830644173825, -1.385, 0.72, -0.736], a = 0.2, v = 0.2, t = 0.2)
movej(p[0.402132271145168, 0.228576680544522, 0.316311823989128, -1.385, 0.72, -0.736], a = 0.2, v = 0.2, t = 0.2)
movej(p[0.402135997436587, 0.228581657920322, 0.316205104963259, -1.385, 0.72, -0.736], a = 0.2, v = 0.2, t = 0.2)
movej(p[0.402127593237699, 0.228570432052171, 0.31644579679803, -1.385, 0.72, -0.736], a = 0.2, v = 0.2, t = 0.2)
movej(p[0.40209634676784, 0.228528694730685, 0.317340679256299, -1.385, 0.72, -0.736], a = 0.2, v = 0.2, t = 0.2)
movej(p[0.402058236810792, 0.228477789539275, 0.318432128376808, -1.385, 0.72, -0.736], a = 0.2, v = 0.2, t = 0.2)
movej(p[0.402023036777109, 0.228430771263971, 0.319440238823047, -1.385, 0.72, -0.736], a = 0.2, v = 0.2, t = 0.2)
movej(p[0.402004161664476, 0.228405558923262, 0.319980812118817, -1.385, 0.72, -0.736], a = 0.2, v = 0.2, t = 0.2)
movej(p[0.401993829135922, 0.228391757298056, 0.320276730300744, -1.385, 0.72, -0.736], a = 0.2, v = 0.2, t = 0.2)
movej(p[0.401991733140571, 0.22838895758237, 0.320336758504912, -1.385, 0.72, -0.736], a = 0.2, v = 0.2, t = 0.2)
movej(p[0.401998984036579, 0.228398642931758, 0.320129096657886, -1.385, 0.72, -0.736], a = 0.2, v = 0.2, t = 0.2)
movej(p[0.40201707192222, 0.228422803737808, 0.319611069129003, -1.385, 0.72, -0.736], a = 0.2, v = 0.2, t = 0.2)
movej(p[0.402044980415782, 0.228460082373544, 0.318811784555835, -1.385, 0.72, -0.736], a = 0.2, v = 0.2, t = 0.2)
movej(p[0.402076972841079, 0.228502816101411, 0.317895538326251, -1.385, 0.72, -0.736], a = 0.2, v = 0.2, t = 0.2)
movej(p[0.402107832390127, 0.228544036595288, 0.317011737076469, -1.385, 0.72, -0.736], a = 0.2, v = 0.2, t = 0.2)
movej(p[0.402127028542461, 0.228569677763229, 0.316461969372577, -1.385, 0.72, -0.736], a = 0.2, v = 0.2, t = 0.2)
movej(p[0.402135892863395, 0.228581518237184, 0.316208099884472, -1.385, 0.72, -0.736], a = 0.2, v = 0.2, t = 0.2)
movej(p[0.402129953106072, 0.228573584234974, 0.316378211409337, -1.385, 0.72, -0.736], a = 0.2, v = 0.2, t = 0.2)
movej(p[0.402109191841627, 0.228545852476075, 0.316972803100707, -1.385, 0.72, -0.736], a = 0.2, v = 0.2, t = 0.2)
movej(p[0.402070433530787, 0.228494081249212, 0.318082820732734, -1.385, 0.72, -0.736], a = 0.2, v = 0.2, t = 0.2)
movej(p[0.402031612476032, 0.228442226212467, 0.319194635317488, -1.385, 0.72, -0.736], a = 0.2, v = 0.2, t = 0.2)
movej(p[0.402007255288082, 0.22840969121608, 0.319892212366283, -1.385, 0.72, -0.736], a = 0.2, v = 0.2, t = 0.2)
movej(p[0.401993317424435, 0.228391073781903, 0.320291385448544, -1.385, 0.72, -0.736], a = 0.2, v = 0.2, t = 0.2)
movej(p[0.40198798907171, 0.228383956460437, 0.320443986667387, -1.385, 0.72, -0.736], a = 0.2, v = 0.2, t = 0.2)
movej(p[0.401987352220969, 0.22838310579013, 0.32046222573757, -1.385, 0.72, -0.736], a = 0.2, v = 0.2, t = 0.2)
movej(p[0.40198974206699, 0.228386298015432, 0.320393781804796, -1.385, 0.72, -0.736], a = 0.2, v = 0.2, t = 0.2)
movej(p[0.401998555774499, 0.228398070882749, 0.320141361858558, -1.385, 0.72, -0.736], a = 0.2, v = 0.2, t = 0.2)
movej(p[0.402018865003891, 0.228425198838005, 0.319559716213281, -1.385, 0.72, -0.736], a = 0.2, v = 0.2, t = 0.2)
movej(p[0.402049818668812, 0.228466545046706, 0.318673219534407, -1.385, 0.72, -0.736], a = 0.2, v = 0.2, t = 0.2)
movej(p[0.402077220330968, 0.228503146684836, 0.317888450346049, -1.385, 0.72, -0.736], a = 0.2, v = 0.2, t = 0.2)
movej(p[0.402100707469958, 0.228534519517519, 0.317215791041741, -1.385, 0.72, -0.736], a = 0.2, v = 0.2, t = 0.2)
movej(p[0.402120482260622, 0.228560933598821, 0.316649451440474, -1.385, 0.72, -0.736], a = 0.2, v = 0.2, t = 0.2)
movej(p[0.402134202263452, 0.228579260026461, 0.316256517777406, -1.385, 0.72, -0.736], a = 0.2, v = 0.2, t = 0.2)
movej(p[0.40212975790278, 0.228573323493117, 0.316383801928933, -1.385, 0.72, -0.736], a = 0.2, v = 0.2, t = 0.2)
movej(p[0.402108418000004, 0.228544818820858, 0.316994965517679, -1.385, 0.72, -0.736], a = 0.2, v = 0.2, t = 0.2)
movej(p[0.402077568908275, 0.228503612295295, 0.317878467275341, -1.385, 0.72, -0.736], a = 0.2, v = 0.2, t = 0.2)
movej(p[0.402042641462047, 0.228456958127369, 0.318878770960286, -1.385, 0.72, -0.736], a = 0.2, v = 0.2, t = 0.2)
movej(p[0.402013758694911, 0.228418378110401, 0.319705958216083, -1.385, 0.72, -0.736], a = 0.2, v = 0.2, t = 0.2)
movej(p[0.401993240040272, 0.228390970416381, 0.320293601690241, -1.385, 0.72, -0.736], a = 0.2, v = 0.2, t = 0.2)
movej(p[0.401988459651075, 0.228384585034556, 0.320430509521931, -1.385, 0.72, -0.736], a = 0.2, v = 0.2, t = 0.2)
movej(p[0.401985387639263, 0.228380481609586, 0.320518490324081, -1.385, 0.72, -0.736], a = 0.2, v = 0.2, t = 0.2)
movej(p[0.401986922076571, 0.228382531226824, 0.320474544846824, -1.385, 0.72, -0.736], a = 0.2, v = 0.2, t = 0.2)
movej(p[0.401995083665653, 0.228393433030096, 0.320240801229266, -1.385, 0.72, -0.736], a = 0.2, v = 0.2, t = 0.2)
movej(p[0.402010964499213, 0.228414645776967, 0.319785982510879, -1.385, 0.72, -0.736], a = 0.2, v = 0.2, t = 0.2)
movej(p[0.402034875159632, 0.228446584326357, 0.319101193775661, -1.385, 0.72, -0.736], a = 0.2, v = 0.2, t = 0.2)
movej(p[0.402064302055946, 0.22848589116125, 0.318258422946488, -1.385, 0.72, -0.736], a = 0.2, v = 0.2, t = 0.2)
movej(p[0.402092317214163, 0.228523312273787, 0.317456083553684, -1.385, 0.72, -0.736], a = 0.2, v = 0.2, t = 0.2)
movej(p[0.402112576527285, 0.228550373553626, 0.316875867484132, -1.385, 0.72, -0.736], a = 0.2, v = 0.2, t = 0.2)
movej(p[0.402123284822176, 0.228564677106906, 0.316569187551982, -1.385, 0.72, -0.736], a = 0.2, v = 0.2, t = 0.2)
movej(p[0.402120931925349, 0.228561534236312, 0.316636573279261, -1.385, 0.72, -0.736], a = 0.2, v = 0.2, t = 0.2)
movej(p[0.402104186271489, 0.228539166309894, 0.317116159996075, -1.385, 0.72, -0.736], a = 0.2, v = 0.2, t = 0.2)
movej(p[0.402070998226026, 0.228494835538155, 0.318066648158187, -1.385, 0.72, -0.736], a = 0.2, v = 0.2, t = 0.2)
movej(p[0.402037269885736, 0.228449783070206, 0.319032610079897, -1.385, 0.72, -0.736], a = 0.2, v = 0.2, t = 0.2)
movej(p[0.402012069140701, 0.22841612129651, 0.319754346159805, -1.385, 0.72, -0.736], a = 0.2, v = 0.2, t = 0.2)
movej(p[0.401997585927856, 0.228396775414771, 0.320169137756188, -1.385, 0.72, -0.736], a = 0.2, v = 0.2, t = 0.2)
movej(p[0.401991128010365, 0.228388149282614, 0.320354089115661, -1.385, 0.72, -0.736], a = 0.2, v = 0.2, t = 0.2)
movej(p[0.401990368808989, 0.228387135183036, 0.320375832243663, -1.385, 0.72, -0.736], a = 0.2, v = 0.2, t = 0.2)
movej(p[0.401994640623895, 0.228392841239203, 0.320253489712136, -1.385, 0.72, -0.736], a = 0.2, v = 0.2, t = 0.2)
movej(p[0.402005136635206, 0.228406861235714, 0.319952889470046, -1.385, 0.72, -0.736], a = 0.2, v = 0.2, t = 0.2)
movej(p[0.402029570161587, 0.228439498200792, 0.319253126128767, -1.385, 0.72, -0.736], a = 0.2, v = 0.2, t = 0.2)
movej(p[0.402064490287692, 0.228486142590898, 0.318253032088306, -1.385, 0.72, -0.736], a = 0.2, v = 0.2, t = 0.2)
movej(p[0.402096444369486, 0.228528825101614, 0.3173378839965, -1.385, 0.72, -0.736], a = 0.2, v = 0.2, t = 0.2)
movej(p[0.402122385492722, 0.228563475831923, 0.316594943874408, -1.385, 0.72, -0.736], a = 0.2, v = 0.2, t = 0.2)
movej(p[0.402142393830183, 0.228590201872232, 0.316021915615767, -1.385, 0.72, -0.736], a = 0.2, v = 0.2, t = 0.2)
movej(p[0.402153147440124, 0.228604565954872, 0.315713937884424, -1.385, 0.72, -0.736], a = 0.2, v = 0.2, t = 0.2)
movej(p[0.402139992132533, 0.228586993816174, 0.316090698972945, -1.385, 0.72, -0.736], a = 0.2, v = 0.2, t = 0.2)
movej(p[0.402105096058262, 0.22854038155319, 0.317090104181527, -1.385, 0.72, -0.736], a = 0.2, v = 0.2, t = 0.2)
movej(p[0.402059735693215, 0.228479791664246, 0.318389201172764, -1.385, 0.72, -0.736], a = 0.2, v = 0.2, t = 0.2)
movej(p[0.402022731771965, 0.22843036385482, 0.319448974009917, -1.385, 0.72, -0.736], a = 0.2, v = 0.2, t = 0.2)
movej(p[0.401997164288744, 0.22839621221236, 0.320181213278517, -1.385, 0.72, -0.736], a = 0.2, v = 0.2, t = 0.2)
movej(p[0.401986852012532, 0.228382437639122, 0.320476551444036, -1.385, 0.72, -0.736], a = 0.2, v = 0.2, t = 0.2)
movej(p[0.401986389101868, 0.228381819308433, 0.320489808961937, -1.385, 0.72, -0.736], a = 0.2, v = 0.2, t = 0.2)
movej(p[0.401986890704613, 0.228382489321883, 0.320475443323188, -1.385, 0.72, -0.736], a = 0.2, v = 0.2, t = 0.2)
movej(p[0.40199715376171, 0.228396198150924, 0.320181514767252, -1.385, 0.72, -0.736], a = 0.2, v = 0.2, t = 0.2)
movej(p[0.402016786437405, 0.228422422402842, 0.319619245263913, -1.385, 0.72, -0.736], a = 0.2, v = 0.2, t = 0.2)
movej(p[0.402045823972866, 0.228461209150853, 0.318787625524721, -1.385, 0.72, -0.736], a = 0.2, v = 0.2, t = 0.2)
movej(p[0.402076648664183, 0.228502383083685, 0.31790482258201, -1.385, 0.72, -0.736], a = 0.2, v = 0.2, t = 0.2)
movej(p[0.402105862928339, 0.228541405896198, 0.317068141425969, -1.385, 0.72, -0.736], a = 0.2, v = 0.2, t = 0.2)
movej(p[0.402134498554164, 0.228579655795351, 0.316248032167304, -1.385, 0.72, -0.736], a = 0.2, v = 0.2, t = 0.2)
movej(p[0.402143700995086, 0.228591947911451, 0.315984479100612, -1.385, 0.72, -0.736], a = 0.2, v = 0.2, t = 0.2)
movej(p[0.402138134215483, 0.228584512112431, 0.316143908739819, -1.385, 0.72, -0.736], a = 0.2, v = 0.2, t = 0.2)
movej(p[0.402114455358973, 0.228552883193996, 0.316822058733016, -1.385, 0.72, -0.736], a = 0.2, v = 0.2, t = 0.2)
movej(p[0.402079015504102, 0.228505544578697, 0.317837037531902, -1.385, 0.72, -0.736], a = 0.2, v = 0.2, t = 0.2)
movej(p[0.402039905130182, 0.228453303085271, 0.318957138065344, -1.385, 0.72, -0.736], a = 0.2, v = 0.2, t = 0.2)
movej(p[0.402011869405903, 0.228415854501717, 0.319760066459321, -1.385, 0.72, -0.736], a = 0.2, v = 0.2, t = 0.2)
movej(p[0.401998088855195, 0.22839744719754, 0.320154734181771, -1.385, 0.72, -0.736], a = 0.2, v = 0.2, t = 0.2)
movej(p[0.401991069797955, 0.228388071525668, 0.320355756288469, -1.385, 0.72, -0.736], a = 0.2, v = 0.2, t = 0.2)
movej(p[0.401990965921917, 0.228387932773751, 0.32035873124354, -1.385, 0.72, -0.736], a = 0.2, v = 0.2, t = 0.2)
movej(p[0.402001316018767, 0.228401757865724, 0.320062309914849, -1.385, 0.72, -0.736], a = 0.2, v = 0.2, t = 0.2)
movej(p[0.402022809504705, 0.228430467685952, 0.319446747785149, -1.385, 0.72, -0.736], a = 0.2, v = 0.2, t = 0.2)
movej(p[0.402052711860466, 0.22847040961351, 0.318590360047531, -1.385, 0.72, -0.736], a = 0.2, v = 0.2, t = 0.2)
movej(p[0.402087841481532, 0.228517333835502, 0.317584266181575, -1.385, 0.72, -0.736], a = 0.2, v = 0.2, t = 0.2)
movej(p[0.402123284822176, 0.228564677106906, 0.316569187551982, -1.385, 0.72, -0.736], a = 0.2, v = 0.2, t = 0.2)
movej(p[0.402145708800378, 0.228594629827691, 0.315926976613334, -1.385, 0.72, -0.736], a = 0.2, v = 0.2, t = 0.2)
movej(p[0.402155618853235, 0.228607867133022, 0.315643157913104, -1.385, 0.72, -0.736], a = 0.2, v = 0.2, t = 0.2)
movej(p[0.402148079126071, 0.228597795978808, 0.315859091732519, -1.385, 0.72, -0.736], a = 0.2, v = 0.2, t = 0.2)
movej(p[0.402122333206126, 0.228563405990355, 0.316596441335014, -1.385, 0.72, -0.736], a = 0.2, v = 0.2, t = 0.2)
movej(p[0.402083222832206, 0.228511164496929, 0.317716541868456, -1.385, 0.72, -0.736], a = 0.2, v = 0.2, t = 0.2)
movej(p[0.402042571746586, 0.228456865005277, 0.318880767574427, -1.385, 0.72, -0.736], a = 0.2, v = 0.2, t = 0.2)
movej(p[0.402017821363432, 0.228423804800293, 0.319589605526981, -1.385, 0.72, -0.736], a = 0.2, v = 0.2, t = 0.2)
movej(p[0.40199934638269, 0.22839912693383, 0.320118719255885, -1.385, 0.72, -0.736], a = 0.2, v = 0.2, t = 0.2)
movej(p[0.401992847542224, 0.228390446139005, 0.320304842627858, -1.385, 0.72, -0.736], a = 0.2, v = 0.2, t = 0.2)
movej(p[0.40199151841695, 0.228388670766328, 0.320342908076468, -1.385, 0.72, -0.736], a = 0.2, v = 0.2, t = 0.2)
movej(p[0.402002433243896, 0.228403250193804, 0.320030313174923, -1.385, 0.72, -0.736], a = 0.2, v = 0.2, t = 0.2)
movej(p[0.402023955626892, 0.228431998613139, 0.319413923448661, -1.385, 0.72, -0.736], a = 0.2, v = 0.2, t = 0.2)
movej(p[0.402058341383984, 0.228477929222413, 0.318429133455596, -1.385, 0.72, -0.736], a = 0.2, v = 0.2, t = 0.2)
movej(p[0.402097441300586, 0.228530156747525, 0.317309332414275, -1.385, 0.72, -0.736], a = 0.2, v = 0.2, t = 0.2)
movej(p[0.402125832922295, 0.228568080719356, 0.316496211305106, -1.385, 0.72, -0.736], a = 0.2, v = 0.2, t = 0.2)
movej(p[0.402147758434948, 0.228597367617186, 0.31586827615757, -1.385, 0.72, -0.736], a = 0.2, v = 0.2, t = 0.2)
movej(p[0.402158013579339, 0.228611065876871, 0.31557457421734, -1.385, 0.72, -0.736], a = 0.2, v = 0.2, t = 0.2)
movej(p[0.402157037562878, 0.228609762167587, 0.315602526815322, -1.385, 0.72, -0.736], a = 0.2, v = 0.2, t = 0.2)
movej(p[0.40212933961001, 0.228572764760567, 0.316395781613783, -1.385, 0.72, -0.736], a = 0.2, v = 0.2, t = 0.2)
movej(p[0.40209122616719, 0.228521854913052, 0.317487330565, -1.385, 0.72, -0.736], a = 0.2, v = 0.2, t = 0.2)
movej(p[0.402053454330131, 0.228471401363787, 0.318569096106923, -1.385, 0.72, -0.736], a = 0.2, v = 0.2, t = 0.2)
movej(p[0.402022582929455, 0.228430165039154, 0.319453236781109, -1.385, 0.72, -0.736], a = 0.2, v = 0.2, t = 0.2)
movej(p[0.402002697256349, 0.228403602847166, 0.320022751997168, -1.385, 0.72, -0.736], a = 0.2, v = 0.2, t = 0.2)
movej(p[0.401993834016005, 0.228391763816602, 0.320276590537754, -1.385, 0.72, -0.736], a = 0.2, v = 0.2, t = 0.2)
movej(p[0.401995446186053, 0.228393917264972, 0.32023041883573, -1.385, 0.72, -0.736], a = 0.2, v = 0.2, t = 0.2)
movej(p[0.402000038782711, 0.22840005180382, 0.320098889283553, -1.385, 0.72, -0.736], a = 0.2, v = 0.2, t = 0.2)
movej(p[0.40201408252323, 0.228418810662517, 0.319696683943395, -1.385, 0.72, -0.736], a = 0.2, v = 0.2, t = 0.2)
movej(p[0.402040393138413, 0.228453954939913, 0.318943161766353, -1.385, 0.72, -0.736], a = 0.2, v = 0.2, t = 0.2)
movej(p[0.402068289780345, 0.228491217744894, 0.318144216617589, -1.385, 0.72, -0.736], a = 0.2, v = 0.2, t = 0.2)
movej(p[0.402095419552201, 0.228527456206866, 0.317367234224382, -1.385, 0.72, -0.736], a = 0.2, v = 0.2, t = 0.2)
movej(p[0.402116041385723, 0.228555001721582, 0.316776635761295, -1.385, 0.72, -0.736], a = 0.2, v = 0.2, t = 0.2)
movej(p[0.402134634499314, 0.22857983738343, 0.316244138769728, -1.385, 0.72, -0.736], a = 0.2, v = 0.2, t = 0.2)
movej(p[0.402134338208602, 0.22857944161454, 0.31625262437983, -1.385, 0.72, -0.736], a = 0.2, v = 0.2, t = 0.2)
movej(p[0.402115330288015, 0.228554051876247, 0.316797001225539, -1.385, 0.72, -0.736], a = 0.2, v = 0.2, t = 0.2)
movej(p[0.402082968370771, 0.228510824601294, 0.317723829510073, -1.385, 0.72, -0.736], a = 0.2, v = 0.2, t = 0.2)
movej(p[0.4020504286791, 0.228467359865008, 0.318655749160668, -1.385, 0.72, -0.736], a = 0.2, v = 0.2, t = 0.2)
movej(p[0.402018963651269, 0.228425330605765, 0.319556891004271, -1.385, 0.72, -0.736], a = 0.2, v = 0.2, t = 0.2)
movej(p[0.402000061356578, 0.228400081956753, 0.320098242779894, -1.385, 0.72, -0.736], a = 0.2, v = 0.2, t = 0.2)
movej(p[0.401991985161965, 0.228389294218731, 0.32032954074479, -1.385, 0.72, -0.736], a = 0.2, v = 0.2, t = 0.2)
movej(p[0.401989949819065, 0.228386575519265, 0.320387831894654, -1.385, 0.72, -0.736], a = 0.2, v = 0.2, t = 0.2)
movej(p[0.401988999597325, 0.228385306265156, 0.320415045745404, -1.385, 0.72, -0.736], a = 0.2, v = 0.2, t = 0.2)
movej(p[0.40199225635511, 0.228389656463668, 0.320321773915779, -1.385, 0.72, -0.736], a = 0.2, v = 0.2, t = 0.2)
movej(p[0.402004664661531, 0.228406230799154, 0.319966406547785, -1.385, 0.72, -0.736], a = 0.2, v = 0.2, t = 0.2)
movej(p[0.402024517882089, 0.228432749642808, 0.319397820755609, -1.385, 0.72, -0.736], a = 0.2, v = 0.2, t = 0.2)
movej(p[0.402050589024662, 0.228467574045819, 0.318651156948143, -1.385, 0.72, -0.736], a = 0.2, v = 0.2, t = 0.2)
movej(p[0.40208261630769, 0.228510354334731, 0.317733912411488, -1.385, 0.72, -0.736], a = 0.2, v = 0.2, t = 0.2)
movej(p[0.402106347450797, 0.228542053094735, 0.317054264957685, -1.385, 0.72, -0.736], a = 0.2, v = 0.2, t = 0.2)
movej(p[0.402123706600718, 0.228565240495561, 0.316557108036425, -1.385, 0.72, -0.736], a = 0.2, v = 0.2, t = 0.2)
movej(p[0.402130068136583, 0.228573737886425, 0.316374916996003, -1.385, 0.72, -0.736], a = 0.2, v = 0.2, t = 0.2)
movej(p[0.402130768776972, 0.228574673763447, 0.31635485102388, -1.385, 0.72, -0.736], a = 0.2, v = 0.2, t = 0.2)
movej(p[0.402108578345566, 0.228545033001669, 0.316990373305154, -1.385, 0.72, -0.736], a = 0.2, v = 0.2, t = 0.2)
movej(p[0.402072988602453, 0.228497494173872, 0.318009644824444, -1.385, 0.72, -0.736], a = 0.2, v = 0.2, t = 0.2)
movej(p[0.402036781877505, 0.228449131215564, 0.319046586378888, -1.385, 0.72, -0.736], a = 0.2, v = 0.2, t = 0.2)
movej(p[0.40201398666447, 0.228418682619641, 0.31969942928784, -1.385, 0.72, -0.736], a = 0.2, v = 0.2, t = 0.2)
movej(p[0.401999505508231, 0.228399339485004, 0.320114161984106, -1.385, 0.72, -0.736], a = 0.2, v = 0.2, t = 0.2)
movej(p[0.401991856536938, 0.228389122408472, 0.320333224497881, -1.385, 0.72, -0.736], a = 0.2, v = 0.2, t = 0.2)
movej(p[0.401993169627656, 0.228390876363069, 0.320295618270524, -1.385, 0.72, -0.736], a = 0.2, v = 0.2, t = 0.2)
movej(p[0.401997211276965, 0.22839627497665, 0.320179867560586, -1.385, 0.72, -0.736], a = 0.2, v = 0.2, t = 0.2)
movej(p[0.402014700550796, 0.22841963618986, 0.31967898395903, -1.385, 0.72, -0.736], a = 0.2, v = 0.2, t = 0.2)
movej(p[0.402041459784974, 0.228455379707915, 0.318912613569986, -1.385, 0.72, -0.736], a = 0.2, v = 0.2, t = 0.2)
movej(p[0.40207578419246, 0.228501228369748, 0.317929580597366, -1.385, 0.72, -0.736], a = 0.2, v = 0.2, t = 0.2)
movej(p[0.402104632450443, 0.22853976229128, 0.317103381665569, -1.385, 0.72, -0.736], a = 0.2, v = 0.2, t = 0.2)
movej(p[0.402131037181499, 0.2285750322835, 0.316347164059435, -1.385, 0.72, -0.736], a = 0.2, v = 0.2, t = 0.2)
movej(p[0.402151066433597, 0.228601786260436, 0.315773536816551, -1.385, 0.72, -0.736], a = 0.2, v = 0.2, t = 0.2)
movej(p[0.402153297328366, 0.228604766167369, 0.31570964516402, -1.385, 0.72, -0.736], a = 0.2, v = 0.2, t = 0.2)
movej(p[0.402135401369391, 0.228580861726438, 0.31622217601417, -1.385, 0.72, -0.736], a = 0.2, v = 0.2, t = 0.2)
