def moving():
set_payload_mass(0)
set_tcp(p[0,0,0,0,0,0])
movej(p[-0.4217, 0.1261, 0.3237, -0.04, 0.031, 1.294], a = 0.2, v = 0.2, t = 0.2)
movej(p[-0.421638219956035, 0.126136765950876, 0.323748285515673, -0.0386788009969368, 0.0308378130334658, 1.29486972696284], a = 0.2, v = 0.2, t = 0.2)
movej(p[-0.4217, 0.1261, 0.3237, -0.04, 0.031, 1.294], a = 0.2, v = 0.2, t = 0.2)
movej(p[-0.421638219956035, 0.126136765950876, 0.323748285515673, -0.0386788009969368, 0.0308378130334658, 1.29486972696284], a = 0.2, v = 0.2, t = 0.2)
movej(p[-0.4217, 0.1261, 0.3237, -0.04, 0.031, 1.294], a = 0.2, v = 0.2, t = 0.2)
movej(p[-0.4217, 0.1261, 0.3237, -0.04, 0.031, 1.294], a = 0.2, v = 0.2, t = 0.2)
movej(p[-0.421790718564654, 0.126293321028115, 0.324553329718348, -0.0667331984654796, 0.0328156910983909, 1.31144838511473], a = 0.2, v = 0.2, t = 0.2)
movej(p[-0.422192768186604, 0.126648538777314, 0.326015605185811, -0.0796057885215053, 0.0305401142885424, 1.31880241779274], a = 0.2, v = 0.2, t = 0.2)
movej(p[-0.422575866093613, 0.126985433245972, 0.327312289277921, -0.0764297787319686, 0.0279899406860197, 1.32367728963878], a = 0.2, v = 0.2, t = 0.2)
movej(p[-0.422935924429012, 0.127190724837443, 0.328324946563276, -0.0438542664197196, 0.0358751599611381, 1.319027199926], a = 0.2, v = 0.2, t = 0.2)
movej(p[-0.423170529317606, 0.127349606649709, 0.329317696847878, -0.0329340488266134, 0.0464293804276845, 1.28865947936693], a = 0.2, v = 0.2, t = 0.2)
movej(p[-0.423183792170487, 0.127450093843338, 0.330346211749642, -0.0394386636151491, 0.0517335047358549, 1.27963862591207], a = 0.2, v = 0.2, t = 0.2)
movej(p[-0.423504844744677, 0.12749502919275, 0.33082621182785, -0.0458960324151508, 0.0513822265938914, 1.27888713268128], a = 0.2, v = 0.2, t = 0.2)
movej(p[-0.424006916251446, 0.127482182719081, 0.330054247670518, -0.0192864063886489, 0.0654457087964138, 1.30482312907549], a = 0.2, v = 0.2, t = 0.2)
movej(p[-0.424329458156493, 0.127176383805233, 0.327730562036923, -0.000666008487144982, 0.0463910728909458, 1.32677498266904], a = 0.2, v = 0.2, t = 0.2)
movej(p[-0.424413423704971, 0.12692268907374, 0.324716516734556, 0.0138555106624383, 0.0276772164676027, 1.34073674094304], a = 0.2, v = 0.2, t = 0.2)
movej(p[-0.424126658554014, 0.126369162516153, 0.321660041591838, 0.00731196893723464, -0.0108047693150899, 1.32247717527418], a = 0.2, v = 0.2, t = 0.2)
movej(p[-0.423522097317212, 0.125989494173041, 0.318806215755755, 0.00179602658281835, -0.0273215267435983, 1.32797007844287], a = 0.2, v = 0.2, t = 0.2)
movej(p[-0.422848532156281, 0.125506915898115, 0.316719752875508, 0.00398784071161959, -0.0278713997907984, 1.31440103060529], a = 0.2, v = 0.2, t = 0.2)
movej(p[-0.422087686748118, 0.125361742473946, 0.315981236919152, -0.0203304410313281, -0.0316624410457622, 1.347654006194], a = 0.2, v = 0.2, t = 0.2)
movej(p[-0.421817152532159, 0.125434900128598, 0.317158341951876, -0.0543170517196903, -0.0308419291667566, 1.35966756694632], a = 0.2, v = 0.2, t = 0.2)
movej(p[-0.421594685300074, 0.125689725077134, 0.319378171886094, -0.0943893337764619, -0.0408475862506949, 1.38019196338023], a = 0.2, v = 0.2, t = 0.2)
movej(p[-0.421938633891415, 0.126213882927641, 0.321846810682833, -0.0869486583723371, -0.00758703334530415, 1.37063869580629], a = 0.2, v = 0.2, t = 0.2)
movej(p[-0.422079599257428, 0.126465070163643, 0.323917404887658, -0.0790369377456272, 0.0103842351348463, 1.3610300899559], a = 0.2, v = 0.2, t = 0.2)
movej(p[-0.422339669281532, 0.12678672980723, 0.325624242097925, -0.0730208935821466, 0.0243991201597822, 1.34763276056801], a = 0.2, v = 0.2, t = 0.2)
movej(p[-0.422381708087637, 0.126807387725268, 0.327044971489189, -0.0563048187397749, 0.0292029321417579, 1.32935188657001], a = 0.2, v = 0.2, t = 0.2)
movej(p[-0.422759828675148, 0.127064630966521, 0.328227779901879, -0.0414206343246254, 0.0454504678519739, 1.31453275036174], a = 0.2, v = 0.2, t = 0.2)
movej(p[-0.423089333224299, 0.127235249336774, 0.329276994313437, -0.0454874080304849, 0.0643651496968836, 1.32210454987822], a = 0.2, v = 0.2, t = 0.2)
movej(p[-0.423495431089609, 0.127515028395783, 0.329940980197949, -0.0588893646710667, 0.0534262115726568, 1.33729034133536], a = 0.2, v = 0.2, t = 0.2)
movej(p[-0.42393861373842, 0.127550536322169, 0.329902818875175, -0.0347078673830025, 0.06350757235321, 1.33917306880218], a = 0.2, v = 0.2, t = 0.2)
movej(p[-0.424546034027522, 0.127511217262005, 0.328540206417138, 0.0143857157247189, 0.0726101513421581, 1.3401025617937], a = 0.2, v = 0.2, t = 0.2)
movej(p[-0.424890483540932, 0.127349082775976, 0.326294349375817, 0.0387270490783343, 0.0722489333529865, 1.30357090152161], a = 0.2, v = 0.2, t = 0.2)
movej(p[-0.424921027603518, 0.127025904913928, 0.323634122115554, 0.0238999048315693, 0.0419064965922113, 1.31256767569055], a = 0.2, v = 0.2, t = 0.2)
movej(p[-0.424268205113147, 0.126542759782371, 0.32108480250558, 0.0185536564840824, 0.0165311379595933, 1.30567577422504], a = 0.2, v = 0.2, t = 0.2)
movej(p[-0.423551595642169, 0.126042366341613, 0.319082147618024, 0.00959776335084166, 0.00725516837151242, 1.33745520166942], a = 0.2, v = 0.2, t = 0.2)
movej(p[-0.422721266840974, 0.125747989702937, 0.31805800586211, -0.0282045535965655, -0.00587782578071338, 1.34964452533692], a = 0.2, v = 0.2, t = 0.2)
movej(p[-0.42239346511665, 0.12571039355899, 0.31855804511206, -0.0606025813926518, -0.0138638827713385, 1.33605191042143], a = 0.2, v = 0.2, t = 0.2)
movej(p[-0.422225395778462, 0.12583200934227, 0.320005525749035, -0.078556225598979, -0.0194473948342805, 1.33719920718459], a = 0.2, v = 0.2, t = 0.2)
movej(p[-0.422727195515174, 0.126170031559488, 0.322187308424304, -0.070110217033282, -0.00725474738972657, 1.31633003980599], a = 0.2, v = 0.2, t = 0.2)
movej(p[-0.422965494477539, 0.126542565230323, 0.324132190122688, -0.0634265449121997, 0.0150588617444904, 1.32647817318753], a = 0.2, v = 0.2, t = 0.2)
movej(p[-0.423294934148593, 0.126855887553745, 0.325738358207025, -0.0723136344787897, 0.0296333097990406, 1.33661534405099], a = 0.2, v = 0.2, t = 0.2)
movej(p[-0.423161076911738, 0.127015649000458, 0.327005260127138, -0.0634719755596496, 0.0518425081714171, 1.3594408177152], a = 0.2, v = 0.2, t = 0.2)
movej(p[-0.423343507556708, 0.127195126874803, 0.328105629416239, -0.0546133052697925, 0.0632329870216442, 1.37115063687154], a = 0.2, v = 0.2, t = 0.2)
movej(p[-0.423641492322844, 0.127427612929778, 0.329077824502522, -0.0737169819026922, 0.0609714751263666, 1.34018004736824], a = 0.2, v = 0.2, t = 0.2)
movej(p[-0.423679222497394, 0.127587613433669, 0.329949574562334, -0.0814476606430647, 0.0746279965823764, 1.3405351114905], a = 0.2, v = 0.2, t = 0.2)
movej(p[-0.423896727081294, 0.127837846030876, 0.330630863825186, -0.0927773291369212, 0.0722723209727774, 1.33547159220409], a = 0.2, v = 0.2, t = 0.2)
movej(p[-0.423848444285007, 0.127756256935012, 0.330565808859053, -0.0666581002171765, 0.0813517355164691, 1.33129677903721], a = 0.2, v = 0.2, t = 0.2)
movej(p[-0.424403210513379, 0.127602659786333, 0.329298858057255, -0.0297720291143968, 0.0684995696508696, 1.31825752710845], a = 0.2, v = 0.2, t = 0.2)
movej(p[-0.424587247515433, 0.127219450150735, 0.326905663790348, -0.00227679502510096, 0.0460706398243075, 1.31308511243607], a = 0.2, v = 0.2, t = 0.2)
movej(p[-0.424613225337696, 0.126905151222147, 0.324093495624888, -0.00541487535044452, 0.0137496534460254, 1.34367273894845], a = 0.2, v = 0.2, t = 0.2)
movej(p[-0.424123425106463, 0.126612207008024, 0.321276559627892, 0.00160907431284773, -0.00392837728634777, 1.37736433537696], a = 0.2, v = 0.2, t = 0.2)
movej(p[-0.423381522567557, 0.126080477171859, 0.318950807963655, 9.2947443835341E-05, -0.0175935315064674, 1.38312587284162], a = 0.2, v = 0.2, t = 0.2)
movej(p[-0.422957350693232, 0.125800066420369, 0.317892202946862, -0.020955153201063, -0.0241982307550395, 1.36086394110253], a = 0.2, v = 0.2, t = 0.2)
movej(p[-0.422556920625011, 0.125755148696331, 0.318427484702792, -0.057618360591494, -0.034220473480401, 1.34095352673889], a = 0.2, v = 0.2, t = 0.2)
movej(p[-0.422616699999167, 0.126131985348009, 0.320259996239757, -0.0857341630888774, -0.0347407238401285, 1.32855878542505], a = 0.2, v = 0.2, t = 0.2)
movej(p[-0.422611316183191, 0.126454329482231, 0.322517210385412, -0.0740379193549294, -0.0135336924194029, 1.32176905822048], a = 0.2, v = 0.2, t = 0.2)
movej(p[-0.422848738640632, 0.126696066099673, 0.324663729725877, -0.0761702899140173, -5.13529239719409E-05, 1.31266577330336], a = 0.2, v = 0.2, t = 0.2)
movej(p[-0.423009617181022, 0.126994663946082, 0.326255829312543, -0.0667075419542239, 0.026020181683832, 1.30775504036401], a = 0.2, v = 0.2, t = 0.2)
movej(p[-0.423119016667985, 0.127169034860189, 0.327433383116395, -0.0656642407961457, 0.0345865640233843, 1.32725202388419], a = 0.2, v = 0.2, t = 0.2)
movej(p[-0.423169728456473, 0.127401454464882, 0.328340867444613, -0.06812289361277, 0.0398149239283098, 1.32648004834644], a = 0.2, v = 0.2, t = 0.2)
movej(p[-0.423398900429119, 0.12757492133899, 0.329077943138583, -0.0740043779036435, 0.0450741156378027, 1.33017686218447], a = 0.2, v = 0.2, t = 0.2)
movej(p[-0.423625988480417, 0.127676117450623, 0.329667559675281, -0.0675968556178625, 0.0547569607686849, 1.34208908122942], a = 0.2, v = 0.2, t = 0.2)
movej(p[-0.424067736701188, 0.127801661660118, 0.329952313230671, -0.0508208455793458, 0.0562046149788148, 1.33626620272275], a = 0.2, v = 0.2, t = 0.2)
movej(p[-0.424420257881124, 0.127782559247475, 0.329239223452924, -0.0282041356465191, 0.0596936467077264, 1.33640517590687], a = 0.2, v = 0.2, t = 0.2)
movej(p[-0.424780933691096, 0.12768077144994, 0.327632341837255, -0.00544989153060831, 0.045368937452737, 1.31214778734853], a = 0.2, v = 0.2, t = 0.2)
movej(p[-0.424796861518645, 0.127418580568444, 0.325294709537583, 0.00235516928726688, 0.0412866884622837, 1.34550899723175], a = 0.2, v = 0.2, t = 0.2)
movej(p[-0.424614564379446, 0.126855669493311, 0.322923558215247, 0.0125942640025887, 0.0364853922911631, 1.35013292225913], a = 0.2, v = 0.2, t = 0.2)
movej(p[-0.424009691027027, 0.126312160801733, 0.320817924941318, -0.0175811164491426, 0.0174914366765603, 1.36564890001197], a = 0.2, v = 0.2, t = 0.2)
movej(p[-0.423484281842313, 0.125972899286409, 0.319422961474829, -0.0269786816992078, -0.00137803774773409, 1.34325062404278], a = 0.2, v = 0.2, t = 0.2)
movej(p[-0.422701421949817, 0.125796618578611, 0.319117880530193, -0.0540852454509731, -0.0252789404365023, 1.3339309325801], a = 0.2, v = 0.2, t = 0.2)
movej(p[-0.422539850462083, 0.125967097587272, 0.320037375391276, -0.0615771583788005, -0.0217940269430545, 1.31695134833572], a = 0.2, v = 0.2, t = 0.2)
movej(p[-0.422649622731801, 0.126223759428144, 0.321799000338837, -0.0856351926998521, -0.0138138787772747, 1.31902324130924], a = 0.2, v = 0.2, t = 0.2)
movej(p[-0.423000736677937, 0.126634300234796, 0.323646851825042, -0.0896377599317662, -0.00312203561018621, 1.32970939080369], a = 0.2, v = 0.2, t = 0.2)
movej(p[-0.423332421354542, 0.126986944393886, 0.325259871692124, -0.0711441538514477, 0.0268297121245224, 1.33824394138845], a = 0.2, v = 0.2, t = 0.2)
movej(p[-0.423307779001355, 0.127230738572197, 0.326549901811598, -0.0768124477094537, 0.0321721153274374, 1.32676955080144], a = 0.2, v = 0.2, t = 0.2)
movej(p[-0.423645385539404, 0.127446773285318, 0.327597578830432, -0.0741154966961126, 0.0480760771363559, 1.33984705950747], a = 0.2, v = 0.2, t = 0.2)
movej(p[-0.423819327509808, 0.127544115531045, 0.328530027448335, -0.100337421068315, 0.0353379605250257, 1.32771708631483], a = 0.2, v = 0.2, t = 0.2)
movej(p[-0.424329632207504, 0.127740950943365, 0.329179866331109, -0.0829183413067373, 0.0364734982388471, 1.33229589868019], a = 0.2, v = 0.2, t = 0.2)
movej(p[-0.424479229255168, 0.127857554571171, 0.329522237510114, -0.0367111397151273, 0.0491011827658989, 1.31158254454946], a = 0.2, v = 0.2, t = 0.2)
movej(p[-0.424760244388976, 0.12800958242475, 0.328759186297739, 0.0241382666811272, 0.0616829473596735, 1.29412090925868], a = 0.2, v = 0.2, t = 0.2)
movej(p[-0.425031482401244, 0.127763758897934, 0.327158448128373, 0.022259656249446, 0.0522809749611934, 1.29664211047672], a = 0.2, v = 0.2, t = 0.2)
movej(p[-0.425149387055438, 0.127448983624549, 0.324906948242211, 0.014699542130778, 0.01634310521554, 1.29858326251821], a = 0.2, v = 0.2, t = 0.2)
movej(p[-0.425050234158932, 0.126936909331264, 0.322450594191942, -0.0168876612117511, -0.0213605697697889, 1.33607506451899], a = 0.2, v = 0.2, t = 0.2)
movej(p[-0.424432595214849, 0.126568349154711, 0.320112310253176, -0.00152915522513727, -0.0271031979955203, 1.34581839961245], a = 0.2, v = 0.2, t = 0.2)
movej(p[-0.423582154604185, 0.126016496394319, 0.317802562386096, -0.0112423643218796, -0.0330531301265615, 1.34670469283049], a = 0.2, v = 0.2, t = 0.2)
movej(p[-0.422670014552508, 0.125614779898349, 0.316482102976083, -0.0286448777598868, -0.0357382455070496, 1.34664586772004], a = 0.2, v = 0.2, t = 0.2)
movej(p[-0.421905180298799, 0.12540825984253, 0.316605233325293, -0.0489690251814798, -0.0421457860923974, 1.36345251302278], a = 0.2, v = 0.2, t = 0.2)
movej(p[-0.421936896687131, 0.125720463332214, 0.31828630642907, -0.0770212536052828, -0.0295461237904787, 1.36605129377427], a = 0.2, v = 0.2, t = 0.2)
movej(p[-0.42225805275884, 0.126090976137828, 0.320767787240629, -0.0921346611994174, -0.0221764290209059, 1.33347284044761], a = 0.2, v = 0.2, t = 0.2)
movej(p[-0.422494195704783, 0.12642778609922, 0.323188730280319, -0.0982240095543238, -0.0123015381860049, 1.3135868643666], a = 0.2, v = 0.2, t = 0.2)
movej(p[-0.422780556991981, 0.126730119511817, 0.325207500011943, -0.0901321810983584, 0.0124893556708086, 1.29828194648388], a = 0.2, v = 0.2, t = 0.2)
movej(p[-0.42281498736024, 0.126970748442816, 0.326787034933434, -0.0717999561701062, 0.0390146302112417, 1.31281166104296], a = 0.2, v = 0.2, t = 0.2)
movej(p[-0.423201305619691, 0.127199589774283, 0.327871577351012, -0.0662138399678494, 0.0550118514346623, 1.32013887961442], a = 0.2, v = 0.2, t = 0.2)
movej(p[-0.4234001121981, 0.127324397926411, 0.328894246117741, -0.0671109681933533, 0.0546660267476269, 1.33255089912184], a = 0.2, v = 0.2, t = 0.2)
movej(p[-0.423618733636776, 0.127588086237838, 0.329700941252825, -0.0607002685874076, 0.0663964663545396, 1.34321847824865], a = 0.2, v = 0.2, t = 0.2)
movej(p[-0.423737500483391, 0.127675536385245, 0.330034358696076, -0.0302604048856074, 0.081039912204014, 1.35135008933718], a = 0.2, v = 0.2, t = 0.2)
movej(p[-0.424204085197471, 0.127764646937839, 0.32945478302707, 0.018753965322883, 0.0921088588755905, 1.32601803020376], a = 0.2, v = 0.2, t = 0.2)
movej(p[-0.424424988848193, 0.127539155282595, 0.327661043301632, 0.0332721934905135, 0.0772660881327209, 1.34649029122647], a = 0.2, v = 0.2, t = 0.2)
movej(p[-0.424835203509869, 0.127249324547049, 0.325215319859851, 0.0437025553814301, 0.0593611587299276, 1.31737206983219], a = 0.2, v = 0.2, t = 0.2)
movej(p[-0.424431957147697, 0.126689709281826, 0.322563514471681, 0.0297706290055969, 0.0346346597699882, 1.34374064703607], a = 0.2, v = 0.2, t = 0.2)
movej(p[-0.424106078792647, 0.126232566430028, 0.320177820006927, 0.0390982108252798, 0.0168542247168349, 1.32749297490149], a = 0.2, v = 0.2, t = 0.2)
movej(p[-0.423200070186275, 0.125779021066736, 0.318254236429274, 0.0112789926828064, -0.0212847687948063, 1.3337351236665], a = 0.2, v = 0.2, t = 0.2)
movej(p[-0.4226299071923, 0.125513063282505, 0.3170979579216, -0.0139839813612606, -0.0364006040310054, 1.32742391813215], a = 0.2, v = 0.2, t = 0.2)
movej(p[-0.422059118880322, 0.125443013410511, 0.317534116112103, -0.0663423103281445, -0.0428415110587881, 1.31959769178232], a = 0.2, v = 0.2, t = 0.2)
movej(p[-0.422101044947395, 0.125660344160683, 0.319235989260528, -0.0908800679016469, -0.0252395568545414, 1.34185464983336], a = 0.2, v = 0.2, t = 0.2)
movej(p[-0.422219878727555, 0.126166727921207, 0.321603924532721, -0.0895370690632035, -0.00844303714572794, 1.36743010661924], a = 0.2, v = 0.2, t = 0.2)
movej(p[-0.422450370001186, 0.126566475280348, 0.323875342114576, -0.088261914295779, 0.0114758353735112, 1.37795319195476], a = 0.2, v = 0.2, t = 0.2)
movej(p[-0.422772171274741, 0.126889270436499, 0.325689830885223, -0.084718195659944, 0.0370478110609838, 1.34774507389447], a = 0.2, v = 0.2, t = 0.2)
movej(p[-0.423041880985204, 0.127001908671469, 0.327077119081744, -0.0815691713027666, 0.0513270592243832, 1.31065750567155], a = 0.2, v = 0.2, t = 0.2)
movej(p[-0.423391135768496, 0.127314424020876, 0.328158893836641, -0.0716188680535131, 0.0571042012847247, 1.32043060363233], a = 0.2, v = 0.2, t = 0.2)
movej(p[-0.423401116263243, 0.127644023997312, 0.329124940035204, -0.06869776559063, 0.0634659681546545, 1.3482562271088], a = 0.2, v = 0.2, t = 0.2)
movej(p[-0.423701146955369, 0.127955237286409, 0.330043566588799, -0.0576437346895331, 0.0760862980577582, 1.36046608662843], a = 0.2, v = 0.2, t = 0.2)
movej(p[-0.424013879595846, 0.128003372443471, 0.3306428436402, -0.0318066134094608, 0.0911840096738811, 1.36435084832611], a = 0.2, v = 0.2, t = 0.2)
movej(p[-0.424541695950431, 0.127883783511578, 0.330151336377994, -0.00198439492543246, 0.084127853043316, 1.3361172755752], a = 0.2, v = 0.2, t = 0.2)
movej(p[-0.424941221376686, 0.127641866975282, 0.328459586606413, 0.00961054899976102, 0.0657391204354483, 1.32731564749835], a = 0.2, v = 0.2, t = 0.2)
movej(p[-0.425074807102879, 0.127214776224376, 0.32582256039639, 0.00852788628831993, 0.0357661448762374, 1.29983478011552], a = 0.2, v = 0.2, t = 0.2)
movej(p[-0.4246220673311, 0.126619075703078, 0.322882076383277, 0.0123991850069912, 0.0182196351181906, 1.30066984182009], a = 0.2, v = 0.2, t = 0.2)
movej(p[-0.423799787790585, 0.126005094136167, 0.320023893176318, -0.0103264571270902, -0.0104238248433447, 1.31098558222632], a = 0.2, v = 0.2, t = 0.2)
movej(p[-0.422831272321453, 0.125500172476679, 0.317607847666433, -0.0321054703416389, -0.0264548266691361, 1.32996141170679], a = 0.2, v = 0.2, t = 0.2)
movej(p[-0.42225518428445, 0.125311841785754, 0.316434688665582, -0.0538420165733183, -0.0410996501886249, 1.34064984710032], a = 0.2, v = 0.2, t = 0.2)
movej(p[-0.421798811251927, 0.125324628164077, 0.316715936581017, -0.0723959143314169, -0.0401178675583421, 1.33639502368283], a = 0.2, v = 0.2, t = 0.2)
movej(p[-0.421780232474586, 0.125558348954349, 0.318487680219499, -0.0973522563415372, -0.0437547776764352, 1.32586184524263], a = 0.2, v = 0.2, t = 0.2)
movej(p[-0.42183527714094, 0.125876687894222, 0.321006608647327, -0.122031278169113, -0.0315280891944025, 1.32442614230445], a = 0.2, v = 0.2, t = 0.2)
movej(p[-0.42224389943403, 0.126331846116874, 0.323495358673119, -0.111587215475352, -0.00484027266426163, 1.32870860124028], a = 0.2, v = 0.2, t = 0.2)
movej(p[-0.42224064328661, 0.126778906481447, 0.325465277277906, -0.0859959094129741, 0.0112068292867827, 1.30560900122658], a = 0.2, v = 0.2, t = 0.2)
movej(p[-0.422547095857854, 0.127064921491558, 0.327052638175771, -0.0594819375604416, 0.0438127946460322, 1.30909813912002], a = 0.2, v = 0.2, t = 0.2)
movej(p[-0.422486112516256, 0.127115111663062, 0.328213227563984, -0.0646013868322071, 0.051161174604437, 1.306434558056], a = 0.2, v = 0.2, t = 0.2)
movej(p[-0.42300620612097, 0.127301696531563, 0.329175802675953, -0.0524884303333505, 0.0799674332027983, 1.34306423796891], a = 0.2, v = 0.2, t = 0.2)
movej(p[-0.423303707882675, 0.127503907793593, 0.33000005984783, -0.0558852595493574, 0.0785093170116746, 1.35889872889193], a = 0.2, v = 0.2, t = 0.2)
movej(p[-0.423592459738233, 0.127715030388333, 0.330768530037428, -0.0610621353586191, 0.0779235929089335, 1.35752221674993], a = 0.2, v = 0.2, t = 0.2)
movej(p[-0.423763724987934, 0.127783477941446, 0.331542162352626, -0.0443525179746254, 0.0882240341632624, 1.34917155974503], a = 0.2, v = 0.2, t = 0.2)
movej(p[-0.423665736895879, 0.127820638472439, 0.331499106979536, -0.0154454147824081, 0.091707151186767, 1.3402870489026], a = 0.2, v = 0.2, t = 0.2)
movej(p[-0.42396393728027, 0.127726937038911, 0.330534021607869, 0.0116526458206717, 0.086426494174939, 1.33444027406443], a = 0.2, v = 0.2, t = 0.2)
movej(p[-0.424513240426111, 0.127637785477794, 0.328424293997793, 0.0075769418834764, 0.0409168623829761, 1.31946765292256], a = 0.2, v = 0.2, t = 0.2)
movej(p[-0.424940168778027, 0.127347363864615, 0.326061199821542, 0.00750017419923594, 0.0227693592568775, 1.29029008979994], a = 0.2, v = 0.2, t = 0.2)
movej(p[-0.42511512505747, 0.127067394663637, 0.323734765115246, -0.00447747104729568, 0.0137185956401972, 1.30026360847843], a = 0.2, v = 0.2, t = 0.2)
movej(p[-0.424326525248433, 0.126560082765252, 0.321842361456213, -0.00673135885373295, 0.0300591800257998, 1.32914063485337], a = 0.2, v = 0.2, t = 0.2)
movej(p[-0.423813803725648, 0.126301968723862, 0.320962052952499, -0.0425125629158383, 0.0157570912492331, 1.35712956249374], a = 0.2, v = 0.2, t = 0.2)
movej(p[-0.423377569094241, 0.126295926605029, 0.321537827056781, -0.0598726856415051, 0.00846727425955569, 1.35474042274912], a = 0.2, v = 0.2, t = 0.2)
movej(p[-0.423356949324662, 0.126567617009253, 0.323362028423282, -0.0709540690848929, 0.0215942731943508, 1.31939894818047], a = 0.2, v = 0.2, t = 0.2)
movej(p[-0.423460314278672, 0.126810854934443, 0.325601523358489, -0.0807041239131979, 0.0328485701367962, 1.30607834922238], a = 0.2, v = 0.2, t = 0.2)
movej(p[-0.423370434739411, 0.127019628481792, 0.327499742293267, -0.0744899957305629, 0.0487262103594847, 1.3230169954644], a = 0.2, v = 0.2, t = 0.2)
movej(p[-0.423521980087783, 0.127209126338348, 0.329113392024729, -0.096372821587869, 0.0431057381761616, 1.33865437826594], a = 0.2, v = 0.2, t = 0.2)
movej(p[-0.423619270850916, 0.127512313033328, 0.330484583355433, -0.0922583887106212, 0.0441612554852967, 1.31340471853833], a = 0.2, v = 0.2, t = 0.2)
movej(p[-0.423997938573962, 0.127829455937816, 0.331660361377874, -0.0925271062488993, 0.0486159789125038, 1.30420316468186], a = 0.2, v = 0.2, t = 0.2)
movej(p[-0.424111865720151, 0.128000526271886, 0.332598807617284, -0.0914537524894113, 0.0476418111697509, 1.31339630538801], a = 0.2, v = 0.2, t = 0.2)
movej(p[-0.424417888193209, 0.12827452548258, 0.333226267837953, -0.0821254621783862, 0.0725866468687156, 1.34537515740531], a = 0.2, v = 0.2, t = 0.2)
movej(p[-0.424565864583185, 0.12832222591814, 0.333669997923656, -0.0861632009262782, 0.0873632271697485, 1.36206444152735], a = 0.2, v = 0.2, t = 0.2)
movej(p[-0.424699052499479, 0.128260866455901, 0.333783091761892, -0.0595098263343446, 0.106100597416283, 1.3497054355877], a = 0.2, v = 0.2, t = 0.2)
movej(p[-0.424955617366867, 0.128288479464631, 0.333129311237961, -0.0250035097876082, 0.105618627090173, 1.31095191054535], a = 0.2, v = 0.2, t = 0.2)
movej(p[-0.425250139770176, 0.128144723864815, 0.331482925555938, 0.0100958162093599, 0.104579035684683, 1.28368836975405], a = 0.2, v = 0.2, t = 0.2)
movej(p[-0.425653079902655, 0.128082883888305, 0.329060279059781, 0.0217619799351974, 0.0925181241810153, 1.28636251695285], a = 0.2, v = 0.2, t = 0.2)
movej(p[-0.425492245571495, 0.127508634039331, 0.326360649398702, 0.00167190250132618, 0.0582704569418205, 1.30642628218999], a = 0.2, v = 0.2, t = 0.2)
movej(p[-0.425163493229191, 0.12714199626956, 0.323927825677338, 0.00131209247918385, 0.0224607474828742, 1.31064443629291], a = 0.2, v = 0.2, t = 0.2)
movej(p[-0.424280158217241, 0.126644768462166, 0.322166504056401, -0.0146823422403519, 0.000792863293243614, 1.34628540549171], a = 0.2, v = 0.2, t = 0.2)
movej(p[-0.423856940712658, 0.126540402218383, 0.321727691887731, -0.0244533623760481, 0.00592009317162117, 1.37171011078829], a = 0.2, v = 0.2, t = 0.2)
movej(p[-0.423676699872156, 0.126486473362333, 0.322653258447358, -0.0940861029736275, -0.00361193756560411, 1.3863957090615], a = 0.2, v = 0.2, t = 0.2)
movej(p[-0.423978307281831, 0.126807951152825, 0.324628856741104, -0.112351975811474, 0.00963756534153913, 1.34449411875502], a = 0.2, v = 0.2, t = 0.2)
movej(p[-0.423927528390053, 0.127051584063622, 0.326999900740669, -0.139146758488239, 0.0203804670445282, 1.31692915591355], a = 0.2, v = 0.2, t = 0.2)
movej(p[-0.42384311730266, 0.127444861382098, 0.329067215614412, -0.102253948145727, 0.0507211872089775, 1.31356919424293], a = 0.2, v = 0.2, t = 0.2)
movej(p[-0.423897899459724, 0.127676132276664, 0.33059204244284, -0.094769457196344, 0.0619873820030986, 1.31330822003132], a = 0.2, v = 0.2, t = 0.2)
movej(p[-0.424057628606732, 0.127749919411705, 0.331727718820686, -0.101723240779502, 0.0648453404436632, 1.312740784135], a = 0.2, v = 0.2, t = 0.2)
movej(p[-0.424293390271332, 0.127773075257356, 0.332443958853299, -0.110564337698872, 0.0695331177543368, 1.30523796165044], a = 0.2, v = 0.2, t = 0.2)
movej(p[-0.424329583850999, 0.127869257977947, 0.332959719975768, -0.0777789322638572, 0.083532973490108, 1.30025737887727], a = 0.2, v = 0.2, t = 0.2)
movej(p[-0.424813094818644, 0.128185129263904, 0.33308905525508, -0.00685551601024897, 0.100099134089983, 1.28435973686724], a = 0.2, v = 0.2, t = 0.2)
movej(p[-0.425139198532798, 0.12831330363519, 0.332323551349302, 0.0626081575553207, 0.120733346110228, 1.27308447702799], a = 0.2, v = 0.2, t = 0.2)
movej(p[-0.425477568910278, 0.128164815673402, 0.330635867973503, 0.0704564341981971, 0.118691124517431, 1.25999115497973], a = 0.2, v = 0.2, t = 0.2)
movej(p[-0.425716514884703, 0.127858874196387, 0.327974465768566, 0.0492645948040671, 0.102532107056746, 1.29485592953856], a = 0.2, v = 0.2, t = 0.2)
movej(p[-0.425426203457991, 0.127324679008311, 0.325028500365087, 0.0228487576186606, 0.0652467002927756, 1.31532493366557], a = 0.2, v = 0.2, t = 0.2)
movej(p[-0.424927671261721, 0.126936235415363, 0.322150922565421, 0.0111249312045299, 0.0225340983792415, 1.34858795240118], a = 0.2, v = 0.2, t = 0.2)
movej(p[-0.424012543886516, 0.126316622878186, 0.319677949486334, 0.00362539311797412, -0.0134313150614556, 1.33479143802875], a = 0.2, v = 0.2, t = 0.2)
movej(p[-0.423240166001491, 0.125883766022651, 0.318460552405903, -0.0220148645212709, -0.0384917247161359, 1.34252772954885], a = 0.2, v = 0.2, t = 0.2)
movej(p[-0.422702271084137, 0.12578768445511, 0.318957924303343, -0.0502645695323261, -0.0392838080418479, 1.33263574728195], a = 0.2, v = 0.2, t = 0.2)
movej(p[-0.422681282538748, 0.126077242902735, 0.32100694322138, -0.0791242850915272, -0.0243973505353376, 1.33274225524618], a = 0.2, v = 0.2, t = 0.2)
movej(p[-0.422985043147844, 0.126602746263386, 0.323565375316786, -0.0931590453106996, -0.0133340833112278, 1.30395769807975], a = 0.2, v = 0.2, t = 0.2)
movej(p[-0.423556093718792, 0.126938589056189, 0.325989589869016, -0.108941556553726, 0.00839018195203275, 1.30466419261089], a = 0.2, v = 0.2, t = 0.2)
movej(p[-0.42359732403416, 0.127198087164635, 0.327990407601646, -0.110297933772242, 0.0213184205296032, 1.30481264995499], a = 0.2, v = 0.2, t = 0.2)
movej(p[-0.423777102388681, 0.127406214057932, 0.329599290315809, -0.109514385851182, 0.0404407765975698, 1.31106499232558], a = 0.2, v = 0.2, t = 0.2)
movej(p[-0.423623825464255, 0.127638892366929, 0.330728591822299, -0.0875375584149174, 0.0555671091742677, 1.30767904599026], a = 0.2, v = 0.2, t = 0.2)
movej(p[-0.423929499125463, 0.12783793797833, 0.331633892934817, -0.0615201894036392, 0.0762499662929858, 1.29229644017635], a = 0.2, v = 0.2, t = 0.2)
movej(p[-0.423906567867432, 0.127880881457291, 0.332295891622973, -0.0437990986538199, 0.0961918436412079, 1.30451781162263], a = 0.2, v = 0.2, t = 0.2)
movej(p[-0.423931638577008, 0.127803567054297, 0.332087317834804, -0.0317936608797113, 0.094827100049233, 1.31270183563981], a = 0.2, v = 0.2, t = 0.2)
movej(p[-0.42404220303343, 0.127811318231933, 0.330778161215976, -0.0172858941615174, 0.0737174517830668, 1.33900444273532], a = 0.2, v = 0.2, t = 0.2)
movej(p[-0.424710611649992, 0.127772952450411, 0.328305605415794, 0.0162792094671438, 0.0578013460137835, 1.33123894351901], a = 0.2, v = 0.2, t = 0.2)
movej(p[-0.425248103641515, 0.127636319988553, 0.325431559300382, 0.0301681140640673, 0.0449996890843407, 1.33224634818359], a = 0.2, v = 0.2, t = 0.2)
movej(p[-0.425177616483629, 0.127134987156129, 0.322399175377755, 0.00949251820735777, 0.0108668809350716, 1.33252264258682], a = 0.2, v = 0.2, t = 0.2)
movej(p[-0.424439222808103, 0.126441113860218, 0.319639184511599, -0.0112512375615156, -0.0193384462170562, 1.36688111957126], a = 0.2, v = 0.2, t = 0.2)
movej(p[-0.423178115629701, 0.125860837513954, 0.317896470488315, -0.0442279532023631, -0.0560064739950346, 1.3807888805631], a = 0.2, v = 0.2, t = 0.2)
movej(p[-0.422392470350362, 0.125672369445225, 0.317362107506324, -0.073792570327144, -0.0589908888270493, 1.3996987749813], a = 0.2, v = 0.2, t = 0.2)
movej(p[-0.422103645003997, 0.125774876915302, 0.318563545908397, -0.117809097712837, -0.0538181160680397, 1.36569875344616], a = 0.2, v = 0.2, t = 0.2)
movej(p[-0.422480636060676, 0.126054109826585, 0.320854849190841, -0.145291769164046, -0.0306769952578739, 1.35529286654638], a = 0.2, v = 0.2, t = 0.2)
movej(p[-0.422667340733232, 0.126317782990648, 0.323548843993787, -0.144055699845529, 0.00164817535585871, 1.32769063375246], a = 0.2, v = 0.2, t = 0.2)
movej(p[-0.4228375644977, 0.126819319396394, 0.325887184326742, -0.094998817575674, 0.0408256850189123, 1.32957256722983], a = 0.2, v = 0.2, t = 0.2)
movej(p[-0.422772631172498, 0.127059288933589, 0.327631676581266, -0.0805422460091539, 0.0635961995813815, 1.35145007814121], a = 0.2, v = 0.2, t = 0.2)
movej(p[-0.422784362726754, 0.127283213426472, 0.328968215668245, -0.0680431056699432, 0.0786348731429136, 1.36755699907366], a = 0.2, v = 0.2, t = 0.2)
movej(p[-0.423127851116893, 0.127383633991738, 0.329993619862118, -0.0865460304958354, 0.0752003358456802, 1.38359640210797], a = 0.2, v = 0.2, t = 0.2)
movej(p[-0.423521514151963, 0.127659425392046, 0.330824071519913, -0.0801104513289135, 0.0802821133733709, 1.37770558758237], a = 0.2, v = 0.2, t = 0.2)
movej(p[-0.424139728497981, 0.127873525998126, 0.331483569439056, -0.0608171369714419, 0.0887023164499801, 1.35389189774713], a = 0.2, v = 0.2, t = 0.2)
movej(p[-0.424426813326391, 0.127836088063562, 0.331253542996116, -0.0500392811028124, 0.0805536681525201, 1.35500264971644], a = 0.2, v = 0.2, t = 0.2)
movej(p[-0.42466516836409, 0.127626998223821, 0.329911442210586, -0.022769398888229, 0.0673271543573354, 1.35669537675747], a = 0.2, v = 0.2, t = 0.2)
movej(p[-0.42495052606361, 0.12752700529958, 0.327235344585138, 0.00620700135758177, 0.0483126406948184, 1.3616109496892], a = 0.2, v = 0.2, t = 0.2)
movej(p[-0.424793295886456, 0.127251199791081, 0.324256792249628, 0.0338510317474553, 0.0357739802890314, 1.3498331440961], a = 0.2, v = 0.2, t = 0.2)
movej(p[-0.424556891130113, 0.126793275938621, 0.321129011314295, 0.0465684213182002, 0.0128011661726583, 1.3434330996684], a = 0.2, v = 0.2, t = 0.2)
movej(p[-0.42364279352065, 0.126034026121688, 0.318372304211284, 0.0422500565205989, 0.00616355110403134, 1.35862872908566], a = 0.2, v = 0.2, t = 0.2)
movej(p[-0.422971060626708, 0.125432983914972, 0.316582454848197, 0.00523922507506625, -0.0130000208851044, 1.34602614504955], a = 0.2, v = 0.2, t = 0.2)
movej(p[-0.422475356931674, 0.125343046070722, 0.316687125042149, -0.0444808502624204, -0.0288961324861301, 1.33303988116265], a = 0.2, v = 0.2, t = 0.2)
movej(p[-0.422177439609192, 0.125553766716217, 0.318478714271584, -0.0904201728423265, -0.0312151531725603, 1.32278631873628], a = 0.2, v = 0.2, t = 0.2)
movej(p[-0.422036800524562, 0.125981978686834, 0.321065427681395, -0.104523688578138, -0.0157743357547122, 1.33636406466821], a = 0.2, v = 0.2, t = 0.2)
movej(p[-0.422159319141792, 0.126314457680627, 0.323648872167101, -0.106723614308838, 0.00128197732031838, 1.34117749550922], a = 0.2, v = 0.2, t = 0.2)
movej(p[-0.422513865859441, 0.126695558448539, 0.325828265474279, -0.095861606607552, 0.0205244817516489, 1.35006045122559], a = 0.2, v = 0.2, t = 0.2)
movej(p[-0.422707353207587, 0.12695783088663, 0.327552933009437, -0.0921706032714949, 0.0383560020545108, 1.35017342561282], a = 0.2, v = 0.2, t = 0.2)
movej(p[-0.422725363529641, 0.127091698211356, 0.328912044910558, -0.0849898438476236, 0.0586390805351936, 1.37423538655165], a = 0.2, v = 0.2, t = 0.2)
movej(p[-0.422694845809213, 0.127157480947019, 0.329941971760644, -0.0668711781408269, 0.0717445392819302, 1.36740889136654], a = 0.2, v = 0.2, t = 0.2)
movej(p[-0.423037647496552, 0.127383296765786, 0.330873161360432, -0.0669403639493859, 0.0710234282226672, 1.38057598736158], a = 0.2, v = 0.2, t = 0.2)
movej(p[-0.423491016091519, 0.12758986112304, 0.331302163648783, -0.0187246159225551, 0.090585950658172, 1.33436335529058], a = 0.2, v = 0.2, t = 0.2)
movej(p[-0.424116178066314, 0.12783203354554, 0.330698138514247, 0.0190093933512365, 0.0974955384528102, 1.3206959715464], a = 0.2, v = 0.2, t = 0.2)
movej(p[-0.424467791712483, 0.12761185256278, 0.328562743896487, 0.0622758362730349, 0.0975659648852328, 1.28906220654489], a = 0.2, v = 0.2, t = 0.2)
movej(p[-0.424557448481247, 0.12725127745957, 0.325380151514299, 0.0468462460962551, 0.0695231268575415, 1.31634953312995], a = 0.2, v = 0.2, t = 0.2)
movej(p[-0.424210435354159, 0.126685290375971, 0.322335241857943, 0.0199706695085461, 0.0194422224390398, 1.32771155776323], a = 0.2, v = 0.2, t = 0.2)
movej(p[-0.423696189563433, 0.126100599463031, 0.319730406672418, 0.0244345936225486, -0.00362248365596749, 1.33515358468257], a = 0.2, v = 0.2, t = 0.2)
movej(p[-0.423055037785779, 0.125693535939872, 0.317966962576841, -0.00435817839720207, -0.0298698762763788, 1.34245278035456], a = 0.2, v = 0.2, t = 0.2)
movej(p[-0.422507183101533, 0.12541388760004, 0.317475480834882, -0.0173871879753149, -0.0261590350760424, 1.34616946624325], a = 0.2, v = 0.2, t = 0.2)
movej(p[-0.422212444513305, 0.125620891648227, 0.318583687626254, -0.0833441343768299, -0.0310586974640172, 1.35063455019082], a = 0.2, v = 0.2, t = 0.2)
movej(p[-0.422095233429855, 0.125869554930985, 0.320904680795939, -0.100473702525476, -0.0249228813464923, 1.33296772962757], a = 0.2, v = 0.2, t = 0.2)
movej(p[-0.422355021588124, 0.126294072962968, 0.323357979949477, -0.0835003796199303, 0.00899315127855028, 1.30482819875937], a = 0.2, v = 0.2, t = 0.2)
movej(p[-0.422474233164495, 0.126601901233705, 0.325571571248204, -0.0484857068881306, 0.0377506916975411, 1.29480798911224], a = 0.2, v = 0.2, t = 0.2)
movej(p[-0.422494668296947, 0.126903541571147, 0.327251534450863, -0.0378651159045369, 0.0571209846783715, 1.28644291728019], a = 0.2, v = 0.2, t = 0.2)
movej(p[-0.422586389272224, 0.127104726350645, 0.328437724043463, -0.0408905913904225, 0.0693079491455767, 1.3083624575649], a = 0.2, v = 0.2, t = 0.2)
movej(p[-0.422876486949419, 0.127305200333786, 0.329408421570074, -0.0716125478968675, 0.0627064446184374, 1.30998906479768], a = 0.2, v = 0.2, t = 0.2)
movej(p[-0.423249017729791, 0.127600098905197, 0.330278004114952, -0.083269793972035, 0.056762226895514, 1.30876019865031], a = 0.2, v = 0.2, t = 0.2)
movej(p[-0.423471902844741, 0.127770053720706, 0.330827833632819, -0.0825593029574253, 0.047126225427639, 1.30514151009908], a = 0.2, v = 0.2, t = 0.2)
movej(p[-0.423835870884285, 0.127941723585472, 0.330621723287078, -0.0519617115643178, 0.0441852716054199, 1.30831308997975], a = 0.2, v = 0.2, t = 0.2)
movej(p[-0.42442381588156, 0.127942499078354, 0.329186028897456, -0.00541006065411517, 0.0613092970927184, 1.31053277380466], a = 0.2, v = 0.2, t = 0.2)
movej(p[-0.424649787208425, 0.127688117898195, 0.326677359085641, -0.00439391890224339, 0.0568122997070631, 1.33417218052063], a = 0.2, v = 0.2, t = 0.2)
movej(p[-0.424417764305608, 0.127161261455412, 0.323810619337448, 0.00644275231075836, 0.0497127978197528, 1.35217628273233], a = 0.2, v = 0.2, t = 0.2)
movej(p[-0.423886414218299, 0.126476801522864, 0.320883768302982, -0.0166089115314256, 0.0135441208526299, 1.37438870159253], a = 0.2, v = 0.2, t = 0.2)
movej(p[-0.423164032751379, 0.125893656327317, 0.318318985273414, -0.0250121835616404, -0.0183479519290029, 1.37341234615848], a = 0.2, v = 0.2, t = 0.2)
movej(p[-0.422463096934663, 0.12542718694354, 0.316356985824856, -0.0494861760553197, -0.0428390910730695, 1.35026369272361], a = 0.2, v = 0.2, t = 0.2)
movej(p[-0.421935647002796, 0.125237727209995, 0.316086511076027, -0.0823678826617598, -0.0527630315130506, 1.35783139466494], a = 0.2, v = 0.2, t = 0.2)
movej(p[-0.421859561433645, 0.125425670695924, 0.317495375789861, -0.109938298538137, -0.0473054798793082, 1.34924070856199], a = 0.2, v = 0.2, t = 0.2)
movej(p[-0.422236057537397, 0.125942987229197, 0.320084689787016, -0.117283689084503, -0.0265738217957414, 1.35301016285836], a = 0.2, v = 0.2, t = 0.2)
movej(p[-0.422363528645107, 0.126396576516445, 0.322900866176342, -0.0917583643666043, 0.00614171158254597, 1.34231156102934], a = 0.2, v = 0.2, t = 0.2)
movej(p[-0.422524170011514, 0.126806666120544, 0.325162094930296, -0.0622642654177001, 0.0304069181174569, 1.3259677012036], a = 0.2, v = 0.2, t = 0.2)
movej(p[-0.422548178426685, 0.126896980403219, 0.326910295178078, -0.0675272934472823, 0.0426975906581699, 1.33685667592774], a = 0.2, v = 0.2, t = 0.2)
movej(p[-0.422649118008648, 0.127086228707197, 0.328340323562389, -0.0770854983364366, 0.045856517654042, 1.34785800402679], a = 0.2, v = 0.2, t = 0.2)
movej(p[-0.422991618928388, 0.127273132335248, 0.329571780479499, -0.0930799740737543, 0.048431665440962, 1.34230909389577], a = 0.2, v = 0.2, t = 0.2)
movej(p[-0.423096156425544, 0.127605343261555, 0.330690227281198, -0.0852173477396438, 0.0527914246958284, 1.32962168963565], a = 0.2, v = 0.2, t = 0.2)
movej(p[-0.423332755473598, 0.127703620921511, 0.331276082637163, -0.0683236203593865, 0.0604855428027719, 1.30241232119509], a = 0.2, v = 0.2, t = 0.2)
movej(p[-0.423728631085729, 0.127703518666341, 0.330838228190042, -0.0463611226290798, 0.0747289321222162, 1.32453370634039], a = 0.2, v = 0.2, t = 0.2)
movej(p[-0.424452696551722, 0.127600312538326, 0.328873824767576, -0.0124247262214381, 0.0721119268885179, 1.33008136587614], a = 0.2, v = 0.2, t = 0.2)
movej(p[-0.425059763371156, 0.12749051337201, 0.325938886360604, 0.00729073392500597, 0.0529212372001238, 1.34646158252268], a = 0.2, v = 0.2, t = 0.2)
movej(p[-0.424701852317285, 0.127008767740656, 0.322576647764566, 0.0329441480186063, 0.0296407558283412, 1.36162968315723], a = 0.2, v = 0.2, t = 0.2)
movej(p[-0.423965438604089, 0.126327946197536, 0.319359034407815, 0.0284936109461257, -0.0030832876923169, 1.37588891849269], a = 0.2, v = 0.2, t = 0.2)
movej(p[-0.423088517331932, 0.125620121102596, 0.316560879097792, 0.00475941843797981, -0.03638920236568, 1.39568718068767], a = 0.2, v = 0.2, t = 0.2)
movej(p[-0.422725533902846, 0.125285981003279, 0.315341462614208, -0.046256939155614, -0.0715209131071613, 1.3783773217854], a = 0.2, v = 0.2, t = 0.2)
movej(p[-0.422342443220444, 0.125374370827041, 0.316139764223759, -0.082945623100766, -0.0699278230651336, 1.37286091917296], a = 0.2, v = 0.2, t = 0.2)
movej(p[-0.422132259413461, 0.125634590831497, 0.318401593630359, -0.0933885455422629, -0.0481169164909789, 1.34535006129064], a = 0.2, v = 0.2, t = 0.2)
movej(p[-0.421754039980952, 0.125900254784865, 0.321186050772358, -0.0905799927997538, -0.0141091203042322, 1.33979164192144], a = 0.2, v = 0.2, t = 0.2)
movej(p[-0.421807690353673, 0.126213060807278, 0.323620854665245, -0.0853539252999256, 0.00796396665364825, 1.33246658986705], a = 0.2, v = 0.2, t = 0.2)
movej(p[-0.422187516512403, 0.126631737941478, 0.325697740713538, -0.0962709402785353, 0.0237423720176499, 1.32866155752795], a = 0.2, v = 0.2, t = 0.2)
movej(p[-0.422575155682171, 0.127080675523055, 0.327295481709041, -0.0996816749491757, 0.0318110152908549, 1.35005442882111], a = 0.2, v = 0.2, t = 0.2)
movej(p[-0.422868830489614, 0.127273249906912, 0.328662994538873, -0.117146913157416, 0.0401754167532382, 1.3470365749099], a = 0.2, v = 0.2, t = 0.2)
movej(p[-0.422772153637664, 0.127298259390306, 0.330012359902159, -0.104896454132946, 0.0529314791584483, 1.36724619766005], a = 0.2, v = 0.2, t = 0.2)
movej(p[-0.422833575190569, 0.127313626869446, 0.331074451205119, -0.0770178588973869, 0.0841080249810686, 1.37088636796868], a = 0.2, v = 0.2, t = 0.2)
movej(p[-0.423204937328507, 0.127544981066689, 0.331354873024569, -0.0132197094404089, 0.116161136297636, 1.38194529146967], a = 0.2, v = 0.2, t = 0.2)
movej(p[-0.424036142751846, 0.127710182073569, 0.330200482029092, 0.0367406367022088, 0.125065113202087, 1.37543310323786], a = 0.2, v = 0.2, t = 0.2)
movej(p[-0.424759365765, 0.127672529389135, 0.327697590385113, 0.0465064380575428, 0.0831764120535875, 1.35185882086511], a = 0.2, v = 0.2, t = 0.2)
movej(p[-0.424911734642516, 0.127223045904609, 0.324724556871141, 0.021664526032911, 0.0353628142743059, 1.34248123350325], a = 0.2, v = 0.2, t = 0.2)
movej(p[-0.424385617347474, 0.126493077109259, 0.321385345298079, -0.0150946388060684, -0.0160028551594437, 1.33848785404364], a = 0.2, v = 0.2, t = 0.2)
movej(p[-0.423464795049859, 0.12584384672987, 0.318534244551298, -0.0209709494731453, -0.0312205097885492, 1.37687897280545], a = 0.2, v = 0.2, t = 0.2)
movej(p[-0.422713809047042, 0.125405184081181, 0.316903173664298, -0.0579129573140842, -0.0597822603652291, 1.36803011262466], a = 0.2, v = 0.2, t = 0.2)
movej(p[-0.422228593682102, 0.125413920608736, 0.31685212661039, -0.0797102238521127, -0.0557947685947142, 1.35812145129719], a = 0.2, v = 0.2, t = 0.2)
movej(p[-0.421894473768676, 0.125592213787254, 0.318463322798955, -0.103545996308029, -0.0445469697390142, 1.34646972460251], a = 0.2, v = 0.2, t = 0.2)
movej(p[-0.421954997867643, 0.126009505076392, 0.320776562471349, -0.0798273274831803, -0.0127850199533141, 1.33268495038196], a = 0.2, v = 0.2, t = 0.2)
movej(p[-0.422019317257737, 0.126416835621669, 0.323272867175749, -0.0583826064317952, 0.016972516814133, 1.34315939844938], a = 0.2, v = 0.2, t = 0.2)
movej(p[-0.422308154751607, 0.126778409855225, 0.325484861208983, -0.0499047636993943, 0.0302254498981474, 1.32455681859324], a = 0.2, v = 0.2, t = 0.2)
movej(p[-0.422310842584357, 0.126959174233442, 0.3271395826935, -0.0471637446678277, 0.0519150086671752, 1.36242452140423], a = 0.2, v = 0.2, t = 0.2)
movej(p[-0.422474416986752, 0.127227340517026, 0.328559816989569, -0.0588063655517186, 0.063121729097827, 1.35189689331112], a = 0.2, v = 0.2, t = 0.2)
movej(p[-0.422718227677811, 0.12736731831931, 0.329740972816838, -0.0742365545134823, 0.0676638322270906, 1.35733652178613], a = 0.2, v = 0.2, t = 0.2)
movej(p[-0.42331921887844, 0.127632719649227, 0.330767751341373, -0.0892456914813262, 0.0633122948476246, 1.3266525727862], a = 0.2, v = 0.2, t = 0.2)
movej(p[-0.423751344505039, 0.127786480284299, 0.331502269421163, -0.0625049510555042, 0.0708346944779644, 1.33812239182552], a = 0.2, v = 0.2, t = 0.2)
movej(p[-0.424136171263181, 0.12780586581148, 0.330998316776906, -0.00578478769121264, 0.0894072124504394, 1.32933202932475], a = 0.2, v = 0.2, t = 0.2)
movej(p[-0.42460008249654, 0.127677137038146, 0.329193744398729, 0.040313243123819, 0.0937764188640699, 1.31691580695483], a = 0.2, v = 0.2, t = 0.2)
movej(p[-0.424777847286331, 0.127346615972234, 0.326129517784704, 0.0463774651798851, 0.0671974582932844, 1.30318807274598], a = 0.2, v = 0.2, t = 0.2)
movej(p[-0.424776186504046, 0.127017701852458, 0.322783459229066, 0.0213521087765916, 0.033173350195868, 1.31009152338417], a = 0.2, v = 0.2, t = 0.2)
movej(p[-0.423962455921402, 0.126451283075863, 0.319608297193039, -0.00721332069405658, -0.00457273949683456, 1.34188293282398], a = 0.2, v = 0.2, t = 0.2)
movej(p[-0.422995069110645, 0.125802005065104, 0.317016359952516, -0.0268299956090199, -0.0444110073529258, 1.34597242115845], a = 0.2, v = 0.2, t = 0.2)
movej(p[-0.422297355178205, 0.125275489263008, 0.316188152098701, -0.0496671627401248, -0.0618246712662397, 1.34755914522689], a = 0.2, v = 0.2, t = 0.2)
movej(p[-0.422050279147614, 0.12530327995824, 0.317043250776963, -0.0777730071235966, -0.0619410292309796, 1.32949447603959], a = 0.2, v = 0.2, t = 0.2)
movej(p[-0.422314049005709, 0.125736702708997, 0.319607726109577, -0.101701739181624, -0.0341596462080266, 1.3178918992098], a = 0.2, v = 0.2, t = 0.2)
movej(p[-0.422416718041506, 0.126294178278306, 0.322387702180612, -0.0986307418855063, -0.00898688184632441, 1.30070055128065], a = 0.2, v = 0.2, t = 0.2)
movej(p[-0.422405358379345, 0.12657225951453, 0.324883564072547, -0.0932667233122518, 0.0148398566176633, 1.31840112511468], a = 0.2, v = 0.2, t = 0.2)
movej(p[-0.422425997224343, 0.126702288326297, 0.326559510465928, -0.0734087048765238, 0.026919637282794, 1.33068129550961], a = 0.2, v = 0.2, t = 0.2)
movej(p[-0.422828629675975, 0.126942277720201, 0.327920544129548, -0.0757670620614087, 0.0371361055470321, 1.34336987657975], a = 0.2, v = 0.2, t = 0.2)
movej(p[-0.423223124501978, 0.127256065426887, 0.329024109112587, -0.0671731278511209, 0.0470059382837724, 1.33394180687768], a = 0.2, v = 0.2, t = 0.2)
movej(p[-0.423560141505018, 0.127500919651005, 0.330071226994295, -0.077301167948315, 0.0679599342574496, 1.35438709117378], a = 0.2, v = 0.2, t = 0.2)
movej(p[-0.423709629251722, 0.127642974611368, 0.330806335098129, -0.0840002472015833, 0.0792353826133066, 1.38360633678449], a = 0.2, v = 0.2, t = 0.2)
movej(p[-0.424106902728238, 0.127669264085709, 0.330501885938341, -0.0510931464216244, 0.0995399437246184, 1.39571131834847], a = 0.2, v = 0.2, t = 0.2)
movej(p[-0.424579980291736, 0.127692905811474, 0.328906470485452, 0.0150587811814223, 0.108756814422263, 1.37497812827277], a = 0.2, v = 0.2, t = 0.2)
movej(p[-0.424873078445801, 0.127472763274995, 0.326269082612553, 0.0636569208838469, 0.105296485988465, 1.37524872538054], a = 0.2, v = 0.2, t = 0.2)
movej(p[-0.424570680472132, 0.126959274982357, 0.323479047694483, 0.0491559074982619, 0.0629163439707192, 1.39028131446069], a = 0.2, v = 0.2, t = 0.2)
movej(p[-0.423763260638346, 0.126308847052215, 0.321209975282726, -0.00726551920958836, 0.0159228272337105, 1.4046845443684], a = 0.2, v = 0.2, t = 0.2)
movej(p[-0.422797850021294, 0.125787413402129, 0.319874210188317, -0.0438030007433799, -0.0250575389160244, 1.38890664388311], a = 0.2, v = 0.2, t = 0.2)
movej(p[-0.422480106115873, 0.125803750392805, 0.319843623843267, -0.0620423879039667, -0.0219844980135077, 1.34291517637878], a = 0.2, v = 0.2, t = 0.2)
movej(p[-0.422275233845552, 0.125939894877834, 0.320996971796727, -0.0838200904672318, -0.0107729777122848, 1.31908371597488], a = 0.2, v = 0.2, t = 0.2)
movej(p[-0.422489896247905, 0.126285055390996, 0.322869229234036, -0.109236980166084, 0.0143729204563421, 1.31116910168129], a = 0.2, v = 0.2, t = 0.2)
movej(p[-0.422581004951752, 0.126557233896277, 0.324903495186356, -0.122816163579152, 0.01935561509578, 1.31841748188364], a = 0.2, v = 0.2, t = 0.2)
movej(p[-0.422791560360756, 0.126973874923192, 0.326617786061013, -0.112591311211695, 0.0285215509570558, 1.32152296526347], a = 0.2, v = 0.2, t = 0.2)
movej(p[-0.422951950644741, 0.127296753088043, 0.328059864396044, -0.09749570497767, 0.0399261822446469, 1.31634069092002], a = 0.2, v = 0.2, t = 0.2)
movej(p[-0.422915142334493, 0.127474677831937, 0.329198123101878, -0.104702222201642, 0.051950495068367, 1.35838533392503], a = 0.2, v = 0.2, t = 0.2)
movej(p[-0.423268892808737, 0.127590077803442, 0.330098288080173, -0.104261547268437, 0.0623030648690578, 1.3460415437078], a = 0.2, v = 0.2, t = 0.2)
movej(p[-0.42369521110662, 0.127711459776577, 0.330871972258625, -0.0963053303809059, 0.0601640592502864, 1.3555708929398], a = 0.2, v = 0.2, t = 0.2)
movej(p[-0.424473642970151, 0.127895281654669, 0.330635994010741, -0.0505322838102613, 0.0704636587553329, 1.32058027404931], a = 0.2, v = 0.2, t = 0.2)
movej(p[-0.424812938737799, 0.127776411516142, 0.329148738093885, -0.0289638555682173, 0.0588798370592019, 1.33719123352448], a = 0.2, v = 0.2, t = 0.2)
movej(p[-0.424966957980116, 0.127473617168417, 0.326126637981897, -0.00571494481543678, 0.0471241635854694, 1.35208368702248], a = 0.2, v = 0.2, t = 0.2)
movej(p[-0.424667560048748, 0.126917885052878, 0.322497322953177, 0.00835792968065425, 0.0201848077308525, 1.36537001994743], a = 0.2, v = 0.2, t = 0.2)
movej(p[-0.423957945966995, 0.126357406863255, 0.319150109542936, 0.0258352541936645, -0.00163677094794919, 1.35393056008833], a = 0.2, v = 0.2, t = 0.2)
movej(p[-0.423204078159276, 0.125807732317893, 0.316637188695343, -0.00252605179055956, -0.0386018254802773, 1.34434030868239], a = 0.2, v = 0.2, t = 0.2)
movej(p[-0.422309385207844, 0.125358704295883, 0.31578368786593, -0.0738832323461971, -0.0734029498167194, 1.32708529896734], a = 0.2, v = 0.2, t = 0.2)
movej(p[-0.4220452497551, 0.125188832842541, 0.316985377126489, -0.135924407222164, -0.083530613933539, 1.33132130915622], a = 0.2, v = 0.2, t = 0.2)
movej(p[-0.421959390266477, 0.125497970215232, 0.319344881130347, -0.145932646235245, -0.050387023789082, 1.32595512528712], a = 0.2, v = 0.2, t = 0.2)
movej(p[-0.42205211776727, 0.125972301206552, 0.321947773061751, -0.119329060872867, -0.0169585552727391, 1.34055424139231], a = 0.2, v = 0.2, t = 0.2)
movej(p[-0.422051064186532, 0.126484910694583, 0.323990514722571, -0.0916005121039023, 0.0133379190444982, 1.37498022000117], a = 0.2, v = 0.2, t = 0.2)
movej(p[-0.422286272636176, 0.126769714233842, 0.32573233344923, -0.0585837732656282, 0.0399954865504464, 1.37572454782053], a = 0.2, v = 0.2, t = 0.2)
movej(p[-0.422779273629763, 0.127096463178437, 0.327057490414434, -0.0576310069450833, 0.0449485078086025, 1.35370610821342], a = 0.2, v = 0.2, t = 0.2)
movej(p[-0.423153221828634, 0.127432174928359, 0.328202756726488, -0.0527728760399933, 0.055594768501496, 1.30616595080415], a = 0.2, v = 0.2, t = 0.2)
movej(p[-0.423224585209193, 0.127641695877772, 0.329282523508054, -0.0614753292302023, 0.0550454430563419, 1.3111131821681], a = 0.2, v = 0.2, t = 0.2)
movej(p[-0.423408152347416, 0.127721054621322, 0.33008948571317, -0.0532306408966563, 0.0661760144778074, 1.31696354980541], a = 0.2, v = 0.2, t = 0.2)
movej(p[-0.423709165123334, 0.127650308115305, 0.3304533970197, -0.037403577908683, 0.0766822906224898, 1.33325590242715], a = 0.2, v = 0.2, t = 0.2)
movej(p[-0.424320532288708, 0.127772314847874, 0.329837613947579, 0.00940051905753672, 0.0815116594883953, 1.32461589380246], a = 0.2, v = 0.2, t = 0.2)
movej(p[-0.424872127290295, 0.12779565659863, 0.328238353441909, 0.0591734336321267, 0.0874050152919678, 1.33369941129061], a = 0.2, v = 0.2, t = 0.2)
movej(p[-0.425157555612798, 0.127556657133021, 0.325834709586062, 0.0631099551475029, 0.0650956095137173, 1.33113711852358], a = 0.2, v = 0.2, t = 0.2)
movej(p[-0.424847488242859, 0.126953855931434, 0.323098489116237, 0.0461618414066919, 0.0343964153249834, 1.32198023442079], a = 0.2, v = 0.2, t = 0.2)
movej(p[-0.423923394825467, 0.126233024485698, 0.320525479867021, -0.00548671467244167, -0.00497446496610822, 1.32302974170916], a = 0.2, v = 0.2, t = 0.2)
movej(p[-0.423243864931216, 0.12583579746964, 0.318929536306949, -0.023147949560509, -0.0218871769431858, 1.32052328887126], a = 0.2, v = 0.2, t = 0.2)
movej(p[-0.42282821525059, 0.125721287656995, 0.318970940164304, -0.0610443938728649, -0.0352008886418066, 1.32390950115197], a = 0.2, v = 0.2, t = 0.2)
movej(p[-0.422867810061389, 0.125896567505144, 0.320440435475182, -0.0882825663179137, -0.0289844992890557, 1.33650260555935], a = 0.2, v = 0.2, t = 0.2)
movej(p[-0.422862642744788, 0.126244111322803, 0.322691255053479, -0.100352688817568, -0.0102212930172697, 1.34322033200753], a = 0.2, v = 0.2, t = 0.2)
movej(p[-0.422921694461372, 0.126712252131303, 0.32480167210624, -0.109650940815263, 0.0173709534688277, 1.35879951933008], a = 0.2, v = 0.2, t = 0.2)
movej(p[-0.42300892242812, 0.127123953157205, 0.326677604602011, -0.0874051096128822, 0.0462848873241444, 1.34140116286163], a = 0.2, v = 0.2, t = 0.2)
movej(p[-0.423324746760767, 0.127391089406565, 0.328064938298273, -0.0680637869010747, 0.0553517633127006, 1.32885682963691], a = 0.2, v = 0.2, t = 0.2)
movej(p[-0.423443375977376, 0.127575478285124, 0.329178454122153, -0.0530717668356835, 0.0652241935689117, 1.32403026933192], a = 0.2, v = 0.2, t = 0.2)
movej(p[-0.423656779125334, 0.127704536229728, 0.329998205496032, -0.0561684811828658, 0.060127296291906, 1.31540864734398], a = 0.2, v = 0.2, t = 0.2)
movej(p[-0.423807205571116, 0.12787041063482, 0.330814481798668, -0.0598953966466555, 0.0682562164271582, 1.30318637544191], a = 0.2, v = 0.2, t = 0.2)
movej(p[-0.424094717648833, 0.12796375443021, 0.331313702632697, -0.0488911397710533, 0.0694783036252481, 1.28702979999956], a = 0.2, v = 0.2, t = 0.2)
movej(p[-0.424464960604029, 0.128113772437394, 0.330890875448439, -0.0115164757391732, 0.0847108002833082, 1.30459507905402], a = 0.2, v = 0.2, t = 0.2)
movej(p[-0.42489576447434, 0.128033203185514, 0.329077004113041, 0.0206292965959228, 0.0886093153167561, 1.32196677517249], a = 0.2, v = 0.2, t = 0.2)
movej(p[-0.425216946935914, 0.127732469468838, 0.32653193297452, 0.0285862889060418, 0.0717334522979666, 1.33349016002496], a = 0.2, v = 0.2, t = 0.2)
movej(p[-0.425204675708859, 0.127266939798983, 0.324138555284295, 0.0109065911991287, 0.0360278654690047, 1.32305338515996], a = 0.2, v = 0.2, t = 0.2)
movej(p[-0.42477833123381, 0.126739864089834, 0.321994617514577, 4.57978243681852E-05, 0.0117045731063322, 1.31141406487341], a = 0.2, v = 0.2, t = 0.2)
movej(p[-0.424173185209022, 0.126355804206113, 0.320500108857225, -0.0142541839861067, -0.00308454160247162, 1.31616619682425], a = 0.2, v = 0.2, t = 0.2)
movej(p[-0.423542844358581, 0.126032524881461, 0.320015743859607, -0.0293116237453346, -0.000983279386539697, 1.32345727938258], a = 0.2, v = 0.2, t = 0.2)
movej(p[-0.423122205676809, 0.126040179178634, 0.321025063229049, -0.0704694161421198, -0.00974618124051772, 1.3396491877792], a = 0.2, v = 0.2, t = 0.2)
movej(p[-0.423098979056421, 0.126483215825888, 0.322997482772133, -0.0971166435983345, -0.00431014587695398, 1.35262125055965], a = 0.2, v = 0.2, t = 0.2)
movej(p[-0.42317640466805, 0.126866739671279, 0.325245731285524, -0.110294377009184, 0.0136347882524466, 1.35057809948901], a = 0.2, v = 0.2, t = 0.2)
movej(p[-0.423124031112564, 0.127194983587867, 0.327133029338697, -0.0952195423717224, 0.0423505262088703, 1.34993504302937], a = 0.2, v = 0.2, t = 0.2)
movej(p[-0.422934159347528, 0.127174421547958, 0.328597416660056, -0.0772354965359655, 0.0609562640738396, 1.35690147265031], a = 0.2, v = 0.2, t = 0.2)
movej(p[-0.42325237287246, 0.12754516606125, 0.329721376303866, -0.0708340989962624, 0.0588125254325257, 1.34090618499304], a = 0.2, v = 0.2, t = 0.2)
movej(p[-0.423608684320222, 0.127789177665584, 0.33068985758853, -0.0519873861163191, 0.0634665594125956, 1.32756553040931], a = 0.2, v = 0.2, t = 0.2)
movej(p[-0.424052796547633, 0.128090631915191, 0.331116880485876, -0.0368015398617792, 0.0759188045363777, 1.29723373434382], a = 0.2, v = 0.2, t = 0.2)
movej(p[-0.424407418068855, 0.127927227864422, 0.330725650087673, -0.027611710522527, 0.0730891090367091, 1.29090535634035], a = 0.2, v = 0.2, t = 0.2)
movej(p[-0.424723580720613, 0.127791252207132, 0.329082513796564, -0.0302017143454338, 0.0566885105495953, 1.29904006561806], a = 0.2, v = 0.2, t = 0.2)
movej(p[-0.425056360141064, 0.127559212130305, 0.326626110524202, -0.0152369149000485, 0.036516350965381, 1.31689203677976], a = 0.2, v = 0.2, t = 0.2)
movej(p[-0.424793482502768, 0.127283525803568, 0.323606852676954, -0.00673139457510224, 0.0275492886266335, 1.34751371213384], a = 0.2, v = 0.2, t = 0.2)
movej(p[-0.424398998311807, 0.126780191136046, 0.320433664592203, -0.01349038048821, 0.00642014673437782, 1.35231764234636], a = 0.2, v = 0.2, t = 0.2)
movej(p[-0.423526878510147, 0.126068960043023, 0.317610344589073, -0.0322664214627855, -0.0157974228614801, 1.35185013059536], a = 0.2, v = 0.2, t = 0.2)
movej(p[-0.422941963579332, 0.125579583712348, 0.315802262335196, -0.0499773532715115, -0.0420383328639387, 1.34503452472412], a = 0.2, v = 0.2, t = 0.2)
movej(p[-0.422096040676203, 0.12528691381253, 0.315683036788843, -0.0641583187477719, -0.0613456939759084, 1.35603533512994], a = 0.2, v = 0.2, t = 0.2)
movej(p[-0.421951528422881, 0.125558976236989, 0.317285212758685, -0.0797435118121618, -0.0593213490800505, 1.35606077898687], a = 0.2, v = 0.2, t = 0.2)
movej(p[-0.421929848314305, 0.12591838593325, 0.319795952491111, -0.0872483977745793, -0.0454812071827364, 1.34476435165427], a = 0.2, v = 0.2, t = 0.2)
movej(p[-0.422347182735167, 0.126429913404228, 0.322497887909631, -0.0964188843987091, -0.0150561783050983, 1.33733475875634], a = 0.2, v = 0.2, t = 0.2)
movej(p[-0.422659483498322, 0.126829518835595, 0.32469888089348, -0.0924784385877264, 0.00313131206767604, 1.32488947105909], a = 0.2, v = 0.2, t = 0.2)
movej(p[-0.422825386088761, 0.127115829376853, 0.32646004029812, -0.0789166398176893, 0.0324155109656388, 1.32066798858218], a = 0.2, v = 0.2, t = 0.2)
movej(p[-0.422946483871409, 0.127396150056394, 0.327787874724417, -0.0850633002085104, 0.0272101621842637, 1.33869940469355], a = 0.2, v = 0.2, t = 0.2)
movej(p[-0.422930495165129, 0.127510767062463, 0.32876064498799, -0.0876770928087893, 0.0383840286594911, 1.35244431821907], a = 0.2, v = 0.2, t = 0.2)
movej(p[-0.423113230300196, 0.12762082749415, 0.329727837894647, -0.0868399489818711, 0.0395657005760476, 1.34045765972305], a = 0.2, v = 0.2, t = 0.2)
movej(p[-0.423401826395149, 0.127719956363288, 0.330553549533951, -0.0872205261998059, 0.0556452647263433, 1.32920618365607], a = 0.2, v = 0.2, t = 0.2)
movej(p[-0.423761977464979, 0.127787369226501, 0.331126415962426, -0.0866956610002788, 0.0598942398942799, 1.32952701006801], a = 0.2, v = 0.2, t = 0.2)
movej(p[-0.424408382479005, 0.127815089440963, 0.330867192680193, -0.0761592401882279, 0.045168998369951, 1.33549349842096], a = 0.2, v = 0.2, t = 0.2)
movej(p[-0.424849741813628, 0.127766344415731, 0.329437754830423, -0.0253413900766963, 0.0544833513813704, 1.31703375141035], a = 0.2, v = 0.2, t = 0.2)
movej(p[-0.425329801873691, 0.127539146630459, 0.327249806243824, 0.0217828258239342, 0.0518696608625469, 1.29613838396523], a = 0.2, v = 0.2, t = 0.2)
movej(p[-0.425253467567158, 0.127212471305251, 0.324762393482883, 0.0306439921460166, 0.0419775217441486, 1.3030402620213], a = 0.2, v = 0.2, t = 0.2)
movej(p[-0.424688602441321, 0.126668713869419, 0.322398567984849, 0.0249544607172877, 0.0178640921252969, 1.31249520055542], a = 0.2, v = 0.2, t = 0.2)
movej(p[-0.423865900472919, 0.126269359434165, 0.320208782564625, 0.00732961568853076, -0.006599543032255, 1.33597667891342], a = 0.2, v = 0.2, t = 0.2)
movej(p[-0.423037740729357, 0.126099286507221, 0.319089578353247, -0.0127908738537064, -0.0166059797598563, 1.35691531127824], a = 0.2, v = 0.2, t = 0.2)
movej(p[-0.42267752507806, 0.126091057132985, 0.31933683411573, -0.0428505518268538, -0.0218953634137856, 1.363344220171], a = 0.2, v = 0.2, t = 0.2)
movej(p[-0.422873377821712, 0.126340024379223, 0.321017381013428, -0.0728080390631324, -0.0243945677867857, 1.34317233196762], a = 0.2, v = 0.2, t = 0.2)
movej(p[-0.423017902095507, 0.126611381960429, 0.323237793180376, -0.0784771584113488, -0.0140980740841752, 1.31879710856007], a = 0.2, v = 0.2, t = 0.2)
movej(p[-0.423317397205118, 0.127070404513622, 0.325317493873163, -0.0796163239370564, 0.00827961383849674, 1.3211681124967], a = 0.2, v = 0.2, t = 0.2)
movej(p[-0.423486081338272, 0.127347636251016, 0.326973065396204, -0.0770143615188445, 0.0308596571582717, 1.32228774388912], a = 0.2, v = 0.2, t = 0.2)
movej(p[-0.42348077382953, 0.127575808804225, 0.328217592251845, -0.0786628336411993, 0.0523363329414221, 1.34294020506179], a = 0.2, v = 0.2, t = 0.2)
movej(p[-0.423648799167836, 0.127680922477488, 0.329282218111657, -0.0787190787691224, 0.0594148853717511, 1.32779527125189], a = 0.2, v = 0.2, t = 0.2)
movej(p[-0.423767976284825, 0.127937825015813, 0.330193091710291, -0.0866347915660303, 0.061711504519938, 1.32390333440585], a = 0.2, v = 0.2, t = 0.2)
movej(p[-0.42419202488425, 0.12810720570553, 0.330902441057, -0.0878024668014511, 0.0558955765518801, 1.29481809119633], a = 0.2, v = 0.2, t = 0.2)
movej(p[-0.424297210708971, 0.128200812482051, 0.331350688164372, -0.0888643536239531, 0.0580711698413312, 1.3064680408535], a = 0.2, v = 0.2, t = 0.2)
movej(p[-0.424636361668101, 0.128070066339986, 0.331018275175221, -0.0537356431503751, 0.0684952498486972, 1.31128009291287], a = 0.2, v = 0.2, t = 0.2)
movej(p[-0.424957280520761, 0.127937555405894, 0.329864021608645, -0.0080951262542916, 0.0842680626673904, 1.30815079762257], a = 0.2, v = 0.2, t = 0.2)
movej(p[-0.425420650541091, 0.127850169044385, 0.327763471667682, 0.0188509822198812, 0.079515939435981, 1.32285844444683], a = 0.2, v = 0.2, t = 0.2)
movej(p[-0.425266271652095, 0.127532003359227, 0.32527941679272, 0.018746518604076, 0.0637503165466469, 1.33270758088496], a = 0.2, v = 0.2, t = 0.2)
movej(p[-0.424962434497754, 0.127070242739359, 0.322840483442944, -0.0133790511130135, 0.033814709690994, 1.34318542569429], a = 0.2, v = 0.2, t = 0.2)
movej(p[-0.424516529039927, 0.126473984590267, 0.32057582064614, -0.0278750275072348, 0.00771338941747403, 1.33290528753571], a = 0.2, v = 0.2, t = 0.2)
movej(p[-0.423947629763218, 0.126024120602931, 0.319383569838316, -0.0489369015426913, -0.0223580779645438, 1.33025205486105], a = 0.2, v = 0.2, t = 0.2)
movej(p[-0.423236010621209, 0.1259376260675, 0.319596774394945, -0.0722146806375045, -0.0393021856252256, 1.34268069844393], a = 0.2, v = 0.2, t = 0.2)
movej(p[-0.422660764223225, 0.126016206137035, 0.321316652087189, -0.0988771018491918, -0.0386607930648846, 1.32955661322305], a = 0.2, v = 0.2, t = 0.2)
movej(p[-0.422575394761604, 0.126424777247255, 0.32337497566837, -0.10563696237597, -0.0202205453140649, 1.33065215570355], a = 0.2, v = 0.2, t = 0.2)
movej(p[-0.422565988770788, 0.126766826834248, 0.325312663769171, -0.096383310056983, 0.00583279492020883, 1.33042834188262], a = 0.2, v = 0.2, t = 0.2)
movej(p[-0.422655960848443, 0.127109162403436, 0.326946698015113, -0.0888712008816169, 0.0224036035872708, 1.34605929995844], a = 0.2, v = 0.2, t = 0.2)
movej(p[-0.422948534221594, 0.12738074501272, 0.328280849718502, -0.0718259371732931, 0.0353790571447036, 1.33649404830066], a = 0.2, v = 0.2, t = 0.2)
movej(p[-0.423287300285184, 0.127641927691334, 0.329192848941392, -0.0596855006309153, 0.0409871264100982, 1.33418184543149], a = 0.2, v = 0.2, t = 0.2)
movej(p[-0.423815440987102, 0.127940548226544, 0.329876739076888, -0.0560194959049598, 0.0446273094792041, 1.32312684184855], a = 0.2, v = 0.2, t = 0.2)
movej(p[-0.424011611200452, 0.128069593478672, 0.330486848187128, -0.0791787609330858, 0.0472725343653105, 1.31450515632179], a = 0.2, v = 0.2, t = 0.2)
movej(p[-0.424357424342237, 0.128191078056096, 0.33116157133429, -0.0890544593440881, 0.0465491866060666, 1.29723987477674], a = 0.2, v = 0.2, t = 0.2)
movej(p[-0.424675548939691, 0.12825127046209, 0.331840071296822, -0.0841359086924868, 0.0541343987731365, 1.30540104746509], a = 0.2, v = 0.2, t = 0.2)
movej(p[-0.425049283632758, 0.128299981937696, 0.33167130271609, -0.064193395575162, 0.06584447446357, 1.32772100908082], a = 0.2, v = 0.2, t = 0.2)
movej(p[-0.425407704066378, 0.128229597760889, 0.330348255260245, -0.0545968101654596, 0.0772353808260441, 1.35926290227811], a = 0.2, v = 0.2, t = 0.2)
movej(p[-0.425677067238194, 0.127991624736107, 0.328092818503596, -0.0182961618841575, 0.081474075050241, 1.34249531275194], a = 0.2, v = 0.2, t = 0.2)
movej(p[-0.425532799249831, 0.127516253714459, 0.32548293822632, 0.0157483128589414, 0.0596132069932082, 1.32977286675826], a = 0.2, v = 0.2, t = 0.2)
movej(p[-0.425015652757334, 0.126971803026756, 0.323047383088004, 0.0390263452246576, 0.036987877855445, 1.30035776698507], a = 0.2, v = 0.2, t = 0.2)
movej(p[-0.424332702825173, 0.126427546437145, 0.320526448722907, 0.0225435349882458, 0.00413293644957963, 1.32272337778164], a = 0.2, v = 0.2, t = 0.2)
movej(p[-0.423812302948891, 0.126097326586466, 0.318764854604222, -0.0121159965716235, -0.0161490977660194, 1.30135522718415], a = 0.2, v = 0.2, t = 0.2)
movej(p[-0.423275022076702, 0.125804870361159, 0.318331747400105, -0.0746405278695021, -0.0368432160259236, 1.31867042128527], a = 0.2, v = 0.2, t = 0.2)
movej(p[-0.42318096113753, 0.125901928274687, 0.319662197819153, -0.113158204049518, -0.0330489829446289, 1.31352400694956], a = 0.2, v = 0.2, t = 0.2)
movej(p[-0.422966970314362, 0.12624838109421, 0.322076430505027, -0.137674856494214, -0.0223312801080271, 1.34153635307034], a = 0.2, v = 0.2, t = 0.2)
movej(p[-0.422994735825788, 0.126692189720158, 0.324525142230018, -0.12123173920249, 0.00740216678929373, 1.3270502522098], a = 0.2, v = 0.2, t = 0.2)
movej(p[-0.422942282019545, 0.127091255537491, 0.326504915376782, -0.113397447090969, 0.0192967861143256, 1.3334583970641], a = 0.2, v = 0.2, t = 0.2)
movej(p[-0.423072116540514, 0.1273762533355, 0.327952967994574, -0.104225860505383, 0.0389340320826688, 1.3301684297652], a = 0.2, v = 0.2, t = 0.2)
movej(p[-0.423350850743208, 0.127542652886922, 0.329027179853769, -0.0829864498143662, 0.0514345568699039, 1.31704353002567], a = 0.2, v = 0.2, t = 0.2)
movej(p[-0.423739227810083, 0.127731905180263, 0.329996661303716, -0.0707201418987426, 0.0644074271623726, 1.30632452188467], a = 0.2, v = 0.2, t = 0.2)
movej(p[-0.424078125262066, 0.127894387080159, 0.330844240486887, -0.0535280529879664, 0.0729575713561041, 1.30916975997821], a = 0.2, v = 0.2, t = 0.2)
movej(p[-0.424256086082715, 0.128107214957134, 0.3316275832249, -0.0755180422879974, 0.0735981020992321, 1.35571315687651], a = 0.2, v = 0.2, t = 0.2)
movej(p[-0.424234442280482, 0.12810809490147, 0.332238107779625, -0.0731937869390752, 0.0830028094362965, 1.36115635394025], a = 0.2, v = 0.2, t = 0.2)
movej(p[-0.424372841608356, 0.128153402938392, 0.332416650420847, -0.0451627120899332, 0.0935721245354844, 1.33697605952448], a = 0.2, v = 0.2, t = 0.2)
movej(p[-0.424697914530913, 0.128157851697977, 0.331721254649247, 0.0106897293748283, 0.101979163523774, 1.29790027261069], a = 0.2, v = 0.2, t = 0.2)
movej(p[-0.425091702534285, 0.12809994115887, 0.330059263000544, 0.0432029445393171, 0.103582105274962, 1.29619186682475], a = 0.2, v = 0.2, t = 0.2)
movej(p[-0.425154252439201, 0.127731647270123, 0.327746985963723, 0.0422287429950491, 0.0787942599887797, 1.30650741925438], a = 0.2, v = 0.2, t = 0.2)
movej(p[-0.42510882930369, 0.127351710664073, 0.32539845533019, 0.0190408556266253, 0.0553926488941207, 1.33637413147338], a = 0.2, v = 0.2, t = 0.2)
movej(p[-0.424705328840543, 0.126945576492526, 0.323381341999312, -0.00110845551865393, 0.0284926391524742, 1.35516761558039], a = 0.2, v = 0.2, t = 0.2)
movej(p[-0.424413808641986, 0.126740460379298, 0.322050542258549, -0.0298952687861257, 0.0175336021553685, 1.37941599175896], a = 0.2, v = 0.2, t = 0.2)
movej(p[-0.423647409256777, 0.126583762269489, 0.321788996274633, -0.0523306048578823, -0.00028274573097028, 1.38398919974302], a = 0.2, v = 0.2, t = 0.2)
movej(p[-0.423479286192513, 0.126566730028252, 0.322691875753805, -0.0797603166043484, 0.00305445841506508, 1.34973221003229], a = 0.2, v = 0.2, t = 0.2)
movej(p[-0.423541923670843, 0.126880686896876, 0.324347335517282, -0.0894789369971436, 0.0202693670704339, 1.33196094194824], a = 0.2, v = 0.2, t = 0.2)
movej(p[-0.42417520768567, 0.127263402393656, 0.326158725825634, -0.103395685306403, 0.0264267499379409, 1.32131411903696], a = 0.2, v = 0.2, t = 0.2)
movej(p[-0.424421346254643, 0.127760597591386, 0.327733485799445, -0.0886249358857624, 0.0402542392387052, 1.31798197844194], a = 0.2, v = 0.2, t = 0.2)
movej(p[-0.424686890125226, 0.127946446900094, 0.329036327543345, -0.0763854484248504, 0.0403526092019358, 1.3239729838319], a = 0.2, v = 0.2, t = 0.2)
movej(p[-0.42468679096274, 0.128210014146532, 0.330099287575694, -0.0683779769453687, 0.0509252339265982, 1.31632068214099], a = 0.2, v = 0.2, t = 0.2)
movej(p[-0.42448674651796, 0.12821815283923, 0.33096615247393, -0.0793002799222541, 0.0534496844998889, 1.35048054113023], a = 0.2, v = 0.2, t = 0.2)
movej(p[-0.424401997631092, 0.128235313120955, 0.331684893808351, -0.0732243407599326, 0.0550572068609993, 1.33084772313742], a = 0.2, v = 0.2, t = 0.2)
movej(p[-0.424331304309995, 0.128247937207638, 0.331963868295335, -0.0350968435555847, 0.0694367176424248, 1.32280522632573], a = 0.2, v = 0.2, t = 0.2)
movej(p[-0.424877737995369, 0.128301821044495, 0.331230627842199, 0.00183164853458677, 0.0732871021690947, 1.30749880480671], a = 0.2, v = 0.2, t = 0.2)
movej(p[-0.425161893210622, 0.128176009202923, 0.329350430746742, 0.0211892583549931, 0.0700177719012585, 1.32744717729361], a = 0.2, v = 0.2, t = 0.2)
movej(p[-0.425354181303264, 0.12788793817994, 0.326793675861122, 0.00192377619099105, 0.0464609823739917, 1.3469615443715], a = 0.2, v = 0.2, t = 0.2)
movej(p[-0.425019607890131, 0.127366487703803, 0.32435893252363, 0.010017511801706, 0.0311761698889382, 1.35474390171103], a = 0.2, v = 0.2, t = 0.2)
movej(p[-0.42440400308475, 0.126867630226411, 0.322152156413904, -0.0121194371103257, 0.0124257505934473, 1.36185122278531], a = 0.2, v = 0.2, t = 0.2)
movej(p[-0.423937245664532, 0.126432063531144, 0.320355819168434, -0.0174518056005703, -0.00341278942767136, 1.35555239454595], a = 0.2, v = 0.2, t = 0.2)
movej(p[-0.42349462462275, 0.126205771332262, 0.319484961749451, -0.0391487557955789, -0.0222397228358371, 1.34341307639173], a = 0.2, v = 0.2, t = 0.2)
movej(p[-0.423296134694069, 0.126224033870394, 0.319731160712716, -0.0426676463748611, -0.0242880743020096, 1.30252060657283], a = 0.2, v = 0.2, t = 0.2)
movej(p[-0.423204104687664, 0.126311538511221, 0.321382218793389, -0.0564148995723885, -0.00773643021592346, 1.30779746544088], a = 0.2, v = 0.2, t = 0.2)
movej(p[-0.423476567655268, 0.126692109656687, 0.323583558317181, -0.0809045661180168, 0.00816832665874549, 1.31928943397473], a = 0.2, v = 0.2, t = 0.2)
movej(p[-0.42348926632867, 0.126988637197817, 0.325710382607203, -0.0853777917302688, 0.0133641866335329, 1.33616827147246], a = 0.2, v = 0.2, t = 0.2)
movej(p[-0.423613794562561, 0.127348788948042, 0.327255298037178, -0.0798987690181949, 0.026804099380029, 1.32751712806804], a = 0.2, v = 0.2, t = 0.2)
movej(p[-0.42361779720085, 0.127583394147862, 0.328370783688858, -0.0701848374619157, 0.036838849172355, 1.31263574749642], a = 0.2, v = 0.2, t = 0.2)
movej(p[-0.423993572545534, 0.127882295956014, 0.32934699793164, -0.0792953466520856, 0.0500433385817541, 1.30415437762282], a = 0.2, v = 0.2, t = 0.2)
movej(p[-0.424232306362535, 0.128156117499985, 0.330268354484543, -0.0922983214356086, 0.0519369082417273, 1.30453388879586], a = 0.2, v = 0.2, t = 0.2)
movej(p[-0.424550429407756, 0.128337441948695, 0.33113655666405, -0.0930296399806579, 0.0538645211210318, 1.29533655133558], a = 0.2, v = 0.2, t = 0.2)
movej(p[-0.424781866479342, 0.128439736270424, 0.331870984865876, -0.0775312250589933, 0.0630831572373423, 1.29643746035001], a = 0.2, v = 0.2, t = 0.2)
movej(p[-0.425080820917806, 0.12841447016939, 0.331871447749642, -0.0416494336396773, 0.0718373564611677, 1.28464976824054], a = 0.2, v = 0.2, t = 0.2)
movej(p[-0.425527837746601, 0.128399756308666, 0.330898716881428, 0.000753646287777292, 0.0944447318465816, 1.28947473513442], a = 0.2, v = 0.2, t = 0.2)
movej(p[-0.425819935511223, 0.12826415818073, 0.328845693489914, 0.0443425277776717, 0.10260757830109, 1.30571118924724], a = 0.2, v = 0.2, t = 0.2)
movej(p[-0.42590314663297, 0.127917487180114, 0.326190227922796, 0.0543294101486651, 0.0939546712871206, 1.31875116269008], a = 0.2, v = 0.2, t = 0.2)
movej(p[-0.425461643035988, 0.127421378529257, 0.323434241919748, 0.0368286471136514, 0.0633061791039131, 1.33974855997583], a = 0.2, v = 0.2, t = 0.2)
movej(p[-0.42496250072315, 0.126778839950377, 0.320866132405419, -0.00390534766673065, 0.0156382835247308, 1.33749349192194], a = 0.2, v = 0.2, t = 0.2)
movej(p[-0.424070270127838, 0.126346846438574, 0.318977680104552, -0.024669399647534, -0.0148740228216898, 1.35991565726592], a = 0.2, v = 0.2, t = 0.2)
movej(p[-0.423484408921309, 0.126106162738125, 0.318462213599896, -0.0437984343562208, -0.0216203647161856, 1.35016284618555], a = 0.2, v = 0.2, t = 0.2)
movej(p[-0.422953277607122, 0.126162364831704, 0.319483394795929, -0.0486131735192218, 0.00448527395884273, 1.34513861871486], a = 0.2, v = 0.2, t = 0.2)
movej(p[-0.423001893458399, 0.126435985425673, 0.321659345837302, -0.0630982371288054, 0.0249995796358995, 1.3224017688163], a = 0.2, v = 0.2, t = 0.2)
movej(p[-0.422915623275172, 0.126696710662432, 0.324007558576861, -0.0583873259664424, 0.0301123034602621, 1.3093404992692], a = 0.2, v = 0.2, t = 0.2)
movej(p[-0.423050889932362, 0.127130874921923, 0.326146612426682, -0.0837560694858357, 0.0276627655950197, 1.30677108305393], a = 0.2, v = 0.2, t = 0.2)
movej(p[-0.423071137953757, 0.127332725167859, 0.327830082226929, -0.0920642191234534, 0.0320917200809204, 1.3329960426057], a = 0.2, v = 0.2, t = 0.2)
movej(p[-0.423409348330717, 0.127648844119346, 0.329143938716439, -0.108984138253881, 0.0404756660676068, 1.35015075023938], a = 0.2, v = 0.2, t = 0.2)
movej(p[-0.423574437668524, 0.127696897462302, 0.3301690080154, -0.099890747939241, 0.0546529501711537, 1.37812606073199], a = 0.2, v = 0.2, t = 0.2)
movej(p[-0.4238084257368, 0.127933934403854, 0.33107427751469, -0.0695621238504572, 0.0664894284902291, 1.35533932917373], a = 0.2, v = 0.2, t = 0.2)
movej(p[-0.424008733263862, 0.128134194689636, 0.331952630938228, -0.050130609743524, 0.0825421619170323, 1.3254133712963], a = 0.2, v = 0.2, t = 0.2)
movej(p[-0.42416400208143, 0.128299727359309, 0.332652396652708, -0.0458905969322289, 0.0793570013763397, 1.29317017637278], a = 0.2, v = 0.2, t = 0.2)
movej(p[-0.424438170465142, 0.128295337360467, 0.332583784716553, -0.0324178737710311, 0.0765910564014322, 1.27864814420158], a = 0.2, v = 0.2, t = 0.2)
movej(p[-0.424749694762318, 0.128079267747246, 0.331256771645551, -0.027148782534437, 0.0727838593989344, 1.30829821330562], a = 0.2, v = 0.2, t = 0.2)
movej(p[-0.425322774030213, 0.127971772063174, 0.328957811904817, -0.00342649358330451, 0.0547321436037527, 1.32637748641103], a = 0.2, v = 0.2, t = 0.2)
movej(p[-0.425676486010359, 0.12778094323459, 0.326077307201942, 0.00306452925358697, 0.0303266389984386, 1.31963039675159], a = 0.2, v = 0.2, t = 0.2)
movej(p[-0.425386518291948, 0.127288111677086, 0.323205414966254, 0.0165298386423952, 0.0083726517814648, 1.29769057797652], a = 0.2, v = 0.2, t = 0.2)
movej(p[-0.424754526480406, 0.12672458624197, 0.320454412277653, 0.0202323095130808, 0.00200955245929568, 1.31199834695645], a = 0.2, v = 0.2, t = 0.2)
movej(p[-0.423971403057555, 0.126178916400393, 0.318156524860344, -0.0241338446583721, -0.0215504061209819, 1.34196046082222], a = 0.2, v = 0.2, t = 0.2)
movej(p[-0.423250869015407, 0.12596033425142, 0.317200249596283, -0.0602071279634268, -0.0457710472172044, 1.37536412034214], a = 0.2, v = 0.2, t = 0.2)
movej(p[-0.422828355429606, 0.126034429109707, 0.317894286383628, -0.0802365175206138, -0.0475687156846089, 1.38195488442923], a = 0.2, v = 0.2, t = 0.2)
movej(p[-0.422418057527417, 0.126126709511399, 0.320115069766654, -0.0715245970836356, -0.029514845109645, 1.37654178299012], a = 0.2, v = 0.2, t = 0.2)
movej(p[-0.422424236622767, 0.126416896176125, 0.322689218233098, -0.0685223215735365, -0.00716289960431962, 1.37917558614331], a = 0.2, v = 0.2, t = 0.2)
movej(p[-0.42263445432608, 0.126821779672946, 0.325032702207956, -0.0595366838884476, 0.0175234159668633, 1.37332168744164], a = 0.2, v = 0.2, t = 0.2)
movej(p[-0.422979082990412, 0.12709872422876, 0.327035974674878, -0.0629760890369556, 0.0515526018063573, 1.36589119501294], a = 0.2, v = 0.2, t = 0.2)
movej(p[-0.423495630176602, 0.127411211075767, 0.328656045015137, -0.0726622266684074, 0.067167854350082, 1.32318535175842], a = 0.2, v = 0.2, t = 0.2)
movej(p[-0.423645373061831, 0.127535484301913, 0.329959222537996, -0.0846515215377846, 0.0716533127033884, 1.30430316246236], a = 0.2, v = 0.2, t = 0.2)
movej(p[-0.423760241828878, 0.127786138820999, 0.330971701022716, -0.07834489059048, 0.0682966367360615, 1.29766885271302], a = 0.2, v = 0.2, t = 0.2)
movej(p[-0.423640783273574, 0.12798249539336, 0.331908319560945, -0.0795979965187346, 0.0664399581925533, 1.31065706426648], a = 0.2, v = 0.2, t = 0.2)
movej(p[-0.42398296795788, 0.128116279014594, 0.3324014592212, -0.0530039176582006, 0.0773795829976485, 1.32453294723188], a = 0.2, v = 0.2, t = 0.2)
movej(p[-0.424473925210406, 0.128245830460948, 0.332047342231294, -0.0275591802326291, 0.0774165411776592, 1.29984191727199], a = 0.2, v = 0.2, t = 0.2)
movej(p[-0.425011872173254, 0.128133749461486, 0.330394095965814, 0.00232242484735162, 0.0850747545250693, 1.31174549951921], a = 0.2, v = 0.2, t = 0.2)
movej(p[-0.425443918207749, 0.128011457386001, 0.327728845512151, 0.0221786679858634, 0.0714948637956986, 1.32195880941404], a = 0.2, v = 0.2, t = 0.2)
movej(p[-0.425352854437818, 0.127622370838598, 0.324868551179668, 0.00898805919791611, 0.0529028478500805, 1.3669033525287], a = 0.2, v = 0.2, t = 0.2)
movej(p[-0.424708442825618, 0.127039727957715, 0.322161230850298, 0.0152775282573676, 0.031817912059962, 1.36340261793201], a = 0.2, v = 0.2, t = 0.2)
movej(p[-0.42404293854177, 0.126383162167595, 0.32000990002406, -0.0267834636742105, -0.000231014941724614, 1.34896969261411], a = 0.2, v = 0.2, t = 0.2)
movej(p[-0.423528693062543, 0.125986645367049, 0.31867370654646, -0.066493082943172, -0.0201260644352652, 1.32454326340615], a = 0.2, v = 0.2, t = 0.2)
movej(p[-0.423284617523964, 0.126003268447303, 0.319009155778342, -0.115837180371121, -0.046019520790922, 1.34093881499026], a = 0.2, v = 0.2, t = 0.2)
movej(p[-0.422857416603926, 0.126157159953403, 0.320722662192649, -0.126529183197869, -0.0366838356961641, 1.35482250292021], a = 0.2, v = 0.2, t = 0.2)
movej(p[-0.422704523955296, 0.126397711917376, 0.323087646021908, -0.123063075223213, -0.0213464727355154, 1.35842689358194], a = 0.2, v = 0.2, t = 0.2)
movej(p[-0.422816054464544, 0.126691537161086, 0.325380130501874, -0.119326693514575, 0.00929196422692199, 1.34356915098834], a = 0.2, v = 0.2, t = 0.2)
movej(p[-0.42317619627783, 0.127080284538308, 0.327287336188717, -0.112658956765405, 0.0182387033308732, 1.31921330863706], a = 0.2, v = 0.2, t = 0.2)
movej(p[-0.42335104368424, 0.127563873597245, 0.328781406778297, -0.116887723137419, 0.0380013748603638, 1.31305286776376], a = 0.2, v = 0.2, t = 0.2)
movej(p[-0.42326506999682, 0.12768447529892, 0.329957680962798, -0.105271087717158, 0.0496052226348471, 1.31994825341456], a = 0.2, v = 0.2, t = 0.2)
movej(p[-0.423563018452527, 0.127898951521296, 0.33096666566054, -0.0926824908332474, 0.0771377408433393, 1.32556564272473], a = 0.2, v = 0.2, t = 0.2)
movej(p[-0.423642265731473, 0.127786031897072, 0.331773729584182, -0.0713752481958084, 0.079424156234551, 1.31687943279864], a = 0.2, v = 0.2, t = 0.2)
movej(p[-0.424124104665196, 0.127909053935521, 0.331975632953162, -0.0489301681196102, 0.0834645008430808, 1.30770657363129], a = 0.2, v = 0.2, t = 0.2)
movej(p[-0.424244915013286, 0.127907819288771, 0.331137929599317, -0.0293391284718512, 0.082362730936981, 1.30917644751513], a = 0.2, v = 0.2, t = 0.2)
movej(p[-0.424691322314374, 0.127750639805332, 0.32913046249881, -0.00829875025448055, 0.0711005766750574, 1.32028014725427], a = 0.2, v = 0.2, t = 0.2)
movej(p[-0.425016592700473, 0.127553117470736, 0.326478410780826, 0.00737673881186199, 0.0501129466684475, 1.33032217043237], a = 0.2, v = 0.2, t = 0.2)
movej(p[-0.424972057392098, 0.127201162567088, 0.323730834519889, 0.026357718934043, 0.0333594022790554, 1.34120137123936], a = 0.2, v = 0.2, t = 0.2)
movej(p[-0.424721597719537, 0.126988852438009, 0.321501803219196, 0.018440899319942, 0.0165593802393226, 1.3525962641797], a = 0.2, v = 0.2, t = 0.2)
movej(p[-0.424324379650188, 0.126720875614032, 0.320030769389457, -0.0217580047766411, -0.00328469025841136, 1.35682702630828], a = 0.2, v = 0.2, t = 0.2)
movej(p[-0.423800765971661, 0.126503801611026, 0.319760698670164, -0.0642058314516829, -0.0264809361466912, 1.36544875746816], a = 0.2, v = 0.2, t = 0.2)
movej(p[-0.423472893081029, 0.126439922369322, 0.320756327251399, -0.0922559947089063, -0.0205452433544167, 1.36108678731062], a = 0.2, v = 0.2, t = 0.2)
movej(p[-0.423409771686272, 0.126660361138725, 0.322705148034968, -0.0993768254271338, 0.000888889825815941, 1.36591350545982], a = 0.2, v = 0.2, t = 0.2)
movej(p[-0.423618015870359, 0.127049326057137, 0.325037248421495, -0.116804637560816, 0.0157314292138411, 1.34517773251514], a = 0.2, v = 0.2, t = 0.2)
movej(p[-0.423703237824721, 0.127360442780523, 0.326956768439579, -0.102606938954184, 0.0353947548351466, 1.33969249921298], a = 0.2, v = 0.2, t = 0.2)
movej(p[-0.423922353364421, 0.127634460910333, 0.328485579503248, -0.105284719457927, 0.0393724472355761, 1.31115114257246], a = 0.2, v = 0.2, t = 0.2)
movej(p[-0.423676338431128, 0.127660013635947, 0.329630606445163, -0.0920754790749671, 0.0529633524146411, 1.33029584207911], a = 0.2, v = 0.2, t = 0.2)
movej(p[-0.423713707040065, 0.127747387605596, 0.330546528054578, -0.100048645816332, 0.058738892579356, 1.33276054482308], a = 0.2, v = 0.2, t = 0.2)
movej(p[-0.423718211916227, 0.12785548092768, 0.331465357584693, -0.090626158962872, 0.0648998454928022, 1.33852697088965], a = 0.2, v = 0.2, t = 0.2)
movej(p[-0.424218127808182, 0.128135872086078, 0.332163506455181, -0.084225532817206, 0.0701439194077614, 1.33437363450967], a = 0.2, v = 0.2, t = 0.2)
movej(p[-0.424403484433236, 0.128276381894323, 0.332775571239526, -0.0696688664171269, 0.0799588983431826, 1.31731686345209], a = 0.2, v = 0.2, t = 0.2)
movej(p[-0.424430704899013, 0.128252839976951, 0.332862092476626, -0.0756545516014902, 0.0687507271555564, 1.32775775162088], a = 0.2, v = 0.2, t = 0.2)
movej(p[-0.424703289722268, 0.128255174348468, 0.332307122261443, -0.0536270518225751, 0.068459477540421, 1.31743531638366], a = 0.2, v = 0.2, t = 0.2)
movej(p[-0.425174844057434, 0.128153710336985, 0.330729021033428, -0.0436162142630391, 0.0551073750875103, 1.31799375551266], a = 0.2, v = 0.2, t = 0.2)
movej(p[-0.425437517413624, 0.127964914259743, 0.328366143478673, -0.0204342140082066, 0.05116512813501, 1.32503983920274], a = 0.2, v = 0.2, t = 0.2)
movej(p[-0.425083019305479, 0.127496391274459, 0.325806976119221, -0.0270000315362005, 0.0407592802607232, 1.34409204755933], a = 0.2, v = 0.2, t = 0.2)
movej(p[-0.42462977410344, 0.126990290771576, 0.323739536414176, -0.0343027903747258, 0.0261351217758375, 1.3541027737858], a = 0.2, v = 0.2, t = 0.2)
movej(p[-0.424099641899977, 0.12666460053659, 0.322771528120067, -0.0587144018975862, 0.0204235894839578, 1.36685304754704], a = 0.2, v = 0.2, t = 0.2)
movej(p[-0.424052184111294, 0.126694883109181, 0.323096705099817, -0.0731913530374844, 0.0229520270231253, 1.36025002873695], a = 0.2, v = 0.2, t = 0.2)
movej(p[-0.423735823605039, 0.126949775663997, 0.324662140734323, -0.10175657041927, 0.014754128440954, 1.34573318577368], a = 0.2, v = 0.2, t = 0.2)
movej(p[-0.424005551825465, 0.127214605021118, 0.326717448973205, -0.111684066958869, 0.0244821114848574, 1.31903004931921], a = 0.2, v = 0.2, t = 0.2)
movej(p[-0.4241925358538, 0.127492121486789, 0.328753240108004, -0.0672034038295058, 0.0407055580595999, 1.26140283374964], a = 0.2, v = 0.2, t = 0.2)
movej(p[-0.42436541925154, 0.127772820701245, 0.330277704936785, -0.0505049070019397, 0.0618856173248881, 1.25877471442932], a = 0.2, v = 0.2, t = 0.2)
movej(p[-0.424240662914821, 0.127968376230996, 0.331464836568969, -0.0596008861233667, 0.0681690456171802, 1.28104648656236], a = 0.2, v = 0.2, t = 0.2)
movej(p[-0.424133550985315, 0.128082193083716, 0.332244377492266, -0.0870273954425293, 0.0702862310097919, 1.32011639359785], a = 0.2, v = 0.2, t = 0.2)
movej(p[-0.424248860527193, 0.128218078235763, 0.332787643549926, -0.093890362645554, 0.0705143154874619, 1.36230218858663], a = 0.2, v = 0.2, t = 0.2)
movej(p[-0.424232033119034, 0.128493326943847, 0.333192311931978, -0.075750845452732, 0.0763933976647281, 1.37342943379017], a = 0.2, v = 0.2, t = 0.2)
movej(p[-0.424347098169654, 0.128588303675384, 0.333468208623862, -0.0900978851517538, 0.0728826364820609, 1.38783617619117], a = 0.2, v = 0.2, t = 0.2)
movej(p[-0.424447567973545, 0.128497370810594, 0.333074514208601, -0.086182794055805, 0.0602913409263718, 1.38656732531004], a = 0.2, v = 0.2, t = 0.2)
movej(p[-0.425037320549992, 0.128329343630294, 0.331776829385982, -0.0861279054417125, 0.0502143119208631, 1.37386076971511], a = 0.2, v = 0.2, t = 0.2)
movej(p[-0.425613528319923, 0.128043190038781, 0.329297790939722, -0.0619597457138803, 0.0483393660508671, 1.36123280426399], a = 0.2, v = 0.2, t = 0.2)
movej(p[-0.426087090816329, 0.127867028725752, 0.326392736535432, -0.0409973484220737, 0.0422647410376665, 1.32215822298362], a = 0.2, v = 0.2, t = 0.2)
movej(p[-0.425794764145237, 0.127416718214476, 0.323230776715256, -0.00554869523612413, 0.0310498617243633, 1.30913737583536], a = 0.2, v = 0.2, t = 0.2)
movej(p[-0.424988753076961, 0.126903804970041, 0.320252075875464, 0.00520565205519224, -0.000782964234982729, 1.30317293850497], a = 0.2, v = 0.2, t = 0.2)
movej(p[-0.424207691912931, 0.126302403450397, 0.317993459750016, -0.0224340995135122, -0.0225040392582833, 1.32150132053678], a = 0.2, v = 0.2, t = 0.2)
movej(p[-0.423543070517349, 0.125984754252315, 0.317270144202074, -0.0775646838188331, -0.0430981114542741, 1.34318900885539], a = 0.2, v = 0.2, t = 0.2)
movej(p[-0.423175338833261, 0.126021530111676, 0.318242079994751, -0.107723169769429, -0.0403549681604437, 1.35206195142104], a = 0.2, v = 0.2, t = 0.2)
movej(p[-0.422738832223887, 0.126283726722311, 0.320271227730025, -0.121917284863193, -0.0315516215788976, 1.3586730781962], a = 0.2, v = 0.2, t = 0.2)
movej(p[-0.422749344815152, 0.126665361563476, 0.322674889550948, -0.105583153021514, -0.00963299483180517, 1.35413017616986], a = 0.2, v = 0.2, t = 0.2)
movej(p[-0.4227675511148, 0.126978141676739, 0.324958527328771, -0.119040936116966, 0.0109824536225799, 1.37746166705967], a = 0.2, v = 0.2, t = 0.2)
movej(p[-0.423013443217007, 0.127283312631843, 0.326930377959608, -0.107994827757065, 0.0329620754246655, 1.36812520724968], a = 0.2, v = 0.2, t = 0.2)
movej(p[-0.423185777548223, 0.127535118595984, 0.328494748471094, -0.110663045516642, 0.0457464936858303, 1.34675995559134], a = 0.2, v = 0.2, t = 0.2)
movej(p[-0.423355311976828, 0.127909061904748, 0.329743911129737, -0.0718236307240385, 0.064211084726293, 1.3262662336544], a = 0.2, v = 0.2, t = 0.2)
movej(p[-0.423690423641884, 0.127978928218918, 0.330680651916181, -0.0648953540003676, 0.0776016889193301, 1.3301565730805], a = 0.2, v = 0.2, t = 0.2)
movej(p[-0.423675266269678, 0.128040180117818, 0.331421579957929, -0.0473663602534547, 0.097985106089452, 1.33202017392681], a = 0.2, v = 0.2, t = 0.2)
movej(p[-0.424035502556334, 0.12791927797302, 0.33141147332348, -0.0356840019994465, 0.0923404460992888, 1.31992841278776], a = 0.2, v = 0.2, t = 0.2)
movej(p[-0.424381581827183, 0.127986137638286, 0.329938984822354, -0.00257944786203783, 0.100822860418719, 1.32011395417297], a = 0.2, v = 0.2, t = 0.2)
movej(p[-0.425152776740184, 0.127869692197832, 0.327457157397419, 0.0330639699428899, 0.10445251987676, 1.3353173838228], a = 0.2, v = 0.2, t = 0.2)
movej(p[-0.425439612379812, 0.12755675010745, 0.324337843749209, 0.0244415080484309, 0.0822256515390784, 1.33873641003081], a = 0.2, v = 0.2, t = 0.2)
movej(p[-0.425034753350608, 0.126972465752489, 0.32145220016047, -0.00531492559690228, 0.0367891858356888, 1.34488008343436], a = 0.2, v = 0.2, t = 0.2)
movej(p[-0.42428359213349, 0.126427301295455, 0.318901426255411, -0.036188820589568, -0.00936987165057499, 1.33143883394133], a = 0.2, v = 0.2, t = 0.2)
movej(p[-0.423340961506974, 0.126087251419699, 0.317247772910132, -0.0338139314353271, -0.0183433271953366, 1.34373247621626], a = 0.2, v = 0.2, t = 0.2)
movej(p[-0.422674606639971, 0.126018751704448, 0.317189153347421, -0.0484762520252088, -0.0189056718957723, 1.33034225280831], a = 0.2, v = 0.2, t = 0.2)
movej(p[-0.422482815528013, 0.126344365186847, 0.318997007030979, -0.0712579224402809, -0.0196362115967851, 1.32994354467551], a = 0.2, v = 0.2, t = 0.2)
movej(p[-0.422410462031578, 0.126660721504221, 0.321847123780607, -0.10102287310998, -0.00253502769695528, 1.32746508750331], a = 0.2, v = 0.2, t = 0.2)
movej(p[-0.422644323475974, 0.127053856700886, 0.324625958781479, -0.109075687208343, 0.0141662462721326, 1.33371601059354], a = 0.2, v = 0.2, t = 0.2)
movej(p[-0.422592904706903, 0.127195485694554, 0.326693612407413, -0.102827750472172, 0.025186841057067, 1.34539905121164], a = 0.2, v = 0.2, t = 0.2)
movej(p[-0.422770127533144, 0.127468036868599, 0.328327885746327, -0.0985038140460928, 0.0288299492277171, 1.32360246907217], a = 0.2, v = 0.2, t = 0.2)
movej(p[-0.423029350592503, 0.127790058007212, 0.32963551180686, -0.0646047647138525, 0.048265568542463, 1.3263195878265], a = 0.2, v = 0.2, t = 0.2)
movej(p[-0.423469076792008, 0.128076686519174, 0.330707047099092, -0.0453798509025977, 0.0750821703102164, 1.27664134207238], a = 0.2, v = 0.2, t = 0.2)
movej(p[-0.423791255152608, 0.128185798935499, 0.331583864317539, -0.0552743952612157, 0.0814778024568445, 1.29032357817728], a = 0.2, v = 0.2, t = 0.2)
movej(p[-0.424065622727363, 0.12810783145363, 0.331744574819044, -0.0179228275612651, 0.0863526613870858, 1.27304058811676], a = 0.2, v = 0.2, t = 0.2)
movej(p[-0.424281543728421, 0.127934553180792, 0.330669269939922, -0.00356761298242368, 0.0714163718167415, 1.30011721540747], a = 0.2, v = 0.2, t = 0.2)
movej(p[-0.424820003493169, 0.127752651110156, 0.328167471465115, 0.0467647626602216, 0.0526403078446053, 1.2813486558496], a = 0.2, v = 0.2, t = 0.2)
movej(p[-0.425118823487648, 0.127347458920204, 0.324940052035524, 0.0117746527663088, 0.0107166000233722, 1.29393924079065], a = 0.2, v = 0.2, t = 0.2)
movej(p[-0.424804636685584, 0.126767142719077, 0.321706026358798, 0.0119756556479505, -0.00617534845815799, 1.31391691403922], a = 0.2, v = 0.2, t = 0.2)
movej(p[-0.424022009596832, 0.126047909454604, 0.318737373356286, 0.000492821695112583, -0.0222050626386224, 1.34539390115526], a = 0.2, v = 0.2, t = 0.2)
movej(p[-0.423009754980399, 0.125583940022876, 0.316882596491557, -0.0370895123677888, -0.0439866055586873, 1.34530230241732], a = 0.2, v = 0.2, t = 0.2)
movej(p[-0.422409908929401, 0.125532093761524, 0.316635921310832, -0.0843192422229483, -0.0598693495953512, 1.34192026852636], a = 0.2, v = 0.2, t = 0.2)
movej(p[-0.421971282552269, 0.125696634653567, 0.318067906447951, -0.141550675007268, -0.0613404916515457, 1.3486360749974], a = 0.2, v = 0.2, t = 0.2)
movej(p[-0.42180149217273, 0.125999731930789, 0.320705155558915, -0.139869807431397, -0.0337685651380311, 1.36339177873664], a = 0.2, v = 0.2, t = 0.2)
movej(p[-0.422016846779554, 0.126417079183382, 0.323339438256672, -0.114222090412262, 0.00767706248326177, 1.37225411100241], a = 0.2, v = 0.2, t = 0.2)
movej(p[-0.422202892955857, 0.126831146476107, 0.325550688602014, -0.0924973764236546, 0.0251536881333996, 1.39107132366805], a = 0.2, v = 0.2, t = 0.2)
movej(p[-0.422443266644266, 0.127198638701197, 0.327191130768541, -0.0693286658013913, 0.0462238318796558, 1.3790455173748], a = 0.2, v = 0.2, t = 0.2)
movej(p[-0.422530630681709, 0.127349885210042, 0.328529039900479, -0.0611557760480794, 0.0563309140082288, 1.35710606315052], a = 0.2, v = 0.2, t = 0.2)
movej(p[-0.42250508971891, 0.127438164358483, 0.329666428837813, -0.0655600267409022, 0.0724652187445977, 1.343230902804], a = 0.2, v = 0.2, t = 0.2)
movej(p[-0.422682557162883, 0.127450092749112, 0.330509205130033, -0.06443413203593, 0.0840486338276184, 1.33672072982963], a = 0.2, v = 0.2, t = 0.2)
movej(p[-0.422916279068318, 0.127623945045018, 0.331049947094955, -0.0840567169062885, 0.0759210296073502, 1.34995108637243], a = 0.2, v = 0.2, t = 0.2)
movej(p[-0.423615905685365, 0.127813931071014, 0.330673476977886, -0.0313719520292416, 0.0817475186431327, 1.31943652154907], a = 0.2, v = 0.2, t = 0.2)
movej(p[-0.423957437573016, 0.127830693854257, 0.329303460655021, 0.0222767253965073, 0.0894389335474444, 1.31064134457837], a = 0.2, v = 0.2, t = 0.2)
movej(p[-0.424358000057758, 0.127765266429952, 0.326948557139383, 0.0634413587241009, 0.0950113398976204, 1.32156188413233], a = 0.2, v = 0.2, t = 0.2)
movej(p[-0.424082734545722, 0.127099447979759, 0.32416299163122, 0.0594418944712173, 0.0707736077547615, 1.33531576715582], a = 0.2, v = 0.2, t = 0.2)
movej(p[-0.423607389878568, 0.126542725677477, 0.321221276343783, 0.0141890455479016, 0.0301934588170406, 1.34557373092986], a = 0.2, v = 0.2, t = 0.2)
movej(p[-0.422997876706567, 0.125813902930407, 0.318465511237167, -0.00345579569146966, -0.0160505691870033, 1.34431161941112], a = 0.2, v = 0.2, t = 0.2)
movej(p[-0.422307000241751, 0.125466068916464, 0.316533059469799, -0.0429912707608636, -0.0431894083472312, 1.32425338410259], a = 0.2, v = 0.2, t = 0.2)
movej(p[-0.421673115355386, 0.125369082138987, 0.315862721282439, -0.0499081130507488, -0.0536983510701567, 1.31587184116749], a = 0.2, v = 0.2, t = 0.2)
movej(p[-0.421097585926175, 0.125520611476654, 0.316995007965361, -0.102163573387846, -0.057440821893221, 1.31297238090813], a = 0.2, v = 0.2, t = 0.2)
movej(p[-0.420904214642764, 0.125760549884457, 0.319248894009174, -0.112426855999091, -0.0422516534128564, 1.32668576660164], a = 0.2, v = 0.2, t = 0.2)
movej(p[-0.420994050776817, 0.126056216784751, 0.32192158174544, -0.114125372608633, -0.0096559607942079, 1.33865351895383], a = 0.2, v = 0.2, t = 0.2)
movej(p[-0.421102901144144, 0.126387023339721, 0.324399858331301, -0.0969659118202612, 0.017221853530991, 1.32407995953939], a = 0.2, v = 0.2, t = 0.2)
movej(p[-0.421478169033534, 0.12677990215725, 0.326298718727035, -0.0943246443089649, 0.0286900114816237, 1.32517798294515], a = 0.2, v = 0.2, t = 0.2)
movej(p[-0.421875217958174, 0.127078571641278, 0.327798938439562, -0.0994948981607511, 0.0269892918103803, 1.31683196644483], a = 0.2, v = 0.2, t = 0.2)
movej(p[-0.422152788242453, 0.127172704814663, 0.328922710402664, -0.0912159565879188, 0.0410514238164573, 1.31939037123158], a = 0.2, v = 0.2, t = 0.2)
movej(p[-0.422223655618094, 0.127314926223986, 0.329788710975528, -0.0746525653268274, 0.0627307121507342, 1.33588218934535], a = 0.2, v = 0.2, t = 0.2)
movej(p[-0.422451128073566, 0.127507831780703, 0.330550697288915, -0.047552113187378, 0.0748953261185134, 1.33845152711665], a = 0.2, v = 0.2, t = 0.2)
movej(p[-0.422878724661124, 0.127654464750089, 0.330432501086787, -0.019909765493483, 0.0885121215556263, 1.33428823579923], a = 0.2, v = 0.2, t = 0.2)
movej(p[-0.423446555708777, 0.127609305039269, 0.329274668713626, 0.0137659715483784, 0.0819078652401414, 1.30793033102075], a = 0.2, v = 0.2, t = 0.2)
movej(p[-0.423534339391372, 0.12717031448017, 0.326669512423076, 0.0237698714884796, 0.0696183353760645, 1.30109087167409], a = 0.2, v = 0.2, t = 0.2)
movej(p[-0.423452867561547, 0.126691458872548, 0.32364225260316, 0.0198132387440963, 0.041432534573085, 1.31367985419505], a = 0.2, v = 0.2, t = 0.2)
movej(p[-0.422901071891412, 0.12629579072766, 0.320739472686079, 0.00699952420888919, 0.0106207940253075, 1.32511126347801], a = 0.2, v = 0.2, t = 0.2)
movej(p[-0.422245924298849, 0.125806652164756, 0.318173797017727, -0.00500131615911279, -0.0173812027463709, 1.33531170422471], a = 0.2, v = 0.2, t = 0.2)
movej(p[-0.421456314160167, 0.125411815739336, 0.316608211325869, -0.0206024534419713, -0.0346916566294921, 1.3260264714133], a = 0.2, v = 0.2, t = 0.2)
movej(p[-0.420869449545481, 0.125208406471335, 0.316462298282511, -0.0453965685823374, -0.0304851245665196, 1.33645962099769], a = 0.2, v = 0.2, t = 0.2)
movej(p[-0.420764155097937, 0.12542840300869, 0.318026908734786, -0.089154804117706, -0.0193921233651165, 1.33645326117725], a = 0.2, v = 0.2, t = 0.2)
movej(p[-0.421003685079844, 0.125859095972812, 0.320525325387673, -0.10340266074113, -0.00592391336690802, 1.33600082833816], a = 0.2, v = 0.2, t = 0.2)
movej(p[-0.4212145389754, 0.12622285800852, 0.323047986771808, -0.110723170885659, 0.00410550658332538, 1.33632075988204], a = 0.2, v = 0.2, t = 0.2)
movej(p[-0.421271547264733, 0.126439130875594, 0.325181918564349, -0.105406567611382, 0.0125953785809544, 1.32969131570702], a = 0.2, v = 0.2, t = 0.2)
movej(p[-0.421262668891461, 0.126667291293199, 0.326891861139299, -0.0925271708751658, 0.0330703281738898, 1.33882010660287], a = 0.2, v = 0.2, t = 0.2)
movej(p[-0.421354030872452, 0.126741227647255, 0.328201384418885, -0.0929803657905246, 0.0387753690463326, 1.31945801699223], a = 0.2, v = 0.2, t = 0.2)
movej(p[-0.421549683308319, 0.127024924127137, 0.329395554025291, -0.0744161635102252, 0.0524800298207236, 1.31137387198135], a = 0.2, v = 0.2, t = 0.2)
movej(p[-0.421606349575405, 0.127120155968917, 0.33027547639254, -0.0516394257025933, 0.0717113013516184, 1.29973430836535], a = 0.2, v = 0.2, t = 0.2)
movej(p[-0.421891385051066, 0.12724808967737, 0.330201528746491, -0.0374130889435627, 0.0670223082243268, 1.30526665562187], a = 0.2, v = 0.2, t = 0.2)
movej(p[-0.422305375959234, 0.12720492096615, 0.32910358075864, -0.0116475467511359, 0.0601305306285624, 1.31671540072772], a = 0.2, v = 0.2, t = 0.2)
movej(p[-0.422639592001871, 0.127033729005936, 0.326677043910928, -0.0115188384512831, 0.0427160008871795, 1.33684834792891], a = 0.2, v = 0.2, t = 0.2)
movej(p[-0.422682949099045, 0.126661248710334, 0.323982668536335, 0.00834697061692764, 0.0357681003805805, 1.35746704867723], a = 0.2, v = 0.2, t = 0.2)
movej(p[-0.42215256824832, 0.1260466859933, 0.321071751718914, 0.0193093020400806, 0.027345969588388, 1.3478211029738], a = 0.2, v = 0.2, t = 0.2)
movej(p[-0.421386276643271, 0.125411313623085, 0.318532433084972, 0.0145109378096182, -0.0101405984297403, 1.33930552367468], a = 0.2, v = 0.2, t = 0.2)
movej(p[-0.420713291611369, 0.124981443502433, 0.316505552772001, -0.00789644375990456, -0.0314335393954827, 1.33281945962971], a = 0.2, v = 0.2, t = 0.2)
movej(p[-0.420323352940518, 0.124937079067572, 0.315675297010266, -0.0526965830239017, -0.051126872382525, 1.35700915461875], a = 0.2, v = 0.2, t = 0.2)
movej(p[-0.420143935369925, 0.125090257035939, 0.31659099274891, -0.0870733346350243, -0.0415090340228645, 1.35605551705623], a = 0.2, v = 0.2, t = 0.2)
movej(p[-0.420095072420111, 0.125498572196255, 0.31865011023579, -0.109057268804661, -0.0293433588653232, 1.36428371964176], a = 0.2, v = 0.2, t = 0.2)
movej(p[-0.420353474642978, 0.125890119743204, 0.32132788184099, -0.108984404907448, -0.00190547193080488, 1.33856340164281], a = 0.2, v = 0.2, t = 0.2)
movej(p[-0.420535485925313, 0.126231183532932, 0.323862920118599, -0.0993241483963573, 0.0196261509417342, 1.33038359105425], a = 0.2, v = 0.2, t = 0.2)
movej(p[-0.420892021978659, 0.126507484043659, 0.325844215352009, -0.0968801671191586, 0.0233941983118069, 1.31266460633741], a = 0.2, v = 0.2, t = 0.2)
movej(p[-0.420982588106609, 0.126713932671798, 0.32719644072095, -0.0781730901337824, 0.0408221624042434, 1.31260102798837], a = 0.2, v = 0.2, t = 0.2)
movej(p[-0.421279423829861, 0.126984496184952, 0.328308295869453, -0.0652686007039561, 0.0502389715415302, 1.30165902545574], a = 0.2, v = 0.2, t = 0.2)
movej(p[-0.42137558283877, 0.127131596651873, 0.329281199826307, -0.0446853579483301, 0.0732948187013933, 1.27582118975031], a = 0.2, v = 0.2, t = 0.2)
movej(p[-0.421663021809149, 0.127328294917399, 0.329819693473875, -0.0268045172860928, 0.0665513107047246, 1.25222183030313], a = 0.2, v = 0.2, t = 0.2)
movej(p[-0.421925346928625, 0.127273549003961, 0.329383439315094, -0.0154935745168043, 0.0704026053077659, 1.25231324794189], a = 0.2, v = 0.2, t = 0.2)
movej(p[-0.422288888793238, 0.12721014546745, 0.328090499280355, 0.00960225694789613, 0.0608733545064916, 1.26192256079957], a = 0.2, v = 0.2, t = 0.2)
movej(p[-0.422657153204734, 0.127056757375597, 0.326293342344024, 0.00708413375850517, 0.0536605420477996, 1.30082394787698], a = 0.2, v = 0.2, t = 0.2)
movej(p[-0.422632965808376, 0.126769839500023, 0.324212697900436, 0.00274274405867164, 0.0284361102309414, 1.33359231460449], a = 0.2, v = 0.2, t = 0.2)
movej(p[-0.422457090681311, 0.126346448269095, 0.321925248127052, -0.00140214985876089, 0.0243983897701738, 1.38057375973812], a = 0.2, v = 0.2, t = 0.2)
