def moving():
set_payload_mass(0.606)
set_tcp(p[0.0001,-0.0009,0.0582,0,0,0])
movej(p[0.4763, -0.0211, 0.2251, -1.21, 1.207, -1.216], a = 0.2, v = 0.2, t = 0.2)
movej(p[0.476399503559594, -0.0211997494971276, 0.225200742639686, -1.2082623738881, 1.20525469812697, -1.21424848537015], a = 0.2, v = 0.2, t = 0.2)
movej(p[0.4763, -0.0211, 0.2251, -1.21, 1.207, -1.216], a = 0.2, v = 0.2, t = 0.2)
movej(p[0.476399503559594, -0.0211997494971276, 0.225200742639686, -1.2082623738881, 1.20525469812697, -1.21424848537015], a = 0.2, v = 0.2, t = 0.2)
movej(p[0.4763, -0.0211, 0.2251, -1.21, 1.207, -1.216], a = 0.2, v = 0.2, t = 0.2)
movej(p[0.476399503559594, -0.0211997494971276, 0.225200742639686, -1.2082623738881, 1.20525469812697, -1.21424848537015], a = 0.2, v = 0.2, t = 0.2)
movej(p[0.4763, -0.0211, 0.2251, -1.21, 1.207, -1.216], a = 0.2, v = 0.2, t = 0.2)
movej(p[0.476037822148355, -0.0203896469220952, 0.225511255769343, -1.21589448935195, 1.1878938195773, -1.21780813730598], a = 0.2, v = 0.2, t = 0.2)
movej(p[0.475639648860642, -0.0196345209392691, 0.226081839354379, -1.21456368590459, 1.18095546599357, -1.21976039968481], a = 0.2, v = 0.2, t = 0.2)
movej(p[0.475365898887237, -0.0190799138718949, 0.226468824180153, -1.21734020195431, 1.17145414513106, -1.22277441685652], a = 0.2, v = 0.2, t = 0.2)
movej(p[0.475201878635936, -0.0187039691406671, 0.226685424586951, -1.21806972954683, 1.16299775484676, -1.22298738500742], a = 0.2, v = 0.2, t = 0.2)
movej(p[0.475177444855416, -0.018280864178441, 0.226789906218395, -1.22346467076231, 1.15269675202083, -1.22033629460549], a = 0.2, v = 0.2, t = 0.2)
movej(p[0.475156057715033, -0.0180655906161006, 0.226812156242744, -1.22834479386326, 1.14977697263321, -1.21713042795842], a = 0.2, v = 0.2, t = 0.2)
movej(p[0.47524906788519, -0.0179801209098189, 0.22677563463879, -1.23087547117204, 1.15225253224519, -1.21494112111765], a = 0.2, v = 0.2, t = 0.2)
movej(p[0.475585900053454, -0.0180976915695811, 0.226446512689832, -1.23237061075706, 1.15028790177725, -1.2123904925731], a = 0.2, v = 0.2, t = 0.2)
movej(p[0.476467692013408, -0.0180467546164115, 0.225773039137967, -1.23988321666674, 1.15469834081961, -1.19889050210978], a = 0.2, v = 0.2, t = 0.2)
movej(p[0.477807830325154, -0.0183559406198645, 0.224706224916436, -1.24606275171415, 1.17900249084521, -1.1750150355274], a = 0.2, v = 0.2, t = 0.2)
movej(p[0.478840546035578, -0.0193377338312549, 0.22359896518308, -1.24681768237726, 1.21283965854444, -1.1609555615206], a = 0.2, v = 0.2, t = 0.2)
movej(p[0.479553457917921, -0.0204021192304847, 0.222528145730362, -1.23852819853379, 1.24198995771553, -1.1492919223279], a = 0.2, v = 0.2, t = 0.2)
movej(p[0.479957084300743, -0.0214546267968536, 0.221463647493667, -1.22999868476988, 1.25981555418691, -1.1433841155748], a = 0.2, v = 0.2, t = 0.2)
movej(p[0.480169164096131, -0.0223096750538352, 0.220683299386268, -1.21822822704094, 1.2734848455472, -1.13778473320429], a = 0.2, v = 0.2, t = 0.2)
movej(p[0.480117444552393, -0.0229482664917947, 0.220444940572375, -1.20694626513505, 1.28392068252456, -1.13602702327246], a = 0.2, v = 0.2, t = 0.2)
movej(p[0.479783864103733, -0.022999788204387, 0.220934437147852, -1.20360818186943, 1.27276672886759, -1.1477521219227], a = 0.2, v = 0.2, t = 0.2)
movej(p[0.479086372112297, -0.0223916712865808, 0.222083526481264, -1.20476765609846, 1.25244576700768, -1.16641280246857], a = 0.2, v = 0.2, t = 0.2)
movej(p[0.478038857678116, -0.0215465620258502, 0.223464795019966, -1.21161170587065, 1.22131732435327, -1.18908959377564], a = 0.2, v = 0.2, t = 0.2)
movej(p[0.476750619483318, -0.0206860049446478, 0.224885806247529, -1.21325329135578, 1.19344846889057, -1.21124348053846], a = 0.2, v = 0.2, t = 0.2)
movej(p[0.475811043517171, -0.0199169529999189, 0.225792896811942, -1.21589694776647, 1.16972936701519, -1.22079280465631], a = 0.2, v = 0.2, t = 0.2)
movej(p[0.475517624118967, -0.0190338954712554, 0.22629603847224, -1.22198455541324, 1.15187743870928, -1.2180714054774], a = 0.2, v = 0.2, t = 0.2)
movej(p[0.475453660113813, -0.0185051785350234, 0.226519190206014, -1.22479314983842, 1.15829198069219, -1.21279859010439], a = 0.2, v = 0.2, t = 0.2)
movej(p[0.475349043697139, -0.0185481563970434, 0.22656756779213, -1.22751112090037, 1.15790302850423, -1.21292378687179], a = 0.2, v = 0.2, t = 0.2)
movej(p[0.47513787256923, -0.018510568292713, 0.22669108722198, -1.22612258971644, 1.15493239187489, -1.22049204614501], a = 0.2, v = 0.2, t = 0.2)
movej(p[0.475019404965712, -0.0183593957418167, 0.226761140321642, -1.22687710275697, 1.1416218538501, -1.22635332008094], a = 0.2, v = 0.2, t = 0.2)
movej(p[0.475191551079692, -0.0177536043511614, 0.226865944359968, -1.23057906262835, 1.13021935407417, -1.22168012660249], a = 0.2, v = 0.2, t = 0.2)
movej(p[0.475534215636412, -0.0174584793636531, 0.226772629611852, -1.2361301462462, 1.13586733585052, -1.21296082352951], a = 0.2, v = 0.2, t = 0.2)
movej(p[0.475952968382826, -0.0177705956448686, 0.226477493103145, -1.23817585672935, 1.14829131242688, -1.20555800418981], a = 0.2, v = 0.2, t = 0.2)
movej(p[0.476612745324682, -0.0181828760931209, 0.225824572732515, -1.23643965839923, 1.1715328538102, -1.19427054476239], a = 0.2, v = 0.2, t = 0.2)
movej(p[0.47760865956582, -0.0186508554543093, 0.224875602978624, -1.23835921199691, 1.18426393887976, -1.1796089040169], a = 0.2, v = 0.2, t = 0.2)
movej(p[0.478658590340577, -0.0191253941236743, 0.223903761826174, -1.24139814441751, 1.20635324924309, -1.16520231400454], a = 0.2, v = 0.2, t = 0.2)
movej(p[0.47949747609072, -0.0199635427632861, 0.222841778301762, -1.24057777587648, 1.23275199892126, -1.15017386753454], a = 0.2, v = 0.2, t = 0.2)
movej(p[0.479981433667677, -0.021005819013357, 0.22173281357976, -1.23258468766413, 1.2603774590726, -1.13698051498188], a = 0.2, v = 0.2, t = 0.2)
movej(p[0.480224523298588, -0.0219279836989231, 0.220787278029694, -1.22409159968435, 1.27371216824713, -1.1295802584547], a = 0.2, v = 0.2, t = 0.2)
movej(p[0.48026479272643, -0.0228069690972754, 0.220069654359053, -1.21195598917744, 1.2862668184707, -1.12684510563061], a = 0.2, v = 0.2, t = 0.2)
movej(p[0.480093143774599, -0.0234703242001822, 0.219815743440062, -1.19757001242316, 1.29708697409609, -1.12992826331142], a = 0.2, v = 0.2, t = 0.2)
movej(p[0.479874293119237, -0.0237353339342722, 0.219838790597909, -1.18835375079351, 1.29885333686889, -1.13151108288512], a = 0.2, v = 0.2, t = 0.2)
movej(p[0.47984223394215, -0.0235778326853162, 0.219998213387189, -1.18696522907036, 1.29362977290576, -1.12996636884993], a = 0.2, v = 0.2, t = 0.2)
movej(p[0.479851287776413, -0.0231580583169607, 0.220446895231882, -1.19784240465418, 1.28715927541725, -1.13298065185042], a = 0.2, v = 0.2, t = 0.2)
movej(p[0.479429694663953, -0.0228081485658022, 0.221307040820471, -1.19960308277495, 1.27882021559712, -1.14752522186476], a = 0.2, v = 0.2, t = 0.2)
movej(p[0.478497567971973, -0.0221394544220443, 0.222624078261929, -1.20340918974941, 1.25135271889339, -1.1703816281167], a = 0.2, v = 0.2, t = 0.2)
movej(p[0.477307069355311, -0.0211123889949256, 0.224117026237005, -1.20699496277504, 1.21689849575256, -1.19265501901902], a = 0.2, v = 0.2, t = 0.2)
movej(p[0.476287634683509, -0.0201752584942589, 0.225259325715776, -1.21111128639508, 1.19310838382051, -1.20437079290554], a = 0.2, v = 0.2, t = 0.2)
movej(p[0.47570346879069, -0.0195931559726152, 0.225931553679538, -1.21666215808327, 1.17871689184196, -1.21226521114], a = 0.2, v = 0.2, t = 0.2)
movej(p[0.475325730440387, -0.0192544446217141, 0.226344721306515, -1.21721752563303, 1.17037953055325, -1.21662901041062], a = 0.2, v = 0.2, t = 0.2)
movej(p[0.475245246956107, -0.018649154144232, 0.226632244186696, -1.22632355227004, 1.15218459087962, -1.21610940999035], a = 0.2, v = 0.2, t = 0.2)
movej(p[0.475126030656428, -0.0183526929976399, 0.226757953583529, -1.22866192846182, 1.15476898859018, -1.21535864008476], a = 0.2, v = 0.2, t = 0.2)
movej(p[0.475076748012681, -0.0182742502494571, 0.226838539353258, -1.22874843903666, 1.15774137575668, -1.21738133450039], a = 0.2, v = 0.2, t = 0.2)
movej(p[0.475041248523253, -0.0182484283173312, 0.226824424677505, -1.22648198387935, 1.15671278023853, -1.22019566214849], a = 0.2, v = 0.2, t = 0.2)
movej(p[0.475416367015918, -0.0180292780281706, 0.226635572229225, -1.22942696450582, 1.14642058422194, -1.2162009264585], a = 0.2, v = 0.2, t = 0.2)
movej(p[0.476300968126032, -0.0178662844950073, 0.226052593696075, -1.24154714642047, 1.14568460583193, -1.19835346677154], a = 0.2, v = 0.2, t = 0.2)
movej(p[0.477371571952414, -0.0183587797987464, 0.225197884202708, -1.24729554689005, 1.17542189611031, -1.18474341681262], a = 0.2, v = 0.2, t = 0.2)
movej(p[0.478275666307612, -0.0191799646578912, 0.224279907628055, -1.25004157082806, 1.20387219511572, -1.17157029951935], a = 0.2, v = 0.2, t = 0.2)
movej(p[0.47894068882617, -0.0201154606053671, 0.223177967491493, -1.2412176042114, 1.2314509390914, -1.16014588832404], a = 0.2, v = 0.2, t = 0.2)
movej(p[0.479602446975743, -0.0210409794807537, 0.221943516674409, -1.23208028840306, 1.24822017824063, -1.14580409645821], a = 0.2, v = 0.2, t = 0.2)
movej(p[0.480215512530737, -0.0218131315336126, 0.220792469964422, -1.22379155492368, 1.26372363708643, -1.13214812234989], a = 0.2, v = 0.2, t = 0.2)
movej(p[0.480447834820746, -0.0226540799965824, 0.220181099433407, -1.21229413126859, 1.28287701941907, -1.13049696912316], a = 0.2, v = 0.2, t = 0.2)
movej(p[0.480246499524417, -0.023248616381551, 0.220169871548457, -1.20311232033019, 1.2885907432346, -1.13225276035398], a = 0.2, v = 0.2, t = 0.2)
movej(p[0.479881525045442, -0.0233132630087102, 0.220599161384459, -1.20285153827129, 1.28183089086503, -1.13811988659335], a = 0.2, v = 0.2, t = 0.2)
movej(p[0.479555003810475, -0.0228979580867338, 0.221330991347564, -1.20865251178891, 1.26425672218849, -1.14808844744773], a = 0.2, v = 0.2, t = 0.2)
movej(p[0.479087833862093, -0.0219368472621748, 0.222396909359722, -1.21612518808475, 1.24034116434786, -1.16179614930992], a = 0.2, v = 0.2, t = 0.2)
movej(p[0.478147378986917, -0.0211587231979254, 0.223634866715407, -1.21409965432386, 1.23239118004224, -1.18099394608181], a = 0.2, v = 0.2, t = 0.2)
movej(p[0.477012855610371, -0.0206354285164765, 0.224795125133276, -1.21116889776445, 1.21415691546888, -1.19854388033327], a = 0.2, v = 0.2, t = 0.2)
movej(p[0.476073344431941, -0.0200867419674254, 0.2255981209068, -1.21338655999086, 1.19211779270276, -1.207569023661], a = 0.2, v = 0.2, t = 0.2)
movej(p[0.475741104951128, -0.019435504592265, 0.226097607636737, -1.21756414922935, 1.17274013848564, -1.20886859616721], a = 0.2, v = 0.2, t = 0.2)
movej(p[0.475541544415071, -0.0189517329391453, 0.22641827585544, -1.21589901453828, 1.17072714425941, -1.20762894036789], a = 0.2, v = 0.2, t = 0.2)
movej(p[0.475422912147591, -0.0186920691159981, 0.226603675689478, -1.21463073078265, 1.17642194396548, -1.20955932546686], a = 0.2, v = 0.2, t = 0.2)
movej(p[0.47535528549565, -0.0184098337093143, 0.226692277025593, -1.21831358973137, 1.16736193662516, -1.2090254592189], a = 0.2, v = 0.2, t = 0.2)
movej(p[0.475389179657358, -0.0180881140443202, 0.226790912370972, -1.2253747501134, 1.1625984464601, -1.20971777695022], a = 0.2, v = 0.2, t = 0.2)
movej(p[0.475474149325485, -0.0180076887848128, 0.226800298612577, -1.23073360207477, 1.15494230828312, -1.21073353477393], a = 0.2, v = 0.2, t = 0.2)
movej(p[0.475549049211944, -0.0180825942006472, 0.226720654254414, -1.23007918231141, 1.15732327941377, -1.21475538244342], a = 0.2, v = 0.2, t = 0.2)
movej(p[0.475919394371277, -0.0180797755095848, 0.226367194202867, -1.23261712737945, 1.15097953873216, -1.20953302682465], a = 0.2, v = 0.2, t = 0.2)
movej(p[0.476765959614683, -0.0180418281005986, 0.22567762501547, -1.23265573737228, 1.15952279810387, -1.19214565621697], a = 0.2, v = 0.2, t = 0.2)
movej(p[0.477943932101789, -0.0185195684965633, 0.22469322734497, -1.23952468107702, 1.18553081198174, -1.17459276405156], a = 0.2, v = 0.2, t = 0.2)
movej(p[0.478855620564646, -0.0195067785450185, 0.223676865717879, -1.23642863757078, 1.21857930418251, -1.16220626928891], a = 0.2, v = 0.2, t = 0.2)
movej(p[0.479519604365742, -0.0205378297031024, 0.222569761649512, -1.23256145008959, 1.24749265865736, -1.15146303522161], a = 0.2, v = 0.2, t = 0.2)
movej(p[0.480028300462595, -0.021523567010913, 0.221422264685927, -1.22735480826469, 1.26318123334701, -1.13949305305139], a = 0.2, v = 0.2, t = 0.2)
movej(p[0.480360651929686, -0.0224195389474607, 0.220437101854847, -1.22006781410664, 1.27932395227488, -1.12932208195401], a = 0.2, v = 0.2, t = 0.2)
movej(p[0.480424690106177, -0.0232951241203054, 0.219908018962432, -1.21339894816202, 1.28442214008684, -1.12941791303919], a = 0.2, v = 0.2, t = 0.2)
movej(p[0.480248297320448, -0.023677874698072, 0.219945366925728, -1.20525250014504, 1.28492034834202, -1.13040396999941], a = 0.2, v = 0.2, t = 0.2)
movej(p[0.479963141105242, -0.0235087814120714, 0.220501249011749, -1.2042863086641, 1.27615829249482, -1.14187231942289], a = 0.2, v = 0.2, t = 0.2)
movej(p[0.479385156941173, -0.0229798507733611, 0.221558319258004, -1.206394681754, 1.26039024920733, -1.16096378237858], a = 0.2, v = 0.2, t = 0.2)
movej(p[0.478411765907583, -0.0221715415460448, 0.222974048606701, -1.2064417185587, 1.23481541801607, -1.18419929827186], a = 0.2, v = 0.2, t = 0.2)
movej(p[0.477425518173138, -0.0211950369592316, 0.224260476102558, -1.20878251678251, 1.20425528514741, -1.1995588259532], a = 0.2, v = 0.2, t = 0.2)
movej(p[0.476745032030288, -0.0200859618909778, 0.225216430543537, -1.21658283612084, 1.17949688994528, -1.2023253071037], a = 0.2, v = 0.2, t = 0.2)
movej(p[0.476305845905592, -0.0194022278912874, 0.225777433764679, -1.22003380111672, 1.18093499523866, -1.20385118385162], a = 0.2, v = 0.2, t = 0.2)
movej(p[0.475930036860603, -0.0193485566943518, 0.226028000681405, -1.21834623869291, 1.17759670413031, -1.20814195886634], a = 0.2, v = 0.2, t = 0.2)
movej(p[0.475562546463765, -0.0192573328575389, 0.226253884522857, -1.21850392249257, 1.17151738948149, -1.21571685074391], a = 0.2, v = 0.2, t = 0.2)
movej(p[0.475335524437846, -0.0190390704845599, 0.226422344091565, -1.21867434945508, 1.15617638622877, -1.22206785195444], a = 0.2, v = 0.2, t = 0.2)
movej(p[0.47541468539598, -0.0184366339164511, 0.226546749682326, -1.22390891864599, 1.14695576766218, -1.21888829359196], a = 0.2, v = 0.2, t = 0.2)
movej(p[0.475617736667913, -0.017868944810083, 0.226628019922743, -1.2260407784273, 1.15086847538632, -1.20910778825644], a = 0.2, v = 0.2, t = 0.2)
movej(p[0.475685146696977, -0.0180056932069476, 0.226555874486737, -1.22623796573945, 1.15708326047443, -1.20658890924659], a = 0.2, v = 0.2, t = 0.2)
movej(p[0.47578540847612, -0.0181456688311368, 0.226436621089402, -1.22575267100216, 1.16210313934572, -1.20729596884467], a = 0.2, v = 0.2, t = 0.2)
movej(p[0.476110356817056, -0.0182567374659702, 0.226082157902908, -1.22949594193122, 1.15665312765618, -1.20534981168813], a = 0.2, v = 0.2, t = 0.2)
movej(p[0.476862890895427, -0.0182840481948551, 0.225567856797157, -1.23232439276465, 1.17163722923714, -1.19465514562186], a = 0.2, v = 0.2, t = 0.2)
movej(p[0.477685444308904, -0.0185571401383401, 0.224859191857935, -1.23369820678011, 1.19093842779469, -1.18100153272532], a = 0.2, v = 0.2, t = 0.2)
movej(p[0.478542909216013, -0.0192667079340355, 0.223822214450858, -1.23147333840055, 1.21600201416359, -1.16831113300499], a = 0.2, v = 0.2, t = 0.2)
movej(p[0.479211708303738, -0.0202324868319974, 0.222696287538039, -1.23031656060437, 1.23327308417797, -1.16024310692787], a = 0.2, v = 0.2, t = 0.2)
movej(p[0.479815932702577, -0.0211658146149126, 0.221424542466844, -1.22854017644589, 1.25103878369249, -1.14597417571373], a = 0.2, v = 0.2, t = 0.2)
movej(p[0.48028396913921, -0.0221523054975529, 0.220344456008232, -1.22366823611003, 1.27061698071638, -1.13437104417733], a = 0.2, v = 0.2, t = 0.2)
movej(p[0.480659523682096, -0.0229575439588806, 0.219417230498598, -1.21417482193026, 1.28680061317598, -1.12116561534663], a = 0.2, v = 0.2, t = 0.2)
movej(p[0.480644876725513, -0.0238219348484736, 0.219022609786202, -1.20229751821159, 1.30015737440144, -1.12217842172222], a = 0.2, v = 0.2, t = 0.2)
movej(p[0.480369114610858, -0.0242969294155438, 0.219157000177879, -1.1902739843678, 1.30872298849049, -1.12459785691376], a = 0.2, v = 0.2, t = 0.2)
movej(p[0.480005567856018, -0.024296666853343, 0.2196473624196, -1.187059527009, 1.30567889667181, -1.13145624675763], a = 0.2, v = 0.2, t = 0.2)
movej(p[0.479782106186001, -0.0236600447798324, 0.220474201616514, -1.19356023298405, 1.28410836229764, -1.13781274627993], a = 0.2, v = 0.2, t = 0.2)
movej(p[0.479307043817063, -0.0227086685215891, 0.22161155220049, -1.20528601658391, 1.26286959550665, -1.15174607439203], a = 0.2, v = 0.2, t = 0.2)
movej(p[0.478155209897041, -0.0219456494861729, 0.223037098926619, -1.20555345328134, 1.248807822047, -1.17655084200294], a = 0.2, v = 0.2, t = 0.2)
movej(p[0.476865170976533, -0.0213009423311411, 0.2243443177917, -1.2030082046722, 1.22959384646725, -1.19647074471488], a = 0.2, v = 0.2, t = 0.2)
movej(p[0.475855984269507, -0.0206940849743075, 0.225240555830516, -1.20258472140036, 1.20320675989971, -1.21306526605852], a = 0.2, v = 0.2, t = 0.2)
movej(p[0.475470078272653, -0.0199413471190505, 0.225813930154108, -1.20841417058998, 1.17280927258471, -1.21945270820288], a = 0.2, v = 0.2, t = 0.2)
movej(p[0.475380853236319, -0.0190294559368295, 0.226193996585774, -1.21996470379696, 1.15698223010002, -1.21729015517977], a = 0.2, v = 0.2, t = 0.2)
movej(p[0.47530429395517, -0.0187480462404611, 0.226351282485204, -1.21814235067154, 1.16688144157958, -1.21467256901602], a = 0.2, v = 0.2, t = 0.2)
movej(p[0.475206544966566, -0.018749261744443, 0.226434863046803, -1.21810052782306, 1.16608513756614, -1.2151696511754], a = 0.2, v = 0.2, t = 0.2)
movej(p[0.475196474542698, -0.0186847661586188, 0.226409009498259, -1.22079401462219, 1.16013601320342, -1.21576212257771], a = 0.2, v = 0.2, t = 0.2)
movej(p[0.475732686314768, -0.0185356266000768, 0.2261447878724, -1.23206997929699, 1.15501075960864, -1.21043537318008], a = 0.2, v = 0.2, t = 0.2)
movej(p[0.476480775440424, -0.0185683711810568, 0.225660744705223, -1.2379975649676, 1.16858024009308, -1.19729315373487], a = 0.2, v = 0.2, t = 0.2)
movej(p[0.477419582632178, -0.0189753655757663, 0.22475748126243, -1.23331033248233, 1.19766687457874, -1.18177935846902], a = 0.2, v = 0.2, t = 0.2)
movej(p[0.478368792411898, -0.019673782604799, 0.223542787070404, -1.23234321915648, 1.21892310646832, -1.16419743414896], a = 0.2, v = 0.2, t = 0.2)
movej(p[0.479267391821687, -0.02047903037263, 0.222255170424337, -1.22897858873573, 1.24294877336389, -1.14883042333653], a = 0.2, v = 0.2, t = 0.2)
movej(p[0.479815277281603, -0.0216003756476438, 0.221216859525127, -1.2244898659523, 1.26106056703273, -1.14181021978782], a = 0.2, v = 0.2, t = 0.2)
movej(p[0.479926002265199, -0.0224240483301281, 0.220837521977504, -1.21645242756496, 1.26549533039813, -1.14736583244503], a = 0.2, v = 0.2, t = 0.2)
movej(p[0.479706827564698, -0.0223775934699274, 0.22126368226029, -1.21923947671023, 1.24520167784864, -1.15926593136372], a = 0.2, v = 0.2, t = 0.2)
movej(p[0.479073163213566, -0.0216396331342568, 0.222418556018534, -1.22607161347877, 1.22312716547395, -1.1749227867651], a = 0.2, v = 0.2, t = 0.2)
movej(p[0.478042631558077, -0.0210068279222402, 0.223739948530084, -1.22158971621362, 1.211711265615, -1.19135168699904], a = 0.2, v = 0.2, t = 0.2)
movej(p[0.476884561467532, -0.0204293484264974, 0.224818323942026, -1.21750973634635, 1.20105218083241, -1.20784417937466], a = 0.2, v = 0.2, t = 0.2)
movej(p[0.476076749701848, -0.0197892747311078, 0.225553337195984, -1.21499268964404, 1.18129172234222, -1.21488177847249], a = 0.2, v = 0.2, t = 0.2)
movej(p[0.475730185843907, -0.0192010088878258, 0.225992461678673, -1.21709800287838, 1.1717421354184, -1.21792578380367], a = 0.2, v = 0.2, t = 0.2)
movej(p[0.475573539993555, -0.0188602803288775, 0.226248979893785, -1.22034086852373, 1.1648084317951, -1.21457245446524], a = 0.2, v = 0.2, t = 0.2)
movej(p[0.475388696137027, -0.0187035442641718, 0.226336350696828, -1.22198282007186, 1.16328403865121, -1.21949276853167], a = 0.2, v = 0.2, t = 0.2)
movej(p[0.47535315308601, -0.0183111573455086, 0.226431663445641, -1.22672037483223, 1.14632095468345, -1.22026271510846], a = 0.2, v = 0.2, t = 0.2)
movej(p[0.475487795278119, -0.0178288856147773, 0.226454910654967, -1.23020223709776, 1.13712169644249, -1.21726166528151], a = 0.2, v = 0.2, t = 0.2)
movej(p[0.475663846802137, -0.0177482331913827, 0.226438306815308, -1.2313708620988, 1.1476701447869, -1.21191206493491], a = 0.2, v = 0.2, t = 0.2)
movej(p[0.475810790251184, -0.0180486585730156, 0.226275181478978, -1.2277686652739, 1.15975359392744, -1.20713705744683], a = 0.2, v = 0.2, t = 0.2)
movej(p[0.476030775512682, -0.0182936758040641, 0.225955359978742, -1.22638929792291, 1.16991525304604, -1.20494334783339], a = 0.2, v = 0.2, t = 0.2)
movej(p[0.476767313078413, -0.0186016739822722, 0.225201183066216, -1.22951589238792, 1.17421154113769, -1.1929777680163], a = 0.2, v = 0.2, t = 0.2)
movej(p[0.478020792905963, -0.018903606534108, 0.224021748764075, -1.23803079175045, 1.18826758047217, -1.17222589966778], a = 0.2, v = 0.2, t = 0.2)
movej(p[0.4793218108178, -0.0197284543422699, 0.222748066956696, -1.24126950772485, 1.21809074276201, -1.15082858731876], a = 0.2, v = 0.2, t = 0.2)
movej(p[0.480122004987698, -0.0210571581065288, 0.221516499062751, -1.23192195472073, 1.25466603034274, -1.13883616565681], a = 0.2, v = 0.2, t = 0.2)
movej(p[0.48042563937395, -0.0223012384417702, 0.220489948732158, -1.22011339383756, 1.27837343429293, -1.13380346133513], a = 0.2, v = 0.2, t = 0.2)
movej(p[0.480449348742854, -0.0230822224042522, 0.21982248633159, -1.21597825785849, 1.27945396691431, -1.1330907257335], a = 0.2, v = 0.2, t = 0.2)
movej(p[0.480395882812825, -0.0234204726726072, 0.219727390115662, -1.21021419450531, 1.27890020455967, -1.1378506115497], a = 0.2, v = 0.2, t = 0.2)
movej(p[0.480115832602551, -0.0234162614911853, 0.220309527492642, -1.20547438395514, 1.27146337573632, -1.14811326479476], a = 0.2, v = 0.2, t = 0.2)
movej(p[0.479595110600537, -0.0229256186481066, 0.221339926040366, -1.20382167754103, 1.25858797382793, -1.1595618921312], a = 0.2, v = 0.2, t = 0.2)
movej(p[0.478836377258841, -0.0220855001655849, 0.222595988665248, -1.2054288250352, 1.24614574343764, -1.17164483740474], a = 0.2, v = 0.2, t = 0.2)
movej(p[0.47789970368243, -0.021285647405969, 0.223780742866164, -1.21039718714815, 1.22621166525425, -1.18534096216675], a = 0.2, v = 0.2, t = 0.2)
movej(p[0.476942323540667, -0.0205476518386913, 0.224830233122115, -1.20481143362044, 1.20778841322869, -1.19968839567739], a = 0.2, v = 0.2, t = 0.2)
movej(p[0.476255714539379, -0.019935173928445, 0.22548969770865, -1.20553274688585, 1.18382510098763, -1.20710700414308], a = 0.2, v = 0.2, t = 0.2)
movej(p[0.47600069009759, -0.0191557230300989, 0.225913787002127, -1.21025160148898, 1.16549174217713, -1.20559839140998], a = 0.2, v = 0.2, t = 0.2)
movej(p[0.47598665445567, -0.018615030142217, 0.22613838345969, -1.21497489935844, 1.1666194184894, -1.20035592972144], a = 0.2, v = 0.2, t = 0.2)
movej(p[0.475822984305925, -0.0186799839644732, 0.226180636188085, -1.21733718931045, 1.16943740997496, -1.20123230068327], a = 0.2, v = 0.2, t = 0.2)
movej(p[0.475614361528249, -0.018684095185923, 0.226266574145896, -1.21507623276972, 1.16971721350744, -1.20783482792776], a = 0.2, v = 0.2, t = 0.2)
movej(p[0.475426368331058, -0.0185857697953214, 0.226330835918148, -1.21633056022325, 1.15695291822199, -1.21654593205746], a = 0.2, v = 0.2, t = 0.2)
movej(p[0.475609561409919, -0.0180350993009202, 0.226417847152786, -1.22629226447107, 1.13881322744454, -1.21385706144496], a = 0.2, v = 0.2, t = 0.2)
movej(p[0.475803420141431, -0.0176683717493589, 0.226424222358052, -1.23312042609635, 1.14140636075705, -1.20844799895772], a = 0.2, v = 0.2, t = 0.2)
movej(p[0.47598613152067, -0.0178742390259623, 0.226329797693793, -1.23653513163968, 1.15111483580382, -1.2059340017317], a = 0.2, v = 0.2, t = 0.2)
movej(p[0.476151157326601, -0.0180682101955494, 0.226088368823014, -1.23307196271929, 1.15812801309369, -1.20587191254562], a = 0.2, v = 0.2, t = 0.2)
movej(p[0.476710276109346, -0.0182742748078108, 0.22550341144298, -1.23665384464482, 1.15348873754404, -1.20191024486082], a = 0.2, v = 0.2, t = 0.2)
movej(p[0.477744403660405, -0.018425874429939, 0.224510432116755, -1.24518083913818, 1.16533740524917, -1.18412486261659], a = 0.2, v = 0.2, t = 0.2)
movej(p[0.478900135935692, -0.0190748980459448, 0.223342155654899, -1.24843275854506, 1.19651653094417, -1.16256903231589], a = 0.2, v = 0.2, t = 0.2)
movej(p[0.479668443457082, -0.0202838625969562, 0.222153702189477, -1.23833825793894, 1.23874671396626, -1.14469331518755], a = 0.2, v = 0.2, t = 0.2)
movej(p[0.480079285939189, -0.0215403408281506, 0.220938761212174, -1.224405858175, 1.26586672214336, -1.13383647634494], a = 0.2, v = 0.2, t = 0.2)
movej(p[0.480274512495716, -0.0225672260674402, 0.219945249191433, -1.21327024141384, 1.27996920753638, -1.13131728772131], a = 0.2, v = 0.2, t = 0.2)
movej(p[0.480322460575903, -0.0231871124572568, 0.219485122670434, -1.20899056857699, 1.2783867365016, -1.13526031822946], a = 0.2, v = 0.2, t = 0.2)
movej(p[0.480192716680819, -0.0233678483472425, 0.21968584865221, -1.20076243446149, 1.27656159563699, -1.13827266674067], a = 0.2, v = 0.2, t = 0.2)
movej(p[0.479901397730381, -0.0230098331237995, 0.220438053590307, -1.20081841310148, 1.26671861667741, -1.14671126685035], a = 0.2, v = 0.2, t = 0.2)
movej(p[0.479347050153271, -0.0223621986627715, 0.221527272309685, -1.1999704094343, 1.25929942521243, -1.15673394817226], a = 0.2, v = 0.2, t = 0.2)
movej(p[0.47854400681824, -0.0216853658385243, 0.222732466104302, -1.20439224170564, 1.23966834739692, -1.17693136573283], a = 0.2, v = 0.2, t = 0.2)
movej(p[0.477481472046224, -0.0209632203766077, 0.223984226422289, -1.20099470769397, 1.21395022771225, -1.19605290593764], a = 0.2, v = 0.2, t = 0.2)
movej(p[0.47670013803565, -0.0201273184769127, 0.224884662520748, -1.20579561988251, 1.18203640796597, -1.2051282121006], a = 0.2, v = 0.2, t = 0.2)
movej(p[0.476342980388546, -0.0192244355668984, 0.225500796599188, -1.21396064978023, 1.17206812115924, -1.20460257717998], a = 0.2, v = 0.2, t = 0.2)
movej(p[0.476100401836894, -0.0190448245144718, 0.225729628617098, -1.21644978410777, 1.17650247261168, -1.20571141985603], a = 0.2, v = 0.2, t = 0.2)
movej(p[0.475885394583484, -0.0189827753808882, 0.225921785155635, -1.21797347375427, 1.17575199333179, -1.20904362165385], a = 0.2, v = 0.2, t = 0.2)
movej(p[0.475761348277673, -0.0187055026510091, 0.226047331442638, -1.22519943283093, 1.15770614319099, -1.21473128768987], a = 0.2, v = 0.2, t = 0.2)
movej(p[0.475819003291345, -0.0183637443783514, 0.22618531012566, -1.23333972150016, 1.15001680163094, -1.21514381038119], a = 0.2, v = 0.2, t = 0.2)
movej(p[0.47588680841318, -0.0181063799910977, 0.226271253051642, -1.23535991088839, 1.14828079047168, -1.21356091208176], a = 0.2, v = 0.2, t = 0.2)
movej(p[0.475957265974259, -0.0180789042567497, 0.226204875126028, -1.23090795210619, 1.14943063007608, -1.21201979085033], a = 0.2, v = 0.2, t = 0.2)
movej(p[0.476379557432313, -0.0179185443849163, 0.22594453167295, -1.23447884605933, 1.14090009159506, -1.20541873429418], a = 0.2, v = 0.2, t = 0.2)
movej(p[0.477018152007261, -0.0181184415491244, 0.225394207846564, -1.2403410026255, 1.1563786846705, -1.19564454471341], a = 0.2, v = 0.2, t = 0.2)
movej(p[0.477774072779976, -0.0186216809439946, 0.224603433607588, -1.24436968917021, 1.18228030330205, -1.18521745738117], a = 0.2, v = 0.2, t = 0.2)
movej(p[0.478460168354128, -0.0193196810988641, 0.223608689806888, -1.2430128976335, 1.20311226003882, -1.17606411612936], a = 0.2, v = 0.2, t = 0.2)
movej(p[0.47928569676481, -0.0199062078745278, 0.222425786850349, -1.24212952263202, 1.21716478156475, -1.1591880175055], a = 0.2, v = 0.2, t = 0.2)
movej(p[0.480074660570152, -0.0207132847706626, 0.221279527213755, -1.23646044642791, 1.23873759115109, -1.14402057931242], a = 0.2, v = 0.2, t = 0.2)
movej(p[0.480354790772886, -0.0218616189557597, 0.220447935843097, -1.22537026775029, 1.26834099870369, -1.13739585121353], a = 0.2, v = 0.2, t = 0.2)
movej(p[0.480258264285412, -0.0227116344526246, 0.219974850271656, -1.21412735616178, 1.27907553274868, -1.13809680939435], a = 0.2, v = 0.2, t = 0.2)
movej(p[0.480077532942823, -0.0230013660012188, 0.219876310424106, -1.21049103173908, 1.27516056741727, -1.13850203073926], a = 0.2, v = 0.2, t = 0.2)
movej(p[0.47979692113008, -0.0227059923046093, 0.220469457994194, -1.20942856444295, 1.26731869177467, -1.14642293920166], a = 0.2, v = 0.2, t = 0.2)
movej(p[0.47917181036791, -0.0221364086115267, 0.221669113207826, -1.20661905542752, 1.25654209269805, -1.1646107339861], a = 0.2, v = 0.2, t = 0.2)
movej(p[0.478024552127224, -0.0212961538994041, 0.223191877195295, -1.20535823242983, 1.22778924818995, -1.18987162689178], a = 0.2, v = 0.2, t = 0.2)
movej(p[0.477034890976282, -0.0203373524372856, 0.224417046313236, -1.20607716970821, 1.2016581598267, -1.20248633050855], a = 0.2, v = 0.2, t = 0.2)
movej(p[0.47631688833979, -0.019775854142432, 0.225152579856035, -1.20930933711282, 1.18367268331293, -1.20992082913147], a = 0.2, v = 0.2, t = 0.2)
movej(p[0.475932782320657, -0.0194113553678089, 0.225638241992648, -1.21159452798406, 1.17703501323428, -1.21600530220964], a = 0.2, v = 0.2, t = 0.2)
movej(p[0.475638414440115, -0.0191377790938418, 0.225931134334863, -1.2129861265056, 1.16234559924334, -1.22323134344451], a = 0.2, v = 0.2, t = 0.2)
movej(p[0.475614845641692, -0.0185995999665823, 0.2261285410805, -1.21912877485054, 1.14752493707571, -1.22385820287543], a = 0.2, v = 0.2, t = 0.2)
movej(p[0.47575751874479, -0.0180638560889568, 0.226228634752823, -1.22669472145033, 1.14080456090161, -1.21510039728084], a = 0.2, v = 0.2, t = 0.2)
movej(p[0.475826148832357, -0.018050594359132, 0.226256526744553, -1.22705597301438, 1.15440537117696, -1.21215642275501], a = 0.2, v = 0.2, t = 0.2)
movej(p[0.47581955407894, -0.0182045342093607, 0.226265398646204, -1.22813399973986, 1.15824431495677, -1.21132190772525], a = 0.2, v = 0.2, t = 0.2)
movej(p[0.475757072788055, -0.018275152057215, 0.226190713448516, -1.2262837358296, 1.15756181445758, -1.21482182071466], a = 0.2, v = 0.2, t = 0.2)
movej(p[0.476084511084577, -0.0181578185148451, 0.225895969194279, -1.23405553906724, 1.14667605085129, -1.20988804162677], a = 0.2, v = 0.2, t = 0.2)
movej(p[0.476808207773612, -0.01797010261748, 0.225390881870585, -1.24487861187367, 1.15068853772476, -1.1955619868192], a = 0.2, v = 0.2, t = 0.2)
movej(p[0.477703436536778, -0.018333551551676, 0.224728448394429, -1.24774821895131, 1.17441410494494, -1.18173716694653], a = 0.2, v = 0.2, t = 0.2)
movej(p[0.478454333893318, -0.0190455313566838, 0.223888678981553, -1.2449507503969, 1.20624964371241, -1.16776924921995], a = 0.2, v = 0.2, t = 0.2)
movej(p[0.479030132716602, -0.0198971775823586, 0.222848053923523, -1.23552388494374, 1.2303295812441, -1.1608236450463], a = 0.2, v = 0.2, t = 0.2)
movej(p[0.479576374262532, -0.020850561207506, 0.221546276286905, -1.22642477326297, 1.25166440106969, -1.14743192507477], a = 0.2, v = 0.2, t = 0.2)
movej(p[0.480165980489175, -0.0217881202654302, 0.220277518953721, -1.22245104043947, 1.26436483458285, -1.13376172906371], a = 0.2, v = 0.2, t = 0.2)
movej(p[0.480436627525685, -0.0228826554361355, 0.219456330659955, -1.21245185133756, 1.28594217973664, -1.1269333132966], a = 0.2, v = 0.2, t = 0.2)
movej(p[0.480327505399782, -0.023625214353712, 0.219273371004386, -1.20521066628497, 1.29069372932622, -1.13047800508609], a = 0.2, v = 0.2, t = 0.2)
movej(p[0.480084000913439, -0.0237274677120674, 0.219587933360423, -1.20111839823373, 1.28723892326515, -1.1364961910349], a = 0.2, v = 0.2, t = 0.2)
movej(p[0.479758135736315, -0.0231573963982363, 0.220469675909858, -1.20282818890553, 1.27061128617135, -1.14797732724103], a = 0.2, v = 0.2, t = 0.2)
movej(p[0.479133253456288, -0.0223898295037548, 0.221665519331299, -1.20703644046072, 1.25485135882119, -1.16182330278167], a = 0.2, v = 0.2, t = 0.2)
movej(p[0.478183001988457, -0.0214986277607583, 0.223071878443036, -1.20703133508816, 1.23470270535624, -1.18116474581466], a = 0.2, v = 0.2, t = 0.2)
movej(p[0.477215067796423, -0.0206121837229829, 0.224238507041684, -1.20849690658008, 1.21630891040253, -1.19106697461412], a = 0.2, v = 0.2, t = 0.2)
movej(p[0.476562543509361, -0.0199822608827588, 0.224985012950809, -1.2098923941474, 1.20049018641405, -1.19864250748427], a = 0.2, v = 0.2, t = 0.2)
movej(p[0.476160176379336, -0.019563583662436, 0.225496016077667, -1.21548581238557, 1.18383574997834, -1.20581002775935], a = 0.2, v = 0.2, t = 0.2)
movej(p[0.47586361418563, -0.0192370844252171, 0.225811683095519, -1.21863121659091, 1.16960767318602, -1.21474883997116], a = 0.2, v = 0.2, t = 0.2)
movej(p[0.475772308641624, -0.0187206444029503, 0.226064444579996, -1.22109033859631, 1.15111803983734, -1.2186385101495], a = 0.2, v = 0.2, t = 0.2)
movej(p[0.475907401616907, -0.0181692119425762, 0.226177920648728, -1.22686224541451, 1.14193212452838, -1.2145797884518], a = 0.2, v = 0.2, t = 0.2)
movej(p[0.475934856952058, -0.0181771098715403, 0.22619252501074, -1.22638706182376, 1.15687547769617, -1.2109946850641], a = 0.2, v = 0.2, t = 0.2)
movej(p[0.475932324123448, -0.0183611817290013, 0.226158159723457, -1.22360517990393, 1.16679892741679, -1.21013729696442], a = 0.2, v = 0.2, t = 0.2)
movej(p[0.475942355767674, -0.0184820163795706, 0.226000288339615, -1.22111441282689, 1.17102931182392, -1.2070923075345], a = 0.2, v = 0.2, t = 0.2)
movej(p[0.476416306182278, -0.0184390560252042, 0.225630013352815, -1.22129732635089, 1.16240631636798, -1.20082777395872], a = 0.2, v = 0.2, t = 0.2)
movej(p[0.477327433147901, -0.0182987644451487, 0.224982091460316, -1.23172768414609, 1.16227549498067, -1.18355935453894], a = 0.2, v = 0.2, t = 0.2)
movej(p[0.478299763355637, -0.0186958968726304, 0.224225727750341, -1.23495348019531, 1.18937472098963, -1.17097256172947], a = 0.2, v = 0.2, t = 0.2)
movej(p[0.478973769596152, -0.019441148588362, 0.223430200610612, -1.23882354581954, 1.21485842150712, -1.16242258366873], a = 0.2, v = 0.2, t = 0.2)
movej(p[0.479387014123479, -0.0202477002236851, 0.222463068701154, -1.23424692066283, 1.23558002473832, -1.15694691101209], a = 0.2, v = 0.2, t = 0.2)
movej(p[0.479845641444513, -0.0211118423614924, 0.221267433019587, -1.23199490791961, 1.24723070367348, -1.14749433778133], a = 0.2, v = 0.2, t = 0.2)
movej(p[0.480361620217504, -0.0218886977499135, 0.220105184747266, -1.22368849576964, 1.2630545594074, -1.13075580505554], a = 0.2, v = 0.2, t = 0.2)
movej(p[0.480532162927528, -0.0228366372416447, 0.219450317111041, -1.2178101863088, 1.28200858886169, -1.12922972718362], a = 0.2, v = 0.2, t = 0.2)
movej(p[0.480308046984124, -0.0235272088862163, 0.219322825512785, -1.20265989034695, 1.29351854294996, -1.13229331288592], a = 0.2, v = 0.2, t = 0.2)
movej(p[0.479978230428069, -0.0236561631417533, 0.219612323577253, -1.19564583988618, 1.2903054986756, -1.13890002460952], a = 0.2, v = 0.2, t = 0.2)
movej(p[0.479754118583604, -0.0232439209711546, 0.220208504853335, -1.19153797946733, 1.27868130815055, -1.14227031968325], a = 0.2, v = 0.2, t = 0.2)
movej(p[0.479307494743587, -0.0226356662471453, 0.2212007735197, -1.19818393823448, 1.26062801834742, -1.15482344708521], a = 0.2, v = 0.2, t = 0.2)
movej(p[0.478465890702767, -0.0218796022289438, 0.222478073815228, -1.20204694553665, 1.23847105494589, -1.17320256224427], a = 0.2, v = 0.2, t = 0.2)
movej(p[0.47748049528176, -0.0209374938912364, 0.223789089541404, -1.2090750889804, 1.21209464123829, -1.1894986845111], a = 0.2, v = 0.2, t = 0.2)
movej(p[0.476704142770574, -0.0202506288583687, 0.224675568993055, -1.21003901918398, 1.19768676974055, -1.19734238824564], a = 0.2, v = 0.2, t = 0.2)
movej(p[0.476213900512697, -0.0197220329593569, 0.225299207851721, -1.2139575882362, 1.18375997812481, -1.20706520877621], a = 0.2, v = 0.2, t = 0.2)
movej(p[0.47583918261396, -0.0194071771406969, 0.225663973699249, -1.2100291776549, 1.17477970346571, -1.21332824297495], a = 0.2, v = 0.2, t = 0.2)
movej(p[0.475744373606595, -0.018879665973907, 0.225909240325259, -1.21730174469076, 1.15517033472904, -1.2170990596481], a = 0.2, v = 0.2, t = 0.2)
movej(p[0.475861165742526, -0.0183016085845211, 0.226057228314166, -1.22528938277631, 1.14628801209884, -1.21165148711272], a = 0.2, v = 0.2, t = 0.2)
movej(p[0.475866165529551, -0.0183635497097921, 0.226051956537438, -1.22741550165813, 1.15981818026024, -1.21179370460254], a = 0.2, v = 0.2, t = 0.2)
movej(p[0.475862089629967, -0.0184683041922495, 0.226039522473433, -1.22495788264234, 1.16905875450236, -1.21073372369185], a = 0.2, v = 0.2, t = 0.2)
movej(p[0.475862916024258, -0.0185437513441895, 0.225913468156424, -1.22274403488316, 1.16819366287681, -1.21082917121426], a = 0.2, v = 0.2, t = 0.2)
movej(p[0.476398587222464, -0.0183674795194691, 0.225518124484227, -1.22951295635313, 1.15910258288443, -1.20095349363856], a = 0.2, v = 0.2, t = 0.2)
movej(p[0.477309755450024, -0.0182542667560625, 0.224894041513901, -1.24374849473159, 1.15885870777851, -1.18411701407798], a = 0.2, v = 0.2, t = 0.2)
movej(p[0.478229099193067, -0.0188716641237942, 0.224098320336324, -1.2418893711011, 1.19779390318163, -1.16774622796361], a = 0.2, v = 0.2, t = 0.2)
movej(p[0.478924409542544, -0.0197066786259937, 0.22324304066772, -1.23434317738178, 1.23071439989726, -1.15369586901163], a = 0.2, v = 0.2, t = 0.2)
movej(p[0.479410236258181, -0.0206201282193201, 0.22220642275237, -1.22113655406161, 1.25514670700506, -1.14513155948458], a = 0.2, v = 0.2, t = 0.2)
movej(p[0.479987129555447, -0.0215090644998927, 0.220954987571167, -1.21394638556576, 1.26712155683408, -1.13324818718552], a = 0.2, v = 0.2, t = 0.2)
movej(p[0.480552641824355, -0.0223566946956664, 0.219741815374063, -1.20930459966186, 1.28139321222035, -1.11901503049433], a = 0.2, v = 0.2, t = 0.2)
movej(p[0.480653573142833, -0.0233201862068313, 0.219074165415729, -1.19807070017628, 1.30401469081895, -1.11322232575385], a = 0.2, v = 0.2, t = 0.2)
movej(p[0.480461102943743, -0.0240664359700462, 0.218693327978803, -1.18282546730763, 1.31926546784089, -1.11113922071745], a = 0.2, v = 0.2, t = 0.2)
movej(p[0.480147377300693, -0.0244516808550254, 0.218484665932686, -1.17411453030735, 1.32384540915282, -1.11234365332211], a = 0.2, v = 0.2, t = 0.2)
movej(p[0.479971621065899, -0.0244534886609349, 0.218549068089239, -1.17454828189585, 1.32249276508148, -1.11217782489349], a = 0.2, v = 0.2, t = 0.2)
movej(p[0.479692923426832, -0.0242363827490669, 0.219091019469909, -1.18524624701319, 1.3080423320403, -1.12398762624535], a = 0.2, v = 0.2, t = 0.2)
movej(p[0.479054842483742, -0.0234774780166982, 0.220404978395163, -1.18837103233791, 1.28364719067431, -1.14390656381259], a = 0.2, v = 0.2, t = 0.2)
movej(p[0.478130321064391, -0.0225053436903507, 0.221889484685718, -1.19016067479929, 1.25803960554471, -1.16822180150799], a = 0.2, v = 0.2, t = 0.2)
movej(p[0.477097843570112, -0.0216481191833738, 0.223212925284402, -1.18810878152626, 1.24038425946424, -1.18388550055816], a = 0.2, v = 0.2, t = 0.2)
movej(p[0.476198309114144, -0.0210217945083492, 0.224233130353872, -1.19023908667943, 1.22175734517317, -1.19962787504361], a = 0.2, v = 0.2, t = 0.2)
movej(p[0.475596724658232, -0.020550003299838, 0.224973422952825, -1.20014477150723, 1.19909359487467, -1.21077916474467], a = 0.2, v = 0.2, t = 0.2)
movej(p[0.475363285273496, -0.0198088627973283, 0.225539900487414, -1.20978482146462, 1.17724006890462, -1.21274515035046], a = 0.2, v = 0.2, t = 0.2)
movej(p[0.475295212289608, -0.0191440133332745, 0.225962679799599, -1.2181721636787, 1.16904589158012, -1.21242343390707], a = 0.2, v = 0.2, t = 0.2)
movej(p[0.475095232995238, -0.019093185598064, 0.226138858354358, -1.21565733996335, 1.17554020150664, -1.21248657832901], a = 0.2, v = 0.2, t = 0.2)
movej(p[0.474870562614656, -0.01901575951999, 0.226341043993124, -1.21281329410839, 1.17275741668492, -1.21927666285192], a = 0.2, v = 0.2, t = 0.2)
movej(p[0.474656963045954, -0.0188798178883001, 0.226493055364488, -1.21097544175324, 1.15916698031464, -1.22702037244119], a = 0.2, v = 0.2, t = 0.2)
movej(p[0.474770388443239, -0.0183121090240805, 0.226649418578632, -1.21291401893906, 1.14171588657765, -1.22455745194944], a = 0.2, v = 0.2, t = 0.2)
movej(p[0.474975525024371, -0.017804410515607, 0.226733800434353, -1.21867192714288, 1.13836153546807, -1.21961602701067], a = 0.2, v = 0.2, t = 0.2)
movej(p[0.475047833074397, -0.0178646457579565, 0.226705675863591, -1.2187640088944, 1.15251758360075, -1.21593424294749], a = 0.2, v = 0.2, t = 0.2)
movej(p[0.475024324452922, -0.0179414700470083, 0.226708614116139, -1.21574797741397, 1.16034999945106, -1.21621568982363], a = 0.2, v = 0.2, t = 0.2)
movej(p[0.47503686041792, -0.0180402500547637, 0.226582246281429, -1.21260671193028, 1.15732017324868, -1.21811888394911], a = 0.2, v = 0.2, t = 0.2)
movej(p[0.47557924468957, -0.0178390887578424, 0.226246971887257, -1.2184755558438, 1.14982348801143, -1.20991180376633], a = 0.2, v = 0.2, t = 0.2)
movej(p[0.476449572454718, -0.0178383958622718, 0.225715770850353, -1.22747371391247, 1.15696979031798, -1.19861405991614], a = 0.2, v = 0.2, t = 0.2)
movej(p[0.477192999269737, -0.0183320453174037, 0.225151529140224, -1.23196427181214, 1.17910247891351, -1.18924836242975], a = 0.2, v = 0.2, t = 0.2)
movej(p[0.477808064530422, -0.0188251859124464, 0.224464010832127, -1.23411830423709, 1.20156165066462, -1.17998985475425], a = 0.2, v = 0.2, t = 0.2)
movej(p[0.478446212391776, -0.0194020146259883, 0.223497276605578, -1.2392581462656, 1.21450545038281, -1.16885709056233], a = 0.2, v = 0.2, t = 0.2)
movej(p[0.47921251893176, -0.0200281730096591, 0.222493141587098, -1.24489742896768, 1.22836457223813, -1.15767689148825], a = 0.2, v = 0.2, t = 0.2)
movej(p[0.479857823392441, -0.0210081349950073, 0.221391733023169, -1.24242176710902, 1.24761940219535, -1.14425842027236], a = 0.2, v = 0.2, t = 0.2)
movej(p[0.480247616363411, -0.0220353402725842, 0.220455575321763, -1.23245949423126, 1.26679321307247, -1.13593794589207], a = 0.2, v = 0.2, t = 0.2)
movej(p[0.480350543178231, -0.0227680925751919, 0.219835051000069, -1.21787288244979, 1.2809519248435, -1.12970124410967], a = 0.2, v = 0.2, t = 0.2)
movej(p[0.480284994166013, -0.0232288344283741, 0.219637851401379, -1.20937158442371, 1.28530667790667, -1.13056425799471], a = 0.2, v = 0.2, t = 0.2)
movej(p[0.480061985264235, -0.023215284093545, 0.220041670665598, -1.20493048098936, 1.28166540629627, -1.13643378691984], a = 0.2, v = 0.2, t = 0.2)
movej(p[0.479843817607647, -0.0226638530951001, 0.220775356257369, -1.21110762051258, 1.26129286435742, -1.14454719970091], a = 0.2, v = 0.2, t = 0.2)
movej(p[0.479449783553849, -0.0215818669314997, 0.221961927971647, -1.21638462380651, 1.24323327100998, -1.15953923322206], a = 0.2, v = 0.2, t = 0.2)
movej(p[0.478486976014193, -0.0209949790034962, 0.2233072128829, -1.21514717943658, 1.22851441263321, -1.1803591342489], a = 0.2, v = 0.2, t = 0.2)
movej(p[0.477216077508004, -0.0205337511650913, 0.224609374217969, -1.21116845162484, 1.2082554610642, -1.19984005601168], a = 0.2, v = 0.2, t = 0.2)
movej(p[0.476141107962582, -0.0200674851204783, 0.225507098359259, -1.21238125534562, 1.18649425495571, -1.20975525391504], a = 0.2, v = 0.2, t = 0.2)
movej(p[0.475561784187381, -0.0195750326702773, 0.22603915372553, -1.21316685639268, 1.17794823207812, -1.21035381843035], a = 0.2, v = 0.2, t = 0.2)
movej(p[0.475295633002533, -0.019160486546097, 0.226320670646214, -1.21256179579352, 1.17663624229988, -1.21297527083656], a = 0.2, v = 0.2, t = 0.2)
movej(p[0.475104451158248, -0.0189094360036812, 0.226466045429339, -1.20909223756786, 1.17072101811419, -1.21598111349325], a = 0.2, v = 0.2, t = 0.2)
movej(p[0.47513281053734, -0.0183967764855016, 0.226588592049192, -1.21705106870303, 1.15648584908804, -1.21726699740292], a = 0.2, v = 0.2, t = 0.2)
movej(p[0.475099819644896, -0.0182177542485301, 0.226614500535938, -1.22265171613656, 1.15804157162982, -1.2185585344076], a = 0.2, v = 0.2, t = 0.2)
movej(p[0.475047733843134, -0.0181895865794914, 0.226639935977271, -1.22512335474129, 1.15975618031011, -1.22215098693857], a = 0.2, v = 0.2, t = 0.2)
movej(p[0.47490664413298, -0.0181776704567896, 0.226648547580386, -1.22762665699388, 1.14882948405359, -1.2280703359897], a = 0.2, v = 0.2, t = 0.2)
movej(p[0.475088671037215, -0.0178200163628741, 0.226654041689951, -1.2266254633015, 1.13609760313889, -1.2242771746461], a = 0.2, v = 0.2, t = 0.2)
movej(p[0.475548473358261, -0.0175018295183082, 0.226476579694002, -1.23413311843442, 1.12904754781387, -1.21474364010655], a = 0.2, v = 0.2, t = 0.2)
movej(p[0.476162660303531, -0.0177588123889018, 0.226053713075101, -1.22891565522681, 1.15849290287811, -1.20034276861454], a = 0.2, v = 0.2, t = 0.2)
movej(p[0.476831586422275, -0.018298313065677, 0.225382384119058, -1.2316290214749, 1.17992025197103, -1.18794672670186], a = 0.2, v = 0.2, t = 0.2)
movej(p[0.477596161614777, -0.0188985271847859, 0.224425103169476, -1.2297890021877, 1.20377515815946, -1.17348704957119], a = 0.2, v = 0.2, t = 0.2)
movej(p[0.478667816306827, -0.0195882951241109, 0.223244039600278, -1.23583672796403, 1.21779013599662, -1.16022827901885], a = 0.2, v = 0.2, t = 0.2)
movej(p[0.479585806203366, -0.0204512604541587, 0.222066964823814, -1.23638024467322, 1.24224157134682, -1.14533218681796], a = 0.2, v = 0.2, t = 0.2)
movej(p[0.480112388079946, -0.0215238903240347, 0.221042055593878, -1.22998187748721, 1.26590604396715, -1.13883915554202], a = 0.2, v = 0.2, t = 0.2)
movej(p[0.480279394807712, -0.0223218949710719, 0.220442614023508, -1.22926193884589, 1.26651719410122, -1.14088281572393], a = 0.2, v = 0.2, t = 0.2)
movej(p[0.480123652740298, -0.0225594563748851, 0.220664270509666, -1.22164332520255, 1.25596481321605, -1.15495455925544], a = 0.2, v = 0.2, t = 0.2)
movej(p[0.479490603936637, -0.0221508578291538, 0.221784929142172, -1.22161632998841, 1.23380127869451, -1.17235477693306], a = 0.2, v = 0.2, t = 0.2)
movej(p[0.478348877629932, -0.0212574026166179, 0.223396635369674, -1.21644331521341, 1.2106605131977, -1.19232811656755], a = 0.2, v = 0.2, t = 0.2)
movej(p[0.477225455468326, -0.0202403912524498, 0.224691577377976, -1.21864687281354, 1.18471329792767, -1.20421389108411], a = 0.2, v = 0.2, t = 0.2)
movej(p[0.476555811655323, -0.0194000600250079, 0.225430207620785, -1.22052419265697, 1.16752210094484, -1.20759466881293], a = 0.2, v = 0.2, t = 0.2)
movej(p[0.476131440473732, -0.0189970310874353, 0.225822537791324, -1.21848899207041, 1.17271824218181, -1.21103092296936], a = 0.2, v = 0.2, t = 0.2)
movej(p[0.475799766017433, -0.0190251605320794, 0.225958953623919, -1.21989060983856, 1.17261533346816, -1.21569508194549], a = 0.2, v = 0.2, t = 0.2)
movej(p[0.475466967098778, -0.0189515069654012, 0.226130296992795, -1.21835573121115, 1.16389400556992, -1.22424956593597], a = 0.2, v = 0.2, t = 0.2)
movej(p[0.475373202885283, -0.0186620574880127, 0.226247301201297, -1.21826732166927, 1.14650262435377, -1.22549964392765], a = 0.2, v = 0.2, t = 0.2)
movej(p[0.475542410573868, -0.0180908295496572, 0.226338274917091, -1.2217403074833, 1.1339615366173, -1.22266157310012], a = 0.2, v = 0.2, t = 0.2)
movej(p[0.475735403508231, -0.0177960198799597, 0.226360516069021, -1.22315839394048, 1.14434915137203, -1.21833942518467], a = 0.2, v = 0.2, t = 0.2)
movej(p[0.475806817488781, -0.0179859215889513, 0.226299751875584, -1.22371583795363, 1.15147080056352, -1.21695709953843], a = 0.2, v = 0.2, t = 0.2)
movej(p[0.475806909814273, -0.0180847739519711, 0.226191955809787, -1.2243757577528, 1.15459292028393, -1.2155225500429], a = 0.2, v = 0.2, t = 0.2)
movej(p[0.476136436583337, -0.0181685911223991, 0.225830263807095, -1.22978894972913, 1.14886765238002, -1.21058519154309], a = 0.2, v = 0.2, t = 0.2)
movej(p[0.477025488278894, -0.0181014889321843, 0.225153678412329, -1.23810675801857, 1.15053271495326, -1.19348425218118], a = 0.2, v = 0.2, t = 0.2)
movej(p[0.478209949359595, -0.0184695399988587, 0.224228931921273, -1.24413109322804, 1.17886575760078, -1.17359926971597], a = 0.2, v = 0.2, t = 0.2)
movej(p[0.479172367693569, -0.0193961181418133, 0.223225228284221, -1.24265584519966, 1.21491027843428, -1.15572238094029], a = 0.2, v = 0.2, t = 0.2)
movej(p[0.479841777869077, -0.0203718816847486, 0.222126154263919, -1.23652701457408, 1.24306240166487, -1.14270991087403], a = 0.2, v = 0.2, t = 0.2)
movej(p[0.480430639903714, -0.0213153716300336, 0.221040928420276, -1.23250905687836, 1.25655302181811, -1.1356451539377], a = 0.2, v = 0.2, t = 0.2)
movej(p[0.480790772059439, -0.0222318361420336, 0.220169536665003, -1.22584191388373, 1.27043054002139, -1.12961019747139], a = 0.2, v = 0.2, t = 0.2)
movej(p[0.480925777294115, -0.0230341510673613, 0.219651444108401, -1.22084552158382, 1.28404063269414, -1.12498544766645], a = 0.2, v = 0.2, t = 0.2)
movej(p[0.480813891931436, -0.0235435720573369, 0.219414985188945, -1.21173425845681, 1.29161645734018, -1.12348470355341], a = 0.2, v = 0.2, t = 0.2)
movej(p[0.480596956686476, -0.0236381396054295, 0.219622968261193, -1.20279621127038, 1.29231155115922, -1.12755538760723], a = 0.2, v = 0.2, t = 0.2)
movej(p[0.480194708567524, -0.0233572763442065, 0.22038631026796, -1.19843411574721, 1.28296603981929, -1.1436184577568], a = 0.2, v = 0.2, t = 0.2)
movej(p[0.479184069955939, -0.0225759835397509, 0.221877592451344, -1.19861591622603, 1.25749087863622, -1.16896271861416], a = 0.2, v = 0.2, t = 0.2)
movej(p[0.478000733414572, -0.0214436098078512, 0.223376678725569, -1.20627144011617, 1.22311517686237, -1.18629433046322], a = 0.2, v = 0.2, t = 0.2)
movej(p[0.476890458904796, -0.0203010729752212, 0.224543957454033, -1.21528629805953, 1.19577664495493, -1.19945706304515], a = 0.2, v = 0.2, t = 0.2)
movej(p[0.476044844128299, -0.0198931355148278, 0.225211988756876, -1.21430122930953, 1.1852954986886, -1.20693553356739], a = 0.2, v = 0.2, t = 0.2)
movej(p[0.475482067128819, -0.0196079595087426, 0.225679541305162, -1.21478457985508, 1.1678748265148, -1.2134455293405], a = 0.2, v = 0.2, t = 0.2)
movej(p[0.475245335636612, -0.0191787964190723, 0.225999102402861, -1.21741607996207, 1.15589668134604, -1.21558530173496], a = 0.2, v = 0.2, t = 0.2)
movej(p[0.475202392932763, -0.0187308242921169, 0.226263756439779, -1.22176849925047, 1.1496998244789, -1.21462689231168], a = 0.2, v = 0.2, t = 0.2)
movej(p[0.47517015956061, -0.0183953293070684, 0.226440869044432, -1.22507329746674, 1.14860370551606, -1.21789824459311], a = 0.2, v = 0.2, t = 0.2)
movej(p[0.475098634787144, -0.0182523017402548, 0.226526373032129, -1.22662610150144, 1.14516142459359, -1.22093422624544], a = 0.2, v = 0.2, t = 0.2)
movej(p[0.475186100148561, -0.0177730023140227, 0.226609026831592, -1.2338410557627, 1.13199771894566, -1.21962203891855], a = 0.2, v = 0.2, t = 0.2)
movej(p[0.475184131103161, -0.0176680166322876, 0.226585285106911, -1.23579376012484, 1.13648428068503, -1.21976528047587], a = 0.2, v = 0.2, t = 0.2)
movej(p[0.475252914177312, -0.017744280260403, 0.226549834186797, -1.23129027095058, 1.14506382517909, -1.21881030876451], a = 0.2, v = 0.2, t = 0.2)
movej(p[0.475333638044801, -0.0178940404508207, 0.226384384721752, -1.22720769657138, 1.14598000854452, -1.22032036588989], a = 0.2, v = 0.2, t = 0.2)
movej(p[0.475883099454243, -0.017749486034371, 0.226012435605987, -1.23373286629685, 1.14075431478997, -1.21065343295127], a = 0.2, v = 0.2, t = 0.2)
movej(p[0.476727721290529, -0.0177299668052726, 0.225453478186263, -1.2422133861246, 1.15100103715776, -1.19483402089982], a = 0.2, v = 0.2, t = 0.2)
movej(p[0.477570224432855, -0.0183382024671629, 0.224728052852286, -1.24201674746352, 1.1804493312581, -1.18021884599355], a = 0.2, v = 0.2, t = 0.2)
movej(p[0.478308905235601, -0.0190365730420302, 0.223824994492757, -1.2391904901489, 1.20552027579723, -1.16765605280617], a = 0.2, v = 0.2, t = 0.2)
movej(p[0.479028139144226, -0.0198138816958657, 0.222767622145211, -1.23693125116227, 1.22189572229675, -1.15861513592478], a = 0.2, v = 0.2, t = 0.2)
movej(p[0.479623106955058, -0.020603470569808, 0.221724424265314, -1.23308292792636, 1.24297639299708, -1.14744314986828], a = 0.2, v = 0.2, t = 0.2)
movej(p[0.480018719857289, -0.0215037401662784, 0.22079393116117, -1.22662788677075, 1.26439719572872, -1.13699125177575], a = 0.2, v = 0.2, t = 0.2)
movej(p[0.480113142580041, -0.0224437768224179, 0.220027844616358, -1.21259134314633, 1.28158750816217, -1.1333913387522], a = 0.2, v = 0.2, t = 0.2)
movej(p[0.480203797257546, -0.0229785115853023, 0.219403779305025, -1.20471924410572, 1.28836647507632, -1.12517756380686], a = 0.2, v = 0.2, t = 0.2)
movej(p[0.480223105594567, -0.0232859940443081, 0.21918319277886, -1.20222957848013, 1.29217027210649, -1.12745441891666], a = 0.2, v = 0.2, t = 0.2)
movej(p[0.479906630142312, -0.0235783576065646, 0.219399956165032, -1.19250780268722, 1.3004343721772, -1.13027578403838], a = 0.2, v = 0.2, t = 0.2)
movej(p[0.479520824332291, -0.0235210981751981, 0.219936776036566, -1.19383175988212, 1.2910286479913, -1.14031499753814], a = 0.2, v = 0.2, t = 0.2)
movej(p[0.479166957019156, -0.0230076559870854, 0.220798542788165, -1.19789104962336, 1.2712759663558, -1.14930555743013], a = 0.2, v = 0.2, t = 0.2)
movej(p[0.478624269565467, -0.0221496287471577, 0.221970014167735, -1.20402980192997, 1.25490664937574, -1.16378931458787], a = 0.2, v = 0.2, t = 0.2)
movej(p[0.477770320991844, -0.0215608202111023, 0.223164039642326, -1.20536503021925, 1.23645558493319, -1.18269604305879], a = 0.2, v = 0.2, t = 0.2)
movej(p[0.47666175917725, -0.0209915315344104, 0.224285462568663, -1.20282186402956, 1.21690001775348, -1.20041098653793], a = 0.2, v = 0.2, t = 0.2)
movej(p[0.475870138194764, -0.0203507826665861, 0.225102297855236, -1.20622780945634, 1.18644435710503, -1.21121400903436], a = 0.2, v = 0.2, t = 0.2)
movej(p[0.475596769164182, -0.0195270771742911, 0.225637123430897, -1.20975947761677, 1.1660969439322, -1.21302163829552], a = 0.2, v = 0.2, t = 0.2)
movej(p[0.475523111528937, -0.0189081074651139, 0.225963222828614, -1.21322014958902, 1.16474851217623, -1.21230942228593], a = 0.2, v = 0.2, t = 0.2)
movej(p[0.475364656009741, -0.0188794997016179, 0.226078670450954, -1.21182860237185, 1.16894513879162, -1.21493484197205], a = 0.2, v = 0.2, t = 0.2)
movej(p[0.475175666319432, -0.0188067328596241, 0.226189781325593, -1.21088178741997, 1.16980256351134, -1.21902321639331], a = 0.2, v = 0.2, t = 0.2)
movej(p[0.475021718266636, -0.0185666167915348, 0.226308498050977, -1.21649845889721, 1.15556353704859, -1.22123458560709], a = 0.2, v = 0.2, t = 0.2)
movej(p[0.475121309593074, -0.0181557437482982, 0.226431630500152, -1.22085842631801, 1.1508105197421, -1.21723111546987], a = 0.2, v = 0.2, t = 0.2)
movej(p[0.475240481001352, -0.017959438697966, 0.226493504506512, -1.22610958634937, 1.14459389615175, -1.21554982051152], a = 0.2, v = 0.2, t = 0.2)
movej(p[0.475432956888682, -0.0179805024098732, 0.226365057101956, -1.22503174856612, 1.15214965398642, -1.2134057731113], a = 0.2, v = 0.2, t = 0.2)
movej(p[0.475942749224838, -0.0179689052958753, 0.22604016641104, -1.23159676469747, 1.15238357770723, -1.20819854055797], a = 0.2, v = 0.2, t = 0.2)
movej(p[0.476590802318661, -0.0182180890111959, 0.225477936355187, -1.23515491651245, 1.17095387418017, -1.19817593448047], a = 0.2, v = 0.2, t = 0.2)
movej(p[0.477394475108724, -0.0187374004194786, 0.224599853792873, -1.23657021962857, 1.19697923794038, -1.18246960669153], a = 0.2, v = 0.2, t = 0.2)
movej(p[0.478211727999303, -0.0195352002499138, 0.22334031062434, -1.23452648631909, 1.21995237979955, -1.16741685717268], a = 0.2, v = 0.2, t = 0.2)
movej(p[0.479159116314103, -0.0203008270231229, 0.221888002091305, -1.23110130063028, 1.24124858453913, -1.14997666280718], a = 0.2, v = 0.2, t = 0.2)
movej(p[0.480021565840197, -0.0213443072840284, 0.220525218372977, -1.22372166730318, 1.26562251891648, -1.13639221451247], a = 0.2, v = 0.2, t = 0.2)
movej(p[0.480354165901621, -0.0226530389449448, 0.219612067641851, -1.20994940213572, 1.29181609321923, -1.13269366708115], a = 0.2, v = 0.2, t = 0.2)
movej(p[0.48019553668665, -0.0235098540727199, 0.21943207725607, -1.20551995018226, 1.29274314963777, -1.1364065553375], a = 0.2, v = 0.2, t = 0.2)
movej(p[0.479790963717607, -0.0235047614593824, 0.220024621151498, -1.20690733464997, 1.2739353749786, -1.14926673983843], a = 0.2, v = 0.2, t = 0.2)
movej(p[0.479299701510693, -0.0226548335835649, 0.221261954388733, -1.21409882194609, 1.24070553498402, -1.16533370721144], a = 0.2, v = 0.2, t = 0.2)
movej(p[0.478654194310576, -0.0214133184848168, 0.222615629171899, -1.21856599375194, 1.22075867220971, -1.17461191351058], a = 0.2, v = 0.2, t = 0.2)
movej(p[0.477770415809586, -0.0207510984436949, 0.223733608839524, -1.21624251363621, 1.21301919087401, -1.18906400352611], a = 0.2, v = 0.2, t = 0.2)
movej(p[0.476923797787467, -0.0203596130075132, 0.224483023213072, -1.21620289628106, 1.20619375835764, -1.20037631226649], a = 0.2, v = 0.2, t = 0.2)
movej(p[0.476236631659971, -0.0199245682661002, 0.225108864168792, -1.21765164700555, 1.18496146650718, -1.21481802980117], a = 0.2, v = 0.2, t = 0.2)
movej(p[0.475867510939295, -0.0193615159215995, 0.225553364273094, -1.2220924374063, 1.16442391459134, -1.21924401283003], a = 0.2, v = 0.2, t = 0.2)
movej(p[0.475813530009785, -0.0185923352026981, 0.225891291536599, -1.23176901306662, 1.14647613389083, -1.21510178849234], a = 0.2, v = 0.2, t = 0.2)
movej(p[0.475736503774161, -0.0183999056979715, 0.226032921049188, -1.23739678075868, 1.15197880990187, -1.21654295467313], a = 0.2, v = 0.2, t = 0.2)
movej(p[0.475660898934865, -0.018427967926519, 0.226118870330185, -1.23726188261758, 1.15254085171036, -1.22040857251316], a = 0.2, v = 0.2, t = 0.2)
movej(p[0.475555786304116, -0.0185722641289252, 0.226124564118755, -1.23293896019259, 1.16157983074872, -1.22216971266322], a = 0.2, v = 0.2, t = 0.2)
movej(p[0.475570008938803, -0.0185098447635076, 0.226155078482315, -1.23067651977535, 1.15450229883132, -1.22224112428758], a = 0.2, v = 0.2, t = 0.2)
movej(p[0.475851175511242, -0.0182078387521902, 0.22598711457854, -1.23442205002633, 1.15039543096993, -1.21636739734137], a = 0.2, v = 0.2, t = 0.2)
movej(p[0.476464824967043, -0.0180711748880424, 0.225513103240141, -1.23906574905868, 1.15040935460302, -1.20761106315931], a = 0.2, v = 0.2, t = 0.2)
movej(p[0.477448489212526, -0.0181027631915793, 0.224750466768591, -1.24675328754916, 1.15739890046326, -1.19211993417441], a = 0.2, v = 0.2, t = 0.2)
movej(p[0.478273999714668, -0.018747297948251, 0.223938236202067, -1.24606722756024, 1.19241030398624, -1.17753813047847], a = 0.2, v = 0.2, t = 0.2)
movej(p[0.478903640712109, -0.0196710995425135, 0.223012706900111, -1.24151706977136, 1.22350477066705, -1.16606871634856], a = 0.2, v = 0.2, t = 0.2)
movej(p[0.479423591608447, -0.0207131415688316, 0.221821323256743, -1.22737289525149, 1.25269772906695, -1.15435696054757], a = 0.2, v = 0.2, t = 0.2)
movej(p[0.479982743526534, -0.0216835899439737, 0.220495962475754, -1.21879147688904, 1.26788436170816, -1.14012657181836], a = 0.2, v = 0.2, t = 0.2)
movej(p[0.480462782966769, -0.0225936687796624, 0.219329211836478, -1.20977769753356, 1.28491306096044, -1.12863889845623], a = 0.2, v = 0.2, t = 0.2)
movej(p[0.480472328251159, -0.0235994009171446, 0.21882196818183, -1.2000937667091, 1.29841877483319, -1.12791584386895], a = 0.2, v = 0.2, t = 0.2)
movej(p[0.480225148080797, -0.024085029496285, 0.218866577894918, -1.19179383716949, 1.29604910877466, -1.13278353943395], a = 0.2, v = 0.2, t = 0.2)
movej(p[0.479988524280171, -0.0237893431571988, 0.219465326093959, -1.19662808309398, 1.27897578479612, -1.1407875726824], a = 0.2, v = 0.2, t = 0.2)
movej(p[0.479540887335157, -0.0230552703585107, 0.220518950083666, -1.20268877932089, 1.26230693573199, -1.15320895480197], a = 0.2, v = 0.2, t = 0.2)
movej(p[0.478787179042066, -0.0221702326495288, 0.221857596012433, -1.20636776854265, 1.2437143454969, -1.17088014798341], a = 0.2, v = 0.2, t = 0.2)
movej(p[0.477747532170745, -0.0213077202690816, 0.223186693016955, -1.20480592581416, 1.22277280603982, -1.19099008003745], a = 0.2, v = 0.2, t = 0.2)
movej(p[0.476928219864522, -0.0204088722308003, 0.224221261209994, -1.20743219146161, 1.1961976639529, -1.20124340614187], a = 0.2, v = 0.2, t = 0.2)
movej(p[0.476543509551124, -0.0195455031128937, 0.224848013508123, -1.219474685457, 1.17642685306796, -1.20369881645226], a = 0.2, v = 0.2, t = 0.2)
movej(p[0.476202076437571, -0.0192408067254122, 0.225237938982702, -1.22087375252599, 1.18285208374953, -1.20461084800693], a = 0.2, v = 0.2, t = 0.2)
movej(p[0.475891300528862, -0.0192301711130118, 0.225495667053184, -1.21938081191015, 1.18496836371832, -1.20802864136693], a = 0.2, v = 0.2, t = 0.2)
movej(p[0.475577052683999, -0.0190296571239264, 0.225766336442255, -1.21553207725073, 1.1751975735688, -1.21042085714622], a = 0.2, v = 0.2, t = 0.2)
movej(p[0.475560946953758, -0.0186142926928834, 0.226004279091811, -1.21863228981206, 1.16047381993921, -1.20907682424829], a = 0.2, v = 0.2, t = 0.2)
movej(p[0.475578169678576, -0.0182491324238827, 0.226160864533961, -1.22653700326112, 1.15403493477647, -1.20724250173274], a = 0.2, v = 0.2, t = 0.2)
movej(p[0.475583441937123, -0.0180373319926761, 0.226260895444836, -1.23061046155146, 1.15274487551243, -1.21175595059456], a = 0.2, v = 0.2, t = 0.2)
movej(p[0.475717194027401, -0.0178952944526206, 0.226180178521819, -1.23690795783857, 1.14341961310897, -1.211972374099], a = 0.2, v = 0.2, t = 0.2)
movej(p[0.476117026696518, -0.0177583193082251, 0.225970053274824, -1.23545116829149, 1.15382110938582, -1.20384901980444], a = 0.2, v = 0.2, t = 0.2)
movej(p[0.476705322356664, -0.0179839193813703, 0.225471604889081, -1.23540868918414, 1.17069573558721, -1.1921587648175], a = 0.2, v = 0.2, t = 0.2)
movej(p[0.477356973940638, -0.0184149745816766, 0.22466283918729, -1.23867848667376, 1.18747153555133, -1.18331727052947], a = 0.2, v = 0.2, t = 0.2)
movej(p[0.47826495053682, -0.0188899811576836, 0.223584839139082, -1.24702572336919, 1.19649836199286, -1.17061211847886], a = 0.2, v = 0.2, t = 0.2)
movej(p[0.479166201608042, -0.0195980623145907, 0.222469934572828, -1.24879417801308, 1.21965450420915, -1.15958760865541], a = 0.2, v = 0.2, t = 0.2)
movej(p[0.479697807572277, -0.0206676129812914, 0.221523822507505, -1.23978211426518, 1.24660885421478, -1.14758994215279], a = 0.2, v = 0.2, t = 0.2)
movej(p[0.479831889042203, -0.0216307101666265, 0.220878047851822, -1.22530995488956, 1.25579159968305, -1.15027984189025], a = 0.2, v = 0.2, t = 0.2)
movej(p[0.479769798593618, -0.0217115588325892, 0.220954218249002, -1.22407120037511, 1.23909374324285, -1.15481939931455], a = 0.2, v = 0.2, t = 0.2)
movej(p[0.479313313720126, -0.0212919518020464, 0.22180342629406, -1.21612336347176, 1.22870508244545, -1.17015538904606], a = 0.2, v = 0.2, t = 0.2)
movej(p[0.478495049752504, -0.0207339344064388, 0.223097993643831, -1.21346174750834, 1.21793121935436, -1.18468026866686], a = 0.2, v = 0.2, t = 0.2)
movej(p[0.477423190201643, -0.0200346894294942, 0.22424896780807, -1.21076068222927, 1.19902021823527, -1.19811049203766], a = 0.2, v = 0.2, t = 0.2)
movej(p[0.476802345778299, -0.0194202496855012, 0.224952525763042, -1.21422303641784, 1.18031457520851, -1.20078511025224], a = 0.2, v = 0.2, t = 0.2)
movej(p[0.47645935545944, -0.0189888477205488, 0.225342329790605, -1.21951575239954, 1.16879434758852, -1.20177037854409], a = 0.2, v = 0.2, t = 0.2)
movej(p[0.476273537065519, -0.018776920163575, 0.225584008576717, -1.22199856377332, 1.16553420547695, -1.20563185926707], a = 0.2, v = 0.2, t = 0.2)
movej(p[0.476156098438085, -0.0185022863941611, 0.225685763324149, -1.22688862883718, 1.15670772312613, -1.20648690207312], a = 0.2, v = 0.2, t = 0.2)
movej(p[0.476179289047715, -0.0182159596456843, 0.225780374712109, -1.22961594303585, 1.15686562509786, -1.206727249656], a = 0.2, v = 0.2, t = 0.2)
movej(p[0.476226893492035, -0.0181249861239234, 0.225799470413702, -1.23088308315679, 1.15725429480602, -1.20476679458136], a = 0.2, v = 0.2, t = 0.2)
movej(p[0.476145114238551, -0.018129188118849, 0.225815622263078, -1.22960101342333, 1.15293259977998, -1.20871921146669], a = 0.2, v = 0.2, t = 0.2)
movej(p[0.476208419275532, -0.017901865111161, 0.225793326631115, -1.23462294534571, 1.13636111462453, -1.20863083893251], a = 0.2, v = 0.2, t = 0.2)
movej(p[0.476489984520937, -0.0175858744168413, 0.225720433650114, -1.23956834416356, 1.13636356171111, -1.20378801919861], a = 0.2, v = 0.2, t = 0.2)
movej(p[0.476919728393497, -0.0179421355124477, 0.225422338322652, -1.24155367572434, 1.15664925598371, -1.197096162485], a = 0.2, v = 0.2, t = 0.2)
movej(p[0.477353118222913, -0.0182775142091034, 0.224926791578855, -1.2392099718044, 1.17152784990048, -1.1895920010364], a = 0.2, v = 0.2, t = 0.2)
movej(p[0.478026902288564, -0.0186290563444174, 0.224112170635794, -1.23931235497242, 1.17894785532302, -1.17804973485119], a = 0.2, v = 0.2, t = 0.2)
movej(p[0.47892455354631, -0.0190157723144638, 0.223144206928789, -1.24114731619573, 1.19704341774923, -1.16435270305321], a = 0.2, v = 0.2, t = 0.2)
movej(p[0.479690902226345, -0.0198521206208096, 0.222142746724347, -1.23909760614999, 1.22618410437407, -1.15247473000359], a = 0.2, v = 0.2, t = 0.2)
movej(p[0.480113367682957, -0.0209428040781268, 0.221061487155694, -1.22922985387014, 1.25300020749467, -1.14462534324396], a = 0.2, v = 0.2, t = 0.2)
movej(p[0.480358657331224, -0.0217775099050718, 0.220171410422531, -1.22356890234504, 1.26048348140478, -1.13977208604049], a = 0.2, v = 0.2, t = 0.2)
movej(p[0.480411978682238, -0.0222898027317192, 0.219843648353048, -1.21317444045511, 1.26614097380975, -1.13791850043819], a = 0.2, v = 0.2, t = 0.2)
movej(p[0.480164855609711, -0.0225071751500493, 0.220250892357024, -1.20935612021463, 1.26205837016925, -1.14681304502784], a = 0.2, v = 0.2, t = 0.2)
movej(p[0.47954930008318, -0.0220570548193407, 0.221292678069414, -1.20325216588256, 1.24581888387158, -1.16035049907843], a = 0.2, v = 0.2, t = 0.2)
movej(p[0.478880040904062, -0.0210865025095921, 0.222406879323197, -1.21547611981892, 1.21406936545663, -1.17349294066602], a = 0.2, v = 0.2, t = 0.2)
movej(p[0.478091794796291, -0.0202398866403455, 0.223461537024334, -1.22088249057255, 1.19936156137825, -1.18575464680493], a = 0.2, v = 0.2, t = 0.2)
movej(p[0.477384909980028, -0.0198499437142363, 0.224276724778851, -1.22099926926864, 1.19167682984213, -1.19839520793117], a = 0.2, v = 0.2, t = 0.2)
movej(p[0.476834837220871, -0.0195301862137104, 0.224747100059867, -1.2209260188267, 1.17871165304263, -1.20836866331307], a = 0.2, v = 0.2, t = 0.2)
movej(p[0.476709411597054, -0.0189593560427874, 0.225078052461283, -1.22434937486792, 1.16347486214081, -1.21121418115086], a = 0.2, v = 0.2, t = 0.2)
movej(p[0.476613982057825, -0.0186672880160866, 0.225217402766954, -1.22685388149308, 1.16300518179239, -1.20898382015629], a = 0.2, v = 0.2, t = 0.2)
movej(p[0.476516500184451, -0.0185881101754485, 0.225358303811717, -1.224916336138, 1.16791158999156, -1.20979934592059], a = 0.2, v = 0.2, t = 0.2)
movej(p[0.476347712591999, -0.0184774765776106, 0.225434047429692, -1.22241311874579, 1.16039885135603, -1.21097310819239], a = 0.2, v = 0.2, t = 0.2)
movej(p[0.476546898233619, -0.0180411525065587, 0.225481429812421, -1.22867320150974, 1.14739167640574, -1.20584375450682], a = 0.2, v = 0.2, t = 0.2)
movej(p[0.47690410471293, -0.0180188466302655, 0.225294852248869, -1.23339454467929, 1.15734029561735, -1.19823425935144], a = 0.2, v = 0.2, t = 0.2)
movej(p[0.477439638989786, -0.0182996325000721, 0.224850454362477, -1.23626707898127, 1.17306400481179, -1.18746539120605], a = 0.2, v = 0.2, t = 0.2)
movej(p[0.478052217708568, -0.0187159190293984, 0.224093663243543, -1.23606155957525, 1.1877684123342, -1.17782714253064], a = 0.2, v = 0.2, t = 0.2)
movej(p[0.478968333355273, -0.0190018441650368, 0.223211438431677, -1.24172388906107, 1.1908743394023, -1.16394551890298], a = 0.2, v = 0.2, t = 0.2)
movej(p[0.479694508708583, -0.0197976936928704, 0.222286779091546, -1.24188391527351, 1.21490523634413, -1.15510212036245], a = 0.2, v = 0.2, t = 0.2)
movej(p[0.480186298842191, -0.0207680189275349, 0.221287566410702, -1.23765887638115, 1.23939372707956, -1.1453016763302], a = 0.2, v = 0.2, t = 0.2)
movej(p[0.480414733987606, -0.021731222217094, 0.220319206298491, -1.2260725853038, 1.25866936529503, -1.13805764279151], a = 0.2, v = 0.2, t = 0.2)
movej(p[0.48056851913187, -0.0221564717507349, 0.219890930877714, -1.22376132885017, 1.25911456619892, -1.13630186960361], a = 0.2, v = 0.2, t = 0.2)
movej(p[0.480408319366612, -0.0223671217556983, 0.220210340959928, -1.2213168983174, 1.25417823456505, -1.14575354201634], a = 0.2, v = 0.2, t = 0.2)
movej(p[0.47972979682792, -0.021903987518722, 0.221380915956512, -1.22508296120959, 1.23402190966033, -1.16656054969538], a = 0.2, v = 0.2, t = 0.2)
movej(p[0.478856947831465, -0.0210408788615033, 0.222626395894813, -1.22882568242348, 1.20487528684406, -1.18351271152998], a = 0.2, v = 0.2, t = 0.2)
movej(p[0.477982567456012, -0.0201495659161298, 0.223745726083435, -1.22764373635285, 1.18898205159836, -1.19529053330802], a = 0.2, v = 0.2, t = 0.2)
movej(p[0.4772527614149, -0.0197425888250122, 0.224473472143241, -1.22242505339867, 1.18081860362165, -1.20169766721015], a = 0.2, v = 0.2, t = 0.2)
movej(p[0.476660344037614, -0.019530662211134, 0.224935870300698, -1.21732108300292, 1.17968470133351, -1.21002813354896], a = 0.2, v = 0.2, t = 0.2)
movej(p[0.476466328501592, -0.0190466080058811, 0.225177655706394, -1.22335917745718, 1.16174670640743, -1.20980602171446], a = 0.2, v = 0.2, t = 0.2)
movej(p[0.476419823554512, -0.0186286222021026, 0.22534533625913, -1.22746650692123, 1.16261614936744, -1.20955856486086], a = 0.2, v = 0.2, t = 0.2)
movej(p[0.476432072688322, -0.0185377041268406, 0.225413650926015, -1.22955372843448, 1.16255073901185, -1.20775459585073], a = 0.2, v = 0.2, t = 0.2)
movej(p[0.47632931368949, -0.0184932047597024, 0.225458245505556, -1.22452668283794, 1.16232375344551, -1.21092850135586], a = 0.2, v = 0.2, t = 0.2)
movej(p[0.476447541255509, -0.0181857874471105, 0.22546292831593, -1.2261990896154, 1.14506657569073, -1.20686831596243], a = 0.2, v = 0.2, t = 0.2)
movej(p[0.476764400288749, -0.0180167145411404, 0.225307337154159, -1.226735514738, 1.15930050760496, -1.19767318377982], a = 0.2, v = 0.2, t = 0.2)
movej(p[0.477338102230494, -0.0182813807734356, 0.224886435845037, -1.22982511823609, 1.17795516827705, -1.18332354745772], a = 0.2, v = 0.2, t = 0.2)
movej(p[0.478019180634353, -0.0187730990528788, 0.224002377447046, -1.23380814713632, 1.19852536682451, -1.17081735512458], a = 0.2, v = 0.2, t = 0.2)
movej(p[0.47900718863545, -0.0193220725583898, 0.222913661244349, -1.23939152128189, 1.21136129186978, -1.15710172683517], a = 0.2, v = 0.2, t = 0.2)
movej(p[0.479885092461885, -0.0201234889937608, 0.221799679692146, -1.23289181457003, 1.23943605299257, -1.14316879684121], a = 0.2, v = 0.2, t = 0.2)
movej(p[0.480454843539533, -0.0211422984953291, 0.220720094661434, -1.22014227476381, 1.26972873516695, -1.13183540851274], a = 0.2, v = 0.2, t = 0.2)
movej(p[0.480682483217897, -0.0220934011356897, 0.21972057034175, -1.21030165123064, 1.28726246879316, -1.1251033967164], a = 0.2, v = 0.2, t = 0.2)
movej(p[0.480692825368257, -0.0228945148996661, 0.218930777895158, -1.20651060765179, 1.29379308445925, -1.12489362406257], a = 0.2, v = 0.2, t = 0.2)
movej(p[0.480514898875058, -0.0234700787371025, 0.218808705613074, -1.20245557549721, 1.29322370352663, -1.12546955443259], a = 0.2, v = 0.2, t = 0.2)
movej(p[0.48007276563959, -0.023491910783693, 0.219396699885015, -1.19594681721664, 1.28603120874055, -1.13362219038637], a = 0.2, v = 0.2, t = 0.2)
movej(p[0.479552024886428, -0.0227611382519775, 0.220490871642504, -1.198546042304, 1.26344309119425, -1.14697285550613], a = 0.2, v = 0.2, t = 0.2)
movej(p[0.478994972341041, -0.0216239148659196, 0.221704182832381, -1.2041409331403, 1.24118529987167, -1.16036717299982], a = 0.2, v = 0.2, t = 0.2)
movej(p[0.478347450544463, -0.0210549424400955, 0.222608084470398, -1.20246606149086, 1.24130680989936, -1.17143043209349], a = 0.2, v = 0.2, t = 0.2)
movej(p[0.47794318922982, -0.0209888530747237, 0.222878812146979, -1.1980276277467, 1.24355058886293, -1.169144052989], a = 0.2, v = 0.2, t = 0.2)
movej(p[0.477948186179494, -0.0210731476273544, 0.222656951238977, -1.20000535541021, 1.24284684764564, -1.16370838810779], a = 0.2, v = 0.2, t = 0.2)
movej(p[0.478385836636926, -0.0212502024375889, 0.222266266551932, -1.20227351203453, 1.24186211213001, -1.15900430834155], a = 0.2, v = 0.2, t = 0.2)
movej(p[0.47868985458735, -0.0215560519109156, 0.222001332066473, -1.20145108384007, 1.24493688323737, -1.16129727650883], a = 0.2, v = 0.2, t = 0.2)
movej(p[0.478686650243788, -0.0219318802753763, 0.222009046309735, -1.18983586529003, 1.2517755703342, -1.1716120443603], a = 0.2, v = 0.2, t = 0.2)
movej(p[0.478446121264383, -0.0218905133263135, 0.222238579922069, -1.18791369383961, 1.23853287100404, -1.17529711392918], a = 0.2, v = 0.2, t = 0.2)
movej(p[0.478188187238948, -0.0215264431708245, 0.222533124205336, -1.19068147055234, 1.23246262765191, -1.1774201201284], a = 0.2, v = 0.2, t = 0.2)
movej(p[0.477995692684712, -0.0213302095379735, 0.222707976676945, -1.19554889159972, 1.23020645516714, -1.17456309745528], a = 0.2, v = 0.2, t = 0.2)
movej(p[0.477717401587101, -0.0209917686921958, 0.222998104661289, -1.20279343663762, 1.21749535117908, -1.1833741328012], a = 0.2, v = 0.2, t = 0.2)
movej(p[0.477448286122198, -0.0203804756760214, 0.223519662542091, -1.21114082553978, 1.19725015739966, -1.19089972843538], a = 0.2, v = 0.2, t = 0.2)
movej(p[0.477047140379857, -0.0198124584323655, 0.224236428192852, -1.21288785707028, 1.18995882338078, -1.20052029584155], a = 0.2, v = 0.2, t = 0.2)
movej(p[0.476640069602031, -0.0195169985639737, 0.224820331541798, -1.21263733488791, 1.19040037300666, -1.20663622300441], a = 0.2, v = 0.2, t = 0.2)
movej(p[0.476264815020609, -0.0193009894635563, 0.225136827772657, -1.21164456866948, 1.18158932257021, -1.21156907003039], a = 0.2, v = 0.2, t = 0.2)
movej(p[0.476195711389708, -0.0188647295641855, 0.225307292462567, -1.21765676262554, 1.16685015544349, -1.21198365616965], a = 0.2, v = 0.2, t = 0.2)
movej(p[0.47617499398518, -0.0186681712912102, 0.225385700616317, -1.21847680573176, 1.16746526483753, -1.21086023075434], a = 0.2, v = 0.2, t = 0.2)
movej(p[0.476222033561378, -0.0186286569979955, 0.225451818852099, -1.21596518290498, 1.17565234178492, -1.21042290326977], a = 0.2, v = 0.2, t = 0.2)
movej(p[0.476329288351213, -0.0186801628460009, 0.225310389008149, -1.21829693051987, 1.17032083277099, -1.20726051004552], a = 0.2, v = 0.2, t = 0.2)
movej(p[0.477061320390158, -0.0186297721106148, 0.224824703470721, -1.22330282250464, 1.17739683477048, -1.19409614557443], a = 0.2, v = 0.2, t = 0.2)
movej(p[0.477978225303167, -0.0191617580851017, 0.223931768400041, -1.22937976195183, 1.19973161168794, -1.17718353578387], a = 0.2, v = 0.2, t = 0.2)
movej(p[0.47895661727818, -0.0199824604846955, 0.22271581717794, -1.22605987458593, 1.23442118192923, -1.15935447827665], a = 0.2, v = 0.2, t = 0.2)
movej(p[0.479675558212289, -0.0208717052632091, 0.221444013084241, -1.2247166592688, 1.25054676737562, -1.14399971093335], a = 0.2, v = 0.2, t = 0.2)
movej(p[0.480277089875037, -0.021649018995441, 0.220344466795813, -1.21698558759983, 1.26900877205929, -1.12966375390811], a = 0.2, v = 0.2, t = 0.2)
movej(p[0.480531544263063, -0.0227370402840216, 0.219527407663553, -1.20459237262583, 1.28996729940215, -1.12150053852655], a = 0.2, v = 0.2, t = 0.2)
movej(p[0.480467987518937, -0.0236407263043703, 0.219049872987427, -1.19084984232599, 1.30538641704487, -1.11814827855499], a = 0.2, v = 0.2, t = 0.2)
movej(p[0.480290867421619, -0.0240862324118342, 0.21889993717003, -1.18479895445486, 1.30707757805574, -1.11866524149495], a = 0.2, v = 0.2, t = 0.2)
movej(p[0.480063599852741, -0.0240427637671425, 0.219148391127666, -1.17866162012383, 1.30891086265907, -1.12129549549501], a = 0.2, v = 0.2, t = 0.2)
movej(p[0.479730993129508, -0.0239882577133848, 0.219682648563519, -1.17842331150053, 1.30409159089142, -1.13045563575544], a = 0.2, v = 0.2, t = 0.2)
movej(p[0.479204455282359, -0.0237094467459133, 0.220567414379957, -1.18166357328262, 1.28410035155099, -1.14672224618992], a = 0.2, v = 0.2, t = 0.2)
movej(p[0.478536157825569, -0.0228516508535912, 0.221785396012152, -1.19576188345535, 1.24945080566002, -1.16238644501468], a = 0.2, v = 0.2, t = 0.2)
movej(p[0.477572600866131, -0.0218594355257931, 0.223136306885156, -1.19898475671256, 1.22780855591173, -1.17949261228102], a = 0.2, v = 0.2, t = 0.2)
movej(p[0.476566958336823, -0.0210259107141739, 0.224336859029964, -1.20157813015031, 1.20732359829815, -1.19518698441701], a = 0.2, v = 0.2, t = 0.2)
movej(p[0.475803715784654, -0.0203030673822883, 0.225182464325778, -1.20333653834636, 1.191640272705, -1.20593359959929], a = 0.2, v = 0.2, t = 0.2)
movej(p[0.47547985061853, -0.0196503020806173, 0.225728943429501, -1.20832835147721, 1.17859136744557, -1.21002439509366], a = 0.2, v = 0.2, t = 0.2)
movej(p[0.475340825186534, -0.0191654064227198, 0.226065976720453, -1.20993024690819, 1.17540861864195, -1.20995497019535], a = 0.2, v = 0.2, t = 0.2)
movej(p[0.47521450050527, -0.018892528564472, 0.226250111111271, -1.20784375655658, 1.17313106670697, -1.21246410095488], a = 0.2, v = 0.2, t = 0.2)
movej(p[0.475178623764658, -0.0185443937795066, 0.226374349796792, -1.2133180879929, 1.15439972786889, -1.21464005058028], a = 0.2, v = 0.2, t = 0.2)
movej(p[0.475353594241049, -0.0180541188124541, 0.226497351300739, -1.21994584681898, 1.15028518776467, -1.21390165072486], a = 0.2, v = 0.2, t = 0.2)
movej(p[0.47572560178832, -0.0182317677862426, 0.226308320409653, -1.2221506093785, 1.16457993928153, -1.20678723801946], a = 0.2, v = 0.2, t = 0.2)
movej(p[0.476301541495407, -0.0185608854479441, 0.225780802147441, -1.22444817024437, 1.18161609759015, -1.19709176188942], a = 0.2, v = 0.2, t = 0.2)
movej(p[0.477213485814499, -0.0190208030912638, 0.224820126014228, -1.22769856813194, 1.19733927867429, -1.18086071752906], a = 0.2, v = 0.2, t = 0.2)
movej(p[0.478316666343894, -0.0195428165043922, 0.223743799591354, -1.22881081691092, 1.21951544689564, -1.16460902439494], a = 0.2, v = 0.2, t = 0.2)
movej(p[0.479292825416397, -0.020455800855664, 0.222395412922182, -1.22164595911998, 1.25412721242139, -1.14455844297369], a = 0.2, v = 0.2, t = 0.2)
movej(p[0.480066222091055, -0.0217519688898982, 0.220856711611609, -1.21255179157535, 1.28431258027971, -1.1306000241251], a = 0.2, v = 0.2, t = 0.2)
movej(p[0.480536526686555, -0.0227771712134443, 0.219661126525198, -1.20516926989752, 1.29515337684495, -1.12029993460927], a = 0.2, v = 0.2, t = 0.2)
movej(p[0.48070828424659, -0.0234840664670411, 0.219185132101898, -1.2011498132897, 1.30000422458895, -1.12200883011994], a = 0.2, v = 0.2, t = 0.2)
movej(p[0.480329195225405, -0.0238621990886035, 0.219610891922134, -1.18680366006787, 1.30402382357843, -1.13197426228015], a = 0.2, v = 0.2, t = 0.2)
movej(p[0.479718313668481, -0.0237665065236325, 0.22035119587756, -1.18149075293935, 1.29538790168994, -1.14682491186996], a = 0.2, v = 0.2, t = 0.2)
movej(p[0.4792495413193, -0.0232438361765, 0.221139547482411, -1.18602530397552, 1.27129613218966, -1.15786275429168], a = 0.2, v = 0.2, t = 0.2)
movej(p[0.478521276237139, -0.0225076724623962, 0.222164008709663, -1.19034159298668, 1.25511510317876, -1.17206131676746], a = 0.2, v = 0.2, t = 0.2)
movej(p[0.477613063065788, -0.0217446396688283, 0.223324416866876, -1.19390442120798, 1.23433823334646, -1.19003192762495], a = 0.2, v = 0.2, t = 0.2)
movej(p[0.476500725595706, -0.0208179668733923, 0.224494454533726, -1.19725924222785, 1.20941205900583, -1.2081274801506], a = 0.2, v = 0.2, t = 0.2)
movej(p[0.475885706264398, -0.019789337976536, 0.225344420626973, -1.20965846047083, 1.17953315450782, -1.21398451274173], a = 0.2, v = 0.2, t = 0.2)
movej(p[0.475516694840765, -0.0190873483580087, 0.225854572651774, -1.21440556388807, 1.17454807963059, -1.21228026238447], a = 0.2, v = 0.2, t = 0.2)
movej(p[0.475402884288057, -0.0188529653601186, 0.226105043965286, -1.21677308967903, 1.16978022185152, -1.21178341496177], a = 0.2, v = 0.2, t = 0.2)
movej(p[0.475179878461182, -0.0186543307021075, 0.226270213161617, -1.21456544581324, 1.16296714911818, -1.21646368867754], a = 0.2, v = 0.2, t = 0.2)
movej(p[0.475228025651341, -0.0180938398220652, 0.226408961428162, -1.22498337239312, 1.13892825984507, -1.2188489745988], a = 0.2, v = 0.2, t = 0.2)
movej(p[0.475239104270081, -0.0178160541054124, 0.226430567210501, -1.22932895127583, 1.14487090109962, -1.21739063724413], a = 0.2, v = 0.2, t = 0.2)
movej(p[0.475311484953557, -0.0178162905310156, 0.226421636344786, -1.22998354921379, 1.14988073789145, -1.21697468397593], a = 0.2, v = 0.2, t = 0.2)
movej(p[0.47538239180679, -0.0178206853103992, 0.226302621582345, -1.22876533968552, 1.15244430525121, -1.21527082537902], a = 0.2, v = 0.2, t = 0.2)
movej(p[0.475846885367083, -0.0177339301929533, 0.226082953094519, -1.23117810078028, 1.1468826017468, -1.20924957383932], a = 0.2, v = 0.2, t = 0.2)
movej(p[0.476530518073115, -0.0179447165970973, 0.225538439612528, -1.23577844173984, 1.16323930961867, -1.19590063497942], a = 0.2, v = 0.2, t = 0.2)
movej(p[0.477377725696353, -0.0184292054145893, 0.22466756020724, -1.23618740953618, 1.18678835203182, -1.18371055496551], a = 0.2, v = 0.2, t = 0.2)
movej(p[0.478233103771682, -0.0191236655815583, 0.223513458864576, -1.23823584691641, 1.20676076053592, -1.1716458530095], a = 0.2, v = 0.2, t = 0.2)
movej(p[0.479314094165079, -0.0198642847206017, 0.222131533801388, -1.23884300808094, 1.22514529384453, -1.15188434956384], a = 0.2, v = 0.2, t = 0.2)
movej(p[0.480135799301106, -0.021091266797083, 0.220923996144393, -1.23518720236547, 1.25461199461567, -1.14021411376592], a = 0.2, v = 0.2, t = 0.2)
movej(p[0.480434299760102, -0.0223262048700753, 0.220050689565869, -1.22368337998576, 1.28113579658825, -1.12953902101293], a = 0.2, v = 0.2, t = 0.2)
movej(p[0.480415916965194, -0.0230971256641664, 0.219647982150877, -1.21275167505555, 1.28946350762874, -1.13208193221625], a = 0.2, v = 0.2, t = 0.2)
movej(p[0.48021976450559, -0.0232178794470082, 0.219791146345146, -1.20771366080608, 1.28558612031085, -1.13506930383845], a = 0.2, v = 0.2, t = 0.2)
movej(p[0.479658724553105, -0.0229946935110479, 0.220614215479365, -1.20548072709416, 1.2723653280917, -1.15382205155241], a = 0.2, v = 0.2, t = 0.2)
movej(p[0.478630349582491, -0.022315864369409, 0.222005878792195, -1.20632681303279, 1.24919301657519, -1.1775053393692], a = 0.2, v = 0.2, t = 0.2)
movej(p[0.477415589669356, -0.0212347246403748, 0.223542954653903, -1.21055029451061, 1.21822945310028, -1.19652202057431], a = 0.2, v = 0.2, t = 0.2)
movej(p[0.476404090673099, -0.0202689515556337, 0.224680776042681, -1.21082280990281, 1.19956700985381, -1.20673667864481], a = 0.2, v = 0.2, t = 0.2)
movej(p[0.475680843169059, -0.0195556833308688, 0.22548359248773, -1.21278899105442, 1.18429476946001, -1.21575411306446], a = 0.2, v = 0.2, t = 0.2)
movej(p[0.475207288247656, -0.0191019440418944, 0.225891559425797, -1.21372294791909, 1.16841733545926, -1.22461920726076], a = 0.2, v = 0.2, t = 0.2)
movej(p[0.475115033459658, -0.0184305422952875, 0.226155416581745, -1.22439769062899, 1.14653726967868, -1.22621487446204], a = 0.2, v = 0.2, t = 0.2)
movej(p[0.475133297688687, -0.0179265983988366, 0.226308884810274, -1.23087216325879, 1.14753094934962, -1.22475937412153], a = 0.2, v = 0.2, t = 0.2)
movej(p[0.475162542362242, -0.0179375987636354, 0.226363109814128, -1.22805776495009, 1.15317874360842, -1.22322559091157], a = 0.2, v = 0.2, t = 0.2)
movej(p[0.475134991561179, -0.017899898452185, 0.226427154094726, -1.22413454060802, 1.1541253469808, -1.22450866323463], a = 0.2, v = 0.2, t = 0.2)
movej(p[0.475394372986563, -0.0177350512805927, 0.226295611456072, -1.22673236010918, 1.14460474598004, -1.21968475823101], a = 0.2, v = 0.2, t = 0.2)
movej(p[0.47599412453098, -0.0176954300261474, 0.225904305317397, -1.23153973478283, 1.15502005275698, -1.20952112437105], a = 0.2, v = 0.2, t = 0.2)
movej(p[0.476866257134936, -0.018086234078072, 0.22514091648396, -1.23600400212243, 1.17531326553386, -1.19636561087211], a = 0.2, v = 0.2, t = 0.2)
movej(p[0.477763489306743, -0.0188768887197946, 0.224009814518133, -1.23573962626858, 1.19833785895613, -1.18385354904715], a = 0.2, v = 0.2, t = 0.2)
movej(p[0.478816424006489, -0.019646542257309, 0.222704673970046, -1.23821971979669, 1.2151842060436, -1.16642762243581], a = 0.2, v = 0.2, t = 0.2)
movej(p[0.479642872954709, -0.0207305152110064, 0.221467815678551, -1.2285303429388, 1.24550458492468, -1.15539406022143], a = 0.2, v = 0.2, t = 0.2)
movej(p[0.480063556578169, -0.0219331848820168, 0.220467025812353, -1.21973252949836, 1.2729782207738, -1.1442016970031], a = 0.2, v = 0.2, t = 0.2)
movej(p[0.480116072014988, -0.0229482213268748, 0.219748126168032, -1.20349625559245, 1.29080132425174, -1.13874772004432], a = 0.2, v = 0.2, t = 0.2)
movej(p[0.480038294604602, -0.0232221874294233, 0.219558843339735, -1.20366846955826, 1.283528273612, -1.13692624307196], a = 0.2, v = 0.2, t = 0.2)
movej(p[0.479804922958659, -0.0231206034062439, 0.220002789069644, -1.19828423372098, 1.27793936135511, -1.14385777479503], a = 0.2, v = 0.2, t = 0.2)
movej(p[0.479254867449075, -0.0225282624093016, 0.221076100212658, -1.20476449689731, 1.26077919331617, -1.16224601903754], a = 0.2, v = 0.2, t = 0.2)
movej(p[0.478459582898667, -0.0217110291266859, 0.222371095589394, -1.20694476190167, 1.23762524310623, -1.17818917124997], a = 0.2, v = 0.2, t = 0.2)
movej(p[0.477709144161172, -0.0206508119034428, 0.223491449997965, -1.21689487099044, 1.21363329324524, -1.18764557166367], a = 0.2, v = 0.2, t = 0.2)
movej(p[0.476824020916159, -0.019992967135394, 0.224413855829792, -1.21814002632597, 1.19950074484129, -1.19790836977419], a = 0.2, v = 0.2, t = 0.2)
movej(p[0.476094597606906, -0.0195821108278743, 0.225084845849506, -1.21576154660451, 1.19483592653842, -1.20750177836085], a = 0.2, v = 0.2, t = 0.2)
movej(p[0.475593278960096, -0.0192362240792357, 0.225527286500531, -1.21066365838725, 1.18037064662604, -1.21688433791457], a = 0.2, v = 0.2, t = 0.2)
movej(p[0.475464426910279, -0.0185629970328464, 0.22589469097855, -1.21571279582897, 1.16590218638057, -1.21850902391515], a = 0.2, v = 0.2, t = 0.2)
movej(p[0.475361193312859, -0.0182579846365793, 0.226097404979514, -1.21959993534074, 1.16128310069744, -1.21979756033552], a = 0.2, v = 0.2, t = 0.2)
movej(p[0.475259357693944, -0.0181267373881392, 0.22622989955826, -1.22385858773121, 1.15968929137084, -1.22161242806608], a = 0.2, v = 0.2, t = 0.2)
movej(p[0.475123388017893, -0.0180013440977848, 0.226314644056187, -1.22414134631658, 1.1501446925906, -1.22536237255571], a = 0.2, v = 0.2, t = 0.2)
movej(p[0.475250544372334, -0.0174793017532084, 0.226406471622823, -1.23144302562501, 1.13850883787863, -1.22073563441015], a = 0.2, v = 0.2, t = 0.2)
movej(p[0.475327466116949, -0.0173861270844591, 0.226382173460156, -1.23392650923944, 1.14400383141431, -1.21681506876203], a = 0.2, v = 0.2, t = 0.2)
movej(p[0.475492017209206, -0.017508704092467, 0.226295780902347, -1.23485511167704, 1.15445198459997, -1.21322627477266], a = 0.2, v = 0.2, t = 0.2)
movej(p[0.475748113356593, -0.0177269953602739, 0.225980016668316, -1.23506328192839, 1.15499503971703, -1.21214500298717], a = 0.2, v = 0.2, t = 0.2)
movej(p[0.476447008999005, -0.0177705591645711, 0.22540810320688, -1.23933477164637, 1.15354166083094, -1.20358980297802], a = 0.2, v = 0.2, t = 0.2)
movej(p[0.477585462219451, -0.0180035792565957, 0.224445652896179, -1.24869478011096, 1.1675767570757, -1.18336750435866], a = 0.2, v = 0.2, t = 0.2)
movej(p[0.478665341875701, -0.0187761693468078, 0.223460584974346, -1.24881700590789, 1.20208967856324, -1.16609133364674], a = 0.2, v = 0.2, t = 0.2)
movej(p[0.47943376045253, -0.0198258543680502, 0.222532021488653, -1.24424087311426, 1.23340474421031, -1.15421640220716], a = 0.2, v = 0.2, t = 0.2)
movej(p[0.479814309129587, -0.0208600977144632, 0.221564077805792, -1.22993416644611, 1.26040083600181, -1.14302441524963], a = 0.2, v = 0.2, t = 0.2)
movej(p[0.480140949528155, -0.0218790797357425, 0.22048822921866, -1.21864151881509, 1.27571466827482, -1.13408247359186], a = 0.2, v = 0.2, t = 0.2)
movej(p[0.480587278895874, -0.0226573971670521, 0.219388127677105, -1.21071152034293, 1.28577373396871, -1.12043116781073], a = 0.2, v = 0.2, t = 0.2)
movej(p[0.480755634910819, -0.0233385506400867, 0.218898893532339, -1.20647651509277, 1.29390810742574, -1.11999961880665], a = 0.2, v = 0.2, t = 0.2)
movej(p[0.480531961873037, -0.0237799646810776, 0.219075833851616, -1.19896401329218, 1.29739804237989, -1.12606560780302], a = 0.2, v = 0.2, t = 0.2)
movej(p[0.479875666541304, -0.0233248544114588, 0.220225801159861, -1.20062312198558, 1.2772527944308, -1.1459598554304], a = 0.2, v = 0.2, t = 0.2)
movej(p[0.479081384380038, -0.0223698460769089, 0.221674596862932, -1.20474316287454, 1.2507824081954, -1.16533479092173], a = 0.2, v = 0.2, t = 0.2)
movej(p[0.47818347078206, -0.0211046735051785, 0.223142566408682, -1.21284895169883, 1.21895665110455, -1.18054074866859], a = 0.2, v = 0.2, t = 0.2)
movej(p[0.477132416403948, -0.0202574051823585, 0.224286441945819, -1.2145167627337, 1.20667137477269, -1.19041838381794], a = 0.2, v = 0.2, t = 0.2)
movej(p[0.47624300213259, -0.0199713586484241, 0.225016277734308, -1.21349104426483, 1.19529213684488, -1.20148101984332], a = 0.2, v = 0.2, t = 0.2)
movej(p[0.475563859188308, -0.0195557967267911, 0.225557652601077, -1.21662448362801, 1.18003343010841, -1.21184402817011], a = 0.2, v = 0.2, t = 0.2)
movej(p[0.475310051972095, -0.0190095051826053, 0.225912755747007, -1.22072729093032, 1.16378395720874, -1.2196990034203], a = 0.2, v = 0.2, t = 0.2)
movej(p[0.475213575348756, -0.0185320203619811, 0.226152164186755, -1.22435896450083, 1.16082305488213, -1.21988951017475], a = 0.2, v = 0.2, t = 0.2)
movej(p[0.475158782319956, -0.0182319207978753, 0.226357805830442, -1.22308030278348, 1.15787603298182, -1.21979652105677], a = 0.2, v = 0.2, t = 0.2)
movej(p[0.475086804112145, -0.0180033388234933, 0.226433871187787, -1.22757428761672, 1.14726303126883, -1.21856609768494], a = 0.2, v = 0.2, t = 0.2)
movej(p[0.475187192607394, -0.0176475788598957, 0.226496286316743, -1.23312539977085, 1.14252614490673, -1.21720160683329], a = 0.2, v = 0.2, t = 0.2)
movej(p[0.475359919071125, -0.0176115444941598, 0.226337500641026, -1.23676811508504, 1.1486954549504, -1.21216519229712], a = 0.2, v = 0.2, t = 0.2)
movej(p[0.475704800509323, -0.0177868262686485, 0.225990962177188, -1.2350187022729, 1.1657818226434, -1.20760754472856], a = 0.2, v = 0.2, t = 0.2)
movej(p[0.476318891750593, -0.0179821437570637, 0.225345666541946, -1.24045193640188, 1.16757514706678, -1.19805156680839], a = 0.2, v = 0.2, t = 0.2)
movej(p[0.477302016848598, -0.0180412003539354, 0.22458904935526, -1.24659934439024, 1.17890875087722, -1.1823349693343], a = 0.2, v = 0.2, t = 0.2)
movej(p[0.478163788442358, -0.0187226544076366, 0.223713550752244, -1.24810041456136, 1.20691439016017, -1.1669182383607], a = 0.2, v = 0.2, t = 0.2)
movej(p[0.478785261340857, -0.0196483338075689, 0.222729411161042, -1.23866162704396, 1.2378249600212, -1.1576478723498], a = 0.2, v = 0.2, t = 0.2)
movej(p[0.479268992793859, -0.0207187201116089, 0.221471587290065, -1.22864002862998, 1.25685051034369, -1.15045837898384], a = 0.2, v = 0.2, t = 0.2)
movej(p[0.479767424378306, -0.021687892766312, 0.220327481853052, -1.21894638302035, 1.26805444604802, -1.14635229732518], a = 0.2, v = 0.2, t = 0.2)
movej(p[0.480039395060818, -0.0226389332880339, 0.21952896332052, -1.21171742992483, 1.28047281344552, -1.13974705800991], a = 0.2, v = 0.2, t = 0.2)
movej(p[0.480040149918746, -0.0233332269495051, 0.219239110337388, -1.20423563822811, 1.28649906651045, -1.13973750322891], a = 0.2, v = 0.2, t = 0.2)
movej(p[0.479953058460344, -0.0232683692853679, 0.219479380292389, -1.20643277753669, 1.27832738910377, -1.13912469147407], a = 0.2, v = 0.2, t = 0.2)
movej(p[0.479509430103216, -0.02270869210767, 0.220419003454894, -1.20720269408741, 1.26125655302187, -1.15622618177774], a = 0.2, v = 0.2, t = 0.2)
movej(p[0.47853055942643, -0.0219102323758842, 0.221900571477243, -1.21056285321414, 1.23959536350609, -1.17909964806191], a = 0.2, v = 0.2, t = 0.2)
movej(p[0.477182245969484, -0.0209942475054159, 0.223522982991684, -1.20748166922708, 1.2115194053277, -1.20634781177744], a = 0.2, v = 0.2, t = 0.2)
movej(p[0.476238952365598, -0.0199819116571771, 0.224631784224847, -1.21812641419803, 1.17782943022691, -1.21223343975417], a = 0.2, v = 0.2, t = 0.2)
movej(p[0.475695235567979, -0.0193833682253324, 0.225278021640436, -1.22213344079368, 1.16444000997877, -1.21638730953837], a = 0.2, v = 0.2, t = 0.2)
movej(p[0.475412017632306, -0.0190566968431351, 0.225673450020761, -1.22735815418615, 1.15969472996163, -1.21889178656148], a = 0.2, v = 0.2, t = 0.2)
movej(p[0.475134131230926, -0.0187746934641919, 0.225940967145806, -1.22327710716095, 1.15409657029146, -1.22426726133765], a = 0.2, v = 0.2, t = 0.2)
movej(p[0.47512757989631, -0.0181935059073794, 0.226187834288863, -1.22755265936656, 1.14517834190162, -1.22220134166456], a = 0.2, v = 0.2, t = 0.2)
movej(p[0.475125985210236, -0.0179465668537777, 0.226291769657158, -1.22976635402476, 1.14540021646604, -1.21827481255713], a = 0.2, v = 0.2, t = 0.2)
movej(p[0.475125121137207, -0.0178584359477034, 0.226375418367682, -1.22973488504202, 1.15103728258879, -1.21944739560866], a = 0.2, v = 0.2, t = 0.2)
movej(p[0.475130368824274, -0.0178070958507441, 0.22632706729505, -1.22768383644606, 1.14635043353229, -1.22080532347526], a = 0.2, v = 0.2, t = 0.2)
movej(p[0.475573461738916, -0.0175132502982614, 0.226113390383149, -1.23141742808663, 1.14336154366057, -1.21169808354061], a = 0.2, v = 0.2, t = 0.2)
movej(p[0.476198699406802, -0.0177111232795295, 0.225619646085014, -1.23402922593455, 1.15923529623529, -1.20086638001079], a = 0.2, v = 0.2, t = 0.2)
movej(p[0.476899874992449, -0.018069316731795, 0.22498537559528, -1.23410824848504, 1.1801956505479, -1.19075311227674], a = 0.2, v = 0.2, t = 0.2)
movej(p[0.477690182861001, -0.018561699077653, 0.224066833677189, -1.23655382941903, 1.19441902988416, -1.18025524831405], a = 0.2, v = 0.2, t = 0.2)
movej(p[0.478725560634849, -0.0190075747213338, 0.223021401022354, -1.24164159266322, 1.20497403922252, -1.1651086962535], a = 0.2, v = 0.2, t = 0.2)
movej(p[0.479515676033308, -0.0200674429642956, 0.221911537123185, -1.23876874375999, 1.23146589691186, -1.15017559397486], a = 0.2, v = 0.2, t = 0.2)
movej(p[0.479984690427459, -0.0213296794917503, 0.220830762776507, -1.22904841161446, 1.25811345027752, -1.13955390432794], a = 0.2, v = 0.2, t = 0.2)
movej(p[0.480168141102663, -0.0223607332444809, 0.219907845838561, -1.21494954834053, 1.27419440439521, -1.13179310012635], a = 0.2, v = 0.2, t = 0.2)
movej(p[0.480213103660858, -0.0228077673504419, 0.219592930903271, -1.20818381280944, 1.27308117276329, -1.13318277902508], a = 0.2, v = 0.2, t = 0.2)
movej(p[0.479984367094251, -0.0228910427431702, 0.220028232421834, -1.20929111870421, 1.26246890824503, -1.15095242013258], a = 0.2, v = 0.2, t = 0.2)
movej(p[0.479015303406616, -0.0222170027294661, 0.22145265845685, -1.21155085977953, 1.24099965242212, -1.17388124782425], a = 0.2, v = 0.2, t = 0.2)
movej(p[0.477852532716325, -0.0211195179578447, 0.223055672505862, -1.21754511255688, 1.21446813881896, -1.1950759205243], a = 0.2, v = 0.2, t = 0.2)
movej(p[0.476681030625628, -0.0201921047269948, 0.224356821075253, -1.21399575116658, 1.20155256321102, -1.20413120721505], a = 0.2, v = 0.2, t = 0.2)
movej(p[0.475937746203725, -0.0196654670350558, 0.225149793057714, -1.21264249680331, 1.18838569482717, -1.20978787876604], a = 0.2, v = 0.2, t = 0.2)
movej(p[0.475435390050346, -0.0193441054966405, 0.225606422717629, -1.20997503202262, 1.17624663935336, -1.21531469342736], a = 0.2, v = 0.2, t = 0.2)
movej(p[0.475358168470977, -0.0186913073956643, 0.22591655062792, -1.21742893830928, 1.1564974844058, -1.21512494026861], a = 0.2, v = 0.2, t = 0.2)
movej(p[0.475285147396909, -0.0182461698546942, 0.226100168038753, -1.22348558155035, 1.16040050096394, -1.21559156438176], a = 0.2, v = 0.2, t = 0.2)
movej(p[0.475304854544634, -0.0182239908645726, 0.226164901420603, -1.22580755967713, 1.16566516897415, -1.21559107235878], a = 0.2, v = 0.2, t = 0.2)
movej(p[0.475189390799938, -0.0181075156503878, 0.226237138932613, -1.22743344946576, 1.15739654357764, -1.21829004724673], a = 0.2, v = 0.2, t = 0.2)
movej(p[0.475252736161762, -0.017811369967571, 0.22633657343208, -1.22959732792552, 1.14469280238806, -1.21711348797889], a = 0.2, v = 0.2, t = 0.2)
movej(p[0.475332964613794, -0.0175936737388134, 0.226376547298159, -1.23007942371578, 1.14956866508315, -1.21516705422023], a = 0.2, v = 0.2, t = 0.2)
movej(p[0.475507949569, -0.0175590659431577, 0.226272475023123, -1.23013121997825, 1.15432514081557, -1.21338091567591], a = 0.2, v = 0.2, t = 0.2)
movej(p[0.475794993208873, -0.0177489032705704, 0.225865665731649, -1.23071943073506, 1.15288004209038, -1.21204833483613], a = 0.2, v = 0.2, t = 0.2)
movej(p[0.476592632672719, -0.0177630869230735, 0.225184089605148, -1.23920166284164, 1.14815662623449, -1.201260598399], a = 0.2, v = 0.2, t = 0.2)
movej(p[0.477572547902615, -0.0181109949338305, 0.224416681655183, -1.24483006437547, 1.16754834145728, -1.18849855422049], a = 0.2, v = 0.2, t = 0.2)
movej(p[0.478409029762395, -0.0189185594216177, 0.223604820119745, -1.23868300397777, 1.20118781539479, -1.17681907414127], a = 0.2, v = 0.2, t = 0.2)
movej(p[0.479098218884135, -0.0197123488593642, 0.222633663632356, -1.23052625094835, 1.22549554689247, -1.16250394465667], a = 0.2, v = 0.2, t = 0.2)
movej(p[0.479738454668578, -0.0205091378671829, 0.221596207767542, -1.22498466155825, 1.24261939822583, -1.14911238838613], a = 0.2, v = 0.2, t = 0.2)
movej(p[0.480218526935107, -0.0214440367488575, 0.220558786145271, -1.21975277470025, 1.26509583269769, -1.13656393481499], a = 0.2, v = 0.2, t = 0.2)
movej(p[0.48042186310352, -0.0225230811289875, 0.219716662024714, -1.21236535811846, 1.2853073905207, -1.12712121976552], a = 0.2, v = 0.2, t = 0.2)
movej(p[0.480344381762148, -0.0232600922780202, 0.2192656432469, -1.20532715915956, 1.297370885855, -1.12231646895668], a = 0.2, v = 0.2, t = 0.2)
movej(p[0.48018901075112, -0.0235274374339351, 0.219294949842422, -1.20102915522378, 1.29279563828924, -1.13011323217836], a = 0.2, v = 0.2, t = 0.2)
movej(p[0.479766862532265, -0.0233000736586501, 0.220126620254908, -1.19915446151481, 1.27957904216644, -1.14550881019434], a = 0.2, v = 0.2, t = 0.2)
movej(p[0.478771050990949, -0.0225300437541396, 0.221593694070481, -1.1999727187689, 1.25175500563284, -1.1709763897708], a = 0.2, v = 0.2, t = 0.2)
movej(p[0.477632658151617, -0.0213604807680561, 0.223158795599917, -1.20595214746814, 1.2223444508678, -1.18706313187285], a = 0.2, v = 0.2, t = 0.2)
movej(p[0.47649977049369, -0.0204641835449811, 0.224328980858423, -1.20839681486274, 1.20503213905154, -1.20166173688207], a = 0.2, v = 0.2, t = 0.2)
movej(p[0.475808336257593, -0.01997497512429, 0.225062822674584, -1.20643119817529, 1.19459106228419, -1.2093848974958], a = 0.2, v = 0.2, t = 0.2)
movej(p[0.475249696036396, -0.0195691678788751, 0.225577401797828, -1.20541756988828, 1.17763022681979, -1.21724056927473], a = 0.2, v = 0.2, t = 0.2)
movej(p[0.475110485751915, -0.0189377142011158, 0.225905645188681, -1.21249920181017, 1.15273459910756, -1.21949814198769], a = 0.2, v = 0.2, t = 0.2)
