def moving():
set_payload_mass(0)
set_tcp(p[0,0,0,0,0,0])
movej(p[0.418, -0.0122, 0.3232, -1.214, 1.172, -1.157], a = 0.2, v = 0.2, t = 0.2)
movej(p[0.418104662038235, -0.0122963516639048, 0.32329880392004, -1.21222290345934, 1.1703126131385, -1.15523092864399], a = 0.2, v = 0.2, t = 0.2)
movej(p[0.418, -0.0122, 0.3232, -1.214, 1.172, -1.157], a = 0.2, v = 0.2, t = 0.2)
movej(p[0.418104662038235, -0.0122963516639048, 0.32329880392004, -1.21222290345934, 1.1703126131385, -1.15523092864399], a = 0.2, v = 0.2, t = 0.2)
movej(p[0.418, -0.0122, 0.3232, -1.214, 1.172, -1.157], a = 0.2, v = 0.2, t = 0.2)
movej(p[0.418104662038235, -0.0122963516639048, 0.32329880392004, -1.21222290345934, 1.1703126131385, -1.15523092864399], a = 0.2, v = 0.2, t = 0.2)
movej(p[0.418, -0.0122, 0.3232, -1.214, 1.172, -1.157], a = 0.2, v = 0.2, t = 0.2)
movej(p[0.418104662038235, -0.0122963516639048, 0.32329880392004, -1.21222290345934, 1.1703126131385, -1.15523092864399], a = 0.2, v = 0.2, t = 0.2)
movej(p[0.418, -0.0122, 0.3232, -1.214, 1.172, -1.157], a = 0.2, v = 0.2, t = 0.2)
movej(p[0.418104662038235, -0.0122963516639048, 0.32329880392004, -1.21222290345934, 1.1703126131385, -1.15523092864399], a = 0.2, v = 0.2, t = 0.2)
movej(p[0.418, -0.0122, 0.3232, -1.214, 1.172, -1.157], a = 0.2, v = 0.2, t = 0.2)
movej(p[0.417694864815556, -0.0115169135618626, 0.323627499083329, -1.21920230428019, 1.15291533337277, -1.15888649989576], a = 0.2, v = 0.2, t = 0.2)
movej(p[0.41725058625905, -0.0108011534763669, 0.32421454840727, -1.21764164279523, 1.14610122196798, -1.16081849824008], a = 0.2, v = 0.2, t = 0.2)
movej(p[0.416943097087817, -0.0102735464655739, 0.324613755814812, -1.22006837076834, 1.13663158651126, -1.16386566423595], a = 0.2, v = 0.2, t = 0.2)
movej(p[0.416756390613088, -0.00991347476156345, 0.324838793323387, -1.22050887668196, 1.12823834943583, -1.1640931379637], a = 0.2, v = 0.2, t = 0.2)
movej(p[0.41670682386332, -0.00949533525051741, 0.32495383121549, -1.22552941058394, 1.1178539609802, -1.16152925141717], a = 0.2, v = 0.2, t = 0.2)
movej(p[0.416672813990304, -0.00928231381686073, 0.32498140615593, -1.23028781154524, 1.11478913005727, -1.15840034536385], a = 0.2, v = 0.2, t = 0.2)
movej(p[0.416760858003899, -0.00919066783940894, 0.324947656245012, -1.23289051303681, 1.11714595464337, -1.15624934179091], a = 0.2, v = 0.2, t = 0.2)
movej(p[0.417105559601367, -0.00927994261440318, 0.324617791348194, -1.23431864275357, 1.11513545250551, -1.15372790685352], a = 0.2, v = 0.2, t = 0.2)
movej(p[0.417986127395971, -0.00916049583794151, 0.323951419765967, -1.24197466401012, 1.11916921262799, -1.14036567755716], a = 0.2, v = 0.2, t = 0.2)
movej(p[0.419347155629471, -0.00936366541662521, 0.32288559448361, -1.24901563714947, 1.14286569265775, -1.11663034611585], a = 0.2, v = 0.2, t = 0.2)
movej(p[0.420440700607532, -0.0102549208718476, 0.321760309248617, -1.25095759647148, 1.17624688590799, -1.10261416673048], a = 0.2, v = 0.2, t = 0.2)
movej(p[0.421219629019353, -0.0112481396190988, 0.320667331216008, -1.24375762802772, 1.20528648069432, -1.0908744340752], a = 0.2, v = 0.2, t = 0.2)
movej(p[0.42168907861174, -0.0122476562995873, 0.319579017651021, -1.23591581784778, 1.22316198251466, -1.08487413947122], a = 0.2, v = 0.2, t = 0.2)
movej(p[0.421954422752299, -0.0130685640890466, 0.31877856064507, -1.22471479710557, 1.23702509993565, -1.07913878312726], a = 0.2, v = 0.2, t = 0.2)
movej(p[0.42194117812673, -0.0137027392332956, 0.318523736536497, -1.21387401618484, 1.24769843477366, -1.07724123977238], a = 0.2, v = 0.2, t = 0.2)
movej(p[0.421608806403269, -0.0137861509697861, 0.31900964683651, -1.21013428555198, 1.23683557962467, -1.08887979680924], a = 0.2, v = 0.2, t = 0.2)
movej(p[0.420871496325646, -0.0132493936172758, 0.32016937652655, -1.21052432632934, 1.21680513197362, -1.1074917028535], a = 0.2, v = 0.2, t = 0.2)
movej(p[0.419769822662439, -0.0125024549379684, 0.321565011391962, -1.21618126374293, 1.18593050052996, -1.13018796188165], a = 0.2, v = 0.2, t = 0.2)
movej(p[0.418426744729151, -0.0117551234011417, 0.322999245084419, -1.21679108710711, 1.15844741679761, -1.15230387493663], a = 0.2, v = 0.2, t = 0.2)
movej(p[0.417439551911275, -0.0110656119204028, 0.323919615357822, -1.21858533839483, 1.13495323463623, -1.16187173908404], a = 0.2, v = 0.2, t = 0.2)
movej(p[0.417092714681733, -0.0102143515083314, 0.324443157829397, -1.22404126245066, 1.11707074732705, -1.15925195109596], a = 0.2, v = 0.2, t = 0.2)
movej(p[0.416996953814044, -0.00969616578973367, 0.324679257609492, -1.22706273220449, 1.1232956312966, -1.15402699530254], a = 0.2, v = 0.2, t = 0.2)
movej(p[0.416894788572125, -0.00974638599481491, 0.324725865296039, -1.2297471755831, 1.12282821128394, -1.15418845902298], a = 0.2, v = 0.2, t = 0.2)
movej(p[0.416681190334094, -0.00972433392100188, 0.324848961433877, -1.2282416418422, 1.11998723576574, -1.16171821463007], a = 0.2, v = 0.2, t = 0.2)
movej(p[0.416553772652763, -0.00958215998359629, 0.324922080897815, -1.22852508792744, 1.1068307200699, -1.16758382635951], a = 0.2, v = 0.2, t = 0.2)
movej(p[0.416689795748334, -0.0089702784090081, 0.325043324603427, -1.231837228873, 1.09539195903476, -1.16298524796301], a = 0.2, v = 0.2, t = 0.2)
movej(p[0.417015116887107, -0.00865341983762975, 0.324959705219836, -1.23756782722059, 1.10074674719991, -1.15436029775968], a = 0.2, v = 0.2, t = 0.2)
movej(p[0.41745277763654, -0.00893295587324424, 0.32465939093846, -1.24004048320224, 1.11292852229857, -1.14699550161823], a = 0.2, v = 0.2, t = 0.2)
movej(p[0.418138619800056, -0.00928923063236505, 0.324000395783579, -1.2391365809776, 1.13590885066305, -1.1357014516003], a = 0.2, v = 0.2, t = 0.2)
movej(p[0.419164702468017, -0.00967392487100313, 0.323046164075204, -1.24152569309774, 1.14834658372434, -1.12110301120096], a = 0.2, v = 0.2, t = 0.2)
movej(p[0.420245202173258, -0.0100614349922917, 0.322069243864044, -1.24534153674374, 1.17002114856405, -1.10677448355741], a = 0.2, v = 0.2, t = 0.2)
movej(p[0.421136654930863, -0.0108217752061041, 0.320991641808451, -1.24547709022504, 1.19608075542344, -1.09177983916803], a = 0.2, v = 0.2, t = 0.2)
movej(p[0.421685916559588, -0.0118052650583336, 0.319859644968274, -1.23852872261905, 1.22359365267944, -1.07852521535922], a = 0.2, v = 0.2, t = 0.2)
movej(p[0.421986929406098, -0.0126871003729949, 0.318892548542651, -1.23057793500762, 1.23701188258803, -1.07103838244357], a = 0.2, v = 0.2, t = 0.2)
movej(p[0.4220818498949, -0.0135435034927995, 0.318153099770122, -1.2189651358779, 1.24980390253764, -1.06815552714679], a = 0.2, v = 0.2, t = 0.2)
movej(p[0.421950400366441, -0.0142089676042561, 0.317881341333581, -1.20503608902883, 1.26098836656806, -1.07104556584567], a = 0.2, v = 0.2, t = 0.2)
movej(p[0.421747264878301, -0.0144867628348672, 0.317896265250889, -1.19593845383685, 1.26303469914351, -1.07250284488852], a = 0.2, v = 0.2, t = 0.2)
movej(p[0.421705306502734, -0.0143355462057686, 0.318059431073915, -1.19438755381066, 1.25789316814227, -1.07093959756599], a = 0.2, v = 0.2, t = 0.2)
movej(p[0.421687699986314, -0.0139276372285088, 0.318518678465689, -1.20495635466057, 1.25116737975841, -1.07408434556392], a = 0.2, v = 0.2, t = 0.2)
movej(p[0.421242268315099, -0.0136250841112363, 0.319384750204927, -1.20636418877973, 1.24295350897147, -1.08860404730754], a = 0.2, v = 0.2, t = 0.2)
movej(p[0.420266381396886, -0.0130458397382514, 0.320712424987856, -1.20912351569712, 1.21579270091949, -1.11143053574552], a = 0.2, v = 0.2, t = 0.2)
movej(p[0.419010819329067, -0.0121285026175056, 0.322223418205874, -1.21143597064865, 1.18172302741277, -1.13368183466034], a = 0.2, v = 0.2, t = 0.2)
movej(p[0.417932967336123, -0.0112819483718749, 0.323382680779696, -1.21467869607591, 1.15812557563242, -1.14542290222553], a = 0.2, v = 0.2, t = 0.2)
movej(p[0.417312611666084, -0.010752294213454, 0.324065768538639, -1.21967695592586, 1.14376421183295, -1.15337409266631], a = 0.2, v = 0.2, t = 0.2)
movej(p[0.416913773716393, -0.0104468677210731, 0.324485008417633, -1.2199330648985, 1.1355250193118, -1.15773719220032], a = 0.2, v = 0.2, t = 0.2)
movej(p[0.416796745717318, -0.0098548802346976, 0.324787297721789, -1.22836564328583, 1.11722698948138, -1.15735330620608], a = 0.2, v = 0.2, t = 0.2)
movej(p[0.416659840293743, -0.00956918711365096, 0.324919739918925, -1.23077575891235, 1.11970848209688, -1.15663396097915], a = 0.2, v = 0.2, t = 0.2)
movej(p[0.416605678735524, -0.00949584265727857, 0.325001978756044, -1.23095332346752, 1.12266421667691, -1.15864960367749], a = 0.2, v = 0.2, t = 0.2)
movej(p[0.416568802720688, -0.0094717746767189, 0.324988300238522, -1.22865889867157, 1.12173669709738, -1.16142612744937], a = 0.2, v = 0.2, t = 0.2)
movej(p[0.416931413926962, -0.009226391690321, 0.324807451453425, -1.23125351670279, 1.11142569392681, -1.15749094565426], a = 0.2, v = 0.2, t = 0.2)
movej(p[0.417807814918888, -0.00899727974838946, 0.32423440782036, -1.24332792364606, 1.11018899811418, -1.13986020485926], a = 0.2, v = 0.2, t = 0.2)
movej(p[0.41890943291397, -0.00940452090985888, 0.323374253808199, -1.25008088479163, 1.1393552153355, -1.12634836432536], a = 0.2, v = 0.2, t = 0.2)
movej(p[0.419864297207079, -0.0101478434595995, 0.32244145268449, -1.25381377198306, 1.1673452076545, -1.11324262585929], a = 0.2, v = 0.2, t = 0.2)
movej(p[0.420588053699359, -0.0110144185225303, 0.321320335436969, -1.24602792007845, 1.1948441481018, -1.10173071877217], a = 0.2, v = 0.2, t = 0.2)
movej(p[0.42130861037993, -0.0118678177843956, 0.320066985674549, -1.23758028654196, 1.21163088687869, -1.08731056281365], a = 0.2, v = 0.2, t = 0.2)
movej(p[0.421971212374047, -0.0125731383749612, 0.318900598878524, -1.22993056939843, 1.22714577364445, -1.07358868648036], a = 0.2, v = 0.2, t = 0.2)
movej(p[0.422255125219913, -0.0133831444338, 0.318269547715308, -1.21917089172918, 1.24646098155651, -1.07179864263974], a = 0.2, v = 0.2, t = 0.2)
movej(p[0.422088854263129, -0.0139878987466805, 0.318241949346113, -1.21024089991375, 1.25241689803328, -1.07343017965999], a = 0.2, v = 0.2, t = 0.2)
movej(p[0.421726198650823, -0.0140846860136463, 0.318667141598883, -1.20972876749991, 1.24576984968319, -1.07927154655538], a = 0.2, v = 0.2, t = 0.2)
movej(p[0.421372483464644, -0.0137080395280317, 0.319407204016481, -1.21485266280113, 1.22825341297913, -1.0892778584094], a = 0.2, v = 0.2, t = 0.2)
movej(p[0.420844921288922, -0.0128034669995606, 0.320494213527885, -1.22140872729981, 1.20443398006104, -1.10303684533083], a = 0.2, v = 0.2, t = 0.2)
movej(p[0.419854722361067, -0.0121134643249453, 0.32174556209579, -1.21905529713457, 1.19676108629597, -1.12214986004976], a = 0.2, v = 0.2, t = 0.2)
movej(p[0.41868602117902, -0.011687064063398, 0.322911538328753, -1.2154651670547, 1.17892264798586, -1.13960916010426], a = 0.2, v = 0.2, t = 0.2)
movej(p[0.417712245012057, -0.0112147902933313, 0.323722252741208, -1.21689219315977, 1.1570985199288, -1.14864233904171], a = 0.2, v = 0.2, t = 0.2)
movej(p[0.417340188427072, -0.0105970446207977, 0.324236007903163, -1.22038468105128, 1.13779318280223, -1.15000262042119], a = 0.2, v = 0.2, t = 0.2)
movej(p[0.417111212396702, -0.0101341085375792, 0.324567591507659, -1.21866901741256, 1.13584173362342, -1.14874564913963], a = 0.2, v = 0.2, t = 0.2)
movej(p[0.41697674691386, -0.00988663979424422, 0.32475877275516, -1.21759360179464, 1.14153393939189, -1.15065032983532], a = 0.2, v = 0.2, t = 0.2)
movej(p[0.416892351634003, -0.00961118839007073, 0.324854084592184, -1.22094807718783, 1.13244613166237, -1.15017227074312], a = 0.2, v = 0.2, t = 0.2)
movej(p[0.416906952573682, -0.00929068598202179, 0.324961072009179, -1.22779539387733, 1.12751835827683, -1.15095990108476], a = 0.2, v = 0.2, t = 0.2)
movej(p[0.416987042015928, -0.00920572286677067, 0.324973035231468, -1.23285523992068, 1.11978133220366, -1.15205010107226], a = 0.2, v = 0.2, t = 0.2)
movej(p[0.417066566135215, -0.0092740713823437, 0.324891989361921, -1.23227005006251, 1.12218948821803, -1.15604951906741], a = 0.2, v = 0.2, t = 0.2)
movej(p[0.417437821543639, -0.00924062520470429, 0.324541064491019, -1.23459718456875, 1.11579082765541, -1.15088160200222], a = 0.2, v = 0.2, t = 0.2)
movej(p[0.418284058157693, -0.00913577652825704, 0.32385805004792, -1.23498700651244, 1.12411630465946, -1.13353944259069], a = 0.2, v = 0.2, t = 0.2)
movej(p[0.419492627635998, -0.00951871153551561, 0.322869306180012, -1.24274505441397, 1.14952794612652, -1.11611711832324], a = 0.2, v = 0.2, t = 0.2)
movej(p[0.420465229023523, -0.0104247505470253, 0.321833984809274, -1.24083103969029, 1.18225972440674, -1.10371842709949], a = 0.2, v = 0.2, t = 0.2)
movej(p[0.421193545008959, -0.011386614951477, 0.320705271785646, -1.23801052299752, 1.21093563235862, -1.09295904419792], a = 0.2, v = 0.2, t = 0.2)
movej(p[0.421764392512991, -0.0123112502133809, 0.319536348434872, -1.23342049620545, 1.22654979432836, -1.08096019429066], a = 0.2, v = 0.2, t = 0.2)
movej(p[0.422153178691504, -0.0131607346297914, 0.318530868178391, -1.22677404373196, 1.24269292355249, -1.07072998786829], a = 0.2, v = 0.2, t = 0.2)
movej(p[0.422270717362402, -0.014017212084911, 0.317980132289135, -1.2203248651279, 1.24794974313761, -1.07073885988765], a = 0.2, v = 0.2, t = 0.2)
movej(p[0.422116762894691, -0.0144104081897964, 0.318006630118759, -1.21224848699718, 1.24870238457513, -1.07161261198193], a = 0.2, v = 0.2, t = 0.2)
movej(p[0.421819548253032, -0.0142725427707949, 0.3185648129589, -1.21094582272198, 1.2401329017162, -1.08302833782712], a = 0.2, v = 0.2, t = 0.2)
movej(p[0.42120660325678, -0.0138054932436356, 0.319631299710224, -1.21242977920891, 1.22458419204453, -1.10208353883759], a = 0.2, v = 0.2, t = 0.2)
movej(p[0.420180905076024, -0.0130918553198802, 0.321060917720663, -1.21152272698868, 1.19942092352137, -1.12524417359811], a = 0.2, v = 0.2, t = 0.2)
movej(p[0.419133190557147, -0.0122077840772254, 0.322365468918855, -1.21275931574206, 1.16919911373179, -1.14059098984711], a = 0.2, v = 0.2, t = 0.2)
movej(p[0.418384582028682, -0.011165125274384, 0.323344961482802, -1.21966112160406, 1.14446445796804, -1.14346173693736], a = 0.2, v = 0.2, t = 0.2)
movej(p[0.41790356980695, -0.0105227516406039, 0.323920361001188, -1.2231292527018, 1.14579391856586, -1.14502842955392], a = 0.2, v = 0.2, t = 0.2)
movej(p[0.417524063649871, -0.0104974931959028, 0.324169828239808, -1.22132630898473, 1.14257244866559, -1.14928584149643], a = 0.2, v = 0.2, t = 0.2)
movej(p[0.41715079168172, -0.0104336393284876, 0.324395627290755, -1.22125135486412, 1.13660528331079, -1.15684409654498], a = 0.2, v = 0.2, t = 0.2)
movej(p[0.416910617976869, -0.0102333567599845, 0.324568136925998, -1.22088446650158, 1.12145907516459, -1.16318931689759], a = 0.2, v = 0.2, t = 0.2)
movej(p[0.416953916030063, -0.00963073579656383, 0.324708302114028, -1.22578419649844, 1.11214510242564, -1.16009625556724], a = 0.2, v = 0.2, t = 0.2)
movej(p[0.417123126730783, -0.00905447642160636, 0.32480524778972, -1.2280671496317, 1.11587891490595, -1.15036952345069], a = 0.2, v = 0.2, t = 0.2)
movej(p[0.417198743395934, -0.00918517126514319, 0.324730080124968, -1.22847975035068, 1.12200724948795, -1.14785574990871], a = 0.2, v = 0.2, t = 0.2)
movej(p[0.417307571472385, -0.00931596419505769, 0.324607946461466, -1.22816304611217, 1.12699796358459, -1.14855059680603], a = 0.2, v = 0.2, t = 0.2)
movej(p[0.417640153015788, -0.00939878941725328, 0.324252838990331, -1.23170409547855, 1.12147211544971, -1.14666429004669], a = 0.2, v = 0.2, t = 0.2)
movej(p[0.418395477068922, -0.00936904465870037, 0.323742780301065, -1.23505336391942, 1.13614128918334, -1.13602922049486], a = 0.2, v = 0.2, t = 0.2)
movej(p[0.41923597084327, -0.00957551103870996, 0.323032624562577, -1.23711673370058, 1.15510946209458, -1.12242566553005], a = 0.2, v = 0.2, t = 0.2)
movej(p[0.420138352963826, -0.0102070933568643, 0.32198340344656, -1.23580017460015, 1.1799043444444, -1.10973776357464], a = 0.2, v = 0.2, t = 0.2)
movej(p[0.420867761217074, -0.011103053354628, 0.320837562360283, -1.23526597060858, 1.19698537040358, -1.10167891618564], a = 0.2, v = 0.2, t = 0.2)
movej(p[0.421531518326292, -0.011966632694033, 0.31954636887163, -1.23415993202308, 1.21453289267941, -1.08743282444299], a = 0.2, v = 0.2, t = 0.2)
movej(p[0.422061493826021, -0.0128961190240828, 0.318444556611051, -1.23003293851863, 1.23399262247031, -1.07580728721062], a = 0.2, v = 0.2, t = 0.2)
movej(p[0.422487838620826, -0.0136540312270396, 0.317499571664846, -1.2212096593248, 1.25022489912011, -1.06252317463257], a = 0.2, v = 0.2, t = 0.2)
movej(p[0.422525524120556, -0.0145073726544078, 0.31708303851917, -1.20986602142282, 1.26383031338233, -1.0633844314521], a = 0.2, v = 0.2, t = 0.2)
movej(p[0.422277279737351, -0.0150009020546438, 0.317203574062932, -1.19820909688662, 1.27270447059117, -1.06564471431945], a = 0.2, v = 0.2, t = 0.2)
movej(p[0.421911969507797, -0.0150343995620248, 0.317691475480416, -1.19488643680832, 1.26983532698486, -1.07243756163972], a = 0.2, v = 0.2, t = 0.2)
movej(p[0.421647773810596, -0.014433333746381, 0.318532787764199, -1.20058156074076, 1.24831140257408, -1.07884312291599], a = 0.2, v = 0.2, t = 0.2)
movej(p[0.421112554942108, -0.0135407727071401, 0.319690908200097, -1.21144874280108, 1.22700931964989, -1.09287905405313], a = 0.2, v = 0.2, t = 0.2)
movej(p[0.419911312774106, -0.0128829646900965, 0.321128061206087, -1.21114280537363, 1.21324993866962, -1.11760947979143], a = 0.2, v = 0.2, t = 0.2)
movej(p[0.418579572781766, -0.0123482235734878, 0.322443047679178, -1.20789242576876, 1.19444453805747, -1.13743392675254], a = 0.2, v = 0.2, t = 0.2)
movej(p[0.417532397890006, -0.0118243479530578, 0.323348009205314, -1.20652269838148, 1.16845095190861, -1.15397676737382], a = 0.2, v = 0.2, t = 0.2)
movej(p[0.41710049136038, -0.0111103294435286, 0.323937865246917, -1.21126603664666, 1.138222128671, -1.16043485364206], a = 0.2, v = 0.2, t = 0.2)
movej(p[0.416956412604067, -0.0102152510326717, 0.324340398572491, -1.22220964313515, 1.12218097069309, -1.15844207652885], a = 0.2, v = 0.2, t = 0.2)
movej(p[0.416862816049524, -0.00994291010750736, 0.324504293967052, -1.22074120593158, 1.13201835096574, -1.15580093263238], a = 0.2, v = 0.2, t = 0.2)
movej(p[0.416764901259691, -0.00995195865088819, 0.32458719674321, -1.22067123725772, 1.13123495714975, -1.15629652853955], a = 0.2, v = 0.2, t = 0.2)
movej(p[0.416751212594186, -0.00988751428778572, 0.324562926504212, -1.22314377787832, 1.12526653983102, -1.15692718824104], a = 0.2, v = 0.2, t = 0.2)
movej(p[0.417279087605358, -0.00970069171387177, 0.324305975072116, -1.23418516988405, 1.11980590897175, -1.15177071845776], a = 0.2, v = 0.2, t = 0.2)
movej(p[0.41803014484968, -0.00967740671628212, 0.323825997822823, -1.24057267501391, 1.13296028159557, -1.13873796030821], a = 0.2, v = 0.2, t = 0.2)
movej(p[0.418995441496722, -0.0100057367700941, 0.32291864453624, -1.23695446313796, 1.16178991639875, -1.12319389745963], a = 0.2, v = 0.2, t = 0.2)
movej(p[0.419989620438208, -0.0106162829919866, 0.321692631047025, -1.23677850365862, 1.18274043681154, -1.10564799050513], a = 0.2, v = 0.2, t = 0.2)
movej(p[0.420939857181694, -0.0113345114493744, 0.320390686536522, -1.23431008500361, 1.20652741331879, -1.09028393146885], a = 0.2, v = 0.2, t = 0.2)
movej(p[0.421557205791429, -0.0123950095381872, 0.319327715359075, -1.23049451373736, 1.22455425728588, -1.08323038838043], a = 0.2, v = 0.2, t = 0.2)
movej(p[0.421717600454474, -0.0132008162801044, 0.318928287353488, -1.22264212995135, 1.22923384236063, -1.08866298369012], a = 0.2, v = 0.2, t = 0.2)
movej(p[0.421494032093968, -0.013178166252289, 0.319354095237892, -1.22467498645049, 1.20913341006318, -1.10055727966548], a = 0.2, v = 0.2, t = 0.2)
movej(p[0.420812841674844, -0.0125082647069041, 0.320523309032193, -1.23065145255031, 1.18717454506236, -1.11625667965771], a = 0.2, v = 0.2, t = 0.2)
movej(p[0.419740789848582, -0.0119706722154516, 0.321853803411679, -1.22575438648667, 1.17612766250624, -1.13257734511822], a = 0.2, v = 0.2, t = 0.2)
movej(p[0.418545818880655, -0.0114894599770226, 0.322939152018854, -1.22128402531473, 1.16582001662287, -1.14896887480753], a = 0.2, v = 0.2, t = 0.2)
movej(p[0.417698516786967, -0.0109165751476149, 0.323685061398113, -1.21809651568171, 1.14638445991171, -1.15595960487495], a = 0.2, v = 0.2, t = 0.2)
movej(p[0.417316123846616, -0.0103609538821391, 0.324136784952758, -1.21985528151843, 1.13688759157033, -1.15902778187481], a = 0.2, v = 0.2, t = 0.2)
movej(p[0.417138639459688, -0.0100366250099932, 0.324400878767698, -1.22285451977049, 1.1298976513267, -1.15573170709234], a = 0.2, v = 0.2, t = 0.2)
movej(p[0.41694455110664, -0.00989320498523295, 0.324491031472641, -1.22441523875194, 1.12837532218167, -1.16066052913916], a = 0.2, v = 0.2, t = 0.2)
movej(p[0.416885729500999, -0.00950613161839796, 0.324596053136582, -1.2285485706103, 1.11144109397665, -1.16150470623902], a = 0.2, v = 0.2, t = 0.2)
movej(p[0.416991909211077, -0.00901760298243315, 0.324632393416025, -1.23170931221861, 1.10220322688537, -1.15856762858706], a = 0.2, v = 0.2, t = 0.2)
movej(p[0.417163036906624, -0.00892644694264589, 0.324618957336714, -1.2332407759823, 1.11257047847049, -1.1532396741222], a = 0.2, v = 0.2, t = 0.2)
movej(p[0.417328034030124, -0.00921352105426407, 0.324449186708585, -1.23008631321666, 1.12460857897692, -1.14842081886732], a = 0.2, v = 0.2, t = 0.2)
movej(p[0.417563474836064, -0.00943701986421704, 0.324124642937041, -1.22906501105312, 1.1346958250772, -1.14620833462322], a = 0.2, v = 0.2, t = 0.2)
movej(p[0.4183203554065, -0.00968215401121585, 0.323367560160211, -1.23235793010272, 1.1387638857846, -1.13431748048395], a = 0.2, v = 0.2, t = 0.2)
movej(p[0.419594995196887, -0.00988022806346366, 0.322188789490578, -1.24136306687472, 1.15226636083777, -1.11373586742316], a = 0.2, v = 0.2, t = 0.2)
movej(p[0.420948036543344, -0.0105949693064599, 0.3209028225663, -1.24566700456251, 1.18154426350673, -1.09244091173074], a = 0.2, v = 0.2, t = 0.2)
movej(p[0.42183028635841, -0.0118427594878855, 0.319642989717449, -1.23766960053039, 1.21797049290925, -1.0803636380868], a = 0.2, v = 0.2, t = 0.2)
movej(p[0.422210901643302, -0.0130402531893057, 0.318587112763323, -1.22676882367624, 1.24178102246022, -1.07519810241658], a = 0.2, v = 0.2, t = 0.2)
movej(p[0.422283333815709, -0.013801106841665, 0.317900192505876, -1.22270234663238, 1.24297434404039, -1.07443212365896], a = 0.2, v = 0.2, t = 0.2)
movej(p[0.422250141358786, -0.0141393357925162, 0.317796199344516, -1.21694096856476, 1.24263723483762, -1.07909981328342], a = 0.2, v = 0.2, t = 0.2)
movej(p[0.421967510684131, -0.0141663971131302, 0.318376472871976, -1.2119415780924, 1.23548946676795, -1.0892640504851], a = 0.2, v = 0.2, t = 0.2)
movej(p[0.421414091136794, -0.0137335411858563, 0.319415686767596, -1.20981946728325, 1.22286900535997, -1.10065058900561], a = 0.2, v = 0.2, t = 0.2)
movej(p[0.420601600260265, -0.0129715657980635, 0.320687858434493, -1.21094756096636, 1.21058274347253, -1.11271525603085], a = 0.2, v = 0.2, t = 0.2)
movej(p[0.419614166473714, -0.0122582898490957, 0.321886597889171, -1.21515472164138, 1.190787339596, -1.12643420752016], a = 0.2, v = 0.2, t = 0.2)
movej(p[0.418610322253827, -0.0116044706120123, 0.32294841763749, -1.20893572149296, 1.17282076237969, -1.14066700137499], a = 0.2, v = 0.2, t = 0.2)
movej(p[0.417885989593497, -0.0110501326676711, 0.323618869942077, -1.20881967615566, 1.14912527810798, -1.14808120573443], a = 0.2, v = 0.2, t = 0.2)
movej(p[0.417583904682017, -0.0102980023634576, 0.324060998440846, -1.21289544003067, 1.13081557188157, -1.14664956742813], a = 0.2, v = 0.2, t = 0.2)
movej(p[0.41753728139429, -0.00976499809717896, 0.324299162435124, -1.21764122673215, 1.13174767755773, -1.1414841524686], a = 0.2, v = 0.2, t = 0.2)
movej(p[0.417377474525268, -0.0098404269823052, 0.324338715663841, -1.2200772267366, 1.13447226265746, -1.14238756945114], a = 0.2, v = 0.2, t = 0.2)
movej(p[0.417169033309457, -0.00985887482542285, 0.324423200187488, -1.21781773595525, 1.13486852451695, -1.1489406350329], a = 0.2, v = 0.2, t = 0.2)
movej(p[0.416975318448864, -0.00977333593121264, 0.324488748264216, -1.21860414182521, 1.12225761138501, -1.15765182488057], a = 0.2, v = 0.2, t = 0.2)
movej(p[0.417125669506119, -0.00921536342142521, 0.324590875099102, -1.22789723302071, 1.10397128068026, -1.1551190837356], a = 0.2, v = 0.2, t = 0.2)
movej(p[0.417297782841144, -0.00883826679000854, 0.324607788956751, -1.23478177556019, 1.10628828006339, -1.14981493938087], a = 0.2, v = 0.2, t = 0.2)
movej(p[0.417492641130792, -0.00903066113834266, 0.324509323416664, -1.23850453439641, 1.11577731024016, -1.14734587645407], a = 0.2, v = 0.2, t = 0.2)
movej(p[0.417669861292122, -0.00920843048130467, 0.324264094327808, -1.23530110415856, 1.12282692964727, -1.14723183562557], a = 0.2, v = 0.2, t = 0.2)
movej(p[0.418242865451296, -0.00936650982278171, 0.323677639956635, -1.23871695628081, 1.1180934282588, -1.14333371419522], a = 0.2, v = 0.2, t = 0.2)
movej(p[0.419288861849651, -0.00943211005888582, 0.322687691309861, -1.24764674015564, 1.12942952842344, -1.12570852246564], a = 0.2, v = 0.2, t = 0.2)
movej(p[0.42048610514732, -0.0099825448825398, 0.321510640491631, -1.25200601820334, 1.16004425048069, -1.10424769127769], a = 0.2, v = 0.2, t = 0.2)
movej(p[0.421329332934139, -0.0111138019950839, 0.320296746914189, -1.24347825992033, 1.20204754958756, -1.08628607008195], a = 0.2, v = 0.2, t = 0.2)
movej(p[0.421818606417164, -0.0123125866145677, 0.319052907067666, -1.23060636872413, 1.22926121292524, -1.07528158012249], a = 0.2, v = 0.2, t = 0.2)
movej(p[0.422078176004106, -0.0133004801866136, 0.318034888031378, -1.22003798489143, 1.24355628397681, -1.0726276201204], a = 0.2, v = 0.2, t = 0.2)
movej(p[0.422164409904566, -0.0139044862361885, 0.317559477707039, -1.21571879875335, 1.24214865514462, -1.07650027112419], a = 0.2, v = 0.2, t = 0.2)
movej(p[0.422044455770765, -0.0140975662019663, 0.317754723686765, -1.20747461483227, 1.24061653930915, -1.07939231925738], a = 0.2, v = 0.2, t = 0.2)
movej(p[0.421729124401674, -0.0137765700898973, 0.318513921634407, -1.20716297196657, 1.23092445133304, -1.08780126573438], a = 0.2, v = 0.2, t = 0.2)
movej(p[0.421132698893632, -0.0131905092706444, 0.31961571035258, -1.20603065594092, 1.22367281452427, -1.09777993109518], a = 0.2, v = 0.2, t = 0.2)
movej(p[0.420285740447073, -0.0125927576199086, 0.320832602996302, -1.2096793986668, 1.2042378571805, -1.1179710237496], a = 0.2, v = 0.2, t = 0.2)
movej(p[0.419176867904314, -0.0119660758869861, 0.322095555803471, -1.20536771115476, 1.17901318297594, -1.1369908597746], a = 0.2, v = 0.2, t = 0.2)
movej(p[0.418343780385164, -0.0112004747030415, 0.32301197274023, -1.20902785551533, 1.1473312687864, -1.14611244572906], a = 0.2, v = 0.2, t = 0.2)
movej(p[0.417931611824996, -0.0103360429733033, 0.32364856931525, -1.21680095762717, 1.13720617927921, -1.14570158519545], a = 0.2, v = 0.2, t = 0.2)
movej(p[0.417677869953171, -0.0101767913612843, 0.323880350597601, -1.21941616809329, 1.14152894314296, -1.14683774838818], a = 0.2, v = 0.2, t = 0.2)
movej(p[0.417458684069142, -0.010132316566979, 0.324072657358308, -1.22089117393143, 1.14076412547008, -1.15018089098673], a = 0.2, v = 0.2, t = 0.2)
movej(p[0.41731807650585, -0.00986604975103623, 0.324204418577082, -1.22743926571212, 1.12271785814849, -1.15595989167132], a = 0.2, v = 0.2, t = 0.2)
movej(p[0.417355038994865, -0.00952517938341287, 0.324351395110523, -1.2352611979638, 1.11485846864953, -1.1564863639724], a = 0.2, v = 0.2, t = 0.2)
movej(p[0.417407306487779, -0.00926660308442358, 0.324444274363779, -1.23721452281087, 1.11306567347013, -1.15493677786427], a = 0.2, v = 0.2, t = 0.2)
movej(p[0.417476362289422, -0.00923337736796544, 0.324379062701285, -1.232839580679, 1.11432857593362, -1.15333937038704], a = 0.2, v = 0.2, t = 0.2)
movej(p[0.417889839162813, -0.00904208295767851, 0.324125552541008, -1.23612484948792, 1.1057220825869, -1.14681335984897], a = 0.2, v = 0.2, t = 0.2)
movej(p[0.418541655920717, -0.00919027568778809, 0.323574379201523, -1.24249775371597, 1.12079427596215, -1.1371342767626], a = 0.2, v = 0.2, t = 0.2)
movej(p[0.419329447222374, -0.00962818695270821, 0.322775875232034, -1.24740402098405, 1.14623974492517, -1.12677771352003], a = 0.2, v = 0.2, t = 0.2)
movej(p[0.420059874893894, -0.0102592789236875, 0.321768083128998, -1.24679226250414, 1.16684177643689, -1.11762659947582], a = 0.2, v = 0.2, t = 0.2)
movej(p[0.42092390671865, -0.0107661729584397, 0.320575909625123, -1.24645569886142, 1.18066148833897, -1.1007872430624], a = 0.2, v = 0.2, t = 0.2)
movej(p[0.421764118846007, -0.0114962399879202, 0.319414533772779, -1.24161617564214, 1.202091623242, -1.0855895547941], a = 0.2, v = 0.2, t = 0.2)
movej(p[0.422114744983352, -0.0126045637091465, 0.318555832206647, -1.23163346781086, 1.2317068294265, -1.07884498929746], a = 0.2, v = 0.2, t = 0.2)
movej(p[0.422070232412635, -0.0134463027582566, 0.318060708313211, -1.22083153060679, 1.24269141292127, -1.07939819766713], a = 0.2, v = 0.2, t = 0.2)
movej(p[0.421907180250784, -0.0137434248198113, 0.31795370007496, -1.21708617969031, 1.23892925720648, -1.07975053327009], a = 0.2, v = 0.2, t = 0.2)
movej(p[0.421606959113978, -0.01348022895922, 0.318552371819727, -1.21573364371935, 1.23125038587837, -1.08762926663935], a = 0.2, v = 0.2, t = 0.2)
movej(p[0.420943908519366, -0.0129790176731809, 0.319762129165533, -1.21250809960379, 1.22079191648486, -1.10572116546336], a = 0.2, v = 0.2, t = 0.2)
movej(p[0.419742260825164, -0.0122463650818357, 0.321298456804097, -1.2101887436056, 1.1925375733843, -1.13088487911546], a = 0.2, v = 0.2, t = 0.2)
movej(p[0.41869246712432, -0.0113785838097003, 0.322541299374336, -1.2099757290782, 1.1667322536463, -1.14347481916007], a = 0.2, v = 0.2, t = 0.2)
movej(p[0.417939399239454, -0.0108789050872998, 0.323286301152106, -1.21255309010529, 1.14887937622444, -1.15093674889292], a = 0.2, v = 0.2, t = 0.2)
movej(p[0.417532350449235, -0.0105499786387842, 0.323778625410521, -1.21457679874712, 1.14228256964712, -1.15703703205868], a = 0.2, v = 0.2, t = 0.2)
movej(p[0.417221119471833, -0.0103016122068461, 0.324076504152784, -1.21544039631257, 1.12775035043414, -1.1642695769398], a = 0.2, v = 0.2, t = 0.2)
movej(p[0.417165257388075, -0.00977097164706814, 0.324287363604592, -1.22104029501452, 1.11289312915049, -1.16498761588079], a = 0.2, v = 0.2, t = 0.2)
movej(p[0.417275964939735, -0.00923058885895543, 0.324401932973609, -1.22835841843263, 1.10594026729455, -1.15636223618513], a = 0.2, v = 0.2, t = 0.2)
movej(p[0.41734356936688, -0.00921407972667835, 0.324430586343077, -1.2291814853715, 1.11937318072759, -1.15341993346704], a = 0.2, v = 0.2, t = 0.2)
movej(p[0.417345918665885, -0.00936831973807858, 0.324435503514769, -1.23038284337946, 1.12313484456297, -1.15259937358992], a = 0.2, v = 0.2, t = 0.2)
movej(p[0.417288022967293, -0.00944050750040354, 0.324358655053788, -1.22851039441911, 1.12254243008769, -1.15606475698502], a = 0.2, v = 0.2, t = 0.2)
movej(p[0.41760948419039, -0.00929678435319038, 0.324069063077725, -1.23588015592981, 1.11148850234518, -1.15125856152202], a = 0.2, v = 0.2, t = 0.2)
movej(p[0.41832343831188, -0.00905436257624095, 0.323573494157323, -1.24681272962747, 1.1150204642247, -1.13711808716523], a = 0.2, v = 0.2, t = 0.2)
movej(p[0.419241527790995, -0.00934796526705084, 0.322907718711105, -1.25050850633761, 1.13832081871775, -1.12335780716167], a = 0.2, v = 0.2, t = 0.2)
movej(p[0.420036712039154, -0.0099932261579647, 0.322054902702966, -1.24885482837646, 1.16982812063282, -1.10938251191269], a = 0.2, v = 0.2, t = 0.2)
movej(p[0.420666212253093, -0.0107828881137263, 0.320996644905323, -1.24033438947204, 1.19391402236688, -1.1023282990735], a = 0.2, v = 0.2, t = 0.2)
movej(p[0.421273400420248, -0.0116690825983005, 0.319674552985834, -1.23207482302383, 1.21522812510634, -1.08885768728546], a = 0.2, v = 0.2, t = 0.2)
movej(p[0.421922796661589, -0.0125378117486168, 0.318386146277833, -1.22861464488575, 1.22783358450284, -1.0751796222784], a = 0.2, v = 0.2, t = 0.2)
movej(p[0.42226076876055, -0.013593264556653, 0.317539150703799, -1.21944612872117, 1.24946759123573, -1.06824992441361], a = 0.2, v = 0.2, t = 0.2)
movej(p[0.422196013976981, -0.0143359605634098, 0.317336702983258, -1.21240318212099, 1.2544226796977, -1.07169048818948], a = 0.2, v = 0.2, t = 0.2)
movej(p[0.421957367699086, -0.0144602619901291, 0.317647020190906, -1.20819823029554, 1.25116885735585, -1.07763348163657], a = 0.2, v = 0.2, t = 0.2)
movej(p[0.421594558773414, -0.0139329807185052, 0.318540878951588, -1.2092857425395, 1.2347264992001, -1.08909263626515], a = 0.2, v = 0.2, t = 0.2)
movej(p[0.420920211046454, -0.0132340756861037, 0.319751855907944, -1.21287591790439, 1.21908497090454, -1.10294673091909], a = 0.2, v = 0.2, t = 0.2)
movej(p[0.419912824949736, -0.0124361261330045, 0.321174358671685, -1.21211565007608, 1.19926935730854, -1.12222625520261], a = 0.2, v = 0.2, t = 0.2)
movej(p[0.418889222922812, -0.0116377861529565, 0.322356980372032, -1.21291299820371, 1.18108138341394, -1.13211835591782], a = 0.2, v = 0.2, t = 0.2)
movej(p[0.418197478596827, -0.0110662952196564, 0.323115102857402, -1.21373786439474, 1.16543004616484, -1.13969291477917], a = 0.2, v = 0.2, t = 0.2)
movej(p[0.417768918511636, -0.0106850140231575, 0.323634020018785, -1.21870464396188, 1.14882043211846, -1.14691965417997], a = 0.2, v = 0.2, t = 0.2)
movej(p[0.417452301125753, -0.010384545266204, 0.323955995964861, -1.22131736525162, 1.13470323553573, -1.15588175585444], a = 0.2, v = 0.2, t = 0.2)
movej(p[0.417329818211244, -0.00988096358703351, 0.324221210585607, -1.22312624513899, 1.11635057980231, -1.15980613279845], a = 0.2, v = 0.2, t = 0.2)
movej(p[0.417431979173461, -0.00932570912054916, 0.324349508300894, -1.22856420704962, 1.10704756276791, -1.15584433100866], a = 0.2, v = 0.2, t = 0.2)
movej(p[0.417459777364756, -0.00933236985640129, 0.324364080715197, -1.2286043074123, 1.1218305345077, -1.15225074876489], a = 0.2, v = 0.2, t = 0.2)
movej(p[0.417468147566642, -0.00951533235714711, 0.324325035869939, -1.22617771631585, 1.13173483191197, -1.15135173961665], a = 0.2, v = 0.2, t = 0.2)
movej(p[0.417485970749696, -0.00963127772302906, 0.324164212902748, -1.22385814370852, 1.13597690482845, -1.14827980160228], a = 0.2, v = 0.2, t = 0.2)
movej(p[0.417958394732912, -0.00955131254881165, 0.32379815374852, -1.22377478800861, 1.12738558801695, -1.14204160822327], a = 0.2, v = 0.2, t = 0.2)
movej(p[0.418862913809743, -0.00934164312003547, 0.323159780171383, -1.23419087224601, 1.12680535113184, -1.1249640192679], a = 0.2, v = 0.2, t = 0.2)
movej(p[0.419860390772761, -0.00966196030476143, 0.322399738811312, -1.23834997280367, 1.15344793411368, -1.11244396615855], a = 0.2, v = 0.2, t = 0.2)
movej(p[0.420580541664124, -0.0103460361199187, 0.321589818485055, -1.24308265870173, 1.17850274650878, -1.10396694088827], a = 0.2, v = 0.2, t = 0.2)
movej(p[0.421044781395998, -0.0111020400802151, 0.320605145852417, -1.23925932356804, 1.19912517823813, -1.09844649150794], a = 0.2, v = 0.2, t = 0.2)
movej(p[0.421558788886171, -0.0119070001516178, 0.319390872028083, -1.2374551900894, 1.21066555068734, -1.08899428524854], a = 0.2, v = 0.2, t = 0.2)
movej(p[0.422124798797874, -0.0126223733010974, 0.318212553958941, -1.22981122063538, 1.22647651642359, -1.07219872875912], a = 0.2, v = 0.2, t = 0.2)
movej(p[0.422353486442079, -0.0135416281580284, 0.317534912323342, -1.22462387406059, 1.24542124824796, -1.07060918375169], a = 0.2, v = 0.2, t = 0.2)
movej(p[0.422170635450778, -0.0142405574696915, 0.317388506748727, -1.20995931773439, 1.25731210855042, -1.07346867378516], a = 0.2, v = 0.2, t = 0.2)
movej(p[0.421847502967342, -0.0143958811761025, 0.31767254413073, -1.20285923724356, 1.25439233341851, -1.07995980607501], a = 0.2, v = 0.2, t = 0.2)
movej(p[0.421596856188813, -0.014012845241044, 0.318277574299289, -1.19837170421396, 1.2430294218408, -1.08325716775491], a = 0.2, v = 0.2, t = 0.2)
movej(p[0.421110734729658, -0.0134573248460566, 0.319282127328104, -1.20430928041253, 1.22503047791164, -1.09585184905689], a = 0.2, v = 0.2, t = 0.2)
movej(p[0.420220313322629, -0.0127846001381051, 0.320572870289083, -1.20732461093134, 1.2030979218252, -1.1142216847623], a = 0.2, v = 0.2, t = 0.2)
movej(p[0.419175336288235, -0.0119354384627123, 0.321901133040436, -1.21335089340072, 1.176879041542, -1.13056268262876], a = 0.2, v = 0.2, t = 0.2)
movej(p[0.418355978993079, -0.0113179236608579, 0.322799844176211, -1.2137940270072, 1.16263999127038, -1.1383992792213], a = 0.2, v = 0.2, t = 0.2)
movej(p[0.417832740768386, -0.0108349549444761, 0.323433594522259, -1.21718049057496, 1.14880171501758, -1.14815092081071], a = 0.2, v = 0.2, t = 0.2)
movej(p[0.417438543045641, -0.0105519148909549, 0.323803862394462, -1.21295722258955, 1.14007743839771, -1.1543483087939], a = 0.2, v = 0.2, t = 0.2)
movej(p[0.417311953390172, -0.0100372954506402, 0.324061843765066, -1.21950659450342, 1.12046709244791, -1.15821759769899], a = 0.2, v = 0.2, t = 0.2)
movej(p[0.417394125596995, -0.00945742220283207, 0.32422520207738, -1.22715902861962, 1.11138607824475, -1.1528996478189], a = 0.2, v = 0.2, t = 0.2)
movej(p[0.417402753861892, -0.00951881151361296, 0.324218390464744, -1.22972044642416, 1.12471877135161, -1.15305901052388], a = 0.2, v = 0.2, t = 0.2)
movej(p[0.417404852901517, -0.00962327113498352, 0.324203274180949, -1.22759379274413, 1.13393538725117, -1.1519630766909], a = 0.2, v = 0.2, t = 0.2)
movej(p[0.417410686393215, -0.00969527477827098, 0.32407535196932, -1.22536699134187, 1.13314744338813, -1.15202920422301], a = 0.2, v = 0.2, t = 0.2)
movej(p[0.417937073753358, -0.00947803323540472, 0.323688009140474, -1.23181943146482, 1.12386348608432, -1.14227931708563], a = 0.2, v = 0.2, t = 0.2)
movej(p[0.41884309762352, -0.00929599865284204, 0.323072778793358, -1.24600840254526, 1.1230579071406, -1.12568552044047], a = 0.2, v = 0.2, t = 0.2)
movej(p[0.419800711996897, -0.00983820428597666, 0.322267463710115, -1.24553145753361, 1.16154848423524, -1.10931925617032], a = 0.2, v = 0.2, t = 0.2)
movej(p[0.420547653137612, -0.0106090849354172, 0.321395666159576, -1.23920376390871, 1.19428026926616, -1.09520559720734], a = 0.2, v = 0.2, t = 0.2)
movej(p[0.421090919509362, -0.0114657613126414, 0.320339275278495, -1.22695119477413, 1.21882409930511, -1.08649368955122], a = 0.2, v = 0.2, t = 0.2)
movej(p[0.421724705834654, -0.0122871511529964, 0.319069339365098, -1.22026526488216, 1.23082344625682, -1.07455382327515], a = 0.2, v = 0.2, t = 0.2)
movej(p[0.422344537222935, -0.0130689647919505, 0.317838630488496, -1.21619808007255, 1.24500472195422, -1.06030890240544], a = 0.2, v = 0.2, t = 0.2)
movej(p[0.422504701299638, -0.0140074602015586, 0.317147375597245, -1.20583604531366, 1.26772171186125, -1.05440146650105], a = 0.2, v = 0.2, t = 0.2)
movej(p[0.422357913156158, -0.0147535970520321, 0.316746496960624, -1.19122561393361, 1.28328883017319, -1.05213770096038], a = 0.2, v = 0.2, t = 0.2)
movej(p[0.42206819597272, -0.0151509416396074, 0.316526137067846, -1.18272691326138, 1.28810478094157, -1.05322916711065], a = 0.2, v = 0.2, t = 0.2)
movej(p[0.421892534823021, -0.0151646250976041, 0.316589359559602, -1.18311200006005, 1.28675020638491, -1.05306789373484], a = 0.2, v = 0.2, t = 0.2)
movej(p[0.421599035614357, -0.0149781102346916, 0.317134876809949, -1.19319557185539, 1.27218228925156, -1.06496886205824], a = 0.2, v = 0.2, t = 0.2)
movej(p[0.420911445801072, -0.0142916559907275, 0.318463625303687, -1.19538977266074, 1.24805740190198, -1.08485030675218], a = 0.2, v = 0.2, t = 0.2)
movej(p[0.419924648962068, -0.0134134514582545, 0.319966466854775, -1.19620497651526, 1.22280926398385, -1.1091044151431], a = 0.2, v = 0.2, t = 0.2)
movej(p[0.41883755968563, -0.012652059854133, 0.321304696424029, -1.19351229166687, 1.20549923034653, -1.12469073647855], a = 0.2, v = 0.2, t = 0.2)
movej(p[0.41789811476647, -0.0121055675843714, 0.322334770529492, -1.19494101431173, 1.18710138856689, -1.14041408060859], a = 0.2, v = 0.2, t = 0.2)
movej(p[0.417266473113559, -0.0116887654864449, 0.323082987588613, -1.20397071878225, 1.16443656027096, -1.15166628821576], a = 0.2, v = 0.2, t = 0.2)
movej(p[0.416987481570201, -0.0109772754511808, 0.323666619010364, -1.21279919532071, 1.14251667472051, -1.15376233553608], a = 0.2, v = 0.2, t = 0.2)
movej(p[0.416878716186391, -0.0103286071405736, 0.324105709663759, -1.22085147172539, 1.1341435158794, -1.1535573829871], a = 0.2, v = 0.2, t = 0.2)
movej(p[0.416675264050205, -0.0102940459215983, 0.32428185395241, -1.21857235054868, 1.14065137917257, -1.1535831515798], a = 0.2, v = 0.2, t = 0.2)
movej(p[0.416445486529161, -0.010235045348262, 0.324484515821465, -1.21563142177755, 1.13803446810537, -1.16031738447057], a = 0.2, v = 0.2, t = 0.2)
movej(p[0.416223591628303, -0.0101157130483902, 0.324638576897603, -1.21332483610879, 1.12469368655491, -1.1680234075482], a = 0.2, v = 0.2, t = 0.2)
movej(p[0.416302965752694, -0.00954657864699612, 0.32481002342433, -1.2146755229939, 1.10733715833465, -1.1656079994862], a = 0.2, v = 0.2, t = 0.2)
movej(p[0.416477740971178, -0.00903014718019897, 0.324908569114777, -1.22029691578655, 1.10380162440893, -1.16076028923704], a = 0.2, v = 0.2, t = 0.2)
movej(p[0.416553573232438, -0.00908533130062944, 0.324879381600245, -1.22087376490657, 1.11778683331496, -1.15707770493823], a = 0.2, v = 0.2, t = 0.2)
movej(p[0.416534570008206, -0.00916344299285854, 0.3248802188612, -1.21814055405018, 1.12563650183749, -1.15731228685204], a = 0.2, v = 0.2, t = 0.2)
movej(p[0.416553454979155, -0.00925804312235269, 0.324751464663707, -1.21491438506162, 1.12274733333151, -1.15917066913956], a = 0.2, v = 0.2, t = 0.2)
movej(p[0.417084802266536, -0.00901711730104834, 0.32442484516992, -1.22051973790183, 1.11508197233608, -1.15107125631956], a = 0.2, v = 0.2, t = 0.2)
movej(p[0.417956167155885, -0.00895213957775754, 0.32389934867556, -1.22973276872162, 1.12179625363299, -1.13992096615672], a = 0.2, v = 0.2, t = 0.2)
movej(p[0.41872983146049, -0.00938703448346249, 0.323327464171432, -1.23496658787945, 1.14350385112929, -1.13062956812648], a = 0.2, v = 0.2, t = 0.2)
movej(p[0.419375920463773, -0.00982571625904953, 0.322631546327895, -1.23789440396041, 1.16560863497859, -1.12141972134318], a = 0.2, v = 0.2, t = 0.2)
movej(p[0.420051282079141, -0.0103393914318636, 0.32165452860655, -1.24347647152707, 1.17818667860596, -1.11038827987098], a = 0.2, v = 0.2, t = 0.2)
movej(p[0.420857639902173, -0.0108938801378345, 0.320639680585324, -1.24958735088261, 1.19165657669156, -1.09931928478837], a = 0.2, v = 0.2, t = 0.2)
movej(p[0.421564302189561, -0.0118059917652785, 0.319517840598934, -1.24783451839544, 1.21070574116752, -1.08591132908376], a = 0.2, v = 0.2, t = 0.2)
movej(p[0.422017846257037, -0.0127843634964125, 0.318558378760727, -1.23862619648801, 1.22994448131325, -1.07748746441874], a = 0.2, v = 0.2, t = 0.2)
movej(p[0.42216632102646, -0.0134936830374544, 0.317920106615368, -1.22464829266832, 1.24437596106981, -1.07107938427979], a = 0.2, v = 0.2, t = 0.2)
movej(p[0.422128701878437, -0.0139522318162166, 0.31771085741657, -1.21635121346201, 1.24895851506731, -1.07182814629334], a = 0.2, v = 0.2, t = 0.2)
movej(p[0.421903332442305, -0.0139620679961267, 0.318113471930494, -1.21179409174203, 1.24552991636282, -1.07761809014629], a = 0.2, v = 0.2, t = 0.2)
movej(p[0.421649839259058, -0.0134433165289841, 0.318859532210488, -1.21720380182887, 1.22521722063248, -1.08577844507504], a = 0.2, v = 0.2, t = 0.2)
movej(p[0.421187656551719, -0.0124169633055938, 0.320070686838425, -1.22177289400997, 1.20727407727892, -1.10079075934836], a = 0.2, v = 0.2, t = 0.2)
movej(p[0.420185774575769, -0.011921870698679, 0.321424327524775, -1.21996679381448, 1.1928852493154, -1.12153048466133], a = 0.2, v = 0.2, t = 0.2)
movej(p[0.41888386465054, -0.0115689940835551, 0.322729719004596, -1.21526127040906, 1.1730886545955, -1.14090229540513], a = 0.2, v = 0.2, t = 0.2)
movej(p[0.417779209767423, -0.011189289545064, 0.323632179105906, -1.21569757841984, 1.15157755335802, -1.15081104928869], a = 0.2, v = 0.2, t = 0.2)
movej(p[0.417169592814326, -0.010745216440322, 0.324172895864608, -1.21618872606346, 1.14309609170413, -1.15142229978093], a = 0.2, v = 0.2, t = 0.2)
movej(p[0.41687836577889, -0.010354231731445, 0.324463162104732, -1.21553459224843, 1.14183528737697, -1.15402881155249], a = 0.2, v = 0.2, t = 0.2)
movej(p[0.416672170723594, -0.0101185489337378, 0.324613654357145, -1.21188171242434, 1.13610750860736, -1.15698350721802], a = 0.2, v = 0.2, t = 0.2)
movej(p[0.416669997768073, -0.00960843024692863, 0.324749359602557, -1.21930108468261, 1.12177857877457, -1.15838069674976], a = 0.2, v = 0.2, t = 0.2)
movej(p[0.416626500009036, -0.00943235577757962, 0.324779597595252, -1.22490746032073, 1.12315718041981, -1.15974169742877], a = 0.2, v = 0.2, t = 0.2)
movej(p[0.416572738097199, -0.00940792893964467, 0.324805410313515, -1.22740478905118, 1.12480641114133, -1.16335531979531], a = 0.2, v = 0.2, t = 0.2)
movej(p[0.41643115364725, -0.00940446473400395, 0.324813429216928, -1.22950299984835, 1.11395692888456, -1.16929935192259], a = 0.2, v = 0.2, t = 0.2)
movej(p[0.416591988721667, -0.0090370887056304, 0.324829156982625, -1.22809898005523, 1.10135295205556, -1.16551577801114], a = 0.2, v = 0.2, t = 0.2)
movej(p[0.417033309175272, -0.00868823716827641, 0.32466274585134, -1.2353519429206, 1.09406917300647, -1.15611807575572], a = 0.2, v = 0.2, t = 0.2)
movej(p[0.417663472307615, -0.00889809846576733, 0.324237381725736, -1.23120846121423, 1.12327343771526, -1.14166281127461], a = 0.2, v = 0.2, t = 0.2)
movej(p[0.418365954712898, -0.00938033020361961, 0.323556810846932, -1.23466619725313, 1.14431416693224, -1.12932685111508], a = 0.2, v = 0.2, t = 0.2)
movej(p[0.419168844901983, -0.00991023317380883, 0.322589448858504, -1.23369624131138, 1.16788588674977, -1.11487698249116], a = 0.2, v = 0.2, t = 0.2)
movej(p[0.420284592111807, -0.0105058911345841, 0.321398048631403, -1.24022471945672, 1.18148205620116, -1.10173823414712], a = 0.2, v = 0.2, t = 0.2)
movej(p[0.421257016948591, -0.0112834361453379, 0.320205264772752, -1.24164956869129, 1.20557374116865, -1.08689706899814], a = 0.2, v = 0.2, t = 0.2)
movej(p[0.421850193258608, -0.0122969012927931, 0.319156793266116, -1.23612408671266, 1.22916267650012, -1.08034561284274], a = 0.2, v = 0.2, t = 0.2)
movej(p[0.422066340856923, -0.0130681563185788, 0.318538344593191, -1.23542164023379, 1.22980448486679, -1.08237371341869], a = 0.2, v = 0.2, t = 0.2)
movej(p[0.421923645166665, -0.0133199973329238, 0.318752906130927, -1.22744297485635, 1.21968787488836, -1.09629497946249], a = 0.2, v = 0.2, t = 0.2)
movej(p[0.421262438513981, -0.0129778748351701, 0.319879554829047, -1.22659841472053, 1.19786360843375, -1.11363713165789], a = 0.2, v = 0.2, t = 0.2)
movej(p[0.420062781320445, -0.012194095697224, 0.321506180483867, -1.22060650533674, 1.17525276689906, -1.13348214732856], a = 0.2, v = 0.2, t = 0.2)
movej(p[0.418875724384152, -0.0112777972498508, 0.3228194044778, -1.22187780667343, 1.1495803493358, -1.14536985775572], a = 0.2, v = 0.2, t = 0.2)
movej(p[0.418154659817446, -0.0104971170162146, 0.323574889955589, -1.22315307244655, 1.1325261123863, -1.1487749854931], a = 0.2, v = 0.2, t = 0.2)
movej(p[0.417705619550494, -0.0101296794323159, 0.323974638185848, -1.22129398160853, 1.13775941755975, -1.15217094654312], a = 0.2, v = 0.2, t = 0.2)
movej(p[0.417375493789852, -0.0101805525115105, 0.324108194922756, -1.2226645980095, 1.13764966199393, -1.15684019109646], a = 0.2, v = 0.2, t = 0.2)
movej(p[0.417038142034698, -0.0101308125330913, 0.324279245342345, -1.22081811891029, 1.1291265157458, -1.16535481409062], a = 0.2, v = 0.2, t = 0.2)
movej(p[0.416927096012475, -0.00985041256763174, 0.324402968229551, -1.22014519253448, 1.11191993047661, -1.16661375953898], a = 0.2, v = 0.2, t = 0.2)
movej(p[0.417062267850309, -0.00927283960278013, 0.324509489874907, -1.22318492509037, 1.09937486831492, -1.16384208698343], a = 0.2, v = 0.2, t = 0.2)
movej(p[0.417237633419428, -0.00896797376512852, 0.324540432096874, -1.22495435635941, 1.10958300405089, -1.15954132918652], a = 0.2, v = 0.2, t = 0.2)
movej(p[0.417320291317979, -0.00915177421121123, 0.324475317039269, -1.22575026927586, 1.11660658801569, -1.15816429659401], a = 0.2, v = 0.2, t = 0.2)
movej(p[0.417326668388932, -0.0092476480670467, 0.324365047702038, -1.22651480695339, 1.11966667028993, -1.15674023161527], a = 0.2, v = 0.2, t = 0.2)
movej(p[0.417662266539178, -0.00930282473722762, 0.324003435021095, -1.23171544388441, 1.11379440061184, -1.15189445533258], a = 0.2, v = 0.2, t = 0.2)
movej(p[0.418549154145569, -0.00916674314662853, 0.323334409168047, -1.24009313623862, 1.11505748266777, -1.13495467721413], a = 0.2, v = 0.2, t = 0.2)
movej(p[0.419757517117715, -0.00944136799008401, 0.322408123124214, -1.24709897775547, 1.14277893804235, -1.11519241371372], a = 0.2, v = 0.2, t = 0.2)
movej(p[0.42077716505882, -0.0102842728393525, 0.321387316292888, -1.24691645235775, 1.17838739230369, -1.09733923775747], a = 0.2, v = 0.2, t = 0.2)
movej(p[0.42150763568594, -0.0111908525078267, 0.32026806915998, -1.24183376683868, 1.20636348971632, -1.08428484349065], a = 0.2, v = 0.2, t = 0.2)
movej(p[0.422155747440451, -0.0120702651109131, 0.31916297571072, -1.2383295415947, 1.21979880344104, -1.07719097293879], a = 0.2, v = 0.2, t = 0.2)
movej(p[0.422572911480308, -0.0129415115202371, 0.318270882766801, -1.23220445483613, 1.23370760616325, -1.07109005318197], a = 0.2, v = 0.2, t = 0.2)
movej(p[0.422756970395398, -0.0137210220921209, 0.317733443343147, -1.22772435926301, 1.24731072258117, -1.06642023919659], a = 0.2, v = 0.2, t = 0.2)
movej(p[0.42267612238548, -0.0142298366090843, 0.317483418771115, -1.21894063760234, 1.25508659004599, -1.06480638328003], a = 0.2, v = 0.2, t = 0.2)
movej(p[0.422464067018525, -0.0143421807092837, 0.317687556480752, -1.21007236285442, 1.25608000607739, -1.06874534784294], a = 0.2, v = 0.2, t = 0.2)
movej(p[0.42204244109039, -0.0141049188910141, 0.318455226426964, -1.20535965147337, 1.24706891599702, -1.08469598346872], a = 0.2, v = 0.2, t = 0.2)
movej(p[0.420980769062049, -0.0134223527166721, 0.319959449589225, -1.20457805906454, 1.22200959057817, -1.10995452435228], a = 0.2, v = 0.2, t = 0.2)
movej(p[0.419726186992628, -0.0123996618143185, 0.321479299070499, -1.21095095247156, 1.18785513067459, -1.12732987643885], a = 0.2, v = 0.2, t = 0.2)
movej(p[0.418545553524149, -0.0113540432063348, 0.322668174955798, -1.21893086111982, 1.16060288583511, -1.14057806276585], a = 0.2, v = 0.2, t = 0.2)
movej(p[0.417674372021135, -0.0110133003348812, 0.323340990107054, -1.21757356632517, 1.15031059936702, -1.14802550566113], a = 0.2, v = 0.2, t = 0.2)
movej(p[0.417093670878816, -0.0107734623281463, 0.323812066114546, -1.2174459774912, 1.13309562084844, -1.15453228668252], a = 0.2, v = 0.2, t = 0.2)
movej(p[0.416830776936954, -0.0103671577680491, 0.324140920842164, -1.2196498811674, 1.12117121210701, -1.15670919992124], a = 0.2, v = 0.2, t = 0.2)
movej(p[0.416760508622696, -0.00992939835907642, 0.324416590799663, -1.22376685574623, 1.11489486487039, -1.1558164524616], a = 0.2, v = 0.2, t = 0.2)
movej(p[0.416707912677049, -0.0096010135247001, 0.324601960206667, -1.22699856081475, 1.1137334999333, -1.15912319796389], a = 0.2, v = 0.2, t = 0.2)
movej(p[0.416627757612426, -0.00946463519494975, 0.324690615306857, -1.22841386174023, 1.11030110059385, -1.16217402173377], a = 0.2, v = 0.2, t = 0.2)
movej(p[0.416686727376197, -0.00898334502814282, 0.324785967927669, -1.23514185861363, 1.09703703399908, -1.16097504636543], a = 0.2, v = 0.2, t = 0.2)
movej(p[0.416678755176435, -0.00887807566006913, 0.324764888454803, -1.23722884150556, 1.1014205614547, -1.16113953648309], a = 0.2, v = 0.2, t = 0.2)
movej(p[0.416752038477649, -0.00894927227485675, 0.324727947694038, -1.23304806865923, 1.11004541676362, -1.1601188254509], a = 0.2, v = 0.2, t = 0.2)
movej(p[0.416842155969921, -0.00908977797644032, 0.32455926168896, -1.22902069798339, 1.11108905590566, -1.16156899760871], a = 0.2, v = 0.2, t = 0.2)
movej(p[0.417384046128527, -0.00890398936356961, 0.324194587023219, -1.23535964953955, 1.1056409463583, -1.15202271939334], a = 0.2, v = 0.2, t = 0.2)
movej(p[0.418228785632382, -0.00882100454065578, 0.323641659239965, -1.24418021014536, 1.11540588054912, -1.1363557734677], a = 0.2, v = 0.2, t = 0.2)
movej(p[0.419108816964358, -0.00936034466638737, 0.322906362589683, -1.24502657390507, 1.14446150136866, -1.12176265739103], a = 0.2, v = 0.2, t = 0.2)
movej(p[0.419891318085315, -0.00999110634743965, 0.321990547714113, -1.24311187634494, 1.16928213887195, -1.10919084636774], a = 0.2, v = 0.2, t = 0.2)
movej(p[0.420659754315641, -0.0106978077251806, 0.320918343739758, -1.24145621230984, 1.1855025313946, -1.1001448753148], a = 0.2, v = 0.2, t = 0.2)
movej(p[0.421304784791033, -0.0114243568401569, 0.319859211466743, -1.23839185703395, 1.20641824942545, -1.08895680319139], a = 0.2, v = 0.2, t = 0.2)
movej(p[0.421756710291594, -0.0122758570741737, 0.318908673185024, -1.23275009564148, 1.22775907902997, -1.07845652316461], a = 0.2, v = 0.2, t = 0.2)
movej(p[0.421909485299732, -0.0131887914247583, 0.318119570005452, -1.21941055188276, 1.2451944933762, -1.07468758366945], a = 0.2, v = 0.2, t = 0.2)
movej(p[0.422034180418984, -0.0137011169959879, 0.317482709984491, -1.21185710002465, 1.25209645315199, -1.06639700766884], a = 0.2, v = 0.2, t = 0.2)
movej(p[0.42207245036196, -0.0140011794256652, 0.317254511299655, -1.20950528121228, 1.25595694684401, -1.06863695383205], a = 0.2, v = 0.2, t = 0.2)
movej(p[0.421772515582536, -0.0143169345892731, 0.317461772812596, -1.20012213559327, 1.2644634292796, -1.07132770983393], a = 0.2, v = 0.2, t = 0.2)
movej(p[0.421381436531179, -0.0142960403836955, 0.317997422836178, -1.20107709213226, 1.2551745234803, -1.08134716084837], a = 0.2, v = 0.2, t = 0.2)
movej(p[0.420994071849967, -0.0138263884263449, 0.318869697181041, -1.20440104965924, 1.23554687250363, -1.09035164187433], a = 0.2, v = 0.2, t = 0.2)
movej(p[0.420396621590444, -0.0130317984815971, 0.320059127976464, -1.20988514489629, 1.21924652016639, -1.10486695529885], a = 0.2, v = 0.2, t = 0.2)
movej(p[0.419504031467093, -0.0125245664433132, 0.321262298381492, -1.21051490176583, 1.20106755198372, -1.12373125969679], a = 0.2, v = 0.2, t = 0.2)
movej(p[0.418358753409658, -0.0120497562536994, 0.322390784858547, -1.20726490899579, 1.18190953467844, -1.14136016669092], a = 0.2, v = 0.2, t = 0.2)
movej(p[0.417527179387544, -0.0114773607519149, 0.323218607793843, -1.20958254872545, 1.15172807513089, -1.15218431152953], a = 0.2, v = 0.2, t = 0.2)
movej(p[0.417203665581121, -0.010684981082595, 0.323772442641069, -1.21240005456144, 1.13148615251482, -1.15404436648366], a = 0.2, v = 0.2, t = 0.2)
movej(p[0.417092467636295, -0.0100799374104184, 0.324113685863896, -1.2157927001993, 1.13003948104944, -1.15338083494197], a = 0.2, v = 0.2, t = 0.2)
movej(p[0.416932057344126, -0.0100635737316096, 0.324228818297999, -1.21454221260429, 1.13425729974005, -1.15597748202333], a = 0.2, v = 0.2, t = 0.2)
movej(p[0.416738611403821, -0.0100048047819653, 0.324340543950993, -1.21361626705072, 1.1351661875644, -1.16004094700769], a = 0.2, v = 0.2, t = 0.2)
movej(p[0.416570352799876, -0.00977718290736022, 0.324464345059226, -1.21870730302677, 1.12091259203004, -1.16233012204021], a = 0.2, v = 0.2, t = 0.2)
movej(p[0.41664522172662, -0.00936451661181011, 0.324598501170996, -1.22289096321742, 1.11604241854768, -1.1584000237323], a = 0.2, v = 0.2, t = 0.2)
movej(p[0.416752444030408, -0.00916326923484896, 0.32466609378033, -1.22790220049023, 1.10971355799064, -1.15679901881869], a = 0.2, v = 0.2, t = 0.2)
movej(p[0.416946439404004, -0.00916979097758139, 0.324538372815742, -1.22709226802497, 1.11721126180293, -1.15464037029709], a = 0.2, v = 0.2, t = 0.2)
movej(p[0.417456253151335, -0.00912020835789392, 0.324217112505469, -1.23363621456458, 1.11720204239079, -1.14953618785904], a = 0.2, v = 0.2, t = 0.2)
movej(p[0.418120443505557, -0.00931673143851053, 0.323652844994226, -1.23782681147762, 1.135404388617, -1.13957824180145], a = 0.2, v = 0.2, t = 0.2)
movej(p[0.418957264262457, -0.00976565878070502, 0.322766956434219, -1.24016492638249, 1.16101391051227, -1.12392654779281], a = 0.2, v = 0.2, t = 0.2)
movej(p[0.419825723833609, -0.010481907952982, 0.32149275042792, -1.23896797719485, 1.18371585164584, -1.10888760730473], a = 0.2, v = 0.2, t = 0.2)
movej(p[0.420823152045351, -0.0111535212500319, 0.320027485403549, -1.23635564632881, 1.2047862579592, -1.09145525950941], a = 0.2, v = 0.2, t = 0.2)
movej(p[0.421751554699853, -0.0121096688709418, 0.318644119963384, -1.22990832505926, 1.22905834923433, -1.07782031403297], a = 0.2, v = 0.2, t = 0.2)
movej(p[0.422164307328927, -0.0133729154405733, 0.317700144862861, -1.21713805128757, 1.25540259407837, -1.0739644131745], a = 0.2, v = 0.2, t = 0.2)
movej(p[0.422056777752031, -0.014232592240986, 0.317497450218322, -1.21275657946053, 1.25648350267693, -1.07760762656648], a = 0.2, v = 0.2, t = 0.2)
movej(p[0.421649735912954, -0.0142662842905747, 0.318087361463371, -1.21344381822084, 1.23790140134667, -1.09043487215277], a = 0.2, v = 0.2, t = 0.2)
movej(p[0.421103776610992, -0.0134784805187073, 0.319342751103138, -1.21939544734099, 1.20488260566165, -1.10653692041689], a = 0.2, v = 0.2, t = 0.2)
movej(p[0.420380442046049, -0.0123118465292183, 0.320723412881463, -1.2231213766235, 1.18505806895144, -1.11584556981277], a = 0.2, v = 0.2, t = 0.2)
movej(p[0.419454160427664, -0.0117311303595462, 0.321852239463637, -1.22049887487335, 1.17757069756391, -1.13022462707218], a = 0.2, v = 0.2, t = 0.2)
movej(p[0.418582543164728, -0.0114089581114412, 0.322605985584625, -1.22018741291212, 1.17089620783114, -1.14150431241898], a = 0.2, v = 0.2, t = 0.2)
movej(p[0.417868162361586, -0.0110308615839392, 0.323238315561502, -1.22085903048542, 1.14993576527122, -1.15592967605184], a = 0.2, v = 0.2, t = 0.2)
movej(p[0.417464695310328, -0.0105018530453687, 0.323694629813388, -1.22456305750036, 1.12949865455442, -1.16041318559626], a = 0.2, v = 0.2, t = 0.2)
movej(p[0.417364324940862, -0.00974606225689438, 0.324051636574515, -1.23358420620763, 1.1114005821667, -1.15642639068706], a = 0.2, v = 0.2, t = 0.2)
movej(p[0.41727552602968, -0.00956214579423325, 0.324197617950845, -1.23934839399225, 1.11668756248347, -1.15793441063817], a = 0.2, v = 0.2, t = 0.2)
movej(p[0.417201271335413, -0.00959675966768231, 0.324282346809235, -1.23921869550339, 1.11727772234784, -1.16178633914703], a = 0.2, v = 0.2, t = 0.2)
movej(p[0.417104724596156, -0.00974702393697831, 0.324283708760698, -1.23522309190268, 1.12637259228161, -1.16347734720151], a = 0.2, v = 0.2, t = 0.2)
movej(p[0.417115135893029, -0.00968468866925493, 0.32431588804278, -1.23274089995848, 1.1194353071525, -1.16352341688313], a = 0.2, v = 0.2, t = 0.2)
movej(p[0.417379024114497, -0.00936261961359172, 0.324157430871107, -1.2363435466864, 1.11520959530033, -1.15772058625454], a = 0.2, v = 0.2, t = 0.2)
movej(p[0.417985945908223, -0.00917834666438267, 0.323690934534798, -1.24098660623632, 1.11501417961582, -1.14905275249376], a = 0.2, v = 0.2, t = 0.2)
movej(p[0.418973454324977, -0.00913303914916563, 0.322933978847585, -1.24891109560174, 1.12158130048325, -1.13370667637905], a = 0.2, v = 0.2, t = 0.2)
movej(p[0.419839058292232, -0.00970736019936844, 0.322110877251142, -1.2494593389599, 1.15616138685257, -1.11914073262009], a = 0.2, v = 0.2, t = 0.2)
movej(p[0.420525959068273, -0.0105688606051787, 0.321166183631674, -1.24603341636975, 1.18700865653384, -1.1076391660335], a = 0.2, v = 0.2, t = 0.2)
movej(p[0.421111537201032, -0.011547903012818, 0.319952029720764, -1.23302343249965, 1.21627112372842, -1.09577556329926], a = 0.2, v = 0.2, t = 0.2)
movej(p[0.421732722631331, -0.0124497701208216, 0.318606010962802, -1.22507455534336, 1.23147708315262, -1.08147797089045], a = 0.2, v = 0.2, t = 0.2)
movej(p[0.422270644298409, -0.0133000715505394, 0.317419580954623, -1.21674880387288, 1.24854282555854, -1.06991359555676], a = 0.2, v = 0.2, t = 0.2)
movej(p[0.422341266206806, -0.0142901637993588, 0.31688702649273, -1.20759553061032, 1.26221553820729, -1.06907396136642], a = 0.2, v = 0.2, t = 0.2)
movej(p[0.422122608927969, -0.014790333681236, 0.316917722806427, -1.19925384524547, 1.2601589962817, -1.07381472076425], a = 0.2, v = 0.2, t = 0.2)
movej(p[0.421866255145289, -0.0145244113912445, 0.317522279432221, -1.2034416506733, 1.24315316776549, -1.08184644805922], a = 0.2, v = 0.2, t = 0.2)
movej(p[0.421371489685697, -0.0138449649015954, 0.318591356056088, -1.20884522067948, 1.22654263806198, -1.09430274308684], a = 0.2, v = 0.2, t = 0.2)
movej(p[0.420560996888102, -0.0130399933770212, 0.319947255436452, -1.21180039582478, 1.20814047342647, -1.11196461332404], a = 0.2, v = 0.2, t = 0.2)
movej(p[0.419466414850763, -0.0122738871091398, 0.321291228434971, -1.20946708957931, 1.18759527304915, -1.13199258401534], a = 0.2, v = 0.2, t = 0.2)
movej(p[0.418591095409155, -0.0114511266685678, 0.322343090084463, -1.21114186689866, 1.16127447722198, -1.14225490989155], a = 0.2, v = 0.2, t = 0.2)
movej(p[0.418153673940246, -0.0106280044464825, 0.322989123340764, -1.22242379734974, 1.14134611899521, -1.14487132782155], a = 0.2, v = 0.2, t = 0.2)
movej(p[0.417793174698, -0.0103538145226409, 0.323384494707081, -1.22402444152313, 1.14767203425189, -1.14579618894723], a = 0.2, v = 0.2, t = 0.2)
movej(p[0.417481064896013, -0.0103679062076028, 0.32364043891178, -1.22260071201066, 1.14983882654179, -1.14918313278517], a = 0.2, v = 0.2, t = 0.2)
movej(p[0.417154355442283, -0.0101930387606687, 0.323914120834541, -1.21844413161174, 1.14030044352091, -1.15152197593924], a = 0.2, v = 0.2, t = 0.2)
movej(p[0.417112908512461, -0.00978557296347352, 0.324162430088748, -1.22103398295468, 1.12561641526278, -1.1502324229012], a = 0.2, v = 0.2, t = 0.2)
movej(p[0.41710805352566, -0.00942417830885511, 0.32432834566281, -1.22867237457139, 1.11898474649634, -1.14851378315257], a = 0.2, v = 0.2, t = 0.2)
movej(p[0.41710048381851, -0.00921507326059823, 0.32443375524884, -1.23265583312961, 1.11761718040738, -1.15306958983432], a = 0.2, v = 0.2, t = 0.2)
movej(p[0.417226115390893, -0.00906346736615108, 0.324357519647647, -1.23859512880043, 1.10819299288693, -1.15337806292372], a = 0.2, v = 0.2, t = 0.2)
movej(p[0.417618292615918, -0.00889810847006974, 0.324153474474809, -1.23752677392542, 1.11847416186334, -1.14525025908039], a = 0.2, v = 0.2, t = 0.2)
movej(p[0.41822114444038, -0.00907621211226278, 0.323653187816601, -1.2380932972421, 1.13509563258856, -1.13358244233337], a = 0.2, v = 0.2, t = 0.2)
movej(p[0.418900723363683, -0.00944768714427608, 0.322837872466204, -1.24193558367832, 1.15154069258201, -1.12480344602187], a = 0.2, v = 0.2, t = 0.2)
movej(p[0.41984005261429, -0.00984118986586371, 0.321753919968418, -1.25057588339979, 1.16012888719602, -1.11224738244366], a = 0.2, v = 0.2, t = 0.2)
movej(p[0.420786435993426, -0.0104667371502435, 0.320627113106219, -1.25315492613706, 1.18292482272509, -1.1012774250238], a = 0.2, v = 0.2, t = 0.2)
movej(p[0.42138406726294, -0.0114788641410639, 0.319657521754074, -1.24516572590976, 1.20981002343269, -1.08919618815195], a = 0.2, v = 0.2, t = 0.2)
movej(p[0.421577195947046, -0.0124156006311911, 0.318988354365195, -1.23109623881234, 1.21937011911004, -1.09168371296617], a = 0.2, v = 0.2, t = 0.2)
movej(p[0.421519557552786, -0.0125018564780072, 0.319062052427566, -1.22928333237847, 1.20290361217729, -1.09618756072748], a = 0.2, v = 0.2, t = 0.2)
movej(p[0.421035282986748, -0.0121314952382193, 0.31991873994373, -1.22098151096856, 1.19297045434706, -1.11136968252275], a = 0.2, v = 0.2, t = 0.2)
movej(p[0.420179625536802, -0.0116555028733314, 0.321221861409488, -1.21792034343274, 1.18248846241053, -1.12581622547315], a = 0.2, v = 0.2, t = 0.2)
movej(p[0.419063266731473, -0.0110496249356939, 0.322383421956231, -1.21455236453573, 1.16394385536406, -1.13917434548126], a = 0.2, v = 0.2, t = 0.2)
movej(p[0.418404258417591, -0.0104906383223952, 0.323098418320828, -1.21735174367381, 1.14533503025483, -1.14189426197258], a = 0.2, v = 0.2, t = 0.2)
movej(p[0.418034817500706, -0.0100900867748112, 0.323496876675941, -1.22221631168187, 1.13377275691653, -1.14295348275568], a = 0.2, v = 0.2, t = 0.2)
movej(p[0.41783579219082, -0.00989561319323031, 0.323742680159791, -1.22455744716692, 1.13049771264899, -1.14683886910083], a = 0.2, v = 0.2, t = 0.2)
movej(p[0.417702049887433, -0.00963098364053051, 0.323850632757091, -1.22911347588954, 1.12161469994155, -1.14776303768295], a = 0.2, v = 0.2, t = 0.2)
movej(p[0.41770804869309, -0.00934632153926457, 0.32395263093567, -1.23182510802595, 1.12168934733643, -1.1480391265756], a = 0.2, v = 0.2, t = 0.2)
movej(p[0.417750174942075, -0.00925325457857661, 0.323974331870552, -1.23310332624875, 1.1220204383151, -1.14610117084364], a = 0.2, v = 0.2, t = 0.2)
movej(p[0.417668702681541, -0.00926262013076182, 0.323989854193048, -1.23167150759179, 1.11781073619213, -1.15002808788077], a = 0.2, v = 0.2, t = 0.2)
movej(p[0.417718752732434, -0.0090315017340139, 0.32397374047758, -1.23610455784327, 1.10124819578746, -1.15002230912369], a = 0.2, v = 0.2, t = 0.2)
movej(p[0.41798176388067, -0.00869789878629543, 0.323910679378849, -1.2410322140653, 1.10106196831028, -1.14526051685569], a = 0.2, v = 0.2, t = 0.2)
movej(p[0.418432985152278, -0.00902077487222411, 0.3236063555617, -1.24370496551746, 1.12103612631899, -1.13859785154931], a = 0.2, v = 0.2, t = 0.2)
movej(p[0.418887583241779, -0.00931751939978078, 0.323105201441606, -1.24190470878071, 1.13578370148567, -1.1310743466672], a = 0.2, v = 0.2, t = 0.2)
movej(p[0.419584648938098, -0.00960820440929101, 0.322286192429957, -1.24230002105401, 1.14304139265281, -1.11956382698899], a = 0.2, v = 0.2, t = 0.2)
movej(p[0.420507990618014, -0.00991702646825604, 0.321314415789918, -1.2447831631837, 1.1608030264886, -1.10592586743425], a = 0.2, v = 0.2, t = 0.2)
movej(p[0.421326632957169, -0.0106813459416089, 0.320296903238056, -1.24377652390462, 1.18963838937689, -1.09405266886752], a = 0.2, v = 0.2, t = 0.2)
movej(p[0.421817196286068, -0.0117174343038233, 0.319190983599509, -1.23491656914067, 1.21644463628203, -1.08609815893122], a = 0.2, v = 0.2, t = 0.2)
movej(p[0.42211503784132, -0.0125132865127143, 0.318281562305736, -1.22956871730934, 1.22399687418398, -1.08118546076081], a = 0.2, v = 0.2, t = 0.2)
movej(p[0.422199722449912, -0.0130130093179331, 0.317941237878297, -1.21944678322124, 1.22990869017878, -1.07919947876984], a = 0.2, v = 0.2, t = 0.2)
movej(p[0.421963727825174, -0.0132547914294924, 0.318341258137315, -1.21548172904606, 1.22604543946495, -1.08801451406082], a = 0.2, v = 0.2, t = 0.2)
movej(p[0.421317944857358, -0.0128681847551976, 0.319390226214412, -1.20881854952015, 1.21024601905371, -1.10142468456574], a = 0.2, v = 0.2, t = 0.2)
movej(p[0.420587855674934, -0.0119671861308181, 0.320524463990762, -1.21983272945377, 1.17852068277712, -1.11468873784553], a = 0.2, v = 0.2, t = 0.2)
movej(p[0.419746497544085, -0.011195261998324, 0.321595278098051, -1.22465834364129, 1.16387944272596, -1.12698946936958], a = 0.2, v = 0.2, t = 0.2)
movej(p[0.419014146051834, -0.0108681937720247, 0.322415619716734, -1.22446830986367, 1.1563598626955, -1.13959688042839], a = 0.2, v = 0.2, t = 0.2)
movej(p[0.418444097423572, -0.0105931779698985, 0.322890476194523, -1.22392358373788, 1.1435989256964, -1.14954569024384], a = 0.2, v = 0.2, t = 0.2)
movej(p[0.418284003537293, -0.0100393122275769, 0.323235020604153, -1.22680128676215, 1.12842890961629, -1.15243761072962], a = 0.2, v = 0.2, t = 0.2)
movej(p[0.418171034320568, -0.00975697072093531, 0.323381137908292, -1.2292799645722, 1.12787018140825, -1.15024761432018], a = 0.2, v = 0.2, t = 0.2)
movej(p[0.418068421610613, -0.0096872476839617, 0.32352338515913, -1.22751767240995, 1.13279375978744, -1.15103159596501], a = 0.2, v = 0.2, t = 0.2)
movej(p[0.417893106296268, -0.00958860380214866, 0.32360084524651, -1.22477742308366, 1.12544074653111, -1.15217355626906], a = 0.2, v = 0.2, t = 0.2)
movej(p[0.418066281235979, -0.00914279660866892, 0.323660553633675, -1.23057653335812, 1.11233071336875, -1.14715326547998], a = 0.2, v = 0.2, t = 0.2)
movej(p[0.418422477367145, -0.00909495988408882, 0.323476865930972, -1.23562414970439, 1.12197889879258, -1.13962164114367], a = 0.2, v = 0.2, t = 0.2)
movej(p[0.418975614527254, -0.00933259681861145, 0.323028875844858, -1.23904289328342, 1.13737904684041, -1.12891323574426], a = 0.2, v = 0.2, t = 0.2)
movej(p[0.419615075112492, -0.00969294271904462, 0.322265645243487, -1.23936913558984, 1.15187417277533, -1.11929389287932], a = 0.2, v = 0.2, t = 0.2)
movej(p[0.420550558270698, -0.00990230963922119, 0.321382254937083, -1.24515023385612, 1.15467294558653, -1.10552961677807], a = 0.2, v = 0.2, t = 0.2)
movej(p[0.421326363434445, -0.0106305246166064, 0.320442291477892, -1.24615237437184, 1.17840163854229, -1.09671022282444], a = 0.2, v = 0.2, t = 0.2)
movej(p[0.421878718358195, -0.01154457687935, 0.319421886128395, -1.24282305099854, 1.20271363442405, -1.08688344626438], a = 0.2, v = 0.2, t = 0.2)
movej(p[0.422167604984977, -0.0124676329195266, 0.318430837914048, -1.23200021809751, 1.22211071442812, -1.07950930193965], a = 0.2, v = 0.2, t = 0.2)
movej(p[0.422347992113538, -0.0128720596511273, 0.317992880866935, -1.22972743748929, 1.22261074852266, -1.0777274509474], a = 0.2, v = 0.2, t = 0.2)
movej(p[0.422198804619253, -0.0130998177008205, 0.318305817845173, -1.22709497593978, 1.21786373268242, -1.08711588373102], a = 0.2, v = 0.2, t = 0.2)
movej(p[0.42148878100979, -0.0127071989060503, 0.319483463350237, -1.23007017041363, 1.19793363035659, -1.10790681148845], a = 0.2, v = 0.2, t = 0.2)
movej(p[0.420561080651608, -0.0119286450084742, 0.320744918095952, -1.23273779670762, 1.16907855525074, -1.12485983249404], a = 0.2, v = 0.2, t = 0.2)
movej(p[0.419630816987799, -0.0111187878295281, 0.321880972999659, -1.23098550057333, 1.15346434818276, -1.13659143501993], a = 0.2, v = 0.2, t = 0.2)
movej(p[0.418875013117847, -0.0107738036910162, 0.322614190560987, -1.22550711370189, 1.14558914442302, -1.14291321504682], a = 0.2, v = 0.2, t = 0.2)
movej(p[0.418269018187742, -0.0106086581802247, 0.323078065974813, -1.2203716821717, 1.14468547504996, -1.15115181180409], a = 0.2, v = 0.2, t = 0.2)
movej(p[0.418045942583949, -0.0101430883661484, 0.323330836043181, -1.22576588394306, 1.1267374547945, -1.15102154972364], a = 0.2, v = 0.2, t = 0.2)
movej(p[0.417974335385891, -0.00973296715670939, 0.323508781576374, -1.2298729207034, 1.1274705738654, -1.15082914499276], a = 0.2, v = 0.2, t = 0.2)
movej(p[0.417980932145239, -0.00964327805852662, 0.32357945957743, -1.23194936115463, 1.12732815386898, -1.14905851883165], a = 0.2, v = 0.2, t = 0.2)
movej(p[0.417875538963316, -0.00960599277481585, 0.323624519169792, -1.22693988205057, 1.12728155693154, -1.15215592947198], a = 0.2, v = 0.2, t = 0.2)
movej(p[0.417975617025212, -0.00929244174603724, 0.323637756391562, -1.22803921729413, 1.11011204205124, -1.1481437473202], a = 0.2, v = 0.2, t = 0.2)
movej(p[0.418282827572823, -0.00910127897144264, 0.323488517063148, -1.22908136796393, 1.1241195918798, -1.13897122600452], a = 0.2, v = 0.2, t = 0.2)
movej(p[0.418873013536505, -0.00932121338036749, 0.323064666348221, -1.23282746811839, 1.14238896739784, -1.12469391409495], a = 0.2, v = 0.2, t = 0.2)
movej(p[0.419585869948998, -0.00974958023888407, 0.322172729422597, -1.23752059764962, 1.16254385250297, -1.11227086367423], a = 0.2, v = 0.2, t = 0.2)
movej(p[0.420609458058845, -0.0102119695782195, 0.32107669193681, -1.24355035979761, 1.17498318016078, -1.09866992799157], a = 0.2, v = 0.2, t = 0.2)
movej(p[0.421537971751181, -0.0109320448914671, 0.319948289439297, -1.23809983443752, 1.20288736446345, -1.08469158716079], a = 0.2, v = 0.2, t = 0.2)
movej(p[0.422171369610703, -0.0118878812394027, 0.318846800920507, -1.22651187753122, 1.23320428662816, -1.07323063060317], a = 0.2, v = 0.2, t = 0.2)
movej(p[0.422458907269227, -0.0127981057053004, 0.317824901493989, -1.21736326069769, 1.25082940508418, -1.06639736625835], a = 0.2, v = 0.2, t = 0.2)
movej(p[0.422519760280834, -0.0135766789911555, 0.317015097270037, -1.21382190940384, 1.25741413558934, -1.0661425573572], a = 0.2, v = 0.2, t = 0.2)
movej(p[0.422376287745285, -0.0141582861926873, 0.316877322436815, -1.20977348819496, 1.25697982394782, -1.0666618083749], a = 0.2, v = 0.2, t = 0.2)
movej(p[0.421933341851942, -0.0142209159921454, 0.317461764173681, -1.20303315211819, 1.25011318801877, -1.07469788538492], a = 0.2, v = 0.2, t = 0.2)
movej(p[0.421365594185476, -0.01355005813543, 0.318570828456446, -1.20479452264288, 1.22775235750815, -1.08803016443699], a = 0.2, v = 0.2, t = 0.2)
movej(p[0.420737322271642, -0.0124787490937737, 0.319809085275993, -1.20954418037275, 1.20562967934917, -1.10145193884523], a = 0.2, v = 0.2, t = 0.2)
movej(p[0.420053364645167, -0.0119718431768836, 0.320723033100656, -1.20784326950919, 1.20588063504964, -1.11246085209323], a = 0.2, v = 0.2, t = 0.2)
movej(p[0.419644633422064, -0.0119363652142057, 0.320992789640938, -1.20352126797704, 1.20822347877253, -1.11012285811451], a = 0.2, v = 0.2, t = 0.2)
movej(p[0.419655609409848, -0.012014491180391, 0.320768895325001, -1.20548158227014, 1.2074267368529, -1.10472893228446], a = 0.2, v = 0.2, t = 0.2)
movej(p[0.420104722551373, -0.0121556820649638, 0.320376615611491, -1.20771819734795, 1.20634791725199, -1.10006835873052], a = 0.2, v = 0.2, t = 0.2)
movej(p[0.420427333620258, -0.0124364142871028, 0.320105926465447, -1.20699686578581, 1.20943485489145, -1.10234453154097], a = 0.2, v = 0.2, t = 0.2)
movej(p[0.420446010600498, -0.0128118666385724, 0.320104071988409, -1.19565760787016, 1.21663964851825, -1.11247825574592], a = 0.2, v = 0.2, t = 0.2)
movej(p[0.420202371889717, -0.0127904781036946, 0.320333056273426, -1.19328748660084, 1.20361041136894, -1.11612408916869], a = 0.2, v = 0.2, t = 0.2)
movej(p[0.419922228013732, -0.0124497243652218, 0.320635115328686, -1.19582233177391, 1.19752860646421, -1.118276360612], a = 0.2, v = 0.2, t = 0.2)
movej(p[0.419717776139171, -0.0122695821601283, 0.320813674550887, -1.20058906421251, 1.19512351961453, -1.11549127998555], a = 0.2, v = 0.2, t = 0.2)
movej(p[0.419418825763113, -0.011955476276386, 0.321110539090455, -1.20731964735778, 1.18237599149346, -1.12437222322321], a = 0.2, v = 0.2, t = 0.2)
movej(p[0.419112007355372, -0.011374490361697, 0.321645742546819, -1.21489712131106, 1.16212616157431, -1.13199010623728], a = 0.2, v = 0.2, t = 0.2)
movej(p[0.418674964247994, -0.0108493936022149, 0.32237415260254, -1.21635073843878, 1.15492375428235, -1.1416083023439], a = 0.2, v = 0.2, t = 0.2)
movej(p[0.418248540437314, -0.0105932292283949, 0.322962785612292, -1.21609427790235, 1.15541411501734, -1.14770293775018], a = 0.2, v = 0.2, t = 0.2)
movej(p[0.417859803714495, -0.0104076252809822, 0.323282286365853, -1.21479523203948, 1.14675714430939, -1.15261204519711], a = 0.2, v = 0.2, t = 0.2)
movej(p[0.417764557588463, -0.00998065300866775, 0.323463336293386, -1.22026805295132, 1.13198191490384, -1.15311343509888], a = 0.2, v = 0.2, t = 0.2)
movej(p[0.417732035996628, -0.00978771467202403, 0.323546579001281, -1.22110676247937, 1.13255731559793, -1.15200378991082], a = 0.2, v = 0.2, t = 0.2)
movej(p[0.417776371383877, -0.00974724525862828, 0.323613975753553, -1.21888926332172, 1.14073745383876, -1.151529515294], a = 0.2, v = 0.2, t = 0.2)
movej(p[0.417887129376952, -0.0097887702931024, 0.323471964551308, -1.22103706033524, 1.1353630857516, -1.14841040683786], a = 0.2, v = 0.2, t = 0.2)
movej(p[0.418617317674154, -0.00968340996606054, 0.32299235551716, -1.22629253787243, 1.14211702414225, -1.13534742395129], a = 0.2, v = 0.2, t = 0.2)
movej(p[0.419567987409671, -0.0101380181699046, 0.32209201381982, -1.23313961475409, 1.16392144222761, -1.11855789872451], a = 0.2, v = 0.2, t = 0.2)
movej(p[0.42059843463455, -0.0108688725316237, 0.32086182233932, -1.23108200113542, 1.19824724737016, -1.10073528641012], a = 0.2, v = 0.2, t = 0.2)
movej(p[0.42137414174555, -0.0116817842823502, 0.319572415127042, -1.23035478197001, 1.21414970972487, -1.08541196033128], a = 0.2, v = 0.2, t = 0.2)
movej(p[0.422025281557361, -0.0123942517851654, 0.318457307050259, -1.22336166555798, 1.2325737042805, -1.07102211559193], a = 0.2, v = 0.2, t = 0.2)
movej(p[0.422346688980826, -0.0134442519394103, 0.317614502250897, -1.21180035330705, 1.25366086698839, -1.06273032130154], a = 0.2, v = 0.2, t = 0.2)
movej(p[0.422338240514606, -0.014337520774739, 0.317113776116918, -1.19869241947918, 1.2693379884974, -1.05921805425545], a = 0.2, v = 0.2, t = 0.2)
movej(p[0.422188124538858, -0.0147885698549113, 0.316951455782083, -1.19273924636651, 1.27120461072156, -1.05965491417116], a = 0.2, v = 0.2, t = 0.2)
movej(p[0.421957510500222, -0.0147647992695082, 0.31719949119176, -1.18669692468673, 1.27322901492731, -1.06219846354484], a = 0.2, v = 0.2, t = 0.2)
movej(p[0.421619712336013, -0.0147434927077382, 0.317732846214876, -1.18626039607135, 1.26852447096593, -1.07132438925931], a = 0.2, v = 0.2, t = 0.2)
movej(p[0.42107354215921, -0.0145186317344874, 0.318621060091529, -1.18873446957006, 1.24873353911866, -1.08756995603456], a = 0.2, v = 0.2, t = 0.2)
movej(p[0.420350485673271, -0.0137327750400707, 0.319856184827733, -1.20149695938227, 1.21408883289565, -1.10335653018537], a = 0.2, v = 0.2, t = 0.2)
movej(p[0.419324195248911, -0.0128333639017075, 0.321225739874694, -1.20390081306413, 1.19267838003511, -1.12045166131248], a = 0.2, v = 0.2, t = 0.2)
movej(p[0.418265870977251, -0.0120909019357553, 0.322440690872006, -1.20572695457303, 1.17242702651614, -1.13613606720027], a = 0.2, v = 0.2, t = 0.2)
movej(p[0.417457701052516, -0.0114356676755592, 0.323299538605437, -1.2069061061553, 1.15692247708225, -1.14687906164169], a = 0.2, v = 0.2, t = 0.2)
movej(p[0.417093688140927, -0.0108171189540903, 0.32386036181739, -1.21140864442626, 1.14387896435764, -1.15102954467503], a = 0.2, v = 0.2, t = 0.2)
movej(p[0.416924998858354, -0.0103499611976567, 0.324208716328699, -1.2128923731368, 1.14067782779839, -1.15098317060789], a = 0.2, v = 0.2, t = 0.2)
movej(p[0.41678208979648, -0.0100897200341482, 0.324398919539371, -1.21073587377316, 1.13850560230335, -1.15345879944193], a = 0.2, v = 0.2, t = 0.2)
movej(p[0.416725375390427, -0.00974757273479253, 0.324531731141612, -1.21553563658613, 1.11980732770366, -1.15571363316554], a = 0.2, v = 0.2, t = 0.2)
movej(p[0.416870865352023, -0.00925127757906201, 0.324668249896269, -1.22197986432792, 1.11552469797693, -1.15506859619094], a = 0.2, v = 0.2, t = 0.2)
movej(p[0.417253507671897, -0.00940206691957027, 0.324477124595143, -1.22467215871589, 1.12955692504554, -1.14799352921746], a = 0.2, v = 0.2, t = 0.2)
movej(p[0.417850200981704, -0.0096834494388271, 0.323945070584447, -1.22755950695918, 1.14628224079323, -1.13834753236281], a = 0.2, v = 0.2, t = 0.2)
movej(p[0.418792044117217, -0.0100646811168247, 0.322978810149335, -1.23137591438932, 1.16163121558336, -1.1222021414032], a = 0.2, v = 0.2, t = 0.2)
movej(p[0.419928975623015, -0.0104937848347346, 0.321896571449741, -1.2332897306535, 1.18343880182309, -1.10601036934843], a = 0.2, v = 0.2, t = 0.2)
movej(p[0.420963214709737, -0.0113134573455064, 0.320531631869876, -1.22742476387793, 1.21779460563117, -1.08592874519808], a = 0.2, v = 0.2, t = 0.2)
movej(p[0.421818300891345, -0.0125224353912804, 0.318965427726298, -1.21947516217822, 1.24787559995335, -1.07190596356639], a = 0.2, v = 0.2, t = 0.2)
movej(p[0.422353356220108, -0.0134874517057918, 0.317747187510459, -1.21255472469913, 1.25877181247804, -1.06154543743205], a = 0.2, v = 0.2, t = 0.2)
movej(p[0.422568337399215, -0.0141706810944856, 0.317254487860515, -1.20872176829152, 1.26371307263014, -1.06319978463475], a = 0.2, v = 0.2, t = 0.2)
movej(p[0.422209886675138, -0.0145810498699322, 0.317668099679189, -1.19457385725178, 1.26820740409366, -1.07294906314175], a = 0.2, v = 0.2, t = 0.2)
movej(p[0.421590892684206, -0.014540126076908, 0.318406716611268, -1.18894701872598, 1.25991947075108, -1.08767904288449], a = 0.2, v = 0.2, t = 0.2)
movej(p[0.421088636699224, -0.0140660593340738, 0.319205108563187, -1.19258785524602, 1.23599374440533, -1.09872740330674], a = 0.2, v = 0.2, t = 0.2)
movej(p[0.420313742897283, -0.0134000982577467, 0.320243310513932, -1.19627117820125, 1.21993445757563, -1.11293408886002], a = 0.2, v = 0.2, t = 0.2)
movej(p[0.419356985310845, -0.0127212860866096, 0.321416957077898, -1.1990389818916, 1.1993771149274, -1.13089437834353], a = 0.2, v = 0.2, t = 0.2)
movej(p[0.41818686529355, -0.0118912854776811, 0.322603095094026, -1.20146308028216, 1.17472281127195, -1.14898213911878], a = 0.2, v = 0.2, t = 0.2)
movej(p[0.417508814402063, -0.0109223756987806, 0.323475006427766, -1.21274609100337, 1.14480032819739, -1.1549952417251], a = 0.2, v = 0.2, t = 0.2)
movej(p[0.417097038124674, -0.0102563936707737, 0.324000479718668, -1.21729735637576, 1.13970590721127, -1.15336138710545], a = 0.2, v = 0.2, t = 0.2)
movej(p[0.416968545505188, -0.0100355480685494, 0.324256098530996, -1.21948965002708, 1.13490868111933, -1.15290019241624], a = 0.2, v = 0.2, t = 0.2)
movej(p[0.416733541446746, -0.00985453524053882, 0.324424845792341, -1.2170533298958, 1.12826594949674, -1.15754204093735], a = 0.2, v = 0.2, t = 0.2)
movej(p[0.416748255205139, -0.00929594787754282, 0.324578087181056, -1.22658333234586, 1.10416379248609, -1.16007879597627], a = 0.2, v = 0.2, t = 0.2)
movej(p[0.416743013745732, -0.00901863594731622, 0.324606811220766, -1.23110013873797, 1.10990348892017, -1.15867722461498], a = 0.2, v = 0.2, t = 0.2)
movej(p[0.416815327409663, -0.00901443224103743, 0.324598335227462, -1.23191847369124, 1.1148405119798, -1.15826691585046], a = 0.2, v = 0.2, t = 0.2)
movej(p[0.416886944483021, -0.0090116323212502, 0.324479698113317, -1.23080115457611, 1.11740295735573, -1.15654963596155], a = 0.2, v = 0.2, t = 0.2)
movej(p[0.417346646119371, -0.00889238538890176, 0.324265246400424, -1.23303320356775, 1.111776155725, -1.15058311425901], a = 0.2, v = 0.2, t = 0.2)
movej(p[0.418044030677058, -0.00904897521101964, 0.323719889706774, -1.23819662426128, 1.12772927572287, -1.13732292789848], a = 0.2, v = 0.2, t = 0.2)
movej(p[0.418922246492348, -0.00946080362113583, 0.32284236167184, -1.23943812656284, 1.15094359780555, -1.12516196421121], a = 0.2, v = 0.2, t = 0.2)
movej(p[0.419822230782809, -0.0100744172973369, 0.321676427275014, -1.24218988764109, 1.17056917398193, -1.1131555644862], a = 0.2, v = 0.2, t = 0.2)
movej(p[0.420951233811838, -0.0107151134211217, 0.320283001834809, -1.24349111577023, 1.18861318088891, -1.09346046798379], a = 0.2, v = 0.2, t = 0.2)
movej(p[0.421848910551344, -0.0118607548604616, 0.319049910717552, -1.24090434208919, 1.21782583606832, -1.08178223848773], a = 0.2, v = 0.2, t = 0.2)
movej(p[0.422223126716778, -0.0130533655594671, 0.318147424745147, -1.23042497347465, 1.24437703747715, -1.07099685688526], a = 0.2, v = 0.2, t = 0.2)
movej(p[0.422251671988396, -0.0138134353756507, 0.317725158120851, -1.21984298262664, 1.25298140272012, -1.07339033351054], a = 0.2, v = 0.2, t = 0.2)
movej(p[0.422062204027304, -0.0139490364559611, 0.317863965500835, -1.21469647852552, 1.24931762314458, -1.07629790895088], a = 0.2, v = 0.2, t = 0.2)
movej(p[0.421485132435949, -0.0137801075400334, 0.318688872762177, -1.211956306711, 1.23642224588562, -1.09495683738774], a = 0.2, v = 0.2, t = 0.2)
movej(p[0.42041221035834, -0.0131982665438459, 0.320090796487112, -1.21192000308551, 1.21361425794984, -1.11857161722603], a = 0.2, v = 0.2, t = 0.2)
movej(p[0.419129062325398, -0.0122295108862508, 0.321647122470425, -1.21499578836437, 1.18295953150326, -1.13758469981842], a = 0.2, v = 0.2, t = 0.2)
movej(p[0.418057484025136, -0.011353795277612, 0.322802686186796, -1.21460058774929, 1.16454701219576, -1.14777612708243], a = 0.2, v = 0.2, t = 0.2)
movej(p[0.417290005811492, -0.0107046897617048, 0.323618769502274, -1.21600662452122, 1.14943201070489, -1.15679881361529], a = 0.2, v = 0.2, t = 0.2)
movej(p[0.416788833721526, -0.0102899074318236, 0.324035126060475, -1.21636975919062, 1.13374980968097, -1.16565906411392], a = 0.2, v = 0.2, t = 0.2)
movej(p[0.416656314308087, -0.00963201837995661, 0.324315362479406, -1.22622847271582, 1.11177209645404, -1.1674082694946], a = 0.2, v = 0.2, t = 0.2)
movej(p[0.416644422163736, -0.00913198028767918, 0.324481693514317, -1.23269320897791, 1.11254656762245, -1.16604262467053], a = 0.2, v = 0.2, t = 0.2)
movej(p[0.416673995953342, -0.00914265233263957, 0.324535805513214, -1.23009381266263, 1.11821262049236, -1.1644709844756], a = 0.2, v = 0.2, t = 0.2)
movej(p[0.416643984527975, -0.00910827830999607, 0.324600611152743, -1.22622665920129, 1.11927977138682, -1.16569718572249], a = 0.2, v = 0.2, t = 0.2)
movej(p[0.416893946036474, -0.008925294450966, 0.324474941223153, -1.22850539661002, 1.10973706975581, -1.16093013715987], a = 0.2, v = 0.2, t = 0.2)
movej(p[0.417492252032947, -0.00884080357076005, 0.324088569020805, -1.23366259173984, 1.11982436784703, -1.15085202800784], a = 0.2, v = 0.2, t = 0.2)
movej(p[0.418389368009925, -0.00916045230973254, 0.323321031917843, -1.23882251799545, 1.13968125772423, -1.13778234293024], a = 0.2, v = 0.2, t = 0.2)
movej(p[0.419336632236745, -0.00986822299563244, 0.322175910469931, -1.23938056361052, 1.1623949853005, -1.12529474988612], a = 0.2, v = 0.2, t = 0.2)
movej(p[0.420438949262517, -0.0105415018121512, 0.320858328324515, -1.24247806509383, 1.17887310818176, -1.10795180238306], a = 0.2, v = 0.2, t = 0.2)
movej(p[0.421333165131749, -0.011543393459316, 0.319599588967795, -1.23392510829303, 1.20911908332601, -1.0968228052578], a = 0.2, v = 0.2, t = 0.2)
movej(p[0.421828090101027, -0.0126934150221277, 0.318571255809352, -1.22616554934803, 1.23652132145402, -1.08555693290406], a = 0.2, v = 0.2, t = 0.2)
movej(p[0.421943174414177, -0.0136848486697426, 0.317827153345074, -1.21067177775267, 1.25463897696227, -1.07991317288826], a = 0.2, v = 0.2, t = 0.2)
movej(p[0.421882419348071, -0.0139579147127549, 0.317630484847098, -1.21060238497603, 1.24741751270254, -1.07809356519031], a = 0.2, v = 0.2, t = 0.2)
movej(p[0.42164137799469, -0.0138815303946154, 0.318075382534103, -1.20503894672114, 1.24209656856538, -1.08492908333671], a = 0.2, v = 0.2, t = 0.2)
movej(p[0.421052538068549, -0.0133499922435776, 0.319159891854199, -1.21081952749969, 1.22502879145293, -1.10334047417034], a = 0.2, v = 0.2, t = 0.2)
movej(p[0.420204704703444, -0.0126139832027488, 0.320470170472254, -1.21213966005862, 1.20214481552714, -1.11925868262535], a = 0.2, v = 0.2, t = 0.2)
movej(p[0.419388317247037, -0.0116283811548563, 0.321612323257222, -1.22117252395425, 1.17814836227846, -1.12881900406512], a = 0.2, v = 0.2, t = 0.2)
movej(p[0.418461893895945, -0.0110470785431445, 0.322545523377491, -1.22189456667829, 1.16419123530972, -1.13907088651877], a = 0.2, v = 0.2, t = 0.2)
movej(p[0.417706520336007, -0.010696740749917, 0.323222105295406, -1.21934117559094, 1.15971635294667, -1.14860593074502], a = 0.2, v = 0.2, t = 0.2)
movej(p[0.417183753872551, -0.0103920942801362, 0.32367000875748, -1.21376139352619, 1.14562041218213, -1.15789950138107], a = 0.2, v = 0.2, t = 0.2)
movej(p[0.417014092808022, -0.00973717596720371, 0.324053571899307, -1.2182828521016, 1.13115231788113, -1.15959461693755], a = 0.2, v = 0.2, t = 0.2)
movej(p[0.416892271799514, -0.00944400021697893, 0.324263310605955, -1.22198205155543, 1.12646955760419, -1.16093413815502], a = 0.2, v = 0.2, t = 0.2)
movej(p[0.416782317476573, -0.00932235015788067, 0.324398449263962, -1.2261491717439, 1.12477484268659, -1.16280151919444], a = 0.2, v = 0.2, t = 0.2)
movej(p[0.416638859761391, -0.00920729920509794, 0.324485489612184, -1.22609746262131, 1.11534498538452, -1.16655173987007], a = 0.2, v = 0.2, t = 0.2)
movej(p[0.416734915995431, -0.00868128007701158, 0.324591349551676, -1.23297415127555, 1.10356557042053, -1.1620466438203], a = 0.2, v = 0.2, t = 0.2)
movej(p[0.416806390794589, -0.0085831949373969, 0.324569912833828, -1.23563691734374, 1.10889991757809, -1.15816580121464], a = 0.2, v = 0.2, t = 0.2)
movej(p[0.416978224728646, -0.00869373051983847, 0.32448147730352, -1.23692056510986, 1.11918868744306, -1.15459130415705], a = 0.2, v = 0.2, t = 0.2)
movej(p[0.417248136656861, -0.00888856150959366, 0.324161896637274, -1.23714940377329, 1.11971173858052, -1.15351560689202], a = 0.2, v = 0.2, t = 0.2)
movej(p[0.417951140366738, -0.00887667466050913, 0.323593493243443, -1.24137353959982, 1.11807659500422, -1.14504452482312], a = 0.2, v = 0.2, t = 0.2)
movej(p[0.419105883440457, -0.00901824794605295, 0.32263265499612, -1.25121306527363, 1.13153359677856, -1.12500011427567], a = 0.2, v = 0.2, t = 0.2)
movej(p[0.420233722930792, -0.00970112392216803, 0.321635131655348, -1.25256032538929, 1.1655774387304, -1.10776349781257], a = 0.2, v = 0.2, t = 0.2)
movej(p[0.42106651802305, -0.010680103078802, 0.320685085316906, -1.24911962921209, 1.19664327840595, -1.0958608503017], a = 0.2, v = 0.2, t = 0.2)
movej(p[0.421511397680636, -0.0116652186267777, 0.319693611153954, -1.23587304917623, 1.22374110774255, -1.08451491022906], a = 0.2, v = 0.2, t = 0.2)
movej(p[0.421902093294079, -0.0126354634177903, 0.318594315709021, -1.22521582866129, 1.23919514864605, -1.07545448354076], a = 0.2, v = 0.2, t = 0.2)
movej(p[0.42239835787333, -0.0133579454037242, 0.317477645400702, -1.21773849673201, 1.24931000317002, -1.06174319508448], a = 0.2, v = 0.2, t = 0.2)
movej(p[0.422608506442243, -0.0140153423821553, 0.31697234287574, -1.21381165540586, 1.25749573629329, -1.06126250523033], a = 0.2, v = 0.2, t = 0.2)
movej(p[0.422410098226007, -0.0144734241403636, 0.317136596163459, -1.20644620735416, 1.26122695449428, -1.06721305135174], a = 0.2, v = 0.2, t = 0.2)
movej(p[0.421722831234805, -0.0140869901321901, 0.318293577827156, -1.20732978427597, 1.24135867589276, -1.08705576526813], a = 0.2, v = 0.2, t = 0.2)
movej(p[0.420867221771872, -0.0132173831146526, 0.319761109817264, -1.21044779915848, 1.21515098224586, -1.10641590479199], a = 0.2, v = 0.2, t = 0.2)
movej(p[0.419889981177393, -0.0120447605649197, 0.321255031578703, -1.21736223254486, 1.18349270797487, -1.12168057105664], a = 0.2, v = 0.2, t = 0.2)
movej(p[0.418785795545688, -0.011289766232744, 0.322413387227968, -1.21856697536697, 1.17134798030508, -1.13155288458368], a = 0.2, v = 0.2, t = 0.2)
movej(p[0.417877697749069, -0.0110748049585931, 0.323144612696767, -1.21712497870284, 1.16019330494743, -1.14257239636342], a = 0.2, v = 0.2, t = 0.2)
movej(p[0.417172870750092, -0.0107135122911011, 0.323692061421104, -1.21968521800739, 1.14506575252523, -1.15295297849911], a = 0.2, v = 0.2, t = 0.2)
movej(p[0.416885929169957, -0.0101922238842383, 0.324059313003756, -1.22318498081807, 1.12891033798921, -1.1608491102032], a = 0.2, v = 0.2, t = 0.2)
movej(p[0.416760619926909, -0.00972747581004767, 0.324310157008952, -1.22669004865538, 1.12586892284408, -1.16108950152701], a = 0.2, v = 0.2, t = 0.2)
movej(p[0.41668742880359, -0.0094364607887942, 0.324523003965407, -1.22532278254736, 1.12298958308377, -1.1609818951594], a = 0.2, v = 0.2, t = 0.2)
movej(p[0.416601878362668, -0.00921448481729403, 0.324604393830468, -1.22943384488797, 1.11233467230455, -1.15982364720731], a = 0.2, v = 0.2, t = 0.2)
movej(p[0.41668105009742, -0.00885521173008903, 0.324676458629272, -1.23479105473234, 1.10746434644506, -1.15854178510409], a = 0.2, v = 0.2, t = 0.2)
movej(p[0.416852147390031, -0.0088051192381475, 0.324519735126528, -1.23863142996018, 1.11342243574157, -1.15356380807664], a = 0.2, v = 0.2, t = 0.2)
movej(p[0.417208333595678, -0.00895107208888258, 0.324171044768087, -1.23748262053469, 1.13035874616596, -1.14898331549314], a = 0.2, v = 0.2, t = 0.2)
movej(p[0.417835881159608, -0.00909367649404246, 0.323524893493707, -1.24297254790848, 1.13189557608212, -1.13952803628725], a = 0.2, v = 0.2, t = 0.2)
movej(p[0.418824423821603, -0.00907596786755521, 0.322773253941054, -1.24951600940083, 1.14281123019645, -1.12393584637337], a = 0.2, v = 0.2, t = 0.2)
movej(p[0.419728685293215, -0.00968339685522976, 0.321886197614268, -1.25200764963657, 1.17038331390897, -1.10857727259919], a = 0.2, v = 0.2, t = 0.2)
movej(p[0.42040782483128, -0.0105457386195566, 0.320882814427577, -1.24371547994762, 1.20121725021846, -1.09920628207023], a = 0.2, v = 0.2, t = 0.2)
movej(p[0.420959219450549, -0.0115534654186163, 0.319601294033202, -1.23443778286528, 1.2203171878101, -1.09190752209453], a = 0.2, v = 0.2, t = 0.2)
movej(p[0.421518837804437, -0.0124622538265287, 0.318436116854557, -1.22520925273408, 1.23168415156073, -1.0876875769857], a = 0.2, v = 0.2, t = 0.2)
movej(p[0.421849655042083, -0.0133750086635822, 0.317615436322552, -1.21847953125208, 1.24416134896636, -1.08101207379691], a = 0.2, v = 0.2, t = 0.2)
movej(p[0.421892291692844, -0.0140603965041757, 0.317308052793425, -1.2112555778264, 1.25036169833573, -1.08090650158969], a = 0.2, v = 0.2, t = 0.2)
movej(p[0.421800406104861, -0.0140069165438948, 0.317549336905147, -1.21316168345841, 1.24219579657924, -1.0803189430668], a = 0.2, v = 0.2, t = 0.2)
movej(p[0.421320361912536, -0.0134983468379093, 0.318500047574893, -1.21327968991695, 1.22538391466511, -1.09737094656762], a = 0.2, v = 0.2, t = 0.2)
movej(p[0.420289449431039, -0.0127965508633061, 0.319995196870289, -1.21579469241953, 1.20399060205623, -1.12021510999059], a = 0.2, v = 0.2, t = 0.2)
movej(p[0.41888219358404, -0.0120025788866308, 0.321631789692173, -1.21168752098977, 1.17648160431945, -1.14734183408441], a = 0.2, v = 0.2, t = 0.2)
movej(p[0.417876129256646, -0.0110756811828162, 0.322759957269811, -1.22110078126316, 1.14284032843937, -1.1533623314884], a = 0.2, v = 0.2, t = 0.2)
movej(p[0.417295320451209, -0.0105265981406205, 0.323417736820592, -1.22461481627706, 1.12949167590847, -1.15756537342902], a = 0.2, v = 0.2, t = 0.2)
movej(p[0.416991628780732, -0.0102272332740455, 0.323819535577364, -1.22963297356458, 1.12465229909672, -1.16013557715626], a = 0.2, v = 0.2, t = 0.2)
movej(p[0.416696482387152, -0.00996884540846671, 0.324092366087531, -1.22537553206015, 1.11927569606644, -1.16544509504489], a = 0.2, v = 0.2, t = 0.2)
movej(p[0.416654861816019, -0.00939556604452851, 0.324353869015701, -1.22932942397309, 1.11029924667939, -1.16344977759737], a = 0.2, v = 0.2, t = 0.2)
movej(p[0.41663836924853, -0.00915189335527651, 0.324464030786431, -1.23154865208393, 1.1104209834853, -1.15956418485827], a = 0.2, v = 0.2, t = 0.2)
movej(p[0.416631963632493, -0.00906614295635263, 0.324549883842099, -1.23170102181019, 1.11601215434837, -1.16072806722743], a = 0.2, v = 0.2, t = 0.2)
movej(p[0.416634442661288, -0.00901335775439276, 0.324502886535045, -1.2295038593253, 1.1114449674762, -1.16205856598156], a = 0.2, v = 0.2, t = 0.2)
movej(p[0.417060676679574, -0.00868883849186245, 0.324299548952925, -1.23314419295839, 1.10830132876784, -1.15303077030688], a = 0.2, v = 0.2, t = 0.2)
movej(p[0.417698767825057, -0.0088372435102892, 0.323804902684807, -1.23630738751076, 1.12385589215243, -1.14225316577877], a = 0.2, v = 0.2, t = 0.2)
movej(p[0.418422693936976, -0.00913761264274811, 0.323166186649274, -1.2371257538816, 1.14453179913809, -1.13215833952489], a = 0.2, v = 0.2, t = 0.2)
movej(p[0.419244798155543, -0.00955940198449325, 0.322240452042648, -1.24007140245564, 1.15846284704355, -1.12171925099958], a = 0.2, v = 0.2, t = 0.2)
movej(p[0.420309454371717, -0.00991726044154874, 0.321190601517061, -1.24553725661405, 1.16864714741485, -1.10668469499322], a = 0.2, v = 0.2, t = 0.2)
movej(p[0.421165379454927, -0.0109004763493891, 0.320059195471248, -1.24363750148391, 1.19486282613064, -1.09175650336467], a = 0.2, v = 0.2, t = 0.2)
movej(p[0.421712412250652, -0.0121050755217767, 0.318949697974232, -1.23493015236644, 1.22147868566431, -1.08104148272295], a = 0.2, v = 0.2, t = 0.2)
movej(p[0.421960127850026, -0.0130996301295294, 0.318002069471271, -1.22150736435819, 1.23778778493434, -1.07312082158229], a = 0.2, v = 0.2, t = 0.2)
movej(p[0.422032600878358, -0.013535042989683, 0.317676192437135, -1.21474570037973, 1.23690419441668, -1.07441447347994], a = 0.2, v = 0.2, t = 0.2)
movej(p[0.42180700691425, -0.0136426518924151, 0.318107782876569, -1.2154148875107, 1.22648305799678, -1.09214112853368], a = 0.2, v = 0.2, t = 0.2)
movej(p[0.420793415349306, -0.0130629833908546, 0.319542711609215, -1.21684288464725, 1.20531348795473, -1.11502544094034], a = 0.2, v = 0.2, t = 0.2)
movej(p[0.419560895653781, -0.0120765881459901, 0.321165697180475, -1.22181808861164, 1.1790091751886, -1.13623625273383], a = 0.2, v = 0.2, t = 0.2)
movej(p[0.418331035267728, -0.0112526626034515, 0.322482545759493, -1.21782649663651, 1.16639620449436, -1.14521984454333], a = 0.2, v = 0.2, t = 0.2)
movej(p[0.417554483778768, -0.0107907219720517, 0.323283920948428, -1.21602022199322, 1.15344256380497, -1.15084626767824], a = 0.2, v = 0.2, t = 0.2)
movej(p[0.417032042954338, -0.0105109764156757, 0.323745379070235, -1.21294539054168, 1.14154650407192, -1.1563274672406], a = 0.2, v = 0.2, t = 0.2)
movej(p[0.416915391986815, -0.00987196926461426, 0.324071492955815, -1.21968439502659, 1.12176218215594, -1.15624988542048], a = 0.2, v = 0.2, t = 0.2)
movej(p[0.416815653912698, -0.00943670352419004, 0.32426589180608, -1.22582489597543, 1.12544463768654, -1.15679279425364], a = 0.2, v = 0.2, t = 0.2)
movej(p[0.416833721142811, -0.00941508844312803, 0.3243312909916, -1.22830563019363, 1.1305860433297, -1.15681969605759], a = 0.2, v = 0.2, t = 0.2)
movej(p[0.416711314683873, -0.00930742307892223, 0.324405731828247, -1.22963319180495, 1.12237000800921, -1.1595383056804], a = 0.2, v = 0.2, t = 0.2)
movej(p[0.41675680363328, -0.00901075045534389, 0.324513054844888, -1.23136162556327, 1.10971680859248, -1.15840464286053], a = 0.2, v = 0.2, t = 0.2)
movej(p[0.416824008337299, -0.00878985688717586, 0.324559051820872, -1.23200998059426, 1.11451473573619, -1.15646614742778], a = 0.2, v = 0.2, t = 0.2)
movej(p[0.41699717889055, -0.00874246419995073, 0.324457001023794, -1.2322267672314, 1.11920892531052, -1.1546820909187], a = 0.2, v = 0.2, t = 0.2)
movej(p[0.417296766461547, -0.00890475673521813, 0.324047324954197, -1.23276740996032, 1.1177499116816, -1.15336246797036], a = 0.2, v = 0.2, t = 0.2)
movej(p[0.418097162022995, -0.00885498489561648, 0.323370667274349, -1.24107076656043, 1.11273080537974, -1.1427248050844], a = 0.2, v = 0.2, t = 0.2)
movej(p[0.419099394324416, -0.00912545203414504, 0.32260088370453, -1.24735513667703, 1.13166265852236, -1.13006302715211], a = 0.2, v = 0.2, t = 0.2)
movej(p[0.419985454719759, -0.00986184413585553, 0.321774079553146, -1.24242600765151, 1.16507477907602, -1.11832053172397], a = 0.2, v = 0.2, t = 0.2)
movej(p[0.420724441706274, -0.0105889583163384, 0.320787453260013, -1.2352027776948, 1.18929292880583, -1.1039350068213], a = 0.2, v = 0.2, t = 0.2)
movej(p[0.421415054662788, -0.0113202077593876, 0.31973416448174, -1.23033222173643, 1.2063264588054, -1.09051065190092], a = 0.2, v = 0.2, t = 0.2)
movej(p[0.421953830955568, -0.0121986040260292, 0.318676388972718, -1.2259488015752, 1.22866062359284, -1.0779373054118], a = 0.2, v = 0.2, t = 0.2)
movej(p[0.42222380550299, -0.0132419738678746, 0.317808432451358, -1.21933788360827, 1.24884280599839, -1.06843561359989], a = 0.2, v = 0.2, t = 0.2)
movej(p[0.4221916099045, -0.0139703972673491, 0.317338358494904, -1.212778986857, 1.26097716459896, -1.06356020909411], a = 0.2, v = 0.2, t = 0.2)
movej(p[0.422051951227529, -0.014246992019285, 0.317359881904216, -1.20832401702781, 1.25663176258835, -1.0712724723515], a = 0.2, v = 0.2, t = 0.2)
movej(p[0.421613248271958, -0.0140660365655306, 0.318194372120174, -1.20595236232292, 1.2437050326676, -1.08658803371346], a = 0.2, v = 0.2, t = 0.2)
movej(p[0.420567151660623, -0.0133932253445317, 0.319674202921532, -1.20572316455548, 1.21630149205054, -1.11197811608716], a = 0.2, v = 0.2, t = 0.2)
