def moving():
set_payload_mass(0.606)
set_tcp(p[0.0005,0.0025,0.058,0,0,0])
movej(p[0.5385, 0.0103, 0.1725, -1.192, 1.165, -1.191], a = 0.2, v = 0.2, t = 0.2)
movej(p[0.538600008524446, 0.0102022400390445, 0.172602182606505, -1.19027157173908, 1.16326839996086, -1.18922581949945], a = 0.2, v = 0.2, t = 0.2)
movej(p[0.5385, 0.0103, 0.1725, -1.192, 1.165, -1.191], a = 0.2, v = 0.2, t = 0.2)
movej(p[0.538600008524446, 0.0102022400390445, 0.172602182606505, -1.19027157173908, 1.16326839996086, -1.18922581949945], a = 0.2, v = 0.2, t = 0.2)
movej(p[0.5385, 0.0103, 0.1725, -1.192, 1.165, -1.191], a = 0.2, v = 0.2, t = 0.2)
movej(p[0.538600008524446, 0.0102022400390445, 0.172602182606505, -1.19027157173908, 1.16326839996086, -1.18922581949945], a = 0.2, v = 0.2, t = 0.2)
movej(p[0.535131853900614, 0.0111503671909977, 0.173225810266986, -1.18949122355049, 1.16445177791172, -1.18372134871986], a = 0.2, v = 0.2, t = 0.2)
movej(p[0.535650774996515, 0.0110154317996706, 0.173013858229026, -1.19675401516795, 1.16702051303411, -1.18429277164829], a = 0.2, v = 0.2, t = 0.2)
movej(p[0.536170899922734, 0.0108401528088022, 0.172762424109451, -1.20394725594038, 1.16040794856244, -1.18691606445907], a = 0.2, v = 0.2, t = 0.2)
movej(p[0.537492720061124, 0.010603764813297, 0.172644962212116, -1.19071449872688, 1.16846201956769, -1.18746038080856], a = 0.2, v = 0.2, t = 0.2)
movej(p[0.537752594440116, 0.0105519924644765, 0.172689187782114, -1.18509212408565, 1.16967370569848, -1.18873359406227], a = 0.2, v = 0.2, t = 0.2)
movej(p[0.537901946645761, 0.0105328378612938, 0.172732942322972, -1.18089009873609, 1.1741658094468, -1.18652634777924], a = 0.2, v = 0.2, t = 0.2)
movej(p[0.538005242459818, 0.0105295169218134, 0.172731032831074, -1.17774461598784, 1.175922184345, -1.18684838150416], a = 0.2, v = 0.2, t = 0.2)
movej(p[0.537702911780291, 0.0105724229736733, 0.172874404972479, -1.17555219572595, 1.17638799198827, -1.18664686700747], a = 0.2, v = 0.2, t = 0.2)
movej(p[0.536690292100269, 0.0109812359960329, 0.173487778884852, -1.15213558171628, 1.20337103163252, -1.17247191785446], a = 0.2, v = 0.2, t = 0.2)
movej(p[0.534878644321096, 0.0113725930250902, 0.173931878625931, -1.1588842896463, 1.20548833735019, -1.16652328415679], a = 0.2, v = 0.2, t = 0.2)
movej(p[0.532535891500167, 0.0119242082178295, 0.174433540642798, -1.1714945753282, 1.20909257984934, -1.1565243281373], a = 0.2, v = 0.2, t = 0.2)
movej(p[0.530534964029784, 0.012397973677899, 0.174745483132871, -1.18893594360253, 1.20386251720502, -1.15172482541679], a = 0.2, v = 0.2, t = 0.2)
movej(p[0.528506529689251, 0.012897111820053, 0.175298575802497, -1.19194550976216, 1.20672931078174, -1.14707636320561], a = 0.2, v = 0.2, t = 0.2)
movej(p[0.527114781471213, 0.0132065660123129, 0.175869699572341, -1.18504085804673, 1.21977259849199, -1.13455380101637], a = 0.2, v = 0.2, t = 0.2)
movej(p[0.526548631134505, 0.0133016333633961, 0.175984529686001, -1.18770809354353, 1.21356427271921, -1.13914774911426], a = 0.2, v = 0.2, t = 0.2)
movej(p[0.527958435012666, 0.0128840869885414, 0.1755961884186, -1.18374725655081, 1.20605041216517, -1.14991233933144], a = 0.2, v = 0.2, t = 0.2)
movej(p[0.530268092518687, 0.0124201174599414, 0.174644724314489, -1.19790406007276, 1.18567985902619, -1.16313697724014], a = 0.2, v = 0.2, t = 0.2)
movej(p[0.532363251883582, 0.0118967355081376, 0.174040417986357, -1.1933480918429, 1.18083724204459, -1.17203529451242], a = 0.2, v = 0.2, t = 0.2)
movej(p[0.534419594384007, 0.0114537981218213, 0.173648146520726, -1.17453838585254, 1.18364644870665, -1.18242249233571], a = 0.2, v = 0.2, t = 0.2)
movej(p[0.535528440227373, 0.0113001477201652, 0.173322896509625, -1.17511045189524, 1.18571018554443, -1.17842568860894], a = 0.2, v = 0.2, t = 0.2)
movej(p[0.536306041323171, 0.0111118881884455, 0.173334924166515, -1.15621177351943, 1.1934722108618, -1.18172489493604], a = 0.2, v = 0.2, t = 0.2)
movej(p[0.536953551866201, 0.0109887774895343, 0.173240564946092, -1.14877707650758, 1.19821349239282, -1.18118217918549], a = 0.2, v = 0.2, t = 0.2)
movej(p[0.537363638999085, 0.0109608489677887, 0.173298084517687, -1.13856211796493, 1.20362201714491, -1.1811718316789], a = 0.2, v = 0.2, t = 0.2)
movej(p[0.537901841067784, 0.0108520530683812, 0.173340355140105, -1.12877232467925, 1.20962421520215, -1.18039941273101], a = 0.2, v = 0.2, t = 0.2)
movej(p[0.537905744210223, 0.0108878817605349, 0.173262477541929, -1.13320576700688, 1.20728501557512, -1.17765509758833], a = 0.2, v = 0.2, t = 0.2)
movej(p[0.537563029520812, 0.0108835847343162, 0.17345775846068, -1.1322498780417, 1.21028929596781, -1.1776661589113], a = 0.2, v = 0.2, t = 0.2)
movej(p[0.536384924154982, 0.011152771221925, 0.173626732813438, -1.14854363639086, 1.20728314691172, -1.16995915804386], a = 0.2, v = 0.2, t = 0.2)
movej(p[0.535282112445524, 0.0113202339685869, 0.173827175179126, -1.15818205685384, 1.20415217023751, -1.17102449980795], a = 0.2, v = 0.2, t = 0.2)
movej(p[0.534225484913337, 0.0114912748516339, 0.174020091675445, -1.16535846132602, 1.20342892796632, -1.16523586248453], a = 0.2, v = 0.2, t = 0.2)
movej(p[0.531563994845829, 0.0119905513389274, 0.174478789549641, -1.19096835561407, 1.19551539846509, -1.15912682123972], a = 0.2, v = 0.2, t = 0.2)
movej(p[0.529134619879884, 0.0126337375698286, 0.17489134573638, -1.19974981835239, 1.19420885998067, -1.14727717185821], a = 0.2, v = 0.2, t = 0.2)
movej(p[0.527460742407078, 0.0129872202266526, 0.175183161221505, -1.21908842022373, 1.18647384259436, -1.14377006599306], a = 0.2, v = 0.2, t = 0.2)
movej(p[0.525268887270439, 0.0133294602340595, 0.175625619770206, -1.23031115221621, 1.18000120462474, -1.14283336317662], a = 0.2, v = 0.2, t = 0.2)
movej(p[0.526567790251576, 0.0132032737064741, 0.175434908638257, -1.20405418248326, 1.19326211617017, -1.14373191672126], a = 0.2, v = 0.2, t = 0.2)
movej(p[0.528334829219068, 0.0129442538867545, 0.175117137068799, -1.19245143244718, 1.19442312659476, -1.15647140089347], a = 0.2, v = 0.2, t = 0.2)
movej(p[0.530432998613872, 0.0125496312597016, 0.174721148757193, -1.18353837587924, 1.1943662727122, -1.16491379839939], a = 0.2, v = 0.2, t = 0.2)
movej(p[0.532306189329724, 0.0121590297063509, 0.174318729661518, -1.18529120899918, 1.19035848542644, -1.16960762101564], a = 0.2, v = 0.2, t = 0.2)
movej(p[0.534308333329344, 0.0115574371384868, 0.173844449989722, -1.19002062268443, 1.18418355467597, -1.18061018723301], a = 0.2, v = 0.2, t = 0.2)
movej(p[0.535627491395463, 0.0111405974364373, 0.173542859672592, -1.18687652362274, 1.18183632688706, -1.17905230482616], a = 0.2, v = 0.2, t = 0.2)
movej(p[0.536352925363433, 0.0107213196055797, 0.17325691898177, -1.20299080920353, 1.16855140288588, -1.18578425529022], a = 0.2, v = 0.2, t = 0.2)
movej(p[0.536969024525052, 0.0107057934141499, 0.173153936602538, -1.19745607103147, 1.16965524227507, -1.18222177464181], a = 0.2, v = 0.2, t = 0.2)
movej(p[0.537403516861887, 0.0108064425770761, 0.173197843495318, -1.16978787746289, 1.1845949776452, -1.1717770201011], a = 0.2, v = 0.2, t = 0.2)
movej(p[0.537772287318918, 0.0109030293870799, 0.173250221621996, -1.14335167119959, 1.19884275272965, -1.16258346084878], a = 0.2, v = 0.2, t = 0.2)
movej(p[0.537693593752444, 0.0109416157530945, 0.173333134256458, -1.13159446559102, 1.20763099305346, -1.16182357926297], a = 0.2, v = 0.2, t = 0.2)
movej(p[0.53769137861332, 0.0107599824135572, 0.173202339634523, -1.15351969209098, 1.19470117144305, -1.16490807456199], a = 0.2, v = 0.2, t = 0.2)
movej(p[0.537303351522007, 0.0108174094142233, 0.173322028088444, -1.13904478413902, 1.20360579690372, -1.16433111651624], a = 0.2, v = 0.2, t = 0.2)
movej(p[0.535933638115095, 0.0112613669678978, 0.173628775889511, -1.155627260629, 1.19810913331977, -1.16556310092647], a = 0.2, v = 0.2, t = 0.2)
movej(p[0.535132271097534, 0.0114522958793145, 0.173698442696172, -1.19133921087358, 1.18300517260564, -1.17828933047446], a = 0.2, v = 0.2, t = 0.2)
movej(p[0.534034372374969, 0.011710994204973, 0.173934095027566, -1.19227795791632, 1.18948925987352, -1.17457265154693], a = 0.2, v = 0.2, t = 0.2)
movej(p[0.530891940740535, 0.0125183786579927, 0.174752334318929, -1.18569534953233, 1.2028517358296, -1.15974362176107], a = 0.2, v = 0.2, t = 0.2)
movej(p[0.527514649238964, 0.0134124158098136, 0.175651988182693, -1.17502979162678, 1.21552178512445, -1.1391769092315], a = 0.2, v = 0.2, t = 0.2)
movej(p[0.525954485868561, 0.0137759675624889, 0.175984632287973, -1.18590162200507, 1.21023655647563, -1.13272768505934], a = 0.2, v = 0.2, t = 0.2)
movej(p[0.52509456714909, 0.0139610508820764, 0.176181661323177, -1.18568105286531, 1.20897959890379, -1.12936951381809], a = 0.2, v = 0.2, t = 0.2)
movej(p[0.526020774542989, 0.0138211374797782, 0.176149595557262, -1.1721013568129, 1.21248011530977, -1.14830217469203], a = 0.2, v = 0.2, t = 0.2)
movej(p[0.52758903211661, 0.0134207484502343, 0.175753626583983, -1.16662841699115, 1.21071756492455, -1.14582936976295], a = 0.2, v = 0.2, t = 0.2)
movej(p[0.529394057654175, 0.0129368775034927, 0.175222311643822, -1.18166029410245, 1.19658420308859, -1.1527776292906], a = 0.2, v = 0.2, t = 0.2)
movej(p[0.531790508528487, 0.0122716212208771, 0.174552227503246, -1.19009650081166, 1.18394154677892, -1.16124861855537], a = 0.2, v = 0.2, t = 0.2)
movej(p[0.533194392530847, 0.0118379042836981, 0.174124165234037, -1.19567837877048, 1.17973655427257, -1.16911099459726], a = 0.2, v = 0.2, t = 0.2)
movej(p[0.534160715858266, 0.0114331046691752, 0.173778570559644, -1.19574582824217, 1.17717248132951, -1.17620840423816], a = 0.2, v = 0.2, t = 0.2)
movej(p[0.535291126139241, 0.0112791136116807, 0.173675472543772, -1.16740918839265, 1.19088480947233, -1.16942817739607], a = 0.2, v = 0.2, t = 0.2)
movej(p[0.536227071289544, 0.0109349829331306, 0.173376745625492, -1.15997354883408, 1.19115718818163, -1.16982374860801], a = 0.2, v = 0.2, t = 0.2)
movej(p[0.537024914734501, 0.0108764144682448, 0.173253859774962, -1.16495495482174, 1.18822243812732, -1.17313300169894], a = 0.2, v = 0.2, t = 0.2)
movej(p[0.537257020916022, 0.0108781134241934, 0.173236082709729, -1.16264192565276, 1.18794570469143, -1.17165374736105], a = 0.2, v = 0.2, t = 0.2)
movej(p[0.537479881379781, 0.0106664804578669, 0.173045960561474, -1.16546342375195, 1.18304823396584, -1.17229117523427], a = 0.2, v = 0.2, t = 0.2)
movej(p[0.537537580487425, 0.0107130060647134, 0.173063262321059, -1.17034856264259, 1.18190862006701, -1.1748207791728], a = 0.2, v = 0.2, t = 0.2)
movej(p[0.537880279808772, 0.0107036048922319, 0.173036918192606, -1.17045478281781, 1.18351365067979, -1.17747087462454], a = 0.2, v = 0.2, t = 0.2)
movej(p[0.537481377526966, 0.0108828338988841, 0.173192669252776, -1.17248144316985, 1.18349504029697, -1.1762627883599], a = 0.2, v = 0.2, t = 0.2)
movej(p[0.536479483878643, 0.0109936598924793, 0.173337432150626, -1.17189538744722, 1.1840389482416, -1.1731087285689], a = 0.2, v = 0.2, t = 0.2)
movej(p[0.535377111933811, 0.0113117624545996, 0.173598183824102, -1.19582764340538, 1.17736243497342, -1.18113186941076], a = 0.2, v = 0.2, t = 0.2)
movej(p[0.533912734288918, 0.0117383324431081, 0.173977717232435, -1.21118317412472, 1.17786636015478, -1.18176223059795], a = 0.2, v = 0.2, t = 0.2)
movej(p[0.531654599489276, 0.0124575917935822, 0.174701397101853, -1.1959830115628, 1.19834550139091, -1.1627196970328], a = 0.2, v = 0.2, t = 0.2)
movej(p[0.529677282106868, 0.0129917323210242, 0.175279735753658, -1.19009801635839, 1.20913787036419, -1.15491955374155], a = 0.2, v = 0.2, t = 0.2)
movej(p[0.527772097923532, 0.0133918614898543, 0.175724735861318, -1.18202529511793, 1.21373898912243, -1.14442707348225], a = 0.2, v = 0.2, t = 0.2)
movej(p[0.527291755096389, 0.0135733968887977, 0.175915230814907, -1.18073194061546, 1.20959551577892, -1.14134581468372], a = 0.2, v = 0.2, t = 0.2)
movej(p[0.529040425719074, 0.0130647225043381, 0.17538793993318, -1.18536334425336, 1.19700690643117, -1.14823785983355], a = 0.2, v = 0.2, t = 0.2)
movej(p[0.531600900162935, 0.0122996603297216, 0.17456518034417, -1.19029083009987, 1.18483367487121, -1.16199313079784], a = 0.2, v = 0.2, t = 0.2)
movej(p[0.533041600295304, 0.0117915071743629, 0.174070582204979, -1.19570271920292, 1.17809078363363, -1.16918243283303], a = 0.2, v = 0.2, t = 0.2)
movej(p[0.534209884946119, 0.0115101310724341, 0.173851799952654, -1.18951616009532, 1.18439224266507, -1.17668223244222], a = 0.2, v = 0.2, t = 0.2)
movej(p[0.535372443349578, 0.0111062064612797, 0.173451502816703, -1.17937942659159, 1.18698329155399, -1.17686317203796], a = 0.2, v = 0.2, t = 0.2)
movej(p[0.536304843577903, 0.0108955795725449, 0.173229852105083, -1.17383464398801, 1.18498165625609, -1.17595634118848], a = 0.2, v = 0.2, t = 0.2)
movej(p[0.537156089624676, 0.0106823032347724, 0.17299486350621, -1.17844083558204, 1.18118596132003, -1.18028959858541], a = 0.2, v = 0.2, t = 0.2)
movej(p[0.537365520020937, 0.0106196965206018, 0.172921805526066, -1.18063057674404, 1.1797755751472, -1.18181464982579], a = 0.2, v = 0.2, t = 0.2)
movej(p[0.53736421534452, 0.0106490372499231, 0.172951642573881, -1.17949564944159, 1.17962422558411, -1.18088077200244], a = 0.2, v = 0.2, t = 0.2)
movej(p[0.537591400535839, 0.0105144540350742, 0.172819650388028, -1.17786502820303, 1.18126668055865, -1.18259502963137], a = 0.2, v = 0.2, t = 0.2)
movej(p[0.537970076060686, 0.010351083531545, 0.172650914483554, -1.17865510142621, 1.18161195058053, -1.18558026578901], a = 0.2, v = 0.2, t = 0.2)
movej(p[0.538143273110978, 0.0104906656981149, 0.17276526237617, -1.18520844722828, 1.17548935900605, -1.18524507069861], a = 0.2, v = 0.2, t = 0.2)
movej(p[0.537955870479564, 0.0106132544291989, 0.172884520737512, -1.1875417508055, 1.17467454841999, -1.18461734054116], a = 0.2, v = 0.2, t = 0.2)
movej(p[0.537279089814636, 0.0108752858648611, 0.173172241119662, -1.18562724831352, 1.17985015044225, -1.18203055213556], a = 0.2, v = 0.2, t = 0.2)
movej(p[0.535971121626056, 0.0112931197155323, 0.173607299404145, -1.18746577736008, 1.18355717425261, -1.17785670697646], a = 0.2, v = 0.2, t = 0.2)
movej(p[0.534616935257646, 0.0117241301892234, 0.174027975183317, -1.20380998188082, 1.17978966172265, -1.17839957525463], a = 0.2, v = 0.2, t = 0.2)
movej(p[0.533218831705324, 0.01205584196719, 0.174343101258631, -1.20118966142121, 1.18927454476733, -1.16978611361747], a = 0.2, v = 0.2, t = 0.2)
movej(p[0.53132069477285, 0.0125136886946154, 0.17483847863979, -1.19209994847396, 1.20424666462668, -1.16041748449828], a = 0.2, v = 0.2, t = 0.2)
movej(p[0.529187178368591, 0.0131079964346483, 0.175442684492867, -1.19489584197607, 1.20886919867068, -1.15145408570391], a = 0.2, v = 0.2, t = 0.2)
movej(p[0.527277032231406, 0.0136117159101075, 0.175959841910528, -1.18986369564833, 1.21321066806404, -1.14127445693155], a = 0.2, v = 0.2, t = 0.2)
movej(p[0.527705424422452, 0.0135434248393833, 0.17591600858633, -1.18556374108641, 1.2072560637685, -1.14129802421788], a = 0.2, v = 0.2, t = 0.2)
movej(p[0.52921549541908, 0.0130573921691463, 0.175428993146526, -1.18590413645263, 1.19933882060197, -1.15023797630798], a = 0.2, v = 0.2, t = 0.2)
movej(p[0.531220148025473, 0.0124230211441515, 0.174752865983688, -1.19087605398498, 1.18688050896003, -1.16126943584862], a = 0.2, v = 0.2, t = 0.2)
movej(p[0.531699241485819, 0.0122771558164879, 0.174581181003452, -1.19519942823891, 1.18186145314924, -1.16400580703356], a = 0.2, v = 0.2, t = 0.2)
movej(p[0.5343524102999, 0.0113813432976055, 0.173647420372989, -1.18516727658986, 1.18742525564038, -1.17472576826489], a = 0.2, v = 0.2, t = 0.2)
movej(p[0.536480867955259, 0.0108810092581106, 0.173151772949647, -1.18353749191435, 1.18864391163424, -1.18283741192242], a = 0.2, v = 0.2, t = 0.2)
movej(p[0.536744878750298, 0.0107941307814509, 0.173064120394656, -1.1806349568938, 1.18113407852821, -1.18379633243452], a = 0.2, v = 0.2, t = 0.2)
movej(p[0.537167286062398, 0.0106847452994067, 0.172963145749312, -1.18299061373391, 1.18505465777816, -1.18709169897773], a = 0.2, v = 0.2, t = 0.2)
movej(p[0.537615765974899, 0.010605940355045, 0.172874522226321, -1.18638562707341, 1.18057105005355, -1.18898864422851], a = 0.2, v = 0.2, t = 0.2)
movej(p[0.537911326081164, 0.0105173658865704, 0.172767384944674, -1.1870718292216, 1.17810284199302, -1.1901272904677], a = 0.2, v = 0.2, t = 0.2)
movej(p[0.538078215547774, 0.0104926864442669, 0.172750816267527, -1.18559818140396, 1.17846927106245, -1.19026311200744], a = 0.2, v = 0.2, t = 0.2)
movej(p[0.538082698171344, 0.0104980312857787, 0.172760937470773, -1.18746398118022, 1.18092022126503, -1.19100084843554], a = 0.2, v = 0.2, t = 0.2)
movej(p[0.538093116908103, 0.0104341221038373, 0.172673841222932, -1.18590792361495, 1.18384952163645, -1.19125772342879], a = 0.2, v = 0.2, t = 0.2)
movej(p[0.537631169459069, 0.010620002297163, 0.172881511822825, -1.18743053006121, 1.18204978568612, -1.18910963741038], a = 0.2, v = 0.2, t = 0.2)
movej(p[0.537097831558012, 0.0109697958630147, 0.173324778474611, -1.1921926996625, 1.17861086818525, -1.18657843326152], a = 0.2, v = 0.2, t = 0.2)
movej(p[0.535993699836553, 0.0112448353075683, 0.173610056278879, -1.18718872981246, 1.18180404205259, -1.18097600133763], a = 0.2, v = 0.2, t = 0.2)
movej(p[0.53384328046996, 0.0117710450068419, 0.174122203201325, -1.19508881711287, 1.19066680010991, -1.17348324448725], a = 0.2, v = 0.2, t = 0.2)
movej(p[0.532220354721796, 0.0121080832392043, 0.174395197351211, -1.19308838916253, 1.19910938465423, -1.16484464091894], a = 0.2, v = 0.2, t = 0.2)
movej(p[0.530250361075806, 0.0126420447516995, 0.174940556451192, -1.18929082032965, 1.20200230427936, -1.15445145964175], a = 0.2, v = 0.2, t = 0.2)
movej(p[0.529102976663981, 0.0130464532548669, 0.175433822215327, -1.18555788121659, 1.20387396926047, -1.14874318925172], a = 0.2, v = 0.2, t = 0.2)
movej(p[0.529058679025256, 0.0129947541656741, 0.175356764487746, -1.17962338195091, 1.20484799653776, -1.14829670516494], a = 0.2, v = 0.2, t = 0.2)
movej(p[0.530799838770631, 0.0124376683179319, 0.174715055395297, -1.18772538739003, 1.19190674328472, -1.15966680685164], a = 0.2, v = 0.2, t = 0.2)
movej(p[0.532705245416314, 0.0118331575634298, 0.174015583564357, -1.18482029124538, 1.1808579892862, -1.16889270636625], a = 0.2, v = 0.2, t = 0.2)
movej(p[0.53445300111791, 0.0112830802732303, 0.173402798224824, -1.18691585746422, 1.18327400554242, -1.17727525547448], a = 0.2, v = 0.2, t = 0.2)
movej(p[0.53608237908714, 0.0108596361637959, 0.17296625067922, -1.18829638155893, 1.18886937212782, -1.18300498331348], a = 0.2, v = 0.2, t = 0.2)
movej(p[0.536502966031355, 0.0105716923736724, 0.172514494211547, -1.19159634470658, 1.1887352888715, -1.18585691517295], a = 0.2, v = 0.2, t = 0.2)
movej(p[0.536979162863774, 0.0103998822540056, 0.172273749783626, -1.19053064337804, 1.18701697475654, -1.18775152917132], a = 0.2, v = 0.2, t = 0.2)
movej(p[0.537373672085804, 0.0103471293399593, 0.172248193496872, -1.19227772301814, 1.18537138357401, -1.18940190660705], a = 0.2, v = 0.2, t = 0.2)
movej(p[0.53774212660675, 0.010260393227602, 0.17215671107885, -1.19424525763761, 1.18718058428551, -1.1906190225672], a = 0.2, v = 0.2, t = 0.2)
movej(p[0.537831367403912, 0.0102888925638697, 0.172218866995336, -1.19419026393433, 1.18852051803924, -1.19027609965055], a = 0.2, v = 0.2, t = 0.2)
movej(p[0.538012906984514, 0.010251508699137, 0.172166606136821, -1.19520541079309, 1.18581526531272, -1.19116729492483], a = 0.2, v = 0.2, t = 0.2)
movej(p[0.538023166123184, 0.0101877407468173, 0.172021669984221, -1.19808304882752, 1.18781471313613, -1.1910554220398], a = 0.2, v = 0.2, t = 0.2)
movej(p[0.538013126162498, 0.0102984896605617, 0.172252246321458, -1.19793271320137, 1.18892363316663, -1.19032339067532], a = 0.2, v = 0.2, t = 0.2)
movej(p[0.538189460127327, 0.0103065421649975, 0.172299635138915, -1.19738865837213, 1.1893165431712, -1.19027739241099], a = 0.2, v = 0.2, t = 0.2)
movej(p[0.537792569169889, 0.0104835866102885, 0.172540579639361, -1.19689473686365, 1.18435825531862, -1.18923965710904], a = 0.2, v = 0.2, t = 0.2)
movej(p[0.536802695392911, 0.0107702129221022, 0.172857917334928, -1.19534353905022, 1.18831252308366, -1.18428900698922], a = 0.2, v = 0.2, t = 0.2)
movej(p[0.535076433098887, 0.0113508583546141, 0.1735952719809, -1.19492284174437, 1.18232910259284, -1.1786148052273], a = 0.2, v = 0.2, t = 0.2)
movej(p[0.533447340576508, 0.011770223554011, 0.173985849851575, -1.19410488762466, 1.19234689211429, -1.16941021298302], a = 0.2, v = 0.2, t = 0.2)
movej(p[0.531950065801751, 0.0122209349405014, 0.1745210854492, -1.19255203687684, 1.1955388947911, -1.16205740517864], a = 0.2, v = 0.2, t = 0.2)
movej(p[0.529914592352401, 0.0127527109346623, 0.17503312070094, -1.1903757392029, 1.20244787698649, -1.15184865722378], a = 0.2, v = 0.2, t = 0.2)
movej(p[0.52760736890523, 0.0133106558785855, 0.175525735737631, -1.18725291796128, 1.20903710227787, -1.1413512013192], a = 0.2, v = 0.2, t = 0.2)
movej(p[0.526385221177759, 0.0136528105030577, 0.175905978666812, -1.1856709582483, 1.20660309690852, -1.13771116203504], a = 0.2, v = 0.2, t = 0.2)
movej(p[0.527277842104876, 0.0134574543223169, 0.175770948695623, -1.18387015159594, 1.20057957150925, -1.14314925845937], a = 0.2, v = 0.2, t = 0.2)
movej(p[0.530185495322143, 0.0126147490506602, 0.174881727472732, -1.18405951406181, 1.18093902251933, -1.16279083970225], a = 0.2, v = 0.2, t = 0.2)
movej(p[0.53181383843927, 0.0120415437519201, 0.173964597608209, -1.19277612755612, 1.17334598661606, -1.17146478547818], a = 0.2, v = 0.2, t = 0.2)
movej(p[0.533705494746538, 0.0115182246279355, 0.173317702647919, -1.19764000214503, 1.16848416747586, -1.18041461996047], a = 0.2, v = 0.2, t = 0.2)
movej(p[0.535085887911393, 0.0111303272658688, 0.172889724579645, -1.20262282124228, 1.16799846201329, -1.18497784942052], a = 0.2, v = 0.2, t = 0.2)
movej(p[0.536393665454099, 0.0108747447033438, 0.172628969402275, -1.20684779279046, 1.18376417183642, -1.18119520001295], a = 0.2, v = 0.2, t = 0.2)
movej(p[0.537150320098214, 0.0106789580387134, 0.172408462097423, -1.2096784056483, 1.1853937552611, -1.18189741859353], a = 0.2, v = 0.2, t = 0.2)
movej(p[0.537270323840793, 0.0106358604847171, 0.17227473471576, -1.21239583281157, 1.18381592870491, -1.18240972765595], a = 0.2, v = 0.2, t = 0.2)
movej(p[0.537547909920038, 0.010588447909482, 0.172314799991487, -1.20921695283831, 1.18420503108356, -1.18193518501661], a = 0.2, v = 0.2, t = 0.2)
movej(p[0.53789658526219, 0.010542406264327, 0.172415682758531, -1.2046613681176, 1.18565397939361, -1.18210643339557], a = 0.2, v = 0.2, t = 0.2)
movej(p[0.538471713793329, 0.0105282655902897, 0.173010694518085, -1.18791717281879, 1.19340716471275, -1.1830835461643], a = 0.2, v = 0.2, t = 0.2)
movej(p[0.538539881377899, 0.0104984521653289, 0.17297877226713, -1.18736123530755, 1.19398155265358, -1.18289295861149], a = 0.2, v = 0.2, t = 0.2)
movej(p[0.538380558535188, 0.0105165961490088, 0.172878338320446, -1.19115874285333, 1.1944093311637, -1.18023901646584], a = 0.2, v = 0.2, t = 0.2)
movej(p[0.537977846814937, 0.0106191692456242, 0.172969177134968, -1.19070081678311, 1.19401313924114, -1.17896210823587], a = 0.2, v = 0.2, t = 0.2)
movej(p[0.537357169608025, 0.0107902205124974, 0.173243832262211, -1.18554661025949, 1.19401431658755, -1.17854846450776], a = 0.2, v = 0.2, t = 0.2)
movej(p[0.53647850485435, 0.0110497882499278, 0.173773465428028, -1.1753532680135, 1.19812894817514, -1.17630549721042], a = 0.2, v = 0.2, t = 0.2)
movej(p[0.534581438100138, 0.011519969597527, 0.174055096108946, -1.18190408107258, 1.19583814191655, -1.17070634600688], a = 0.2, v = 0.2, t = 0.2)
movej(p[0.533234482688485, 0.011856494608218, 0.174249705502855, -1.18753688992005, 1.19555054940239, -1.16531286330339], a = 0.2, v = 0.2, t = 0.2)
movej(p[0.53206751908617, 0.0121750016886455, 0.174454080282584, -1.19108385967462, 1.19672866804787, -1.15957671942584], a = 0.2, v = 0.2, t = 0.2)
movej(p[0.528941441894581, 0.013006149443348, 0.175345301816256, -1.1902000693568, 1.20346039510252, -1.1462901626361], a = 0.2, v = 0.2, t = 0.2)
movej(p[0.527455122824212, 0.0133982482335653, 0.175867270684838, -1.18351674295446, 1.20506363333536, -1.14362152759449], a = 0.2, v = 0.2, t = 0.2)
movej(p[0.525498350409393, 0.0161957580679968, 0.173191946231083, -1.18853226803471, 1.19852740866486, -1.14700209362206], a = 0.2, v = 0.2, t = 0.2)
movej(p[0.526877605983018, 0.0156052888746795, 0.173175391945629, -1.18744549930105, 1.19818284093715, -1.15137269946823], a = 0.2, v = 0.2, t = 0.2)
movej(p[0.528256958118858, 0.015014821855745, 0.173158940960759, -1.18636186980787, 1.1978356720505, -1.15574078631923], a = 0.2, v = 0.2, t = 0.2)
movej(p[0.529636317024126, 0.0144242561350761, 0.173142388920743, -1.18528428461122, 1.19748051468995, -1.1601073406247], a = 0.2, v = 0.2, t = 0.2)
movej(p[0.531015669159967, 0.0138337891161416, 0.173125937935873, -1.18421203847798, 1.19712271013884, -1.16446928139659], a = 0.2, v = 0.2, t = 0.2)
movej(p[0.532395024618925, 0.0132433233298165, 0.173109387013835, -1.18314546896833, 1.19676075304778, -1.16883133147533], a = 0.2, v = 0.2, t = 0.2)
movej(p[0.533774376754766, 0.012652856310882, 0.173092936028965, -1.18208250871943, 1.19639239487833, -1.17318915991731], a = 0.2, v = 0.2, t = 0.2)
movej(p[0.535153732213724, 0.0120623905245569, 0.173076385106926, -1.1810265711152, 1.19602113981714, -1.17754624690564], a = 0.2, v = 0.2, t = 0.2)
movej(p[0.536533087795874, 0.0114718235712786, 0.173059933004079, -1.17997557609615, 1.19564474594264, -1.18189826747458], a = 0.2, v = 0.2, t = 0.2)
movej(p[0.537912443254833, 0.0108813577849534, 0.17304338208204, -1.1789298868633, 1.19526167725518, -1.18624992399611], a = 0.2, v = 0.2, t = 0.2)
movej(p[0.538926793492161, 0.0104422712063831, 0.173093109162704, -1.18182750148683, 1.19321711648257, -1.19081318613708], a = 0.2, v = 0.2, t = 0.2)
movej(p[0.537666563974091, 0.0107900321357558, 0.173391504266195, -1.19494255858289, 1.19081058639699, -1.18916213653961], a = 0.2, v = 0.2, t = 0.2)
movej(p[0.536011502818365, 0.0111569877215836, 0.173610365269651, -1.19914724088251, 1.19585390261276, -1.18071796517453], a = 0.2, v = 0.2, t = 0.2)
movej(p[0.53412982704869, 0.0116203440687252, 0.173959165489526, -1.20282949365922, 1.19969628432108, -1.1715005918853], a = 0.2, v = 0.2, t = 0.2)
movej(p[0.532398637424308, 0.0120968523920835, 0.174410192885812, -1.20245629552335, 1.20542982317174, -1.16245141934311], a = 0.2, v = 0.2, t = 0.2)
movej(p[0.530881131649113, 0.0125370022091865, 0.174896895506263, -1.19511638567152, 1.20433851765791, -1.15731982949611], a = 0.2, v = 0.2, t = 0.2)
movej(p[0.529311292772645, 0.0129272182922594, 0.175195525378245, -1.19930913328806, 1.20612804636997, -1.14993403525401], a = 0.2, v = 0.2, t = 0.2)
movej(p[0.52861885656336, 0.0130681019648877, 0.175262193338009, -1.20095487457189, 1.20386579002298, -1.14790299423619], a = 0.2, v = 0.2, t = 0.2)
movej(p[0.529513637578588, 0.0128289452972111, 0.175086569754471, -1.1930300294402, 1.20137204085135, -1.15350634895856], a = 0.2, v = 0.2, t = 0.2)
movej(p[0.53108061058935, 0.0123364062211635, 0.174551534865786, -1.19391111123816, 1.19322206312046, -1.16305106358282], a = 0.2, v = 0.2, t = 0.2)
movej(p[0.533484083190392, 0.0116637075883105, 0.173897502415982, -1.19606148588126, 1.18553183848747, -1.1747512684837], a = 0.2, v = 0.2, t = 0.2)
movej(p[0.53541571015693, 0.0111667634784557, 0.173431274345374, -1.19501639633253, 1.18719011447156, -1.1803410590899], a = 0.2, v = 0.2, t = 0.2)
movej(p[0.536420002001809, 0.0109099292633181, 0.173223451809915, -1.19688180144693, 1.18891747419728, -1.18404628163565], a = 0.2, v = 0.2, t = 0.2)
movej(p[0.537233522574442, 0.0107150489689451, 0.173070387775052, -1.19926438249947, 1.19097142566117, -1.18643545000415], a = 0.2, v = 0.2, t = 0.2)
movej(p[0.537704671106504, 0.0105626181384666, 0.172870740279061, -1.20215183739334, 1.19224634848399, -1.18744628018776], a = 0.2, v = 0.2, t = 0.2)
movej(p[0.538450044990492, 0.010496153550696, 0.173068314826108, -1.20229042359986, 1.19625909247401, -1.18984723002487], a = 0.2, v = 0.2, t = 0.2)
movej(p[0.538855221479792, 0.0104263162329429, 0.173091132835824, -1.20060613731654, 1.19546860058446, -1.19200748223802], a = 0.2, v = 0.2, t = 0.2)
movej(p[0.538733478011681, 0.0103924068124745, 0.172929367545431, -1.20063884995068, 1.19265289108848, -1.19198987257366], a = 0.2, v = 0.2, t = 0.2)
movej(p[0.538616309062032, 0.0103879004980423, 0.172845765808797, -1.2019878603506, 1.19321799289364, -1.19082026213124], a = 0.2, v = 0.2, t = 0.2)
movej(p[0.538586291967191, 0.0103540949079583, 0.172715970061192, -1.20390343330261, 1.1935740647845, -1.18994999446271], a = 0.2, v = 0.2, t = 0.2)
movej(p[0.538604022537778, 0.0103639285907409, 0.17275030205137, -1.20426075020759, 1.19517976440664, -1.18930434815816], a = 0.2, v = 0.2, t = 0.2)
movej(p[0.538706123784899, 0.010451403357109, 0.173081381242177, -1.20134907646358, 1.19824115080469, -1.18955400274523], a = 0.2, v = 0.2, t = 0.2)
movej(p[0.537708320644081, 0.0107494547164056, 0.173435319258495, -1.19780460517059, 1.19748362322356, -1.18667322401605], a = 0.2, v = 0.2, t = 0.2)
movej(p[0.536427547736679, 0.0110551591455324, 0.173628247021346, -1.19797916915512, 1.19716278340491, -1.18148639444032], a = 0.2, v = 0.2, t = 0.2)
movej(p[0.534758714317418, 0.0113995814888084, 0.173770524490428, -1.19937096143974, 1.19150637154781, -1.17724834141114], a = 0.2, v = 0.2, t = 0.2)
movej(p[0.532935477832395, 0.0118840285496268, 0.174095811909404, -1.2015941323798, 1.20168079600422, -1.16493029158484], a = 0.2, v = 0.2, t = 0.2)
movej(p[0.531657495590438, 0.0122809628282828, 0.174559426995086, -1.19920256082996, 1.20237532940476, -1.16024011462024], a = 0.2, v = 0.2, t = 0.2)
movej(p[0.531137534476336, 0.0124259687186654, 0.174717734896266, -1.19758178846136, 1.20185996200959, -1.15866269811387], a = 0.2, v = 0.2, t = 0.2)
movej(p[0.530670280692402, 0.0125445549010583, 0.174841947249697, -1.19556495106446, 1.19957588106791, -1.15814991949724], a = 0.2, v = 0.2, t = 0.2)
movej(p[0.529688547202934, 0.012808497157733, 0.175083228062856, -1.19258279666688, 1.20106105671585, -1.1537104269612], a = 0.2, v = 0.2, t = 0.2)
movej(p[0.529246259230552, 0.0129034361549186, 0.175126227554712, -1.19500101285677, 1.20133092313731, -1.15176532466054], a = 0.2, v = 0.2, t = 0.2)
movej(p[0.531551447927254, 0.0121791696823924, 0.174342211713434, -1.19473321458943, 1.18877170997657, -1.16629378698133], a = 0.2, v = 0.2, t = 0.2)
movej(p[0.533634091317093, 0.0116239079799075, 0.173794031777177, -1.19454689659387, 1.18975781534175, -1.17334274574816], a = 0.2, v = 0.2, t = 0.2)
movej(p[0.536104530719867, 0.0109204054005442, 0.172978243386694, -1.20064153155284, 1.19101393680046, -1.18067801959892], a = 0.2, v = 0.2, t = 0.2)
movej(p[0.537348128892962, 0.0105629479463104, 0.172591920837146, -1.20418815465085, 1.18912388038709, -1.18569559669251], a = 0.2, v = 0.2, t = 0.2)
movej(p[0.537689274461382, 0.0104537401441299, 0.172457126708601, -1.20784101284759, 1.18877390236516, -1.18684948290822], a = 0.2, v = 0.2, t = 0.2)
movej(p[0.538220983425219, 0.0103773167654373, 0.172582132568324, -1.2059840596919, 1.19329247662448, -1.18857578835816], a = 0.2, v = 0.2, t = 0.2)
movej(p[0.538590665136485, 0.0103418548642495, 0.172723369163863, -1.20276510839119, 1.19393548618965, -1.19081558043825], a = 0.2, v = 0.2, t = 0.2)
movej(p[0.538947767748862, 0.0102849101351532, 0.172769363098917, -1.20039512893212, 1.1938423380673, -1.19286892405532], a = 0.2, v = 0.2, t = 0.2)
movej(p[0.539759198761416, 0.0102264156123607, 0.173093210381857, -1.19624077461866, 1.20011850278578, -1.19531137960556], a = 0.2, v = 0.2, t = 0.2)
movej(p[0.539072149549362, 0.0103169998504354, 0.172914082924364, -1.20014525142497, 1.19664726293743, -1.1920591153506], a = 0.2, v = 0.2, t = 0.2)
movej(p[0.538385103783617, 0.0104074841541663, 0.172734954348894, -1.20404008908967, 1.19316617443217, -1.18880698953883], a = 0.2, v = 0.2, t = 0.2)
movej(p[0.53783656443162, 0.0105404765203105, 0.172814615066054, -1.20451157881652, 1.19301409099933, -1.18610989074577], a = 0.2, v = 0.2, t = 0.2)
movej(p[0.53673478970972, 0.0109096880527765, 0.173356693322836, -1.20116343704018, 1.19699930695957, -1.18155704294623], a = 0.2, v = 0.2, t = 0.2)
movej(p[0.533992026365831, 0.0116458198808362, 0.17394949415038, -1.20249794269588, 1.20241599848315, -1.16802318488201], a = 0.2, v = 0.2, t = 0.2)
movej(p[0.530979221478142, 0.0124795442015517, 0.174664400833637, -1.20060441522358, 1.2077487004767, -1.15296391739061], a = 0.2, v = 0.2, t = 0.2)
movej(p[0.528287149204726, 0.0131757548019648, 0.175269902092574, -1.20285430314391, 1.20558361729792, -1.14308733634796], a = 0.2, v = 0.2, t = 0.2)
movej(p[0.527056783369593, 0.0133728367109019, 0.175318675475773, -1.1858224807299, 1.18633900373528, -1.14994555521099], a = 0.2, v = 0.2, t = 0.2)
movej(p[0.528017498173565, 0.0131306351847346, 0.175144406269795, -1.18579110526873, 1.1864114797271, -1.15387954489352], a = 0.2, v = 0.2, t = 0.2)
movej(p[0.530036305372612, 0.0126129751821609, 0.174732454057988, -1.18692364486668, 1.186259742329, -1.16205661015094], a = 0.2, v = 0.2, t = 0.2)
movej(p[0.532621972027794, 0.011886162790888, 0.173940422413311, -1.19578677532457, 1.18705119280792, -1.16992094125428], a = 0.2, v = 0.2, t = 0.2)
movej(p[0.534036902423763, 0.0113223625703886, 0.173116875319376, -1.21371829273088, 1.17822290994574, -1.17843526676007], a = 0.2, v = 0.2, t = 0.2)
movej(p[0.535886472985292, 0.0110565648957945, 0.173230033589532, -1.20232212167894, 1.19271415076937, -1.17835428559561], a = 0.2, v = 0.2, t = 0.2)
movej(p[0.537186812030946, 0.0107121146560336, 0.172956127567919, -1.20103069470117, 1.19042831219029, -1.18486838740786], a = 0.2, v = 0.2, t = 0.2)
movej(p[0.537791340556432, 0.010544271037618, 0.172756422431199, -1.20404043753739, 1.19175616727306, -1.18559656288209], a = 0.2, v = 0.2, t = 0.2)
movej(p[0.537790083486299, 0.010488497317668, 0.172487524231247, -1.20941033728776, 1.19009281920213, -1.18432988374456], a = 0.2, v = 0.2, t = 0.2)
movej(p[0.538410575526392, 0.0104053152100245, 0.172685342898589, -1.20533025495661, 1.19517227703408, -1.1857905323667], a = 0.2, v = 0.2, t = 0.2)
movej(p[0.538247761958373, 0.0103928398268112, 0.172511469390306, -1.20592555410259, 1.18913310992827, -1.18751687454858], a = 0.2, v = 0.2, t = 0.2)
movej(p[0.538445986265317, 0.0104048214221401, 0.172740248050827, -1.20259707612713, 1.19394768505286, -1.18710154597965], a = 0.2, v = 0.2, t = 0.2)
movej(p[0.538563288539298, 0.010360787413409, 0.172628232995616, -1.20524208750117, 1.19439054527233, -1.18623098667103], a = 0.2, v = 0.2, t = 0.2)
movej(p[0.538712787416024, 0.0103178651743855, 0.172587646455297, -1.20482092698494, 1.19365020513512, -1.18716785904994], a = 0.2, v = 0.2, t = 0.2)
movej(p[0.5386092098962, 0.0103702102489949, 0.172759357551477, -1.2004715726495, 1.19347314983613, -1.18825660946327], a = 0.2, v = 0.2, t = 0.2)
movej(p[0.538350860476775, 0.010451367331421, 0.172866039674886, -1.200115141479, 1.19515847965022, -1.18634186416489], a = 0.2, v = 0.2, t = 0.2)
movej(p[0.537701533858833, 0.0106525886290288, 0.173155223755743, -1.19721269179708, 1.1971995156859, -1.18370990416162], a = 0.2, v = 0.2, t = 0.2)
movej(p[0.535946018459653, 0.0111058087409984, 0.173475173366379, -1.19852374676374, 1.19711231100218, -1.17714974762497], a = 0.2, v = 0.2, t = 0.2)
movej(p[0.534109155589825, 0.0116207853022021, 0.173882836031901, -1.20419865526333, 1.20420255329111, -1.16494879224259], a = 0.2, v = 0.2, t = 0.2)
movej(p[0.531892767772491, 0.0122144977470928, 0.174275847934973, -1.20824635147415, 1.20700645186941, -1.15331553273654], a = 0.2, v = 0.2, t = 0.2)
movej(p[0.529851060220409, 0.0127719599420451, 0.174834021620281, -1.20713411324382, 1.20736899959467, -1.14574345756675], a = 0.2, v = 0.2, t = 0.2)
movej(p[0.52956364293394, 0.012875845387257, 0.175001956422248, -1.20439361417733, 1.20947146344704, -1.14416969417403], a = 0.2, v = 0.2, t = 0.2)
movej(p[0.529335559219417, 0.0129657291136202, 0.175164286841161, -1.20132927819254, 1.21173779038497, -1.14286606653858], a = 0.2, v = 0.2, t = 0.2)
movej(p[0.528482135837895, 0.0131879487481935, 0.175478663201406, -1.19941467917259, 1.21018787286845, -1.14133462584641], a = 0.2, v = 0.2, t = 0.2)
movej(p[0.530564456218325, 0.0126006116882744, 0.174782284050878, -1.199673723241, 1.20314588016644, -1.15195004114593], a = 0.2, v = 0.2, t = 0.2)
movej(p[0.53161358353099, 0.0123050183128481, 0.174572572515136, -1.19665768935614, 1.20300893623422, -1.15711320469344], a = 0.2, v = 0.2, t = 0.2)
movej(p[0.531981645456813, 0.0121718738383119, 0.174272173750724, -1.19871594071544, 1.19299985233456, -1.16421191809567], a = 0.2, v = 0.2, t = 0.2)
movej(p[0.533020199189103, 0.011875009418404, 0.173928811199857, -1.19977123207489, 1.18798018390892, -1.17029347890379], a = 0.2, v = 0.2, t = 0.2)
movej(p[0.536037145717651, 0.0110943177498243, 0.17344153886071, -1.19853723950541, 1.19780800383512, -1.1734067398301], a = 0.2, v = 0.2, t = 0.2)
movej(p[0.536945268067806, 0.0108219519044471, 0.17288551027024, -1.20745398199632, 1.18952805280047, -1.17897271655654], a = 0.2, v = 0.2, t = 0.2)
movej(p[0.537984258678981, 0.0105682483865798, 0.173023596746448, -1.19798623775105, 1.19981387203198, -1.17851318713116], a = 0.2, v = 0.2, t = 0.2)
movej(p[0.538073085673353, 0.0105390937513688, 0.172790742903197, -1.20532192164165, 1.19682230528364, -1.17716205141607], a = 0.2, v = 0.2, t = 0.2)
movej(p[0.538246806726904, 0.0104850369321215, 0.17273781629509, -1.2045029070147, 1.19509413869813, -1.17964169271938], a = 0.2, v = 0.2, t = 0.2)
movej(p[0.53833692508221, 0.0104604183550015, 0.172729602422823, -1.20394341268239, 1.19523126897958, -1.17985800382188], a = 0.2, v = 0.2, t = 0.2)
movej(p[0.538476826684876, 0.0104284356458854, 0.172719150729709, -1.20422232867996, 1.19716639814094, -1.17798907631674], a = 0.2, v = 0.2, t = 0.2)
movej(p[0.538597380640624, 0.010401471341456, 0.17271031896656, -1.20458429193979, 1.19903905951701, -1.17596330680868], a = 0.2, v = 0.2, t = 0.2)
movej(p[0.53859763707417, 0.0103955273412521, 0.17270575135193, -1.20366005285033, 1.19766399314337, -1.17760080499243], a = 0.2, v = 0.2, t = 0.2)
movej(p[0.538597650725258, 0.0103922596722001, 0.172702709616797, -1.20316684475922, 1.19697444485457, -1.17826247976676], a = 0.2, v = 0.2, t = 0.2)
movej(p[0.538728054480764, 0.0103616706718111, 0.172690458347263, -1.20340755887603, 1.19876094949321, -1.17632628842248], a = 0.2, v = 0.2, t = 0.2)
movej(p[0.538668715748792, 0.0103801577609775, 0.172697618823659, -1.2040539167214, 1.19923774248807, -1.17496439254064], a = 0.2, v = 0.2, t = 0.2)
movej(p[0.538182363022194, 0.0105070238341602, 0.172747351758473, -1.20531936281912, 1.19629920059363, -1.17580625146159], a = 0.2, v = 0.2, t = 0.2)
movej(p[0.537274522840439, 0.0107523271481689, 0.17305780184871, -1.20160339307605, 1.19730254954874, -1.17397297993016], a = 0.2, v = 0.2, t = 0.2)
movej(p[0.536043164812301, 0.0110885890487091, 0.173292374547005, -1.20297535155632, 1.19493346981786, -1.17176146125124], a = 0.2, v = 0.2, t = 0.2)
movej(p[0.534480382071513, 0.0115555257433033, 0.173794312310415, -1.202036453793, 1.20224399871902, -1.1629459641173], a = 0.2, v = 0.2, t = 0.2)
movej(p[0.5334055215669, 0.0118644624716674, 0.174145221890636, -1.19909376198753, 1.2036818328531, -1.15982181022335], a = 0.2, v = 0.2, t = 0.2)
movej(p[0.5313274692739, 0.0124309390925932, 0.17448326059478, -1.20715918904999, 1.20254771154246, -1.15030865408085], a = 0.2, v = 0.2, t = 0.2)
movej(p[0.529820789846822, 0.0128701853994669, 0.174851537441618, -1.21025803844234, 1.20361936940481, -1.14337287313524], a = 0.2, v = 0.2, t = 0.2)
movej(p[0.529627021006934, 0.0129118939930632, 0.174882031537912, -1.2101431870879, 1.20250035982019, -1.14273603778854], a = 0.2, v = 0.2, t = 0.2)
movej(p[0.531055138781075, 0.0124288548245763, 0.17444726242115, -1.20664762817357, 1.19581957000171, -1.15405280468862], a = 0.2, v = 0.2, t = 0.2)
movej(p[0.533211611340563, 0.01186059572922, 0.173884166336348, -1.2048859788137, 1.19097818787707, -1.16702201838104], a = 0.2, v = 0.2, t = 0.2)
movej(p[0.535076800378366, 0.0113176879196822, 0.173377138266513, -1.2048209463585, 1.18876851988225, -1.17452558797369], a = 0.2, v = 0.2, t = 0.2)
movej(p[0.535772235667217, 0.0111530340166318, 0.172680581204075, -1.22724892774239, 1.18260806029082, -1.17067584656648], a = 0.2, v = 0.2, t = 0.2)
movej(p[0.537118657871082, 0.0107917239753228, 0.172758820024283, -1.21178534109343, 1.1889241307644, -1.1725783971809], a = 0.2, v = 0.2, t = 0.2)
movej(p[0.537620363392453, 0.0106534216781532, 0.172508530303312, -1.21530849021015, 1.18508048165952, -1.1756346377226], a = 0.2, v = 0.2, t = 0.2)
movej(p[0.538300112322677, 0.0104500669892495, 0.17268272204353, -1.20301213987705, 1.19427736584633, -1.17513125969643], a = 0.2, v = 0.2, t = 0.2)
movej(p[0.538333806811153, 0.0104433667759156, 0.172696767989125, -1.20282399731136, 1.19609497209796, -1.17261501390253], a = 0.2, v = 0.2, t = 0.2)
movej(p[0.538339256492199, 0.010484794387038, 0.172516746618135, -1.20971029816264, 1.18920135385046, -1.17747605703], a = 0.2, v = 0.2, t = 0.2)
movej(p[0.538388716258274, 0.0104715422901527, 0.172565757672683, -1.20801689510045, 1.1919737542994, -1.17493265093512], a = 0.2, v = 0.2, t = 0.2)
movej(p[0.538484032029316, 0.0104429555503463, 0.172659931937203, -1.20431158225076, 1.19649148094971, -1.17161116003082], a = 0.2, v = 0.2, t = 0.2)
movej(p[0.538635281777104, 0.0103951853303956, 0.172628749732664, -1.203222692592, 1.19571518823413, -1.17363150374752], a = 0.2, v = 0.2, t = 0.2)
movej(p[0.53885365716217, 0.0103209301423448, 0.172712143726721, -1.19725664035378, 1.19852376991419, -1.17516995418553], a = 0.2, v = 0.2, t = 0.2)
movej(p[0.538193719971642, 0.0105161416100938, 0.172817085364871, -1.20097333856074, 1.19866831804676, -1.17014232594384], a = 0.2, v = 0.2, t = 0.2)
movej(p[0.537023779972473, 0.0108193435569438, 0.173199684564779, -1.19545558266998, 1.19733386312719, -1.17315250387026], a = 0.2, v = 0.2, t = 0.2)
movej(p[0.535356307567829, 0.0112797603502732, 0.173371355488846, -1.20649802150703, 1.19546493240009, -1.16662035623909], a = 0.2, v = 0.2, t = 0.2)
movej(p[0.534000351929423, 0.0116648345909475, 0.173760286312831, -1.20479103379665, 1.19535452271904, -1.16319888760209], a = 0.2, v = 0.2, t = 0.2)
movej(p[0.532640273381336, 0.0120309983529615, 0.174091610840175, -1.20538352851477, 1.19580687559717, -1.15934535781978], a = 0.2, v = 0.2, t = 0.2)
movej(p[0.531103670412423, 0.0124851949766957, 0.174408745437651, -1.21160020466336, 1.19700845356076, -1.1501011597965], a = 0.2, v = 0.2, t = 0.2)
movej(p[0.530684011710374, 0.0126061956549013, 0.174481737010238, -1.21228322724353, 1.1947702663846, -1.15042643726409], a = 0.2, v = 0.2, t = 0.2)
movej(p[0.531626220698696, 0.0122800840213389, 0.174219563318232, -1.20647785363217, 1.19137842912665, -1.15894495148047], a = 0.2, v = 0.2, t = 0.2)
movej(p[0.533526042505383, 0.0117925340925101, 0.173763700630863, -1.20557779290201, 1.18872289060551, -1.16716707694572], a = 0.2, v = 0.2, t = 0.2)
movej(p[0.535326775286245, 0.0113061217564235, 0.173222705629747, -1.20882955597039, 1.18515098298698, -1.17403207955845], a = 0.2, v = 0.2, t = 0.2)
movej(p[0.53649530731359, 0.0110135951022871, 0.172767045320206, -1.21621475833856, 1.18171599575922, -1.17360207277033], a = 0.2, v = 0.2, t = 0.2)
movej(p[0.537202983772416, 0.0108191663515799, 0.17265879768503, -1.21448910594008, 1.18568837231934, -1.1709699986918], a = 0.2, v = 0.2, t = 0.2)
movej(p[0.537630369898462, 0.0106988126670007, 0.17258757198832, -1.21309783963734, 1.18714016041637, -1.17087707733867], a = 0.2, v = 0.2, t = 0.2)
movej(p[0.538059127990101, 0.0105722886926055, 0.172508610967829, -1.21104846891721, 1.1870152601509, -1.17370935683624], a = 0.2, v = 0.2, t = 0.2)
movej(p[0.538495618597143, 0.0104327889575509, 0.172611561265955, -1.20303628683793, 1.19478939903342, -1.16999428493857], a = 0.2, v = 0.2, t = 0.2)
movej(p[0.538591893937945, 0.0103827632085612, 0.172684089558307, -1.19737554575034, 1.1952238165862, -1.17472382062561], a = 0.2, v = 0.2, t = 0.2)
movej(p[0.538602316260355, 0.0104181754666838, 0.172395190878541, -1.2094505233567, 1.18811387730312, -1.17333517653481], a = 0.2, v = 0.2, t = 0.2)
movej(p[0.538602505486313, 0.010418279296701, 0.172386492981505, -1.20955600818271, 1.18789617821081, -1.17298447457072], a = 0.2, v = 0.2, t = 0.2)
movej(p[0.538669344899157, 0.0103831161614198, 0.172435111257984, -1.20567978789306, 1.18838485404669, -1.17592977874778], a = 0.2, v = 0.2, t = 0.2)
movej(p[0.538966529927876, 0.0102717397764702, 0.172591212313652, -1.19620407254393, 1.19586519872253, -1.1740348464464], a = 0.2, v = 0.2, t = 0.2)
movej(p[0.538788858366124, 0.0103294891250096, 0.172632846060635, -1.19748676951567, 1.19726428172897, -1.17004827180564], a = 0.2, v = 0.2, t = 0.2)
movej(p[0.53836740203585, 0.0104115689279336, 0.172932440532586, -1.18823820226128, 1.20100705578944, -1.17225130664004], a = 0.2, v = 0.2, t = 0.2)
movej(p[0.537205580496914, 0.0107430226127657, 0.173193981688959, -1.19075142672594, 1.20093660862271, -1.16677803637288], a = 0.2, v = 0.2, t = 0.2)
movej(p[0.535806100241458, 0.0111178098994315, 0.173420137065507, -1.1940288740431, 1.19506396562531, -1.17211812937791], a = 0.2, v = 0.2, t = 0.2)
movej(p[0.534671008516022, 0.0114534056793214, 0.173832112061554, -1.19310232098716, 1.2010906027423, -1.16513451777394], a = 0.2, v = 0.2, t = 0.2)
movej(p[0.532746608319941, 0.0120044854283976, 0.174195382877173, -1.20068527550391, 1.20113024843614, -1.15538275569855], a = 0.2, v = 0.2, t = 0.2)
movej(p[0.530761311230822, 0.0125871762301461, 0.174738532679245, -1.20215207182546, 1.20139876829597, -1.14856612358084], a = 0.2, v = 0.2, t = 0.2)
movej(p[0.529454954917819, 0.0129600588411659, 0.175064221736287, -1.20397403589171, 1.20181955000051, -1.14425367635249], a = 0.2, v = 0.2, t = 0.2)
movej(p[0.528901224180471, 0.0131234475250837, 0.175308888281781, -1.20112408236117, 1.20200030240204, -1.14316875090209], a = 0.2, v = 0.2, t = 0.2)
movej(p[0.530958579900739, 0.0124806380077031, 0.174601388780263, -1.19887459640436, 1.19762830537914, -1.15420138752245], a = 0.2, v = 0.2, t = 0.2)
movej(p[0.533384586500254, 0.0117861571374494, 0.173951339174497, -1.20495564462699, 1.18502916538992, -1.17242604574864], a = 0.2, v = 0.2, t = 0.2)
movej(p[0.535200708065397, 0.01137441881995, 0.173079868355406, -1.21395256640248, 1.18106690769184, -1.17443148291545], a = 0.2, v = 0.2, t = 0.2)
movej(p[0.53581858094825, 0.0112896128825175, 0.173003307571637, -1.251479647386, 1.17826688078594, -1.16870119508742], a = 0.2, v = 0.2, t = 0.2)
movej(p[0.53747688082383, 0.0106930159218569, 0.17259680571533, -1.21992733224069, 1.1809821880583, -1.17429255762399], a = 0.2, v = 0.2, t = 0.2)
movej(p[0.538015754497407, 0.0105241401178447, 0.172483760517532, -1.22143538345423, 1.1820249379825, -1.17165434327359], a = 0.2, v = 0.2, t = 0.2)
movej(p[0.538772065169524, 0.0101875106406953, 0.172543982127907, -1.22027311485579, 1.18575114148966, -1.16879027113692], a = 0.2, v = 0.2, t = 0.2)
movej(p[0.538604217604981, 0.0102078520578961, 0.172542854376416, -1.22213834251666, 1.18119293820001, -1.17496025023834], a = 0.2, v = 0.2, t = 0.2)
movej(p[0.538778535038904, 0.0101594491443928, 0.172496221231607, -1.22108978007715, 1.18375897909683, -1.17166684646309], a = 0.2, v = 0.2, t = 0.2)
movej(p[0.538777294769917, 0.0101399944838617, 0.172540868268647, -1.21577428852638, 1.18647267499357, -1.17096734003826], a = 0.2, v = 0.2, t = 0.2)
movej(p[0.538776822146133, 0.0101292591353975, 0.172559832153273, -1.21357876600274, 1.18757004132512, -1.17059077518758], a = 0.2, v = 0.2, t = 0.2)
movej(p[0.538907461388285, 0.0101115430614208, 0.172497816113954, -1.21711185218672, 1.18669170234317, -1.16935717197569], a = 0.2, v = 0.2, t = 0.2)
movej(p[0.538905547849415, 0.0101019242966277, 0.172493030956397, -1.21675319998815, 1.18730186144242, -1.16996518207581], a = 0.2, v = 0.2, t = 0.2)
movej(p[0.538287950749864, 0.0101725715323834, 0.17288792639915, -1.21141008663357, 1.19038415567187, -1.17154485150943], a = 0.2, v = 0.2, t = 0.2)
movej(p[0.536328404788137, 0.0109567707217767, 0.173208475888674, -1.24707788155855, 1.18591702079198, -1.16372903130498], a = 0.2, v = 0.2, t = 0.2)
movej(p[0.535310505150948, 0.0112510873685777, 0.173369178626753, -1.21109923991567, 1.19026648737265, -1.16993105163612], a = 0.2, v = 0.2, t = 0.2)
movej(p[0.533944920378047, 0.0116423653987614, 0.173773175397922, -1.20970140522339, 1.19126868911485, -1.16631177679998], a = 0.2, v = 0.2, t = 0.2)
movej(p[0.531775058142091, 0.0123391483517656, 0.174318299432775, -1.20420927834805, 1.19919885339191, -1.15142345600629], a = 0.2, v = 0.2, t = 0.2)
movej(p[0.529393553103414, 0.0130696455656143, 0.174963068500983, -1.1966708829703, 1.2059251831388, -1.1409812857471], a = 0.2, v = 0.2, t = 0.2)
movej(p[0.527146444915715, 0.0137045766806495, 0.17569147833201, -1.18763329222484, 1.21453367693152, -1.12638219579584], a = 0.2, v = 0.2, t = 0.2)
movej(p[0.527148452217129, 0.013652458008156, 0.175794667453135, -1.19300682328042, 1.2116748866332, -1.12783421216583], a = 0.2, v = 0.2, t = 0.2)
movej(p[0.529615003750857, 0.0128793615908872, 0.175105371521715, -1.18952577981863, 1.20242722741912, -1.14935301891455], a = 0.2, v = 0.2, t = 0.2)
movej(p[0.531590322737129, 0.0123662017593213, 0.174407549997441, -1.19472258340841, 1.19708900700722, -1.15753627423403], a = 0.2, v = 0.2, t = 0.2)
movej(p[0.533359523242252, 0.011926697290906, 0.173753514306584, -1.19958395103982, 1.19125386819627, -1.16581194569], a = 0.2, v = 0.2, t = 0.2)
movej(p[0.535091199223415, 0.0114619383971818, 0.173183973432751, -1.21488598797082, 1.18051533553353, -1.17642459097693], a = 0.2, v = 0.2, t = 0.2)
movej(p[0.536295084245435, 0.0111511846088304, 0.172811815742006, -1.22048312755334, 1.18407198006239, -1.16869697267055], a = 0.2, v = 0.2, t = 0.2)
movej(p[0.537761377492615, 0.0106367324435349, 0.172529824034862, -1.22348401729948, 1.18495456658988, -1.16669413853177], a = 0.2, v = 0.2, t = 0.2)
movej(p[0.537990731186854, 0.0105237762951851, 0.172519647027003, -1.2173826821483, 1.18743101301481, -1.16669213707373], a = 0.2, v = 0.2, t = 0.2)
movej(p[0.53815184809586, 0.0104913824395827, 0.172477175156884, -1.22720466864387, 1.18285382897019, -1.16702726429007], a = 0.2, v = 0.2, t = 0.2)
movej(p[0.538444731683214, 0.0103741830039491, 0.172442841841486, -1.22899348174739, 1.18153348634047, -1.16906097801881], a = 0.2, v = 0.2, t = 0.2)
movej(p[0.538529388027635, 0.0103393684564611, 0.172434720842012, -1.22591469645883, 1.18371703005559, -1.16658462833091], a = 0.2, v = 0.2, t = 0.2)
movej(p[0.538693251465448, 0.0102364049263658, 0.172465416366417, -1.21882360560406, 1.18832741946143, -1.16606918669217], a = 0.2, v = 0.2, t = 0.2)
movej(p[0.53859051490638, 0.0101997889504598, 0.172595232543141, -1.22313574439437, 1.18723135592452, -1.1646036829206], a = 0.2, v = 0.2, t = 0.2)
movej(p[0.538142980846573, 0.0103315793017591, 0.172726967688861, -1.2281945699011, 1.18387707541294, -1.1668986399785], a = 0.2, v = 0.2, t = 0.2)
movej(p[0.536550150858074, 0.0108940854811399, 0.173055175787324, -1.21759443596724, 1.18994755559952, -1.16257677644647], a = 0.2, v = 0.2, t = 0.2)
movej(p[0.535408335216695, 0.0112058900846602, 0.173417402829831, -1.21475147498982, 1.18608665925048, -1.16702307680297], a = 0.2, v = 0.2, t = 0.2)
movej(p[0.533892966641232, 0.0116392761807955, 0.173871272472106, -1.2071576659211, 1.19304424007461, -1.16014638655521], a = 0.2, v = 0.2, t = 0.2)
movej(p[0.531731332017749, 0.0123181011740212, 0.174463778339696, -1.20185196846218, 1.19964082961103, -1.14919944246282], a = 0.2, v = 0.2, t = 0.2)
movej(p[0.529961916138453, 0.0128982424094459, 0.17489850257764, -1.20233327922731, 1.20252072510718, -1.14122113113265], a = 0.2, v = 0.2, t = 0.2)
movej(p[0.527958378843203, 0.0134128172889963, 0.175570687708298, -1.18428334154321, 1.21534537859737, -1.12877980257401], a = 0.2, v = 0.2, t = 0.2)
movej(p[0.528243933008631, 0.0133358390422569, 0.175460558973922, -1.18734697731567, 1.21061421725648, -1.13246956411723], a = 0.2, v = 0.2, t = 0.2)
movej(p[0.530683946812135, 0.0125794275044135, 0.174817015568914, -1.19032497279859, 1.20069370993005, -1.15099288593842], a = 0.2, v = 0.2, t = 0.2)
movej(p[0.532361716193237, 0.0121789337968796, 0.174222359673406, -1.18862853844933, 1.20079291842294, -1.15450130892671], a = 0.2, v = 0.2, t = 0.2)
movej(p[0.534306284855495, 0.0116730322284587, 0.173603855582204, -1.20028220584244, 1.18760119153111, -1.17055620800783], a = 0.2, v = 0.2, t = 0.2)
movej(p[0.535726703808146, 0.0113639179885053, 0.173090725203442, -1.21613437481265, 1.17994519099337, -1.17377757221286], a = 0.2, v = 0.2, t = 0.2)
movej(p[0.537083229373584, 0.0108580410297653, 0.172884539115335, -1.22225066907074, 1.18300960423492, -1.16543421646603], a = 0.2, v = 0.2, t = 0.2)
movej(p[0.537871973799569, 0.0105587370669012, 0.172749475914235, -1.22298221826016, 1.18356765722611, -1.16223290305631], a = 0.2, v = 0.2, t = 0.2)
movej(p[0.538159853071343, 0.0104383268895344, 0.172709433136244, -1.21987008096757, 1.18521524205003, -1.16040486890423], a = 0.2, v = 0.2, t = 0.2)
movej(p[0.538270582453098, 0.0104768022104805, 0.172590112083222, -1.2154263085907, 1.18709475803192, -1.15910059011422], a = 0.2, v = 0.2, t = 0.2)
movej(p[0.538425316988685, 0.0104023590869472, 0.172574626772276, -1.22316480652243, 1.18231657626022, -1.16274188508301], a = 0.2, v = 0.2, t = 0.2)
movej(p[0.538626906776614, 0.0103345093985091, 0.172525658750243, -1.22659272391957, 1.18042749345271, -1.16273172113381], a = 0.2, v = 0.2, t = 0.2)
movej(p[0.538888925648735, 0.0100911586012718, 0.17262592938471, -1.21982427412338, 1.18429739624934, -1.16181485476255], a = 0.2, v = 0.2, t = 0.2)
movej(p[0.538362294566119, 0.0103672506731083, 0.172638439808025, -1.2160689813054, 1.18614320618715, -1.15880030252662], a = 0.2, v = 0.2, t = 0.2)
movej(p[0.537099357809834, 0.0107926499472528, 0.172947508630753, -1.21736462290286, 1.18604995866836, -1.15882731439404], a = 0.2, v = 0.2, t = 0.2)
movej(p[0.535774785250228, 0.0111701971310069, 0.173318878538498, -1.21346513038081, 1.18426260477994, -1.16719616050142], a = 0.2, v = 0.2, t = 0.2)
movej(p[0.534172790844518, 0.0118041606315458, 0.173626850167158, -1.21046630544514, 1.18749095783056, -1.15987299508852], a = 0.2, v = 0.2, t = 0.2)
movej(p[0.533921418937027, 0.0117890937598559, 0.173787311886898, -1.19995531649868, 1.1940347187395, -1.15830624501093], a = 0.2, v = 0.2, t = 0.2)
movej(p[0.532676998592345, 0.0121378108209966, 0.174174199735001, -1.20892481319463, 1.19168159709424, -1.15220874355121], a = 0.2, v = 0.2, t = 0.2)
movej(p[0.530082666846605, 0.0129082614849585, 0.174893935893219, -1.19420917918811, 1.20385482428371, -1.14004857107831], a = 0.2, v = 0.2, t = 0.2)
movej(p[0.52879801543797, 0.0132591566855751, 0.175284115731851, -1.18799419452323, 1.20903716140124, -1.13151883579738], a = 0.2, v = 0.2, t = 0.2)
movej(p[0.530127833704506, 0.0128130473739986, 0.174939391784162, -1.1811134520592, 1.20588187890755, -1.14471390508738], a = 0.2, v = 0.2, t = 0.2)
movej(p[0.532432349707585, 0.0121935627498276, 0.174268416164658, -1.18586567326322, 1.19884405118753, -1.15282151296928], a = 0.2, v = 0.2, t = 0.2)
movej(p[0.534129389967482, 0.0117632267765354, 0.173753082664505, -1.20556733123831, 1.18220393867596, -1.16735225047238], a = 0.2, v = 0.2, t = 0.2)
movej(p[0.535509400760421, 0.0113993115499629, 0.173362711124505, -1.22902366883376, 1.16803948010812, -1.17490702891238], a = 0.2, v = 0.2, t = 0.2)
movej(p[0.536936137569441, 0.0108321602203779, 0.173107672270333, -1.21184340336066, 1.18256896923555, -1.15836010597349], a = 0.2, v = 0.2, t = 0.2)
movej(p[0.537668724445665, 0.0106453042324658, 0.172873366575642, -1.21134410048277, 1.1833270351118, -1.15420548744408], a = 0.2, v = 0.2, t = 0.2)
movej(p[0.538319182631886, 0.0104465654023335, 0.172696721407649, -1.2202869809195, 1.17753062317776, -1.15763245798211], a = 0.2, v = 0.2, t = 0.2)
movej(p[0.538424921928391, 0.0104027551108084, 0.172672179819857, -1.22463135537261, 1.1747895308389, -1.15844591301934], a = 0.2, v = 0.2, t = 0.2)
movej(p[0.538424664620795, 0.0105434467478788, 0.172546226308389, -1.21647682332907, 1.17830204662803, -1.15899209496968], a = 0.2, v = 0.2, t = 0.2)
movej(p[0.538424888512588, 0.0105454867618004, 0.172543457154066, -1.21326621188638, 1.18035403669796, -1.1555210332643], a = 0.2, v = 0.2, t = 0.2)
movej(p[0.538459687723694, 0.0104912212315152, 0.172563957571849, -1.20819266951395, 1.18268166392524, -1.1561146221368], a = 0.2, v = 0.2, t = 0.2)
movej(p[0.53868954557796, 0.0104510896948749, 0.172485852280101, -1.22541962899037, 1.17304985010744, -1.15896601863033], a = 0.2, v = 0.2, t = 0.2)
movej(p[0.538689601455016, 0.0104516164839988, 0.172483659252292, -1.22131394275366, 1.17542593686415, -1.15705453001144], a = 0.2, v = 0.2, t = 0.2)
movej(p[0.538566440703231, 0.010380413810367, 0.172600962527981, -1.21395610788264, 1.1798402595093, -1.15590557459695], a = 0.2, v = 0.2, t = 0.2)
movej(p[0.537943075996149, 0.0104353158882214, 0.172882801194264, -1.22366139885607, 1.17535622347071, -1.1593648603375], a = 0.2, v = 0.2, t = 0.2)
movej(p[0.536655924510293, 0.0108517109027755, 0.173215469173354, -1.23172071076388, 1.16893688763576, -1.16914514444592], a = 0.2, v = 0.2, t = 0.2)
movej(p[0.536035752246358, 0.0110228459671789, 0.173403687803615, -1.23155176977765, 1.17069934633103, -1.16898916771777], a = 0.2, v = 0.2, t = 0.2)
movej(p[0.53499738977146, 0.0113465676103524, 0.17367254093911, -1.2285408217162, 1.17529854985526, -1.16338767388782], a = 0.2, v = 0.2, t = 0.2)
movej(p[0.533488926558044, 0.0118946312886, 0.174004376905147, -1.23076590116049, 1.17738310277796, -1.15971044988507], a = 0.2, v = 0.2, t = 0.2)
movej(p[0.530041820894376, 0.0129533634927331, 0.174922552445792, -1.22232352596693, 1.18892992998154, -1.14498630553963], a = 0.2, v = 0.2, t = 0.2)
movej(p[0.528552385824893, 0.0132623861167455, 0.175445794561492, -1.20923869353959, 1.19850924568977, -1.13316880984201], a = 0.2, v = 0.2, t = 0.2)
movej(p[0.529401585840495, 0.0132168003556956, 0.175036295291785, -1.17219559463237, 1.2119292486199, -1.13868823276118], a = 0.2, v = 0.2, t = 0.2)
movej(p[0.531407529719761, 0.0126462394711349, 0.174438546816051, -1.16580810368192, 1.20927878732205, -1.15017848397353], a = 0.2, v = 0.2, t = 0.2)
movej(p[0.533263261055477, 0.0120854086453208, 0.173948093949345, -1.19531597723722, 1.18971646147824, -1.15998571879718], a = 0.2, v = 0.2, t = 0.2)
movej(p[0.535049214938041, 0.0116129681567157, 0.173427492860141, -1.21003705331732, 1.17757107973221, -1.16886860961115], a = 0.2, v = 0.2, t = 0.2)
movej(p[0.535945089295152, 0.0114734715683262, 0.173076824044734, -1.2174828634567, 1.17304604457706, -1.17062857207774], a = 0.2, v = 0.2, t = 0.2)
movej(p[0.537389360903174, 0.0106878752925097, 0.17292964308916, -1.20107158538171, 1.18475184885566, -1.15401417885965], a = 0.2, v = 0.2, t = 0.2)
movej(p[0.537893081725927, 0.010692295345716, 0.172700893081826, -1.22060131675825, 1.17302473701677, -1.15639560449961], a = 0.2, v = 0.2, t = 0.2)
movej(p[0.538147771415774, 0.0105824168874044, 0.172645767713034, -1.21265635016394, 1.17683381165074, -1.15660089335655], a = 0.2, v = 0.2, t = 0.2)
movej(p[0.538229242691549, 0.0107179413034162, 0.172518065348575, -1.20834938658109, 1.17883636384547, -1.15394439099336], a = 0.2, v = 0.2, t = 0.2)
movej(p[0.538429792535413, 0.0104676209028505, 0.172577781905633, -1.20051676403937, 1.1829014119008, -1.15311025717569], a = 0.2, v = 0.2, t = 0.2)
movej(p[0.538571625784443, 0.0104142569648854, 0.172543515893397, -1.2068838149651, 1.17907387219311, -1.15543676909253], a = 0.2, v = 0.2, t = 0.2)
movej(p[0.538694932756479, 0.0103697257500645, 0.172512345048785, -1.21209439393797, 1.17589004370984, -1.1570137135661], a = 0.2, v = 0.2, t = 0.2)
movej(p[0.538692586637155, 0.010552151917952, 0.172406148961314, -1.20963309896578, 1.17711072585969, -1.15299061542936], a = 0.2, v = 0.2, t = 0.2)
movej(p[0.538692682943872, 0.0105605546472735, 0.17239775045758, -1.20167574077782, 1.18117990243791, -1.15338428835651], a = 0.2, v = 0.2, t = 0.2)
movej(p[0.538692733839888, 0.0105513968171362, 0.172402542279444, -1.2022293087649, 1.18083905344698, -1.15490055984496], a = 0.2, v = 0.2, t = 0.2)
movej(p[0.538692117361344, 0.0105936438225873, 0.172381029016451, -1.20703414572152, 1.17839239940335, -1.15314163339107], a = 0.2, v = 0.2, t = 0.2)
movej(p[0.53882057448913, 0.0104439769871767, 0.172407469604549, -1.20545124254591, 1.17914633064603, -1.15365793783026], a = 0.2, v = 0.2, t = 0.2)
movej(p[0.538836355368606, 0.0104227536299573, 0.172412235415216, -1.20506941718574, 1.17932874520578, -1.15394556101863], a = 0.2, v = 0.2, t = 0.2)
movej(p[0.538371079516802, 0.0106839781631344, 0.172475933649055, -1.20877225081147, 1.1780083303331, -1.15212267749658], a = 0.2, v = 0.2, t = 0.2)
movej(p[0.536961474740045, 0.0111523407086954, 0.172839592389166, -1.2091548397729, 1.18013747985349, -1.15911102001709], a = 0.2, v = 0.2, t = 0.2)
movej(p[0.536013926840298, 0.0113059877346176, 0.173170405975814, -1.20906119535366, 1.17897484339898, -1.1679787965464], a = 0.2, v = 0.2, t = 0.2)
movej(p[0.534910543672413, 0.0116226700162674, 0.173483439388275, -1.20342852062863, 1.1832453871876, -1.1644928803034], a = 0.2, v = 0.2, t = 0.2)
movej(p[0.533280659666571, 0.0121953530755218, 0.173878983887851, -1.20296007900513, 1.18728655173384, -1.16421502315577], a = 0.2, v = 0.2, t = 0.2)
movej(p[0.531491004614922, 0.0127669228893396, 0.174346650600414, -1.19494735374542, 1.19655937827091, -1.15340655403972], a = 0.2, v = 0.2, t = 0.2)
movej(p[0.530343943190457, 0.0130875384905992, 0.174683295850985, -1.19798774008258, 1.19886304824507, -1.14289202039565], a = 0.2, v = 0.2, t = 0.2)
movej(p[0.531099684356736, 0.0128539968207444, 0.17448950960784, -1.20128246481602, 1.19195670931921, -1.15401935844908], a = 0.2, v = 0.2, t = 0.2)
movej(p[0.533099461001675, 0.0122760504041722, 0.173969413943631, -1.188565710233, 1.19400555844815, -1.16126164328126], a = 0.2, v = 0.2, t = 0.2)
movej(p[0.535414484678364, 0.011638004061334, 0.173317370608601, -1.19896130909484, 1.18194718398372, -1.17532310022499], a = 0.2, v = 0.2, t = 0.2)
movej(p[0.536102292608452, 0.0115154682843084, 0.173081168481901, -1.21847848112444, 1.17434839328942, -1.16901255375576], a = 0.2, v = 0.2, t = 0.2)
movej(p[0.537177569091481, 0.010891608311685, 0.172956633187294, -1.21200243443475, 1.17755653038986, -1.15884946815455], a = 0.2, v = 0.2, t = 0.2)
movej(p[0.537621863095372, 0.0108553067394177, 0.17278574277224, -1.19823302622171, 1.18470039377192, -1.15645879142033], a = 0.2, v = 0.2, t = 0.2)
movej(p[0.538027704794217, 0.010787600992696, 0.172646907591758, -1.1985060297311, 1.18382287158127, -1.15416076987674], a = 0.2, v = 0.2, t = 0.2)
movej(p[0.538426502082804, 0.0106604606943988, 0.172539625546828, -1.20699765619642, 1.17851510284693, -1.15927879146456], a = 0.2, v = 0.2, t = 0.2)
movej(p[0.53850732038659, 0.0105374775968049, 0.172556405876963, -1.19735422183075, 1.18349761598102, -1.15704942720512], a = 0.2, v = 0.2, t = 0.2)
movej(p[0.538696874777426, 0.0103591804055974, 0.172548602382728, -1.21356619011169, 1.1739922123649, -1.15802011094948], a = 0.2, v = 0.2, t = 0.2)
movej(p[0.538651280268089, 0.010333385994059, 0.1725759864849, -1.21441801291198, 1.17442174375563, -1.15990071195524], a = 0.2, v = 0.2, t = 0.2)
movej(p[0.538610762549944, 0.0103138316584826, 0.17259791278136, -1.21010042840958, 1.17747813567262, -1.15923889629567], a = 0.2, v = 0.2, t = 0.2)
movej(p[0.538660076120242, 0.0103254555760857, 0.1725695770032, -1.2063701900947, 1.17882319467896, -1.15455929726126], a = 0.2, v = 0.2, t = 0.2)
movej(p[0.538873855944199, 0.010280155531814, 0.172519291191501, -1.20956882440863, 1.17685428336058, -1.15798407105163], a = 0.2, v = 0.2, t = 0.2)
movej(p[0.538873851451687, 0.0102866990450907, 0.172515769485407, -1.20837270230983, 1.17748972989379, -1.15651452164129], a = 0.2, v = 0.2, t = 0.2)
movej(p[0.538873806217577, 0.0102827686160655, 0.172518121012901, -1.20905842692349, 1.17717218844289, -1.15739385566621], a = 0.2, v = 0.2, t = 0.2)
movej(p[0.53887373538101, 0.0102807517308849, 0.172519294535951, -1.20942534296588, 1.17700398870156, -1.15786157373399], a = 0.2, v = 0.2, t = 0.2)
movej(p[0.538990152250736, 0.010259670500307, 0.172481679722905, -1.20955220317679, 1.17673964606306, -1.15798715572413], a = 0.2, v = 0.2, t = 0.2)
movej(p[0.53897033238109, 0.0102614431557973, 0.17248574548971, -1.20975103346112, 1.17660332873821, -1.15808993109491], a = 0.2, v = 0.2, t = 0.2)
movej(p[0.538874081549708, 0.0102778101097619, 0.172514967061814, -1.20972675346147, 1.17676050543498, -1.15799632177072], a = 0.2, v = 0.2, t = 0.2)
movej(p[0.538824506735981, 0.0103066085638919, 0.172524980896427, -1.20847246604689, 1.1775751354429, -1.15756067893098], a = 0.2, v = 0.2, t = 0.2)
movej(p[0.538252510616105, 0.0106206253038386, 0.172648120759509, -1.20080735126807, 1.18320987048192, -1.15645408131017], a = 0.2, v = 0.2, t = 0.2)
movej(p[0.53710204893276, 0.0111883908734701, 0.172885937312966, -1.22320877663931, 1.17192374243177, -1.16510056026123], a = 0.2, v = 0.2, t = 0.2)
movej(p[0.536294711092831, 0.0114157691778782, 0.173122760008039, -1.21347608308526, 1.17709668080644, -1.17190682364483], a = 0.2, v = 0.2, t = 0.2)
movej(p[0.535069066004231, 0.0116561831256252, 0.173498830028807, -1.19815141606789, 1.18792581845487, -1.16666672548957], a = 0.2, v = 0.2, t = 0.2)
movej(p[0.533641050759776, 0.0121682059999313, 0.173865517031291, -1.21051228138696, 1.1860034467063, -1.16195299156222], a = 0.2, v = 0.2, t = 0.2)
movej(p[0.532238735969632, 0.0126134701675494, 0.174250146489835, -1.20273158401884, 1.19471405840872, -1.15351713504825], a = 0.2, v = 0.2, t = 0.2)
movej(p[0.532209215763678, 0.0126671352472206, 0.174245924326371, -1.20698853281088, 1.19006702986977, -1.1568513994811], a = 0.2, v = 0.2, t = 0.2)
movej(p[0.534003506993323, 0.0120410815597119, 0.173796851789272, -1.20894338572139, 1.18300113302485, -1.16553897483917], a = 0.2, v = 0.2, t = 0.2)
movej(p[0.535606813406062, 0.0115593928900999, 0.17338783722665, -1.20858380291987, 1.1792056716674, -1.17729827881162], a = 0.2, v = 0.2, t = 0.2)
movej(p[0.536112692623772, 0.0115001767179034, 0.173218912148465, -1.22089092411657, 1.17230146395441, -1.17813573077833], a = 0.2, v = 0.2, t = 0.2)
movej(p[0.536408878754984, 0.0115529967351755, 0.173086722771233, -1.22543699177722, 1.16976635748961, -1.17163006338522], a = 0.2, v = 0.2, t = 0.2)
movej(p[0.53737882818567, 0.0110068362758645, 0.172901506938761, -1.21164023547742, 1.1799411372662, -1.16329536268826], a = 0.2, v = 0.2, t = 0.2)
movej(p[0.537947847729016, 0.0108087175711069, 0.172758284111967, -1.20970397288191, 1.18005329570862, -1.16069868940746], a = 0.2, v = 0.2, t = 0.2)
movej(p[0.538547651871305, 0.0106446848580135, 0.172587987429883, -1.1943719773963, 1.18771564937489, -1.16188549693373], a = 0.2, v = 0.2, t = 0.2)
movej(p[0.538419269529379, 0.0107097308760665, 0.172612338196136, -1.20014956528356, 1.18475240699846, -1.16284706540015], a = 0.2, v = 0.2, t = 0.2)
movej(p[0.538607824460493, 0.0105337603525706, 0.172581315578369, -1.2055533374991, 1.1812075570839, -1.16371738842147], a = 0.2, v = 0.2, t = 0.2)
movej(p[0.538610309475989, 0.0104817487349272, 0.172586960605216, -1.20861413499142, 1.17910510109387, -1.16308486503815], a = 0.2, v = 0.2, t = 0.2)
movej(p[0.538728284782708, 0.0105679279696547, 0.172528206401058, -1.21102835386175, 1.17748627954297, -1.1621002836194], a = 0.2, v = 0.2, t = 0.2)
movej(p[0.538873467622577, 0.0104748173357427, 0.17249716380355, -1.21218135787883, 1.17635564020182, -1.16024796162809], a = 0.2, v = 0.2, t = 0.2)
movej(p[0.538878152010862, 0.0103225434309194, 0.172527161377056, -1.20016676927733, 1.18346915181679, -1.16285324620247], a = 0.2, v = 0.2, t = 0.2)
movej(p[0.538876033256446, 0.0104082270720443, 0.172509235849915, -1.20159495282828, 1.18344559340348, -1.16482082579743], a = 0.2, v = 0.2, t = 0.2)
movej(p[0.538876620145033, 0.0104271363138684, 0.172502384124918, -1.19675618007903, 1.18501482732969, -1.15950894902071], a = 0.2, v = 0.2, t = 0.2)
movej(p[0.538840841840941, 0.0103235469492374, 0.17251922890131, -1.20170458324901, 1.18198709063774, -1.15998315279129], a = 0.2, v = 0.2, t = 0.2)
movej(p[0.538615815277572, 0.0104481678020982, 0.172573421140704, -1.20646659580862, 1.18033989116825, -1.16091720289622], a = 0.2, v = 0.2, t = 0.2)
movej(p[0.537780482717041, 0.0109242133624844, 0.172777257908128, -1.2102269663272, 1.18095934709417, -1.16391975201271], a = 0.2, v = 0.2, t = 0.2)
movej(p[0.536562937693421, 0.0113524252751893, 0.173126895310695, -1.20680028530247, 1.18454926625402, -1.17122294910081], a = 0.2, v = 0.2, t = 0.2)
movej(p[0.535234969516319, 0.0117526644301972, 0.173507738033356, -1.20531171969333, 1.1884449381154, -1.16649910501934], a = 0.2, v = 0.2, t = 0.2)
movej(p[0.533534965075957, 0.0123046043019046, 0.173984947977479, -1.20553617642632, 1.19378274240328, -1.16280580381804], a = 0.2, v = 0.2, t = 0.2)
movej(p[0.532355183506129, 0.0125964861700701, 0.174320451006571, -1.19625681107473, 1.20191461458545, -1.15531717363806], a = 0.2, v = 0.2, t = 0.2)
movej(p[0.532064434943356, 0.0126754456569429, 0.174407416992325, -1.18726343873216, 1.2074252128069, -1.15384053337095], a = 0.2, v = 0.2, t = 0.2)
movej(p[0.532186809012137, 0.0125975713749267, 0.174384209159801, -1.20062672577759, 1.19873096660364, -1.15583731994784], a = 0.2, v = 0.2, t = 0.2)
movej(p[0.534441454464617, 0.0120465891475601, 0.173795872573538, -1.19903036308823, 1.19091470981334, -1.16996252101924], a = 0.2, v = 0.2, t = 0.2)
movej(p[0.535939803151233, 0.0115353837200417, 0.173411922063458, -1.21617421743298, 1.17916633182816, -1.18081827775546], a = 0.2, v = 0.2, t = 0.2)
movej(p[0.537115335074036, 0.0111758970060515, 0.17314028463795, -1.21773783022181, 1.17623882355968, -1.18332647862904], a = 0.2, v = 0.2, t = 0.2)
movej(p[0.537850990507926, 0.0108358296337712, 0.172961127067922, -1.21129296012727, 1.18133358267702, -1.16454764707578], a = 0.2, v = 0.2, t = 0.2)
movej(p[0.538148050730649, 0.0107327665433524, 0.172883579640698, -1.21116402461994, 1.1809114596379, -1.1646201335623], a = 0.2, v = 0.2, t = 0.2)
movej(p[0.538481371500696, 0.0105120121408796, 0.172802784479677, -1.21063884746677, 1.18080088092478, -1.1641494166716], a = 0.2, v = 0.2, t = 0.2)
movej(p[0.538601852213426, 0.0106001693021549, 0.172753844079435, -1.2148329431416, 1.17817191002958, -1.16518259200912], a = 0.2, v = 0.2, t = 0.2)
movej(p[0.538836091849756, 0.0104837652410132, 0.172691254005769, -1.19852685402811, 1.18791326588926, -1.1664426823432], a = 0.2, v = 0.2, t = 0.2)
movej(p[0.539083973012484, 0.0104894394595791, 0.172617214810687, -1.19359432701415, 1.18935385955301, -1.16364028147793], a = 0.2, v = 0.2, t = 0.2)
movej(p[0.538866153699157, 0.0105751406460654, 0.172666263596365, -1.19888237925549, 1.18680763692819, -1.16416737343706], a = 0.2, v = 0.2, t = 0.2)
movej(p[0.538999737590557, 0.0103838557011543, 0.17263612601503, -1.20578907799422, 1.18284913728063, -1.16605763358551], a = 0.2, v = 0.2, t = 0.2)
movej(p[0.539137855596707, 0.0103014444461405, 0.172601878512577, -1.2080688193834, 1.18121013415394, -1.16643299133741], a = 0.2, v = 0.2, t = 0.2)
movej(p[0.539133111784335, 0.0104203634207219, 0.17260148643007, -1.20365399786233, 1.18369485595117, -1.16532159759083], a = 0.2, v = 0.2, t = 0.2)
movej(p[0.538706959805132, 0.0105234983012218, 0.172712966190769, -1.20242627011421, 1.18515961127158, -1.16437055933347], a = 0.2, v = 0.2, t = 0.2)
movej(p[0.53762758782623, 0.0109516742529734, 0.172990849719435, -1.20293477783067, 1.18581063392777, -1.1664129049727], a = 0.2, v = 0.2, t = 0.2)
movej(p[0.536400660308989, 0.0114578072069327, 0.173305313692495, -1.20437301085114, 1.18546487826437, -1.17384784134669], a = 0.2, v = 0.2, t = 0.2)
movej(p[0.534545201346591, 0.0119749117021199, 0.173760614548978, -1.21220442141148, 1.18946737108756, -1.16703649790668], a = 0.2, v = 0.2, t = 0.2)
movej(p[0.532789181736528, 0.0125458310182828, 0.174202274648496, -1.19324035195554, 1.20426502157788, -1.15722742110415], a = 0.2, v = 0.2, t = 0.2)
movej(p[0.531681857138627, 0.0128263633437166, 0.174487614094195, -1.19439460763683, 1.20521559024761, -1.1550025887524], a = 0.2, v = 0.2, t = 0.2)
movej(p[0.531314523350189, 0.0129769786264504, 0.174579221214433, -1.19449900877611, 1.20583464202476, -1.15479040855237], a = 0.2, v = 0.2, t = 0.2)
movej(p[0.530882811978543, 0.0130424182899539, 0.174697756028021, -1.19933124997699, 1.20359485329668, -1.15673949856577], a = 0.2, v = 0.2, t = 0.2)
movej(p[0.52937616722125, 0.0133879189052704, 0.175100500165331, -1.19581087638625, 1.20560125242155, -1.14710441751204], a = 0.2, v = 0.2, t = 0.2)
movej(p[0.530621172889725, 0.013125657834963, 0.1747870435711, -1.19354003273422, 1.20243363003401, -1.15409553249844], a = 0.2, v = 0.2, t = 0.2)
movej(p[0.532095857320924, 0.0126757279774073, 0.174425375958974, -1.18623877565179, 1.20178185185787, -1.15703866846583], a = 0.2, v = 0.2, t = 0.2)
movej(p[0.533465310381984, 0.0121685815956912, 0.17409522593086, -1.20427427321032, 1.19125498992169, -1.17269849609794], a = 0.2, v = 0.2, t = 0.2)
movej(p[0.533809004615815, 0.0121285763879893, 0.174007899319862, -1.2159414775845, 1.18480371815456, -1.17775633320625], a = 0.2, v = 0.2, t = 0.2)
movej(p[0.535151112348224, 0.0116287033397117, 0.173667823989657, -1.21266624482717, 1.18431479754915, -1.18048818126506], a = 0.2, v = 0.2, t = 0.2)
movej(p[0.535919219634003, 0.0114320818232276, 0.173467799849143, -1.21537704884594, 1.18138875808584, -1.18154953007529], a = 0.2, v = 0.2, t = 0.2)
movej(p[0.537076355453834, 0.0111481427499709, 0.173166463646303, -1.217727233986, 1.17785807547306, -1.18100812953847], a = 0.2, v = 0.2, t = 0.2)
movej(p[0.537503904387662, 0.010856623592373, 0.173019986276256, -1.20597683504968, 1.18733432128817, -1.16574771461749], a = 0.2, v = 0.2, t = 0.2)
movej(p[0.537555851616561, 0.010865920864083, 0.173002015851986, -1.21139664422374, 1.18428243951807, -1.1673021348152], a = 0.2, v = 0.2, t = 0.2)
movej(p[0.537563876337934, 0.0106828699710948, 0.172993721008823, -1.20778370643278, 1.18497440679589, -1.16368963913628], a = 0.2, v = 0.2, t = 0.2)
movej(p[0.537562103949433, 0.0107350455594532, 0.17299350509575, -1.21105075973444, 1.18341930383009, -1.16510414995446], a = 0.2, v = 0.2, t = 0.2)
movej(p[0.537560283435794, 0.0107885190616723, 0.172993403653553, -1.21392760006277, 1.18212180007267, -1.16654639618286], a = 0.2, v = 0.2, t = 0.2)
movej(p[0.53755540036743, 0.0109072515284229, 0.173000309229753, -1.19775092872109, 1.19348957534491, -1.16928545299169], a = 0.2, v = 0.2, t = 0.2)
movej(p[0.537984726394926, 0.010808873188471, 0.172884891101442, -1.19872699691811, 1.19165430772375, -1.16913347642059], a = 0.2, v = 0.2, t = 0.2)
movej(p[0.537039475624452, 0.0111050069660979, 0.173142891579477, -1.20395069065618, 1.18972114975136, -1.17213865867292], a = 0.2, v = 0.2, t = 0.2)
movej(p[0.534636885095007, 0.0118369068923002, 0.173776170022067, -1.19986192170124, 1.19421530396449, -1.16300971500556], a = 0.2, v = 0.2, t = 0.2)
movej(p[0.532371536806183, 0.0126261527384481, 0.174375594766853, -1.1976426138989, 1.20239422785212, -1.155704277642], a = 0.2, v = 0.2, t = 0.2)
movej(p[0.529913062912715, 0.0132030246071975, 0.175008905269041, -1.18740296781488, 1.21457985629898, -1.15020511808921], a = 0.2, v = 0.2, t = 0.2)
movej(p[0.527879566450934, 0.0137108060885018, 0.175543024335509, -1.18962469303506, 1.21686688564692, -1.14636920729705], a = 0.2, v = 0.2, t = 0.2)
movej(p[0.52690573144665, 0.0139554189699827, 0.175810145605057, -1.20648767915337, 1.20945305422156, -1.15095692226792], a = 0.2, v = 0.2, t = 0.2)
movej(p[0.527532446007023, 0.0138579406200527, 0.17566818134508, -1.19271302589261, 1.21263190930721, -1.13928950485636], a = 0.2, v = 0.2, t = 0.2)
movej(p[0.529935234247439, 0.0132168379128009, 0.175050038157402, -1.19110291015214, 1.20682984408354, -1.15361836335315], a = 0.2, v = 0.2, t = 0.2)
movej(p[0.532195194893813, 0.0125499150312839, 0.17443913492697, -1.19068230928021, 1.19972628610404, -1.15560036916904], a = 0.2, v = 0.2, t = 0.2)
movej(p[0.533244553963681, 0.012221240659538, 0.174163882152522, -1.20752854317559, 1.1887848781221, -1.16262520027833], a = 0.2, v = 0.2, t = 0.2)
movej(p[0.534859992442794, 0.0117594477470659, 0.173731201119666, -1.2122149637143, 1.1852626953249, -1.1747450187341], a = 0.2, v = 0.2, t = 0.2)
movej(p[0.536002430304534, 0.0113413628777851, 0.173407609008913, -1.21856080049769, 1.17865393949027, -1.17746648789571], a = 0.2, v = 0.2, t = 0.2)
movej(p[0.536981166747763, 0.0110823107223692, 0.17314037256778, -1.21376139750318, 1.17914274078903, -1.18225798415294], a = 0.2, v = 0.2, t = 0.2)
movej(p[0.537656313940711, 0.010766568405203, 0.17289015942463, -1.2054480995285, 1.18931851405699, -1.17151851197592], a = 0.2, v = 0.2, t = 0.2)
movej(p[0.537846673569593, 0.0105798975349899, 0.172810434284894, -1.20556295339888, 1.18663923286277, -1.1684720615514], a = 0.2, v = 0.2, t = 0.2)
movej(p[0.537833712207259, 0.0108780185098182, 0.172866613528871, -1.20542080306047, 1.18983673487871, -1.17289688579432], a = 0.2, v = 0.2, t = 0.2)
movej(p[0.538105361020445, 0.0106508943653271, 0.172762575817998, -1.20014490749595, 1.19018116583603, -1.16962535882124], a = 0.2, v = 0.2, t = 0.2)
movej(p[0.537801719495376, 0.0108393999742155, 0.172865773829952, -1.19840565841874, 1.19293512943354, -1.1703157196261], a = 0.2, v = 0.2, t = 0.2)
movej(p[0.537790223333346, 0.0109159291680498, 0.172876942122107, -1.20853822164401, 1.18732268080899, -1.17201862825838], a = 0.2, v = 0.2, t = 0.2)
movej(p[0.537513882671742, 0.0109362436350301, 0.172937347346846, -1.20729730219125, 1.18777027792325, -1.16986789812372], a = 0.2, v = 0.2, t = 0.2)
movej(p[0.537397498115068, 0.0109721141829987, 0.172967941116736, -1.20610281523798, 1.19059859258237, -1.17243044655133], a = 0.2, v = 0.2, t = 0.2)
movej(p[0.537583575901529, 0.0107825014065484, 0.172887536997486, -1.20044444258601, 1.19097023572672, -1.16875216136119], a = 0.2, v = 0.2, t = 0.2)
movej(p[0.538032956422588, 0.0108538987962493, 0.172810301966336, -1.20000247518546, 1.19335343466306, -1.17398040959246], a = 0.2, v = 0.2, t = 0.2)
movej(p[0.538214108862485, 0.0106675824640011, 0.172724171206111, -1.20240253951723, 1.18988072977547, -1.17269487577708], a = 0.2, v = 0.2, t = 0.2)
movej(p[0.53833439287037, 0.0105359263016441, 0.172662907086427, -1.20569656550359, 1.18618608868089, -1.17153818120866], a = 0.2, v = 0.2, t = 0.2)
movej(p[0.538370284400365, 0.0107187778048528, 0.172699176437799, -1.20613008453401, 1.18754390227053, -1.17351620585188], a = 0.2, v = 0.2, t = 0.2)
movej(p[0.537192051992034, 0.0111242942361322, 0.173043036868673, -1.20175491495462, 1.19168037434059, -1.16888647101408], a = 0.2, v = 0.2, t = 0.2)
movej(p[0.535839691828259, 0.0115243361685816, 0.173437875379607, -1.19983074165097, 1.19447048592586, -1.16862076559176], a = 0.2, v = 0.2, t = 0.2)
movej(p[0.533724734348573, 0.0122422142888726, 0.174055529557546, -1.20032909870958, 1.19956926243276, -1.16207925118186], a = 0.2, v = 0.2, t = 0.2)
movej(p[0.531107516150405, 0.0129223034196582, 0.174758580883812, -1.19564623461796, 1.20774255883698, -1.14916686900768], a = 0.2, v = 0.2, t = 0.2)
movej(p[0.527957243399709, 0.013822523474923, 0.175617529484326, -1.19053749093544, 1.21988914687329, -1.13843155008512], a = 0.2, v = 0.2, t = 0.2)
movej(p[0.525487038987139, 0.0143289732075912, 0.176266191783522, -1.20128583562427, 1.21790787891092, -1.14047898911779], a = 0.2, v = 0.2, t = 0.2)
movej(p[0.523702190762722, 0.0147956486933638, 0.176724119175991, -1.18719847950885, 1.22235959380171, -1.11486786156448], a = 0.2, v = 0.2, t = 0.2)
movej(p[0.523579646662831, 0.0147966030122083, 0.176744071189864, -1.19081046720021, 1.21660083825535, -1.11187038898117], a = 0.2, v = 0.2, t = 0.2)
movej(p[0.52513324058696, 0.0145694423503093, 0.176399982752691, -1.18333731978258, 1.2209547071595, -1.1202475809648], a = 0.2, v = 0.2, t = 0.2)
movej(p[0.527340717068418, 0.013930708354946, 0.175799889662433, -1.18357263481505, 1.21504935174001, -1.13413445190429], a = 0.2, v = 0.2, t = 0.2)
movej(p[0.529789648505493, 0.0133275814543322, 0.175158433312972, -1.18949582841192, 1.2055038287956, -1.14452461259033], a = 0.2, v = 0.2, t = 0.2)
movej(p[0.532083017831543, 0.0126980489171586, 0.174537294738279, -1.19509302535319, 1.19822865212447, -1.15442625515202], a = 0.2, v = 0.2, t = 0.2)
movej(p[0.533294930046704, 0.0122919329427096, 0.174189843881264, -1.20304536038089, 1.19122355783855, -1.16307603005737], a = 0.2, v = 0.2, t = 0.2)
movej(p[0.534592024928446, 0.01185251312295, 0.173808191749394, -1.21332036824625, 1.18430842560756, -1.16956253532703], a = 0.2, v = 0.2, t = 0.2)
movej(p[0.535746390071333, 0.0114106579020058, 0.173472595458277, -1.21276698772739, 1.183129253113, -1.17738230559459], a = 0.2, v = 0.2, t = 0.2)
movej(p[0.53725244286183, 0.0109909803460615, 0.173016884056978, -1.19710002416493, 1.19562026030038, -1.16966841931963], a = 0.2, v = 0.2, t = 0.2)
movej(p[0.537583293133999, 0.0110186699006916, 0.17294807667387, -1.19461504641456, 1.19568154022841, -1.16795364585774], a = 0.2, v = 0.2, t = 0.2)
movej(p[0.537583195851515, 0.0110279456656313, 0.172950489290894, -1.19335716936394, 1.19576526252554, -1.16709677718097], a = 0.2, v = 0.2, t = 0.2)
movej(p[0.53801142570457, 0.0107973753030736, 0.172796381014469, -1.20395986588237, 1.19073503139255, -1.17275200552122], a = 0.2, v = 0.2, t = 0.2)
movej(p[0.538117396487716, 0.0107775379152929, 0.172767439847153, -1.2017156770587, 1.19023176771091, -1.17050719539854], a = 0.2, v = 0.2, t = 0.2)
movej(p[0.538330361390149, 0.010817935276737, 0.172737796238741, -1.19735801282229, 1.19058576532502, -1.16757237639779], a = 0.2, v = 0.2, t = 0.2)
movej(p[0.537118877415754, 0.0111481298282119, 0.173084024744154, -1.20031389360498, 1.19516986229009, -1.1712300645937], a = 0.2, v = 0.2, t = 0.2)
movej(p[0.53551147546685, 0.0117106542628659, 0.173580354458231, -1.20900417909734, 1.19107253294455, -1.17012511476997], a = 0.2, v = 0.2, t = 0.2)
movej(p[0.533752398576786, 0.0121784460170931, 0.174062667343732, -1.20487694309139, 1.20070760879623, -1.16415559125026], a = 0.2, v = 0.2, t = 0.2)
movej(p[0.531802448948437, 0.0128973621267084, 0.174657903636506, -1.20224266113928, 1.20721354297013, -1.15818065459764], a = 0.2, v = 0.2, t = 0.2)
movej(p[0.530161589159056, 0.0133191680899261, 0.175098151760848, -1.19414202860261, 1.21422451598304, -1.14781187015817], a = 0.2, v = 0.2, t = 0.2)
movej(p[0.527333987080525, 0.0139557037029082, 0.175834695981446, -1.18766569136274, 1.22406024147328, -1.1367948455798], a = 0.2, v = 0.2, t = 0.2)
movej(p[0.524895407946642, 0.0146394367160185, 0.176503306970415, -1.18923335545482, 1.22489173001446, -1.12410422754013], a = 0.2, v = 0.2, t = 0.2)
movej(p[0.524336260491838, 0.0146858258249079, 0.176625974710115, -1.18766332147878, 1.22013521771784, -1.11795029875093], a = 0.2, v = 0.2, t = 0.2)
movej(p[0.526097094534567, 0.0143899470491086, 0.176211681970619, -1.18191578842394, 1.22027364577834, -1.12625350089301], a = 0.2, v = 0.2, t = 0.2)
movej(p[0.528828457148133, 0.0136853681193119, 0.175491411115385, -1.18927633281751, 1.20886715709516, -1.14048978670906], a = 0.2, v = 0.2, t = 0.2)
movej(p[0.529820456944622, 0.0134628282146728, 0.17523927497238, -1.19878461874886, 1.20211573680873, -1.14841732377757], a = 0.2, v = 0.2, t = 0.2)
movej(p[0.531738021474594, 0.0127162814168399, 0.174643721706887, -1.19715750866004, 1.19869027389957, -1.15617896090658], a = 0.2, v = 0.2, t = 0.2)
movej(p[0.533598360711265, 0.0121452867975002, 0.174109969480487, -1.2031667287127, 1.19624199706601, -1.16520361056688], a = 0.2, v = 0.2, t = 0.2)
movej(p[0.53540651906228, 0.0115620397859377, 0.173580334784534, -1.22408533873404, 1.18030032046719, -1.17722049700998], a = 0.2, v = 0.2, t = 0.2)
movej(p[0.53676756213647, 0.011175955045218, 0.173163242872382, -1.1946337426586, 1.19818940375366, -1.16792067893466], a = 0.2, v = 0.2, t = 0.2)
movej(p[0.53726715388299, 0.0109548166104117, 0.172985307323767, -1.19624466829763, 1.19462701751899, -1.16773963119107], a = 0.2, v = 0.2, t = 0.2)
movej(p[0.537562274704816, 0.0108000857031221, 0.172869034253566, -1.20154257537549, 1.18973584875475, -1.16802884879381], a = 0.2, v = 0.2, t = 0.2)
movej(p[0.537998193856952, 0.0106381998733176, 0.172744046410519, -1.19951695150928, 1.18837014586534, -1.17116923805573], a = 0.2, v = 0.2, t = 0.2)
movej(p[0.538127939662344, 0.0107998131307236, 0.172785576171099, -1.19567652787419, 1.18879587304629, -1.16973965916655], a = 0.2, v = 0.2, t = 0.2)
movej(p[0.538630678395507, 0.0106942541840989, 0.17265279821749, -1.19040795428909, 1.18854699486635, -1.16749134430366], a = 0.2, v = 0.2, t = 0.2)
movej(p[0.537935343925002, 0.0110156474560878, 0.172908113373418, -1.19269430964092, 1.19333017679828, -1.17090399063696], a = 0.2, v = 0.2, t = 0.2)
movej(p[0.536770607228189, 0.0114037467009728, 0.173258311579036, -1.20221908771576, 1.19035808460319, -1.16953001657199], a = 0.2, v = 0.2, t = 0.2)
movej(p[0.535168944807028, 0.011891784347434, 0.17373099903844, -1.20698134213837, 1.19488133676452, -1.16886863569373], a = 0.2, v = 0.2, t = 0.2)
movej(p[0.53355051630211, 0.0123715620367103, 0.174183714979557, -1.20696365912867, 1.20239925469445, -1.16443816543466], a = 0.2, v = 0.2, t = 0.2)
movej(p[0.532116816884633, 0.0128293466051262, 0.174604678646927, -1.20280245988962, 1.20924593029815, -1.15655186898711], a = 0.2, v = 0.2, t = 0.2)
movej(p[0.529856922850491, 0.013362520722131, 0.175221239045758, -1.20126170210949, 1.21687969090976, -1.15097035622951], a = 0.2, v = 0.2, t = 0.2)
movej(p[0.527051690513808, 0.0141312650988657, 0.176006887109756, -1.19064001972716, 1.22632099703487, -1.1368517688194], a = 0.2, v = 0.2, t = 0.2)
movej(p[0.525305032634209, 0.0144892998638071, 0.176445632444465, -1.19140796506926, 1.22410466764081, -1.12806625715797], a = 0.2, v = 0.2, t = 0.2)
movej(p[0.526185544267018, 0.0143007736575983, 0.176217325646361, -1.19461317594628, 1.21724697946527, -1.13000584735137], a = 0.2, v = 0.2, t = 0.2)
movej(p[0.528853596402619, 0.0137044354272109, 0.17554611592005, -1.19107639894021, 1.21187853728737, -1.13940001322481], a = 0.2, v = 0.2, t = 0.2)
movej(p[0.530616513973801, 0.0132033882439063, 0.175051813221981, -1.19683127822293, 1.20529255575744, -1.14954378659765], a = 0.2, v = 0.2, t = 0.2)
movej(p[0.532363315458551, 0.0125922961419362, 0.174505385792412, -1.20751175873223, 1.19361101018669, -1.15917858784746], a = 0.2, v = 0.2, t = 0.2)
movej(p[0.533638191605967, 0.012169546081966, 0.174112593779326, -1.22059607474542, 1.18402217447046, -1.16825023743708], a = 0.2, v = 0.2, t = 0.2)
movej(p[0.535354682504209, 0.0116519753828487, 0.173601534068851, -1.21151756273703, 1.18709159680766, -1.17206791933506], a = 0.2, v = 0.2, t = 0.2)
movej(p[0.536688991227695, 0.0110192684404947, 0.17307164298049, -1.20222108508525, 1.18970487724193, -1.17100023819291], a = 0.2, v = 0.2, t = 0.2)
movej(p[0.537014258464253, 0.0110505171236358, 0.173034213652096, -1.20120219590491, 1.18925452993972, -1.17074585172365], a = 0.2, v = 0.2, t = 0.2)
movej(p[0.537353589237901, 0.0108697154749004, 0.172889070240706, -1.19699068304929, 1.18889767628284, -1.16944864099144], a = 0.2, v = 0.2, t = 0.2)
movej(p[0.537841035420912, 0.0109356000776617, 0.172840550267631, -1.19241738428519, 1.18856902590192, -1.16715912516613], a = 0.2, v = 0.2, t = 0.2)
movej(p[0.538143091390218, 0.0107436361903288, 0.17271064015499, -1.19371117495958, 1.19150436596839, -1.172980802114], a = 0.2, v = 0.2, t = 0.2)
movej(p[0.538368269858607, 0.010985309233385, 0.172795255151498, -1.19285827139496, 1.19152617516763, -1.1718201843207], a = 0.2, v = 0.2, t = 0.2)
movej(p[0.538411594698659, 0.0107430797656924, 0.172657822792805, -1.20109076857161, 1.18424469295345, -1.17245640338393], a = 0.2, v = 0.2, t = 0.2)
movej(p[0.537894092199674, 0.0110234165609237, 0.172873616617518, -1.20036884127752, 1.18505866185404, -1.16944825021627], a = 0.2, v = 0.2, t = 0.2)
movej(p[0.536907985891544, 0.0113105998104806, 0.173170673632652, -1.20249451543093, 1.18700192748996, -1.16840629515741], a = 0.2, v = 0.2, t = 0.2)
movej(p[0.535430650594833, 0.0117914979620686, 0.173645105723567, -1.21026473528341, 1.19130902839588, -1.17044398542243], a = 0.2, v = 0.2, t = 0.2)
movej(p[0.534204702051315, 0.0121628395125381, 0.174007570937816, -1.20725197663982, 1.19645350076657, -1.1650578748507], a = 0.2, v = 0.2, t = 0.2)
movej(p[0.532493969688625, 0.0126905815991037, 0.174521649281372, -1.20203688802853, 1.20488515299237, -1.15874083758423], a = 0.2, v = 0.2, t = 0.2)
movej(p[0.530394337588379, 0.0131894572613971, 0.17506656759377, -1.19973670486364, 1.2128795861615, -1.14952719428935], a = 0.2, v = 0.2, t = 0.2)
movej(p[0.52850019403709, 0.0137286502661472, 0.175619616597691, -1.18806941868875, 1.21931898043101, -1.13966717005601], a = 0.2, v = 0.2, t = 0.2)
movej(p[0.528025831493721, 0.0137747529565424, 0.1757161819092, -1.19149273659676, 1.2171304933043, -1.13708168281142], a = 0.2, v = 0.2, t = 0.2)
movej(p[0.529999775705576, 0.0133182076187711, 0.175212934789942, -1.19675769630829, 1.206134696852, -1.14552977801397], a = 0.2, v = 0.2, t = 0.2)
movej(p[0.532082912259644, 0.012673922004607, 0.174591627978062, -1.20398635125285, 1.19773377320563, -1.15690408336173], a = 0.2, v = 0.2, t = 0.2)
movej(p[0.533596151989641, 0.0120904148493137, 0.174070594985557, -1.20479070863038, 1.19179284643648, -1.16345362028841], a = 0.2, v = 0.2, t = 0.2)
movej(p[0.535289908203199, 0.0115966107006661, 0.173583287647408, -1.20720248222568, 1.19010369385892, -1.17385158407991], a = 0.2, v = 0.2, t = 0.2)
movej(p[0.536368490420929, 0.0109721447882495, 0.173040091684771, -1.19846866963719, 1.18888972827657, -1.16815302024142], a = 0.2, v = 0.2, t = 0.2)
movej(p[0.537470852132102, 0.0110216923879587, 0.172903749530232, -1.19772712000574, 1.18684732792555, -1.16914281434483], a = 0.2, v = 0.2, t = 0.2)
movej(p[0.537895890654239, 0.0108783645097271, 0.172759016451703, -1.19677261393491, 1.18680564996474, -1.17069117237485], a = 0.2, v = 0.2, t = 0.2)
movej(p[0.537894977567342, 0.0108852116405775, 0.172770277582705, -1.19796216232989, 1.18895943182846, -1.17336878621731], a = 0.2, v = 0.2, t = 0.2)
movej(p[0.538021773138853, 0.0109142470943007, 0.172775052043113, -1.19705954460416, 1.19012922440815, -1.17388757135699], a = 0.2, v = 0.2, t = 0.2)
movej(p[0.538270646611315, 0.0108310175421396, 0.172690243220743, -1.198658445492, 1.18664730086009, -1.17322348205686], a = 0.2, v = 0.2, t = 0.2)
movej(p[0.538588619031768, 0.0106340740365421, 0.172526779569021, -1.20211406518658, 1.18176374473938, -1.17373795132034], a = 0.2, v = 0.2, t = 0.2)
movej(p[0.538857293441801, 0.0105981218664121, 0.172472030387693, -1.2015242778192, 1.18281259633123, -1.17525093752363], a = 0.2, v = 0.2, t = 0.2)
movej(p[0.538683386702374, 0.010754272436628, 0.172593552342101, -1.20277338113885, 1.18594074601115, -1.17707193815362], a = 0.2, v = 0.2, t = 0.2)
movej(p[0.53834155446583, 0.0109009445005404, 0.172722681880655, -1.20087026423852, 1.18687359739856, -1.17468728345701], a = 0.2, v = 0.2, t = 0.2)
movej(p[0.537668750961704, 0.0111682997915893, 0.172967172889044, -1.19915073482583, 1.18854652876796, -1.1712575873595], a = 0.2, v = 0.2, t = 0.2)
movej(p[0.536359546619864, 0.0115598291223703, 0.173370445891422, -1.19715471877794, 1.19156866375402, -1.16601646428484], a = 0.2, v = 0.2, t = 0.2)
movej(p[0.535244511073907, 0.0120753567351362, 0.173825132070811, -1.21173479957638, 1.19339287032526, -1.16911538741055], a = 0.2, v = 0.2, t = 0.2)
movej(p[0.533317390180388, 0.0124612227732771, 0.174314655361751, -1.20577626564408, 1.2053962261378, -1.16350922527903], a = 0.2, v = 0.2, t = 0.2)
movej(p[0.531422597074764, 0.0129423789996736, 0.174838749220404, -1.19728993535318, 1.21337592337143, -1.15384259670222], a = 0.2, v = 0.2, t = 0.2)
movej(p[0.528957999327194, 0.0136907991643811, 0.175602052416868, -1.19187952003415, 1.22190690338797, -1.14451813321968], a = 0.2, v = 0.2, t = 0.2)
movej(p[0.528301445959962, 0.0137928357852557, 0.17574548220449, -1.18314308132845, 1.2232397630881, -1.13826665764173], a = 0.2, v = 0.2, t = 0.2)
movej(p[0.529962225752547, 0.0133802255592958, 0.175296003593236, -1.18646568561512, 1.21472912056198, -1.14399850940371], a = 0.2, v = 0.2, t = 0.2)
movej(p[0.531683378707552, 0.0128817299643132, 0.174775828202371, -1.20034231744763, 1.20149712944883, -1.15246847345145], a = 0.2, v = 0.2, t = 0.2)
movej(p[0.533117946159875, 0.012292279511483, 0.174257309158948, -1.21242188811976, 1.19200295170601, -1.16406365512315], a = 0.2, v = 0.2, t = 0.2)
movej(p[0.534519248478534, 0.0118391808512479, 0.173818515453645, -1.21414421311554, 1.18739588812118, -1.17059316788434], a = 0.2, v = 0.2, t = 0.2)
movej(p[0.535593603919888, 0.0114925391085579, 0.173473227866468, -1.2203732647263, 1.18000004895745, -1.17544784552325], a = 0.2, v = 0.2, t = 0.2)
movej(p[0.536332796957699, 0.0111665709091895, 0.173189595999688, -1.21055415116763, 1.1838601022112, -1.17616385293311], a = 0.2, v = 0.2, t = 0.2)
movej(p[0.537123201746175, 0.0109630574793027, 0.172940897298024, -1.19646270152462, 1.19195377546495, -1.1714709215129], a = 0.2, v = 0.2, t = 0.2)
movej(p[0.537658425642034, 0.010870962638309, 0.172813868436881, -1.19467220408392, 1.19074758780602, -1.17161175928189], a = 0.2, v = 0.2, t = 0.2)
movej(p[0.537910637875515, 0.0108438683876867, 0.172757380288868, -1.20418716292987, 1.18396406731751, -1.17337898487223], a = 0.2, v = 0.2, t = 0.2)
movej(p[0.538016174081079, 0.0107823030534556, 0.17271820390649, -1.20543596439384, 1.18745376257131, -1.17728967275154], a = 0.2, v = 0.2, t = 0.2)
movej(p[0.538336552660303, 0.0106917908926554, 0.172619272643881, -1.20319074630227, 1.18687907869365, -1.17702940022124], a = 0.2, v = 0.2, t = 0.2)
movej(p[0.538637421866103, 0.0107371119507363, 0.17260832263494, -1.2016558789839, 1.18637569223638, -1.17637170207004], a = 0.2, v = 0.2, t = 0.2)
movej(p[0.538503589329674, 0.0107503665565156, 0.172629952189227, -1.1992564523567, 1.1868039133284, -1.17480738293155], a = 0.2, v = 0.2, t = 0.2)
movej(p[0.538436549485667, 0.010769060326027, 0.172648566492785, -1.19732920461177, 1.18748765529854, -1.1738621321497], a = 0.2, v = 0.2, t = 0.2)
movej(p[0.538404965152218, 0.0108132885646254, 0.17269439086175, -1.19907310730547, 1.19153931457513, -1.17733431095312], a = 0.2, v = 0.2, t = 0.2)
movej(p[0.538149350600015, 0.0110212083739612, 0.172856060907176, -1.19847690614204, 1.19183505369646, -1.17519018653667], a = 0.2, v = 0.2, t = 0.2)
movej(p[0.537620979404886, 0.0112298902971517, 0.17304799533632, -1.20544331260723, 1.18870715908964, -1.17435314604994], a = 0.2, v = 0.2, t = 0.2)
movej(p[0.536624462116214, 0.0115461992436476, 0.173374984195065, -1.19885593518571, 1.19545802109162, -1.17031779009254], a = 0.2, v = 0.2, t = 0.2)
movej(p[0.534920787018998, 0.0120406675823014, 0.173879681030004, -1.20751668289517, 1.19702161057599, -1.16619015421586], a = 0.2, v = 0.2, t = 0.2)
movej(p[0.533047305824307, 0.012552152422988, 0.174423969630736, -1.205599715762, 1.20761190013176, -1.16109215110139], a = 0.2, v = 0.2, t = 0.2)
movej(p[0.531284949563342, 0.0129531360064605, 0.174884036077265, -1.19946492098518, 1.2150111958183, -1.15271596252842], a = 0.2, v = 0.2, t = 0.2)
movej(p[0.530016286315686, 0.0132193191969714, 0.175212264127769, -1.2010091894099, 1.21469029847252, -1.14984271055942], a = 0.2, v = 0.2, t = 0.2)
movej(p[0.53090333909846, 0.013088018332607, 0.175023104661732, -1.19993037736192, 1.20513967305921, -1.14940513553248], a = 0.2, v = 0.2, t = 0.2)
movej(p[0.532027132762721, 0.0127121896204743, 0.174657387367497, -1.20478730016052, 1.19888545895167, -1.15551310888195], a = 0.2, v = 0.2, t = 0.2)
movej(p[0.533420569465081, 0.0122593706216911, 0.174205127264395, -1.20846271054148, 1.19152290788136, -1.16150964182927], a = 0.2, v = 0.2, t = 0.2)
movej(p[0.534526444646073, 0.0118027865342059, 0.173784384545954, -1.20601258827588, 1.19337083309129, -1.16630920774877], a = 0.2, v = 0.2, t = 0.2)
movej(p[0.535491302509648, 0.0114742323903192, 0.173479406501446, -1.22044622144415, 1.1805407626044, -1.17664746493578], a = 0.2, v = 0.2, t = 0.2)
movej(p[0.536748075759877, 0.0111103713552031, 0.173071028986598, -1.20674871926071, 1.18460802977758, -1.17469037542757], a = 0.2, v = 0.2, t = 0.2)
movej(p[0.537508871980353, 0.011028982686205, 0.172914909847899, -1.20523254632962, 1.18855168475413, -1.17487712181053], a = 0.2, v = 0.2, t = 0.2)
movej(p[0.537852142321151, 0.0109145264554717, 0.172799633899087, -1.20432476634716, 1.18918218710618, -1.17627796463736], a = 0.2, v = 0.2, t = 0.2)
movej(p[0.53792230718822, 0.0108852534338334, 0.172770286298957, -1.20235215496442, 1.18907283354281, -1.17538028572784], a = 0.2, v = 0.2, t = 0.2)
movej(p[0.538192602803186, 0.0107087049646125, 0.172622499531802, -1.19945016097373, 1.188816924416, -1.17522883680954], a = 0.2, v = 0.2, t = 0.2)
movej(p[0.53826666133882, 0.010737056048648, 0.172633216776492, -1.19828502413103, 1.18941016319048, -1.17493548532841], a = 0.2, v = 0.2, t = 0.2)
movej(p[0.538708895731616, 0.0107368692823577, 0.17259988950618, -1.20264725338706, 1.19116240375879, -1.17959382016785], a = 0.2, v = 0.2, t = 0.2)
movej(p[0.538723165447405, 0.0105257712706962, 0.172443463406427, -1.20775458198556, 1.18577606633616, -1.18038141434713], a = 0.2, v = 0.2, t = 0.2)
movej(p[0.538722717474069, 0.0105479063895703, 0.172458130574945, -1.20577270342026, 1.18595089229441, -1.17917731657298], a = 0.2, v = 0.2, t = 0.2)
movej(p[0.538571590112152, 0.0106793287880853, 0.172561493303471, -1.20446309877833, 1.18624728725814, -1.17750484907603], a = 0.2, v = 0.2, t = 0.2)
movej(p[0.537898581438642, 0.0110460381471953, 0.172886852952662, -1.2033463854067, 1.18774174181266, -1.17363386775016], a = 0.2, v = 0.2, t = 0.2)
movej(p[0.537308684454687, 0.011406036267035, 0.173200684534936, -1.20290919519561, 1.18901394112516, -1.17025023315151], a = 0.2, v = 0.2, t = 0.2)
movej(p[0.535942653279675, 0.0118804512925479, 0.173676436311037, -1.20854026645637, 1.1919928288632, -1.16806617572947], a = 0.2, v = 0.2, t = 0.2)
movej(p[0.534168225290901, 0.0123417926254801, 0.174178171756449, -1.21008044553825, 1.20149251793482, -1.16441519297421], a = 0.2, v = 0.2, t = 0.2)
movej(p[0.533203162209235, 0.0125613940619953, 0.174427164843675, -1.20731215737218, 1.20892099980824, -1.16131234940261], a = 0.2, v = 0.2, t = 0.2)
movej(p[0.531562176599601, 0.0129776881584637, 0.174885652307209, -1.19732480082348, 1.21339851707327, -1.15150788617222], a = 0.2, v = 0.2, t = 0.2)
movej(p[0.529670202069078, 0.0135013582435429, 0.175437581349611, -1.19003944330459, 1.217379662182, -1.14168892904534], a = 0.2, v = 0.2, t = 0.2)
movej(p[0.531036965386006, 0.0132456111610117, 0.175131856055801, -1.20228808361015, 1.20401525157547, -1.14884485423753], a = 0.2, v = 0.2, t = 0.2)
movej(p[0.53193363843127, 0.0128021886879904, 0.174732336869382, -1.20130299733696, 1.19905107990222, -1.15200671122553], a = 0.2, v = 0.2, t = 0.2)
movej(p[0.532631216831164, 0.0125675629780172, 0.174500880778037, -1.19999974055338, 1.19871079937564, -1.15508225277129], a = 0.2, v = 0.2, t = 0.2)
movej(p[0.534243248047922, 0.0119722429724567, 0.173927051964558, -1.20501817783462, 1.19262199992402, -1.16415374689496], a = 0.2, v = 0.2, t = 0.2)
movej(p[0.535765949706644, 0.0114505895437768, 0.173434013407372, -1.21434070603057, 1.18007546932589, -1.17487859601925], a = 0.2, v = 0.2, t = 0.2)
