def moving():
set_payload_mass(0)
set_tcp(p[0,0,0,0,0,0])
movej(p[0.4506, -0.0825, 0.3772, -1.148, 1.108, -1.211], a = 0.2, v = 0.2, t = 0.2)
movej(p[0.45059257502834, -0.0825011441091599, 0.377274512233291, -1.148, 1.108, -1.211], a = 0.2, v = 0.2, t = 0.2)
movej(p[0.450567104668889, -0.0825050688206457, 0.377530116355772, -1.148, 1.108, -1.211], a = 0.2, v = 0.2, t = 0.2)
movej(p[0.450564563581646, -0.0825054603751626, 0.377555617070678, -1.148, 1.108, -1.211], a = 0.2, v = 0.2, t = 0.2)
movej(p[0.450565576843902, -0.0825053042422261, 0.377545448623298, -1.148, 1.108, -1.211], a = 0.2, v = 0.2, t = 0.2)
movej(p[0.450571409546302, -0.0825044054848235, 0.377486915378746, -1.148, 1.108, -1.211], a = 0.2, v = 0.2, t = 0.2)
movej(p[0.45058472175013, -0.0825023542158037, 0.37735332267526, -1.148, 1.108, -1.211], a = 0.2, v = 0.2, t = 0.2)
movej(p[0.450632412494791, -0.0824950055792956, 0.376874729078546, -1.148, 1.108, -1.211], a = 0.2, v = 0.2, t = 0.2)
movej(p[0.450721165147084, -0.0824813297395608, 0.375984064624041, -1.148, 1.108, -1.211], a = 0.2, v = 0.2, t = 0.2)
movej(p[0.4508153925882, -0.0824668102930986, 0.375038458715105, -1.148, 1.108, -1.211], a = 0.2, v = 0.2, t = 0.2)
movej(p[0.450910264472044, -0.0824521915448667, 0.374086385594039, -1.148, 1.108, -1.211], a = 0.2, v = 0.2, t = 0.2)
movej(p[0.450994428692123, -0.0824392227337327, 0.373241767689898, -1.148, 1.108, -1.211], a = 0.2, v = 0.2, t = 0.2)
movej(p[0.451046112998788, -0.0824312587317959, 0.372723097277095, -1.148, 1.108, -1.211], a = 0.2, v = 0.2, t = 0.2)
movej(p[0.451028048773439, -0.082434042236789, 0.372904378207869, -1.148, 1.108, -1.211], a = 0.2, v = 0.2, t = 0.2)
movej(p[0.450939502342819, -0.0824476862999575, 0.373792973154493, -1.148, 1.108, -1.211], a = 0.2, v = 0.2, t = 0.2)
movej(p[0.450830730325091, -0.0824644469109777, 0.374884539066418, -1.148, 1.108, -1.211], a = 0.2, v = 0.2, t = 0.2)
movej(p[0.450713987046561, -0.0824824358085043, 0.376056099417609, -1.148, 1.108, -1.211], a = 0.2, v = 0.2, t = 0.2)
movej(p[0.450623265373877, -0.0824964150533388, 0.37696652369256, -1.148, 1.108, -1.211], a = 0.2, v = 0.2, t = 0.2)
movej(p[0.450572602261071, -0.0825042217001635, 0.377474946061527, -1.148, 1.108, -1.211], a = 0.2, v = 0.2, t = 0.2)
movej(p[0.45056659506341, -0.0825051473454298, 0.377535230428133, -1.148, 1.108, -1.211], a = 0.2, v = 0.2, t = 0.2)
movej(p[0.450571990536206, -0.0825043159604588, 0.377481084938272, -1.148, 1.108, -1.211], a = 0.2, v = 0.2, t = 0.2)
movej(p[0.450604535389619, -0.0824993011446986, 0.377154485750942, -1.148, 1.108, -1.211], a = 0.2, v = 0.2, t = 0.2)
movej(p[0.45067377976913, -0.0824886313223071, 0.376459593757161, -1.148, 1.108, -1.211], a = 0.2, v = 0.2, t = 0.2)
movej(p[0.45076571101124, -0.0824744656956893, 0.375537031022521, -1.148, 1.108, -1.211], a = 0.2, v = 0.2, t = 0.2)
movej(p[0.45086828646429, -0.0824586599093785, 0.374507649842612, -1.148, 1.108, -1.211], a = 0.2, v = 0.2, t = 0.2)
movej(p[0.450951826070651, -0.0824457873445753, 0.373669300159458, -1.148, 1.108, -1.211], a = 0.2, v = 0.2, t = 0.2)
movej(p[0.451025956813204, -0.0824343645856109, 0.372925371773398, -1.148, 1.108, -1.211], a = 0.2, v = 0.2, t = 0.2)
movej(p[0.451040511304319, -0.0824321218933333, 0.372779312274838, -1.148, 1.108, -1.211], a = 0.2, v = 0.2, t = 0.2)
movej(p[0.450998483724049, -0.0824385978964428, 0.373201074001266, -1.148, 1.108, -1.211], a = 0.2, v = 0.2, t = 0.2)
movej(p[0.450901767742557, -0.0824535008005083, 0.37417165329858, -1.148, 1.108, -1.211], a = 0.2, v = 0.2, t = 0.2)
movej(p[0.450785074036545, -0.0824714820594371, 0.375342716171916, -1.148, 1.108, -1.211], a = 0.2, v = 0.2, t = 0.2)
movej(p[0.450676404138202, -0.0824882269349462, 0.376433257279458, -1.148, 1.108, -1.211], a = 0.2, v = 0.2, t = 0.2)
movej(p[0.450610838535209, -0.0824983298970042, 0.377091231441535, -1.148, 1.108, -1.211], a = 0.2, v = 0.2, t = 0.2)
movej(p[0.450588519004965, -0.0825017690992217, 0.37731521587148, -1.148, 1.108, -1.211], a = 0.2, v = 0.2, t = 0.2)
movej(p[0.450584940860657, -0.082502320453202, 0.377351123823136, -1.148, 1.108, -1.211], a = 0.2, v = 0.2, t = 0.2)
movej(p[0.450596365343023, -0.0825005600619816, 0.377236475076412, -1.148, 1.108, -1.211], a = 0.2, v = 0.2, t = 0.2)
movej(p[0.450639916782479, -0.0824938492483795, 0.376799420880685, -1.148, 1.108, -1.211], a = 0.2, v = 0.2, t = 0.2)
movej(p[0.450713977132058, -0.0824824373362238, 0.376056198913181, -1.148, 1.108, -1.211], a = 0.2, v = 0.2, t = 0.2)
movej(p[0.450807332096868, -0.0824680523290807, 0.375119348614512, -1.148, 1.108, -1.211], a = 0.2, v = 0.2, t = 0.2)
movej(p[0.450906268927139, -0.0824528072158393, 0.374126482309244, -1.148, 1.108, -1.211], a = 0.2, v = 0.2, t = 0.2)
movej(p[0.4509954994585, -0.0824390577400229, 0.373231022168206, -1.148, 1.108, -1.211], a = 0.2, v = 0.2, t = 0.2)
movej(p[0.451035772171654, -0.0824328521432711, 0.372826871157884, -1.148, 1.108, -1.211], a = 0.2, v = 0.2, t = 0.2)
movej(p[0.451026244333805, -0.0824343202817444, 0.372922486401832, -1.148, 1.108, -1.211], a = 0.2, v = 0.2, t = 0.2)
movej(p[0.450973925498917, -0.0824423820577314, 0.373447524531194, -1.148, 1.108, -1.211], a = 0.2, v = 0.2, t = 0.2)
movej(p[0.450874017047304, -0.0824577768874872, 0.374450141402443, -1.148, 1.108, -1.211], a = 0.2, v = 0.2, t = 0.2)
movej(p[0.450753992068121, -0.0824762714601799, 0.375654634787711, -1.148, 1.108, -1.211], a = 0.2, v = 0.2, t = 0.2)
movej(p[0.450652187963442, -0.0824919583899108, 0.376676275212178, -1.148, 1.108, -1.211], a = 0.2, v = 0.2, t = 0.2)
movej(p[0.450608484336357, -0.0824986926540078, 0.377114856664923, -1.148, 1.108, -1.211], a = 0.2, v = 0.2, t = 0.2)
movej(p[0.450587615793698, -0.0825019082744714, 0.377324279918019, -1.148, 1.108, -1.211], a = 0.2, v = 0.2, t = 0.2)
movej(p[0.450584314264037, -0.0825024170050766, 0.377357411943237, -1.148, 1.108, -1.211], a = 0.2, v = 0.2, t = 0.2)
movej(p[0.450607775151923, -0.0824988019317861, 0.377121973583133, -1.148, 1.108, -1.211], a = 0.2, v = 0.2, t = 0.2)
movej(p[0.450665650867723, -0.082489883899554, 0.37654117017601, -1.148, 1.108, -1.211], a = 0.2, v = 0.2, t = 0.2)
movej(p[0.450760178718295, -0.0824753181631899, 0.375592549551265, -1.148, 1.108, -1.211], a = 0.2, v = 0.2, t = 0.2)
movej(p[0.450862883059891, -0.0824594925165252, 0.374561874928931, -1.148, 1.108, -1.211], a = 0.2, v = 0.2, t = 0.2)
movej(p[0.450962900571043, -0.0824440808818545, 0.373558163606398, -1.148, 1.108, -1.211], a = 0.2, v = 0.2, t = 0.2)
movej(p[0.451027344843692, -0.082434150704876, 0.372911442393426, -1.148, 1.108, -1.211], a = 0.2, v = 0.2, t = 0.2)
movej(p[0.451041314379102, -0.0824319981480509, 0.372771253133568, -1.148, 1.108, -1.211], a = 0.2, v = 0.2, t = 0.2)
movej(p[0.451011432065599, -0.0824366026947299, 0.373071132785245, -1.148, 1.108, -1.211], a = 0.2, v = 0.2, t = 0.2)
movej(p[0.450915479500876, -0.0824513879643912, 0.374034050923574, -1.148, 1.108, -1.211], a = 0.2, v = 0.2, t = 0.2)
movej(p[0.450788524283758, -0.0824709504130389, 0.375308091713129, -1.148, 1.108, -1.211], a = 0.2, v = 0.2, t = 0.2)
movej(p[0.450671994167053, -0.0824889064645954, 0.376477512909539, -1.148, 1.108, -1.211], a = 0.2, v = 0.2, t = 0.2)
movej(p[0.450614927276446, -0.0824976998654679, 0.377050199467961, -1.148, 1.108, -1.211], a = 0.2, v = 0.2, t = 0.2)
movej(p[0.450588938388462, -0.0825017044766854, 0.377311007208817, -1.148, 1.108, -1.211], a = 0.2, v = 0.2, t = 0.2)
movej(p[0.450585165919887, -0.0825022857739685, 0.377348865273669, -1.148, 1.108, -1.211], a = 0.2, v = 0.2, t = 0.2)
movej(p[0.450609821009717, -0.0824984866868601, 0.37710144267201, -1.148, 1.108, -1.211], a = 0.2, v = 0.2, t = 0.2)
movej(p[0.450656988566029, -0.0824912186681119, 0.37662809945659, -1.148, 1.108, -1.211], a = 0.2, v = 0.2, t = 0.2)
movej(p[0.450742312783016, -0.0824780711137923, 0.375771840570615, -1.148, 1.108, -1.211], a = 0.2, v = 0.2, t = 0.2)
movej(p[0.450840892691163, -0.0824628809984542, 0.374782556105911, -1.148, 1.108, -1.211], a = 0.2, v = 0.2, t = 0.2)
movej(p[0.450934227826966, -0.0824484990467502, 0.373845904798385, -1.148, 1.108, -1.211], a = 0.2, v = 0.2, t = 0.2)
movej(p[0.450995083049353, -0.0824391219042434, 0.373235200982197, -1.148, 1.108, -1.211], a = 0.2, v = 0.2, t = 0.2)
movej(p[0.451029238513857, -0.0824338589104447, 0.372892438739322, -1.148, 1.108, -1.211], a = 0.2, v = 0.2, t = 0.2)
movej(p[0.451019224865338, -0.0824354019071753, 0.372992929266261, -1.148, 1.108, -1.211], a = 0.2, v = 0.2, t = 0.2)
movej(p[0.450945460959413, -0.0824467681405169, 0.373733176316185, -1.148, 1.108, -1.211], a = 0.2, v = 0.2, t = 0.2)
movej(p[0.450822015476528, -0.0824657897764491, 0.374971995673526, -1.148, 1.108, -1.211], a = 0.2, v = 0.2, t = 0.2)
movej(p[0.450703289297301, -0.0824840842178827, 0.376163455138963, -1.148, 1.108, -1.211], a = 0.2, v = 0.2, t = 0.2)
movej(p[0.450631113694835, -0.0824952057105548, 0.376887762998377, -1.148, 1.108, -1.211], a = 0.2, v = 0.2, t = 0.2)
movej(p[0.450593557357346, -0.0825009927427083, 0.377264654212094, -1.148, 1.108, -1.211], a = 0.2, v = 0.2, t = 0.2)
movej(p[0.450587778391555, -0.082501883219871, 0.377322648190651, -1.148, 1.108, -1.211], a = 0.2, v = 0.2, t = 0.2)
movej(p[0.450606959783156, -0.0824989275714407, 0.37713015609891, -1.148, 1.108, -1.211], a = 0.2, v = 0.2, t = 0.2)
movej(p[0.450658400391325, -0.0824910011208501, 0.376613931287248, -1.148, 1.108, -1.211], a = 0.2, v = 0.2, t = 0.2)
movej(p[0.450741886459367, -0.0824781368057323, 0.375776118880178, -1.148, 1.108, -1.211], a = 0.2, v = 0.2, t = 0.2)
movej(p[0.450842072517077, -0.0824626991998295, 0.374770716132935, -1.148, 1.108, -1.211], a = 0.2, v = 0.2, t = 0.2)
movej(p[0.450932582019387, -0.082448752648193, 0.373862421063209, -1.148, 1.108, -1.211], a = 0.2, v = 0.2, t = 0.2)
movej(p[0.450997412957672, -0.0824387628901526, 0.373211819522959, -1.148, 1.108, -1.211], a = 0.2, v = 0.2, t = 0.2)
movej(p[0.451033204315251, -0.0824332478226307, 0.372852640510831, -1.148, 1.108, -1.211], a = 0.2, v = 0.2, t = 0.2)
movej(p[0.451044814198832, -0.082431458863055, 0.372736131196925, -1.148, 1.108, -1.211], a = 0.2, v = 0.2, t = 0.2)
movej(p[0.450979090955233, -0.0824415861158536, 0.373395687338585, -1.148, 1.108, -1.211], a = 0.2, v = 0.2, t = 0.2)
movej(p[0.450864469380449, -0.0824592480813996, 0.374545955637534, -1.148, 1.108, -1.211], a = 0.2, v = 0.2, t = 0.2)
movej(p[0.450733469045908, -0.0824794338396177, 0.375860590620149, -1.148, 1.108, -1.211], a = 0.2, v = 0.2, t = 0.2)
movej(p[0.450640286593459, -0.0824937922644408, 0.376795709695878, -1.148, 1.108, -1.211], a = 0.2, v = 0.2, t = 0.2)
movej(p[0.450586126635274, -0.0825021377379456, 0.377339224152817, -1.148, 1.108, -1.211], a = 0.2, v = 0.2, t = 0.2)
movej(p[0.450573508446689, -0.082504082066598, 0.377465852166317, -1.148, 1.108, -1.211], a = 0.2, v = 0.2, t = 0.2)
movej(p[0.450581016700178, -0.082502925124594, 0.377390504170227, -1.148, 1.108, -1.211], a = 0.2, v = 0.2, t = 0.2)
movej(p[0.450606508673247, -0.0824989970826796, 0.377134683147401, -1.148, 1.108, -1.211], a = 0.2, v = 0.2, t = 0.2)
movej(p[0.450669360874927, -0.082489312226904, 0.376503938933257, -1.148, 1.108, -1.211], a = 0.2, v = 0.2, t = 0.2)
movej(p[0.450770658348478, -0.0824737033636413, 0.375487382732479, -1.148, 1.108, -1.211], a = 0.2, v = 0.2, t = 0.2)
movej(p[0.450873580809151, -0.0824578441071468, 0.374454519207577, -1.148, 1.108, -1.211], a = 0.2, v = 0.2, t = 0.2)
movej(p[0.450961502626051, -0.082444296290309, 0.373572192481941, -1.148, 1.108, -1.211], a = 0.2, v = 0.2, t = 0.2)
movej(p[0.451030993380974, -0.082433588504087, 0.372874828023215, -1.148, 1.108, -1.211], a = 0.2, v = 0.2, t = 0.2)
movej(p[0.451060310567778, -0.0824290710374215, 0.372580619619098, -1.148, 1.108, -1.211], a = 0.2, v = 0.2, t = 0.2)
movej(p[0.451026442623875, -0.0824342897273537, 0.372920496490408, -1.148, 1.108, -1.211], a = 0.2, v = 0.2, t = 0.2)
movej(p[0.450916728728315, -0.0824511954717298, 0.3740215144816, -1.148, 1.108, -1.211], a = 0.2, v = 0.2, t = 0.2)
movej(p[0.450787741037982, -0.0824710711028822, 0.375315951863256, -1.148, 1.108, -1.211], a = 0.2, v = 0.2, t = 0.2)
movej(p[0.450674821783446, -0.082488470758984, 0.376449136772625, -1.148, 1.108, -1.211], a = 0.2, v = 0.2, t = 0.2)
movej(p[0.450599793540379, -0.0825000318132316, 0.377202071895775, -1.148, 1.108, -1.211], a = 0.2, v = 0.2, t = 0.2)
movej(p[0.450566581183105, -0.0825051494842372, 0.377535369721933, -1.148, 1.108, -1.211], a = 0.2, v = 0.2, t = 0.2)
movej(p[0.450568032666415, -0.0825049258260972, 0.377520803570305, -1.148, 1.108, -1.211], a = 0.2, v = 0.2, t = 0.2)
movej(p[0.450572301851615, -0.0825042679900654, 0.377477960777335, -1.148, 1.108, -1.211], a = 0.2, v = 0.2, t = 0.2)
movej(p[0.450597546160388, -0.082500378110585, 0.377224625153879, -1.148, 1.108, -1.211], a = 0.2, v = 0.2, t = 0.2)
movej(p[0.45065494221251, -0.082491533989424, 0.376648635342491, -1.148, 1.108, -1.211], a = 0.2, v = 0.2, t = 0.2)
movej(p[0.450733449216901, -0.0824794368950567, 0.375860789611292, -1.148, 1.108, -1.211], a = 0.2, v = 0.2, t = 0.2)
movej(p[0.450833734419647, -0.0824639840119586, 0.374854391908336, -1.148, 1.108, -1.211], a = 0.2, v = 0.2, t = 0.2)
movej(p[0.450920278120563, -0.0824506485481362, 0.373985895067101, -1.148, 1.108, -1.211], a = 0.2, v = 0.2, t = 0.2)
movej(p[0.450987072130538, -0.0824403563016278, 0.373315593403748, -1.148, 1.108, -1.211], a = 0.2, v = 0.2, t = 0.2)
movej(p[0.450991127162463, -0.0824397314643379, 0.373274899715116, -1.148, 1.108, -1.211], a = 0.2, v = 0.2, t = 0.2)
movej(p[0.45094084080079, -0.0824474800578202, 0.373779541252377, -1.148, 1.108, -1.211], a = 0.2, v = 0.2, t = 0.2)
movej(p[0.450846583616163, -0.082462004087441, 0.374725445648027, -1.148, 1.108, -1.211], a = 0.2, v = 0.2, t = 0.2)
movej(p[0.450732596569602, -0.0824795682789368, 0.375869346230417, -1.148, 1.108, -1.211], a = 0.2, v = 0.2, t = 0.2)
movej(p[0.450644826444604, -0.0824930927216657, 0.376750150673814, -1.148, 1.108, -1.211], a = 0.2, v = 0.2, t = 0.2)
movej(p[0.450593242869295, -0.082501041201972, 0.377267810211614, -1.148, 1.108, -1.211], a = 0.2, v = 0.2, t = 0.2)
movej(p[0.450581010751476, -0.0825029260412257, 0.37739056386757, -1.148, 1.108, -1.211], a = 0.2, v = 0.2, t = 0.2)
movej(p[0.450574741810923, -0.0825038920182878, 0.377453474917257, -1.148, 1.108, -1.211], a = 0.2, v = 0.2, t = 0.2)
movej(p[0.4505809363927, -0.0825029374991222, 0.377391310084354, -1.148, 1.108, -1.211], a = 0.2, v = 0.2, t = 0.2)
movej(p[0.450605168430666, -0.0824992035998063, 0.37714813295872, -1.148, 1.108, -1.211], a = 0.2, v = 0.2, t = 0.2)
movej(p[0.450654667580763, -0.0824915763072551, 0.376651391369814, -1.148, 1.108, -1.211], a = 0.2, v = 0.2, t = 0.2)
movej(p[0.450731932297868, -0.0824796706361456, 0.37587601243369, -1.148, 1.108, -1.211], a = 0.2, v = 0.2, t = 0.2)
movej(p[0.450830700581581, -0.0824644514941363, 0.374884837553132, -1.148, 1.108, -1.211], a = 0.2, v = 0.2, t = 0.2)
movej(p[0.450912009424657, -0.0824519226662285, 0.374068874373504, -1.148, 1.108, -1.211], a = 0.2, v = 0.2, t = 0.2)
movej(p[0.450960719380276, -0.0824444169801522, 0.373580052632068, -1.148, 1.108, -1.211], a = 0.2, v = 0.2, t = 0.2)
movej(p[0.45097734600262, -0.0824418549944918, 0.373413198559121, -1.148, 1.108, -1.211], a = 0.2, v = 0.2, t = 0.2)
movej(p[0.450965032189292, -0.0824437524221544, 0.373536772058584, -1.148, 1.108, -1.211], a = 0.2, v = 0.2, t = 0.2)
movej(p[0.450894282292427, -0.0824546542287574, 0.374246772454856, -1.148, 1.108, -1.211], a = 0.2, v = 0.2, t = 0.2)
movej(p[0.450789862741728, -0.0824707441709017, 0.375294659811013, -1.148, 1.108, -1.211], a = 0.2, v = 0.2, t = 0.2)
movej(p[0.45068698291342, -0.0824865968582022, 0.376327095504959, -1.148, 1.108, -1.211], a = 0.2, v = 0.2, t = 0.2)
movej(p[0.450627750695253, -0.0824957239130211, 0.376921511896137, -1.148, 1.108, -1.211], a = 0.2, v = 0.2, t = 0.2)
movej(p[0.450591127907412, -0.0825013670951032, 0.377289034606868, -1.148, 1.108, -1.211], a = 0.2, v = 0.2, t = 0.2)
movej(p[0.450578757184834, -0.082503273291876, 0.37741317921091, -1.148, 1.108, -1.211], a = 0.2, v = 0.2, t = 0.2)
movej(p[0.450583884966036, -0.0825024831553325, 0.377361720101471, -1.148, 1.108, -1.211], a = 0.2, v = 0.2, t = 0.2)
movej(p[0.450589255652574, -0.0825016555896603, 0.377307823350538, -1.148, 1.108, -1.211], a = 0.2, v = 0.2, t = 0.2)
movej(p[0.450596438313768, -0.0825005488179658, 0.377235742789007, -1.148, 1.108, -1.211], a = 0.2, v = 0.2, t = 0.2)
movej(p[0.450613607656032, -0.082497903204938, 0.377063442328492, -1.148, 1.108, -1.211], a = 0.2, v = 0.2, t = 0.2)
movej(p[0.450671994167053, -0.0824889064645954, 0.376477512909539, -1.148, 1.108, -1.211], a = 0.2, v = 0.2, t = 0.2)
movej(p[0.450733746652006, -0.0824793910634707, 0.375857804744155, -1.148, 1.108, -1.211], a = 0.2, v = 0.2, t = 0.2)
movej(p[0.450802513648174, -0.0824687948007748, 0.375167703462128, -1.148, 1.108, -1.211], a = 0.2, v = 0.2, t = 0.2)
movej(p[0.450862783914856, -0.0824595077937206, 0.374562869884643, -1.148, 1.108, -1.211], a = 0.2, v = 0.2, t = 0.2)
movej(p[0.450920337607584, -0.082450639381819, 0.373985298093673, -1.148, 1.108, -1.211], a = 0.2, v = 0.2, t = 0.2)
movej(p[0.450945540275441, -0.0824467559187606, 0.373732380351616, -1.148, 1.108, -1.211], a = 0.2, v = 0.2, t = 0.2)
movej(p[0.450936180984152, -0.0824481980860018, 0.373826304170853, -1.148, 1.108, -1.211], a = 0.2, v = 0.2, t = 0.2)
movej(p[0.450889979397914, -0.0824553172590356, 0.374289953532769, -1.148, 1.108, -1.211], a = 0.2, v = 0.2, t = 0.2)
movej(p[0.450795841187329, -0.082469822956022, 0.375234663981564, -1.148, 1.108, -1.211], a = 0.2, v = 0.2, t = 0.2)
movej(p[0.450699858879096, -0.0824846128088419, 0.376197880606607, -1.148, 1.108, -1.211], a = 0.2, v = 0.2, t = 0.2)
movej(p[0.450625849093485, -0.0824960169296279, 0.376940595146698, -1.148, 1.108, -1.211], a = 0.2, v = 0.2, t = 0.2)
movej(p[0.450599396583489, -0.0825000929800664, 0.377206055499456, -1.148, 1.108, -1.211], a = 0.2, v = 0.2, t = 0.2)
movej(p[0.4505881928178, -0.0825018193611944, 0.377318489275774, -1.148, 1.108, -1.211], a = 0.2, v = 0.2, t = 0.2)
movej(p[0.45058560314949, -0.082502218401537, 0.377344477518978, -1.148, 1.108, -1.211], a = 0.2, v = 0.2, t = 0.2)
movej(p[0.450592077915136, -0.0825012207090174, 0.377279500941233, -1.148, 1.108, -1.211], a = 0.2, v = 0.2, t = 0.2)
movej(p[0.450596680624233, -0.0825005114805004, 0.377233311117247, -1.148, 1.108, -1.211], a = 0.2, v = 0.2, t = 0.2)
movej(p[0.450610070161189, -0.0824984482952681, 0.377098942348305, -1.148, 1.108, -1.211], a = 0.2, v = 0.2, t = 0.2)
movej(p[0.450651947041007, -0.0824919955134955, 0.376678692954559, -1.148, 1.108, -1.211], a = 0.2, v = 0.2, t = 0.2)
movej(p[0.450726578465986, -0.0824804956046946, 0.375929740042152, -1.148, 1.108, -1.211], a = 0.2, v = 0.2, t = 0.2)
movej(p[0.45080159159935, -0.0824689368786916, 0.375176956550253, -1.148, 1.108, -1.211], a = 0.2, v = 0.2, t = 0.2)
movej(p[0.450873273459543, -0.0824578914664524, 0.374457603570285, -1.148, 1.108, -1.211], a = 0.2, v = 0.2, t = 0.2)
movej(p[0.450936240471173, -0.0824481889196846, 0.373825707197426, -1.148, 1.108, -1.211], a = 0.2, v = 0.2, t = 0.2)
movej(p[0.450975392845433, -0.0824421559552402, 0.373432799186653, -1.148, 1.108, -1.211], a = 0.2, v = 0.2, t = 0.2)
movej(p[0.450951003166861, -0.0824459141452967, 0.37367755829187, -1.148, 1.108, -1.211], a = 0.2, v = 0.2, t = 0.2)
movej(p[0.45088336642409, -0.0824563362479656, 0.374356317078777, -1.148, 1.108, -1.211], a = 0.2, v = 0.2, t = 0.2)
movej(p[0.450796614518601, -0.0824697037938982, 0.375226903327008, -1.148, 1.108, -1.211], a = 0.2, v = 0.2, t = 0.2)
movej(p[0.450702238359932, -0.0824842461561534, 0.376174001669513, -1.148, 1.108, -1.211], a = 0.2, v = 0.2, t = 0.2)
movej(p[0.450633453517657, -0.0824948451687445, 0.376864282043568, -1.148, 1.108, -1.211], a = 0.2, v = 0.2, t = 0.2)
movej(p[0.450592728703144, -0.0825011204295071, 0.377272970051937, -1.148, 1.108, -1.211], a = 0.2, v = 0.2, t = 0.2)
movej(p[0.450585706260326, -0.0825022025132538, 0.377343442765037, -1.148, 1.108, -1.211], a = 0.2, v = 0.2, t = 0.2)
movej(p[0.450580330616537, -0.0825030308427858, 0.377397389263756, -1.148, 1.108, -1.211], a = 0.2, v = 0.2, t = 0.2)
movej(p[0.450584904176995, -0.0825023261057642, 0.377351491956749, -1.148, 1.108, -1.211], a = 0.2, v = 0.2, t = 0.2)
movej(p[0.45059837818552, -0.0825002499043616, 0.377216275485541, -1.148, 1.108, -1.211], a = 0.2, v = 0.2, t = 0.2)
movej(p[0.450636262296495, -0.0824944123658002, 0.376836094948239, -1.148, 1.108, -1.211], a = 0.2, v = 0.2, t = 0.2)
movej(p[0.450697828388782, -0.0824849256858027, 0.376218257299594, -1.148, 1.108, -1.211], a = 0.2, v = 0.2, t = 0.2)
movej(p[0.450791528378313, -0.0824704875140198, 0.375277944555047, -1.148, 1.108, -1.211], a = 0.2, v = 0.2, t = 0.2)
movej(p[0.450876763364769, -0.082457353709176, 0.374422581129214, -1.148, 1.108, -1.211], a = 0.2, v = 0.2, t = 0.2)
movej(p[0.450934773124657, -0.0824484150221758, 0.373840432541968, -1.148, 1.108, -1.211], a = 0.2, v = 0.2, t = 0.2)
movej(p[0.450981906674222, -0.0824411522435056, 0.373367430596357, -1.148, 1.108, -1.211], a = 0.2, v = 0.2, t = 0.2)
movej(p[0.451011739415207, -0.0824365553354243, 0.373068048422537, -1.148, 1.108, -1.211], a = 0.2, v = 0.2, t = 0.2)
movej(p[0.450978813349135, -0.0824416288920006, 0.37339847321458, -1.148, 1.108, -1.211], a = 0.2, v = 0.2, t = 0.2)
movej(p[0.45088706453389, -0.0824557664085789, 0.374319205230709, -1.148, 1.108, -1.211], a = 0.2, v = 0.2, t = 0.2)
movej(p[0.450770053563766, -0.0824737965545329, 0.375493451962324, -1.148, 1.108, -1.211], a = 0.2, v = 0.2, t = 0.2)
movej(p[0.450673863050959, -0.0824886184894631, 0.376458757994363, -1.148, 1.108, -1.211], a = 0.2, v = 0.2, t = 0.2)
movej(p[0.450602071734648, -0.0824996807677259, 0.377179209405436, -1.148, 1.108, -1.211], a = 0.2, v = 0.2, t = 0.2)
movej(p[0.450573044447926, -0.0825041535638722, 0.37747050855905, -1.148, 1.108, -1.211], a = 0.2, v = 0.2, t = 0.2)
movej(p[0.450572724209464, -0.0825042029092132, 0.377473722266001, -1.148, 1.108, -1.211], a = 0.2, v = 0.2, t = 0.2)
movej(p[0.450573991283009, -0.0825040076666566, 0.377461006731998, -1.148, 1.108, -1.211], a = 0.2, v = 0.2, t = 0.2)
movej(p[0.450575215724189, -0.082503818993294, 0.377448719028952, -1.148, 1.108, -1.211], a = 0.2, v = 0.2, t = 0.2)
movej(p[0.450581906031141, -0.0825027880881517, 0.377381579417488, -1.148, 1.108, -1.211], a = 0.2, v = 0.2, t = 0.2)
movej(p[0.450622631837104, -0.0824965126746171, 0.376972881459561, -1.148, 1.108, -1.211], a = 0.2, v = 0.2, t = 0.2)
movej(p[0.450685499703699, -0.0824868254050446, 0.376341980042414, -1.148, 1.108, -1.211], a = 0.2, v = 0.2, t = 0.2)
movej(p[0.450768477157712, -0.082474039461939, 0.375509271758149, -1.148, 1.108, -1.211], a = 0.2, v = 0.2, t = 0.2)
movej(p[0.450848318654273, -0.0824617367365224, 0.374708033923062, -1.148, 1.108, -1.211], a = 0.2, v = 0.2, t = 0.2)
movej(p[0.450903810130275, -0.0824531860902841, 0.374151157210908, -1.148, 1.108, -1.211], a = 0.2, v = 0.2, t = 0.2)
movej(p[0.450943349170171, -0.0824470935447778, 0.373754368872857, -1.148, 1.108, -1.211], a = 0.2, v = 0.2, t = 0.2)
movej(p[0.450953541279753, -0.0824455230490957, 0.373652087425636, -1.148, 1.108, -1.211], a = 0.2, v = 0.2, t = 0.2)
movej(p[0.450935764575006, -0.0824482622502222, 0.373830482984845, -1.148, 1.108, -1.211], a = 0.2, v = 0.2, t = 0.2)
movej(p[0.450854961371607, -0.0824607131644338, 0.374641371890341, -1.148, 1.108, -1.211], a = 0.2, v = 0.2, t = 0.2)
movej(p[0.450757610861893, -0.0824757138425496, 0.375618318904213, -1.148, 1.108, -1.211], a = 0.2, v = 0.2, t = 0.2)
movej(p[0.45067380752974, -0.0824886270446925, 0.376459315169562, -1.148, 1.108, -1.211], a = 0.2, v = 0.2, t = 0.2)
movej(p[0.450616881425083, -0.0824973987519475, 0.377030588890873, -1.148, 1.108, -1.211], a = 0.2, v = 0.2, t = 0.2)
movej(p[0.450593708751814, -0.082500969414431, 0.377263134914722, -1.148, 1.108, -1.211], a = 0.2, v = 0.2, t = 0.2)
movej(p[0.450587250939969, -0.0825019644945503, 0.37732794135504, -1.148, 1.108, -1.211], a = 0.2, v = 0.2, t = 0.2)
movej(p[0.450594689990224, -0.0825008182160286, 0.377253287838037, -1.148, 1.108, -1.211], a = 0.2, v = 0.2, t = 0.2)
movej(p[0.450591611536892, -0.0825012925729443, 0.377284181212903, -1.148, 1.108, -1.211], a = 0.2, v = 0.2, t = 0.2)
movej(p[0.450596219302386, -0.0825005825652903, 0.377237940646176, -1.148, 1.108, -1.211], a = 0.2, v = 0.2, t = 0.2)
movej(p[0.45062478130146, -0.0824961814650219, 0.376951310819719, -1.148, 1.108, -1.211], a = 0.2, v = 0.2, t = 0.2)
movej(p[0.450674069272632, -0.0824885867128967, 0.376456688486481, -1.148, 1.108, -1.211], a = 0.2, v = 0.2, t = 0.2)
movej(p[0.450742223552485, -0.0824780848632681, 0.375772736030757, -1.148, 1.108, -1.211], a = 0.2, v = 0.2, t = 0.2)
movej(p[0.450815204212634, -0.0824668393197698, 0.375040349130959, -1.148, 1.108, -1.211], a = 0.2, v = 0.2, t = 0.2)
movej(p[0.450882692237853, -0.082456440132894, 0.37436308277762, -1.148, 1.108, -1.211], a = 0.2, v = 0.2, t = 0.2)
movej(p[0.450929240831713, -0.0824492674896764, 0.373895951070712, -1.148, 1.108, -1.211], a = 0.2, v = 0.2, t = 0.2)
movej(p[0.450947582663159, -0.0824464412085363, 0.373711884263943, -1.148, 1.108, -1.211], a = 0.2, v = 0.2, t = 0.2)
movej(p[0.450931461680493, -0.0824489252805005, 0.373873664062757, -1.148, 1.108, -1.211], a = 0.2, v = 0.2, t = 0.2)
movej(p[0.450865322027748, -0.0824591166975196, 0.374537399018409, -1.148, 1.108, -1.211], a = 0.2, v = 0.2, t = 0.2)
movej(p[0.450767743484454, -0.0824741525131846, 0.37551663443042, -1.148, 1.108, -1.211], a = 0.2, v = 0.2, t = 0.2)
movej(p[0.450676110668899, -0.0824882721554444, 0.376436202348366, -1.148, 1.108, -1.211], a = 0.2, v = 0.2, t = 0.2)
movej(p[0.450630407782187, -0.0824953144841857, 0.376894847083048, -1.148, 1.108, -1.211], a = 0.2, v = 0.2, t = 0.2)
movej(p[0.450599676985476, -0.0825000497731025, 0.377203241565711, -1.148, 1.108, -1.211], a = 0.2, v = 0.2, t = 0.2)
movej(p[0.450592302379495, -0.0825011861214471, 0.3772772483615, -1.148, 1.108, -1.211], a = 0.2, v = 0.2, t = 0.2)
movej(p[0.450583342642696, -0.082502566721591, 0.377367162509218, -1.148, 1.108, -1.211], a = 0.2, v = 0.2, t = 0.2)
movej(p[0.450594461758354, -0.0825008533841324, 0.377255578226087, -1.148, 1.108, -1.211], a = 0.2, v = 0.2, t = 0.2)
movej(p[0.450620416937026, -0.0824968539671612, 0.376995108770173, -1.148, 1.108, -1.211], a = 0.2, v = 0.2, t = 0.2)
movej(p[0.450678154048067, -0.0824879572924482, 0.376415696311136, -1.148, 1.108, -1.211], a = 0.2, v = 0.2, t = 0.2)
movej(p[0.450764541099829, -0.0824746459665945, 0.375548771499926, -1.148, 1.108, -1.211], a = 0.2, v = 0.2, t = 0.2)
movej(p[0.450844461912417, -0.0824623310194215, 0.374746737700269, -1.148, 1.108, -1.211], a = 0.2, v = 0.2, t = 0.2)
movej(p[0.450909748917862, -0.0824522709862825, 0.374091559363743, -1.148, 1.108, -1.211], a = 0.2, v = 0.2, t = 0.2)
movej(p[0.450963614415294, -0.082443970886048, 0.37355099992527, -1.148, 1.108, -1.211], a = 0.2, v = 0.2, t = 0.2)
movej(p[0.450992475534937, -0.0824395236944811, 0.37326136831743, -1.148, 1.108, -1.211], a = 0.2, v = 0.2, t = 0.2)
movej(p[0.450954949139248, -0.0824453061129217, 0.373637959054522, -1.148, 1.108, -1.211], a = 0.2, v = 0.2, t = 0.2)
movej(p[0.450867364415466, -0.0824588019872953, 0.374516902930736, -1.148, 1.108, -1.211], a = 0.2, v = 0.2, t = 0.2)
movej(p[0.450754319246736, -0.0824762210454352, 0.37565135143386, -1.148, 1.108, -1.211], a = 0.2, v = 0.2, t = 0.2)
movej(p[0.450661554194883, -0.082490515153266, 0.376582281746041, -1.148, 1.108, -1.211], a = 0.2, v = 0.2, t = 0.2)
movej(p[0.450597238909925, -0.0825004254546133, 0.377227708521631, -1.148, 1.108, -1.211], a = 0.2, v = 0.2, t = 0.2)
movej(p[0.450578594586977, -0.0825032983464764, 0.377414810938278, -1.148, 1.108, -1.211], a = 0.2, v = 0.2, t = 0.2)
movej(p[0.450581811843358, -0.0825028026014873, 0.377382524625415, -1.148, 1.108, -1.211], a = 0.2, v = 0.2, t = 0.2)
movej(p[0.450580420838519, -0.082503016940538, 0.377396483854058, -1.148, 1.108, -1.211], a = 0.2, v = 0.2, t = 0.2)
movej(p[0.450584250811215, -0.0825024267824816, 0.377358048714893, -1.148, 1.108, -1.211], a = 0.2, v = 0.2, t = 0.2)
movej(p[0.450611916241738, -0.0824981638338907, 0.377080416272943, -1.148, 1.108, -1.211], a = 0.2, v = 0.2, t = 0.2)
movej(p[0.450668223681377, -0.0824894874563347, 0.376515351075277, -1.148, 1.108, -1.211], a = 0.2, v = 0.2, t = 0.2)
movej(p[0.450753347625395, -0.0824763707619497, 0.37566110199984, -1.148, 1.108, -1.211], a = 0.2, v = 0.2, t = 0.2)
movej(p[0.450844263622347, -0.0824623615738122, 0.374748727611694, -1.148, 1.108, -1.211], a = 0.2, v = 0.2, t = 0.2)
movej(p[0.450928318782889, -0.0824494095675932, 0.373905204158836, -1.148, 1.108, -1.211], a = 0.2, v = 0.2, t = 0.2)
movej(p[0.450979864286505, -0.0824414669537299, 0.37338792668403, -1.148, 1.108, -1.211], a = 0.2, v = 0.2, t = 0.2)
movej(p[0.450993516557803, -0.0824393632839299, 0.373250921282451, -1.148, 1.108, -1.211], a = 0.2, v = 0.2, t = 0.2)
movej(p[0.450964129969475, -0.0824438914446321, 0.373545826155566, -1.148, 1.108, -1.211], a = 0.2, v = 0.2, t = 0.2)
movej(p[0.450881264549351, -0.082456660124507, 0.374377410139877, -1.148, 1.108, -1.211], a = 0.2, v = 0.2, t = 0.2)
movej(p[0.450770053563766, -0.0824737965545329, 0.375493451962324, -1.148, 1.108, -1.211], a = 0.2, v = 0.2, t = 0.2)
movej(p[0.450670515914583, -0.0824891342475781, 0.376492347699209, -1.148, 1.108, -1.211], a = 0.2, v = 0.2, t = 0.2)
movej(p[0.450614827139961, -0.0824977152954352, 0.377051204373231, -1.148, 1.108, -1.211], a = 0.2, v = 0.2, t = 0.2)
movej(p[0.450584053512596, -0.0825024571841004, 0.377360028676761, -1.148, 1.108, -1.211], a = 0.2, v = 0.2, t = 0.2)
movej(p[0.450578509322247, -0.0825033114848644, 0.37741566660019, -1.148, 1.108, -1.211], a = 0.2, v = 0.2, t = 0.2)
movej(p[0.450579110141158, -0.0825032189050606, 0.377409637168574, -1.148, 1.108, -1.211], a = 0.2, v = 0.2, t = 0.2)
movej(p[0.450584461990139, -0.0825023942420555, 0.377355929459226, -1.148, 1.108, -1.211], a = 0.2, v = 0.2, t = 0.2)
movej(p[0.450597996972861, -0.0825003086451777, 0.377220101090255, -1.148, 1.108, -1.211], a = 0.2, v = 0.2, t = 0.2)
movej(p[0.45064205335798, -0.0824935200248197, 0.376777979585086, -1.148, 1.108, -1.211], a = 0.2, v = 0.2, t = 0.2)
movej(p[0.450713263287807, -0.0824825473320303, 0.376063362594309, -1.148, 1.108, -1.211], a = 0.2, v = 0.2, t = 0.2)
movej(p[0.450787047022738, -0.0824711780432497, 0.375322916553242, -1.148, 1.108, -1.211], a = 0.2, v = 0.2, t = 0.2)
movej(p[0.450862813658367, -0.082459503210562, 0.374562571397929, -1.148, 1.108, -1.211], a = 0.2, v = 0.2, t = 0.2)
movej(p[0.450934227826966, -0.0824484990467502, 0.373845904798385, -1.148, 1.108, -1.211], a = 0.2, v = 0.2, t = 0.2)
movej(p[0.450983453336766, -0.0824409139192581, 0.373351909287246, -1.148, 1.108, -1.211], a = 0.2, v = 0.2, t = 0.2)
movej(p[0.450990443061723, -0.0824398368769858, 0.373281764909531, -1.148, 1.108, -1.211], a = 0.2, v = 0.2, t = 0.2)
movej(p[0.450946620956321, -0.0824465893973312, 0.373721535334352, -1.148, 1.108, -1.211], a = 0.2, v = 0.2, t = 0.2)
movej(p[0.45086649193916, -0.0824589364266144, 0.374525658541004, -1.148, 1.108, -1.211], a = 0.2, v = 0.2, t = 0.2)
movej(p[0.45075171173232, -0.082476622835673, 0.375677518769093, -1.148, 1.108, -1.211], a = 0.2, v = 0.2, t = 0.2)
movej(p[0.450658747398947, -0.0824909476506664, 0.376610448942255, -1.148, 1.108, -1.211], a = 0.2, v = 0.2, t = 0.2)
movej(p[0.450606449087082, -0.082499006264274, 0.377135281115784, -1.148, 1.108, -1.211], a = 0.2, v = 0.2, t = 0.2)
movej(p[0.450586659044111, -0.0825020556994065, 0.377333881240642, -1.148, 1.108, -1.211], a = 0.2, v = 0.2, t = 0.2)
movej(p[0.450576348951938, -0.0825036443749511, 0.377437346685161, -1.148, 1.108, -1.211], a = 0.2, v = 0.2, t = 0.2)
movej(p[0.45057695373665, -0.0825035511840595, 0.377431277455316, -1.148, 1.108, -1.211], a = 0.2, v = 0.2, t = 0.2)
movej(p[0.450587979655975, -0.0825018522071644, 0.377320628430555, -1.148, 1.108, -1.211], a = 0.2, v = 0.2, t = 0.2)
movej(p[0.450617430688576, -0.0824973141162852, 0.377025076836227, -1.148, 1.108, -1.211], a = 0.2, v = 0.2, t = 0.2)
movej(p[0.450677651382741, -0.0824880347478287, 0.376420740736597, -1.148, 1.108, -1.211], a = 0.2, v = 0.2, t = 0.2)
movej(p[0.450761447774741, -0.0824751226150894, 0.375579814118148, -1.148, 1.108, -1.211], a = 0.2, v = 0.2, t = 0.2)
movej(p[0.450833417155535, -0.0824640328989837, 0.374857575766616, -1.148, 1.108, -1.211], a = 0.2, v = 0.2, t = 0.2)
movej(p[0.450879499767731, -0.0824569320585843, 0.374395120351555, -1.148, 1.108, -1.211], a = 0.2, v = 0.2, t = 0.2)
movej(p[0.450875296018254, -0.0824575798116672, 0.374437306473755, -1.148, 1.108, -1.211], a = 0.2, v = 0.2, t = 0.2)
movej(p[0.450833774077661, -0.0824639779010804, 0.374853993926051, -1.148, 1.108, -1.211], a = 0.2, v = 0.2, t = 0.2)
movej(p[0.4507405579159, -0.08247834152015, 0.375789451286723, -1.148, 1.108, -1.211], a = 0.2, v = 0.2, t = 0.2)
movej(p[0.450656979642976, -0.0824912200430595, 0.376628189002604, -1.148, 1.108, -1.211], a = 0.2, v = 0.2, t = 0.2)
movej(p[0.450595442104458, -0.0825007023232247, 0.377245740104004, -1.148, 1.108, -1.211], a = 0.2, v = 0.2, t = 0.2)
movej(p[0.450571899322774, -0.0825043300154785, 0.377482000297527, -1.148, 1.108, -1.211], a = 0.2, v = 0.2, t = 0.2)
movej(p[0.45056261339881, -0.0825057608775951, 0.377575187849538, -1.148, 1.108, -1.211], a = 0.2, v = 0.2, t = 0.2)
movej(p[0.450567260326594, -0.082505044835449, 0.377528554275304, -1.148, 1.108, -1.211], a = 0.2, v = 0.2, t = 0.2)
movej(p[0.450604642961982, -0.0824992845689417, 0.377153406223995, -1.148, 1.108, -1.211], a = 0.2, v = 0.2, t = 0.2)
movej(p[0.450665435722998, -0.0824899170510679, 0.376543329229905, -1.148, 1.108, -1.211], a = 0.2, v = 0.2, t = 0.2)
movej(p[0.450765780412764, -0.0824744550016526, 0.375536334553522, -1.148, 1.108, -1.211], a = 0.2, v = 0.2, t = 0.2)
movej(p[0.450872172949656, -0.0824580610433208, 0.374468647578691, -1.148, 1.108, -1.211], a = 0.2, v = 0.2, t = 0.2)
movej(p[0.450960620235241, -0.0824444322573476, 0.37358104758778, -1.148, 1.108, -1.211], a = 0.2, v = 0.2, t = 0.2)
movej(p[0.451013246419737, -0.082436323122055, 0.37305292509571, -1.148, 1.108, -1.211], a = 0.2, v = 0.2, t = 0.2)
movej(p[0.451032956452664, -0.0824332860156191, 0.372855127900112, -1.148, 1.108, -1.211], a = 0.2, v = 0.2, t = 0.2)
movej(p[0.451013732230408, -0.0824362482637977, 0.37304804981272, -1.148, 1.108, -1.211], a = 0.2, v = 0.2, t = 0.2)
movej(p[0.45093671636734, -0.0824481155891469, 0.373820931410007, -1.148, 1.108, -1.211], a = 0.2, v = 0.2, t = 0.2)
movej(p[0.450831959723523, -0.0824642574737554, 0.374872201615586, -1.148, 1.108, -1.211], a = 0.2, v = 0.2, t = 0.2)
movej(p[0.450724694710324, -0.0824807858714063, 0.375948644200685, -1.148, 1.108, -1.211], a = 0.2, v = 0.2, t = 0.2)
movej(p[0.450643143953363, -0.0824933519756708, 0.376767035072251, -1.148, 1.108, -1.211], a = 0.2, v = 0.2, t = 0.2)
movej(p[0.450587089333563, -0.0825019893963787, 0.377329563132851, -1.148, 1.108, -1.211], a = 0.2, v = 0.2, t = 0.2)
movej(p[0.450571053615627, -0.0825044603299549, 0.377490487269753, -1.148, 1.108, -1.211], a = 0.2, v = 0.2, t = 0.2)
movej(p[0.450585521850562, -0.0825022309288372, 0.377345293382662, -1.148, 1.108, -1.211], a = 0.2, v = 0.2, t = 0.2)
movej(p[0.450628464539504, -0.0824956139172146, 0.376914348215009, -1.148, 1.108, -1.211], a = 0.2, v = 0.2, t = 0.2)
movej(p[0.450712975767206, -0.0824825916358968, 0.376066247965875, -1.148, 1.108, -1.211], a = 0.2, v = 0.2, t = 0.2)
movej(p[0.450825515296258, -0.0824652504914532, 0.374936873736883, -1.148, 1.108, -1.211], a = 0.2, v = 0.2, t = 0.2)
movej(p[0.450942476693865, -0.0824472279840969, 0.373763124483125, -1.148, 1.108, -1.211], a = 0.2, v = 0.2, t = 0.2)
movej(p[0.451040025493649, -0.0824321967515905, 0.372784187557828, -1.148, 1.108, -1.211], a = 0.2, v = 0.2, t = 0.2)
movej(p[0.451092770652186, -0.0824240692836634, 0.372254871118903, -1.148, 1.108, -1.211], a = 0.2, v = 0.2, t = 0.2)
movej(p[0.451099770291646, -0.0824229907136716, 0.372184627245617, -1.148, 1.108, -1.211], a = 0.2, v = 0.2, t = 0.2)
movej(p[0.451021931524789, -0.0824349848397422, 0.372965766975316, -1.148, 1.108, -1.211], a = 0.2, v = 0.2, t = 0.2)
movej(p[0.450905713714944, -0.0824528927681333, 0.374132054061232, -1.148, 1.108, -1.211], a = 0.2, v = 0.2, t = 0.2)
movej(p[0.450781128064158, -0.0824720900918122, 0.375382315409264, -1.148, 1.108, -1.211], a = 0.2, v = 0.2, t = 0.2)
movej(p[0.45068055137501, -0.0824875878898646, 0.376391638282014, -1.148, 1.108, -1.211], a = 0.2, v = 0.2, t = 0.2)
movej(p[0.450611614840832, -0.0824982102765646, 0.377083440938308, -1.148, 1.108, -1.211], a = 0.2, v = 0.2, t = 0.2)
movej(p[0.450578128605313, -0.0825033701492946, 0.377419487230126, -1.148, 1.108, -1.211], a = 0.2, v = 0.2, t = 0.2)
movej(p[0.45057578679959, -0.0825037309966488, 0.377442988084049, -1.148, 1.108, -1.211], a = 0.2, v = 0.2, t = 0.2)
movej(p[0.450574663486345, -0.0825039040872721, 0.377454260932269, -1.148, 1.108, -1.211], a = 0.2, v = 0.2, t = 0.2)
movej(p[0.450600437893875, -0.0824999325252113, 0.377195605579106, -1.148, 1.108, -1.211], a = 0.2, v = 0.2, t = 0.2)
movej(p[0.450663118703533, -0.0824902740791233, 0.376566581344901, -1.148, 1.108, -1.211], a = 0.2, v = 0.2, t = 0.2)
movej(p[0.450758146245081, -0.0824756313456946, 0.375612946143367, -1.148, 1.108, -1.211], a = 0.2, v = 0.2, t = 0.2)
movej(p[0.450864776730057, -0.082459200722094, 0.374542871274826, -1.148, 1.108, -1.211], a = 0.2, v = 0.2, t = 0.2)
movej(p[0.450964328259544, -0.0824438608902414, 0.373543836244142, -1.148, 1.108, -1.211], a = 0.2, v = 0.2, t = 0.2)
movej(p[0.45104648974992, -0.0824312006784536, 0.372719316445388, -1.148, 1.108, -1.211], a = 0.2, v = 0.2, t = 0.2)
movej(p[0.451068123196524, -0.0824278671944278, 0.372502217108972, -1.148, 1.108, -1.211], a = 0.2, v = 0.2, t = 0.2)
movej(p[0.451031171842037, -0.0824335610051354, 0.372873037102933, -1.148, 1.108, -1.211], a = 0.2, v = 0.2, t = 0.2)
movej(p[0.450943666434283, -0.0824470446577527, 0.373751185014577, -1.148, 1.108, -1.211], a = 0.2, v = 0.2, t = 0.2)
movej(p[0.450830928615161, -0.082464416356587, 0.374882549154993, -1.148, 1.108, -1.211], a = 0.2, v = 0.2, t = 0.2)
movej(p[0.450709644494035, -0.0824831049496607, 0.376099678477807, -1.148, 1.108, -1.211], a = 0.2, v = 0.2, t = 0.2)
movej(p[0.450618240703511, -0.0824971893015992, 0.377016948048058, -1.148, 1.108, -1.211], a = 0.2, v = 0.2, t = 0.2)
movej(p[0.450584328144342, -0.0825024148662692, 0.377357272649438, -1.148, 1.108, -1.211], a = 0.2, v = 0.2, t = 0.2)
movej(p[0.450568743536315, -0.0825048162886066, 0.377513669737849, -1.148, 1.108, -1.211], a = 0.2, v = 0.2, t = 0.2)
movej(p[0.45057680997635, -0.0825035733359927, 0.377432720141099, -1.148, 1.108, -1.211], a = 0.2, v = 0.2, t = 0.2)
movej(p[0.450609685577599, -0.0824985075555089, 0.377102801781513, -1.148, 1.108, -1.211], a = 0.2, v = 0.2, t = 0.2)
movej(p[0.450676359522937, -0.0824882338096841, 0.376433705009528, -1.148, 1.108, -1.211], a = 0.2, v = 0.2, t = 0.2)
movej(p[0.450768239209628, -0.0824740761272079, 0.375511659651858, -1.148, 1.108, -1.211], a = 0.2, v = 0.2, t = 0.2)
movej(p[0.450868236891773, -0.0824586675479762, 0.374508147320468, -1.148, 1.108, -1.211], a = 0.2, v = 0.2, t = 0.2)
movej(p[0.450961998351226, -0.0824442199043322, 0.37356721770338, -1.148, 1.108, -1.211], a = 0.2, v = 0.2, t = 0.2)
movej(p[0.451015288807455, -0.0824360084118307, 0.373032429008038, -1.148, 1.108, -1.211], a = 0.2, v = 0.2, t = 0.2)
movej(p[0.451027047408587, -0.082434196536462, 0.372914427260563, -1.148, 1.108, -1.211], a = 0.2, v = 0.2, t = 0.2)
movej(p[0.450996669369911, -0.0824388774691178, 0.373219281690801, -1.148, 1.108, -1.211], a = 0.2, v = 0.2, t = 0.2)
movej(p[0.45092513622727, -0.0824498999655639, 0.3739371422372, -1.148, 1.108, -1.211], a = 0.2, v = 0.2, t = 0.2)
movej(p[0.450825416151223, -0.0824652657686486, 0.374937868692595, -1.148, 1.108, -1.211], a = 0.2, v = 0.2, t = 0.2)
movej(p[0.450721789760803, -0.0824812334932301, 0.375977796403054, -1.148, 1.108, -1.211], a = 0.2, v = 0.2, t = 0.2)
movej(p[0.45065181418666, -0.0824920159849373, 0.376680026195213, -1.148, 1.108, -1.211], a = 0.2, v = 0.2, t = 0.2)
movej(p[0.450601727899667, -0.0824997337490394, 0.377182659911847, -1.148, 1.108, -1.211], a = 0.2, v = 0.2, t = 0.2)
movej(p[0.450583726333981, -0.082502507598845, 0.377363312030611, -1.148, 1.108, -1.211], a = 0.2, v = 0.2, t = 0.2)
movej(p[0.45058878867946, -0.0825017275452504, 0.377312509591943, -1.148, 1.108, -1.211], a = 0.2, v = 0.2, t = 0.2)
movej(p[0.450623838432178, -0.0824963267511497, 0.376960772848543, -1.148, 1.108, -1.211], a = 0.2, v = 0.2, t = 0.2)
movej(p[0.450686580384579, -0.0824866588836153, 0.376331135025151, -1.148, 1.108, -1.211], a = 0.2, v = 0.2, t = 0.2)
movej(p[0.450776061752878, -0.0824728707564946, 0.375433157646161, -1.148, 1.108, -1.211], a = 0.2, v = 0.2, t = 0.2)
movej(p[0.45087397738929, -0.0824577829983654, 0.374450539384728, -1.148, 1.108, -1.211], a = 0.2, v = 0.2, t = 0.2)
movej(p[0.450940126956539, -0.0824475900536268, 0.373786704933505, -1.148, 1.108, -1.211], a = 0.2, v = 0.2, t = 0.2)
movej(p[0.450986824267951, -0.0824403944946162, 0.373318080793029, -1.148, 1.108, -1.211], a = 0.2, v = 0.2, t = 0.2)
movej(p[0.451000883033892, -0.0824382281883153, 0.37317699607303, -1.148, 1.108, -1.211], a = 0.2, v = 0.2, t = 0.2)
movej(p[0.450965131334327, -0.0824437371449591, 0.373535777102872, -1.148, 1.108, -1.211], a = 0.2, v = 0.2, t = 0.2)
movej(p[0.450871211242818, -0.0824582092321157, 0.3744782986491, -1.148, 1.108, -1.211], a = 0.2, v = 0.2, t = 0.2)
movej(p[0.450744047821126, -0.0824778037628737, 0.375754428845651, -1.148, 1.108, -1.211], a = 0.2, v = 0.2, t = 0.2)
movej(p[0.450657632017305, -0.0824911195191141, 0.376621642194018, -1.148, 1.108, -1.211], a = 0.2, v = 0.2, t = 0.2)
movej(p[0.450592237439497, -0.0825011961280101, 0.377277900057492, -1.148, 1.108, -1.211], a = 0.2, v = 0.2, t = 0.2)
movej(p[0.45057399326591, -0.0825040073611127, 0.377460986832884, -1.148, 1.108, -1.211], a = 0.2, v = 0.2, t = 0.2)
movej(p[0.45056648302952, -0.0825051646086606, 0.377536354728088, -1.148, 1.108, -1.211], a = 0.2, v = 0.2, t = 0.2)
movej(p[0.45058494879226, -0.0825023192310263, 0.377351044226679, -1.148, 1.108, -1.211], a = 0.2, v = 0.2, t = 0.2)
movej(p[0.450629346930314, -0.0824954779501759, 0.37690549310917, -1.148, 1.108, -1.211], a = 0.2, v = 0.2, t = 0.2)
movej(p[0.450711865342815, -0.0824827627404848, 0.376077391469852, -1.148, 1.108, -1.211], a = 0.2, v = 0.2, t = 0.2)
movej(p[0.450810831916598, -0.0824675130440848, 0.37508422667787, -1.148, 1.108, -1.211], a = 0.2, v = 0.2, t = 0.2)
movej(p[0.450896086732061, -0.082454376183802, 0.374228664260893, -1.148, 1.108, -1.211], a = 0.2, v = 0.2, t = 0.2)
movej(p[0.450963346723699, -0.0824440121344754, 0.373553686305693, -1.148, 1.108, -1.211], a = 0.2, v = 0.2, t = 0.2)
movej(p[0.451016825555495, -0.0824357716153028, 0.373017007194497, -1.148, 1.108, -1.211], a = 0.2, v = 0.2, t = 0.2)
movej(p[0.451041611814206, -0.0824319523164649, 0.372768268266431, -1.148, 1.108, -1.211], a = 0.2, v = 0.2, t = 0.2)
movej(p[0.45100446216965, -0.0824376766815631, 0.373141078171817, -1.148, 1.108, -1.211], a = 0.2, v = 0.2, t = 0.2)
movej(p[0.450913248737592, -0.0824517317012866, 0.3740564374271, -1.148, 1.108, -1.211], a = 0.2, v = 0.2, t = 0.2)
movej(p[0.450804248686284, -0.0824685274498562, 0.375150291737164, -1.148, 1.108, -1.211], a = 0.2, v = 0.2, t = 0.2)
movej(p[0.450694390038974, -0.0824854554989375, 0.376252762363696, -1.148, 1.108, -1.211], a = 0.2, v = 0.2, t = 0.2)
movej(p[0.450619900391394, -0.082496933561349, 0.377000292489434, -1.148, 1.108, -1.211], a = 0.2, v = 0.2, t = 0.2)
movej(p[0.450584680109216, -0.0825023606322257, 0.377353740556659, -1.148, 1.108, -1.211], a = 0.2, v = 0.2, t = 0.2)
movej(p[0.450577714179068, -0.0825034340079711, 0.377423646145003, -1.148, 1.108, -1.211], a = 0.2, v = 0.2, t = 0.2)
movej(p[0.450574810220997, -0.082503881477023, 0.377452788397815, -1.148, 1.108, -1.211], a = 0.2, v = 0.2, t = 0.2)
movej(p[0.450585021168136, -0.0825023080786737, 0.377350317909009, -1.148, 1.108, -1.211], a = 0.2, v = 0.2, t = 0.2)
movej(p[0.450635175666913, -0.0824945798038612, 0.376846999662846, -1.148, 1.108, -1.211], a = 0.2, v = 0.2, t = 0.2)
movej(p[0.450704072543077, -0.0824839635280394, 0.376155594988836, -1.148, 1.108, -1.211], a = 0.2, v = 0.2, t = 0.2)
movej(p[0.450799271605535, -0.0824692943650628, 0.37520023851392, -1.148, 1.108, -1.211], a = 0.2, v = 0.2, t = 0.2)
movej(p[0.450893965028315, -0.0824547031157825, 0.374249956313136, -1.148, 1.108, -1.211], a = 0.2, v = 0.2, t = 0.2)
movej(p[0.450971724479144, -0.0824427212114682, 0.373469612548007, -1.148, 1.108, -1.211], a = 0.2, v = 0.2, t = 0.2)
movej(p[0.451019185207324, -0.0824354080180534, 0.372993327248546, -1.148, 1.108, -1.211], a = 0.2, v = 0.2, t = 0.2)
movej(p[0.45101234419992, -0.0824364621445327, 0.373061979192692, -1.148, 1.108, -1.211], a = 0.2, v = 0.2, t = 0.2)
movej(p[0.450962424674875, -0.0824441542123922, 0.373562939393817, -1.148, 1.108, -1.211], a = 0.2, v = 0.2, t = 0.2)
movej(p[0.450851233518297, -0.082461287586979, 0.374678782225122, -1.148, 1.108, -1.211], a = 0.2, v = 0.2, t = 0.2)
movej(p[0.450727173336196, -0.0824804039415225, 0.375923770307878, -1.148, 1.108, -1.211], a = 0.2, v = 0.2, t = 0.2)
movej(p[0.450622355222457, -0.0824965552979921, 0.376975657385999, -1.148, 1.108, -1.211], a = 0.2, v = 0.2, t = 0.2)
movej(p[0.45058144897253, -0.0825028585160222, 0.377386166163322, -1.148, 1.108, -1.211], a = 0.2, v = 0.2, t = 0.2)
movej(p[0.450559033271602, -0.0825063125371193, 0.377611115700308, -1.148, 1.108, -1.211], a = 0.2, v = 0.2, t = 0.2)
movej(p[0.450562151382948, -0.0825058320693255, 0.377579824343157, -1.148, 1.108, -1.211], a = 0.2, v = 0.2, t = 0.2)
movej(p[0.450586132583976, -0.0825021368213138, 0.377339164455474, -1.148, 1.108, -1.211], a = 0.2, v = 0.2, t = 0.2)
movej(p[0.45064199684531, -0.082493528732821, 0.376778546709842, -1.148, 1.108, -1.211], a = 0.2, v = 0.2, t = 0.2)
movej(p[0.450736542541988, -0.0824789602465618, 0.375829746993069, -1.148, 1.108, -1.211], a = 0.2, v = 0.2, t = 0.2)
movej(p[0.450847188400875, -0.0824619108965494, 0.374719376418182, -1.148, 1.108, -1.211], a = 0.2, v = 0.2, t = 0.2)
movej(p[0.450957398021609, -0.0824449287661965, 0.373613383648429, -1.148, 1.108, -1.211], a = 0.2, v = 0.2, t = 0.2)
movej(p[0.451032312009938, -0.0824333853173888, 0.372861595112242, -1.148, 1.108, -1.211], a = 0.2, v = 0.2, t = 0.2)
movej(p[0.451073982668083, -0.0824269643121826, 0.372443415226377, -1.148, 1.108, -1.211], a = 0.2, v = 0.2, t = 0.2)
movej(p[0.45107753206033, -0.082426417388589, 0.372407795811878, -1.148, 1.108, -1.211], a = 0.2, v = 0.2, t = 0.2)
movej(p[0.451006355839815, -0.0824373848871319, 0.373122074517713, -1.148, 1.108, -1.211], a = 0.2, v = 0.2, t = 0.2)
movej(p[0.450888303846825, -0.0824555754436371, 0.374306768284306, -1.148, 1.108, -1.211], a = 0.2, v = 0.2, t = 0.2)
movej(p[0.450749233106448, -0.0824770047655568, 0.375702392661899, -1.148, 1.108, -1.211], a = 0.2, v = 0.2, t = 0.2)
movej(p[0.450653099106312, -0.0824918179924855, 0.376667131569182, -1.148, 1.108, -1.211], a = 0.2, v = 0.2, t = 0.2)
movej(p[0.450595145065934, -0.082500748093702, 0.377248720991318, -1.148, 1.108, -1.211], a = 0.2, v = 0.2, t = 0.2)
movej(p[0.450570457753967, -0.0825045521458989, 0.377496466953583, -1.148, 1.108, -1.211], a = 0.2, v = 0.2, t = 0.2)
movej(p[0.45057385148851, -0.082504029207502, 0.377462409619553, -1.148, 1.108, -1.211], a = 0.2, v = 0.2, t = 0.2)
movej(p[0.450601686556188, -0.0824997401196299, 0.377183074808379, -1.148, 1.108, -1.211], a = 0.2, v = 0.2, t = 0.2)
movej(p[0.450659218337862, -0.0824908750839884, 0.376605722902622, -1.148, 1.108, -1.211], a = 0.2, v = 0.2, t = 0.2)
movej(p[0.450743512437938, -0.0824778862597285, 0.375759801606497, -1.148, 1.108, -1.211], a = 0.2, v = 0.2, t = 0.2)
movej(p[0.450842786361328, -0.082462589204023, 0.374763552451807, -1.148, 1.108, -1.211], a = 0.2, v = 0.2, t = 0.2)
movej(p[0.450919712993864, -0.0824507356281497, 0.373991566314661, -1.148, 1.108, -1.211], a = 0.2, v = 0.2, t = 0.2)
movej(p[0.450982798979536, -0.0824410147487474, 0.373358475994947, -1.148, 1.108, -1.211], a = 0.2, v = 0.2, t = 0.2)
movej(p[0.451019442984415, -0.0824353682973455, 0.372990740363694, -1.148, 1.108, -1.211], a = 0.2, v = 0.2, t = 0.2)
movej(p[0.451032341753448, -0.0824333807342302, 0.372861296625528, -1.148, 1.108, -1.211], a = 0.2, v = 0.2, t = 0.2)
movej(p[0.450986397944301, -0.0824404601865562, 0.373322359102591, -1.148, 1.108, -1.211], a = 0.2, v = 0.2, t = 0.2)
movej(p[0.450903046713507, -0.0824533037246883, 0.374158818369892, -1.148, 1.108, -1.211], a = 0.2, v = 0.2, t = 0.2)
movej(p[0.450808045941119, -0.0824679423332742, 0.375112184933384, -1.148, 1.108, -1.211], a = 0.2, v = 0.2, t = 0.2)
movej(p[0.4507103979963, -0.082482988842976, 0.376092116814393, -1.148, 1.108, -1.211], a = 0.2, v = 0.2, t = 0.2)
movej(p[0.450637689984996, -0.0824941923741871, 0.376821767585983, -1.148, 1.108, -1.211], a = 0.2, v = 0.2, t = 0.2)
movej(p[0.450594301143397, -0.0825008781331888, 0.377257190054341, -1.148, 1.108, -1.211], a = 0.2, v = 0.2, t = 0.2)
movej(p[0.450585991798027, -0.0825021585149312, 0.377340577292586, -1.148, 1.108, -1.211], a = 0.2, v = 0.2, t = 0.2)
movej(p[0.450594885999958, -0.0825007880130134, 0.377251320810594, -1.148, 1.108, -1.211], a = 0.2, v = 0.2, t = 0.2)
movej(p[0.450633677585436, -0.082494810642283, 0.376862033443658, -1.148, 1.108, -1.211], a = 0.2, v = 0.2, t = 0.2)
movej(p[0.450711448933669, -0.0824828269047053, 0.376081570283843, -1.148, 1.108, -1.211], a = 0.2, v = 0.2, t = 0.2)
movej(p[0.450795454521693, -0.0824698825370838, 0.375238544308842, -1.148, 1.108, -1.211], a = 0.2, v = 0.2, t = 0.2)
movej(p[0.450875831401442, -0.0824574973148123, 0.374431933712909, -1.148, 1.108, -1.211], a = 0.2, v = 0.2, t = 0.2)
movej(p[0.450946650699832, -0.0824465848141726, 0.373721236847638, -1.148, 1.108, -1.211], a = 0.2, v = 0.2, t = 0.2)
movej(p[0.451009340105364, -0.0824369250435518, 0.373092126350773, -1.148, 1.108, -1.211], a = 0.2, v = 0.2, t = 0.2)
movej(p[0.451018411876052, -0.0824355271801771, 0.373001087903101, -1.148, 1.108, -1.211], a = 0.2, v = 0.2, t = 0.2)
movej(p[0.450973162082149, -0.0824424996921356, 0.373455185690179, -1.148, 1.108, -1.211], a = 0.2, v = 0.2, t = 0.2)
movej(p[0.450877804387635, -0.0824571932986248, 0.374412134094235, -1.148, 1.108, -1.211], a = 0.2, v = 0.2, t = 0.2)
movej(p[0.450771114415639, -0.0824736330885427, 0.375482805936203, -1.148, 1.108, -1.211], a = 0.2, v = 0.2, t = 0.2)
movej(p[0.450663431010393, -0.082490225955958, 0.376563447234407, -1.148, 1.108, -1.211], a = 0.2, v = 0.2, t = 0.2)
movej(p[0.450595143083033, -0.0825007483992459, 0.377248740890432, -1.148, 1.108, -1.211], a = 0.2, v = 0.2, t = 0.2)
movej(p[0.450571608827822, -0.0825043747776609, 0.377484915517764, -1.148, 1.108, -1.211], a = 0.2, v = 0.2, t = 0.2)
movej(p[0.450564768811868, -0.0825054287513682, 0.377553557512353, -1.148, 1.108, -1.211], a = 0.2, v = 0.2, t = 0.2)
movej(p[0.450581156494677, -0.0825029035837485, 0.377389101282673, -1.148, 1.108, -1.211], a = 0.2, v = 0.2, t = 0.2)
movej(p[0.450619737793537, -0.0824969586159494, 0.377001924216802, -1.148, 1.108, -1.211], a = 0.2, v = 0.2, t = 0.2)
movej(p[0.450697881927101, -0.0824849174361172, 0.37621772002351, -1.148, 1.108, -1.211], a = 0.2, v = 0.2, t = 0.2)
movej(p[0.450783001905317, -0.08247180135282, 0.375363510746302, -1.148, 1.108, -1.211], a = 0.2, v = 0.2, t = 0.2)
movej(p[0.450875722341904, -0.0824575141197272, 0.374433028164192, -1.148, 1.108, -1.211], a = 0.2, v = 0.2, t = 0.2)
movej(p[0.450960659893255, -0.0824444261464694, 0.373580649605495, -1.148, 1.108, -1.211], a = 0.2, v = 0.2, t = 0.2)
movej(p[0.451020840929406, -0.082435152888891, 0.372976711488151, -1.148, 1.108, -1.211], a = 0.2, v = 0.2, t = 0.2)
movej(p[0.451021852208761, -0.0824349970614984, 0.372966562939886, -1.148, 1.108, -1.211], a = 0.2, v = 0.2, t = 0.2)
movej(p[0.450964833899222, -0.0824437829765451, 0.373538761970009, -1.148, 1.108, -1.211], a = 0.2, v = 0.2, t = 0.2)
movej(p[0.450873432091599, -0.0824578670229398, 0.374456011641146, -1.148, 1.108, -1.211], a = 0.2, v = 0.2, t = 0.2)
movej(p[0.450752514807102, -0.0824764990903906, 0.375669459627823, -1.148, 1.108, -1.211], a = 0.2, v = 0.2, t = 0.2)
movej(p[0.450652370390306, -0.0824919302798714, 0.376674444493668, -1.148, 1.108, -1.211], a = 0.2, v = 0.2, t = 0.2)
movej(p[0.450589994283083, -0.0825015417745549, 0.377300410930482, -1.148, 1.108, -1.211], a = 0.2, v = 0.2, t = 0.2)
movej(p[0.45056412040334, -0.0825055286642258, 0.377560064522711, -1.148, 1.108, -1.211], a = 0.2, v = 0.2, t = 0.2)
movej(p[0.450553322517595, -0.0825071925035715, 0.377668425149334, -1.148, 1.108, -1.211], a = 0.2, v = 0.2, t = 0.2)
movej(p[0.450552930894707, -0.0825072528484932, 0.377672355224398, -1.148, 1.108, -1.211], a = 0.2, v = 0.2, t = 0.2)
movej(p[0.450582424559673, -0.08250270818842, 0.377376375799113, -1.148, 1.108, -1.211], a = 0.2, v = 0.2, t = 0.2)
movej(p[0.450635532589038, -0.0824945248059579, 0.376843417822281, -1.148, 1.108, -1.211], a = 0.2, v = 0.2, t = 0.2)
movej(p[0.450727024618643, -0.0824804268573155, 0.375925262741447, -1.148, 1.108, -1.211], a = 0.2, v = 0.2, t = 0.2)
movej(p[0.450833278352486, -0.0824640542870572, 0.374858968704613, -1.148, 1.108, -1.211], a = 0.2, v = 0.2, t = 0.2)
movej(p[0.450921755381582, -0.0824504209179254, 0.373971070226988, -1.148, 1.108, -1.211], a = 0.2, v = 0.2, t = 0.2)
movej(p[0.450987498454188, -0.0824402906096878, 0.373311315094185, -1.148, 1.108, -1.211], a = 0.2, v = 0.2, t = 0.2)
movej(p[0.451041502754668, -0.0824319691213797, 0.372769362717715, -1.148, 1.108, -1.211], a = 0.2, v = 0.2, t = 0.2)
movej(p[0.451091491681237, -0.0824242663594835, 0.372267706047591, -1.148, 1.108, -1.211], a = 0.2, v = 0.2, t = 0.2)
movej(p[0.451089449293519, -0.0824245810697077, 0.372288202135264, -1.148, 1.108, -1.211], a = 0.2, v = 0.2, t = 0.2)
movej(p[0.451016994102054, -0.0824357456440707, 0.373015315769787, -1.148, 1.108, -1.211], a = 0.2, v = 0.2, t = 0.2)
movej(p[0.45090544602335, -0.0824529340165608, 0.374134740441655, -1.148, 1.108, -1.211], a = 0.2, v = 0.2, t = 0.2)
movej(p[0.45080332663746, -0.0824686695277729, 0.375159544825288, -1.148, 1.108, -1.211], a = 0.2, v = 0.2, t = 0.2)
movej(p[0.450707195611674, -0.0824834822963858, 0.3761242538839, -1.148, 1.108, -1.211], a = 0.2, v = 0.2, t = 0.2)
movej(p[0.450633834234591, -0.0824947865043143, 0.376860461413633, -1.148, 1.108, -1.211], a = 0.2, v = 0.2, t = 0.2)
movej(p[0.450587884476742, -0.082501866873272, 0.377321583588039, -1.148, 1.108, -1.211], a = 0.2, v = 0.2, t = 0.2)
movej(p[0.450572577474812, -0.0825042255194623, 0.377475194800455, -1.148, 1.108, -1.211], a = 0.2, v = 0.2, t = 0.2)
movej(p[0.450563387721532, -0.0825056415626994, 0.377567417245425, -1.148, 1.108, -1.211], a = 0.2, v = 0.2, t = 0.2)
movej(p[0.450563683173736, -0.0825055960366573, 0.377564452277402, -1.148, 1.108, -1.211], a = 0.2, v = 0.2, t = 0.2)
movej(p[0.450571435324011, -0.0825044015127528, 0.37748665669026, -1.148, 1.108, -1.211], a = 0.2, v = 0.2, t = 0.2)
movej(p[0.450595714852449, -0.0825006602956603, 0.37724300298084, -1.148, 1.108, -1.211], a = 0.2, v = 0.2, t = 0.2)
movej(p[0.450653825839417, -0.0824917060106436, 0.376659838543812, -1.148, 1.108, -1.211], a = 0.2, v = 0.2, t = 0.2)
movej(p[0.450749629686588, -0.0824769436567754, 0.37569841283905, -1.148, 1.108, -1.211], a = 0.2, v = 0.2, t = 0.2)
movej(p[0.450846236608541, -0.0824620575576247, 0.37472892799302, -1.148, 1.108, -1.211], a = 0.2, v = 0.2, t = 0.2)
movej(p[0.450919336242732, -0.082450793681492, 0.373995347146367, -1.148, 1.108, -1.211], a = 0.2, v = 0.2, t = 0.2)
movej(p[0.450974371651574, -0.0824423133103523, 0.373443047230489, -1.148, 1.108, -1.211], a = 0.2, v = 0.2, t = 0.2)
movej(p[0.451009449164902, -0.0824369082386369, 0.37309103189949, -1.148, 1.108, -1.211], a = 0.2, v = 0.2, t = 0.2)
movej(p[0.450987062216034, -0.0824403578293473, 0.373315692899319, -1.148, 1.108, -1.211], a = 0.2, v = 0.2, t = 0.2)
movej(p[0.45091087917126, -0.0824520968262555, 0.374080216868623, -1.148, 1.108, -1.211], a = 0.2, v = 0.2, t = 0.2)
movej(p[0.45079920220401, -0.0824693050590996, 0.375200934982918, -1.148, 1.108, -1.211], a = 0.2, v = 0.2, t = 0.2)
movej(p[0.450709585007014, -0.0824831141159779, 0.376100275451234, -1.148, 1.108, -1.211], a = 0.2, v = 0.2, t = 0.2)
movej(p[0.450624121986978, -0.082496283058371, 0.376957927275206, -1.148, 1.108, -1.211], a = 0.2, v = 0.2, t = 0.2)
movej(p[0.450580173967382, -0.0825030549807545, 0.377398961293782, -1.148, 1.108, -1.211], a = 0.2, v = 0.2, t = 0.2)
movej(p[0.45056560063871, -0.0825053005756992, 0.377545209833927, -1.148, 1.108, -1.211], a = 0.2, v = 0.2, t = 0.2)
movej(p[0.450598522937271, -0.0825002275996563, 0.377214822850201, -1.148, 1.108, -1.211], a = 0.2, v = 0.2, t = 0.2)
movej(p[0.450668967269139, -0.0824893728773695, 0.376507888907435, -1.148, 1.108, -1.211], a = 0.2, v = 0.2, t = 0.2)
movej(p[0.450776279871954, -0.0824728371466648, 0.375430968743594, -1.148, 1.108, -1.211], a = 0.2, v = 0.2, t = 0.2)
movej(p[0.450891030335284, -0.0824551553207649, 0.374279407002219, -1.148, 1.108, -1.211], a = 0.2, v = 0.2, t = 0.2)
movej(p[0.450972815074527, -0.0824425531623193, 0.373458668035172, -1.148, 1.108, -1.211], a = 0.2, v = 0.2, t = 0.2)
movej(p[0.451021663833195, -0.0824350260881696, 0.372968453355739, -1.148, 1.108, -1.211], a = 0.2, v = 0.2, t = 0.2)
movej(p[0.45102876261769, -0.0824339322409824, 0.372897214526741, -1.148, 1.108, -1.211], a = 0.2, v = 0.2, t = 0.2)
movej(p[0.451005751055103, -0.0824374780780235, 0.373128143747557, -1.148, 1.108, -1.211], a = 0.2, v = 0.2, t = 0.2)
movej(p[0.450932681164422, -0.0824487373709977, 0.373861426107496, -1.148, 1.108, -1.211], a = 0.2, v = 0.2, t = 0.2)
movej(p[0.450851342577835, -0.0824612707820641, 0.374677687773838, -1.148, 1.108, -1.211], a = 0.2, v = 0.2, t = 0.2)
movej(p[0.450786630613592, -0.0824712422074701, 0.375327095367233, -1.148, 1.108, -1.211], a = 0.2, v = 0.2, t = 0.2)
movej(p[0.450745802688243, -0.0824775333565159, 0.375736818129544, -1.148, 1.108, -1.211], a = 0.2, v = 0.2, t = 0.2)
movej(p[0.450739744926614, -0.0824784667931519, 0.375797609923563, -1.148, 1.108, -1.211], a = 0.2, v = 0.2, t = 0.2)
movej(p[0.450793144442381, -0.0824702384957355, 0.375261726776937, -1.148, 1.108, -1.211], a = 0.2, v = 0.2, t = 0.2)
movej(p[0.450895581092383, -0.0824544540974983, 0.374233738535026, -1.148, 1.108, -1.211], a = 0.2, v = 0.2, t = 0.2)
movej(p[0.45100357977884, -0.0824378126486017, 0.373149933277656, -1.148, 1.108, -1.211], a = 0.2, v = 0.2, t = 0.2)
movej(p[0.451099760377143, -0.0824229922413911, 0.372184726741188, -1.148, 1.108, -1.211], a = 0.2, v = 0.2, t = 0.2)
movej(p[0.451198300627275, -0.0824078082369312, 0.371195840258769, -1.148, 1.108, -1.211], a = 0.2, v = 0.2, t = 0.2)
movej(p[0.451279202975708, -0.0823953420455243, 0.370383956397561, -1.148, 1.108, -1.211], a = 0.2, v = 0.2, t = 0.2)
movej(p[0.4513306790778, -0.0823874101256977, 0.369867375391753, -1.148, 1.108, -1.211], a = 0.2, v = 0.2, t = 0.2)
movej(p[0.451313388183723, -0.082390074468567, 0.370040895667972, -1.148, 1.108, -1.211], a = 0.2, v = 0.2, t = 0.2)
movej(p[0.451263825580804, -0.0823977115385233, 0.370538274028533, -1.148, 1.108, -1.211], a = 0.2, v = 0.2, t = 0.2)
movej(p[0.45117085728163, -0.0824120369646045, 0.371471243999923, -1.148, 1.108, -1.211], a = 0.2, v = 0.2, t = 0.2)
movej(p[0.45108666331804, -0.0824250103588971, 0.372316160390778, -1.148, 1.108, -1.211], a = 0.2, v = 0.2, t = 0.2)
movej(p[0.45100534456046, -0.0824375407145245, 0.373132223065978, -1.148, 1.108, -1.211], a = 0.2, v = 0.2, t = 0.2)
movej(p[0.450935348165859, -0.0824483264144427, 0.373834661798836, -1.148, 1.108, -1.211], a = 0.2, v = 0.2, t = 0.2)
movej(p[0.450859026318036, -0.0824600867994244, 0.374600578706138, -1.148, 1.108, -1.211], a = 0.2, v = 0.2, t = 0.2)
movej(p[0.450790645987503, -0.0824706234810584, 0.375286799660887, -1.148, 1.108, -1.211], a = 0.2, v = 0.2, t = 0.2)
movej(p[0.450736760661065, -0.082478926636732, 0.375827558090502, -1.148, 1.108, -1.211], a = 0.2, v = 0.2, t = 0.2)
movej(p[0.450699967938634, -0.082484596003927, 0.376196786155324, -1.148, 1.108, -1.211], a = 0.2, v = 0.2, t = 0.2)
movej(p[0.450690345913002, -0.0824860786557358, 0.376293346607199, -1.148, 1.108, -1.211], a = 0.2, v = 0.2, t = 0.2)
movej(p[0.450723465311892, -0.0824809753086286, 0.375960981651517, -1.148, 1.108, -1.211], a = 0.2, v = 0.2, t = 0.2)
movej(p[0.450784528738853, -0.0824715660840116, 0.375348188428333, -1.148, 1.108, -1.211], a = 0.2, v = 0.2, t = 0.2)
movej(p[0.45085906597605, -0.0824600806885463, 0.374600180723853, -1.148, 1.108, -1.211], a = 0.2, v = 0.2, t = 0.2)
movej(p[0.450921319143429, -0.082450488137585, 0.373975448032122, -1.148, 1.108, -1.211], a = 0.2, v = 0.2, t = 0.2)
movej(p[0.450974034558456, -0.0824423652528165, 0.373446430079911, -1.148, 1.108, -1.211], a = 0.2, v = 0.2, t = 0.2)
movej(p[0.450954522815598, -0.0824453718048617, 0.373642237364085, -1.148, 1.108, -1.211], a = 0.2, v = 0.2, t = 0.2)
movej(p[0.450886737355275, -0.0824558168233236, 0.37432248858456, -1.148, 1.108, -1.211], a = 0.2, v = 0.2, t = 0.2)
movej(p[0.450775566027703, -0.0824729471424714, 0.375438132424722, -1.148, 1.108, -1.211], a = 0.2, v = 0.2, t = 0.2)
movej(p[0.450686815358312, -0.0824866226766623, 0.376328776980113, -1.148, 1.108, -1.211], a = 0.2, v = 0.2, t = 0.2)
movej(p[0.450622897545797, -0.0824964717317336, 0.376970214978253, -1.148, 1.108, -1.211], a = 0.2, v = 0.2, t = 0.2)
movej(p[0.450593335669048, -0.0825010269025171, 0.377266878933067, -1.148, 1.108, -1.211], a = 0.2, v = 0.2, t = 0.2)
movej(p[0.450596729304446, -0.0825005039793975, 0.377232822593992, -1.148, 1.108, -1.211], a = 0.2, v = 0.2, t = 0.2)
movej(p[0.450627469123354, -0.0824957673002559, 0.37692433757036, -1.148, 1.108, -1.211], a = 0.2, v = 0.2, t = 0.2)
movej(p[0.450692337736752, -0.0824857717368812, 0.37627335794694, -1.148, 1.108, -1.211], a = 0.2, v = 0.2, t = 0.2)
movej(p[0.450777281236806, -0.0824726828469918, 0.3754209196909, -1.148, 1.108, -1.211], a = 0.2, v = 0.2, t = 0.2)
movej(p[0.4508663233926, -0.0824589623978465, 0.374527349965715, -1.148, 1.108, -1.211], a = 0.2, v = 0.2, t = 0.2)
movej(p[0.450931669885067, -0.0824488931983903, 0.373871574655761, -1.148, 1.108, -1.211], a = 0.2, v = 0.2, t = 0.2)
movej(p[0.45097080243032, -0.082442863289385, 0.373478865636131, -1.148, 1.108, -1.211], a = 0.2, v = 0.2, t = 0.2)
movej(p[0.450975254042384, -0.0824421773433137, 0.37343419212465, -1.148, 1.108, -1.211], a = 0.2, v = 0.2, t = 0.2)
movej(p[0.450934247655973, -0.0824484959913111, 0.373845705807243, -1.148, 1.108, -1.211], a = 0.2, v = 0.2, t = 0.2)
movej(p[0.450834785357016, -0.0824638220736879, 0.374843845377786, -1.148, 1.108, -1.211], a = 0.2, v = 0.2, t = 0.2)
movej(p[0.450726756927049, -0.082480468105743, 0.37592794912187, -1.148, 1.108, -1.211], a = 0.2, v = 0.2, t = 0.2)
movej(p[0.450653039619291, -0.0824918271588028, 0.37666772854261, -1.148, 1.108, -1.211], a = 0.2, v = 0.2, t = 0.2)
movej(p[0.450611343183437, -0.0824982521360798, 0.37708616711696, -1.148, 1.108, -1.211], a = 0.2, v = 0.2, t = 0.2)
movej(p[0.450594956789513, -0.082500777105096, 0.377250610412216, -1.148, 1.108, -1.211], a = 0.2, v = 0.2, t = 0.2)
movej(p[0.450600057943333, -0.0824999910715487, 0.377199418518033, -1.148, 1.108, -1.211], a = 0.2, v = 0.2, t = 0.2)
movej(p[0.45063405731092, -0.0824947521306248, 0.37685822276328, -1.148, 1.108, -1.211], a = 0.2, v = 0.2, t = 0.2)
movej(p[0.450692463650947, -0.0824857523348431, 0.376272094353185, -1.148, 1.108, -1.211], a = 0.2, v = 0.2, t = 0.2)
movej(p[0.450769914760717, -0.0824738179426064, 0.375494844900321, -1.148, 1.108, -1.211], a = 0.2, v = 0.2, t = 0.2)
movej(p[0.45086194118206, -0.0824596376498811, 0.374571327008197, -1.148, 1.108, -1.211], a = 0.2, v = 0.2, t = 0.2)
movej(p[0.450924848706669, -0.0824499442694305, 0.373940027608765, -1.148, 1.108, -1.211], a = 0.2, v = 0.2, t = 0.2)
movej(p[0.450950140605058, -0.0824460470568963, 0.373686214406567, -1.148, 1.108, -1.211], a = 0.2, v = 0.2, t = 0.2)
movej(p[0.450924640502096, -0.0824499763515407, 0.373942117015761, -1.148, 1.108, -1.211], a = 0.2, v = 0.2, t = 0.2)
movej(p[0.450867443731494, -0.082458789765539, 0.374516106966166, -1.148, 1.108, -1.211], a = 0.2, v = 0.2, t = 0.2)
movej(p[0.450776696281101, -0.0824727729824444, 0.375426789929602, -1.148, 1.108, -1.211], a = 0.2, v = 0.2, t = 0.2)
movej(p[0.45068225964396, -0.0824873246637887, 0.376374495195091, -1.148, 1.108, -1.211], a = 0.2, v = 0.2, t = 0.2)
movej(p[0.450610091973097, -0.0824984449342852, 0.377098723458049, -1.148, 1.108, -1.211], a = 0.2, v = 0.2, t = 0.2)
movej(p[0.450590518958608, -0.0825014609276371, 0.377295145624852, -1.148, 1.108, -1.211], a = 0.2, v = 0.2, t = 0.2)
movej(p[0.45057188742537, -0.082504331848742, 0.377482119692213, -1.148, 1.108, -1.211], a = 0.2, v = 0.2, t = 0.2)
movej(p[0.450567578582155, -0.0825049957956519, 0.377525360467468, -1.148, 1.108, -1.211], a = 0.2, v = 0.2, t = 0.2)
movej(p[0.450562894970709, -0.0825057174903603, 0.377572362175315, -1.148, 1.108, -1.211], a = 0.2, v = 0.2, t = 0.2)
movej(p[0.450570562847704, -0.0825045359520719, 0.377495412300528, -1.148, 1.108, -1.211], a = 0.2, v = 0.2, t = 0.2)
movej(p[0.450585025133937, -0.0825023074675859, 0.37735027811078, -1.148, 1.108, -1.211], a = 0.2, v = 0.2, t = 0.2)
movej(p[0.450632569143947, -0.082494981441327, 0.376873157048521, -1.148, 1.108, -1.211], a = 0.2, v = 0.2, t = 0.2)
movej(p[0.450714800035847, -0.0824823105355024, 0.376047940780769, -1.148, 1.108, -1.211], a = 0.2, v = 0.2, t = 0.2)
movej(p[0.450799469895604, -0.0824692638106721, 0.375198248602495, -1.148, 1.108, -1.211], a = 0.2, v = 0.2, t = 0.2)
movej(p[0.450876257725092, -0.0824574316228723, 0.374427655403346, -1.148, 1.108, -1.211], a = 0.2, v = 0.2, t = 0.2)
movej(p[0.450937301323046, -0.0824480254536943, 0.373815061171305, -1.148, 1.108, -1.211], a = 0.2, v = 0.2, t = 0.2)
movej(p[0.450996322362289, -0.0824389309393015, 0.373222764035794, -1.148, 1.108, -1.211], a = 0.2, v = 0.2, t = 0.2)
movej(p[0.4509937941639, -0.082439320507783, 0.373248135406457, -1.148, 1.108, -1.211], a = 0.2, v = 0.2, t = 0.2)
movej(p[0.450938570379492, -0.0824478299055938, 0.373802325738188, -1.148, 1.108, -1.211], a = 0.2, v = 0.2, t = 0.2)
movej(p[0.450832594251746, -0.0824641596997051, 0.374865833899027, -1.148, 1.108, -1.211], a = 0.2, v = 0.2, t = 0.2)
movej(p[0.450728878630795, -0.0824801411737624, 0.375906657069627, -1.148, 1.108, -1.211], a = 0.2, v = 0.2, t = 0.2)
movej(p[0.45063602137406, -0.0824944494893849, 0.37683851269062, -1.148, 1.108, -1.211], a = 0.2, v = 0.2, t = 0.2)
movej(p[0.450581958578009, -0.0825027799912381, 0.377381052090961, -1.148, 1.108, -1.211], a = 0.2, v = 0.2, t = 0.2)
movej(p[0.450565722587103, -0.0825052817847489, 0.377543986038401, -1.148, 1.108, -1.211], a = 0.2, v = 0.2, t = 0.2)
movej(p[0.450565093016132, -0.0825053787949394, 0.377550304007174, -1.148, 1.108, -1.211], a = 0.2, v = 0.2, t = 0.2)
movej(p[0.450563504712674, -0.0825056235356089, 0.377566243197685, -1.148, 1.108, -1.211], a = 0.2, v = 0.2, t = 0.2)
movej(p[0.450566074551977, -0.0825052275507054, 0.377540453945623, -1.148, 1.108, -1.211], a = 0.2, v = 0.2, t = 0.2)
movej(p[0.450589427173484, -0.0825016291601123, 0.377306102077156, -1.148, 1.108, -1.211], a = 0.2, v = 0.2, t = 0.2)
movej(p[0.45063607986963, -0.0824944404758396, 0.37683792566675, -1.148, 1.108, -1.211], a = 0.2, v = 0.2, t = 0.2)
movej(p[0.450709981587153, -0.0824830530071965, 0.376096295628385, -1.148, 1.108, -1.211], a = 0.2, v = 0.2, t = 0.2)
movej(p[0.450798627162808, -0.0824693936668326, 0.375206705726049, -1.148, 1.108, -1.211], a = 0.2, v = 0.2, t = 0.2)
movej(p[0.450879559254752, -0.0824569228922671, 0.374394523378128, -1.148, 1.108, -1.211], a = 0.2, v = 0.2, t = 0.2)
movej(p[0.450929815872915, -0.0824491788819433, 0.373890180327581, -1.148, 1.108, -1.211], a = 0.2, v = 0.2, t = 0.2)
movej(p[0.450946799417384, -0.0824465618983796, 0.37371974441407, -1.148, 1.108, -1.211], a = 0.2, v = 0.2, t = 0.2)
movej(p[0.450944479423569, -0.0824469193847508, 0.373743026377737, -1.148, 1.108, -1.211], a = 0.2, v = 0.2, t = 0.2)
movej(p[0.450884694967557, -0.0824561315335479, 0.374342984672232, -1.148, 1.108, -1.211], a = 0.2, v = 0.2, t = 0.2)
movej(p[0.450789743767686, -0.0824707625035361, 0.375295853757868, -1.148, 1.108, -1.211], a = 0.2, v = 0.2, t = 0.2)
movej(p[0.450681644944744, -0.0824874193823999, 0.376380663920507, -1.148, 1.108, -1.211], a = 0.2, v = 0.2, t = 0.2)
movej(p[0.450621166473489, -0.0824967384715644, 0.376987586904989, -1.148, 1.108, -1.211], a = 0.2, v = 0.2, t = 0.2)
movej(p[0.450578709595217, -0.0825032806249298, 0.377413656789652, -1.148, 1.108, -1.211], a = 0.2, v = 0.2, t = 0.2)
movej(p[0.450564413872643, -0.0825054834437276, 0.377557119453803, -1.148, 1.108, -1.211], a = 0.2, v = 0.2, t = 0.2)
movej(p[0.450555401588976, -0.082506872140785, 0.377647560928048, -1.148, 1.108, -1.211], a = 0.2, v = 0.2, t = 0.2)
movej(p[0.450558993613588, -0.0825063186479974, 0.377611513682593, -1.148, 1.108, -1.211], a = 0.2, v = 0.2, t = 0.2)
movej(p[0.450561289812595, -0.0825059648281531, 0.377588470508297, -1.148, 1.108, -1.211], a = 0.2, v = 0.2, t = 0.2)
movej(p[0.450588413911228, -0.0825017852930488, 0.377316270524535, -1.148, 1.108, -1.211], a = 0.2, v = 0.2, t = 0.2)
movej(p[0.45065044697663, -0.0824922266574612, 0.376693746634486, -1.148, 1.108, -1.211], a = 0.2, v = 0.2, t = 0.2)
movej(p[0.450719380536457, -0.0824816047290771, 0.376001973826862, -1.148, 1.108, -1.211], a = 0.2, v = 0.2, t = 0.2)
movej(p[0.450793580680535, -0.082470171276076, 0.375257348971804, -1.148, 1.108, -1.211], a = 0.2, v = 0.2, t = 0.2)
movej(p[0.450866640656712, -0.0824589135108214, 0.374524166107436, -1.148, 1.108, -1.211], a = 0.2, v = 0.2, t = 0.2)
movej(p[0.450931154330885, -0.0824489726398061, 0.373876748425465, -1.148, 1.108, -1.211], a = 0.2, v = 0.2, t = 0.2)
movej(p[0.450956267768212, -0.0824451029262235, 0.373624726143549, -1.148, 1.108, -1.211], a = 0.2, v = 0.2, t = 0.2)
movej(p[0.450934822697175, -0.0824484073835781, 0.373839935064111, -1.148, 1.108, -1.211], a = 0.2, v = 0.2, t = 0.2)
movej(p[0.450876713792252, -0.0824573613477737, 0.37442307860707, -1.148, 1.108, -1.211], a = 0.2, v = 0.2, t = 0.2)
movej(p[0.450777201920778, -0.0824726950687481, 0.37542171565547, -1.148, 1.108, -1.211], a = 0.2, v = 0.2, t = 0.2)
movej(p[0.450674056383777, -0.0824885886989321, 0.376456817830724, -1.148, 1.108, -1.211], a = 0.2, v = 0.2, t = 0.2)
movej(p[0.450603298456164, -0.0824994917429878, 0.377166898818409, -1.148, 1.108, -1.211], a = 0.2, v = 0.2, t = 0.2)
movej(p[0.450578002691119, -0.0825033895513327, 0.37742075082388, -1.148, 1.108, -1.211], a = 0.2, v = 0.2, t = 0.2)
movej(p[0.450566797319281, -0.0825051161799513, 0.37753320071848, -1.148, 1.108, -1.211], a = 0.2, v = 0.2, t = 0.2)
movej(p[0.450573060311132, -0.0825041511195209, 0.377470349366136, -1.148, 1.108, -1.211], a = 0.2, v = 0.2, t = 0.2)
movej(p[0.450605387937774, -0.0824991697760958, 0.377145930126773, -1.148, 1.108, -1.211], a = 0.2, v = 0.2, t = 0.2)
movej(p[0.450666259618237, -0.0824897900975746, 0.376535061147937, -1.148, 1.108, -1.211], a = 0.2, v = 0.2, t = 0.2)
movej(p[0.450742055005926, -0.0824781108345002, 0.375774427455467, -1.148, 1.108, -1.211], a = 0.2, v = 0.2, t = 0.2)
movej(p[0.450822203852094, -0.082465760749778, 0.374970105257673, -1.148, 1.108, -1.211], a = 0.2, v = 0.2, t = 0.2)
movej(p[0.450905406365336, -0.0824529401274389, 0.37413513842394, -1.148, 1.108, -1.211], a = 0.2, v = 0.2, t = 0.2)
movej(p[0.450946194632671, -0.0824466550892713, 0.373725813643915, -1.148, 1.108, -1.211], a = 0.2, v = 0.2, t = 0.2)
movej(p[0.450938391918429, -0.0824478574045454, 0.37380411665847, -1.148, 1.108, -1.211], a = 0.2, v = 0.2, t = 0.2)
movej(p[0.450873560980144, -0.0824578471625858, 0.37445471819872, -1.148, 1.108, -1.211], a = 0.2, v = 0.2, t = 0.2)
movej(p[0.450784409764811, -0.082471584416646, 0.375349382375188, -1.148, 1.108, -1.211], a = 0.2, v = 0.2, t = 0.2)
movej(p[0.450682724634174, -0.0824872530137425, 0.376369828852801, -1.148, 1.108, -1.211], a = 0.2, v = 0.2, t = 0.2)
movej(p[0.450609059873284, -0.0824986039698888, 0.377109080947013, -1.148, 1.108, -1.211], a = 0.2, v = 0.2, t = 0.2)
movej(p[0.450581877279081, -0.0825027925185383, 0.377381867954645, -1.148, 1.108, -1.211], a = 0.2, v = 0.2, t = 0.2)
movej(p[0.450572411902604, -0.0825042510323785, 0.377476856376495, -1.148, 1.108, -1.211], a = 0.2, v = 0.2, t = 0.2)
movej(p[0.450568120905496, -0.0825049122293934, 0.377519918059722, -1.148, 1.108, -1.211], a = 0.2, v = 0.2, t = 0.2)
movej(p[0.450578912842539, -0.0825032493066793, 0.377411617130442, -1.148, 1.108, -1.211], a = 0.2, v = 0.2, t = 0.2)
movej(p[0.450621406404473, -0.0824967015007516, 0.376985179112165, -1.148, 1.108, -1.211], a = 0.2, v = 0.2, t = 0.2)
movej(p[0.450688836925572, -0.0824863111746491, 0.37630848983314, -1.148, 1.108, -1.211], a = 0.2, v = 0.2, t = 0.2)
movej(p[0.450777152348261, -0.0824727027073457, 0.375422213133326, -1.148, 1.108, -1.211], a = 0.2, v = 0.2, t = 0.2)
movej(p[0.45086501467814, -0.0824591640568252, 0.374540483381117, -1.148, 1.108, -1.211], a = 0.2, v = 0.2, t = 0.2)
movej(p[0.450933365265162, -0.0824486319583498, 0.373854560913082, -1.148, 1.108, -1.211], a = 0.2, v = 0.2, t = 0.2)
movej(p[0.450964546378621, -0.0824438272804117, 0.373541647341575, -1.148, 1.108, -1.211], a = 0.2, v = 0.2, t = 0.2)
movej(p[0.450946511896783, -0.0824466062022461, 0.373722629785635, -1.148, 1.108, -1.211], a = 0.2, v = 0.2, t = 0.2)
movej(p[0.450890098371956, -0.0824552989264012, 0.374288759585914, -1.148, 1.108, -1.211], a = 0.2, v = 0.2, t = 0.2)
movej(p[0.450781435413766, -0.0824720427325066, 0.375379231046556, -1.148, 1.108, -1.211], a = 0.2, v = 0.2, t = 0.2)
movej(p[0.450679166318873, -0.0824878013122837, 0.376405537813314, -1.148, 1.108, -1.211], a = 0.2, v = 0.2, t = 0.2)
movej(p[0.450607638728355, -0.0824988229532069, 0.377123342642193, -1.148, 1.108, -1.211], a = 0.2, v = 0.2, t = 0.2)
movej(p[0.450582290713876, -0.0825027288126337, 0.377377718989325, -1.148, 1.108, -1.211], a = 0.2, v = 0.2, t = 0.2)
movej(p[0.450573710702561, -0.0825040509011194, 0.377463822456664, -1.148, 1.108, -1.211], a = 0.2, v = 0.2, t = 0.2)
movej(p[0.450570800795788, -0.082504499286803, 0.377493024406819, -1.148, 1.108, -1.211], a = 0.2, v = 0.2, t = 0.2)
movej(p[0.450579595951829, -0.0825031440468034, 0.377404761885584, -1.148, 1.108, -1.211], a = 0.2, v = 0.2, t = 0.2)
movej(p[0.45058019776219, -0.0825030513142276, 0.377398722504411, -1.148, 1.108, -1.211], a = 0.2, v = 0.2, t = 0.2)
movej(p[0.450607084011885, -0.0824989084291149, 0.377128909419403, -1.148, 1.108, -1.211], a = 0.2, v = 0.2, t = 0.2)
movej(p[0.450658323058198, -0.0824910130370625, 0.376614707352703, -1.148, 1.108, -1.211], a = 0.2, v = 0.2, t = 0.2)
movej(p[0.450731724093295, -0.0824797027182559, 0.375878101840685, -1.148, 1.108, -1.211], a = 0.2, v = 0.2, t = 0.2)
movej(p[0.450800312628401, -0.0824691339545116, 0.375189791478941, -1.148, 1.108, -1.211], a = 0.2, v = 0.2, t = 0.2)
movej(p[0.450864885789595, -0.0824591839171791, 0.374541776823543, -1.148, 1.108, -1.211], a = 0.2, v = 0.2, t = 0.2)
movej(p[0.45092317315558, -0.0824502024540319, 0.373956842360303, -1.148, 1.108, -1.211], a = 0.2, v = 0.2, t = 0.2)
movej(p[0.450944657884631, -0.0824468918857992, 0.373741235457455, -1.148, 1.108, -1.211], a = 0.2, v = 0.2, t = 0.2)
movej(p[0.450921695894561, -0.0824504300842426, 0.373971667200415, -1.148, 1.108, -1.211], a = 0.2, v = 0.2, t = 0.2)
movej(p[0.450850341212983, -0.0824614250817372, 0.374687736826532, -1.148, 1.108, -1.211], a = 0.2, v = 0.2, t = 0.2)
movej(p[0.450764580757842, -0.0824746398557163, 0.375548373517641, -1.148, 1.108, -1.211], a = 0.2, v = 0.2, t = 0.2)
movej(p[0.450670526820537, -0.0824891325670866, 0.376492238254081, -1.148, 1.108, -1.211], a = 0.2, v = 0.2, t = 0.2)
movej(p[0.450611537507705, -0.0824982221927769, 0.377084217003764, -1.148, 1.108, -1.211], a = 0.2, v = 0.2, t = 0.2)
movej(p[0.450584901202644, -0.0825023265640801, 0.377351521805421, -1.148, 1.108, -1.211], a = 0.2, v = 0.2, t = 0.2)
movej(p[0.450572517987791, -0.0825042346857795, 0.377475791773883, -1.148, 1.108, -1.211], a = 0.2, v = 0.2, t = 0.2)
movej(p[0.450566165765409, -0.0825052134956857, 0.377539538586367, -1.148, 1.108, -1.211], a = 0.2, v = 0.2, t = 0.2)
movej(p[0.450569395910644, -0.0825047157646611, 0.377507122929262, -1.148, 1.108, -1.211], a = 0.2, v = 0.2, t = 0.2)
movej(p[0.450584876416385, -0.0825023303833789, 0.377351770544349, -1.148, 1.108, -1.211], a = 0.2, v = 0.2, t = 0.2)
movej(p[0.450619605930641, -0.0824969789346192, 0.3770032475079, -1.148, 1.108, -1.211], a = 0.2, v = 0.2, t = 0.2)
movej(p[0.450681600329479, -0.0824874262571378, 0.376381111650578, -1.148, 1.108, -1.211], a = 0.2, v = 0.2, t = 0.2)
movej(p[0.450765651524219, -0.0824744748620065, 0.375537627995948, -1.148, 1.108, -1.211], a = 0.2, v = 0.2, t = 0.2)
movej(p[0.450828777167905, -0.0824647478717262, 0.37490413969395, -1.148, 1.108, -1.211], a = 0.2, v = 0.2, t = 0.2)
movej(p[0.450883088817993, -0.0824563790241126, 0.374359102954771, -1.148, 1.108, -1.211], a = 0.2, v = 0.2, t = 0.2)
movej(p[0.450924214178446, -0.0824500420434807, 0.373946395325324, -1.148, 1.108, -1.211], a = 0.2, v = 0.2, t = 0.2)
movej(p[0.450938382003926, -0.082447858932265, 0.373804216154041, -1.148, 1.108, -1.211], a = 0.2, v = 0.2, t = 0.2)
movej(p[0.450894143489378, -0.0824546756168308, 0.374248165392854, -1.148, 1.108, -1.211], a = 0.2, v = 0.2, t = 0.2)
movej(p[0.450805190564115, -0.0824683823165003, 0.375140839657897, -1.148, 1.108, -1.211], a = 0.2, v = 0.2, t = 0.2)
movej(p[0.450713183971779, -0.0824825595537866, 0.376064158558879, -1.148, 1.108, -1.211], a = 0.2, v = 0.2, t = 0.2)
movej(p[0.450640244952544, -0.0824937986808629, 0.376796127577278, -1.148, 1.108, -1.211], a = 0.2, v = 0.2, t = 0.2)
movej(p[0.450596988568712, -0.0825004640295316, 0.377230220784804, -1.148, 1.108, -1.211], a = 0.2, v = 0.2, t = 0.2)
movej(p[0.45057109029929, -0.0825044546773926, 0.377490119136139, -1.148, 1.108, -1.211], a = 0.2, v = 0.2, t = 0.2)
movej(p[0.450574217333689, -0.0825039728346512, 0.377458738232974, -1.148, 1.108, -1.211], a = 0.2, v = 0.2, t = 0.2)
movej(p[0.45058785175888, -0.0825018719147464, 0.377321911923424, -1.148, 1.108, -1.211], a = 0.2, v = 0.2, t = 0.2)
movej(p[0.450643076534739, -0.0824933623641636, 0.376767711642135, -1.148, 1.108, -1.211], a = 0.2, v = 0.2, t = 0.2)
movej(p[0.450726697440028, -0.0824804772720602, 0.375928546095297, -1.148, 1.108, -1.211], a = 0.2, v = 0.2, t = 0.2)
movej(p[0.450811813452443, -0.0824673617998508, 0.375074376616318, -1.148, 1.108, -1.211], a = 0.2, v = 0.2, t = 0.2)
movej(p[0.450885240265249, -0.0824560475089734, 0.374337512415815, -1.148, 1.108, -1.211], a = 0.2, v = 0.2, t = 0.2)
movej(p[0.450948683173046, -0.0824462716316679, 0.373700840255537, -1.148, 1.108, -1.211], a = 0.2, v = 0.2, t = 0.2)
movej(p[0.450994547666165, -0.0824392044010983, 0.373240573743043, -1.148, 1.108, -1.211], a = 0.2, v = 0.2, t = 0.2)
movej(p[0.450986397944301, -0.0824404601865562, 0.373322359102591, -1.148, 1.108, -1.211], a = 0.2, v = 0.2, t = 0.2)
movej(p[0.450922340337288, -0.0824503307824729, 0.373965199988286, -1.148, 1.108, -1.211], a = 0.2, v = 0.2, t = 0.2)
movej(p[0.450821490007843, -0.0824658707455845, 0.374977268938801, -1.148, 1.108, -1.211], a = 0.2, v = 0.2, t = 0.2)
movej(p[0.45072004480819, -0.0824815023718683, 0.37599530762359, -1.148, 1.108, -1.211], a = 0.2, v = 0.2, t = 0.2)
movej(p[0.450633636935972, -0.0824948169059331, 0.3768624413755, -1.148, 1.108, -1.211], a = 0.2, v = 0.2, t = 0.2)
movej(p[0.450587746665144, -0.0825018881085735, 0.377322966576479, -1.148, 1.108, -1.211], a = 0.2, v = 0.2, t = 0.2)
movej(p[0.450573109883649, -0.0825041434809233, 0.37746985188828, -1.148, 1.108, -1.211], a = 0.2, v = 0.2, t = 0.2)
movej(p[0.450569019159512, -0.0825047738180035, 0.377510903760968, -1.148, 1.108, -1.211], a = 0.2, v = 0.2, t = 0.2)
movej(p[0.450567700530548, -0.0825049770047016, 0.377524136671942, -1.148, 1.108, -1.211], a = 0.2, v = 0.2, t = 0.2)
movej(p[0.450580046070287, -0.0825030746883365, 0.37740024478665, -1.148, 1.108, -1.211], a = 0.2, v = 0.2, t = 0.2)
movej(p[0.450627424508088, -0.0824957741749938, 0.376924785300431, -1.148, 1.108, -1.211], a = 0.2, v = 0.2, t = 0.2)
movej(p[0.450688065577201, -0.0824864300312289, 0.376316230588581, -1.148, 1.108, -1.211], a = 0.2, v = 0.2, t = 0.2)
movej(p[0.450771312705708, -0.082473602534152, 0.375480816024778, -1.148, 1.108, -1.211], a = 0.2, v = 0.2, t = 0.2)
movej(p[0.450855516583802, -0.0824606276121398, 0.374635800138352, -1.148, 1.108, -1.211], a = 0.2, v = 0.2, t = 0.2)
movej(p[0.450923718453272, -0.0824501184294575, 0.373951370103885, -1.148, 1.108, -1.211], a = 0.2, v = 0.2, t = 0.2)
movej(p[0.450967897480799, -0.0824433109112088, 0.3735080178385, -1.148, 1.108, -1.211], a = 0.2, v = 0.2, t = 0.2)
movej(p[0.450973211654667, -0.0824424920535379, 0.373454688212323, -1.148, 1.108, -1.211], a = 0.2, v = 0.2, t = 0.2)
movej(p[0.450931868175136, -0.0824488626439996, 0.373869584744337, -1.148, 1.108, -1.211], a = 0.2, v = 0.2, t = 0.2)
movej(p[0.450831374767817, -0.082464347609208, 0.374878071854288, -1.148, 1.108, -1.211], a = 0.2, v = 0.2, t = 0.2)
movej(p[0.450712995596213, -0.0824825885804578, 0.376066048974732, -1.148, 1.108, -1.211], a = 0.2, v = 0.2, t = 0.2)
movej(p[0.450620915636551, -0.0824967771228686, 0.376990104142941, -1.148, 1.108, -1.211], a = 0.2, v = 0.2, t = 0.2)
movej(p[0.450582252047312, -0.0825027347707399, 0.377378107022052, -1.148, 1.108, -1.211], a = 0.2, v = 0.2, t = 0.2)
movej(p[0.450562837466589, -0.0825057263511337, 0.377572939249628, -1.148, 1.108, -1.211], a = 0.2, v = 0.2, t = 0.2)
movej(p[0.450570308044965, -0.0825045752144639, 0.377497969336709, -1.148, 1.108, -1.211], a = 0.2, v = 0.2, t = 0.2)
movej(p[0.450601957222133, -0.0824996984128866, 0.377180358579284, -1.148, 1.108, -1.211], a = 0.2, v = 0.2, t = 0.2)
movej(p[0.450660222677065, -0.0824907203259995, 0.376595644001256, -1.148, 1.108, -1.211], a = 0.2, v = 0.2, t = 0.2)
movej(p[0.450744226282189, -0.082477776263922, 0.375752637925369, -1.148, 1.108, -1.211], a = 0.2, v = 0.2, t = 0.2)
movej(p[0.45083747218746, -0.0824634080616938, 0.374816882077984, -1.148, 1.108, -1.211], a = 0.2, v = 0.2, t = 0.2)
movej(p[0.450924690074614, -0.082449968712943, 0.373941619537905, -1.148, 1.108, -1.211], a = 0.2, v = 0.2, t = 0.2)
movej(p[0.450976215749222, -0.0824420291545188, 0.373424541054241, -1.148, 1.108, -1.211], a = 0.2, v = 0.2, t = 0.2)
movej(p[0.450986814353447, -0.0824403960223357, 0.3733181802886, -1.148, 1.108, -1.211], a = 0.2, v = 0.2, t = 0.2)
movej(p[0.450962910485546, -0.082444079354135, 0.373558064110827, -1.148, 1.108, -1.211], a = 0.2, v = 0.2, t = 0.2)
movej(p[0.450874036876311, -0.0824577738320482, 0.374449942411301, -1.148, 1.108, -1.211], a = 0.2, v = 0.2, t = 0.2)
movej(p[0.450765641609715, -0.0824744763897261, 0.37553772749152, -1.148, 1.108, -1.211], a = 0.2, v = 0.2, t = 0.2)
movej(p[0.450665522970628, -0.082489903607136, 0.376542453668879, -1.148, 1.108, -1.211], a = 0.2, v = 0.2, t = 0.2)
movej(p[0.45061183692571, -0.082498176055647, 0.377081212237513, -1.148, 1.108, -1.211], a = 0.2, v = 0.2, t = 0.2)
movej(p[0.450582448354481, -0.0825027045218931, 0.377376137009742, -1.148, 1.108, -1.211], a = 0.2, v = 0.2, t = 0.2)
movej(p[0.450576486763536, -0.0825036231396496, 0.377435963696721, -1.148, 1.108, -1.211], a = 0.2, v = 0.2, t = 0.2)
movej(p[0.450597110318814, -0.0825004452691357, 0.37722899897919, -1.148, 1.108, -1.211], a = 0.2, v = 0.2, t = 0.2)
movej(p[0.450648557272266, -0.0824925178408046, 0.376712710490361, -1.148, 1.108, -1.211], a = 0.2, v = 0.2, t = 0.2)
movej(p[0.450727936752964, -0.0824802863071183, 0.375916109148894, -1.148, 1.108, -1.211], a = 0.2, v = 0.2, t = 0.2)
movej(p[0.450818932065944, -0.0824662648972246, 0.375002938796177, -1.148, 1.108, -1.211], a = 0.2, v = 0.2, t = 0.2)
movej(p[0.450906705165293, -0.0824527399961798, 0.37412210450411, -1.148, 1.108, -1.211], a = 0.2, v = 0.2, t = 0.2)
movej(p[0.450961304335982, -0.0824443268446997, 0.373574182393366, -1.148, 1.108, -1.211], a = 0.2, v = 0.2, t = 0.2)
movej(p[0.450986516918343, -0.0824404418539218, 0.373321165155737, -1.148, 1.108, -1.211], a = 0.2, v = 0.2, t = 0.2)
movej(p[0.450969622604405, -0.0824430450880097, 0.373490705609107, -1.148, 1.108, -1.211], a = 0.2, v = 0.2, t = 0.2)
movej(p[0.450910571821652, -0.0824521441855611, 0.374083301231331, -1.148, 1.108, -1.211], a = 0.2, v = 0.2, t = 0.2)
movej(p[0.450800332457408, -0.0824691308990725, 0.375189592487798, -1.148, 1.108, -1.211], a = 0.2, v = 0.2, t = 0.2)
movej(p[0.450689914632101, -0.0824861451115356, 0.376297674664547, -1.148, 1.108, -1.211], a = 0.2, v = 0.2, t = 0.2)
movej(p[0.450620636047553, -0.0824968202045595, 0.376992909918049, -1.148, 1.108, -1.211], a = 0.2, v = 0.2, t = 0.2)
movej(p[0.45058099290537, -0.0825029287911209, 0.377390742959598, -1.148, 1.108, -1.211], a = 0.2, v = 0.2, t = 0.2)
movej(p[0.450565837595344, -0.0825052640632023, 0.377542831889775, -1.148, 1.108, -1.211], a = 0.2, v = 0.2, t = 0.2)
movej(p[0.450564026215557, -0.0825055431775614, 0.377561009730638, -1.148, 1.108, -1.211], a = 0.2, v = 0.2, t = 0.2)
movej(p[0.450570823599146, -0.0825044957730481, 0.377492795567005, -1.148, 1.108, -1.211], a = 0.2, v = 0.2, t = 0.2)
movej(p[0.450595892222916, -0.0825006329647578, 0.377241223005071, -1.148, 1.108, -1.211], a = 0.2, v = 0.2, t = 0.2)
movej(p[0.450653657292858, -0.0824917319818757, 0.376661529968522, -1.148, 1.108, -1.211], a = 0.2, v = 0.2, t = 0.2)
movej(p[0.4507416980838, -0.0824781658324035, 0.375778009296032, -1.148, 1.108, -1.211], a = 0.2, v = 0.2, t = 0.2)
movej(p[0.450819635995692, -0.0824661564291376, 0.37499587461062, -1.148, 1.108, -1.211], a = 0.2, v = 0.2, t = 0.2)
movej(p[0.45088643992017, -0.0824558626549097, 0.374325473451697, -1.148, 1.108, -1.211], a = 0.2, v = 0.2, t = 0.2)
movej(p[0.450942684898438, -0.0824471959019867, 0.373761035076129, -1.148, 1.108, -1.211], a = 0.2, v = 0.2, t = 0.2)
movej(p[0.450981708384153, -0.0824411827978963, 0.373369420507782, -1.148, 1.108, -1.211], a = 0.2, v = 0.2, t = 0.2)
movej(p[0.45096906739221, -0.0824431306403036, 0.373496277361095, -1.148, 1.108, -1.211], a = 0.2, v = 0.2, t = 0.2)
movej(p[0.450908370801878, -0.0824524833392979, 0.374105389248144, -1.148, 1.108, -1.211], a = 0.2, v = 0.2, t = 0.2)
movej(p[0.45082062744604, -0.0824660036571841, 0.374985925053498, -1.148, 1.108, -1.211], a = 0.2, v = 0.2, t = 0.2)
movej(p[0.450721284121126, -0.0824813114069264, 0.375982870677187, -1.148, 1.108, -1.211], a = 0.2, v = 0.2, t = 0.2)
movej(p[0.450639133536704, -0.0824939699382228, 0.376807281030812, -1.148, 1.108, -1.211], a = 0.2, v = 0.2, t = 0.2)
movej(p[0.450580772803393, -0.0825029627064945, 0.377392951761279, -1.148, 1.108, -1.211], a = 0.2, v = 0.2, t = 0.2)
movej(p[0.450567176053314, -0.0825050578210651, 0.377529399987659, -1.148, 1.108, -1.211], a = 0.2, v = 0.2, t = 0.2)
movej(p[0.450558438401393, -0.0825064042002914, 0.377617085434581, -1.148, 1.108, -1.211], a = 0.2, v = 0.2, t = 0.2)
movej(p[0.450562802765827, -0.082505731698152, 0.377573287484127, -1.148, 1.108, -1.211], a = 0.2, v = 0.2, t = 0.2)
movej(p[0.450586016584285, -0.0825021546956324, 0.377340328553658, -1.148, 1.108, -1.211], a = 0.2, v = 0.2, t = 0.2)
movej(p[0.45063118607071, -0.0824951945582022, 0.376887036680707, -1.148, 1.108, -1.211], a = 0.2, v = 0.2, t = 0.2)
movej(p[0.450699194607362, -0.0824847151660507, 0.376204546809879, -1.148, 1.108, -1.211], a = 0.2, v = 0.2, t = 0.2)
movej(p[0.450782892845778, -0.0824718181577349, 0.375364605197586, -1.148, 1.108, -1.211], a = 0.2, v = 0.2, t = 0.2)
movej(p[0.450862575710283, -0.0824595398758308, 0.374564959291639, -1.148, 1.108, -1.211], a = 0.2, v = 0.2, t = 0.2)
movej(p[0.450920198804535, -0.0824506607698925, 0.37398669103167, -1.148, 1.108, -1.211], a = 0.2, v = 0.2, t = 0.2)
movej(p[0.450950656159239, -0.0824459676154804, 0.373681040636863, -1.148, 1.108, -1.211], a = 0.2, v = 0.2, t = 0.2)
movej(p[0.450943963869387, -0.0824469988261667, 0.373748200147441, -1.148, 1.108, -1.211], a = 0.2, v = 0.2, t = 0.2)
movej(p[0.450896334594648, -0.0824543379908136, 0.374226176871613, -1.148, 1.108, -1.211], a = 0.2, v = 0.2, t = 0.2)
movej(p[0.450801938606972, -0.0824688834085078, 0.37517347420526, -1.148, 1.108, -1.211], a = 0.2, v = 0.2, t = 0.2)
movej(p[0.450706005871256, -0.0824836656227301, 0.376136193352447, -1.148, 1.108, -1.211], a = 0.2, v = 0.2, t = 0.2)
movej(p[0.450634327976865, -0.0824947104238815, 0.376855506534186, -1.148, 1.108, -1.211], a = 0.2, v = 0.2, t = 0.2)
movej(p[0.450593133710612, -0.0825010580221641, 0.377268905657853, -1.148, 1.108, -1.211], a = 0.2, v = 0.2, t = 0.2)
movej(p[0.450574765605731, -0.0825038883517609, 0.377453236127886, -1.148, 1.108, -1.211], a = 0.2, v = 0.2, t = 0.2)
movej(p[0.450572606226872, -0.0825042210890757, 0.377474906263299, -1.148, 1.108, -1.211], a = 0.2, v = 0.2, t = 0.2)
movej(p[0.450584756450893, -0.0825023488687853, 0.377352974440761, -1.148, 1.108, -1.211], a = 0.2, v = 0.2, t = 0.2)
movej(p[0.450614610012335, -0.082497748752493, 0.377053383326241, -1.148, 1.108, -1.211], a = 0.2, v = 0.2, t = 0.2)
movej(p[0.450684105724509, -0.0824870402024113, 0.376355969119729, -1.148, 1.108, -1.211], a = 0.2, v = 0.2, t = 0.2)
movej(p[0.450783428228967, -0.08247173566088, 0.375359232436739, -1.148, 1.108, -1.211], a = 0.2, v = 0.2, t = 0.2)
movej(p[0.450874314482409, -0.0824577310559012, 0.374447156535307, -1.148, 1.108, -1.211], a = 0.2, v = 0.2, t = 0.2)
movej(p[0.45094809821734, -0.0824463617671205, 0.373706710494239, -1.148, 1.108, -1.211], a = 0.2, v = 0.2, t = 0.2)
movej(p[0.451005007467341, -0.0824375926569887, 0.373135605915399, -1.148, 1.108, -1.211], a = 0.2, v = 0.2, t = 0.2)
movej(p[0.451035593710591, -0.0824328796422227, 0.372828662078166, -1.148, 1.108, -1.211], a = 0.2, v = 0.2, t = 0.2)
movej(p[0.450998176374441, -0.0824386452557484, 0.373204158363974, -1.148, 1.108, -1.211], a = 0.2, v = 0.2, t = 0.2)
movej(p[0.450898922280057, -0.0824539392560149, 0.374200208527522, -1.148, 1.108, -1.211], a = 0.2, v = 0.2, t = 0.2)
movej(p[0.450769904846214, -0.0824738194703259, 0.375494944395892, -1.148, 1.108, -1.211], a = 0.2, v = 0.2, t = 0.2)
movej(p[0.450664655451573, -0.0824900372825954, 0.376551159531361, -1.148, 1.108, -1.211], a = 0.2, v = 0.2, t = 0.2)
movej(p[0.45059193445227, -0.0825012428151191, 0.377280940642148, -1.148, 1.108, -1.211], a = 0.2, v = 0.2, t = 0.2)
movej(p[0.450562603484307, -0.0825057624053147, 0.377575287345109, -1.148, 1.108, -1.211], a = 0.2, v = 0.2, t = 0.2)
movej(p[0.450561286838244, -0.0825059652864689, 0.377588500356968, -1.148, 1.108, -1.211], a = 0.2, v = 0.2, t = 0.2)
movej(p[0.450562713535296, -0.0825057454476278, 0.377574182944268, -1.148, 1.108, -1.211], a = 0.2, v = 0.2, t = 0.2)
movej(p[0.45059190451047, -0.0825012474288321, 0.377281241118774, -1.148, 1.108, -1.211], a = 0.2, v = 0.2, t = 0.2)
movej(p[0.45064774527443, -0.0824926429610345, 0.376720859177645, -1.148, 1.108, -1.211], a = 0.2, v = 0.2, t = 0.2)
movej(p[0.450730336062807, -0.0824799165989908, 0.375892031220657, -1.148, 1.108, -1.211], a = 0.2, v = 0.2, t = 0.2)
movej(p[0.45081801001712, -0.0824664069751413, 0.375012191884302, -1.148, 1.108, -1.211], a = 0.2, v = 0.2, t = 0.2)
movej(p[0.450901103470824, -0.0824536031577172, 0.374178319501853, -1.148, 1.108, -1.211], a = 0.2, v = 0.2, t = 0.2)
movej(p[0.450982551116949, -0.0824410529417358, 0.373360963384227, -1.148, 1.108, -1.211], a = 0.2, v = 0.2, t = 0.2)
movej(p[0.451008725406148, -0.082437019762163, 0.37309829507619, -1.148, 1.108, -1.211], a = 0.2, v = 0.2, t = 0.2)
movej(p[0.450992891944083, -0.0824394595302606, 0.373257189503438, -1.148, 1.108, -1.211], a = 0.2, v = 0.2, t = 0.2)
movej(p[0.450925542721913, -0.082449837329063, 0.373933062918779, -1.148, 1.108, -1.211], a = 0.2, v = 0.2, t = 0.2)
movej(p[0.450824741964986, -0.082465369653577, 0.374944634391439, -1.148, 1.108, -1.211], a = 0.2, v = 0.2, t = 0.2)
movej(p[0.45071350123589, -0.0824825106667615, 0.3760609747006, -1.148, 1.108, -1.211], a = 0.2, v = 0.2, t = 0.2)
movej(p[0.450633759875815, -0.0824947979622108, 0.376861207630417, -1.148, 1.108, -1.211], a = 0.2, v = 0.2, t = 0.2)
movej(p[0.450594564175175, -0.0825008376027895, 0.377254550436836, -1.148, 1.108, -1.211], a = 0.2, v = 0.2, t = 0.2)
movej(p[0.450574600033523, -0.0825039138646771, 0.377454897703925, -1.148, 1.108, -1.211], a = 0.2, v = 0.2, t = 0.2)
movej(p[0.450574304581319, -0.0825039593907193, 0.377457862671948, -1.148, 1.108, -1.211], a = 0.2, v = 0.2, t = 0.2)
movej(p[0.450603743121646, -0.0824994232247667, 0.377162436442039, -1.148, 1.108, -1.211], a = 0.2, v = 0.2, t = 0.2)
movej(p[0.450664876545001, -0.0824900032144497, 0.376548940780123, -1.148, 1.108, -1.211], a = 0.2, v = 0.2, t = 0.2)
movej(p[0.450749927121692, -0.0824768978251893, 0.375695427971914, -1.148, 1.108, -1.211], a = 0.2, v = 0.2, t = 0.2)
movej(p[0.450849845487809, -0.0824615014677139, 0.374692711605093, -1.148, 1.108, -1.211], a = 0.2, v = 0.2, t = 0.2)
movej(p[0.450950656159239, -0.0824459676154804, 0.373681040636863, -1.148, 1.108, -1.211], a = 0.2, v = 0.2, t = 0.2)
movej(p[0.451014436160155, -0.0824361397957107, 0.373040985627163, -1.148, 1.108, -1.211], a = 0.2, v = 0.2, t = 0.2)
movej(p[0.451042623093561, -0.0824317964890723, 0.372758119718166, -1.148, 1.108, -1.211], a = 0.2, v = 0.2, t = 0.2)
movej(p[0.451021178022525, -0.0824351009464268, 0.372973328638729, -1.148, 1.108, -1.211], a = 0.2, v = 0.2, t = 0.2)
movej(p[0.450947949499788, -0.0824463846829135, 0.373708202927808, -1.148, 1.108, -1.211], a = 0.2, v = 0.2, t = 0.2)
movej(p[0.450836708770692, -0.082463525696098, 0.374824543236968, -1.148, 1.108, -1.211], a = 0.2, v = 0.2, t = 0.2)
movej(p[0.450721085831056, -0.0824813419613171, 0.375984860588611, -1.148, 1.108, -1.211], a = 0.2, v = 0.2, t = 0.2)
movej(p[0.450650688890515, -0.0824921893811045, 0.376691318942548, -1.148, 1.108, -1.211], a = 0.2, v = 0.2, t = 0.2)
movej(p[0.450598140931452, -0.08250028646269, 0.377218656414561, -1.148, 1.108, -1.211], a = 0.2, v = 0.2, t = 0.2)
movej(p[0.4505796564303, -0.0825031347277142, 0.3774041549626, -1.148, 1.108, -1.211], a = 0.2, v = 0.2, t = 0.2)
movej(p[0.450575876030122, -0.082503717247173, 0.377442092623908, -1.148, 1.108, -1.211], a = 0.2, v = 0.2, t = 0.2)
movej(p[0.450606920819157, -0.0824989335753785, 0.377130547116505, -1.148, 1.108, -1.211], a = 0.2, v = 0.2, t = 0.2)
movej(p[0.450668136433747, -0.0824895009002666, 0.376516226636303, -1.148, 1.108, -1.211], a = 0.2, v = 0.2, t = 0.2)
movej(p[0.45076593904482, -0.08247443055814, 0.375534742624383, -1.148, 1.108, -1.211], a = 0.2, v = 0.2, t = 0.2)
movej(p[0.450877150030405, -0.0824572941281141, 0.374418700801936, -1.148, 1.108, -1.211], a = 0.2, v = 0.2, t = 0.2)
movej(p[0.450957903661287, -0.0824448508525002, 0.373608309374296, -1.148, 1.108, -1.211], a = 0.2, v = 0.2, t = 0.2)
movej(p[0.451020265888204, -0.0824352414966241, 0.372982482231282, -1.148, 1.108, -1.211], a = 0.2, v = 0.2, t = 0.2)
movej(p[0.451049434357455, -0.0824307469457516, 0.372689766260734, -1.148, 1.108, -1.211], a = 0.2, v = 0.2, t = 0.2)
movej(p[0.45104665829648, -0.0824311747072215, 0.372717625020677, -1.148, 1.108, -1.211], a = 0.2, v = 0.2, t = 0.2)
movej(p[0.450967877651792, -0.0824433139666478, 0.373508216829642, -1.148, 1.108, -1.211], a = 0.2, v = 0.2, t = 0.2)
movej(p[0.450859472470693, -0.0824600180520453, 0.374596101405432, -1.148, 1.108, -1.211], a = 0.2, v = 0.2, t = 0.2)
movej(p[0.450752038910935, -0.0824765724209283, 0.375674235415242, -1.148, 1.108, -1.211], a = 0.2, v = 0.2, t = 0.2)
movej(p[0.450664232102275, -0.0824901025162195, 0.376555407992252, -1.148, 1.108, -1.211], a = 0.2, v = 0.2, t = 0.2)
movej(p[0.450607671743651, -0.0824988178659009, 0.377123011321941, -1.148, 1.108, -1.211], a = 0.2, v = 0.2, t = 0.2)
movej(p[0.450582462234786, -0.0825027023830858, 0.377375997715942, -1.148, 1.108, -1.211], a = 0.2, v = 0.2, t = 0.2)
movej(p[0.450587047692648, -0.0825019958128007, 0.37732998101425, -1.148, 1.108, -1.211], a = 0.2, v = 0.2, t = 0.2)
movej(p[0.450600110308766, -0.0824999830025925, 0.377198893012274, -1.148, 1.108, -1.211], a = 0.2, v = 0.2, t = 0.2)
movej(p[0.450640054594077, -0.0824938280130779, 0.376798037892245, -1.148, 1.108, -1.211], a = 0.2, v = 0.2, t = 0.2)
movej(p[0.450714889266378, -0.0824822967860266, 0.376047045320628, -1.148, 1.108, -1.211], a = 0.2, v = 0.2, t = 0.2)
movej(p[0.450794235037765, -0.0824700704465867, 0.375250782264103, -1.148, 1.108, -1.211], a = 0.2, v = 0.2, t = 0.2)
movej(p[0.450871399618384, -0.0824581802054445, 0.374476408233247, -1.148, 1.108, -1.211], a = 0.2, v = 0.2, t = 0.2)
movej(p[0.450930053820999, -0.0824491422166745, 0.373887792433871, -1.148, 1.108, -1.211], a = 0.2, v = 0.2, t = 0.2)
movej(p[0.450982937782585, -0.082440993360674, 0.373357083056949, -1.148, 1.108, -1.211], a = 0.2, v = 0.2, t = 0.2)
movej(p[0.450982095049789, -0.0824411232168344, 0.373365540180504, -1.148, 1.108, -1.211], a = 0.2, v = 0.2, t = 0.2)
movej(p[0.450928031262288, -0.0824494538714597, 0.373908089530402, -1.148, 1.108, -1.211], a = 0.2, v = 0.2, t = 0.2)
movej(p[0.450835985011938, -0.0824636372196241, 0.374831806413668, -1.148, 1.108, -1.211], a = 0.2, v = 0.2, t = 0.2)
movej(p[0.45074343312191, -0.0824778984814848, 0.375760597571067, -1.148, 1.108, -1.211], a = 0.2, v = 0.2, t = 0.2)
movej(p[0.450653937873307, -0.0824916887474129, 0.376658714243857, -1.148, 1.108, -1.211], a = 0.2, v = 0.2, t = 0.2)
movej(p[0.45060017451509, -0.0824999731090807, 0.377198248678955, -1.148, 1.108, -1.211], a = 0.2, v = 0.2, t = 0.2)
movej(p[0.450577203582138, -0.0825035126855272, 0.377428770166921, -1.148, 1.108, -1.211], a = 0.2, v = 0.2, t = 0.2)
movej(p[0.450571414503554, -0.0825044047209638, 0.37748686563096, -1.148, 1.108, -1.211], a = 0.2, v = 0.2, t = 0.2)
movej(p[0.450568711809904, -0.0825048211773091, 0.377513988123676, -1.148, 1.108, -1.211], a = 0.2, v = 0.2, t = 0.2)
movej(p[0.450577974930509, -0.0825033938289474, 0.37742102941148, -1.148, 1.108, -1.211], a = 0.2, v = 0.2, t = 0.2)
movej(p[0.450613267588563, -0.0824979556057181, 0.377066855026585, -1.148, 1.108, -1.211], a = 0.2, v = 0.2, t = 0.2)
movej(p[0.450669735643159, -0.0824892544791055, 0.376500178000664, -1.148, 1.108, -1.211], a = 0.2, v = 0.2, t = 0.2)
movej(p[0.45074388918907, -0.0824778282063862, 0.37575602077479, -1.148, 1.108, -1.211], a = 0.2, v = 0.2, t = 0.2)
movej(p[0.450834983647086, -0.0824637915192972, 0.374841855466362, -1.148, 1.108, -1.211], a = 0.2, v = 0.2, t = 0.2)
movej(p[0.450902481586808, -0.0824533908047018, 0.374164489617452, -1.148, 1.108, -1.211], a = 0.2, v = 0.2, t = 0.2)
movej(p[0.450951855814161, -0.0824457827614167, 0.373669001672744, -1.148, 1.108, -1.211], a = 0.2, v = 0.2, t = 0.2)
movej(p[0.45096994978302, -0.082442994673265, 0.373487422255256, -1.148, 1.108, -1.211], a = 0.2, v = 0.2, t = 0.2)
movej(p[0.450971942598221, -0.0824426876016384, 0.37346742364544, -1.148, 1.108, -1.211], a = 0.2, v = 0.2, t = 0.2)
movej(p[0.450908826869038, -0.0824524130641993, 0.374100812451867, -1.148, 1.108, -1.211], a = 0.2, v = 0.2, t = 0.2)
movej(p[0.450807599788462, -0.0824680110806533, 0.375116662234089, -1.148, 1.108, -1.211], a = 0.2, v = 0.2, t = 0.2)
