def moving():
set_payload_mass(0)
set_tcp(p[0,0,0,0,0,0])
movej(p[-0.4841, -0.1724, 0.3522, -0.838, -1.524, 1.716], a = 0.2, v = 0.2, t = 0.2)
movej(p[-0.484073147423397, -0.172371303092029, 0.352561872113602, -0.838, -1.524, 1.716], a = 0.2, v = 0.2, t = 0.2)
movej(p[-0.483996499546775, -0.172289390764058, 0.35359479828402, -0.838, -1.524, 1.716], a = 0.2, v = 0.2, t = 0.2)
movej(p[-0.483881195763175, -0.172166167502633, 0.35514866123336, -0.838, -1.524, 1.716], a = 0.2, v = 0.2, t = 0.2)
movej(p[-0.483743982047566, -0.172019529456409, 0.3569977879677, -0.838, -1.524, 1.716], a = 0.2, v = 0.2, t = 0.2)
movej(p[-0.483604997832401, -0.171870999306362, 0.358870774401837, -0.838, -1.524, 1.716], a = 0.2, v = 0.2, t = 0.2)
movej(p[-0.483484308779317, -0.171742020895812, 0.360497210604729, -0.838, -1.524, 1.716], a = 0.2, v = 0.2, t = 0.2)
movej(p[-0.483399619883877, -0.171651515262981, 0.361638499578396, -0.838, -1.524, 1.716], a = 0.2, v = 0.2, t = 0.2)
movej(p[-0.483363177101344, -0.171612569459306, 0.36212961173257, -0.838, -1.524, 1.716], a = 0.2, v = 0.2, t = 0.2)
movej(p[-0.483380365701203, -0.171630938633914, 0.361897973813699, -0.838, -1.524, 1.716], a = 0.2, v = 0.2, t = 0.2)
movej(p[-0.483448603704933, -0.17170386346873, 0.36097838121732, -0.838, -1.524, 1.716], a = 0.2, v = 0.2, t = 0.2)
movej(p[-0.483558005823346, -0.171820779717413, 0.35950405060064, -0.838, -1.524, 1.716], a = 0.2, v = 0.2, t = 0.2)
movej(p[-0.48369256378962, -0.171964579607904, 0.357690713415998, -0.838, -1.524, 1.716], a = 0.2, v = 0.2, t = 0.2)
movej(p[-0.483832802108637, -0.172114449998159, 0.35580082636117, -0.838, -1.524, 1.716], a = 0.2, v = 0.2, t = 0.2)
movej(p[-0.483958212493871, -0.172248474018901, 0.354110764292151, -0.838, -1.524, 1.716], a = 0.2, v = 0.2, t = 0.2)
movej(p[-0.484050573554055, -0.172347178768295, 0.352866083286025, -0.838, -1.524, 1.716], a = 0.2, v = 0.2, t = 0.2)
movej(p[-0.484096385230073, -0.172396136954696, 0.352248713553754, -0.838, -1.524, 1.716], a = 0.2, v = 0.2, t = 0.2)
movej(p[-0.484089008148588, -0.17238825318877, 0.352348128969579, -0.838, -1.524, 1.716], a = 0.2, v = 0.2, t = 0.2)
movej(p[-0.484029548871825, -0.172324710035406, 0.353149417221126, -0.838, -1.524, 1.716], a = 0.2, v = 0.2, t = 0.2)
movej(p[-0.483926638585118, -0.172214731500738, 0.35453626227188, -0.838, -1.524, 1.716], a = 0.2, v = 0.2, t = 0.2)
movej(p[-0.483795178993067, -0.172074242791936, 0.356307844981876, -0.838, -1.524, 1.716], a = 0.2, v = 0.2, t = 0.2)
movej(p[-0.483654424278346, -0.171923820538067, 0.358204691115811, -0.838, -1.524, 1.716], a = 0.2, v = 0.2, t = 0.2)
movej(p[-0.483524882727481, -0.171785381608405, 0.359950425817693, -0.838, -1.524, 1.716], a = 0.2, v = 0.2, t = 0.2)
movej(p[-0.483425365898257, -0.171679029606063, 0.361291539777168, -0.838, -1.524, 1.716], a = 0.2, v = 0.2, t = 0.2)
movej(p[-0.483370332870384, -0.171620216712254, 0.36203317877922, -0.838, -1.524, 1.716], a = 0.2, v = 0.2, t = 0.2)
movej(p[-0.483367898433494, -0.171617615069499, 0.362065985866443, -0.838, -1.524, 1.716], a = 0.2, v = 0.2, t = 0.2)
movej(p[-0.483418357670847, -0.171671540028433, 0.361385984422202, -0.838, -1.524, 1.716], a = 0.2, v = 0.2, t = 0.2)
movej(p[-0.483514333500958, -0.171774107823131, 0.360092589862322, -0.838, -1.524, 1.716], a = 0.2, v = 0.2, t = 0.2)
movej(p[-0.483641883239823, -0.171910418135992, 0.358373697322713, -0.838, -1.524, 1.716], a = 0.2, v = 0.2, t = 0.2)
movej(p[-0.483782490412914, -0.172060682714543, 0.356478839497095, -0.838, -1.524, 1.716], a = 0.2, v = 0.2, t = 0.2)
movej(p[-0.483915572962892, -0.172202905851849, 0.354685385395617, -0.838, -1.524, 1.716], a = 0.2, v = 0.2, t = 0.2)
movej(p[-0.484021802936266, -0.172316432081184, 0.353253803407742, -0.838, -1.524, 1.716], a = 0.2, v = 0.2, t = 0.2)
movej(p[-0.48408568846192, -0.172384705494103, 0.3523928659067, -0.838, -1.524, 1.716], a = 0.2, v = 0.2, t = 0.2)
movej(p[-0.484098008187999, -0.1723978713832, 0.352226842162273, -0.838, -1.524, 1.716], a = 0.2, v = 0.2, t = 0.2)
movej(p[-0.484056844073317, -0.172353879969333, 0.352781580182574, -0.838, -1.524, 1.716], a = 0.2, v = 0.2, t = 0.2)
movej(p[-0.48396824532469, -0.172259195940561, 0.353975559326629, -0.838, -1.524, 1.716], a = 0.2, v = 0.2, t = 0.2)
movej(p[-0.483845121834716, -0.172127615887255, 0.355634802616743, -0.838, -1.524, 1.716], a = 0.2, v = 0.2, t = 0.2)
movej(p[-0.483705399911403, -0.171978297360616, 0.357517730592463, -0.838, -1.524, 1.716], a = 0.2, v = 0.2, t = 0.2)
movej(p[-0.483569440299646, -0.171832999554599, 0.359349956706112, -0.838, -1.524, 1.716], a = 0.2, v = 0.2, t = 0.2)
movej(p[-0.483457013577825, -0.171712850961886, 0.36086504764328, -0.838, -1.524, 1.716], a = 0.2, v = 0.2, t = 0.2)
movej(p[-0.483384570637649, -0.171635432380492, 0.361841307026679, -0.838, -1.524, 1.716], a = 0.2, v = 0.2, t = 0.2)
movej(p[-0.483362513164011, -0.171611859920373, 0.362138559119995, -0.838, -1.524, 1.716], a = 0.2, v = 0.2, t = 0.2)
movej(p[-0.483394160843579, -0.171645681276196, 0.361712066986107, -0.838, -1.524, 1.716], a = 0.2, v = 0.2, t = 0.2)
movej(p[-0.483474939885832, -0.171732008513086, 0.360623468182826, -0.838, -1.524, 1.716], a = 0.2, v = 0.2, t = 0.2)
movej(p[-0.483592973189582, -0.171858148767903, 0.359032821529631, -0.838, -1.524, 1.716], a = 0.2, v = 0.2, t = 0.2)
movej(p[-0.483731145925783, -0.172005811703698, 0.357170770791235, -0.838, -1.524, 1.716], a = 0.2, v = 0.2, t = 0.2)
movej(p[-0.483869318661985, -0.172153474639492, 0.355308720052838, -0.838, -1.524, 1.716], a = 0.2, v = 0.2, t = 0.2)
movej(p[-0.483987351965734, -0.172279614894309, 0.353718073399643, -0.838, -1.524, 1.716], a = 0.2, v = 0.2, t = 0.2)
movej(p[-0.484068131007988, -0.172365942131199, 0.352629474596363, -0.838, -1.524, 1.716], a = 0.2, v = 0.2, t = 0.2)
movej(p[-0.484099778687555, -0.172399763487022, 0.352202982462475, -0.838, -1.524, 1.716], a = 0.2, v = 0.2, t = 0.2)
movej(p[-0.484077721213917, -0.172376191026903, 0.352500234555791, -0.838, -1.524, 1.716], a = 0.2, v = 0.2, t = 0.2)
movej(p[-0.484005278273741, -0.17229877244551, 0.353476493939189, -0.838, -1.524, 1.716], a = 0.2, v = 0.2, t = 0.2)
movej(p[-0.48389285155192, -0.172178623852797, 0.354991584876357, -0.838, -1.524, 1.716], a = 0.2, v = 0.2, t = 0.2)
movej(p[-0.483756891940163, -0.172033326046779, 0.356823810990006, -0.838, -1.524, 1.716], a = 0.2, v = 0.2, t = 0.2)
movej(p[-0.48361717001685, -0.17188400752014, 0.358706738965726, -0.838, -1.524, 1.716], a = 0.2, v = 0.2, t = 0.2)
movej(p[-0.483494046526877, -0.171752427466834, 0.36036598225584, -0.838, -1.524, 1.716], a = 0.2, v = 0.2, t = 0.2)
movej(p[-0.48340544777825, -0.171657743438062, 0.361559961399895, -0.838, -1.524, 1.716], a = 0.2, v = 0.2, t = 0.2)
movej(p[-0.483364283663567, -0.171613752024195, 0.362114699420197, -0.838, -1.524, 1.716], a = 0.2, v = 0.2, t = 0.2)
movej(p[-0.483376603389646, -0.171626917913292, 0.361948675675769, -0.838, -1.524, 1.716], a = 0.2, v = 0.2, t = 0.2)
movej(p[-0.4834404889153, -0.171695191326211, 0.361087738174728, -0.838, -1.524, 1.716], a = 0.2, v = 0.2, t = 0.2)
movej(p[-0.483546718888675, -0.171808717555546, 0.359656156186852, -0.838, -1.524, 1.716], a = 0.2, v = 0.2, t = 0.2)
movej(p[-0.483679801438652, -0.171950940692852, 0.357862702085375, -0.838, -1.524, 1.716], a = 0.2, v = 0.2, t = 0.2)
movej(p[-0.483820408611744, -0.172101205271403, 0.355967844259756, -0.838, -1.524, 1.716], a = 0.2, v = 0.2, t = 0.2)
movej(p[-0.483947958350608, -0.172237515584264, 0.354248951720147, -0.838, -1.524, 1.716], a = 0.2, v = 0.2, t = 0.2)
movej(p[-0.484043934180719, -0.172340083378962, 0.352955557160268, -0.838, -1.524, 1.716], a = 0.2, v = 0.2, t = 0.2)
movej(p[-0.484094393418072, -0.172394008337896, 0.352275555716027, -0.838, -1.524, 1.716], a = 0.2, v = 0.2, t = 0.2)
movej(p[-0.484091958981182, -0.172391406695141, 0.352308362803249, -0.838, -1.524, 1.716], a = 0.2, v = 0.2, t = 0.2)
movej(p[-0.484036925953309, -0.172332593801332, 0.353050001805301, -0.838, -1.524, 1.716], a = 0.2, v = 0.2, t = 0.2)
movej(p[-0.483937409124085, -0.17222624179899, 0.354391115764776, -0.838, -1.524, 1.716], a = 0.2, v = 0.2, t = 0.2)
movej(p[-0.48380786757322, -0.172087802869328, 0.356136850466658, -0.838, -1.524, 1.716], a = 0.2, v = 0.2, t = 0.2)
movej(p[-0.483667112858499, -0.171937380615459, 0.358033696600593, -0.838, -1.524, 1.716], a = 0.2, v = 0.2, t = 0.2)
movej(p[-0.483535653266448, -0.171796891906657, 0.359805279310589, -0.838, -1.524, 1.716], a = 0.2, v = 0.2, t = 0.2)
movej(p[-0.483432742979742, -0.171686913371989, 0.361192124361344, -0.838, -1.524, 1.716], a = 0.2, v = 0.2, t = 0.2)
movej(p[-0.483373283702978, -0.171623370218625, 0.361993412612891, -0.838, -1.524, 1.716], a = 0.2, v = 0.2, t = 0.2)
movej(p[-0.483365906621494, -0.171615486452699, 0.362092828028715, -0.838, -1.524, 1.716], a = 0.2, v = 0.2, t = 0.2)
movej(p[-0.483411718297511, -0.1716644446391, 0.361475458296444, -0.838, -1.524, 1.716], a = 0.2, v = 0.2, t = 0.2)
movej(p[-0.483504079357695, -0.171763149388494, 0.360230777290319, -0.838, -1.524, 1.716], a = 0.2, v = 0.2, t = 0.2)
movej(p[-0.483629489742929, -0.171897173409237, 0.358540715221299, -0.838, -1.524, 1.716], a = 0.2, v = 0.2, t = 0.2)
movej(p[-0.483769728061946, -0.172047043799491, 0.356650828166472, -0.838, -1.524, 1.716], a = 0.2, v = 0.2, t = 0.2)
movej(p[-0.483904286028221, -0.172190843689982, 0.354837490981829, -0.838, -1.524, 1.716], a = 0.2, v = 0.2, t = 0.2)
movej(p[-0.484013688146633, -0.172307759938665, 0.353363160365149, -0.838, -1.524, 1.716], a = 0.2, v = 0.2, t = 0.2)
movej(p[-0.484081926150363, -0.172380684773481, 0.352443567768771, -0.838, -1.524, 1.716], a = 0.2, v = 0.2, t = 0.2)
movej(p[-0.484099114750222, -0.172399053948089, 0.352211929849899, -0.838, -1.524, 1.716], a = 0.2, v = 0.2, t = 0.2)
movej(p[-0.484062671967689, -0.172360108144414, 0.352703042004073, -0.838, -1.524, 1.716], a = 0.2, v = 0.2, t = 0.2)
movej(p[-0.483977983072249, -0.172269602511583, 0.35384433097774, -0.838, -1.524, 1.716], a = 0.2, v = 0.2, t = 0.2)
movej(p[-0.483857294019165, -0.172140624101033, 0.355470767180632, -0.838, -1.524, 1.716], a = 0.2, v = 0.2, t = 0.2)
movej(p[-0.483718309804, -0.171992093950986, 0.35734375361477, -0.838, -1.524, 1.716], a = 0.2, v = 0.2, t = 0.2)
movej(p[-0.483581096088392, -0.171845455904762, 0.359192880349109, -0.838, -1.524, 1.716], a = 0.2, v = 0.2, t = 0.2)
movej(p[-0.483465792304792, -0.171722232643338, 0.360746743298449, -0.838, -1.524, 1.716], a = 0.2, v = 0.2, t = 0.2)
movej(p[-0.483389144428169, -0.171640320315366, 0.361779669468867, -0.838, -1.524, 1.716], a = 0.2, v = 0.2, t = 0.2)
movej(p[-0.483362291851566, -0.171611623407395, 0.362141541582469, -0.838, -1.524, 1.716], a = 0.2, v = 0.2, t = 0.2)
movej(p[-0.483389144428169, -0.171640320315366, 0.361779669468867, -0.838, -1.524, 1.716], a = 0.2, v = 0.2, t = 0.2)
movej(p[-0.483465792304792, -0.171722232643338, 0.360746743298449, -0.838, -1.524, 1.716], a = 0.2, v = 0.2, t = 0.2)
movej(p[-0.483581096088392, -0.171845455904762, 0.359192880349109, -0.838, -1.524, 1.716], a = 0.2, v = 0.2, t = 0.2)
movej(p[-0.483718309804, -0.171992093950986, 0.35734375361477, -0.838, -1.524, 1.716], a = 0.2, v = 0.2, t = 0.2)
movej(p[-0.483857294019165, -0.172140624101033, 0.355470767180632, -0.838, -1.524, 1.716], a = 0.2, v = 0.2, t = 0.2)
movej(p[-0.483977983072249, -0.172269602511583, 0.35384433097774, -0.838, -1.524, 1.716], a = 0.2, v = 0.2, t = 0.2)
movej(p[-0.484062671967689, -0.172360108144414, 0.352703042004073, -0.838, -1.524, 1.716], a = 0.2, v = 0.2, t = 0.2)
movej(p[-0.484099114750222, -0.172399053948089, 0.352211929849899, -0.838, -1.524, 1.716], a = 0.2, v = 0.2, t = 0.2)
movej(p[-0.484081926150363, -0.172380684773481, 0.352443567768771, -0.838, -1.524, 1.716], a = 0.2, v = 0.2, t = 0.2)
movej(p[-0.484013688146633, -0.172307759938665, 0.353363160365149, -0.838, -1.524, 1.716], a = 0.2, v = 0.2, t = 0.2)
movej(p[-0.483904286028221, -0.172190843689982, 0.354837490981829, -0.838, -1.524, 1.716], a = 0.2, v = 0.2, t = 0.2)
movej(p[-0.483769728061946, -0.172047043799491, 0.356650828166472, -0.838, -1.524, 1.716], a = 0.2, v = 0.2, t = 0.2)
movej(p[-0.483629489742929, -0.171897173409237, 0.358540715221299, -0.838, -1.524, 1.716], a = 0.2, v = 0.2, t = 0.2)
movej(p[-0.483504079357695, -0.171763149388494, 0.360230777290319, -0.838, -1.524, 1.716], a = 0.2, v = 0.2, t = 0.2)
movej(p[-0.483411718297511, -0.1716644446391, 0.361475458296444, -0.838, -1.524, 1.716], a = 0.2, v = 0.2, t = 0.2)
movej(p[-0.483365906621494, -0.171615486452699, 0.362092828028715, -0.838, -1.524, 1.716], a = 0.2, v = 0.2, t = 0.2)
movej(p[-0.483373283702978, -0.171623370218625, 0.361993412612891, -0.838, -1.524, 1.716], a = 0.2, v = 0.2, t = 0.2)
movej(p[-0.483432742979742, -0.171686913371989, 0.361192124361344, -0.838, -1.524, 1.716], a = 0.2, v = 0.2, t = 0.2)
movej(p[-0.483535653266448, -0.171796891906657, 0.359805279310589, -0.838, -1.524, 1.716], a = 0.2, v = 0.2, t = 0.2)
movej(p[-0.483667112858499, -0.171937380615459, 0.358033696600593, -0.838, -1.524, 1.716], a = 0.2, v = 0.2, t = 0.2)
movej(p[-0.48380786757322, -0.172087802869328, 0.356136850466658, -0.838, -1.524, 1.716], a = 0.2, v = 0.2, t = 0.2)
movej(p[-0.483937409124085, -0.17222624179899, 0.354391115764776, -0.838, -1.524, 1.716], a = 0.2, v = 0.2, t = 0.2)
movej(p[-0.484036925953309, -0.172332593801332, 0.353050001805301, -0.838, -1.524, 1.716], a = 0.2, v = 0.2, t = 0.2)
movej(p[-0.484091958981182, -0.172391406695141, 0.352308362803249, -0.838, -1.524, 1.716], a = 0.2, v = 0.2, t = 0.2)
movej(p[-0.484094393418072, -0.172394008337896, 0.352275555716027, -0.838, -1.524, 1.716], a = 0.2, v = 0.2, t = 0.2)
movej(p[-0.484043934180719, -0.172340083378962, 0.352955557160268, -0.838, -1.524, 1.716], a = 0.2, v = 0.2, t = 0.2)
movej(p[-0.483947958350608, -0.172237515584264, 0.354248951720147, -0.838, -1.524, 1.716], a = 0.2, v = 0.2, t = 0.2)
movej(p[-0.483820408611744, -0.172101205271403, 0.355967844259756, -0.838, -1.524, 1.716], a = 0.2, v = 0.2, t = 0.2)
movej(p[-0.483679801438652, -0.171950940692852, 0.357862702085375, -0.838, -1.524, 1.716], a = 0.2, v = 0.2, t = 0.2)
movej(p[-0.483546718888675, -0.171808717555546, 0.359656156186852, -0.838, -1.524, 1.716], a = 0.2, v = 0.2, t = 0.2)
movej(p[-0.4834404889153, -0.171695191326211, 0.361087738174728, -0.838, -1.524, 1.716], a = 0.2, v = 0.2, t = 0.2)
movej(p[-0.483376603389646, -0.171626917913292, 0.361948675675769, -0.838, -1.524, 1.716], a = 0.2, v = 0.2, t = 0.2)
movej(p[-0.483364283663567, -0.171613752024195, 0.362114699420197, -0.838, -1.524, 1.716], a = 0.2, v = 0.2, t = 0.2)
movej(p[-0.48340544777825, -0.171657743438062, 0.361559961399895, -0.838, -1.524, 1.716], a = 0.2, v = 0.2, t = 0.2)
movej(p[-0.483494046526877, -0.171752427466834, 0.36036598225584, -0.838, -1.524, 1.716], a = 0.2, v = 0.2, t = 0.2)
movej(p[-0.48361717001685, -0.17188400752014, 0.358706738965726, -0.838, -1.524, 1.716], a = 0.2, v = 0.2, t = 0.2)
movej(p[-0.483756891940163, -0.172033326046779, 0.356823810990006, -0.838, -1.524, 1.716], a = 0.2, v = 0.2, t = 0.2)
movej(p[-0.48389285155192, -0.172178623852797, 0.354991584876357, -0.838, -1.524, 1.716], a = 0.2, v = 0.2, t = 0.2)
movej(p[-0.484005278273741, -0.17229877244551, 0.353476493939189, -0.838, -1.524, 1.716], a = 0.2, v = 0.2, t = 0.2)
movej(p[-0.484077721213917, -0.172376191026903, 0.352500234555791, -0.838, -1.524, 1.716], a = 0.2, v = 0.2, t = 0.2)
movej(p[-0.484099778687555, -0.172399763487022, 0.352202982462475, -0.838, -1.524, 1.716], a = 0.2, v = 0.2, t = 0.2)
movej(p[-0.484068131007988, -0.172365942131199, 0.352629474596363, -0.838, -1.524, 1.716], a = 0.2, v = 0.2, t = 0.2)
movej(p[-0.483987351965734, -0.172279614894309, 0.353718073399643, -0.838, -1.524, 1.716], a = 0.2, v = 0.2, t = 0.2)
movej(p[-0.483869318661985, -0.172153474639492, 0.355308720052838, -0.838, -1.524, 1.716], a = 0.2, v = 0.2, t = 0.2)
movej(p[-0.483731145925783, -0.172005811703698, 0.357170770791235, -0.838, -1.524, 1.716], a = 0.2, v = 0.2, t = 0.2)
movej(p[-0.483592973189582, -0.171858148767903, 0.359032821529631, -0.838, -1.524, 1.716], a = 0.2, v = 0.2, t = 0.2)
movej(p[-0.483474939885832, -0.171732008513086, 0.360623468182826, -0.838, -1.524, 1.716], a = 0.2, v = 0.2, t = 0.2)
movej(p[-0.483394160843579, -0.171645681276196, 0.361712066986107, -0.838, -1.524, 1.716], a = 0.2, v = 0.2, t = 0.2)
movej(p[-0.483362513164011, -0.171611859920373, 0.362138559119995, -0.838, -1.524, 1.716], a = 0.2, v = 0.2, t = 0.2)
movej(p[-0.483384570637649, -0.171635432380492, 0.361841307026679, -0.838, -1.524, 1.716], a = 0.2, v = 0.2, t = 0.2)
movej(p[-0.483457013577825, -0.171712850961886, 0.36086504764328, -0.838, -1.524, 1.716], a = 0.2, v = 0.2, t = 0.2)
movej(p[-0.483569440299646, -0.171832999554599, 0.359349956706112, -0.838, -1.524, 1.716], a = 0.2, v = 0.2, t = 0.2)
movej(p[-0.483705399911403, -0.171978297360616, 0.357517730592463, -0.838, -1.524, 1.716], a = 0.2, v = 0.2, t = 0.2)
movej(p[-0.483845121834716, -0.172127615887255, 0.355634802616743, -0.838, -1.524, 1.716], a = 0.2, v = 0.2, t = 0.2)
movej(p[-0.48396824532469, -0.172259195940561, 0.353975559326629, -0.838, -1.524, 1.716], a = 0.2, v = 0.2, t = 0.2)
movej(p[-0.484056844073317, -0.172353879969333, 0.352781580182574, -0.838, -1.524, 1.716], a = 0.2, v = 0.2, t = 0.2)
movej(p[-0.484098008187999, -0.1723978713832, 0.352226842162273, -0.838, -1.524, 1.716], a = 0.2, v = 0.2, t = 0.2)
movej(p[-0.48408568846192, -0.172384705494103, 0.3523928659067, -0.838, -1.524, 1.716], a = 0.2, v = 0.2, t = 0.2)
movej(p[-0.484021802936266, -0.172316432081184, 0.353253803407742, -0.838, -1.524, 1.716], a = 0.2, v = 0.2, t = 0.2)
movej(p[-0.483915572962892, -0.172202905851849, 0.354685385395617, -0.838, -1.524, 1.716], a = 0.2, v = 0.2, t = 0.2)
movej(p[-0.483782490412914, -0.172060682714543, 0.356478839497095, -0.838, -1.524, 1.716], a = 0.2, v = 0.2, t = 0.2)
movej(p[-0.483641883239823, -0.171910418135992, 0.358373697322713, -0.838, -1.524, 1.716], a = 0.2, v = 0.2, t = 0.2)
movej(p[-0.483514333500958, -0.171774107823131, 0.360092589862322, -0.838, -1.524, 1.716], a = 0.2, v = 0.2, t = 0.2)
movej(p[-0.483418357670847, -0.171671540028433, 0.361385984422202, -0.838, -1.524, 1.716], a = 0.2, v = 0.2, t = 0.2)
movej(p[-0.483367898433494, -0.171617615069499, 0.362065985866443, -0.838, -1.524, 1.716], a = 0.2, v = 0.2, t = 0.2)
movej(p[-0.483370332870384, -0.171620216712254, 0.36203317877922, -0.838, -1.524, 1.716], a = 0.2, v = 0.2, t = 0.2)
movej(p[-0.483425365898257, -0.171679029606063, 0.361291539777168, -0.838, -1.524, 1.716], a = 0.2, v = 0.2, t = 0.2)
movej(p[-0.483524882727481, -0.171785381608405, 0.359950425817693, -0.838, -1.524, 1.716], a = 0.2, v = 0.2, t = 0.2)
movej(p[-0.483654424278346, -0.171923820538067, 0.358204691115811, -0.838, -1.524, 1.716], a = 0.2, v = 0.2, t = 0.2)
movej(p[-0.483795178993067, -0.172074242791936, 0.356307844981876, -0.838, -1.524, 1.716], a = 0.2, v = 0.2, t = 0.2)
movej(p[-0.483926638585118, -0.172214731500738, 0.35453626227188, -0.838, -1.524, 1.716], a = 0.2, v = 0.2, t = 0.2)
movej(p[-0.484029548871825, -0.172324710035406, 0.353149417221126, -0.838, -1.524, 1.716], a = 0.2, v = 0.2, t = 0.2)
movej(p[-0.484089008148588, -0.17238825318877, 0.352348128969579, -0.838, -1.524, 1.716], a = 0.2, v = 0.2, t = 0.2)
movej(p[-0.484096385230073, -0.172396136954696, 0.352248713553754, -0.838, -1.524, 1.716], a = 0.2, v = 0.2, t = 0.2)
movej(p[-0.484050573554055, -0.172347178768295, 0.352866083286025, -0.838, -1.524, 1.716], a = 0.2, v = 0.2, t = 0.2)
movej(p[-0.483958212493871, -0.172248474018901, 0.354110764292151, -0.838, -1.524, 1.716], a = 0.2, v = 0.2, t = 0.2)
movej(p[-0.483832802108637, -0.172114449998159, 0.35580082636117, -0.838, -1.524, 1.716], a = 0.2, v = 0.2, t = 0.2)
movej(p[-0.48369256378962, -0.171964579607904, 0.357690713415998, -0.838, -1.524, 1.716], a = 0.2, v = 0.2, t = 0.2)
movej(p[-0.483558005823346, -0.171820779717413, 0.35950405060064, -0.838, -1.524, 1.716], a = 0.2, v = 0.2, t = 0.2)
movej(p[-0.483448603704933, -0.17170386346873, 0.36097838121732, -0.838, -1.524, 1.716], a = 0.2, v = 0.2, t = 0.2)
movej(p[-0.483380365701203, -0.171630938633914, 0.361897973813699, -0.838, -1.524, 1.716], a = 0.2, v = 0.2, t = 0.2)
movej(p[-0.483363177101344, -0.171612569459306, 0.36212961173257, -0.838, -1.524, 1.716], a = 0.2, v = 0.2, t = 0.2)
movej(p[-0.483399619883877, -0.171651515262981, 0.361638499578396, -0.838, -1.524, 1.716], a = 0.2, v = 0.2, t = 0.2)
movej(p[-0.483484308779317, -0.171742020895812, 0.360497210604729, -0.838, -1.524, 1.716], a = 0.2, v = 0.2, t = 0.2)
movej(p[-0.483604997832401, -0.171870999306362, 0.358870774401837, -0.838, -1.524, 1.716], a = 0.2, v = 0.2, t = 0.2)
movej(p[-0.483743982047566, -0.172019529456409, 0.3569977879677, -0.838, -1.524, 1.716], a = 0.2, v = 0.2, t = 0.2)
movej(p[-0.483881195763175, -0.172166167502633, 0.35514866123336, -0.838, -1.524, 1.716], a = 0.2, v = 0.2, t = 0.2)
movej(p[-0.483996499546775, -0.172289390764058, 0.35359479828402, -0.838, -1.524, 1.716], a = 0.2, v = 0.2, t = 0.2)
movej(p[-0.484073147423397, -0.172371303092029, 0.352561872113602, -0.838, -1.524, 1.716], a = 0.2, v = 0.2, t = 0.2)
movej(p[-0.4841, -0.1724, 0.3522, -0.838, -1.524, 1.716], a = 0.2, v = 0.2, t = 0.2)
movej(p[-0.484073147423397, -0.172371303092029, 0.352561872113602, -0.838, -1.524, 1.716], a = 0.2, v = 0.2, t = 0.2)
movej(p[-0.483996499546775, -0.172289390764058, 0.35359479828402, -0.838, -1.524, 1.716], a = 0.2, v = 0.2, t = 0.2)
movej(p[-0.483881195763175, -0.172166167502633, 0.35514866123336, -0.838, -1.524, 1.716], a = 0.2, v = 0.2, t = 0.2)
movej(p[-0.483743982047566, -0.172019529456409, 0.3569977879677, -0.838, -1.524, 1.716], a = 0.2, v = 0.2, t = 0.2)
movej(p[-0.483604997832401, -0.171870999306362, 0.358870774401837, -0.838, -1.524, 1.716], a = 0.2, v = 0.2, t = 0.2)
movej(p[-0.483484308779317, -0.171742020895812, 0.360497210604729, -0.838, -1.524, 1.716], a = 0.2, v = 0.2, t = 0.2)
movej(p[-0.483399619883877, -0.171651515262981, 0.361638499578396, -0.838, -1.524, 1.716], a = 0.2, v = 0.2, t = 0.2)
movej(p[-0.483363177101344, -0.171612569459306, 0.36212961173257, -0.838, -1.524, 1.716], a = 0.2, v = 0.2, t = 0.2)
movej(p[-0.483380365701203, -0.171630938633914, 0.361897973813699, -0.838, -1.524, 1.716], a = 0.2, v = 0.2, t = 0.2)
movej(p[-0.483448603704933, -0.17170386346873, 0.36097838121732, -0.838, -1.524, 1.716], a = 0.2, v = 0.2, t = 0.2)
movej(p[-0.483558005823346, -0.171820779717413, 0.35950405060064, -0.838, -1.524, 1.716], a = 0.2, v = 0.2, t = 0.2)
movej(p[-0.48369256378962, -0.171964579607904, 0.357690713415998, -0.838, -1.524, 1.716], a = 0.2, v = 0.2, t = 0.2)
movej(p[-0.483832802108637, -0.172114449998159, 0.35580082636117, -0.838, -1.524, 1.716], a = 0.2, v = 0.2, t = 0.2)
movej(p[-0.483958212493871, -0.172248474018901, 0.354110764292151, -0.838, -1.524, 1.716], a = 0.2, v = 0.2, t = 0.2)
movej(p[-0.484050573554055, -0.172347178768295, 0.352866083286025, -0.838, -1.524, 1.716], a = 0.2, v = 0.2, t = 0.2)
movej(p[-0.484096385230073, -0.172396136954696, 0.352248713553754, -0.838, -1.524, 1.716], a = 0.2, v = 0.2, t = 0.2)
movej(p[-0.484089008148588, -0.17238825318877, 0.352348128969579, -0.838, -1.524, 1.716], a = 0.2, v = 0.2, t = 0.2)
movej(p[-0.484029548871825, -0.172324710035406, 0.353149417221126, -0.838, -1.524, 1.716], a = 0.2, v = 0.2, t = 0.2)
movej(p[-0.483926638585118, -0.172214731500738, 0.35453626227188, -0.838, -1.524, 1.716], a = 0.2, v = 0.2, t = 0.2)
movej(p[-0.483795178993067, -0.172074242791936, 0.356307844981876, -0.838, -1.524, 1.716], a = 0.2, v = 0.2, t = 0.2)
end
def moving():
set_payload_mass(0)
set_tcp(p[0,0,0,0,0,0])
movej(p[-0.4841, -0.1724, 0.3522, -0.838, -1.524, 1.716], a = 0.2, v = 0.2, t = 0.2)
movej(p[-0.484070491674063, -0.172368464936296, 0.352597661663299, -0.838, -1.524, 1.716], a = 0.2, v = 0.2, t = 0.2)
movej(p[-0.4841, -0.1724, 0.3522, -0.838, -1.524, 1.716], a = 0.2, v = 0.2, t = 0.2)
movej(p[-0.484070491674063, -0.172368464936296, 0.352597661663299, -0.838, -1.524, 1.716], a = 0.2, v = 0.2, t = 0.2)
movej(p[-0.4841, -0.1724, 0.3522, -0.838, -1.524, 1.716], a = 0.2, v = 0.2, t = 0.2)
movej(p[-0.484070491674063, -0.172368464936296, 0.352597661663299, -0.838, -1.524, 1.716], a = 0.2, v = 0.2, t = 0.2)
movej(p[-0.4841, -0.1724, 0.3522, -0.838, -1.524, 1.716], a = 0.2, v = 0.2, t = 0.2)
movej(p[-0.484070491674063, -0.172368464936296, 0.352597661663299, -0.838, -1.524, 1.716], a = 0.2, v = 0.2, t = 0.2)
movej(p[-0.4841, -0.1724, 0.3522, -0.838, -1.524, 1.716], a = 0.2, v = 0.2, t = 0.2)
movej(p[-0.484070491674063, -0.172368464936296, 0.352597661663299, -0.838, -1.524, 1.716], a = 0.2, v = 0.2, t = 0.2)
movej(p[-0.4841, -0.1724, 0.3522, -0.838, -1.524, 1.716], a = 0.2, v = 0.2, t = 0.2)
movej(p[-0.484094475303676, -0.172394095847698, 0.352274452204911, -0.838, -1.524, 1.716], a = 0.2, v = 0.2, t = 0.2)
movej(p[-0.484075523581343, -0.172373842453034, 0.352529850408165, -0.838, -1.524, 1.716], a = 0.2, v = 0.2, t = 0.2)
movej(p[-0.484073632835359, -0.172371821843827, 0.352555330579241, -0.838, -1.524, 1.716], a = 0.2, v = 0.2, t = 0.2)
movej(p[-0.484074386773086, -0.172372627564705, 0.352545170323743, -0.838, -1.524, 1.716], a = 0.2, v = 0.2, t = 0.2)
movej(p[-0.484078726710124, -0.172377265584199, 0.352486684234614, -0.838, -1.524, 1.716], a = 0.2, v = 0.2, t = 0.2)
movej(p[-0.484088631917433, -0.172387851116708, 0.352353199155786, -0.838, -1.524, 1.716], a = 0.2, v = 0.2, t = 0.2)
movej(p[-0.484124117154789, -0.172425773607565, 0.351874991122586, -0.838, -1.524, 1.716], a = 0.2, v = 0.2, t = 0.2)
movej(p[-0.48419015531282, -0.172496347503382, 0.350985044203206, -0.838, -1.524, 1.716], a = 0.2, v = 0.2, t = 0.2)
movej(p[-0.484260267095247, -0.172571274814743, 0.350040200091209, -0.838, -1.524, 1.716], a = 0.2, v = 0.2, t = 0.2)
movej(p[-0.484330858387971, -0.17264671457089, 0.349088893977182, -0.838, -1.524, 1.716], a = 0.2, v = 0.2, t = 0.2)
movej(p[-0.484393482432691, -0.172713639859836, 0.348244956512246, -0.838, -1.524, 1.716], a = 0.2, v = 0.2, t = 0.2)
movej(p[-0.484431939158469, -0.172754737931609, 0.347726703949552, -0.838, -1.524, 1.716], a = 0.2, v = 0.2, t = 0.2)
movej(p[-0.484418498116005, -0.172740373710091, 0.347907838837185, -0.838, -1.524, 1.716], a = 0.2, v = 0.2, t = 0.2)
movej(p[-0.484352613401268, -0.172669963796606, 0.348795717915915, -0.838, -1.524, 1.716], a = 0.2, v = 0.2, t = 0.2)
movej(p[-0.484271679440304, -0.172583471000631, 0.349886404442928, -0.838, -1.524, 1.716], a = 0.2, v = 0.2, t = 0.2)
movej(p[-0.484184814305825, -0.172490639656852, 0.351057020964264, -0.838, -1.524, 1.716], a = 0.2, v = 0.2, t = 0.2)
movej(p[-0.484117311059411, -0.172418500045122, 0.351966711785226, -0.838, -1.524, 1.716], a = 0.2, v = 0.2, t = 0.2)
movej(p[-0.484079614173026, -0.17237821400124, 0.35247472456009, -0.838, -1.524, 1.716], a = 0.2, v = 0.2, t = 0.2)
movej(p[-0.484075144399355, -0.172373437227465, 0.352534960360538, -0.838, -1.524, 1.716], a = 0.2, v = 0.2, t = 0.2)
movej(p[-0.484079159007099, -0.172377727572882, 0.352480858491246, -0.838, -1.524, 1.716], a = 0.2, v = 0.2, t = 0.2)
movej(p[-0.484103374645925, -0.172403606428723, 0.352154522418031, -0.838, -1.524, 1.716], a = 0.2, v = 0.2, t = 0.2)
movej(p[-0.484154897289574, -0.172458667832515, 0.351460190241599, -0.838, -1.524, 1.716], a = 0.2, v = 0.2, t = 0.2)
movej(p[-0.484223300539929, -0.172531769263688, 0.350538370739906, -0.838, -1.524, 1.716], a = 0.2, v = 0.2, t = 0.2)
movej(p[-0.484299623824966, -0.172613334705959, 0.349509818847784, -0.838, -1.524, 1.716], a = 0.2, v = 0.2, t = 0.2)
movej(p[-0.484361783113553, -0.172679763317652, 0.348672144554045, -0.838, -1.524, 1.716], a = 0.2, v = 0.2, t = 0.2)
movej(p[-0.484416941551812, -0.172738710235481, 0.347928815489924, -0.838, -1.524, 1.716], a = 0.2, v = 0.2, t = 0.2)
movej(p[-0.484427771107431, -0.17275028360386, 0.347782873659493, -0.838, -1.524, 1.716], a = 0.2, v = 0.2, t = 0.2)
movej(p[-0.484396499659019, -0.1727168643201, 0.348204295607174, -0.838, -1.524, 1.716], a = 0.2, v = 0.2, t = 0.2)
movej(p[-0.484324536229139, -0.172639958183491, 0.349174092988544, -0.838, -1.524, 1.716], a = 0.2, v = 0.2, t = 0.2)
movej(p[-0.484237707980068, -0.172547166258542, 0.3503442124328, -0.838, -1.524, 1.716], a = 0.2, v = 0.2, t = 0.2)
movej(p[-0.484156850003043, -0.172460754665356, 0.35143387498103, -0.838, -1.524, 1.716], a = 0.2, v = 0.2, t = 0.2)
movej(p[-0.484108064625479, -0.17240861853291, 0.35209131906742, -0.838, -1.524, 1.716], a = 0.2, v = 0.2, t = 0.2)
movej(p[-0.484091457339641, -0.172390870599058, 0.352315123051525, -0.838, -1.524, 1.716], a = 0.2, v = 0.2, t = 0.2)
movej(p[-0.484088794950933, -0.172388025347935, 0.352351002075096, -0.838, -1.524, 1.716], a = 0.2, v = 0.2, t = 0.2)
movej(p[-0.484097295561928, -0.172397109811412, 0.352236445691441, -0.838, -1.524, 1.716], a = 0.2, v = 0.2, t = 0.2)
movej(p[-0.484129700867764, -0.172431740829995, 0.351799743594348, -0.838, -1.524, 1.716], a = 0.2, v = 0.2, t = 0.2)
movej(p[-0.484184806928744, -0.172490631773086, 0.351057120379679, -0.838, -1.524, 1.716], a = 0.2, v = 0.2, t = 0.2)
movej(p[-0.484254269528, -0.172564865313046, 0.350121024824274, -0.838, -1.524, 1.716], a = 0.2, v = 0.2, t = 0.2)
movej(p[-0.484327885424133, -0.172643537413222, 0.349128958389759, -0.838, -1.524, 1.716], a = 0.2, v = 0.2, t = 0.2)
movej(p[-0.484394279157492, -0.172714491306556, 0.348234219647337, -0.838, -1.524, 1.716], a = 0.2, v = 0.2, t = 0.2)
movej(p[-0.484424244862481, -0.172746515163748, 0.347830394228257, -0.838, -1.524, 1.716], a = 0.2, v = 0.2, t = 0.2)
movej(p[-0.484417155487175, -0.172738938864693, 0.347925932442865, -0.838, -1.524, 1.716], a = 0.2, v = 0.2, t = 0.2)
movej(p[-0.484378226628182, -0.172697336231901, 0.348450547592172, -0.838, -1.524, 1.716], a = 0.2, v = 0.2, t = 0.2)
movej(p[-0.484303887778064, -0.172617891522664, 0.349452356737437, -0.838, -1.524, 1.716], a = 0.2, v = 0.2, t = 0.2)
movej(p[-0.484214580829615, -0.172522450652363, 0.350655879761411, -0.838, -1.524, 1.716], a = 0.2, v = 0.2, t = 0.2)
movej(p[-0.484138831481517, -0.172441498567082, 0.351676697134182, -0.838, -1.524, 1.716], a = 0.2, v = 0.2, t = 0.2)
movej(p[-0.48410631293748, -0.172406746532691, 0.352114925257908, -0.838, -1.524, 1.716], a = 0.2, v = 0.2, t = 0.2)
movej(p[-0.484090785287518, -0.172390152387982, 0.352324179795907, -0.838, -1.524, 1.716], a = 0.2, v = 0.2, t = 0.2)
movej(p[-0.484088328719384, -0.172387527093928, 0.352357285129376, -0.838, -1.524, 1.716], a = 0.2, v = 0.2, t = 0.2)
movej(p[-0.484105785254842, -0.172406182606915, 0.352122036442602, -0.838, -1.524, 1.716], a = 0.2, v = 0.2, t = 0.2)
movej(p[-0.484148848820465, -0.172452203932833, 0.351541700941034, -0.838, -1.524, 1.716], a = 0.2, v = 0.2, t = 0.2)
movej(p[-0.484219184128461, -0.172527370122301, 0.350593844541936, -0.838, -1.524, 1.716], a = 0.2, v = 0.2, t = 0.2)
movej(p[-0.484295603315557, -0.172609038053529, 0.349564000249408, -0.838, -1.524, 1.716], a = 0.2, v = 0.2, t = 0.2)
movej(p[-0.484370023313571, -0.172688569484191, 0.348561097534569, -0.838, -1.524, 1.716], a = 0.2, v = 0.2, t = 0.2)
movej(p[-0.484417974343219, -0.17273981396271, 0.347914897331708, -0.838, -1.524, 1.716], a = 0.2, v = 0.2, t = 0.2)
movej(p[-0.484428368651031, -0.1727509221889, 0.347774821010811, -0.838, -1.524, 1.716], a = 0.2, v = 0.2, t = 0.2)
movej(p[-0.484406134127437, -0.172727160518399, 0.348074459074107, -0.838, -1.524, 1.716], a = 0.2, v = 0.2, t = 0.2)
movej(p[-0.484334738732832, -0.172650861431767, 0.349036601468458, -0.838, -1.524, 1.716], a = 0.2, v = 0.2, t = 0.2)
movej(p[-0.484240275204425, -0.172549909809084, 0.350309615868093, -0.838, -1.524, 1.716], a = 0.2, v = 0.2, t = 0.2)
movej(p[-0.484153568677199, -0.172457247966272, 0.351478094957989, -0.838, -1.524, 1.716], a = 0.2, v = 0.2, t = 0.2)
movej(p[-0.484111106933883, -0.172411869797978, 0.352050320149934, -0.838, -1.524, 1.716], a = 0.2, v = 0.2, t = 0.2)
movej(p[-0.484091769390188, -0.172391204082356, 0.352310917779436, -0.838, -1.524, 1.716], a = 0.2, v = 0.2, t = 0.2)
movej(p[-0.484088962410683, -0.172388204309421, 0.352348745345157, -0.838, -1.524, 1.716], a = 0.2, v = 0.2, t = 0.2)
movej(p[-0.484107307515606, -0.172407809422013, 0.352101522071547, -0.838, -1.524, 1.716], a = 0.2, v = 0.2, t = 0.2)
movej(p[-0.484142403464372, -0.172445315886543, 0.35162856018984, -0.838, -1.524, 1.716], a = 0.2, v = 0.2, t = 0.2)
movej(p[-0.484205890627626, -0.172513163576102, 0.350772991121252, -0.838, -1.524, 1.716], a = 0.2, v = 0.2, t = 0.2)
movej(p[-0.484279240948825, -0.172591551860705, 0.349784503641707, -0.838, -1.524, 1.716], a = 0.2, v = 0.2, t = 0.2)
movej(p[-0.484348688793919, -0.172665769633133, 0.348848606917134, -0.838, -1.524, 1.716], a = 0.2, v = 0.2, t = 0.2)
movej(p[-0.484393969320069, -0.172714160188387, 0.348238395094802, -0.838, -1.524, 1.716], a = 0.2, v = 0.2, t = 0.2)
movej(p[-0.484419383365783, -0.172741319762002, 0.347895908987286, -0.838, -1.524, 1.716], a = 0.2, v = 0.2, t = 0.2)
movej(p[-0.484411932513484, -0.172733357158417, 0.347996318557269, -0.838, -1.524, 1.716], a = 0.2, v = 0.2, t = 0.2)
movej(p[-0.48435704702724, -0.172674701939927, 0.348735969251004, -0.838, -1.524, 1.716], a = 0.2, v = 0.2, t = 0.2)
movej(p[-0.484265194985679, -0.172576541170382, 0.349973790593438, -0.838, -1.524, 1.716], a = 0.2, v = 0.2, t = 0.2)
movej(p[-0.484176854434904, -0.172482133073418, 0.351164290197938, -0.838, -1.524, 1.716], a = 0.2, v = 0.2, t = 0.2)
movej(p[-0.484123150757114, -0.172424740834229, 0.351888014542059, -0.838, -1.524, 1.716], a = 0.2, v = 0.2, t = 0.2)
movej(p[-0.48409520622491, -0.172394876971226, 0.352264602125511, -0.838, -1.524, 1.716], a = 0.2, v = 0.2, t = 0.2)
movej(p[-0.484090906271654, -0.172390281681743, 0.352322549383087, -0.838, -1.524, 1.716], a = 0.2, v = 0.2, t = 0.2)
movej(p[-0.48410517856366, -0.172405534246005, 0.352130212366399, -0.838, -1.524, 1.716], a = 0.2, v = 0.2, t = 0.2)
movej(p[-0.484143453960775, -0.172446438534811, 0.351614403434626, -0.838, -1.524, 1.716], a = 0.2, v = 0.2, t = 0.2)
movej(p[-0.484205573413122, -0.172512824574168, 0.350777265984133, -0.838, -1.524, 1.716], a = 0.2, v = 0.2, t = 0.2)
movej(p[-0.484280118821522, -0.17259249002885, 0.349772673207224, -0.838, -1.524, 1.716], a = 0.2, v = 0.2, t = 0.2)
movej(p[-0.484347464198392, -0.172664460927989, 0.348865109876161, -0.838, -1.524, 1.716], a = 0.2, v = 0.2, t = 0.2)
movej(p[-0.484395702934218, -0.17271601287338, 0.348215032472083, -0.838, -1.524, 1.716], a = 0.2, v = 0.2, t = 0.2)
movej(p[-0.484422334198377, -0.172744473268373, 0.347856142820956, -0.838, -1.524, 1.716], a = 0.2, v = 0.2, t = 0.2)
movej(p[-0.484430972760795, -0.172753705158272, 0.347739727369025, -0.838, -1.524, 1.716], a = 0.2, v = 0.2, t = 0.2)
movej(p[-0.484382070087635, -0.172701443673948, 0.348398752160527, -0.838, -1.524, 1.716], a = 0.2, v = 0.2, t = 0.2)
movej(p[-0.484296783648595, -0.172610299456077, 0.349548093782876, -0.838, -1.524, 1.716], a = 0.2, v = 0.2, t = 0.2)
movej(p[-0.484199310270942, -0.172506131256896, 0.350861669672168, -0.838, -1.524, 1.716], a = 0.2, v = 0.2, t = 0.2)
movej(p[-0.484129976032903, -0.172432034894464, 0.351796035399338, -0.838, -1.524, 1.716], a = 0.2, v = 0.2, t = 0.2)
movej(p[-0.484089677249879, -0.17238896824634, 0.352339111991364, -0.838, -1.524, 1.716], a = 0.2, v = 0.2, t = 0.2)
movej(p[-0.484080288438274, -0.172378934577446, 0.352465637991084, -0.838, -1.524, 1.716], a = 0.2, v = 0.2, t = 0.2)
movej(p[-0.484085875102082, -0.172384904953381, 0.35239035069668, -0.838, -1.524, 1.716], a = 0.2, v = 0.2, t = 0.2)
movej(p[-0.484104842906453, -0.172405175534655, 0.352134735767819, -0.838, -1.524, 1.716], a = 0.2, v = 0.2, t = 0.2)
movej(p[-0.484151609324356, -0.172455154038042, 0.351504499692432, -0.838, -1.524, 1.716], a = 0.2, v = 0.2, t = 0.2)
movej(p[-0.48422698170359, -0.172535703262885, 0.35048876244741, -0.838, -1.524, 1.716], a = 0.2, v = 0.2, t = 0.2)
movej(p[-0.484303563186479, -0.172617544636963, 0.349456731015733, -0.838, -1.524, 1.716], a = 0.2, v = 0.2, t = 0.2)
movej(p[-0.484368983145082, -0.172687457873196, 0.3485751151082, -0.838, -1.524, 1.716], a = 0.2, v = 0.2, t = 0.2)
movej(p[-0.484420689109206, -0.172742715188571, 0.347878312458685, -0.838, -1.524, 1.716], a = 0.2, v = 0.2, t = 0.2)
movej(p[-0.484442503139155, -0.172766027484415, 0.347584341074091, -0.838, -1.524, 1.716], a = 0.2, v = 0.2, t = 0.2)
movej(p[-0.484417303028804, -0.172739096540011, 0.347923944134548, -0.838, -1.524, 1.716], a = 0.2, v = 0.2, t = 0.2)
movej(p[-0.484335668245099, -0.172651854786274, 0.349024075126064, -0.838, -1.524, 1.716], a = 0.2, v = 0.2, t = 0.2)
movej(p[-0.484239692414987, -0.172549286991576, 0.350317469685944, -0.838, -1.524, 1.716], a = 0.2, v = 0.2, t = 0.2)
movej(p[-0.484155672620838, -0.172459496416314, 0.351449741681396, -0.838, -1.524, 1.716], a = 0.2, v = 0.2, t = 0.2)
movej(p[-0.484099846379655, -0.172399835828458, 0.352202070226619, -0.838, -1.524, 1.716], a = 0.2, v = 0.2, t = 0.2)
movej(p[-0.484075134071441, -0.172373426190193, 0.35253509954212, -0.838, -1.524, 1.716], a = 0.2, v = 0.2, t = 0.2)
movej(p[-0.48407621407617, -0.172374580373525, 0.352520545125244, -0.838, -1.524, 1.716], a = 0.2, v = 0.2, t = 0.2)
movej(p[-0.484079390647457, -0.172377975123132, 0.352477736847189, -0.838, -1.524, 1.716], a = 0.2, v = 0.2, t = 0.2)
movej(p[-0.484098174172333, -0.172398048767933, 0.352224605315417, -0.838, -1.524, 1.716], a = 0.2, v = 0.2, t = 0.2)
movej(p[-0.484140880834754, -0.172443688677256, 0.351649079531666, -0.838, -1.524, 1.716], a = 0.2, v = 0.2, t = 0.2)
movej(p[-0.484199295516779, -0.172506115489365, 0.350861868503, -0.838, -1.524, 1.716], a = 0.2, v = 0.2, t = 0.2)
movej(p[-0.484273914695993, -0.172585859781707, 0.349856281571933, -0.838, -1.524, 1.716], a = 0.2, v = 0.2, t = 0.2)
movej(p[-0.48433830924027, -0.172654677174475, 0.348988484407199, -0.838, -1.524, 1.716], a = 0.2, v = 0.2, t = 0.2)
movej(p[-0.48438800863823, -0.172707790105519, 0.348318722750788, -0.838, -1.524, 1.716], a = 0.2, v = 0.2, t = 0.2)
movej(p[-0.484391025864557, -0.172711014565783, 0.348278061845716, -0.838, -1.524, 1.716], a = 0.2, v = 0.2, t = 0.2)
movej(p[-0.484353609307269, -0.172671028105006, 0.348782296834779, -0.838, -1.524, 1.716], a = 0.2, v = 0.2, t = 0.2)
movej(p[-0.484283475393597, -0.172596077142347, 0.349727439193024, -0.838, -1.524, 1.716], a = 0.2, v = 0.2, t = 0.2)
movej(p[-0.484198661087772, -0.172505437485495, 0.350870418228761, -0.838, -1.524, 1.716], a = 0.2, v = 0.2, t = 0.2)
movej(p[-0.484133353998515, -0.172435644870881, 0.351750513080432, -0.838, -1.524, 1.716], a = 0.2, v = 0.2, t = 0.2)
movej(p[-0.484094972223885, -0.172394626898171, 0.352267755582501, -0.838, -1.524, 1.716], a = 0.2, v = 0.2, t = 0.2)
movej(p[-0.484085870675833, -0.172384900223122, 0.352390410345929, -0.838, -1.524, 1.716], a = 0.2, v = 0.2, t = 0.2)
movej(p[-0.484081206147211, -0.172379915317927, 0.352453270713355, -0.838, -1.524, 1.716], a = 0.2, v = 0.2, t = 0.2)
movej(p[-0.484085815347722, -0.172384841094877, 0.352391155961548, -0.838, -1.524, 1.716], a = 0.2, v = 0.2, t = 0.2)
movej(p[-0.484103845672578, -0.172404109807177, 0.352148174743731, -0.838, -1.524, 1.716], a = 0.2, v = 0.2, t = 0.2)
movej(p[-0.484140676489597, -0.17244347029694, 0.351651833338684, -0.838, -1.524, 1.716], a = 0.2, v = 0.2, t = 0.2)
movej(p[-0.484198166823312, -0.172504909273178, 0.350877079061621, -0.838, -1.524, 1.716], a = 0.2, v = 0.2, t = 0.2)
movej(p[-0.484271657309059, -0.172583447349333, 0.349886702689175, -0.838, -1.524, 1.716], a = 0.2, v = 0.2, t = 0.2)
movej(p[-0.484332156754312, -0.172648102113693, 0.349071396863997, -0.838, -1.524, 1.716], a = 0.2, v = 0.2, t = 0.2)
movej(p[-0.484368400355645, -0.172686835055687, 0.34858296892605, -0.838, -1.524, 1.716], a = 0.2, v = 0.2, t = 0.2)
movej(p[-0.484380771721294, -0.172700056131145, 0.348416249273712, -0.838, -1.524, 1.716], a = 0.2, v = 0.2, t = 0.2)
movej(p[-0.48437160938609, -0.172690264493865, 0.348539723220166, -0.838, -1.524, 1.716], a = 0.2, v = 0.2, t = 0.2)
movej(p[-0.484318966532618, -0.172634005940217, 0.349249151627491, -0.838, -1.524, 1.716], a = 0.2, v = 0.2, t = 0.2)
movej(p[-0.484241271110425, -0.172550974117484, 0.350296194786957, -0.838, -1.524, 1.716], a = 0.2, v = 0.2, t = 0.2)
movej(p[-0.484164721348987, -0.172469166643599, 0.351327798732345, -0.838, -1.524, 1.716], a = 0.2, v = 0.2, t = 0.2)
movej(p[-0.484120648451075, -0.172422066660827, 0.351921736251107, -0.838, -1.524, 1.716], a = 0.2, v = 0.2, t = 0.2)
movej(p[-0.484093398544863, -0.172392945133223, 0.352288962879005, -0.838, -1.524, 1.716], a = 0.2, v = 0.2, t = 0.2)
movej(p[-0.484084193865212, -0.172383108243127, 0.352413007469946, -0.838, -1.524, 1.716], a = 0.2, v = 0.2, t = 0.2)
movej(p[-0.484088009291755, -0.172387185726864, 0.352361589816881, -0.838, -1.524, 1.716], a = 0.2, v = 0.2, t = 0.2)
movej(p[-0.484092005456795, -0.172391456362866, 0.352307736486129, -0.838, -1.524, 1.716], a = 0.2, v = 0.2, t = 0.2)
movej(p[-0.484097349857248, -0.172397167835929, 0.352235713993981, -0.838, -1.524, 1.716], a = 0.2, v = 0.2, t = 0.2)
movej(p[-0.484110125044337, -0.172410820468733, 0.352063552341781, -0.838, -1.524, 1.716], a = 0.2, v = 0.2, t = 0.2)
movej(p[-0.484153568677199, -0.172457247966272, 0.351478094957989, -0.838, -1.524, 1.716], a = 0.2, v = 0.2, t = 0.2)
movej(p[-0.484199516829224, -0.172506352002342, 0.350858886040525, -0.838, -1.524, 1.716], a = 0.2, v = 0.2, t = 0.2)
movej(p[-0.484250684266399, -0.172561033802805, 0.350169340716365, -0.838, -1.524, 1.716], a = 0.2, v = 0.2, t = 0.2)
movej(p[-0.484295529544742, -0.17260895921587, 0.349564994403567, -0.838, -1.524, 1.716], a = 0.2, v = 0.2, t = 0.2)
movej(p[-0.484338353502759, -0.172654724477071, 0.348987887914704, -0.838, -1.524, 1.716], a = 0.2, v = 0.2, t = 0.2)
movej(p[-0.484357106043892, -0.172674765010055, 0.348735173927678, -0.838, -1.524, 1.716], a = 0.2, v = 0.2, t = 0.2)
movej(p[-0.484350142078971, -0.17266732273502, 0.348829022080216, -0.838, -1.524, 1.716], a = 0.2, v = 0.2, t = 0.2)
movej(p[-0.484315764879254, -0.172630584385805, 0.349292297917959, -0.838, -1.524, 1.716], a = 0.2, v = 0.2, t = 0.2)
movej(p[-0.48424571949056, -0.172555728028337, 0.350236247291215, -0.838, -1.524, 1.716], a = 0.2, v = 0.2, t = 0.2)
movej(p[-0.48417430196471, -0.172479405290407, 0.351198687931814, -0.838, -1.524, 1.716], a = 0.2, v = 0.2, t = 0.2)
movej(p[-0.484119233526846, -0.172420554554522, 0.351940804127862, -0.838, -1.524, 1.716], a = 0.2, v = 0.2, t = 0.2)
movej(p[-0.484099551016067, -0.172399520178238, 0.352206050621038, -0.838, -1.524, 1.716], a = 0.2, v = 0.2, t = 0.2)
movej(p[-0.48409121463366, -0.172390611223159, 0.352318393818706, -0.838, -1.524, 1.716], a = 0.2, v = 0.2, t = 0.2)
movej(p[-0.484089287739977, -0.172388551983499, 0.352344361125319, -0.838, -1.524, 1.716], a = 0.2, v = 0.2, t = 0.2)
movej(p[-0.484094105416811, -0.172393700555674, 0.352279436893861, -0.838, -1.524, 1.716], a = 0.2, v = 0.2, t = 0.2)
movej(p[-0.484097530153119, -0.172397360515168, 0.352233284281218, -0.838, -1.524, 1.716], a = 0.2, v = 0.2, t = 0.2)
movej(p[-0.484107492901664, -0.172408007541051, 0.352099023762147, -0.838, -1.524, 1.716], a = 0.2, v = 0.2, t = 0.2)
movej(p[-0.484138652218437, -0.17244130699157, 0.351679112928787, -0.838, -1.524, 1.716], a = 0.2, v = 0.2, t = 0.2)
movej(p[-0.484194183199311, -0.172500652039578, 0.350930763386166, -0.838, -1.524, 1.716], a = 0.2, v = 0.2, t = 0.2)
movej(p[-0.484249998197821, -0.172560300612574, 0.350178586350037, -0.838, -1.524, 1.716], a = 0.2, v = 0.2, t = 0.2)
movej(p[-0.484303334496953, -0.17261730024022, 0.349459812893624, -0.838, -1.524, 1.716], a = 0.2, v = 0.2, t = 0.2)
movej(p[-0.48435018634146, -0.172667370037616, 0.348828425587721, -0.838, -1.524, 1.716], a = 0.2, v = 0.2, t = 0.2)
movej(p[-0.484379318436241, -0.172698503029258, 0.34843583411063, -0.838, -1.524, 1.716], a = 0.2, v = 0.2, t = 0.2)
movej(p[-0.48436117081579, -0.17267910896508, 0.348680396033558, -0.838, -1.524, 1.716], a = 0.2, v = 0.2, t = 0.2)
movej(p[-0.484310844365904, -0.172625325913932, 0.349358608000314, -0.838, -1.524, 1.716], a = 0.2, v = 0.2, t = 0.2)
movej(p[-0.484246294902916, -0.172556342962079, 0.350228492888781, -0.838, -1.524, 1.716], a = 0.2, v = 0.2, t = 0.2)
movej(p[-0.484176072464267, -0.172481297394229, 0.351174828232016, -0.838, -1.524, 1.716], a = 0.2, v = 0.2, t = 0.2)
movej(p[-0.484124891748345, -0.172426601402988, 0.351864552503924, -0.838, -1.524, 1.716], a = 0.2, v = 0.2, t = 0.2)
movej(p[-0.484094589648439, -0.17239421804607, 0.352272911265966, -0.838, -1.524, 1.716], a = 0.2, v = 0.2, t = 0.2)
movej(p[-0.484089364461624, -0.172388633974664, 0.352343327204994, -0.838, -1.524, 1.716], a = 0.2, v = 0.2, t = 0.2)
movej(p[-0.484085364608043, -0.172384359396779, 0.352397230243455, -0.838, -1.524, 1.716], a = 0.2, v = 0.2, t = 0.2)
movej(p[-0.484088767655732, -0.172387996178001, 0.352351369912135, -0.838, -1.524, 1.716], a = 0.2, v = 0.2, t = 0.2)
movej(p[-0.484098793257011, -0.17239871037357, 0.352216262373721, -0.838, -1.524, 1.716], a = 0.2, v = 0.2, t = 0.2)
movej(p[-0.484126981675529, -0.172428834873875, 0.351836388116621, -0.838, -1.524, 1.716], a = 0.2, v = 0.2, t = 0.2)
movej(p[-0.484172791138422, -0.172477790695146, 0.351219048208975, -0.838, -1.524, 1.716], a = 0.2, v = 0.2, t = 0.2)
movej(p[-0.484242510460114, -0.172552298590159, 0.350279492997099, -0.838, -1.524, 1.716], a = 0.2, v = 0.2, t = 0.2)
movej(p[-0.484305931229635, -0.172620075325826, 0.349424818667254, -0.838, -1.524, 1.716], a = 0.2, v = 0.2, t = 0.2)
movej(p[-0.4843490945334, -0.172666203240259, 0.348843139069263, -0.838, -1.524, 1.716], a = 0.2, v = 0.2, t = 0.2)
movej(p[-0.484384165178777, -0.172703682663471, 0.348370518182433, -0.838, -1.524, 1.716], a = 0.2, v = 0.2, t = 0.2)
movej(p[-0.484406362816963, -0.172727404915143, 0.348071377196216, -0.838, -1.524, 1.716], a = 0.2, v = 0.2, t = 0.2)
movej(p[-0.484381863529354, -0.172701222928502, 0.34840153579217, -0.838, -1.524, 1.716], a = 0.2, v = 0.2, t = 0.2)
movej(p[-0.484313596017298, -0.172628266558623, 0.349321526050212, -0.838, -1.524, 1.716], a = 0.2, v = 0.2, t = 0.2)
movej(p[-0.484226531701619, -0.172535222353164, 0.350494826787775, -0.838, -1.524, 1.716], a = 0.2, v = 0.2, t = 0.2)
movej(p[-0.484154959257058, -0.172458734056149, 0.351459355152106, -0.838, -1.524, 1.716], a = 0.2, v = 0.2, t = 0.2)
movej(p[-0.484101541514947, -0.172401647391728, 0.352179226154709, -0.838, -1.524, 1.716], a = 0.2, v = 0.2, t = 0.2)
movej(p[-0.48407994319086, -0.1723785656172, 0.352470290632544, -0.838, -1.524, 1.716], a = 0.2, v = 0.2, t = 0.2)
movej(p[-0.484079704911128, -0.172378310971561, 0.352473501750475, -0.838, -1.524, 1.716], a = 0.2, v = 0.2, t = 0.2)
movej(p[-0.484080647702142, -0.172379318516846, 0.352460796460333, -0.838, -1.524, 1.716], a = 0.2, v = 0.2, t = 0.2)
movej(p[-0.484081558771706, -0.172380292161938, 0.352448518656479, -0.838, -1.524, 1.716], a = 0.2, v = 0.2, t = 0.2)
movej(p[-0.484086536826291, -0.172385612127185, 0.35238143313388, -0.838, -1.524, 1.716], a = 0.2, v = 0.2, t = 0.2)
movej(p[-0.484116839663904, -0.172417996272479, 0.351973064430297, -0.838, -1.524, 1.716], a = 0.2, v = 0.2, t = 0.2)
movej(p[-0.484163617737597, -0.172467987232216, 0.351342671278553, -0.838, -1.524, 1.716], a = 0.2, v = 0.2, t = 0.2)
movej(p[-0.484225358745663, -0.172533968834381, 0.350510633838891, -0.838, -1.524, 1.716], a = 0.2, v = 0.2, t = 0.2)
movej(p[-0.484284766382857, -0.172597456801384, 0.349710041495255, -0.838, -1.524, 1.716], a = 0.2, v = 0.2, t = 0.2)
movej(p[-0.484326055907925, -0.172641582239272, 0.349153613412884, -0.838, -1.524, 1.716], a = 0.2, v = 0.2, t = 0.2)
movej(p[-0.484355475708884, -0.172673022697785, 0.348757144734575, -0.838, -1.524, 1.716], a = 0.2, v = 0.2, t = 0.2)
movej(p[-0.48436305934865, -0.172681127209157, 0.348654945687107, -0.838, -1.524, 1.716], a = 0.2, v = 0.2, t = 0.2)
movej(p[-0.484349832241549, -0.172666991616852, 0.348833197527681, -0.838, -1.524, 1.716], a = 0.2, v = 0.2, t = 0.2)
movej(p[-0.484289709027451, -0.172602738924554, 0.349643433166652, -0.838, -1.524, 1.716], a = 0.2, v = 0.2, t = 0.2)
movej(p[-0.484217273464357, -0.172525328226926, 0.350619593134635, -0.838, -1.524, 1.716], a = 0.2, v = 0.2, t = 0.2)
movej(p[-0.484154917945402, -0.17245868990706, 0.351459911878435, -0.838, -1.524, 1.716], a = 0.2, v = 0.2, t = 0.2)
movej(p[-0.484112560956643, -0.172413423688242, 0.352030725371475, -0.838, -1.524, 1.716], a = 0.2, v = 0.2, t = 0.2)
movej(p[-0.484095318872944, -0.172394997356332, 0.352263084052112, -0.838, -1.524, 1.716], a = 0.2, v = 0.2, t = 0.2)
movej(p[-0.484090513810919, -0.172389862265396, 0.352327838283209, -0.838, -1.524, 1.716], a = 0.2, v = 0.2, t = 0.2)
movej(p[-0.484096048982699, -0.172395777612645, 0.352253244908407, -0.838, -1.524, 1.716], a = 0.2, v = 0.2, t = 0.2)
movej(p[-0.484093758398898, -0.172393329703325, 0.352284113395021, -0.838, -1.524, 1.716], a = 0.2, v = 0.2, t = 0.2)
movej(p[-0.484097186897518, -0.172396993683539, 0.352237910080516, -0.838, -1.524, 1.716], a = 0.2, v = 0.2, t = 0.2)
movej(p[-0.48411843901517, -0.172419705472932, 0.351951511168146, -0.838, -1.524, 1.716], a = 0.2, v = 0.2, t = 0.2)
movej(p[-0.484155112700353, -0.17245889803848, 0.351457287311457, -0.838, -1.524, 1.716], a = 0.2, v = 0.2, t = 0.2)
movej(p[-0.484205824233893, -0.172513092622209, 0.350773885859995, -0.838, -1.524, 1.716], a = 0.2, v = 0.2, t = 0.2)
movej(p[-0.484260126930699, -0.172571125023191, 0.350042088984109, -0.838, -1.524, 1.716], a = 0.2, v = 0.2, t = 0.2)
movej(p[-0.484310342724363, -0.172624789817849, 0.349365368248591, -0.838, -1.524, 1.716], a = 0.2, v = 0.2, t = 0.2)
movej(p[-0.484344978121932, -0.172661804098872, 0.348898612871294, -0.838, -1.524, 1.716], a = 0.2, v = 0.2, t = 0.2)
movej(p[-0.484358625722678, -0.172676389065835, 0.348714694352018, -0.838, -1.524, 1.716], a = 0.2, v = 0.2, t = 0.2)
movej(p[-0.484346630588184, -0.17266357006244, 0.348876343818149, -0.838, -1.524, 1.716], a = 0.2, v = 0.2, t = 0.2)
movej(p[-0.484297418077602, -0.172610977459947, 0.349539544057115, -0.838, -1.524, 1.716], a = 0.2, v = 0.2, t = 0.2)
movej(p[-0.484224812841634, -0.172533385435703, 0.350517990579662, -0.838, -1.524, 1.716], a = 0.2, v = 0.2, t = 0.2)
movej(p[-0.484156631641431, -0.172460521305884, 0.351436817677339, -0.838, -1.524, 1.716], a = 0.2, v = 0.2, t = 0.2)
movej(p[-0.484122625508913, -0.172424179510095, 0.351895092919666, -0.838, -1.524, 1.716], a = 0.2, v = 0.2, t = 0.2)
movej(p[-0.484099759654685, -0.172399743146906, 0.352203238954248, -0.838, -1.524, 1.716], a = 0.2, v = 0.2, t = 0.2)
movej(p[-0.484094272433936, -0.172393879044135, 0.352277186128846, -0.838, -1.524, 1.716], a = 0.2, v = 0.2, t = 0.2)
movej(p[-0.484087605765398, -0.172386754484868, 0.352367027840127, -0.838, -1.524, 1.716], a = 0.2, v = 0.2, t = 0.2)
movej(p[-0.484095879162283, -0.172395596128354, 0.35225553345128, -0.838, -1.524, 1.716], a = 0.2, v = 0.2, t = 0.2)
movej(p[-0.484115191623901, -0.172416235039172, 0.351995273834192, -0.838, -1.524, 1.716], a = 0.2, v = 0.2, t = 0.2)
movej(p[-0.484158152057925, -0.172462146150042, 0.351416328160137, -0.838, -1.524, 1.716], a = 0.2, v = 0.2, t = 0.2)
movej(p[-0.484222430044314, -0.172530838979309, 0.350550101758973, -0.838, -1.524, 1.716], a = 0.2, v = 0.2, t = 0.2)
movej(p[-0.484281896698159, -0.172594390016439, 0.349748714092011, -0.838, -1.524, 1.716], a = 0.2, v = 0.2, t = 0.2)
movej(p[-0.484330474779734, -0.172646304615062, 0.349094063578805, -0.838, -1.524, 1.716], a = 0.2, v = 0.2, t = 0.2)
movej(p[-0.484370554463438, -0.172689137115338, 0.348553939624629, -0.838, -1.524, 1.716], a = 0.2, v = 0.2, t = 0.2)
movej(p[-0.484392029147639, -0.172712086757949, 0.348264541349164, -0.838, -1.524, 1.716], a = 0.2, v = 0.2, t = 0.2)
movej(p[-0.484364106894221, -0.172682246703918, 0.34864082869806, -0.838, -1.524, 1.716], a = 0.2, v = 0.2, t = 0.2)
movej(p[-0.484298937756388, -0.172612601515728, 0.349519064481456, -0.838, -1.524, 1.716], a = 0.2, v = 0.2, t = 0.2)
movej(p[-0.484214824273304, -0.172522710816639, 0.350652599052689, -0.838, -1.524, 1.716], a = 0.2, v = 0.2, t = 0.2)
movej(p[-0.484145800610396, -0.172448946360752, 0.351582779390852, -0.838, -1.524, 1.716], a = 0.2, v = 0.2, t = 0.2)
movej(p[-0.484097945556577, -0.172397804450027, 0.352227686199153, -0.838, -1.524, 1.716], a = 0.2, v = 0.2, t = 0.2)
movej(p[-0.484084072881075, -0.172382978949366, 0.352414637882766, -0.838, -1.524, 1.716], a = 0.2, v = 0.2, t = 0.2)
movej(p[-0.484086466744017, -0.172385537231409, 0.35238237758033, -0.838, -1.524, 1.716], a = 0.2, v = 0.2, t = 0.2)
movej(p[-0.484085431739485, -0.172384431139049, 0.352396325563171, -0.838, -1.524, 1.716], a = 0.2, v = 0.2, t = 0.2)
movej(p[-0.484088281506062, -0.172387476637826, 0.352357921388038, -0.838, -1.524, 1.716], a = 0.2, v = 0.2, t = 0.2)
movej(p[-0.484108866514236, -0.172409475498267, 0.35208051261172, -0.838, -1.524, 1.716], a = 0.2, v = 0.2, t = 0.2)
movej(p[-0.48415076317311, -0.17245424977009, 0.351515902640627, -0.838, -1.524, 1.716], a = 0.2, v = 0.2, t = 0.2)
movej(p[-0.484214101319318, -0.172521938207578, 0.350662341763439, -0.838, -1.524, 1.716], a = 0.2, v = 0.2, t = 0.2)
movej(p[-0.48428174915653, -0.17259423234112, 0.349750702400327, -0.838, -1.524, 1.716], a = 0.2, v = 0.2, t = 0.2)
movej(p[-0.484344292053354, -0.172661070908641, 0.348907858504965, -0.838, -1.524, 1.716], a = 0.2, v = 0.2, t = 0.2)
movej(p[-0.484382645499991, -0.172702058607691, 0.348390997758093, -0.838, -1.524, 1.716], a = 0.2, v = 0.2, t = 0.2)
movej(p[-0.484392803741195, -0.172712914553371, 0.348254102730502, -0.838, -1.524, 1.716], a = 0.2, v = 0.2, t = 0.2)
movej(p[-0.484370938071675, -0.172689547071166, 0.348548770023006, -0.838, -1.524, 1.716], a = 0.2, v = 0.2, t = 0.2)
movej(p[-0.484309280424629, -0.172623654555556, 0.349379684068469, -0.838, -1.524, 1.716], a = 0.2, v = 0.2, t = 0.2)
movej(p[-0.484226531701619, -0.172535222353164, 0.350494826787775, -0.838, -1.524, 1.716], a = 0.2, v = 0.2, t = 0.2)
movej(p[-0.484152468754349, -0.172456072496772, 0.351492917796488, -0.838, -1.524, 1.716], a = 0.2, v = 0.2, t = 0.2)
movej(p[-0.48411103242536, -0.172411790171942, 0.352051324245634, -0.838, -1.524, 1.716], a = 0.2, v = 0.2, t = 0.2)
movej(p[-0.484088134702141, -0.172387319750885, 0.352359899754812, -0.838, -1.524, 1.716], a = 0.2, v = 0.2, t = 0.2)
movej(p[-0.484084009438175, -0.172382911148979, 0.352415492855342, -0.838, -1.524, 1.716], a = 0.2, v = 0.2, t = 0.2)
movej(p[-0.484084456489313, -0.172383388905194, 0.352409468281143, -0.838, -1.524, 1.716], a = 0.2, v = 0.2, t = 0.2)
movej(p[-0.484088438637898, -0.172387644562041, 0.35235580383968, -0.838, -1.524, 1.716], a = 0.2, v = 0.2, t = 0.2)
movej(p[-0.484098509608228, -0.17239840724277, 0.352220084896459, -0.838, -1.524, 1.716], a = 0.2, v = 0.2, t = 0.2)
movej(p[-0.484131290628824, -0.172433439781552, 0.351778319572238, -0.838, -1.524, 1.716], a = 0.2, v = 0.2, t = 0.2)
movej(p[-0.484184275778877, -0.172490064141939, 0.351064278289619, -0.838, -1.524, 1.716], a = 0.2, v = 0.2, t = 0.2)
movej(p[-0.484239176019284, -0.172548735127961, 0.350324428765051, -0.838, -1.524, 1.716], a = 0.2, v = 0.2, t = 0.2)
movej(p[-0.484295551675987, -0.172608982867168, 0.349564696157319, -0.838, -1.524, 1.716], a = 0.2, v = 0.2, t = 0.2)
movej(p[-0.484348688793919, -0.172665769633133, 0.348848606917134, -0.838, -1.524, 1.716], a = 0.2, v = 0.2, t = 0.2)
movej(p[-0.484385316003488, -0.172704912530956, 0.348355009377564, -0.838, -1.524, 1.716], a = 0.2, v = 0.2, t = 0.2)
movej(p[-0.484390516845935, -0.172710470585934, 0.348284921509408, -0.838, -1.524, 1.716], a = 0.2, v = 0.2, t = 0.2)
movej(p[-0.484357910145774, -0.172675624340541, 0.348724337647353, -0.838, -1.524, 1.716], a = 0.2, v = 0.2, t = 0.2)
movej(p[-0.484298288573218, -0.172611907744326, 0.349527813038048, -0.838, -1.524, 1.716], a = 0.2, v = 0.2, t = 0.2)
movej(p[-0.484212884100873, -0.1725206373862, 0.350678745307051, -0.838, -1.524, 1.716], a = 0.2, v = 0.2, t = 0.2)
movej(p[-0.484143712158627, -0.172446714466618, 0.351610923895072, -0.838, -1.524, 1.716], a = 0.2, v = 0.2, t = 0.2)
movej(p[-0.484104798570193, -0.172405128153222, 0.352135333254469, -0.838, -1.524, 1.716], a = 0.2, v = 0.2, t = 0.2)
movej(p[-0.484090073399155, -0.17238939160457, 0.352333773383534, -0.838, -1.524, 1.716], a = 0.2, v = 0.2, t = 0.2)
movej(p[-0.484082401972119, -0.172381193276383, 0.35243715547445, -0.838, -1.524, 1.716], a = 0.2, v = 0.2, t = 0.2)
movej(p[-0.48408285197409, -0.172381674186105, 0.352431091134085, -0.838, -1.524, 1.716], a = 0.2, v = 0.2, t = 0.2)
movej(p[-0.484091056026408, -0.172390441722191, 0.352320531250146, -0.838, -1.524, 1.716], a = 0.2, v = 0.2, t = 0.2)
movej(p[-0.484112969646958, -0.172413860448875, 0.352025217757439, -0.838, -1.524, 1.716], a = 0.2, v = 0.2, t = 0.2)
movej(p[-0.484157778039894, -0.172461746443109, 0.351421368521719, -0.838, -1.524, 1.716], a = 0.2, v = 0.2, t = 0.2)
movej(p[-0.484220128394891, -0.17252837924434, 0.350581119368711, -0.838, -1.524, 1.716], a = 0.2, v = 0.2, t = 0.2)
movej(p[-0.484273678629386, -0.172585607501197, 0.349859462865239, -0.838, -1.524, 1.716], a = 0.2, v = 0.2, t = 0.2)
movej(p[-0.484307967304125, -0.172622251245221, 0.349397380012486, -0.838, -1.524, 1.716], a = 0.2, v = 0.2, t = 0.2)
movej(p[-0.484304839421576, -0.172618908528469, 0.349439532148796, -0.838, -1.524, 1.716], a = 0.2, v = 0.2, t = 0.2)
movej(p[-0.484273944204319, -0.17258589131677, 0.34985588391027, -0.838, -1.524, 1.716], a = 0.2, v = 0.2, t = 0.2)
movej(p[-0.484204584884203, -0.172511768149534, 0.350790587649853, -0.838, -1.524, 1.716], a = 0.2, v = 0.2, t = 0.2)
movej(p[-0.484142396824999, -0.172445308791154, 0.351628649663714, -0.838, -1.524, 1.716], a = 0.2, v = 0.2, t = 0.2)
movej(p[-0.4840966086081, -0.172396375675128, 0.352245703254963, -0.838, -1.524, 1.716], a = 0.2, v = 0.2, t = 0.2)
movej(p[-0.484079091137949, -0.172377655042236, 0.352481773113072, -0.838, -1.524, 1.716], a = 0.2, v = 0.2, t = 0.2)
movej(p[-0.484072181763431, -0.172370271107069, 0.352574885591533, -0.838, -1.524, 1.716], a = 0.2, v = 0.2, t = 0.2)
movej(p[-0.484075639401522, -0.172373966228159, 0.352528289586136, -0.838, -1.524, 1.716], a = 0.2, v = 0.2, t = 0.2)
movej(p[-0.484103454687259, -0.172403691967583, 0.352153443760769, -0.838, -1.524, 1.716], a = 0.2, v = 0.2, t = 0.2)
movej(p[-0.484148688737797, -0.172452032855112, 0.351543858255557, -0.838, -1.524, 1.716], a = 0.2, v = 0.2, t = 0.2)
movej(p[-0.4842233521795, -0.172531824450049, 0.350537674831995, -0.838, -1.524, 1.716], a = 0.2, v = 0.2, t = 0.2)
movej(p[-0.484302515640908, -0.172616425142202, 0.349470848004781, -0.838, -1.524, 1.716], a = 0.2, v = 0.2, t = 0.2)
movej(p[-0.48436832658483, -0.172686756218028, 0.348583963080208, -0.838, -1.524, 1.716], a = 0.2, v = 0.2, t = 0.2)
movej(p[-0.484407484133349, -0.172728603247564, 0.348056266053011, -0.838, -1.524, 1.716], a = 0.2, v = 0.2, t = 0.2)
movej(p[-0.48442214977134, -0.172744276174225, 0.347858628206351, -0.838, -1.524, 1.716], a = 0.2, v = 0.2, t = 0.2)
movej(p[-0.484407845610341, -0.172728989552094, 0.348051394697636, -0.838, -1.524, 1.716], a = 0.2, v = 0.2, t = 0.2)
movej(p[-0.484350540441371, -0.17266774845838, 0.348823653647762, -0.838, -1.524, 1.716], a = 0.2, v = 0.2, t = 0.2)
movej(p[-0.484272594198408, -0.172584448587606, 0.349874076931365, -0.838, -1.524, 1.716], a = 0.2, v = 0.2, t = 0.2)
movej(p[-0.484192781553829, -0.172499154124052, 0.350949652315173, -0.838, -1.524, 1.716], a = 0.2, v = 0.2, t = 0.2)
movej(p[-0.484132102107787, -0.172434306995804, 0.351767383876497, -0.838, -1.524, 1.716], a = 0.2, v = 0.2, t = 0.2)
movej(p[-0.484090393564491, -0.172389733760011, 0.352329458754487, -0.838, -1.524, 1.716], a = 0.2, v = 0.2, t = 0.2)
movej(p[-0.484078461872898, -0.172376982557002, 0.352490253248042, -0.838, -1.524, 1.716], a = 0.2, v = 0.2, t = 0.2)
movej(p[-0.484089227247908, -0.172388487336618, 0.352345176331729, -0.838, -1.524, 1.716], a = 0.2, v = 0.2, t = 0.2)
movej(p[-0.484121179600942, -0.172422634291974, 0.351914578341167, -0.838, -1.524, 1.716], a = 0.2, v = 0.2, t = 0.2)
movej(p[-0.484184061843514, -0.172489835512727, 0.351067161336678, -0.838, -1.524, 1.716], a = 0.2, v = 0.2, t = 0.2)
movej(p[-0.484267799095443, -0.172579324139754, 0.349938696951652, -0.838, -1.524, 1.716], a = 0.2, v = 0.2, t = 0.2)
movej(p[-0.484354826525713, -0.172672328926384, 0.348765893291168, -0.838, -1.524, 1.716], a = 0.2, v = 0.2, t = 0.2)
movej(p[-0.484427409630438, -0.17274989729933, 0.347787745014868, -0.838, -1.524, 1.716], a = 0.2, v = 0.2, t = 0.2)
movej(p[-0.484466655703935, -0.172791838934057, 0.347258855002681, -0.838, -1.524, 1.716], a = 0.2, v = 0.2, t = 0.2)
movej(p[-0.484471863923463, -0.1727974048728, 0.347188667719109, -0.838, -1.524, 1.716], a = 0.2, v = 0.2, t = 0.2)
movej(p[-0.484413946456729, -0.172735509426515, 0.347969178148749, -0.838, -1.524, 1.716], a = 0.2, v = 0.2, t = 0.2)
movej(p[-0.48432747230757, -0.17264309592233, 0.349134525653046, -0.838, -1.524, 1.716], a = 0.2, v = 0.2, t = 0.2)
movej(p[-0.484234771901637, -0.172544028519703, 0.350383779768299, -0.838, -1.524, 1.716], a = 0.2, v = 0.2, t = 0.2)
movej(p[-0.484159935836228, -0.172464052444643, 0.351392289512591, -0.838, -1.524, 1.716], a = 0.2, v = 0.2, t = 0.2)
movej(p[-0.484108642250959, -0.172409235831782, 0.352083534840361, -0.838, -1.524, 1.716], a = 0.2, v = 0.2, t = 0.2)
movej(p[-0.484083726158246, -0.172382608412367, 0.352419310407309, -0.838, -1.524, 1.716], a = 0.2, v = 0.2, t = 0.2)
movej(p[-0.484081983691599, -0.172380746266855, 0.352442792328527, -0.838, -1.524, 1.716], a = 0.2, v = 0.2, t = 0.2)
movej(p[-0.484081147868267, -0.172379853036176, 0.35245405609514, -0.838, -1.524, 1.716], a = 0.2, v = 0.2, t = 0.2)
movej(p[-0.484100325823558, -0.17240034820229, 0.352195609119329, -0.838, -1.524, 1.716], a = 0.2, v = 0.2, t = 0.2)
movej(p[-0.484146964713854, -0.172450190419015, 0.351567091638235, -0.838, -1.524, 1.716], a = 0.2, v = 0.2, t = 0.2)
movej(p[-0.484217671826757, -0.172525753950286, 0.35061422470218, -0.838, -1.524, 1.716], a = 0.2, v = 0.2, t = 0.2)
movej(p[-0.484297012338121, -0.172610543852821, 0.349545011904986, -0.838, -1.524, 1.716], a = 0.2, v = 0.2, t = 0.2)
movej(p[-0.484371085613305, -0.172689704746485, 0.34854678171469, -0.838, -1.524, 1.716], a = 0.2, v = 0.2, t = 0.2)
movej(p[-0.484432219487566, -0.172755037514714, 0.347722926163751, -0.838, -1.524, 1.716], a = 0.2, v = 0.2, t = 0.2)
movej(p[-0.484448316279365, -0.172772239891964, 0.347506001726421, -0.838, -1.524, 1.716], a = 0.2, v = 0.2, t = 0.2)
movej(p[-0.484420821896672, -0.172742857096358, 0.3478765229812, -0.838, -1.524, 1.716], a = 0.2, v = 0.2, t = 0.2)
movej(p[-0.484355711775492, -0.172673274978295, 0.348753963441269, -0.838, -1.524, 1.716], a = 0.2, v = 0.2, t = 0.2)
movej(p[-0.484271826981933, -0.17258362867595, 0.349884416134611, -0.838, -1.524, 1.716], a = 0.2, v = 0.2, t = 0.2)
movej(p[-0.484181583144135, -0.172487186567376, 0.351100564916395, -0.838, -1.524, 1.716], a = 0.2, v = 0.2, t = 0.2)
movej(p[-0.484113572354515, -0.172414504552551, 0.352017095517966, -0.838, -1.524, 1.716], a = 0.2, v = 0.2, t = 0.2)
movej(p[-0.484088339047298, -0.172387538131201, 0.352357145947794, -0.838, -1.524, 1.716], a = 0.2, v = 0.2, t = 0.2)
movej(p[-0.484076743012912, -0.172375145639542, 0.352513417039929, -0.838, -1.524, 1.716], a = 0.2, v = 0.2, t = 0.2)
movej(p[-0.484082745006408, -0.172381559871499, 0.352432532657614, -0.838, -1.524, 1.716], a = 0.2, v = 0.2, t = 0.2)
movej(p[-0.484107206744673, -0.172407701729771, 0.352102880086127, -0.838, -1.524, 1.716], a = 0.2, v = 0.2, t = 0.2)
movej(p[-0.484156816806176, -0.172460719188409, 0.351434322350401, -0.838, -1.524, 1.716], a = 0.2, v = 0.2, t = 0.2)
movej(p[-0.484225181695708, -0.172533779623999, 0.350513019808871, -0.838, -1.524, 1.716], a = 0.2, v = 0.2, t = 0.2)
movej(p[-0.484299586939559, -0.172613295287129, 0.349510315924863, -0.838, -1.524, 1.716], a = 0.2, v = 0.2, t = 0.2)
movej(p[-0.484369351999156, -0.172687852061492, 0.348570144337409, -0.838, -1.524, 1.716], a = 0.2, v = 0.2, t = 0.2)
movej(p[-0.484409003812134, -0.172730227303344, 0.348035786477351, -0.838, -1.524, 1.716], a = 0.2, v = 0.2, t = 0.2)
movej(p[-0.484417753030775, -0.172739577449733, 0.347917879794183, -0.838, -1.524, 1.716], a = 0.2, v = 0.2, t = 0.2)
movej(p[-0.484395149653107, -0.172715421590935, 0.34822248862827, -0.838, -1.524, 1.716], a = 0.2, v = 0.2, t = 0.2)
movej(p[-0.484341924010197, -0.172658540219779, 0.348939770853445, -0.838, -1.524, 1.716], a = 0.2, v = 0.2, t = 0.2)
movej(p[-0.484267725324628, -0.172579245302095, 0.34993969110581, -0.838, -1.524, 1.716], a = 0.2, v = 0.2, t = 0.2)
movej(p[-0.484190620068954, -0.172496844180636, 0.350978781032009, -0.838, -1.524, 1.716], a = 0.2, v = 0.2, t = 0.2)
movej(p[-0.484138553365545, -0.172441201349106, 0.351680445095359, -0.838, -1.524, 1.716], a = 0.2, v = 0.2, t = 0.2)
movej(p[-0.484101285677761, -0.172401373982726, 0.35218267388133, -0.838, -1.524, 1.716], a = 0.2, v = 0.2, t = 0.2)
movej(p[-0.484087891258452, -0.172387059586609, 0.352363180463535, -0.838, -1.524, 1.716], a = 0.2, v = 0.2, t = 0.2)
movej(p[-0.484091657996258, -0.172391085037491, 0.352312418952215, -0.838, -1.524, 1.716], a = 0.2, v = 0.2, t = 0.2)
movej(p[-0.484117737454721, -0.172418955726793, 0.351960965574191, -0.838, -1.524, 1.716], a = 0.2, v = 0.2, t = 0.2)
movej(p[-0.484164421839478, -0.172468846562702, 0.351331834998228, -0.838, -1.524, 1.716], a = 0.2, v = 0.2, t = 0.2)
movej(p[-0.484231002212999, -0.172539999915315, 0.350434581045785, -0.838, -1.524, 1.716], a = 0.2, v = 0.2, t = 0.2)
movej(p[-0.484303858269738, -0.1726178599876, 0.3494527543991, -0.838, -1.524, 1.716], a = 0.2, v = 0.2, t = 0.2)
movej(p[-0.484353078157402, -0.172670460473859, 0.348789454744718, -0.838, -1.524, 1.716], a = 0.2, v = 0.2, t = 0.2)
movej(p[-0.484387824211193, -0.172707593011371, 0.348321208136184, -0.838, -1.524, 1.716], a = 0.2, v = 0.2, t = 0.2)
movej(p[-0.484398284912738, -0.172718772191454, 0.348180237076544, -0.838, -1.524, 1.716], a = 0.2, v = 0.2, t = 0.2)
movej(p[-0.484371683156905, -0.172690343331525, 0.348538729066008, -0.838, -1.524, 1.716], a = 0.2, v = 0.2, t = 0.2)
movej(p[-0.484301800064004, -0.172615660416907, 0.349480491300116, -0.838, -1.524, 1.716], a = 0.2, v = 0.2, t = 0.2)
movej(p[-0.484207181616886, -0.17251454323514, 0.350755593423483, -0.838, -1.524, 1.716], a = 0.2, v = 0.2, t = 0.2)
movej(p[-0.48414288223696, -0.172445827542952, 0.351622108129353, -0.838, -1.524, 1.716], a = 0.2, v = 0.2, t = 0.2)
movej(p[-0.484094224114052, -0.172393827405468, 0.35227783729982, -0.838, -1.524, 1.716], a = 0.2, v = 0.2, t = 0.2)
movej(p[-0.484080649177558, -0.172379320093599, 0.35246077657725, -0.838, -1.524, 1.716], a = 0.2, v = 0.2, t = 0.2)
movej(p[-0.484075061038334, -0.17237334814091, 0.352536083754737, -0.838, -1.524, 1.716], a = 0.2, v = 0.2, t = 0.2)
movej(p[-0.484088800852599, -0.172388031654948, 0.352350922542763, -0.838, -1.524, 1.716], a = 0.2, v = 0.2, t = 0.2)
movej(p[-0.484121836161194, -0.172423335947141, 0.351905730369159, -0.838, -1.524, 1.716], a = 0.2, v = 0.2, t = 0.2)
movej(p[-0.484183235610388, -0.172488952530944, 0.35107829586325, -0.838, -1.524, 1.716], a = 0.2, v = 0.2, t = 0.2)
movej(p[-0.484256873637764, -0.172567648282417, 0.350085931182488, -0.838, -1.524, 1.716], a = 0.2, v = 0.2, t = 0.2)
movej(p[-0.484320309161448, -0.172635440785616, 0.349231058021811, -0.838, -1.524, 1.716], a = 0.2, v = 0.2, t = 0.2)
movej(p[-0.484370355282238, -0.172688924253658, 0.348556623840857, -0.838, -1.524, 1.716], a = 0.2, v = 0.2, t = 0.2)
movej(p[-0.484410147259765, -0.172731449287063, 0.348020377087898, -0.838, -1.524, 1.716], a = 0.2, v = 0.2, t = 0.2)
movej(p[-0.484428589963475, -0.172751158701878, 0.347771838548337, -0.838, -1.524, 1.716], a = 0.2, v = 0.2, t = 0.2)
movej(p[-0.484400948039154, -0.172721618230953, 0.348144348111432, -0.838, -1.524, 1.716], a = 0.2, v = 0.2, t = 0.2)
movej(p[-0.484333078889498, -0.172649087584434, 0.349058969937019, -0.838, -1.524, 1.716], a = 0.2, v = 0.2, t = 0.2)
movej(p[-0.484251975255659, -0.172562413461843, 0.350151943018595, -0.838, -1.524, 1.716], a = 0.2, v = 0.2, t = 0.2)
movej(p[-0.484170232766564, -0.172475056605122, 0.351253525475183, -0.838, -1.524, 1.716], a = 0.2, v = 0.2, t = 0.2)
movej(p[-0.484114807277955, -0.172415824294967, 0.352000453377357, -0.838, -1.524, 1.716], a = 0.2, v = 0.2, t = 0.2)
movej(p[-0.48408860093369, -0.172387818004891, 0.352353616700532, -0.838, -1.524, 1.716], a = 0.2, v = 0.2, t = 0.2)
movej(p[-0.48408341779624, -0.172382278870951, 0.352423465971691, -0.838, -1.524, 1.716], a = 0.2, v = 0.2, t = 0.2)
movej(p[-0.484081257049073, -0.172379969715912, 0.352452584746986, -0.838, -1.524, 1.716], a = 0.2, v = 0.2, t = 0.2)
movej(p[-0.484088854705294, -0.172388089206439, 0.352350196810228, -0.838, -1.524, 1.716], a = 0.2, v = 0.2, t = 0.2)
movej(p[-0.484126173147398, -0.172427970813129, 0.351847284046196, -0.838, -1.524, 1.716], a = 0.2, v = 0.2, t = 0.2)
movej(p[-0.484177437224341, -0.172482755890926, 0.351156436380088, -0.838, -1.524, 1.716], a = 0.2, v = 0.2, t = 0.2)
movej(p[-0.484248271960754, -0.172558455811348, 0.35020184955734, -0.838, -1.524, 1.716], a = 0.2, v = 0.2, t = 0.2)
movej(p[-0.484318730466011, -0.172633753659707, 0.349252332920798, -0.838, -1.524, 1.716], a = 0.2, v = 0.2, t = 0.2)
movej(p[-0.484376588916092, -0.172695586035865, 0.348472617814485, -0.838, -1.524, 1.716], a = 0.2, v = 0.2, t = 0.2)
movej(p[-0.484411903005158, -0.172733325623353, 0.347996716218932, -0.838, -1.524, 1.716], a = 0.2, v = 0.2, t = 0.2)
movej(p[-0.484406812818934, -0.172727885824864, 0.348065312855851, -0.838, -1.524, 1.716], a = 0.2, v = 0.2, t = 0.2)
movej(p[-0.48436966921366, -0.172688191063427, 0.348565869474528, -0.838, -1.524, 1.716], a = 0.2, v = 0.2, t = 0.2)
movej(p[-0.484286935244813, -0.172599774628566, 0.349680813363002, -0.838, -1.524, 1.716], a = 0.2, v = 0.2, t = 0.2)
movej(p[-0.4841946258242, -0.172501125065533, 0.350924798461217, -0.838, -1.524, 1.716], a = 0.2, v = 0.2, t = 0.2)
movej(p[-0.484116633843331, -0.17241777631541, 0.351975838120399, -0.838, -1.524, 1.716], a = 0.2, v = 0.2, t = 0.2)
movej(p[-0.484086196742835, -0.172385248685576, 0.35238601618455, -0.838, -1.524, 1.716], a = 0.2, v = 0.2, t = 0.2)
movej(p[-0.484069517899307, -0.172367424279194, 0.352610784498188, -0.838, -1.524, 1.716], a = 0.2, v = 0.2, t = 0.2)
movej(p[-0.484071837991434, -0.172369903723577, 0.352579518349911, -0.838, -1.524, 1.716], a = 0.2, v = 0.2, t = 0.2)
movej(p[-0.484089681676128, -0.172388972976599, 0.352339052342114, -0.838, -1.524, 1.716], a = 0.2, v = 0.2, t = 0.2)
movej(p[-0.48413124857946, -0.172433394844086, 0.351778886240108, -0.838, -1.524, 1.716], a = 0.2, v = 0.2, t = 0.2)
movej(p[-0.484201597166202, -0.172508575224334, 0.350830850893262, -0.838, -1.524, 1.716], a = 0.2, v = 0.2, t = 0.2)
movej(p[-0.484283925395568, -0.172596558052068, 0.349721374852659, -0.838, -1.524, 1.716], a = 0.2, v = 0.2, t = 0.2)
movej(p[-0.484365929033347, -0.172684193994102, 0.348616273090351, -0.838, -1.524, 1.716], a = 0.2, v = 0.2, t = 0.2)
movej(p[-0.484421670261043, -0.172743763729439, 0.34786509020838, -0.838, -1.524, 1.716], a = 0.2, v = 0.2, t = 0.2)
movej(p[-0.484452676134522, -0.172776899197627, 0.347447247215669, -0.838, -1.524, 1.716], a = 0.2, v = 0.2, t = 0.2)
movej(p[-0.484455317129693, -0.172779721585828, 0.347411656496804, -0.838, -1.524, 1.716], a = 0.2, v = 0.2, t = 0.2)
movej(p[-0.484402357061717, -0.172723124030245, 0.348125359767009, -0.838, -1.524, 1.716], a = 0.2, v = 0.2, t = 0.2)
movej(p[-0.484314518152483, -0.172629252029364, 0.349309099123234, -0.838, -1.524, 1.716], a = 0.2, v = 0.2, t = 0.2)
movej(p[-0.484211039830502, -0.172518666444719, 0.350703599161007, -0.838, -1.524, 1.716], a = 0.2, v = 0.2, t = 0.2)
movej(p[-0.484139509435306, -0.17244222308517, 0.351667560857468, -0.838, -1.524, 1.716], a = 0.2, v = 0.2, t = 0.2)
movej(p[-0.484096387590739, -0.172396139477501, 0.352248681740821, -0.838, -1.524, 1.716], a = 0.2, v = 0.2, t = 0.2)
movej(p[-0.484078018510301, -0.17237650874267, 0.352496228114533, -0.838, -1.524, 1.716], a = 0.2, v = 0.2, t = 0.2)
movej(p[-0.484080543685293, -0.172379207355747, 0.352462198217696, -0.838, -1.524, 1.716], a = 0.2, v = 0.2, t = 0.2)
movej(p[-0.484101254915331, -0.172401341107422, 0.352183088443614, -0.838, -1.524, 1.716], a = 0.2, v = 0.2, t = 0.2)
movej(p[-0.484144062569998, -0.1724470889455, 0.351606201662821, -0.838, -1.524, 1.716], a = 0.2, v = 0.2, t = 0.2)
movej(p[-0.484206783254486, -0.17251411751178, 0.350760961855938, -0.838, -1.524, 1.716], a = 0.2, v = 0.2, t = 0.2)
movej(p[-0.484280649971388, -0.172593057659997, 0.349765515297285, -0.838, -1.524, 1.716], a = 0.2, v = 0.2, t = 0.2)
movej(p[-0.484337888746625, -0.172654227799817, 0.348994151085901, -0.838, -1.524, 1.716], a = 0.2, v = 0.2, t = 0.2)
movej(p[-0.48438482911611, -0.172704392202405, 0.348361570795009, -0.838, -1.524, 1.716], a = 0.2, v = 0.2, t = 0.2)
movej(p[-0.484412094809276, -0.172733530601267, 0.347994131418121, -0.838, -1.524, 1.716], a = 0.2, v = 0.2, t = 0.2)
movej(p[-0.484421692392288, -0.172743787380737, 0.347864791962133, -0.838, -1.524, 1.716], a = 0.2, v = 0.2, t = 0.2)
movej(p[-0.484387506996689, -0.172707254009436, 0.348325482999064, -0.838, -1.524, 1.716], a = 0.2, v = 0.2, t = 0.2)
movej(p[-0.48432548787265, -0.172640975189296, 0.349161268399902, -0.838, -1.524, 1.716], a = 0.2, v = 0.2, t = 0.2)
movej(p[-0.484254800677867, -0.172565432944192, 0.350113866914335, -0.838, -1.524, 1.716], a = 0.2, v = 0.2, t = 0.2)
movej(p[-0.484182143802328, -0.172487785733587, 0.351093009344792, -0.838, -1.524, 1.716], a = 0.2, v = 0.2, t = 0.2)
movej(p[-0.484128043975263, -0.172429970136168, 0.351822072296742, -0.838, -1.524, 1.716], a = 0.2, v = 0.2, t = 0.2)
movej(p[-0.484095759653563, -0.172395468411346, 0.352257143981016, -0.838, -1.524, 1.716], a = 0.2, v = 0.2, t = 0.2)
movej(p[-0.484089576921571, -0.172388861027123, 0.352340464041019, -0.838, -1.524, 1.716], a = 0.2, v = 0.2, t = 0.2)
movej(p[-0.4840961948276, -0.172395933474698, 0.352251279465637, -0.838, -1.524, 1.716], a = 0.2, v = 0.2, t = 0.2)
movej(p[-0.484125058470386, -0.172426779576098, 0.351862305715527, -0.838, -1.524, 1.716], a = 0.2, v = 0.2, t = 0.2)
movej(p[-0.484182925772965, -0.172488621412775, 0.351082471310715, -0.838, -1.524, 1.716], a = 0.2, v = 0.2, t = 0.2)
movej(p[-0.484245431784382, -0.172555420561466, 0.350240124492432, -0.838, -1.524, 1.716], a = 0.2, v = 0.2, t = 0.2)
movej(p[-0.484305237783976, -0.172619334251829, 0.349434163716341, -0.838, -1.524, 1.716], a = 0.2, v = 0.2, t = 0.2)
movej(p[-0.484357932277018, -0.172675647991838, 0.348724039401105, -0.838, -1.524, 1.716], a = 0.2, v = 0.2, t = 0.2)
movej(p[-0.484404577563244, -0.172725497043789, 0.348095435726846, -0.838, -1.524, 1.716], a = 0.2, v = 0.2, t = 0.2)
movej(p[-0.484411327592802, -0.172732710689611, 0.348004470621366, -0.838, -1.524, 1.716], a = 0.2, v = 0.2, t = 0.2)
movej(p[-0.484377658592908, -0.172696729181925, 0.34845820257919, -0.838, -1.524, 1.716], a = 0.2, v = 0.2, t = 0.2)
movej(p[-0.484306705823191, -0.172620903121248, 0.349414380048592, -0.838, -1.524, 1.716], a = 0.2, v = 0.2, t = 0.2)
movej(p[-0.484227321049338, -0.172536065916118, 0.350484189338282, -0.838, -1.524, 1.716], a = 0.2, v = 0.2, t = 0.2)
movej(p[-0.484147197091921, -0.172450438757642, 0.351563960052637, -0.838, -1.524, 1.716], a = 0.2, v = 0.2, t = 0.2)
movej(p[-0.484096386115322, -0.172396137900748, 0.352248701623904, -0.838, -1.524, 1.716], a = 0.2, v = 0.2, t = 0.2)
movej(p[-0.484078874989462, -0.172377424047894, 0.352484685984756, -0.838, -1.524, 1.716], a = 0.2, v = 0.2, t = 0.2)
movej(p[-0.484073785540945, -0.172371985037782, 0.352553272680133, -0.838, -1.524, 1.716], a = 0.2, v = 0.2, t = 0.2)
movej(p[-0.484085979118931, -0.172385016114481, 0.352388948939316, -0.838, -1.524, 1.716], a = 0.2, v = 0.2, t = 0.2)
movej(p[-0.484114686293819, -0.172415695001206, 0.352002083790176, -0.838, -1.524, 1.716], a = 0.2, v = 0.2, t = 0.2)
movej(p[-0.484172830974662, -0.172477833267482, 0.351218511365729, -0.838, -1.524, 1.716], a = 0.2, v = 0.2, t = 0.2)
movej(p[-0.484236166170038, -0.172545518551463, 0.350364990254708, -0.838, -1.524, 1.716], a = 0.2, v = 0.2, t = 0.2)
movej(p[-0.484305156636079, -0.172619247530403, 0.349435257285915, -0.838, -1.524, 1.716], a = 0.2, v = 0.2, t = 0.2)
movej(p[-0.484368356093156, -0.172686787753092, 0.348583565418545, -0.838, -1.524, 1.716], a = 0.2, v = 0.2, t = 0.2)
movej(p[-0.484413134977766, -0.172734642212263, 0.347980113844489, -0.838, -1.524, 1.716], a = 0.2, v = 0.2, t = 0.2)
movej(p[-0.484413887440077, -0.172735446356387, 0.347969973472075, -0.838, -1.524, 1.716], a = 0.2, v = 0.2, t = 0.2)
movej(p[-0.484371461844461, -0.172690106818547, 0.348541711528483, -0.838, -1.524, 1.716], a = 0.2, v = 0.2, t = 0.2)
movej(p[-0.484303452530257, -0.172617426380475, 0.349458222246971, -0.838, -1.524, 1.716], a = 0.2, v = 0.2, t = 0.2)
movej(p[-0.484213481644474, -0.17252127597124, 0.350670692658369, -0.838, -1.524, 1.716], a = 0.2, v = 0.2, t = 0.2)
movej(p[-0.484138967219817, -0.172441643628375, 0.351674867890531, -0.838, -1.524, 1.716], a = 0.2, v = 0.2, t = 0.2)
movej(p[-0.484092555049366, -0.172392043703427, 0.35230033003765, -0.838, -1.524, 1.716], a = 0.2, v = 0.2, t = 0.2)
movej(p[-0.484073303079816, -0.17237146943949, 0.352559774448328, -0.838, -1.524, 1.716], a = 0.2, v = 0.2, t = 0.2)
movej(p[-0.484065268700372, -0.17236288323002, 0.352668047777703, -0.838, -1.524, 1.716], a = 0.2, v = 0.2, t = 0.2)
movej(p[-0.484064977305653, -0.172362571821266, 0.352671974686628, -0.838, -1.524, 1.716], a = 0.2, v = 0.2, t = 0.2)
movej(p[-0.484086922647653, -0.172386024448143, 0.352376233707632, -0.838, -1.524, 1.716], a = 0.2, v = 0.2, t = 0.2)
movej(p[-0.484126438722332, -0.172428254628702, 0.351843705091226, -0.838, -1.524, 1.716], a = 0.2, v = 0.2, t = 0.2)
movej(p[-0.484194515167977, -0.172501006809045, 0.350926289692454, -0.838, -1.524, 1.716], a = 0.2, v = 0.2, t = 0.2)
movej(p[-0.484273575350245, -0.172585497128474, 0.349860854681061, -0.838, -1.524, 1.716], a = 0.2, v = 0.2, t = 0.2)
movej(p[-0.484339408425411, -0.172655851855598, 0.348973671510241, -0.838, -1.524, 1.716], a = 0.2, v = 0.2, t = 0.2)
movej(p[-0.484388325852734, -0.172708129107454, 0.348314447887908, -0.838, -1.524, 1.716], a = 0.2, v = 0.2, t = 0.2)
movej(p[-0.484428508815579, -0.172751071980453, 0.347772932117911, -0.838, -1.524, 1.716], a = 0.2, v = 0.2, t = 0.2)
movej(p[-0.484465704060423, -0.172790821928252, 0.347271679591322, -0.838, -1.524, 1.716], a = 0.2, v = 0.2, t = 0.2)
movej(p[-0.484464184381637, -0.172789197872471, 0.347292159166982, -0.838, -1.524, 1.716], a = 0.2, v = 0.2, t = 0.2)
movej(p[-0.48441027267015, -0.172731583311084, 0.348018687025829, -0.838, -1.524, 1.716], a = 0.2, v = 0.2, t = 0.2)
movej(p[-0.48432727312637, -0.17264288306065, 0.349137209869273, -0.838, -1.524, 1.716], a = 0.2, v = 0.2, t = 0.2)
movej(p[-0.484251289187081, -0.172561680271611, 0.350161188652267, -0.838, -1.524, 1.716], a = 0.2, v = 0.2, t = 0.2)
movej(p[-0.484179761005009, -0.172485239277192, 0.351125120524103, -0.838, -1.524, 1.716], a = 0.2, v = 0.2, t = 0.2)
movej(p[-0.484125175028273, -0.172426904139599, 0.351860734951957, -0.838, -1.524, 1.716], a = 0.2, v = 0.2, t = 0.2)
movej(p[-0.484090985206426, -0.172390366038038, 0.352321485638138, -0.838, -1.524, 1.716], a = 0.2, v = 0.2, t = 0.2)
movej(p[-0.484079595730323, -0.172378194291825, 0.35247497309863, -0.838, -1.524, 1.716], a = 0.2, v = 0.2, t = 0.2)
movej(p[-0.484072757913495, -0.172370886829188, 0.352567121247557, -0.838, -1.524, 1.716], a = 0.2, v = 0.2, t = 0.2)
movej(p[-0.484072977750523, -0.172371121765413, 0.352564158668166, -0.838, -1.524, 1.716], a = 0.2, v = 0.2, t = 0.2)
movej(p[-0.484078745890536, -0.17237728608199, 0.352486425754533, -0.838, -1.524, 1.716], a = 0.2, v = 0.2, t = 0.2)
movej(p[-0.484096811551612, -0.172396592557529, 0.352242968336874, -0.838, -1.524, 1.716], a = 0.2, v = 0.2, t = 0.2)
movej(p[-0.484140050175378, -0.172442800965213, 0.351660273707488, -0.838, -1.524, 1.716], a = 0.2, v = 0.2, t = 0.2)
movej(p[-0.484211334913762, -0.172518981795356, 0.350699622544374, -0.838, -1.524, 1.716], a = 0.2, v = 0.2, t = 0.2)
movej(p[-0.484283217195745, -0.172595801210539, 0.349730918732578, -0.838, -1.524, 1.716], a = 0.2, v = 0.2, t = 0.2)
movej(p[-0.484337608417529, -0.172653928216712, 0.348997928871702, -0.838, -1.524, 1.716], a = 0.2, v = 0.2, t = 0.2)
movej(p[-0.484378558596849, -0.172697691001368, 0.34844607389846, -0.838, -1.524, 1.716], a = 0.2, v = 0.2, t = 0.2)
movej(p[-0.48440465871114, -0.172725583765214, 0.348094342157272, -0.838, -1.524, 1.716], a = 0.2, v = 0.2, t = 0.2)
movej(p[-0.484388001261149, -0.172707782221753, 0.348318822166204, -0.838, -1.524, 1.716], a = 0.2, v = 0.2, t = 0.2)
movej(p[-0.484331315767023, -0.172647203364377, 0.349082730221401, -0.838, -1.524, 1.716], a = 0.2, v = 0.2, t = 0.2)
movej(p[-0.484248220321183, -0.172558400624986, 0.35020254546525, -0.838, -1.524, 1.716], a = 0.2, v = 0.2, t = 0.2)
movej(p[-0.484181538881646, -0.172487139264781, 0.35110116140889, -0.838, -1.524, 1.716], a = 0.2, v = 0.2, t = 0.2)
movej(p[-0.484117948439251, -0.172419181202498, 0.351958122293299, -0.838, -1.524, 1.716], a = 0.2, v = 0.2, t = 0.2)
movej(p[-0.484085248050156, -0.172384234833278, 0.352398801007025, -0.838, -1.524, 1.716], a = 0.2, v = 0.2, t = 0.2)
movej(p[-0.484074404478082, -0.172372646485743, 0.352544931726745, -0.838, -1.524, 1.716], a = 0.2, v = 0.2, t = 0.2)
movej(p[-0.4840989009624, -0.172398825476552, 0.35221481090865, -0.838, -1.524, 1.716], a = 0.2, v = 0.2, t = 0.2)
movej(p[-0.484151316454221, -0.172454841052535, 0.35150844648444, -0.838, -1.524, 1.716], a = 0.2, v = 0.2, t = 0.2)
movej(p[-0.484231164508792, -0.172540173358165, 0.350432393906637, -0.838, -1.524, 1.716], a = 0.2, v = 0.2, t = 0.2)
movej(p[-0.484316546849891, -0.172631420064993, 0.349281759883882, -0.838, -1.524, 1.716], a = 0.2, v = 0.2, t = 0.2)
movej(p[-0.484377400395056, -0.172696453250117, 0.348461682118744, -0.838, -1.524, 1.716], a = 0.2, v = 0.2, t = 0.2)
movej(p[-0.484413747275529, -0.172735296564835, 0.347971862364976, -0.838, -1.524, 1.716], a = 0.2, v = 0.2, t = 0.2)
movej(p[-0.484419029265872, -0.172740941341238, 0.347900680927245, -0.838, -1.524, 1.716], a = 0.2, v = 0.2, t = 0.2)
movej(p[-0.484401907059747, -0.172722643120524, 0.348131424107374, -0.838, -1.524, 1.716], a = 0.2, v = 0.2, t = 0.2)
movej(p[-0.484347537969207, -0.172664539765649, 0.348864115722002, -0.838, -1.524, 1.716], a = 0.2, v = 0.2, t = 0.2)
movej(p[-0.484287016392709, -0.172599861349991, 0.349679719793428, -0.838, -1.524, 1.716], a = 0.2, v = 0.2, t = 0.2)
movej(p[-0.484238866181861, -0.172548404009792, 0.350328604212516, -0.838, -1.524, 1.716], a = 0.2, v = 0.2, t = 0.2)
movej(p[-0.484208487360309, -0.172515938661708, 0.350737996894882, -0.838, -1.524, 1.716], a = 0.2, v = 0.2, t = 0.2)
movej(p[-0.484203979963522, -0.172511121680728, 0.350798739713951, -0.838, -1.524, 1.716], a = 0.2, v = 0.2, t = 0.2)
movej(p[-0.484243712924396, -0.172553583644005, 0.350263288284319, -0.838, -1.524, 1.716], a = 0.2, v = 0.2, t = 0.2)
movej(p[-0.484319932930293, -0.172635038713553, 0.349236128208018, -0.838, -1.524, 1.716], a = 0.2, v = 0.2, t = 0.2)
movej(p[-0.484400291478902, -0.172720916575786, 0.34815319608344, -0.838, -1.524, 1.716], a = 0.2, v = 0.2, t = 0.2)
movej(p[-0.484471856546381, -0.172797396989034, 0.347188767134525, -0.838, -1.524, 1.716], a = 0.2, v = 0.2, t = 0.2)
movej(p[-0.484545177359254, -0.172875753738573, 0.346200677316643, -0.838, -1.524, 1.716], a = 0.2, v = 0.2, t = 0.2)
movej(p[-0.484605374344166, -0.17294008526853, 0.345389447523514, -0.838, -1.524, 1.716], a = 0.2, v = 0.2, t = 0.2)
movej(p[-0.484643676151233, -0.172981017781218, 0.344873282684552, -0.838, -1.524, 1.716], a = 0.2, v = 0.2, t = 0.2)
movej(p[-0.484630810521124, -0.172967268493443, 0.34504666316975, -0.838, -1.524, 1.716], a = 0.2, v = 0.2, t = 0.2)
movej(p[-0.484593932490784, -0.172927857547579, 0.345543640833458, -0.838, -1.524, 1.716], a = 0.2, v = 0.2, t = 0.2)
movej(p[-0.484524757597705, -0.17285393147449, 0.346475859187646, -0.838, -1.524, 1.716], a = 0.2, v = 0.2, t = 0.2)
movej(p[-0.48446211142174, -0.172786982534246, 0.347320094898829, -0.838, -1.524, 1.716], a = 0.2, v = 0.2, t = 0.2)
movej(p[-0.484401604599406, -0.172722319886121, 0.348135500139423, -0.838, -1.524, 1.716], a = 0.2, v = 0.2, t = 0.2)
movej(p[-0.484349522404126, -0.172666660498683, 0.348837372975146, -0.838, -1.524, 1.716], a = 0.2, v = 0.2, t = 0.2)
movej(p[-0.48429273363086, -0.172605971268584, 0.349602672846164, -0.838, -1.524, 1.716], a = 0.2, v = 0.2, t = 0.2)
movej(p[-0.484241853899862, -0.172551596934992, 0.350288340969107, -0.838, -1.524, 1.716], a = 0.2, v = 0.2, t = 0.2)
movej(p[-0.484201759461995, -0.172508748667184, 0.350828663754114, -0.838, -1.524, 1.716], a = 0.2, v = 0.2, t = 0.2)
movej(p[-0.484174383112607, -0.172479492011832, 0.35119759436224, -0.838, -1.524, 1.716], a = 0.2, v = 0.2, t = 0.2)
movej(p[-0.484167223655026, -0.172471840817001, 0.351294077023298, -0.838, -1.524, 1.716], a = 0.2, v = 0.2, t = 0.2)
movej(p[-0.484191866795725, -0.172498176537077, 0.350961979826735, -0.838, -1.524, 1.716], a = 0.2, v = 0.2, t = 0.2)
movej(p[-0.484237302240587, -0.172546732651416, 0.350349680280671, -0.838, -1.524, 1.716], a = 0.2, v = 0.2, t = 0.2)
movej(p[-0.484292763139186, -0.172606002803648, 0.349602275184501, -0.838, -1.524, 1.716], a = 0.2, v = 0.2, t = 0.2)
movej(p[-0.484339083833826, -0.172655504969897, 0.348978045788538, -0.838, -1.524, 1.716], a = 0.2, v = 0.2, t = 0.2)
movej(p[-0.484378307776078, -0.172697422953326, 0.348449454022598, -0.838, -1.524, 1.716], a = 0.2, v = 0.2, t = 0.2)
movej(p[-0.484363789679717, -0.172681907701984, 0.348645103560941, -0.838, -1.524, 1.716], a = 0.2, v = 0.2, t = 0.2)
movej(p[-0.484313352573609, -0.172628006394347, 0.349324806758934, -0.838, -1.524, 1.716], a = 0.2, v = 0.2, t = 0.2)
movej(p[-0.484230633358925, -0.172539605727018, 0.350439551816576, -0.838, -1.524, 1.716], a = 0.2, v = 0.2, t = 0.2)
movej(p[-0.48416459667631, -0.172469033407955, 0.351329478852873, -0.838, -1.524, 1.716], a = 0.2, v = 0.2, t = 0.2)
movej(p[-0.484117037369688, -0.172418207557406, 0.351970400097153, -0.838, -1.524, 1.716], a = 0.2, v = 0.2, t = 0.2)
movej(p[-0.484095041273368, -0.17239470069022, 0.352266825054209, -0.838, -1.524, 1.716], a = 0.2, v = 0.2, t = 0.2)
movej(p[-0.484097566374589, -0.172397399224459, 0.352232796151526, -0.838, -1.524, 1.716], a = 0.2, v = 0.2, t = 0.2)
movej(p[-0.484120438941961, -0.172421842761875, 0.351924559648916, -0.838, -1.524, 1.716], a = 0.2, v = 0.2, t = 0.2)
movej(p[-0.484168705710696, -0.172473424665576, 0.351274104466258, -0.838, -1.524, 1.716], a = 0.2, v = 0.2, t = 0.2)
movej(p[-0.484231909594021, -0.172540969618524, 0.350422352949639, -0.838, -1.524, 1.716], a = 0.2, v = 0.2, t = 0.2)
movej(p[-0.484298163162832, -0.172611773720306, 0.349529503100117, -0.838, -1.524, 1.716], a = 0.2, v = 0.2, t = 0.2)
movej(p[-0.484346785506896, -0.172663735621524, 0.348874256094417, -0.838, -1.524, 1.716], a = 0.2, v = 0.2, t = 0.2)
movej(p[-0.484375902847514, -0.172694852845634, 0.348481863448156, -0.838, -1.524, 1.716], a = 0.2, v = 0.2, t = 0.2)
movej(p[-0.484379215157101, -0.172698392656535, 0.348437225926451, -0.838, -1.524, 1.716], a = 0.2, v = 0.2, t = 0.2)
movej(p[-0.484348703548082, -0.172665785400665, 0.348848408086302, -0.838, -1.524, 1.716], a = 0.2, v = 0.2, t = 0.2)
movej(p[-0.484274696666631, -0.172586695460895, 0.349845743537855, -0.838, -1.524, 1.716], a = 0.2, v = 0.2, t = 0.2)
movej(p[-0.484194315986777, -0.172500793947365, 0.350928973908681, -0.838, -1.524, 1.716], a = 0.2, v = 0.2, t = 0.2)
movej(p[-0.484139465172817, -0.172442175782575, 0.351668157349963, -0.838, -1.524, 1.716], a = 0.2, v = 0.2, t = 0.2)
movej(p[-0.484108440118926, -0.172409019816596, 0.352086258822755, -0.838, -1.524, 1.716], a = 0.2, v = 0.2, t = 0.2)
movej(p[-0.484096247499961, -0.172395989764786, 0.352250569639568, -0.838, -1.524, 1.716], a = 0.2, v = 0.2, t = 0.2)
movej(p[-0.484100043113877, -0.172400046075093, 0.352199418986485, -0.838, -1.524, 1.716], a = 0.2, v = 0.2, t = 0.2)
movej(p[-0.484125341012607, -0.172427081524333, 0.351858498105101, -0.838, -1.524, 1.716], a = 0.2, v = 0.2, t = 0.2)
movej(p[-0.484168799399631, -0.172473524789403, 0.351272841890477, -0.838, -1.524, 1.716], a = 0.2, v = 0.2, t = 0.2)
movej(p[-0.484226428422479, -0.172535111980441, 0.350496218603596, -0.838, -1.524, 1.716], a = 0.2, v = 0.2, t = 0.2)
movej(p[-0.484294902492816, -0.172608289095766, 0.349573444713912, -0.838, -1.524, 1.716], a = 0.2, v = 0.2, t = 0.2)
movej(p[-0.484341710074834, -0.172658311590567, 0.348942653900504, -0.838, -1.524, 1.716], a = 0.2, v = 0.2, t = 0.2)
movej(p[-0.484360529009701, -0.172678423077444, 0.348689045174735, -0.838, -1.524, 1.716], a = 0.2, v = 0.2, t = 0.2)
movej(p[-0.484341555156123, -0.172658146031483, 0.348944741624236, -0.838, -1.524, 1.716], a = 0.2, v = 0.2, t = 0.2)
movej(p[-0.48429899677304, -0.172612664585855, 0.349518269158129, -0.838, -1.524, 1.716], a = 0.2, v = 0.2, t = 0.2)
movej(p[-0.484231474346214, -0.172540504476334, 0.350428218459172, -0.838, -1.524, 1.716], a = 0.2, v = 0.2, t = 0.2)
movej(p[-0.484161206907367, -0.172465410817512, 0.351375160236444, -0.838, -1.524, 1.716], a = 0.2, v = 0.2, t = 0.2)
movej(p[-0.484107509131243, -0.172408024885336, 0.352098805048232, -0.838, -1.524, 1.716], a = 0.2, v = 0.2, t = 0.2)
movej(p[-0.484092945444518, -0.17239246091232, 0.352295068973845, -0.838, -1.524, 1.716], a = 0.2, v = 0.2, t = 0.2)
movej(p[-0.484079082285451, -0.172377645581717, 0.352481892411571, -0.838, -1.524, 1.716], a = 0.2, v = 0.2, t = 0.2)
movej(p[-0.484075876205838, -0.172374219297045, 0.352525098351288, -0.838, -1.524, 1.716], a = 0.2, v = 0.2, t = 0.2)
movej(p[-0.484072391272545, -0.172370495006022, 0.352572062193724, -0.838, -1.524, 1.716], a = 0.2, v = 0.2, t = 0.2)
movej(p[-0.484078096707365, -0.172376592310589, 0.352495174311125, -0.838, -1.524, 1.716], a = 0.2, v = 0.2, t = 0.2)
movej(p[-0.484088857656126, -0.172388092359945, 0.352350157044062, -0.838, -1.524, 1.716], a = 0.2, v = 0.2, t = 0.2)
movej(p[-0.484124233712676, -0.172425898171067, 0.351873420359016, -0.838, -1.524, 1.716], a = 0.2, v = 0.2, t = 0.2)
movej(p[-0.484185419226507, -0.172491286125658, 0.351048868900166, -0.838, -1.524, 1.716], a = 0.2, v = 0.2, t = 0.2)
movej(p[-0.484248419502383, -0.172558613486666, 0.350199861249023, -0.838, -1.524, 1.716], a = 0.2, v = 0.2, t = 0.2)
movej(p[-0.48430555499848, -0.172619673253763, 0.349429888853461, -0.838, -1.524, 1.716], a = 0.2, v = 0.2, t = 0.2)
movej(p[-0.484350975689179, -0.17266821360057, 0.348817788138228, -0.838, -1.524, 1.716], a = 0.2, v = 0.2, t = 0.2)
movej(p[-0.484394891455255, -0.172715145659128, 0.348225968167824, -0.838, -1.524, 1.716], a = 0.2, v = 0.2, t = 0.2)
movej(p[-0.484393010299476, -0.172713135298817, 0.348251319098859, -0.838, -1.524, 1.716], a = 0.2, v = 0.2, t = 0.2)
movej(p[-0.484351919955609, -0.172669222722609, 0.348805062965003, -0.838, -1.524, 1.716], a = 0.2, v = 0.2, t = 0.2)
movej(p[-0.484273066331623, -0.172584953148625, 0.349867714344753, -0.838, -1.524, 1.716], a = 0.2, v = 0.2, t = 0.2)
movej(p[-0.484195894682215, -0.172502481073273, 0.350907699009695, -0.838, -1.524, 1.716], a = 0.2, v = 0.2, t = 0.2)
movej(p[-0.484126802412449, -0.172428643298363, 0.351838803911226, -0.838, -1.524, 1.716], a = 0.2, v = 0.2, t = 0.2)
movej(p[-0.484086575924823, -0.172385653911144, 0.352380906232176, -0.838, -1.524, 1.716], a = 0.2, v = 0.2, t = 0.2)
movej(p[-0.484074495216184, -0.172372743456064, 0.352543708917131, -0.838, -1.524, 1.716], a = 0.2, v = 0.2, t = 0.2)
movej(p[-0.48407402677151, -0.172372242836928, 0.352550021796036, -0.838, -1.524, 1.716], a = 0.2, v = 0.2, t = 0.2)
movej(p[-0.484072844963056, -0.172370979857626, 0.352565948145651, -0.838, -1.524, 1.716], a = 0.2, v = 0.2, t = 0.2)
movej(p[-0.484074757102577, -0.172373023329754, 0.352540179669869, -0.838, -1.524, 1.716], a = 0.2, v = 0.2, t = 0.2)
movej(p[-0.484092133080305, -0.172391592752016, 0.352306016599435, -0.838, -1.524, 1.716], a = 0.2, v = 0.2, t = 0.2)
movej(p[-0.48412684593723, -0.172428689812581, 0.351838217360272, -0.838, -1.524, 1.716], a = 0.2, v = 0.2, t = 0.2)
movej(p[-0.484181833964906, -0.172487454615418, 0.351097184792257, -0.838, -1.524, 1.716], a = 0.2, v = 0.2, t = 0.2)
movej(p[-0.484247792450457, -0.172557943366562, 0.350208311559368, -0.838, -1.524, 1.716], a = 0.2, v = 0.2, t = 0.2)
movej(p[-0.484308011566614, -0.172622298547817, 0.349396783519991, -0.838, -1.524, 1.716], a = 0.2, v = 0.2, t = 0.2)
movej(p[-0.484345405992658, -0.172662261357296, 0.348892846777176, -0.838, -1.524, 1.716], a = 0.2, v = 0.2, t = 0.2)
movej(p[-0.484358042933241, -0.172675766248327, 0.348722548169868, -0.838, -1.524, 1.716], a = 0.2, v = 0.2, t = 0.2)
movej(p[-0.484356316696173, -0.172673921447101, 0.348745811377171, -0.838, -1.524, 1.716], a = 0.2, v = 0.2, t = 0.2)
movej(p[-0.484311832894823, -0.172626382338567, 0.349345286334594, -0.838, -1.524, 1.716], a = 0.2, v = 0.2, t = 0.2)
movej(p[-0.484241182585447, -0.172550879512293, 0.350297387771947, -0.838, -1.524, 1.716], a = 0.2, v = 0.2, t = 0.2)
movej(p[-0.484160749528315, -0.172464922024024, 0.351381323992225, -0.838, -1.524, 1.716], a = 0.2, v = 0.2, t = 0.2)
movej(p[-0.484115749331261, -0.172416831051876, 0.351987758028756, -0.838, -1.524, 1.716], a = 0.2, v = 0.2, t = 0.2)
movej(p[-0.484084158455221, -0.17238307040105, 0.352413484663942, -0.838, -1.524, 1.716], a = 0.2, v = 0.2, t = 0.2)
movej(p[-0.484073521441428, -0.172371702798962, 0.35255683175202, -0.838, -1.524, 1.716], a = 0.2, v = 0.2, t = 0.2)
movej(p[-0.484066815674359, -0.172364536455735, 0.352647200365004, -0.838, -1.524, 1.716], a = 0.2, v = 0.2, t = 0.2)
movej(p[-0.484069488390981, -0.17236739274413, 0.352611182159851, -0.838, -1.524, 1.716], a = 0.2, v = 0.2, t = 0.2)
movej(p[-0.484071196923053, -0.172369218624318, 0.352588157549546, -0.838, -1.524, 1.716], a = 0.2, v = 0.2, t = 0.2)
movej(p[-0.484091379142577, -0.172390787031139, 0.352316176854933, -0.838, -1.524, 1.716], a = 0.2, v = 0.2, t = 0.2)
movej(p[-0.484137536066009, -0.172440114177785, 0.351694154481201, -0.838, -1.524, 1.716], a = 0.2, v = 0.2, t = 0.2)
movej(p[-0.484188827438153, -0.172494928425516, 0.351002938978055, -0.838, -1.524, 1.716], a = 0.2, v = 0.2, t = 0.2)
movej(p[-0.484244037515982, -0.172553930529706, 0.350258914006023, -0.838, -1.524, 1.716], a = 0.2, v = 0.2, t = 0.2)
movej(p[-0.48429839922944, -0.172612026000815, 0.349526321806811, -0.838, -1.524, 1.716], a = 0.2, v = 0.2, t = 0.2)
movej(p[-0.484346401898658, -0.172663325665696, 0.348879425696039, -0.838, -1.524, 1.716], a = 0.2, v = 0.2, t = 0.2)
movej(p[-0.484365088046058, -0.172683295244787, 0.348627606447755, -0.838, -1.524, 1.716], a = 0.2, v = 0.2, t = 0.2)
movej(p[-0.484349131418808, -0.172666242659089, 0.348842641992184, -0.838, -1.524, 1.716], a = 0.2, v = 0.2, t = 0.2)
movej(p[-0.484305894344228, -0.172620035906996, 0.349425315744333, -0.838, -1.524, 1.716], a = 0.2, v = 0.2, t = 0.2)
movej(p[-0.48423185057737, -0.172540906548396, 0.350423148272965, -0.838, -1.524, 1.716], a = 0.2, v = 0.2, t = 0.2)
movej(p[-0.484155103110147, -0.172458887789585, 0.351457416551497, -0.838, -1.524, 1.716], a = 0.2, v = 0.2, t = 0.2)
movej(p[-0.484102454281239, -0.172402622850086, 0.352166925485309, -0.838, -1.524, 1.716], a = 0.2, v = 0.2, t = 0.2)
movej(p[-0.484083632469311, -0.17238250828854, 0.35242057298309, -0.838, -1.524, 1.716], a = 0.2, v = 0.2, t = 0.2)
movej(p[-0.484075294891817, -0.17237359805629, 0.352532932286055, -0.838, -1.524, 1.716], a = 0.2, v = 0.2, t = 0.2)
movej(p[-0.484079954994191, -0.172378578231226, 0.352470131567879, -0.838, -1.524, 1.716], a = 0.2, v = 0.2, t = 0.2)
movej(p[-0.484104009001162, -0.172404284353755, 0.352145973686424, -0.838, -1.524, 1.716], a = 0.2, v = 0.2, t = 0.2)
movej(p[-0.484149301773268, -0.17245268799606, 0.351535596834502, -0.838, -1.524, 1.716], a = 0.2, v = 0.2, t = 0.2)
movej(p[-0.484205698823508, -0.172512958598188, 0.350775575922064, -0.838, -1.524, 1.716], a = 0.2, v = 0.2, t = 0.2)
movej(p[-0.484265335150227, -0.172576690961935, 0.349971901700537, -0.838, -1.524, 1.716], a = 0.2, v = 0.2, t = 0.2)
movej(p[-0.484327243618044, -0.172642851525586, 0.349137607530936, -0.838, -1.524, 1.716], a = 0.2, v = 0.2, t = 0.2)
movej(p[-0.48435759293127, -0.172675285338606, 0.348728612510233, -0.838, -1.524, 1.716], a = 0.2, v = 0.2, t = 0.2)
movej(p[-0.484351787168142, -0.172669080814822, 0.348806852442487, -0.838, -1.524, 1.716], a = 0.2, v = 0.2, t = 0.2)
movej(p[-0.484303548432316, -0.172617528869432, 0.349456929846565, -0.838, -1.524, 1.716], a = 0.2, v = 0.2, t = 0.2)
movej(p[-0.484237213715609, -0.172546638046224, 0.350350873265661, -0.838, -1.524, 1.716], a = 0.2, v = 0.2, t = 0.2)
movej(p[-0.484161552892489, -0.172465780566134, 0.351370497653442, -0.838, -1.524, 1.716], a = 0.2, v = 0.2, t = 0.2)
movej(p[-0.48410674117706, -0.172407204185303, 0.352109154193019, -0.838, -1.524, 1.716], a = 0.2, v = 0.2, t = 0.2)
movej(p[-0.484086515432755, -0.172385589264264, 0.352381721438586, -0.838, -1.524, 1.716], a = 0.2, v = 0.2, t = 0.2)
movej(p[-0.484079472533062, -0.172378062632934, 0.352476633336074, -0.838, -1.524, 1.716], a = 0.2, v = 0.2, t = 0.2)
movej(p[-0.484076279732195, -0.172374650539041, 0.352519660328043, -0.838, -1.524, 1.716], a = 0.2, v = 0.2, t = 0.2)
movej(p[-0.484084309685391, -0.172383232018252, 0.352411446647918, -0.838, -1.524, 1.716], a = 0.2, v = 0.2, t = 0.2)
movej(p[-0.484115927856633, -0.172417021839011, 0.351985352175693, -0.838, -1.524, 1.716], a = 0.2, v = 0.2, t = 0.2)
movej(p[-0.484166100863224, -0.172470640907827, 0.351309208049586, -0.838, -1.524, 1.716], a = 0.2, v = 0.2, t = 0.2)
movej(p[-0.484231813691962, -0.172540867129567, 0.350423645350044, -0.838, -1.524, 1.716], a = 0.2, v = 0.2, t = 0.2)
movej(p[-0.484297189388076, -0.172610733063203, 0.349542625935006, -0.838, -1.524, 1.716], a = 0.2, v = 0.2, t = 0.2)
movej(p[-0.484348046987829, -0.172665083745497, 0.348857256058311, -0.838, -1.524, 1.716], a = 0.2, v = 0.2, t = 0.2)
movej(p[-0.484371247909098, -0.172689878189335, 0.348544594575542, -0.838, -1.524, 1.716], a = 0.2, v = 0.2, t = 0.2)
movej(p[-0.484357828997878, -0.172675537619115, 0.348725431216927, -0.838, -1.524, 1.716], a = 0.2, v = 0.2, t = 0.2)
movej(p[-0.484315853404232, -0.172630678990996, 0.34929110493297, -0.838, -1.524, 1.716], a = 0.2, v = 0.2, t = 0.2)
movej(p[-0.484235000591163, -0.172544272916447, 0.350380697890408, -0.838, -1.524, 1.716], a = 0.2, v = 0.2, t = 0.2)
movej(p[-0.484158905257944, -0.172462951082543, 0.351406177846181, -0.838, -1.524, 1.716], a = 0.2, v = 0.2, t = 0.2)
movej(p[-0.4841056837462, -0.172406074126295, 0.352123404398724, -0.838, -1.524, 1.716], a = 0.2, v = 0.2, t = 0.2)
movej(p[-0.484086823057053, -0.172385918017303, 0.352377575815746, -0.838, -1.524, 1.716], a = 0.2, v = 0.2, t = 0.2)
movej(p[-0.484080438930736, -0.17237909540627, 0.352463609916601, -0.838, -1.524, 1.716], a = 0.2, v = 0.2, t = 0.2)
movej(p[-0.48407827375732, -0.172376781520971, 0.352492788341145, -0.838, -1.524, 1.716], a = 0.2, v = 0.2, t = 0.2)
movej(p[-0.484084817966305, -0.172383775209724, 0.352404596925767, -0.838, -1.524, 1.716], a = 0.2, v = 0.2, t = 0.2)
movej(p[-0.484085265755151, -0.172384253754316, 0.352398562410027, -0.838, -1.524, 1.716], a = 0.2, v = 0.2, t = 0.2)
movej(p[-0.484105270998491, -0.172405633029592, 0.352128966691239, -0.838, -1.524, 1.716], a = 0.2, v = 0.2, t = 0.2)
