def moving():
set_payload_mass(0)
set_tcp(p[0,0,0,0,0,0])
movej(p[-0.3465, 0.0759, 0.523, -1.593, -1.081, 1.829], a = 0.2, v = 0.2, t = 0.2)
movej(p[-0.346565655903783, 0.0759552910418299, 0.523011497955982, -1.59256083832609, -1.07991199171136, 1.83065352406737], a = 0.2, v = 0.2, t = 0.2)
movej(p[-0.3465, 0.0759, 0.523, -1.593, -1.081, 1.829], a = 0.2, v = 0.2, t = 0.2)
movej(p[-0.346565655903783, 0.0759552910418299, 0.523011497955982, -1.59256083832609, -1.07991199171136, 1.83065352406737], a = 0.2, v = 0.2, t = 0.2)
movej(p[-0.3465, 0.0759, 0.523, -1.593, -1.081, 1.829], a = 0.2, v = 0.2, t = 0.2)
movej(p[-0.3465, 0.0759, 0.523, -1.593, -1.081, 1.829], a = 0.2, v = 0.2, t = 0.2)
movej(p[-0.345842085565127, 0.0760413505549369, 0.523276618504451, -1.58335953718874, -1.07430914401818, 1.82455579131158], a = 0.2, v = 0.2, t = 0.2)
movej(p[-0.345184094868071, 0.0761828041041559, 0.523553177207083, -1.5736691972988, -1.06768667959809, 1.82013470619203], a = 0.2, v = 0.2, t = 0.2)
movej(p[-0.344203473663749, 0.0764416410345363, 0.523999535490422, -1.56467492281595, -1.06276609946468, 1.81687562973208], a = 0.2, v = 0.2, t = 0.2)
movej(p[-0.34250451836011, 0.0769617940017817, 0.524823738200258, -1.55818681794475, -1.06101458858608, 1.81498839114292], a = 0.2, v = 0.2, t = 0.2)
movej(p[-0.340333979862699, 0.0773391612796926, 0.525608106901076, -1.55134300233908, -1.05834424987308, 1.81746411476965], a = 0.2, v = 0.2, t = 0.2)
movej(p[-0.337861900928675, 0.0776251979212671, 0.52636705159842, -1.54441662501223, -1.05498858622251, 1.82254129916193], a = 0.2, v = 0.2, t = 0.2)
movej(p[-0.335506618993865, 0.0781186344159314, 0.527269868259373, -1.53739759915616, -1.05618800688907, 1.82590423518656], a = 0.2, v = 0.2, t = 0.2)
movej(p[-0.333254207414049, 0.0786192970772738, 0.528156283012549, -1.52990485937372, -1.05616141953018, 1.82979537026206], a = 0.2, v = 0.2, t = 0.2)
movej(p[-0.331095053790562, 0.0788764768637717, 0.528823483707693, -1.52106757935333, -1.04785643399003, 1.83675958167649], a = 0.2, v = 0.2, t = 0.2)
movej(p[-0.329212111392377, 0.0790469589658701, 0.529400990866074, -1.50858979792029, -1.03593697747321, 1.8503789009968], a = 0.2, v = 0.2, t = 0.2)
movej(p[-0.329212111392377, 0.0790469589658701, 0.529400990866074, -1.5112276168528, -1.03317101981371, 1.86122412237187], a = 0.2, v = 0.2, t = 0.2)
movej(p[-0.329610465553588, 0.0790344213399839, 0.529318708059954, -1.51291946039249, -1.03514160787453, 1.86103385665529], a = 0.2, v = 0.2, t = 0.2)
movej(p[-0.330488506594485, 0.0787511239681815, 0.52895518507632, -1.51817524382568, -1.03581852759333, 1.86201788430676], a = 0.2, v = 0.2, t = 0.2)
movej(p[-0.332254740998653, 0.0783317350083654, 0.52829765398206, -1.53262474967537, -1.04439290897857, 1.84876593962868], a = 0.2, v = 0.2, t = 0.2)
movej(p[-0.334205844418264, 0.0780422142774699, 0.527663319013478, -1.54713506175581, -1.0457264609326, 1.83230397721731], a = 0.2, v = 0.2, t = 0.2)
movej(p[-0.336559803565448, 0.0778125236198536, 0.526924798224879, -1.55337084737204, -1.05837189062234, 1.81520639187703], a = 0.2, v = 0.2, t = 0.2)
movej(p[-0.338620535253656, 0.0773655694163497, 0.526193221421541, -1.55894783824107, -1.05565365219749, 1.8036874176992], a = 0.2, v = 0.2, t = 0.2)
movej(p[-0.340648736493493, 0.0771794431720361, 0.525616399636324, -1.55796862241253, -1.05713179708913, 1.79496421770276], a = 0.2, v = 0.2, t = 0.2)
movej(p[-0.342493301374649, 0.0773730015057699, 0.525107299036589, -1.5642892113118, -1.05790802712417, 1.78808640977944], a = 0.2, v = 0.2, t = 0.2)
movej(p[-0.343274275260426, 0.0773012515003359, 0.524877396108259, -1.56945236909894, -1.06591583200215, 1.78570588236041], a = 0.2, v = 0.2, t = 0.2)
movej(p[-0.343617872730141, 0.0771996467336435, 0.52479030506285, -1.56999687057285, -1.0656106442704, 1.78497360596381], a = 0.2, v = 0.2, t = 0.2)
movej(p[-0.343993501411846, 0.0773053882624687, 0.524651254271546, -1.56961869099108, -1.06595978723594, 1.78398832162405], a = 0.2, v = 0.2, t = 0.2)
movej(p[-0.343996074240533, 0.077316025710804, 0.524666293727835, -1.57310354836407, -1.06495351914353, 1.77760434383531], a = 0.2, v = 0.2, t = 0.2)
movej(p[-0.343369233558569, 0.0775677240074219, 0.524846684960756, -1.57385293968834, -1.0662750439993, 1.77726573405367], a = 0.2, v = 0.2, t = 0.2)
movej(p[-0.341592696976478, 0.0778672501521691, 0.525427136156898, -1.57549408357545, -1.06509000097469, 1.77787219947537], a = 0.2, v = 0.2, t = 0.2)
movej(p[-0.340009700059135, 0.078138700761155, 0.525930643591365, -1.57358543798743, -1.06205717111818, 1.77885941738909], a = 0.2, v = 0.2, t = 0.2)
movej(p[-0.338739013625845, 0.0786805537640098, 0.526344060477268, -1.57045952979277, -1.06328095153099, 1.77698501704935], a = 0.2, v = 0.2, t = 0.2)
movej(p[-0.337113390980744, 0.0789606394478257, 0.526840713510538, -1.56378595759312, -1.06580178956844, 1.78039945640789], a = 0.2, v = 0.2, t = 0.2)
movej(p[-0.335253474742004, 0.0789495553115184, 0.527445371857703, -1.55123795823276, -1.06099110680068, 1.78314174687001], a = 0.2, v = 0.2, t = 0.2)
movej(p[-0.333450339255945, 0.0791096806398304, 0.528045738893896, -1.54732456647176, -1.05609879389093, 1.78531871338717], a = 0.2, v = 0.2, t = 0.2)
movej(p[-0.332145885926753, 0.0795587335532085, 0.528427672766375, -1.54071572076394, -1.05174635744935, 1.79102113837794], a = 0.2, v = 0.2, t = 0.2)
movej(p[-0.330416655327004, 0.079699770423487, 0.528994392833173, -1.53285723278691, -1.05290404611443, 1.79777769659484], a = 0.2, v = 0.2, t = 0.2)
movej(p[-0.32863501641031, 0.0798911681938254, 0.529587761878568, -1.51988214986062, -1.04549675765043, 1.80972989248672], a = 0.2, v = 0.2, t = 0.2)
movej(p[-0.326875130127053, 0.0799358512094714, 0.530216252195212, -1.50866930071363, -1.03946086438415, 1.82500082652585], a = 0.2, v = 0.2, t = 0.2)
movej(p[-0.325908911973812, 0.0800661669294275, 0.530536103322269, -1.50179690949791, -1.03094945261245, 1.83052960104324], a = 0.2, v = 0.2, t = 0.2)
movej(p[-0.325191261108614, 0.080266062069524, 0.530739235566502, -1.49324574266652, -1.02646244339452, 1.83986739285868], a = 0.2, v = 0.2, t = 0.2)
movej(p[-0.324304276262073, 0.0802993332946681, 0.531056786881385, -1.49557038786253, -1.02437589901301, 1.84537517564237], a = 0.2, v = 0.2, t = 0.2)
movej(p[-0.324295558821499, 0.0802662577014858, 0.531081672647708, -1.49766957421213, -1.02802776826361, 1.84455905438639], a = 0.2, v = 0.2, t = 0.2)
movej(p[-0.324444246083928, 0.0801851916943, 0.531026012963281, -1.5009864268655, -1.03479567403211, 1.84352100187541], a = 0.2, v = 0.2, t = 0.2)
movej(p[-0.325173125696392, 0.0798859728829104, 0.530873278869367, -1.50775345274873, -1.03885420244298, 1.84450174470589], a = 0.2, v = 0.2, t = 0.2)
movej(p[-0.32630011959773, 0.0794824216611468, 0.530624448931939, -1.52076187398862, -1.04695640386712, 1.84876970968443], a = 0.2, v = 0.2, t = 0.2)
movej(p[-0.32780012450654, 0.0789335216730125, 0.53033570841422, -1.52783480644129, -1.04928372386148, 1.85064866608176], a = 0.2, v = 0.2, t = 0.2)
movej(p[-0.329611574195497, 0.0786291690003746, 0.529784359101137, -1.53164236352272, -1.05178960830955, 1.8510917488829], a = 0.2, v = 0.2, t = 0.2)
movej(p[-0.330894621253215, 0.0784584903641976, 0.529358838724618, -1.5401345347567, -1.06138503192172, 1.85283050668946], a = 0.2, v = 0.2, t = 0.2)
movej(p[-0.33232526537039, 0.0780679806468438, 0.529046736000113, -1.54424283955171, -1.06390117696903, 1.85557963967806], a = 0.2, v = 0.2, t = 0.2)
movej(p[-0.333932133268239, 0.0777137195017268, 0.528639890095715, -1.54511502533775, -1.06378918664249, 1.85600620093307], a = 0.2, v = 0.2, t = 0.2)
movej(p[-0.336328329517143, 0.0775134493825103, 0.527744836501741, -1.55497320706806, -1.06445783546324, 1.84519707893521], a = 0.2, v = 0.2, t = 0.2)
movej(p[-0.338742196685128, 0.0775427458658033, 0.526604245632326, -1.55951544116755, -1.0626586939803, 1.83488094374565], a = 0.2, v = 0.2, t = 0.2)
movej(p[-0.339816323891714, 0.0774658085333266, 0.526171660287056, -1.56017432720686, -1.06521382950214, 1.83322329862888], a = 0.2, v = 0.2, t = 0.2)
movej(p[-0.341327175319808, 0.0772574733663439, 0.525651807230488, -1.55894461063086, -1.06622618757293, 1.83100249570929], a = 0.2, v = 0.2, t = 0.2)
movej(p[-0.34261716380631, 0.077346035725657, 0.524914105235638, -1.55603911400181, -1.06160367031147, 1.82555303129111], a = 0.2, v = 0.2, t = 0.2)
movej(p[-0.34261986353377, 0.0773562789944676, 0.524906398296186, -1.5533623844553, -1.0616710436177, 1.82352986185888], a = 0.2, v = 0.2, t = 0.2)
movej(p[-0.342061759216128, 0.0775381578868335, 0.524952629985989, -1.55309359532693, -1.06167653711377, 1.82329971850855], a = 0.2, v = 0.2, t = 0.2)
movej(p[-0.341477759391036, 0.0776239154525813, 0.525137568176228, -1.5527673015109, -1.06171649672373, 1.82314384613129], a = 0.2, v = 0.2, t = 0.2)
movej(p[-0.340132660104824, 0.077817019453027, 0.525580845916751, -1.55240649977831, -1.06191020176353, 1.82303624488578], a = 0.2, v = 0.2, t = 0.2)
movej(p[-0.338215805555531, 0.0780379887686824, 0.526310122858931, -1.5511889809117, -1.06276740834824, 1.82249954176672], a = 0.2, v = 0.2, t = 0.2)
movej(p[-0.336125299058687, 0.0782963586691539, 0.527172759005394, -1.55030836221504, -1.06329773743126, 1.82315270884648], a = 0.2, v = 0.2, t = 0.2)
movej(p[-0.33421439259885, 0.0785400560441087, 0.527950985059438, -1.54223434484806, -1.05733467669319, 1.83009118996222], a = 0.2, v = 0.2, t = 0.2)
movej(p[-0.332444621908092, 0.0788222504898252, 0.52851570015304, -1.53357605626074, -1.04793536515001, 1.83673094545204], a = 0.2, v = 0.2, t = 0.2)
movej(p[-0.331205453525563, 0.0789508188765817, 0.529101025062527, -1.53230016425787, -1.04780446530897, 1.84737796667906], a = 0.2, v = 0.2, t = 0.2)
movej(p[-0.331205453525563, 0.0789508188765817, 0.529101025062527, -1.53719907748773, -1.05419498484737, 1.85174901350898], a = 0.2, v = 0.2, t = 0.2)
movej(p[-0.332573761364903, 0.0785539175822236, 0.52892295847572, -1.54411020140306, -1.06514915562287, 1.84960618857974], a = 0.2, v = 0.2, t = 0.2)
movej(p[-0.335148861722697, 0.0783297262548223, 0.527766251206784, -1.55378405047955, -1.05872886658512, 1.85605306978361], a = 0.2, v = 0.2, t = 0.2)
movej(p[-0.337305569155059, 0.0780104723975853, 0.527178868779541, -1.55911986045315, -1.05573289915227, 1.84900295316977], a = 0.2, v = 0.2, t = 0.2)
movej(p[-0.339600080672061, 0.077836954924693, 0.525926971002187, -1.55295141342407, -1.0565861969271, 1.83727921364711], a = 0.2, v = 0.2, t = 0.2)
movej(p[-0.341374808760672, 0.077605400498295, 0.525182622079227, -1.55295141342407, -1.0565861969271, 1.83727921364711], a = 0.2, v = 0.2, t = 0.2)
movej(p[-0.342739536315643, 0.0774890367018833, 0.524421743752825, -1.55295141342407, -1.0565861969271, 1.83727921364711], a = 0.2, v = 0.2, t = 0.2)
movej(p[-0.343149524973227, 0.0773704302028726, 0.524352140167827, -1.5505204231445, -1.05439374076689, 1.83694672045042], a = 0.2, v = 0.2, t = 0.2)
movej(p[-0.343149524973227, 0.0773704302028726, 0.524352140167827, -1.54355073554048, -1.04879284149348, 1.83409310318387], a = 0.2, v = 0.2, t = 0.2)
movej(p[-0.335320608108191, 0.0790462316554383, 0.525450405305183, -1.5430131524843, -1.04792728227621, 1.83151157755042], a = 0.2, v = 0.2, t = 0.2)
movej(p[-0.331807042218983, 0.0797715107494836, 0.525955269581931, -1.54325031521095, -1.04779755194893, 1.83119396064675], a = 0.2, v = 0.2, t = 0.2)
movej(p[-0.331807042218983, 0.0797715107494836, 0.525955269581931, -1.5441613318776, -1.04867551137539, 1.83116407829333], a = 0.2, v = 0.2, t = 0.2)
movej(p[-0.332652627116417, 0.0795713483661775, 0.525845210545317, -1.54520944625675, -1.04957882328718, 1.83202166986821], a = 0.2, v = 0.2, t = 0.2)
movej(p[-0.333498212013851, 0.0793711859828713, 0.525735151508703, -1.54625901016592, -1.05048460427683, 1.83288023823527], a = 0.2, v = 0.2, t = 0.2)
movej(p[-0.334343693264303, 0.0791710273986464, 0.525625231190761, -1.54730627851634, -1.05139276680825, 1.83374086225564], a = 0.2, v = 0.2, t = 0.2)
movej(p[-0.335189278161737, 0.0789708650153402, 0.525515172154148, -1.54835239187918, -1.05230295366798, 1.83459899353512], a = 0.2, v = 0.2, t = 0.2)
movej(p[-0.336034863059171, 0.078770702632034, 0.525405113117534, -1.54939764448474, -1.05321446442638, 1.83546027376772], a = 0.2, v = 0.2, t = 0.2)
movej(p[-0.336880351085817, 0.0785705650501184, 0.525295053110701, -1.55044173988949, -1.05412799738664, 1.83631905786157], a = 0.2, v = 0.2, t = 0.2)
movej(p[-0.337725935983251, 0.0783704026668122, 0.525184994074087, -1.55148496814002, -1.05504286127802, 1.83718099022467], a = 0.2, v = 0.2, t = 0.2)
movej(p[-0.338571520880685, 0.078170240283506, 0.525074935037473, -1.55252703697239, -1.05595974524212, 1.8380404230499], a = 0.2, v = 0.2, t = 0.2)
movej(p[-0.339417008907331, 0.0779701027015904, 0.52496487503064, -1.55356953038382, -1.05687724474492, 1.83890128041942], a = 0.2, v = 0.2, t = 0.2)
movej(p[-0.340262593804765, 0.0777699403182842, 0.524854815994027, -1.55460970634727, -1.05779714690008, 1.83976418397344], a = 0.2, v = 0.2, t = 0.2)
movej(p[-0.340262593804765, 0.0777699403182842, 0.524854815994027, -1.55472048017365, -1.05764035651322, 1.84073217511835], a = 0.2, v = 0.2, t = 0.2)
movej(p[-0.339674293978032, 0.0777916655715705, 0.525100002611188, -1.55564871955861, -1.0587190659295, 1.84062458288959], a = 0.2, v = 0.2, t = 0.2)
movej(p[-0.337630460436308, 0.0780820925287928, 0.52594595552137, -1.55838755294122, -1.05697807299497, 1.83959696736875], a = 0.2, v = 0.2, t = 0.2)
movej(p[-0.335408110457629, 0.0784062127520405, 0.526800842387071, -1.56604940936918, -1.05892503877668, 1.83693403235268], a = 0.2, v = 0.2, t = 0.2)
movej(p[-0.333928357087586, 0.0786141763187421, 0.527360161159123, -1.56624529195355, -1.05881393970285, 1.8366737688305], a = 0.2, v = 0.2, t = 0.2)
movej(p[-0.333289418098321, 0.0786920849433966, 0.527696957350019, -1.56098393207859, -1.05635461998846, 1.83548706904448], a = 0.2, v = 0.2, t = 0.2)
movej(p[-0.331399957974992, 0.0789916974579599, 0.528134280644009, -1.54916323769035, -1.05296235274729, 1.83219483091714], a = 0.2, v = 0.2, t = 0.2)
movej(p[-0.328809648370909, 0.0794069117674993, 0.528426200910776, -1.54518077136791, -1.05258156151679, 1.83061144675478], a = 0.2, v = 0.2, t = 0.2)
movej(p[-0.327982857809907, 0.0794577397394243, 0.529263597576345, -1.54403856666766, -1.05315096844215, 1.8299370433164], a = 0.2, v = 0.2, t = 0.2)
movej(p[-0.327395249118696, 0.0795339748039515, 0.52932837983433, -1.54474822440493, -1.05290096578988, 1.8302768854643], a = 0.2, v = 0.2, t = 0.2)
movej(p[-0.327390777448059, 0.0795215326810525, 0.529456796530049, -1.54464547688496, -1.0527976247434, 1.83035497028555], a = 0.2, v = 0.2, t = 0.2)
movej(p[-0.327535405535607, 0.0794845042050774, 0.529458245066958, -1.54476876758992, -1.05258880233983, 1.831754139532], a = 0.2, v = 0.2, t = 0.2)
movej(p[-0.328164509900191, 0.0793826851340325, 0.529213877014152, -1.54431238434992, -1.05191668631508, 1.84270790014646], a = 0.2, v = 0.2, t = 0.2)
movej(p[-0.329081304238035, 0.0792323128495681, 0.528822179518421, -1.54407047067302, -1.05058868505808, 1.86225844468437], a = 0.2, v = 0.2, t = 0.2)
movej(p[-0.329857044896902, 0.0791485742126772, 0.52865371848176, -1.54422246311058, -1.05086476643505, 1.86219763776859], a = 0.2, v = 0.2, t = 0.2)
movej(p[-0.330711129960951, 0.0789304927915874, 0.528566504909739, -1.54767779332296, -1.05235075250159, 1.85882373641644], a = 0.2, v = 0.2, t = 0.2)
movej(p[-0.332282296909257, 0.0787649716661859, 0.528189955327884, -1.55070609924179, -1.05101515909308, 1.85068482990286], a = 0.2, v = 0.2, t = 0.2)
movej(p[-0.333441501062812, 0.0785529403031889, 0.527497644327331, -1.55070609924179, -1.05101515909308, 1.85068482990286], a = 0.2, v = 0.2, t = 0.2)
movej(p[-0.334837793975232, 0.0783092536585861, 0.526813506671616, -1.55188910591691, -1.05009499893085, 1.85206228161169], a = 0.2, v = 0.2, t = 0.2)
movej(p[-0.336310742354373, 0.0780800309829864, 0.526400494435261, -1.55069486083435, -1.04616942875612, 1.85334579944102], a = 0.2, v = 0.2, t = 0.2)
movej(p[-0.337680323321247, 0.0778393457393243, 0.525831842205283, -1.55448206539897, -1.04337539088812, 1.85621012071484], a = 0.2, v = 0.2, t = 0.2)
movej(p[-0.337680323321247, 0.0778393457393243, 0.525831842205283, -1.55818144826693, -1.04631480981292, 1.8531061136049], a = 0.2, v = 0.2, t = 0.2)
movej(p[-0.337782023501838, 0.0778063674151478, 0.525780632114459, -1.55833448689907, -1.04701475436227, 1.85225158838023], a = 0.2, v = 0.2, t = 0.2)
movej(p[-0.33828887011749, 0.0776427129720645, 0.525082347307621, -1.55429573398617, -1.05143792482323, 1.84852573589776], a = 0.2, v = 0.2, t = 0.2)
movej(p[-0.338305020283294, 0.0776459898294202, 0.525068733184426, -1.55429573398617, -1.05143792482323, 1.84852573589776], a = 0.2, v = 0.2, t = 0.2)
movej(p[-0.338297578445479, 0.0776152212960632, 0.525025231961397, -1.55406581602232, -1.0507450038583, 1.84947011973203], a = 0.2, v = 0.2, t = 0.2)
movej(p[-0.338429085205993, 0.0775628770233835, 0.524863026970547, -1.55375258824948, -1.04960943600944, 1.85101058772628], a = 0.2, v = 0.2, t = 0.2)
movej(p[-0.338436008524369, 0.077522600368855, 0.52481192062297, -1.55356863995096, -1.04915833243293, 1.85134696472231], a = 0.2, v = 0.2, t = 0.2)
movej(p[-0.338435566369984, 0.0774999291911614, 0.524771264968979, -1.55353017363867, -1.04907406110213, 1.85136913619816], a = 0.2, v = 0.2, t = 0.2)
movej(p[-0.338939573414927, 0.0774110449561083, 0.524670243875109, -1.55515160410592, -1.04815595376136, 1.849320923754], a = 0.2, v = 0.2, t = 0.2)
movej(p[-0.339561696912342, 0.0773189477731334, 0.524546836610933, -1.55705075491357, -1.04708918416397, 1.84678603082664], a = 0.2, v = 0.2, t = 0.2)
movej(p[-0.340534872938694, 0.0772369787588331, 0.5244383304248, -1.55733132942462, -1.04739761025998, 1.84605570002521], a = 0.2, v = 0.2, t = 0.2)
movej(p[-0.340540627222209, 0.0772607700411315, 0.52447196705822, -1.5588580876363, -1.04923826424558, 1.84500668378025], a = 0.2, v = 0.2, t = 0.2)
movej(p[-0.340463475121837, 0.0774599546666867, 0.525465392796939, -1.56128965248176, -1.04786603835795, 1.84175642650532], a = 0.2, v = 0.2, t = 0.2)
movej(p[-0.338564088074557, 0.0776378578852408, 0.525699740443508, -1.56029862490737, -1.04538866234825, 1.84118782974944], a = 0.2, v = 0.2, t = 0.2)
movej(p[-0.335992556760004, 0.0779989611910687, 0.526495571858316, -1.5502790604286, -1.03965855982668, 1.8396224354647], a = 0.2, v = 0.2, t = 0.2)
movej(p[-0.333601679195087, 0.0784150240931811, 0.527469716832671, -1.54718191872265, -1.04196103195827, 1.83728548659318], a = 0.2, v = 0.2, t = 0.2)
movej(p[-0.33167884051188, 0.0786208838891775, 0.527791818342688, -1.54628988611697, -1.04273990175418, 1.8354903359555], a = 0.2, v = 0.2, t = 0.2)
movej(p[-0.329391637977717, 0.0789940993580538, 0.528687879993195, -1.54480047185267, -1.04384448844834, 1.83436529337194], a = 0.2, v = 0.2, t = 0.2)
movej(p[-0.327315863005267, 0.079321712875944, 0.529406511127121, -1.54004493828012, -1.03692386501239, 1.83714962687209], a = 0.2, v = 0.2, t = 0.2)
movej(p[-0.325814922433002, 0.0796121886817453, 0.53011923779617, -1.51606975689962, -1.03656004196253, 1.86157153520453], a = 0.2, v = 0.2, t = 0.2)
movej(p[-0.324568610956197, 0.0798933461655473, 0.530803900028286, -1.51288199088632, -1.03835057899095, 1.86467400758251], a = 0.2, v = 0.2, t = 0.2)
movej(p[-0.323550266219725, 0.0799863792294317, 0.531087554706941, -1.51153280436504, -1.04004184406152, 1.8634197767525], a = 0.2, v = 0.2, t = 0.2)
movej(p[-0.323018539341119, 0.080138495403146, 0.531243699595625, -1.51297621967234, -1.04298399505879, 1.86268495513932], a = 0.2, v = 0.2, t = 0.2)
movej(p[-0.322237888897098, 0.0803782188387395, 0.531849437863095, -1.52486461709749, -1.04609097607949, 1.85033603472088], a = 0.2, v = 0.2, t = 0.2)
movej(p[-0.322237888897098, 0.0803782188387395, 0.531849437863095, -1.53011873908437, -1.04227056353953, 1.85427218350187], a = 0.2, v = 0.2, t = 0.2)
movej(p[-0.322722869813586, 0.0803165055252693, 0.531724662033775, -1.52619175397077, -1.04325511600401, 1.87224286371858], a = 0.2, v = 0.2, t = 0.2)
movej(p[-0.32308641305804, 0.0801701963227048, 0.531409895474787, -1.52776709283559, -1.04534549481071, 1.88447738498788], a = 0.2, v = 0.2, t = 0.2)
movej(p[-0.32340840680476, 0.0799949401354762, 0.531030202485767, -1.53417052802562, -1.05375256572774, 1.89342660031462], a = 0.2, v = 0.2, t = 0.2)
movej(p[-0.323730407327674, 0.0798197049505569, 0.530650369807855, -1.54048321091428, -1.06230130042803, 1.90238631769491], a = 0.2, v = 0.2, t = 0.2)
movej(p[-0.324209131333477, 0.0796720951881408, 0.530346006169574, -1.54596166493495, -1.0683272564438, 1.91016161294784], a = 0.2, v = 0.2, t = 0.2)
movej(p[-0.325427696405194, 0.0795739530645274, 0.530142525581892, -1.54794594254906, -1.06783719682209, 1.91972330386448], a = 0.2, v = 0.2, t = 0.2)
movej(p[-0.327583427145473, 0.079349990133278, 0.529625189607072, -1.5496561826576, -1.06628800418952, 1.92622012649827], a = 0.2, v = 0.2, t = 0.2)
movej(p[-0.329151744338672, 0.0790345625594673, 0.528989079713111, -1.55108909525203, -1.06400072816833, 1.92860852976617], a = 0.2, v = 0.2, t = 0.2)
movej(p[-0.330551330721858, 0.0787658271819066, 0.528428332227295, -1.55471546162917, -1.06074953987464, 1.9332844026779], a = 0.2, v = 0.2, t = 0.2)
movej(p[-0.332604542282862, 0.0784245116141022, 0.52775701574535, -1.55471546162917, -1.06074953987464, 1.9332844026779], a = 0.2, v = 0.2, t = 0.2)
movej(p[-0.334407417298238, 0.0780146428961547, 0.527013638389639, -1.55654620582711, -1.0665172105624, 1.92919863132316], a = 0.2, v = 0.2, t = 0.2)
movej(p[-0.335634816825413, 0.0775978842912287, 0.526348476006525, -1.5623761723862, -1.06535494628702, 1.91922787993411], a = 0.2, v = 0.2, t = 0.2)
movej(p[-0.337031811020126, 0.0773164667758608, 0.525804809912326, -1.56902600086622, -1.06219886639394, 1.90734237074422], a = 0.2, v = 0.2, t = 0.2)
movej(p[-0.338406073870038, 0.0771374659143887, 0.525366355865765, -1.57134353760906, -1.06624482529067, 1.89208517605816], a = 0.2, v = 0.2, t = 0.2)
movej(p[-0.339586520670756, 0.0769142812910238, 0.524916868041051, -1.57335084072643, -1.06875685665477, 1.88906041265255], a = 0.2, v = 0.2, t = 0.2)
movej(p[-0.339586520670756, 0.0769142812910238, 0.524916868041051, -1.57266541970776, -1.06933178565328, 1.8873866916649], a = 0.2, v = 0.2, t = 0.2)
movej(p[-0.337513916851735, 0.0778614351062567, 0.525963537181547, -1.5488038182623, -1.04356488224496, 1.86747244920744], a = 0.2, v = 0.2, t = 0.2)
movej(p[-0.334538854566977, 0.079574305526222, 0.52754895054601, -1.55211264840024, -1.04188377665851, 1.86100612658829], a = 0.2, v = 0.2, t = 0.2)
movej(p[-0.334538854566977, 0.079574305526222, 0.52754895054601, -1.55601582940528, -1.04200467545439, 1.8566386413267], a = 0.2, v = 0.2, t = 0.2)
movej(p[-0.335922438808046, 0.0793119779372697, 0.526935701710756, -1.55618305184946, -1.04296858914647, 1.85028071611198], a = 0.2, v = 0.2, t = 0.2)
movej(p[-0.337777726890792, 0.0790355866070191, 0.526288312621736, -1.55295473180217, -1.0457639272725, 1.84318240542473], a = 0.2, v = 0.2, t = 0.2)
movej(p[-0.33936282112398, 0.0787958307356156, 0.525715650614927, -1.55025743728206, -1.04837740048738, 1.8408296399158], a = 0.2, v = 0.2, t = 0.2)
movej(p[-0.340269442172784, 0.0787314756238569, 0.525559817423807, -1.55016902672995, -1.04850552588103, 1.8407336345703], a = 0.2, v = 0.2, t = 0.2)
movej(p[-0.340834663795108, 0.0785378885271612, 0.525111780903365, -1.55047634333971, -1.04840252471777, 1.84018270410489], a = 0.2, v = 0.2, t = 0.2)
movej(p[-0.341222943603869, 0.0785112907950881, 0.525047226346925, -1.55086948445766, -1.04822765331384, 1.83962030093535], a = 0.2, v = 0.2, t = 0.2)
movej(p[-0.341613947019778, 0.0784419144528372, 0.524884954686173, -1.55103941386903, -1.04815214753447, 1.83937827357139], a = 0.2, v = 0.2, t = 0.2)
movej(p[-0.341894466624499, 0.0783671412262477, 0.524711143046882, -1.55103941386903, -1.04815214753447, 1.83937827357139], a = 0.2, v = 0.2, t = 0.2)
movej(p[-0.341894466624499, 0.0783671412262477, 0.524711143046882, -1.55103941386903, -1.04815214753447, 1.83937827357139], a = 0.2, v = 0.2, t = 0.2)
movej(p[-0.341894466624499, 0.0783671412262477, 0.524711143046882, -1.55103941386903, -1.04815214753447, 1.83937827357139], a = 0.2, v = 0.2, t = 0.2)
movej(p[-0.341184403722785, 0.0785045114233084, 0.525032024449536, -1.55966859847255, -1.05065478556881, 1.82827841258695], a = 0.2, v = 0.2, t = 0.2)
movej(p[-0.340021590887789, 0.0787237398342258, 0.525536823770667, -1.56981614911444, -1.05357672181082, 1.81514527567592], a = 0.2, v = 0.2, t = 0.2)
movej(p[-0.338694196482141, 0.0789573615318883, 0.526052053810782, -1.56967454866737, -1.05368338978672, 1.8150361944195], a = 0.2, v = 0.2, t = 0.2)
movej(p[-0.337124611803249, 0.0791599441439064, 0.526455299134493, -1.56730226124896, -1.05262136690077, 1.81454749468179], a = 0.2, v = 0.2, t = 0.2)
movej(p[-0.335581109773725, 0.0794013386744672, 0.527029580829719, -1.56169652094551, -1.04760345246357, 1.81032847180397], a = 0.2, v = 0.2, t = 0.2)
movej(p[-0.334539157332103, 0.0796028325724541, 0.527413085664725, -1.55842507459662, -1.04854707349701, 1.80854176718923], a = 0.2, v = 0.2, t = 0.2)
movej(p[-0.333218456191845, 0.0796731898486624, 0.527662843090648, -1.55210400005925, -1.04911513843295, 1.81594538938821], a = 0.2, v = 0.2, t = 0.2)
movej(p[-0.332635229246418, 0.07970045722258, 0.527852411628248, -1.55390879867695, -1.04579424481514, 1.83923498102355], a = 0.2, v = 0.2, t = 0.2)
movej(p[-0.332643252045549, 0.0797336277603999, 0.527899308857535, -1.55694110760422, -1.04353900601715, 1.84153501734521], a = 0.2, v = 0.2, t = 0.2)
movej(p[-0.333301336992596, 0.0797042009646944, 0.527807542653706, -1.55451906308593, -1.04432470378862, 1.84523550576489], a = 0.2, v = 0.2, t = 0.2)
movej(p[-0.333303683260266, 0.0797078159112034, 0.527789372425591, -1.55160969297501, -1.04570512574598, 1.84903622241218], a = 0.2, v = 0.2, t = 0.2)
movej(p[-0.333307956524105, 0.0796937999871171, 0.527767141521692, -1.5514879038104, -1.04547549759041, 1.84908959391119], a = 0.2, v = 0.2, t = 0.2)
movej(p[-0.33329719104263, 0.0796487496496507, 0.527690405926935, -1.55373870205471, -1.04422678471336, 1.84597328304044], a = 0.2, v = 0.2, t = 0.2)
movej(p[-0.333271423412832, 0.0796553468195163, 0.527690147848691, -1.55525250951662, -1.04477938272258, 1.84266341306506], a = 0.2, v = 0.2, t = 0.2)
movej(p[-0.332397522233771, 0.0798140546421829, 0.528093841415967, -1.55511709982929, -1.04829786555559, 1.83919337416763], a = 0.2, v = 0.2, t = 0.2)
movej(p[-0.331000542422088, 0.0800286458623152, 0.528607845816718, -1.55457554176694, -1.04869953715249, 1.8387814438978], a = 0.2, v = 0.2, t = 0.2)
movej(p[-0.329200107108599, 0.0802124313617398, 0.529162076149832, -1.54830787404105, -1.04695801959252, 1.84044604128189], a = 0.2, v = 0.2, t = 0.2)
movej(p[-0.328260845072307, 0.0803832740324009, 0.529599286784495, -1.53262444026467, -1.03297339691613, 1.84325645544809], a = 0.2, v = 0.2, t = 0.2)
movej(p[-0.327827366129444, 0.0806565351451129, 0.530102990239291, -1.53262444026467, -1.03297339691613, 1.84325645544809], a = 0.2, v = 0.2, t = 0.2)
movej(p[-0.327827366129444, 0.0806565351451129, 0.530102990239291, -1.53462755427294, -1.03458515735193, 1.85053416594702], a = 0.2, v = 0.2, t = 0.2)
movej(p[-0.327935710169119, 0.0805713770392144, 0.529971667293594, -1.54250530334701, -1.03937550226326, 1.87564781644938], a = 0.2, v = 0.2, t = 0.2)
movej(p[-0.329158262774205, 0.0803820296830584, 0.529522580201245, -1.54713028545059, -1.04443858981412, 1.87536440521196], a = 0.2, v = 0.2, t = 0.2)
movej(p[-0.330841160995341, 0.0801874233197796, 0.528934891822364, -1.55185035903813, -1.0464804613449, 1.87094879365224], a = 0.2, v = 0.2, t = 0.2)
movej(p[-0.332611864496946, 0.079843380313536, 0.528128692660086, -1.55491056766317, -1.04687083436167, 1.86764383947079], a = 0.2, v = 0.2, t = 0.2)
movej(p[-0.334868668479275, 0.0794790348532353, 0.527206575280952, -1.55841902025544, -1.0452416660456, 1.85943083635636], a = 0.2, v = 0.2, t = 0.2)
movej(p[-0.337216357585211, 0.0792222274003169, 0.526483359916075, -1.55827075815565, -1.04638353169893, 1.84828057413704], a = 0.2, v = 0.2, t = 0.2)
movej(p[-0.339123553527126, 0.079106279479959, 0.525970852131834, -1.55674847678189, -1.05258127456395, 1.84480094068977], a = 0.2, v = 0.2, t = 0.2)
movej(p[-0.340498902610334, 0.0789313170122024, 0.525455027409475, -1.5563535821505, -1.05283623719797, 1.84493102761876], a = 0.2, v = 0.2, t = 0.2)
movej(p[-0.341566291819272, 0.0787223554515905, 0.52493826592404, -1.55525070062205, -1.05302959365453, 1.84437527672289], a = 0.2, v = 0.2, t = 0.2)
movej(p[-0.342217764021491, 0.0786588448612316, 0.524738540901452, -1.55541674920696, -1.0529754661328, 1.84369893294038], a = 0.2, v = 0.2, t = 0.2)
movej(p[-0.342217764021491, 0.0786588448612316, 0.524738540901452, -1.56371263967103, -1.05355080419001, 1.8307346279282], a = 0.2, v = 0.2, t = 0.2)
movej(p[-0.341830072343879, 0.0788706431500638, 0.525139368617507, -1.56820995837675, -1.05144973828596, 1.81958656856415], a = 0.2, v = 0.2, t = 0.2)
movej(p[-0.340052976351552, 0.0790706742300668, 0.525726596180798, -1.56587169292399, -1.05253089718302, 1.81810669090563], a = 0.2, v = 0.2, t = 0.2)
movej(p[-0.337806765409911, 0.0794037686521221, 0.526564994923431, -1.55330478769411, -1.04216343757905, 1.81959875456997], a = 0.2, v = 0.2, t = 0.2)
movej(p[-0.335551628106249, 0.0798130476447386, 0.527552006523077, -1.5445091808311, -1.04159957290398, 1.8179096655666], a = 0.2, v = 0.2, t = 0.2)
movej(p[-0.333533385155402, 0.0800425129025023, 0.528180569707518, -1.53756282082724, -1.03503759039169, 1.82328766148684], a = 0.2, v = 0.2, t = 0.2)
movej(p[-0.331535737470408, 0.0801466733120048, 0.528672242022918, -1.53405322906343, -1.03253673842876, 1.83268721095518], a = 0.2, v = 0.2, t = 0.2)
movej(p[-0.329405928166243, 0.0803802375132033, 0.529382415791661, -1.52855377122563, -1.02739654023965, 1.84028379364119], a = 0.2, v = 0.2, t = 0.2)
movej(p[-0.329171108852589, 0.0805297131421147, 0.52965486517466, -1.52466824666533, -1.02858278997877, 1.8549862452479], a = 0.2, v = 0.2, t = 0.2)
movej(p[-0.329171108852589, 0.0805297131421147, 0.52965486517466, -1.52861838788683, -1.03045951187053, 1.86721020722666], a = 0.2, v = 0.2, t = 0.2)
movej(p[-0.329635013703348, 0.0804306566557509, 0.529442987870658, -1.53757340619612, -1.02465915328074, 1.87921730968968], a = 0.2, v = 0.2, t = 0.2)
movej(p[-0.332751132631502, 0.0798961245222393, 0.528270017127697, -1.53840971875912, -1.02627123762015, 1.87886442210363], a = 0.2, v = 0.2, t = 0.2)
movej(p[-0.33708555406497, 0.0794009793358883, 0.52677642440492, -1.54081901188733, -1.0311677902232, 1.8618057480958], a = 0.2, v = 0.2, t = 0.2)
movej(p[-0.339287042014985, 0.0790505619352661, 0.525858370979853, -1.54957206920078, -1.0405513242147, 1.84308807175609], a = 0.2, v = 0.2, t = 0.2)
movej(p[-0.340496724643283, 0.078950803284803, 0.525459426459334, -1.5535569956585, -1.04923158366506, 1.84015748390195], a = 0.2, v = 0.2, t = 0.2)
movej(p[-0.341085415791558, 0.0788343453196478, 0.525206601768501, -1.55441865150462, -1.04875912614511, 1.83890914899762], a = 0.2, v = 0.2, t = 0.2)
movej(p[-0.341593813203494, 0.078752094046776, 0.52497077437474, -1.55350308926309, -1.0484587414977, 1.83863253629932], a = 0.2, v = 0.2, t = 0.2)
movej(p[-0.341769780184232, 0.0785461024719068, 0.524656476565691, -1.55360979973026, -1.04735758108763, 1.83810352318978], a = 0.2, v = 0.2, t = 0.2)
movej(p[-0.341937704687033, 0.0784182289196021, 0.52444165811681, -1.55356840781748, -1.04667491653153, 1.83789650789857], a = 0.2, v = 0.2, t = 0.2)
movej(p[-0.342163892190955, 0.0783483938933789, 0.524294302044041, -1.55343858788744, -1.04640556126586, 1.83795570024658], a = 0.2, v = 0.2, t = 0.2)
movej(p[-0.342163892190955, 0.0783483938933789, 0.524294302044041, -1.55338673166821, -1.04644406713131, 1.83791633383966], a = 0.2, v = 0.2, t = 0.2)
movej(p[-0.341740724739782, 0.0787241705894495, 0.524894526679454, -1.55513143927433, -1.04571589684596, 1.83543960297597], a = 0.2, v = 0.2, t = 0.2)
movej(p[-0.340025536184492, 0.0788514461721371, 0.525408101022518, -1.55781501377124, -1.0453440296769, 1.82992028631984], a = 0.2, v = 0.2, t = 0.2)
movej(p[-0.338232785141502, 0.0789559476475978, 0.525837889981761, -1.55675884998256, -1.04813683981762, 1.82204565740754], a = 0.2, v = 0.2, t = 0.2)
movej(p[-0.336194628601093, 0.0792104199932529, 0.526579062466465, -1.55678016499302, -1.04817589437658, 1.82203629468703], a = 0.2, v = 0.2, t = 0.2)
movej(p[-0.334549121907691, 0.0794353194368869, 0.527165888907776, -1.55717465773703, -1.04943060056219, 1.82886892595827], a = 0.2, v = 0.2, t = 0.2)
movej(p[-0.332669646047765, 0.079553215770303, 0.527743389389616, -1.55647959570924, -1.04979544095456, 1.83006721416605], a = 0.2, v = 0.2, t = 0.2)
movej(p[-0.33157320535351, 0.0795606635584414, 0.527967864832441, -1.55021799273143, -1.04751403349574, 1.83777140237719], a = 0.2, v = 0.2, t = 0.2)
movej(p[-0.331111471530345, 0.0796057594910308, 0.52815025815307, -1.54922012187166, -1.04759121351616, 1.83903912692886], a = 0.2, v = 0.2, t = 0.2)
movej(p[-0.330649717098574, 0.0796507772307286, 0.528332710305297, -1.54822241278086, -1.04766496678771, 1.84030822190675], a = 0.2, v = 0.2, t = 0.2)
movej(p[-0.33018798327541, 0.079695873163318, 0.528515103625926, -1.54722528102548, -1.04774045902706, 1.84157388876864], a = 0.2, v = 0.2, t = 0.2)
movej(p[-0.32930520948541, 0.0802499450981459, 0.529253852017954, -1.53943098849588, -1.04494349747306, 1.8523707451047], a = 0.2, v = 0.2, t = 0.2)
movej(p[-0.328252971838116, 0.0802340280855911, 0.529497432871736, -1.54287987026571, -1.04238289081034, 1.85532496704087], a = 0.2, v = 0.2, t = 0.2)
movej(p[-0.328247120727715, 0.0802098364692156, 0.529463230237273, -1.54365942356664, -1.04120294134221, 1.8714069488525], a = 0.2, v = 0.2, t = 0.2)
movej(p[-0.328682427772717, 0.0801043065475062, 0.529364463278248, -1.55004320293291, -1.04521381800521, 1.88438171540434], a = 0.2, v = 0.2, t = 0.2)
movej(p[-0.331451873720421, 0.0798064065362241, 0.528419575794985, -1.55291815534795, -1.04888180293346, 1.8851367766363], a = 0.2, v = 0.2, t = 0.2)
movej(p[-0.333594309364059, 0.0793930598457209, 0.527501223059747, -1.55340529062013, -1.04984155605922, 1.88492159273766], a = 0.2, v = 0.2, t = 0.2)
movej(p[-0.336584405201872, 0.0791442716462439, 0.526518727918539, -1.55487936739556, -1.04936997882581, 1.87833205090486], a = 0.2, v = 0.2, t = 0.2)
movej(p[-0.339730858127589, 0.0787589252005877, 0.525440101063197, -1.55524819824863, -1.05099771087307, 1.86466017580151], a = 0.2, v = 0.2, t = 0.2)
movej(p[-0.340810666978034, 0.0785712711906694, 0.524908246506892, -1.55578025794917, -1.05161873399023, 1.85276985668366], a = 0.2, v = 0.2, t = 0.2)
movej(p[-0.341833923554035, 0.0786217882624763, 0.524608543078272, -1.5525016536175, -1.04949739545371, 1.84866358767515], a = 0.2, v = 0.2, t = 0.2)
movej(p[-0.341850641646188, 0.0786658486125433, 0.524663441174293, -1.55262973460852, -1.04942229089969, 1.84847618335286], a = 0.2, v = 0.2, t = 0.2)
movej(p[-0.341856603415888, 0.0786904977535784, 0.524698290667091, -1.55498469724058, -1.04719294020441, 1.84438365099664], a = 0.2, v = 0.2, t = 0.2)
movej(p[-0.340322123619792, 0.0789512526207568, 0.525320162032099, -1.55660938166978, -1.04500591160573, 1.84078049374631], a = 0.2, v = 0.2, t = 0.2)
movej(p[-0.338195929567117, 0.0792302869004883, 0.526110223859492, -1.55354680609776, -1.0431727804417, 1.83840203140427], a = 0.2, v = 0.2, t = 0.2)
movej(p[-0.336025481813552, 0.0796609210500752, 0.526989727843709, -1.54085296224724, -1.03859705353962, 1.83524257129098], a = 0.2, v = 0.2, t = 0.2)
movej(p[-0.333984425372383, 0.0798909413657175, 0.527601518533698, -1.53460941336521, -1.03509484181048, 1.83434827091033], a = 0.2, v = 0.2, t = 0.2)
movej(p[-0.332401886117314, 0.0799131429001166, 0.528078168392644, -1.53296468582714, -1.03269116839173, 1.83529894019179], a = 0.2, v = 0.2, t = 0.2)
movej(p[-0.330320084368683, 0.0800289061304229, 0.528703662672321, -1.52785453705746, -1.03140911299348, 1.84345339217337], a = 0.2, v = 0.2, t = 0.2)
movej(p[-0.328306960417547, 0.0804279346968631, 0.529579102384995, -1.52408264243308, -1.03314795236704, 1.85153142079871], a = 0.2, v = 0.2, t = 0.2)
movej(p[-0.328306960417547, 0.0804279346968631, 0.529579102384995, -1.53380471259606, -1.03433795371205, 1.87233938607575], a = 0.2, v = 0.2, t = 0.2)
movej(p[-0.329845071316252, 0.0799179278251236, 0.528953578169584, -1.54047958540934, -1.03770414404472, 1.87690988197065], a = 0.2, v = 0.2, t = 0.2)
movej(p[-0.332539810078529, 0.0795639167120904, 0.52798324347221, -1.5415988675393, -1.03987171410916, 1.87642336772544], a = 0.2, v = 0.2, t = 0.2)
movej(p[-0.335577108341316, 0.0792157766636572, 0.526839341326242, -1.54751108904966, -1.04120320222362, 1.85384169029359], a = 0.2, v = 0.2, t = 0.2)
movej(p[-0.337496911509487, 0.0790720300112414, 0.526099339369895, -1.55547699181973, -1.04807247560939, 1.8459831166333], a = 0.2, v = 0.2, t = 0.2)
movej(p[-0.338050634189227, 0.0787787473108405, 0.525745428036949, -1.5558346755825, -1.04874584445205, 1.84582580525915], a = 0.2, v = 0.2, t = 0.2)
movej(p[-0.338445044695173, 0.0787416296327189, 0.525634703736227, -1.55717415311746, -1.05017329248431, 1.84662846331693], a = 0.2, v = 0.2, t = 0.2)
movej(p[-0.339787093718175, 0.0787253882360636, 0.525306781295863, -1.55632469800601, -1.05065047172732, 1.84775988807709], a = 0.2, v = 0.2, t = 0.2)
movej(p[-0.340923201791154, 0.0785340730594338, 0.524770234895538, -1.55100777474126, -1.04798922657183, 1.84886078856245], a = 0.2, v = 0.2, t = 0.2)
movej(p[-0.341565997165133, 0.0785295992663718, 0.524544459935971, -1.54685223591905, -1.04713797118756, 1.84750171182551], a = 0.2, v = 0.2, t = 0.2)
movej(p[-0.341967546020059, 0.0783823421415165, 0.524306847864967, -1.54776609379628, -1.04628294874615, 1.84599508221146], a = 0.2, v = 0.2, t = 0.2)
movej(p[-0.341967546020059, 0.0783823421415165, 0.524306847864967, -1.55167814090077, -1.04415301779936, 1.84027222813036], a = 0.2, v = 0.2, t = 0.2)
movej(p[-0.341282237714979, 0.0785684309697544, 0.524679565499368, -1.56043250545096, -1.05211207078567, 1.83330181986592], a = 0.2, v = 0.2, t = 0.2)
movej(p[-0.339972876899143, 0.078729316976365, 0.525173280454409, -1.56238002155177, -1.05145670129667, 1.8256356909289], a = 0.2, v = 0.2, t = 0.2)
movej(p[-0.33813820924959, 0.0789300189379227, 0.525836419375231, -1.55984963353732, -1.04711441191049, 1.82613539256582], a = 0.2, v = 0.2, t = 0.2)
movej(p[-0.336667411166385, 0.079538018893563, 0.526698714071017, -1.55167668812338, -1.04806662351937, 1.80705870457944], a = 0.2, v = 0.2, t = 0.2)
movej(p[-0.334955454588771, 0.0795152531520778, 0.52710476867003, -1.54860368784413, -1.04964923814225, 1.80305286418801], a = 0.2, v = 0.2, t = 0.2)
movej(p[-0.333181952481039, 0.0794269596921554, 0.527528124015815, -1.54627379669365, -1.04547499829774, 1.8040816295126], a = 0.2, v = 0.2, t = 0.2)
movej(p[-0.331243985348351, 0.0794790175205919, 0.528160467020141, -1.5366170513255, -1.0398875892423, 1.81624789815922], a = 0.2, v = 0.2, t = 0.2)
movej(p[-0.330510637284576, 0.0796288476546157, 0.52845524686731, -1.53441352646015, -1.03953034390295, 1.83534149926218], a = 0.2, v = 0.2, t = 0.2)
movej(p[-0.330510637284576, 0.0796288476546157, 0.52845524686731, -1.53774887148398, -1.04040781836197, 1.85057507434486], a = 0.2, v = 0.2, t = 0.2)
movej(p[-0.333100665053228, 0.0792835927931037, 0.527598910923758, -1.54343568821918, -1.04119823763053, 1.85259006404845], a = 0.2, v = 0.2, t = 0.2)
movej(p[-0.335998725186012, 0.07860966591254, 0.52637063714059, -1.54443544876075, -1.04146619200469, 1.85155595054529], a = 0.2, v = 0.2, t = 0.2)
movej(p[-0.338097239924234, 0.0783680516095482, 0.52571393126879, -1.54974657762119, -1.04253345137931, 1.83940815607901], a = 0.2, v = 0.2, t = 0.2)
movej(p[-0.339304045083264, 0.0783667069249657, 0.525190835302487, -1.55364897618544, -1.05353203704741, 1.83597124278787], a = 0.2, v = 0.2, t = 0.2)
movej(p[-0.339989184271903, 0.0780499088389414, 0.524833177260663, -1.55741682734282, -1.06371414136698, 1.8334808496716], a = 0.2, v = 0.2, t = 0.2)
movej(p[-0.340248071544721, 0.078168980244108, 0.524662619996249, -1.55643326871244, -1.06674933861174, 1.83163265455631], a = 0.2, v = 0.2, t = 0.2)
movej(p[-0.340842136249028, 0.0779732027413583, 0.524401781202136, -1.55594681010836, -1.06701992678917, 1.83227435775571], a = 0.2, v = 0.2, t = 0.2)
movej(p[-0.341229878228853, 0.0778354325076585, 0.524311322483442, -1.55440067659161, -1.06653332417364, 1.84331094211022], a = 0.2, v = 0.2, t = 0.2)
movej(p[-0.341290044913986, 0.0777731958292637, 0.524247470499428, -1.55435407992298, -1.06473813753166, 1.84413323067936], a = 0.2, v = 0.2, t = 0.2)
movej(p[-0.341381392642034, 0.0777155071710276, 0.524155032188694, -1.55456310410233, -1.06458543668567, 1.84429400345509], a = 0.2, v = 0.2, t = 0.2)
movej(p[-0.341800523309859, 0.0776731506628959, 0.52410141680371, -1.55583557453732, -1.06383412477681, 1.84311752937894], a = 0.2, v = 0.2, t = 0.2)
movej(p[-0.341942683503075, 0.0776663856039063, 0.524081882130904, -1.5502076640385, -1.05311343648027, 1.84562245454475], a = 0.2, v = 0.2, t = 0.2)
movej(p[-0.342442708070527, 0.0780777039030432, 0.523899955693188, -1.54572425064958, -1.04464864143998, 1.8475981132111], a = 0.2, v = 0.2, t = 0.2)
movej(p[-0.342698972110369, 0.0780279529302828, 0.523891305109796, -1.54580083436234, -1.04459220719363, 1.84765593110064], a = 0.2, v = 0.2, t = 0.2)
movej(p[-0.342931161576112, 0.0780281035333349, 0.52385147748977, -1.54655598009032, -1.04516888451087, 1.8476779638027], a = 0.2, v = 0.2, t = 0.2)
movej(p[-0.342977352523436, 0.0782068349720618, 0.523808430199543, -1.54772175958345, -1.04645252701888, 1.84752614807937], a = 0.2, v = 0.2, t = 0.2)
movej(p[-0.342946386280438, 0.0783029460305552, 0.523925323681953, -1.54941537680588, -1.0466375629566, 1.84567848076526], a = 0.2, v = 0.2, t = 0.2)
movej(p[-0.342465697851928, 0.0783703569267539, 0.52413821495883, -1.55174466200859, -1.0457661773502, 1.84259919099111], a = 0.2, v = 0.2, t = 0.2)
movej(p[-0.34140276234167, 0.078538290747745, 0.524594187801002, -1.55633678029619, -1.04777414312881, 1.83695150664467], a = 0.2, v = 0.2, t = 0.2)
movej(p[-0.340189970850445, 0.0787629831429727, 0.525095880870856, -1.55967414914817, -1.04799043782537, 1.83163358160701], a = 0.2, v = 0.2, t = 0.2)
movej(p[-0.33829919675712, 0.079081220995296, 0.525769459683883, -1.55934802280108, -1.04861232662634, 1.82709412981121], a = 0.2, v = 0.2, t = 0.2)
movej(p[-0.336403409076877, 0.0791500584369405, 0.526432930623766, -1.55506580770664, -1.04958570684273, 1.82486073943649], a = 0.2, v = 0.2, t = 0.2)
movej(p[-0.334249943187704, 0.079247659307286, 0.52720448475296, -1.54412190477242, -1.03571897979291, 1.83201697213752], a = 0.2, v = 0.2, t = 0.2)
movej(p[-0.332268836322165, 0.0796415829414407, 0.528061238216779, -1.53806175873515, -1.03576674932606, 1.83680179628226], a = 0.2, v = 0.2, t = 0.2)
movej(p[-0.330140043882529, 0.0798351137995087, 0.528955507497212, -1.53674935636558, -1.03334484331473, 1.83736812580674], a = 0.2, v = 0.2, t = 0.2)
movej(p[-0.328047712531199, 0.0800189510440805, 0.529702975405386, -1.53295827364455, -1.02808598362958, 1.83966460554675], a = 0.2, v = 0.2, t = 0.2)
movej(p[-0.326942440716309, 0.0802911141367686, 0.530072557529124, -1.52128659155845, -1.02272590778675, 1.85592958522522], a = 0.2, v = 0.2, t = 0.2)
movej(p[-0.326958832124879, 0.0803588849769695, 0.530168373419995, -1.5193737446701, -1.01918652562382, 1.86615664302227], a = 0.2, v = 0.2, t = 0.2)
movej(p[-0.327233329229555, 0.0803543804686174, 0.530124600723835, -1.51902803976502, -1.01825774941325, 1.87854530859654], a = 0.2, v = 0.2, t = 0.2)
movej(p[-0.328344055449221, 0.080071356908387, 0.529685212513591, -1.52694969080843, -1.02429849525858, 1.87919294737047], a = 0.2, v = 0.2, t = 0.2)
movej(p[-0.329518925659021, 0.07975282573624, 0.529220760823431, -1.53102797411255, -1.02860241189362, 1.87614554750414], a = 0.2, v = 0.2, t = 0.2)
movej(p[-0.331100503925364, 0.0796623573404866, 0.528620405539618, -1.53844025869809, -1.03111282791779, 1.85566310658513], a = 0.2, v = 0.2, t = 0.2)
movej(p[-0.334930565074667, 0.0789444483211458, 0.527016451870538, -1.54156781799883, -1.03379373042339, 1.84138176027171], a = 0.2, v = 0.2, t = 0.2)
movej(p[-0.337395028417151, 0.0787781255012411, 0.526089295242384, -1.54121705237918, -1.03470097779376, 1.83417558983089], a = 0.2, v = 0.2, t = 0.2)
movej(p[-0.338869836625348, 0.0785638790209642, 0.525471450233725, -1.54299591537013, -1.03437958640426, 1.82486661380346], a = 0.2, v = 0.2, t = 0.2)
movej(p[-0.340237289096978, 0.0787523924986811, 0.524986195767954, -1.54674978684623, -1.04122454026216, 1.82324294735985], a = 0.2, v = 0.2, t = 0.2)
movej(p[-0.340685385379473, 0.0785835954382837, 0.524786403640943, -1.5532953661537, -1.04596233431524, 1.8239797727865], a = 0.2, v = 0.2, t = 0.2)
movej(p[-0.341094688996952, 0.0783958747658812, 0.52461603184788, -1.55354683788514, -1.04577440928476, 1.82417092738178], a = 0.2, v = 0.2, t = 0.2)
movej(p[-0.341461919278226, 0.0784639193743378, 0.524496176344147, -1.5554725684867, -1.04747431975255, 1.82321633353791], a = 0.2, v = 0.2, t = 0.2)
movej(p[-0.341937941664236, 0.0785618310469419, 0.524326814210288, -1.55768906352025, -1.04606118775362, 1.82218267978242], a = 0.2, v = 0.2, t = 0.2)
movej(p[-0.342105468241319, 0.0784814168637767, 0.524251763926365, -1.55807157811036, -1.04628669498893, 1.82183434251899], a = 0.2, v = 0.2, t = 0.2)
movej(p[-0.342415151778032, 0.0783741310706116, 0.524107337454853, -1.55816299659655, -1.04645403330242, 1.82179438779807], a = 0.2, v = 0.2, t = 0.2)
movej(p[-0.342422735745246, 0.0784029060547513, 0.524085687426468, -1.56157465774393, -1.04410188807245, 1.82205107797277], a = 0.2, v = 0.2, t = 0.2)
movej(p[-0.341829675965115, 0.0788515419141957, 0.524474220118544, -1.56432421103695, -1.04083045227883, 1.81765722086074], a = 0.2, v = 0.2, t = 0.2)
movej(p[-0.340290761233457, 0.0791886161638343, 0.525047074208971, -1.56138943334264, -1.03635696101201, 1.81492895086197], a = 0.2, v = 0.2, t = 0.2)
movej(p[-0.337970004378915, 0.0794883865268943, 0.52596260850736, -1.55663931960639, -1.03626478529607, 1.81303857017164], a = 0.2, v = 0.2, t = 0.2)
movej(p[-0.335603574402811, 0.0797610186433859, 0.526889815489242, -1.54841213424047, -1.023814975563, 1.81693050732447], a = 0.2, v = 0.2, t = 0.2)
movej(p[-0.333518874788186, 0.080038107969046, 0.527733641977561, -1.54143903467255, -1.02003002693771, 1.81710191968863], a = 0.2, v = 0.2, t = 0.2)
movej(p[-0.331303687840584, 0.0800712994860352, 0.528537689893031, -1.53467909147856, -1.0221582208837, 1.81481274662162], a = 0.2, v = 0.2, t = 0.2)
movej(p[-0.328939928026705, 0.0801846915220743, 0.529425693214227, -1.53034926799402, -1.01820577628506, 1.81818931567411], a = 0.2, v = 0.2, t = 0.2)
movej(p[-0.326908343951095, 0.0805230358323908, 0.530273502963761, -1.52199868556118, -1.01108558371912, 1.83156598158897], a = 0.2, v = 0.2, t = 0.2)
movej(p[-0.326617808638621, 0.0806342720202898, 0.530400481515916, -1.52134111990604, -1.00954277930476, 1.83665785172559], a = 0.2, v = 0.2, t = 0.2)
movej(p[-0.326607978333293, 0.0805969740109566, 0.530428544188578, -1.52128221046865, -1.00908838485958, 1.84150174845115], a = 0.2, v = 0.2, t = 0.2)
movej(p[-0.326922814850297, 0.0804538745781832, 0.53034863786905, -1.52892547134957, -1.00865003372261, 1.85676193883926], a = 0.2, v = 0.2, t = 0.2)
movej(p[-0.32887781562395, 0.0798250706800246, 0.529608930736005, -1.53091524508815, -1.01235380724022, 1.85594679762547], a = 0.2, v = 0.2, t = 0.2)
movej(p[-0.3331350938612, 0.0794546247992714, 0.527925317434183, -1.53966500421833, -1.01447693524612, 1.84022297122919], a = 0.2, v = 0.2, t = 0.2)
movej(p[-0.33751919927447, 0.0787828994906684, 0.52608916402689, -1.54468941933991, -1.02361543409849, 1.83577661942656], a = 0.2, v = 0.2, t = 0.2)
movej(p[-0.339250017972101, 0.0785336638355087, 0.525411829128829, -1.54613831239093, -1.02671835343263, 1.83496866727527], a = 0.2, v = 0.2, t = 0.2)
movej(p[-0.339954378868769, 0.078546615275939, 0.525081200806638, -1.55043128891945, -1.03481547937632, 1.83322662327809], a = 0.2, v = 0.2, t = 0.2)
movej(p[-0.34066967973265, 0.0784585446738782, 0.524817309610908, -1.55387181217896, -1.04114146249973, 1.83176820694936], a = 0.2, v = 0.2, t = 0.2)
movej(p[-0.34089499477433, 0.0783289515550315, 0.524723995273637, -1.5539578317894, -1.042388489695, 1.83704280656501], a = 0.2, v = 0.2, t = 0.2)
movej(p[-0.34105563015841, 0.0782535243723573, 0.524670836798344, -1.5576061576761, -1.04252709628493, 1.83868832629946], a = 0.2, v = 0.2, t = 0.2)
movej(p[-0.341321043472441, 0.0781740327142554, 0.524658158508754, -1.55785967189473, -1.04299916673987, 1.8385784412131], a = 0.2, v = 0.2, t = 0.2)
movej(p[-0.341788406432481, 0.0781231067193933, 0.524465568953922, -1.56136350222765, -1.04668792932814, 1.83599197925939], a = 0.2, v = 0.2, t = 0.2)
movej(p[-0.341971248566184, 0.0780703753985888, 0.524331710738077, -1.56753534255567, -1.05378946472512, 1.83531528436361], a = 0.2, v = 0.2, t = 0.2)
movej(p[-0.342289139895076, 0.0779607467224493, 0.524297360390438, -1.56731961882994, -1.05492124772435, 1.84463078452967], a = 0.2, v = 0.2, t = 0.2)
movej(p[-0.342517992644073, 0.0780584161478659, 0.524187273140424, -1.56812214872136, -1.05432542506609, 1.84524662172086], a = 0.2, v = 0.2, t = 0.2)
movej(p[-0.342996935815825, 0.0781869533743503, 0.524014424681828, -1.56893019459161, -1.05371420620704, 1.84599977243478], a = 0.2, v = 0.2, t = 0.2)
movej(p[-0.343118751489631, 0.0780824011623777, 0.523918136486358, -1.57165184909735, -1.05535305603042, 1.84592293815711], a = 0.2, v = 0.2, t = 0.2)
movej(p[-0.34310438729086, 0.078027900716874, 0.523959142110771, -1.57327453759375, -1.0541566866756, 1.84703159075821], a = 0.2, v = 0.2, t = 0.2)
movej(p[-0.34230744615092, 0.0783260566503245, 0.52431473041038, -1.5756019022276, -1.04034822815554, 1.84533146884508], a = 0.2, v = 0.2, t = 0.2)
movej(p[-0.341477806720584, 0.0787505668257584, 0.524702548623704, -1.57845768791648, -1.03867623632936, 1.84146711210783], a = 0.2, v = 0.2, t = 0.2)
movej(p[-0.340457654392181, 0.0790430747404784, 0.525081394722642, -1.57671402514653, -1.03882859089413, 1.8370273106188], a = 0.2, v = 0.2, t = 0.2)
movej(p[-0.339576510627887, 0.0790112406688326, 0.525449932330664, -1.57749782542196, -1.03519421620575, 1.83326138198634], a = 0.2, v = 0.2, t = 0.2)
movej(p[-0.336620964444781, 0.079159309613541, 0.526685123144725, -1.57632553898759, -1.03575710842379, 1.83251903778086], a = 0.2, v = 0.2, t = 0.2)
movej(p[-0.333987710581095, 0.0796864491507449, 0.527704658106217, -1.56958021655138, -1.03376234712322, 1.83284095612519], a = 0.2, v = 0.2, t = 0.2)
movej(p[-0.331470118075444, 0.0799349462589705, 0.52867788737658, -1.56173932821202, -1.0341914036227, 1.83543995239363], a = 0.2, v = 0.2, t = 0.2)
movej(p[-0.329032298005105, 0.0800174672452706, 0.529698469529801, -1.5574836897899, -1.03003588675033, 1.83867850995282], a = 0.2, v = 0.2, t = 0.2)
movej(p[-0.327389642843203, 0.0804101465885088, 0.530238857688877, -1.54725473651601, -1.02288827592691, 1.84981641897583], a = 0.2, v = 0.2, t = 0.2)
movej(p[-0.327041907386821, 0.0804730527297761, 0.530543497886103, -1.5382214317162, -1.01685477017397, 1.8691797076452], a = 0.2, v = 0.2, t = 0.2)
movej(p[-0.327041907386821, 0.0804730527297761, 0.530543497886103, -1.53755680604164, -1.01718641955448, 1.87048320648172], a = 0.2, v = 0.2, t = 0.2)
movej(p[-0.327038096621547, 0.0803896715896708, 0.530431341372504, -1.53966033969747, -1.01486449070427, 1.88334881280925], a = 0.2, v = 0.2, t = 0.2)
movej(p[-0.328269237467358, 0.0798361119962802, 0.530100867130933, -1.5487027724675, -1.01705986694603, 1.88618428363236], a = 0.2, v = 0.2, t = 0.2)
movej(p[-0.330452806377545, 0.0795251042196926, 0.529227386113756, -1.56091387857385, -1.03483077603791, 1.87890244000028], a = 0.2, v = 0.2, t = 0.2)
movej(p[-0.332048346956815, 0.0790659755526888, 0.528579796539229, -1.56518164053138, -1.03311287806527, 1.87114522253229], a = 0.2, v = 0.2, t = 0.2)
movej(p[-0.334081364215524, 0.0786525168559233, 0.527833227023468, -1.56611538545711, -1.03286173850575, 1.86634961817562], a = 0.2, v = 0.2, t = 0.2)
movej(p[-0.336289718309203, 0.0784491207676397, 0.526875186978271, -1.56794664587316, -1.03236846257922, 1.85705151704142], a = 0.2, v = 0.2, t = 0.2)
movej(p[-0.338352473134019, 0.0785689400175557, 0.525969203037991, -1.56710795626227, -1.03839157599685, 1.85400412900111], a = 0.2, v = 0.2, t = 0.2)
movej(p[-0.33957046626448, 0.0783093768145132, 0.525458510539733, -1.56793973178166, -1.0440253175784, 1.85138233912302], a = 0.2, v = 0.2, t = 0.2)
movej(p[-0.340771448005932, 0.0780760378816107, 0.524966684951652, -1.56731962933239, -1.0445344417254, 1.85034989571046], a = 0.2, v = 0.2, t = 0.2)
movej(p[-0.341497774652001, 0.0780393775500269, 0.524668749869296, -1.56842205593912, -1.0466206332659, 1.84987250666608], a = 0.2, v = 0.2, t = 0.2)
movej(p[-0.34227215976396, 0.07832141119822, 0.524297215254942, -1.56999837164202, -1.04837616085377, 1.84842361112663], a = 0.2, v = 0.2, t = 0.2)
movej(p[-0.342374068141004, 0.0782923441871699, 0.52429428070952, -1.57219812770577, -1.05043365152095, 1.84994651570806], a = 0.2, v = 0.2, t = 0.2)
movej(p[-0.342488638925386, 0.078046635980126, 0.52424020278096, -1.57385948553815, -1.05076567951729, 1.84898131554392], a = 0.2, v = 0.2, t = 0.2)
movej(p[-0.342483734077025, 0.0780280260719052, 0.524254204701492, -1.57937160432536, -1.04757076167605, 1.84160173912074], a = 0.2, v = 0.2, t = 0.2)
movej(p[-0.340728106296175, 0.0788035350338348, 0.524906375419228, -1.57896174442398, -1.03938080056446, 1.83383734869951], a = 0.2, v = 0.2, t = 0.2)
movej(p[-0.338342898356012, 0.0790741174280843, 0.5258832621425, -1.5779096504501, -1.03865317236447, 1.83005288609246], a = 0.2, v = 0.2, t = 0.2)
movej(p[-0.336095311221461, 0.0791324023897064, 0.526873849375333, -1.57522318092194, -1.03437814237681, 1.83087672199691], a = 0.2, v = 0.2, t = 0.2)
movej(p[-0.333973020874634, 0.0792009372714791, 0.527778490670955, -1.56827312490572, -1.02822407992818, 1.83465554139088], a = 0.2, v = 0.2, t = 0.2)
movej(p[-0.332057855090992, 0.0795745399606862, 0.528530368527913, -1.56678447141503, -1.02925722361306, 1.83465042941932], a = 0.2, v = 0.2, t = 0.2)
movej(p[-0.33039517836899, 0.0796877685746153, 0.529203445974498, -1.5639185871197, -1.03171973281087, 1.83887970421865], a = 0.2, v = 0.2, t = 0.2)
movej(p[-0.328953055251236, 0.0797063661975065, 0.529822739936734, -1.56192243961124, -1.03262652163172, 1.84420380533496], a = 0.2, v = 0.2, t = 0.2)
movej(p[-0.327639504596281, 0.0798846495401237, 0.530385873390377, -1.55818483497375, -1.02932767490749, 1.85383738010071], a = 0.2, v = 0.2, t = 0.2)
movej(p[-0.327507392331764, 0.0799163222583053, 0.53047177844545, -1.55452138274782, -1.03106218754499, 1.86274419857223], a = 0.2, v = 0.2, t = 0.2)
movej(p[-0.327507392331764, 0.0799163222583053, 0.53047177844545, -1.55756373599133, -1.03000260392854, 1.87799410778792], a = 0.2, v = 0.2, t = 0.2)
movej(p[-0.328390944686984, 0.0794812528800471, 0.530203035963349, -1.56261825903265, -1.03018202119703, 1.88350980476157], a = 0.2, v = 0.2, t = 0.2)
movej(p[-0.329953764448996, 0.0789679008261271, 0.529673848510548, -1.5670280241608, -1.03022406008597, 1.88970429266552], a = 0.2, v = 0.2, t = 0.2)
movej(p[-0.332046122766305, 0.0790280063648689, 0.52882074259907, -1.5682735420949, -1.03267274484704, 1.88918336067293], a = 0.2, v = 0.2, t = 0.2)
movej(p[-0.334156770814956, 0.0785886762323048, 0.527969244777964, -1.57639892305876, -1.0386221139912, 1.87273885825206], a = 0.2, v = 0.2, t = 0.2)
movej(p[-0.335918565524883, 0.0783185713183476, 0.527262785136137, -1.5808977766968, -1.04236021867651, 1.8667144937187], a = 0.2, v = 0.2, t = 0.2)
movej(p[-0.337709995673543, 0.0781688827510897, 0.52650034278074, -1.57991368916152, -1.04327730262106, 1.86362130814596], a = 0.2, v = 0.2, t = 0.2)
movej(p[-0.339325776540567, 0.0781390932742824, 0.52576773761639, -1.57837602158159, -1.04822132108675, 1.85988240401237], a = 0.2, v = 0.2, t = 0.2)
movej(p[-0.340406770888329, 0.0781412785718116, 0.525239427343368, -1.57898334499584, -1.04931240870958, 1.85939091153082], a = 0.2, v = 0.2, t = 0.2)
movej(p[-0.340892702830915, 0.0780433020028305, 0.52504095082308, -1.57940041633759, -1.05028196056554, 1.85913406040474], a = 0.2, v = 0.2, t = 0.2)
movej(p[-0.341608214123897, 0.0779751182938497, 0.52475937100945, -1.57809502099091, -1.05104421667799, 1.86087115995631], a = 0.2, v = 0.2, t = 0.2)
movej(p[-0.342563145835083, 0.0781113391355568, 0.524278529300301, -1.57464129279901, -1.05357111562615, 1.85874388588597], a = 0.2, v = 0.2, t = 0.2)
movej(p[-0.342979290448305, 0.0780508199835672, 0.524192758949199, -1.57699958560226, -1.05747962977939, 1.85748384075452], a = 0.2, v = 0.2, t = 0.2)
movej(p[-0.343153027293632, 0.0780056478356798, 0.524192390667913, -1.58247522689163, -1.053714793646, 1.85767180656093], a = 0.2, v = 0.2, t = 0.2)
movej(p[-0.343152883033386, 0.078005100485438, 0.524192802489105, -1.58575264210697, -1.05144736540804, 1.85514049033056], a = 0.2, v = 0.2, t = 0.2)
movej(p[-0.342261954484761, 0.0783087589084127, 0.524559835421416, -1.5859085770038, -1.04532652050829, 1.85274155596661], a = 0.2, v = 0.2, t = 0.2)
movej(p[-0.341052214919358, 0.0788286239302547, 0.524932742209988, -1.58717309510108, -1.03992636106707, 1.84573670801636], a = 0.2, v = 0.2, t = 0.2)
movej(p[-0.339136653940291, 0.0789893086910759, 0.525774931857939, -1.58835402328255, -1.03931532962042, 1.84292376947115], a = 0.2, v = 0.2, t = 0.2)
movej(p[-0.336949086538207, 0.0789479641694212, 0.526770560695342, -1.58724227109686, -1.03943186605968, 1.84240129323307], a = 0.2, v = 0.2, t = 0.2)
movej(p[-0.334814195539603, 0.0793006813104872, 0.527539923511235, -1.58019495246944, -1.03496723320158, 1.84376726397557], a = 0.2, v = 0.2, t = 0.2)
movej(p[-0.333033556791326, 0.0797148344224378, 0.528203127415021, -1.57388513338009, -1.03241434727383, 1.84624209325094], a = 0.2, v = 0.2, t = 0.2)
movej(p[-0.331223622684505, 0.0798307758185531, 0.528899106683127, -1.56751260834026, -1.0292084323529, 1.85008431818864], a = 0.2, v = 0.2, t = 0.2)
movej(p[-0.329489430037867, 0.0799363921753846, 0.529653618803318, -1.56102201543112, -1.0265110164062, 1.85643691275781], a = 0.2, v = 0.2, t = 0.2)
movej(p[-0.327823794146962, 0.0803414325673556, 0.530176209474686, -1.55412853146172, -1.02290277000336, 1.86290927582542], a = 0.2, v = 0.2, t = 0.2)
movej(p[-0.3276284936024, 0.0803544494985039, 0.530301702569306, -1.55090925785535, -1.02429300505268, 1.86903997474021], a = 0.2, v = 0.2, t = 0.2)
movej(p[-0.327608008647481, 0.08027672576417, 0.530360181178584, -1.55336465926776, -1.02133800527753, 1.88430525627159], a = 0.2, v = 0.2, t = 0.2)
movej(p[-0.328502883598922, 0.0798140395755228, 0.530058699567008, -1.56077830383185, -1.02649235686879, 1.89183813224141], a = 0.2, v = 0.2, t = 0.2)
movej(p[-0.32946241536241, 0.0794405077581802, 0.529847708865103, -1.56562393392895, -1.03018389849575, 1.89232858453487], a = 0.2, v = 0.2, t = 0.2)
movej(p[-0.331679866420413, 0.0790430974847412, 0.529051434703821, -1.57258766513018, -1.03389777439016, 1.88581732119674], a = 0.2, v = 0.2, t = 0.2)
movej(p[-0.334846847455595, 0.0785888996400664, 0.527811829149344, -1.5767804720702, -1.03862450311408, 1.8739738625994], a = 0.2, v = 0.2, t = 0.2)
movej(p[-0.337320635148329, 0.0782445548265866, 0.526834735197513, -1.58194204597322, -1.03616425883415, 1.85964942497358], a = 0.2, v = 0.2, t = 0.2)
movej(p[-0.338904018954781, 0.0781499844688223, 0.526145082075358, -1.5768379745344, -1.03958155603206, 1.85036423766768], a = 0.2, v = 0.2, t = 0.2)
movej(p[-0.340641142540685, 0.0783855276338425, 0.52527441897478, -1.57377657587702, -1.04188590596641, 1.84803326764925], a = 0.2, v = 0.2, t = 0.2)
movej(p[-0.341205881810758, 0.0782718168209039, 0.525019914794346, -1.57499924959984, -1.04835658924533, 1.84904184772512], a = 0.2, v = 0.2, t = 0.2)
movej(p[-0.34172810698709, 0.0781733400566873, 0.524802721143162, -1.57580210386034, -1.0476200998478, 1.8513477626623], a = 0.2, v = 0.2, t = 0.2)
movej(p[-0.342154886675233, 0.0782045182237624, 0.524587075902811, -1.57507778724164, -1.04624467922259, 1.85166066294638], a = 0.2, v = 0.2, t = 0.2)
movej(p[-0.342196268757202, 0.0783615295502638, 0.524468942052276, -1.5773917301371, -1.04504077546627, 1.84682957384042], a = 0.2, v = 0.2, t = 0.2)
movej(p[-0.342196001419396, 0.0784042318823609, 0.524525603938619, -1.58124252428358, -1.04498999086202, 1.83747927074864], a = 0.2, v = 0.2, t = 0.2)
movej(p[-0.340409942929168, 0.0787604229848853, 0.525217127479769, -1.5857023453582, -1.04270104257551, 1.827608998375], a = 0.2, v = 0.2, t = 0.2)
movej(p[-0.338278666745846, 0.079154068267992, 0.526084308240332, -1.58358089390013, -1.0332701394059, 1.82339397829413], a = 0.2, v = 0.2, t = 0.2)
movej(p[-0.336391648121629, 0.0796673356696362, 0.526781808201816, -1.57832044371121, -1.03682169291015, 1.81960282970966], a = 0.2, v = 0.2, t = 0.2)
movej(p[-0.334156686942946, 0.079738294810429, 0.527701536134478, -1.57723029006124, -1.03566966599198, 1.82039062639499], a = 0.2, v = 0.2, t = 0.2)
movej(p[-0.332047402173014, 0.0796518582161354, 0.528674854111553, -1.57246463648448, -1.02935967966506, 1.828168617925], a = 0.2, v = 0.2, t = 0.2)
movej(p[-0.330332941424694, 0.0799753937892591, 0.529350265553117, -1.56707700959182, -1.02356429183227, 1.83622134290823], a = 0.2, v = 0.2, t = 0.2)
movej(p[-0.330094160846946, 0.0799359867795833, 0.529426036347482, -1.5739393643232, -1.01796140714561, 1.84541839490969], a = 0.2, v = 0.2, t = 0.2)
movej(p[-0.329947476271145, 0.0795646260595265, 0.529713794407006, -1.57798844238518, -1.01820622336744, 1.84746815628344], a = 0.2, v = 0.2, t = 0.2)
movej(p[-0.329987887637096, 0.0795309586195636, 0.529683203150276, -1.57873029567787, -1.03302797158898, 1.85238343663552], a = 0.2, v = 0.2, t = 0.2)
movej(p[-0.330149951337071, 0.0795035267515944, 0.529570252454084, -1.57690563874236, -1.03943155045633, 1.85684948360849], a = 0.2, v = 0.2, t = 0.2)
movej(p[-0.331499910495136, 0.0794977456645327, 0.528936387941284, -1.5775933715353, -1.03891435015396, 1.85737235589817], a = 0.2, v = 0.2, t = 0.2)
movej(p[-0.333781885499062, 0.0789817956265243, 0.528119049957499, -1.58839775497788, -1.03111948964234, 1.85322395269938], a = 0.2, v = 0.2, t = 0.2)
movej(p[-0.335879492042658, 0.0785159341014168, 0.527376110573908, -1.58958520187336, -1.03041272142189, 1.85160802848544], a = 0.2, v = 0.2, t = 0.2)
movej(p[-0.338356533828488, 0.0784205699633328, 0.526213326977354, -1.58594470732193, -1.03665725990028, 1.84727340382752], a = 0.2, v = 0.2, t = 0.2)
movej(p[-0.340021972461225, 0.0786141413913384, 0.525387211051561, -1.58901490971185, -1.03618040939787, 1.84323813855075], a = 0.2, v = 0.2, t = 0.2)
movej(p[-0.34086881676133, 0.0784266990991393, 0.525053982408623, -1.59097699340277, -1.0408488560309, 1.84188081389108], a = 0.2, v = 0.2, t = 0.2)
movej(p[-0.341236994428108, 0.0784325733204403, 0.524868486022646, -1.59089954318032, -1.0411302386931, 1.84172126690718], a = 0.2, v = 0.2, t = 0.2)
movej(p[-0.341361967210774, 0.0783948198466225, 0.524814322300402, -1.59055837151746, -1.04139118978131, 1.84144860789747], a = 0.2, v = 0.2, t = 0.2)
movej(p[-0.341996022774232, 0.0782421841354351, 0.524611233718454, -1.59054135290119, -1.04197834905887, 1.84117662395226], a = 0.2, v = 0.2, t = 0.2)
movej(p[-0.342496633501089, 0.0783186493116432, 0.524324583728076, -1.58977405478028, -1.04244784643876, 1.84221958620112], a = 0.2, v = 0.2, t = 0.2)
movej(p[-0.343004839784458, 0.0783354184172256, 0.524052020137988, -1.59229984650036, -1.0508632934888, 1.84359225571844], a = 0.2, v = 0.2, t = 0.2)
movej(p[-0.343323480636899, 0.0781527352744451, 0.523889390200708, -1.59229984650036, -1.0508632934888, 1.84359225571844], a = 0.2, v = 0.2, t = 0.2)
movej(p[-0.343367026622556, 0.0783179568545733, 0.523765079032292, -1.59663590644569, -1.04757242600569, 1.83368482068188], a = 0.2, v = 0.2, t = 0.2)
movej(p[-0.342877454306524, 0.0785888137931072, 0.523953577802108, -1.59870234393454, -1.04574026638585, 1.82850350130498], a = 0.2, v = 0.2, t = 0.2)
movej(p[-0.340731708157123, 0.0789103192721238, 0.52483369335094, -1.60142988826246, -1.04286994287937, 1.82424890916554], a = 0.2, v = 0.2, t = 0.2)
movej(p[-0.338503671885622, 0.0790002108590718, 0.525865488531909, -1.59550014314693, -1.03623554780064, 1.8247793961677], a = 0.2, v = 0.2, t = 0.2)
movej(p[-0.336228409800965, 0.0796195227712718, 0.526644930345985, -1.58372709400332, -1.03471235153522, 1.82549282557729], a = 0.2, v = 0.2, t = 0.2)
movej(p[-0.334317066142304, 0.079849043884563, 0.527434247498372, -1.57928665763468, -1.03568690033798, 1.82483301915199], a = 0.2, v = 0.2, t = 0.2)
movej(p[-0.332064514019759, 0.0799128631957611, 0.528484843729438, -1.56986028361042, -1.02751084764212, 1.82810930428122], a = 0.2, v = 0.2, t = 0.2)
movej(p[-0.329834457240761, 0.0802093539762231, 0.529423541806323, -1.56360819773106, -1.02647016446862, 1.83484442514548], a = 0.2, v = 0.2, t = 0.2)
movej(p[-0.329632904052936, 0.0798742438316185, 0.529695046214134, -1.5637216197421, -1.02442470754907, 1.85728319406653], a = 0.2, v = 0.2, t = 0.2)
movej(p[-0.329629805592582, 0.0798614331411501, 0.529676934180754, -1.57234343688897, -1.03172261777997, 1.87007877188809], a = 0.2, v = 0.2, t = 0.2)
movej(p[-0.332341387488886, 0.0790669098960588, 0.528751000725994, -1.58130763511675, -1.02937551142994, 1.87492054501832], a = 0.2, v = 0.2, t = 0.2)
movej(p[-0.335521573407715, 0.0785226205388734, 0.527497416601439, -1.59054313010705, -1.02479187170183, 1.86273480737423], a = 0.2, v = 0.2, t = 0.2)
movej(p[-0.338010448628515, 0.0783678123257886, 0.526354618293577, -1.58557988021852, -1.03231212650187, 1.84814263002217], a = 0.2, v = 0.2, t = 0.2)
movej(p[-0.339598725380877, 0.0785534112562046, 0.525473878806025, -1.58737758069479, -1.03661541419032, 1.84690359615448], a = 0.2, v = 0.2, t = 0.2)
movej(p[-0.340290955754049, 0.0783985575992795, 0.525177566073603, -1.58946548170074, -1.04031942069124, 1.84594198362937], a = 0.2, v = 0.2, t = 0.2)
movej(p[-0.341064567708577, 0.0782148692018168, 0.524882655466047, -1.59306883554452, -1.04192828102077, 1.84187922490852], a = 0.2, v = 0.2, t = 0.2)
movej(p[-0.341653776250707, 0.0782775628481225, 0.52457117259237, -1.59284322946996, -1.04263776928169, 1.84146355008723], a = 0.2, v = 0.2, t = 0.2)
movej(p[-0.342460327877701, 0.0783551911213602, 0.524121786272833, -1.59223246728086, -1.0477209721548, 1.84404651390064], a = 0.2, v = 0.2, t = 0.2)
movej(p[-0.342762171983933, 0.0781949513818825, 0.524014547607113, -1.59631384651238, -1.05039684245065, 1.84458360509232], a = 0.2, v = 0.2, t = 0.2)
movej(p[-0.343077587925661, 0.0780691336949383, 0.52395781337269, -1.59817842920073, -1.05015390227057, 1.84380358940044], a = 0.2, v = 0.2, t = 0.2)
movej(p[-0.343320809829272, 0.0780640337598846, 0.523826314071299, -1.59856058876895, -1.04992494551146, 1.84329021528001], a = 0.2, v = 0.2, t = 0.2)
movej(p[-0.34337950314075, 0.0782867271154005, 0.523658761677711, -1.60018527091209, -1.04858811460535, 1.8382661641393], a = 0.2, v = 0.2, t = 0.2)
movej(p[-0.343017778791266, 0.0784647877364132, 0.523768710075766, -1.60175995155547, -1.04535933499896, 1.83475667373967], a = 0.2, v = 0.2, t = 0.2)
movej(p[-0.342083101270166, 0.0787165790203089, 0.524096185236512, -1.60237407387749, -1.04413878242629, 1.83352467118475], a = 0.2, v = 0.2, t = 0.2)
movej(p[-0.339174992385144, 0.0789173732778509, 0.525457504890007, -1.5957639569888, -1.03803120842675, 1.82459112706732], a = 0.2, v = 0.2, t = 0.2)
movej(p[-0.336420547371172, 0.0794848959596202, 0.526499138419941, -1.58990109450227, -1.03737140220925, 1.82244550987905], a = 0.2, v = 0.2, t = 0.2)
movej(p[-0.33433853252549, 0.0795857519791787, 0.527455406821426, -1.57639268592866, -1.03227305432965, 1.83367413471547], a = 0.2, v = 0.2, t = 0.2)
movej(p[-0.332341064684352, 0.0796629519806576, 0.528384014296839, -1.57276483246841, -1.0281948543135, 1.83608709381992], a = 0.2, v = 0.2, t = 0.2)
movej(p[-0.330026288168943, 0.0798998685638371, 0.529363264824703, -1.55627409262289, -1.0160537502406, 1.85014784403369], a = 0.2, v = 0.2, t = 0.2)
movej(p[-0.328983527305139, 0.0801507160877689, 0.529635816399011, -1.55043254585622, -1.01922384960569, 1.85957452353524], a = 0.2, v = 0.2, t = 0.2)
movej(p[-0.328957910807188, 0.0800535223234057, 0.529708944076409, -1.55592917804956, -1.02870638146374, 1.88648532177747], a = 0.2, v = 0.2, t = 0.2)
movej(p[-0.331657075812851, 0.0788374388781805, 0.529038164219487, -1.5719596710626, -1.03196021190546, 1.89195032245207], a = 0.2, v = 0.2, t = 0.2)
movej(p[-0.335416639500091, 0.0783145100315843, 0.527511434510934, -1.58393063018794, -1.02982254426905, 1.87767098155141], a = 0.2, v = 0.2, t = 0.2)
movej(p[-0.338197691442414, 0.0783486395194417, 0.526196023867004, -1.58391530043385, -1.03544602651726, 1.85583871589795], a = 0.2, v = 0.2, t = 0.2)
movej(p[-0.339958524507192, 0.0784042517999655, 0.525336397406127, -1.58320212864434, -1.04092280790109, 1.8530968614093], a = 0.2, v = 0.2, t = 0.2)
movej(p[-0.340658925170819, 0.0784121415835769, 0.524952270614944, -1.58577594295228, -1.04914177491301, 1.85168714775556], a = 0.2, v = 0.2, t = 0.2)
movej(p[-0.341210845141854, 0.0782274060632938, 0.524801149394996, -1.58528828090908, -1.0549911616385, 1.85434015902751], a = 0.2, v = 0.2, t = 0.2)
movej(p[-0.341743237511193, 0.0784406778760919, 0.524426150316416, -1.58417486665115, -1.05649780089995, 1.85317359584175], a = 0.2, v = 0.2, t = 0.2)
movej(p[-0.342124197206062, 0.0784899128301611, 0.524227462394832, -1.5878858019719, -1.05628915117559, 1.8489438517184], a = 0.2, v = 0.2, t = 0.2)
movej(p[-0.342453094697894, 0.0783347716769996, 0.524136476997863, -1.59188112139234, -1.05483444596775, 1.85133371841231], a = 0.2, v = 0.2, t = 0.2)
movej(p[-0.342752664063866, 0.0781981613888341, 0.524056447789826, -1.59228727495767, -1.05450682414043, 1.85194283115884], a = 0.2, v = 0.2, t = 0.2)
movej(p[-0.342963993977197, 0.0782602315472579, 0.523951039473434, -1.59228727495767, -1.05450682414043, 1.85194283115884], a = 0.2, v = 0.2, t = 0.2)
movej(p[-0.342963993977197, 0.0782602315472579, 0.523951039473434, -1.60115404689742, -1.0493245057177, 1.83656837052547], a = 0.2, v = 0.2, t = 0.2)
movej(p[-0.341574345688506, 0.078682370850531, 0.524390082070877, -1.59900228141471, -1.04965468873273, 1.83360589869079], a = 0.2, v = 0.2, t = 0.2)
movej(p[-0.339973428323078, 0.078883173821564, 0.525052118962519, -1.60329907741275, -1.04570656280454, 1.82546445253189], a = 0.2, v = 0.2, t = 0.2)
movej(p[-0.33840509826884, 0.0791554400532566, 0.525668423595029, -1.5908934741368, -1.040791249613, 1.82084409873201], a = 0.2, v = 0.2, t = 0.2)
movej(p[-0.337031047763443, 0.0794692045388017, 0.526149914608683, -1.58901170906444, -1.04012241947198, 1.82036592511619], a = 0.2, v = 0.2, t = 0.2)
movej(p[-0.335407298375643, 0.0794322073608583, 0.526919124901415, -1.58631917212294, -1.03856936553131, 1.82281709381298], a = 0.2, v = 0.2, t = 0.2)
movej(p[-0.334828600887604, 0.079436847903187, 0.527191201623506, -1.58544787414172, -1.03736585140157, 1.82333680481758], a = 0.2, v = 0.2, t = 0.2)
movej(p[-0.334379193066268, 0.0794702308205496, 0.527389541258857, -1.58478848617456, -1.03619615653012, 1.82365028881454], a = 0.2, v = 0.2, t = 0.2)
movej(p[-0.333022072927415, 0.0797737804577608, 0.527877834445854, -1.57692182557026, -1.03074653797049, 1.83064091358541], a = 0.2, v = 0.2, t = 0.2)
movej(p[-0.332985822388479, 0.0796362391612887, 0.52798131922827, -1.57100474219243, -1.03342062777237, 1.84746169555833], a = 0.2, v = 0.2, t = 0.2)
movej(p[-0.33375832815011, 0.0792779432386542, 0.527775716674609, -1.58455887170591, -1.02853683153752, 1.85532011196883], a = 0.2, v = 0.2, t = 0.2)
movej(p[-0.338602695004232, 0.0781542882312784, 0.526069045673193, -1.58648243961117, -1.03202221458047, 1.85446872017713], a = 0.2, v = 0.2, t = 0.2)
movej(p[-0.340884861734482, 0.0784714518857827, 0.524781510030345, -1.58830284673281, -1.04162681309869, 1.850970940491], a = 0.2, v = 0.2, t = 0.2)
movej(p[-0.341725333851458, 0.0783101076832434, 0.524442661334179, -1.59054038539333, -1.04588793283035, 1.85001470962647], a = 0.2, v = 0.2, t = 0.2)
movej(p[-0.34214682858784, 0.0781994916235115, 0.524304589778342, -1.59524899831116, -1.04973642029127, 1.84613477229749], a = 0.2, v = 0.2, t = 0.2)
movej(p[-0.342515318343811, 0.078279553199527, 0.524077574131765, -1.5947152557956, -1.05016747946685, 1.84571011002509], a = 0.2, v = 0.2, t = 0.2)
movej(p[-0.342711111552423, 0.0781954759425564, 0.524034413335645, -1.59395560826776, -1.05114692346613, 1.84688044022844], a = 0.2, v = 0.2, t = 0.2)
movej(p[-0.342815433180537, 0.0782590034740589, 0.523931192016874, -1.59272673326886, -1.0525146469187, 1.84573052583548], a = 0.2, v = 0.2, t = 0.2)
movej(p[-0.343001080972448, 0.0781971177248247, 0.523880996485197, -1.59289608930895, -1.0527265982195, 1.84561756521852], a = 0.2, v = 0.2, t = 0.2)
movej(p[-0.343302168087898, 0.0782531564974745, 0.523750400333378, -1.59869854055814, -1.05704177748204, 1.84455384556557], a = 0.2, v = 0.2, t = 0.2)
movej(p[-0.343302168087898, 0.0782531564974745, 0.523750400333378, -1.60262587017072, -1.05468552096816, 1.83930106707832], a = 0.2, v = 0.2, t = 0.2)
movej(p[-0.342290607317202, 0.0784993694025219, 0.524087553180877, -1.60299044071245, -1.04871909889619, 1.8335562421782], a = 0.2, v = 0.2, t = 0.2)
movej(p[-0.340962306309225, 0.0787077791646149, 0.524615700123758, -1.60328571261572, -1.04315934138671, 1.82830882711869], a = 0.2, v = 0.2, t = 0.2)
movej(p[-0.339428460160612, 0.0790269591177007, 0.525193912723007, -1.60161015374653, -1.04242594777559, 1.81542032749248], a = 0.2, v = 0.2, t = 0.2)
movej(p[-0.338254854304294, 0.0792993501018752, 0.525589493632251, -1.60116104561334, -1.04277404424333, 1.815072536527], a = 0.2, v = 0.2, t = 0.2)
movej(p[-0.336754391177645, 0.0794386430255686, 0.526182869690897, -1.60020345558798, -1.04534966372141, 1.8171567982449], a = 0.2, v = 0.2, t = 0.2)
movej(p[-0.336320784976396, 0.0794269269352898, 0.526402613258419, -1.59973497415571, -1.04562930229448, 1.81779459534978], a = 0.2, v = 0.2, t = 0.2)
movej(p[-0.334721205640817, 0.0795737992014706, 0.527098485320377, -1.59066651464858, -1.04212994004204, 1.81595041170335], a = 0.2, v = 0.2, t = 0.2)
movej(p[-0.33320546244346, 0.0800295569103497, 0.527567105220151, -1.58620229786763, -1.04182823223323, 1.81770052760479], a = 0.2, v = 0.2, t = 0.2)
movej(p[-0.331609497952342, 0.0801056596982046, 0.528298686438315, -1.57890265771807, -1.03941291260003, 1.82504998427457], a = 0.2, v = 0.2, t = 0.2)
movej(p[-0.330274126278255, 0.0800416501694326, 0.528938729563639, -1.57617511396259, -1.03628704888322, 1.84247478830468], a = 0.2, v = 0.2, t = 0.2)
movej(p[-0.330274126278255, 0.0800416501694326, 0.528938729563639, -1.57549204998737, -1.03592931671223, 1.85252033806967], a = 0.2, v = 0.2, t = 0.2)
movej(p[-0.331296575803832, 0.0796815842551758, 0.528654641839443, -1.57766153967238, -1.03557179278341, 1.85748637569242], a = 0.2, v = 0.2, t = 0.2)
movej(p[-0.331687737301247, 0.0796641502073341, 0.52847477378526, -1.58397771266689, -1.03681810701956, 1.85988489757188], a = 0.2, v = 0.2, t = 0.2)
movej(p[-0.333837517891439, 0.0789352594441358, 0.527806423869901, -1.59142466099586, -1.03874763939941, 1.86195003583475], a = 0.2, v = 0.2, t = 0.2)
movej(p[-0.336996579958073, 0.0784655874677625, 0.526529029677114, -1.59474956199593, -1.03880688109094, 1.85822613645956], a = 0.2, v = 0.2, t = 0.2)
movej(p[-0.339434303271895, 0.0783765367315239, 0.525382111096036, -1.59616284214206, -1.04530556446254, 1.84249101708947], a = 0.2, v = 0.2, t = 0.2)
movej(p[-0.34099602655252, 0.0784305719931324, 0.524562485470974, -1.59640870902835, -1.04763539747822, 1.83983237811844], a = 0.2, v = 0.2, t = 0.2)
movej(p[-0.341721646294765, 0.0783060918733755, 0.524285602825347, -1.59666911539785, -1.04814009267315, 1.83923127672752], a = 0.2, v = 0.2, t = 0.2)
movej(p[-0.342234221962864, 0.0782638762941709, 0.524058216723431, -1.5986703065158, -1.04988290978535, 1.8365241270161], a = 0.2, v = 0.2, t = 0.2)
movej(p[-0.342894067326395, 0.0784129538821008, 0.523653762326738, -1.60060359824192, -1.05351236844208, 1.83569405892747], a = 0.2, v = 0.2, t = 0.2)
movej(p[-0.343147309677418, 0.0783465279177624, 0.523572087404578, -1.60045100453889, -1.05580859276325, 1.83928946960365], a = 0.2, v = 0.2, t = 0.2)
movej(p[-0.343364264234728, 0.0782376592979061, 0.523503389270156, -1.60105250775907, -1.05632478440304, 1.83931266776457], a = 0.2, v = 0.2, t = 0.2)
movej(p[-0.343364408494974, 0.0782382066481479, 0.523502977448964, -1.60710987087268, -1.05267708853994, 1.83117790177233], a = 0.2, v = 0.2, t = 0.2)
movej(p[-0.34275188246862, 0.0785115129582288, 0.523651661200292, -1.60789416628977, -1.05245966672543, 1.82350521587886], a = 0.2, v = 0.2, t = 0.2)
movej(p[-0.341021452029028, 0.0789504698758972, 0.524213290515912, -1.60655052931103, -1.04950385568667, 1.81760502788262], a = 0.2, v = 0.2, t = 0.2)
movej(p[-0.338860374849062, 0.0791993604235663, 0.525118325961356, -1.60160082481199, -1.04322227465372, 1.81598947307868], a = 0.2, v = 0.2, t = 0.2)
movej(p[-0.336577793824166, 0.0794549833375558, 0.526061646925096, -1.59480763352058, -1.04037626418434, 1.81446169559528], a = 0.2, v = 0.2, t = 0.2)
movej(p[-0.33471392250413, 0.0799251923548776, 0.526666172600625, -1.58618802554292, -1.03471444876004, 1.81602046388915], a = 0.2, v = 0.2, t = 0.2)
movej(p[-0.332911807698909, 0.080166690978638, 0.527389498186739, -1.57808878837326, -1.02972338905004, 1.82065589495687], a = 0.2, v = 0.2, t = 0.2)
movej(p[-0.330170948475154, 0.0803469582834713, 0.528595488399952, -1.57078962582531, -1.02490277277711, 1.82707016239531], a = 0.2, v = 0.2, t = 0.2)
movej(p[-0.328224554422787, 0.0806813294065525, 0.5293186197884, -1.56158590788151, -1.02129374715007, 1.83622081357164], a = 0.2, v = 0.2, t = 0.2)
movej(p[-0.328197021324425, 0.0805768637032628, 0.529397218804493, -1.56402639946395, -1.01867207650355, 1.84655515482436], a = 0.2, v = 0.2, t = 0.2)
movej(p[-0.32888724290522, 0.0803686687271212, 0.529195373835978, -1.57313915441206, -1.01934932542814, 1.85001515708424], a = 0.2, v = 0.2, t = 0.2)
movej(p[-0.330278900594304, 0.079762760241528, 0.528877558050501, -1.58130991452048, -1.02388302181318, 1.84829071257816], a = 0.2, v = 0.2, t = 0.2)
movej(p[-0.332551323300961, 0.0794481833057897, 0.527977425880332, -1.58547582178697, -1.02587091825033, 1.84432490055759], a = 0.2, v = 0.2, t = 0.2)
movej(p[-0.335510218649921, 0.0792080684597407, 0.526693480424087, -1.59451062054104, -1.02714104044464, 1.82677988234611], a = 0.2, v = 0.2, t = 0.2)
movej(p[-0.337940642453816, 0.078796812104145, 0.525769152736824, -1.59686509635423, -1.03204400664848, 1.82250897460173], a = 0.2, v = 0.2, t = 0.2)
movej(p[-0.339608324965622, 0.0786111298956909, 0.525063232502464, -1.59959762477967, -1.03099539737352, 1.81758230633365], a = 0.2, v = 0.2, t = 0.2)
movej(p[-0.340729655959038, 0.0786092296333259, 0.524515575828801, -1.59960318256155, -1.03208294302925, 1.81666780475724], a = 0.2, v = 0.2, t = 0.2)
movej(p[-0.341502681051889, 0.0787407186714338, 0.524028634755692, -1.60240432895525, -1.03949838706215, 1.81445269582562], a = 0.2, v = 0.2, t = 0.2)
movej(p[-0.341722849779216, 0.0786599053875151, 0.523964525437732, -1.6001047000377, -1.04105326258867, 1.81767040685574], a = 0.2, v = 0.2, t = 0.2)
movej(p[-0.341932569775277, 0.0785443850075445, 0.523912158415057, -1.60141251043941, -1.04178807812303, 1.82036557824929], a = 0.2, v = 0.2, t = 0.2)
movej(p[-0.342047555611097, 0.0784916868425479, 0.523854690589566, -1.60314795381066, -1.04431377351061, 1.8199387872516], a = 0.2, v = 0.2, t = 0.2)
movej(p[-0.342044196408228, 0.0784789414012035, 0.523864280140182, -1.61484567098335, -1.04618494023367, 1.81040524054897], a = 0.2, v = 0.2, t = 0.2)
movej(p[-0.340613174032601, 0.0789255243540971, 0.524235479219707, -1.61356845044719, -1.0471923199104, 1.809278742969], a = 0.2, v = 0.2, t = 0.2)
movej(p[-0.338486988152989, 0.0790971585579183, 0.525154931478074, -1.60453746503634, -1.04219942445072, 1.80358724423035], a = 0.2, v = 0.2, t = 0.2)
movej(p[-0.336250422727991, 0.0794648503847736, 0.525997138578595, -1.59498229661625, -1.03263421370646, 1.80405674332107], a = 0.2, v = 0.2, t = 0.2)
movej(p[-0.33458712250861, 0.0799496326634944, 0.5264490764642, -1.58842966381538, -1.03147989145869, 1.80870892778432], a = 0.2, v = 0.2, t = 0.2)
movej(p[-0.332544359695529, 0.0800851149464416, 0.52736041080488, -1.58477082096232, -1.02876304773461, 1.81178849021449], a = 0.2, v = 0.2, t = 0.2)
movej(p[-0.330656942293975, 0.0801912752777663, 0.528204072061762, -1.57894458466812, -1.03152421264452, 1.82427135022037], a = 0.2, v = 0.2, t = 0.2)
movej(p[-0.330557176029627, 0.0798127434891243, 0.528488875831901, -1.57341363475208, -1.0332770576108, 1.84882847455699], a = 0.2, v = 0.2, t = 0.2)
movej(p[-0.331121109105065, 0.0796035004403884, 0.528408316332254, -1.58324599623871, -1.02636061890702, 1.85945450334454], a = 0.2, v = 0.2, t = 0.2)
movej(p[-0.335073484981473, 0.0786167240373007, 0.527188802629216, -1.58509349427935, -1.0298694780621, 1.85869706222627], a = 0.2, v = 0.2, t = 0.2)
movej(p[-0.336945046531518, 0.0783464991494351, 0.526455363617185, -1.59181516307596, -1.03362155753387, 1.84817164138099], a = 0.2, v = 0.2, t = 0.2)
movej(p[-0.338171711969655, 0.0782812721327182, 0.525882534996068, -1.59492062270672, -1.03589816085851, 1.83691146604084], a = 0.2, v = 0.2, t = 0.2)
movej(p[-0.339958420411052, 0.0783190215586903, 0.524961487583455, -1.59530925886237, -1.04467374751823, 1.83126901426127], a = 0.2, v = 0.2, t = 0.2)
movej(p[-0.340765043957356, 0.0783869869986843, 0.524484665621383, -1.5975818472874, -1.04890138768052, 1.83030202747419], a = 0.2, v = 0.2, t = 0.2)
movej(p[-0.341305825644012, 0.0782549136404453, 0.524307848384041, -1.59910835313156, -1.05152540507592, 1.83326345807381], a = 0.2, v = 0.2, t = 0.2)
movej(p[-0.341614426596176, 0.0781984424574842, 0.524199644466283, -1.59861390182257, -1.05184542663492, 1.83443344293267], a = 0.2, v = 0.2, t = 0.2)
movej(p[-0.342179226548155, 0.0783087582593574, 0.523801145208942, -1.60145342153526, -1.05717053452438, 1.83320644569379], a = 0.2, v = 0.2, t = 0.2)
movej(p[-0.342429018678441, 0.0782072119804325, 0.523753682119241, -1.60542906566371, -1.06131195314582, 1.83840543805631], a = 0.2, v = 0.2, t = 0.2)
movej(p[-0.342725724242606, 0.0780908002614107, 0.523702895114332, -1.60542906566371, -1.06131195314582, 1.83840543805631], a = 0.2, v = 0.2, t = 0.2)
movej(p[-0.342744168945476, 0.0781607828994679, 0.523650240833342, -1.60790423384659, -1.05751627461543, 1.83237380132404], a = 0.2, v = 0.2, t = 0.2)
movej(p[-0.342416576310176, 0.0782766607432806, 0.52368949857921, -1.60608950247738, -1.05592339707483, 1.82749177421949], a = 0.2, v = 0.2, t = 0.2)
movej(p[-0.340570148417125, 0.0786196151866109, 0.524391065329823, -1.60720578115855, -1.05326257199284, 1.82418434303179], a = 0.2, v = 0.2, t = 0.2)
movej(p[-0.338671100397308, 0.0787208499824024, 0.525290906723929, -1.60804972138419, -1.05039620433617, 1.82211123389085], a = 0.2, v = 0.2, t = 0.2)
movej(p[-0.336926420305556, 0.078948318790599, 0.526012475049692, -1.59751454630378, -1.04167305365505, 1.82034739469803], a = 0.2, v = 0.2, t = 0.2)
movej(p[-0.335587172624605, 0.0793554196895268, 0.526373885726289, -1.59181960721184, -1.03855000504605, 1.81939837773073], a = 0.2, v = 0.2, t = 0.2)
movej(p[-0.334308815596647, 0.0794662285212477, 0.526954854229639, -1.58685315762528, -1.04086113589487, 1.81912646266173], a = 0.2, v = 0.2, t = 0.2)
movej(p[-0.332801603718841, 0.0796403524498929, 0.52757669211275, -1.58232602549147, -1.03056004528379, 1.82233605477007], a = 0.2, v = 0.2, t = 0.2)
movej(p[-0.331656240124597, 0.0797777069427635, 0.528101168718777, -1.56735487696984, -1.03148050154986, 1.83976368252142], a = 0.2, v = 0.2, t = 0.2)
movej(p[-0.331645070259843, 0.0797353263954708, 0.528133055445366, -1.56956426891947, -1.02778421517614, 1.86545357538414], a = 0.2, v = 0.2, t = 0.2)
movej(p[-0.334022161546279, 0.0787940403766722, 0.527714686114795, -1.58647824174868, -1.03564767965634, 1.86920133701856], a = 0.2, v = 0.2, t = 0.2)
movej(p[-0.336713288292917, 0.0782734175568288, 0.526834740092026, -1.58823689568483, -1.03675296494671, 1.86762613254518], a = 0.2, v = 0.2, t = 0.2)
movej(p[-0.337623997340175, 0.0781137968125497, 0.52651530693902, -1.58479090005774, -1.03996247195177, 1.86274231181169], a = 0.2, v = 0.2, t = 0.2)
movej(p[-0.339743259290816, 0.078069197797668, 0.525463282323132, -1.58688877428968, -1.04274604247555, 1.8509972234162], a = 0.2, v = 0.2, t = 0.2)
movej(p[-0.341282923469506, 0.0781631465159604, 0.524609429194549, -1.59034834830917, -1.05353438984663, 1.8449296073045], a = 0.2, v = 0.2, t = 0.2)
movej(p[-0.341868843115744, 0.0781572983651312, 0.524286264488424, -1.59282909681366, -1.05824061051212, 1.84384785231521], a = 0.2, v = 0.2, t = 0.2)
movej(p[-0.342170241912013, 0.0780655204176922, 0.524241986006391, -1.59859344075064, -1.05646354894755, 1.84795821837616], a = 0.2, v = 0.2, t = 0.2)
movej(p[-0.342424319407293, 0.0781767682037095, 0.524032149268667, -1.60055070881896, -1.06019957104714, 1.84710488567632], a = 0.2, v = 0.2, t = 0.2)
movej(p[-0.342512241111403, 0.0781433690281061, 0.524005979075406, -1.59917561338655, -1.06130406125258, 1.84511415383604], a = 0.2, v = 0.2, t = 0.2)
movej(p[-0.34251986629583, 0.0781723003980292, 0.523984211383823, -1.59890496616014, -1.05737752895783, 1.84349465169453], a = 0.2, v = 0.2, t = 0.2)
movej(p[-0.342250409175923, 0.078281007036558, 0.524034302673195, -1.60384466467262, -1.05434133109737, 1.83024469690134], a = 0.2, v = 0.2, t = 0.2)
movej(p[-0.340692384755247, 0.0786205909716687, 0.524538527241807, -1.6060368749701, -1.05275470863106, 1.82707647515588], a = 0.2, v = 0.2, t = 0.2)
movej(p[-0.339182205165547, 0.0789175937916406, 0.525021274827801, -1.60101088590315, -1.04902264119381, 1.81600054793303], a = 0.2, v = 0.2, t = 0.2)
movej(p[-0.337711982282429, 0.0789653478998593, 0.525738657793242, -1.59957199330106, -1.04514269367688, 1.81390780497066], a = 0.2, v = 0.2, t = 0.2)
movej(p[-0.336479651906702, 0.0792428682364179, 0.526160939462105, -1.59734129294448, -1.04446021289284, 1.81329003140784], a = 0.2, v = 0.2, t = 0.2)
movej(p[-0.336022435885581, 0.0792749797239058, 0.526292132649433, -1.59285247972561, -1.04268117785482, 1.81519076697238], a = 0.2, v = 0.2, t = 0.2)
movej(p[-0.335786131762168, 0.079418682485754, 0.526400350612338, -1.58495450828898, -1.04456291038338, 1.82486701028644], a = 0.2, v = 0.2, t = 0.2)
movej(p[-0.335677586231426, 0.0790068405252547, 0.526710216643597, -1.58937621510842, -1.03855623390883, 1.85851704725342], a = 0.2, v = 0.2, t = 0.2)
movej(p[-0.337272828599855, 0.0784460411578062, 0.526523670602526, -1.59096417051395, -1.03733614254415, 1.8599352472807], a = 0.2, v = 0.2, t = 0.2)
movej(p[-0.338294109674208, 0.0782408174866816, 0.52618134007222, -1.59096417051395, -1.03733614254415, 1.8599352472807], a = 0.2, v = 0.2, t = 0.2)
movej(p[-0.3397948420614, 0.0781999316880022, 0.525438049453756, -1.59723418566099, -1.04924297419839, 1.85392585832034], a = 0.2, v = 0.2, t = 0.2)
movej(p[-0.341087612334303, 0.0780630877600254, 0.52491693445601, -1.59784077476605, -1.04925915965976, 1.84804175973812], a = 0.2, v = 0.2, t = 0.2)
movej(p[-0.341712250932935, 0.0781657248301116, 0.524480237509669, -1.59501987955292, -1.05140600501934, 1.8457554984312], a = 0.2, v = 0.2, t = 0.2)
movej(p[-0.341955695480031, 0.0782396769621132, 0.5243065142681, -1.59579968686692, -1.05288533245446, 1.84541939698638], a = 0.2, v = 0.2, t = 0.2)
movej(p[-0.342459018787154, 0.0783178168243539, 0.523956749403603, -1.59778922797813, -1.05670390282077, 1.84887262983853], a = 0.2, v = 0.2, t = 0.2)
movej(p[-0.342934937007352, 0.0781677247727135, 0.523869073387967, -1.59737224534585, -1.05695335444364, 1.8494282012662], a = 0.2, v = 0.2, t = 0.2)
movej(p[-0.343081093179564, 0.0781924821722154, 0.523792548656708, -1.59701736324017, -1.05722094743098, 1.84915225627194], a = 0.2, v = 0.2, t = 0.2)
movej(p[-0.343081093179564, 0.0781924821722154, 0.523792548656708, -1.60404473102507, -1.05769287458989, 1.83575087431322], a = 0.2, v = 0.2, t = 0.2)
movej(p[-0.342046611303054, 0.0784817821065828, 0.523994684391171, -1.60631377812474, -1.05633447313764, 1.83259100457511], a = 0.2, v = 0.2, t = 0.2)
movej(p[-0.340338698095405, 0.0785974311185574, 0.524731792002832, -1.60388102682146, -1.05179846799832, 1.82954818214634], a = 0.2, v = 0.2, t = 0.2)
movej(p[-0.338276386195105, 0.0790507096713819, 0.525360226159629, -1.59714219264494, -1.04758512506775, 1.82450381873888], a = 0.2, v = 0.2, t = 0.2)
movej(p[-0.336632792122873, 0.0793375858230194, 0.5259077124237, -1.59608042548837, -1.0458546203743, 1.82484961221079], a = 0.2, v = 0.2, t = 0.2)
movej(p[-0.33453419936277, 0.079550756740448, 0.526721210252341, -1.59058760232998, -1.04675067975557, 1.82756883472534], a = 0.2, v = 0.2, t = 0.2)
movej(p[-0.332769506784603, 0.0798149030529951, 0.527327627715919, -1.58281095149676, -1.04106498835905, 1.82814433933875], a = 0.2, v = 0.2, t = 0.2)
movej(p[-0.331095332287294, 0.0802014591119467, 0.527828269090407, -1.57437812529781, -1.03041266050211, 1.83359162627448], a = 0.2, v = 0.2, t = 0.2)
movej(p[-0.329542726002486, 0.0805800849161168, 0.528232963079476, -1.57031913527512, -1.02501946894535, 1.83857551696184], a = 0.2, v = 0.2, t = 0.2)
movej(p[-0.327968370352483, 0.0805587413459987, 0.528964471472674, -1.5640446328806, -1.02074564890981, 1.85500039919629], a = 0.2, v = 0.2, t = 0.2)
movej(p[-0.327900691688546, 0.0803019558897086, 0.529157674443369, -1.56658221246671, -1.01838728812766, 1.86200656668765], a = 0.2, v = 0.2, t = 0.2)
movej(p[-0.328711687518782, 0.0800224135640665, 0.529070226049938, -1.57601003076942, -1.02644809991893, 1.86243859972953], a = 0.2, v = 0.2, t = 0.2)
movej(p[-0.330235822145669, 0.0798228242940364, 0.528498999499072, -1.57768071978562, -1.02658742737272, 1.86123426540295], a = 0.2, v = 0.2, t = 0.2)
movej(p[-0.332098767719298, 0.0795112424302625, 0.527867522958049, -1.59128663844095, -1.03009247433588, 1.84752307628993], a = 0.2, v = 0.2, t = 0.2)
movej(p[-0.334429079381268, 0.0791710317123558, 0.52704623670131, -1.59760382474603, -1.02678221570472, 1.8390579285353], a = 0.2, v = 0.2, t = 0.2)
movej(p[-0.336022607983113, 0.0790721695180899, 0.526347124019659, -1.59850276207451, -1.0304053408855, 1.82047037032184], a = 0.2, v = 0.2, t = 0.2)
movej(p[-0.336670716471532, 0.0791276515531295, 0.525958810820002, -1.5960466169723, -1.0323886406898, 1.8185558112198], a = 0.2, v = 0.2, t = 0.2)
movej(p[-0.339560562157497, 0.0789013160440057, 0.52471675490797, -1.59423626081177, -1.03346573912986, 1.8210449583505], a = 0.2, v = 0.2, t = 0.2)
movej(p[-0.3412157955202, 0.0788149064497854, 0.523998525865795, -1.59401775278453, -1.04783084741503, 1.83802253681418], a = 0.2, v = 0.2, t = 0.2)
movej(p[-0.342329863692521, 0.0788899257716736, 0.523287264733183, -1.5947206521795, -1.04773995397918, 1.8383635354724], a = 0.2, v = 0.2, t = 0.2)
movej(p[-0.342649964342999, 0.0788079817748071, 0.523162831438036, -1.59512355732797, -1.04750006557994, 1.83782039007613], a = 0.2, v = 0.2, t = 0.2)
movej(p[-0.342649964342999, 0.0788079817748071, 0.523162831438036, -1.59492185115925, -1.04640194079061, 1.83439976710369], a = 0.2, v = 0.2, t = 0.2)
movej(p[-0.341251798017898, 0.0790650242644558, 0.523592101359959, -1.59482436832405, -1.04181547074426, 1.80339056258941], a = 0.2, v = 0.2, t = 0.2)
movej(p[-0.339054801330125, 0.0793982684430858, 0.52439575596943, -1.59818241986463, -1.03798739146146, 1.79671545952599], a = 0.2, v = 0.2, t = 0.2)
movej(p[-0.337021279319758, 0.0796350075887601, 0.525127901009882, -1.59763982737357, -1.03702026412727, 1.79694155252177], a = 0.2, v = 0.2, t = 0.2)
movej(p[-0.334383480956438, 0.0799178833716547, 0.52615995738718, -1.58967939166897, -1.03088406460263, 1.79993847192706], a = 0.2, v = 0.2, t = 0.2)
movej(p[-0.331899322677546, 0.0802066529455651, 0.527112586390829, -1.58427119646189, -1.02310680339153, 1.8025810062116], a = 0.2, v = 0.2, t = 0.2)
movej(p[-0.329726498058797, 0.0806187292406648, 0.527734404429467, -1.57566706143094, -1.01701913166309, 1.8054847642612], a = 0.2, v = 0.2, t = 0.2)
movej(p[-0.327605753468365, 0.080754386877151, 0.528623584275065, -1.57044109301506, -1.01507257750946, 1.81069382413007], a = 0.2, v = 0.2, t = 0.2)
movej(p[-0.326543842562299, 0.0808065645312923, 0.52907938384723, -1.55968966730317, -1.01714980580258, 1.8280245766036], a = 0.2, v = 0.2, t = 0.2)
movej(p[-0.326369567536779, 0.0805140978090351, 0.529459275202557, -1.56869464347926, -1.00959958729613, 1.84165395791875], a = 0.2, v = 0.2, t = 0.2)
movej(p[-0.326357099329812, 0.0804667911095663, 0.529494868319875, -1.57001298006144, -1.01110841677953, 1.84905907956061], a = 0.2, v = 0.2, t = 0.2)
movej(p[-0.327071676517557, 0.0803019698447714, 0.529423284149661, -1.57784738157869, -1.01723737278878, 1.85523930759668], a = 0.2, v = 0.2, t = 0.2)
movej(p[-0.328352530464805, 0.0798342167194258, 0.529208631570948, -1.58221928281763, -1.02188589410589, 1.85503632512355], a = 0.2, v = 0.2, t = 0.2)
movej(p[-0.330083914544291, 0.0794672999317863, 0.528733905881468, -1.58912520498214, -1.0210785876318, 1.84685095772252], a = 0.2, v = 0.2, t = 0.2)
movej(p[-0.331333605225885, 0.0794224126256672, 0.528154872074091, -1.59401865257435, -1.02667565404074, 1.83958365345702], a = 0.2, v = 0.2, t = 0.2)
movej(p[-0.331855787169034, 0.0793955069694368, 0.527905985606173, -1.59606084843049, -1.0271782440067, 1.83656115949596], a = 0.2, v = 0.2, t = 0.2)
movej(p[-0.336010480410566, 0.0789361747384409, 0.526297596937246, -1.60079535093714, -1.03518826511783, 1.83059048313787], a = 0.2, v = 0.2, t = 0.2)
movej(p[-0.338897097282471, 0.0785450419511519, 0.525318962098534, -1.60150774673901, -1.03650639638673, 1.83029619236597], a = 0.2, v = 0.2, t = 0.2)
movej(p[-0.341005569953964, 0.0786710571200679, 0.52405733013129, -1.59312526792454, -1.04460515192116, 1.84382699574017], a = 0.2, v = 0.2, t = 0.2)
movej(p[-0.341589474141394, 0.0785702660790974, 0.523868695256568, -1.5934574211022, -1.0450232794609, 1.8437957114786], a = 0.2, v = 0.2, t = 0.2)
movej(p[-0.342111351700576, 0.0784901927539783, 0.523692837456552, -1.59386813475939, -1.04537645317734, 1.84530421668918], a = 0.2, v = 0.2, t = 0.2)
movej(p[-0.342368981647331, 0.0785070990464404, 0.523551099784037, -1.59394001526975, -1.04544294727321, 1.84574049463506], a = 0.2, v = 0.2, t = 0.2)
movej(p[-0.342368981647331, 0.0785070990464404, 0.523551099784037, -1.59394001526975, -1.04544294727321, 1.84574049463506], a = 0.2, v = 0.2, t = 0.2)
movej(p[-0.342084185363103, 0.0784369041680805, 0.523795900285551, -1.60024748972247, -1.04390929145356, 1.83379824350719], a = 0.2, v = 0.2, t = 0.2)
movej(p[-0.340562821897555, 0.078514182449317, 0.524478516973705, -1.60613120621066, -1.04079698583439, 1.82039492670524], a = 0.2, v = 0.2, t = 0.2)
movej(p[-0.338847840756719, 0.0786237162485512, 0.525208420524457, -1.59959644186023, -1.04166284092349, 1.8167631337568], a = 0.2, v = 0.2, t = 0.2)
movej(p[-0.337025247978801, 0.0791106397992759, 0.525499469268883, -1.58573990767644, -1.04006315278147, 1.8117412792126], a = 0.2, v = 0.2, t = 0.2)
movej(p[-0.334736733696385, 0.079374625701115, 0.526331653529013, -1.57446130106796, -1.03260393922259, 1.82163876944236], a = 0.2, v = 0.2, t = 0.2)
movej(p[-0.332249380257659, 0.0796168084882825, 0.527309122867897, -1.56908276092439, -1.02614692125832, 1.82746871148159], a = 0.2, v = 0.2, t = 0.2)
movej(p[-0.329853589543623, 0.0799378531700515, 0.528117693512211, -1.57150309498404, -1.02113486333959, 1.83497625479766], a = 0.2, v = 0.2, t = 0.2)
movej(p[-0.328315803342301, 0.0799266020413077, 0.528970612893586, -1.56441291121031, -1.02081795964046, 1.85096655706484], a = 0.2, v = 0.2, t = 0.2)
movej(p[-0.328315741516481, 0.0799263674626327, 0.528970789388382, -1.55731754695875, -1.02464611826957, 1.86323793010571], a = 0.2, v = 0.2, t = 0.2)
movej(p[-0.33081874067729, 0.0791156151460769, 0.528769507366859, -1.56964816881602, -1.02187349170662, 1.86960859071858], a = 0.2, v = 0.2, t = 0.2)
movej(p[-0.334247078564616, 0.0785229332772365, 0.527795366877671, -1.5775494385325, -1.02959423476641, 1.86490230480986], a = 0.2, v = 0.2, t = 0.2)
movej(p[-0.336856468402958, 0.0784730962295635, 0.526517634914295, -1.58339293684934, -1.03295842592367, 1.86242470086711], a = 0.2, v = 0.2, t = 0.2)
movej(p[-0.337661712762908, 0.0784444510573443, 0.526131024910703, -1.58973928820058, -1.03298961011172, 1.86511673960635], a = 0.2, v = 0.2, t = 0.2)
movej(p[-0.340085351240386, 0.0780587462667505, 0.525444802508706, -1.59000506804584, -1.03320956076618, 1.86489871303216], a = 0.2, v = 0.2, t = 0.2)
movej(p[-0.340803410623809, 0.0781242938345198, 0.525060035763471, -1.58934487027632, -1.04191946987762, 1.84821055916372], a = 0.2, v = 0.2, t = 0.2)
movej(p[-0.341860317455291, 0.0783586087779588, 0.524181819618751, -1.59021188129969, -1.04251360606499, 1.84745438313917], a = 0.2, v = 0.2, t = 0.2)
movej(p[-0.342151379221053, 0.0783491124137345, 0.52403658863866, -1.59112049392171, -1.04296015614696, 1.84673995833499], a = 0.2, v = 0.2, t = 0.2)
movej(p[-0.342240265748166, 0.0783412073587681, 0.523967981092401, -1.59144367434289, -1.04311347365422, 1.84645774493955], a = 0.2, v = 0.2, t = 0.2)
movej(p[-0.342619452871204, 0.0782694714276414, 0.523925406664545, -1.59188525006143, -1.04321807934681, 1.84599896250671], a = 0.2, v = 0.2, t = 0.2)
movej(p[-0.342834623657166, 0.0783230245106719, 0.523692909847004, -1.5917265511591, -1.04340174122517, 1.84507314413158], a = 0.2, v = 0.2, t = 0.2)
movej(p[-0.342834623657166, 0.0783230245106719, 0.523692909847004, -1.5915948476694, -1.04347571639319, 1.84452525813967], a = 0.2, v = 0.2, t = 0.2)
movej(p[-0.341953772419658, 0.0783937344944897, 0.524045881751792, -1.59303913487585, -1.04252493565226, 1.84241207567527], a = 0.2, v = 0.2, t = 0.2)
movej(p[-0.34013389419016, 0.0785099014080231, 0.52485409151293, -1.59574329232409, -1.04100664955529, 1.83756313572626], a = 0.2, v = 0.2, t = 0.2)
movej(p[-0.338402066260131, 0.0785853869557803, 0.525663892261788, -1.60253437834004, -1.04384216227661, 1.83097321490175], a = 0.2, v = 0.2, t = 0.2)
movej(p[-0.336820053503943, 0.0789441969229586, 0.525962597562568, -1.6038261928884, -1.04306399727632, 1.82921796114614], a = 0.2, v = 0.2, t = 0.2)
movej(p[-0.334986170588142, 0.078975103403315, 0.526917235829455, -1.59845803492538, -1.03580222508844, 1.83024139456002], a = 0.2, v = 0.2, t = 0.2)
movej(p[-0.332886698624569, 0.0792812660443191, 0.527639510106599, -1.57619229082488, -1.03631626202811, 1.82776283514769], a = 0.2, v = 0.2, t = 0.2)
movej(p[-0.33156115413327, 0.0796227737627705, 0.527738875944918, -1.56599608337429, -1.03828878476646, 1.84010725829087], a = 0.2, v = 0.2, t = 0.2)
movej(p[-0.33150263130255, 0.0794114046102372, 0.52817888371717, -1.57296751970091, -1.03095275506284, 1.87071978757877], a = 0.2, v = 0.2, t = 0.2)
movej(p[-0.332113982850116, 0.0792548830349667, 0.528185006769035, -1.57424373478014, -1.03340997945406, 1.87018722471399], a = 0.2, v = 0.2, t = 0.2)
movej(p[-0.335085545572499, 0.0785910557148181, 0.527523851684378, -1.58020407099019, -1.03708035572905, 1.86669450947823], a = 0.2, v = 0.2, t = 0.2)
movej(p[-0.33841439546394, 0.0784092198139304, 0.526020997454786, -1.58329969040871, -1.03509702557031, 1.86570562281463], a = 0.2, v = 0.2, t = 0.2)
