def moving():
set_payload_mass(0)
set_tcp(p[0,0,0,0,0,0])
movej(p[-0.5158, -0.2274, 0.41, -0.869, -1.578, 1.668], a = 0.2, v = 0.2, t = 0.2)
movej(p[-0.515794031891223, -0.227391032013079, 0.410219496080688, -0.869, -1.578, 1.668], a = 0.2, v = 0.2, t = 0.2)
movej(p[-0.515788063782446, -0.227382064026159, 0.410438992161375, -0.869, -1.578, 1.668], a = 0.2, v = 0.2, t = 0.2)
movej(p[-0.515782095673669, -0.227373096039238, 0.410658488242063, -0.869, -1.578, 1.668], a = 0.2, v = 0.2, t = 0.2)
movej(p[-0.515776127564892, -0.227364128052317, 0.41087798432275, -0.869, -1.578, 1.668], a = 0.2, v = 0.2, t = 0.2)
movej(p[-0.515770159456115, -0.227355160065397, 0.411097480403438, -0.869, -1.578, 1.668], a = 0.2, v = 0.2, t = 0.2)
movej(p[-0.515764191347338, -0.227346192078476, 0.411316976484126, -0.869, -1.578, 1.668], a = 0.2, v = 0.2, t = 0.2)
movej(p[-0.515758223238561, -0.227337224091555, 0.411536472564813, -0.869, -1.578, 1.668], a = 0.2, v = 0.2, t = 0.2)
movej(p[-0.515752255129784, -0.227328256104635, 0.411755968645501, -0.869, -1.578, 1.668], a = 0.2, v = 0.2, t = 0.2)
movej(p[-0.515746287021007, -0.227319288117714, 0.411975464726188, -0.869, -1.578, 1.668], a = 0.2, v = 0.2, t = 0.2)
movej(p[-0.51574031891223, -0.227310320130793, 0.412194960806876, -0.869, -1.578, 1.668], a = 0.2, v = 0.2, t = 0.2)
movej(p[-0.515755983964689, -0.22733385924357, 0.411618828945501, -0.869, -1.578, 1.668], a = 0.2, v = 0.2, t = 0.2)
movej(p[-0.515764719105718, -0.227346985115336, 0.411297566500131, -0.869, -1.578, 1.668], a = 0.2, v = 0.2, t = 0.2)
movej(p[-0.515772364203738, -0.227358473032466, 0.411016393834787, -0.869, -1.578, 1.668], a = 0.2, v = 0.2, t = 0.2)
movej(p[-0.515775057251169, -0.227362519743919, 0.410917348495898, -0.869, -1.578, 1.668], a = 0.2, v = 0.2, t = 0.2)
movej(p[-0.515775895745791, -0.227363779709024, 0.41088651020357, -0.869, -1.578, 1.668], a = 0.2, v = 0.2, t = 0.2)
movej(p[-0.515776709578806, -0.227365002616331, 0.41085657891984, -0.869, -1.578, 1.668], a = 0.2, v = 0.2, t = 0.2)
movej(p[-0.515779723227122, -0.227369531079148, 0.410745742469179, -0.869, -1.578, 1.668], a = 0.2, v = 0.2, t = 0.2)
movej(p[-0.515776921668622, -0.227365321313387, 0.410848778645899, -0.869, -1.578, 1.668], a = 0.2, v = 0.2, t = 0.2)
movej(p[-0.515758504380875, -0.227337646550443, 0.411526132666797, -0.869, -1.578, 1.668], a = 0.2, v = 0.2, t = 0.2)
movej(p[-0.515734212698457, -0.227301144620208, 0.412419536135712, -0.869, -1.578, 1.668], a = 0.2, v = 0.2, t = 0.2)
movej(p[-0.515707775456271, -0.227261418661617, 0.413391849352642, -0.869, -1.578, 1.668], a = 0.2, v = 0.2, t = 0.2)
movej(p[-0.515672376186277, -0.227208225899527, 0.414693769494042, -0.869, -1.578, 1.668], a = 0.2, v = 0.2, t = 0.2)
movej(p[-0.515642969686667, -0.227164038182154, 0.415775286546158, -0.869, -1.578, 1.668], a = 0.2, v = 0.2, t = 0.2)
movej(p[-0.515636690841648, -0.227154603266989, 0.416006210935179, -0.869, -1.578, 1.668], a = 0.2, v = 0.2, t = 0.2)
movej(p[-0.51566697529445, -0.227200110241941, 0.414892404376979, -0.869, -1.578, 1.668], a = 0.2, v = 0.2, t = 0.2)
movej(p[-0.515708539966073, -0.22726256745333, 0.413363732086107, -0.869, -1.578, 1.668], a = 0.2, v = 0.2, t = 0.2)
movej(p[-0.515738947726908, -0.227308259717269, 0.412245390484918, -0.869, -1.578, 1.668], a = 0.2, v = 0.2, t = 0.2)
movej(p[-0.51576154762312, -0.227342219482617, 0.411414207805819, -0.869, -1.578, 1.668], a = 0.2, v = 0.2, t = 0.2)
movej(p[-0.515769227247389, -0.227353759280663, 0.411131765328438, -0.869, -1.578, 1.668], a = 0.2, v = 0.2, t = 0.2)
movej(p[-0.515772635481409, -0.227358880668235, 0.41100641674021, -0.869, -1.578, 1.668], a = 0.2, v = 0.2, t = 0.2)
movej(p[-0.515776704646485, -0.227364995204772, 0.41085676032156, -0.869, -1.578, 1.668], a = 0.2, v = 0.2, t = 0.2)
movej(p[-0.515777153487723, -0.227365669656681, 0.410840252765078, -0.869, -1.578, 1.668], a = 0.2, v = 0.2, t = 0.2)
movej(p[-0.515769602103808, -0.22735432255918, 0.41111797879775, -0.869, -1.578, 1.668], a = 0.2, v = 0.2, t = 0.2)
movej(p[-0.515747391860979, -0.227320948307028, 0.411934830741003, -0.869, -1.578, 1.668], a = 0.2, v = 0.2, t = 0.2)
movej(p[-0.515719415734547, -0.227278909941892, 0.412963741294441, -0.869, -1.578, 1.668], a = 0.2, v = 0.2, t = 0.2)
movej(p[-0.515686369181815, -0.227229252493654, 0.414179132815604, -0.869, -1.578, 1.668], a = 0.2, v = 0.2, t = 0.2)
movej(p[-0.515655251166713, -0.227182492965156, 0.415323596264412, -0.869, -1.578, 1.668], a = 0.2, v = 0.2, t = 0.2)
movej(p[-0.515638466477317, -0.227157271428386, 0.415940906316131, -0.869, -1.578, 1.668], a = 0.2, v = 0.2, t = 0.2)
movej(p[-0.515652523593032, -0.227178394372786, 0.415423911415338, -0.869, -1.578, 1.668], a = 0.2, v = 0.2, t = 0.2)
movej(p[-0.515690354497428, -0.22723524103368, 0.414032560226186, -0.869, -1.578, 1.668], a = 0.2, v = 0.2, t = 0.2)
movej(p[-0.515727494876842, -0.227291050076253, 0.412666605277775, -0.869, -1.578, 1.668], a = 0.2, v = 0.2, t = 0.2)
movej(p[-0.515755707754696, -0.227333444196242, 0.411628987441797, -0.869, -1.578, 1.668], a = 0.2, v = 0.2, t = 0.2)
movej(p[-0.515766336907105, -0.227349416106832, 0.41123806673611, -0.869, -1.578, 1.668], a = 0.2, v = 0.2, t = 0.2)
movej(p[-0.515771870971607, -0.227357731876522, 0.411034534006745, -0.869, -1.578, 1.668], a = 0.2, v = 0.2, t = 0.2)
movej(p[-0.515775121371346, -0.227362616094192, 0.410914990273544, -0.869, -1.578, 1.668], a = 0.2, v = 0.2, t = 0.2)
movej(p[-0.515777750298601, -0.227366566455373, 0.41081830315701, -0.869, -1.578, 1.668], a = 0.2, v = 0.2, t = 0.2)
movej(p[-0.515775511024729, -0.227363201607387, 0.410900659537697, -0.869, -1.578, 1.668], a = 0.2, v = 0.2, t = 0.2)
movej(p[-0.515759668408703, -0.227339395678471, 0.411483321860977, -0.869, -1.578, 1.668], a = 0.2, v = 0.2, t = 0.2)
movej(p[-0.515735939010913, -0.227303738666012, 0.41235604553386, -0.869, -1.578, 1.668], a = 0.2, v = 0.2, t = 0.2)
movej(p[-0.515700189546107, -0.227250019683201, 0.41367084519735, -0.869, -1.578, 1.668], a = 0.2, v = 0.2, t = 0.2)
movej(p[-0.515668805185654, -0.227202859930493, 0.414825104339016, -0.869, -1.578, 1.668], a = 0.2, v = 0.2, t = 0.2)
movej(p[-0.515646215154085, -0.227168914988264, 0.415655924214676, -0.869, -1.578, 1.668], a = 0.2, v = 0.2, t = 0.2)
movej(p[-0.515637613185732, -0.227155989228604, 0.415972288813618, -0.869, -1.578, 1.668], a = 0.2, v = 0.2, t = 0.2)
movej(p[-0.515657835703075, -0.227186376622302, 0.415228541763354, -0.869, -1.578, 1.668], a = 0.2, v = 0.2, t = 0.2)
movej(p[-0.515701304250721, -0.227251694695634, 0.413629848408726, -0.869, -1.578, 1.668], a = 0.2, v = 0.2, t = 0.2)
movej(p[-0.515739455756002, -0.227309023107891, 0.412226706107802, -0.869, -1.578, 1.668], a = 0.2, v = 0.2, t = 0.2)
movej(p[-0.515756906308773, -0.227335245205185, 0.41158490682394, -0.869, -1.578, 1.668], a = 0.2, v = 0.2, t = 0.2)
movej(p[-0.51576699783816, -0.227350409255796, 0.411213758905686, -0.869, -1.578, 1.668], a = 0.2, v = 0.2, t = 0.2)
movej(p[-0.515773104051933, -0.227359584766381, 0.410989183576851, -0.869, -1.578, 1.668], a = 0.2, v = 0.2, t = 0.2)
movej(p[-0.515776522150596, -0.227364720977072, 0.410863472185184, -0.869, -1.578, 1.668], a = 0.2, v = 0.2, t = 0.2)
movej(p[-0.515777084435225, -0.227365565894848, 0.410842792389153, -0.869, -1.578, 1.668], a = 0.2, v = 0.2, t = 0.2)
movej(p[-0.515770228508613, -0.227355263827229, 0.411094940779364, -0.869, -1.578, 1.668], a = 0.2, v = 0.2, t = 0.2)
movej(p[-0.515748141573817, -0.227322074864063, 0.411907257679628, -0.869, -1.578, 1.668], a = 0.2, v = 0.2, t = 0.2)
movej(p[-0.515712545010971, -0.227268585639595, 0.413216433889811, -0.869, -1.578, 1.668], a = 0.2, v = 0.2, t = 0.2)
movej(p[-0.515677999032563, -0.227216675077287, 0.414486971533725, -0.869, -1.578, 1.668], a = 0.2, v = 0.2, t = 0.2)
movej(p[-0.515655660549381, -0.227183108124589, 0.415308539921687, -0.869, -1.578, 1.668], a = 0.2, v = 0.2, t = 0.2)
movej(p[-0.515634895476694, -0.227151905459353, 0.416072241161104, -0.869, -1.578, 1.668], a = 0.2, v = 0.2, t = 0.2)
movej(p[-0.515641489990276, -0.227161814714322, 0.415829707062031, -0.869, -1.578, 1.668], a = 0.2, v = 0.2, t = 0.2)
movej(p[-0.515685880882006, -0.22722851874927, 0.414197091585842, -0.869, -1.578, 1.668], a = 0.2, v = 0.2, t = 0.2)
movej(p[-0.515731051080501, -0.227296393810608, 0.41253581463796, -0.869, -1.578, 1.668], a = 0.2, v = 0.2, t = 0.2)
movej(p[-0.515753498074753, -0.227330123817613, 0.411710255412167, -0.869, -1.578, 1.668], a = 0.2, v = 0.2, t = 0.2)
movej(p[-0.515764783225894, -0.227347081465609, 0.411295208277776, -0.869, -1.578, 1.668], a = 0.2, v = 0.2, t = 0.2)
movej(p[-0.51577346904371, -0.22736013322178, 0.410975759849602, -0.869, -1.578, 1.668], a = 0.2, v = 0.2, t = 0.2)
movej(p[-0.515775787234722, -0.227363616654716, 0.410890501041401, -0.869, -1.578, 1.668], a = 0.2, v = 0.2, t = 0.2)
movej(p[-0.515776369248636, -0.22736449121873, 0.410869095638491, -0.869, -1.578, 1.668], a = 0.2, v = 0.2, t = 0.2)
movej(p[-0.515770800657885, -0.227356123568124, 0.411073898179893, -0.869, -1.578, 1.668], a = 0.2, v = 0.2, t = 0.2)
movej(p[-0.515752546136741, -0.227328693386641, 0.411745265944046, -0.869, -1.578, 1.668], a = 0.2, v = 0.2, t = 0.2)
movej(p[-0.515720076665601, -0.227279903090857, 0.412939433464018, -0.869, -1.578, 1.668], a = 0.2, v = 0.2, t = 0.2)
movej(p[-0.515688716966755, -0.227232780395947, 0.414092785597085, -0.869, -1.578, 1.668], a = 0.2, v = 0.2, t = 0.2)
movej(p[-0.515663675571499, -0.227195151908677, 0.415013762127375, -0.869, -1.578, 1.668], a = 0.2, v = 0.2, t = 0.2)
movej(p[-0.515639655166751, -0.227159057614211, 0.415897188501713, -0.869, -1.578, 1.668], a = 0.2, v = 0.2, t = 0.2)
movej(p[-0.515638520732852, -0.22715735295554, 0.415938910897216, -0.869, -1.578, 1.668], a = 0.2, v = 0.2, t = 0.2)
movej(p[-0.515674590798543, -0.227211553689715, 0.414612320121953, -0.869, -1.578, 1.668], a = 0.2, v = 0.2, t = 0.2)
movej(p[-0.51572090529558, -0.227281148232843, 0.412908957975129, -0.869, -1.578, 1.668], a = 0.2, v = 0.2, t = 0.2)
movej(p[-0.515748156370781, -0.227322097098741, 0.411906713474469, -0.869, -1.578, 1.668], a = 0.2, v = 0.2, t = 0.2)
movej(p[-0.515763436702179, -0.227345058109882, 0.411344730947221, -0.869, -1.578, 1.668], a = 0.2, v = 0.2, t = 0.2)
movej(p[-0.515773760050666, -0.227360570503787, 0.410965057148147, -0.869, -1.578, 1.668], a = 0.2, v = 0.2, t = 0.2)
movej(p[-0.515775792167043, -0.227363624066275, 0.410890319639682, -0.869, -1.578, 1.668], a = 0.2, v = 0.2, t = 0.2)
movej(p[-0.515775940136682, -0.227363846413059, 0.410884877588094, -0.869, -1.578, 1.668], a = 0.2, v = 0.2, t = 0.2)
movej(p[-0.51577267493998, -0.22735893996071, 0.411004965526454, -0.869, -1.578, 1.668], a = 0.2, v = 0.2, t = 0.2)
movej(p[-0.515753927186706, -0.227330768623284, 0.411694473462564, -0.869, -1.578, 1.668], a = 0.2, v = 0.2, t = 0.2)
movej(p[-0.515721985473946, -0.22728277136436, 0.412869230998542, -0.869, -1.578, 1.668], a = 0.2, v = 0.2, t = 0.2)
movej(p[-0.515692588838978, -0.227238598470106, 0.413950385247218, -0.869, -1.578, 1.668], a = 0.2, v = 0.2, t = 0.2)
movej(p[-0.515667345218548, -0.227200666108899, 0.414878799248011, -0.869, -1.578, 1.668], a = 0.2, v = 0.2, t = 0.2)
movej(p[-0.515642530710071, -0.227163378553364, 0.4157914312992, -0.869, -1.578, 1.668], a = 0.2, v = 0.2, t = 0.2)
movej(p[-0.515636385037727, -0.227154143750303, 0.416017457841792, -0.869, -1.578, 1.668], a = 0.2, v = 0.2, t = 0.2)
movej(p[-0.515671734984508, -0.2272072623968, 0.414717351717587, -0.869, -1.578, 1.668], a = 0.2, v = 0.2, t = 0.2)
movej(p[-0.515711903809202, -0.227267622136868, 0.413240016113356, -0.869, -1.578, 1.668], a = 0.2, v = 0.2, t = 0.2)
movej(p[-0.515742000833795, -0.227312847472562, 0.4121331028205, -0.869, -1.578, 1.668], a = 0.2, v = 0.2, t = 0.2)
movej(p[-0.515760911353671, -0.227341263391449, 0.411437608627644, -0.869, -1.578, 1.668], a = 0.2, v = 0.2, t = 0.2)
movej(p[-0.515773306277107, -0.227359888640318, 0.410981746106348, -0.869, -1.578, 1.668], a = 0.2, v = 0.2, t = 0.2)
movej(p[-0.515775811896329, -0.227363653712513, 0.410889594032803, -0.869, -1.578, 1.668], a = 0.2, v = 0.2, t = 0.2)
movej(p[-0.515776946330228, -0.227365358371184, 0.410847871637301, -0.869, -1.578, 1.668], a = 0.2, v = 0.2, t = 0.2)
movej(p[-0.51577869237197, -0.227367982063225, 0.410783655428571, -0.869, -1.578, 1.668], a = 0.2, v = 0.2, t = 0.2)
movej(p[-0.515772379000702, -0.227358495267144, 0.411015849629629, -0.869, -1.578, 1.668], a = 0.2, v = 0.2, t = 0.2)
movej(p[-0.515745443594064, -0.22731802074105, 0.412006484420236, -0.869, -1.578, 1.668], a = 0.2, v = 0.2, t = 0.2)
movej(p[-0.515715070359479, -0.227272380358027, 0.413123556209388, -0.869, -1.578, 1.668], a = 0.2, v = 0.2, t = 0.2)
movej(p[-0.51568892412425, -0.227233091681443, 0.414085166724863, -0.869, -1.578, 1.668], a = 0.2, v = 0.2, t = 0.2)
movej(p[-0.51565641519454, -0.227184242093183, 0.415280785458592, -0.869, -1.578, 1.668], a = 0.2, v = 0.2, t = 0.2)
movej(p[-0.515633553885299, -0.227149889515186, 0.416121582428829, -0.869, -1.578, 1.668], a = 0.2, v = 0.2, t = 0.2)
movej(p[-0.515645874823915, -0.227168403590663, 0.415668440933327, -0.869, -1.578, 1.668], a = 0.2, v = 0.2, t = 0.2)
movej(p[-0.515685732912367, -0.227228296402486, 0.414202533637429, -0.869, -1.578, 1.668], a = 0.2, v = 0.2, t = 0.2)
movej(p[-0.515722853562495, -0.227284075798821, 0.412837304295896, -0.869, -1.578, 1.668], a = 0.2, v = 0.2, t = 0.2)
movej(p[-0.515749808698418, -0.227324579971153, 0.411845943898411, -0.869, -1.578, 1.668], a = 0.2, v = 0.2, t = 0.2)
movej(p[-0.515767875791352, -0.227351728513377, 0.411181469399602, -0.869, -1.578, 1.668], a = 0.2, v = 0.2, t = 0.2)
movej(p[-0.515773123781218, -0.227359614412619, 0.410988457969972, -0.869, -1.578, 1.668], a = 0.2, v = 0.2, t = 0.2)
movej(p[-0.515775441972231, -0.227363097845555, 0.410903199161771, -0.869, -1.578, 1.668], a = 0.2, v = 0.2, t = 0.2)
movej(p[-0.515779067228389, -0.227368545341743, 0.410769868897883, -0.869, -1.578, 1.668], a = 0.2, v = 0.2, t = 0.2)
movej(p[-0.515779091889995, -0.22736858239954, 0.410768961889285, -0.869, -1.578, 1.668], a = 0.2, v = 0.2, t = 0.2)
movej(p[-0.515772719330871, -0.227359006664745, 0.411003332910978, -0.869, -1.578, 1.668], a = 0.2, v = 0.2, t = 0.2)
movej(p[-0.515751268665523, -0.227326773792747, 0.411792248989416, -0.869, -1.578, 1.668], a = 0.2, v = 0.2, t = 0.2)
movej(p[-0.515728288980572, -0.227292243337322, 0.412637399600923, -0.869, -1.578, 1.668], a = 0.2, v = 0.2, t = 0.2)
movej(p[-0.515697397852249, -0.227245824740559, 0.413773518570631, -0.869, -1.578, 1.668], a = 0.2, v = 0.2, t = 0.2)
movej(p[-0.515670127047763, -0.227204846228423, 0.414776488678169, -0.869, -1.578, 1.668], a = 0.2, v = 0.2, t = 0.2)
movej(p[-0.515657090922559, -0.227185257476827, 0.41525593342301, -0.869, -1.578, 1.668], a = 0.2, v = 0.2, t = 0.2)
movej(p[-0.515673342921253, -0.227209678565177, 0.414658214757005, -0.869, -1.578, 1.668], a = 0.2, v = 0.2, t = 0.2)
movej(p[-0.51571041918049, -0.227265391257476, 0.413294618030949, -0.869, -1.578, 1.668], a = 0.2, v = 0.2, t = 0.2)
movej(p[-0.515740289318302, -0.227310275661437, 0.412196049217193, -0.869, -1.578, 1.668], a = 0.2, v = 0.2, t = 0.2)
movej(p[-0.515763308461825, -0.227344865409336, 0.41134944739193, -0.869, -1.578, 1.668], a = 0.2, v = 0.2, t = 0.2)
movej(p[-0.515770613229675, -0.227355841928865, 0.411080791445237, -0.869, -1.578, 1.668], a = 0.2, v = 0.2, t = 0.2)
movej(p[-0.515774573883682, -0.227361793411094, 0.410935125864417, -0.869, -1.578, 1.668], a = 0.2, v = 0.2, t = 0.2)
movej(p[-0.515778677575006, -0.227367959828547, 0.410784199633729, -0.869, -1.578, 1.668], a = 0.2, v = 0.2, t = 0.2)
movej(p[-0.515779136280887, -0.227368649103575, 0.410767329273809, -0.869, -1.578, 1.668], a = 0.2, v = 0.2, t = 0.2)
movej(p[-0.515779101754638, -0.227368597222659, 0.410768599085846, -0.869, -1.578, 1.668], a = 0.2, v = 0.2, t = 0.2)
movej(p[-0.515773153375146, -0.227359658881976, 0.410987369559655, -0.869, -1.578, 1.668], a = 0.2, v = 0.2, t = 0.2)
movej(p[-0.515754918583288, -0.227332258346731, 0.411658011716929, -0.869, -1.578, 1.668], a = 0.2, v = 0.2, t = 0.2)
movej(p[-0.515727637914159, -0.227291265011477, 0.412661344627907, -0.869, -1.578, 1.668], a = 0.2, v = 0.2, t = 0.2)
movej(p[-0.515701407829469, -0.227251850338382, 0.413626038972615, -0.869, -1.578, 1.668], a = 0.2, v = 0.2, t = 0.2)
movej(p[-0.515681461522118, -0.227221877992013, 0.414359627526583, -0.869, -1.578, 1.668], a = 0.2, v = 0.2, t = 0.2)
movej(p[-0.515659147700542, -0.227188348097112, 0.415180288905947, -0.869, -1.578, 1.668], a = 0.2, v = 0.2, t = 0.2)
movej(p[-0.5156588369643, -0.227187881168868, 0.41519171721428, -0.869, -1.578, 1.668], a = 0.2, v = 0.2, t = 0.2)
movej(p[-0.5156914593374, -0.227236901222995, 0.413991926241001, -0.869, -1.578, 1.668], a = 0.2, v = 0.2, t = 0.2)
movej(p[-0.515728639175384, -0.227292769558043, 0.412624520078833, -0.869, -1.578, 1.668], a = 0.2, v = 0.2, t = 0.2)
movej(p[-0.515751613928015, -0.227327292601908, 0.411779550869046, -0.869, -1.578, 1.668], a = 0.2, v = 0.2, t = 0.2)
movej(p[-0.515764748699645, -0.227347029584692, 0.411296478089813, -0.869, -1.578, 1.668], a = 0.2, v = 0.2, t = 0.2)
movej(p[-0.515774534425111, -0.227361734118619, 0.410936577078174, -0.869, -1.578, 1.668], a = 0.2, v = 0.2, t = 0.2)
movej(p[-0.515777508614857, -0.22736620328896, 0.410827191841269, -0.869, -1.578, 1.668], a = 0.2, v = 0.2, t = 0.2)
movej(p[-0.51577895871732, -0.227368382287435, 0.410773859735713, -0.869, -1.578, 1.668], a = 0.2, v = 0.2, t = 0.2)
movej(p[-0.51577959991909, -0.227369345790162, 0.410750277512168, -0.869, -1.578, 1.668], a = 0.2, v = 0.2, t = 0.2)
movej(p[-0.515782944032933, -0.227374370827461, 0.410627287146296, -0.869, -1.578, 1.668], a = 0.2, v = 0.2, t = 0.2)
movej(p[-0.515782884845078, -0.227374281888748, 0.410629463966931, -0.869, -1.578, 1.668], a = 0.2, v = 0.2, t = 0.2)
movej(p[-0.515775215085451, -0.227362756913821, 0.410911543640872, -0.869, -1.578, 1.668], a = 0.2, v = 0.2, t = 0.2)
movej(p[-0.515758376140522, -0.227337453849898, 0.411530849111506, -0.869, -1.578, 1.668], a = 0.2, v = 0.2, t = 0.2)
movej(p[-0.515737522286051, -0.227306117776592, 0.412297815581876, -0.869, -1.578, 1.668], a = 0.2, v = 0.2, t = 0.2)
movej(p[-0.515711459900285, -0.227266955096518, 0.413256342268118, -0.869, -1.578, 1.668], a = 0.2, v = 0.2, t = 0.2)
movej(p[-0.515689570258341, -0.22723406259573, 0.414061403099599, -0.869, -1.578, 1.668], a = 0.2, v = 0.2, t = 0.2)
movej(p[-0.515671236820056, -0.227206513829296, 0.414735673291265, -0.869, -1.578, 1.668], a = 0.2, v = 0.2, t = 0.2)
movej(p[-0.515659068783401, -0.227188229512161, 0.41518319133346, -0.869, -1.578, 1.668], a = 0.2, v = 0.2, t = 0.2)
movej(p[-0.515682719264051, -0.227223767939669, 0.41431337008809, -0.869, -1.578, 1.668], a = 0.2, v = 0.2, t = 0.2)
movej(p[-0.515719598230435, -0.227279184169592, 0.412957029430817, -0.869, -1.578, 1.668], a = 0.2, v = 0.2, t = 0.2)
movej(p[-0.515751826017831, -0.227327611298963, 0.411771750595104, -0.869, -1.578, 1.668], a = 0.2, v = 0.2, t = 0.2)
movej(p[-0.515765537871054, -0.227348215434203, 0.411267453814681, -0.869, -1.578, 1.668], a = 0.2, v = 0.2, t = 0.2)
movej(p[-0.515773222427644, -0.227359762643808, 0.410984829935581, -0.869, -1.578, 1.668], a = 0.2, v = 0.2, t = 0.2)
movej(p[-0.51577884527393, -0.227368211821568, 0.410778031975264, -0.869, -1.578, 1.668], a = 0.2, v = 0.2, t = 0.2)
movej(p[-0.515780324970321, -0.2273704352894, 0.410723611459391, -0.869, -1.578, 1.668], a = 0.2, v = 0.2, t = 0.2)
movej(p[-0.515781158532621, -0.227371687842945, 0.410692954568782, -0.869, -1.578, 1.668], a = 0.2, v = 0.2, t = 0.2)
movej(p[-0.515781124006372, -0.227371635962029, 0.410694224380819, -0.869, -1.578, 1.668], a = 0.2, v = 0.2, t = 0.2)
movej(p[-0.515783432332742, -0.227375104571846, 0.410609328376058, -0.869, -1.578, 1.668], a = 0.2, v = 0.2, t = 0.2)
movej(p[-0.515779343438382, -0.227368960389071, 0.410759710401586, -0.869, -1.578, 1.668], a = 0.2, v = 0.2, t = 0.2)
movej(p[-0.515759984077266, -0.227339870018275, 0.411471712150924, -0.869, -1.578, 1.668], a = 0.2, v = 0.2, t = 0.2)
movej(p[-0.515738873742088, -0.227308148543878, 0.412248111510712, -0.869, -1.578, 1.668], a = 0.2, v = 0.2, t = 0.2)
movej(p[-0.51571405430129, -0.227270853576783, 0.413160924963621, -0.869, -1.578, 1.668], a = 0.2, v = 0.2, t = 0.2)
movej(p[-0.515686216279854, -0.227229022735311, 0.414184756268911, -0.869, -1.578, 1.668], a = 0.2, v = 0.2, t = 0.2)
movej(p[-0.515665096080034, -0.227197286437795, 0.414961518432137, -0.869, -1.578, 1.668], a = 0.2, v = 0.2, t = 0.2)
movej(p[-0.515663660774535, -0.227195129673999, 0.415014306332534, -0.869, -1.578, 1.668], a = 0.2, v = 0.2, t = 0.2)
movej(p[-0.515693402671993, -0.227239821377413, 0.413920453963488, -0.869, -1.578, 1.668], a = 0.2, v = 0.2, t = 0.2)
movej(p[-0.515725280264577, -0.227287722286065, 0.412748054649865, -0.869, -1.578, 1.668], a = 0.2, v = 0.2, t = 0.2)
movej(p[-0.515750400576974, -0.227325469358286, 0.411824175692061, -0.869, -1.578, 1.668], a = 0.2, v = 0.2, t = 0.2)
movej(p[-0.515767703160106, -0.227351469108796, 0.411187818459787, -0.869, -1.578, 1.668], a = 0.2, v = 0.2, t = 0.2)
movej(p[-0.515774356861544, -0.227361467302479, 0.410943107540078, -0.869, -1.578, 1.668], a = 0.2, v = 0.2, t = 0.2)
movej(p[-0.515777567802713, -0.227366292227673, 0.410825015020634, -0.869, -1.578, 1.668], a = 0.2, v = 0.2, t = 0.2)
movej(p[-0.51578206114742, -0.227373044158322, 0.4106597580541, -0.869, -1.578, 1.668], a = 0.2, v = 0.2, t = 0.2)
movej(p[-0.515781858922246, -0.227372740284385, 0.410667195524602, -0.869, -1.578, 1.668], a = 0.2, v = 0.2, t = 0.2)
movej(p[-0.515782218981702, -0.227373281328224, 0.410653953199073, -0.869, -1.578, 1.668], a = 0.2, v = 0.2, t = 0.2)
movej(p[-0.515780961239769, -0.227371391380567, 0.410700210637565, -0.869, -1.578, 1.668], a = 0.2, v = 0.2, t = 0.2)
movej(p[-0.515768137204381, -0.227352121326027, 0.411171855108464, -0.869, -1.578, 1.668], a = 0.2, v = 0.2, t = 0.2)
movej(p[-0.515743406545366, -0.227314959767002, 0.412081403330421, -0.869, -1.578, 1.668], a = 0.2, v = 0.2, t = 0.2)
movej(p[-0.515719159253839, -0.227278524540802, 0.412973174183859, -0.869, -1.578, 1.668], a = 0.2, v = 0.2, t = 0.2)
movej(p[-0.515700751830735, -0.227250864600977, 0.413650165401319, -0.869, -1.578, 1.668], a = 0.2, v = 0.2, t = 0.2)
movej(p[-0.515673451432322, -0.227209841619484, 0.414654223919175, -0.869, -1.578, 1.668], a = 0.2, v = 0.2, t = 0.2)
movej(p[-0.515649485283109, -0.227173828852172, 0.415535654874597, -0.869, -1.578, 1.668], a = 0.2, v = 0.2, t = 0.2)
movej(p[-0.515662028176183, -0.227192676447825, 0.415074350301714, -0.869, -1.578, 1.668], a = 0.2, v = 0.2, t = 0.2)
movej(p[-0.515702808608719, -0.227253955221263, 0.413574520884255, -0.869, -1.578, 1.668], a = 0.2, v = 0.2, t = 0.2)
movej(p[-0.515731790928697, -0.227297505544524, 0.412508604380024, -0.869, -1.578, 1.668], a = 0.2, v = 0.2, t = 0.2)
movej(p[-0.515755480867916, -0.227333103264507, 0.411637331920898, -0.869, -1.578, 1.668], a = 0.2, v = 0.2, t = 0.2)
movej(p[-0.515772551631947, -0.227358754671724, 0.411009500569443, -0.869, -1.578, 1.668], a = 0.2, v = 0.2, t = 0.2)
movej(p[-0.515776753969698, -0.227365069320366, 0.410854946304364, -0.869, -1.578, 1.668], a = 0.2, v = 0.2, t = 0.2)
movej(p[-0.515779082025353, -0.227368567576421, 0.410769324692724, -0.869, -1.578, 1.668], a = 0.2, v = 0.2, t = 0.2)
movej(p[-0.515780320038, -0.22737042787784, 0.41072379286111, -0.869, -1.578, 1.668], a = 0.2, v = 0.2, t = 0.2)
movej(p[-0.515783180784356, -0.227374726582314, 0.410618579863756, -0.869, -1.578, 1.668], a = 0.2, v = 0.2, t = 0.2)
movej(p[-0.515782884845078, -0.227374281888748, 0.410629463966931, -0.869, -1.578, 1.668], a = 0.2, v = 0.2, t = 0.2)
movej(p[-0.515781059886195, -0.227371539611756, 0.410696582603174, -0.869, -1.578, 1.668], a = 0.2, v = 0.2, t = 0.2)
movej(p[-0.515768729082937, -0.227353010713159, 0.411150086902115, -0.869, -1.578, 1.668], a = 0.2, v = 0.2, t = 0.2)
movej(p[-0.515745270962819, -0.22731776133647, 0.412012833480421, -0.869, -1.578, 1.668], a = 0.2, v = 0.2, t = 0.2)
movej(p[-0.515720254229168, -0.227280169906997, 0.412932903002113, -0.869, -1.578, 1.668], a = 0.2, v = 0.2, t = 0.2)
movej(p[-0.515699114300063, -0.227248403963243, 0.413710390772218, -0.869, -1.578, 1.668], a = 0.2, v = 0.2, t = 0.2)
movej(p[-0.51568082525267, -0.227220921900845, 0.414383028348408, -0.869, -1.578, 1.668], a = 0.2, v = 0.2, t = 0.2)
movej(p[-0.515662684174917, -0.22719366218523, 0.41505022387301, -0.869, -1.578, 1.668], a = 0.2, v = 0.2, t = 0.2)
movej(p[-0.515672731313411, -0.227208759531806, 0.414680708570233, -0.869, -1.578, 1.668], a = 0.2, v = 0.2, t = 0.2)
movej(p[-0.515712076440448, -0.227267881541448, 0.413233667053171, -0.869, -1.578, 1.668], a = 0.2, v = 0.2, t = 0.2)
movej(p[-0.515740249859732, -0.227310216368961, 0.41219750043095, -0.869, -1.578, 1.668], a = 0.2, v = 0.2, t = 0.2)
movej(p[-0.515760427986184, -0.227340537058624, 0.411455385996162, -0.869, -1.578, 1.668], a = 0.2, v = 0.2, t = 0.2)
movej(p[-0.515770238373256, -0.227355278650348, 0.411094577975925, -0.869, -1.578, 1.668], a = 0.2, v = 0.2, t = 0.2)
movej(p[-0.515779575257483, -0.227369308732365, 0.410751184520766, -0.869, -1.578, 1.668], a = 0.2, v = 0.2, t = 0.2)
movej(p[-0.515781306502261, -0.227371910189728, 0.410687512517195, -0.869, -1.578, 1.668], a = 0.2, v = 0.2, t = 0.2)
movej(p[-0.515781804666712, -0.227372658757231, 0.410669190943518, -0.869, -1.578, 1.668], a = 0.2, v = 0.2, t = 0.2)
movej(p[-0.515785114254307, -0.227377631913614, 0.410547470389682, -0.869, -1.578, 1.668], a = 0.2, v = 0.2, t = 0.2)
movej(p[-0.51578486270592, -0.227377253924083, 0.41055672187738, -0.869, -1.578, 1.668], a = 0.2, v = 0.2, t = 0.2)
movej(p[-0.515784211639508, -0.227376275598237, 0.410580666904364, -0.869, -1.578, 1.668], a = 0.2, v = 0.2, t = 0.2)
movej(p[-0.515771382671798, -0.227356998132137, 0.411052492776983, -0.869, -1.578, 1.668], a = 0.2, v = 0.2, t = 0.2)
movej(p[-0.51575307389512, -0.227329486423501, 0.411725855960051, -0.869, -1.578, 1.668], a = 0.2, v = 0.2, t = 0.2)
movej(p[-0.515728116349326, -0.227291983932742, 0.412643748661108, -0.869, -1.578, 1.668], a = 0.2, v = 0.2, t = 0.2)
movej(p[-0.515702803676397, -0.227253947809703, 0.413574702285975, -0.869, -1.578, 1.668], a = 0.2, v = 0.2, t = 0.2)
movej(p[-0.515686157091999, -0.227228933796598, 0.414186933089546, -0.869, -1.578, 1.668], a = 0.2, v = 0.2, t = 0.2)
movej(p[-0.515669106057253, -0.227203312035619, 0.414814038834122, -0.869, -1.578, 1.668], a = 0.2, v = 0.2, t = 0.2)
movej(p[-0.515666792798562, -0.227199836014242, 0.414899116240603, -0.869, -1.578, 1.668], a = 0.2, v = 0.2, t = 0.2)
movej(p[-0.515702596518903, -0.227253636524207, 0.413582321158197, -0.869, -1.578, 1.668], a = 0.2, v = 0.2, t = 0.2)
movej(p[-0.515737951398005, -0.227306762582263, 0.412282033632273, -0.869, -1.578, 1.668], a = 0.2, v = 0.2, t = 0.2)
movej(p[-0.515757572172149, -0.227336245765709, 0.411560417591797, -0.869, -1.578, 1.668], a = 0.2, v = 0.2, t = 0.2)
movej(p[-0.515769493592739, -0.227354159504872, 0.411121969635581, -0.869, -1.578, 1.668], a = 0.2, v = 0.2, t = 0.2)
movej(p[-0.515775446904552, -0.227363105257115, 0.410903017760052, -0.869, -1.578, 1.668], a = 0.2, v = 0.2, t = 0.2)
movej(p[-0.515781853989925, -0.227372732872825, 0.410667376926322, -0.869, -1.578, 1.668], a = 0.2, v = 0.2, t = 0.2)
movej(p[-0.515782406409911, -0.227373562967483, 0.410647059933729, -0.869, -1.578, 1.668], a = 0.2, v = 0.2, t = 0.2)
movej(p[-0.515782312695806, -0.227373422147853, 0.410650506566401, -0.869, -1.578, 1.668], a = 0.2, v = 0.2, t = 0.2)
movej(p[-0.515784216571829, -0.227376283009797, 0.410580485502645, -0.869, -1.578, 1.668], a = 0.2, v = 0.2, t = 0.2)
movej(p[-0.515770361681289, -0.227355463939334, 0.411090042932935, -0.869, -1.578, 1.668], a = 0.2, v = 0.2, t = 0.2)
movej(p[-0.515746178509939, -0.227319125063406, 0.411979455564019, -0.869, -1.578, 1.668], a = 0.2, v = 0.2, t = 0.2)
movej(p[-0.515720624153266, -0.227280725773955, 0.412919297873145, -0.869, -1.578, 1.668], a = 0.2, v = 0.2, t = 0.2)
movej(p[-0.515699355983806, -0.227248767129656, 0.413701502087959, -0.869, -1.578, 1.668], a = 0.2, v = 0.2, t = 0.2)
movej(p[-0.515672203555032, -0.227207966494946, 0.414700118554228, -0.869, -1.578, 1.668], a = 0.2, v = 0.2, t = 0.2)
movej(p[-0.51565255318696, -0.227178438842143, 0.415422823005021, -0.869, -1.578, 1.668], a = 0.2, v = 0.2, t = 0.2)
movej(p[-0.51567071892632, -0.227205735615555, 0.41475472047182, -0.869, -1.578, 1.668], a = 0.2, v = 0.2, t = 0.2)
movej(p[-0.515708313079293, -0.227262226521596, 0.413372076565208, -0.869, -1.578, 1.668], a = 0.2, v = 0.2, t = 0.2)
movej(p[-0.515739623454926, -0.227309275100912, 0.412220538449336, -0.869, -1.578, 1.668], a = 0.2, v = 0.2, t = 0.2)
movej(p[-0.51576041318922, -0.227340514823946, 0.411455930201321, -0.869, -1.578, 1.668], a = 0.2, v = 0.2, t = 0.2)
movej(p[-0.515774953672422, -0.227362364101171, 0.41092115793201, -0.869, -1.578, 1.668], a = 0.2, v = 0.2, t = 0.2)
movej(p[-0.515778569063937, -0.227367796774239, 0.41078819047156, -0.869, -1.578, 1.668], a = 0.2, v = 0.2, t = 0.2)
movej(p[-0.51578020659461, -0.227370257411973, 0.410727965100661, -0.869, -1.578, 1.668], a = 0.2, v = 0.2, t = 0.2)
movej(p[-0.515782386680626, -0.227373533321245, 0.410647785540608, -0.869, -1.578, 1.668], a = 0.2, v = 0.2, t = 0.2)
movej(p[-0.515784704871638, -0.227377016754181, 0.410562526732407, -0.869, -1.578, 1.668], a = 0.2, v = 0.2, t = 0.2)
movej(p[-0.515784053805226, -0.227376038428335, 0.410586471759391, -0.869, -1.578, 1.668], a = 0.2, v = 0.2, t = 0.2)
movej(p[-0.515772383933023, -0.227358502678703, 0.411015668227909, -0.869, -1.578, 1.668], a = 0.2, v = 0.2, t = 0.2)
movej(p[-0.515751007252494, -0.227326380980097, 0.411801863280554, -0.869, -1.578, 1.668], a = 0.2, v = 0.2, t = 0.2)
movej(p[-0.515723573681406, -0.227285157886499, 0.412810819644838, -0.869, -1.578, 1.668], a = 0.2, v = 0.2, t = 0.2)
movej(p[-0.515695646878186, -0.227243193636958, 0.41383791618108, -0.869, -1.578, 1.668], a = 0.2, v = 0.2, t = 0.2)
movej(p[-0.51567586826976, -0.227213473283609, 0.414565337076582, -0.869, -1.578, 1.668], a = 0.2, v = 0.2, t = 0.2)
movej(p[-0.51565944363982, -0.227188792790679, 0.415169404802772, -0.869, -1.578, 1.668], a = 0.2, v = 0.2, t = 0.2)
movej(p[-0.515662920926339, -0.227194017940083, 0.415041516590471, -0.869, -1.578, 1.668], a = 0.2, v = 0.2, t = 0.2)
movej(p[-0.515702961510679, -0.227254184979605, 0.413568897430948, -0.869, -1.578, 1.668], a = 0.2, v = 0.2, t = 0.2)
movej(p[-0.515742572983066, -0.227313707213457, 0.412112060221029, -0.869, -1.578, 1.668], a = 0.2, v = 0.2, t = 0.2)
movej(p[-0.51576158708169, -0.227342278775092, 0.411412756592062, -0.869, -1.578, 1.668], a = 0.2, v = 0.2, t = 0.2)
movej(p[-0.515772122519994, -0.227358109866053, 0.411025282519046, -0.869, -1.578, 1.668], a = 0.2, v = 0.2, t = 0.2)
movej(p[-0.515778588793222, -0.227367826420477, 0.410787464864682, -0.869, -1.578, 1.668], a = 0.2, v = 0.2, t = 0.2)
movej(p[-0.515782238710987, -0.227373310974462, 0.410653227592195, -0.869, -1.578, 1.668], a = 0.2, v = 0.2, t = 0.2)
movej(p[-0.515782934168291, -0.227374356004343, 0.410627649949735, -0.869, -1.578, 1.668], a = 0.2, v = 0.2, t = 0.2)
movej(p[-0.515782850318828, -0.227374230007832, 0.410630733778968, -0.869, -1.578, 1.668], a = 0.2, v = 0.2, t = 0.2)
movej(p[-0.515785780117683, -0.227378632474139, 0.410522981157539, -0.869, -1.578, 1.668], a = 0.2, v = 0.2, t = 0.2)
movej(p[-0.515781124006372, -0.227371635962029, 0.410694224380819, -0.869, -1.578, 1.668], a = 0.2, v = 0.2, t = 0.2)
movej(p[-0.515762021125965, -0.227342930992323, 0.411396793240739, -0.869, -1.578, 1.668], a = 0.2, v = 0.2, t = 0.2)
movej(p[-0.515743056350554, -0.227314433546282, 0.412094282852511, -0.869, -1.578, 1.668], a = 0.2, v = 0.2, t = 0.2)
movej(p[-0.51571893729938, -0.227278191020627, 0.41298133726124, -0.869, -1.578, 1.668], a = 0.2, v = 0.2, t = 0.2)
movej(p[-0.515692302764343, -0.227238168599659, 0.413960906546953, -0.869, -1.578, 1.668], a = 0.2, v = 0.2, t = 0.2)
movej(p[-0.515671582082548, -0.227207032638457, 0.414722975170894, -0.869, -1.578, 1.668], a = 0.2, v = 0.2, t = 0.2)
movej(p[-0.51566008484159, -0.227189756293406, 0.415145822579227, -0.869, -1.578, 1.668], a = 0.2, v = 0.2, t = 0.2)
movej(p[-0.515677979303278, -0.227216645431049, 0.414487697140604, -0.869, -1.578, 1.668], a = 0.2, v = 0.2, t = 0.2)
movej(p[-0.515711075179223, -0.227266376994882, 0.413270491602245, -0.869, -1.578, 1.668], a = 0.2, v = 0.2, t = 0.2)
movej(p[-0.515745024346754, -0.227317390758498, 0.4120219035664, -0.869, -1.578, 1.668], a = 0.2, v = 0.2, t = 0.2)
movej(p[-0.51576533564588, -0.227347911560266, 0.411274891285184, -0.869, -1.578, 1.668], a = 0.2, v = 0.2, t = 0.2)
movej(p[-0.515773266818536, -0.227359829347843, 0.410983197320105, -0.869, -1.578, 1.668], a = 0.2, v = 0.2, t = 0.2)
movej(p[-0.515778243530731, -0.227367307611316, 0.410800162985052, -0.869, -1.578, 1.668], a = 0.2, v = 0.2, t = 0.2)
movej(p[-0.51578357537006, -0.22737531950707, 0.41060406772619, -0.869, -1.578, 1.668], a = 0.2, v = 0.2, t = 0.2)
movej(p[-0.515783698678093, -0.227375504796056, 0.4105995326832, -0.869, -1.578, 1.668], a = 0.2, v = 0.2, t = 0.2)
movej(p[-0.515783284363103, -0.227374882225063, 0.410614770427645, -0.869, -1.578, 1.668], a = 0.2, v = 0.2, t = 0.2)
movej(p[-0.515784132722367, -0.227376157013286, 0.410583569331878, -0.869, -1.578, 1.668], a = 0.2, v = 0.2, t = 0.2)
movej(p[-0.515772566428911, -0.227358776906403, 0.411008956364285, -0.869, -1.578, 1.668], a = 0.2, v = 0.2, t = 0.2)
movej(p[-0.515750188487158, -0.22732515066123, 0.411831975966003, -0.869, -1.578, 1.668], a = 0.2, v = 0.2, t = 0.2)
movej(p[-0.515727726695943, -0.227291398419546, 0.412658079396955, -0.869, -1.578, 1.668], a = 0.2, v = 0.2, t = 0.2)
movej(p[-0.515709403122301, -0.227263864476232, 0.413331986785182, -0.869, -1.578, 1.668], a = 0.2, v = 0.2, t = 0.2)
movej(p[-0.515691903246317, -0.227237568263344, 0.413975600086239, -0.869, -1.578, 1.668], a = 0.2, v = 0.2, t = 0.2)
movej(p[-0.515706986284863, -0.227260232812107, 0.413420873627774, -0.869, -1.578, 1.668], a = 0.2, v = 0.2, t = 0.2)
movej(p[-0.515740457017227, -0.227310527654457, 0.412189881558728, -0.869, -1.578, 1.668], a = 0.2, v = 0.2, t = 0.2)
movej(p[-0.515762795500409, -0.227344094607155, 0.411368313170766, -0.869, -1.578, 1.668], a = 0.2, v = 0.2, t = 0.2)
movej(p[-0.515772551631947, -0.227358754671724, 0.411009500569443, -0.869, -1.578, 1.668], a = 0.2, v = 0.2, t = 0.2)
movej(p[-0.515777755230922, -0.227366573866932, 0.41081812175529, -0.869, -1.578, 1.668], a = 0.2, v = 0.2, t = 0.2)
movej(p[-0.51578361482863, -0.227375378799545, 0.410602616512433, -0.869, -1.578, 1.668], a = 0.2, v = 0.2, t = 0.2)
movej(p[-0.515783826918446, -0.227375697496601, 0.410594816238491, -0.869, -1.578, 1.668], a = 0.2, v = 0.2, t = 0.2)
movej(p[-0.515783185716677, -0.227374733993874, 0.410618398462036, -0.869, -1.578, 1.668], a = 0.2, v = 0.2, t = 0.2)
movej(p[-0.515773720592096, -0.227360511211311, 0.410966508361904, -0.869, -1.578, 1.668], a = 0.2, v = 0.2, t = 0.2)
movej(p[-0.51575341422529, -0.227329997821103, 0.4117133392414, -0.869, -1.578, 1.668], a = 0.2, v = 0.2, t = 0.2)
movej(p[-0.515722572420181, -0.227283653339933, 0.412847644193912, -0.869, -1.578, 1.668], a = 0.2, v = 0.2, t = 0.2)
movej(p[-0.515693792325376, -0.227240406890609, 0.413906123227641, -0.869, -1.578, 1.668], a = 0.2, v = 0.2, t = 0.2)
movej(p[-0.515671843495577, -0.227207425451107, 0.414713360879757, -0.869, -1.578, 1.668], a = 0.2, v = 0.2, t = 0.2)
movej(p[-0.515653534718899, -0.227179913742471, 0.415386724062825, -0.869, -1.578, 1.668], a = 0.2, v = 0.2, t = 0.2)
movej(p[-0.515665683026269, -0.227198168413369, 0.414939931627508, -0.869, -1.578, 1.668], a = 0.2, v = 0.2, t = 0.2)
movej(p[-0.515701970114097, -0.227252695256158, 0.413605359176583, -0.869, -1.578, 1.668], a = 0.2, v = 0.2, t = 0.2)
movej(p[-0.515734237360063, -0.227301181678005, 0.412418629127114, -0.869, -1.578, 1.668], a = 0.2, v = 0.2, t = 0.2)
movej(p[-0.515754099817952, -0.227331028027865, 0.411688124402379, -0.869, -1.578, 1.668], a = 0.2, v = 0.2, t = 0.2)
movej(p[-0.515767619310644, -0.227351343112286, 0.41119090228902, -0.869, -1.578, 1.668], a = 0.2, v = 0.2, t = 0.2)
movej(p[-0.515778593725544, -0.227367833832037, 0.410787283462962, -0.869, -1.578, 1.668], a = 0.2, v = 0.2, t = 0.2)
movej(p[-0.515780492669245, -0.22737068728242, 0.410717443800925, -0.869, -1.578, 1.668], a = 0.2, v = 0.2, t = 0.2)
movej(p[-0.515781331163867, -0.227371947247525, 0.410686605508597, -0.869, -1.578, 1.668], a = 0.2, v = 0.2, t = 0.2)
movej(p[-0.515779767618014, -0.227369597783183, 0.410744109853703, -0.869, -1.578, 1.668], a = 0.2, v = 0.2, t = 0.2)
movej(p[-0.515767742618676, -0.227351528401272, 0.41118636724603, -0.869, -1.578, 1.668], a = 0.2, v = 0.2, t = 0.2)
movej(p[-0.515742124141827, -0.227313032761548, 0.412128567777511, -0.869, -1.578, 1.668], a = 0.2, v = 0.2, t = 0.2)
movej(p[-0.515711563479032, -0.227267110739266, 0.413252532832007, -0.869, -1.578, 1.668], a = 0.2, v = 0.2, t = 0.2)
movej(p[-0.515678457738444, -0.227217364352314, 0.414470101173805, -0.869, -1.578, 1.668], a = 0.2, v = 0.2, t = 0.2)
movej(p[-0.51564907096812, -0.227173206281179, 0.415550892619042, -0.869, -1.578, 1.668], a = 0.2, v = 0.2, t = 0.2)
movej(p[-0.515641115133857, -0.227161251435805, 0.415843493592718, -0.869, -1.578, 1.668], a = 0.2, v = 0.2, t = 0.2)
movej(p[-0.515675379969951, -0.227212739539225, 0.41458329584682, -0.869, -1.578, 1.668], a = 0.2, v = 0.2, t = 0.2)
movej(p[-0.515710088714962, -0.227264894682994, 0.41330677194616, -0.869, -1.578, 1.668], a = 0.2, v = 0.2, t = 0.2)
movej(p[-0.515739036508691, -0.227308393125339, 0.412242125253966, -0.869, -1.578, 1.668], a = 0.2, v = 0.2, t = 0.2)
movej(p[-0.515759589491562, -0.22733927709352, 0.41148622428849, -0.869, -1.578, 1.668], a = 0.2, v = 0.2, t = 0.2)
movej(p[-0.515774771176534, -0.227362089873472, 0.410927869795634, -0.869, -1.578, 1.668], a = 0.2, v = 0.2, t = 0.2)
movej(p[-0.515778421094298, -0.227367574427456, 0.410793632523147, -0.869, -1.578, 1.668], a = 0.2, v = 0.2, t = 0.2)
movej(p[-0.515780517330852, -0.227370724340218, 0.410716536792327, -0.869, -1.578, 1.668], a = 0.2, v = 0.2, t = 0.2)
movej(p[-0.515783057476323, -0.227374541293328, 0.410623114906745, -0.869, -1.578, 1.668], a = 0.2, v = 0.2, t = 0.2)
movej(p[-0.515784561834321, -0.227376801818957, 0.410567787382275, -0.869, -1.578, 1.668], a = 0.2, v = 0.2, t = 0.2)
movej(p[-0.51577801171163, -0.227366959268023, 0.410808688865872, -0.869, -1.578, 1.668], a = 0.2, v = 0.2, t = 0.2)
movej(p[-0.515756205919148, -0.227334192763745, 0.41161066586812, -0.869, -1.578, 1.668], a = 0.2, v = 0.2, t = 0.2)
movej(p[-0.515731164523891, -0.227296564276475, 0.41253164239841, -0.869, -1.578, 1.668], a = 0.2, v = 0.2, t = 0.2)
movej(p[-0.515697861490451, -0.227246521427146, 0.413756466808991, -0.869, -1.578, 1.668], a = 0.2, v = 0.2, t = 0.2)
movej(p[-0.515665786605016, -0.227198324056117, 0.414936122191397, -0.869, -1.578, 1.668], a = 0.2, v = 0.2, t = 0.2)
movej(p[-0.515647364384949, -0.227170641881614, 0.415613657614015, -0.869, -1.578, 1.668], a = 0.2, v = 0.2, t = 0.2)
movej(p[-0.515656888697385, -0.22718495360289, 0.415263370893513, -0.869, -1.578, 1.668], a = 0.2, v = 0.2, t = 0.2)
movej(p[-0.515689432153344, -0.227233855072065, 0.414066482347747, -0.869, -1.578, 1.668], a = 0.2, v = 0.2, t = 0.2)
movej(p[-0.515727105223459, -0.227290464563057, 0.412680936013621, -0.869, -1.578, 1.668], a = 0.2, v = 0.2, t = 0.2)
movej(p[-0.515758376140522, -0.227337453849898, 0.411530849111506, -0.869, -1.578, 1.668], a = 0.2, v = 0.2, t = 0.2)
movej(p[-0.515770504718606, -0.227355678874557, 0.411084782283068, -0.869, -1.578, 1.668], a = 0.2, v = 0.2, t = 0.2)
movej(p[-0.515776507353632, -0.227364698742394, 0.410864016390343, -0.869, -1.578, 1.668], a = 0.2, v = 0.2, t = 0.2)
movej(p[-0.51578043348139, -0.227370598343707, 0.41071962062156, -0.869, -1.578, 1.668], a = 0.2, v = 0.2, t = 0.2)
movej(p[-0.515784833111992, -0.227377209454726, 0.410557810287698, -0.869, -1.578, 1.668], a = 0.2, v = 0.2, t = 0.2)
movej(p[-0.515784167248616, -0.227376208894202, 0.410582299519841, -0.869, -1.578, 1.668], a = 0.2, v = 0.2, t = 0.2)
movej(p[-0.515775200288487, -0.227362734679143, 0.410912087846031, -0.869, -1.578, 1.668], a = 0.2, v = 0.2, t = 0.2)
movej(p[-0.515756625166459, -0.227334822746297, 0.411595246721956, -0.869, -1.578, 1.668], a = 0.2, v = 0.2, t = 0.2)
movej(p[-0.515724540416381, -0.227286610552149, 0.412775264907801, -0.869, -1.578, 1.668], a = 0.2, v = 0.2, t = 0.2)
movej(p[-0.515692805861116, -0.227238924578721, 0.413942403571557, -0.869, -1.578, 1.668], a = 0.2, v = 0.2, t = 0.2)
movej(p[-0.515669836040806, -0.227204408946416, 0.414787191379624, -0.869, -1.578, 1.668], a = 0.2, v = 0.2, t = 0.2)
movej(p[-0.515649475418466, -0.227173814029053, 0.415536017678036, -0.869, -1.578, 1.668], a = 0.2, v = 0.2, t = 0.2)
movej(p[-0.515661150222991, -0.227191357190244, 0.415106639807799, -0.869, -1.578, 1.668], a = 0.2, v = 0.2, t = 0.2)
movej(p[-0.515696214095136, -0.227244045966293, 0.413817054983329, -0.869, -1.578, 1.668], a = 0.2, v = 0.2, t = 0.2)
movej(p[-0.515736649265181, -0.227304805930571, 0.412329923686241, -0.869, -1.578, 1.668], a = 0.2, v = 0.2, t = 0.2)
movej(p[-0.515756018490939, -0.227333911124486, 0.411617559133464, -0.869, -1.578, 1.668], a = 0.2, v = 0.2, t = 0.2)
movej(p[-0.515768995428287, -0.227353410937369, 0.411140291209258, -0.869, -1.578, 1.668], a = 0.2, v = 0.2, t = 0.2)
movej(p[-0.515776112767928, -0.227364105817639, 0.410878528527909, -0.869, -1.578, 1.668], a = 0.2, v = 0.2, t = 0.2)
movej(p[-0.515782662890619, -0.227373948368573, 0.410637627044311, -0.869, -1.578, 1.668], a = 0.2, v = 0.2, t = 0.2)
movej(p[-0.515783555640775, -0.227375289860832, 0.410604793333068, -0.869, -1.578, 1.668], a = 0.2, v = 0.2, t = 0.2)
movej(p[-0.515782396545268, -0.227373548144364, 0.410647422737169, -0.869, -1.578, 1.668], a = 0.2, v = 0.2, t = 0.2)
movej(p[-0.515773365464962, -0.227359977579032, 0.410979569285713, -0.869, -1.578, 1.668], a = 0.2, v = 0.2, t = 0.2)
movej(p[-0.515745621157631, -0.22731828755719, 0.411999953958331, -0.869, -1.578, 1.668], a = 0.2, v = 0.2, t = 0.2)
movej(p[-0.515716298507483, -0.227274225836327, 0.413078387181214, -0.869, -1.578, 1.668], a = 0.2, v = 0.2, t = 0.2)
movej(p[-0.51569055179028, -0.227235537496058, 0.414025304157403, -0.869, -1.578, 1.668], a = 0.2, v = 0.2, t = 0.2)
movej(p[-0.515669554898492, -0.227203986487528, 0.41479753127764, -0.869, -1.578, 1.668], a = 0.2, v = 0.2, t = 0.2)
movej(p[-0.515651329971276, -0.227176600775402, 0.415467810631475, -0.869, -1.578, 1.668], a = 0.2, v = 0.2, t = 0.2)
movej(p[-0.515672869418408, -0.227208967055471, 0.414675629322085, -0.869, -1.578, 1.668], a = 0.2, v = 0.2, t = 0.2)
movej(p[-0.515713496948983, -0.227270016070566, 0.413181423357933, -0.869, -1.578, 1.668], a = 0.2, v = 0.2, t = 0.2)
movej(p[-0.515743529853399, -0.227315145055988, 0.412076868287432, -0.869, -1.578, 1.668], a = 0.2, v = 0.2, t = 0.2)
movej(p[-0.515763229544684, -0.227344746824385, 0.411352349819443, -0.869, -1.578, 1.668], a = 0.2, v = 0.2, t = 0.2)
movej(p[-0.515774509763505, -0.227361697060821, 0.410937484086771, -0.869, -1.578, 1.668], a = 0.2, v = 0.2, t = 0.2)
movej(p[-0.515782120335275, -0.227373133097035, 0.410657581233465, -0.869, -1.578, 1.668], a = 0.2, v = 0.2, t = 0.2)
movej(p[-0.515783452062027, -0.227375134218084, 0.410608602769179, -0.869, -1.578, 1.668], a = 0.2, v = 0.2, t = 0.2)
movej(p[-0.515783851580053, -0.227375734554398, 0.410593909229894, -0.869, -1.578, 1.668], a = 0.2, v = 0.2, t = 0.2)
movej(p[-0.515784680210032, -0.227376979696384, 0.410563433741005, -0.869, -1.578, 1.668], a = 0.2, v = 0.2, t = 0.2)
movej(p[-0.515765735163906, -0.22734851189658, 0.411260197745898, -0.869, -1.578, 1.668], a = 0.2, v = 0.2, t = 0.2)
movej(p[-0.515736530889469, -0.227304628053144, 0.412334277327511, -0.869, -1.578, 1.668], a = 0.2, v = 0.2, t = 0.2)
movej(p[-0.515710330398706, -0.227265257849407, 0.413297883261901, -0.869, -1.578, 1.668], a = 0.2, v = 0.2, t = 0.2)
movej(p[-0.515685994325396, -0.227228689215137, 0.414192919346292, -0.869, -1.578, 1.668], a = 0.2, v = 0.2, t = 0.2)
movej(p[-0.515660375848547, -0.227190193575413, 0.415135119877772, -0.869, -1.578, 1.668], a = 0.2, v = 0.2, t = 0.2)
movej(p[-0.515644271819491, -0.227165994833846, 0.415727396492189, -0.869, -1.578, 1.668], a = 0.2, v = 0.2, t = 0.2)
movej(p[-0.515662299453855, -0.227193084083594, 0.415064373207137, -0.869, -1.578, 1.668], a = 0.2, v = 0.2, t = 0.2)
movej(p[-0.515697920678307, -0.227246610365859, 0.413754289988356, -0.869, -1.578, 1.668], a = 0.2, v = 0.2, t = 0.2)
movej(p[-0.515731253305675, -0.227296697684545, 0.412528377167458, -0.869, -1.578, 1.668], a = 0.2, v = 0.2, t = 0.2)
movej(p[-0.515756792865383, -0.227335074739318, 0.41158907906349, -0.869, -1.578, 1.668], a = 0.2, v = 0.2, t = 0.2)
movej(p[-0.51577362194567, -0.227360362980122, 0.410970136396295, -0.869, -1.578, 1.668], a = 0.2, v = 0.2, t = 0.2)
movej(p[-0.515778529605367, -0.227367737481764, 0.410789641685317, -0.869, -1.578, 1.668], a = 0.2, v = 0.2, t = 0.2)
movej(p[-0.515781035224589, -0.227371502553959, 0.410697489611772, -0.869, -1.578, 1.668], a = 0.2, v = 0.2, t = 0.2)
movej(p[-0.515784532240393, -0.227376757349601, 0.410568875792592, -0.869, -1.578, 1.668], a = 0.2, v = 0.2, t = 0.2)
movej(p[-0.515784729533245, -0.227377053811978, 0.410561619723809, -0.869, -1.578, 1.668], a = 0.2, v = 0.2, t = 0.2)
movej(p[-0.515782149929203, -0.227373177566392, 0.410656492823147, -0.869, -1.578, 1.668], a = 0.2, v = 0.2, t = 0.2)
movej(p[-0.515762820162016, -0.227344131664952, 0.411367406162168, -0.869, -1.578, 1.668], a = 0.2, v = 0.2, t = 0.2)
movej(p[-0.515741591451126, -0.227312232313128, 0.412148159163225, -0.869, -1.578, 1.668], a = 0.2, v = 0.2, t = 0.2)
movej(p[-0.515710389586562, -0.22726534678812, 0.413295706441266, -0.869, -1.578, 1.668], a = 0.2, v = 0.2, t = 0.2)
movej(p[-0.515680869643562, -0.22722098860488, 0.414381395732932, -0.869, -1.578, 1.668], a = 0.2, v = 0.2, t = 0.2)
movej(p[-0.515662403032602, -0.227193239726342, 0.415060563771026, -0.869, -1.578, 1.668], a = 0.2, v = 0.2, t = 0.2)
movej(p[-0.515646382853009, -0.227169166981285, 0.415649756556211, -0.869, -1.578, 1.668], a = 0.2, v = 0.2, t = 0.2)
movej(p[-0.51566973739438, -0.227204260715227, 0.414790819414016, -0.869, -1.578, 1.668], a = 0.2, v = 0.2, t = 0.2)
movej(p[-0.515711331659931, -0.227266762395973, 0.413261058712827, -0.869, -1.578, 1.668], a = 0.2, v = 0.2, t = 0.2)
movej(p[-0.515748166235424, -0.22732211192186, 0.41190635067103, -0.869, -1.578, 1.668], a = 0.2, v = 0.2, t = 0.2)
movej(p[-0.515764531677508, -0.227346703476077, 0.411304459765475, -0.869, -1.578, 1.668], a = 0.2, v = 0.2, t = 0.2)
movej(p[-0.515773345735677, -0.227359947932794, 0.410980294892592, -0.869, -1.578, 1.668], a = 0.2, v = 0.2, t = 0.2)
movej(p[-0.515780911916556, -0.227371317264973, 0.410702024654761, -0.869, -1.578, 1.668], a = 0.2, v = 0.2, t = 0.2)
movej(p[-0.515782944032933, -0.227374370827461, 0.410627287146296, -0.869, -1.578, 1.668], a = 0.2, v = 0.2, t = 0.2)
movej(p[-0.515782800995615, -0.227374155892238, 0.410632547796163, -0.869, -1.578, 1.668], a = 0.2, v = 0.2, t = 0.2)
movej(p[-0.515776729308091, -0.227365032262569, 0.410855853312962, -0.869, -1.578, 1.668], a = 0.2, v = 0.2, t = 0.2)
movej(p[-0.515759204770501, -0.227338698991883, 0.411500373622617, -0.869, -1.578, 1.668], a = 0.2, v = 0.2, t = 0.2)
movej(p[-0.515729719353749, -0.22729439268956, 0.412584793102246, -0.869, -1.578, 1.668], a = 0.2, v = 0.2, t = 0.2)
movej(p[-0.515696746785837, -0.227244846414713, 0.413797463597615, -0.869, -1.578, 1.668], a = 0.2, v = 0.2, t = 0.2)
movej(p[-0.515671463706836, -0.227206854761031, 0.414727328812164, -0.869, -1.578, 1.668], a = 0.2, v = 0.2, t = 0.2)
movej(p[-0.515646974731566, -0.227170056368418, 0.415627988349862, -0.869, -1.578, 1.668], a = 0.2, v = 0.2, t = 0.2)
movej(p[-0.51564377365504, -0.227165246266342, 0.415745718065867, -0.869, -1.578, 1.668], a = 0.2, v = 0.2, t = 0.2)
movej(p[-0.515681407266584, -0.227221796464859, 0.414361622945498, -0.869, -1.578, 1.668], a = 0.2, v = 0.2, t = 0.2)
movej(p[-0.515723958402467, -0.227285735988135, 0.412796670310711, -0.869, -1.578, 1.668], a = 0.2, v = 0.2, t = 0.2)
movej(p[-0.515748033062749, -0.227321911809755, 0.411911248517458, -0.869, -1.578, 1.668], a = 0.2, v = 0.2, t = 0.2)
movej(p[-0.515764324520013, -0.227346392190581, 0.411312078637697, -0.869, -1.578, 1.668], a = 0.2, v = 0.2, t = 0.2)
movej(p[-0.515774662665465, -0.227361926819164, 0.410931860633465, -0.869, -1.578, 1.668], a = 0.2, v = 0.2, t = 0.2)
movej(p[-0.515781488998149, -0.227372184417427, 0.410680800653571, -0.869, -1.578, 1.668], a = 0.2, v = 0.2, t = 0.2)
movej(p[-0.51578262836437, -0.227373896487657, 0.410638896856348, -0.869, -1.578, 1.668], a = 0.2, v = 0.2, t = 0.2)
movej(p[-0.515782362019019, -0.227373496263448, 0.410648692549206, -0.869, -1.578, 1.668], a = 0.2, v = 0.2, t = 0.2)
movej(p[-0.515779091889995, -0.22736858239954, 0.410768961889285, -0.869, -1.578, 1.668], a = 0.2, v = 0.2, t = 0.2)
movej(p[-0.515755101079176, -0.227332532574431, 0.411651299853305, -0.869, -1.578, 1.668], a = 0.2, v = 0.2, t = 0.2)
movej(p[-0.515728185401824, -0.227292087694574, 0.412641209037034, -0.869, -1.578, 1.668], a = 0.2, v = 0.2, t = 0.2)
movej(p[-0.515701832009101, -0.227252487732494, 0.413610438424732, -0.869, -1.578, 1.668], a = 0.2, v = 0.2, t = 0.2)
movej(p[-0.515679523119846, -0.227218965249153, 0.414430918402376, -0.869, -1.578, 1.668], a = 0.2, v = 0.2, t = 0.2)
movej(p[-0.515653682688538, -0.227180136089254, 0.415381282011237, -0.869, -1.578, 1.668], a = 0.2, v = 0.2, t = 0.2)
movej(p[-0.515646338462117, -0.22716910027725, 0.415651389171687, -0.869, -1.578, 1.668], a = 0.2, v = 0.2, t = 0.2)
movej(p[-0.515673589537318, -0.227210049143149, 0.414649144671027, -0.869, -1.578, 1.668], a = 0.2, v = 0.2, t = 0.2)
movej(p[-0.515703839463871, -0.227255504237185, 0.413536607924864, -0.869, -1.578, 1.668], a = 0.2, v = 0.2, t = 0.2)
movej(p[-0.515732644220282, -0.227298787744307, 0.412477221882537, -0.869, -1.578, 1.668], a = 0.2, v = 0.2, t = 0.2)
movej(p[-0.515754454945085, -0.227331561660144, 0.41167506347857, -0.869, -1.578, 1.668], a = 0.2, v = 0.2, t = 0.2)
movej(p[-0.515772536834983, -0.227358732437046, 0.411010044774602, -0.869, -1.578, 1.668], a = 0.2, v = 0.2, t = 0.2)
movej(p[-0.515778041305558, -0.227367003737379, 0.410807600455555, -0.869, -1.578, 1.668], a = 0.2, v = 0.2, t = 0.2)
movej(p[-0.515780216459252, -0.227370272235092, 0.410727602297221, -0.869, -1.578, 1.668], a = 0.2, v = 0.2, t = 0.2)
movej(p[-0.515782583973478, -0.227373829783622, 0.410640529471825, -0.869, -1.578, 1.668], a = 0.2, v = 0.2, t = 0.2)
movej(p[-0.515782534650265, -0.227373755668028, 0.41064234348902, -0.869, -1.578, 1.668], a = 0.2, v = 0.2, t = 0.2)
movej(p[-0.515767042229051, -0.227350475959831, 0.41121212629021, -0.869, -1.578, 1.668], a = 0.2, v = 0.2, t = 0.2)
movej(p[-0.515744225310702, -0.227316190085869, 0.412051290644971, -0.869, -1.578, 1.668], a = 0.2, v = 0.2, t = 0.2)
movej(p[-0.515721561294314, -0.227282133970248, 0.412884831546425, -0.869, -1.578, 1.668], a = 0.2, v = 0.2, t = 0.2)
movej(p[-0.515691316300082, -0.227236686287771, 0.413997186890869, -0.869, -1.578, 1.668], a = 0.2, v = 0.2, t = 0.2)
movej(p[-0.515663192204011, -0.227194425575852, 0.415031539495894, -0.869, -1.578, 1.668], a = 0.2, v = 0.2, t = 0.2)
movej(p[-0.515647788564581, -0.227171279275725, 0.415598057066131, -0.869, -1.578, 1.668], a = 0.2, v = 0.2, t = 0.2)
movej(p[-0.515668459923163, -0.227202341121332, 0.414837802459386, -0.869, -1.578, 1.668], a = 0.2, v = 0.2, t = 0.2)
movej(p[-0.515703346231741, -0.227254763081242, 0.413554748096821, -0.869, -1.578, 1.668], a = 0.2, v = 0.2, t = 0.2)
movej(p[-0.515736175762335, -0.227304094420865, 0.41234733825132, -0.869, -1.578, 1.668], a = 0.2, v = 0.2, t = 0.2)
movej(p[-0.515762139501676, -0.227343108869749, 0.411392439599469, -0.869, -1.578, 1.668], a = 0.2, v = 0.2, t = 0.2)
movej(p[-0.515772748924799, -0.227359051134102, 0.41100224450066, -0.869, -1.578, 1.668], a = 0.2, v = 0.2, t = 0.2)
movej(p[-0.515778026508594, -0.227366981502701, 0.410808144660713, -0.869, -1.578, 1.668], a = 0.2, v = 0.2, t = 0.2)
movej(p[-0.515780315105679, -0.227370420466281, 0.41072397426283, -0.869, -1.578, 1.668], a = 0.2, v = 0.2, t = 0.2)
movej(p[-0.515784547037357, -0.227376779584279, 0.410568331587433, -0.869, -1.578, 1.668], a = 0.2, v = 0.2, t = 0.2)
movej(p[-0.515782643161334, -0.227373918722336, 0.41063835265119, -0.869, -1.578, 1.668], a = 0.2, v = 0.2, t = 0.2)
movej(p[-0.515765833810332, -0.227348660127769, 0.411256569711507, -0.869, -1.578, 1.668], a = 0.2, v = 0.2, t = 0.2)
movej(p[-0.515746765456174, -0.227320007038979, 0.411957868759389, -0.869, -1.578, 1.668], a = 0.2, v = 0.2, t = 0.2)
movej(p[-0.515717768339232, -0.22727643448104, 0.41302432946878, -0.869, -1.578, 1.668], a = 0.2, v = 0.2, t = 0.2)
movej(p[-0.515685131169168, -0.227227392192235, 0.414224664647218, -0.869, -1.578, 1.668], a = 0.2, v = 0.2, t = 0.2)
movej(p[-0.515658624874484, -0.227187562471812, 0.415199517488222, -0.869, -1.578, 1.668], a = 0.2, v = 0.2, t = 0.2)
movej(p[-0.515648479089563, -0.227172316894047, 0.415572660825391, -0.869, -1.578, 1.668], a = 0.2, v = 0.2, t = 0.2)
movej(p[-0.515668795321011, -0.227202845107374, 0.414825467142455, -0.869, -1.578, 1.668], a = 0.2, v = 0.2, t = 0.2)
movej(p[-0.515704682890814, -0.227256771613849, 0.413505588230816, -0.869, -1.578, 1.668], a = 0.2, v = 0.2, t = 0.2)
movej(p[-0.515738671516915, -0.227307844669941, 0.412255548981214, -0.869, -1.578, 1.668], a = 0.2, v = 0.2, t = 0.2)
movej(p[-0.515763121033615, -0.227344583770078, 0.411356340657274, -0.869, -1.578, 1.668], a = 0.2, v = 0.2, t = 0.2)
movej(p[-0.515772645346052, -0.227358895491354, 0.411006053936771, -0.869, -1.578, 1.668], a = 0.2, v = 0.2, t = 0.2)
movej(p[-0.51577782428342, -0.227366677628764, 0.410815582131216, -0.869, -1.578, 1.668], a = 0.2, v = 0.2, t = 0.2)
movej(p[-0.515783279430782, -0.227374874813503, 0.410614951829364, -0.869, -1.578, 1.668], a = 0.2, v = 0.2, t = 0.2)
movej(p[-0.515784241233436, -0.227376320067594, 0.410579578494047, -0.869, -1.578, 1.668], a = 0.2, v = 0.2, t = 0.2)
movej(p[-0.51578406860219, -0.227376060663013, 0.410585927554232, -0.869, -1.578, 1.668], a = 0.2, v = 0.2, t = 0.2)
movej(p[-0.515775940136682, -0.227363846413059, 0.410884877588094, -0.869, -1.578, 1.668], a = 0.2, v = 0.2, t = 0.2)
movej(p[-0.515761231954556, -0.227341745142813, 0.411425817515871, -0.869, -1.578, 1.668], a = 0.2, v = 0.2, t = 0.2)
movej(p[-0.515729625639645, -0.22729425186993, 0.412588239734918, -0.869, -1.578, 1.668], a = 0.2, v = 0.2, t = 0.2)
movej(p[-0.515700653184309, -0.227250716369788, 0.41365379343571, -0.869, -1.578, 1.668], a = 0.2, v = 0.2, t = 0.2)
movej(p[-0.515682324678346, -0.227223175014914, 0.414327882225657, -0.869, -1.578, 1.668], a = 0.2, v = 0.2, t = 0.2)
movej(p[-0.515659083580365, -0.22718825174684, 0.415182647128301, -0.869, -1.578, 1.668], a = 0.2, v = 0.2, t = 0.2)
movej(p[-0.515633331930841, -0.227149555995011, 0.41612974550621, -0.869, -1.578, 1.668], a = 0.2, v = 0.2, t = 0.2)
movej(p[-0.515620591744914, -0.227130411936981, 0.416598306147876, -0.869, -1.578, 1.668], a = 0.2, v = 0.2, t = 0.2)
movej(p[-0.515661673049049, -0.227192142815545, 0.415087411225524, -0.869, -1.578, 1.668], a = 0.2, v = 0.2, t = 0.2)
movej(p[-0.515702068760523, -0.227252843487347, 0.413601731142192, -0.869, -1.578, 1.668], a = 0.2, v = 0.2, t = 0.2)
movej(p[-0.515731514718704, -0.227297090497195, 0.41251876287632, -0.869, -1.578, 1.668], a = 0.2, v = 0.2, t = 0.2)
movej(p[-0.51575738474394, -0.227335964126451, 0.411567310857141, -0.869, -1.578, 1.668], a = 0.2, v = 0.2, t = 0.2)
movej(p[-0.515771723001968, -0.227357509529739, 0.411039976058332, -0.869, -1.578, 1.668], a = 0.2, v = 0.2, t = 0.2)
movej(p[-0.515777972253059, -0.227366899975547, 0.410810140079629, -0.869, -1.578, 1.668], a = 0.2, v = 0.2, t = 0.2)
movej(p[-0.515781020427625, -0.22737148031928, 0.41069803381693, -0.869, -1.578, 1.668], a = 0.2, v = 0.2, t = 0.2)
movej(p[-0.515785252359303, -0.227377839437279, 0.410542391141534, -0.869, -1.578, 1.668], a = 0.2, v = 0.2, t = 0.2)
movej(p[-0.515784921893776, -0.227377342862796, 0.410554545056745, -0.869, -1.578, 1.668], a = 0.2, v = 0.2, t = 0.2)
movej(p[-0.515785257291624, -0.227377846848838, 0.410542209739814, -0.869, -1.578, 1.668], a = 0.2, v = 0.2, t = 0.2)
movej(p[-0.515785030404844, -0.227377505917104, 0.410550554218915, -0.869, -1.578, 1.668], a = 0.2, v = 0.2, t = 0.2)
movej(p[-0.515779269453562, -0.22736884921568, 0.41076243142738, -0.869, -1.578, 1.668], a = 0.2, v = 0.2, t = 0.2)
movej(p[-0.515754706493472, -0.227331939649676, 0.411665811990871, -0.869, -1.578, 1.668], a = 0.2, v = 0.2, t = 0.2)
movej(p[-0.515725038580833, -0.227287359119652, 0.412756943334124, -0.869, -1.578, 1.668], a = 0.2, v = 0.2, t = 0.2)
movej(p[-0.51570372108816, -0.227255326359759, 0.413540961566134, -0.869, -1.578, 1.668], a = 0.2, v = 0.2, t = 0.2)
movej(p[-0.515674916331749, -0.227212042852638, 0.414600347608461, -0.869, -1.578, 1.668], a = 0.2, v = 0.2, t = 0.2)
movej(p[-0.515651255986457, -0.227176489602011, 0.415470531657269, -0.869, -1.578, 1.668], a = 0.2, v = 0.2, t = 0.2)
movej(p[-0.515661382042092, -0.227191705533538, 0.415098113926979, -0.869, -1.578, 1.668], a = 0.2, v = 0.2, t = 0.2)
movej(p[-0.51570277408247, -0.227253903340347, 0.413575790696292, -0.869, -1.578, 1.668], a = 0.2, v = 0.2, t = 0.2)
movej(p[-0.515732417333502, -0.227298446812573, 0.412485566361637, -0.869, -1.578, 1.668], a = 0.2, v = 0.2, t = 0.2)
movej(p[-0.515753424089933, -0.227330012644221, 0.411712976437961, -0.869, -1.578, 1.668], a = 0.2, v = 0.2, t = 0.2)
movej(p[-0.515769350555421, -0.227353944569649, 0.411127230285449, -0.869, -1.578, 1.668], a = 0.2, v = 0.2, t = 0.2)
movej(p[-0.515779180671779, -0.22736871580761, 0.410765696658332, -0.869, -1.578, 1.668], a = 0.2, v = 0.2, t = 0.2)
movej(p[-0.515782016756528, -0.227372977454287, 0.410661390669576, -0.869, -1.578, 1.668], a = 0.2, v = 0.2, t = 0.2)
movej(p[-0.515781844125283, -0.227372718049707, 0.410667739729761, -0.869, -1.578, 1.668], a = 0.2, v = 0.2, t = 0.2)
movej(p[-0.515773745253703, -0.227360548269108, 0.410965601353306, -0.869, -1.578, 1.668], a = 0.2, v = 0.2, t = 0.2)
movej(p[-0.515744225310702, -0.227316190085869, 0.412051290644971, -0.869, -1.578, 1.668], a = 0.2, v = 0.2, t = 0.2)
movej(p[-0.515707898764304, -0.227261603950603, 0.413387314309652, -0.869, -1.578, 1.668], a = 0.2, v = 0.2, t = 0.2)
movej(p[-0.515676805410808, -0.227214881479903, 0.414530870749863, -0.869, -1.578, 1.668], a = 0.2, v = 0.2, t = 0.2)
movej(p[-0.515654841784044, -0.227181877805723, 0.415338652607137, -0.869, -1.578, 1.668], a = 0.2, v = 0.2, t = 0.2)
movej(p[-0.515633874486184, -0.227150371266549, 0.416109791317057, -0.869, -1.578, 1.668], a = 0.2, v = 0.2, t = 0.2)
movej(p[-0.515657998469678, -0.227186621203763, 0.415222555506608, -0.869, -1.578, 1.668], a = 0.2, v = 0.2, t = 0.2)
movej(p[-0.515699740704868, -0.227249345231292, 0.413687352753832, -0.869, -1.578, 1.668], a = 0.2, v = 0.2, t = 0.2)
movej(p[-0.515727050967924, -0.227290383035903, 0.412682931432537, -0.869, -1.578, 1.668], a = 0.2, v = 0.2, t = 0.2)
movej(p[-0.515746139051368, -0.227319065770931, 0.411980906777776, -0.869, -1.578, 1.668], a = 0.2, v = 0.2, t = 0.2)
movej(p[-0.515756822459311, -0.227335119208675, 0.411587990653173, -0.869, -1.578, 1.668], a = 0.2, v = 0.2, t = 0.2)
movej(p[-0.515762785635767, -0.227344079784036, 0.411368675974205, -0.869, -1.578, 1.668], a = 0.2, v = 0.2, t = 0.2)
movej(p[-0.515757838517499, -0.227336645989919, 0.41155062189894, -0.869, -1.578, 1.668], a = 0.2, v = 0.2, t = 0.2)
movej(p[-0.515723652598546, -0.22728527647145, 0.412807917217325, -0.869, -1.578, 1.668], a = 0.2, v = 0.2, t = 0.2)
movej(p[-0.515686438234313, -0.227229356255486, 0.41417659319153, -0.869, -1.578, 1.668], a = 0.2, v = 0.2, t = 0.2)
movej(p[-0.515651852797335, -0.227177386400703, 0.4154485820492, -0.869, -1.578, 1.668], a = 0.2, v = 0.2, t = 0.2)
movej(p[-0.515620216888495, -0.227129848658464, 0.416612092678564, -0.869, -1.578, 1.668], a = 0.2, v = 0.2, t = 0.2)
movej(p[-0.515578331615988, -0.227066909695711, 0.418152556081208, -0.869, -1.578, 1.668], a = 0.2, v = 0.2, t = 0.2)
movej(p[-0.515537511724882, -0.227005571629798, 0.419653836712423, -0.869, -1.578, 1.668], a = 0.2, v = 0.2, t = 0.2)
movej(p[-0.515528426389041, -0.226991919537312, 0.419987978679883, -0.869, -1.578, 1.668], a = 0.2, v = 0.2, t = 0.2)
movej(p[-0.515589029820895, -0.227082985368134, 0.417759095751447, -0.869, -1.578, 1.668], a = 0.2, v = 0.2, t = 0.2)
movej(p[-0.515640503526016, -0.227160332402435, 0.415865987405946, -0.869, -1.578, 1.668], a = 0.2, v = 0.2, t = 0.2)
movej(p[-0.515676839937057, -0.227214933360819, 0.414529600937826, -0.869, -1.578, 1.668], a = 0.2, v = 0.2, t = 0.2)
movej(p[-0.515702147677664, -0.227252962072298, 0.413598828714679, -0.869, -1.578, 1.668], a = 0.2, v = 0.2, t = 0.2)
movej(p[-0.515723810432828, -0.227285513641352, 0.412802112362299, -0.869, -1.578, 1.668], a = 0.2, v = 0.2, t = 0.2)
movej(p[-0.515744462062125, -0.227316545840722, 0.412042583362432, -0.869, -1.578, 1.668], a = 0.2, v = 0.2, t = 0.2)
movej(p[-0.515756230580755, -0.227334229821542, 0.411609758859522, -0.869, -1.578, 1.668], a = 0.2, v = 0.2, t = 0.2)
movej(p[-0.515765947253722, -0.227348830593636, 0.411252397471956, -0.869, -1.578, 1.668], a = 0.2, v = 0.2, t = 0.2)
movej(p[-0.515772369136059, -0.227358480444025, 0.411016212433068, -0.869, -1.578, 1.668], a = 0.2, v = 0.2, t = 0.2)
movej(p[-0.515778233666089, -0.227367292788198, 0.410800525788491, -0.869, -1.578, 1.668], a = 0.2, v = 0.2, t = 0.2)
movej(p[-0.515774840229032, -0.227362193635304, 0.41092533017156, -0.869, -1.578, 1.668], a = 0.2, v = 0.2, t = 0.2)
movej(p[-0.515748121844532, -0.227322045217825, 0.411907983286506, -0.869, -1.578, 1.668], a = 0.2, v = 0.2, t = 0.2)
movej(p[-0.515722133443585, -0.227282993711143, 0.412863788946955, -0.869, -1.578, 1.668], a = 0.2, v = 0.2, t = 0.2)
movej(p[-0.515687242202686, -0.227230564339675, 0.414147024711239, -0.869, -1.578, 1.668], a = 0.2, v = 0.2, t = 0.2)
movej(p[-0.515661530011732, -0.227191927880321, 0.415092671875391, -0.869, -1.578, 1.668], a = 0.2, v = 0.2, t = 0.2)
movej(p[-0.515665150335568, -0.227197367964949, 0.414959523013222, -0.869, -1.578, 1.668], a = 0.2, v = 0.2, t = 0.2)
movej(p[-0.515710478368345, -0.22726548019619, 0.413292441210314, -0.869, -1.578, 1.668], a = 0.2, v = 0.2, t = 0.2)
movej(p[-0.515742439810391, -0.227313507101352, 0.412116958067458, -0.869, -1.578, 1.668], a = 0.2, v = 0.2, t = 0.2)
movej(p[-0.515762736312554, -0.227344005668442, 0.411370489991401, -0.869, -1.578, 1.668], a = 0.2, v = 0.2, t = 0.2)
movej(p[-0.515774929010815, -0.227362327043374, 0.410922064940607, -0.869, -1.578, 1.668], a = 0.2, v = 0.2, t = 0.2)
movej(p[-0.515780270714787, -0.227370353762246, 0.410725606878306, -0.869, -1.578, 1.668], a = 0.2, v = 0.2, t = 0.2)
movej(p[-0.515782051282777, -0.227373029335203, 0.410660120857539, -0.869, -1.578, 1.668], a = 0.2, v = 0.2, t = 0.2)
movej(p[-0.515781370622437, -0.227372006540001, 0.41068515429484, -0.869, -1.578, 1.668], a = 0.2, v = 0.2, t = 0.2)
movej(p[-0.515772295151239, -0.227358369270633, 0.411018933458861, -0.869, -1.578, 1.668], a = 0.2, v = 0.2, t = 0.2)
movej(p[-0.515742503930568, -0.227313603451624, 0.412114599845104, -0.869, -1.578, 1.668], a = 0.2, v = 0.2, t = 0.2)
movej(p[-0.515714384766818, -0.227271350151265, 0.413148771048409, -0.869, -1.578, 1.668], a = 0.2, v = 0.2, t = 0.2)
movej(p[-0.51568873669604, -0.227232810042184, 0.414092059990207, -0.869, -1.578, 1.668], a = 0.2, v = 0.2, t = 0.2)
movej(p[-0.515663724894712, -0.227195226024271, 0.41501194811018, -0.869, -1.578, 1.668], a = 0.2, v = 0.2, t = 0.2)
movej(p[-0.515651842932692, -0.227177371577584, 0.41544894485264, -0.869, -1.578, 1.668], a = 0.2, v = 0.2, t = 0.2)
movej(p[-0.515682610752982, -0.227223604885362, 0.414317360925921, -0.869, -1.578, 1.668], a = 0.2, v = 0.2, t = 0.2)
movej(p[-0.515727139749708, -0.227290516443973, 0.412679666201584, -0.869, -1.578, 1.668], a = 0.2, v = 0.2, t = 0.2)
movej(p[-0.515751608995693, -0.227327285190348, 0.411779732270765, -0.869, -1.578, 1.668], a = 0.2, v = 0.2, t = 0.2)
movej(p[-0.51576715074012, -0.227350639014139, 0.41120813545238, -0.869, -1.578, 1.668], a = 0.2, v = 0.2, t = 0.2)
movej(p[-0.515774598545288, -0.227361830468891, 0.410934218855819, -0.869, -1.578, 1.668], a = 0.2, v = 0.2, t = 0.2)
movej(p[-0.515781775072784, -0.227372614287874, 0.410670279353835, -0.869, -1.578, 1.668], a = 0.2, v = 0.2, t = 0.2)
movej(p[-0.515782682619904, -0.227373978014811, 0.410636901437433, -0.869, -1.578, 1.668], a = 0.2, v = 0.2, t = 0.2)
movej(p[-0.515780951375127, -0.227371376557448, 0.410700573441005, -0.869, -1.578, 1.668], a = 0.2, v = 0.2, t = 0.2)
movej(p[-0.515769439337205, -0.227354077977719, 0.411123965054496, -0.869, -1.578, 1.668], a = 0.2, v = 0.2, t = 0.2)
movej(p[-0.515744264769273, -0.227316249378344, 0.412049839431215, -0.869, -1.578, 1.668], a = 0.2, v = 0.2, t = 0.2)
movej(p[-0.515715233126082, -0.227272624939489, 0.413117569952642, -0.869, -1.578, 1.668], a = 0.2, v = 0.2, t = 0.2)
movej(p[-0.515691967366494, -0.227237664613617, 0.413973241863885, -0.869, -1.578, 1.668], a = 0.2, v = 0.2, t = 0.2)
movej(p[-0.515674363911763, -0.22721121275798, 0.414620664601053, -0.869, -1.578, 1.668], a = 0.2, v = 0.2, t = 0.2)
movej(p[-0.515669633815633, -0.227204105072479, 0.414794628850127, -0.869, -1.578, 1.668], a = 0.2, v = 0.2, t = 0.2)
movej(p[-0.515701432491075, -0.227251887396179, 0.413625131964017, -0.869, -1.578, 1.668], a = 0.2, v = 0.2, t = 0.2)
movej(p[-0.515733349542229, -0.227299847597306, 0.412451281436638, -0.869, -1.578, 1.668], a = 0.2, v = 0.2, t = 0.2)
movej(p[-0.515759865701555, -0.227339692140848, 0.411476065792194, -0.869, -1.578, 1.668], a = 0.2, v = 0.2, t = 0.2)
movej(p[-0.515770213711649, -0.22735524159255, 0.411095484984523, -0.869, -1.578, 1.668], a = 0.2, v = 0.2, t = 0.2)
movej(p[-0.515775782302401, -0.227363609243157, 0.410890682443121, -0.869, -1.578, 1.668], a = 0.2, v = 0.2, t = 0.2)
movej(p[-0.515780615977278, -0.227370872571406, 0.410712908757936, -0.869, -1.578, 1.668], a = 0.2, v = 0.2, t = 0.2)
movej(p[-0.515783521114526, -0.227375237979916, 0.410606063145105, -0.869, -1.578, 1.668], a = 0.2, v = 0.2, t = 0.2)
movej(p[-0.515783767730591, -0.227375608557888, 0.410596993059126, -0.869, -1.578, 1.668], a = 0.2, v = 0.2, t = 0.2)
movej(p[-0.515783792392197, -0.227375645615685, 0.410596086050528, -0.869, -1.578, 1.668], a = 0.2, v = 0.2, t = 0.2)
movej(p[-0.515786825769799, -0.22738020372474, 0.410484523992989, -0.869, -1.578, 1.668], a = 0.2, v = 0.2, t = 0.2)
movej(p[-0.515781538321362, -0.227372258533021, 0.410678986636375, -0.869, -1.578, 1.668], a = 0.2, v = 0.2, t = 0.2)
movej(p[-0.515764965721783, -0.227347355693308, 0.411288496414152, -0.869, -1.578, 1.668], a = 0.2, v = 0.2, t = 0.2)
movej(p[-0.515744062544099, -0.227315945504407, 0.412057276901717, -0.869, -1.578, 1.668], a = 0.2, v = 0.2, t = 0.2)
movej(p[-0.515721339339855, -0.227281800450074, 0.412892994623806, -0.869, -1.578, 1.668], a = 0.2, v = 0.2, t = 0.2)
movej(p[-0.515691824329176, -0.227237449678393, 0.413978502513752, -0.869, -1.578, 1.668], a = 0.2, v = 0.2, t = 0.2)
movej(p[-0.515663843270423, -0.227195403901698, 0.41500759446891, -0.869, -1.578, 1.668], a = 0.2, v = 0.2, t = 0.2)
movej(p[-0.515650481612012, -0.227175325987179, 0.415499011727243, -0.869, -1.578, 1.668], a = 0.2, v = 0.2, t = 0.2)
movej(p[-0.51568067235071, -0.227220692142502, 0.414388651801715, -0.869, -1.578, 1.668], a = 0.2, v = 0.2, t = 0.2)
movej(p[-0.515715716493569, -0.227273351272314, 0.413099792584124, -0.869, -1.578, 1.668], a = 0.2, v = 0.2, t = 0.2)
movej(p[-0.515744718542833, -0.227316931241812, 0.412033150473014, -0.869, -1.578, 1.668], a = 0.2, v = 0.2, t = 0.2)
movej(p[-0.515766608184777, -0.227349823742601, 0.411228089641533, -0.869, -1.578, 1.668], a = 0.2, v = 0.2, t = 0.2)
movej(p[-0.515775417310624, -0.227363060787758, 0.410904106170369, -0.869, -1.578, 1.668], a = 0.2, v = 0.2, t = 0.2)
movej(p[-0.515779190536421, -0.227368730630729, 0.410765333854893, -0.869, -1.578, 1.668], a = 0.2, v = 0.2, t = 0.2)
movej(p[-0.515781005630661, -0.227371458084602, 0.410698578022089, -0.869, -1.578, 1.668], a = 0.2, v = 0.2, t = 0.2)
movej(p[-0.515784788721101, -0.227377142750691, 0.410559442903174, -0.869, -1.578, 1.668], a = 0.2, v = 0.2, t = 0.2)
movej(p[-0.515784330015219, -0.227376453475664, 0.410576313263095, -0.869, -1.578, 1.668], a = 0.2, v = 0.2, t = 0.2)
movej(p[-0.515784290556649, -0.227376394183188, 0.410577764476851, -0.869, -1.578, 1.668], a = 0.2, v = 0.2, t = 0.2)
movej(p[-0.515777987050023, -0.227366922210226, 0.41080959587447, -0.869, -1.578, 1.668], a = 0.2, v = 0.2, t = 0.2)
movej(p[-0.515761335533304, -0.227341900785561, 0.41142200807976, -0.869, -1.578, 1.668], a = 0.2, v = 0.2, t = 0.2)
movej(p[-0.515735450711104, -0.227303004921627, 0.412374004304098, -0.869, -1.578, 1.668], a = 0.2, v = 0.2, t = 0.2)
movej(p[-0.515709506701049, -0.22726402011898, 0.41332817734907, -0.869, -1.578, 1.668], a = 0.2, v = 0.2, t = 0.2)
movej(p[-0.515689940182439, -0.227234618462687, 0.41404779797063, -0.869, -1.578, 1.668], a = 0.2, v = 0.2, t = 0.2)
movej(p[-0.515670235558832, -0.22720500928273, 0.414772497840339, -0.869, -1.578, 1.668], a = 0.2, v = 0.2, t = 0.2)
movej(p[-0.515662452355815, -0.227193313841936, 0.41505874975383, -0.869, -1.578, 1.668], a = 0.2, v = 0.2, t = 0.2)
movej(p[-0.515693091935751, -0.227239354449169, 0.413931882271821, -0.869, -1.578, 1.668], a = 0.2, v = 0.2, t = 0.2)
movej(p[-0.515733906894536, -0.227300685103523, 0.412430783042325, -0.869, -1.578, 1.668], a = 0.2, v = 0.2, t = 0.2)
movej(p[-0.515755214522566, -0.227332703040298, 0.411647127613755, -0.869, -1.578, 1.668], a = 0.2, v = 0.2, t = 0.2)
movej(p[-0.515766805477629, -0.227350120204978, 0.41122083357275, -0.869, -1.578, 1.668], a = 0.2, v = 0.2, t = 0.2)
movej(p[-0.515775229882415, -0.227362779148499, 0.410910999435713, -0.869, -1.578, 1.668], a = 0.2, v = 0.2, t = 0.2)
movej(p[-0.515781020427625, -0.22737148031928, 0.41069803381693, -0.869, -1.578, 1.668], a = 0.2, v = 0.2, t = 0.2)
movej(p[-0.515782307763485, -0.227373414736294, 0.410650687968121, -0.869, -1.578, 1.668], a = 0.2, v = 0.2, t = 0.2)
movej(p[-0.515783013085431, -0.227374474589294, 0.410624747522222, -0.869, -1.578, 1.668], a = 0.2, v = 0.2, t = 0.2)
movej(p[-0.515786199364993, -0.227379262456691, 0.410507562011375, -0.869, -1.578, 1.668], a = 0.2, v = 0.2, t = 0.2)
movej(p[-0.515785178374484, -0.227377728263887, 0.410545112167327, -0.869, -1.578, 1.668], a = 0.2, v = 0.2, t = 0.2)
movej(p[-0.515774613342252, -0.22736185270357, 0.41093367465066, -0.869, -1.578, 1.668], a = 0.2, v = 0.2, t = 0.2)
movej(p[-0.515754124479558, -0.227331065085662, 0.411687217393781, -0.869, -1.578, 1.668], a = 0.2, v = 0.2, t = 0.2)
movej(p[-0.515736106709837, -0.227303990659033, 0.412349877875394, -0.869, -1.578, 1.668], a = 0.2, v = 0.2, t = 0.2)
movej(p[-0.515709699061579, -0.227264309169798, 0.413321102682007, -0.869, -1.578, 1.668], a = 0.2, v = 0.2, t = 0.2)
movej(p[-0.515687543074285, -0.2272310164448, 0.414135959206345, -0.869, -1.578, 1.668], a = 0.2, v = 0.2, t = 0.2)
movej(p[-0.5156726129377, -0.22720858165438, 0.414685062211503, -0.869, -1.578, 1.668], a = 0.2, v = 0.2, t = 0.2)
movej(p[-0.515664163871308, -0.227195885653061, 0.414995803357137, -0.869, -1.578, 1.668], a = 0.2, v = 0.2, t = 0.2)
movej(p[-0.515694729466424, -0.227241815086902, 0.413871656900922, -0.869, -1.578, 1.668], a = 0.2, v = 0.2, t = 0.2)
movej(p[-0.515728718092525, -0.227292888142994, 0.41262161765132, -0.869, -1.578, 1.668], a = 0.2, v = 0.2, t = 0.2)
movej(p[-0.515757670818575, -0.227336393996898, 0.411556789557406, -0.869, -1.578, 1.668], a = 0.2, v = 0.2, t = 0.2)
movej(p[-0.515769394946313, -0.227354011273684, 0.411125597669972, -0.869, -1.578, 1.668], a = 0.2, v = 0.2, t = 0.2)
movej(p[-0.515776265669889, -0.227364335575982, 0.410872905074602, -0.869, -1.578, 1.668], a = 0.2, v = 0.2, t = 0.2)
movej(p[-0.515780783676202, -0.227371124564427, 0.41070674109947, -0.869, -1.578, 1.668], a = 0.2, v = 0.2, t = 0.2)
movej(p[-0.515784394135396, -0.227376549825936, 0.41057395504074, -0.869, -1.578, 1.668], a = 0.2, v = 0.2, t = 0.2)
movej(p[-0.515783984752728, -0.227375934666503, 0.410589011383465, -0.869, -1.578, 1.668], a = 0.2, v = 0.2, t = 0.2)
movej(p[-0.515771658881791, -0.227357413179466, 0.411042334280687, -0.869, -1.578, 1.668], a = 0.2, v = 0.2, t = 0.2)
movej(p[-0.515752373505495, -0.227328433982061, 0.411751615004231, -0.869, -1.578, 1.668], a = 0.2, v = 0.2, t = 0.2)
movej(p[-0.515724693318341, -0.227286840310492, 0.412769641454494, -0.869, -1.578, 1.668], a = 0.2, v = 0.2, t = 0.2)
movej(p[-0.515696741853516, -0.227244839003153, 0.413797644999334, -0.869, -1.578, 1.668], a = 0.2, v = 0.2, t = 0.2)
movej(p[-0.515674418167297, -0.227211294285134, 0.414618669182138, -0.869, -1.578, 1.668], a = 0.2, v = 0.2, t = 0.2)
movej(p[-0.515664745885221, -0.227196760217075, 0.414974397954227, -0.869, -1.578, 1.668], a = 0.2, v = 0.2, t = 0.2)
movej(p[-0.515690467940818, -0.227235411499547, 0.414028387986636, -0.869, -1.578, 1.668], a = 0.2, v = 0.2, t = 0.2)
movej(p[-0.515726981915426, -0.227290279274071, 0.412685471056611, -0.869, -1.578, 1.668], a = 0.2, v = 0.2, t = 0.2)
movej(p[-0.515756447602892, -0.227334555930157, 0.411601777183861, -0.869, -1.578, 1.668], a = 0.2, v = 0.2, t = 0.2)
movej(p[-0.51577002628344, -0.227354959953292, 0.411102378249867, -0.869, -1.578, 1.668], a = 0.2, v = 0.2, t = 0.2)
movej(p[-0.515776606000058, -0.227364846973583, 0.410860388355951, -0.869, -1.578, 1.668], a = 0.2, v = 0.2, t = 0.2)
movej(p[-0.515779984640151, -0.227369923891798, 0.410736128178042, -0.869, -1.578, 1.668], a = 0.2, v = 0.2, t = 0.2)
movej(p[-0.515784621022176, -0.227376890757671, 0.41056561056164, -0.869, -1.578, 1.668], a = 0.2, v = 0.2, t = 0.2)
movej(p[-0.51578486270592, -0.227377253924083, 0.41055672187738, -0.869, -1.578, 1.668], a = 0.2, v = 0.2, t = 0.2)
movej(p[-0.515781809599033, -0.227372666168791, 0.410669009541798, -0.869, -1.578, 1.668], a = 0.2, v = 0.2, t = 0.2)
movej(p[-0.51576771795707, -0.227351491343475, 0.411187274254628, -0.869, -1.578, 1.668], a = 0.2, v = 0.2, t = 0.2)
movej(p[-0.515741512533986, -0.227312113728177, 0.412151061590738, -0.869, -1.578, 1.668], a = 0.2, v = 0.2, t = 0.2)
movej(p[-0.515711962997058, -0.227267711075581, 0.413237839292721, -0.869, -1.578, 1.668], a = 0.2, v = 0.2, t = 0.2)
movej(p[-0.51568740990161, -0.227230816332696, 0.414140857052773, -0.869, -1.578, 1.668], a = 0.2, v = 0.2, t = 0.2)
movej(p[-0.515670472310254, -0.227205365037583, 0.414763790557799, -0.869, -1.578, 1.668], a = 0.2, v = 0.2, t = 0.2)
movej(p[-0.515662338912425, -0.227193143376069, 0.415062921993381, -0.869, -1.578, 1.668], a = 0.2, v = 0.2, t = 0.2)
movej(p[-0.515692884778256, -0.227239043163672, 0.413939501144043, -0.869, -1.578, 1.668], a = 0.2, v = 0.2, t = 0.2)
movej(p[-0.515733842774359, -0.22730058875325, 0.41243314126468, -0.869, -1.578, 1.668], a = 0.2, v = 0.2, t = 0.2)
movej(p[-0.515758780590868, -0.227338061597772, 0.411515974170501, -0.869, -1.578, 1.668], a = 0.2, v = 0.2, t = 0.2)
movej(p[-0.515771195243589, -0.227356716492879, 0.411059386042327, -0.869, -1.578, 1.668], a = 0.2, v = 0.2, t = 0.2)
movej(p[-0.515778001846987, -0.227366944444904, 0.410809051669311, -0.869, -1.578, 1.668], a = 0.2, v = 0.2, t = 0.2)
movej(p[-0.515784280692006, -0.227376379360069, 0.41057812728029, -0.869, -1.578, 1.668], a = 0.2, v = 0.2, t = 0.2)
movej(p[-0.515784670345389, -0.227376964873265, 0.410563796544444, -0.869, -1.578, 1.668], a = 0.2, v = 0.2, t = 0.2)
movej(p[-0.515784788721101, -0.227377142750691, 0.410559442903174, -0.869, -1.578, 1.668], a = 0.2, v = 0.2, t = 0.2)
movej(p[-0.515785424990549, -0.227378098841859, 0.410536042081349, -0.869, -1.578, 1.668], a = 0.2, v = 0.2, t = 0.2)
movej(p[-0.515787333798893, -0.227380967115362, 0.410465839615872, -0.869, -1.578, 1.668], a = 0.2, v = 0.2, t = 0.2)
movej(p[-0.515777010450405, -0.227365454721457, 0.410845513414946, -0.869, -1.578, 1.668], a = 0.2, v = 0.2, t = 0.2)
movej(p[-0.515756112205043, -0.227334051944116, 0.411614112500792, -0.869, -1.578, 1.668], a = 0.2, v = 0.2, t = 0.2)
movej(p[-0.515738400239243, -0.227307437034172, 0.412265526075791, -0.869, -1.578, 1.668], a = 0.2, v = 0.2, t = 0.2)
movej(p[-0.515716017365169, -0.227273803377439, 0.413088727079229, -0.869, -1.578, 1.668], a = 0.2, v = 0.2, t = 0.2)
movej(p[-0.515692056148278, -0.227237798021687, 0.413969976632932, -0.869, -1.578, 1.668], a = 0.2, v = 0.2, t = 0.2)
movej(p[-0.515674388573369, -0.227211249815778, 0.414619757592455, -0.869, -1.578, 1.668], a = 0.2, v = 0.2, t = 0.2)
movej(p[-0.515678659963618, -0.227217668226251, 0.414462663703302, -0.869, -1.578, 1.668], a = 0.2, v = 0.2, t = 0.2)
movej(p[-0.515708406793398, -0.227262367341226, 0.413368629932536, -0.869, -1.578, 1.668], a = 0.2, v = 0.2, t = 0.2)
movej(p[-0.515739643184212, -0.22730930474715, 0.412219812842458, -0.869, -1.578, 1.668], a = 0.2, v = 0.2, t = 0.2)
movej(p[-0.515764166685732, -0.227346155020679, 0.411317883492723, -0.869, -1.578, 1.668], a = 0.2, v = 0.2, t = 0.2)
movej(p[-0.515773533163887, -0.227360229572053, 0.410973401627248, -0.869, -1.578, 1.668], a = 0.2, v = 0.2, t = 0.2)
movej(p[-0.515779151077851, -0.227368671338253, 0.41076678506865, -0.869, -1.578, 1.668], a = 0.2, v = 0.2, t = 0.2)
movej(p[-0.515781903313138, -0.22737280698842, 0.410665562909126, -0.869, -1.578, 1.668], a = 0.2, v = 0.2, t = 0.2)
movej(p[-0.515786628476947, -0.227379907262362, 0.410491780061772, -0.869, -1.578, 1.668], a = 0.2, v = 0.2, t = 0.2)
movej(p[-0.515786894822297, -0.227380307486572, 0.410481984368915, -0.869, -1.578, 1.668], a = 0.2, v = 0.2, t = 0.2)
movej(p[-0.515786436116416, -0.227379618211544, 0.410498854728835, -0.869, -1.578, 1.668], a = 0.2, v = 0.2, t = 0.2)
movej(p[-0.515785947816607, -0.22737888446716, 0.410516813499073, -0.869, -1.578, 1.668], a = 0.2, v = 0.2, t = 0.2)
movej(p[-0.515767648904572, -0.227351387581642, 0.411189813878702, -0.869, -1.578, 1.668], a = 0.2, v = 0.2, t = 0.2)
movej(p[-0.515746607621892, -0.227319769869077, 0.411963673614416, -0.869, -1.578, 1.668], a = 0.2, v = 0.2, t = 0.2)
movej(p[-0.515724639062807, -0.227286758783338, 0.41277163687341, -0.869, -1.578, 1.668], a = 0.2, v = 0.2, t = 0.2)
movej(p[-0.515707173713072, -0.227260514451366, 0.41341398036243, -0.869, -1.578, 1.668], a = 0.2, v = 0.2, t = 0.2)
movej(p[-0.515685663859868, -0.227228192640654, 0.414205073261503, -0.869, -1.578, 1.668], a = 0.2, v = 0.2, t = 0.2)
movej(p[-0.515670205964904, -0.227204964813374, 0.414773586250656, -0.869, -1.578, 1.668], a = 0.2, v = 0.2, t = 0.2)
movej(p[-0.515696317673884, -0.227244201609042, 0.413813245547218, -0.869, -1.578, 1.668], a = 0.2, v = 0.2, t = 0.2)
movej(p[-0.515728727957168, -0.227292902966113, 0.412621254847881, -0.869, -1.578, 1.668], a = 0.2, v = 0.2, t = 0.2)
movej(p[-0.515751993716755, -0.227327863291984, 0.411765582936638, -0.869, -1.578, 1.668], a = 0.2, v = 0.2, t = 0.2)
movej(p[-0.515767219792618, -0.227350742775971, 0.411205595828306, -0.869, -1.578, 1.668], a = 0.2, v = 0.2, t = 0.2)
movej(p[-0.5157791856041, -0.227368723219169, 0.410765515256613, -0.869, -1.578, 1.668], a = 0.2, v = 0.2, t = 0.2)
movej(p[-0.515782258440272, -0.227373340620699, 0.410652501985317, -0.869, -1.578, 1.668], a = 0.2, v = 0.2, t = 0.2)
movej(p[-0.515783629625594, -0.227375401034223, 0.410602072307274, -0.869, -1.578, 1.668], a = 0.2, v = 0.2, t = 0.2)
movej(p[-0.515785454584477, -0.227378143311216, 0.410534953671031, -0.869, -1.578, 1.668], a = 0.2, v = 0.2, t = 0.2)
movej(p[-0.515780502533888, -0.227370702105539, 0.410717080997486, -0.869, -1.578, 1.668], a = 0.2, v = 0.2, t = 0.2)
movej(p[-0.515758701673728, -0.227337943012821, 0.411518876598014, -0.869, -1.578, 1.668], a = 0.2, v = 0.2, t = 0.2)
movej(p[-0.515736244814834, -0.227304198182697, 0.412344798627246, -0.869, -1.578, 1.668], a = 0.2, v = 0.2, t = 0.2)
movej(p[-0.515716116011595, -0.227273951608628, 0.413085099044838, -0.869, -1.578, 1.668], a = 0.2, v = 0.2, t = 0.2)
movej(p[-0.515689017838355, -0.227233232501072, 0.414081720092191, -0.869, -1.578, 1.668], a = 0.2, v = 0.2, t = 0.2)
movej(p[-0.515664824802362, -0.227196878802026, 0.414971495526714, -0.869, -1.578, 1.668], a = 0.2, v = 0.2, t = 0.2)
movej(p[-0.515659049054116, -0.227188199865924, 0.415183916940338, -0.869, -1.578, 1.668], a = 0.2, v = 0.2, t = 0.2)
movej(p[-0.515696776379765, -0.227244890884069, 0.413796375187297, -0.869, -1.578, 1.668], a = 0.2, v = 0.2, t = 0.2)
movej(p[-0.51572767737273, -0.227291324303952, 0.41265989341415, -0.869, -1.578, 1.668], a = 0.2, v = 0.2, t = 0.2)
movej(p[-0.515753009774944, -0.227329390073229, 0.411728214182406, -0.869, -1.578, 1.668], a = 0.2, v = 0.2, t = 0.2)
movej(p[-0.515772083061423, -0.227358050573578, 0.411026733732803, -0.869, -1.578, 1.668], a = 0.2, v = 0.2, t = 0.2)
movej(p[-0.515779269453562, -0.22736884921568, 0.41076243142738, -0.869, -1.578, 1.668], a = 0.2, v = 0.2, t = 0.2)
movej(p[-0.515782692484547, -0.22737399283793, 0.410636538633994, -0.869, -1.578, 1.668], a = 0.2, v = 0.2, t = 0.2)
movej(p[-0.515784157383974, -0.227376194071083, 0.41058266232328, -0.869, -1.578, 1.668], a = 0.2, v = 0.2, t = 0.2)
movej(p[-0.515788182158157, -0.227382241903585, 0.410434638520105, -0.869, -1.578, 1.668], a = 0.2, v = 0.2, t = 0.2)
movej(p[-0.515788083511731, -0.227382093672396, 0.410438266554497, -0.869, -1.578, 1.668], a = 0.2, v = 0.2, t = 0.2)
movej(p[-0.515783718407378, -0.227375534442293, 0.410598807076322, -0.869, -1.578, 1.668], a = 0.2, v = 0.2, t = 0.2)
movej(p[-0.515769197653461, -0.227353714811306, 0.411132853738755, -0.869, -1.578, 1.668], a = 0.2, v = 0.2, t = 0.2)
movej(p[-0.515747352402409, -0.227320889014553, 0.41193628195476, -0.869, -1.578, 1.668], a = 0.2, v = 0.2, t = 0.2)
movej(p[-0.515719460125439, -0.227278976645927, 0.412962108678965, -0.869, -1.578, 1.668], a = 0.2, v = 0.2, t = 0.2)
movej(p[-0.515693851513232, -0.227240495829322, 0.413903946407006, -0.869, -1.578, 1.668], a = 0.2, v = 0.2, t = 0.2)
movej(p[-0.515674191280517, -0.2272109533534, 0.414627013661238, -0.869, -1.578, 1.668], a = 0.2, v = 0.2, t = 0.2)
movej(p[-0.515656370803648, -0.227184175389149, 0.415282418074068, -0.869, -1.578, 1.668], a = 0.2, v = 0.2, t = 0.2)
movej(p[-0.515677101350086, -0.227215326173469, 0.414519986646688, -0.869, -1.578, 1.668], a = 0.2, v = 0.2, t = 0.2)
movej(p[-0.515720042139352, -0.227279851209941, 0.412940703276055, -0.869, -1.578, 1.668], a = 0.2, v = 0.2, t = 0.2)
movej(p[-0.515754223125984, -0.227331213316851, 0.41168358935939, -0.869, -1.578, 1.668], a = 0.2, v = 0.2, t = 0.2)
movej(p[-0.515769636630057, -0.227354374440096, 0.411116708985713, -0.869, -1.578, 1.668], a = 0.2, v = 0.2, t = 0.2)
movej(p[-0.515777459291644, -0.227366129173366, 0.410829005858465, -0.869, -1.578, 1.668], a = 0.2, v = 0.2, t = 0.2)
movej(p[-0.515784719668602, -0.227377038988859, 0.410561982527248, -0.869, -1.578, 1.668], a = 0.2, v = 0.2, t = 0.2)
movej(p[-0.51578603659839, -0.227379017875229, 0.410513548268121, -0.869, -1.578, 1.668], a = 0.2, v = 0.2, t = 0.2)
movej(p[-0.515785395396621, -0.227378054372502, 0.410537130491666, -0.869, -1.578, 1.668], a = 0.2, v = 0.2, t = 0.2)
movej(p[-0.515770736537708, -0.227356027217851, 0.411076256402247, -0.869, -1.578, 1.668], a = 0.2, v = 0.2, t = 0.2)
movej(p[-0.515750509088043, -0.227325632412593, 0.411820184854231, -0.869, -1.578, 1.668], a = 0.2, v = 0.2, t = 0.2)
movej(p[-0.515722725322141, -0.227283883098276, 0.412842020740605, -0.869, -1.578, 1.668], a = 0.2, v = 0.2, t = 0.2)
movej(p[-0.51569369367895, -0.22724025865942, 0.413909751262033, -0.869, -1.578, 1.668], a = 0.2, v = 0.2, t = 0.2)
movej(p[-0.515672943403227, -0.227209078228862, 0.414672908296291, -0.869, -1.578, 1.668], a = 0.2, v = 0.2, t = 0.2)
movej(p[-0.515654792460831, -0.227181803690128, 0.415340466624333, -0.869, -1.578, 1.668], a = 0.2, v = 0.2, t = 0.2)
movej(p[-0.515669219500643, -0.227203482501486, 0.414809866594571, -0.869, -1.578, 1.668], a = 0.2, v = 0.2, t = 0.2)
movej(p[-0.51570769653913, -0.227261300076666, 0.413394751780155, -0.869, -1.578, 1.668], a = 0.2, v = 0.2, t = 0.2)
movej(p[-0.515746208103866, -0.227319169532763, 0.411978367153702, -0.869, -1.578, 1.668], a = 0.2, v = 0.2, t = 0.2)
movej(p[-0.515764472489652, -0.227346614537364, 0.41130663658611, -0.869, -1.578, 1.668], a = 0.2, v = 0.2, t = 0.2)
movej(p[-0.515775279205628, -0.227362853264094, 0.410909185418518, -0.869, -1.578, 1.668], a = 0.2, v = 0.2, t = 0.2)
movej(p[-0.515781602441539, -0.227372354883294, 0.41067662841402, -0.869, -1.578, 1.668], a = 0.2, v = 0.2, t = 0.2)
movej(p[-0.515786090853925, -0.227379099402383, 0.410511552849206, -0.869, -1.578, 1.668], a = 0.2, v = 0.2, t = 0.2)
movej(p[-0.515786278282134, -0.227379381041642, 0.410504659583862, -0.869, -1.578, 1.668], a = 0.2, v = 0.2, t = 0.2)
movej(p[-0.515780112880505, -0.227370116592344, 0.410731411733333, -0.869, -1.578, 1.668], a = 0.2, v = 0.2, t = 0.2)
movej(p[-0.515760797910281, -0.227341092925582, 0.411441780867194, -0.869, -1.578, 1.668], a = 0.2, v = 0.2, t = 0.2)
movej(p[-0.515731001757288, -0.227296319695014, 0.412537628655156, -0.869, -1.578, 1.668], a = 0.2, v = 0.2, t = 0.2)
movej(p[-0.515701422626432, -0.227251872573061, 0.413625494767456, -0.869, -1.578, 1.668], a = 0.2, v = 0.2, t = 0.2)
movej(p[-0.515676721561346, -0.227214755483392, 0.414533954579096, -0.869, -1.578, 1.668], a = 0.2, v = 0.2, t = 0.2)
movej(p[-0.51565713531345, -0.227185324180862, 0.415254300807534, -0.869, -1.578, 1.668], a = 0.2, v = 0.2, t = 0.2)
movej(p[-0.515657150110414, -0.22718534641554, 0.415253756602375, -0.869, -1.578, 1.668], a = 0.2, v = 0.2, t = 0.2)
movej(p[-0.515694093196976, -0.227240858995735, 0.413895057722747, -0.869, -1.578, 1.668], a = 0.2, v = 0.2, t = 0.2)
movej(p[-0.515734049931854, -0.227300900038747, 0.412425522392458, -0.869, -1.578, 1.668], a = 0.2, v = 0.2, t = 0.2)
movej(p[-0.515757552442864, -0.227336216119472, 0.411561143198676, -0.869, -1.578, 1.668], a = 0.2, v = 0.2, t = 0.2)
movej(p[-0.515772383933023, -0.227358502678703, 0.411015668227909, -0.869, -1.578, 1.668], a = 0.2, v = 0.2, t = 0.2)
movej(p[-0.51577922506267, -0.227368782511645, 0.410764064042856, -0.869, -1.578, 1.668], a = 0.2, v = 0.2, t = 0.2)
movej(p[-0.515786080989282, -0.227379084579264, 0.410511915652645, -0.869, -1.578, 1.668], a = 0.2, v = 0.2, t = 0.2)
movej(p[-0.515786978671759, -0.227380433483082, 0.410478900539682, -0.869, -1.578, 1.668], a = 0.2, v = 0.2, t = 0.2)
movej(p[-0.515787161167647, -0.227380707710781, 0.410472188676058, -0.869, -1.578, 1.668], a = 0.2, v = 0.2, t = 0.2)
movej(p[-0.51578951881723, -0.227384250436193, 0.4103854786541, -0.869, -1.578, 1.668], a = 0.2, v = 0.2, t = 0.2)
movej(p[-0.515778899529464, -0.227368293348722, 0.410776036556348, -0.869, -1.578, 1.668], a = 0.2, v = 0.2, t = 0.2)
movej(p[-0.515756852053239, -0.227335163678031, 0.411586902242855, -0.869, -1.578, 1.668], a = 0.2, v = 0.2, t = 0.2)
movej(p[-0.515733684940077, -0.227300351583348, 0.412438946119706, -0.869, -1.578, 1.668], a = 0.2, v = 0.2, t = 0.2)
movej(p[-0.515713053040066, -0.227269349030217, 0.413197749512695, -0.869, -1.578, 1.668], a = 0.2, v = 0.2, t = 0.2)
movej(p[-0.515685402446839, -0.227227799828004, 0.414214687552641, -0.869, -1.578, 1.668], a = 0.2, v = 0.2, t = 0.2)
movej(p[-0.515663083692942, -0.227194262521544, 0.415035530333725, -0.869, -1.578, 1.668], a = 0.2, v = 0.2, t = 0.2)
movej(p[-0.515668020946567, -0.227201681492542, 0.414853947212429, -0.869, -1.578, 1.668], a = 0.2, v = 0.2, t = 0.2)
movej(p[-0.515695064864273, -0.227242319072944, 0.41385932158399, -0.869, -1.578, 1.668], a = 0.2, v = 0.2, t = 0.2)
movej(p[-0.51572506817476, -0.227287403589009, 0.412755854923807, -0.869, -1.578, 1.668], a = 0.2, v = 0.2, t = 0.2)
movej(p[-0.515751258800881, -0.227326758969628, 0.411792611792855, -0.869, -1.578, 1.668], a = 0.2, v = 0.2, t = 0.2)
movej(p[-0.515771481318224, -0.227357146363326, 0.411048864742591, -0.869, -1.578, 1.668], a = 0.2, v = 0.2, t = 0.2)
movej(p[-0.515777883471276, -0.227366766567477, 0.410813405310581, -0.869, -1.578, 1.668], a = 0.2, v = 0.2, t = 0.2)
movej(p[-0.515781918110102, -0.227372829223098, 0.410665018703967, -0.869, -1.578, 1.668], a = 0.2, v = 0.2, t = 0.2)
movej(p[-0.515785104389664, -0.227377617090496, 0.410547833193121, -0.869, -1.578, 1.668], a = 0.2, v = 0.2, t = 0.2)
movej(p[-0.515788261075298, -0.227382360488536, 0.410431736092592, -0.869, -1.578, 1.668], a = 0.2, v = 0.2, t = 0.2)
movej(p[-0.515788206819764, -0.227382278961382, 0.410433731511507, -0.869, -1.578, 1.668], a = 0.2, v = 0.2, t = 0.2)
movej(p[-0.51577967883623, -0.227369464375113, 0.410747375084655, -0.869, -1.578, 1.668], a = 0.2, v = 0.2, t = 0.2)
movej(p[-0.515763545213247, -0.227345221164189, 0.41134074010939, -0.869, -1.578, 1.668], a = 0.2, v = 0.2, t = 0.2)
movej(p[-0.515739149952081, -0.227308563591206, 0.412237953014416, -0.869, -1.578, 1.668], a = 0.2, v = 0.2, t = 0.2)
movej(p[-0.515712258936336, -0.227268155769147, 0.413226955189547, -0.869, -1.578, 1.668], a = 0.2, v = 0.2, t = 0.2)
movej(p[-0.515690142407612, -0.227234922336624, 0.414040360500128, -0.869, -1.578, 1.668], a = 0.2, v = 0.2, t = 0.2)
movej(p[-0.515673091372866, -0.227209300575645, 0.414667466244704, -0.869, -1.578, 1.668], a = 0.2, v = 0.2, t = 0.2)
movej(p[-0.515667172587303, -0.227200406704319, 0.414885148308196, -0.869, -1.578, 1.668], a = 0.2, v = 0.2, t = 0.2)
movej(p[-0.515694556835178, -0.227241555682322, 0.413878005961107, -0.869, -1.578, 1.668], a = 0.2, v = 0.2, t = 0.2)
movej(p[-0.515734996937544, -0.227302323058159, 0.412390693262299, -0.869, -1.578, 1.668], a = 0.2, v = 0.2, t = 0.2)
movej(p[-0.515756876714845, -0.227335200735828, 0.411585995234257, -0.869, -1.578, 1.668], a = 0.2, v = 0.2, t = 0.2)
movej(p[-0.515770613229675, -0.227355841928865, 0.411080791445237, -0.869, -1.578, 1.668], a = 0.2, v = 0.2, t = 0.2)
movej(p[-0.515778559199295, -0.227367781951121, 0.410788553274999, -0.869, -1.578, 1.668], a = 0.2, v = 0.2, t = 0.2)
movej(p[-0.515786189500351, -0.227379247633572, 0.410507924814814, -0.869, -1.578, 1.668], a = 0.2, v = 0.2, t = 0.2)
movej(p[-0.5157873584605, -0.227381004173159, 0.410464932607275, -0.869, -1.578, 1.668], a = 0.2, v = 0.2, t = 0.2)
movej(p[-0.515787526159424, -0.22738125616618, 0.410458764948809, -0.869, -1.578, 1.668], a = 0.2, v = 0.2, t = 0.2)
movej(p[-0.515789449764732, -0.227384146674361, 0.410388018278174, -0.869, -1.578, 1.668], a = 0.2, v = 0.2, t = 0.2)
movej(p[-0.515777054841297, -0.227365521425492, 0.41084388079947, -0.869, -1.578, 1.668], a = 0.2, v = 0.2, t = 0.2)
movej(p[-0.51575197398747, -0.227327833645747, 0.411766308543517, -0.869, -1.578, 1.668], a = 0.2, v = 0.2, t = 0.2)
movej(p[-0.515724436837634, -0.227286454909401, 0.412779074343912, -0.869, -1.578, 1.668], a = 0.2, v = 0.2, t = 0.2)
movej(p[-0.515696801041371, -0.227244927941867, 0.4137954681787, -0.869, -1.578, 1.668], a = 0.2, v = 0.2, t = 0.2)
movej(p[-0.515667236707479, -0.227200503054592, 0.414882790085841, -0.869, -1.578, 1.668], a = 0.2, v = 0.2, t = 0.2)
movej(p[-0.515646229951049, -0.227168937222943, 0.415655380009518, -0.869, -1.578, 1.668], a = 0.2, v = 0.2, t = 0.2)
movej(p[-0.515660962794782, -0.227191075550986, 0.415113533073143, -0.869, -1.578, 1.668], a = 0.2, v = 0.2, t = 0.2)
movej(p[-0.515705398077403, -0.227257846289968, 0.413479284981478, -0.869, -1.578, 1.668], a = 0.2, v = 0.2, t = 0.2)
movej(p[-0.51574115247453, -0.227311572684338, 0.412164303916267, -0.869, -1.578, 1.668], a = 0.2, v = 0.2, t = 0.2)
movej(p[-0.515762696853983, -0.227343946375966, 0.411371941205157, -0.869, -1.578, 1.668], a = 0.2, v = 0.2, t = 0.2)
movej(p[-0.515779407558559, -0.227369056739344, 0.410757352179232, -0.869, -1.578, 1.668], a = 0.2, v = 0.2, t = 0.2)
movej(p[-0.51578308213793, -0.227374578351126, 0.410622207898147, -0.869, -1.578, 1.668], a = 0.2, v = 0.2, t = 0.2)
movej(p[-0.515785375667336, -0.227378024726265, 0.410537856098544, -0.869, -1.578, 1.668], a = 0.2, v = 0.2, t = 0.2)
movej(p[-0.51578751136246, -0.227381233931502, 0.410459309153968, -0.869, -1.578, 1.668], a = 0.2, v = 0.2, t = 0.2)
movej(p[-0.515790016981682, -0.227384999003696, 0.410367157080423, -0.869, -1.578, 1.668], a = 0.2, v = 0.2, t = 0.2)
movej(p[-0.515781069750838, -0.227371554434875, 0.410696219799735, -0.869, -1.578, 1.668], a = 0.2, v = 0.2, t = 0.2)
movej(p[-0.515757468593402, -0.227336090122961, 0.411564227027908, -0.869, -1.578, 1.668], a = 0.2, v = 0.2, t = 0.2)
movej(p[-0.515734745389158, -0.227301945068628, 0.412399944749997, -0.869, -1.578, 1.668], a = 0.2, v = 0.2, t = 0.2)
movej(p[-0.515703928245655, -0.227255637645255, 0.413533342693911, -0.869, -1.578, 1.668], a = 0.2, v = 0.2, t = 0.2)
movej(p[-0.515673920002845, -0.227210545717631, 0.414636990755815, -0.869, -1.578, 1.668], a = 0.2, v = 0.2, t = 0.2)
movej(p[-0.515656577961143, -0.227184486674645, 0.415274799201846, -0.869, -1.578, 1.668], a = 0.2, v = 0.2, t = 0.2)
movej(p[-0.51565709585488, -0.227185264888386, 0.415255752021291, -0.869, -1.578, 1.668], a = 0.2, v = 0.2, t = 0.2)
movej(p[-0.51568790313374, -0.227231557488639, 0.414122716880816, -0.869, -1.578, 1.668], a = 0.2, v = 0.2, t = 0.2)
movej(p[-0.515726251931873, -0.227289182363274, 0.412712318511108, -0.869, -1.578, 1.668], a = 0.2, v = 0.2, t = 0.2)
movej(p[-0.515758075268922, -0.227337001744772, 0.4115419146164, -0.869, -1.578, 1.668], a = 0.2, v = 0.2, t = 0.2)
movej(p[-0.515771870971607, -0.227357731876522, 0.411034534006745, -0.869, -1.578, 1.668], a = 0.2, v = 0.2, t = 0.2)
movej(p[-0.515778726898219, -0.227368033944141, 0.410782385616534, -0.869, -1.578, 1.668], a = 0.2, v = 0.2, t = 0.2)
movej(p[-0.515783861444696, -0.227375749377517, 0.410593546426454, -0.869, -1.578, 1.668], a = 0.2, v = 0.2, t = 0.2)
movej(p[-0.515788122970302, -0.227382152964872, 0.41043681534074, -0.869, -1.578, 1.668], a = 0.2, v = 0.2, t = 0.2)
movej(p[-0.515788113105659, -0.227382138141753, 0.410437178144179, -0.869, -1.578, 1.668], a = 0.2, v = 0.2, t = 0.2)
movej(p[-0.51577869237197, -0.227367982063225, 0.410783655428571, -0.869, -1.578, 1.668], a = 0.2, v = 0.2, t = 0.2)
movej(p[-0.515759727596559, -0.227339484617184, 0.411481145040342, -0.869, -1.578, 1.668], a = 0.2, v = 0.2, t = 0.2)
movej(p[-0.515728678633954, -0.227292828850518, 0.412623068865076, -0.869, -1.578, 1.668], a = 0.2, v = 0.2, t = 0.2)
movej(p[-0.515696776379765, -0.227244890884069, 0.413796375187297, -0.869, -1.578, 1.668], a = 0.2, v = 0.2, t = 0.2)
movej(p[-0.515671567285584, -0.227207010403779, 0.414723519376053, -0.869, -1.578, 1.668], a = 0.2, v = 0.2, t = 0.2)
movej(p[-0.51565141875306, -0.227176734183472, 0.415464545400523, -0.869, -1.578, 1.668], a = 0.2, v = 0.2, t = 0.2)
movej(p[-0.515652538389996, -0.227178416607465, 0.415423367210179, -0.869, -1.578, 1.668], a = 0.2, v = 0.2, t = 0.2)
movej(p[-0.515689708363337, -0.227234270119394, 0.414056323851451, -0.869, -1.578, 1.668], a = 0.2, v = 0.2, t = 0.2)
movej(p[-0.515733142384734, -0.22729953631181, 0.41245890030886, -0.869, -1.578, 1.668], a = 0.2, v = 0.2, t = 0.2)
movej(p[-0.515755273710422, -0.227332791979011, 0.41164495079312, -0.869, -1.578, 1.668], a = 0.2, v = 0.2, t = 0.2)
movej(p[-0.515770115065223, -0.227355093361362, 0.411099113018914, -0.869, -1.578, 1.668], a = 0.2, v = 0.2, t = 0.2)
movej(p[-0.515778855138573, -0.227368226644687, 0.410777669171825, -0.869, -1.578, 1.668], a = 0.2, v = 0.2, t = 0.2)
movej(p[-0.515786189500351, -0.227379247633572, 0.410507924814814, -0.869, -1.578, 1.668], a = 0.2, v = 0.2, t = 0.2)
movej(p[-0.515787190761575, -0.227380752180138, 0.41047110026574, -0.869, -1.578, 1.668], a = 0.2, v = 0.2, t = 0.2)
movej(p[-0.51578751136246, -0.227381233931502, 0.410459309153968, -0.869, -1.578, 1.668], a = 0.2, v = 0.2, t = 0.2)
movej(p[-0.515782243643308, -0.227373318386021, 0.410653046190475, -0.869, -1.578, 1.668], a = 0.2, v = 0.2, t = 0.2)
movej(p[-0.515754953109537, -0.227332310227647, 0.411656741904892, -0.869, -1.578, 1.668], a = 0.2, v = 0.2, t = 0.2)
movej(p[-0.515722858494817, -0.227284083210381, 0.412837122894177, -0.869, -1.578, 1.668], a = 0.2, v = 0.2, t = 0.2)
movej(p[-0.51569369367895, -0.22724025865942, 0.413909751262033, -0.869, -1.578, 1.668], a = 0.2, v = 0.2, t = 0.2)
movej(p[-0.515670087589193, -0.227204786935947, 0.414777939891926, -0.869, -1.578, 1.668], a = 0.2, v = 0.2, t = 0.2)
movej(p[-0.515645421050355, -0.227167721727195, 0.415685129891528, -0.869, -1.578, 1.668], a = 0.2, v = 0.2, t = 0.2)
movej(p[-0.51564759620405, -0.227170990224907, 0.415605131733195, -0.869, -1.578, 1.668], a = 0.2, v = 0.2, t = 0.2)
movej(p[-0.515686610865559, -0.227229615660066, 0.414170244131345, -0.869, -1.578, 1.668], a = 0.2, v = 0.2, t = 0.2)
movej(p[-0.515724165559962, -0.227286047273632, 0.412789051438489, -0.869, -1.578, 1.668], a = 0.2, v = 0.2, t = 0.2)
movej(p[-0.515751554740159, -0.227327203663194, 0.411781727689681, -0.869, -1.578, 1.668], a = 0.2, v = 0.2, t = 0.2)
movej(p[-0.515768536722406, -0.227352721662341, 0.411157161569179, -0.869, -1.578, 1.668], a = 0.2, v = 0.2, t = 0.2)
movej(p[-0.515781395284044, -0.227372043597798, 0.410684247286243, -0.869, -1.578, 1.668], a = 0.2, v = 0.2, t = 0.2)
movej(p[-0.515785370735014, -0.227378017314705, 0.410538037500264, -0.869, -1.578, 1.668], a = 0.2, v = 0.2, t = 0.2)
movej(p[-0.515786963874795, -0.227380411248404, 0.410479444744841, -0.869, -1.578, 1.668], a = 0.2, v = 0.2, t = 0.2)
movej(p[-0.515789434967768, -0.227384124439683, 0.410388562483333, -0.869, -1.578, 1.668], a = 0.2, v = 0.2, t = 0.2)
movej(p[-0.515787619873529, -0.227381396985809, 0.410455318316137, -0.869, -1.578, 1.668], a = 0.2, v = 0.2, t = 0.2)
movej(p[-0.515771639152506, -0.227357383533228, 0.411043059887565, -0.869, -1.578, 1.668], a = 0.2, v = 0.2, t = 0.2)
movej(p[-0.51574478266301, -0.227317027592085, 0.412030792250659, -0.869, -1.578, 1.668], a = 0.2, v = 0.2, t = 0.2)
movej(p[-0.515719598230435, -0.227279184169592, 0.412957029430817, -0.869, -1.578, 1.668], a = 0.2, v = 0.2, t = 0.2)
movej(p[-0.515688647914257, -0.227232676634115, 0.41409532522116, -0.869, -1.578, 1.668], a = 0.2, v = 0.2, t = 0.2)
movej(p[-0.515661880206544, -0.227192454101041, 0.415079792353301, -0.869, -1.578, 1.668], a = 0.2, v = 0.2, t = 0.2)
movej(p[-0.515651142543067, -0.227176319136144, 0.415474703896819, -0.869, -1.578, 1.668], a = 0.2, v = 0.2, t = 0.2)
movej(p[-0.515676006374757, -0.227213680807274, 0.414560257828434, -0.869, -1.578, 1.668], a = 0.2, v = 0.2, t = 0.2)
movej(p[-0.515712574604899, -0.227268630108951, 0.413215345479494, -0.869, -1.578, 1.668], a = 0.2, v = 0.2, t = 0.2)
movej(p[-0.515743889912854, -0.227315686099827, 0.412063625961902, -0.869, -1.578, 1.668], a = 0.2, v = 0.2, t = 0.2)
movej(p[-0.515768704421331, -0.227352973655362, 0.411150993910713, -0.869, -1.578, 1.668], a = 0.2, v = 0.2, t = 0.2)
movej(p[-0.515777474088608, -0.227366151408044, 0.410828461653306, -0.869, -1.578, 1.668], a = 0.2, v = 0.2, t = 0.2)
movej(p[-0.515782934168291, -0.227374356004343, 0.410627649949735, -0.869, -1.578, 1.668], a = 0.2, v = 0.2, t = 0.2)
movej(p[-0.515785651877329, -0.227378439773593, 0.410527697602248, -0.869, -1.578, 1.668], a = 0.2, v = 0.2, t = 0.2)
movej(p[-0.515790066304895, -0.227385073119291, 0.410365343063227, -0.869, -1.578, 1.668], a = 0.2, v = 0.2, t = 0.2)
