def moving():
set_payload_mass(0)
set_tcp(p[0,0,0,0,0,0])
movej(p[0.4137, 0.2127, 0.3225, -1.283, 0.713, -0.78], a = 0.2, v = 0.2, t = 0.1)
movej(p[0.413594011601986, 0.212590467922593, 0.323488316337771, -1.283, 0.713, -0.78], a = 0.2, v = 0.2, t = 0.1)
movej(p[0.413488023203971, 0.212480935845187, 0.324476632675542, -1.283, 0.713, -0.78], a = 0.2, v = 0.2, t = 0.1)
movej(p[0.413382034805957, 0.21237140376778, 0.325464949013313, -1.283, 0.713, -0.78], a = 0.2, v = 0.2, t = 0.1)
movej(p[0.413276046407943, 0.212261871690374, 0.326453265351085, -1.283, 0.713, -0.78], a = 0.2, v = 0.2, t = 0.1)
movej(p[0.413382034805957, 0.21237140376778, 0.325464949013313, -1.283, 0.713, -0.78], a = 0.2, v = 0.2, t = 0.1)
movej(p[0.413488023203971, 0.212480935845187, 0.324476632675542, -1.283, 0.713, -0.78], a = 0.2, v = 0.2, t = 0.1)
movej(p[0.413594011601986, 0.212590467922593, 0.323488316337771, -1.283, 0.713, -0.78], a = 0.2, v = 0.2, t = 0.1)
movej(p[0.413647005800993, 0.212645233961297, 0.322994158168886, -1.283, 0.713, -0.78], a = 0.2, v = 0.2, t = 0.1)
movej(p[0.413678802320397, 0.212678093584519, 0.322697663267554, -1.283, 0.713, -0.78], a = 0.2, v = 0.2, t = 0.1)
movej(p[0.4137, 0.2127, 0.3225, -1.283, 0.713, -0.78], a = 0.2, v = 0.2, t = 0.1)
movej(p[0.413699994888375, 0.212700016122594, 0.322500149976442, -1.283, 0.713, -0.78], a = 0.2, v = 0.2, t = 0.1)
movej(p[0.413699890305739, 0.212700270190106, 0.322502314004208, -1.283, 0.713, -0.78], a = 0.2, v = 0.2, t = 0.1)
movej(p[0.413699326588044, 0.212701151989415, 0.322507275814094, -1.283, 0.713, -0.78], a = 0.2, v = 0.2, t = 0.1)
movej(p[0.41369842094344, 0.212703266477398, 0.322513757156348, -1.283, 0.713, -0.78], a = 0.2, v = 0.2, t = 0.1)
movej(p[0.413698986468128, 0.212705556367412, 0.322519733740201, -1.283, 0.713, -0.78], a = 0.2, v = 0.2, t = 0.1)
movej(p[0.413701424876611, 0.212705969478154, 0.32252316755158, -1.283, 0.713, -0.78], a = 0.2, v = 0.2, t = 0.1)
movej(p[0.413703480786535, 0.212703435219963, 0.322523982391934, -1.283, 0.713, -0.78], a = 0.2, v = 0.2, t = 0.1)
movej(p[0.413702679257068, 0.212698275364094, 0.322521774472796, -1.283, 0.713, -0.78], a = 0.2, v = 0.2, t = 0.1)
movej(p[0.413697502157579, 0.212691308483485, 0.322517115226347, -1.283, 0.713, -0.78], a = 0.2, v = 0.2, t = 0.1)
movej(p[0.413687421735483, 0.212683962608406, 0.322511313423293, -1.283, 0.713, -0.78], a = 0.2, v = 0.2, t = 0.1)
movej(p[0.413673761899473, 0.212676351342443, 0.322504676416843, -1.283, 0.713, -0.78], a = 0.2, v = 0.2, t = 0.1)
movej(p[0.41365835580494, 0.212668168413561, 0.322496744583502, -1.283, 0.713, -0.78], a = 0.2, v = 0.2, t = 0.1)
movej(p[0.413642517907757, 0.212659556122007, 0.322487697929922, -1.283, 0.713, -0.78], a = 0.2, v = 0.2, t = 0.1)
movej(p[0.413626816214391, 0.212650957345583, 0.322478178670945, -1.283, 0.713, -0.78], a = 0.2, v = 0.2, t = 0.1)
movej(p[0.413611719300646, 0.212642643115888, 0.322468541298588, -1.283, 0.713, -0.78], a = 0.2, v = 0.2, t = 0.1)
movej(p[0.413598828468727, 0.212634358723007, 0.322459100307855, -1.283, 0.713, -0.78], a = 0.2, v = 0.2, t = 0.1)
movej(p[0.413589374533632, 0.212627586978988, 0.322449799914575, -1.283, 0.713, -0.78], a = 0.2, v = 0.2, t = 0.1)
movej(p[0.413584577788965, 0.212623795358389, 0.32244164493114, -1.283, 0.713, -0.78], a = 0.2, v = 0.2, t = 0.1)
movej(p[0.413584906730076, 0.212623996474731, 0.322435506099739, -1.283, 0.713, -0.78], a = 0.2, v = 0.2, t = 0.1)
movej(p[0.41359004215844, 0.212629489063053, 0.322432024330356, -1.283, 0.713, -0.78], a = 0.2, v = 0.2, t = 0.1)
movej(p[0.413599845337349, 0.212641155888893, 0.322432296424309, -1.283, 0.713, -0.78], a = 0.2, v = 0.2, t = 0.1)
movej(p[0.413613673818376, 0.212657311431792, 0.322436152688322, -1.283, 0.713, -0.78], a = 0.2, v = 0.2, t = 0.1)
movej(p[0.413630181765429, 0.212673077494248, 0.322443968546606, -1.283, 0.713, -0.78], a = 0.2, v = 0.2, t = 0.1)
movej(p[0.413647481457378, 0.212684829245472, 0.322453848743854, -1.283, 0.713, -0.78], a = 0.2, v = 0.2, t = 0.1)
movej(p[0.413664437171437, 0.21269182903443, 0.322463143146916, -1.283, 0.713, -0.78], a = 0.2, v = 0.2, t = 0.1)
movej(p[0.413680437826885, 0.21269465606678, 0.322470896266309, -1.283, 0.713, -0.78], a = 0.2, v = 0.2, t = 0.1)
movej(p[0.413694501584154, 0.21269402947996, 0.32247558298813, -1.283, 0.713, -0.78], a = 0.2, v = 0.2, t = 0.1)
movej(p[0.413705765080011, 0.212691336980075, 0.322476312395051, -1.283, 0.713, -0.78], a = 0.2, v = 0.2, t = 0.1)
movej(p[0.413712120608902, 0.212687814970061, 0.322473350630041, -1.283, 0.713, -0.78], a = 0.2, v = 0.2, t = 0.1)
movej(p[0.413710853382311, 0.212684281596155, 0.322468445996863, -1.283, 0.713, -0.78], a = 0.2, v = 0.2, t = 0.1)
movej(p[0.413701730429115, 0.212681755045568, 0.322462354156327, -1.283, 0.713, -0.78], a = 0.2, v = 0.2, t = 0.1)
movej(p[0.413687867402001, 0.212679652512717, 0.322453045785641, -1.283, 0.713, -0.78], a = 0.2, v = 0.2, t = 0.1)
movej(p[0.413672054009076, 0.212677023805921, 0.322439784885868, -1.283, 0.713, -0.78], a = 0.2, v = 0.2, t = 0.1)
movej(p[0.413654624757658, 0.21267424945725, 0.322424221874288, -1.283, 0.713, -0.78], a = 0.2, v = 0.2, t = 0.1)
movej(p[0.413635703206348, 0.212672150957088, 0.32240840576623, -1.283, 0.713, -0.78], a = 0.2, v = 0.2, t = 0.1)
movej(p[0.413617050132877, 0.212670651460279, 0.322394524327817, -1.283, 0.713, -0.78], a = 0.2, v = 0.2, t = 0.1)
movej(p[0.413600677355802, 0.21266907221683, 0.322384986589879, -1.283, 0.713, -0.78], a = 0.2, v = 0.2, t = 0.1)
movej(p[0.413587896507009, 0.21266745898435, 0.322381866817114, -1.283, 0.713, -0.78], a = 0.2, v = 0.2, t = 0.1)
movej(p[0.413580361362692, 0.212666968128065, 0.322384353467919, -1.283, 0.713, -0.78], a = 0.2, v = 0.2, t = 0.1)
movej(p[0.413578714937474, 0.212668122869823, 0.322390936359493, -1.283, 0.713, -0.78], a = 0.2, v = 0.2, t = 0.1)
movej(p[0.41358417387689, 0.212672274885707, 0.322399074809563, -1.283, 0.713, -0.78], a = 0.2, v = 0.2, t = 0.1)
movej(p[0.413597471382584, 0.21267829556214, 0.322407169220449, -1.283, 0.713, -0.78], a = 0.2, v = 0.2, t = 0.1)
movej(p[0.413618050257355, 0.212683440213959, 0.322415059028675, -1.283, 0.713, -0.78], a = 0.2, v = 0.2, t = 0.1)
movej(p[0.413643701128881, 0.212686175957832, 0.322422567096898, -1.283, 0.713, -0.78], a = 0.2, v = 0.2, t = 0.1)
movej(p[0.413671143940743, 0.212686354553089, 0.322430746847922, -1.283, 0.713, -0.78], a = 0.2, v = 0.2, t = 0.1)
movej(p[0.413698356792129, 0.212684637125449, 0.322439476980954, -1.283, 0.713, -0.78], a = 0.2, v = 0.2, t = 0.1)
movej(p[0.413724516171358, 0.212681875645453, 0.322446681273532, -1.283, 0.713, -0.78], a = 0.2, v = 0.2, t = 0.1)
movej(p[0.413749348058043, 0.212680411178139, 0.322451387748134, -1.283, 0.713, -0.78], a = 0.2, v = 0.2, t = 0.1)
movej(p[0.413772429558397, 0.212681895766291, 0.322452427881977, -1.283, 0.713, -0.78], a = 0.2, v = 0.2, t = 0.1)
movej(p[0.413792045702367, 0.212685649133058, 0.32244999566248, -1.283, 0.713, -0.78], a = 0.2, v = 0.2, t = 0.1)
movej(p[0.413806705364443, 0.212690004168255, 0.322443558219724, -1.283, 0.713, -0.78], a = 0.2, v = 0.2, t = 0.1)
movej(p[0.41381583737249, 0.212694378473976, 0.322433910512872, -1.283, 0.713, -0.78], a = 0.2, v = 0.2, t = 0.1)
movej(p[0.413819837665174, 0.212697956375408, 0.322422845108009, -1.283, 0.713, -0.78], a = 0.2, v = 0.2, t = 0.1)
movej(p[0.413818746069464, 0.212698964180713, 0.322410925534264, -1.283, 0.713, -0.78], a = 0.2, v = 0.2, t = 0.1)
movej(p[0.413812680123777, 0.212696104938212, 0.322396188250178, -1.283, 0.713, -0.78], a = 0.2, v = 0.2, t = 0.1)
movej(p[0.413802478539882, 0.212690158904336, 0.322377699705287, -1.283, 0.713, -0.78], a = 0.2, v = 0.2, t = 0.1)
movej(p[0.413790121060979, 0.212682226788025, 0.322356664364905, -1.283, 0.713, -0.78], a = 0.2, v = 0.2, t = 0.1)
movej(p[0.413778265855868, 0.212673184815483, 0.322333007060719, -1.283, 0.713, -0.78], a = 0.2, v = 0.2, t = 0.1)
movej(p[0.41376767550871, 0.212664668361458, 0.322307640406468, -1.283, 0.713, -0.78], a = 0.2, v = 0.2, t = 0.1)
movej(p[0.413757426451698, 0.212658080044506, 0.3222831847618, -1.283, 0.713, -0.78], a = 0.2, v = 0.2, t = 0.1)
movej(p[0.413747708894669, 0.212654587363872, 0.322263555916129, -1.283, 0.713, -0.78], a = 0.2, v = 0.2, t = 0.1)
movej(p[0.413740022767684, 0.21265436227113, 0.322251068724843, -1.283, 0.713, -0.78], a = 0.2, v = 0.2, t = 0.1)
movej(p[0.41373649440762, 0.21265749249988, 0.322244240845433, -1.283, 0.713, -0.78], a = 0.2, v = 0.2, t = 0.1)
movej(p[0.413738178894221, 0.212662852444726, 0.322241798936929, -1.283, 0.713, -0.78], a = 0.2, v = 0.2, t = 0.1)
movej(p[0.413745040016897, 0.212670023277665, 0.32224339218756, -1.283, 0.713, -0.78], a = 0.2, v = 0.2, t = 0.1)
movej(p[0.413755940154649, 0.212679186411795, 0.322247417159225, -1.283, 0.713, -0.78], a = 0.2, v = 0.2, t = 0.1)
movej(p[0.413769625197084, 0.212689649594067, 0.322251763449629, -1.283, 0.713, -0.78], a = 0.2, v = 0.2, t = 0.1)
movej(p[0.41378371697032, 0.212700679901327, 0.322255996645802, -1.283, 0.713, -0.78], a = 0.2, v = 0.2, t = 0.1)
movej(p[0.413796428591945, 0.212710979236378, 0.322261211971887, -1.283, 0.713, -0.78], a = 0.2, v = 0.2, t = 0.1)
movej(p[0.41380717524251, 0.212720021802057, 0.322267937016316, -1.283, 0.713, -0.78], a = 0.2, v = 0.2, t = 0.1)
movej(p[0.413815867085495, 0.212727724134991, 0.32227416365328, -1.283, 0.713, -0.78], a = 0.2, v = 0.2, t = 0.1)
movej(p[0.413823189773373, 0.212734186860463, 0.322278005536247, -1.283, 0.713, -0.78], a = 0.2, v = 0.2, t = 0.1)
movej(p[0.41382975104338, 0.212740758276888, 0.322280730574058, -1.283, 0.713, -0.78], a = 0.2, v = 0.2, t = 0.1)
movej(p[0.413836839734617, 0.212747175293909, 0.322281690983389, -1.283, 0.713, -0.78], a = 0.2, v = 0.2, t = 0.1)
movej(p[0.413844452031553, 0.212752197835712, 0.322279081438949, -1.283, 0.713, -0.78], a = 0.2, v = 0.2, t = 0.1)
movej(p[0.413851148784455, 0.212753828248828, 0.322272273255075, -1.283, 0.713, -0.78], a = 0.2, v = 0.2, t = 0.1)
movej(p[0.413855074263834, 0.212750778733174, 0.322264179728531, -1.283, 0.713, -0.78], a = 0.2, v = 0.2, t = 0.1)
movej(p[0.413853466203152, 0.212744011622105, 0.32225626662297, -1.283, 0.713, -0.78], a = 0.2, v = 0.2, t = 0.1)
movej(p[0.413845644368561, 0.21273598526821, 0.322246144188935, -1.283, 0.713, -0.78], a = 0.2, v = 0.2, t = 0.1)
movej(p[0.413833285058517, 0.212727994872378, 0.322231513096061, -1.283, 0.713, -0.78], a = 0.2, v = 0.2, t = 0.1)
movej(p[0.413818107775435, 0.212719836549535, 0.32221334460761, -1.283, 0.713, -0.78], a = 0.2, v = 0.2, t = 0.1)
movej(p[0.413801147650894, 0.212711705066595, 0.322195280315878, -1.283, 0.713, -0.78], a = 0.2, v = 0.2, t = 0.1)
movej(p[0.413782567093276, 0.21270331221957, 0.322180410978051, -1.283, 0.713, -0.78], a = 0.2, v = 0.2, t = 0.1)
movej(p[0.413763334147488, 0.212695113777808, 0.322169626514551, -1.283, 0.713, -0.78], a = 0.2, v = 0.2, t = 0.1)
movej(p[0.413744820594817, 0.212687260095913, 0.322161707540045, -1.283, 0.713, -0.78], a = 0.2, v = 0.2, t = 0.1)
movej(p[0.41372787843474, 0.212679771843706, 0.322154962861271, -1.283, 0.713, -0.78], a = 0.2, v = 0.2, t = 0.1)
movej(p[0.413713100633728, 0.212672371278801, 0.322148814147068, -1.283, 0.713, -0.78], a = 0.2, v = 0.2, t = 0.1)
movej(p[0.413700764163709, 0.212664815357771, 0.322143674964169, -1.283, 0.713, -0.78], a = 0.2, v = 0.2, t = 0.1)
movej(p[0.413692660090419, 0.212658435392797, 0.322141109238534, -1.283, 0.713, -0.78], a = 0.2, v = 0.2, t = 0.1)
movej(p[0.413691816230268, 0.212654041847752, 0.322142800323094, -1.283, 0.713, -0.78], a = 0.2, v = 0.2, t = 0.1)
movej(p[0.41369895979501, 0.212651668542514, 0.322149106180532, -1.283, 0.713, -0.78], a = 0.2, v = 0.2, t = 0.1)
movej(p[0.413712190032541, 0.212651514869746, 0.322158535772281, -1.283, 0.713, -0.78], a = 0.2, v = 0.2, t = 0.1)
movej(p[0.413729720096453, 0.212654069078724, 0.322169388321001, -1.283, 0.713, -0.78], a = 0.2, v = 0.2, t = 0.1)
movej(p[0.413750677875147, 0.212658903179434, 0.322179350486055, -1.283, 0.713, -0.78], a = 0.2, v = 0.2, t = 0.1)
movej(p[0.413773920213353, 0.212664328529178, 0.322186833584066, -1.283, 0.713, -0.78], a = 0.2, v = 0.2, t = 0.1)
movej(p[0.413797916628401, 0.212669077631866, 0.322192492218309, -1.283, 0.713, -0.78], a = 0.2, v = 0.2, t = 0.1)
movej(p[0.413821043084742, 0.212672721528209, 0.322195911426782, -1.283, 0.713, -0.78], a = 0.2, v = 0.2, t = 0.1)
movej(p[0.413841454350842, 0.212675123938438, 0.322196295411508, -1.283, 0.713, -0.78], a = 0.2, v = 0.2, t = 0.1)
movej(p[0.413857027658742, 0.212676413487912, 0.322193142409891, -1.283, 0.713, -0.78], a = 0.2, v = 0.2, t = 0.1)
movej(p[0.413865906410419, 0.212677163303009, 0.322187688865998, -1.283, 0.713, -0.78], a = 0.2, v = 0.2, t = 0.1)
movej(p[0.413867865583982, 0.212677375012636, 0.322180150630463, -1.283, 0.713, -0.78], a = 0.2, v = 0.2, t = 0.1)
movej(p[0.41386353218915, 0.212676864427376, 0.32216965175005, -1.283, 0.713, -0.78], a = 0.2, v = 0.2, t = 0.1)
movej(p[0.413853873811818, 0.212676302736777, 0.322156995681744, -1.283, 0.713, -0.78], a = 0.2, v = 0.2, t = 0.1)
movej(p[0.413840191033438, 0.212675847948597, 0.322144313477498, -1.283, 0.713, -0.78], a = 0.2, v = 0.2, t = 0.1)
movej(p[0.413823262869621, 0.212675505973514, 0.322132028295374, -1.283, 0.713, -0.78], a = 0.2, v = 0.2, t = 0.1)
movej(p[0.413802977030764, 0.212674715829236, 0.322119860521507, -1.283, 0.713, -0.78], a = 0.2, v = 0.2, t = 0.1)
movej(p[0.413779669887202, 0.212672998560271, 0.322107335804094, -1.283, 0.713, -0.78], a = 0.2, v = 0.2, t = 0.1)
movej(p[0.413754782198417, 0.212670119433717, 0.32209501063804, -1.283, 0.713, -0.78], a = 0.2, v = 0.2, t = 0.1)
movej(p[0.413731613074252, 0.212665518401399, 0.322083228358888, -1.283, 0.713, -0.78], a = 0.2, v = 0.2, t = 0.1)
movej(p[0.41371279001895, 0.212660090810111, 0.322073481964481, -1.283, 0.713, -0.78], a = 0.2, v = 0.2, t = 0.1)
movej(p[0.413699072054403, 0.212654697836973, 0.322067609706364, -1.283, 0.713, -0.78], a = 0.2, v = 0.2, t = 0.1)
movej(p[0.413689623865729, 0.212649307984695, 0.322066465578663, -1.283, 0.713, -0.78], a = 0.2, v = 0.2, t = 0.1)
movej(p[0.413683640796617, 0.212645394592197, 0.32207112928997, -1.283, 0.713, -0.78], a = 0.2, v = 0.2, t = 0.1)
movej(p[0.413682293679844, 0.212643496333996, 0.32208100598705, -1.283, 0.713, -0.78], a = 0.2, v = 0.2, t = 0.1)
movej(p[0.413687523418845, 0.212642843590669, 0.322094010725346, -1.283, 0.713, -0.78], a = 0.2, v = 0.2, t = 0.1)
movej(p[0.4136994640837, 0.212643516952865, 0.322107295264109, -1.283, 0.713, -0.78], a = 0.2, v = 0.2, t = 0.1)
movej(p[0.41371653005588, 0.212646305874571, 0.322119280567789, -1.283, 0.713, -0.78], a = 0.2, v = 0.2, t = 0.1)
movej(p[0.413736736123801, 0.212651038240535, 0.32212912251239, -1.283, 0.713, -0.78], a = 0.2, v = 0.2, t = 0.1)
movej(p[0.413757513936818, 0.212656115595516, 0.322136477789316, -1.283, 0.713, -0.78], a = 0.2, v = 0.2, t = 0.1)
movej(p[0.413776490545028, 0.212660795336033, 0.322142415040153, -1.283, 0.713, -0.78], a = 0.2, v = 0.2, t = 0.1)
movej(p[0.413792454017991, 0.212665008860745, 0.322147419975165, -1.283, 0.713, -0.78], a = 0.2, v = 0.2, t = 0.1)
movej(p[0.413804641475358, 0.212668091546371, 0.322149904384203, -1.283, 0.713, -0.78], a = 0.2, v = 0.2, t = 0.1)
movej(p[0.413811957239953, 0.212668660709389, 0.322147903737096, -1.283, 0.713, -0.78], a = 0.2, v = 0.2, t = 0.1)
movej(p[0.413813681724325, 0.212666841296008, 0.322142493011211, -1.283, 0.713, -0.78], a = 0.2, v = 0.2, t = 0.1)
movej(p[0.413809249019996, 0.212664020258503, 0.322136382812383, -1.283, 0.713, -0.78], a = 0.2, v = 0.2, t = 0.1)
movej(p[0.413798144424876, 0.212661159004812, 0.322131005629891, -1.283, 0.713, -0.78], a = 0.2, v = 0.2, t = 0.1)
movej(p[0.413780352471522, 0.212658151903602, 0.322127674596546, -1.283, 0.713, -0.78], a = 0.2, v = 0.2, t = 0.1)
movej(p[0.413757859710349, 0.212654557085229, 0.322126904883835, -1.283, 0.713, -0.78], a = 0.2, v = 0.2, t = 0.1)
movej(p[0.413732569743524, 0.212650894284425, 0.322127858386993, -1.283, 0.713, -0.78], a = 0.2, v = 0.2, t = 0.1)
movej(p[0.413705775433996, 0.212647351048959, 0.322128346101399, -1.283, 0.713, -0.78], a = 0.2, v = 0.2, t = 0.1)
movej(p[0.413679649465468, 0.212643204069755, 0.322125410526333, -1.283, 0.713, -0.78], a = 0.2, v = 0.2, t = 0.1)
movej(p[0.413655852361624, 0.21263785436787, 0.32211893873119, -1.283, 0.713, -0.78], a = 0.2, v = 0.2, t = 0.1)
movej(p[0.413635042179784, 0.21263241868328, 0.322112330503226, -1.283, 0.713, -0.78], a = 0.2, v = 0.2, t = 0.1)
movej(p[0.413618326474076, 0.212628839548598, 0.322108106449887, -1.283, 0.713, -0.78], a = 0.2, v = 0.2, t = 0.1)
movej(p[0.413608254097783, 0.212627566945935, 0.322106821491021, -1.283, 0.713, -0.78], a = 0.2, v = 0.2, t = 0.1)
movej(p[0.413606552955879, 0.212627379351519, 0.322108190638769, -1.283, 0.713, -0.78], a = 0.2, v = 0.2, t = 0.1)
movej(p[0.41361247422241, 0.212627256165149, 0.322110745582564, -1.283, 0.713, -0.78], a = 0.2, v = 0.2, t = 0.1)
movej(p[0.413624950591551, 0.21262819083316, 0.322112959171901, -1.283, 0.713, -0.78], a = 0.2, v = 0.2, t = 0.1)
movej(p[0.41364201669467, 0.21263205709235, 0.322114923409723, -1.283, 0.713, -0.78], a = 0.2, v = 0.2, t = 0.1)
movej(p[0.413661552141938, 0.212639078076366, 0.322118237686337, -1.283, 0.713, -0.78], a = 0.2, v = 0.2, t = 0.1)
movej(p[0.41368263639108, 0.212647723850977, 0.322124069498707, -1.283, 0.713, -0.78], a = 0.2, v = 0.2, t = 0.1)
movej(p[0.413705363169747, 0.212656199987501, 0.322131016852952, -1.283, 0.713, -0.78], a = 0.2, v = 0.2, t = 0.1)
movej(p[0.413729575267049, 0.212664973545883, 0.322137327775116, -1.283, 0.713, -0.78], a = 0.2, v = 0.2, t = 0.1)
movej(p[0.413754554559636, 0.212675457685419, 0.322143054549603, -1.283, 0.713, -0.78], a = 0.2, v = 0.2, t = 0.1)
movej(p[0.413779361297171, 0.21268712731205, 0.322148600774642, -1.283, 0.713, -0.78], a = 0.2, v = 0.2, t = 0.1)
movej(p[0.413802169096805, 0.212697785296334, 0.322154807039853, -1.283, 0.713, -0.78], a = 0.2, v = 0.2, t = 0.1)
movej(p[0.413821555979862, 0.212705358695592, 0.322160824662556, -1.283, 0.713, -0.78], a = 0.2, v = 0.2, t = 0.1)
movej(p[0.413836326536179, 0.212709617877416, 0.322163930980359, -1.283, 0.713, -0.78], a = 0.2, v = 0.2, t = 0.1)
movej(p[0.413846772540427, 0.212710600048693, 0.322163130360706, -1.283, 0.713, -0.78], a = 0.2, v = 0.2, t = 0.1)
movej(p[0.41385282179427, 0.21270752375974, 0.322159713639291, -1.283, 0.713, -0.78], a = 0.2, v = 0.2, t = 0.1)
movej(p[0.413854520855002, 0.212700770266407, 0.322154938201257, -1.283, 0.713, -0.78], a = 0.2, v = 0.2, t = 0.1)
movej(p[0.413852869219937, 0.212691442628825, 0.32214665974894, -1.283, 0.713, -0.78], a = 0.2, v = 0.2, t = 0.1)
movej(p[0.413848350984515, 0.21268059500348, 0.322135664237626, -1.283, 0.713, -0.78], a = 0.2, v = 0.2, t = 0.1)
movej(p[0.413840563649433, 0.212669857548464, 0.322124656160042, -1.283, 0.713, -0.78], a = 0.2, v = 0.2, t = 0.1)
movej(p[0.413829424271124, 0.212660700912628, 0.322115392334425, -1.283, 0.713, -0.78], a = 0.2, v = 0.2, t = 0.1)
movej(p[0.413816775077649, 0.21265309313147, 0.322107406061685, -1.283, 0.713, -0.78], a = 0.2, v = 0.2, t = 0.1)
movej(p[0.413804515264261, 0.212645778958539, 0.322099430341528, -1.283, 0.713, -0.78], a = 0.2, v = 0.2, t = 0.1)
movej(p[0.413793357622344, 0.212637556632164, 0.322093226670854, -1.283, 0.713, -0.78], a = 0.2, v = 0.2, t = 0.1)
movej(p[0.413783953010478, 0.21262934467771, 0.322090696861236, -1.283, 0.713, -0.78], a = 0.2, v = 0.2, t = 0.1)
movej(p[0.413776715594949, 0.212621903749416, 0.322093100846173, -1.283, 0.713, -0.78], a = 0.2, v = 0.2, t = 0.1)
movej(p[0.413772108903023, 0.212616416057305, 0.322100014286257, -1.283, 0.713, -0.78], a = 0.2, v = 0.2, t = 0.1)
movej(p[0.413771347208825, 0.212614769582684, 0.322111664328887, -1.283, 0.713, -0.78], a = 0.2, v = 0.2, t = 0.1)
movej(p[0.413775204156458, 0.21261862185323, 0.322126700748228, -1.283, 0.713, -0.78], a = 0.2, v = 0.2, t = 0.1)
movej(p[0.413783703244901, 0.21262770096147, 0.322142848673487, -1.283, 0.713, -0.78], a = 0.2, v = 0.2, t = 0.1)
movej(p[0.413796354388962, 0.212639686752722, 0.322158120811092, -1.283, 0.713, -0.78], a = 0.2, v = 0.2, t = 0.1)
movej(p[0.413812151212948, 0.212652515798416, 0.322172245309049, -1.283, 0.713, -0.78], a = 0.2, v = 0.2, t = 0.1)
movej(p[0.413829432679006, 0.212665714055621, 0.322186646839094, -1.283, 0.713, -0.78], a = 0.2, v = 0.2, t = 0.1)
movej(p[0.413846353140658, 0.21267845791744, 0.322201949868808, -1.283, 0.713, -0.78], a = 0.2, v = 0.2, t = 0.1)
movej(p[0.413862666402872, 0.212690096720979, 0.322217011684838, -1.283, 0.713, -0.78], a = 0.2, v = 0.2, t = 0.1)
movej(p[0.41387894103627, 0.212699748523948, 0.322229655515436, -1.283, 0.713, -0.78], a = 0.2, v = 0.2, t = 0.1)
movej(p[0.413894965985827, 0.212707921497027, 0.322238751450723, -1.283, 0.713, -0.78], a = 0.2, v = 0.2, t = 0.1)
movej(p[0.413909544283166, 0.212714856284867, 0.322245039631806, -1.283, 0.713, -0.78], a = 0.2, v = 0.2, t = 0.1)
movej(p[0.413919532312237, 0.212719791076826, 0.322248685360484, -1.283, 0.713, -0.78], a = 0.2, v = 0.2, t = 0.1)
movej(p[0.413921564797393, 0.212722050784846, 0.322247322366077, -1.283, 0.713, -0.78], a = 0.2, v = 0.2, t = 0.1)
movej(p[0.41391523269193, 0.212721427778748, 0.322239584591668, -1.283, 0.713, -0.78], a = 0.2, v = 0.2, t = 0.1)
movej(p[0.413902356175558, 0.21271867376969, 0.322227366425061, -1.283, 0.713, -0.78], a = 0.2, v = 0.2, t = 0.1)
movej(p[0.413884432277278, 0.212714140573643, 0.32221327553623, -1.283, 0.713, -0.78], a = 0.2, v = 0.2, t = 0.1)
movej(p[0.413862151583014, 0.212707688233562, 0.322198062559645, -1.283, 0.713, -0.78], a = 0.2, v = 0.2, t = 0.1)
movej(p[0.413836909953352, 0.21269972468763, 0.322182358495038, -1.283, 0.713, -0.78], a = 0.2, v = 0.2, t = 0.1)
movej(p[0.413809116123461, 0.212690786943119, 0.322167055911594, -1.283, 0.713, -0.78], a = 0.2, v = 0.2, t = 0.1)
movej(p[0.413779379911265, 0.212681241438879, 0.32215250567919, -1.283, 0.713, -0.78], a = 0.2, v = 0.2, t = 0.1)
movej(p[0.413749731521021, 0.212671949420252, 0.322138395663038, -1.283, 0.713, -0.78], a = 0.2, v = 0.2, t = 0.1)
movej(p[0.413722150718401, 0.212663699132527, 0.322123545239466, -1.283, 0.713, -0.78], a = 0.2, v = 0.2, t = 0.1)
movej(p[0.41369806901012, 0.212657423789703, 0.322109546955223, -1.283, 0.713, -0.78], a = 0.2, v = 0.2, t = 0.1)
movej(p[0.413678789433065, 0.212652548219865, 0.322098340580952, -1.283, 0.713, -0.78], a = 0.2, v = 0.2, t = 0.1)
movej(p[0.41366567912549, 0.21264873603336, 0.322091927556131, -1.283, 0.713, -0.78], a = 0.2, v = 0.2, t = 0.1)
movej(p[0.4136592753607, 0.212646004864439, 0.322090203537907, -1.283, 0.713, -0.78], a = 0.2, v = 0.2, t = 0.1)
movej(p[0.413658256880302, 0.212645096083089, 0.322090918402327, -1.283, 0.713, -0.78], a = 0.2, v = 0.2, t = 0.1)
movej(p[0.413661502264938, 0.212645864582479, 0.3220927701864, -1.283, 0.713, -0.78], a = 0.2, v = 0.2, t = 0.1)
movej(p[0.41366849777605, 0.212647504439422, 0.32209483942261, -1.283, 0.713, -0.78], a = 0.2, v = 0.2, t = 0.1)
movej(p[0.413678300792834, 0.212649943725211, 0.322096178251115, -1.283, 0.713, -0.78], a = 0.2, v = 0.2, t = 0.1)
movej(p[0.41369020668923, 0.212654517209119, 0.32209823410105, -1.283, 0.713, -0.78], a = 0.2, v = 0.2, t = 0.1)
movej(p[0.413703937213459, 0.212662250135691, 0.322102228044718, -1.283, 0.713, -0.78], a = 0.2, v = 0.2, t = 0.1)
movej(p[0.41371968540422, 0.212672372276579, 0.322109261040495, -1.283, 0.713, -0.78], a = 0.2, v = 0.2, t = 0.1)
movej(p[0.413736842342857, 0.21268430457539, 0.322119693333804, -1.283, 0.713, -0.78], a = 0.2, v = 0.2, t = 0.1)
movej(p[0.413754216076675, 0.212697318480285, 0.32213307048214, -1.283, 0.713, -0.78], a = 0.2, v = 0.2, t = 0.1)
movej(p[0.413770363933197, 0.212710919116611, 0.322147816966477, -1.283, 0.713, -0.78], a = 0.2, v = 0.2, t = 0.1)
movej(p[0.413785108235864, 0.212723995432433, 0.322161497809887, -1.283, 0.713, -0.78], a = 0.2, v = 0.2, t = 0.1)
movej(p[0.413797638102542, 0.212735359380628, 0.322172584075418, -1.283, 0.713, -0.78], a = 0.2, v = 0.2, t = 0.1)
movej(p[0.413806585311781, 0.212743340727393, 0.322180520313611, -1.283, 0.713, -0.78], a = 0.2, v = 0.2, t = 0.1)
movej(p[0.413810367859057, 0.212746553443703, 0.322184971116911, -1.283, 0.713, -0.78], a = 0.2, v = 0.2, t = 0.1)
movej(p[0.41380857024372, 0.212746002711443, 0.322185211071238, -1.283, 0.713, -0.78], a = 0.2, v = 0.2, t = 0.1)
movej(p[0.413802321082192, 0.212743003328404, 0.32218197135218, -1.283, 0.713, -0.78], a = 0.2, v = 0.2, t = 0.1)
movej(p[0.413792598225308, 0.212738792257017, 0.322177558031004, -1.283, 0.713, -0.78], a = 0.2, v = 0.2, t = 0.1)
movej(p[0.413779919236918, 0.212734135431481, 0.322173902422667, -1.283, 0.713, -0.78], a = 0.2, v = 0.2, t = 0.1)
movej(p[0.413765809006577, 0.212729182856135, 0.322171034933315, -1.283, 0.713, -0.78], a = 0.2, v = 0.2, t = 0.1)
movej(p[0.413751734723582, 0.212724077831929, 0.322167490648474, -1.283, 0.713, -0.78], a = 0.2, v = 0.2, t = 0.1)
movej(p[0.413738477504724, 0.21271842105984, 0.322162060495007, -1.283, 0.713, -0.78], a = 0.2, v = 0.2, t = 0.1)
movej(p[0.413725851861974, 0.212712163921768, 0.322154920545266, -1.283, 0.713, -0.78], a = 0.2, v = 0.2, t = 0.1)
movej(p[0.413714348483225, 0.2127054216845, 0.322146407364194, -1.283, 0.713, -0.78], a = 0.2, v = 0.2, t = 0.1)
movej(p[0.41370487002701, 0.212698667015876, 0.322137675889314, -1.283, 0.713, -0.78], a = 0.2, v = 0.2, t = 0.1)
movej(p[0.413698437539655, 0.212692792303546, 0.322130425944937, -1.283, 0.713, -0.78], a = 0.2, v = 0.2, t = 0.1)
movej(p[0.41369661509485, 0.212688701729641, 0.322125659043002, -1.283, 0.713, -0.78], a = 0.2, v = 0.2, t = 0.1)
movej(p[0.413700222419923, 0.212686851495388, 0.322123880942885, -1.283, 0.713, -0.78], a = 0.2, v = 0.2, t = 0.1)
movej(p[0.413709213028128, 0.21268775801388, 0.322124499361291, -1.283, 0.713, -0.78], a = 0.2, v = 0.2, t = 0.1)
movej(p[0.413722108668749, 0.212691223233733, 0.322128765546984, -1.283, 0.713, -0.78], a = 0.2, v = 0.2, t = 0.1)
movej(p[0.413737606961637, 0.212696609796615, 0.322138316781034, -1.283, 0.713, -0.78], a = 0.2, v = 0.2, t = 0.1)
movej(p[0.413754595418545, 0.212703487840246, 0.322153072123208, -1.283, 0.713, -0.78], a = 0.2, v = 0.2, t = 0.1)
movej(p[0.413772184096638, 0.212712410496168, 0.322171221689463, -1.283, 0.713, -0.78], a = 0.2, v = 0.2, t = 0.1)
movej(p[0.413789391152401, 0.212724152390521, 0.322190143629374, -1.283, 0.713, -0.78], a = 0.2, v = 0.2, t = 0.1)
movej(p[0.41380615782504, 0.212737774631056, 0.322208682374892, -1.283, 0.713, -0.78], a = 0.2, v = 0.2, t = 0.1)
movej(p[0.4138222146479, 0.212750841894095, 0.322224936402864, -1.283, 0.713, -0.78], a = 0.2, v = 0.2, t = 0.1)
movej(p[0.413835220756695, 0.212761362092925, 0.322237945188995, -1.283, 0.713, -0.78], a = 0.2, v = 0.2, t = 0.1)
movej(p[0.413843580520882, 0.212768129371718, 0.322248442103517, -1.283, 0.713, -0.78], a = 0.2, v = 0.2, t = 0.1)
movej(p[0.413846857372554, 0.212770956269831, 0.322256782494106, -1.283, 0.713, -0.78], a = 0.2, v = 0.2, t = 0.1)
movej(p[0.413846051205238, 0.212770886217859, 0.322263193278222, -1.283, 0.713, -0.78], a = 0.2, v = 0.2, t = 0.1)
movej(p[0.41384217406354, 0.212768313573005, 0.322268359924398, -1.283, 0.713, -0.78], a = 0.2, v = 0.2, t = 0.1)
movej(p[0.413835485210194, 0.212763542631819, 0.322271522361293, -1.283, 0.713, -0.78], a = 0.2, v = 0.2, t = 0.1)
movej(p[0.413826312573969, 0.212757199927068, 0.322271461730253, -1.283, 0.713, -0.78], a = 0.2, v = 0.2, t = 0.1)
movej(p[0.413814963533723, 0.212750698264774, 0.322266645451304, -1.283, 0.713, -0.78], a = 0.2, v = 0.2, t = 0.1)
movej(p[0.413800984961115, 0.212745018402562, 0.322256605453739, -1.283, 0.713, -0.78], a = 0.2, v = 0.2, t = 0.1)
movej(p[0.413784742013154, 0.212740243148846, 0.322243174928526, -1.283, 0.713, -0.78], a = 0.2, v = 0.2, t = 0.1)
movej(p[0.413766949674533, 0.212737424349024, 0.322228329954395, -1.283, 0.713, -0.78], a = 0.2, v = 0.2, t = 0.1)
movej(p[0.413748692771958, 0.212737498017767, 0.322213472413135, -1.283, 0.713, -0.78], a = 0.2, v = 0.2, t = 0.1)
movej(p[0.41373159122618, 0.212740870088915, 0.322199292524625, -1.283, 0.713, -0.78], a = 0.2, v = 0.2, t = 0.1)
movej(p[0.413717720612757, 0.212746545003276, 0.322187169342523, -1.283, 0.713, -0.78], a = 0.2, v = 0.2, t = 0.1)
movej(p[0.413709576883912, 0.212752764702662, 0.322178192576845, -1.283, 0.713, -0.78], a = 0.2, v = 0.2, t = 0.1)
movej(p[0.413708019751255, 0.212759238737938, 0.322172116664474, -1.283, 0.713, -0.78], a = 0.2, v = 0.2, t = 0.1)
movej(p[0.413711910170013, 0.21276617446817, 0.32216547913805, -1.283, 0.713, -0.78], a = 0.2, v = 0.2, t = 0.1)
movej(p[0.413719692005391, 0.212773852494157, 0.322157708118484, -1.283, 0.713, -0.78], a = 0.2, v = 0.2, t = 0.1)
movej(p[0.413730282708528, 0.212781251884776, 0.322151372052313, -1.283, 0.713, -0.78], a = 0.2, v = 0.2, t = 0.1)
movej(p[0.413742772778749, 0.212787525711337, 0.322147269102625, -1.283, 0.713, -0.78], a = 0.2, v = 0.2, t = 0.1)
movej(p[0.413756046584853, 0.212792167143321, 0.322144002188233, -1.283, 0.713, -0.78], a = 0.2, v = 0.2, t = 0.1)
movej(p[0.413769462552626, 0.212795407836031, 0.322139642143681, -1.283, 0.713, -0.78], a = 0.2, v = 0.2, t = 0.1)
movej(p[0.413782622397619, 0.212796797934583, 0.322134883597709, -1.283, 0.713, -0.78], a = 0.2, v = 0.2, t = 0.1)
movej(p[0.413794560371388, 0.2127958357238, 0.322130603484076, -1.283, 0.713, -0.78], a = 0.2, v = 0.2, t = 0.1)
movej(p[0.413804153886019, 0.212792667528955, 0.322125244655618, -1.283, 0.713, -0.78], a = 0.2, v = 0.2, t = 0.1)
movej(p[0.413809593701718, 0.212787732286843, 0.322118183141301, -1.283, 0.713, -0.78], a = 0.2, v = 0.2, t = 0.1)
movej(p[0.413809926833765, 0.212781696607566, 0.32210992081471, -1.283, 0.713, -0.78], a = 0.2, v = 0.2, t = 0.1)
movej(p[0.4138042823467, 0.212775218690071, 0.322100671964364, -1.283, 0.713, -0.78], a = 0.2, v = 0.2, t = 0.1)
movej(p[0.413792693194927, 0.212768881620577, 0.322089911818437, -1.283, 0.713, -0.78], a = 0.2, v = 0.2, t = 0.1)
movej(p[0.413776587254143, 0.212762692269402, 0.322077243834639, -1.283, 0.713, -0.78], a = 0.2, v = 0.2, t = 0.1)
movej(p[0.413757942919507, 0.212754989081893, 0.322064158116234, -1.283, 0.713, -0.78], a = 0.2, v = 0.2, t = 0.1)
movej(p[0.413738214826291, 0.212745416986288, 0.322051852946272, -1.283, 0.713, -0.78], a = 0.2, v = 0.2, t = 0.1)
movej(p[0.413718521165804, 0.212735095234643, 0.322040877854582, -1.283, 0.713, -0.78], a = 0.2, v = 0.2, t = 0.1)
movej(p[0.413700174409513, 0.212724662023704, 0.32203213337243, -1.283, 0.713, -0.78], a = 0.2, v = 0.2, t = 0.1)
movej(p[0.413685561458959, 0.212714280140318, 0.322028132677183, -1.283, 0.713, -0.78], a = 0.2, v = 0.2, t = 0.1)
movej(p[0.413676699530527, 0.212704355304869, 0.322029447691929, -1.283, 0.713, -0.78], a = 0.2, v = 0.2, t = 0.1)
movej(p[0.413673878222206, 0.212696633626429, 0.32203385235712, -1.283, 0.713, -0.78], a = 0.2, v = 0.2, t = 0.1)
movej(p[0.413676206568222, 0.21269260047177, 0.322039033914542, -1.283, 0.713, -0.78], a = 0.2, v = 0.2, t = 0.1)
movej(p[0.413683040715521, 0.21269159233442, 0.322045272723626, -1.283, 0.713, -0.78], a = 0.2, v = 0.2, t = 0.1)
movej(p[0.413693599963553, 0.212692968816987, 0.322053613096504, -1.283, 0.713, -0.78], a = 0.2, v = 0.2, t = 0.1)
movej(p[0.413706603247575, 0.212695423399484, 0.322063980275889, -1.283, 0.713, -0.78], a = 0.2, v = 0.2, t = 0.1)
movej(p[0.41372133162899, 0.21269898848848, 0.322076102436271, -1.283, 0.713, -0.78], a = 0.2, v = 0.2, t = 0.1)
movej(p[0.413737441945423, 0.212701457169209, 0.322089756876498, -1.283, 0.713, -0.78], a = 0.2, v = 0.2, t = 0.1)
movej(p[0.413754388669451, 0.212701922434265, 0.322102330904777, -1.283, 0.713, -0.78], a = 0.2, v = 0.2, t = 0.1)
movej(p[0.413771624306548, 0.212702224126127, 0.32211211504183, -1.283, 0.713, -0.78], a = 0.2, v = 0.2, t = 0.1)
movej(p[0.413789244572015, 0.212705577906692, 0.322118417568687, -1.283, 0.713, -0.78], a = 0.2, v = 0.2, t = 0.1)
movej(p[0.413806963264108, 0.212712211810827, 0.322123561267012, -1.283, 0.713, -0.78], a = 0.2, v = 0.2, t = 0.1)
movej(p[0.413823691201106, 0.212719867228368, 0.322129765233087, -1.283, 0.713, -0.78], a = 0.2, v = 0.2, t = 0.1)
movej(p[0.413837333299013, 0.212725725340597, 0.322136771648989, -1.283, 0.713, -0.78], a = 0.2, v = 0.2, t = 0.1)
movej(p[0.413846785219677, 0.212729035920693, 0.322141615653344, -1.283, 0.713, -0.78], a = 0.2, v = 0.2, t = 0.1)
movej(p[0.413852544932774, 0.21272952629643, 0.32214229880975, -1.283, 0.713, -0.78], a = 0.2, v = 0.2, t = 0.1)
movej(p[0.413855254080607, 0.212727879083686, 0.322138475859294, -1.283, 0.713, -0.78], a = 0.2, v = 0.2, t = 0.1)
movej(p[0.413854780266506, 0.21272557878923, 0.322131743020248, -1.283, 0.713, -0.78], a = 0.2, v = 0.2, t = 0.1)
movej(p[0.41384964753441, 0.212723282631329, 0.322124153837807, -1.283, 0.713, -0.78], a = 0.2, v = 0.2, t = 0.1)
movej(p[0.413839387384904, 0.212721135470196, 0.322116840754381, -1.283, 0.713, -0.78], a = 0.2, v = 0.2, t = 0.1)
movej(p[0.413825333998418, 0.212718675407646, 0.322109973568823, -1.283, 0.713, -0.78], a = 0.2, v = 0.2, t = 0.1)
movej(p[0.413808566010138, 0.212715141118658, 0.322103135343072, -1.283, 0.713, -0.78], a = 0.2, v = 0.2, t = 0.1)
movej(p[0.413789234761706, 0.212710533266344, 0.322096327203378, -1.283, 0.713, -0.78], a = 0.2, v = 0.2, t = 0.1)
movej(p[0.413768038734559, 0.212705893118993, 0.322090789727439, -1.283, 0.713, -0.78], a = 0.2, v = 0.2, t = 0.1)
movej(p[0.413746933327519, 0.212702048668085, 0.32208773906556, -1.283, 0.713, -0.78], a = 0.2, v = 0.2, t = 0.1)
movej(p[0.413728361029542, 0.212698666956628, 0.32208698742971, -1.283, 0.713, -0.78], a = 0.2, v = 0.2, t = 0.1)
movej(p[0.41371418667506, 0.212696173660838, 0.322087297641123, -1.283, 0.713, -0.78], a = 0.2, v = 0.2, t = 0.1)
movej(p[0.413705148137607, 0.212696092045619, 0.322088581724328, -1.283, 0.713, -0.78], a = 0.2, v = 0.2, t = 0.1)
movej(p[0.413701564633812, 0.212699186254275, 0.322092006847587, -1.283, 0.713, -0.78], a = 0.2, v = 0.2, t = 0.1)
movej(p[0.413703237797961, 0.212705485786165, 0.322097908133015, -1.283, 0.713, -0.78], a = 0.2, v = 0.2, t = 0.1)
movej(p[0.41370991485006, 0.21271492329532, 0.322105016585815, -1.283, 0.713, -0.78], a = 0.2, v = 0.2, t = 0.1)
movej(p[0.413720355488363, 0.212726524888645, 0.322113826855173, -1.283, 0.713, -0.78], a = 0.2, v = 0.2, t = 0.1)
movej(p[0.413733307885919, 0.212738758373664, 0.322122236877933, -1.283, 0.713, -0.78], a = 0.2, v = 0.2, t = 0.1)
movej(p[0.413746157032065, 0.21274954102214, 0.322128059817496, -1.283, 0.713, -0.78], a = 0.2, v = 0.2, t = 0.1)
movej(p[0.413755506855759, 0.212757695738156, 0.322130834410727, -1.283, 0.713, -0.78], a = 0.2, v = 0.2, t = 0.1)
movej(p[0.413759067992174, 0.212762865832537, 0.322131658772614, -1.283, 0.713, -0.78], a = 0.2, v = 0.2, t = 0.1)
movej(p[0.413755600597224, 0.212764990396362, 0.322130768576112, -1.283, 0.713, -0.78], a = 0.2, v = 0.2, t = 0.1)
movej(p[0.41374507763686, 0.212764979576957, 0.322127402754203, -1.283, 0.713, -0.78], a = 0.2, v = 0.2, t = 0.1)
movej(p[0.413729093568309, 0.212764651437817, 0.322120484860286, -1.283, 0.713, -0.78], a = 0.2, v = 0.2, t = 0.1)
movej(p[0.413709823879393, 0.212764809860261, 0.322111011161672, -1.283, 0.713, -0.78], a = 0.2, v = 0.2, t = 0.1)
movej(p[0.413689779956746, 0.212766220746095, 0.322099827610847, -1.283, 0.713, -0.78], a = 0.2, v = 0.2, t = 0.1)
movej(p[0.413671563661285, 0.212769188218548, 0.322088539036405, -1.283, 0.713, -0.78], a = 0.2, v = 0.2, t = 0.1)
movej(p[0.413657809403248, 0.212773804552715, 0.322077613227844, -1.283, 0.713, -0.78], a = 0.2, v = 0.2, t = 0.1)
movej(p[0.413649984651517, 0.212779520049669, 0.322067666713484, -1.283, 0.713, -0.78], a = 0.2, v = 0.2, t = 0.1)
movej(p[0.413647580781145, 0.212785657566981, 0.322059853903907, -1.283, 0.713, -0.78], a = 0.2, v = 0.2, t = 0.1)
movej(p[0.413649738031457, 0.212791367108618, 0.322054199865494, -1.283, 0.713, -0.78], a = 0.2, v = 0.2, t = 0.1)
movej(p[0.413655485902081, 0.212795847022511, 0.322050605775232, -1.283, 0.713, -0.78], a = 0.2, v = 0.2, t = 0.1)
movej(p[0.413662392556869, 0.212798566446706, 0.322049564498767, -1.283, 0.713, -0.78], a = 0.2, v = 0.2, t = 0.1)
movej(p[0.41366915972237, 0.212800490571118, 0.322051001280008, -1.283, 0.713, -0.78], a = 0.2, v = 0.2, t = 0.1)
movej(p[0.413676810309352, 0.21280367076467, 0.322054819092707, -1.283, 0.713, -0.78], a = 0.2, v = 0.2, t = 0.1)
movej(p[0.413687279305049, 0.212809173345559, 0.322061046148725, -1.283, 0.713, -0.78], a = 0.2, v = 0.2, t = 0.1)
movej(p[0.413701041040946, 0.212816494145052, 0.322069458887036, -1.283, 0.713, -0.78], a = 0.2, v = 0.2, t = 0.1)
movej(p[0.413716031110227, 0.212823919895264, 0.322079080433208, -1.283, 0.713, -0.78], a = 0.2, v = 0.2, t = 0.1)
movej(p[0.413729281222247, 0.212829310822496, 0.32208793775679, -1.283, 0.713, -0.78], a = 0.2, v = 0.2, t = 0.1)
movej(p[0.413738651321332, 0.212831137920908, 0.322092766420947, -1.283, 0.713, -0.78], a = 0.2, v = 0.2, t = 0.1)
movej(p[0.413742977795004, 0.21282915586424, 0.322091745955401, -1.283, 0.713, -0.78], a = 0.2, v = 0.2, t = 0.1)
movej(p[0.413741886400647, 0.212823116705072, 0.322084352414984, -1.283, 0.713, -0.78], a = 0.2, v = 0.2, t = 0.1)
movej(p[0.413734729099419, 0.212813675802795, 0.322071989295946, -1.283, 0.713, -0.78], a = 0.2, v = 0.2, t = 0.1)
movej(p[0.4137225784124, 0.212801797744012, 0.322056135201759, -1.283, 0.713, -0.78], a = 0.2, v = 0.2, t = 0.1)
movej(p[0.413705829630935, 0.212788018091552, 0.322039365783059, -1.283, 0.713, -0.78], a = 0.2, v = 0.2, t = 0.1)
movej(p[0.413684629789893, 0.212772823876465, 0.322024208499343, -1.283, 0.713, -0.78], a = 0.2, v = 0.2, t = 0.1)
movej(p[0.413659825910154, 0.212757208352358, 0.322010737787826, -1.283, 0.713, -0.78], a = 0.2, v = 0.2, t = 0.1)
movej(p[0.413634625350056, 0.212742594961298, 0.321998173387542, -1.283, 0.713, -0.78], a = 0.2, v = 0.2, t = 0.1)
movej(p[0.413612504038638, 0.212730482783178, 0.321987033963888, -1.283, 0.713, -0.78], a = 0.2, v = 0.2, t = 0.1)
movej(p[0.413595608692206, 0.212722040153569, 0.321977937231275, -1.283, 0.713, -0.78], a = 0.2, v = 0.2, t = 0.1)
movej(p[0.413584857688078, 0.21271733223337, 0.321972083690498, -1.283, 0.713, -0.78], a = 0.2, v = 0.2, t = 0.1)
movej(p[0.413582392718067, 0.212715543882994, 0.321971493656789, -1.283, 0.713, -0.78], a = 0.2, v = 0.2, t = 0.1)
movej(p[0.413588015301467, 0.212715866900249, 0.321976441778327, -1.283, 0.713, -0.78], a = 0.2, v = 0.2, t = 0.1)
movej(p[0.413599867960867, 0.21271815014958, 0.321984704652381, -1.283, 0.713, -0.78], a = 0.2, v = 0.2, t = 0.1)
movej(p[0.413615635397299, 0.212722748460257, 0.321994211555678, -1.283, 0.713, -0.78], a = 0.2, v = 0.2, t = 0.1)
movej(p[0.413632849314037, 0.212729325846265, 0.322005428521125, -1.283, 0.713, -0.78], a = 0.2, v = 0.2, t = 0.1)
movej(p[0.413651606488518, 0.212737463308952, 0.322019022707069, -1.283, 0.713, -0.78], a = 0.2, v = 0.2, t = 0.1)
movej(p[0.413671855976075, 0.212745741262536, 0.322033640407544, -1.283, 0.713, -0.78], a = 0.2, v = 0.2, t = 0.1)
movej(p[0.413691909215923, 0.212752023982133, 0.322046270543887, -1.283, 0.713, -0.78], a = 0.2, v = 0.2, t = 0.1)
movej(p[0.413709227954092, 0.2127545794398, 0.32205435954292, -1.283, 0.713, -0.78], a = 0.2, v = 0.2, t = 0.1)
movej(p[0.413721813392921, 0.212753770543104, 0.322057535965533, -1.283, 0.713, -0.78], a = 0.2, v = 0.2, t = 0.1)
movej(p[0.413729927963565, 0.212750800106743, 0.3220566776293, -1.283, 0.713, -0.78], a = 0.2, v = 0.2, t = 0.1)
movej(p[0.413734023334147, 0.212746691013858, 0.322053347707911, -1.283, 0.713, -0.78], a = 0.2, v = 0.2, t = 0.1)
movej(p[0.413733751585204, 0.212741581334721, 0.322047675965179, -1.283, 0.713, -0.78], a = 0.2, v = 0.2, t = 0.1)
movej(p[0.413728840967893, 0.212735657802032, 0.322040521084668, -1.283, 0.713, -0.78], a = 0.2, v = 0.2, t = 0.1)
movej(p[0.413720156678331, 0.212728767616711, 0.322032797717201, -1.283, 0.713, -0.78], a = 0.2, v = 0.2, t = 0.1)
movej(p[0.413709680371182, 0.212721472153412, 0.322025646713021, -1.283, 0.713, -0.78], a = 0.2, v = 0.2, t = 0.1)
movej(p[0.413699420602961, 0.212715513643961, 0.322020226318648, -1.283, 0.713, -0.78], a = 0.2, v = 0.2, t = 0.1)
movej(p[0.413691128869721, 0.212713169914428, 0.322017334996327, -1.283, 0.713, -0.78], a = 0.2, v = 0.2, t = 0.1)
movej(p[0.413685402703125, 0.21271600450874, 0.322017423603361, -1.283, 0.713, -0.78], a = 0.2, v = 0.2, t = 0.1)
movej(p[0.413682085685258, 0.212724093132201, 0.322019452709068, -1.283, 0.713, -0.78], a = 0.2, v = 0.2, t = 0.1)
movej(p[0.413680658938072, 0.212735832662072, 0.322023904357065, -1.283, 0.713, -0.78], a = 0.2, v = 0.2, t = 0.1)
movej(p[0.413680708743092, 0.212749229080589, 0.322032724019324, -1.283, 0.713, -0.78], a = 0.2, v = 0.2, t = 0.1)
movej(p[0.413682824217493, 0.212763736125179, 0.322046786523345, -1.283, 0.713, -0.78], a = 0.2, v = 0.2, t = 0.1)
movej(p[0.413686657422861, 0.212779423952657, 0.322063157390659, -1.283, 0.713, -0.78], a = 0.2, v = 0.2, t = 0.1)
movej(p[0.413691731046706, 0.212795735022806, 0.322078237917098, -1.283, 0.713, -0.78], a = 0.2, v = 0.2, t = 0.1)
movej(p[0.413697722562682, 0.212810449903905, 0.322090140768671, -1.283, 0.713, -0.78], a = 0.2, v = 0.2, t = 0.1)
movej(p[0.413703878561065, 0.212820222320196, 0.322099326954427, -1.283, 0.713, -0.78], a = 0.2, v = 0.2, t = 0.1)
movej(p[0.413710087768434, 0.212825463392543, 0.32210645945767, -1.283, 0.713, -0.78], a = 0.2, v = 0.2, t = 0.1)
movej(p[0.413717069140806, 0.212829323903726, 0.322110598612439, -1.283, 0.713, -0.78], a = 0.2, v = 0.2, t = 0.1)
movej(p[0.413725558249004, 0.212833773478955, 0.322111024709004, -1.283, 0.713, -0.78], a = 0.2, v = 0.2, t = 0.1)
movej(p[0.413735314440356, 0.212838865463579, 0.322107339430198, -1.283, 0.713, -0.78], a = 0.2, v = 0.2, t = 0.1)
movej(p[0.413745009017617, 0.212844761141975, 0.32209997364952, -1.283, 0.713, -0.78], a = 0.2, v = 0.2, t = 0.1)
movej(p[0.4137533592811, 0.212852234145251, 0.322090559219118, -1.283, 0.713, -0.78], a = 0.2, v = 0.2, t = 0.1)
movej(p[0.413760350369401, 0.212860952182444, 0.322081542752744, -1.283, 0.713, -0.78], a = 0.2, v = 0.2, t = 0.1)
movej(p[0.413767498193801, 0.212869828548183, 0.322073949873343, -1.283, 0.713, -0.78], a = 0.2, v = 0.2, t = 0.1)
movej(p[0.413775963430217, 0.212878618889707, 0.32206637541717, -1.283, 0.713, -0.78], a = 0.2, v = 0.2, t = 0.1)
movej(p[0.413786818882178, 0.212886696798352, 0.322056582340245, -1.283, 0.713, -0.78], a = 0.2, v = 0.2, t = 0.1)
movej(p[0.413799378777084, 0.212892673203966, 0.322045534067218, -1.283, 0.713, -0.78], a = 0.2, v = 0.2, t = 0.1)
movej(p[0.413812135848612, 0.212896093828008, 0.322034861137949, -1.283, 0.713, -0.78], a = 0.2, v = 0.2, t = 0.1)
movej(p[0.413824348695523, 0.212898538280019, 0.322025244951663, -1.283, 0.713, -0.78], a = 0.2, v = 0.2, t = 0.1)
movej(p[0.413836525486675, 0.212900899996284, 0.322016582019161, -1.283, 0.713, -0.78], a = 0.2, v = 0.2, t = 0.1)
movej(p[0.413848818569521, 0.212902740304783, 0.322008265346943, -1.283, 0.713, -0.78], a = 0.2, v = 0.2, t = 0.1)
movej(p[0.413859351871042, 0.212903201692047, 0.322000326537029, -1.283, 0.713, -0.78], a = 0.2, v = 0.2, t = 0.1)
movej(p[0.41386482212304, 0.212902495250438, 0.321993106586798, -1.283, 0.713, -0.78], a = 0.2, v = 0.2, t = 0.1)
movej(p[0.413864028960947, 0.212900847571059, 0.321987463110603, -1.283, 0.713, -0.78], a = 0.2, v = 0.2, t = 0.1)
movej(p[0.413857715763209, 0.212898798049494, 0.321981970320631, -1.283, 0.713, -0.78], a = 0.2, v = 0.2, t = 0.1)
movej(p[0.413847180034966, 0.212896568469332, 0.321976139317657, -1.283, 0.713, -0.78], a = 0.2, v = 0.2, t = 0.1)
movej(p[0.413833584388002, 0.212894311214704, 0.321970393968305, -1.283, 0.713, -0.78], a = 0.2, v = 0.2, t = 0.1)
movej(p[0.413817809990736, 0.212892005411547, 0.321965229161947, -1.283, 0.713, -0.78], a = 0.2, v = 0.2, t = 0.1)
movej(p[0.413801044877013, 0.212889586507142, 0.321961130418441, -1.283, 0.713, -0.78], a = 0.2, v = 0.2, t = 0.1)
movej(p[0.41378520453447, 0.212887583921145, 0.321959097425706, -1.283, 0.713, -0.78], a = 0.2, v = 0.2, t = 0.1)
movej(p[0.413772561623913, 0.212887610743475, 0.32196099756233, -1.283, 0.713, -0.78], a = 0.2, v = 0.2, t = 0.1)
movej(p[0.413764860248779, 0.212890664018107, 0.32196691284965, -1.283, 0.713, -0.78], a = 0.2, v = 0.2, t = 0.1)
movej(p[0.413763192433333, 0.212896576512274, 0.321974050077288, -1.283, 0.713, -0.78], a = 0.2, v = 0.2, t = 0.1)
movej(p[0.413768316965189, 0.212903459783938, 0.321980085675141, -1.283, 0.713, -0.78], a = 0.2, v = 0.2, t = 0.1)
movej(p[0.413778746443397, 0.212909862626215, 0.321985683802069, -1.283, 0.713, -0.78], a = 0.2, v = 0.2, t = 0.1)
movej(p[0.413791405514252, 0.212916121934089, 0.321992067698999, -1.283, 0.713, -0.78], a = 0.2, v = 0.2, t = 0.1)
movej(p[0.41380347222815, 0.212922844096418, 0.32199949874491, -1.283, 0.713, -0.78], a = 0.2, v = 0.2, t = 0.1)
movej(p[0.413813987520942, 0.212929365012126, 0.322006919191381, -1.283, 0.713, -0.78], a = 0.2, v = 0.2, t = 0.1)
movej(p[0.413823622176275, 0.212934851994931, 0.322010970690033, -1.283, 0.713, -0.78], a = 0.2, v = 0.2, t = 0.1)
movej(p[0.413831962104033, 0.212938675580859, 0.322010466540614, -1.283, 0.713, -0.78], a = 0.2, v = 0.2, t = 0.1)
movej(p[0.413838041049198, 0.212940791419881, 0.322005742395197, -1.283, 0.713, -0.78], a = 0.2, v = 0.2, t = 0.1)
movej(p[0.413840139761839, 0.212941403653441, 0.321997455067261, -1.283, 0.713, -0.78], a = 0.2, v = 0.2, t = 0.1)
movej(p[0.413836681260026, 0.212940251756689, 0.321985651426802, -1.283, 0.713, -0.78], a = 0.2, v = 0.2, t = 0.1)
movej(p[0.413828998875057, 0.212937219889183, 0.321970995865755, -1.283, 0.713, -0.78], a = 0.2, v = 0.2, t = 0.1)
movej(p[0.413818223993173, 0.212932019270574, 0.321955890735485, -1.283, 0.713, -0.78], a = 0.2, v = 0.2, t = 0.1)
movej(p[0.413805118151333, 0.212925096737878, 0.321942009242239, -1.283, 0.713, -0.78], a = 0.2, v = 0.2, t = 0.1)
movej(p[0.41378919967207, 0.212917494019209, 0.321930091078757, -1.283, 0.713, -0.78], a = 0.2, v = 0.2, t = 0.1)
movej(p[0.413772392776067, 0.212909965425225, 0.321918769846784, -1.283, 0.713, -0.78], a = 0.2, v = 0.2, t = 0.1)
movej(p[0.413757747984062, 0.212902938858588, 0.32190705415208, -1.283, 0.713, -0.78], a = 0.2, v = 0.2, t = 0.1)
movej(p[0.413746942606933, 0.212896591523815, 0.321895026139468, -1.283, 0.713, -0.78], a = 0.2, v = 0.2, t = 0.1)
movej(p[0.413740505910396, 0.212890508723074, 0.321884486521171, -1.283, 0.713, -0.78], a = 0.2, v = 0.2, t = 0.1)
movej(p[0.413738643569329, 0.212884840321246, 0.321876995743076, -1.283, 0.713, -0.78], a = 0.2, v = 0.2, t = 0.1)
movej(p[0.413741309978485, 0.212880073673921, 0.321871446414244, -1.283, 0.713, -0.78], a = 0.2, v = 0.2, t = 0.1)
movej(p[0.413748059405359, 0.212877477576137, 0.321867228134244, -1.283, 0.713, -0.78], a = 0.2, v = 0.2, t = 0.1)
movej(p[0.413758633043635, 0.212876861619146, 0.321864940623676, -1.283, 0.713, -0.78], a = 0.2, v = 0.2, t = 0.1)
movej(p[0.413773341488029, 0.21287746695425, 0.321862934411845, -1.283, 0.713, -0.78], a = 0.2, v = 0.2, t = 0.1)
movej(p[0.413790623359823, 0.212878974126905, 0.32186099147286, -1.283, 0.713, -0.78], a = 0.2, v = 0.2, t = 0.1)
movej(p[0.413808061992778, 0.212881665082498, 0.321858412378317, -1.283, 0.713, -0.78], a = 0.2, v = 0.2, t = 0.1)
movej(p[0.413824184796889, 0.21288482377433, 0.321854359838063, -1.283, 0.713, -0.78], a = 0.2, v = 0.2, t = 0.1)
movej(p[0.413837720160205, 0.212887238677875, 0.321849215838182, -1.283, 0.713, -0.78], a = 0.2, v = 0.2, t = 0.1)
movej(p[0.413848196205601, 0.212887184801559, 0.321843846543238, -1.283, 0.713, -0.78], a = 0.2, v = 0.2, t = 0.1)
movej(p[0.413855245191679, 0.212883488587757, 0.321839189387368, -1.283, 0.713, -0.78], a = 0.2, v = 0.2, t = 0.1)
movej(p[0.413859470438786, 0.212876535219486, 0.32183464955581, -1.283, 0.713, -0.78], a = 0.2, v = 0.2, t = 0.1)
movej(p[0.413860600439951, 0.212867268970077, 0.321829092443856, -1.283, 0.713, -0.78], a = 0.2, v = 0.2, t = 0.1)
movej(p[0.413858274928465, 0.212856829859571, 0.321821232718786, -1.283, 0.713, -0.78], a = 0.2, v = 0.2, t = 0.1)
movej(p[0.413851648502683, 0.212846557572011, 0.321810424975515, -1.283, 0.713, -0.78], a = 0.2, v = 0.2, t = 0.1)
movej(p[0.413840314279159, 0.212837111200358, 0.32179671481371, -1.283, 0.713, -0.78], a = 0.2, v = 0.2, t = 0.1)
movej(p[0.413825707641773, 0.212828186312822, 0.32178162278801, -1.283, 0.713, -0.78], a = 0.2, v = 0.2, t = 0.1)
movej(p[0.413810354561094, 0.212819729052662, 0.321766478254698, -1.283, 0.713, -0.78], a = 0.2, v = 0.2, t = 0.1)
movej(p[0.413795745647006, 0.212812595209805, 0.321752973712156, -1.283, 0.713, -0.78], a = 0.2, v = 0.2, t = 0.1)
movej(p[0.41378304796375, 0.212807929232487, 0.321743020541375, -1.283, 0.713, -0.78], a = 0.2, v = 0.2, t = 0.1)
movej(p[0.413773131503154, 0.212805392421578, 0.321737963565435, -1.283, 0.713, -0.78], a = 0.2, v = 0.2, t = 0.1)
movej(p[0.413767554798751, 0.212804421822281, 0.321736409024986, -1.283, 0.713, -0.78], a = 0.2, v = 0.2, t = 0.1)
movej(p[0.413767504714921, 0.212804887412772, 0.32173607076162, -1.283, 0.713, -0.78], a = 0.2, v = 0.2, t = 0.1)
movej(p[0.413772696718953, 0.212806768179856, 0.321735644072848, -1.283, 0.713, -0.78], a = 0.2, v = 0.2, t = 0.1)
movej(p[0.413782101617485, 0.212810001490958, 0.321735087531821, -1.283, 0.713, -0.78], a = 0.2, v = 0.2, t = 0.1)
movej(p[0.41379402469814, 0.212815106312056, 0.321735272543311, -1.283, 0.713, -0.78], a = 0.2, v = 0.2, t = 0.1)
movej(p[0.413806660005303, 0.212821848924918, 0.321735236854696, -1.283, 0.713, -0.78], a = 0.2, v = 0.2, t = 0.1)
movej(p[0.413818814694294, 0.21282857814079, 0.321733742718724, -1.283, 0.713, -0.78], a = 0.2, v = 0.2, t = 0.1)
movej(p[0.413828584351921, 0.212834160064084, 0.321730231565612, -1.283, 0.713, -0.78], a = 0.2, v = 0.2, t = 0.1)
movej(p[0.413833238099877, 0.212837880250451, 0.321725885510807, -1.283, 0.713, -0.78], a = 0.2, v = 0.2, t = 0.1)
movej(p[0.41383071160647, 0.212839600671385, 0.321722573476406, -1.283, 0.713, -0.78], a = 0.2, v = 0.2, t = 0.1)
movej(p[0.413820754354454, 0.212839249212874, 0.321721165173096, -1.283, 0.713, -0.78], a = 0.2, v = 0.2, t = 0.1)
movej(p[0.413806752801252, 0.212836639334618, 0.321721669194329, -1.283, 0.713, -0.78], a = 0.2, v = 0.2, t = 0.1)
movej(p[0.413790750314076, 0.212831774810013, 0.321722954309717, -1.283, 0.713, -0.78], a = 0.2, v = 0.2, t = 0.1)
movej(p[0.413773923257436, 0.212825835818204, 0.321723407623191, -1.283, 0.713, -0.78], a = 0.2, v = 0.2, t = 0.1)
movej(p[0.413757102604887, 0.212820004652032, 0.321721046543371, -1.283, 0.713, -0.78], a = 0.2, v = 0.2, t = 0.1)
movej(p[0.413740865109434, 0.212815041319733, 0.32171582692893, -1.283, 0.713, -0.78], a = 0.2, v = 0.2, t = 0.1)
movej(p[0.413725584833128, 0.212811089550255, 0.321709127274908, -1.283, 0.713, -0.78], a = 0.2, v = 0.2, t = 0.1)
movej(p[0.413711187191731, 0.212809371103549, 0.321703736078, -1.283, 0.713, -0.78], a = 0.2, v = 0.2, t = 0.1)
movej(p[0.413699139093444, 0.212811113624935, 0.321701804412423, -1.283, 0.713, -0.78], a = 0.2, v = 0.2, t = 0.1)
movej(p[0.41369202164779, 0.212815835512969, 0.321704450155939, -1.283, 0.713, -0.78], a = 0.2, v = 0.2, t = 0.1)
movej(p[0.413692707778021, 0.212822481893085, 0.321711917110985, -1.283, 0.713, -0.78], a = 0.2, v = 0.2, t = 0.1)
movej(p[0.413702305519533, 0.212830117982903, 0.321723573951602, -1.283, 0.713, -0.78], a = 0.2, v = 0.2, t = 0.1)
movej(p[0.413718798434632, 0.212837945066426, 0.321737534435549, -1.283, 0.713, -0.78], a = 0.2, v = 0.2, t = 0.1)
movej(p[0.413739084626219, 0.212844764008119, 0.321751634165833, -1.283, 0.713, -0.78], a = 0.2, v = 0.2, t = 0.1)
movej(p[0.413760411120188, 0.21285037072809, 0.321764351224265, -1.283, 0.713, -0.78], a = 0.2, v = 0.2, t = 0.1)
movej(p[0.413781655801876, 0.212856045918552, 0.321774577004001, -1.283, 0.713, -0.78], a = 0.2, v = 0.2, t = 0.1)
movej(p[0.413802269181874, 0.212863208648665, 0.321781089420711, -1.283, 0.713, -0.78], a = 0.2, v = 0.2, t = 0.1)
movej(p[0.413821822585092, 0.212872396793266, 0.321783440722981, -1.283, 0.713, -0.78], a = 0.2, v = 0.2, t = 0.1)
movej(p[0.413839382691932, 0.212881447123067, 0.321782598349997, -1.283, 0.713, -0.78], a = 0.2, v = 0.2, t = 0.1)
movej(p[0.413853747070492, 0.212887737066166, 0.32178044560607, -1.283, 0.713, -0.78], a = 0.2, v = 0.2, t = 0.1)
movej(p[0.413863745341748, 0.212890083272388, 0.321778312367628, -1.283, 0.713, -0.78], a = 0.2, v = 0.2, t = 0.1)
movej(p[0.413868799204261, 0.212889525217015, 0.32177527237521, -1.283, 0.713, -0.78], a = 0.2, v = 0.2, t = 0.1)
movej(p[0.413869314884774, 0.212886405412471, 0.32177029819606, -1.283, 0.713, -0.78], a = 0.2, v = 0.2, t = 0.1)
movej(p[0.4138668421172, 0.21288141314509, 0.32176367187831, -1.283, 0.713, -0.78], a = 0.2, v = 0.2, t = 0.1)
movej(p[0.413862201576695, 0.212876625388831, 0.321757451950431, -1.283, 0.713, -0.78], a = 0.2, v = 0.2, t = 0.1)
movej(p[0.413856775870168, 0.212872790897999, 0.321751899010062, -1.283, 0.713, -0.78], a = 0.2, v = 0.2, t = 0.1)
movej(p[0.413851986586664, 0.212869004554855, 0.321746716120413, -1.283, 0.713, -0.78], a = 0.2, v = 0.2, t = 0.1)
movej(p[0.413848329165519, 0.212864772815345, 0.321742557375616, -1.283, 0.713, -0.78], a = 0.2, v = 0.2, t = 0.1)
movej(p[0.413845937421327, 0.212862054948684, 0.321740686324166, -1.283, 0.713, -0.78], a = 0.2, v = 0.2, t = 0.1)
movej(p[0.41384622872277, 0.212862695063871, 0.321741451249009, -1.283, 0.713, -0.78], a = 0.2, v = 0.2, t = 0.1)
movej(p[0.413850882841825, 0.212866709043992, 0.321744810438853, -1.283, 0.713, -0.78], a = 0.2, v = 0.2, t = 0.1)
movej(p[0.413860078519998, 0.212873568399901, 0.321749033737144, -1.283, 0.713, -0.78], a = 0.2, v = 0.2, t = 0.1)
movej(p[0.413873445835276, 0.212882629266975, 0.321753079239351, -1.283, 0.713, -0.78], a = 0.2, v = 0.2, t = 0.1)
movej(p[0.413891306625099, 0.212893367046304, 0.321756902071811, -1.283, 0.713, -0.78], a = 0.2, v = 0.2, t = 0.1)
movej(p[0.413912046027832, 0.212905304518208, 0.321762160177915, -1.283, 0.713, -0.78], a = 0.2, v = 0.2, t = 0.1)
movej(p[0.413933267774213, 0.212918398216326, 0.321769911176826, -1.283, 0.713, -0.78], a = 0.2, v = 0.2, t = 0.1)
movej(p[0.413953355814055, 0.212931544993232, 0.321778301297106, -1.283, 0.713, -0.78], a = 0.2, v = 0.2, t = 0.1)
movej(p[0.413971232136245, 0.212942849797002, 0.321782338386487, -1.283, 0.713, -0.78], a = 0.2, v = 0.2, t = 0.1)
movej(p[0.41398510720823, 0.212950850136446, 0.321781322406572, -1.283, 0.713, -0.78], a = 0.2, v = 0.2, t = 0.1)
movej(p[0.413993294787086, 0.212955170110859, 0.32177716681822, -1.283, 0.713, -0.78], a = 0.2, v = 0.2, t = 0.1)
movej(p[0.413995673173095, 0.212956732061694, 0.321771963185779, -1.283, 0.713, -0.78], a = 0.2, v = 0.2, t = 0.1)
movej(p[0.413993019493565, 0.212956381218512, 0.32176571044302, -1.283, 0.713, -0.78], a = 0.2, v = 0.2, t = 0.1)
movej(p[0.413986750409987, 0.21295452812775, 0.321758834685991, -1.283, 0.713, -0.78], a = 0.2, v = 0.2, t = 0.1)
movej(p[0.413977082691819, 0.212951328560298, 0.321752216237038, -1.283, 0.713, -0.78], a = 0.2, v = 0.2, t = 0.1)
movej(p[0.413964364177075, 0.212947410446792, 0.321746359636379, -1.283, 0.713, -0.78], a = 0.2, v = 0.2, t = 0.1)
movej(p[0.413949890632153, 0.212943890199381, 0.321742052707829, -1.283, 0.713, -0.78], a = 0.2, v = 0.2, t = 0.1)
movej(p[0.413936827370911, 0.212941188183369, 0.321740918949825, -1.283, 0.713, -0.78], a = 0.2, v = 0.2, t = 0.1)
movej(p[0.413927737692899, 0.212938603691327, 0.321743029119137, -1.283, 0.713, -0.78], a = 0.2, v = 0.2, t = 0.1)
movej(p[0.413922844190348, 0.212936241977894, 0.3217479816449, -1.283, 0.713, -0.78], a = 0.2, v = 0.2, t = 0.1)
movej(p[0.413921831468019, 0.212934784485131, 0.321755590565936, -1.283, 0.713, -0.78], a = 0.2, v = 0.2, t = 0.1)
movej(p[0.413923873367092, 0.212934569074571, 0.321765426306654, -1.283, 0.713, -0.78], a = 0.2, v = 0.2, t = 0.1)
movej(p[0.413929421542043, 0.212935407575267, 0.321776810197083, -1.283, 0.713, -0.78], a = 0.2, v = 0.2, t = 0.1)
movej(p[0.413938638021886, 0.212937525427799, 0.321788668558898, -1.283, 0.713, -0.78], a = 0.2, v = 0.2, t = 0.1)
movej(p[0.413950994263752, 0.212941250918685, 0.321798260304653, -1.283, 0.713, -0.78], a = 0.2, v = 0.2, t = 0.1)
movej(p[0.413964981333095, 0.21294631277684, 0.321803404308366, -1.283, 0.713, -0.78], a = 0.2, v = 0.2, t = 0.1)
movej(p[0.413978747267114, 0.212952720282838, 0.321803543794816, -1.283, 0.713, -0.78], a = 0.2, v = 0.2, t = 0.1)
movej(p[0.413990962123749, 0.212959698282369, 0.321800465780204, -1.283, 0.713, -0.78], a = 0.2, v = 0.2, t = 0.1)
movej(p[0.41400055355059, 0.212965714255545, 0.32179650704974, -1.283, 0.713, -0.78], a = 0.2, v = 0.2, t = 0.1)
movej(p[0.414006899501253, 0.212968880124532, 0.321792916459852, -1.283, 0.713, -0.78], a = 0.2, v = 0.2, t = 0.1)
movej(p[0.414009399080283, 0.212968433353458, 0.321788565616683, -1.283, 0.713, -0.78], a = 0.2, v = 0.2, t = 0.1)
movej(p[0.414008370238076, 0.212965287557025, 0.321780904495778, -1.283, 0.713, -0.78], a = 0.2, v = 0.2, t = 0.1)
movej(p[0.414003784501575, 0.212960914427727, 0.32176960747237, -1.283, 0.713, -0.78], a = 0.2, v = 0.2, t = 0.1)
movej(p[0.413995158383825, 0.212956087004661, 0.321755716144712, -1.283, 0.713, -0.78], a = 0.2, v = 0.2, t = 0.1)
movej(p[0.413982376069966, 0.212950150326377, 0.321740390046078, -1.283, 0.713, -0.78], a = 0.2, v = 0.2, t = 0.1)
movej(p[0.413965183804626, 0.21294229460491, 0.321724073778161, -1.283, 0.713, -0.78], a = 0.2, v = 0.2, t = 0.1)
movej(p[0.413944638529949, 0.212932686428542, 0.321707071161059, -1.283, 0.713, -0.78], a = 0.2, v = 0.2, t = 0.1)
movej(p[0.413922871669357, 0.212922279401542, 0.321690043275019, -1.283, 0.713, -0.78], a = 0.2, v = 0.2, t = 0.1)
movej(p[0.413902341276134, 0.212912521733534, 0.321674488780422, -1.283, 0.713, -0.78], a = 0.2, v = 0.2, t = 0.1)
movej(p[0.413884467008808, 0.212905105485658, 0.32166245742817, -1.283, 0.713, -0.78], a = 0.2, v = 0.2, t = 0.1)
movej(p[0.413870156456107, 0.212901017913127, 0.321655617034454, -1.283, 0.713, -0.78], a = 0.2, v = 0.2, t = 0.1)
movej(p[0.413859745750748, 0.212900124163266, 0.321656118586153, -1.283, 0.713, -0.78], a = 0.2, v = 0.2, t = 0.1)
movej(p[0.413854123137865, 0.212902234400318, 0.321663389746854, -1.283, 0.713, -0.78], a = 0.2, v = 0.2, t = 0.1)
movej(p[0.413853646219297, 0.212906712380066, 0.321675049914909, -1.283, 0.713, -0.78], a = 0.2, v = 0.2, t = 0.1)
movej(p[0.413858417906642, 0.212912027655573, 0.321688110446413, -1.283, 0.713, -0.78], a = 0.2, v = 0.2, t = 0.1)
movej(p[0.413866870747933, 0.212916393002558, 0.321700278664393, -1.283, 0.713, -0.78], a = 0.2, v = 0.2, t = 0.1)
movej(p[0.41387698283166, 0.212918554673163, 0.321709824733264, -1.283, 0.713, -0.78], a = 0.2, v = 0.2, t = 0.1)
movej(p[0.413887005383427, 0.212918502667167, 0.321714613258658, -1.283, 0.713, -0.78], a = 0.2, v = 0.2, t = 0.1)
movej(p[0.413895925134453, 0.212916434127414, 0.321714309528645, -1.283, 0.713, -0.78], a = 0.2, v = 0.2, t = 0.1)
movej(p[0.41390202824489, 0.212913104062417, 0.321708678851678, -1.283, 0.713, -0.78], a = 0.2, v = 0.2, t = 0.1)
movej(p[0.413903781097079, 0.21290849592515, 0.321699776887281, -1.283, 0.713, -0.78], a = 0.2, v = 0.2, t = 0.1)
movej(p[0.413899784834858, 0.212902921548016, 0.321690732080272, -1.283, 0.713, -0.78], a = 0.2, v = 0.2, t = 0.1)
movej(p[0.413889336516757, 0.212897159465021, 0.321683112522515, -1.283, 0.713, -0.78], a = 0.2, v = 0.2, t = 0.1)
movej(p[0.41387259936521, 0.212892188980449, 0.321676597026277, -1.283, 0.713, -0.78], a = 0.2, v = 0.2, t = 0.1)
movej(p[0.41385097971601, 0.212887653196195, 0.321668825986213, -1.283, 0.713, -0.78], a = 0.2, v = 0.2, t = 0.1)
movej(p[0.413826673325445, 0.212882806341726, 0.321658488120648, -1.283, 0.713, -0.78], a = 0.2, v = 0.2, t = 0.1)
movej(p[0.413801085121956, 0.212876834092955, 0.32164733864847, -1.283, 0.713, -0.78], a = 0.2, v = 0.2, t = 0.1)
movej(p[0.413775805979231, 0.212869110562737, 0.321636969225484, -1.283, 0.713, -0.78], a = 0.2, v = 0.2, t = 0.1)
movej(p[0.413752551763242, 0.212860434649319, 0.321628038918878, -1.283, 0.713, -0.78], a = 0.2, v = 0.2, t = 0.1)
movej(p[0.413732860923845, 0.212852225604096, 0.321620793106959, -1.283, 0.713, -0.78], a = 0.2, v = 0.2, t = 0.1)
movej(p[0.413717019404672, 0.212846801076971, 0.321615650849597, -1.283, 0.713, -0.78], a = 0.2, v = 0.2, t = 0.1)
movej(p[0.413704996971788, 0.212844768818362, 0.321613505953446, -1.283, 0.713, -0.78], a = 0.2, v = 0.2, t = 0.1)
movej(p[0.413696828723309, 0.212846311981636, 0.321615764629361, -1.283, 0.713, -0.78], a = 0.2, v = 0.2, t = 0.1)
movej(p[0.413693332545979, 0.212851120235779, 0.321621431948231, -1.283, 0.713, -0.78], a = 0.2, v = 0.2, t = 0.1)
movej(p[0.413694735135445, 0.212859261288199, 0.321628457395781, -1.283, 0.713, -0.78], a = 0.2, v = 0.2, t = 0.1)
movej(p[0.413699883608253, 0.212870066019995, 0.321635495772907, -1.283, 0.713, -0.78], a = 0.2, v = 0.2, t = 0.1)
movej(p[0.413707289227747, 0.212882173017435, 0.321642391352861, -1.283, 0.713, -0.78], a = 0.2, v = 0.2, t = 0.1)
movej(p[0.413715429062924, 0.21289359377634, 0.321649098383076, -1.283, 0.713, -0.78], a = 0.2, v = 0.2, t = 0.1)
movej(p[0.413722995585117, 0.212901354100287, 0.321655262368974, -1.283, 0.713, -0.78], a = 0.2, v = 0.2, t = 0.1)
movej(p[0.413728058442775, 0.212904177787509, 0.321661153082582, -1.283, 0.713, -0.78], a = 0.2, v = 0.2, t = 0.1)
movej(p[0.413728951707268, 0.212902828695573, 0.321668211457076, -1.283, 0.713, -0.78], a = 0.2, v = 0.2, t = 0.1)
movej(p[0.413724951823437, 0.212898291635961, 0.321675232594833, -1.283, 0.713, -0.78], a = 0.2, v = 0.2, t = 0.1)
movej(p[0.413716286949384, 0.212891837077252, 0.321679921015412, -1.283, 0.713, -0.78], a = 0.2, v = 0.2, t = 0.1)
movej(p[0.413704271251997, 0.212884027899132, 0.321681244599704, -1.283, 0.713, -0.78], a = 0.2, v = 0.2, t = 0.1)
movej(p[0.413691256932261, 0.212873916187547, 0.321679269600808, -1.283, 0.713, -0.78], a = 0.2, v = 0.2, t = 0.1)
movej(p[0.413679224633906, 0.212861322435058, 0.321674959539609, -1.283, 0.713, -0.78], a = 0.2, v = 0.2, t = 0.1)
movej(p[0.41366835210864, 0.21284767774741, 0.321670650299383, -1.283, 0.713, -0.78], a = 0.2, v = 0.2, t = 0.1)
movej(p[0.413658520757682, 0.21283601496386, 0.321667271362983, -1.283, 0.713, -0.78], a = 0.2, v = 0.2, t = 0.1)
movej(p[0.413650136337741, 0.212826909948701, 0.321666440715515, -1.283, 0.713, -0.78], a = 0.2, v = 0.2, t = 0.1)
movej(p[0.413643299019951, 0.212819445789099, 0.321668809146193, -1.283, 0.713, -0.78], a = 0.2, v = 0.2, t = 0.1)
movej(p[0.413638181187072, 0.212813910585418, 0.321675242599219, -1.283, 0.713, -0.78], a = 0.2, v = 0.2, t = 0.1)
movej(p[0.413635285043704, 0.212811129129669, 0.321685842832542, -1.283, 0.713, -0.78], a = 0.2, v = 0.2, t = 0.1)
movej(p[0.413635098291724, 0.212811313738093, 0.32169878041792, -1.283, 0.713, -0.78], a = 0.2, v = 0.2, t = 0.1)
movej(p[0.413638212383784, 0.212813203128781, 0.321711317908238, -1.283, 0.713, -0.78], a = 0.2, v = 0.2, t = 0.1)
movej(p[0.413643999325081, 0.212815151487847, 0.32172238193302, -1.283, 0.713, -0.78], a = 0.2, v = 0.2, t = 0.1)
movej(p[0.413651309911902, 0.212816269294409, 0.321732874801209, -1.283, 0.713, -0.78], a = 0.2, v = 0.2, t = 0.1)
movej(p[0.413658384973861, 0.212816035708606, 0.321742808148427, -1.283, 0.713, -0.78], a = 0.2, v = 0.2, t = 0.1)
movej(p[0.41366463301069, 0.212814702853123, 0.321750880694311, -1.283, 0.713, -0.78], a = 0.2, v = 0.2, t = 0.1)
movej(p[0.413670700126814, 0.212813123652237, 0.321755504791465, -1.283, 0.713, -0.78], a = 0.2, v = 0.2, t = 0.1)
movej(p[0.413674562255157, 0.21281295095578, 0.321757594633467, -1.283, 0.713, -0.78], a = 0.2, v = 0.2, t = 0.1)
movej(p[0.413673815199045, 0.212814464790928, 0.321759133244305, -1.283, 0.713, -0.78], a = 0.2, v = 0.2, t = 0.1)
movej(p[0.413667672205021, 0.212815840564395, 0.321761474200476, -1.283, 0.713, -0.78], a = 0.2, v = 0.2, t = 0.1)
movej(p[0.413657640573929, 0.212815860325778, 0.321764355796062, -1.283, 0.713, -0.78], a = 0.2, v = 0.2, t = 0.1)
movej(p[0.413644728508704, 0.212814246635924, 0.321766222324034, -1.283, 0.713, -0.78], a = 0.2, v = 0.2, t = 0.1)
movej(p[0.413629233458988, 0.212811581791635, 0.321766501403274, -1.283, 0.713, -0.78], a = 0.2, v = 0.2, t = 0.1)
movej(p[0.413611754818245, 0.212807932550836, 0.321766155115305, -1.283, 0.713, -0.78], a = 0.2, v = 0.2, t = 0.1)
movej(p[0.413593805160194, 0.212804132862151, 0.321766103873314, -1.283, 0.713, -0.78], a = 0.2, v = 0.2, t = 0.1)
movej(p[0.413576734561245, 0.212801207725669, 0.321765696431187, -1.283, 0.713, -0.78], a = 0.2, v = 0.2, t = 0.1)
movej(p[0.413562271027577, 0.212799572705502, 0.321762971540566, -1.283, 0.713, -0.78], a = 0.2, v = 0.2, t = 0.1)
movej(p[0.41355139434777, 0.212798911943386, 0.321758127771084, -1.283, 0.713, -0.78], a = 0.2, v = 0.2, t = 0.1)
movej(p[0.413543328968821, 0.212799252857426, 0.321752633077367, -1.283, 0.713, -0.78], a = 0.2, v = 0.2, t = 0.1)
movej(p[0.413536772859545, 0.212800798040709, 0.32174816221696, -1.283, 0.713, -0.78], a = 0.2, v = 0.2, t = 0.1)
movej(p[0.413531946329877, 0.212803216598561, 0.321746355460952, -1.283, 0.713, -0.78], a = 0.2, v = 0.2, t = 0.1)
movej(p[0.413530510154236, 0.212805395909741, 0.321748440306104, -1.283, 0.713, -0.78], a = 0.2, v = 0.2, t = 0.1)
movej(p[0.413532847805993, 0.212807434635769, 0.32175503037207, -1.283, 0.713, -0.78], a = 0.2, v = 0.2, t = 0.1)
movej(p[0.413538209832368, 0.212809924065294, 0.32176412461106, -1.283, 0.713, -0.78], a = 0.2, v = 0.2, t = 0.1)
movej(p[0.41354572238856, 0.212813241189352, 0.321774036999341, -1.283, 0.713, -0.78], a = 0.2, v = 0.2, t = 0.1)
movej(p[0.413555700556843, 0.212817029207453, 0.321782565118569, -1.283, 0.713, -0.78], a = 0.2, v = 0.2, t = 0.1)
movej(p[0.413567612505747, 0.21282095106581, 0.321789114739806, -1.283, 0.713, -0.78], a = 0.2, v = 0.2, t = 0.1)
movej(p[0.413579518533898, 0.212824470350959, 0.321793697660568, -1.283, 0.713, -0.78], a = 0.2, v = 0.2, t = 0.1)
movej(p[0.413589829711109, 0.212827589173286, 0.321796633437436, -1.283, 0.713, -0.78], a = 0.2, v = 0.2, t = 0.1)
movej(p[0.41359839960764, 0.212829481678501, 0.321797498139961, -1.283, 0.713, -0.78], a = 0.2, v = 0.2, t = 0.1)
movej(p[0.413605439454206, 0.212829122210153, 0.321796227057811, -1.283, 0.713, -0.78], a = 0.2, v = 0.2, t = 0.1)
movej(p[0.41361080122562, 0.212826317248463, 0.321793215929082, -1.283, 0.713, -0.78], a = 0.2, v = 0.2, t = 0.1)
movej(p[0.413613582438398, 0.212821388045508, 0.321788383337157, -1.283, 0.713, -0.78], a = 0.2, v = 0.2, t = 0.1)
movej(p[0.413613206753894, 0.212814388189495, 0.321781806974184, -1.283, 0.713, -0.78], a = 0.2, v = 0.2, t = 0.1)
movej(p[0.41360953142174, 0.212805513638585, 0.321772948888742, -1.283, 0.713, -0.78], a = 0.2, v = 0.2, t = 0.1)
movej(p[0.413601931379308, 0.212795220313261, 0.321762149749619, -1.283, 0.713, -0.78], a = 0.2, v = 0.2, t = 0.1)
movej(p[0.413590939748983, 0.212784719957775, 0.321750189903781, -1.283, 0.713, -0.78], a = 0.2, v = 0.2, t = 0.1)
movej(p[0.413577693828004, 0.212774529694871, 0.321737544079633, -1.283, 0.713, -0.78], a = 0.2, v = 0.2, t = 0.1)
movej(p[0.413563650056285, 0.212765071496244, 0.321725195348215, -1.283, 0.713, -0.78], a = 0.2, v = 0.2, t = 0.1)
movej(p[0.41354999506439, 0.212757709143644, 0.321714716229238, -1.283, 0.713, -0.78], a = 0.2, v = 0.2, t = 0.1)
movej(p[0.413538220696905, 0.212753202958903, 0.321707855553294, -1.283, 0.713, -0.78], a = 0.2, v = 0.2, t = 0.1)
movej(p[0.413529599289678, 0.212751554520769, 0.321704450443143, -1.283, 0.713, -0.78], a = 0.2, v = 0.2, t = 0.1)
movej(p[0.413524727946531, 0.212752824564572, 0.321703102498898, -1.283, 0.713, -0.78], a = 0.2, v = 0.2, t = 0.1)
movej(p[0.413523862704394, 0.212756241497367, 0.321704986063955, -1.283, 0.713, -0.78], a = 0.2, v = 0.2, t = 0.1)
movej(p[0.413527316353218, 0.21276041463716, 0.321710733352713, -1.283, 0.713, -0.78], a = 0.2, v = 0.2, t = 0.1)
movej(p[0.413534613249514, 0.21276442681694, 0.321718812596605, -1.283, 0.713, -0.78], a = 0.2, v = 0.2, t = 0.1)
movej(p[0.413544379364949, 0.21276865407156, 0.32172641655358, -1.283, 0.713, -0.78], a = 0.2, v = 0.2, t = 0.1)
movej(p[0.413555019628564, 0.212773451372659, 0.321732961222126, -1.283, 0.713, -0.78], a = 0.2, v = 0.2, t = 0.1)
movej(p[0.413565159141122, 0.212778034000179, 0.321739349475729, -1.283, 0.713, -0.78], a = 0.2, v = 0.2, t = 0.1)
movej(p[0.413573873773716, 0.212782075565307, 0.321746112827418, -1.283, 0.713, -0.78], a = 0.2, v = 0.2, t = 0.1)
movej(p[0.413580017979032, 0.212785358024985, 0.321754236490661, -1.283, 0.713, -0.78], a = 0.2, v = 0.2, t = 0.1)
movej(p[0.413582709231551, 0.212787817266011, 0.321763277732802, -1.283, 0.713, -0.78], a = 0.2, v = 0.2, t = 0.1)
movej(p[0.413581237497171, 0.212789074477314, 0.32177163914289, -1.283, 0.713, -0.78], a = 0.2, v = 0.2, t = 0.1)
movej(p[0.413576108401433, 0.212788491327157, 0.321776546986185, -1.283, 0.713, -0.78], a = 0.2, v = 0.2, t = 0.1)
movej(p[0.41356796830335, 0.212785515414666, 0.321776777971101, -1.283, 0.713, -0.78], a = 0.2, v = 0.2, t = 0.1)
movej(p[0.413556699747776, 0.212780555510559, 0.3217733867444, -1.283, 0.713, -0.78], a = 0.2, v = 0.2, t = 0.1)
movej(p[0.413542393430432, 0.212774388089878, 0.321766978033126, -1.283, 0.713, -0.78], a = 0.2, v = 0.2, t = 0.1)
movej(p[0.41352662655135, 0.212767027471105, 0.321757665903225, -1.283, 0.713, -0.78], a = 0.2, v = 0.2, t = 0.1)
movej(p[0.413510589712617, 0.212758480310204, 0.32174654506396, -1.283, 0.713, -0.78], a = 0.2, v = 0.2, t = 0.1)
movej(p[0.413494219637529, 0.212750149542379, 0.321736378759957, -1.283, 0.713, -0.78], a = 0.2, v = 0.2, t = 0.1)
movej(p[0.413478402365349, 0.212743393389055, 0.321729291491862, -1.283, 0.713, -0.78], a = 0.2, v = 0.2, t = 0.1)
movej(p[0.413463655170751, 0.212737332988003, 0.32172582717612, -1.283, 0.713, -0.78], a = 0.2, v = 0.2, t = 0.1)
movej(p[0.413451968190087, 0.212732223705361, 0.32172506697954, -1.283, 0.713, -0.78], a = 0.2, v = 0.2, t = 0.1)
movej(p[0.413445729052866, 0.212728639140277, 0.321727141314347, -1.283, 0.713, -0.78], a = 0.2, v = 0.2, t = 0.1)
movej(p[0.413446261126798, 0.212726670739758, 0.321730697656109, -1.283, 0.713, -0.78], a = 0.2, v = 0.2, t = 0.1)
movej(p[0.413453300646361, 0.212725627774431, 0.321734636546011, -1.283, 0.713, -0.78], a = 0.2, v = 0.2, t = 0.1)
movej(p[0.413464440965846, 0.212725396855653, 0.321737982085769, -1.283, 0.713, -0.78], a = 0.2, v = 0.2, t = 0.1)
movej(p[0.413477450323414, 0.212726714864731, 0.321740485540529, -1.283, 0.713, -0.78], a = 0.2, v = 0.2, t = 0.1)
movej(p[0.413491440110468, 0.212728665831157, 0.321742533921646, -1.283, 0.713, -0.78], a = 0.2, v = 0.2, t = 0.1)
movej(p[0.413505612350276, 0.21272969285767, 0.321745603369378, -1.283, 0.713, -0.78], a = 0.2, v = 0.2, t = 0.1)
movej(p[0.413518683346702, 0.212729254272573, 0.32174986246606, -1.283, 0.713, -0.78], a = 0.2, v = 0.2, t = 0.1)
movej(p[0.413528663052422, 0.212727875067538, 0.321753704015252, -1.283, 0.713, -0.78], a = 0.2, v = 0.2, t = 0.1)
movej(p[0.413534249324099, 0.212725858325305, 0.321756064779646, -1.283, 0.713, -0.78], a = 0.2, v = 0.2, t = 0.1)
movej(p[0.413535170199184, 0.212722982946501, 0.321755697140131, -1.283, 0.713, -0.78], a = 0.2, v = 0.2, t = 0.1)
movej(p[0.413531227868963, 0.212718771866004, 0.321751370499463, -1.283, 0.713, -0.78], a = 0.2, v = 0.2, t = 0.1)
movej(p[0.413523515215114, 0.212713692626511, 0.321739491922706, -1.283, 0.713, -0.78], a = 0.2, v = 0.2, t = 0.1)
movej(p[0.413513409069466, 0.212707459843129, 0.321720217907725, -1.283, 0.713, -0.78], a = 0.2, v = 0.2, t = 0.1)
movej(p[0.413502219191594, 0.212699630571096, 0.321697124538945, -1.283, 0.713, -0.78], a = 0.2, v = 0.2, t = 0.1)
movej(p[0.413490576543144, 0.212690121216434, 0.321673814628799, -1.283, 0.713, -0.78], a = 0.2, v = 0.2, t = 0.1)
movej(p[0.41347876810621, 0.212680852928793, 0.321653564298669, -1.283, 0.713, -0.78], a = 0.2, v = 0.2, t = 0.1)
movej(p[0.413467159259729, 0.212673856048772, 0.32163793591608, -1.283, 0.713, -0.78], a = 0.2, v = 0.2, t = 0.1)
movej(p[0.413456920233181, 0.212669085159107, 0.321626919419579, -1.283, 0.713, -0.78], a = 0.2, v = 0.2, t = 0.1)
movej(p[0.413449345749138, 0.212665921454422, 0.321621185086998, -1.283, 0.713, -0.78], a = 0.2, v = 0.2, t = 0.1)
movej(p[0.413446247550368, 0.212664399577277, 0.321619820071124, -1.283, 0.713, -0.78], a = 0.2, v = 0.2, t = 0.1)
movej(p[0.413448258253128, 0.212665074435462, 0.321620308811181, -1.283, 0.713, -0.78], a = 0.2, v = 0.2, t = 0.1)
movej(p[0.413455319962164, 0.212666525426155, 0.321620293015887, -1.283, 0.713, -0.78], a = 0.2, v = 0.2, t = 0.1)
movej(p[0.413466203213462, 0.212667055173577, 0.321620504003704, -1.283, 0.713, -0.78], a = 0.2, v = 0.2, t = 0.1)
movej(p[0.413479641878774, 0.212665777878296, 0.321620858584306, -1.283, 0.713, -0.78], a = 0.2, v = 0.2, t = 0.1)
movej(p[0.413495681906773, 0.212663329302055, 0.321618405785867, -1.283, 0.713, -0.78], a = 0.2, v = 0.2, t = 0.1)
movej(p[0.413513488809758, 0.212660622927488, 0.32161147368382, -1.283, 0.713, -0.78], a = 0.2, v = 0.2, t = 0.1)
movej(p[0.413530685238693, 0.212658573923019, 0.321601503384448, -1.283, 0.713, -0.78], a = 0.2, v = 0.2, t = 0.1)
movej(p[0.41354541479066, 0.212658047064659, 0.321591406873956, -1.283, 0.713, -0.78], a = 0.2, v = 0.2, t = 0.1)
movej(p[0.413556911944109, 0.212659288290457, 0.321584079785647, -1.283, 0.713, -0.78], a = 0.2, v = 0.2, t = 0.1)
movej(p[0.413563935294194, 0.212662248643739, 0.321581520531455, -1.283, 0.713, -0.78], a = 0.2, v = 0.2, t = 0.1)
movej(p[0.413566130598597, 0.212666254173955, 0.321582959757731, -1.283, 0.713, -0.78], a = 0.2, v = 0.2, t = 0.1)
movej(p[0.413564249186545, 0.21266977122133, 0.321584627059578, -1.283, 0.713, -0.78], a = 0.2, v = 0.2, t = 0.1)
movej(p[0.413559145501967, 0.212671547552637, 0.321584427360265, -1.283, 0.713, -0.78], a = 0.2, v = 0.2, t = 0.1)
movej(p[0.413550825309472, 0.212670441158609, 0.321583160529532, -1.283, 0.713, -0.78], a = 0.2, v = 0.2, t = 0.1)
movej(p[0.41353864036961, 0.212666592479069, 0.321581745986367, -1.283, 0.713, -0.78], a = 0.2, v = 0.2, t = 0.1)
movej(p[0.41352306291838, 0.212660432226004, 0.321580090874178, -1.283, 0.713, -0.78], a = 0.2, v = 0.2, t = 0.1)
movej(p[0.413505182608134, 0.21265252292084, 0.321577376735029, -1.283, 0.713, -0.78], a = 0.2, v = 0.2, t = 0.1)
movej(p[0.413486159574002, 0.212644127697505, 0.321573250761381, -1.283, 0.713, -0.78], a = 0.2, v = 0.2, t = 0.1)
movej(p[0.41346687956506, 0.212636840851349, 0.321567775185949, -1.283, 0.713, -0.78], a = 0.2, v = 0.2, t = 0.1)
movej(p[0.413448670860318, 0.212632094856356, 0.321560649177941, -1.283, 0.713, -0.78], a = 0.2, v = 0.2, t = 0.1)
movej(p[0.413433745895212, 0.212629967207437, 0.321552039668392, -1.283, 0.713, -0.78], a = 0.2, v = 0.2, t = 0.1)
movej(p[0.413424362732325, 0.212630029375368, 0.321543142014185, -1.283, 0.713, -0.78], a = 0.2, v = 0.2, t = 0.1)
movej(p[0.413421287068682, 0.212631798487035, 0.321535870850175, -1.283, 0.713, -0.78], a = 0.2, v = 0.2, t = 0.1)
movej(p[0.413423635301958, 0.212635605403691, 0.321530696256948, -1.283, 0.713, -0.78], a = 0.2, v = 0.2, t = 0.1)
movej(p[0.413429892410055, 0.21264179036774, 0.321527941706536, -1.283, 0.713, -0.78], a = 0.2, v = 0.2, t = 0.1)
movej(p[0.413439039703896, 0.212649442028961, 0.321527601339168, -1.283, 0.713, -0.78], a = 0.2, v = 0.2, t = 0.1)
movej(p[0.413451037988936, 0.212656819925137, 0.321530310790791, -1.283, 0.713, -0.78], a = 0.2, v = 0.2, t = 0.1)
movej(p[0.413465896272947, 0.212662726522724, 0.321535077248092, -1.283, 0.713, -0.78], a = 0.2, v = 0.2, t = 0.1)
movej(p[0.413483480520987, 0.212668314288392, 0.321539804242561, -1.283, 0.713, -0.78], a = 0.2, v = 0.2, t = 0.1)
movej(p[0.413502208022381, 0.212674050529347, 0.321543808223987, -1.283, 0.713, -0.78], a = 0.2, v = 0.2, t = 0.1)
movej(p[0.413520641165033, 0.212678974236028, 0.321547491258398, -1.283, 0.713, -0.78], a = 0.2, v = 0.2, t = 0.1)
movej(p[0.413538787104068, 0.212682297833384, 0.321550997523952, -1.283, 0.713, -0.78], a = 0.2, v = 0.2, t = 0.1)
movej(p[0.413557047680575, 0.212684146592163, 0.321554633917993, -1.283, 0.713, -0.78], a = 0.2, v = 0.2, t = 0.1)
movej(p[0.413575423083469, 0.212685444200697, 0.321558673828213, -1.283, 0.713, -0.78], a = 0.2, v = 0.2, t = 0.1)
movej(p[0.413591642883965, 0.212687359706125, 0.321562187804282, -1.283, 0.713, -0.78], a = 0.2, v = 0.2, t = 0.1)
movej(p[0.413603058964087, 0.212689853442908, 0.321564261144705, -1.283, 0.713, -0.78], a = 0.2, v = 0.2, t = 0.1)
movej(p[0.413608524710246, 0.212691513157116, 0.321564466643306, -1.283, 0.713, -0.78], a = 0.2, v = 0.2, t = 0.1)
movej(p[0.413607936540251, 0.212691536100536, 0.321564098516077, -1.283, 0.713, -0.78], a = 0.2, v = 0.2, t = 0.1)
movej(p[0.413602057675023, 0.212690512548054, 0.321562105021421, -1.283, 0.713, -0.78], a = 0.2, v = 0.2, t = 0.1)
movej(p[0.413592019218996, 0.212689258824627, 0.321558792030753, -1.283, 0.713, -0.78], a = 0.2, v = 0.2, t = 0.1)
movej(p[0.413580307562733, 0.212687167481598, 0.321553908605631, -1.283, 0.713, -0.78], a = 0.2, v = 0.2, t = 0.1)
movej(p[0.413569150924943, 0.212683983994432, 0.321547180832473, -1.283, 0.713, -0.78], a = 0.2, v = 0.2, t = 0.1)
movej(p[0.413559189572157, 0.212679963912929, 0.321538737062616, -1.283, 0.713, -0.78], a = 0.2, v = 0.2, t = 0.1)
movej(p[0.413550052756001, 0.212675419827859, 0.321530545232454, -1.283, 0.713, -0.78], a = 0.2, v = 0.2, t = 0.1)
movej(p[0.413541342832451, 0.212670624945821, 0.321524215938892, -1.283, 0.713, -0.78], a = 0.2, v = 0.2, t = 0.1)
movej(p[0.413532783963647, 0.212666594678664, 0.321521456109651, -1.283, 0.713, -0.78], a = 0.2, v = 0.2, t = 0.1)
movej(p[0.413524644290745, 0.212664352767466, 0.321522785368177, -1.283, 0.713, -0.78], a = 0.2, v = 0.2, t = 0.1)
movej(p[0.413518156036306, 0.212663488665013, 0.321527478878941, -1.283, 0.713, -0.78], a = 0.2, v = 0.2, t = 0.1)
movej(p[0.413514580776925, 0.212663121717395, 0.321534120347062, -1.283, 0.713, -0.78], a = 0.2, v = 0.2, t = 0.1)
movej(p[0.413515423902638, 0.212663121435393, 0.321540593305578, -1.283, 0.713, -0.78], a = 0.2, v = 0.2, t = 0.1)
movej(p[0.413521876476345, 0.212663362071726, 0.321546894178193, -1.283, 0.713, -0.78], a = 0.2, v = 0.2, t = 0.1)
movej(p[0.413533023398947, 0.212664241072789, 0.32155337461673, -1.283, 0.713, -0.78], a = 0.2, v = 0.2, t = 0.1)
movej(p[0.413546756052975, 0.21266656323086, 0.321559050787996, -1.283, 0.713, -0.78], a = 0.2, v = 0.2, t = 0.1)
movej(p[0.413561361699325, 0.212670873185385, 0.321563215555059, -1.283, 0.713, -0.78], a = 0.2, v = 0.2, t = 0.1)
movej(p[0.413576389234741, 0.212676459454399, 0.321565631401042, -1.283, 0.713, -0.78], a = 0.2, v = 0.2, t = 0.1)
movej(p[0.413590613708829, 0.21268226776322, 0.321566642034293, -1.283, 0.713, -0.78], a = 0.2, v = 0.2, t = 0.1)
movej(p[0.413602178812184, 0.212688158148359, 0.321566042988138, -1.283, 0.713, -0.78], a = 0.2, v = 0.2, t = 0.1)
movej(p[0.413609782993032, 0.212693593236048, 0.321563233433644, -1.283, 0.713, -0.78], a = 0.2, v = 0.2, t = 0.1)
movej(p[0.413612651758619, 0.212697844061585, 0.321558469430258, -1.283, 0.713, -0.78], a = 0.2, v = 0.2, t = 0.1)
movej(p[0.413610920428862, 0.212699931924485, 0.321552804429395, -1.283, 0.713, -0.78], a = 0.2, v = 0.2, t = 0.1)
movej(p[0.413606338123024, 0.212698730479062, 0.321546015845809, -1.283, 0.713, -0.78], a = 0.2, v = 0.2, t = 0.1)
movej(p[0.413599405069036, 0.212693555879411, 0.321537922680059, -1.283, 0.713, -0.78], a = 0.2, v = 0.2, t = 0.1)
movej(p[0.413589751522846, 0.212685426757421, 0.321527718899013, -1.283, 0.713, -0.78], a = 0.2, v = 0.2, t = 0.1)
movej(p[0.413575959865307, 0.212676419440385, 0.321515693047187, -1.283, 0.713, -0.78], a = 0.2, v = 0.2, t = 0.1)
movej(p[0.413558504291176, 0.212667766789497, 0.321503771933759, -1.283, 0.713, -0.78], a = 0.2, v = 0.2, t = 0.1)
movej(p[0.413539153058552, 0.212659442439549, 0.321493245152919, -1.283, 0.713, -0.78], a = 0.2, v = 0.2, t = 0.1)
movej(p[0.413519803158723, 0.212651867698345, 0.321483834661896, -1.283, 0.713, -0.78], a = 0.2, v = 0.2, t = 0.1)
movej(p[0.413502348494242, 0.212645203147464, 0.321474582589781, -1.283, 0.713, -0.78], a = 0.2, v = 0.2, t = 0.1)
movej(p[0.413487681435376, 0.212639430855019, 0.321465978270566, -1.283, 0.713, -0.78], a = 0.2, v = 0.2, t = 0.1)
movej(p[0.413477273740321, 0.212633667451656, 0.321459669184871, -1.283, 0.713, -0.78], a = 0.2, v = 0.2, t = 0.1)
movej(p[0.413471970135409, 0.212628106645284, 0.321456050700459, -1.283, 0.713, -0.78], a = 0.2, v = 0.2, t = 0.1)
movej(p[0.413471138042628, 0.212623311575857, 0.321454740992173, -1.283, 0.713, -0.78], a = 0.2, v = 0.2, t = 0.1)
movej(p[0.413472883174119, 0.212619851869448, 0.321455372384003, -1.283, 0.713, -0.78], a = 0.2, v = 0.2, t = 0.1)
movej(p[0.41347664641942, 0.212618166393746, 0.321457407407212, -1.283, 0.713, -0.78], a = 0.2, v = 0.2, t = 0.1)
movej(p[0.413482771054805, 0.212618076753032, 0.321461400381535, -1.283, 0.713, -0.78], a = 0.2, v = 0.2, t = 0.1)
movej(p[0.413491527622991, 0.212619061001729, 0.321467874929404, -1.283, 0.713, -0.78], a = 0.2, v = 0.2, t = 0.1)
movej(p[0.413501596566091, 0.212621101584319, 0.321476957750416, -1.283, 0.713, -0.78], a = 0.2, v = 0.2, t = 0.1)
movej(p[0.413511668760102, 0.21262436435216, 0.321487391569076, -1.283, 0.713, -0.78], a = 0.2, v = 0.2, t = 0.1)
movej(p[0.413520707042746, 0.212628186551911, 0.321496746475217, -1.283, 0.713, -0.78], a = 0.2, v = 0.2, t = 0.1)
movej(p[0.413527669513913, 0.212631738989238, 0.321502695023046, -1.283, 0.713, -0.78], a = 0.2, v = 0.2, t = 0.1)
movej(p[0.413531309448939, 0.212633809791644, 0.321504590782632, -1.283, 0.713, -0.78], a = 0.2, v = 0.2, t = 0.1)
movej(p[0.413531196765555, 0.212632691782713, 0.321503600815215, -1.283, 0.713, -0.78], a = 0.2, v = 0.2, t = 0.1)
movej(p[0.413527254544051, 0.212627553530841, 0.321501165731375, -1.283, 0.713, -0.78], a = 0.2, v = 0.2, t = 0.1)
movej(p[0.413519920249619, 0.212619346225387, 0.321496386580051, -1.283, 0.713, -0.78], a = 0.2, v = 0.2, t = 0.1)
movej(p[0.413509602290091, 0.212609948919577, 0.32148789143522, -1.283, 0.713, -0.78], a = 0.2, v = 0.2, t = 0.1)
movej(p[0.413496517939437, 0.212600315693029, 0.321476428570297, -1.283, 0.713, -0.78], a = 0.2, v = 0.2, t = 0.1)
movej(p[0.413480167108369, 0.212589903613571, 0.321464925719793, -1.283, 0.713, -0.78], a = 0.2, v = 0.2, t = 0.1)
movej(p[0.413461235166839, 0.212577930178308, 0.321455811187282, -1.283, 0.713, -0.78], a = 0.2, v = 0.2, t = 0.1)
movej(p[0.413442509765168, 0.212563654493693, 0.321449145992682, -1.283, 0.713, -0.78], a = 0.2, v = 0.2, t = 0.1)
movej(p[0.413425595661985, 0.212548017222036, 0.321444881688441, -1.283, 0.713, -0.78], a = 0.2, v = 0.2, t = 0.1)
movej(p[0.413410503563857, 0.212532986300866, 0.321443090809088, -1.283, 0.713, -0.78], a = 0.2, v = 0.2, t = 0.1)
movej(p[0.413396997234997, 0.212520745920838, 0.321443902059046, -1.283, 0.713, -0.78], a = 0.2, v = 0.2, t = 0.1)
movej(p[0.413385937937684, 0.212511464555262, 0.321447088524171, -1.283, 0.713, -0.78], a = 0.2, v = 0.2, t = 0.1)
movej(p[0.413378513200234, 0.212504906462242, 0.321451836743177, -1.283, 0.713, -0.78], a = 0.2, v = 0.2, t = 0.1)
movej(p[0.413375468189344, 0.212501289035758, 0.321457561671239, -1.283, 0.713, -0.78], a = 0.2, v = 0.2, t = 0.1)
movej(p[0.413377838859237, 0.212500262038638, 0.321462326111729, -1.283, 0.713, -0.78], a = 0.2, v = 0.2, t = 0.1)
movej(p[0.413385978456706, 0.212501239558096, 0.321465124580729, -1.283, 0.713, -0.78], a = 0.2, v = 0.2, t = 0.1)
movej(p[0.413398308996348, 0.212503304305192, 0.321466180973446, -1.283, 0.713, -0.78], a = 0.2, v = 0.2, t = 0.1)
movej(p[0.413412192936932, 0.212505701579057, 0.321466129486902, -1.283, 0.713, -0.78], a = 0.2, v = 0.2, t = 0.1)
movej(p[0.413425210082737, 0.212508117756412, 0.321466356454065, -1.283, 0.713, -0.78], a = 0.2, v = 0.2, t = 0.1)
movej(p[0.413435390340227, 0.212509872228854, 0.32146776709572, -1.283, 0.713, -0.78], a = 0.2, v = 0.2, t = 0.1)
movej(p[0.413441381661528, 0.212511080978931, 0.321469772938766, -1.283, 0.713, -0.78], a = 0.2, v = 0.2, t = 0.1)
movej(p[0.413442705691582, 0.212511457615773, 0.321471620106086, -1.283, 0.713, -0.78], a = 0.2, v = 0.2, t = 0.1)
movej(p[0.413439181681382, 0.212511136942005, 0.321473380040303, -1.283, 0.713, -0.78], a = 0.2, v = 0.2, t = 0.1)
movej(p[0.413431916046099, 0.21251045913935, 0.321474880254117, -1.283, 0.713, -0.78], a = 0.2, v = 0.2, t = 0.1)
movej(p[0.413421280735206, 0.212509561550521, 0.321476091875965, -1.283, 0.713, -0.78], a = 0.2, v = 0.2, t = 0.1)
movej(p[0.413407470202465, 0.212507433020596, 0.321476969228105, -1.283, 0.713, -0.78], a = 0.2, v = 0.2, t = 0.1)
movej(p[0.413391138952911, 0.212504103499361, 0.321477480590333, -1.283, 0.713, -0.78], a = 0.2, v = 0.2, t = 0.1)
movej(p[0.413373230284427, 0.212500117959874, 0.321477834064706, -1.283, 0.713, -0.78], a = 0.2, v = 0.2, t = 0.1)
movej(p[0.413355185184847, 0.212496540402524, 0.321478303116463, -1.283, 0.713, -0.78], a = 0.2, v = 0.2, t = 0.1)
movej(p[0.413337892216036, 0.21249444122553, 0.321479535736703, -1.283, 0.713, -0.78], a = 0.2, v = 0.2, t = 0.1)
movej(p[0.413323316074055, 0.21249428556239, 0.32148196011022, -1.283, 0.713, -0.78], a = 0.2, v = 0.2, t = 0.1)
movej(p[0.413313470337916, 0.212495224730565, 0.321483589482496, -1.283, 0.713, -0.78], a = 0.2, v = 0.2, t = 0.1)
movej(p[0.41330895139773, 0.212496697499837, 0.321483871133457, -1.283, 0.713, -0.78], a = 0.2, v = 0.2, t = 0.1)
movej(p[0.413308921392189, 0.212499218574404, 0.321483533142784, -1.283, 0.713, -0.78], a = 0.2, v = 0.2, t = 0.1)
movej(p[0.41331213890413, 0.212503586953112, 0.321485274990475, -1.283, 0.713, -0.78], a = 0.2, v = 0.2, t = 0.1)
movej(p[0.413319121978436, 0.212509012762447, 0.321491073159348, -1.283, 0.713, -0.78], a = 0.2, v = 0.2, t = 0.1)
movej(p[0.413329932667758, 0.212514948569443, 0.321499870918307, -1.283, 0.713, -0.78], a = 0.2, v = 0.2, t = 0.1)
movej(p[0.413343548917393, 0.212521676942207, 0.321509148450997, -1.283, 0.713, -0.78], a = 0.2, v = 0.2, t = 0.1)
movej(p[0.413358045207858, 0.212529147613905, 0.321517196194913, -1.283, 0.713, -0.78], a = 0.2, v = 0.2, t = 0.1)
movej(p[0.413372610002954, 0.212536623666095, 0.321522699055302, -1.283, 0.713, -0.78], a = 0.2, v = 0.2, t = 0.1)
movej(p[0.413387093157429, 0.212542389777249, 0.321528241431022, -1.283, 0.713, -0.78], a = 0.2, v = 0.2, t = 0.1)
movej(p[0.413401296764389, 0.212545647870619, 0.321535600697488, -1.283, 0.713, -0.78], a = 0.2, v = 0.2, t = 0.1)
movej(p[0.413413066673448, 0.212546275514798, 0.321544353179509, -1.283, 0.713, -0.78], a = 0.2, v = 0.2, t = 0.1)
movej(p[0.413420862106825, 0.212545621272274, 0.321550686743686, -1.283, 0.713, -0.78], a = 0.2, v = 0.2, t = 0.1)
movej(p[0.413424185048651, 0.212545018121178, 0.32155391559741, -1.283, 0.713, -0.78], a = 0.2, v = 0.2, t = 0.1)
movej(p[0.413423263225234, 0.212544595187934, 0.321554957746181, -1.283, 0.713, -0.78], a = 0.2, v = 0.2, t = 0.1)
movej(p[0.413418581151656, 0.212543615055805, 0.32155446640412, -1.283, 0.713, -0.78], a = 0.2, v = 0.2, t = 0.1)
movej(p[0.413410526607797, 0.212541249469652, 0.321552097935972, -1.283, 0.713, -0.78], a = 0.2, v = 0.2, t = 0.1)
movej(p[0.413400826066716, 0.212537578054425, 0.32154750600283, -1.283, 0.713, -0.78], a = 0.2, v = 0.2, t = 0.1)
movej(p[0.413391686380348, 0.212533244912728, 0.321541371004858, -1.283, 0.713, -0.78], a = 0.2, v = 0.2, t = 0.1)
movej(p[0.413383958757867, 0.212528746670851, 0.321534828828171, -1.283, 0.713, -0.78], a = 0.2, v = 0.2, t = 0.1)
movej(p[0.413377195726536, 0.212524848390586, 0.321528818819669, -1.283, 0.713, -0.78], a = 0.2, v = 0.2, t = 0.1)
movej(p[0.413370535368485, 0.212521909285001, 0.321523862059538, -1.283, 0.713, -0.78], a = 0.2, v = 0.2, t = 0.1)
movej(p[0.413364373978281, 0.212520793145803, 0.321520420561312, -1.283, 0.713, -0.78], a = 0.2, v = 0.2, t = 0.1)
movej(p[0.41336031681577, 0.212522297813849, 0.321520566058514, -1.283, 0.713, -0.78], a = 0.2, v = 0.2, t = 0.1)
movej(p[0.413359275040878, 0.212526197187295, 0.321524035282174, -1.283, 0.713, -0.78], a = 0.2, v = 0.2, t = 0.1)
movej(p[0.413360961625623, 0.21253083506136, 0.321528663106507, -1.283, 0.713, -0.78], a = 0.2, v = 0.2, t = 0.1)
movej(p[0.413364506641883, 0.212535497494924, 0.321532580290186, -1.283, 0.713, -0.78], a = 0.2, v = 0.2, t = 0.1)
movej(p[0.413369871780513, 0.212540033868227, 0.321537586299549, -1.283, 0.713, -0.78], a = 0.2, v = 0.2, t = 0.1)
movej(p[0.413378045344253, 0.212544337783708, 0.321544356115523, -1.283, 0.713, -0.78], a = 0.2, v = 0.2, t = 0.1)
movej(p[0.413389847088298, 0.212547614035144, 0.321552704356117, -1.283, 0.713, -0.78], a = 0.2, v = 0.2, t = 0.1)
movej(p[0.413404363991355, 0.212549983675299, 0.321560386284076, -1.283, 0.713, -0.78], a = 0.2, v = 0.2, t = 0.1)
movej(p[0.4134199929936, 0.212551362045728, 0.321565589545917, -1.283, 0.713, -0.78], a = 0.2, v = 0.2, t = 0.1)
movej(p[0.413434963176761, 0.212550850375668, 0.321568501185983, -1.283, 0.713, -0.78], a = 0.2, v = 0.2, t = 0.1)
movej(p[0.413446829447172, 0.212548369831951, 0.32156927015828, -1.283, 0.713, -0.78], a = 0.2, v = 0.2, t = 0.1)
movej(p[0.41345337913746, 0.212544916162662, 0.321569628245662, -1.283, 0.713, -0.78], a = 0.2, v = 0.2, t = 0.1)
movej(p[0.413454461851008, 0.212540833365105, 0.321567722537791, -1.283, 0.713, -0.78], a = 0.2, v = 0.2, t = 0.1)
movej(p[0.413449695549572, 0.212534957854398, 0.321563479230879, -1.283, 0.713, -0.78], a = 0.2, v = 0.2, t = 0.1)
movej(p[0.413438978224287, 0.212526817484862, 0.321557375371726, -1.283, 0.713, -0.78], a = 0.2, v = 0.2, t = 0.1)
movej(p[0.41342248926877, 0.212517610527581, 0.32155095830171, -1.283, 0.713, -0.78], a = 0.2, v = 0.2, t = 0.1)
movej(p[0.413401782365885, 0.212507996136119, 0.321545236676439, -1.283, 0.713, -0.78], a = 0.2, v = 0.2, t = 0.1)
movej(p[0.413378588766733, 0.212497725787503, 0.321540791556116, -1.283, 0.713, -0.78], a = 0.2, v = 0.2, t = 0.1)
movej(p[0.413355971608803, 0.212486655571527, 0.321539198240262, -1.283, 0.713, -0.78], a = 0.2, v = 0.2, t = 0.1)
movej(p[0.413336491513907, 0.212475606615087, 0.321539539346428, -1.283, 0.713, -0.78], a = 0.2, v = 0.2, t = 0.1)
movej(p[0.413320713377278, 0.212466211966573, 0.321540076305281, -1.283, 0.713, -0.78], a = 0.2, v = 0.2, t = 0.1)
movej(p[0.413309247252041, 0.212460633887355, 0.321540535414508, -1.283, 0.713, -0.78], a = 0.2, v = 0.2, t = 0.1)
movej(p[0.413303847946078, 0.21245967542938, 0.321542526431192, -1.283, 0.713, -0.78], a = 0.2, v = 0.2, t = 0.1)
movej(p[0.413305244400394, 0.212462682160307, 0.321547356202044, -1.283, 0.713, -0.78], a = 0.2, v = 0.2, t = 0.1)
movej(p[0.413311482769799, 0.212468789469843, 0.321554693064547, -1.283, 0.713, -0.78], a = 0.2, v = 0.2, t = 0.1)
movej(p[0.413320902977093, 0.212477134199639, 0.321562511865041, -1.283, 0.713, -0.78], a = 0.2, v = 0.2, t = 0.1)
movej(p[0.413332417756499, 0.212485958020056, 0.321569474134247, -1.283, 0.713, -0.78], a = 0.2, v = 0.2, t = 0.1)
movej(p[0.413345201384985, 0.212493801775051, 0.321574406825225, -1.283, 0.713, -0.78], a = 0.2, v = 0.2, t = 0.1)
movej(p[0.413358042263564, 0.212499924932808, 0.321578484129409, -1.283, 0.713, -0.78], a = 0.2, v = 0.2, t = 0.1)
movej(p[0.413370211323723, 0.212503931523889, 0.321582007929738, -1.283, 0.713, -0.78], a = 0.2, v = 0.2, t = 0.1)
movej(p[0.413381778777371, 0.212506292919972, 0.321585437666119, -1.283, 0.713, -0.78], a = 0.2, v = 0.2, t = 0.1)
movej(p[0.413392677673178, 0.212508161421112, 0.321589957289187, -1.283, 0.713, -0.78], a = 0.2, v = 0.2, t = 0.1)
movej(p[0.41340278414372, 0.212510381831878, 0.321595151349661, -1.283, 0.713, -0.78], a = 0.2, v = 0.2, t = 0.1)
movej(p[0.413412558383562, 0.212512876715686, 0.321599181664326, -1.283, 0.713, -0.78], a = 0.2, v = 0.2, t = 0.1)
movej(p[0.413423114256086, 0.212514699688427, 0.32160062904909, -1.283, 0.713, -0.78], a = 0.2, v = 0.2, t = 0.1)
movej(p[0.413434414939986, 0.212514756549689, 0.321598869460162, -1.283, 0.713, -0.78], a = 0.2, v = 0.2, t = 0.1)
movej(p[0.413445436473655, 0.212511641767152, 0.321592753995231, -1.283, 0.713, -0.78], a = 0.2, v = 0.2, t = 0.1)
movej(p[0.413452992934271, 0.212504393900026, 0.32158306784878, -1.283, 0.713, -0.78], a = 0.2, v = 0.2, t = 0.1)
movej(p[0.413454183188061, 0.212494356829603, 0.321571315307981, -1.283, 0.713, -0.78], a = 0.2, v = 0.2, t = 0.1)
movej(p[0.413447640161115, 0.21248243863627, 0.321558514842244, -1.283, 0.713, -0.78], a = 0.2, v = 0.2, t = 0.1)
movej(p[0.41343217594236, 0.212469971845653, 0.32154544762808, -1.283, 0.713, -0.78], a = 0.2, v = 0.2, t = 0.1)
movej(p[0.413408648141659, 0.212458017275502, 0.321533095223954, -1.283, 0.713, -0.78], a = 0.2, v = 0.2, t = 0.1)
movej(p[0.413381983347277, 0.212445831616935, 0.32152344560169, -1.283, 0.713, -0.78], a = 0.2, v = 0.2, t = 0.1)
movej(p[0.413355970396842, 0.212432995359684, 0.321516191797829, -1.283, 0.713, -0.78], a = 0.2, v = 0.2, t = 0.1)
movej(p[0.413331671024531, 0.212420566230432, 0.321509576669007, -1.283, 0.713, -0.78], a = 0.2, v = 0.2, t = 0.1)
movej(p[0.413308788108129, 0.212412508532084, 0.321502566868778, -1.283, 0.713, -0.78], a = 0.2, v = 0.2, t = 0.1)
movej(p[0.413287576923841, 0.212410238027471, 0.321494771963204, -1.283, 0.713, -0.78], a = 0.2, v = 0.2, t = 0.1)
movej(p[0.413269948171147, 0.212411745625559, 0.321486745876208, -1.283, 0.713, -0.78], a = 0.2, v = 0.2, t = 0.1)
movej(p[0.413257192156576, 0.212414361684216, 0.321480973992256, -1.283, 0.713, -0.78], a = 0.2, v = 0.2, t = 0.1)
movej(p[0.413249944902458, 0.212417205362145, 0.321479975677379, -1.283, 0.713, -0.78], a = 0.2, v = 0.2, t = 0.1)
movej(p[0.413248602889067, 0.21242025243672, 0.321484336138088, -1.283, 0.713, -0.78], a = 0.2, v = 0.2, t = 0.1)
movej(p[0.413253603267615, 0.21242370812377, 0.321491524616535, -1.283, 0.713, -0.78], a = 0.2, v = 0.2, t = 0.1)
movej(p[0.413266061358617, 0.212427958411803, 0.321498453527577, -1.283, 0.713, -0.78], a = 0.2, v = 0.2, t = 0.1)
movej(p[0.413285646889254, 0.21243288009968, 0.321504856256614, -1.283, 0.713, -0.78], a = 0.2, v = 0.2, t = 0.1)
movej(p[0.413309382709215, 0.212438255705934, 0.321512308853088, -1.283, 0.713, -0.78], a = 0.2, v = 0.2, t = 0.1)
movej(p[0.413333813839075, 0.212443742033804, 0.321519757222525, -1.283, 0.713, -0.78], a = 0.2, v = 0.2, t = 0.1)
movej(p[0.413356744342281, 0.212449333524284, 0.321525705535473, -1.283, 0.713, -0.78], a = 0.2, v = 0.2, t = 0.1)
movej(p[0.413378010888001, 0.212454421470276, 0.32153034504231, -1.283, 0.713, -0.78], a = 0.2, v = 0.2, t = 0.1)
movej(p[0.413396634288959, 0.212459159652674, 0.321534406340541, -1.283, 0.713, -0.78], a = 0.2, v = 0.2, t = 0.1)
movej(p[0.413411772463853, 0.212464387298245, 0.321537982185288, -1.283, 0.713, -0.78], a = 0.2, v = 0.2, t = 0.1)
movej(p[0.413422526950376, 0.212470755458901, 0.321539861511363, -1.283, 0.713, -0.78], a = 0.2, v = 0.2, t = 0.1)
movej(p[0.413429487868016, 0.212477428713353, 0.321540046383277, -1.283, 0.713, -0.78], a = 0.2, v = 0.2, t = 0.1)
movej(p[0.413432255801383, 0.212482049136917, 0.321538053553138, -1.283, 0.713, -0.78], a = 0.2, v = 0.2, t = 0.1)
movej(p[0.413429497303008, 0.212482618410106, 0.32153408922006, -1.283, 0.713, -0.78], a = 0.2, v = 0.2, t = 0.1)
movej(p[0.413420967511934, 0.212479354662755, 0.321526943184273, -1.283, 0.713, -0.78], a = 0.2, v = 0.2, t = 0.1)
movej(p[0.413407255001303, 0.21247363207449, 0.321514210242871, -1.283, 0.713, -0.78], a = 0.2, v = 0.2, t = 0.1)
movej(p[0.41338708681786, 0.212466547177804, 0.321495386698025, -1.283, 0.713, -0.78], a = 0.2, v = 0.2, t = 0.1)
movej(p[0.41336072621749, 0.212459070647032, 0.321472818177301, -1.283, 0.713, -0.78], a = 0.2, v = 0.2, t = 0.1)
movej(p[0.413330871540645, 0.212452776510808, 0.321450293345587, -1.283, 0.713, -0.78], a = 0.2, v = 0.2, t = 0.1)
movej(p[0.413300875567841, 0.212449095491127, 0.32143008077389, -1.283, 0.713, -0.78], a = 0.2, v = 0.2, t = 0.1)
movej(p[0.41327434601706, 0.212447705795152, 0.321414814365456, -1.283, 0.713, -0.78], a = 0.2, v = 0.2, t = 0.1)
movej(p[0.413254075549531, 0.212447917073705, 0.321405461800646, -1.283, 0.713, -0.78], a = 0.2, v = 0.2, t = 0.1)
movej(p[0.413242712187043, 0.212448563160267, 0.321400402067045, -1.283, 0.713, -0.78], a = 0.2, v = 0.2, t = 0.1)
movej(p[0.413240578151068, 0.212449360582381, 0.321398129677459, -1.283, 0.713, -0.78], a = 0.2, v = 0.2, t = 0.1)
movej(p[0.413245811489006, 0.212450603288789, 0.321396913254502, -1.283, 0.713, -0.78], a = 0.2, v = 0.2, t = 0.1)
movej(p[0.413257289466274, 0.212452971332394, 0.321395310436881, -1.283, 0.713, -0.78], a = 0.2, v = 0.2, t = 0.1)
movej(p[0.413273218665945, 0.21245742776499, 0.321392745906449, -1.283, 0.713, -0.78], a = 0.2, v = 0.2, t = 0.1)
movej(p[0.413291530836363, 0.21246311786897, 0.32139048258913, -1.283, 0.713, -0.78], a = 0.2, v = 0.2, t = 0.1)
movej(p[0.413311480825811, 0.212467853626163, 0.321388883085819, -1.283, 0.713, -0.78], a = 0.2, v = 0.2, t = 0.1)
movej(p[0.413331485200001, 0.212471085408103, 0.32138758513638, -1.283, 0.713, -0.78], a = 0.2, v = 0.2, t = 0.1)
movej(p[0.413350043137164, 0.212474090191571, 0.321386590562318, -1.283, 0.713, -0.78], a = 0.2, v = 0.2, t = 0.1)
movej(p[0.413365768324348, 0.212477792801424, 0.321386365170867, -1.283, 0.713, -0.78], a = 0.2, v = 0.2, t = 0.1)
movej(p[0.41337653937849, 0.21248178579371, 0.321387911201683, -1.283, 0.713, -0.78], a = 0.2, v = 0.2, t = 0.1)
movej(p[0.413380766247781, 0.21248529595809, 0.321390257084891, -1.283, 0.713, -0.78], a = 0.2, v = 0.2, t = 0.1)
movej(p[0.413378272061854, 0.212488267789943, 0.321391463334449, -1.283, 0.713, -0.78], a = 0.2, v = 0.2, t = 0.1)
movej(p[0.413371199700951, 0.212490131322839, 0.321388675288287, -1.283, 0.713, -0.78], a = 0.2, v = 0.2, t = 0.1)
movej(p[0.413360506916998, 0.212490384869148, 0.321380576120762, -1.283, 0.713, -0.78], a = 0.2, v = 0.2, t = 0.1)
movej(p[0.413345103447094, 0.212488669128083, 0.321368118047054, -1.283, 0.713, -0.78], a = 0.2, v = 0.2, t = 0.1)
movej(p[0.413324504959827, 0.212484777489127, 0.321355016513192, -1.283, 0.713, -0.78], a = 0.2, v = 0.2, t = 0.1)
movej(p[0.413299740730908, 0.212479286700376, 0.321345578099504, -1.283, 0.713, -0.78], a = 0.2, v = 0.2, t = 0.1)
movej(p[0.413272819463757, 0.212474835997941, 0.321342648028888, -1.283, 0.713, -0.78], a = 0.2, v = 0.2, t = 0.1)
movej(p[0.413246136768576, 0.212472522514998, 0.321346283042449, -1.283, 0.713, -0.78], a = 0.2, v = 0.2, t = 0.1)
movej(p[0.41322196235909, 0.212471571406815, 0.321354213313265, -1.283, 0.713, -0.78], a = 0.2, v = 0.2, t = 0.1)
movej(p[0.413202211868536, 0.212472037374414, 0.321364536643109, -1.283, 0.713, -0.78], a = 0.2, v = 0.2, t = 0.1)
movej(p[0.413187115288712, 0.212473382274725, 0.321374571130079, -1.283, 0.713, -0.78], a = 0.2, v = 0.2, t = 0.1)
movej(p[0.413177590172311, 0.212474786887065, 0.321383176976157, -1.283, 0.713, -0.78], a = 0.2, v = 0.2, t = 0.1)
movej(p[0.413174560154799, 0.21247575871322, 0.321390050584511, -1.283, 0.713, -0.78], a = 0.2, v = 0.2, t = 0.1)
movej(p[0.413178505603285, 0.212476494610818, 0.321394419404485, -1.283, 0.713, -0.78], a = 0.2, v = 0.2, t = 0.1)
movej(p[0.413189133205141, 0.212477782050341, 0.321396269438074, -1.283, 0.713, -0.78], a = 0.2, v = 0.2, t = 0.1)
movej(p[0.413204608395769, 0.212480424736235, 0.321397409406621, -1.283, 0.713, -0.78], a = 0.2, v = 0.2, t = 0.1)
movej(p[0.413221898794923, 0.212484440225707, 0.321400994702619, -1.283, 0.713, -0.78], a = 0.2, v = 0.2, t = 0.1)
movej(p[0.413238924623999, 0.212488808846629, 0.321407825556482, -1.283, 0.713, -0.78], a = 0.2, v = 0.2, t = 0.1)
movej(p[0.413253913993174, 0.212492309390183, 0.32141390773969, -1.283, 0.713, -0.78], a = 0.2, v = 0.2, t = 0.1)
movej(p[0.413266679806588, 0.212494985406954, 0.321414235709366, -1.283, 0.713, -0.78], a = 0.2, v = 0.2, t = 0.1)
movej(p[0.413278324284659, 0.21249747793625, 0.321410027736319, -1.283, 0.713, -0.78], a = 0.2, v = 0.2, t = 0.1)
