def moving():
set_payload_mass(0)
set_tcp(p[0,0,0,0,0,0])
movej(p[0.5171, 0.004, 0.4069, -1.274, 1.035, -1.058], a = 0.2, v = 0.2, t = 0.2)
movej(p[0.517216038278075, 0.00392209999433586, 0.407002306926153, -1.27220021833167, 1.03349723762442, -1.05608472129099], a = 0.2, v = 0.2, t = 0.2)
movej(p[0.5171, 0.004, 0.4069, -1.274, 1.035, -1.058], a = 0.2, v = 0.2, t = 0.2)
movej(p[0.517216038278075, 0.00392209999433586, 0.407002306926153, -1.27220021833167, 1.03349723762442, -1.05608472129099], a = 0.2, v = 0.2, t = 0.2)
movej(p[0.5171, 0.004, 0.4069, -1.274, 1.035, -1.058], a = 0.2, v = 0.2, t = 0.2)
movej(p[0.517216038278075, 0.00392209999433586, 0.407002306926153, -1.27220021833167, 1.03349723762442, -1.05608472129099], a = 0.2, v = 0.2, t = 0.2)
movej(p[0.5171, 0.004, 0.4069, -1.274, 1.035, -1.058], a = 0.2, v = 0.2, t = 0.2)
movej(p[0.517216038278075, 0.00392209999433586, 0.407002306926153, -1.27220021833167, 1.03349723762442, -1.05608472129099], a = 0.2, v = 0.2, t = 0.2)
movej(p[0.5171, 0.004, 0.4069, -1.274, 1.035, -1.058], a = 0.2, v = 0.2, t = 0.2)
movej(p[0.517216038278075, 0.00392209999433586, 0.407002306926153, -1.27220021833167, 1.03349723762442, -1.05608472129099], a = 0.2, v = 0.2, t = 0.2)
movej(p[0.5171, 0.004, 0.4069, -1.274, 1.035, -1.058], a = 0.2, v = 0.2, t = 0.2)
movej(p[0.517147011409516, 0.00415711439684467, 0.406760029900766, -1.27357594990458, 1.03697352112029, -1.06642087054716], a = 0.2, v = 0.2, t = 0.2)
movej(p[0.517389751983711, 0.00426869542837596, 0.406633312817695, -1.27741963201044, 1.03970522421071, -1.07069074117603], a = 0.2, v = 0.2, t = 0.2)
movej(p[0.517416419463341, 0.00427920825385155, 0.406545513295312, -1.27625927410178, 1.04264394692571, -1.06863542720342], a = 0.2, v = 0.2, t = 0.2)
movej(p[0.517437872441471, 0.00412791530293475, 0.406570963298774, -1.28037540985124, 1.04243396875776, -1.07389946340821], a = 0.2, v = 0.2, t = 0.2)
movej(p[0.517386987474404, 0.00409110536237213, 0.406526344710458, -1.27738078030925, 1.04430382219275, -1.07445706153151], a = 0.2, v = 0.2, t = 0.2)
movej(p[0.517252740211768, 0.00409590382568084, 0.40638934637598, -1.27749097569885, 1.04298037549112, -1.07801337261984], a = 0.2, v = 0.2, t = 0.2)
movej(p[0.51680447387195, 0.00390677799560513, 0.406285249327587, -1.27036510056401, 1.04324000734828, -1.07110508385753], a = 0.2, v = 0.2, t = 0.2)
movej(p[0.515947571146804, 0.00364140464609788, 0.406220117190626, -1.26538021921861, 1.03979087559648, -1.08430803421058], a = 0.2, v = 0.2, t = 0.2)
movej(p[0.514990339042678, 0.00358270286732421, 0.406127149840557, -1.26380798451534, 1.03379447883453, -1.09398496516941], a = 0.2, v = 0.2, t = 0.2)
movej(p[0.513991406556061, 0.00367761910296542, 0.406094104970839, -1.26379281969781, 1.02509345401927, -1.10543667826184], a = 0.2, v = 0.2, t = 0.2)
movej(p[0.513133327690955, 0.00361361978276074, 0.406192001046201, -1.25632485726485, 1.01931612720672, -1.09260498829616], a = 0.2, v = 0.2, t = 0.2)
movej(p[0.512590257847493, 0.00364527744126615, 0.40627798761248, -1.25341063247911, 1.01118540968592, -1.09802506014687], a = 0.2, v = 0.2, t = 0.2)
movej(p[0.512735226036364, 0.00383566745545424, 0.406290162000064, -1.25873421684289, 1.00414340946976, -1.09934290504121], a = 0.2, v = 0.2, t = 0.2)
movej(p[0.513599964618329, 0.00405536799898732, 0.406352248681664, -1.26476874016362, 1.00112786145379, -1.10071474738037], a = 0.2, v = 0.2, t = 0.2)
movej(p[0.514683195894381, 0.00422484023141774, 0.40645221841217, -1.26671110083054, 1.00475538579626, -1.09618246872924], a = 0.2, v = 0.2, t = 0.2)
movej(p[0.51582576120294, 0.00451436055260133, 0.406455310320791, -1.26911035674181, 1.01432991648723, -1.09560126246409], a = 0.2, v = 0.2, t = 0.2)
movej(p[0.51671778573357, 0.00472864735309949, 0.406398666574565, -1.27198868828241, 1.02549238928815, -1.09008429660204], a = 0.2, v = 0.2, t = 0.2)
movej(p[0.517249916137816, 0.00468740387312858, 0.406392778770426, -1.27978900979257, 1.03334528883134, -1.0865961713443], a = 0.2, v = 0.2, t = 0.2)
movej(p[0.517347382647913, 0.00452686950382999, 0.406368308537829, -1.27872992745681, 1.03798044387864, -1.08428591375103], a = 0.2, v = 0.2, t = 0.2)
movej(p[0.517306039961384, 0.00447451167275272, 0.40626956311011, -1.27716706354641, 1.0409761172653, -1.08031524767987], a = 0.2, v = 0.2, t = 0.2)
movej(p[0.517011032470511, 0.00429796256893848, 0.406177990473932, -1.27049863843591, 1.04106504414736, -1.07394245701955], a = 0.2, v = 0.2, t = 0.2)
movej(p[0.516361909242173, 0.00399333037234684, 0.406181145605719, -1.26814309892329, 1.04020145661027, -1.07911619703197], a = 0.2, v = 0.2, t = 0.2)
movej(p[0.5154617240409, 0.00377660222060834, 0.406114520756354, -1.26625463331851, 1.03403406000616, -1.09377585083863], a = 0.2, v = 0.2, t = 0.2)
movej(p[0.514408718892024, 0.00375437329150259, 0.406076950187397, -1.2658112641794, 1.02725219724783, -1.1043796757189], a = 0.2, v = 0.2, t = 0.2)
movej(p[0.513561070944742, 0.00367507741513112, 0.40615289283654, -1.26198681437638, 1.01972203545773, -1.09985825381987], a = 0.2, v = 0.2, t = 0.2)
movej(p[0.51279704340448, 0.00365149896722999, 0.406276625211508, -1.26338891837083, 1.01007507783583, -1.10623278727743], a = 0.2, v = 0.2, t = 0.2)
movej(p[0.512622864367132, 0.00375731158650536, 0.406310789459647, -1.26553794044262, 1.00274597631179, -1.10666517934973], a = 0.2, v = 0.2, t = 0.2)
movej(p[0.513012807926761, 0.00396262815426705, 0.406296721815665, -1.26501976004833, 1.00054688770618, -1.10253737417932], a = 0.2, v = 0.2, t = 0.2)
movej(p[0.513985283667227, 0.00407123325368998, 0.406378729239624, -1.26688613517887, 1.00231992002253, -1.09824097214163], a = 0.2, v = 0.2, t = 0.2)
movej(p[0.515140162241784, 0.00429872992334273, 0.406400632650876, -1.26666966179414, 1.01005067683582, -1.09601737194338], a = 0.2, v = 0.2, t = 0.2)
movej(p[0.516205555515468, 0.00456426167492243, 0.406371558607598, -1.27659570728145, 1.01735709462107, -1.09756299155716], a = 0.2, v = 0.2, t = 0.2)
movej(p[0.516872301026314, 0.00461200367081028, 0.406365773082953, -1.27359655450853, 1.03035228919301, -1.08121548407925], a = 0.2, v = 0.2, t = 0.2)
movej(p[0.517119681744436, 0.00453105239807359, 0.406383193827595, -1.27866011423244, 1.03467545481446, -1.08540083143321], a = 0.2, v = 0.2, t = 0.2)
movej(p[0.517172539069281, 0.00446768789869927, 0.40631107194791, -1.28072025081883, 1.03658080235304, -1.08767352201226], a = 0.2, v = 0.2, t = 0.2)
movej(p[0.517069923930031, 0.00441293717384256, 0.406197640744865, -1.28283030488115, 1.03523193506145, -1.09055655452921], a = 0.2, v = 0.2, t = 0.2)
movej(p[0.516687951660438, 0.00410570704747274, 0.406157283514873, -1.27588263613275, 1.03474224305903, -1.08619247728095], a = 0.2, v = 0.2, t = 0.2)
movej(p[0.515962157687897, 0.00393986318653112, 0.406061675570585, -1.26729458711885, 1.032594269893, -1.09149540424306], a = 0.2, v = 0.2, t = 0.2)
movej(p[0.515016460498012, 0.00386937003807283, 0.405969381299564, -1.2630226452028, 1.02797166483633, -1.10016550803077], a = 0.2, v = 0.2, t = 0.2)
movej(p[0.514007087108159, 0.00381282221630514, 0.40597560643486, -1.25853276983376, 1.02339776891063, -1.09873045817415], a = 0.2, v = 0.2, t = 0.2)
movej(p[0.513106680315249, 0.00370136971620467, 0.406082593359778, -1.256263565047, 1.01760659701763, -1.10091542909166], a = 0.2, v = 0.2, t = 0.2)
movej(p[0.512668527825462, 0.00379781280123866, 0.40613262298643, -1.25958740664798, 1.00979698805448, -1.10071923648919], a = 0.2, v = 0.2, t = 0.2)
movej(p[0.51274266944636, 0.00390090867429844, 0.406195579653343, -1.26607116191093, 1.00167544302071, -1.10353835384723], a = 0.2, v = 0.2, t = 0.2)
movej(p[0.513267830568346, 0.00395163091107466, 0.406325536350558, -1.26661856037017, 1.00071502495322, -1.0965653061298], a = 0.2, v = 0.2, t = 0.2)
movej(p[0.514262808225733, 0.004108747502138, 0.406406634371578, -1.2705461937182, 1.00402701810123, -1.09838060915898], a = 0.2, v = 0.2, t = 0.2)
movej(p[0.515449159309375, 0.00434760706762336, 0.406443562707794, -1.27099175230237, 1.01511492666015, -1.08856832501406], a = 0.2, v = 0.2, t = 0.2)
movej(p[0.516477234799004, 0.00444990934529866, 0.406470122380391, -1.27471736700099, 1.02512991199586, -1.07919407913821], a = 0.2, v = 0.2, t = 0.2)
movej(p[0.516942188109222, 0.00437952628558763, 0.40651701341629, -1.27319985344214, 1.03329082988596, -1.07206672059813], a = 0.2, v = 0.2, t = 0.2)
movej(p[0.517167519910355, 0.00433859538936892, 0.406483163007755, -1.27058819763549, 1.04004323796868, -1.06519311734913], a = 0.2, v = 0.2, t = 0.2)
movej(p[0.517227472197376, 0.00422465790096336, 0.406442818807221, -1.26894602661489, 1.0422388662798, -1.06274936064213], a = 0.2, v = 0.2, t = 0.2)
movej(p[0.517034268885273, 0.00400588009789743, 0.406387048267945, -1.26367135703122, 1.04405277695575, -1.06091337732566], a = 0.2, v = 0.2, t = 0.2)
movej(p[0.516480045362277, 0.0038246509619944, 0.406253847047376, -1.26773590813957, 1.03735894267379, -1.08055606927691], a = 0.2, v = 0.2, t = 0.2)
movej(p[0.515534791727519, 0.0037040013116956, 0.406105997777642, -1.26500323617144, 1.03276882921515, -1.08707938746435], a = 0.2, v = 0.2, t = 0.2)
movej(p[0.514508689079906, 0.00354553119771627, 0.406107748994174, -1.26795217298358, 1.02544958573196, -1.09484862873801], a = 0.2, v = 0.2, t = 0.2)
movej(p[0.513496812272486, 0.00344208811849725, 0.406162057398391, -1.25917386388014, 1.02104339805762, -1.0914282683138], a = 0.2, v = 0.2, t = 0.2)
movej(p[0.512810459185805, 0.00353943034497585, 0.406162254748899, -1.25719803437364, 1.0153165819454, -1.08916723437153], a = 0.2, v = 0.2, t = 0.2)
movej(p[0.512644899211029, 0.00363232810012697, 0.406203268883536, -1.25472453216349, 1.01091539884374, -1.08149919164043], a = 0.2, v = 0.2, t = 0.2)
movej(p[0.512937521476198, 0.00368667893169355, 0.406337272971292, -1.25908498908211, 1.00650399242689, -1.08222178085603], a = 0.2, v = 0.2, t = 0.2)
movej(p[0.513885042168856, 0.003869743643601, 0.406451117389418, -1.2651554073281, 1.00634904048431, -1.0882465956223], a = 0.2, v = 0.2, t = 0.2)
movej(p[0.515129595563126, 0.00416877888394421, 0.406499032171512, -1.26771632387724, 1.01472988401765, -1.08175439631402], a = 0.2, v = 0.2, t = 0.2)
movej(p[0.516298075150185, 0.00432131056228398, 0.406550522911747, -1.27053182250861, 1.02553896884819, -1.06988554522047], a = 0.2, v = 0.2, t = 0.2)
movej(p[0.516884190049325, 0.00433214412479745, 0.406572917983295, -1.2696913537394, 1.03445760903654, -1.06205534988954], a = 0.2, v = 0.2, t = 0.2)
movej(p[0.517159946961596, 0.00430678524391265, 0.406508916312264, -1.27248388120469, 1.03829845919669, -1.06277105757052], a = 0.2, v = 0.2, t = 0.2)
movej(p[0.51722678022117, 0.00418506856466165, 0.406457610437291, -1.27223094181631, 1.03964188180689, -1.06278086548511], a = 0.2, v = 0.2, t = 0.2)
movej(p[0.517012024307261, 0.0040104148558912, 0.406391704650659, -1.27035849389808, 1.03999729999139, -1.06965361179161], a = 0.2, v = 0.2, t = 0.2)
movej(p[0.51655688089307, 0.00388171309803153, 0.406262275001032, -1.26952127939146, 1.03670869753293, -1.08104622479587], a = 0.2, v = 0.2, t = 0.2)
movej(p[0.515701104367005, 0.00378255981475455, 0.40614341338252, -1.26530903417971, 1.03334585696956, -1.0861776036848], a = 0.2, v = 0.2, t = 0.2)
movej(p[0.51473379412159, 0.00354337231673826, 0.406185150613344, -1.26175536564916, 1.03003942078092, -1.08520451827941], a = 0.2, v = 0.2, t = 0.2)
movej(p[0.513781707474682, 0.00348295319836785, 0.406236173995809, -1.25367908259259, 1.02532758897693, -1.08539753396988], a = 0.2, v = 0.2, t = 0.2)
movej(p[0.513127402741365, 0.00360379958178696, 0.406233919295511, -1.25666423853936, 1.01721884309776, -1.09038252699455], a = 0.2, v = 0.2, t = 0.2)
movej(p[0.512760066583921, 0.00367065653418223, 0.406242777074634, -1.25708220537622, 1.00975693806536, -1.08868995659044], a = 0.2, v = 0.2, t = 0.2)
movej(p[0.512861831982083, 0.0036659031954986, 0.40632846074874, -1.26789455899934, 1.00220888670647, -1.10201475584733], a = 0.2, v = 0.2, t = 0.2)
movej(p[0.513593238275861, 0.00379316155436415, 0.406413247774404, -1.27342843140412, 1.00221234814055, -1.10492256867883], a = 0.2, v = 0.2, t = 0.2)
movej(p[0.514800797239216, 0.00409859198613835, 0.406440997308972, -1.27583932971289, 1.00909736326582, -1.09837968235533], a = 0.2, v = 0.2, t = 0.2)
movej(p[0.5159943145293, 0.00423131097595827, 0.406554656464828, -1.27950663111261, 1.01804061870289, -1.08993654206777], a = 0.2, v = 0.2, t = 0.2)
movej(p[0.516725946488634, 0.00429424076685192, 0.406551185715664, -1.27357713664297, 1.02917381856211, -1.07656467704081], a = 0.2, v = 0.2, t = 0.2)
movej(p[0.517118281079121, 0.00427913944537994, 0.406507473882011, -1.2775298718114, 1.03381115567861, -1.07613971754362], a = 0.2, v = 0.2, t = 0.2)
movej(p[0.517206060556477, 0.00415558464077777, 0.406461544446364, -1.27443853587529, 1.03842593150261, -1.06609412690424], a = 0.2, v = 0.2, t = 0.2)
movej(p[0.517047916162444, 0.00397275920797803, 0.406449627373633, -1.28131054371844, 1.03590570665199, -1.07983050336341], a = 0.2, v = 0.2, t = 0.2)
movej(p[0.516552245044178, 0.00382974738448471, 0.406304180732191, -1.28327488680488, 1.0322557517054, -1.09096984382244], a = 0.2, v = 0.2, t = 0.2)
movej(p[0.515725447886847, 0.00368672404982852, 0.406168403022429, -1.27947689791834, 1.02912284067445, -1.09600275170373], a = 0.2, v = 0.2, t = 0.2)
movej(p[0.514741694673736, 0.0034560135974451, 0.406146197129504, -1.26858983885803, 1.02744404429967, -1.09129697874864], a = 0.2, v = 0.2, t = 0.2)
movej(p[0.513812293619022, 0.00343152476012909, 0.406155696168336, -1.25807432425299, 1.02430459417317, -1.08798799708198], a = 0.2, v = 0.2, t = 0.2)
movej(p[0.513122864518229, 0.00352397582749947, 0.406160476923666, -1.25894703982059, 1.01499308022117, -1.09196232570319], a = 0.2, v = 0.2, t = 0.2)
movej(p[0.512749274592831, 0.00353501282678502, 0.406215707924817, -1.25913259818791, 1.00875300011674, -1.08514916230419], a = 0.2, v = 0.2, t = 0.2)
movej(p[0.512642878074697, 0.00345744804516775, 0.406322853865392, -1.26423277989592, 1.00112641670227, -1.09360863114841], a = 0.2, v = 0.2, t = 0.2)
movej(p[0.513294705068749, 0.00357102164485599, 0.406392287112325, -1.27107616099883, 0.999883494069496, -1.09572811491953], a = 0.2, v = 0.2, t = 0.2)
movej(p[0.514418575690239, 0.00383703893438761, 0.406456063211462, -1.27653126125095, 1.00288589584061, -1.09820847147405], a = 0.2, v = 0.2, t = 0.2)
movej(p[0.515730813096851, 0.00400660668310889, 0.406570752997759, -1.27652129325534, 1.01419033002931, -1.08739682497202], a = 0.2, v = 0.2, t = 0.2)
movej(p[0.516654927859804, 0.00417866268402176, 0.406593327008102, -1.27686679750163, 1.02488188069787, -1.08168435674634], a = 0.2, v = 0.2, t = 0.2)
movej(p[0.517211289708108, 0.00419388140082052, 0.406576615209564, -1.27491383495929, 1.03410889371936, -1.07064838620674], a = 0.2, v = 0.2, t = 0.2)
movej(p[0.517361404350299, 0.0041036604286407, 0.406565316279171, -1.27941662466488, 1.03733612301872, -1.07189203425311], a = 0.2, v = 0.2, t = 0.2)
movej(p[0.517316704461205, 0.0039528964963598, 0.406557852336633, -1.27917175144888, 1.03885898436936, -1.07318312355571], a = 0.2, v = 0.2, t = 0.2)
movej(p[0.517082535048375, 0.00383344367830869, 0.406454419850113, -1.28043554792017, 1.03774390667511, -1.07710963343064], a = 0.2, v = 0.2, t = 0.2)
movej(p[0.516483987298791, 0.00361760868843177, 0.406335079965848, -1.27604059076758, 1.03489649417129, -1.07704877458559], a = 0.2, v = 0.2, t = 0.2)
movej(p[0.515509383168738, 0.00329695450695093, 0.406274452814482, -1.26545505051381, 1.03417487970005, -1.07604890542283], a = 0.2, v = 0.2, t = 0.2)
movej(p[0.514457198212862, 0.00325873909042669, 0.406206136318909, -1.25865731861185, 1.0288741297803, -1.08287986073026], a = 0.2, v = 0.2, t = 0.2)
movej(p[0.513532183584837, 0.00334103835401059, 0.406191261643968, -1.25635906438145, 1.02173837353407, -1.08637898459839], a = 0.2, v = 0.2, t = 0.2)
movej(p[0.512816169768008, 0.0033251752980027, 0.406257271624755, -1.25674180069325, 1.01380189663624, -1.08128489528217], a = 0.2, v = 0.2, t = 0.2)
movej(p[0.512512674632108, 0.00331391545448403, 0.406363187338456, -1.25828584293679, 1.00711598572413, -1.08662968188294], a = 0.2, v = 0.2, t = 0.2)
movej(p[0.512826188933308, 0.00347321573656472, 0.406418431234698, -1.26355743694216, 1.00338314269878, -1.08840840848738], a = 0.2, v = 0.2, t = 0.2)
movej(p[0.51389940950878, 0.00373740139373103, 0.406494539440762, -1.26557640546717, 1.00547943141309, -1.08686441142067], a = 0.2, v = 0.2, t = 0.2)
movej(p[0.515171182277109, 0.00400184488277313, 0.406582674501543, -1.2680798145515, 1.01411798270014, -1.08203439781709], a = 0.2, v = 0.2, t = 0.2)
movej(p[0.516288493131665, 0.00422078910813226, 0.40661916204837, -1.27402626305962, 1.0234541104596, -1.08137569663448], a = 0.2, v = 0.2, t = 0.2)
movej(p[0.517040275942366, 0.00432598064556224, 0.406621059070683, -1.27518867267513, 1.03504538347234, -1.06942391252692], a = 0.2, v = 0.2, t = 0.2)
movej(p[0.517411508213032, 0.00418725639362372, 0.406673841289223, -1.28054586992081, 1.04047220238813, -1.06478717513645], a = 0.2, v = 0.2, t = 0.2)
movej(p[0.51743135509611, 0.00403079240029089, 0.406640872415744, -1.27071772050867, 1.04634248734544, -1.05392228814057], a = 0.2, v = 0.2, t = 0.2)
movej(p[0.517397111532649, 0.00399774172000688, 0.406553668309652, -1.27012059739469, 1.04708832996873, -1.05463319604406], a = 0.2, v = 0.2, t = 0.2)
movej(p[0.517174321830136, 0.00383428039874632, 0.406472573072882, -1.26568471627765, 1.04648045299604, -1.04954805146041], a = 0.2, v = 0.2, t = 0.2)
movej(p[0.516628670812772, 0.00363014185550779, 0.406382549947995, -1.26366251560551, 1.04307205365477, -1.05912933498889], a = 0.2, v = 0.2, t = 0.2)
movej(p[0.515852316862969, 0.00348911035412234, 0.406263940390448, -1.26551624694407, 1.0365764673135, -1.07494057063214], a = 0.2, v = 0.2, t = 0.2)
movej(p[0.514835804525245, 0.00341776459202092, 0.406153900978809, -1.26077466375044, 1.03175198147799, -1.08019205735103], a = 0.2, v = 0.2, t = 0.2)
movej(p[0.513967644187581, 0.00328653972859772, 0.406253265835653, -1.26213075975007, 1.02488560311472, -1.08232801766379], a = 0.2, v = 0.2, t = 0.2)
movej(p[0.513276652019995, 0.0032857196281385, 0.406305253082845, -1.25672059110679, 1.01979039674334, -1.08299233491078], a = 0.2, v = 0.2, t = 0.2)
movej(p[0.513196293764849, 0.00345884729772206, 0.406340229013918, -1.2618738507849, 1.01278252747148, -1.08524450721844], a = 0.2, v = 0.2, t = 0.2)
movej(p[0.513677460289737, 0.00363160570056362, 0.40636105991584, -1.25936756213912, 1.01172775953685, -1.07675052980744], a = 0.2, v = 0.2, t = 0.2)
movej(p[0.514614243917383, 0.00378030134504988, 0.406496394178999, -1.26413666075139, 1.01424648710111, -1.07797278582894], a = 0.2, v = 0.2, t = 0.2)
movej(p[0.515743632734073, 0.00399065386778703, 0.406558922977269, -1.26941111877162, 1.02096184461202, -1.07669273358572], a = 0.2, v = 0.2, t = 0.2)
movej(p[0.516608377637296, 0.00417768067951068, 0.406589887451208, -1.27781068184928, 1.02907780713787, -1.07567138948503], a = 0.2, v = 0.2, t = 0.2)
movej(p[0.517161756799332, 0.00407215378159047, 0.406653666993948, -1.27953276660691, 1.03647858227916, -1.06719157809295], a = 0.2, v = 0.2, t = 0.2)
movej(p[0.517307743700109, 0.0039856898066584, 0.406620630005626, -1.27504069349738, 1.04345882776593, -1.06209146617319], a = 0.2, v = 0.2, t = 0.2)
movej(p[0.517379519616387, 0.00396508837506412, 0.406536129320335, -1.27297657533889, 1.04601731798278, -1.06171146528933], a = 0.2, v = 0.2, t = 0.2)
movej(p[0.517333167676817, 0.00389416803700252, 0.406462408060522, -1.26930244099349, 1.04744008351124, -1.05631171603736], a = 0.2, v = 0.2, t = 0.2)
movej(p[0.517119455353461, 0.003726246147463, 0.40645714638215, -1.27837977650148, 1.0410936126272, -1.07293381926461], a = 0.2, v = 0.2, t = 0.2)
movej(p[0.516629976847716, 0.00364429409646353, 0.406332923880765, -1.27958664737489, 1.03661497387139, -1.08264728644987], a = 0.2, v = 0.2, t = 0.2)
movej(p[0.515853204608804, 0.00355964471498147, 0.406248639516436, -1.2834213496778, 1.02994249430038, -1.09732956258675], a = 0.2, v = 0.2, t = 0.2)
movej(p[0.514880710927096, 0.00333578058915759, 0.406288006114044, -1.26755021834437, 1.03123842836094, -1.08369681765754], a = 0.2, v = 0.2, t = 0.2)
movej(p[0.514045685186101, 0.00330890188549301, 0.406334068469181, -1.26138832694513, 1.02649976679619, -1.08799107537336], a = 0.2, v = 0.2, t = 0.2)
movej(p[0.513514191684451, 0.0034437844715598, 0.406316899983057, -1.26161510957257, 1.01900402094086, -1.09097287995006], a = 0.2, v = 0.2, t = 0.2)
movej(p[0.513316984966783, 0.0035590381588393, 0.40633792290805, -1.26628464882752, 1.01090833835243, -1.09306256652109], a = 0.2, v = 0.2, t = 0.2)
movej(p[0.513450346029829, 0.0035119609524821, 0.406465721657671, -1.2697522608094, 1.00626149400764, -1.09530452055069], a = 0.2, v = 0.2, t = 0.2)
movej(p[0.514147826884563, 0.00365870595868224, 0.406505014788566, -1.26910376217185, 1.0091237253058, -1.08988304545398], a = 0.2, v = 0.2, t = 0.2)
movej(p[0.515172315814888, 0.00390382086067538, 0.406522574898517, -1.26768961105977, 1.01643554892072, -1.07991160961815], a = 0.2, v = 0.2, t = 0.2)
movej(p[0.516197594026571, 0.0040654435547341, 0.406584250982323, -1.26895746545752, 1.02715138420997, -1.0674092652914], a = 0.2, v = 0.2, t = 0.2)
movej(p[0.516795132894064, 0.00412589107856318, 0.406613383723322, -1.26845049497583, 1.03583083493363, -1.06151806228557], a = 0.2, v = 0.2, t = 0.2)
movej(p[0.517153789960321, 0.0042280396234169, 0.406527466019648, -1.27004529101167, 1.04215627786132, -1.05784662468941], a = 0.2, v = 0.2, t = 0.2)
movej(p[0.517294255663678, 0.00418293872611578, 0.406429942236298, -1.26657309560138, 1.04384420955103, -1.05117702715643], a = 0.2, v = 0.2, t = 0.2)
movej(p[0.517261424243868, 0.0040991548357035, 0.406365079920855, -1.26733663730255, 1.04395858201369, -1.05843087631297], a = 0.2, v = 0.2, t = 0.2)
movej(p[0.517209625217148, 0.00409508620069014, 0.406275282708003, -1.27307663031739, 1.0408560640874, -1.07454943721888], a = 0.2, v = 0.2, t = 0.2)
movej(p[0.517124060685899, 0.0041648290250064, 0.406156498250516, -1.27602332870775, 1.03969994445264, -1.08240447504321], a = 0.2, v = 0.2, t = 0.2)
movej(p[0.516980663323166, 0.0040146629018442, 0.406111046207652, -1.27231826495353, 1.0400535005647, -1.07530476171995], a = 0.2, v = 0.2, t = 0.2)
movej(p[0.516416472706277, 0.00384674986829122, 0.406036763665297, -1.26670697053143, 1.03684825253863, -1.08663385384163], a = 0.2, v = 0.2, t = 0.2)
movej(p[0.51578304486416, 0.00384715857358879, 0.405901131736034, -1.26482162919247, 1.03254936507483, -1.09622332665971], a = 0.2, v = 0.2, t = 0.2)
movej(p[0.515056026356725, 0.00394271393564219, 0.405785320798603, -1.26652517817577, 1.02526602172719, -1.10910287616331], a = 0.2, v = 0.2, t = 0.2)
movej(p[0.514451616430089, 0.00384730174071957, 0.405876605689709, -1.26565987777366, 1.02155532994977, -1.10782823980615], a = 0.2, v = 0.2, t = 0.2)
movej(p[0.513847102729041, 0.00389117595395322, 0.405904487774616, -1.26191537133661, 1.01572389857404, -1.1125933253062], a = 0.2, v = 0.2, t = 0.2)
movej(p[0.513545512885117, 0.00408232556442866, 0.40590743500335, -1.26327379807274, 1.01042552485341, -1.11412883342586], a = 0.2, v = 0.2, t = 0.2)
movej(p[0.513607276869621, 0.00423979192620139, 0.405934272326769, -1.26203750692556, 1.0062470300233, -1.1074442689426], a = 0.2, v = 0.2, t = 0.2)
movej(p[0.514076371236642, 0.00426014372583382, 0.406047270567823, -1.27118977622251, 1.00211864603905, -1.11407876085349], a = 0.2, v = 0.2, t = 0.2)
movej(p[0.515013403561782, 0.00441120936299318, 0.406118061439497, -1.27249135316574, 1.00686103169219, -1.10920589785612], a = 0.2, v = 0.2, t = 0.2)
movej(p[0.515961334697514, 0.00460651339697674, 0.406142721437843, -1.28010958865793, 1.01225613001219, -1.11096372242759], a = 0.2, v = 0.2, t = 0.2)
movej(p[0.516724816764353, 0.00459909787379184, 0.406213520029857, -1.27125992709488, 1.025930177217, -1.08568823829447], a = 0.2, v = 0.2, t = 0.2)
movej(p[0.517015246937498, 0.00451669001524225, 0.406228778333651, -1.2735583956714, 1.02991696638443, -1.08997260814465], a = 0.2, v = 0.2, t = 0.2)
movej(p[0.517134324400572, 0.00451135796769205, 0.406155454555985, -1.27026492868448, 1.03410419927611, -1.08523179178093], a = 0.2, v = 0.2, t = 0.2)
movej(p[0.51717377963781, 0.00446052953626195, 0.406099164594954, -1.26743351760864, 1.03604345995386, -1.0807225076475], a = 0.2, v = 0.2, t = 0.2)
movej(p[0.517140444464087, 0.00430968079031233, 0.406069737828664, -1.26030674238585, 1.03930959218491, -1.07545260223003], a = 0.2, v = 0.2, t = 0.2)
movej(p[0.517099574520337, 0.00428653620110636, 0.406016350575838, -1.26439167122067, 1.03681313067354, -1.08622005734374], a = 0.2, v = 0.2, t = 0.2)
movej(p[0.516970631368917, 0.00425921548869222, 0.405906583399618, -1.26318480673439, 1.03628636872532, -1.08793522030651], a = 0.2, v = 0.2, t = 0.2)
movej(p[0.516575355492583, 0.00408905855940133, 0.405897589935189, -1.2658888093284, 1.03422983458069, -1.08901532049384], a = 0.2, v = 0.2, t = 0.2)
movej(p[0.515854446586531, 0.00386469560933389, 0.405862549815141, -1.25999984776033, 1.0316558514255, -1.09541330813229], a = 0.2, v = 0.2, t = 0.2)
movej(p[0.515083881238259, 0.00385747616799311, 0.405788113815058, -1.26091866692022, 1.02703726016143, -1.10285377085548], a = 0.2, v = 0.2, t = 0.2)
movej(p[0.51433439556868, 0.00390340784778598, 0.405772876378034, -1.25786874536644, 1.02113642088713, -1.10342115035817], a = 0.2, v = 0.2, t = 0.2)
movej(p[0.513697945564101, 0.00382086002931888, 0.405910209084764, -1.25919787443612, 1.01600287210171, -1.10064621166919], a = 0.2, v = 0.2, t = 0.2)
movej(p[0.513286359462214, 0.0038429390258252, 0.405995009760745, -1.25438680712143, 1.01254591028744, -1.09931819354691], a = 0.2, v = 0.2, t = 0.2)
movej(p[0.513496539689595, 0.00402871071570196, 0.406042510591878, -1.25859011770931, 1.00821010770817, -1.09967739609131], a = 0.2, v = 0.2, t = 0.2)
movej(p[0.514168352024425, 0.00414723937039689, 0.406069707541817, -1.25145560971851, 1.009947853354, -1.08306666529714], a = 0.2, v = 0.2, t = 0.2)
movej(p[0.515047654106364, 0.00420637189364563, 0.406184125253701, -1.2605174260731, 1.01037373805151, -1.09101726531675], a = 0.2, v = 0.2, t = 0.2)
movej(p[0.515994703359912, 0.00432583595427248, 0.40623121186403, -1.26829476140464, 1.01566236221664, -1.09316187458789], a = 0.2, v = 0.2, t = 0.2)
movej(p[0.516677734477992, 0.00445010587085125, 0.406238717439858, -1.27495360625304, 1.02276753696666, -1.09050707269216], a = 0.2, v = 0.2, t = 0.2)
movej(p[0.517127830818213, 0.00430397617410794, 0.40630102105652, -1.27033243844078, 1.03309722733724, -1.07325991788167], a = 0.2, v = 0.2, t = 0.2)
movej(p[0.517225382345441, 0.0041907218510976, 0.406282320234211, -1.26340558921129, 1.03947345145121, -1.06817430894467], a = 0.2, v = 0.2, t = 0.2)
movej(p[0.517286399047523, 0.00417058607245276, 0.406244425924805, -1.26065194755709, 1.04434684059, -1.06636828423677], a = 0.2, v = 0.2, t = 0.2)
movej(p[0.517246751788202, 0.00413558623448492, 0.40624426671883, -1.2624472214875, 1.04440321503426, -1.06795957976721], a = 0.2, v = 0.2, t = 0.2)
movej(p[0.517137937186371, 0.00399321231230332, 0.406259913065971, -1.27222560357463, 1.0398108251481, -1.08222837377097], a = 0.2, v = 0.2, t = 0.2)
movej(p[0.51677654775144, 0.00387116883394741, 0.406151487563139, -1.27560165497897, 1.03512741630032, -1.09065858074691], a = 0.2, v = 0.2, t = 0.2)
movej(p[0.516179615407547, 0.0037085472303499, 0.406037385586197, -1.27621531761547, 1.03076095818327, -1.09790697553855], a = 0.2, v = 0.2, t = 0.2)
movej(p[0.51528150247999, 0.00339021004282737, 0.406023575269205, -1.25650040205882, 1.03466815419608, -1.07777145052201], a = 0.2, v = 0.2, t = 0.2)
movej(p[0.514425119172487, 0.00328131214573241, 0.406022628095544, -1.24796583524254, 1.03180619637425, -1.07864095163238], a = 0.2, v = 0.2, t = 0.2)
movej(p[0.513798621851587, 0.00341214998414481, 0.406001201771898, -1.24789915937022, 1.02551118152231, -1.0824605752048], a = 0.2, v = 0.2, t = 0.2)
movej(p[0.51328373691258, 0.00353770051721286, 0.406038635688741, -1.25211782709288, 1.01635374739737, -1.08639775976755], a = 0.2, v = 0.2, t = 0.2)
movej(p[0.512977302902697, 0.00351202727959233, 0.406168286045692, -1.25297396547697, 1.00964786186161, -1.08961657593163], a = 0.2, v = 0.2, t = 0.2)
movej(p[0.513289599715471, 0.00363482561282065, 0.406203499755916, -1.25237171341873, 1.0081773248709, -1.08487749964576], a = 0.2, v = 0.2, t = 0.2)
movej(p[0.514182719167984, 0.00387615521250824, 0.40626575882319, -1.25526205376358, 1.01029059003015, -1.08155177510019], a = 0.2, v = 0.2, t = 0.2)
movej(p[0.515339364361604, 0.00410489967210642, 0.406327866818475, -1.25426471685435, 1.01949278668238, -1.07038261712799], a = 0.2, v = 0.2, t = 0.2)
movej(p[0.516291038740626, 0.00429005795882795, 0.406371961343884, -1.26138258856286, 1.02541593403628, -1.07484779974204], a = 0.2, v = 0.2, t = 0.2)
movej(p[0.51700895880553, 0.00439928173188632, 0.406360033748826, -1.26921592415063, 1.03035552996873, -1.07605833782796], a = 0.2, v = 0.2, t = 0.2)
movej(p[0.517323729471109, 0.00432692300695605, 0.406377534117209, -1.27652920011517, 1.03383240599995, -1.07643233730254], a = 0.2, v = 0.2, t = 0.2)
movej(p[0.517366063187127, 0.00414383400732951, 0.406395129547436, -1.27634768687739, 1.03537459137255, -1.0779770995103], a = 0.2, v = 0.2, t = 0.2)
movej(p[0.517364971020752, 0.00409761841948655, 0.406330217408063, -1.26732970431055, 1.04135254815132, -1.06912636046851], a = 0.2, v = 0.2, t = 0.2)
movej(p[0.517365813271515, 0.00403876317274559, 0.406305457037696, -1.26523236254574, 1.04172076699089, -1.06715424585981], a = 0.2, v = 0.2, t = 0.2)
movej(p[0.517328679649593, 0.00388339582616375, 0.406358765299148, -1.26313646179703, 1.0440106722788, -1.060145822988], a = 0.2, v = 0.2, t = 0.2)
movej(p[0.516944688401894, 0.00372377053863944, 0.406295347035424, -1.26867512166705, 1.03900959753805, -1.07646919348479], a = 0.2, v = 0.2, t = 0.2)
movej(p[0.516326902521815, 0.00359829946171885, 0.4061612956239, -1.26949553570986, 1.03572403983978, -1.08472777555207], a = 0.2, v = 0.2, t = 0.2)
movej(p[0.515518473896942, 0.00338217864548747, 0.406112490059901, -1.26636621898772, 1.03285982183425, -1.08684965269009], a = 0.2, v = 0.2, t = 0.2)
movej(p[0.51472350108779, 0.00323923782519638, 0.40616437496525, -1.26132377804717, 1.02892967916194, -1.09074192019535], a = 0.2, v = 0.2, t = 0.2)
movej(p[0.514134418224906, 0.00331304719330317, 0.406172442955141, -1.25792781178908, 1.02423351650099, -1.09171201164218], a = 0.2, v = 0.2, t = 0.2)
movej(p[0.513694416874357, 0.00346517060179191, 0.406137762150211, -1.25715048975508, 1.0177430602976, -1.09060624666933], a = 0.2, v = 0.2, t = 0.2)
movej(p[0.513588942532825, 0.00345199053804859, 0.406238403761873, -1.26041135258979, 1.01247367400385, -1.08567344958746], a = 0.2, v = 0.2, t = 0.2)
movej(p[0.513769297826013, 0.00345078650834776, 0.406349628767296, -1.26135125171885, 1.00947220621937, -1.08934648819048], a = 0.2, v = 0.2, t = 0.2)
movej(p[0.514552995799883, 0.00367335452250106, 0.406427336958164, -1.26801479797982, 1.01000802289576, -1.08836203169603], a = 0.2, v = 0.2, t = 0.2)
movej(p[0.51551253318526, 0.00387788987176244, 0.406468988477555, -1.26406939851973, 1.01776518730853, -1.07522967778491], a = 0.2, v = 0.2, t = 0.2)
movej(p[0.516348206142603, 0.00400529653863054, 0.406532561192633, -1.27645270137079, 1.02178511737931, -1.08167743161753], a = 0.2, v = 0.2, t = 0.2)
movej(p[0.516916884155222, 0.00409627179611295, 0.406511570978473, -1.27999703656707, 1.02805822666871, -1.08116894185516], a = 0.2, v = 0.2, t = 0.2)
movej(p[0.517145424754881, 0.00415681375780552, 0.406433846636683, -1.28550092975117, 1.03154675054393, -1.08501461866779], a = 0.2, v = 0.2, t = 0.2)
movej(p[0.517239451935878, 0.00403418762328814, 0.406406082898142, -1.2726079289268, 1.04050097263369, -1.06652515342891], a = 0.2, v = 0.2, t = 0.2)
movej(p[0.517176923369362, 0.00397963268750488, 0.406325613970699, -1.26334544809497, 1.04436661784246, -1.06540075854754], a = 0.2, v = 0.2, t = 0.2)
movej(p[0.517198923434536, 0.00403653838124378, 0.406243929414923, -1.26183980569459, 1.04550875482491, -1.06711765363746], a = 0.2, v = 0.2, t = 0.2)
movej(p[0.51715439668806, 0.00403365080356112, 0.406165446602171, -1.26118030256256, 1.0449108199105, -1.06606513088118], a = 0.2, v = 0.2, t = 0.2)
movej(p[0.516908623700774, 0.00380770338567525, 0.406156932702635, -1.26005169049536, 1.0434991024596, -1.06958178584797], a = 0.2, v = 0.2, t = 0.2)
movej(p[0.516422706544798, 0.00372134605355878, 0.406018787152514, -1.26006648254309, 1.03930810756106, -1.08170612334163], a = 0.2, v = 0.2, t = 0.2)
movej(p[0.515731917522388, 0.00368061191981002, 0.405888423343554, -1.26064698383293, 1.03314931069795, -1.09231173224978], a = 0.2, v = 0.2, t = 0.2)
movej(p[0.515001963706958, 0.00357146200710255, 0.405891890410857, -1.26153313997864, 1.02713055176768, -1.09574908762603], a = 0.2, v = 0.2, t = 0.2)
movej(p[0.5143219559746, 0.00348651250314833, 0.405944950938675, -1.2555677122117, 1.02433750100597, -1.0919435705718], a = 0.2, v = 0.2, t = 0.2)
movej(p[0.513822784149786, 0.00357614041057156, 0.405920396916932, -1.25299904337519, 1.02136536310615, -1.08653033336389], a = 0.2, v = 0.2, t = 0.2)
movej(p[0.513608730350566, 0.00368357860710897, 0.405968310294648, -1.25087611902552, 1.01781874506829, -1.0798577248053], a = 0.2, v = 0.2, t = 0.2)
movej(p[0.513774877709879, 0.00365935434657965, 0.406147344864201, -1.25423266926384, 1.01414351876161, -1.07697609098565], a = 0.2, v = 0.2, t = 0.2)
movej(p[0.514432807919478, 0.00375464738280912, 0.406286428697346, -1.26327740569292, 1.01206610813906, -1.0878552669657], a = 0.2, v = 0.2, t = 0.2)
movej(p[0.515386484511917, 0.00399515367355955, 0.406342382404491, -1.27088018122642, 1.01656657315023, -1.08704193283512], a = 0.2, v = 0.2, t = 0.2)
movej(p[0.516310929588366, 0.00408522819836479, 0.406410049290859, -1.27109230213521, 1.02496108787608, -1.07485792054849], a = 0.2, v = 0.2, t = 0.2)
movej(p[0.516785960543494, 0.00406352899206535, 0.406458255779184, -1.26784379813006, 1.03252506702406, -1.07037528066475], a = 0.2, v = 0.2, t = 0.2)
movej(p[0.5171006014773, 0.00408024776615074, 0.406425937345828, -1.26975714126124, 1.0352743495218, -1.07211820571457], a = 0.2, v = 0.2, t = 0.2)
movej(p[0.517175800765928, 0.00409899166094292, 0.406324817638264, -1.27136105195319, 1.03715816016636, -1.07213643478663], a = 0.2, v = 0.2, t = 0.2)
movej(p[0.517298605550525, 0.00395501937897119, 0.406351083725771, -1.27180878954009, 1.03933209504991, -1.06547186303644], a = 0.2, v = 0.2, t = 0.2)
movej(p[0.517208016819603, 0.00384720704073572, 0.406321821568041, -1.26267421451528, 1.04280596778419, -1.0610471585862], a = 0.2, v = 0.2, t = 0.2)
movej(p[0.516952729568636, 0.00380583826066551, 0.406200866558928, -1.25999778065358, 1.04296712509387, -1.06177567421299], a = 0.2, v = 0.2, t = 0.2)
movej(p[0.516391466655265, 0.00366075873823694, 0.406089000099497, -1.25473811763152, 1.04107719916068, -1.0624231697356], a = 0.2, v = 0.2, t = 0.2)
movej(p[0.515556877718212, 0.00339956737733153, 0.40606294570183, -1.26129613198392, 1.03241378583114, -1.08163990994259], a = 0.2, v = 0.2, t = 0.2)
movej(p[0.514743626521164, 0.00335290395141098, 0.406006186958173, -1.25847457198833, 1.02710778326054, -1.08958233192051], a = 0.2, v = 0.2, t = 0.2)
movej(p[0.514045084995063, 0.00347282664812037, 0.405961219666441, -1.2598191245528, 1.01924045877407, -1.09503973361475], a = 0.2, v = 0.2, t = 0.2)
movej(p[0.51348895623441, 0.00346704748267832, 0.406002810464965, -1.24856367439031, 1.01929944884334, -1.07290146739826], a = 0.2, v = 0.2, t = 0.2)
movej(p[0.513197018894125, 0.00342073328078829, 0.40613230345416, -1.24839494094014, 1.01417484766, -1.07563806145688], a = 0.2, v = 0.2, t = 0.2)
movej(p[0.513560057594485, 0.00352153161406099, 0.406216372103194, -1.25617528374172, 1.00993779699901, -1.07901473450148], a = 0.2, v = 0.2, t = 0.2)
movej(p[0.514419475694995, 0.00371493284521173, 0.406313370037212, -1.26311410652463, 1.00863656564748, -1.08297497028395], a = 0.2, v = 0.2, t = 0.2)
movej(p[0.51556303443855, 0.00380353040299538, 0.406454437346301, -1.25945777154183, 1.01772170080037, -1.06876005820017], a = 0.2, v = 0.2, t = 0.2)
movej(p[0.516482426437287, 0.00397845685206362, 0.406470302420399, -1.25739163145727, 1.0277597035283, -1.06166688392361], a = 0.2, v = 0.2, t = 0.2)
movej(p[0.517124160379081, 0.00407928453564317, 0.406484973719699, -1.25784614010412, 1.03864407574433, -1.05037329447343], a = 0.2, v = 0.2, t = 0.2)
movej(p[0.51733326573278, 0.0039996466858193, 0.406503998686447, -1.26273032113192, 1.04280138608881, -1.04918217539707], a = 0.2, v = 0.2, t = 0.2)
movej(p[0.517331188428614, 0.00384834664084101, 0.406554700751622, -1.26520312020673, 1.04545795972899, -1.05320714507795], a = 0.2, v = 0.2, t = 0.2)
movej(p[0.517349077936936, 0.00384004054601574, 0.40649843953069, -1.26386687163573, 1.0473641736668, -1.05074057737869], a = 0.2, v = 0.2, t = 0.2)
movej(p[0.517326720640079, 0.00376744889462823, 0.406449971767939, -1.26246992376568, 1.04820479985569, -1.04834126925376], a = 0.2, v = 0.2, t = 0.2)
movej(p[0.517086597554021, 0.00356623108821271, 0.406385045578902, -1.2579498570935, 1.04797942642052, -1.04735991526253], a = 0.2, v = 0.2, t = 0.2)
movej(p[0.516535551067895, 0.00344824434508214, 0.406230601660361, -1.25619364197669, 1.04562314801766, -1.05733119571706], a = 0.2, v = 0.2, t = 0.2)
movej(p[0.5156882228311, 0.00332537652697411, 0.40607100450718, -1.25762663155835, 1.03940940873476, -1.07041042833791], a = 0.2, v = 0.2, t = 0.2)
movej(p[0.514783456485756, 0.0031693494096035, 0.406067436962275, -1.25667766873178, 1.03442153300632, -1.07100268132319], a = 0.2, v = 0.2, t = 0.2)
movej(p[0.51394112822502, 0.00304550631335982, 0.406110463795513, -1.2519048900284, 1.02798804302149, -1.07343042184368], a = 0.2, v = 0.2, t = 0.2)
movej(p[0.513379416815916, 0.00318248986745818, 0.406109202339642, -1.25059793504497, 1.02243468189489, -1.06995348388856], a = 0.2, v = 0.2, t = 0.2)
movej(p[0.513211798753522, 0.00330378539573493, 0.406124129321927, -1.25075700185093, 1.01584480872732, -1.06804000254427], a = 0.2, v = 0.2, t = 0.2)
movej(p[0.513500431710244, 0.00335307562458777, 0.406257006325706, -1.25959547654149, 1.01089770404983, -1.07427255493389], a = 0.2, v = 0.2, t = 0.2)
movej(p[0.51432805923983, 0.0034647152559817, 0.406378019193192, -1.26624982335771, 1.01080979652993, -1.08126864645256], a = 0.2, v = 0.2, t = 0.2)
movej(p[0.515419091391471, 0.00371405962031476, 0.406481760314075, -1.27114097901039, 1.01723062118111, -1.07488291521467], a = 0.2, v = 0.2, t = 0.2)
movej(p[0.516416274099365, 0.00383578962681556, 0.406615252779928, -1.26777900169755, 1.03020137330746, -1.05424623544341], a = 0.2, v = 0.2, t = 0.2)
movej(p[0.516978859475938, 0.00388119353760974, 0.406697048087978, -1.26368952389479, 1.03988698746421, -1.04424577700998], a = 0.2, v = 0.2, t = 0.2)
movej(p[0.517291510347559, 0.0039111687393026, 0.406650686609062, -1.26106428599655, 1.04716514050022, -1.03936142738024], a = 0.2, v = 0.2, t = 0.2)
movej(p[0.517366938936767, 0.00383752521147718, 0.406576855490017, -1.26102804905408, 1.04767940769669, -1.04025708012063], a = 0.2, v = 0.2, t = 0.2)
movej(p[0.517396010347094, 0.00367357796918177, 0.406582007756054, -1.26740077925727, 1.04591251725657, -1.04751704466177], a = 0.2, v = 0.2, t = 0.2)
movej(p[0.517358093512436, 0.00359702695815499, 0.406556373910064, -1.27044051925904, 1.04506531332137, -1.05518815746079], a = 0.2, v = 0.2, t = 0.2)
movej(p[0.517225018461709, 0.00358203918838217, 0.406445467952513, -1.26966405432324, 1.04629101036807, -1.05288775909236], a = 0.2, v = 0.2, t = 0.2)
movej(p[0.516815844903509, 0.00338154311393439, 0.406370085468668, -1.26138512701774, 1.04913297298573, -1.0453526970027], a = 0.2, v = 0.2, t = 0.2)
movej(p[0.516118731968184, 0.0032171436851277, 0.406288556953346, -1.25608692491172, 1.04554196458687, -1.05512417649671], a = 0.2, v = 0.2, t = 0.2)
movej(p[0.515366932921324, 0.00318232052981969, 0.406210602728352, -1.25231877432278, 1.04055019886586, -1.0620190238398], a = 0.2, v = 0.2, t = 0.2)
movej(p[0.514584305511614, 0.00319118264759552, 0.406162366463577, -1.24926475552988, 1.03450537474025, -1.06455694950414], a = 0.2, v = 0.2, t = 0.2)
movej(p[0.513872486165619, 0.00306558450774908, 0.406217506380456, -1.24992299088881, 1.02766974173877, -1.0667292179454], a = 0.2, v = 0.2, t = 0.2)
movej(p[0.513357757834559, 0.00309393553963735, 0.406230720879297, -1.24830874531031, 1.02324043224182, -1.06620787633466], a = 0.2, v = 0.2, t = 0.2)
movej(p[0.513248039283122, 0.00326123580372516, 0.406276163973685, -1.25340226374818, 1.01635295544506, -1.06833927507189], a = 0.2, v = 0.2, t = 0.2)
movej(p[0.513675804681847, 0.00335815282813896, 0.406396175168668, -1.24998743237419, 1.01723478593161, -1.05540053489174], a = 0.2, v = 0.2, t = 0.2)
movej(p[0.514470899877145, 0.00348597497627079, 0.406542654681434, -1.25480733768852, 1.01823574743707, -1.06162628942023], a = 0.2, v = 0.2, t = 0.2)
movej(p[0.515593458125632, 0.00376794374203718, 0.406590290188046, -1.26441175108909, 1.02241443369715, -1.06134445662217], a = 0.2, v = 0.2, t = 0.2)
movej(p[0.516506473001767, 0.00397756989983281, 0.406636494340337, -1.2728986763324, 1.02872860375383, -1.06127105843665], a = 0.2, v = 0.2, t = 0.2)
movej(p[0.517062727010556, 0.00388680937782915, 0.406742863458039, -1.27763930162047, 1.03226667236565, -1.05885939625871], a = 0.2, v = 0.2, t = 0.2)
movej(p[0.517275533297629, 0.00385219769990421, 0.406709842966183, -1.27217118218738, 1.03850677634516, -1.0546025394494], a = 0.2, v = 0.2, t = 0.2)
movej(p[0.517390453637011, 0.00382244987506757, 0.406643263759115, -1.27283008746048, 1.04022117578424, -1.05555125918154], a = 0.2, v = 0.2, t = 0.2)
movej(p[0.517398632289859, 0.00376062602795992, 0.406608846589469, -1.2727152960164, 1.0423260946603, -1.05257147933525], a = 0.2, v = 0.2, t = 0.2)
movej(p[0.517312683871155, 0.00363334224850036, 0.406596783861386, -1.27378603950795, 1.04335335522632, -1.05549188373325], a = 0.2, v = 0.2, t = 0.2)
movej(p[0.517028839092338, 0.00356028399683732, 0.406453632469838, -1.26939153855399, 1.04524144457055, -1.05383379615778], a = 0.2, v = 0.2, t = 0.2)
movej(p[0.516451171513607, 0.00337061107115684, 0.40635482224037, -1.26552412203088, 1.04391323673719, -1.05666543668321], a = 0.2, v = 0.2, t = 0.2)
movej(p[0.51564533123607, 0.00309839807342694, 0.406341058989833, -1.25364733349427, 1.04345837209459, -1.05385781677509], a = 0.2, v = 0.2, t = 0.2)
movej(p[0.514911787872735, 0.00305506945266755, 0.406338173642388, -1.25085181592946, 1.03740927022708, -1.06361367414152], a = 0.2, v = 0.2, t = 0.2)
movej(p[0.514409104101804, 0.00318177713854682, 0.406323639813514, -1.24935939442482, 1.03259040664176, -1.06400288156378], a = 0.2, v = 0.2, t = 0.2)
movej(p[0.514440840016968, 0.00322049122475886, 0.406430575355396, -1.25426852066092, 1.02728200571956, -1.06437792409377], a = 0.2, v = 0.2, t = 0.2)
movej(p[0.514858148318221, 0.00324704965748777, 0.406612783599325, -1.25350503353184, 1.02709896531912, -1.06165459190597], a = 0.2, v = 0.2, t = 0.2)
movej(p[0.515767746845617, 0.00348015197280519, 0.406689566522246, -1.2508870606405, 1.03312958006986, -1.05120308466695], a = 0.2, v = 0.2, t = 0.2)
movej(p[0.516587321117616, 0.0036733051537353, 0.406739051408576, -1.24936829544313, 1.04063439416318, -1.03926862885296], a = 0.2, v = 0.2, t = 0.2)
movej(p[0.517209754777626, 0.00372680232663271, 0.406781389695056, -1.25554864788495, 1.04417169761888, -1.03675109496552], a = 0.2, v = 0.2, t = 0.2)
movej(p[0.517460042386612, 0.00369230467912452, 0.406788490777269, -1.25977604966944, 1.04644257697505, -1.03828738626435], a = 0.2, v = 0.2, t = 0.2)
movej(p[0.51754876486314, 0.00373734497568523, 0.406704424484116, -1.26410647555363, 1.04674724302197, -1.04087816713363], a = 0.2, v = 0.2, t = 0.2)
movej(p[0.517528499461751, 0.00361517325864316, 0.40666210462044, -1.26130860615929, 1.04874747544665, -1.03300565442325], a = 0.2, v = 0.2, t = 0.2)
movej(p[0.517180473122255, 0.00345303898970969, 0.40656920882476, -1.25798972837195, 1.04742486985662, -1.04101193911625], a = 0.2, v = 0.2, t = 0.2)
movej(p[0.516585972081305, 0.00331836587606072, 0.406439274716579, -1.25760423234611, 1.04377717252286, -1.0506501726921], a = 0.2, v = 0.2, t = 0.2)
movej(p[0.515586882522116, 0.00316489360578051, 0.406319909790933, -1.25428243950542, 1.04022398001294, -1.0571199343927], a = 0.2, v = 0.2, t = 0.2)
movej(p[0.514539530271923, 0.00292350932392745, 0.406357132243701, -1.25643234824741, 1.03203900775851, -1.06596231773074], a = 0.2, v = 0.2, t = 0.2)
movej(p[0.513633289181459, 0.00289030092423572, 0.406367099517396, -1.25221931161623, 1.02503705362765, -1.07026291325056], a = 0.2, v = 0.2, t = 0.2)
movej(p[0.51306151473806, 0.00302673077217634, 0.406334233783473, -1.25216380841623, 1.01736208041433, -1.07108135982496], a = 0.2, v = 0.2, t = 0.2)
movej(p[0.512847559762331, 0.00307115794872803, 0.406362495254938, -1.24830885941925, 1.01396083173808, -1.06240209962529], a = 0.2, v = 0.2, t = 0.2)
movej(p[0.513048296095498, 0.00304298767125915, 0.406486403158874, -1.25002832075919, 1.0121407250492, -1.06385313344318], a = 0.2, v = 0.2, t = 0.2)
movej(p[0.513808333884339, 0.00318837508389307, 0.406604380547431, -1.25659036117212, 1.01310518326346, -1.06515493840367], a = 0.2, v = 0.2, t = 0.2)
movej(p[0.514825627954116, 0.00347707249407772, 0.406662685277719, -1.26161605574582, 1.01691558401143, -1.06468181172667], a = 0.2, v = 0.2, t = 0.2)
movej(p[0.515893735749819, 0.00364607220759962, 0.406751869750091, -1.26632860784205, 1.02285690819361, -1.06036246065492], a = 0.2, v = 0.2, t = 0.2)
movej(p[0.516695987351867, 0.00383291099282027, 0.406728533577779, -1.26221254927733, 1.03249114303894, -1.05090800853685], a = 0.2, v = 0.2, t = 0.2)
movej(p[0.517249552941612, 0.00395447795332743, 0.406691442922571, -1.26626370528805, 1.03850755208582, -1.04927346848738], a = 0.2, v = 0.2, t = 0.2)
movej(p[0.517431556303059, 0.00388370722297462, 0.40665384432484, -1.26439994052942, 1.04415228708739, -1.04296483045645], a = 0.2, v = 0.2, t = 0.2)
movej(p[0.517312308197639, 0.00374710991645047, 0.406634475292755, -1.26946893475947, 1.04437795903763, -1.05520982384732], a = 0.2, v = 0.2, t = 0.2)
movej(p[0.516905682510326, 0.00359611533428492, 0.406502349983771, -1.2705073432567, 1.04303988218988, -1.06120526268734], a = 0.2, v = 0.2, t = 0.2)
movej(p[0.516080999150189, 0.00338867419638061, 0.406406317103887, -1.26831425250593, 1.04206903948563, -1.06326125332033], a = 0.2, v = 0.2, t = 0.2)
movej(p[0.514999307161525, 0.00301792953050669, 0.406405815321637, -1.26081567411688, 1.03805155208605, -1.06304682392009], a = 0.2, v = 0.2, t = 0.2)
movej(p[0.513819057336005, 0.00289829969832612, 0.406361038224666, -1.25154325574019, 1.03287457800569, -1.0620931428531], a = 0.2, v = 0.2, t = 0.2)
movej(p[0.512812416686891, 0.00290305922082093, 0.406313628085492, -1.25170739819963, 1.02048961881562, -1.06771200302576], a = 0.2, v = 0.2, t = 0.2)
movej(p[0.512261798873302, 0.00292845408510972, 0.406333081343575, -1.25521392591562, 1.01059388617675, -1.06791698557779], a = 0.2, v = 0.2, t = 0.2)
movej(p[0.512188660957308, 0.00291864830707883, 0.406430241213815, -1.263161951948, 1.00013340942662, -1.08252092290916], a = 0.2, v = 0.2, t = 0.2)
movej(p[0.512947314722604, 0.00311896663846998, 0.406483571157107, -1.2660325130634, 1.00108697819037, -1.07789547223253], a = 0.2, v = 0.2, t = 0.2)
movej(p[0.514085250388627, 0.00339318248592774, 0.406568186355222, -1.26772839789299, 1.00519333259032, -1.07367130637804], a = 0.2, v = 0.2, t = 0.2)
movej(p[0.515320393622069, 0.00361325478610847, 0.406681419054921, -1.26310283846173, 1.01705852348584, -1.05961483514518], a = 0.2, v = 0.2, t = 0.2)
movej(p[0.516302860842947, 0.00386781774550975, 0.406708936267191, -1.269742217751, 1.02534224130563, -1.06584471570776], a = 0.2, v = 0.2, t = 0.2)
movej(p[0.516982210300145, 0.0040253107988667, 0.406653733440872, -1.27172764140648, 1.03519177135503, -1.05893612225616], a = 0.2, v = 0.2, t = 0.2)
movej(p[0.517339835240352, 0.00397054059704862, 0.406651040746443, -1.27753478981934, 1.04046672289639, -1.05477574013276], a = 0.2, v = 0.2, t = 0.2)
movej(p[0.517392626982952, 0.00383758542548081, 0.406654913685342, -1.2713584213151, 1.04495129406791, -1.04846804637736], a = 0.2, v = 0.2, t = 0.2)
movej(p[0.517411175892922, 0.00381453547994109, 0.406590978869713, -1.26637262958028, 1.04938829562913, -1.04471983981604], a = 0.2, v = 0.2, t = 0.2)
movej(p[0.51717965265751, 0.0036623674197009, 0.406536495704274, -1.26418836596073, 1.04906156860746, -1.04524826462989], a = 0.2, v = 0.2, t = 0.2)
movej(p[0.516589988617966, 0.00340186922456708, 0.406499523221303, -1.26258209853858, 1.04810682821822, -1.05246143986498], a = 0.2, v = 0.2, t = 0.2)
movej(p[0.515653072184349, 0.00321306728912317, 0.406391695700739, -1.26630242628447, 1.03986792390143, -1.07498263274238], a = 0.2, v = 0.2, t = 0.2)
movej(p[0.514570212403512, 0.00314462043178382, 0.406288586100967, -1.26461808921736, 1.0317389421517, -1.08508902893612], a = 0.2, v = 0.2, t = 0.2)
movej(p[0.513573510137148, 0.00299594656236701, 0.406323802870816, -1.2585544818594, 1.02629126847914, -1.07552133548679], a = 0.2, v = 0.2, t = 0.2)
movej(p[0.512740983426101, 0.00291138678976442, 0.406407656032659, -1.25474444080181, 1.01586146448942, -1.07774719908601], a = 0.2, v = 0.2, t = 0.2)
movej(p[0.512489003763221, 0.00304078603723232, 0.40642953420245, -1.25673855909929, 1.00795657479016, -1.07785146528782], a = 0.2, v = 0.2, t = 0.2)
movej(p[0.512826371978558, 0.00324296257646298, 0.40644298516631, -1.25703550535592, 1.00357065185776, -1.07487775903592], a = 0.2, v = 0.2, t = 0.2)
movej(p[0.5136988062588, 0.00336912586082931, 0.406562589472823, -1.26286805419472, 1.00322389029377, -1.07413228173115], a = 0.2, v = 0.2, t = 0.2)
movej(p[0.514809687940717, 0.00360643959683974, 0.406618090542774, -1.26260492493619, 1.01165005195964, -1.06856867656944], a = 0.2, v = 0.2, t = 0.2)
movej(p[0.515991212940793, 0.00393279166216435, 0.406619845079177, -1.26916317004934, 1.02118971520954, -1.06525656728789], a = 0.2, v = 0.2, t = 0.2)
movej(p[0.516908547087638, 0.00405190142823263, 0.406637910098837, -1.26391334488403, 1.03516024634406, -1.04606705836616], a = 0.2, v = 0.2, t = 0.2)
movej(p[0.517268250223288, 0.004000832926824, 0.406684636465779, -1.27120798523613, 1.04008505438601, -1.05359974809879], a = 0.2, v = 0.2, t = 0.2)
movej(p[0.517435843681169, 0.00397920338946314, 0.406618878480421, -1.2758635697668, 1.04095944567774, -1.06133713390964], a = 0.2, v = 0.2, t = 0.2)
movej(p[0.517357038051473, 0.00397090245641843, 0.406532031250299, -1.28182375300875, 1.04000334992708, -1.06972326381708], a = 0.2, v = 0.2, t = 0.2)
movej(p[0.517086028199371, 0.00365793062177623, 0.406507689876692, -1.27208703484229, 1.04196380966811, -1.06001407444314], a = 0.2, v = 0.2, t = 0.2)
movej(p[0.516442378355341, 0.00346496701667743, 0.406411198400337, -1.26312781533773, 1.04174910860944, -1.06361660021977], a = 0.2, v = 0.2, t = 0.2)
movej(p[0.515526653337072, 0.00333441735481556, 0.406261729877887, -1.25755682073708, 1.03792663241383, -1.06753938916387], a = 0.2, v = 0.2, t = 0.2)
movej(p[0.514513294632148, 0.00325274575481318, 0.406218088463965, -1.25548526627606, 1.03108620721178, -1.07340655500645], a = 0.2, v = 0.2, t = 0.2)
movej(p[0.513563679650527, 0.00315778538891811, 0.406288328813572, -1.25085166912053, 1.02493459720749, -1.07601328267628], a = 0.2, v = 0.2, t = 0.2)
movej(p[0.512989812270745, 0.00326448408954289, 0.40630934999031, -1.25339996172301, 1.0170533645018, -1.0796853149298], a = 0.2, v = 0.2, t = 0.2)
movej(p[0.51283973642665, 0.00339525248979254, 0.406322989356694, -1.25615492939907, 1.00954854387548, -1.08066642656711], a = 0.2, v = 0.2, t = 0.2)
movej(p[0.51315370917324, 0.00338201423608832, 0.406404263258642, -1.25189945669842, 1.00942392537427, -1.06587186234395], a = 0.2, v = 0.2, t = 0.2)
movej(p[0.513873196902844, 0.00345388619498411, 0.406516921406036, -1.25387489673394, 1.01049537821802, -1.06573914452663], a = 0.2, v = 0.2, t = 0.2)
movej(p[0.514855884851316, 0.00365877079480014, 0.406598705644652, -1.25779753722071, 1.01650566671694, -1.06246718930809], a = 0.2, v = 0.2, t = 0.2)
movej(p[0.515884787781589, 0.0038368481085162, 0.4066774617926, -1.2648983337216, 1.02321292441428, -1.06030274102353], a = 0.2, v = 0.2, t = 0.2)
movej(p[0.51659546317519, 0.00388367662329675, 0.406729924150965, -1.26459053572997, 1.03110189503085, -1.05500572133443], a = 0.2, v = 0.2, t = 0.2)
movej(p[0.517092633568296, 0.00398309878921322, 0.406678732318361, -1.26520068455522, 1.03756627702728, -1.05015076833626], a = 0.2, v = 0.2, t = 0.2)
movej(p[0.517284648837088, 0.00396229028428208, 0.406624425107545, -1.27032323625536, 1.03888950569955, -1.05472235287918], a = 0.2, v = 0.2, t = 0.2)
movej(p[0.51726005798213, 0.00383996245938911, 0.406584393039919, -1.27287356736169, 1.0394785726347, -1.0593789007997], a = 0.2, v = 0.2, t = 0.2)
movej(p[0.516937479555777, 0.00367755022133013, 0.406449197216462, -1.27499353730679, 1.03648522137293, -1.07572691414815], a = 0.2, v = 0.2, t = 0.2)
movej(p[0.516322213798717, 0.00355018163471454, 0.406288859737585, -1.27352611407687, 1.03295661294746, -1.08453218621495], a = 0.2, v = 0.2, t = 0.2)
movej(p[0.515450521969739, 0.00332105883723486, 0.406205277435813, -1.26929585921659, 1.03006987320373, -1.08545119681621], a = 0.2, v = 0.2, t = 0.2)
movej(p[0.514471360685649, 0.00317271542781141, 0.406217009162824, -1.26096394339393, 1.02650621061352, -1.08833275832827], a = 0.2, v = 0.2, t = 0.2)
movej(p[0.513765720971669, 0.00328293357740989, 0.40618147326797, -1.25735673856264, 1.02210474617048, -1.08774053839508], a = 0.2, v = 0.2, t = 0.2)
movej(p[0.513256571450427, 0.00340929724317934, 0.406173236719137, -1.25287112475398, 1.01859002071541, -1.08174078687069], a = 0.2, v = 0.2, t = 0.2)
movej(p[0.513105455398771, 0.00342209137099641, 0.406277432099194, -1.25760979960772, 1.01275314733677, -1.08070436677605], a = 0.2, v = 0.2, t = 0.2)
movej(p[0.513469007322709, 0.00343279360418176, 0.406382173441585, -1.26166023431924, 1.00976590244631, -1.08522190397609], a = 0.2, v = 0.2, t = 0.2)
movej(p[0.514387417777821, 0.00365817815390223, 0.406462956730005, -1.26534534786915, 1.0128532610685, -1.08090666875242], a = 0.2, v = 0.2, t = 0.2)
movej(p[0.515659668747597, 0.0038312522659993, 0.406565224121806, -1.2588725071922, 1.02372335597013, -1.05966280866279], a = 0.2, v = 0.2, t = 0.2)
movej(p[0.5165213015764, 0.00396379301590033, 0.406625588904653, -1.2573321241219, 1.03320333334672, -1.05363902063502], a = 0.2, v = 0.2, t = 0.2)
movej(p[0.517175193776058, 0.00406231120657015, 0.406623493667393, -1.26658680536686, 1.03737037818932, -1.05818492952058], a = 0.2, v = 0.2, t = 0.2)
movej(p[0.517362561463077, 0.00407584577732227, 0.406560420903184, -1.27375240635127, 1.04001496773656, -1.06293159711293], a = 0.2, v = 0.2, t = 0.2)
movej(p[0.517481277699475, 0.00388269045649661, 0.406578699936997, -1.27348648446776, 1.04367412487679, -1.05351602102513], a = 0.2, v = 0.2, t = 0.2)
movej(p[0.517327040826108, 0.00372506961097485, 0.406502964267388, -1.26418238359064, 1.04717672904079, -1.04669961117407], a = 0.2, v = 0.2, t = 0.2)
movej(p[0.516899995089907, 0.00360141588882992, 0.406354137845366, -1.2606260072454, 1.04658809012121, -1.0476660490238], a = 0.2, v = 0.2, t = 0.2)
movej(p[0.516100121331443, 0.00337513937508922, 0.406252737397882, -1.25630495676915, 1.043491341182, -1.05116762085663], a = 0.2, v = 0.2, t = 0.2)
movej(p[0.515122161481506, 0.00317889805874913, 0.406209334445526, -1.25514514327652, 1.03705921594841, -1.06736337326417], a = 0.2, v = 0.2, t = 0.2)
movej(p[0.514242968655842, 0.00318267975625032, 0.406151670860281, -1.25662169431096, 1.02816213026429, -1.0786847602797], a = 0.2, v = 0.2, t = 0.2)
movej(p[0.513520136713309, 0.0033184268229887, 0.406122982394176, -1.26092780030168, 1.01797296438967, -1.08927706230095], a = 0.2, v = 0.2, t = 0.2)
movej(p[0.512986346756531, 0.00322139381728271, 0.406209194501954, -1.2566156113577, 1.01504117222145, -1.0785490652679], a = 0.2, v = 0.2, t = 0.2)
movej(p[0.512731426174137, 0.00320656215873707, 0.406281810886997, -1.25529110844965, 1.01061160146074, -1.07906891356742], a = 0.2, v = 0.2, t = 0.2)
movej(p[0.513083364464761, 0.00335095074179198, 0.40629417132292, -1.25660318327379, 1.00797743292168, -1.07700334770345], a = 0.2, v = 0.2, t = 0.2)
movej(p[0.513979087818817, 0.00355389725806183, 0.40636176536949, -1.26444072381132, 1.00616538458709, -1.08151431020476], a = 0.2, v = 0.2, t = 0.2)
movej(p[0.515068156941216, 0.00370224531556096, 0.406496835490072, -1.27171181964466, 1.01026482007123, -1.08646141228041], a = 0.2, v = 0.2, t = 0.2)
movej(p[0.5161533519886, 0.00392123148854052, 0.406549860829077, -1.27449196223207, 1.02134374288779, -1.07887806999837], a = 0.2, v = 0.2, t = 0.2)
movej(p[0.516895607122263, 0.00404299434094775, 0.406564278418826, -1.27714068083214, 1.02996937996539, -1.07265015142568], a = 0.2, v = 0.2, t = 0.2)
movej(p[0.517278190532543, 0.00395375764611381, 0.406574321148646, -1.26739500966783, 1.04059817615411, -1.05263662454235], a = 0.2, v = 0.2, t = 0.2)
movej(p[0.517366955570761, 0.00388015067563105, 0.406543755030368, -1.27105377656919, 1.04171926029415, -1.06338558928341], a = 0.2, v = 0.2, t = 0.2)
movej(p[0.517400587468932, 0.00387183888849573, 0.406483543312073, -1.27420323906068, 1.04173021835799, -1.0670142240749], a = 0.2, v = 0.2, t = 0.2)
movej(p[0.517320472725233, 0.0037639294242308, 0.406419327024699, -1.27195741239479, 1.04272863414533, -1.06180660182555], a = 0.2, v = 0.2, t = 0.2)
movej(p[0.516862568326288, 0.00349320776286293, 0.406374855148272, -1.26502746561686, 1.04241791655628, -1.0620185182534], a = 0.2, v = 0.2, t = 0.2)
movej(p[0.516175454176553, 0.00340485785063304, 0.406210409626159, -1.25613510181692, 1.04190560004941, -1.06412270507907], a = 0.2, v = 0.2, t = 0.2)
movej(p[0.515209372648112, 0.00334081058182889, 0.406116595395556, -1.25455354504704, 1.0364603215129, -1.07253943636985], a = 0.2, v = 0.2, t = 0.2)
movej(p[0.514249839238864, 0.00325593004472463, 0.406125787444213, -1.25587367292178, 1.0297739207578, -1.07780646874155], a = 0.2, v = 0.2, t = 0.2)
movej(p[0.513451033555128, 0.0032334612453395, 0.40615465368591, -1.25459935515918, 1.02268523000963, -1.083237734399], a = 0.2, v = 0.2, t = 0.2)
movej(p[0.512932237324291, 0.00337063427739901, 0.406127895979169, -1.25581179846239, 1.01705918860678, -1.08095891077433], a = 0.2, v = 0.2, t = 0.2)
movej(p[0.512987468359544, 0.00343346746866952, 0.406186765812867, -1.25226946575043, 1.01469414949598, -1.06689353604869], a = 0.2, v = 0.2, t = 0.2)
movej(p[0.513492703507999, 0.00345812893803838, 0.40634230280877, -1.2550789847589, 1.01370030132372, -1.0652955403269], a = 0.2, v = 0.2, t = 0.2)
movej(p[0.514592226005614, 0.00366730218040073, 0.406445618389001, -1.26372791574158, 1.01469413961728, -1.07433520938382], a = 0.2, v = 0.2, t = 0.2)
movej(p[0.515803206559644, 0.00398298725347339, 0.406496345851001, -1.2710317606393, 1.02169848100573, -1.07570729170691], a = 0.2, v = 0.2, t = 0.2)
movej(p[0.516865345474574, 0.00406248350248045, 0.406587199792496, -1.27156720684856, 1.03205503507492, -1.06289235884402], a = 0.2, v = 0.2, t = 0.2)
movej(p[0.517290707316975, 0.00404215372927825, 0.406630658695706, -1.26989442904555, 1.0387719429986, -1.06268800904692], a = 0.2, v = 0.2, t = 0.2)
movej(p[0.517521387120303, 0.00405209995100113, 0.406584762795861, -1.26829949693526, 1.04354468960635, -1.0584128816312], a = 0.2, v = 0.2, t = 0.2)
movej(p[0.517502504376475, 0.0040011174794571, 0.406510476390935, -1.26705013990408, 1.0450777054239, -1.05586751756058], a = 0.2, v = 0.2, t = 0.2)
movej(p[0.517302035634116, 0.00378426420770672, 0.406502659486874, -1.27038813856886, 1.04285879136674, -1.06188521603504], a = 0.2, v = 0.2, t = 0.2)
movej(p[0.516771789210152, 0.00358410910136821, 0.406397982293178, -1.26611401033919, 1.04158256150179, -1.06563064112924], a = 0.2, v = 0.2, t = 0.2)
movej(p[0.515832088260573, 0.00343339076818725, 0.406274846163614, -1.26366209814419, 1.03783695171937, -1.07346083712611], a = 0.2, v = 0.2, t = 0.2)
movej(p[0.514750238055587, 0.0031547275656152, 0.406268083863511, -1.25338817632582, 1.03523009979933, -1.065394151228], a = 0.2, v = 0.2, t = 0.2)
movej(p[0.513647343679075, 0.00298485303158279, 0.406327383242483, -1.25622815297869, 1.02373999026697, -1.08117830167609], a = 0.2, v = 0.2, t = 0.2)
movej(p[0.51286413494102, 0.00302902277722127, 0.406336028959891, -1.26059156960001, 1.01230481499823, -1.08822963815403], a = 0.2, v = 0.2, t = 0.2)
movej(p[0.512421715101124, 0.00308705961465638, 0.406325569319789, -1.2588103136666, 1.00571168956174, -1.08241028817944], a = 0.2, v = 0.2, t = 0.2)
movej(p[0.512405025161935, 0.00297335516097623, 0.406475509258322, -1.2536077474103, 1.00499677293061, -1.07034087807344], a = 0.2, v = 0.2, t = 0.2)
movej(p[0.513106070532515, 0.00311720043296794, 0.406562287839034, -1.24813529498175, 1.00875785762366, -1.0628958971193], a = 0.2, v = 0.2, t = 0.2)
movej(p[0.514252656581241, 0.00344174749216071, 0.406627679765487, -1.2540996911072, 1.01231059358073, -1.0649173416317], a = 0.2, v = 0.2, t = 0.2)
movej(p[0.515616759900639, 0.0037671390697748, 0.406670141264464, -1.25587271720271, 1.02319196943458, -1.05434632854307], a = 0.2, v = 0.2, t = 0.2)
movej(p[0.516582657447087, 0.00388175786609378, 0.406728469835366, -1.25938581129016, 1.03223521205703, -1.05243851368196], a = 0.2, v = 0.2, t = 0.2)
movej(p[0.517159255238144, 0.00399180691231996, 0.406661083454495, -1.26278806568436, 1.04031299871768, -1.04878878910793], a = 0.2, v = 0.2, t = 0.2)
movej(p[0.51741660379111, 0.00399148195411471, 0.406582828760525, -1.26486175520873, 1.04410835080406, -1.0483838633871], a = 0.2, v = 0.2, t = 0.2)
movej(p[0.517411584507391, 0.00385957611902512, 0.406533868866517, -1.26275788265733, 1.0476411299913, -1.0452398974785], a = 0.2, v = 0.2, t = 0.2)
movej(p[0.517160750698906, 0.00369784676587727, 0.406482733576821, -1.26592869096945, 1.04558999323482, -1.05769357015517], a = 0.2, v = 0.2, t = 0.2)
movej(p[0.516596384637097, 0.00357935424955687, 0.406353891843696, -1.2640408546448, 1.04416411173436, -1.06169368727738], a = 0.2, v = 0.2, t = 0.2)
movej(p[0.515779384750421, 0.00333554982720394, 0.406336286917883, -1.26372347443875, 1.04000416340238, -1.06656571395769], a = 0.2, v = 0.2, t = 0.2)
movej(p[0.514796426579217, 0.00314149282687676, 0.406336792574569, -1.25755161312038, 1.03465566824541, -1.07405199914536], a = 0.2, v = 0.2, t = 0.2)
movej(p[0.513993901180203, 0.00318412940860382, 0.406308769597662, -1.2579223864562, 1.02620324929768, -1.08383563649009], a = 0.2, v = 0.2, t = 0.2)
movej(p[0.51332453843981, 0.00327653093983968, 0.406247320968257, -1.25508410676131, 1.01897420799914, -1.08245907907488], a = 0.2, v = 0.2, t = 0.2)
movej(p[0.512950952425724, 0.00324764957613201, 0.406296739121857, -1.25873518232859, 1.0112282637512, -1.08200663822337], a = 0.2, v = 0.2, t = 0.2)
movej(p[0.51282594307811, 0.00320430915142846, 0.406336068327236, -1.25509878311545, 1.0089850525668, -1.07968321099939], a = 0.2, v = 0.2, t = 0.2)
movej(p[0.513269368185047, 0.00334478095138337, 0.406353256490484, -1.26085746051897, 1.00734241364294, -1.08255883574519], a = 0.2, v = 0.2, t = 0.2)
movej(p[0.514097000407296, 0.00348833796131423, 0.406413028337491, -1.25753449728415, 1.01299134584173, -1.06963030234688], a = 0.2, v = 0.2, t = 0.2)
movej(p[0.515054037123076, 0.00357578604951071, 0.406569797919135, -1.2666162964809, 1.01523822967752, -1.07714423177976], a = 0.2, v = 0.2, t = 0.2)
movej(p[0.516020556928503, 0.00376089104824137, 0.40662078133442, -1.26777532200886, 1.02425007323119, -1.06971442887881], a = 0.2, v = 0.2, t = 0.2)
movej(p[0.516738952435963, 0.00391224970912113, 0.406605023778377, -1.27135036430635, 1.03214358174801, -1.06474890056016], a = 0.2, v = 0.2, t = 0.2)
movej(p[0.517200337528882, 0.00384704282722206, 0.406625948576917, -1.26454502554085, 1.04197528475622, -1.04659660902174], a = 0.2, v = 0.2, t = 0.2)
movej(p[0.517310357769891, 0.00374011525769308, 0.406589389785322, -1.26740860326375, 1.04263607639527, -1.05663548115834], a = 0.2, v = 0.2, t = 0.2)
movej(p[0.517226882660733, 0.00371185300120188, 0.406516753236739, -1.26883378240629, 1.04348483613558, -1.06039522482916], a = 0.2, v = 0.2, t = 0.2)
movej(p[0.516854216496347, 0.00359640461459419, 0.406423993241738, -1.27327783904195, 1.03986476771508, -1.06886039402827], a = 0.2, v = 0.2, t = 0.2)
movej(p[0.516121150990327, 0.00326852881695606, 0.406457491780599, -1.26589161613524, 1.04060210435444, -1.06548754488498], a = 0.2, v = 0.2, t = 0.2)
movej(p[0.515283484033851, 0.00314334310469034, 0.406375292688306, -1.25653424732915, 1.03888597847001, -1.06868606773942], a = 0.2, v = 0.2, t = 0.2)
movej(p[0.514445305332835, 0.00319644266976986, 0.406274989309244, -1.24953117419206, 1.0356823068819, -1.06915384095044], a = 0.2, v = 0.2, t = 0.2)
movej(p[0.513718393971462, 0.00317536472557149, 0.406286130986129, -1.24841393014781, 1.02880367788647, -1.06608401667722], a = 0.2, v = 0.2, t = 0.2)
movej(p[0.513087347400612, 0.00308843827868514, 0.406371834731625, -1.24884622888483, 1.02013060568046, -1.07130521824499], a = 0.2, v = 0.2, t = 0.2)
movej(p[0.512967980297139, 0.00320379827980882, 0.40639714384787, -1.25331096126524, 1.01391644377232, -1.074543647036], a = 0.2, v = 0.2, t = 0.2)
movej(p[0.51339381391861, 0.00339163180768286, 0.406420516974143, -1.25537958354106, 1.01118687167434, -1.07457082910984], a = 0.2, v = 0.2, t = 0.2)
movej(p[0.514331479246851, 0.0035975187832628, 0.406494827939687, -1.26131030077248, 1.01256660155314, -1.07511984963666], a = 0.2, v = 0.2, t = 0.2)
movej(p[0.515383551442903, 0.00381866239966515, 0.406546031148767, -1.26548184747787, 1.01806051887066, -1.07754679302965], a = 0.2, v = 0.2, t = 0.2)
movej(p[0.516433796195735, 0.00411101556101838, 0.406489942280045, -1.26705764513913, 1.02876979941947, -1.06564671064112], a = 0.2, v = 0.2, t = 0.2)
movej(p[0.517132523119279, 0.00413653968239915, 0.406514173876485, -1.26875515650041, 1.03744717801915, -1.05353236000728], a = 0.2, v = 0.2, t = 0.2)
movej(p[0.517400597459546, 0.00401192628526353, 0.406573236650081, -1.26913050920715, 1.04403016717972, -1.05057587395273], a = 0.2, v = 0.2, t = 0.2)
movej(p[0.517485142757241, 0.00395166775063717, 0.406543803345164, -1.27891190777723, 1.04149383236206, -1.06677689485677], a = 0.2, v = 0.2, t = 0.2)
movej(p[0.517330053900373, 0.00390159010073464, 0.406437663851781, -1.27811856234011, 1.04098730121675, -1.06767179794678], a = 0.2, v = 0.2, t = 0.2)
movej(p[0.516996637576947, 0.00360695445438838, 0.406398369713857, -1.27399900113663, 1.03924874652893, -1.06341163260395], a = 0.2, v = 0.2, t = 0.2)
movej(p[0.516244672097367, 0.00335947720212803, 0.406356440002039, -1.26325486144722, 1.03852140912478, -1.06695211291386], a = 0.2, v = 0.2, t = 0.2)
movej(p[0.515383388166962, 0.0032918933317027, 0.406263309653689, -1.25832548707004, 1.03617320025106, -1.07149193268449], a = 0.2, v = 0.2, t = 0.2)
movej(p[0.514423617335545, 0.00331008066380401, 0.406218336627176, -1.25481598485722, 1.03079353019066, -1.07496668055511], a = 0.2, v = 0.2, t = 0.2)
movej(p[0.51357303415854, 0.0031679783492774, 0.406361676249075, -1.2585867782546, 1.02276019646061, -1.08113247645003], a = 0.2, v = 0.2, t = 0.2)
movej(p[0.512946799438756, 0.00318161880206873, 0.406426260243068, -1.25795437969558, 1.01435809460246, -1.08552237607109], a = 0.2, v = 0.2, t = 0.2)
movej(p[0.51289810395899, 0.0033562214661997, 0.406443114313577, -1.26117779373294, 1.00744579229183, -1.08587058770555], a = 0.2, v = 0.2, t = 0.2)
movej(p[0.513448032309522, 0.00352936812398888, 0.40648514848393, -1.25814591276212, 1.00876184443874, -1.07436749060972], a = 0.2, v = 0.2, t = 0.2)
movej(p[0.514364432708804, 0.00364068471285194, 0.406587497747435, -1.26355832488707, 1.01028078060615, -1.07868889296864], a = 0.2, v = 0.2, t = 0.2)
movej(p[0.515556934943088, 0.00389481119971663, 0.406616680022885, -1.26461267967984, 1.02184757105815, -1.07191801270112], a = 0.2, v = 0.2, t = 0.2)
movej(p[0.516549859775127, 0.0040839140389028, 0.406619121934549, -1.26788147769909, 1.03005103813303, -1.06756810601365], a = 0.2, v = 0.2, t = 0.2)
movej(p[0.51719209442798, 0.00408403972789929, 0.406674149371578, -1.26037791757337, 1.04373872692242, -1.04805823753759], a = 0.2, v = 0.2, t = 0.2)
movej(p[0.517461645793629, 0.00407356739519806, 0.406668581702597, -1.26488887122635, 1.04625744815033, -1.05819186558275], a = 0.2, v = 0.2, t = 0.2)
movej(p[0.517573356162912, 0.00408210709791948, 0.406601061386387, -1.26856280520833, 1.04726731883856, -1.06204027953225], a = 0.2, v = 0.2, t = 0.2)
movej(p[0.517598730925849, 0.00398820627127396, 0.406567396815914, -1.26914921472045, 1.04820375110069, -1.05974527936066], a = 0.2, v = 0.2, t = 0.2)
movej(p[0.517353242926104, 0.00371678079009263, 0.406556468506512, -1.2638581368052, 1.04807218560281, -1.05822447049044], a = 0.2, v = 0.2, t = 0.2)
movej(p[0.516834385828363, 0.00359877996376917, 0.406429400072936, -1.26024236496257, 1.04634439496181, -1.06501582060885], a = 0.2, v = 0.2, t = 0.2)
movej(p[0.51592599001811, 0.00344941678090937, 0.406303908010557, -1.25830083996759, 1.0419957431887, -1.07370736445168], a = 0.2, v = 0.2, t = 0.2)
movej(p[0.514871807228896, 0.00324688601523954, 0.406336793446275, -1.25865351424015, 1.0368265606018, -1.07985490678311], a = 0.2, v = 0.2, t = 0.2)
movej(p[0.51397771747828, 0.00314406012322821, 0.406430721569199, -1.25391951184218, 1.03193182291807, -1.08055435406571], a = 0.2, v = 0.2, t = 0.2)
movej(p[0.513274309913228, 0.00324653518163777, 0.406513225370079, -1.25390968093279, 1.02449104737215, -1.07927644830352], a = 0.2, v = 0.2, t = 0.2)
movej(p[0.512704150704005, 0.0032754234289776, 0.406720460484017, -1.25593692622318, 1.01628066392936, -1.07416987182096], a = 0.2, v = 0.2, t = 0.2)
movej(p[0.512201058376042, 0.0031746256360917, 0.407006064009714, -1.25811151381077, 1.00938356550965, -1.07227543136682], a = 0.2, v = 0.2, t = 0.2)
movej(p[0.512203245882954, 0.00323526658823672, 0.407193989663461, -1.26105219473646, 1.00409032328697, -1.07930774021432], a = 0.2, v = 0.2, t = 0.2)
movej(p[0.512884554358306, 0.0035430663624937, 0.407199851845651, -1.26326971361269, 1.00203667401988, -1.08199457175606], a = 0.2, v = 0.2, t = 0.2)
movej(p[0.513989495804131, 0.00375605696112836, 0.407220128733747, -1.26091319976773, 1.00618824046668, -1.07395644517241], a = 0.2, v = 0.2, t = 0.2)
movej(p[0.515006741173822, 0.00392140848429976, 0.407261567604727, -1.26293895735137, 1.01229141075921, -1.07960058455637], a = 0.2, v = 0.2, t = 0.2)
movej(p[0.515968243432272, 0.00406593928446628, 0.407251752860783, -1.27013545177784, 1.01989388926429, -1.08102531677652], a = 0.2, v = 0.2, t = 0.2)
movej(p[0.516702013629651, 0.00418450975837132, 0.407185923597107, -1.27421507106699, 1.02880267960912, -1.07915351836418], a = 0.2, v = 0.2, t = 0.2)
movej(p[0.517200929269978, 0.00407087666462761, 0.407186532251359, -1.2761693988455, 1.03601981597612, -1.07192315289728], a = 0.2, v = 0.2, t = 0.2)
movej(p[0.517368601431588, 0.00403759919714209, 0.407106911016256, -1.26978125051922, 1.04283631014165, -1.064643075698], a = 0.2, v = 0.2, t = 0.2)
movej(p[0.517462274529198, 0.00405985257921443, 0.406989791610859, -1.27161445878873, 1.04473244776202, -1.06641815130435], a = 0.2, v = 0.2, t = 0.2)
movej(p[0.517473129945224, 0.00400473301813814, 0.406925125823779, -1.26800900883137, 1.04801609277528, -1.05825332464017], a = 0.2, v = 0.2, t = 0.2)
movej(p[0.51743052535292, 0.00383220210255871, 0.406920618838874, -1.2705948887946, 1.04699122110447, -1.06249885832219], a = 0.2, v = 0.2, t = 0.2)
movej(p[0.517203280175342, 0.00373959221394786, 0.406810417387571, -1.26844768510772, 1.04817881895091, -1.06221634831644], a = 0.2, v = 0.2, t = 0.2)
movej(p[0.516642018396661, 0.00357817339847046, 0.406687855047326, -1.26722453925173, 1.04502898684917, -1.06779106722849], a = 0.2, v = 0.2, t = 0.2)
movej(p[0.515719628549457, 0.00327099580156412, 0.406678758820993, -1.26195112498257, 1.04284235531015, -1.06759343157892], a = 0.2, v = 0.2, t = 0.2)
movej(p[0.514750428763844, 0.00313837195427688, 0.406695423145122, -1.26109601296325, 1.0342642818816, -1.08349261781764], a = 0.2, v = 0.2, t = 0.2)
movej(p[0.513972495178054, 0.00324832281421613, 0.406679375808954, -1.26395575427587, 1.02588691626806, -1.09123358316839], a = 0.2, v = 0.2, t = 0.2)
movej(p[0.513384468962596, 0.00333509267457404, 0.406715044186991, -1.2629947956961, 1.01829805087485, -1.09062867460181], a = 0.2, v = 0.2, t = 0.2)
movej(p[0.513032245491382, 0.00327147223040253, 0.406839660111008, -1.25879182529093, 1.01531881281971, -1.07973225288746], a = 0.2, v = 0.2, t = 0.2)
movej(p[0.513249092646062, 0.00332481427040537, 0.406928646019646, -1.26072035949118, 1.01211044065505, -1.0832173812014], a = 0.2, v = 0.2, t = 0.2)
movej(p[0.513988284984497, 0.00353900707059947, 0.406961517833479, -1.26533495917633, 1.01127825421134, -1.08253155990907], a = 0.2, v = 0.2, t = 0.2)
movej(p[0.515105357272638, 0.00369141288906489, 0.407056215911949, -1.26905080589828, 1.01470592618161, -1.07871468719365], a = 0.2, v = 0.2, t = 0.2)
movej(p[0.515997018217455, 0.00384229856040984, 0.407086002692803, -1.26851783544674, 1.02230165639016, -1.0783182381168], a = 0.2, v = 0.2, t = 0.2)
movej(p[0.516836448955162, 0.00404747255914832, 0.407038251852403, -1.27740152713478, 1.02868522195849, -1.08334453523187], a = 0.2, v = 0.2, t = 0.2)
movej(p[0.517272949250054, 0.0041406033991441, 0.406943568628114, -1.27737210541304, 1.03697710508537, -1.07536794014893], a = 0.2, v = 0.2, t = 0.2)
movej(p[0.517457389475505, 0.00398499858415901, 0.406931941437439, -1.2794417335793, 1.04062938702701, -1.06977130425235], a = 0.2, v = 0.2, t = 0.2)
movej(p[0.517158884278792, 0.00381056737945337, 0.406812571583699, -1.26572860648923, 1.04512303906469, -1.05948181379522], a = 0.2, v = 0.2, t = 0.2)
movej(p[0.516465948589809, 0.00367894838807808, 0.406622084421781, -1.26207268442077, 1.04214405716492, -1.06551448814857], a = 0.2, v = 0.2, t = 0.2)
movej(p[0.515407887093283, 0.0034621073350122, 0.406526477159636, -1.25321284745394, 1.03892583199775, -1.06321530490007], a = 0.2, v = 0.2, t = 0.2)
movej(p[0.514261902748346, 0.00327283725351464, 0.406598856517953, -1.25837162376488, 1.02932609915102, -1.08325041433661], a = 0.2, v = 0.2, t = 0.2)
movej(p[0.513400866027791, 0.003340006790923, 0.406669963392439, -1.26456898682143, 1.01972219948782, -1.09449366081039], a = 0.2, v = 0.2, t = 0.2)
movej(p[0.512857437860012, 0.00351551453994065, 0.406708656994502, -1.27108164012315, 1.00881205315339, -1.10380139665785], a = 0.2, v = 0.2, t = 0.2)
movej(p[0.512790077087563, 0.00347122281621368, 0.406826990160894, -1.26544643546407, 1.00678979475134, -1.085684324927], a = 0.2, v = 0.2, t = 0.2)
movej(p[0.513028759559946, 0.00345477710611334, 0.406906107736726, -1.26274016184433, 1.00534656048472, -1.08587828873699], a = 0.2, v = 0.2, t = 0.2)
movej(p[0.513750049910774, 0.0036027504651214, 0.406941382329939, -1.26660534699515, 1.00682819178048, -1.08486017806795], a = 0.2, v = 0.2, t = 0.2)
movej(p[0.514560745688176, 0.0037299195288275, 0.406991425165974, -1.27073058998894, 1.01103537978425, -1.08574468582344], a = 0.2, v = 0.2, t = 0.2)
movej(p[0.515234793642759, 0.00369012746698867, 0.407076588844478, -1.2674546087007, 1.01899810637323, -1.07544681426729], a = 0.2, v = 0.2, t = 0.2)
movej(p[0.515652607597746, 0.00371414334524698, 0.407027739025332, -1.26342871825673, 1.02611687075695, -1.07146501533122], a = 0.2, v = 0.2, t = 0.2)
movej(p[0.515723904976756, 0.00368952435164733, 0.406916198729271, -1.26311132584783, 1.0285849740408, -1.07042219004073], a = 0.2, v = 0.2, t = 0.2)
movej(p[0.515222134957998, 0.00346974629619716, 0.406850785926347, -1.26143209051521, 1.03110093156415, -1.06457874737933], a = 0.2, v = 0.2, t = 0.2)
movej(p[0.51421956536411, 0.0032223046801357, 0.406802549075203, -1.25905685879663, 1.02747582111684, -1.0732635121453], a = 0.2, v = 0.2, t = 0.2)
movej(p[0.513116256241421, 0.00318013533279827, 0.406720371925214, -1.25744405839611, 1.02208433292448, -1.07554205196174], a = 0.2, v = 0.2, t = 0.2)
movej(p[0.512123831704748, 0.003170014141036, 0.406774359408434, -1.25790892451405, 1.01141777433764, -1.07745703428883], a = 0.2, v = 0.2, t = 0.2)
movej(p[0.51112777314431, 0.00303438514390125, 0.407035968485904, -1.25742933820811, 1.00438057803743, -1.06979288123492], a = 0.2, v = 0.2, t = 0.2)
movej(p[0.510301057693646, 0.0029420916669018, 0.407407282300131, -1.26031007183672, 0.993920817406463, -1.07481852068089], a = 0.2, v = 0.2, t = 0.2)
movej(p[0.509749635535864, 0.00299371730757072, 0.407693995199097, -1.26625249620382, 0.982624862793844, -1.08189633055869], a = 0.2, v = 0.2, t = 0.2)
movej(p[0.509900495091947, 0.00310327811185962, 0.40782278710646, -1.2716616925861, 0.97235744381339, -1.08468927890037], a = 0.2, v = 0.2, t = 0.2)
movej(p[0.510390636809015, 0.00322191113076142, 0.407689514721789, -1.27297116903644, 0.969390054738296, -1.089969014696], a = 0.2, v = 0.2, t = 0.2)
movej(p[0.511303750043421, 0.00347345709378123, 0.407439886896735, -1.27363529758448, 0.972747630262367, -1.09025618691688], a = 0.2, v = 0.2, t = 0.2)
movej(p[0.512136938119634, 0.00366573474676316, 0.407260023420119, -1.2692106492279, 0.981954854702663, -1.0824704589396], a = 0.2, v = 0.2, t = 0.2)
movej(p[0.512986332081511, 0.0036154580983994, 0.407292134990546, -1.27025333168822, 0.989950559325986, -1.07772443006628], a = 0.2, v = 0.2, t = 0.2)
movej(p[0.513707515076835, 0.00363055031345128, 0.407233183465534, -1.27006350131239, 0.996082896551399, -1.08134978054124], a = 0.2, v = 0.2, t = 0.2)
movej(p[0.51447611451328, 0.00373734507004917, 0.407111513863499, -1.27761120881692, 0.999709597504767, -1.08845984461439], a = 0.2, v = 0.2, t = 0.2)
movej(p[0.515170107122702, 0.00380985288526395, 0.406990834368551, -1.27408538030827, 1.00648541219513, -1.0808673021591], a = 0.2, v = 0.2, t = 0.2)
movej(p[0.515727074386113, 0.00381436752452301, 0.40693754636576, -1.28102672127396, 1.01104513197591, -1.086293339583], a = 0.2, v = 0.2, t = 0.2)
movej(p[0.51611005608443, 0.00381400904972777, 0.406838129225808, -1.28503003117459, 1.01504902674766, -1.08861376998137], a = 0.2, v = 0.2, t = 0.2)
movej(p[0.516211272695479, 0.00382226552536114, 0.406719200603694, -1.29105883202387, 1.01668124659694, -1.09388773106341], a = 0.2, v = 0.2, t = 0.2)
movej(p[0.515924029227197, 0.00357608488467877, 0.406671546588084, -1.28291105385948, 1.02032528120112, -1.0853827542749], a = 0.2, v = 0.2, t = 0.2)
movej(p[0.515308768321918, 0.00351869639119726, 0.40658257755838, -1.27481965846652, 1.02062565180413, -1.09043184301439], a = 0.2, v = 0.2, t = 0.2)
movej(p[0.514519392852972, 0.00362545937030716, 0.406478576846485, -1.27215560258058, 1.01752815079246, -1.09819752698638], a = 0.2, v = 0.2, t = 0.2)
movej(p[0.513855275626204, 0.00372428281972929, 0.406480867666007, -1.27107474707428, 1.01247453101857, -1.09996253226831], a = 0.2, v = 0.2, t = 0.2)
movej(p[0.513345078688893, 0.00354673523691616, 0.406621898355915, -1.26902773660422, 1.00852885674893, -1.09713422361378], a = 0.2, v = 0.2, t = 0.2)
movej(p[0.513542594553025, 0.00355542916530051, 0.406688099702772, -1.26393762121057, 1.00747131056146, -1.08870813531368], a = 0.2, v = 0.2, t = 0.2)
movej(p[0.514212331570003, 0.0036927610923614, 0.406700591796229, -1.26322900468426, 1.00926439604728, -1.08134753199125], a = 0.2, v = 0.2, t = 0.2)
movej(p[0.515313851652723, 0.0038995845041475, 0.406748927245957, -1.26353618730512, 1.0166571940288, -1.0688448473395], a = 0.2, v = 0.2, t = 0.2)
movej(p[0.516197009597209, 0.00404958811054612, 0.406770530423035, -1.26969821397341, 1.02371334804981, -1.07119756554542], a = 0.2, v = 0.2, t = 0.2)
movej(p[0.516827301409593, 0.00419462185610428, 0.406713321715734, -1.27313593055507, 1.03176399005886, -1.0678576392123], a = 0.2, v = 0.2, t = 0.2)
movej(p[0.517142018760147, 0.00415887928259996, 0.40665485249628, -1.27287466979675, 1.03682181963432, -1.06349632336866], a = 0.2, v = 0.2, t = 0.2)
movej(p[0.517147119687639, 0.00397440389276607, 0.406646203651192, -1.2699373138038, 1.04165671303709, -1.06154332411396], a = 0.2, v = 0.2, t = 0.2)
movej(p[0.516866166557649, 0.00381656118917218, 0.406572072501275, -1.27341918500765, 1.03901279975848, -1.07471810000759], a = 0.2, v = 0.2, t = 0.2)
movej(p[0.516224804663349, 0.00370195951111314, 0.406456567696498, -1.27419725363661, 1.0357262734854, -1.08557492312482], a = 0.2, v = 0.2, t = 0.2)
movej(p[0.515394047388973, 0.00348797126229669, 0.406458727450781, -1.27562775148831, 1.03155023094117, -1.09208658365194], a = 0.2, v = 0.2, t = 0.2)
movej(p[0.514494109341116, 0.00339237534754145, 0.406502410115429, -1.2699315873529, 1.0275404460448, -1.09784210883038], a = 0.2, v = 0.2, t = 0.2)
movej(p[0.513796107291303, 0.00349816425936022, 0.406519126606161, -1.26767392517636, 1.02274714137381, -1.09831673254323], a = 0.2, v = 0.2, t = 0.2)
movej(p[0.513367685217282, 0.00361028676066964, 0.406525408715006, -1.26261568368023, 1.016293960056, -1.09061609295441], a = 0.2, v = 0.2, t = 0.2)
movej(p[0.513335048716793, 0.00352734852010458, 0.406674794435835, -1.26481347784628, 1.01155953792699, -1.08360427774829], a = 0.2, v = 0.2, t = 0.2)
movej(p[0.513757394110038, 0.00351455666958775, 0.40679681200646, -1.26751214300338, 1.00966478824498, -1.08776009225008], a = 0.2, v = 0.2, t = 0.2)
movej(p[0.514737480866613, 0.00372714298013473, 0.406822638558955, -1.27403684404712, 1.011864178109, -1.08952023684364], a = 0.2, v = 0.2, t = 0.2)
movej(p[0.515812741831241, 0.00391303504944353, 0.406816990480315, -1.27105940666608, 1.0205259654601, -1.07687381171214], a = 0.2, v = 0.2, t = 0.2)
movej(p[0.516569228468747, 0.00392609985747415, 0.406873176723347, -1.27955739225747, 1.02449513275761, -1.08076447328414], a = 0.2, v = 0.2, t = 0.2)
movej(p[0.516998373514831, 0.00393846524484157, 0.406829297109184, -1.28195719068941, 1.03044950143697, -1.07668325187024], a = 0.2, v = 0.2, t = 0.2)
movej(p[0.51716967692964, 0.00394149445559344, 0.406738819581454, -1.2856093789931, 1.0327114033253, -1.07773448915435], a = 0.2, v = 0.2, t = 0.2)
movej(p[0.517154503797807, 0.0037758928302902, 0.406683671345939, -1.27901791969471, 1.03582887608522, -1.06868214495772], a = 0.2, v = 0.2, t = 0.2)
movej(p[0.516842515822115, 0.00361067297295416, 0.40657638987678, -1.28039838503966, 1.03317235503204, -1.08426064589134], a = 0.2, v = 0.2, t = 0.2)
movej(p[0.516257265374, 0.00354877560033964, 0.406435350047142, -1.28195348685704, 1.02895553150763, -1.09717355584913], a = 0.2, v = 0.2, t = 0.2)
movej(p[0.515474479998722, 0.00348207643587651, 0.406357859709603, -1.27824687834628, 1.02693072373701, -1.10048823083294], a = 0.2, v = 0.2, t = 0.2)
movej(p[0.514562678182019, 0.0032905041785415, 0.406459870719186, -1.26434767123764, 1.02785652131787, -1.08576614840252], a = 0.2, v = 0.2, t = 0.2)
movej(p[0.513900060906261, 0.00334653692782719, 0.406494371992179, -1.25715535256236, 1.0247092683173, -1.08637511736516], a = 0.2, v = 0.2, t = 0.2)
movej(p[0.513595299935054, 0.0035491843130729, 0.406489693626439, -1.2611800589438, 1.01816289775192, -1.08932854689016], a = 0.2, v = 0.2, t = 0.2)
movej(p[0.513835503014208, 0.00364649266527538, 0.406555364346369, -1.26584389823712, 1.01355626632015, -1.08882575363296], a = 0.2, v = 0.2, t = 0.2)
movej(p[0.514415330258052, 0.00367760416191166, 0.406683082295672, -1.26949674674005, 1.01227654890219, -1.09120780817333], a = 0.2, v = 0.2, t = 0.2)
movej(p[0.515316385989302, 0.00383972541522713, 0.406707853747059, -1.27193834312019, 1.01657352268418, -1.09145405202928], a = 0.2, v = 0.2, t = 0.2)
movej(p[0.516241773431595, 0.00407469358682447, 0.406668077911637, -1.27493152907584, 1.02342026636148, -1.08585429168592], a = 0.2, v = 0.2, t = 0.2)
movej(p[0.516985314286006, 0.00407768145475969, 0.406695889855676, -1.27719179026978, 1.03147315675222, -1.07402660841733], a = 0.2, v = 0.2, t = 0.2)
movej(p[0.517199308365197, 0.00402302858057086, 0.406692170443015, -1.27675008391654, 1.03511622088595, -1.07524523719535], a = 0.2, v = 0.2, t = 0.2)
movej(p[0.517388736031169, 0.00404800261520574, 0.406611793433865, -1.28139685738509, 1.03500607345847, -1.08169807471878], a = 0.2, v = 0.2, t = 0.2)
movej(p[0.517435213635883, 0.00405151676368883, 0.406522449247924, -1.28141877265164, 1.03629025728237, -1.08191114495833], a = 0.2, v = 0.2, t = 0.2)
movej(p[0.517527071157556, 0.00384582551944721, 0.406553270839227, -1.27499941944301, 1.0409723340845, -1.07138313791677], a = 0.2, v = 0.2, t = 0.2)
movej(p[0.51746884123489, 0.00375630529201772, 0.4065018693705, -1.26808187068945, 1.0441527923139, -1.07049791135625], a = 0.2, v = 0.2, t = 0.2)
movej(p[0.51732488395595, 0.00374494702527806, 0.40640798272333, -1.27065086458146, 1.0424679932419, -1.0729910131365], a = 0.2, v = 0.2, t = 0.2)
movej(p[0.516871149354253, 0.00358027676538492, 0.40635897106319, -1.27330703329671, 1.03950113604382, -1.07811227337947], a = 0.2, v = 0.2, t = 0.2)
movej(p[0.516097665719998, 0.0032221771302571, 0.406422023934347, -1.2709489725375, 1.03728761568578, -1.08370655074859], a = 0.2, v = 0.2, t = 0.2)
movej(p[0.51524061212672, 0.00314771671599182, 0.406390633649916, -1.26627610330675, 1.03440839489184, -1.09033402269232], a = 0.2, v = 0.2, t = 0.2)
movej(p[0.514430409020421, 0.00323435044114703, 0.406349691563866, -1.26385445532669, 1.02835001933913, -1.09505342718404], a = 0.2, v = 0.2, t = 0.2)
movej(p[0.513792995400244, 0.00326088640233269, 0.406397628987244, -1.26206688849866, 1.02198261835945, -1.08888817925383], a = 0.2, v = 0.2, t = 0.2)
movej(p[0.513198667372148, 0.00317472766223213, 0.406515357425609, -1.26112069300856, 1.01389320782117, -1.0917168370828], a = 0.2, v = 0.2, t = 0.2)
movej(p[0.513194685797442, 0.00330941877131433, 0.406546902242316, -1.26149036940609, 1.00976461192024, -1.08739928514378], a = 0.2, v = 0.2, t = 0.2)
movej(p[0.513717016562298, 0.00352969426100155, 0.406552777693543, -1.26723495110969, 1.00477014348747, -1.09266107401684], a = 0.2, v = 0.2, t = 0.2)
movej(p[0.514777818552265, 0.00367262215557428, 0.406630098436138, -1.2695370933434, 1.00872231927237, -1.08378875248261], a = 0.2, v = 0.2, t = 0.2)
movej(p[0.51580715802197, 0.00386209294615827, 0.406644681965296, -1.26560896289309, 1.01794453870698, -1.0817455887803], a = 0.2, v = 0.2, t = 0.2)
movej(p[0.516714658661349, 0.00411328651904608, 0.406542442252036, -1.26640955666755, 1.02842943003642, -1.07310001174096], a = 0.2, v = 0.2, t = 0.2)
movej(p[0.517250900485014, 0.00422701333919543, 0.40645522178465, -1.26554373553247, 1.03887851528807, -1.06340296684462], a = 0.2, v = 0.2, t = 0.2)
movej(p[0.517450018104574, 0.00408051839366856, 0.406460425608336, -1.27452911278452, 1.04003214751169, -1.06867430161692], a = 0.2, v = 0.2, t = 0.2)
movej(p[0.517477156433921, 0.00398828438446384, 0.40643755692354, -1.27375477295432, 1.04215634994573, -1.07150335675622], a = 0.2, v = 0.2, t = 0.2)
movej(p[0.517489699481857, 0.00401957408264835, 0.406343193752037, -1.27421200173068, 1.04159890262547, -1.07494921164427], a = 0.2, v = 0.2, t = 0.2)
movej(p[0.517483978281839, 0.00393225194527715, 0.406280347402929, -1.26769616254222, 1.04492094873918, -1.06457924721485], a = 0.2, v = 0.2, t = 0.2)
movej(p[0.517284025390989, 0.00374058583505772, 0.40628972504836, -1.27163920737942, 1.04166769874668, -1.07726759737189], a = 0.2, v = 0.2, t = 0.2)
movej(p[0.516822976000804, 0.00365943589312714, 0.406190932092971, -1.26795669441579, 1.04075690479532, -1.07835289646233], a = 0.2, v = 0.2, t = 0.2)
movej(p[0.516085571704454, 0.00354912871935366, 0.406135727573778, -1.26844109966633, 1.03570623024831, -1.088637182447], a = 0.2, v = 0.2, t = 0.2)
movej(p[0.515206735295805, 0.00336901027276075, 0.406220291111013, -1.26106187964414, 1.03472217970468, -1.08430425446289], a = 0.2, v = 0.2, t = 0.2)
movej(p[0.514383077772308, 0.0032978516344738, 0.406334208544197, -1.26395187882088, 1.02698525320471, -1.10169066471809], a = 0.2, v = 0.2, t = 0.2)
movej(p[0.513825696758145, 0.00347272993567509, 0.406358444965546, -1.26978692627805, 1.01843651746454, -1.10875964155758], a = 0.2, v = 0.2, t = 0.2)
movej(p[0.513621865039219, 0.00360093595730163, 0.406384039825938, -1.27042896340593, 1.01184698596574, -1.10748900385193], a = 0.2, v = 0.2, t = 0.2)
movej(p[0.513651011826721, 0.00355573114159576, 0.406532459900103, -1.27235597166457, 1.00861279904867, -1.10243633170052], a = 0.2, v = 0.2, t = 0.2)
movej(p[0.514241195406118, 0.00366822621089631, 0.406620249462082, -1.27458080059861, 1.00884888731636, -1.1043092344866], a = 0.2, v = 0.2, t = 0.2)
movej(p[0.515168380260067, 0.00391000320059265, 0.40664677254375, -1.28085018032223, 1.01217953321543, -1.10216348652468], a = 0.2, v = 0.2, t = 0.2)
movej(p[0.516251087779238, 0.00406035034584055, 0.406672347813985, -1.28056989894737, 1.02007409232972, -1.08792112324216], a = 0.2, v = 0.2, t = 0.2)
movej(p[0.516869169226424, 0.00408978710042693, 0.406669865249979, -1.27540042874695, 1.02907843493836, -1.07808905216572], a = 0.2, v = 0.2, t = 0.2)
movej(p[0.517296530718003, 0.00415018011973386, 0.406601788968987, -1.26999237792336, 1.03752735191146, -1.06648348447304], a = 0.2, v = 0.2, t = 0.2)
movej(p[0.517449815227261, 0.0041339567961657, 0.406530656272686, -1.27189919973192, 1.04043647319977, -1.06589769388488], a = 0.2, v = 0.2, t = 0.2)
movej(p[0.517575445654385, 0.00398176381931207, 0.406540488723347, -1.27281114489941, 1.04376982265207, -1.06062321065453], a = 0.2, v = 0.2, t = 0.2)
movej(p[0.517557343603722, 0.00389619381131361, 0.406524669918306, -1.27121359651835, 1.04559839866226, -1.06205685230975], a = 0.2, v = 0.2, t = 0.2)
movej(p[0.517532310211063, 0.00391470949965019, 0.406437913367905, -1.26653898973833, 1.04851396645013, -1.05655356430335], a = 0.2, v = 0.2, t = 0.2)
movej(p[0.517288580978425, 0.00375385204944423, 0.406388299172647, -1.2606274984033, 1.04900125486512, -1.05054112214882], a = 0.2, v = 0.2, t = 0.2)
movej(p[0.516708755302393, 0.00347635821773332, 0.406368263402747, -1.26415085181764, 1.04415667677488, -1.06966522901931], a = 0.2, v = 0.2, t = 0.2)
movej(p[0.516027824912402, 0.00334658947692295, 0.406281338733663, -1.26183150856949, 1.04131441150849, -1.07719090365235], a = 0.2, v = 0.2, t = 0.2)
movej(p[0.515265177381242, 0.00334130581809861, 0.406208750385661, -1.25934918224264, 1.03672802124345, -1.08440308633055], a = 0.2, v = 0.2, t = 0.2)
movej(p[0.514539351714936, 0.00319717972168181, 0.406296976443395, -1.2517528349255, 1.03406891257287, -1.07233103955895], a = 0.2, v = 0.2, t = 0.2)
movej(p[0.513876652156375, 0.00317210840576181, 0.40636487468123, -1.24942687762503, 1.02791356637538, -1.0773686635353], a = 0.2, v = 0.2, t = 0.2)
movej(p[0.513578299380648, 0.00334986615869595, 0.406386590437906, -1.25528752430492, 1.02028765873443, -1.08154740418934], a = 0.2, v = 0.2, t = 0.2)
movej(p[0.513756766798975, 0.00354141992480154, 0.406436156852813, -1.25868689514042, 1.0154926495241, -1.08195733072515], a = 0.2, v = 0.2, t = 0.2)
movej(p[0.514345583812797, 0.00357508670748729, 0.406559807622634, -1.25672462906336, 1.01693537231526, -1.07462258821798], a = 0.2, v = 0.2, t = 0.2)
movej(p[0.515328428800175, 0.00377410288601722, 0.406607905260496, -1.25982484631411, 1.0205838564821, -1.0761862580266], a = 0.2, v = 0.2, t = 0.2)
movej(p[0.516339602979178, 0.00402524172802005, 0.406588481420631, -1.26266025010995, 1.02908512329275, -1.06873511209355], a = 0.2, v = 0.2, t = 0.2)
movej(p[0.517060525227895, 0.00406456326116901, 0.406623176738159, -1.27007235492229, 1.03498003881499, -1.06438953410905], a = 0.2, v = 0.2, t = 0.2)
movej(p[0.517348561061081, 0.00393430623251431, 0.406664188571677, -1.27061961812477, 1.04069700815876, -1.06147912958721], a = 0.2, v = 0.2, t = 0.2)
movej(p[0.517472894152442, 0.00390474783841168, 0.406590762488228, -1.27127761506218, 1.04379067783735, -1.05901508538172], a = 0.2, v = 0.2, t = 0.2)
movej(p[0.517426875508131, 0.00382909332513774, 0.406516509814895, -1.26999135637106, 1.04383568468476, -1.0590793739595], a = 0.2, v = 0.2, t = 0.2)
movej(p[0.517130075825288, 0.00366749224191156, 0.406451030365748, -1.26982287344254, 1.04321630413286, -1.062938379181], a = 0.2, v = 0.2, t = 0.2)
movej(p[0.516524962017635, 0.00357618598040498, 0.406334899479444, -1.27249979815304, 1.0378631431244, -1.08375106620037], a = 0.2, v = 0.2, t = 0.2)
movej(p[0.51574283722696, 0.00359551337163685, 0.406187333887048, -1.27340209628373, 1.03306216763151, -1.09579222124232], a = 0.2, v = 0.2, t = 0.2)
movej(p[0.514928265902483, 0.00353831762760044, 0.406170882655579, -1.26452640838274, 1.03056182186558, -1.08811849979846], a = 0.2, v = 0.2, t = 0.2)
movej(p[0.514083008860722, 0.00346532854353067, 0.406237938737235, -1.25620140566257, 1.02666299023521, -1.08761749012299], a = 0.2, v = 0.2, t = 0.2)
movej(p[0.513635742477827, 0.00358758993061767, 0.406229935209299, -1.2527632237498, 1.02057286992332, -1.08753672741562], a = 0.2, v = 0.2, t = 0.2)
movej(p[0.51367268670636, 0.00378836882880428, 0.406236950693677, -1.25886923874281, 1.01282253935057, -1.09301846978494], a = 0.2, v = 0.2, t = 0.2)
movej(p[0.514327065702669, 0.00384074563158555, 0.406353825882316, -1.26227362764364, 1.01105948838788, -1.08782498305883], a = 0.2, v = 0.2, t = 0.2)
movej(p[0.515216395659419, 0.00397367565399947, 0.406429069396776, -1.26326544341629, 1.01408148146869, -1.08864771403529], a = 0.2, v = 0.2, t = 0.2)
movej(p[0.516214338805437, 0.00421464163350111, 0.406421089945697, -1.26484113212093, 1.0232806877065, -1.08277079686509], a = 0.2, v = 0.2, t = 0.2)
movej(p[0.516946372612976, 0.00435419903377995, 0.406366055350691, -1.26425042298484, 1.03241963326659, -1.07212212747668], a = 0.2, v = 0.2, t = 0.2)
movej(p[0.517249561770542, 0.00424432513815465, 0.40640449141051, -1.27225032117807, 1.03746117911148, -1.07285198766744], a = 0.2, v = 0.2, t = 0.2)
movej(p[0.517369195425725, 0.00414798580200688, 0.406368998034691, -1.27412657574464, 1.04039490018993, -1.07207155024775], a = 0.2, v = 0.2, t = 0.2)
movej(p[0.517418157611309, 0.00413780110109748, 0.40628912293462, -1.2766407021178, 1.0403405377077, -1.07549464654064], a = 0.2, v = 0.2, t = 0.2)
movej(p[0.517347902553415, 0.00395101601093102, 0.406263493353746, -1.2703491803574, 1.04149277338082, -1.06578591755048], a = 0.2, v = 0.2, t = 0.2)
movej(p[0.516950249621866, 0.0037716113291009, 0.406189904354785, -1.27010528828651, 1.03866334301024, -1.07942163301256], a = 0.2, v = 0.2, t = 0.2)
movej(p[0.516276997788187, 0.00368451676452566, 0.406058059091809, -1.26846091918528, 1.03598467689137, -1.08791744569179], a = 0.2, v = 0.2, t = 0.2)
movej(p[0.51539080989103, 0.00357670305959, 0.405984705596884, -1.26236321270698, 1.03417230480567, -1.08855344531636], a = 0.2, v = 0.2, t = 0.2)
movej(p[0.514519685879441, 0.0034004726877783, 0.406054127908736, -1.25487328265991, 1.03074720572211, -1.08500942978548], a = 0.2, v = 0.2, t = 0.2)
movej(p[0.513805886670897, 0.00343178574853791, 0.406099383091695, -1.25514192799411, 1.02286203749521, -1.0914922407931], a = 0.2, v = 0.2, t = 0.2)
movej(p[0.513451033792094, 0.00357908397019388, 0.406135431964105, -1.26408664421065, 1.0120942399833, -1.09928041027906], a = 0.2, v = 0.2, t = 0.2)
movej(p[0.513612659834179, 0.00368119806423099, 0.406216187795591, -1.26842761452376, 1.00842865994, -1.09729389895795], a = 0.2, v = 0.2, t = 0.2)
movej(p[0.514185636139028, 0.00370706392680138, 0.40634061502185, -1.27002309459737, 1.00777510921626, -1.09887425787981], a = 0.2, v = 0.2, t = 0.2)
movej(p[0.51525904146716, 0.00392518609511853, 0.406381713042803, -1.27154818572153, 1.01557182160799, -1.09170833365047], a = 0.2, v = 0.2, t = 0.2)
movej(p[0.5162807832817, 0.00407992841535421, 0.406401802267491, -1.27117345079402, 1.0233675812208, -1.08135308774709], a = 0.2, v = 0.2, t = 0.2)
movej(p[0.517017922042057, 0.00407700777436576, 0.406464365671917, -1.27578222445174, 1.03161740587435, -1.07365777761538], a = 0.2, v = 0.2, t = 0.2)
movej(p[0.51729334179403, 0.00401358857790927, 0.406463528098811, -1.28177845372867, 1.0340212368545, -1.08092470157234], a = 0.2, v = 0.2, t = 0.2)
movej(p[0.517387523214787, 0.00399572159105882, 0.406407013955678, -1.28588961507361, 1.03596341916013, -1.08379334717442], a = 0.2, v = 0.2, t = 0.2)
movej(p[0.51744037002873, 0.00389116451219062, 0.406400256345477, -1.27902617597038, 1.04168565607991, -1.07033210945392], a = 0.2, v = 0.2, t = 0.2)
movej(p[0.51737318302074, 0.00378189531119169, 0.406400365754878, -1.26680489485317, 1.04687293762477, -1.0603599312325], a = 0.2, v = 0.2, t = 0.2)
movej(p[0.517366962735995, 0.00378801910479538, 0.406357659307945, -1.2560062964967, 1.05373862641632, -1.04787634302725], a = 0.2, v = 0.2, t = 0.2)
movej(p[0.517111110271806, 0.00369957540066825, 0.406273274154452, -1.25589844439164, 1.05295645291499, -1.04897624419984], a = 0.2, v = 0.2, t = 0.2)
movej(p[0.516632049157396, 0.00346591357824137, 0.406292092719242, -1.25916925034032, 1.0509347319272, -1.05345464939273], a = 0.2, v = 0.2, t = 0.2)
movej(p[0.515908583577414, 0.00331408011549965, 0.406243541485743, -1.25540844745442, 1.04703580313518, -1.0627422615825], a = 0.2, v = 0.2, t = 0.2)
movej(p[0.515200760468808, 0.00332077888600536, 0.406187791682187, -1.25506342719887, 1.04195813572436, -1.07093575743644], a = 0.2, v = 0.2, t = 0.2)
movej(p[0.514545895364366, 0.00327063191856917, 0.406157402439997, -1.24554589086534, 1.0397356995603, -1.06012837701084], a = 0.2, v = 0.2, t = 0.2)
movej(p[0.513947692223681, 0.00324944874096356, 0.406190982695584, -1.24859714540792, 1.03284920190463, -1.06928448699424], a = 0.2, v = 0.2, t = 0.2)
movej(p[0.513698472800328, 0.00337392444063523, 0.406207642862419, -1.25208380628866, 1.02643438612698, -1.07169012248035], a = 0.2, v = 0.2, t = 0.2)
movej(p[0.513893077390904, 0.00356107969829264, 0.406272582884425, -1.25962379743056, 1.01934974353692, -1.07967926447286], a = 0.2, v = 0.2, t = 0.2)
movej(p[0.514615550007503, 0.00360540978383654, 0.406421750063055, -1.26390200701862, 1.01775774389063, -1.07720756824491], a = 0.2, v = 0.2, t = 0.2)
movej(p[0.515473476916584, 0.00372328681938807, 0.406485665193137, -1.26606646628108, 1.02091679020477, -1.0812270503463], a = 0.2, v = 0.2, t = 0.2)
movej(p[0.516401386662684, 0.00392346629954458, 0.40647981156689, -1.27277058623732, 1.02799366785688, -1.07968817951554], a = 0.2, v = 0.2, t = 0.2)
movej(p[0.516998484360275, 0.00397741586447654, 0.406487458681043, -1.27253953499787, 1.03699241815257, -1.06607733035578], a = 0.2, v = 0.2, t = 0.2)
movej(p[0.517301041178354, 0.00383647960134142, 0.406581246291271, -1.27576059146937, 1.0410564185912, -1.06281599662483], a = 0.2, v = 0.2, t = 0.2)
movej(p[0.517435238294372, 0.00381448730559498, 0.40652925369968, -1.26602098056059, 1.04823697699909, -1.0482003109202], a = 0.2, v = 0.2, t = 0.2)
movej(p[0.517508290136759, 0.00378687912819348, 0.406480386165831, -1.26997644164412, 1.04748371872716, -1.05305392152622], a = 0.2, v = 0.2, t = 0.2)
movej(p[0.517498308862871, 0.00368409836451175, 0.406442984863868, -1.26075228104235, 1.05240709018799, -1.0432567468636], a = 0.2, v = 0.2, t = 0.2)
movej(p[0.517360182568195, 0.00359202145556975, 0.40638486705542, -1.26938291795626, 1.04719744687962, -1.06551566383442], a = 0.2, v = 0.2, t = 0.2)
movej(p[0.517021263262229, 0.00351956621822337, 0.406256325897715, -1.26944354341024, 1.04603284846475, -1.0680804191204], a = 0.2, v = 0.2, t = 0.2)
movej(p[0.516416160450751, 0.00336713635758653, 0.406192388890213, -1.27002381855267, 1.04249953082416, -1.07336738240085], a = 0.2, v = 0.2, t = 0.2)
