def moving():
set_payload_mass(0)
set_tcp(p[0,0,0,0,0,0])
movej(p[0.4022, 0.2286, 0.3168, -1.385, 0.72, -0.736], a = 0.2, v = 0.2, t = 0.1)
movej(p[0.4022, 0.2286, 0.3168, -1.385, 0.72, -0.736], a = 0.2, v = 0.2, t = 0.1)
movej(p[0.4022, 0.2286, 0.3168, -1.385, 0.72, -0.736], a = 0.2, v = 0.2, t = 0.1)
movej(p[0.4022, 0.2286, 0.3168, -1.385, 0.72, -0.736], a = 0.2, v = 0.2, t = 0.1)
movej(p[0.4022, 0.2286, 0.3168, -1.385, 0.72, -0.736], a = 0.2, v = 0.2, t = 0.1)
movej(p[0.4022, 0.2286, 0.3168, -1.385, 0.72, -0.736], a = 0.2, v = 0.2, t = 0.1)
movej(p[0.4022, 0.2286, 0.3168, -1.385, 0.72, -0.736], a = 0.2, v = 0.2, t = 0.1)
movej(p[0.4022, 0.2286, 0.3168, -1.385, 0.72, -0.736], a = 0.2, v = 0.2, t = 0.1)
movej(p[0.4022, 0.2286, 0.3168, -1.385, 0.72, -0.736], a = 0.2, v = 0.2, t = 0.1)
movej(p[0.4022, 0.2286, 0.3168, -1.385, 0.72, -0.736], a = 0.2, v = 0.2, t = 0.1)
movej(p[0.4022, 0.2286, 0.3168, -1.385, 0.72, -0.736], a = 0.2, v = 0.2, t = 0.1)
movej(p[0.402200004301388, 0.228600025983868, 0.316800148611361, -1.385, 0.72, -0.736], a = 0.2, v = 0.2, t = 0.1)
movej(p[0.402200034754141, 0.228600421149152, 0.316802293703673, -1.385, 0.72, -0.736], a = 0.2, v = 0.2, t = 0.1)
movej(p[0.402199769347241, 0.228601613725499, 0.316807215311727, -1.385, 0.72, -0.736], a = 0.2, v = 0.2, t = 0.1)
movej(p[0.402199214294216, 0.228604125135626, 0.316813593695873, -1.385, 0.72, -0.736], a = 0.2, v = 0.2, t = 0.1)
movej(p[0.402200084773957, 0.228606831319561, 0.316819355796404, -1.385, 0.72, -0.736], a = 0.2, v = 0.2, t = 0.1)
movej(p[0.402202728966849, 0.228607563647386, 0.316822577519066, -1.385, 0.72, -0.736], a = 0.2, v = 0.2, t = 0.1)
movej(p[0.402204937413864, 0.228605166968584, 0.31682340931682, -1.385, 0.72, -0.736], a = 0.2, v = 0.2, t = 0.1)
movej(p[0.40220420252557, 0.228599844308421, 0.316821600809984, -1.385, 0.72, -0.736], a = 0.2, v = 0.2, t = 0.1)
movej(p[0.40219901553646, 0.228592394714174, 0.316817773663327, -1.385, 0.72, -0.736], a = 0.2, v = 0.2, t = 0.1)
movej(p[0.402188879377233, 0.228584310795289, 0.316813175159158, -1.385, 0.72, -0.736], a = 0.2, v = 0.2, t = 0.1)
movej(p[0.402175129795274, 0.228575774985226, 0.316808011702321, -1.385, 0.72, -0.736], a = 0.2, v = 0.2, t = 0.1)
movej(p[0.402159576029437, 0.228566518092222, 0.316801717867703, -1.385, 0.72, -0.736], a = 0.2, v = 0.2, t = 0.1)
movej(p[0.402143534680699, 0.228556742243426, 0.316794372093068, -1.385, 0.72, -0.736], a = 0.2, v = 0.2, t = 0.1)
movej(p[0.40212759685514, 0.228546953043054, 0.316786545491346, -1.385, 0.72, -0.736], a = 0.2, v = 0.2, t = 0.1)
movej(p[0.402112242305367, 0.228537461745419, 0.316778540790447, -1.385, 0.72, -0.736], a = 0.2, v = 0.2, t = 0.1)
movej(p[0.402099098942643, 0.228528094190801, 0.316770575995675, -1.385, 0.72, -0.736], a = 0.2, v = 0.2, t = 0.1)
movej(p[0.4020893290245, 0.228520370141569, 0.316762413980975, -1.385, 0.72, -0.736], a = 0.2, v = 0.2, t = 0.1)
movej(p[0.402084156095355, 0.228515865077763, 0.316754875141199, -1.385, 0.72, -0.736], a = 0.2, v = 0.2, t = 0.1)
movej(p[0.402084063950908, 0.228515664404136, 0.316748728179308, -1.385, 0.72, -0.736], a = 0.2, v = 0.2, t = 0.1)
movej(p[0.402088723948071, 0.228521094493326, 0.316744549372442, -1.385, 0.72, -0.736], a = 0.2, v = 0.2, t = 0.1)
movej(p[0.402098035039017, 0.228533104267925, 0.316743383149276, -1.385, 0.72, -0.736], a = 0.2, v = 0.2, t = 0.1)
movej(p[0.40211141472226, 0.228549978217575, 0.316745214303429, -1.385, 0.72, -0.736], a = 0.2, v = 0.2, t = 0.1)
movej(p[0.4021277471944, 0.228566828483629, 0.316750825682023, -1.385, 0.72, -0.736], a = 0.2, v = 0.2, t = 0.1)
movej(p[0.402145172570147, 0.228579844194591, 0.316758696440831, -1.385, 0.72, -0.736], a = 0.2, v = 0.2, t = 0.1)
movej(p[0.402162411222717, 0.228588069887825, 0.316766315236102, -1.385, 0.72, -0.736], a = 0.2, v = 0.2, t = 0.1)
movej(p[0.402178766045109, 0.228591996371701, 0.316772736019224, -1.385, 0.72, -0.736], a = 0.2, v = 0.2, t = 0.1)
movej(p[0.402193126354357, 0.228592202054884, 0.316776462472463, -1.385, 0.72, -0.736], a = 0.2, v = 0.2, t = 0.1)
movej(p[0.402204514615157, 0.228589978978493, 0.316776578128428, -1.385, 0.72, -0.736], a = 0.2, v = 0.2, t = 0.1)
movej(p[0.402210796648048, 0.228586500653426, 0.316773414796088, -1.385, 0.72, -0.736], a = 0.2, v = 0.2, t = 0.1)
movej(p[0.402209349702213, 0.228582601109133, 0.316768849062516, -1.385, 0.72, -0.736], a = 0.2, v = 0.2, t = 0.1)
movej(p[0.402199950333057, 0.228579337877085, 0.31676358356823, -1.385, 0.72, -0.736], a = 0.2, v = 0.2, t = 0.1)
movej(p[0.402185592380546, 0.22857610733676, 0.31675541884295, -1.385, 0.72, -0.736], a = 0.2, v = 0.2, t = 0.1)
movej(p[0.402169046620081, 0.228572014689138, 0.316743489341531, -1.385, 0.72, -0.736], a = 0.2, v = 0.2, t = 0.1)
movej(p[0.40215074157748, 0.228567562694919, 0.316729390110778, -1.385, 0.72, -0.736], a = 0.2, v = 0.2, t = 0.1)
movej(p[0.402130904082016, 0.22856371288488, 0.31671509917598, -1.385, 0.72, -0.736], a = 0.2, v = 0.2, t = 0.1)
movej(p[0.402111439367929, 0.228560600381592, 0.316702676728484, -1.385, 0.72, -0.736], a = 0.2, v = 0.2, t = 0.1)
movej(p[0.402094542535033, 0.228557784258997, 0.316694424651437, -1.385, 0.72, -0.736], a = 0.2, v = 0.2, t = 0.1)
movej(p[0.402081658407218, 0.228555497796266, 0.316692313505863, -1.385, 0.72, -0.736], a = 0.2, v = 0.2, t = 0.1)
movej(p[0.402074333624717, 0.228554899880581, 0.316695345473894, -1.385, 0.72, -0.736], a = 0.2, v = 0.2, t = 0.1)
movej(p[0.402073086381424, 0.228556434079186, 0.316701938593399, -1.385, 0.72, -0.736], a = 0.2, v = 0.2, t = 0.1)
movej(p[0.40207890351722, 0.22856132161146, 0.316709391551497, -1.385, 0.72, -0.736], a = 0.2, v = 0.2, t = 0.1)
movej(p[0.402092455087552, 0.228568356349285, 0.316716133887535, -1.385, 0.72, -0.736], a = 0.2, v = 0.2, t = 0.1)
movej(p[0.402113287761462, 0.228574770467929, 0.316722222022126, -1.385, 0.72, -0.736], a = 0.2, v = 0.2, t = 0.1)
movej(p[0.402139250193856, 0.228578942772332, 0.316727732609495, -1.385, 0.72, -0.736], a = 0.2, v = 0.2, t = 0.1)
movej(p[0.402167149260852, 0.228580676272918, 0.316733952350843, -1.385, 0.72, -0.736], a = 0.2, v = 0.2, t = 0.1)
movej(p[0.402194933997354, 0.228580547955351, 0.316740858580866, -1.385, 0.72, -0.736], a = 0.2, v = 0.2, t = 0.1)
movej(p[0.402221609124633, 0.228579237369383, 0.31674638675182, -1.385, 0.72, -0.736], a = 0.2, v = 0.2, t = 0.1)
movej(p[0.402246739966626, 0.228579003233595, 0.316749437018222, -1.385, 0.72, -0.736], a = 0.2, v = 0.2, t = 0.1)
movej(p[0.402269758595816, 0.228581398588711, 0.316748768794384, -1.385, 0.72, -0.736], a = 0.2, v = 0.2, t = 0.1)
movej(p[0.402288996357374, 0.228585695424097, 0.316744738621449, -1.385, 0.72, -0.736], a = 0.2, v = 0.2, t = 0.1)
movej(p[0.402302999585112, 0.22859014106411, 0.316737027681765, -1.385, 0.72, -0.736], a = 0.2, v = 0.2, t = 0.1)
movej(p[0.402311276162068, 0.228594187423802, 0.316726504772655, -1.385, 0.72, -0.736], a = 0.2, v = 0.2, t = 0.1)
movej(p[0.402314374599029, 0.228597156392455, 0.316714979503958, -1.385, 0.72, -0.736], a = 0.2, v = 0.2, t = 0.1)
movej(p[0.402312445365919, 0.228597318886385, 0.316703124751901, -1.385, 0.72, -0.736], a = 0.2, v = 0.2, t = 0.1)
movej(p[0.402305527275682, 0.228593253892931, 0.31668906152458, -1.385, 0.72, -0.736], a = 0.2, v = 0.2, t = 0.1)
movej(p[0.402294361719256, 0.22858570724015, 0.316671751634155, -1.385, 0.72, -0.736], a = 0.2, v = 0.2, t = 0.1)
movej(p[0.402280957816212, 0.228575929967513, 0.316652185039613, -1.385, 0.72, -0.736], a = 0.2, v = 0.2, t = 0.1)
movej(p[0.402267924404984, 0.228564887991912, 0.31663004511722, -1.385, 0.72, -0.736], a = 0.2, v = 0.2, t = 0.1)
movej(p[0.402256015648165, 0.228554301234687, 0.316606081505796, -1.385, 0.72, -0.736], a = 0.2, v = 0.2, t = 0.1)
movej(p[0.402244428915207, 0.228545710766907, 0.316582876352733, -1.385, 0.72, -0.736], a = 0.2, v = 0.2, t = 0.1)
movej(p[0.402233568469073, 0.228540551215281, 0.316564238996381, -1.385, 0.72, -0.736], a = 0.2, v = 0.2, t = 0.1)
movej(p[0.402225077795468, 0.22853920477195, 0.316552358225653, -1.385, 0.72, -0.736], a = 0.2, v = 0.2, t = 0.1)
movej(p[0.402220973593402, 0.228541736981396, 0.316545604631446, -1.385, 0.72, -0.736], a = 0.2, v = 0.2, t = 0.1)
movej(p[0.402222268559858, 0.228546978462551, 0.316542709919339, -1.385, 0.72, -0.736], a = 0.2, v = 0.2, t = 0.1)
movej(p[0.402228920293585, 0.228554486677788, 0.316543354465207, -1.385, 0.72, -0.736], a = 0.2, v = 0.2, t = 0.1)
movej(p[0.402239679679807, 0.228564292916215, 0.316546009596662, -1.385, 0.72, -0.736], a = 0.2, v = 0.2, t = 0.1)
movej(p[0.402253183408764, 0.228575518977622, 0.316548706568953, -1.385, 0.72, -0.736], a = 0.2, v = 0.2, t = 0.1)
movej(p[0.402267061690963, 0.228587317775581, 0.316551225963907, -1.385, 0.72, -0.736], a = 0.2, v = 0.2, t = 0.1)
movej(p[0.402279660052562, 0.228598403330505, 0.31655486643229, -1.385, 0.72, -0.736], a = 0.2, v = 0.2, t = 0.1)
movej(p[0.402290452508001, 0.228608265493703, 0.316560227902017, -1.385, 0.72, -0.736], a = 0.2, v = 0.2, t = 0.1)
movej(p[0.402299218227915, 0.228616682578582, 0.316565322989018, -1.385, 0.72, -0.736], a = 0.2, v = 0.2, t = 0.1)
movej(p[0.402306510063309, 0.228623653037661, 0.316568219621512, -1.385, 0.72, -0.736], a = 0.2, v = 0.2, t = 0.1)
movej(p[0.402312963452725, 0.228630628807543, 0.316570050470662, -1.385, 0.72, -0.736], a = 0.2, v = 0.2, t = 0.1)
movej(p[0.402319830608425, 0.228637351155181, 0.316570097923998, -1.385, 0.72, -0.736], a = 0.2, v = 0.2, t = 0.1)
movej(p[0.4023270376391, 0.228642461983756, 0.316566645265149, -1.385, 0.72, -0.736], a = 0.2, v = 0.2, t = 0.1)
movej(p[0.402333189863533, 0.228643874499365, 0.316559296044225, -1.385, 0.72, -0.736], a = 0.2, v = 0.2, t = 0.1)
movej(p[0.402336685706816, 0.228640432854143, 0.316551162885927, -1.385, 0.72, -0.736], a = 0.2, v = 0.2, t = 0.1)
movej(p[0.402334830203096, 0.228633094082799, 0.316543835100988, -1.385, 0.72, -0.736], a = 0.2, v = 0.2, t = 0.1)
movej(p[0.402326683793544, 0.228624123534384, 0.316534822199317, -1.385, 0.72, -0.736], a = 0.2, v = 0.2, t = 0.1)
movej(p[0.40231371005877, 0.228614719195921, 0.316521634763133, -1.385, 0.72, -0.736], a = 0.2, v = 0.2, t = 0.1)
movej(p[0.402297696708879, 0.228604806122031, 0.316505133074816, -1.385, 0.72, -0.736], a = 0.2, v = 0.2, t = 0.1)
movej(p[0.402279911931156, 0.22859486154565, 0.316488857554643, -1.385, 0.72, -0.736], a = 0.2, v = 0.2, t = 0.1)
movej(p[0.402260736814007, 0.228584812114609, 0.316475892292281, -1.385, 0.72, -0.736], a = 0.2, v = 0.2, t = 0.1)
movej(p[0.402241177347252, 0.228575207608507, 0.316467026288289, -1.385, 0.72, -0.736], a = 0.2, v = 0.2, t = 0.1)
movej(p[0.40222251307712, 0.2285661660824, 0.316460940408311, -1.385, 0.72, -0.736], a = 0.2, v = 0.2, t = 0.1)
movej(p[0.40220547906583, 0.228557625496104, 0.316455890433452, -1.385, 0.72, -0.736], a = 0.2, v = 0.2, t = 0.1)
movej(p[0.402190639072371, 0.22854929170395, 0.316451277305177, -1.385, 0.72, -0.736], a = 0.2, v = 0.2, t = 0.1)
movej(p[0.402178306950011, 0.228540960358021, 0.316447509139959, -1.385, 0.72, -0.736], a = 0.2, v = 0.2, t = 0.1)
movej(p[0.402170318352083, 0.228534129712183, 0.316445931963502, -1.385, 0.72, -0.736], a = 0.2, v = 0.2, t = 0.1)
movej(p[0.402169771285141, 0.228529832025676, 0.316447958219519, -1.385, 0.72, -0.736], a = 0.2, v = 0.2, t = 0.1)
movej(p[0.402177413326837, 0.228528151742002, 0.316453891412461, -1.385, 0.72, -0.736], a = 0.2, v = 0.2, t = 0.1)
movej(p[0.40219124139773, 0.228529117701719, 0.316462366751878, -1.385, 0.72, -0.736], a = 0.2, v = 0.2, t = 0.1)
movej(p[0.402209340018821, 0.228533036804428, 0.316471784049077, -1.385, 0.72, -0.736], a = 0.2, v = 0.2, t = 0.1)
movej(p[0.402230702210479, 0.228539294661533, 0.316479928847541, -1.385, 0.72, -0.736], a = 0.2, v = 0.2, t = 0.1)
movej(p[0.402254151259698, 0.228546058795587, 0.31648540844992, -1.385, 0.72, -0.736], a = 0.2, v = 0.2, t = 0.1)
movej(p[0.402278257481679, 0.228552053465134, 0.316489063043167, -1.385, 0.72, -0.736], a = 0.2, v = 0.2, t = 0.1)
movej(p[0.402301391687329, 0.228556763575509, 0.316490620393227, -1.385, 0.72, -0.736], a = 0.2, v = 0.2, t = 0.1)
movej(p[0.402321666590959, 0.228559932115612, 0.316489425638265, -1.385, 0.72, -0.736], a = 0.2, v = 0.2, t = 0.1)
movej(p[0.402336927057407, 0.228561575832075, 0.316485118825524, -1.385, 0.72, -0.736], a = 0.2, v = 0.2, t = 0.1)
movej(p[0.40234538160924, 0.2285622814206, 0.316479023065265, -1.385, 0.72, -0.736], a = 0.2, v = 0.2, t = 0.1)
movej(p[0.402346820334547, 0.228562056796508, 0.316471368799101, -1.385, 0.72, -0.736], a = 0.2, v = 0.2, t = 0.1)
movej(p[0.402341817117023, 0.228560682303714, 0.316461252273909, -1.385, 0.72, -0.736], a = 0.2, v = 0.2, t = 0.1)
movej(p[0.402331362827122, 0.228558916671407, 0.316449362522893, -1.385, 0.72, -0.736], a = 0.2, v = 0.2, t = 0.1)
movej(p[0.402316890464177, 0.228557108516946, 0.316437720149886, -1.385, 0.72, -0.736], a = 0.2, v = 0.2, t = 0.1)
movej(p[0.402299204770472, 0.228555320742166, 0.316426691755782, -1.385, 0.72, -0.736], a = 0.2, v = 0.2, t = 0.1)
movej(p[0.402278198125446, 0.22855297108032, 0.316416043081641, -1.385, 0.72, -0.736], a = 0.2, v = 0.2, t = 0.1)
movej(p[0.402254193739903, 0.228549562368659, 0.316405309458789, -1.385, 0.72, -0.736], a = 0.2, v = 0.2, t = 0.1)
movej(p[0.402228674891722, 0.228544950778072, 0.31639495968774, -1.385, 0.72, -0.736], a = 0.2, v = 0.2, t = 0.1)
movej(p[0.402204976530659, 0.228538721813954, 0.316385141968864, -1.385, 0.72, -0.736], a = 0.2, v = 0.2, t = 0.1)
movej(p[0.402185781331534, 0.22853196489773, 0.316377101646999, -1.385, 0.72, -0.736], a = 0.2, v = 0.2, t = 0.1)
movej(p[0.402171933845841, 0.228525690209495, 0.316372560110525, -1.385, 0.72, -0.736], a = 0.2, v = 0.2, t = 0.1)
movej(p[0.402162659930404, 0.228519893247658, 0.31637242770612, -1.385, 0.72, -0.736], a = 0.2, v = 0.2, t = 0.1)
movej(p[0.40215716924148, 0.228516086238858, 0.316377740048272, -1.385, 0.72, -0.736], a = 0.2, v = 0.2, t = 0.1)
movej(p[0.402156566918989, 0.228514809099769, 0.31638778859923, -1.385, 0.72, -0.736], a = 0.2, v = 0.2, t = 0.1)
movej(p[0.402162679650236, 0.228515225188392, 0.316400412419926, -1.385, 0.72, -0.736], a = 0.2, v = 0.2, t = 0.1)
movej(p[0.402175446714594, 0.228517228034659, 0.316412761611742, -1.385, 0.72, -0.736], a = 0.2, v = 0.2, t = 0.1)
movej(p[0.402193149012638, 0.228521440420253, 0.316423323687607, -1.385, 0.72, -0.736], a = 0.2, v = 0.2, t = 0.1)
movej(p[0.402213757945154, 0.22852756122556, 0.316431407745061, -1.385, 0.72, -0.736], a = 0.2, v = 0.2, t = 0.1)
movej(p[0.402234755852549, 0.228533879546644, 0.316436954261962, -1.385, 0.72, -0.736], a = 0.2, v = 0.2, t = 0.1)
movej(p[0.402253879376081, 0.228539640016354, 0.316441240334107, -1.385, 0.72, -0.736], a = 0.2, v = 0.2, t = 0.1)
movej(p[0.402269955746739, 0.228544762557158, 0.316444838321903, -1.385, 0.72, -0.736], a = 0.2, v = 0.2, t = 0.1)
movej(p[0.402282145253581, 0.228548449655416, 0.316446263308002, -1.385, 0.72, -0.736], a = 0.2, v = 0.2, t = 0.1)
movej(p[0.402289280716361, 0.228549150331039, 0.316443725361669, -1.385, 0.72, -0.736], a = 0.2, v = 0.2, t = 0.1)
movej(p[0.402290711748343, 0.228547035178971, 0.316438336637776, -1.385, 0.72, -0.736], a = 0.2, v = 0.2, t = 0.1)
movej(p[0.402285998967447, 0.228543648820554, 0.31643274522267, -1.385, 0.72, -0.736], a = 0.2, v = 0.2, t = 0.1)
movej(p[0.402274685809038, 0.228540027421037, 0.316428350816071, -1.385, 0.72, -0.736], a = 0.2, v = 0.2, t = 0.1)
movej(p[0.40225684928384, 0.228536153488414, 0.31642646851432, -1.385, 0.72, -0.736], a = 0.2, v = 0.2, t = 0.1)
movej(p[0.402234522517359, 0.228531693867938, 0.316427501357843, -1.385, 0.72, -0.736], a = 0.2, v = 0.2, t = 0.1)
movej(p[0.402209525608577, 0.228527180047312, 0.316430448844003, -1.385, 0.72, -0.736], a = 0.2, v = 0.2, t = 0.1)
movej(p[0.402182992858101, 0.2285226990048, 0.316433029699711, -1.385, 0.72, -0.736], a = 0.2, v = 0.2, t = 0.1)
movej(p[0.402156921578737, 0.228517410021938, 0.31643219524082, -1.385, 0.72, -0.736], a = 0.2, v = 0.2, t = 0.1)
movej(p[0.402132984210242, 0.228510769077952, 0.31642775611405, -1.385, 0.72, -0.736], a = 0.2, v = 0.2, t = 0.1)
movej(p[0.40211201888709, 0.228504142584185, 0.316422978686132, -1.385, 0.72, -0.736], a = 0.2, v = 0.2, t = 0.1)
movej(p[0.402095218900554, 0.228499677591514, 0.316420169426118, -1.385, 0.72, -0.736], a = 0.2, v = 0.2, t = 0.1)
movej(p[0.402085143913318, 0.228497953438647, 0.316419674118043, -1.385, 0.72, -0.736], a = 0.2, v = 0.2, t = 0.1)
movej(p[0.40208354760575, 0.228497796275378, 0.316421167685201, -1.385, 0.72, -0.736], a = 0.2, v = 0.2, t = 0.1)
movej(p[0.40208962696452, 0.228498062243623, 0.316423306602648, -1.385, 0.72, -0.736], a = 0.2, v = 0.2, t = 0.1)
movej(p[0.402102174684465, 0.22849959998799, 0.316424580743708, -1.385, 0.72, -0.736], a = 0.2, v = 0.2, t = 0.1)
movej(p[0.402119160582163, 0.228504211968384, 0.316425097446929, -1.385, 0.72, -0.736], a = 0.2, v = 0.2, t = 0.1)
movej(p[0.402138568950514, 0.228512150690462, 0.316426582127269, -1.385, 0.72, -0.736], a = 0.2, v = 0.2, t = 0.1)
movej(p[0.402159623354675, 0.228521935604903, 0.316430360027588, -1.385, 0.72, -0.736], a = 0.2, v = 0.2, t = 0.1)
movej(p[0.402182397004094, 0.228531686614223, 0.316435144983111, -1.385, 0.72, -0.736], a = 0.2, v = 0.2, t = 0.1)
movej(p[0.40220659643952, 0.228541745712698, 0.316439173702999, -1.385, 0.72, -0.736], a = 0.2, v = 0.2, t = 0.1)
movej(p[0.402231451137973, 0.228553499130384, 0.31644245689101, -1.385, 0.72, -0.736], a = 0.2, v = 0.2, t = 0.1)
movej(p[0.402256072937402, 0.228566416077514, 0.316445495722159, -1.385, 0.72, -0.736], a = 0.2, v = 0.2, t = 0.1)
movej(p[0.402278787888953, 0.228578295598433, 0.316449396240043, -1.385, 0.72, -0.736], a = 0.2, v = 0.2, t = 0.1)
movej(p[0.402298206769044, 0.228586961650758, 0.316453546664972, -1.385, 0.72, -0.736], a = 0.2, v = 0.2, t = 0.1)
movej(p[0.402312964684797, 0.228591958228917, 0.316455334765458, -1.385, 0.72, -0.736], a = 0.2, v = 0.2, t = 0.1)
movej(p[0.402323284188623, 0.228593266091375, 0.316453746686884, -1.385, 0.72, -0.736], a = 0.2, v = 0.2, t = 0.1)
movej(p[0.402329212041953, 0.228590190336802, 0.316450122973359, -1.385, 0.72, -0.736], a = 0.2, v = 0.2, t = 0.1)
movej(p[0.40233086331913, 0.228583197447031, 0.316445687427808, -1.385, 0.72, -0.736], a = 0.2, v = 0.2, t = 0.1)
movej(p[0.402329045201985, 0.228573279488858, 0.316438164526126, -1.385, 0.72, -0.736], a = 0.2, v = 0.2, t = 0.1)
movej(p[0.402324249641474, 0.228561558151507, 0.316428234795712, -1.385, 0.72, -0.736], a = 0.2, v = 0.2, t = 0.1)
movej(p[0.402316189743082, 0.228549826118639, 0.316418513132136, -1.385, 0.72, -0.736], a = 0.2, v = 0.2, t = 0.1)
movej(p[0.402304840169031, 0.228539664940204, 0.316410659100325, -1.385, 0.72, -0.736], a = 0.2, v = 0.2, t = 0.1)
movej(p[0.402292007443801, 0.228531078781298, 0.316404081865312, -1.385, 0.72, -0.736], a = 0.2, v = 0.2, t = 0.1)
movej(p[0.402279551520869, 0.228522800334567, 0.316397469031908, -1.385, 0.72, -0.736], a = 0.2, v = 0.2, t = 0.1)
movej(p[0.402268350579712, 0.228513776047569, 0.316392602173028, -1.385, 0.72, -0.736], a = 0.2, v = 0.2, t = 0.1)
movej(p[0.402259143248352, 0.228505073598303, 0.316391269775557, -1.385, 0.72, -0.736], a = 0.2, v = 0.2, t = 0.1)
movej(p[0.402252395633742, 0.228497551382734, 0.316394648045972, -1.385, 0.72, -0.736], a = 0.2, v = 0.2, t = 0.1)
movej(p[0.402248492728213, 0.228492376541613, 0.316402205848352, -1.385, 0.72, -0.736], a = 0.2, v = 0.2, t = 0.1)
movej(p[0.402248582611145, 0.228491491255462, 0.316413962665076, -1.385, 0.72, -0.736], a = 0.2, v = 0.2, t = 0.1)
movej(p[0.402253277768423, 0.228496485612685, 0.31642841333406, -1.385, 0.72, -0.736], a = 0.2, v = 0.2, t = 0.1)
movej(p[0.40226246021361, 0.228506936230142, 0.316443309222625, -1.385, 0.72, -0.736], a = 0.2, v = 0.2, t = 0.1)
movej(p[0.402275603518731, 0.228520378054106, 0.316456856167817, -1.385, 0.72, -0.736], a = 0.2, v = 0.2, t = 0.1)
movej(p[0.402291771076838, 0.228534698575398, 0.316468987047373, -1.385, 0.72, -0.736], a = 0.2, v = 0.2, t = 0.1)
movej(p[0.402309422068333, 0.228549460230543, 0.316481266427104, -1.385, 0.72, -0.736], a = 0.2, v = 0.2, t = 0.1)
movej(p[0.402326792339954, 0.228563816293942, 0.316494497748372, -1.385, 0.72, -0.736], a = 0.2, v = 0.2, t = 0.1)
movej(p[0.402343586573519, 0.228577032078534, 0.316507602683724, -1.385, 0.72, -0.736], a = 0.2, v = 0.2, t = 0.1)
movej(p[0.402360261839764, 0.228588102521182, 0.316518431729861, -1.385, 0.72, -0.736], a = 0.2, v = 0.2, t = 0.1)
movej(p[0.402376511039071, 0.228597450509517, 0.316525841937145, -1.385, 0.72, -0.736], a = 0.2, v = 0.2, t = 0.1)
movej(p[0.402391180663735, 0.228605321977835, 0.316530637910012, -1.385, 0.72, -0.736], a = 0.2, v = 0.2, t = 0.1)
movej(p[0.402401179272742, 0.228610853381487, 0.31653325241294, -1.385, 0.72, -0.736], a = 0.2, v = 0.2, t = 0.1)
movej(p[0.402403021067642, 0.228613089111737, 0.316531607927672, -1.385, 0.72, -0.736], a = 0.2, v = 0.2, t = 0.1)
movej(p[0.402396215176501, 0.228611715214217, 0.31652438649427, -1.385, 0.72, -0.736], a = 0.2, v = 0.2, t = 0.1)
movej(p[0.402382672286946, 0.22860767535742, 0.316513298548808, -1.385, 0.72, -0.736], a = 0.2, v = 0.2, t = 0.1)
movej(p[0.402364045235443, 0.228601550673951, 0.316500812943148, -1.385, 0.72, -0.736], a = 0.2, v = 0.2, t = 0.1)
movej(p[0.402341078576489, 0.228593277433484, 0.316487637862326, -1.385, 0.72, -0.736], a = 0.2, v = 0.2, t = 0.1)
movej(p[0.402315189388283, 0.22858335595974, 0.316474277852229, -1.385, 0.72, -0.736], a = 0.2, v = 0.2, t = 0.1)
movej(p[0.402286822920983, 0.228572396730906, 0.316461558255015, -1.385, 0.72, -0.736], a = 0.2, v = 0.2, t = 0.1)
movej(p[0.402256595563578, 0.228560811055678, 0.316449762186866, -1.385, 0.72, -0.736], a = 0.2, v = 0.2, t = 0.1)
movej(p[0.402226474857742, 0.228549510969937, 0.316438381837475, -1.385, 0.72, -0.736], a = 0.2, v = 0.2, t = 0.1)
movej(p[0.402198322807847, 0.228539275414043, 0.316426053070983, -1.385, 0.72, -0.736], a = 0.2, v = 0.2, t = 0.1)
movej(p[0.40217363491971, 0.228531194475851, 0.31641420118589, -1.385, 0.72, -0.736], a = 0.2, v = 0.2, t = 0.1)
movej(p[0.402153863970417, 0.228524872962439, 0.316404703600447, -1.385, 0.72, -0.736], a = 0.2, v = 0.2, t = 0.1)
movej(p[0.40214052095353, 0.228520160259383, 0.316399479220268, -1.385, 0.72, -0.736], a = 0.2, v = 0.2, t = 0.1)
movej(p[0.402134133751637, 0.228517086597041, 0.31639838561257, -1.385, 0.72, -0.736], a = 0.2, v = 0.2, t = 0.1)
movej(p[0.402133203767234, 0.22851619131876, 0.31639922693463, -1.385, 0.72, -0.736], a = 0.2, v = 0.2, t = 0.1)
movej(p[0.402136531692028, 0.228517201041167, 0.316400794606225, -1.385, 0.72, -0.736], a = 0.2, v = 0.2, t = 0.1)
movej(p[0.402143576856218, 0.228519231505546, 0.316402261208059, -1.385, 0.72, -0.736], a = 0.2, v = 0.2, t = 0.1)
movej(p[0.402153338938498, 0.228522112674941, 0.31640275347573, -1.385, 0.72, -0.736], a = 0.2, v = 0.2, t = 0.1)
movej(p[0.40216515768225, 0.228527247029864, 0.316403675071449, -1.385, 0.72, -0.736], a = 0.2, v = 0.2, t = 0.1)
movej(p[0.402178795432062, 0.228535728810166, 0.31640619463847, -1.385, 0.72, -0.736], a = 0.2, v = 0.2, t = 0.1)
movej(p[0.402194550165385, 0.228546871232529, 0.31641144450321, -1.385, 0.72, -0.736], a = 0.2, v = 0.2, t = 0.1)
movej(p[0.40221186283777, 0.228560098898371, 0.316419863129777, -1.385, 0.72, -0.736], a = 0.2, v = 0.2, t = 0.1)
movej(p[0.402229544679266, 0.228574611164146, 0.31643112825598, -1.385, 0.72, -0.736], a = 0.2, v = 0.2, t = 0.1)
movej(p[0.402246072163017, 0.228589755729883, 0.316443803972469, -1.385, 0.72, -0.736], a = 0.2, v = 0.2, t = 0.1)
movej(p[0.402261150531129, 0.228604254391722, 0.316455550529112, -1.385, 0.72, -0.736], a = 0.2, v = 0.2, t = 0.1)
movej(p[0.402273917728026, 0.228616789983726, 0.316464979196965, -1.385, 0.72, -0.736], a = 0.2, v = 0.2, t = 0.1)
movej(p[0.402283041224339, 0.228625609695903, 0.316471740322473, -1.385, 0.72, -0.736], a = 0.2, v = 0.2, t = 0.1)
movej(p[0.402286978439483, 0.228629251072221, 0.316475699814288, -1.385, 0.72, -0.736], a = 0.2, v = 0.2, t = 0.1)
movej(p[0.402285225149975, 0.228628652293582, 0.316476099495466, -1.385, 0.72, -0.736], a = 0.2, v = 0.2, t = 0.1)
movej(p[0.40227890143251, 0.228625214835302, 0.316473503618737, -1.385, 0.72, -0.736], a = 0.2, v = 0.2, t = 0.1)
movej(p[0.402269085911474, 0.228620363061949, 0.31647005973806, -1.385, 0.72, -0.736], a = 0.2, v = 0.2, t = 0.1)
movej(p[0.402256392589758, 0.228615009614583, 0.316467604859626, -1.385, 0.72, -0.736], a = 0.2, v = 0.2, t = 0.1)
movej(p[0.402242337497398, 0.228609361936158, 0.316466053342578, -1.385, 0.72, -0.736], a = 0.2, v = 0.2, t = 0.1)
movej(p[0.402228279112887, 0.22860351801404, 0.316463835445327, -1.385, 0.72, -0.736], a = 0.2, v = 0.2, t = 0.1)
movej(p[0.402214931452525, 0.228597026933216, 0.316459718975772, -1.385, 0.72, -0.736], a = 0.2, v = 0.2, t = 0.1)
movej(p[0.402202123414382, 0.228589845279529, 0.316453895272203, -1.385, 0.72, -0.736], a = 0.2, v = 0.2, t = 0.1)
movej(p[0.402190361999794, 0.228582128603326, 0.316446657746847, -1.385, 0.72, -0.736], a = 0.2, v = 0.2, t = 0.1)
movej(p[0.40218060509712, 0.228574458978861, 0.316439062679714, -1.385, 0.72, -0.736], a = 0.2, v = 0.2, t = 0.1)
movej(p[0.402173947900198, 0.228567877980453, 0.316432673390152, -1.385, 0.72, -0.736], a = 0.2, v = 0.2, t = 0.1)
movej(p[0.402171979618499, 0.228563411817109, 0.316428319460188, -1.385, 0.72, -0.736], a = 0.2, v = 0.2, t = 0.1)
movej(p[0.402175532596916, 0.228561579408234, 0.316426417770653, -1.385, 0.72, -0.736], a = 0.2, v = 0.2, t = 0.1)
movej(p[0.402184499518681, 0.228562854076156, 0.316426348569918, -1.385, 0.72, -0.736], a = 0.2, v = 0.2, t = 0.1)
movej(p[0.402197498797792, 0.228567068455899, 0.316429473211014, -1.385, 0.72, -0.736], a = 0.2, v = 0.2, t = 0.1)
movej(p[0.402213368140405, 0.228573649592859, 0.316437553484236, -1.385, 0.72, -0.736], a = 0.2, v = 0.2, t = 0.1)
movej(p[0.402231010761812, 0.228582122707076, 0.316450614093729, -1.385, 0.72, -0.736], a = 0.2, v = 0.2, t = 0.1)
movej(p[0.402249395317516, 0.228592884884545, 0.316466879572164, -1.385, 0.72, -0.736], a = 0.2, v = 0.2, t = 0.1)
movej(p[0.402267335268983, 0.228606496031239, 0.31648375824178, -1.385, 0.72, -0.736], a = 0.2, v = 0.2, t = 0.1)
movej(p[0.402284733145777, 0.228621940075695, 0.316500164557878, -1.385, 0.72, -0.736], a = 0.2, v = 0.2, t = 0.1)
movej(p[0.402301292945579, 0.228636650985372, 0.316514381819078, -1.385, 0.72, -0.736], a = 0.2, v = 0.2, t = 0.1)
movej(p[0.402314698579954, 0.228648492162952, 0.316525745684904, -1.385, 0.72, -0.736], a = 0.2, v = 0.2, t = 0.1)
movej(p[0.402323458166208, 0.228656252242939, 0.316535175305323, -1.385, 0.72, -0.736], a = 0.2, v = 0.2, t = 0.1)
movej(p[0.402327168038466, 0.228659752251881, 0.316543066947119, -1.385, 0.72, -0.736], a = 0.2, v = 0.2, t = 0.1)
movej(p[0.402326797287413, 0.228660084437984, 0.316549509397123, -1.385, 0.72, -0.736], a = 0.2, v = 0.2, t = 0.1)
movej(p[0.402323384577853, 0.228657725197376, 0.316555089035033, -1.385, 0.72, -0.736], a = 0.2, v = 0.2, t = 0.1)
movej(p[0.402317124865137, 0.228652936259518, 0.31655901149815, -1.385, 0.72, -0.736], a = 0.2, v = 0.2, t = 0.1)
movej(p[0.402308237526382, 0.228646272272956, 0.316560000097133, -1.385, 0.72, -0.736], a = 0.2, v = 0.2, t = 0.1)
movej(p[0.402296868062925, 0.228639049976626, 0.316556416438886, -1.385, 0.72, -0.736], a = 0.2, v = 0.2, t = 0.1)
movej(p[0.402282493007586, 0.228632199144644, 0.316547762725051, -1.385, 0.72, -0.736], a = 0.2, v = 0.2, t = 0.1)
movej(p[0.402265595948838, 0.228625939115309, 0.316535833062339, -1.385, 0.72, -0.736], a = 0.2, v = 0.2, t = 0.1)
movej(p[0.402246978939377, 0.228621477841963, 0.316522476782848, -1.385, 0.72, -0.736], a = 0.2, v = 0.2, t = 0.1)
movej(p[0.402227778975001, 0.228619882676595, 0.316508953348875, -1.385, 0.72, -0.736], a = 0.2, v = 0.2, t = 0.1)
movej(p[0.402209640554242, 0.228621664134771, 0.316495810781808, -1.385, 0.72, -0.736], a = 0.2, v = 0.2, t = 0.1)
movej(p[0.402194766278145, 0.228625998413076, 0.316484341690467, -1.385, 0.72, -0.736], a = 0.2, v = 0.2, t = 0.1)
movej(p[0.402185789778958, 0.228631297365442, 0.316475570666116, -1.385, 0.72, -0.736], a = 0.2, v = 0.2, t = 0.1)
movej(p[0.402183563578452, 0.228637286344181, 0.316469212154422, -1.385, 0.72, -0.736], a = 0.2, v = 0.2, t = 0.1)
movej(p[0.402186711371651, 0.228643897313233, 0.316461885289118, -1.385, 0.72, -0.736], a = 0.2, v = 0.2, t = 0.1)
movej(p[0.402193631944266, 0.228651314574741, 0.316453111025822, -1.385, 0.72, -0.736], a = 0.2, v = 0.2, t = 0.1)
movej(p[0.402203460393738, 0.228658653460624, 0.31644558759283, -1.385, 0.72, -0.736], a = 0.2, v = 0.2, t = 0.1)
movej(p[0.402215378420672, 0.228665089960962, 0.316440227644378, -1.385, 0.72, -0.736], a = 0.2, v = 0.2, t = 0.1)
movej(p[0.402228200986819, 0.228669983841231, 0.316435750895301, -1.385, 0.72, -0.736], a = 0.2, v = 0.2, t = 0.1)
movej(p[0.402241149569457, 0.228673412720734, 0.316430266621236, -1.385, 0.72, -0.736], a = 0.2, v = 0.2, t = 0.1)
movej(p[0.402253892220601, 0.228674960244136, 0.316424523132127, -1.385, 0.72, -0.736], a = 0.2, v = 0.2, t = 0.1)
movej(p[0.40226554565026, 0.22867414984304, 0.316419493095622, -1.385, 0.72, -0.736], a = 0.2, v = 0.2, t = 0.1)
movej(p[0.402274880278742, 0.228670981488456, 0.316413695142161, -1.385, 0.72, -0.736], a = 0.2, v = 0.2, t = 0.1)
movej(p[0.402280032563742, 0.228665784579054, 0.316406605763772, -1.385, 0.72, -0.736], a = 0.2, v = 0.2, t = 0.1)
movej(p[0.402280058718617, 0.228659222656137, 0.316398747842574, -1.385, 0.72, -0.736], a = 0.2, v = 0.2, t = 0.1)
movej(p[0.402274077806403, 0.22865193451965, 0.316390352806086, -1.385, 0.72, -0.736], a = 0.2, v = 0.2, t = 0.1)
movej(p[0.402262063491056, 0.228644467422301, 0.316380858264869, -1.385, 0.72, -0.736], a = 0.2, v = 0.2, t = 0.1)
movej(p[0.40224541233807, 0.228636853801258, 0.316369769572932, -1.385, 0.72, -0.736], a = 0.2, v = 0.2, t = 0.1)
movej(p[0.40222626491591, 0.228627609733149, 0.316358539712408, -1.385, 0.72, -0.736], a = 0.2, v = 0.2, t = 0.1)
movej(p[0.402206166336722, 0.22861651511461, 0.316348283180922, -1.385, 0.72, -0.736], a = 0.2, v = 0.2, t = 0.1)
movej(p[0.40218622214387, 0.228604763840791, 0.316339396775964, -1.385, 0.72, -0.736], a = 0.2, v = 0.2, t = 0.1)
movej(p[0.402167774892926, 0.228593100907521, 0.316332644276784, -1.385, 0.72, -0.736], a = 0.2, v = 0.2, t = 0.1)
movej(p[0.402153365971178, 0.228581945195332, 0.316330350709996, -1.385, 0.72, -0.736], a = 0.2, v = 0.2, t = 0.1)
movej(p[0.402145028014303, 0.228571813590396, 0.316332918677005, -1.385, 0.72, -0.736], a = 0.2, v = 0.2, t = 0.1)
movej(p[0.402142828568159, 0.22856430782125, 0.316337999133695, -1.385, 0.72, -0.736], a = 0.2, v = 0.2, t = 0.1)
movej(p[0.402145663186051, 0.228560720578994, 0.316343255815482, -1.385, 0.72, -0.736], a = 0.2, v = 0.2, t = 0.1)
movej(p[0.402152936112767, 0.228560385606561, 0.316349055555085, -1.385, 0.72, -0.736], a = 0.2, v = 0.2, t = 0.1)
movej(p[0.402163965465156, 0.228562706103794, 0.316356533718059, -1.385, 0.72, -0.736], a = 0.2, v = 0.2, t = 0.1)
movej(p[0.40217752288286, 0.228566327454609, 0.31636578958228, -1.385, 0.72, -0.736], a = 0.2, v = 0.2, t = 0.1)
movej(p[0.402192872089423, 0.228571237348559, 0.31637660053276, -1.385, 0.72, -0.736], a = 0.2, v = 0.2, t = 0.1)
movej(p[0.402209746834395, 0.228575207803946, 0.316388911458158, -1.385, 0.72, -0.736], a = 0.2, v = 0.2, t = 0.1)
movej(p[0.402227465334707, 0.228577138629768, 0.316400218127531, -1.385, 0.72, -0.736], a = 0.2, v = 0.2, t = 0.1)
movej(p[0.402245291435575, 0.22857872913695, 0.316408737984148, -1.385, 0.72, -0.736], a = 0.2, v = 0.2, t = 0.1)
movej(p[0.402263141871269, 0.228583142472869, 0.31641356787603, -1.385, 0.72, -0.736], a = 0.2, v = 0.2, t = 0.1)
movej(p[0.402280877758708, 0.228590751883545, 0.316417025264052, -1.385, 0.72, -0.736], a = 0.2, v = 0.2, t = 0.1)
movej(p[0.402297655063491, 0.228599414901302, 0.31642154108696, -1.385, 0.72, -0.736], a = 0.2, v = 0.2, t = 0.1)
movej(p[0.402311483862391, 0.228606226930295, 0.316427186860599, -1.385, 0.72, -0.736], a = 0.2, v = 0.2, t = 0.1)
movej(p[0.402321095221334, 0.228610199931911, 0.31643113656444, -1.385, 0.72, -0.736], a = 0.2, v = 0.2, t = 0.1)
movej(p[0.402326862727993, 0.228610945741445, 0.316431383750775, -1.385, 0.72, -0.736], a = 0.2, v = 0.2, t = 0.1)
movej(p[0.402329374794123, 0.228609145219456, 0.316427495899657, -1.385, 0.72, -0.736], a = 0.2, v = 0.2, t = 0.1)
movej(p[0.402328545439081, 0.228606381111396, 0.316420975251464, -1.385, 0.72, -0.736], a = 0.2, v = 0.2, t = 0.1)
movej(p[0.402323013998845, 0.228603392898675, 0.316413926370444, -1.385, 0.72, -0.736], a = 0.2, v = 0.2, t = 0.1)
movej(p[0.402312383431679, 0.228600384093436, 0.316407499840216, -1.385, 0.72, -0.736], a = 0.2, v = 0.2, t = 0.1)
movej(p[0.402298014172335, 0.228596954436012, 0.316401801625332, -1.385, 0.72, -0.736], a = 0.2, v = 0.2, t = 0.1)
movej(p[0.402280984862094, 0.22859235626682, 0.316396390766453, -1.385, 0.72, -0.736], a = 0.2, v = 0.2, t = 0.1)
movej(p[0.402261446421585, 0.228586595864112, 0.316391257800632, -1.385, 0.72, -0.736], a = 0.2, v = 0.2, t = 0.1)
movej(p[0.402240135549203, 0.228580820519858, 0.316387521720993, -1.385, 0.72, -0.736], a = 0.2, v = 0.2, t = 0.1)
movej(p[0.402219049098326, 0.228576009253192, 0.316386203445811, -1.385, 0.72, -0.736], a = 0.2, v = 0.2, t = 0.1)
movej(p[0.402200623084392, 0.228571906875138, 0.316386967439152, -1.385, 0.72, -0.736], a = 0.2, v = 0.2, t = 0.1)
movej(p[0.402186616058334, 0.228568922807861, 0.316388424711775, -1.385, 0.72, -0.736], a = 0.2, v = 0.2, t = 0.1)
movej(p[0.402177695041223, 0.228568596931909, 0.316390337810979, -1.385, 0.72, -0.736], a = 0.2, v = 0.2, t = 0.1)
movej(p[0.402174225118557, 0.228571781400935, 0.316393796985695, -1.385, 0.72, -0.736], a = 0.2, v = 0.2, t = 0.1)
movej(p[0.402176029806149, 0.228578520923658, 0.316399147750702, -1.385, 0.72, -0.736], a = 0.2, v = 0.2, t = 0.1)
movej(p[0.40218277475422, 0.228588653672892, 0.316405148815065, -1.385, 0.72, -0.736], a = 0.2, v = 0.2, t = 0.1)
movej(p[0.40219329675135, 0.228601196504171, 0.316412441942097, -1.385, 0.72, -0.736], a = 0.2, v = 0.2, t = 0.1)
movej(p[0.402206269876411, 0.228614434392545, 0.316419120832614, -1.385, 0.72, -0.736], a = 0.2, v = 0.2, t = 0.1)
movej(p[0.402219026212512, 0.22862604777736, 0.316423325338817, -1.385, 0.72, -0.736], a = 0.2, v = 0.2, t = 0.1)
movej(p[0.402228197700284, 0.228634707628349, 0.316424908928693, -1.385, 0.72, -0.736], a = 0.2, v = 0.2, t = 0.1)
movej(p[0.40223159040846, 0.228640048402395, 0.316425147266315, -1.385, 0.72, -0.736], a = 0.2, v = 0.2, t = 0.1)
movej(p[0.402227986652015, 0.228641979838173, 0.31642436525332, -1.385, 0.72, -0.736], a = 0.2, v = 0.2, t = 0.1)
movej(p[0.402217270987386, 0.228641357184898, 0.316421748307877, -1.385, 0.72, -0.736], a = 0.2, v = 0.2, t = 0.1)
movej(p[0.402200885929462, 0.228639979078077, 0.316415996258031, -1.385, 0.72, -0.736], a = 0.2, v = 0.2, t = 0.1)
movej(p[0.40218103398027, 0.228638793754317, 0.316407897363362, -1.385, 0.72, -0.736], a = 0.2, v = 0.2, t = 0.1)
movej(p[0.402160243978362, 0.228638713762486, 0.316398069308368, -1.385, 0.72, -0.736], a = 0.2, v = 0.2, t = 0.1)
movej(p[0.402141204857709, 0.22864024562796, 0.316387908772016, -1.385, 0.72, -0.736], a = 0.2, v = 0.2, t = 0.1)
movej(p[0.402126570443078, 0.228643609301552, 0.316377691969368, -1.385, 0.72, -0.736], a = 0.2, v = 0.2, t = 0.1)
movej(p[0.402117867622827, 0.228648351933404, 0.316367965965265, -1.385, 0.72, -0.736], a = 0.2, v = 0.2, t = 0.1)
movej(p[0.402114694642744, 0.228653857459647, 0.316359959150469, -1.385, 0.72, -0.736], a = 0.2, v = 0.2, t = 0.1)
movej(p[0.402116231056133, 0.228659248591328, 0.316353811315233, -1.385, 0.72, -0.736], a = 0.2, v = 0.2, t = 0.1)
movej(p[0.402121535720757, 0.228663683846889, 0.316349543508848, -1.385, 0.72, -0.736], a = 0.2, v = 0.2, t = 0.1)
movej(p[0.402128239240745, 0.228666578063003, 0.316347850069198, -1.385, 0.72, -0.736], a = 0.2, v = 0.2, t = 0.1)
movej(p[0.402135002648355, 0.228668841023831, 0.316348684604873, -1.385, 0.72, -0.736], a = 0.2, v = 0.2, t = 0.1)
movej(p[0.402142754786125, 0.22867254898832, 0.316351746657346, -1.385, 0.72, -0.736], a = 0.2, v = 0.2, t = 0.1)
movej(p[0.402153382668219, 0.228678837886738, 0.316356860596423, -1.385, 0.72, -0.736], a = 0.2, v = 0.2, t = 0.1)
movej(p[0.402167364899026, 0.228687207350864, 0.316363803429989, -1.385, 0.72, -0.736], a = 0.2, v = 0.2, t = 0.1)
movej(p[0.402182648423708, 0.228695807804066, 0.316371857259636, -1.385, 0.72, -0.736], a = 0.2, v = 0.2, t = 0.1)
movej(p[0.402196229829641, 0.228702264265448, 0.316379403070746, -1.385, 0.72, -0.736], a = 0.2, v = 0.2, t = 0.1)
movej(p[0.402205819618199, 0.228704754118863, 0.316383439111925, -1.385, 0.72, -0.736], a = 0.2, v = 0.2, t = 0.1)
movej(p[0.402210145760149, 0.228702867607398, 0.316382250060489, -1.385, 0.72, -0.736], a = 0.2, v = 0.2, t = 0.1)
movej(p[0.402208810227039, 0.228696308540054, 0.316375356439388, -1.385, 0.72, -0.736], a = 0.2, v = 0.2, t = 0.1)
movej(p[0.402201234176109, 0.228685801099683, 0.316364158160138, -1.385, 0.72, -0.736], a = 0.2, v = 0.2, t = 0.1)
movej(p[0.402188546306794, 0.228672445840246, 0.316349990069384, -1.385, 0.72, -0.736], a = 0.2, v = 0.2, t = 0.1)
movej(p[0.40217129142747, 0.228656964606081, 0.316335354003169, -1.385, 0.72, -0.736], a = 0.2, v = 0.2, t = 0.1)
movej(p[0.402149765623636, 0.228640018518661, 0.316322724253669, -1.385, 0.72, -0.736], a = 0.2, v = 0.2, t = 0.1)
movej(p[0.40212477742315, 0.228622633935022, 0.316312051709447, -1.385, 0.72, -0.736], a = 0.2, v = 0.2, t = 0.1)
movej(p[0.402099413342505, 0.228606295022993, 0.316302244214927, -1.385, 0.72, -0.736], a = 0.2, v = 0.2, t = 0.1)
movej(p[0.402077111656414, 0.228592658638117, 0.316293479065639, -1.385, 0.72, -0.736], a = 0.2, v = 0.2, t = 0.1)
movej(p[0.402060005798632, 0.228583009863444, 0.316286146123062, -1.385, 0.72, -0.736], a = 0.2, v = 0.2, t = 0.1)
movej(p[0.402049089147693, 0.22857752810718, 0.316281372275292, -1.385, 0.72, -0.736], a = 0.2, v = 0.2, t = 0.1)
movej(p[0.40204666580966, 0.228575615043095, 0.316281072220992, -1.385, 0.72, -0.736], a = 0.2, v = 0.2, t = 0.1)
movej(p[0.402052589589942, 0.228576476066419, 0.316285585441239, -1.385, 0.72, -0.736], a = 0.2, v = 0.2, t = 0.1)
movej(p[0.402064865842492, 0.228579742804701, 0.316292837743931, -1.385, 0.72, -0.736], a = 0.2, v = 0.2, t = 0.1)
movej(p[0.402081032946989, 0.228585544877545, 0.316300906102246, -1.385, 0.72, -0.736], a = 0.2, v = 0.2, t = 0.1)
movej(p[0.402098675343426, 0.228593488283298, 0.316310448083328, -1.385, 0.72, -0.736], a = 0.2, v = 0.2, t = 0.1)
movej(p[0.40211795149856, 0.228603203709303, 0.316322148174175, -1.385, 0.72, -0.736], a = 0.2, v = 0.2, t = 0.1)
movej(p[0.402138778217225, 0.22861318275227, 0.316334754121981, -1.385, 0.72, -0.736], a = 0.2, v = 0.2, t = 0.1)
movej(p[0.402159358049741, 0.228621031447283, 0.31634552416461, -1.385, 0.72, -0.736], a = 0.2, v = 0.2, t = 0.1)
movej(p[0.40217706057037, 0.228624758025887, 0.316352205057985, -1.385, 0.72, -0.736], a = 0.2, v = 0.2, t = 0.1)
movej(p[0.402189853334181, 0.228624626140018, 0.316354542801592, -1.385, 0.72, -0.736], a = 0.2, v = 0.2, t = 0.1)
movej(p[0.402198007361891, 0.228621903767723, 0.316353315197747, -1.385, 0.72, -0.736], a = 0.2, v = 0.2, t = 0.1)
movej(p[0.402202035699921, 0.228617732548896, 0.316349980755183, -1.385, 0.72, -0.736], a = 0.2, v = 0.2, t = 0.1)
movej(p[0.402201594532336, 0.228612246144182, 0.316344683957237, -1.385, 0.72, -0.736], a = 0.2, v = 0.2, t = 0.1)
movej(p[0.402196462871652, 0.228605678590597, 0.316338286456511, -1.385, 0.72, -0.736], a = 0.2, v = 0.2, t = 0.1)
movej(p[0.402187570871613, 0.228597970787732, 0.316331648380413, -1.385, 0.72, -0.736], a = 0.2, v = 0.2, t = 0.1)
movej(p[0.402176947476815, 0.228589831814276, 0.316325731096318, -1.385, 0.72, -0.736], a = 0.2, v = 0.2, t = 0.1)
movej(p[0.402166601039896, 0.228583150289988, 0.316321435071381, -1.385, 0.72, -0.736], a = 0.2, v = 0.2, t = 0.1)
movej(p[0.402158237482907, 0.228580315222631, 0.316319285894658, -1.385, 0.72, -0.736], a = 0.2, v = 0.2, t = 0.1)
movej(p[0.402152418408097, 0.22858293778697, 0.316319589678538, -1.385, 0.72, -0.736], a = 0.2, v = 0.2, t = 0.1)
movej(p[0.402148915043353, 0.22859101776808, 0.316321317696976, -1.385, 0.72, -0.736], a = 0.2, v = 0.2, t = 0.1)
movej(p[0.402147308403216, 0.228602970207921, 0.316325089596806, -1.385, 0.72, -0.736], a = 0.2, v = 0.2, t = 0.1)
movej(p[0.402147398582735, 0.228616922765538, 0.316332999777309, -1.385, 0.72, -0.736], a = 0.2, v = 0.2, t = 0.1)
movej(p[0.402149854027478, 0.228632411244746, 0.316345913390163, -1.385, 0.72, -0.736], a = 0.2, v = 0.2, t = 0.1)
movej(p[0.402154128147339, 0.228649295318697, 0.316360928936681, -1.385, 0.72, -0.736], a = 0.2, v = 0.2, t = 0.1)
movej(p[0.402159526644899, 0.22866675935909, 0.31637453329125, -1.385, 0.72, -0.736], a = 0.2, v = 0.2, t = 0.1)
movej(p[0.402165692693262, 0.228682451602956, 0.316385013615436, -1.385, 0.72, -0.736], a = 0.2, v = 0.2, t = 0.1)
movej(p[0.402172043800225, 0.228693039061543, 0.316393097649455, -1.385, 0.72, -0.736], a = 0.2, v = 0.2, t = 0.1)
movej(p[0.402178496597836, 0.228698972202158, 0.316399426546944, -1.385, 0.72, -0.736], a = 0.2, v = 0.2, t = 0.1)
movej(p[0.402185575165231, 0.228703355612549, 0.316402811115748, -1.385, 0.72, -0.736], a = 0.2, v = 0.2, t = 0.1)
movej(p[0.402193883489161, 0.228708131610871, 0.316402356330624, -1.385, 0.72, -0.736], a = 0.2, v = 0.2, t = 0.1)
movej(p[0.402203152749611, 0.228713317761089, 0.316397678990181, -1.385, 0.72, -0.736], a = 0.2, v = 0.2, t = 0.1)
movej(p[0.402212080637503, 0.228719055228701, 0.316389290136851, -1.385, 0.72, -0.736], a = 0.2, v = 0.2, t = 0.1)
movej(p[0.402219466069899, 0.228726178254856, 0.316378853563433, -1.385, 0.72, -0.736], a = 0.2, v = 0.2, t = 0.1)
movej(p[0.402225472019643, 0.228734519678161, 0.3163688273289, -1.385, 0.72, -0.736], a = 0.2, v = 0.2, t = 0.1)
movej(p[0.402231723200331, 0.228743120533675, 0.31636019708531, -1.385, 0.72, -0.736], a = 0.2, v = 0.2, t = 0.1)
movej(p[0.402239292482634, 0.228751685094296, 0.316351498982942, -1.385, 0.72, -0.736], a = 0.2, v = 0.2, t = 0.1)
movej(p[0.402249125051635, 0.228759477484022, 0.316340471877692, -1.385, 0.72, -0.736], a = 0.2, v = 0.2, t = 0.1)
movej(p[0.402260659030269, 0.228765152461996, 0.316328212404503, -1.385, 0.72, -0.736], a = 0.2, v = 0.2, t = 0.1)
movej(p[0.402272519890213, 0.228768311659519, 0.316316478077322, -1.385, 0.72, -0.736], a = 0.2, v = 0.2, t = 0.1)
movej(p[0.402283949256411, 0.228770548764756, 0.316305896727575, -1.385, 0.72, -0.736], a = 0.2, v = 0.2, t = 0.1)
movej(p[0.402295410026348, 0.228772766226751, 0.316296272177676, -1.385, 0.72, -0.736], a = 0.2, v = 0.2, t = 0.1)
movej(p[0.402307031403816, 0.228774491380967, 0.316287017930722, -1.385, 0.72, -0.736], a = 0.2, v = 0.2, t = 0.1)
movej(p[0.402316980528823, 0.228774802671449, 0.316278351557097, -1.385, 0.72, -0.736], a = 0.2, v = 0.2, t = 0.1)
movej(p[0.402321978566249, 0.228773812577455, 0.316270828942274, -1.385, 0.72, -0.736], a = 0.2, v = 0.2, t = 0.1)
movej(p[0.402320877080947, 0.228771760804556, 0.316265372777403, -1.385, 0.72, -0.736], a = 0.2, v = 0.2, t = 0.1)
movej(p[0.402314299315289, 0.228769116402076, 0.3162604770772, -1.385, 0.72, -0.736], a = 0.2, v = 0.2, t = 0.1)
movej(p[0.402303496832208, 0.228766115097981, 0.316255550442852, -1.385, 0.72, -0.736], a = 0.2, v = 0.2, t = 0.1)
movej(p[0.402289650802704, 0.228762979929701, 0.316250923992717, -1.385, 0.72, -0.736], a = 0.2, v = 0.2, t = 0.1)
movej(p[0.402273673718701, 0.228759755662021, 0.316247030350889, -1.385, 0.72, -0.736], a = 0.2, v = 0.2, t = 0.1)
movej(p[0.40225678515433, 0.228756454114464, 0.316244274264493, -1.385, 0.72, -0.736], a = 0.2, v = 0.2, t = 0.1)
movej(p[0.402240939937722, 0.228753740579513, 0.316243483252045, -1.385, 0.72, -0.736], a = 0.2, v = 0.2, t = 0.1)
movej(p[0.402228462587928, 0.228753432320803, 0.316246253657197, -1.385, 0.72, -0.736], a = 0.2, v = 0.2, t = 0.1)
movej(p[0.402221056286506, 0.228756592831234, 0.316252481189779, -1.385, 0.72, -0.736], a = 0.2, v = 0.2, t = 0.1)
movej(p[0.40221962918281, 0.228762907325323, 0.316259320031306, -1.385, 0.72, -0.736], a = 0.2, v = 0.2, t = 0.1)
movej(p[0.402224859532251, 0.228770364282433, 0.316264526367098, -1.385, 0.72, -0.736], a = 0.2, v = 0.2, t = 0.1)
movej(p[0.402235368796528, 0.228777507011144, 0.316268958772871, -1.385, 0.72, -0.736], a = 0.2, v = 0.2, t = 0.1)
movej(p[0.402248159353918, 0.228784641157625, 0.316274027376786, -1.385, 0.72, -0.736], a = 0.2, v = 0.2, t = 0.1)
movej(p[0.402260410593175, 0.228792285598885, 0.316280149725067, -1.385, 0.72, -0.736], a = 0.2, v = 0.2, t = 0.1)
movej(p[0.402271122789723, 0.228799671867455, 0.316286382592122, -1.385, 0.72, -0.736], a = 0.2, v = 0.2, t = 0.1)
movej(p[0.402280773624076, 0.228805768214637, 0.316289389941839, -1.385, 0.72, -0.736], a = 0.2, v = 0.2, t = 0.1)
movej(p[0.402288896580879, 0.228809851981555, 0.316288059982612, -1.385, 0.72, -0.736], a = 0.2, v = 0.2, t = 0.1)
movej(p[0.402294552741229, 0.228811866164584, 0.316282797016165, -1.385, 0.72, -0.736], a = 0.2, v = 0.2, t = 0.1)
movej(p[0.402296063847398, 0.228811995569847, 0.316274361434299, -1.385, 0.72, -0.736], a = 0.2, v = 0.2, t = 0.1)
movej(p[0.402291871668703, 0.228809925853455, 0.3162629265779, -1.385, 0.72, -0.736], a = 0.2, v = 0.2, t = 0.1)
movej(p[0.402283354734754, 0.228805635058968, 0.316249068452206, -1.385, 0.72, -0.736], a = 0.2, v = 0.2, t = 0.1)
movej(p[0.402271813952725, 0.228799038397219, 0.316235118402817, -1.385, 0.72, -0.736], a = 0.2, v = 0.2, t = 0.1)
movej(p[0.402258102355016, 0.228790721908377, 0.316222660132247, -1.385, 0.72, -0.736], a = 0.2, v = 0.2, t = 0.1)
movej(p[0.402241746522327, 0.228781756414463, 0.316212396186128, -1.385, 0.72, -0.736], a = 0.2, v = 0.2, t = 0.1)
movej(p[0.402224542020517, 0.22877287248161, 0.316202783557531, -1.385, 0.72, -0.736], a = 0.2, v = 0.2, t = 0.1)
movej(p[0.40220944580585, 0.228764541710298, 0.316192595200152, -1.385, 0.72, -0.736], a = 0.2, v = 0.2, t = 0.1)
movej(p[0.402198128208736, 0.22875700772734, 0.316181784602697, -1.385, 0.72, -0.736], a = 0.2, v = 0.2, t = 0.1)
movej(p[0.402191254704899, 0.228749997650028, 0.316172134274097, -1.385, 0.72, -0.736], a = 0.2, v = 0.2, t = 0.1)
movej(p[0.402189128840968, 0.228743773476475, 0.316165173583318, -1.385, 0.72, -0.736], a = 0.2, v = 0.2, t = 0.1)
movej(p[0.402191610820921, 0.22873874491415, 0.316159771819582, -1.385, 0.72, -0.736], a = 0.2, v = 0.2, t = 0.1)
movej(p[0.402198163153925, 0.228736119617349, 0.316155270361828, -1.385, 0.72, -0.736], a = 0.2, v = 0.2, t = 0.1)
movej(p[0.402208575898277, 0.228735738632058, 0.316152296552946, -1.385, 0.72, -0.736], a = 0.2, v = 0.2, t = 0.1)
movej(p[0.402223079256296, 0.228736745677054, 0.31614923581455, -1.385, 0.72, -0.736], a = 0.2, v = 0.2, t = 0.1)
movej(p[0.402240115207153, 0.228738750391556, 0.316146000513606, -1.385, 0.72, -0.736], a = 0.2, v = 0.2, t = 0.1)
movej(p[0.402257216062146, 0.228741898324404, 0.316142044484374, -1.385, 0.72, -0.736], a = 0.2, v = 0.2, t = 0.1)
movej(p[0.402272887088407, 0.228745365253232, 0.316136683088156, -1.385, 0.72, -0.736], a = 0.2, v = 0.2, t = 0.1)
movej(p[0.402285936079498, 0.228747922370415, 0.316130463479067, -1.385, 0.72, -0.736], a = 0.2, v = 0.2, t = 0.1)
movej(p[0.402296021685299, 0.228747890785874, 0.316124392291699, -1.385, 0.72, -0.736], a = 0.2, v = 0.2, t = 0.1)
movej(p[0.402302888464737, 0.228744150032522, 0.316119504203472, -1.385, 0.72, -0.736], a = 0.2, v = 0.2, t = 0.1)
movej(p[0.402307082121861, 0.22873706621034, 0.316115140166668, -1.385, 0.72, -0.736], a = 0.2, v = 0.2, t = 0.1)
movej(p[0.402308217037523, 0.228727494497863, 0.316110128574038, -1.385, 0.72, -0.736], a = 0.2, v = 0.2, t = 0.1)
movej(p[0.402305800944744, 0.228716471848456, 0.316103141299481, -1.385, 0.72, -0.736], a = 0.2, v = 0.2, t = 0.1)
movej(p[0.402298892658549, 0.228705259606971, 0.316093508130338, -1.385, 0.72, -0.736], a = 0.2, v = 0.2, t = 0.1)
movej(p[0.402287062502646, 0.228694503100217, 0.316081260188847, -1.385, 0.72, -0.736], a = 0.2, v = 0.2, t = 0.1)
movej(p[0.402271855932234, 0.228684053705111, 0.31606783085263, -1.385, 0.72, -0.736], a = 0.2, v = 0.2, t = 0.1)
movej(p[0.40225588247395, 0.228674039697232, 0.316054371004872, -1.385, 0.72, -0.736], a = 0.2, v = 0.2, t = 0.1)
movej(p[0.40224070644328, 0.228665482860404, 0.316042406332266, -1.385, 0.72, -0.736], a = 0.2, v = 0.2, t = 0.1)
movej(p[0.402227572421303, 0.228659695675917, 0.316033684286897, -1.385, 0.72, -0.736], a = 0.2, v = 0.2, t = 0.1)
movej(p[0.402217451845952, 0.228656462823065, 0.3160295049062, -1.385, 0.72, -0.736], a = 0.2, v = 0.2, t = 0.1)
movej(p[0.402211828083284, 0.228655186244517, 0.31602840857976, -1.385, 0.72, -0.736], a = 0.2, v = 0.2, t = 0.1)
movej(p[0.402211736310925, 0.228655625861623, 0.316028045234699, -1.385, 0.72, -0.736], a = 0.2, v = 0.2, t = 0.1)
movej(p[0.402216806223561, 0.228657662477426, 0.316027137250157, -1.385, 0.72, -0.736], a = 0.2, v = 0.2, t = 0.1)
movej(p[0.402226011616788, 0.228661193171561, 0.316025719121295, -1.385, 0.72, -0.736], a = 0.2, v = 0.2, t = 0.1)
movej(p[0.402237700138059, 0.228666731992873, 0.316024742797088, -1.385, 0.72, -0.736], a = 0.2, v = 0.2, t = 0.1)
movej(p[0.402250016498416, 0.228673915011283, 0.316023391278285, -1.385, 0.72, -0.736], a = 0.2, v = 0.2, t = 0.1)
movej(p[0.40226175644952, 0.228680968897486, 0.316020622254898, -1.385, 0.72, -0.736], a = 0.2, v = 0.2, t = 0.1)
movej(p[0.402271030660046, 0.228686655760312, 0.316016085638943, -1.385, 0.72, -0.736], a = 0.2, v = 0.2, t = 0.1)
movej(p[0.402275225406131, 0.22869024284225, 0.31601119459637, -1.385, 0.72, -0.736], a = 0.2, v = 0.2, t = 0.1)
movej(p[0.402272413802405, 0.228691642745133, 0.316007962299136, -1.385, 0.72, -0.736], a = 0.2, v = 0.2, t = 0.1)
movej(p[0.40226240741511, 0.228690832940048, 0.316007276633026, -1.385, 0.72, -0.736], a = 0.2, v = 0.2, t = 0.1)
movej(p[0.402248590451145, 0.22868775200664, 0.316008922339599, -1.385, 0.72, -0.736], a = 0.2, v = 0.2, t = 0.1)
movej(p[0.402232923903596, 0.228682402373704, 0.316011630739928, -1.385, 0.72, -0.736], a = 0.2, v = 0.2, t = 0.1)
movej(p[0.402216423746952, 0.228675895248089, 0.316013638001488, -1.385, 0.72, -0.736], a = 0.2, v = 0.2, t = 0.1)
movej(p[0.402199736749668, 0.228669306411385, 0.316012836190092, -1.385, 0.72, -0.736], a = 0.2, v = 0.2, t = 0.1)
movej(p[0.40218340365063, 0.228663411783145, 0.316009092056715, -1.385, 0.72, -0.736], a = 0.2, v = 0.2, t = 0.1)
movej(p[0.402167883908676, 0.228658461160746, 0.31600374251117, -1.385, 0.72, -0.736], a = 0.2, v = 0.2, t = 0.1)
movej(p[0.402153239962949, 0.228655857691768, 0.315999489636398, -1.385, 0.72, -0.736], a = 0.2, v = 0.2, t = 0.1)
movej(p[0.402141027964824, 0.228657023923783, 0.315998293229405, -1.385, 0.72, -0.736], a = 0.2, v = 0.2, t = 0.1)
movej(p[0.402133915819238, 0.228661649428345, 0.316001117465711, -1.385, 0.72, -0.736], a = 0.2, v = 0.2, t = 0.1)
movej(p[0.402134827290054, 0.228668804034693, 0.316008073138932, -1.385, 0.72, -0.736], a = 0.2, v = 0.2, t = 0.1)
movej(p[0.402144863082052, 0.228677553780611, 0.316018515038585, -1.385, 0.72, -0.736], a = 0.2, v = 0.2, t = 0.1)
movej(p[0.402161919338237, 0.228686901493445, 0.316030757545955, -1.385, 0.72, -0.736], a = 0.2, v = 0.2, t = 0.1)
movej(p[0.402182807921611, 0.228695392290673, 0.316042939638389, -1.385, 0.72, -0.736], a = 0.2, v = 0.2, t = 0.1)
movej(p[0.40220469069969, 0.228702619444389, 0.316053751229469, -1.385, 0.72, -0.736], a = 0.2, v = 0.2, t = 0.1)
movej(p[0.402226321987758, 0.228709744168438, 0.316062084088628, -1.385, 0.72, -0.736], a = 0.2, v = 0.2, t = 0.1)
movej(p[0.402247013646232, 0.228718078974169, 0.316066668190721, -1.385, 0.72, -0.736], a = 0.2, v = 0.2, t = 0.1)
movej(p[0.4022662861674, 0.228728114318303, 0.316067052894469, -1.385, 0.72, -0.736], a = 0.2, v = 0.2, t = 0.1)
movej(p[0.402283363010937, 0.228737724283622, 0.316064406123724, -1.385, 0.72, -0.736], a = 0.2, v = 0.2, t = 0.1)
movej(p[0.402297279690956, 0.228744376760081, 0.316060855963701, -1.385, 0.72, -0.736], a = 0.2, v = 0.2, t = 0.1)
movej(p[0.402307007345414, 0.228746938546485, 0.316057884296292, -1.385, 0.72, -0.736], a = 0.2, v = 0.2, t = 0.1)
movej(p[0.402311864571424, 0.228746362535309, 0.316054542130436, -1.385, 0.72, -0.736], a = 0.2, v = 0.2, t = 0.1)
movej(p[0.402312173325963, 0.22874293594277, 0.316049756245021, -1.385, 0.72, -0.736], a = 0.2, v = 0.2, t = 0.1)
movej(p[0.402309469101872, 0.228737421757362, 0.316043654906532, -1.385, 0.72, -0.736], a = 0.2, v = 0.2, t = 0.1)
movej(p[0.402304622674238, 0.228732059466728, 0.316038095886175, -1.385, 0.72, -0.736], a = 0.2, v = 0.2, t = 0.1)
movej(p[0.402298999041871, 0.228727663789266, 0.316033193893045, -1.385, 0.72, -0.736], a = 0.2, v = 0.2, t = 0.1)
movej(p[0.402294032701399, 0.228723364330536, 0.316028612834984, -1.385, 0.72, -0.736], a = 0.2, v = 0.2, t = 0.1)
movej(p[0.40229028173556, 0.228718731168987, 0.316025001245814, -1.385, 0.72, -0.736], a = 0.2, v = 0.2, t = 0.1)
movej(p[0.402287883703581, 0.228715807769645, 0.316023480965604, -1.385, 0.72, -0.736], a = 0.2, v = 0.2, t = 0.1)
movej(p[0.402288199080196, 0.228716508160286, 0.316024180754531, -1.385, 0.72, -0.736], a = 0.2, v = 0.2, t = 0.1)
movej(p[0.402292898977359, 0.228720906873221, 0.316026941063964, -1.385, 0.72, -0.736], a = 0.2, v = 0.2, t = 0.1)
movej(p[0.40230206726425, 0.228728367050259, 0.316030061285599, -1.385, 0.72, -0.736], a = 0.2, v = 0.2, t = 0.1)
movej(p[0.402315291761944, 0.228738163038497, 0.31603257162286, -1.385, 0.72, -0.736], a = 0.2, v = 0.2, t = 0.1)
movej(p[0.402332911880413, 0.228749780544683, 0.316034438904619, -1.385, 0.72, -0.736], a = 0.2, v = 0.2, t = 0.1)
movej(p[0.402353448611617, 0.228762796231602, 0.316037456901717, -1.385, 0.72, -0.736], a = 0.2, v = 0.2, t = 0.1)
movej(p[0.402374585849732, 0.228777150217697, 0.316042848161498, -1.385, 0.72, -0.736], a = 0.2, v = 0.2, t = 0.1)
movej(p[0.402394633585386, 0.22879155863977, 0.316048951183254, -1.385, 0.72, -0.736], a = 0.2, v = 0.2, t = 0.1)
movej(p[0.402412260234511, 0.228803756494802, 0.316050994011494, -1.385, 0.72, -0.736], a = 0.2, v = 0.2, t = 0.1)
movej(p[0.402425695018047, 0.228812172945369, 0.316048498972378, -1.385, 0.72, -0.736], a = 0.2, v = 0.2, t = 0.1)
movej(p[0.402433400740096, 0.228816500262189, 0.316043512619216, -1.385, 0.72, -0.736], a = 0.2, v = 0.2, t = 0.1)
movej(p[0.40243535843755, 0.228817794414829, 0.316038065896291, -1.385, 0.72, -0.736], a = 0.2, v = 0.2, t = 0.1)
movej(p[0.402432307985973, 0.228816926529814, 0.316032048968605, -1.385, 0.72, -0.736], a = 0.2, v = 0.2, t = 0.1)
movej(p[0.402425673347755, 0.228814386499734, 0.316025760788271, -1.385, 0.72, -0.736], a = 0.2, v = 0.2, t = 0.1)
movej(p[0.402415723264126, 0.228810396834254, 0.316020052524251, -1.385, 0.72, -0.736], a = 0.2, v = 0.2, t = 0.1)
movej(p[0.402402812507629, 0.228805630317246, 0.316015361609173, -1.385, 0.72, -0.736], a = 0.2, v = 0.2, t = 0.1)
movej(p[0.402388239747649, 0.228801300555136, 0.316012309871201, -1.385, 0.72, -0.736], a = 0.2, v = 0.2, t = 0.1)
movej(p[0.402375252094424, 0.228798051860835, 0.316012265813891, -1.385, 0.72, -0.736], a = 0.2, v = 0.2, t = 0.1)
movej(p[0.402366438470813, 0.228795284203893, 0.316015166636858, -1.385, 0.72, -0.736], a = 0.2, v = 0.2, t = 0.1)
movej(p[0.402361989511601, 0.228793083647324, 0.316020590277861, -1.385, 0.72, -0.736], a = 0.2, v = 0.2, t = 0.1)
movej(p[0.402361550292557, 0.228792105563316, 0.316028329529072, -1.385, 0.72, -0.736], a = 0.2, v = 0.2, t = 0.1)
movej(p[0.402364254502001, 0.228792627653308, 0.316037992459389, -1.385, 0.72, -0.736], a = 0.2, v = 0.2, t = 0.1)
movej(p[0.402370514609659, 0.228794433151225, 0.316048884177315, -1.385, 0.72, -0.736], a = 0.2, v = 0.2, t = 0.1)
movej(p[0.402380410845866, 0.228797680491451, 0.316059910003152, -1.385, 0.72, -0.736], a = 0.2, v = 0.2, t = 0.1)
movej(p[0.402393218929958, 0.228802493123472, 0.316068356844984, -1.385, 0.72, -0.736], a = 0.2, v = 0.2, t = 0.1)
movej(p[0.402407299455965, 0.228808398500129, 0.316072176086387, -1.385, 0.72, -0.736], a = 0.2, v = 0.2, t = 0.1)
movej(p[0.402420768473457, 0.228815300586303, 0.316070941864673, -1.385, 0.72, -0.736], a = 0.2, v = 0.2, t = 0.1)
movej(p[0.402432451924921, 0.228822498107016, 0.316066575856027, -1.385, 0.72, -0.736], a = 0.2, v = 0.2, t = 0.1)
movej(p[0.402441500578215, 0.228828581088463, 0.316061578040578, -1.385, 0.72, -0.736], a = 0.2, v = 0.2, t = 0.1)
movej(p[0.402447455759474, 0.228831728296835, 0.316057357016101, -1.385, 0.72, -0.736], a = 0.2, v = 0.2, t = 0.1)
movej(p[0.402449674112659, 0.228831081477843, 0.316052880648116, -1.385, 0.72, -0.736], a = 0.2, v = 0.2, t = 0.1)
movej(p[0.402448263963201, 0.228827391543515, 0.316045529240892, -1.385, 0.72, -0.736], a = 0.2, v = 0.2, t = 0.1)
movej(p[0.402443114541931, 0.228822102896705, 0.316034885479692, -1.385, 0.72, -0.736], a = 0.2, v = 0.2, t = 0.1)
movej(p[0.402433781930621, 0.228816038717329, 0.316021969946422, -1.385, 0.72, -0.736], a = 0.2, v = 0.2, t = 0.1)
movej(p[0.402420255398278, 0.228808619784606, 0.316007987337366, -1.385, 0.72, -0.736], a = 0.2, v = 0.2, t = 0.1)
movej(p[0.402402345112742, 0.228799059329431, 0.315993450270438, -1.385, 0.72, -0.736], a = 0.2, v = 0.2, t = 0.1)
movej(p[0.402381118266007, 0.228787582601519, 0.315978576802547, -1.385, 0.72, -0.736], a = 0.2, v = 0.2, t = 0.1)
movej(p[0.402358704788812, 0.22877526294329, 0.315963814912587, -1.385, 0.72, -0.736], a = 0.2, v = 0.2, t = 0.1)
movej(p[0.402337596066985, 0.228763735190225, 0.315950391641559, -1.385, 0.72, -0.736], a = 0.2, v = 0.2, t = 0.1)
movej(p[0.402319275247146, 0.22875487638945, 0.315940139187646, -1.385, 0.72, -0.736], a = 0.2, v = 0.2, t = 0.1)
movej(p[0.402304718367646, 0.228749816395061, 0.315934590776161, -1.385, 0.72, -0.736], a = 0.2, v = 0.2, t = 0.1)
movej(p[0.402294410354383, 0.228748577854367, 0.315935872965115, -1.385, 0.72, -0.736], a = 0.2, v = 0.2, t = 0.1)
movej(p[0.402289206115287, 0.228750965484835, 0.315943366413599, -1.385, 0.72, -0.736], a = 0.2, v = 0.2, t = 0.1)
movej(p[0.402289328626228, 0.228756197753425, 0.315954717520571, -1.385, 0.72, -0.736], a = 0.2, v = 0.2, t = 0.1)
movej(p[0.402294742960292, 0.228762551297265, 0.315967042945688, -1.385, 0.72, -0.736], a = 0.2, v = 0.2, t = 0.1)
movej(p[0.402303806255003, 0.22876803242169, 0.31597828511065, -1.385, 0.72, -0.736], a = 0.2, v = 0.2, t = 0.1)
movej(p[0.402314438407067, 0.228771200588419, 0.315986943895209, -1.385, 0.72, -0.736], a = 0.2, v = 0.2, t = 0.1)
movej(p[0.402324753234044, 0.228771838049823, 0.315991016021362, -1.385, 0.72, -0.736], a = 0.2, v = 0.2, t = 0.1)
movej(p[0.402333710046724, 0.228770081737364, 0.315990226122539, -1.385, 0.72, -0.736], a = 0.2, v = 0.2, t = 0.1)
movej(p[0.402339553517411, 0.228766605889869, 0.3159844111292, -1.385, 0.72, -0.736], a = 0.2, v = 0.2, t = 0.1)
movej(p[0.402340893358025, 0.228761476235655, 0.315975725286422, -1.385, 0.72, -0.736], a = 0.2, v = 0.2, t = 0.1)
movej(p[0.402336532077785, 0.228755163066904, 0.315967360152771, -1.385, 0.72, -0.736], a = 0.2, v = 0.2, t = 0.1)
movej(p[0.402325842075523, 0.228748522448632, 0.315960875351108, -1.385, 0.72, -0.736], a = 0.2, v = 0.2, t = 0.1)
movej(p[0.402308924236334, 0.22874251516077, 0.31595587646526, -1.385, 0.72, -0.736], a = 0.2, v = 0.2, t = 0.1)
movej(p[0.402287036934994, 0.228736678007127, 0.315949939689082, -1.385, 0.72, -0.736], a = 0.2, v = 0.2, t = 0.1)
movej(p[0.402262311837559, 0.228730259535764, 0.31594165495208, -1.385, 0.72, -0.736], a = 0.2, v = 0.2, t = 0.1)
movej(p[0.402236300755098, 0.22872261741216, 0.315932724320577, -1.385, 0.72, -0.736], a = 0.2, v = 0.2, t = 0.1)
movej(p[0.402210722143756, 0.228713292982493, 0.315924661903931, -1.385, 0.72, -0.736], a = 0.2, v = 0.2, t = 0.1)
movej(p[0.402187297894544, 0.228703189987168, 0.315917952623394, -1.385, 0.72, -0.736], a = 0.2, v = 0.2, t = 0.1)
movej(p[0.402167519762603, 0.228693796351753, 0.315912641834316, -1.385, 0.72, -0.736], a = 0.2, v = 0.2, t = 0.1)
movej(p[0.402151605573437, 0.228687461590567, 0.31590897694429, -1.385, 0.72, -0.736], a = 0.2, v = 0.2, t = 0.1)
movej(p[0.402139560142079, 0.228684850727663, 0.31590781052872, -1.385, 0.72, -0.736], a = 0.2, v = 0.2, t = 0.1)
movej(p[0.402131505251848, 0.228686242323685, 0.315910528148429, -1.385, 0.72, -0.736], a = 0.2, v = 0.2, t = 0.1)
movej(p[0.402128202279835, 0.228691289931695, 0.315916102473165, -1.385, 0.72, -0.736], a = 0.2, v = 0.2, t = 0.1)
movej(p[0.402129736885156, 0.228699931327575, 0.315922472101784, -1.385, 0.72, -0.736], a = 0.2, v = 0.2, t = 0.1)
movej(p[0.402134897049181, 0.228711366594143, 0.315928421483245, -1.385, 0.72, -0.736], a = 0.2, v = 0.2, t = 0.1)
movej(p[0.402142244210348, 0.228724173328647, 0.315933987306107, -1.385, 0.72, -0.736], a = 0.2, v = 0.2, t = 0.1)
movej(p[0.402150338892674, 0.228736310032799, 0.315939358659323, -1.385, 0.72, -0.736], a = 0.2, v = 0.2, t = 0.1)
movej(p[0.402157976192971, 0.228744739517844, 0.315944466010304, -1.385, 0.72, -0.736], a = 0.2, v = 0.2, t = 0.1)
movej(p[0.402163302341164, 0.228748136815944, 0.31594979487088, -1.385, 0.72, -0.736], a = 0.2, v = 0.2, t = 0.1)
movej(p[0.402164721808921, 0.228747299539832, 0.315956846303429, -1.385, 0.72, -0.736], a = 0.2, v = 0.2, t = 0.1)
movej(p[0.402161391947744, 0.228743102003692, 0.315964407591077, -1.385, 0.72, -0.736], a = 0.2, v = 0.2, t = 0.1)
movej(p[0.402153333963962, 0.22873666477139, 0.315970095613198, -1.385, 0.72, -0.736], a = 0.2, v = 0.2, t = 0.1)
movej(p[0.402141765559667, 0.228728527706621, 0.315972754996778, -1.385, 0.72, -0.736], a = 0.2, v = 0.2, t = 0.1)
movej(p[0.40212907508105, 0.228717836266783, 0.31597234914379, -1.385, 0.72, -0.736], a = 0.2, v = 0.2, t = 0.1)
movej(p[0.402117309047593, 0.228704548852784, 0.315969710864251, -1.385, 0.72, -0.736], a = 0.2, v = 0.2, t = 0.1)
movej(p[0.402106742478749, 0.228690256113371, 0.315967060565977, -1.385, 0.72, -0.736], a = 0.2, v = 0.2, t = 0.1)
movej(p[0.402097194730147, 0.228678040196957, 0.315965135708636, -1.385, 0.72, -0.736], a = 0.2, v = 0.2, t = 0.1)
movej(p[0.402089155145068, 0.228668599047661, 0.315965481462495, -1.385, 0.72, -0.736], a = 0.2, v = 0.2, t = 0.1)
movej(p[0.40208280495827, 0.228661065925039, 0.315968797973945, -1.385, 0.72, -0.736], a = 0.2, v = 0.2, t = 0.1)
movej(p[0.402078362253753, 0.228655792686063, 0.315975916635215, -1.385, 0.72, -0.736], a = 0.2, v = 0.2, t = 0.1)
movej(p[0.402076300575036, 0.228653626935412, 0.315986850440316, -1.385, 0.72, -0.736], a = 0.2, v = 0.2, t = 0.1)
movej(p[0.402076974659742, 0.22865467507184, 0.315999730544812, -1.385, 0.72, -0.736], a = 0.2, v = 0.2, t = 0.1)
movej(p[0.402080842384661, 0.228657516903284, 0.316011872238598, -1.385, 0.72, -0.736], a = 0.2, v = 0.2, t = 0.1)
movej(p[0.402087273405115, 0.228660416206334, 0.316022357154179, -1.385, 0.72, -0.736], a = 0.2, v = 0.2, t = 0.1)
movej(p[0.402095219200166, 0.22866250473824, 0.316032221069704, -1.385, 0.72, -0.736], a = 0.2, v = 0.2, t = 0.1)
movej(p[0.402102948260757, 0.228663199562965, 0.316041631770634, -1.385, 0.72, -0.736], a = 0.2, v = 0.2, t = 0.1)
movej(p[0.402109773259336, 0.228662642807257, 0.316049318765006, -1.385, 0.72, -0.736], a = 0.2, v = 0.2, t = 0.1)
movej(p[0.402116196710618, 0.228661601669852, 0.31605360144577, -1.385, 0.72, -0.736], a = 0.2, v = 0.2, t = 0.1)
movej(p[0.402120194153919, 0.228661711570691, 0.316055423990109, -1.385, 0.72, -0.736], a = 0.2, v = 0.2, t = 0.1)
movej(p[0.402119490348978, 0.228663297175015, 0.316056909799832, -1.385, 0.72, -0.736], a = 0.2, v = 0.2, t = 0.1)
movej(p[0.402113466838609, 0.228664601565604, 0.316059579086633, -1.385, 0.72, -0.736], a = 0.2, v = 0.2, t = 0.1)
movej(p[0.40210365879785, 0.228664447945089, 0.31606314508484, -1.385, 0.72, -0.736], a = 0.2, v = 0.2, t = 0.1)
movej(p[0.402090978359838, 0.228662491880562, 0.316066006841887, -1.385, 0.72, -0.736], a = 0.2, v = 0.2, t = 0.1)
movej(p[0.402075659702471, 0.228659286317091, 0.316067536202965, -1.385, 0.72, -0.736], a = 0.2, v = 0.2, t = 0.1)
movej(p[0.402058362150697, 0.228654984526353, 0.316068644830515, -1.385, 0.72, -0.736], a = 0.2, v = 0.2, t = 0.1)
movej(p[0.402040621022828, 0.228650535345465, 0.316070089702607, -1.385, 0.72, -0.736], a = 0.2, v = 0.2, t = 0.1)
movej(p[0.402023696357644, 0.228646966353442, 0.316071062217583, -1.385, 0.72, -0.736], a = 0.2, v = 0.2, t = 0.1)
movej(p[0.402009162147573, 0.228644623138608, 0.316069462777729, -1.385, 0.72, -0.736], a = 0.2, v = 0.2, t = 0.1)
movej(p[0.401998021456661, 0.228643240012716, 0.316065441230542, -1.385, 0.72, -0.736], a = 0.2, v = 0.2, t = 0.1)
movej(p[0.401989598479084, 0.228642914733949, 0.316060511133032, -1.385, 0.72, -0.736], a = 0.2, v = 0.2, t = 0.1)
movej(p[0.401982699229422, 0.228643914364914, 0.316056417254061, -1.385, 0.72, -0.736], a = 0.2, v = 0.2, t = 0.1)
movej(p[0.401977666975818, 0.228646027467151, 0.316054798488915, -1.385, 0.72, -0.736], a = 0.2, v = 0.2, t = 0.1)
movej(p[0.401976285453598, 0.228648288129495, 0.316056833035331, -1.385, 0.72, -0.736], a = 0.2, v = 0.2, t = 0.1)
movej(p[0.401978974049926, 0.228650850070519, 0.31606309864759, -1.385, 0.72, -0.736], a = 0.2, v = 0.2, t = 0.1)
movej(p[0.401984827081803, 0.228654140696673, 0.316071617307482, -1.385, 0.72, -0.736], a = 0.2, v = 0.2, t = 0.1)
movej(p[0.401992844807339, 0.228658390398585, 0.316080747113882, -1.385, 0.72, -0.736], a = 0.2, v = 0.2, t = 0.1)
movej(p[0.402003208271628, 0.228663106703067, 0.316088296737778, -1.385, 0.72, -0.736], a = 0.2, v = 0.2, t = 0.1)
movej(p[0.402015361296985, 0.228667894073511, 0.316093733473647, -1.385, 0.72, -0.736], a = 0.2, v = 0.2, t = 0.1)
movej(p[0.402027393054674, 0.228672147446941, 0.316097238849285, -1.385, 0.72, -0.736], a = 0.2, v = 0.2, t = 0.1)
movej(p[0.402037740890479, 0.228675832261197, 0.316099241510529, -1.385, 0.72, -0.736], a = 0.2, v = 0.2, t = 0.1)
movej(p[0.402046264364951, 0.228678091191499, 0.316099383037259, -1.385, 0.72, -0.736], a = 0.2, v = 0.2, t = 0.1)
movej(p[0.402053211905842, 0.228677904975221, 0.316097650609467, -1.385, 0.72, -0.736], a = 0.2, v = 0.2, t = 0.1)
movej(p[0.402058470453925, 0.228675101881326, 0.316094460995747, -1.385, 0.72, -0.736], a = 0.2, v = 0.2, t = 0.1)
movej(p[0.402061121647262, 0.228669963692784, 0.316089775238242, -1.385, 0.72, -0.736], a = 0.2, v = 0.2, t = 0.1)
movej(p[0.402060593941428, 0.2286625279679, 0.316083707355992, -1.385, 0.72, -0.736], a = 0.2, v = 0.2, t = 0.1)
movej(p[0.402056700881769, 0.228652948649107, 0.316075719106124, -1.385, 0.72, -0.736], a = 0.2, v = 0.2, t = 0.1)
movej(p[0.402048823440522, 0.228641680362565, 0.316066163676526, -1.385, 0.72, -0.736], a = 0.2, v = 0.2, t = 0.1)
movej(p[0.402037495584618, 0.22863000333946, 0.316055702408581, -1.385, 0.72, -0.736], a = 0.2, v = 0.2, t = 0.1)
movej(p[0.402023861656434, 0.228618506780313, 0.316044695234599, -1.385, 0.72, -0.736], a = 0.2, v = 0.2, t = 0.1)
movej(p[0.402009422165256, 0.228607730919259, 0.316033992051612, -1.385, 0.72, -0.736], a = 0.2, v = 0.2, t = 0.1)
movej(p[0.40199540944424, 0.228599184831749, 0.316024987441015, -1.385, 0.72, -0.736], a = 0.2, v = 0.2, t = 0.1)
movej(p[0.401983396745807, 0.228593798951499, 0.316019269252902, -1.385, 0.72, -0.736], a = 0.2, v = 0.2, t = 0.1)
movej(p[0.401974641469808, 0.228591610474103, 0.316016586624553, -1.385, 0.72, -0.736], a = 0.2, v = 0.2, t = 0.1)
movej(p[0.40196964256555, 0.22859260768397, 0.316015501968983, -1.385, 0.72, -0.736], a = 0.2, v = 0.2, t = 0.1)
movej(p[0.401968765792163, 0.228596109683834, 0.316017216365781, -1.385, 0.72, -0.736], a = 0.2, v = 0.2, t = 0.1)
movej(p[0.401972422587543, 0.228600783891664, 0.316022427291103, -1.385, 0.72, -0.736], a = 0.2, v = 0.2, t = 0.1)
movej(p[0.401980073762015, 0.228605595309085, 0.316029702334443, -1.385, 0.72, -0.736], a = 0.2, v = 0.2, t = 0.1)
movej(p[0.401990145769256, 0.228610679583334, 0.316036318351334, -1.385, 0.72, -0.736], a = 0.2, v = 0.2, t = 0.1)
movej(p[0.402000994706953, 0.228616292927062, 0.316041782133634, -1.385, 0.72, -0.736], a = 0.2, v = 0.2, t = 0.1)
movej(p[0.402011342785129, 0.228621663364496, 0.316047138966079, -1.385, 0.72, -0.736], a = 0.2, v = 0.2, t = 0.1)
movej(p[0.402020317821027, 0.228626467409552, 0.31605300342494, -1.385, 0.72, -0.736], a = 0.2, v = 0.2, t = 0.1)
movej(p[0.402026852877183, 0.228630512037609, 0.31606045015106, -1.385, 0.72, -0.736], a = 0.2, v = 0.2, t = 0.1)
movej(p[0.402030041103603, 0.22863367120781, 0.316069104030071, -1.385, 0.72, -0.736], a = 0.2, v = 0.2, t = 0.1)
movej(p[0.402029083096981, 0.2286354336939, 0.316077448826479, -1.385, 0.72, -0.736], a = 0.2, v = 0.2, t = 0.1)
movej(p[0.402024323112443, 0.228634994837042, 0.31608272941024, -1.385, 0.72, -0.736], a = 0.2, v = 0.2, t = 0.1)
movej(p[0.402016346170799, 0.228631745179344, 0.316083718719525, -1.385, 0.72, -0.736], a = 0.2, v = 0.2, t = 0.1)
movej(p[0.402005089110966, 0.228626158983822, 0.316081448381337, -1.385, 0.72, -0.736], a = 0.2, v = 0.2, t = 0.1)
movej(p[0.401990650970338, 0.228619054471068, 0.316076463868547, -1.385, 0.72, -0.736], a = 0.2, v = 0.2, t = 0.1)
movej(p[0.401974611120867, 0.228610511344118, 0.316068767950222, -1.385, 0.72, -0.736], a = 0.2, v = 0.2, t = 0.1)
movej(p[0.401958229631992, 0.228600653524126, 0.316059367023181, -1.385, 0.72, -0.736], a = 0.2, v = 0.2, t = 0.1)
movej(p[0.401941571068355, 0.228591063515352, 0.31605092553177, -1.385, 0.72, -0.736], a = 0.2, v = 0.2, t = 0.1)
movej(p[0.401925605359443, 0.228583271000555, 0.316045408836374, -1.385, 0.72, -0.736], a = 0.2, v = 0.2, t = 0.1)
movej(p[0.401910920815883, 0.22857645525573, 0.31604337918224, -1.385, 0.72, -0.736], a = 0.2, v = 0.2, t = 0.1)
movej(p[0.401899429262682, 0.228570881911388, 0.316043766768186, -1.385, 0.72, -0.736], a = 0.2, v = 0.2, t = 0.1)
movej(p[0.401893496077467, 0.228567219080466, 0.316046498029407, -1.385, 0.72, -0.736], a = 0.2, v = 0.2, t = 0.1)
movej(p[0.401894346035359, 0.228565515348589, 0.316050128475561, -1.385, 0.72, -0.736], a = 0.2, v = 0.2, t = 0.1)
movej(p[0.401901670851905, 0.228564998348423, 0.316053626652141, -1.385, 0.72, -0.736], a = 0.2, v = 0.2, t = 0.1)
movej(p[0.401913010545289, 0.228565401213205, 0.31605619603571, -1.385, 0.72, -0.736], a = 0.2, v = 0.2, t = 0.1)
movej(p[0.401926093275477, 0.228567360199137, 0.316057696823157, -1.385, 0.72, -0.736], a = 0.2, v = 0.2, t = 0.1)
movej(p[0.401940096830551, 0.228569955545279, 0.316058635386261, -1.385, 0.72, -0.736], a = 0.2, v = 0.2, t = 0.1)
movej(p[0.401954388774108, 0.228571705082904, 0.316060637420585, -1.385, 0.72, -0.736], a = 0.2, v = 0.2, t = 0.1)
movej(p[0.401967722981927, 0.228572033079631, 0.316063995177126, -1.385, 0.72, -0.736], a = 0.2, v = 0.2, t = 0.1)
movej(p[0.401977986170095, 0.228571281928855, 0.316067213402438, -1.385, 0.72, -0.736], a = 0.2, v = 0.2, t = 0.1)
movej(p[0.401983796443093, 0.22856963457194, 0.316069304773252, -1.385, 0.72, -0.736], a = 0.2, v = 0.2, t = 0.1)
movej(p[0.401984808086957, 0.22856677661696, 0.316069060554043, -1.385, 0.72, -0.736], a = 0.2, v = 0.2, t = 0.1)
movej(p[0.401980760983194, 0.228562142319808, 0.316065300337687, -1.385, 0.72, -0.736], a = 0.2, v = 0.2, t = 0.1)
movej(p[0.401972484377497, 0.228555996001004, 0.316054341101752, -1.385, 0.72, -0.736], a = 0.2, v = 0.2, t = 0.1)
movej(p[0.401961373070244, 0.22854811406144, 0.316036261187431, -1.385, 0.72, -0.736], a = 0.2, v = 0.2, t = 0.1)
movej(p[0.401948990864652, 0.22853834354307, 0.316014557904167, -1.385, 0.72, -0.736], a = 0.2, v = 0.2, t = 0.1)
movej(p[0.401936211881005, 0.228526866727481, 0.315992779215481, -1.385, 0.72, -0.736], a = 0.2, v = 0.2, t = 0.1)
movej(p[0.401923462942408, 0.228515830159041, 0.315974042221839, -1.385, 0.72, -0.736], a = 0.2, v = 0.2, t = 0.1)
movej(p[0.40191112957546, 0.228507376759118, 0.315959745506186, -1.385, 0.72, -0.736], a = 0.2, v = 0.2, t = 0.1)
movej(p[0.401900379574413, 0.228501503413897, 0.315949800480223, -1.385, 0.72, -0.736], a = 0.2, v = 0.2, t = 0.1)
movej(p[0.401892574065336, 0.228497685663486, 0.315944824214972, -1.385, 0.72, -0.736], a = 0.2, v = 0.2, t = 0.1)
movej(p[0.401889456514336, 0.228495962935012, 0.315943779563659, -1.385, 0.72, -0.736], a = 0.2, v = 0.2, t = 0.1)
movej(p[0.401891466005058, 0.22849674232957, 0.315944082412072, -1.385, 0.72, -0.736], a = 0.2, v = 0.2, t = 0.1)
movej(p[0.401898445067662, 0.228498446550506, 0.31594348101855, -1.385, 0.72, -0.736], a = 0.2, v = 0.2, t = 0.1)
movej(p[0.401909286932763, 0.228499387426453, 0.315942898763817, -1.385, 0.72, -0.736], a = 0.2, v = 0.2, t = 0.1)
movej(p[0.401922760257171, 0.228498629804021, 0.315942398290372, -1.385, 0.72, -0.736], a = 0.2, v = 0.2, t = 0.1)
movej(p[0.401938686742639, 0.228496610609861, 0.315938997678728, -1.385, 0.72, -0.736], a = 0.2, v = 0.2, t = 0.1)
movej(p[0.401956084758271, 0.228494097538853, 0.315931031636914, -1.385, 0.72, -0.736], a = 0.2, v = 0.2, t = 0.1)
movej(p[0.401972643348386, 0.228492013033131, 0.31592004116894, -1.385, 0.72, -0.736], a = 0.2, v = 0.2, t = 0.1)
movej(p[0.401986671627555, 0.228491347378687, 0.315908998474852, -1.385, 0.72, -0.736], a = 0.2, v = 0.2, t = 0.1)
movej(p[0.401997590569509, 0.22849251268427, 0.315900823502588, -1.385, 0.72, -0.736], a = 0.2, v = 0.2, t = 0.1)
movej(p[0.402004298685971, 0.228495549209337, 0.315897595250887, -1.385, 0.72, -0.736], a = 0.2, v = 0.2, t = 0.1)
movej(p[0.402006418949431, 0.228499720224704, 0.315898616093512, -1.385, 0.72, -0.736], a = 0.2, v = 0.2, t = 0.1)
movej(p[0.402004510531712, 0.228503270280355, 0.31590017951146, -1.385, 0.72, -0.736], a = 0.2, v = 0.2, t = 0.1)
movej(p[0.401999336203296, 0.228504841077468, 0.315900221354908, -1.385, 0.72, -0.736], a = 0.2, v = 0.2, t = 0.1)
movej(p[0.40199100234533, 0.228503348019927, 0.315899611304438, -1.385, 0.72, -0.736], a = 0.2, v = 0.2, t = 0.1)
movej(p[0.401978918625636, 0.228498969291499, 0.315899300689366, -1.385, 0.72, -0.736], a = 0.2, v = 0.2, t = 0.1)
movej(p[0.401963531868744, 0.22849214537759, 0.315899136335128, -1.385, 0.72, -0.736], a = 0.2, v = 0.2, t = 0.1)
movej(p[0.401945850305494, 0.228483421947085, 0.315898191223903, -1.385, 0.72, -0.736], a = 0.2, v = 0.2, t = 0.1)
movej(p[0.40192695484539, 0.228474077147797, 0.315895951676018, -1.385, 0.72, -0.736], a = 0.2, v = 0.2, t = 0.1)
movej(p[0.40190766708046, 0.228465737207674, 0.31589231487512, -1.385, 0.72, -0.736], a = 0.2, v = 0.2, t = 0.1)
movej(p[0.401889232063102, 0.228459858772021, 0.31588679622345, -1.385, 0.72, -0.736], a = 0.2, v = 0.2, t = 0.1)
movej(p[0.401873863378204, 0.22845661135195, 0.315879402786129, -1.385, 0.72, -0.736], a = 0.2, v = 0.2, t = 0.1)
movej(p[0.401863909899512, 0.228455730822625, 0.315871194936774, -1.385, 0.72, -0.736], a = 0.2, v = 0.2, t = 0.1)
movej(p[0.401860283247403, 0.228456892652136, 0.315864056531093, -1.385, 0.72, -0.736], a = 0.2, v = 0.2, t = 0.1)
movej(p[0.401862120481632, 0.228460426020371, 0.315858495676096, -1.385, 0.72, -0.736], a = 0.2, v = 0.2, t = 0.1)
movej(p[0.401867918979692, 0.228466636472631, 0.315854917906822, -1.385, 0.72, -0.736], a = 0.2, v = 0.2, t = 0.1)
movej(p[0.401876700308717, 0.228474577645288, 0.315853447263635, -1.385, 0.72, -0.736], a = 0.2, v = 0.2, t = 0.1)
movej(p[0.401888539632089, 0.228482555547204, 0.31585483175889, -1.385, 0.72, -0.736], a = 0.2, v = 0.2, t = 0.1)
movej(p[0.401903428595184, 0.228489309663446, 0.315858159867325, -1.385, 0.72, -0.736], a = 0.2, v = 0.2, t = 0.1)
movej(p[0.401921045538363, 0.228495843038191, 0.315861279435957, -1.385, 0.72, -0.736], a = 0.2, v = 0.2, t = 0.1)
movej(p[0.401939747582371, 0.228502517640678, 0.315863590034925, -1.385, 0.72, -0.736], a = 0.2, v = 0.2, t = 0.1)
movej(p[0.401958168076797, 0.228508349715357, 0.315865654173497, -1.385, 0.72, -0.736], a = 0.2, v = 0.2, t = 0.1)
movej(p[0.401976356224783, 0.228512563970432, 0.315867665796722, -1.385, 0.72, -0.736], a = 0.2, v = 0.2, t = 0.1)
movej(p[0.401994728054722, 0.228515320680618, 0.315869894325074, -1.385, 0.72, -0.736], a = 0.2, v = 0.2, t = 0.1)
movej(p[0.402013264095678, 0.228517559228595, 0.315872552178091, -1.385, 0.72, -0.736], a = 0.2, v = 0.2, t = 0.1)
movej(p[0.402029590520089, 0.228520299526754, 0.315874796671113, -1.385, 0.72, -0.736], a = 0.2, v = 0.2, t = 0.1)
movej(p[0.402041007694929, 0.228523343492844, 0.315875904253223, -1.385, 0.72, -0.736], a = 0.2, v = 0.2, t = 0.1)
movej(p[0.402046402001464, 0.228525212285069, 0.315875620819595, -1.385, 0.72, -0.736], a = 0.2, v = 0.2, t = 0.1)
movej(p[0.402045790017501, 0.228525188844645, 0.315875293842263, -1.385, 0.72, -0.736], a = 0.2, v = 0.2, t = 0.1)
movej(p[0.4020398377643, 0.228523818856475, 0.315873785017808, -1.385, 0.72, -0.736], a = 0.2, v = 0.2, t = 0.1)
movej(p[0.402029659775342, 0.228521978249978, 0.315871267273283, -1.385, 0.72, -0.736], a = 0.2, v = 0.2, t = 0.1)
movej(p[0.40201774288728, 0.228519135508004, 0.315867356896577, -1.385, 0.72, -0.736], a = 0.2, v = 0.2, t = 0.1)
movej(p[0.402006300505919, 0.228515100000402, 0.315861642469553, -1.385, 0.72, -0.736], a = 0.2, v = 0.2, t = 0.1)
movej(p[0.401995969009608, 0.228510158608633, 0.315854190645257, -1.385, 0.72, -0.736], a = 0.2, v = 0.2, t = 0.1)
movej(p[0.401986497949403, 0.228504741903552, 0.315846966067438, -1.385, 0.72, -0.736], a = 0.2, v = 0.2, t = 0.1)
movej(p[0.401977587713981, 0.228499216148156, 0.315841582077186, -1.385, 0.72, -0.736], a = 0.2, v = 0.2, t = 0.1)
movej(p[0.401969036049988, 0.228494698572817, 0.315839691441841, -1.385, 0.72, -0.736], a = 0.2, v = 0.2, t = 0.1)
movej(p[0.401961103009424, 0.228492254705319, 0.31584172657035, -1.385, 0.72, -0.736], a = 0.2, v = 0.2, t = 0.1)
movej(p[0.401954985260898, 0.228491471529496, 0.315846906623497, -1.385, 0.72, -0.736], a = 0.2, v = 0.2, t = 0.1)
movej(p[0.401951881691951, 0.228491421833161, 0.315853790780604, -1.385, 0.72, -0.736], a = 0.2, v = 0.2, t = 0.1)
movej(p[0.401953156420292, 0.228491888157236, 0.315860175736556, -1.385, 0.72, -0.736], a = 0.2, v = 0.2, t = 0.1)
movej(p[0.401960001748581, 0.228492788493447, 0.315865983101219, -1.385, 0.72, -0.736], a = 0.2, v = 0.2, t = 0.1)
movej(p[0.401971512654139, 0.228494509285634, 0.315871600977817, -1.385, 0.72, -0.736], a = 0.2, v = 0.2, t = 0.1)
movej(p[0.401985487955459, 0.228497709526141, 0.315876144824063, -1.385, 0.72, -0.736], a = 0.2, v = 0.2, t = 0.1)
movej(p[0.402000150384613, 0.228502821940383, 0.31587899478721, -1.385, 0.72, -0.736], a = 0.2, v = 0.2, t = 0.1)
movej(p[0.402015063572999, 0.228509104632826, 0.315879991843793, -1.385, 0.72, -0.736], a = 0.2, v = 0.2, t = 0.1)
movej(p[0.402029072794537, 0.228515484715092, 0.315879631626947, -1.385, 0.72, -0.736], a = 0.2, v = 0.2, t = 0.1)
movej(p[0.402040319537999, 0.228521740903741, 0.315877848939626, -1.385, 0.72, -0.736], a = 0.2, v = 0.2, t = 0.1)
movej(p[0.402047488090056, 0.228527249304091, 0.315874171069591, -1.385, 0.72, -0.736], a = 0.2, v = 0.2, t = 0.1)
movej(p[0.402049853523619, 0.228531271974246, 0.315868953990821, -1.385, 0.72, -0.736], a = 0.2, v = 0.2, t = 0.1)
movej(p[0.402047661665559, 0.228532908960414, 0.315863300236005, -1.385, 0.72, -0.736], a = 0.2, v = 0.2, t = 0.1)
movej(p[0.402042687615338, 0.228531086288069, 0.315856939217617, -1.385, 0.72, -0.736], a = 0.2, v = 0.2, t = 0.1)
movej(p[0.402035446039962, 0.228525128253399, 0.315849700125136, -1.385, 0.72, -0.736], a = 0.2, v = 0.2, t = 0.1)
movej(p[0.402025472369448, 0.228515982696148, 0.315840740470844, -1.385, 0.72, -0.736], a = 0.2, v = 0.2, t = 0.1)
movej(p[0.402011287321352, 0.228505687356945, 0.315830311995826, -1.385, 0.72, -0.736], a = 0.2, v = 0.2, t = 0.1)
movej(p[0.40199344215357, 0.228495618539667, 0.315820220054166, -1.385, 0.72, -0.736], a = 0.2, v = 0.2, t = 0.1)
movej(p[0.401973787231618, 0.228485901510806, 0.315811626945638, -1.385, 0.72, -0.736], a = 0.2, v = 0.2, t = 0.1)
movej(p[0.401954177682021, 0.228477007079716, 0.315804096518745, -1.385, 0.72, -0.736], a = 0.2, v = 0.2, t = 0.1)
movej(p[0.401936430674928, 0.228469100219643, 0.315796532942075, -1.385, 0.72, -0.736], a = 0.2, v = 0.2, t = 0.1)
movej(p[0.401921469375684, 0.228462228665082, 0.315789362339044, -1.385, 0.72, -0.736], a = 0.2, v = 0.2, t = 0.1)
movej(p[0.401910907831153, 0.228455676433662, 0.315784179334361, -1.385, 0.72, -0.736], a = 0.2, v = 0.2, t = 0.1)
movej(p[0.401905606700936, 0.228449694207479, 0.31578130614618, -1.385, 0.72, -0.736], a = 0.2, v = 0.2, t = 0.1)
movej(p[0.401904886589646, 0.228444794606207, 0.315780370329904, -1.385, 0.72, -0.736], a = 0.2, v = 0.2, t = 0.1)
movej(p[0.401906810986666, 0.228441451472335, 0.315781100987159, -1.385, 0.72, -0.736], a = 0.2, v = 0.2, t = 0.1)
movej(p[0.401910768408026, 0.228440045731317, 0.315782973651403, -1.385, 0.72, -0.736], a = 0.2, v = 0.2, t = 0.1)
movej(p[0.401917145588005, 0.228440449395501, 0.315786527757302, -1.385, 0.72, -0.736], a = 0.2, v = 0.2, t = 0.1)
movej(p[0.401926268826415, 0.228442187208021, 0.31579229945814, -1.385, 0.72, -0.736], a = 0.2, v = 0.2, t = 0.1)
movej(p[0.401936831878244, 0.228445201879143, 0.31580050792475, -1.385, 0.72, -0.736], a = 0.2, v = 0.2, t = 0.1)
movej(p[0.401947438518229, 0.228449526204859, 0.315809982032272, -1.385, 0.72, -0.736], a = 0.2, v = 0.2, t = 0.1)
movej(p[0.401956919065919, 0.228454297833297, 0.315818417956083, -1.385, 0.72, -0.736], a = 0.2, v = 0.2, t = 0.1)
movej(p[0.40196411283796, 0.228458495185026, 0.315823624962832, -1.385, 0.72, -0.736], a = 0.2, v = 0.2, t = 0.1)
movej(p[0.401967783466302, 0.228460820787679, 0.315825124734104, -1.385, 0.72, -0.736], a = 0.2, v = 0.2, t = 0.1)
movej(p[0.401967650717334, 0.22845963529946, 0.315824219376499, -1.385, 0.72, -0.736], a = 0.2, v = 0.2, t = 0.1)
movej(p[0.401963768748761, 0.228454203893484, 0.315822402091406, -1.385, 0.72, -0.736], a = 0.2, v = 0.2, t = 0.1)
movej(p[0.401956474238326, 0.228445430465841, 0.31581868603033, -1.385, 0.72, -0.736], a = 0.2, v = 0.2, t = 0.1)
movej(p[0.401946004999551, 0.228435111145454, 0.31581155554667, -1.385, 0.72, -0.736], a = 0.2, v = 0.2, t = 0.1)
movej(p[0.401932588578479, 0.228424255532847, 0.315801678711217, -1.385, 0.72, -0.736], a = 0.2, v = 0.2, t = 0.1)
movej(p[0.401915945163424, 0.228412501065672, 0.315792039941497, -1.385, 0.72, -0.736], a = 0.2, v = 0.2, t = 0.1)
movej(p[0.401896953079587, 0.228399256100342, 0.315785059403557, -1.385, 0.72, -0.736], a = 0.2, v = 0.2, t = 0.1)
movej(p[0.401878425904936, 0.228383888097463, 0.315780651575865, -1.385, 0.72, -0.736], a = 0.2, v = 0.2, t = 0.1)
movej(p[0.401861921475848, 0.228367390449366, 0.315778595640617, -1.385, 0.72, -0.736], a = 0.2, v = 0.2, t = 0.1)
movej(p[0.401847374375572, 0.228351730581892, 0.315778835828526, -1.385, 0.72, -0.736], a = 0.2, v = 0.2, t = 0.1)
movej(p[0.401834467882514, 0.228339086277652, 0.315781375504929, -1.385, 0.72, -0.736], a = 0.2, v = 0.2, t = 0.1)
movej(p[0.401824038436425, 0.22832964177416, 0.315785917902102, -1.385, 0.72, -0.736], a = 0.2, v = 0.2, t = 0.1)
movej(p[0.401817225014223, 0.228323150744184, 0.315791585767817, -1.385, 0.72, -0.736], a = 0.2, v = 0.2, t = 0.1)
movej(p[0.401814722284233, 0.228319817843315, 0.315797730747995, -1.385, 0.72, -0.736], a = 0.2, v = 0.2, t = 0.1)
movej(p[0.401817447449259, 0.228319201390358, 0.315802374900591, -1.385, 0.72, -0.736], a = 0.2, v = 0.2, t = 0.1)
movej(p[0.401825709315886, 0.228320662443909, 0.315804530568087, -1.385, 0.72, -0.736], a = 0.2, v = 0.2, t = 0.1)
movej(p[0.401837987545434, 0.228323243707029, 0.315804589845971, -1.385, 0.72, -0.736], a = 0.2, v = 0.2, t = 0.1)
movej(p[0.401851726363436, 0.228326138817767, 0.315803416563088, -1.385, 0.72, -0.736], a = 0.2, v = 0.2, t = 0.1)
movej(p[0.401864618975426, 0.228329039783712, 0.315802579625418, -1.385, 0.72, -0.736], a = 0.2, v = 0.2, t = 0.1)
movej(p[0.401874790117286, 0.228331256799971, 0.315803161379807, -1.385, 0.72, -0.736], a = 0.2, v = 0.2, t = 0.1)
movej(p[0.401880847687647, 0.228332816389942, 0.315804662690717, -1.385, 0.72, -0.736], a = 0.2, v = 0.2, t = 0.1)
movej(p[0.401882276026097, 0.228333364742068, 0.315806384926827, -1.385, 0.72, -0.736], a = 0.2, v = 0.2, t = 0.1)
movej(p[0.40187889419104, 0.22833303445384, 0.315808403081759, -1.385, 0.72, -0.736], a = 0.2, v = 0.2, t = 0.1)
movej(p[0.401871779602263, 0.228332193606221, 0.315810446391773, -1.385, 0.72, -0.736], a = 0.2, v = 0.2, t = 0.1)
movej(p[0.401861295469281, 0.228330990813259, 0.315812451329608, -1.385, 0.72, -0.736], a = 0.2, v = 0.2, t = 0.1)
movej(p[0.401847674175067, 0.228328421938141, 0.315814424252709, -1.385, 0.72, -0.736], a = 0.2, v = 0.2, t = 0.1)
movej(p[0.401831564835319, 0.228324538671592, 0.315816286060638, -1.385, 0.72, -0.736], a = 0.2, v = 0.2, t = 0.1)
movej(p[0.401813899363657, 0.228319932931131, 0.31581814297792, -1.385, 0.72, -0.736], a = 0.2, v = 0.2, t = 0.1)
movej(p[0.401796088853562, 0.228315736758081, 0.315820098075591, -1.385, 0.72, -0.736], a = 0.2, v = 0.2, t = 0.1)
movej(p[0.401779018545478, 0.228313093557704, 0.315822665319375, -1.385, 0.72, -0.736], a = 0.2, v = 0.2, t = 0.1)
movej(p[0.401764656631559, 0.228312567855683, 0.315826104039921, -1.385, 0.72, -0.736], a = 0.2, v = 0.2, t = 0.1)
movej(p[0.401754912088362, 0.228313253450125, 0.315828351093354, -1.385, 0.72, -0.736], a = 0.2, v = 0.2, t = 0.1)
movej(p[0.401750365467824, 0.228314575390482, 0.315828851005722, -1.385, 0.72, -0.736], a = 0.2, v = 0.2, t = 0.1)
movej(p[0.401750209172627, 0.228317065201309, 0.315828353643823, -1.385, 0.72, -0.736], a = 0.2, v = 0.2, t = 0.1)
movej(p[0.401753353847149, 0.22832165579705, 0.315829581080944, -1.385, 0.72, -0.736], a = 0.2, v = 0.2, t = 0.1)
movej(p[0.401760481005485, 0.228327711643832, 0.315834515838265, -1.385, 0.72, -0.736], a = 0.2, v = 0.2, t = 0.1)
movej(p[0.401771604142397, 0.228334618055271, 0.315842137037467, -1.385, 0.72, -0.736], a = 0.2, v = 0.2, t = 0.1)
movej(p[0.401785523719248, 0.228342449722371, 0.315849989186071, -1.385, 0.72, -0.736], a = 0.2, v = 0.2, t = 0.1)
movej(p[0.401800207577781, 0.228350970943247, 0.315856507824608, -1.385, 0.72, -0.736], a = 0.2, v = 0.2, t = 0.1)
movej(p[0.401814788796659, 0.22835932872525, 0.315860487977999, -1.385, 0.72, -0.736], a = 0.2, v = 0.2, t = 0.1)
movej(p[0.401829361621189, 0.228365981264863, 0.315864623704286, -1.385, 0.72, -0.736], a = 0.2, v = 0.2, t = 0.1)
movej(p[0.401843880815068, 0.228370245231834, 0.315870749716103, -1.385, 0.72, -0.736], a = 0.2, v = 0.2, t = 0.1)
movej(p[0.401856175523924, 0.228371891161721, 0.31587860221169, -1.385, 0.72, -0.736], a = 0.2, v = 0.2, t = 0.1)
movej(p[0.401864398553825, 0.22837195061896, 0.315884406442396, -1.385, 0.72, -0.736], a = 0.2, v = 0.2, t = 0.1)
movej(p[0.401867952595072, 0.228371688262783, 0.3158874282283, -1.385, 0.72, -0.736], a = 0.2, v = 0.2, t = 0.1)
movej(p[0.401867120935634, 0.228371302974599, 0.315888557210405, -1.385, 0.72, -0.736], a = 0.2, v = 0.2, t = 0.1)
movej(p[0.40186246074111, 0.228370121218021, 0.3158884575741, -1.385, 0.72, -0.736], a = 0.2, v = 0.2, t = 0.1)
movej(p[0.401854369610152, 0.228367308239385, 0.315886813777577, -1.385, 0.72, -0.736], a = 0.2, v = 0.2, t = 0.1)
movej(p[0.401844542154427, 0.228362983329014, 0.315883155649469, -1.385, 0.72, -0.736], a = 0.2, v = 0.2, t = 0.1)
movej(p[0.401835197527352, 0.22835791530002, 0.315877965157108, -1.385, 0.72, -0.736], a = 0.2, v = 0.2, t = 0.1)
movej(p[0.401827240063908, 0.228352706948405, 0.315872281649916, -1.385, 0.72, -0.736], a = 0.2, v = 0.2, t = 0.1)
movej(p[0.401820255217564, 0.228348167935707, 0.315867021928509, -1.385, 0.72, -0.736], a = 0.2, v = 0.2, t = 0.1)
movej(p[0.401813403920023, 0.228344659937327, 0.315862741525331, -1.385, 0.72, -0.736], a = 0.2, v = 0.2, t = 0.1)
movej(p[0.40180707669474, 0.228343089816161, 0.315859816914974, -1.385, 0.72, -0.736], a = 0.2, v = 0.2, t = 0.1)
movej(p[0.401802979974584, 0.228344451303843, 0.315860147063815, -1.385, 0.72, -0.736], a = 0.2, v = 0.2, t = 0.1)
movej(p[0.401802013735324, 0.22834853460263, 0.315863421048192, -1.385, 0.72, -0.736], a = 0.2, v = 0.2, t = 0.1)
movej(p[0.401803814734452, 0.228353532120274, 0.315867610609213, -1.385, 0.72, -0.736], a = 0.2, v = 0.2, t = 0.1)
movej(p[0.401807419722446, 0.22835857433288, 0.315870961714791, -1.385, 0.72, -0.736], a = 0.2, v = 0.2, t = 0.1)
movej(p[0.401812917413067, 0.228363630794073, 0.315875278093255, -1.385, 0.72, -0.736], a = 0.2, v = 0.2, t = 0.1)
movej(p[0.401821342699085, 0.228368677042339, 0.315881169712297, -1.385, 0.72, -0.736], a = 0.2, v = 0.2, t = 0.1)
movej(p[0.401833533071066, 0.228372937745255, 0.315888446342605, -1.385, 0.72, -0.736], a = 0.2, v = 0.2, t = 0.1)
movej(p[0.401848422782279, 0.228376349062855, 0.315894929173639, -1.385, 0.72, -0.736], a = 0.2, v = 0.2, t = 0.1)
movej(p[0.401864295653815, 0.228378645889925, 0.315898931183712, -1.385, 0.72, -0.736], a = 0.2, v = 0.2, t = 0.1)
movej(p[0.401879435778632, 0.22837887984848, 0.315900820025136, -1.385, 0.72, -0.736], a = 0.2, v = 0.2, t = 0.1)
movej(p[0.401891418879628, 0.228376892838623, 0.315900919379788, -1.385, 0.72, -0.736], a = 0.2, v = 0.2, t = 0.1)
movej(p[0.401898114355862, 0.228373713242159, 0.315901042932725, -1.385, 0.72, -0.736], a = 0.2, v = 0.2, t = 0.1)
movej(p[0.401899233832894, 0.228369553807423, 0.31589933439509, -1.385, 0.72, -0.736], a = 0.2, v = 0.2, t = 0.1)
movej(p[0.401894439373152, 0.228363235414618, 0.315895822134117, -1.385, 0.72, -0.736], a = 0.2, v = 0.2, t = 0.1)
movej(p[0.40188368070715, 0.228354315684317, 0.315891018667534, -1.385, 0.72, -0.736], a = 0.2, v = 0.2, t = 0.1)
movej(p[0.40186719117405, 0.228344100093722, 0.315886374368777, -1.385, 0.72, -0.736], a = 0.2, v = 0.2, t = 0.1)
movej(p[0.401846560183736, 0.228333370644178, 0.315882742496377, -1.385, 0.72, -0.736], a = 0.2, v = 0.2, t = 0.1)
movej(p[0.401823562820072, 0.228321982046854, 0.315880596963228, -1.385, 0.72, -0.736], a = 0.2, v = 0.2, t = 0.1)
movej(p[0.40180136431337, 0.228310009012636, 0.315881301890054, -1.385, 0.72, -0.736], a = 0.2, v = 0.2, t = 0.1)
movej(p[0.401782422028555, 0.228298302254868, 0.315883712607279, -1.385, 0.72, -0.736], a = 0.2, v = 0.2, t = 0.1)
movej(p[0.401767115306897, 0.22828839366965, 0.31588595348926, -1.385, 0.72, -0.736], a = 0.2, v = 0.2, t = 0.1)
movej(p[0.401755945000249, 0.228282443072633, 0.315887569787977, -1.385, 0.72, -0.736], a = 0.2, v = 0.2, t = 0.1)
movej(p[0.401750735422092, 0.228281423768344, 0.315889989830992, -1.385, 0.72, -0.736], a = 0.2, v = 0.2, t = 0.1)
movej(p[0.401752327837879, 0.228284797910325, 0.315894506088276, -1.385, 0.72, -0.736], a = 0.2, v = 0.2, t = 0.1)
movej(p[0.401758787780799, 0.22829160956551, 0.315900980385544, -1.385, 0.72, -0.736], a = 0.2, v = 0.2, t = 0.1)
movej(p[0.401768359982171, 0.228300801005306, 0.315907568166458, -1.385, 0.72, -0.736], a = 0.2, v = 0.2, t = 0.1)
movej(p[0.401779943096247, 0.228310489160041, 0.31591312642789, -1.385, 0.72, -0.736], a = 0.2, v = 0.2, t = 0.1)
movej(p[0.401792695298342, 0.228319109965776, 0.31591663928146, -1.385, 0.72, -0.736], a = 0.2, v = 0.2, t = 0.1)
movej(p[0.401805517974554, 0.228325959748267, 0.315919407870918, -1.385, 0.72, -0.736], a = 0.2, v = 0.2, t = 0.1)
movej(p[0.401817720856478, 0.228330637329597, 0.31592180909387, -1.385, 0.72, -0.736], a = 0.2, v = 0.2, t = 0.1)
movej(p[0.401829385366511, 0.228333646193935, 0.315924264945674, -1.385, 0.72, -0.736], a = 0.2, v = 0.2, t = 0.1)
movej(p[0.401840476777648, 0.228336212500793, 0.315927884184143, -1.385, 0.72, -0.736], a = 0.2, v = 0.2, t = 0.1)
movej(p[0.40185080898524, 0.22833914606893, 0.315932207250098, -1.385, 0.72, -0.736], a = 0.2, v = 0.2, t = 0.1)
movej(p[0.401860720637272, 0.228342262799741, 0.315935377232598, -1.385, 0.72, -0.736], a = 0.2, v = 0.2, t = 0.1)
movej(p[0.40187126587626, 0.228344564341193, 0.315935964972879, -1.385, 0.72, -0.736], a = 0.2, v = 0.2, t = 0.1)
movej(p[0.401882411146781, 0.228344916353796, 0.315933422557665, -1.385, 0.72, -0.736], a = 0.2, v = 0.2, t = 0.1)
movej(p[0.401893116413955, 0.228341802606608, 0.315926768474769, -1.385, 0.72, -0.736], a = 0.2, v = 0.2, t = 0.1)
movej(p[0.401900297855771, 0.228334200691576, 0.315917068428929, -1.385, 0.72, -0.736], a = 0.2, v = 0.2, t = 0.1)
movej(p[0.401901108958023, 0.228323445578181, 0.315905935084822, -1.385, 0.72, -0.736], a = 0.2, v = 0.2, t = 0.1)
movej(p[0.401894217848638, 0.228310461181645, 0.315894418813071, -1.385, 0.72, -0.736], a = 0.2, v = 0.2, t = 0.1)
movej(p[0.401878437884695, 0.228296585200686, 0.315883293845369, -1.385, 0.72, -0.736], a = 0.2, v = 0.2, t = 0.1)
movej(p[0.40185464622039, 0.228282972809456, 0.315873408980391, -1.385, 0.72, -0.736], a = 0.2, v = 0.2, t = 0.1)
movej(p[0.401827918098304, 0.228269197091185, 0.315866448102585, -1.385, 0.72, -0.736], a = 0.2, v = 0.2, t = 0.1)
movej(p[0.401802027274081, 0.22825495783138, 0.315861868860043, -1.385, 0.72, -0.736], a = 0.2, v = 0.2, t = 0.1)
movej(p[0.401777870808602, 0.228241230237191, 0.315857779726717, -1.385, 0.72, -0.736], a = 0.2, v = 0.2, t = 0.1)
movej(p[0.401754920103294, 0.22823188651518, 0.315852916430526, -1.385, 0.72, -0.736], a = 0.2, v = 0.2, t = 0.1)
movej(p[0.401733345211807, 0.228228321329584, 0.315846780993136, -1.385, 0.72, -0.736], a = 0.2, v = 0.2, t = 0.1)
movej(p[0.401715170714748, 0.228228638743895, 0.315839921638151, -1.385, 0.72, -0.736], a = 0.2, v = 0.2, t = 0.1)
movej(p[0.401701959458987, 0.228230391515991, 0.315834895225295, -1.385, 0.72, -0.736], a = 0.2, v = 0.2, t = 0.1)
movej(p[0.401694550728964, 0.228232894276179, 0.315834222365807, -1.385, 0.72, -0.736], a = 0.2, v = 0.2, t = 0.1)
movej(p[0.40169338002759, 0.228236176783781, 0.315838459568084, -1.385, 0.72, -0.736], a = 0.2, v = 0.2, t = 0.1)
movej(p[0.401698704945547, 0.228240289296319, 0.315845043812184, -1.385, 0.72, -0.736], a = 0.2, v = 0.2, t = 0.1)
movej(p[0.401711414351518, 0.228245449659716, 0.315850798848021, -1.385, 0.72, -0.736], a = 0.2, v = 0.2, t = 0.1)
movej(p[0.401731166180484, 0.228251504994885, 0.315855490236885, -1.385, 0.72, -0.736], a = 0.2, v = 0.2, t = 0.1)
movej(p[0.401755107181542, 0.228258235546985, 0.315860908319829, -1.385, 0.72, -0.736], a = 0.2, v = 0.2, t = 0.1)
movej(p[0.401779736498135, 0.228265101668919, 0.315866266606935, -1.385, 0.72, -0.736], a = 0.2, v = 0.2, t = 0.1)
movej(p[0.401802764891479, 0.228271916721713, 0.315870229349098, -1.385, 0.72, -0.736], a = 0.2, v = 0.2, t = 0.1)
movej(p[0.401824067406847, 0.228278080682076, 0.315873037661157, -1.385, 0.72, -0.736], a = 0.2, v = 0.2, t = 0.1)
movej(p[0.4018427105755, 0.228283760207435, 0.315875477094139, -1.385, 0.72, -0.736], a = 0.2, v = 0.2, t = 0.1)
movej(p[0.401857826625707, 0.22828976746858, 0.315877644378768, -1.385, 0.72, -0.736], a = 0.2, v = 0.2, t = 0.1)
movej(p[0.401868411860441, 0.228296637182208, 0.31587835441913, -1.385, 0.72, -0.736], a = 0.2, v = 0.2, t = 0.1)
movej(p[0.401875089074845, 0.228303558129294, 0.315877622178575, -1.385, 0.72, -0.736], a = 0.2, v = 0.2, t = 0.1)
movej(p[0.401877524674585, 0.22830813216357, 0.315875146859334, -1.385, 0.72, -0.736], a = 0.2, v = 0.2, t = 0.1)
movej(p[0.401874485384328, 0.22830833189854, 0.315871355798444, -1.385, 0.72, -0.736], a = 0.2, v = 0.2, t = 0.1)
movej(p[0.401865636949024, 0.228304284391223, 0.315865047225928, -1.385, 0.72, -0.736], a = 0.2, v = 0.2, t = 0.1)
movej(p[0.401851348245894, 0.228297219421856, 0.315853696986648, -1.385, 0.72, -0.736], a = 0.2, v = 0.2, t = 0.1)
movej(p[0.401830271372429, 0.228288149783355, 0.315836821433697, -1.385, 0.72, -0.736], a = 0.2, v = 0.2, t = 0.1)
movej(p[0.401802786181698, 0.228278210833517, 0.315816674487065, -1.385, 0.72, -0.736], a = 0.2, v = 0.2, t = 0.1)
movej(p[0.401771772039022, 0.228269325809161, 0.31579673795727, -1.385, 0.72, -0.736], a = 0.2, v = 0.2, t = 0.1)
movej(p[0.401740664648002, 0.228263196696856, 0.315778944122628, -1.385, 0.72, -0.736], a = 0.2, v = 0.2, t = 0.1)
movej(p[0.401713250459458, 0.228259812048501, 0.315765684485831, -1.385, 0.72, -0.736], a = 0.2, v = 0.2, t = 0.1)
movej(p[0.401692406786154, 0.228258650936828, 0.315757772465615, -1.385, 0.72, -0.736], a = 0.2, v = 0.2, t = 0.1)
movej(p[0.401680712674532, 0.228258538459555, 0.315753485340562, -1.385, 0.72, -0.736], a = 0.2, v = 0.2, t = 0.1)
movej(p[0.401678400020294, 0.228259102432047, 0.315751320320606, -1.385, 0.72, -0.736], a = 0.2, v = 0.2, t = 0.1)
movej(p[0.401683484411503, 0.228260451214842, 0.315749664548579, -1.385, 0.72, -0.736], a = 0.2, v = 0.2, t = 0.1)
movej(p[0.401694721865936, 0.228263124658802, 0.315747116425295, -1.385, 0.72, -0.736], a = 0.2, v = 0.2, t = 0.1)
movej(p[0.401710246318023, 0.228267978590979, 0.315743165888645, -1.385, 0.72, -0.736], a = 0.2, v = 0.2, t = 0.1)
movej(p[0.401728115807108, 0.22827417009456, 0.315739269464998, -1.385, 0.72, -0.736], a = 0.2, v = 0.2, t = 0.1)
movej(p[0.401747701824537, 0.228279514710587, 0.315735981473695, -1.385, 0.72, -0.736], a = 0.2, v = 0.2, t = 0.1)
movej(p[0.401767424155825, 0.228283382064306, 0.315733087117503, -1.385, 0.72, -0.736], a = 0.2, v = 0.2, t = 0.1)
movej(p[0.401785734223709, 0.228286990548709, 0.315730610186458, -1.385, 0.72, -0.736], a = 0.2, v = 0.2, t = 0.1)
movej(p[0.401801243215383, 0.228291242866731, 0.315729051147747, -1.385, 0.72, -0.736], a = 0.2, v = 0.2, t = 0.1)
movej(p[0.401811920317074, 0.228295722566297, 0.315729581805145, -1.385, 0.72, -0.736], a = 0.2, v = 0.2, t = 0.1)
movej(p[0.401816147042427, 0.228299535089499, 0.315731395725105, -1.385, 0.72, -0.736], a = 0.2, v = 0.2, t = 0.1)
movej(p[0.401813619252304, 0.228302488060164, 0.315732578107169, -1.385, 0.72, -0.736], a = 0.2, v = 0.2, t = 0.1)
movej(p[0.40180630513876, 0.228303899483056, 0.31573017480247, -1.385, 0.72, -0.736], a = 0.2, v = 0.2, t = 0.1)
movej(p[0.401795091789487, 0.228303215569511, 0.315722840670664, -1.385, 0.72, -0.736], a = 0.2, v = 0.2, t = 0.1)
movej(p[0.401778970977454, 0.228300102255412, 0.315711622785493, -1.385, 0.72, -0.736], a = 0.2, v = 0.2, t = 0.1)
movej(p[0.401757717604216, 0.22829458591384, 0.315700266869736, -1.385, 0.72, -0.736], a = 0.2, v = 0.2, t = 0.1)
movej(p[0.401732622912981, 0.228287569185787, 0.315692951034358, -1.385, 0.72, -0.736], a = 0.2, v = 0.2, t = 0.1)
movej(p[0.401705771664666, 0.228281948623938, 0.315692197085153, -1.385, 0.72, -0.736], a = 0.2, v = 0.2, t = 0.1)
movej(p[0.401679510714194, 0.228278909668827, 0.315697823716572, -1.385, 0.72, -0.736], a = 0.2, v = 0.2, t = 0.1)
movej(p[0.401655982352647, 0.228277610062122, 0.315707463379499, -1.385, 0.72, -0.736], a = 0.2, v = 0.2, t = 0.1)
movej(p[0.401636966423743, 0.228278046435, 0.315719085520809, -1.385, 0.72, -0.736], a = 0.2, v = 0.2, t = 0.1)
movej(p[0.401622534442192, 0.228279510112381, 0.315730039148748, -1.385, 0.72, -0.736], a = 0.2, v = 0.2, t = 0.1)
movej(p[0.401613558358565, 0.228281141151158, 0.315739178678289, -1.385, 0.72, -0.736], a = 0.2, v = 0.2, t = 0.1)
movej(p[0.401610958839142, 0.22828246188259, 0.315746169394365, -1.385, 0.72, -0.736], a = 0.2, v = 0.2, t = 0.1)
movej(p[0.401615154840687, 0.228283634168659, 0.315750196057178, -1.385, 0.72, -0.736], a = 0.2, v = 0.2, t = 0.1)
movej(p[0.401625820626646, 0.228285431482652, 0.315751214250822, -1.385, 0.72, -0.736], a = 0.2, v = 0.2, t = 0.1)
movej(p[0.401641215587622, 0.228288709750609, 0.315751100330953, -1.385, 0.72, -0.736], a = 0.2, v = 0.2, t = 0.1)
movej(p[0.401658527687337, 0.228293587858368, 0.31575320548514, -1.385, 0.72, -0.736], a = 0.2, v = 0.2, t = 0.1)
movej(p[0.401675779222153, 0.228299026850687, 0.315758537105723, -1.385, 0.72, -0.736], a = 0.2, v = 0.2, t = 0.1)
movej(p[0.401690986101381, 0.228303475356784, 0.315763321409609, -1.385, 0.72, -0.736], a = 0.2, v = 0.2, t = 0.1)
movej(p[0.401703624246447, 0.22830663299485, 0.315762585724134, -1.385, 0.72, -0.736], a = 0.2, v = 0.2, t = 0.1)
movej(p[0.401714847810825, 0.228309261285718, 0.315757424590658, -1.385, 0.72, -0.736], a = 0.2, v = 0.2, t = 0.1)
movej(p[0.401726054411738, 0.228311063202059, 0.31575305873536, -1.385, 0.72, -0.736], a = 0.2, v = 0.2, t = 0.1)
movej(p[0.401737184910924, 0.228311274033185, 0.315752582729979, -1.385, 0.72, -0.736], a = 0.2, v = 0.2, t = 0.1)
