def moving():
set_payload_mass(0)
set_tcp(p[0,0,0,0,0,0])
movej(p[0.4212, -0.1102, 0.3137, -1.146, 1.174, -1.245], a = 0.2, v = 0.2, t = 0.2)
movej(p[0.421566188742729, -0.110609173891901, 0.314122471929109, -1.13935268041728, 1.16675627185536, -1.23797984617159], a = 0.2, v = 0.2, t = 0.2)
movej(p[0.4212, -0.1102, 0.3137, -1.146, 1.174, -1.245], a = 0.2, v = 0.2, t = 0.2)
movej(p[0.421566188742729, -0.110609173891901, 0.314122471929109, -1.13935268041728, 1.16675627185536, -1.23797984617159], a = 0.2, v = 0.2, t = 0.2)
movej(p[0.4212, -0.1102, 0.3137, -1.146, 1.174, -1.245], a = 0.2, v = 0.2, t = 0.2)
movej(p[0.421566188742729, -0.110609173891901, 0.314122471929109, -1.13935268041728, 1.16675627185536, -1.23797984617159], a = 0.2, v = 0.2, t = 0.2)
movej(p[0.4212, -0.1102, 0.3137, -1.146, 1.174, -1.245], a = 0.2, v = 0.2, t = 0.2)
movej(p[0.421566188742729, -0.110609173891901, 0.314122471929109, -1.13935268041728, 1.16675627185536, -1.23797984617159], a = 0.2, v = 0.2, t = 0.2)
movej(p[0.4212, -0.1102, 0.3137, -1.146, 1.174, -1.245], a = 0.2, v = 0.2, t = 0.2)
movej(p[0.421566188742729, -0.110609173891901, 0.314122471929109, -1.13935268041728, 1.16675627185536, -1.23797984617159], a = 0.2, v = 0.2, t = 0.2)
movej(p[0.4212, -0.1102, 0.3137, -1.146, 1.174, -1.245], a = 0.2, v = 0.2, t = 0.2)
movej(p[0.421286466890609, -0.110057303824148, 0.3135634426376, -1.14539242535408, 1.17625300067154, -1.25326475739646], a = 0.2, v = 0.2, t = 0.2)
movej(p[0.421552699486083, -0.110003206257337, 0.313446719929988, -1.14899571662217, 1.17966259958697, -1.25720911088536], a = 0.2, v = 0.2, t = 0.2)
movej(p[0.421584321730002, -0.109998823977678, 0.313360052407729, -1.14745790693708, 1.18243168347817, -1.25505819839766], a = 0.2, v = 0.2, t = 0.2)
movej(p[0.421570107846482, -0.110151099918996, 0.313384699783961, -1.15169238662096, 1.1829211729653, -1.26013355943199], a = 0.2, v = 0.2, t = 0.2)
movej(p[0.421513936568954, -0.110175378457103, 0.313337897965734, -1.14843804889857, 1.18446835971082, -1.2607011517524], a = 0.2, v = 0.2, t = 0.2)
movej(p[0.421389465149756, -0.110140117457672, 0.313196203138211, -1.14873019686857, 1.18326438591441, -1.26429490515225], a = 0.2, v = 0.2, t = 0.2)
movej(p[0.420914304181485, -0.11022288866596, 0.313074061958378, -1.14142669461883, 1.18239045332571, -1.25769937651192], a = 0.2, v = 0.2, t = 0.2)
movej(p[0.420022676246772, -0.110287694040141, 0.312975333139015, -1.13686458299921, 1.17873504458216, -1.27116664746668], a = 0.2, v = 0.2, t = 0.2)
movej(p[0.419081065055933, -0.110128453031808, 0.312847298789203, -1.13604126231159, 1.17278748642203, -1.28114261800104], a = 0.2, v = 0.2, t = 0.2)
movej(p[0.41813128355721, -0.109810258169724, 0.312779223078057, -1.13712954718703, 1.16434473822137, -1.29296201254423], a = 0.2, v = 0.2, t = 0.2)
movej(p[0.417277849770559, -0.109678937878021, 0.312845439738267, -1.13015128345072, 1.15707733672083, -1.28081460737627], a = 0.2, v = 0.2, t = 0.2)
movej(p[0.416753105378798, -0.10952557535904, 0.31291210316818, -1.12818983743858, 1.14863535749505, -1.28672293447732], a = 0.2, v = 0.2, t = 0.2)
movej(p[0.416936740905516, -0.109372880626639, 0.312931459330606, -1.1344334554938, 1.14218292989824, -1.28819784146002], a = 0.2, v = 0.2, t = 0.2)
movej(p[0.417825803352691, -0.109354331695347, 0.313026956985927, -1.14092337256651, 1.13991721793311, -1.28948941784685], a = 0.2, v = 0.2, t = 0.2)
movej(p[0.41891480900133, -0.109434143970242, 0.3131676747176, -1.14243541302615, 1.14369007412324, -1.28473309350955], a = 0.2, v = 0.2, t = 0.2)
movej(p[0.42009229762952, -0.109410233232242, 0.313214959680255, -1.14373373657339, 1.15370830010073, -1.28356961595831], a = 0.2, v = 0.2, t = 0.2)
movej(p[0.421011148838689, -0.109402898155624, 0.313192738920611, -1.14529729415487, 1.16522519343247, -1.27740377017073], a = 0.2, v = 0.2, t = 0.2)
movej(p[0.421520079636016, -0.109563278523438, 0.313205624538643, -1.15225876116848, 1.17406170102405, -1.27323248830268], a = 0.2, v = 0.2, t = 0.2)
movej(p[0.42157964801257, -0.109741635042564, 0.313183033451908, -1.15062051729882, 1.17856031289663, -1.27073541627528], a = 0.2, v = 0.2, t = 0.2)
movej(p[0.421531284901452, -0.109783113030819, 0.313082326919481, -1.14865411757048, 1.18126868126306, -1.26669726113082], a = 0.2, v = 0.2, t = 0.2)
movej(p[0.421207687473414, -0.109888279230415, 0.312978358999164, -1.1418377769712, 1.18029757986912, -1.26062456984403], a = 0.2, v = 0.2, t = 0.2)
movej(p[0.420506910199502, -0.110038397111976, 0.312954959648121, -1.13958471174967, 1.17931103816629, -1.26589116392482], a = 0.2, v = 0.2, t = 0.2)
movej(p[0.419584182028027, -0.110046034138474, 0.312853679066114, -1.1384940256667, 1.17332919640661, -1.28083063424906], a = 0.2, v = 0.2, t = 0.2)
movej(p[0.418555493616945, -0.109829731601082, 0.312777923658884, -1.13891584355861, 1.16675533262632, -1.29172395608615], a = 0.2, v = 0.2, t = 0.2)
movej(p[0.41770958441178, -0.109715627410271, 0.312822421015616, -1.13589533695262, 1.15845511458626, -1.28777812262013], a = 0.2, v = 0.2, t = 0.2)
movej(p[0.416955862090655, -0.109566227321395, 0.312918264649632, -1.13850102130081, 1.14904254975343, -1.29455250805675], a = 0.2, v = 0.2, t = 0.2)
movej(p[0.416808902591064, -0.109423865844927, 0.312947212167627, -1.14155214829659, 1.1418695270633, -1.29528055353431], a = 0.2, v = 0.2, t = 0.2)
movej(p[0.417235368546806, -0.109311923654693, 0.312949334887351, -1.1412589388605, 1.1394217817216, -1.29131818212422], a = 0.2, v = 0.2, t = 0.2)
movej(p[0.41820349211882, -0.109425974563042, 0.313067480943631, -1.1429148133705, 1.14130714364379, -1.2868944248652], a = 0.2, v = 0.2, t = 0.2)
movej(p[0.41937826492686, -0.109465301136308, 0.31313336938136, -1.14176593204858, 1.14906538443751, -1.28429670956612], a = 0.2, v = 0.2, t = 0.2)
movej(p[0.420476419390752, -0.1094472640081, 0.313145480291316, -1.15098478817357, 1.15779266431384, -1.28507415837373], a = 0.2, v = 0.2, t = 0.2)
movej(p[0.421136474069987, -0.109551370804409, 0.313164240410778, -1.14629444509902, 1.17005178018231, -1.26828947060628], a = 0.2, v = 0.2, t = 0.2)
movej(p[0.42135837211149, -0.109686148168127, 0.313189738097069, -1.15094807262127, 1.1752305305905, -1.27201948873965], a = 0.2, v = 0.2, t = 0.2)
movej(p[0.421398229327686, -0.109759679369803, 0.313118920819536, -1.15282828140576, 1.1775073868277, -1.2740936598836], a = 0.2, v = 0.2, t = 0.2)
movej(p[0.421290228884085, -0.109789618519772, 0.313001304077611, -1.15514841896015, 1.17650293624887, -1.27694385831018], a = 0.2, v = 0.2, t = 0.2)
movej(p[0.420850561559773, -0.110002537465662, 0.312944032464107, -1.14812789692036, 1.17497984664175, -1.27290703520354], a = 0.2, v = 0.2, t = 0.2)
movej(p[0.420110169368623, -0.109999948012641, 0.312820603724271, -1.13970439372683, 1.17191274501534, -1.27860581574533], a = 0.2, v = 0.2, t = 0.2)
movej(p[0.419177100840487, -0.109854800659159, 0.312693536580681, -1.1359730657685, 1.16698784887322, -1.28761053568545], a = 0.2, v = 0.2, t = 0.2)
movej(p[0.418181501025331, -0.109681869318642, 0.312662766333241, -1.13194829607122, 1.1617228936695, -1.28659537022388], a = 0.2, v = 0.2, t = 0.2)
movej(p[0.417275811829286, -0.109587230154316, 0.312736051825278, -1.13034420854, 1.15562613975345, -1.28915048092355], a = 0.2, v = 0.2, t = 0.2)
movej(p[0.416869170544756, -0.109394391316619, 0.312771235413654, -1.1346396106894, 1.14808936344897, -1.28923903546118], a = 0.2, v = 0.2, t = 0.2)
movej(p[0.416962254361891, -0.109310829159926, 0.31283788411849, -1.14219919693929, 1.14073655204566, -1.29221372045559], a = 0.2, v = 0.2, t = 0.2)
movej(p[0.417480066502589, -0.109380303483729, 0.312987214616976, -1.14282198648213, 1.13958219181454, -1.28532467139201], a = 0.2, v = 0.2, t = 0.2)
movej(p[0.41848107758854, -0.109452178837324, 0.313105763300012, -1.14642816340062, 1.14350582378425, -1.28680722297981], a = 0.2, v = 0.2, t = 0.2)
movej(p[0.419688489767165, -0.109487574651033, 0.31318791836668, -1.14550290178956, 1.15449228291996, -1.27648097108205], a = 0.2, v = 0.2, t = 0.2)
movej(p[0.420711393476969, -0.10962022137495, 0.313252596274058, -1.14803527536965, 1.16480928141362, -1.2665168548756], a = 0.2, v = 0.2, t = 0.2)
movej(p[0.42114637502289, -0.109793911509932, 0.313315500302095, -1.14548374123479, 1.17266358268432, -1.25907426557299], a = 0.2, v = 0.2, t = 0.2)
movej(p[0.421357761732975, -0.109884625296951, 0.313289379875815, -1.14199200849047, 1.17895679241953, -1.25199694272385], a = 0.2, v = 0.2, t = 0.2)
movej(p[0.4213919216719, -0.11000908479458, 0.313250052855554, -1.14005158129921, 1.18089643962289, -1.24951805844532], a = 0.2, v = 0.2, t = 0.2)
movej(p[0.421156556878777, -0.110178454219372, 0.313185098932834, -1.13447760431342, 1.18201665153907, -1.24779817929262], a = 0.2, v = 0.2, t = 0.2)
movej(p[0.42058112127796, -0.110229541021688, 0.313030133497186, -1.13951707908493, 1.17642138192029, -1.26748579694458], a = 0.2, v = 0.2, t = 0.2)
movej(p[0.419639246377192, -0.110133248758207, 0.312847049773175, -1.13733018569997, 1.17164596225979, -1.27430235001558], a = 0.2, v = 0.2, t = 0.2)
movej(p[0.418604526323758, -0.110055816839039, 0.312810155381479, -1.1412384969972, 1.1648476421077, -1.28228432549158], a = 0.2, v = 0.2, t = 0.2)
movej(p[0.417594104519172, -0.109928093543817, 0.312826861173163, -1.13283024529905, 1.15914792547788, -1.27945116447075], a = 0.2, v = 0.2, t = 0.2)
movej(p[0.416947914849105, -0.109678213405051, 0.312803304132849, -1.13148815587731, 1.15299652890837, -1.27758040476262], a = 0.2, v = 0.2, t = 0.2)
movej(p[0.416806174520178, -0.109550392967005, 0.312839274567561, -1.12945053188512, 1.14794153283015, -1.27029274354213], a = 0.2, v = 0.2, t = 0.2)
movej(p[0.417098282055255, -0.109563806977574, 0.312984299223298, -1.13440003470362, 1.14402508725797, -1.27107645011584], a = 0.2, v = 0.2, t = 0.2)
movej(p[0.418057723981648, -0.109599745819676, 0.313134126766853, -1.14061599393482, 1.14483701953521, -1.27683583978242], a = 0.2, v = 0.2, t = 0.2)
movej(p[0.419334964031928, -0.109589691041616, 0.313229979820525, -1.14218030496319, 1.15345057014194, -1.26986455785322], a = 0.2, v = 0.2, t = 0.2)
movej(p[0.4205049502416, -0.109705172939058, 0.31332515311058, -1.14367992943447, 1.16437203300284, -1.25741956362309], a = 0.2, v = 0.2, t = 0.2)
movej(p[0.421077127206944, -0.109827071763653, 0.313368785405875, -1.14172227149142, 1.17305526972499, -1.24921409635326], a = 0.2, v = 0.2, t = 0.2)
movej(p[0.421342245722353, -0.109913950823201, 0.313314514205418, -1.14410444276639, 1.17733331098024, -1.24961543156748], a = 0.2, v = 0.2, t = 0.2)
movej(p[0.421381759187581, -0.110047522186284, 0.313264401288622, -1.14368928307069, 1.17866765794659, -1.24956343650262], a = 0.2, v = 0.2, t = 0.2)
movej(p[0.421135751202849, -0.110169020189591, 0.313188996382293, -1.14179370634437, 1.17904090754411, -1.25643252520495], a = 0.2, v = 0.2, t = 0.2)
movej(p[0.420668481390827, -0.11019132809807, 0.313041914826167, -1.14140811269355, 1.17600061334272, -1.26793922662325], a = 0.2, v = 0.2, t = 0.2)
movej(p[0.419817476019693, -0.110094363850478, 0.312891247266643, -1.13756632613219, 1.17223869953578, -1.27336583674412], a = 0.2, v = 0.2, t = 0.2)
movej(p[0.418820274462705, -0.110108919804516, 0.312895599906215, -1.13434582689659, 1.1683977126313, -1.27270828982848], a = 0.2, v = 0.2, t = 0.2)
movej(p[0.417877890078287, -0.109952785964701, 0.312911622849577, -1.12671097134224, 1.16260506304297, -1.27344746561069], a = 0.2, v = 0.2, t = 0.2)
movej(p[0.417268295218589, -0.109687244803507, 0.31288701360657, -1.13072942510138, 1.15490767641128, -1.27870672630502], a = 0.2, v = 0.2, t = 0.2)
movej(p[0.416925457584455, -0.109539147674104, 0.312883303918728, -1.13202490184764, 1.14731085954197, -1.27739985428922], a = 0.2, v = 0.2, t = 0.2)
movej(p[0.417020241252502, -0.109566929826166, 0.312972549035112, -1.14397655900309, 1.14145327046662, -1.2906062262948], a = 0.2, v = 0.2, t = 0.2)
movej(p[0.417757794190018, -0.10960835465338, 0.31308496942584, -1.14961247455462, 1.1422510524397, -1.29328202517481], a = 0.2, v = 0.2, t = 0.2)
movej(p[0.41900121969355, -0.109583674496324, 0.313159402901612, -1.15119995198501, 1.14932500266306, -1.28634344111319], a = 0.2, v = 0.2, t = 0.2)
movej(p[0.420188779048833, -0.109724230502964, 0.313317399871131, -1.15380530708273, 1.1585802654156, -1.27736234901943], a = 0.2, v = 0.2, t = 0.2)
movej(p[0.420915340300329, -0.109828205125298, 0.313340970071263, -1.14638301326436, 1.16868514629197, -1.26373902592543], a = 0.2, v = 0.2, t = 0.2)
movej(p[0.421295499644809, -0.109931466348523, 0.313311285095488, -1.14984099061681, 1.17387874176363, -1.26292244327175], a = 0.2, v = 0.2, t = 0.2)
movej(p[0.421354787566163, -0.110071570452045, 0.313267281436528, -1.14609326396111, 1.17782546219841, -1.25283094429306], a = 0.2, v = 0.2, t = 0.2)
movej(p[0.421160022836249, -0.110213920008657, 0.313247785063048, -1.15345312622345, 1.17661295158133, -1.26632784752105], a = 0.2, v = 0.2, t = 0.2)
movej(p[0.420650670641884, -0.110240982106202, 0.313083088525077, -1.15595434610869, 1.17354626597723, -1.27749461283119], a = 0.2, v = 0.2, t = 0.2)
movej(p[0.419818609082632, -0.110193268531426, 0.312916110153743, -1.15250604588235, 1.17006548989777, -1.28279794160589], a = 0.2, v = 0.2, t = 0.2)
movej(p[0.418809709394641, -0.110195731246119, 0.312856058897026, -1.14162615164485, 1.16682900926004, -1.27863224674541], a = 0.2, v = 0.2, t = 0.2)
movej(p[0.417899073586545, -0.110009642613307, 0.312831775133973, -1.13130716992952, 1.16220518931717, -1.27590825978314], a = 0.2, v = 0.2, t = 0.2)
movej(p[0.417248613903721, -0.109763840923305, 0.312812636933635, -1.13331884732614, 1.15298474722818, -1.28030529623827], a = 0.2, v = 0.2, t = 0.2)
movej(p[0.416885353293163, -0.109668795321182, 0.312854467228087, -1.13420117644238, 1.14642098673811, -1.27386289552644], a = 0.2, v = 0.2, t = 0.2)
movej(p[0.416760259052231, -0.10972052082151, 0.312956900965213, -1.14033276995555, 1.13959870890498, -1.28245938491159], a = 0.2, v = 0.2, t = 0.2)
movej(p[0.417417829941244, -0.109757269750366, 0.313050966956148, -1.14743832044899, 1.13926374967622, -1.28436928457595], a = 0.2, v = 0.2, t = 0.2)
movej(p[0.41856954186947, -0.109752145608635, 0.313157976958273, -1.15263590778271, 1.1430868894928, -1.28646883643565], a = 0.2, v = 0.2, t = 0.2)
movej(p[0.419880950436512, -0.109883627713055, 0.31332166570653, -1.15121447578963, 1.1542011913446, -1.27515760944825], a = 0.2, v = 0.2, t = 0.2)
movej(p[0.420818542117225, -0.109924830690192, 0.313379329416365, -1.15026171682056, 1.16491417045546, -1.268918513069], a = 0.2, v = 0.2, t = 0.2)
movej(p[0.421364209887784, -0.110035662359463, 0.313382854336216, -1.14711580966293, 1.1736586677024, -1.25755915639721], a = 0.2, v = 0.2, t = 0.2)
movej(p[0.421490405324038, -0.110157442037187, 0.313376048646583, -1.15130907062675, 1.17754639643589, -1.25845037731658], a = 0.2, v = 0.2, t = 0.2)
movej(p[0.421413145471442, -0.110294195820336, 0.313365424533858, -1.15088944064102, 1.1791103429792, -1.25965943543883], a = 0.2, v = 0.2, t = 0.2)
movej(p[0.421162102748749, -0.110357463525649, 0.313252387735599, -1.15232969338424, 1.17827520402266, -1.26356498521834], a = 0.2, v = 0.2, t = 0.2)
movej(p[0.420535189095, -0.110432274302457, 0.313109318599233, -1.14820828945471, 1.17482881094861, -1.26382333444412], a = 0.2, v = 0.2, t = 0.2)
movej(p[0.419516336422703, -0.110524349697807, 0.313010276589845, -1.13755065920699, 1.17273782979388, -1.26326940125184], a = 0.2, v = 0.2, t = 0.2)
movej(p[0.418485990450917, -0.110323747585436, 0.312903661797548, -1.13132597069036, 1.16674316037795, -1.27057905908084], a = 0.2, v = 0.2, t = 0.2)
movej(p[0.417604638297683, -0.110034576681402, 0.31285627976457, -1.1298601424496, 1.15932409681708, -1.27451015569873], a = 0.2, v = 0.2, t = 0.2)
movej(p[0.416901560181248, -0.109888398557591, 0.312896252984481, -1.13115429477758, 1.15112079428184, -1.26985595053181], a = 0.2, v = 0.2, t = 0.2)
movej(p[0.416599604483804, -0.109831004224129, 0.312991030973842, -1.13354516189027, 1.14470264679495, -1.27544779351023], a = 0.2, v = 0.2, t = 0.2)
movej(p[0.416938686187583, -0.10974675321682, 0.313059185584324, -1.13934651890684, 1.14162686778567, -1.27720907438221], a = 0.2, v = 0.2, t = 0.2)
movej(p[0.418040215924341, -0.109731994210425, 0.313176673178848, -1.14113689699952, 1.14395654878699, -1.27549370160332], a = 0.2, v = 0.2, t = 0.2)
movej(p[0.41933463981831, -0.109761861939647, 0.313313343671543, -1.14262323990628, 1.15288361381806, -1.27016051544461], a = 0.2, v = 0.2, t = 0.2)
movej(p[0.420470364661515, -0.109801060397896, 0.313392362795803, -1.14754703942091, 1.16309651466787, -1.26879513343359], a = 0.2, v = 0.2, t = 0.2)
movej(p[0.421225879068379, -0.109868428346851, 0.313422459193924, -1.14727565710493, 1.17460135990108, -1.25628457592581], a = 0.2, v = 0.2, t = 0.2)
movej(p[0.421553980826856, -0.110087531255075, 0.313487165693947, -1.15203539120751, 1.18062134009075, -1.2511933919481], a = 0.2, v = 0.2, t = 0.2)
movej(p[0.421539225083698, -0.110244371434238, 0.313453324109468, -1.14130561410899, 1.1849728430031, -1.24047686779938], a = 0.2, v = 0.2, t = 0.2)
movej(p[0.421501697750189, -0.110268666997408, 0.313364605734398, -1.1406168007944, 1.18568177330023, -1.24116474589728], a = 0.2, v = 0.2, t = 0.2)
movej(p[0.421250964053237, -0.110377418383481, 0.313273847584565, -1.13615957302361, 1.18432922678366, -1.23631962176653], a = 0.2, v = 0.2, t = 0.2)
movej(p[0.420677085652465, -0.110452840427921, 0.313162103068189, -1.13457316269927, 1.18095499906072, -1.24608101245387], a = 0.2, v = 0.2, t = 0.2)
movej(p[0.419893935858572, -0.110414614619278, 0.313014120789593, -1.13732172034449, 1.17514772363442, -1.26204052968285], a = 0.2, v = 0.2, t = 0.2)
movej(p[0.418892402612924, -0.110254266391208, 0.312866757882981, -1.13311646007497, 1.16983799224593, -1.26768225426513], a = 0.2, v = 0.2, t = 0.2)
movej(p[0.418013927940093, -0.110186158848887, 0.312933386130168, -1.13531731524626, 1.16310096077419, -1.27011198121873], a = 0.2, v = 0.2, t = 0.2)
movej(p[0.41733912821506, -0.110030952894017, 0.312960403990334, -1.13043571002387, 1.15726811849352, -1.27123884012513], a = 0.2, v = 0.2, t = 0.2)
movej(p[0.417298662893272, -0.109844213442399, 0.312994240211192, -1.13650636831133, 1.15086426731964, -1.27364673458207], a = 0.2, v = 0.2, t = 0.2)
movej(p[0.417805277225095, -0.109784661842628, 0.313034191965297, -1.13403412271207, 1.14917967019216, -1.26536757713178], a = 0.2, v = 0.2, t = 0.2)
movej(p[0.418745705159662, -0.109851696116665, 0.313204752888403, -1.13858161415419, 1.15237873844229, -1.26627204005582], a = 0.2, v = 0.2, t = 0.2)
movej(p[0.419890273007168, -0.109902041855054, 0.313310142085102, -1.14312924222931, 1.15981985116787, -1.26445440489777], a = 0.2, v = 0.2, t = 0.2)
movej(p[0.42077313365462, -0.109915264588474, 0.313374203080271, -1.15068227460567, 1.16908438567245, -1.2626972255771], a = 0.2, v = 0.2, t = 0.2)
movej(p[0.421285631843795, -0.110143198239958, 0.313456811250843, -1.15149643539153, 1.17652105882213, -1.2538290518784], a = 0.2, v = 0.2, t = 0.2)
movej(p[0.421409471319045, -0.110260344515013, 0.313428172616666, -1.14608248586749, 1.18287350919529, -1.24857019208653], a = 0.2, v = 0.2, t = 0.2)
movej(p[0.421477860126626, -0.11029646880142, 0.313346108167084, -1.14368486551413, 1.18520292014712, -1.24813503590203], a = 0.2, v = 0.2, t = 0.2)
movej(p[0.421419493811775, -0.110354944973121, 0.313270036283744, -1.13975671442527, 1.18599726244527, -1.2428417413708], a = 0.2, v = 0.2, t = 0.2)
movej(p[0.421173748974344, -0.110470235438456, 0.31325533979169, -1.14982040389919, 1.18127447186674, -1.25932347179332], a = 0.2, v = 0.2, t = 0.2)
movej(p[0.420683410231059, -0.110439255447469, 0.313112704827211, -1.15163986468842, 1.17721987589298, -1.2691499979259], a = 0.2, v = 0.2, t = 0.2)
movej(p[0.419911291804977, -0.110346075520029, 0.312999589310026, -1.15642085710537, 1.17144007916501, -1.28391928497073], a = 0.2, v = 0.2, t = 0.2)
movej(p[0.418912591337292, -0.110344528799618, 0.313001543868845, -1.14007276963924, 1.17028656093074, -1.27093228947335], a = 0.2, v = 0.2, t = 0.2)
movej(p[0.418091918792886, -0.110182157722934, 0.313017177221388, -1.13440982662285, 1.16485146007914, -1.27567263936304], a = 0.2, v = 0.2, t = 0.2)
movej(p[0.417605604685668, -0.109930659551757, 0.312982239129688, -1.13554533521246, 1.15736221755577, -1.2790151669865], a = 0.2, v = 0.2, t = 0.2)
movej(p[0.4174388512443, -0.109773874074598, 0.312997321213217, -1.14125426755893, 1.14978511852378, -1.28133529871892], a = 0.2, v = 0.2, t = 0.2)
movej(p[0.417553262981195, -0.109850103175091, 0.313129355434533, -1.14533748366578, 1.14557093963203, -1.28366995142386], a = 0.2, v = 0.2, t = 0.2)
movej(p[0.418263892447704, -0.109864795140726, 0.313195290987726, -1.14430469387458, 1.14820969514583, -1.27816768493138], a = 0.2, v = 0.2, t = 0.2)
movej(p[0.419315872446911, -0.109857494280554, 0.313252317470256, -1.1419394056725, 1.15511651686668, -1.2679486073122], a = 0.2, v = 0.2, t = 0.2)
movej(p[0.420348125111194, -0.109931788608772, 0.313352597257729, -1.14187655710285, 1.16572693437442, -1.25493765250043], a = 0.2, v = 0.2, t = 0.2)
movej(p[0.420942367743324, -0.110007949712989, 0.313403885641045, -1.14029838571288, 1.1742771660602, -1.24865519879568], a = 0.2, v = 0.2, t = 0.2)
movej(p[0.421317785392258, -0.109989304636532, 0.313332017580067, -1.14114400921914, 1.18077453615361, -1.24461783955464], a = 0.2, v = 0.2, t = 0.2)
movej(p[0.42144800108856, -0.110064788200541, 0.313239164486004, -1.13738182813338, 1.18181909451534, -1.23804258542698], a = 0.2, v = 0.2, t = 0.2)
movej(p[0.42139956172495, -0.110138866512927, 0.313172300489182, -1.13818881404449, 1.18228934587289, -1.24520336822971], a = 0.2, v = 0.2, t = 0.2)
movej(p[0.421351582444756, -0.110130958457933, 0.313080656156382, -1.14448101427751, 1.18042870433417, -1.261140234295], a = 0.2, v = 0.2, t = 0.2)
movej(p[0.421288477220451, -0.110043464532079, 0.312959587409399, -1.14765892953679, 1.1799031884087, -1.26888101497252], a = 0.2, v = 0.2, t = 0.2)
movej(p[0.421116695509085, -0.110157267369889, 0.31290744803722, -1.14381175095644, 1.17954509745124, -1.26196086369891], a = 0.2, v = 0.2, t = 0.2)
movej(p[0.420532354988787, -0.110193241885036, 0.312811137468127, -1.13857345545235, 1.17599156552557, -1.27358019268597], a = 0.2, v = 0.2, t = 0.2)
movej(p[0.419920899452104, -0.1100494891605, 0.312652757231696, -1.13723158166334, 1.17172788352577, -1.28339079432608], a = 0.2, v = 0.2, t = 0.2)
movej(p[0.419239065800915, -0.109791943918472, 0.312511788330815, -1.13990663807941, 1.16499319697569, -1.29648680113235], a = 0.2, v = 0.2, t = 0.2)
movej(p[0.418625731905667, -0.109748518572066, 0.312580224797189, -1.13945874287308, 1.16106376125986, -1.2954502753365], a = 0.2, v = 0.2, t = 0.2)
movej(p[0.4180461071278, -0.109569264794622, 0.312586734186872, -1.13637904008293, 1.15483261593081, -1.30062293709889], a = 0.2, v = 0.2, t = 0.2)
movej(p[0.417795544541243, -0.109314930148314, 0.312580769993265, -1.13839489234856, 1.1496654964129, -1.30237161011435], a = 0.2, v = 0.2, t = 0.2)
movej(p[0.417890202755362, -0.109175538764475, 0.312611438403905, -1.13759010594674, 1.14502190622469, -1.29600341225738], a = 0.2, v = 0.2, t = 0.2)
movej(p[0.418347216259758, -0.109261900198978, 0.312741487174874, -1.14741358537024, 1.14220002150859, -1.30245484391782], a = 0.2, v = 0.2, t = 0.2)
movej(p[0.419290839285932, -0.109326560098932, 0.31284758351982, -1.14814047601632, 1.14701541647528, -1.29732614452723], a = 0.2, v = 0.2, t = 0.2)
movej(p[0.420256784289104, -0.109350500424126, 0.31290843030262, -1.15524744673316, 1.15352018286972, -1.29849918612811], a = 0.2, v = 0.2, t = 0.2)
movej(p[0.420995692644115, -0.109530337154841, 0.313006641759085, -1.14447681666853, 1.16542257207018, -1.27304762851664], a = 0.2, v = 0.2, t = 0.2)
movej(p[0.42125925074916, -0.109676254725268, 0.313031516331725, -1.14636593294404, 1.16991745436578, -1.27700024271454], a = 0.2, v = 0.2, t = 0.2)
movej(p[0.421376713975284, -0.109708211457856, 0.312962484403856, -1.1424979855003, 1.17359484113834, -1.27220094376096], a = 0.2, v = 0.2, t = 0.2)
movej(p[0.421405760579762, -0.109766532900656, 0.312907133622669, -1.13936693126093, 1.1750519027524, -1.26773206631015], a = 0.2, v = 0.2, t = 0.2)
movej(p[0.421340367744902, -0.109905895263874, 0.312874971200445, -1.131718576888, 1.17729498374473, -1.26259813883385], a = 0.2, v = 0.2, t = 0.2)
movej(p[0.421297358463702, -0.109919107709237, 0.312819908907592, -1.13622614153021, 1.17565194659837, -1.27325855752481], a = 0.2, v = 0.2, t = 0.2)
movej(p[0.421169781480945, -0.109916385140703, 0.312705286520202, -1.13507518816421, 1.17502709847637, -1.27503302095456], a = 0.2, v = 0.2, t = 0.2)
movej(p[0.420746923584915, -0.109992828545197, 0.312680288778816, -1.13806853082763, 1.17331180191426, -1.27611203586175], a = 0.2, v = 0.2, t = 0.2)
movej(p[0.419995810894372, -0.110048463156654, 0.312616958609749, -1.13243938256228, 1.17018787052076, -1.2828150316374], a = 0.2, v = 0.2, t = 0.2)
movej(p[0.41924684050195, -0.109881275958362, 0.31251470604791, -1.13396588180174, 1.16587082869847, -1.290405078671], a = 0.2, v = 0.2, t = 0.2)
movej(p[0.418528168248437, -0.10966718569483, 0.312472918266314, -1.13157196677241, 1.15950689870941, -1.29139183304667], a = 0.2, v = 0.2, t = 0.2)
movej(p[0.417884822088652, -0.109604077273761, 0.312586346961452, -1.13350994780278, 1.15435140724337, -1.28885816887508], a = 0.2, v = 0.2, t = 0.2)
movej(p[0.417485957143313, -0.109489747204249, 0.3126564693301, -1.12902780147471, 1.15018695605199, -1.28789912799632], a = 0.2, v = 0.2, t = 0.2)
movej(p[0.417730709485067, -0.109356350221078, 0.312713431719331, -1.13380843489712, 1.14631366819249, -1.2883247823571], a = 0.2, v = 0.2, t = 0.2)
movej(p[0.418410436361993, -0.109392707388971, 0.312766063063858, -1.1262586212926, 1.14660508833486, -1.27201829848549], a = 0.2, v = 0.2, t = 0.2)
movej(p[0.419275477822064, -0.109533964002917, 0.312912726149791, -1.13545232790039, 1.14844902927535, -1.27954935208055], a = 0.2, v = 0.2, t = 0.2)
movej(p[0.420222608227736, -0.109631626644653, 0.312995170690918, -1.14273231715415, 1.15487514788756, -1.28111094761567], a = 0.2, v = 0.2, t = 0.2)
movej(p[0.420915289814155, -0.109664888264337, 0.313028588329836, -1.14863056728744, 1.16283927539529, -1.27785396652368], a = 0.2, v = 0.2, t = 0.2)
movej(p[0.421318136141835, -0.109909039420978, 0.313105577896569, -1.14260648482067, 1.17215135848825, -1.26037642789317], a = 0.2, v = 0.2, t = 0.2)
movej(p[0.421388241492792, -0.110041368367967, 0.313089242277323, -1.13479544197727, 1.17758792393087, -1.25525408471579], a = 0.2, v = 0.2, t = 0.2)
movej(p[0.421444515404052, -0.110074696390529, 0.313053368108013, -1.13141600438249, 1.18213412007948, -1.25330616079918], a = 0.2, v = 0.2, t = 0.2)
movej(p[0.421398026648342, -0.110099834276446, 0.313051418374661, -1.1332398131502, 1.18247232303951, -1.25481464531969], a = 0.2, v = 0.2, t = 0.2)
movej(p[0.421259380081942, -0.110213974347165, 0.313061662072709, -1.14379236930102, 1.17953529467095, -1.26884465573895], a = 0.2, v = 0.2, t = 0.2)
movej(p[0.42088409362591, -0.110251015858804, 0.31293902021082, -1.14782748024695, 1.1754968806012, -1.27732704552855], a = 0.2, v = 0.2, t = 0.2)
movej(p[0.420270565723272, -0.110274363852736, 0.312801791736561, -1.14901571504446, 1.17139256032357, -1.28472452275894], a = 0.2, v = 0.2, t = 0.2)
movej(p[0.419324944609197, -0.110381550766411, 0.312752316544654, -1.12842117223066, 1.17218367944791, -1.26528579293849], a = 0.2, v = 0.2, t = 0.2)
movej(p[0.418466731675274, -0.11029416470425, 0.312719358166543, -1.1201083879897, 1.16824034875034, -1.26661390440829], a = 0.2, v = 0.2, t = 0.2)
movej(p[0.417887179950257, -0.110025136227219, 0.312676696743977, -1.12080784247039, 1.16196660783156, -1.27073666849589], a = 0.2, v = 0.2, t = 0.2)
movej(p[0.417412882165967, -0.109786583974698, 0.312696825567475, -1.12619400359563, 1.15331956819266, -1.27496641135783], a = 0.2, v = 0.2, t = 0.2)
movej(p[0.41710392343865, -0.109742611270775, 0.312815067009974, -1.12787548170516, 1.14672000816228, -1.27847651349466], a = 0.2, v = 0.2, t = 0.2)
movej(p[0.417434332457444, -0.109693605636526, 0.312862785595572, -1.12740858224674, 1.14498253609518, -1.27387282706135], a = 0.2, v = 0.2, t = 0.2)
movej(p[0.418355897989107, -0.109660398732871, 0.31295970203381, -1.13006999375267, 1.14737508454071, -1.27035743041136], a = 0.2, v = 0.2, t = 0.2)
movej(p[0.419531165906147, -0.109698984770146, 0.313065843334462, -1.12790079970925, 1.15621369577931, -1.25883492352153], a = 0.2, v = 0.2, t = 0.2)
movej(p[0.420497737030564, -0.109733690862594, 0.31314614147011, -1.13444775120698, 1.16328124241317, -1.2626914438174], a = 0.2, v = 0.2, t = 0.2)
movej(p[0.421221714689164, -0.109789454749076, 0.31316124307695, -1.14181657857721, 1.16932415651353, -1.26333916215375], a = 0.2, v = 0.2, t = 0.2)
movej(p[0.421511151705098, -0.109931086022283, 0.313189339627146, -1.14882552023698, 1.17378583230319, -1.26324965885446], a = 0.2, v = 0.2, t = 0.2)
movej(p[0.421510383202266, -0.110119038327288, 0.313206563590335, -1.14846948831814, 1.1753865228386, -1.26470711815928], a = 0.2, v = 0.2, t = 0.2)
movej(p[0.421501321803523, -0.110163689791112, 0.31314118165815, -1.13855873906384, 1.18002185881469, -1.25595152774686], a = 0.2, v = 0.2, t = 0.2)
movej(p[0.421489786661699, -0.110221166929901, 0.313115862803205, -1.13637574888452, 1.18006395731093, -1.25405445282148], a = 0.2, v = 0.2, t = 0.2)
movej(p[0.421416576667446, -0.110364229136459, 0.31316619361679, -1.13393540467861, 1.18187972388374, -1.24705903037729], a = 0.2, v = 0.2, t = 0.2)
movej(p[0.421009119981994, -0.110432859772047, 0.313087324914259, -1.14024786970365, 1.17807061962268, -1.26330894633245], a = 0.2, v = 0.2, t = 0.2)
movej(p[0.420384423278201, -0.110415269018314, 0.312929791554763, -1.1415226636002, 1.17512804337004, -1.27164417801874], a = 0.2, v = 0.2, t = 0.2)
movej(p[0.419550487749304, -0.110443076902955, 0.31284963366685, -1.1387006501664, 1.17190044335562, -1.2740184847363], a = 0.2, v = 0.2, t = 0.2)
movej(p[0.418742394389445, -0.110402826680498, 0.3128713345918, -1.13407483346185, 1.16741298178011, -1.27827584482016], a = 0.2, v = 0.2, t = 0.2)
movej(p[0.41818528945054, -0.110197860289479, 0.312858908803078, -1.13119068196847, 1.16224721242051, -1.27961170216152], a = 0.2, v = 0.2, t = 0.2)
movej(p[0.41779258818896, -0.109950203098957, 0.31280994847974, -1.131162227149, 1.15550945819418, -1.27888330586887], a = 0.2, v = 0.2, t = 0.2)
movej(p[0.417683165971616, -0.109939404533899, 0.312906578982916, -1.13506194039908, 1.15038279478608, -1.27414275708576], a = 0.2, v = 0.2, t = 0.2)
movej(p[0.417854299434033, -0.109981531706185, 0.313024218783563, -1.13639413713517, 1.1475772254018, -1.2779074591296], a = 0.2, v = 0.2, t = 0.2)
movej(p[0.418664532366659, -0.109941910933534, 0.313132433326779, -1.14308513392455, 1.14891935633927, -1.2766538240519], a = 0.2, v = 0.2, t = 0.2)
movej(p[0.419643222594771, -0.109959512668318, 0.313210773408663, -1.13807963200972, 1.15585122015257, -1.26337005791075], a = 0.2, v = 0.2, t = 0.2)
movej(p[0.420483105291606, -0.110024308000641, 0.313305756885997, -1.15020781965076, 1.16171314146244, -1.26908988009218], a = 0.2, v = 0.2, t = 0.2)
movej(p[0.421058019950686, -0.110064116021742, 0.31330623104979, -1.15305787838318, 1.16851683287407, -1.26812076152599], a = 0.2, v = 0.2, t = 0.2)
movej(p[0.421297074927739, -0.110056622510189, 0.313237428627188, -1.1582551462231, 1.17288978737873, -1.27153985292007], a = 0.2, v = 0.2, t = 0.2)
movej(p[0.42136197387058, -0.11019726767217, 0.313211812803171, -1.1439946343307, 1.17972178102571, -1.25321759696571], a = 0.2, v = 0.2, t = 0.2)
movej(p[0.421291806151155, -0.110236134330623, 0.313128583091265, -1.13413863972301, 1.18245552335077, -1.25224486017251], a = 0.2, v = 0.2, t = 0.2)
movej(p[0.421329125804779, -0.110185515743743, 0.313048335788409, -1.1324879405197, 1.18349028446535, -1.25394323399429], a = 0.2, v = 0.2, t = 0.2)
movej(p[0.42128806859455, -0.110178121415472, 0.312968272372596, -1.13188319786165, 1.18276248209027, -1.25295569809466], a = 0.2, v = 0.2, t = 0.2)
movej(p[0.420998139742617, -0.110342688211086, 0.312948571763169, -1.13092777009509, 1.18131249775384, -1.25656128408622], a = 0.2, v = 0.2, t = 0.2)
movej(p[0.420510795326137, -0.110316777874052, 0.312792106628201, -1.13151482433477, 1.17748752756511, -1.26881025930015], a = 0.2, v = 0.2, t = 0.2)
movej(p[0.419834017175318, -0.110200155684527, 0.312636497935302, -1.13289949473287, 1.17167657665298, -1.2796353157463], a = 0.2, v = 0.2, t = 0.2)
movej(p[0.419098658546272, -0.110141585315221, 0.312612508454541, -1.13453231692831, 1.16578812064077, -1.28332975952821], a = 0.2, v = 0.2, t = 0.2)
movej(p[0.41841552505337, -0.11007081721967, 0.312640128400759, -1.12878528735457, 1.16206669773613, -1.27992347274963], a = 0.2, v = 0.2, t = 0.2)
movej(p[0.417950738876487, -0.109870691606727, 0.312598509639556, -1.12649647006761, 1.15853094441963, -1.27480395568669], a = 0.2, v = 0.2, t = 0.2)
movej(p[0.417764813856277, -0.109717764372708, 0.312639775057949, -1.12472057715854, 1.15442340515995, -1.2684472864451], a = 0.2, v = 0.2, t = 0.2)
movej(p[0.417914380390747, -0.109779234881915, 0.312824427068944, -1.12854164639656, 1.15100339192772, -1.26565593338843], a = 0.2, v = 0.2, t = 0.2)
movej(p[0.418571157540573, -0.109835302014482, 0.312988126452612, -1.13803197453233, 1.15040308104349, -1.27622169516532], a = 0.2, v = 0.2, t = 0.2)
movej(p[0.419551724649095, -0.109816565777908, 0.313080917806324, -1.14520783437512, 1.1559005849986, -1.2748952856599], a = 0.2, v = 0.2, t = 0.2)
movej(p[0.420469446547687, -0.109937790428064, 0.313182810043215, -1.14434947610611, 1.16403088745049, -1.26236140942534], a = 0.2, v = 0.2, t = 0.2)
movej(p[0.420925176374424, -0.11006633451828, 0.313247893614818, -1.14013140439608, 1.17115626098398, -1.25763886629556], a = 0.2, v = 0.2, t = 0.2)
movej(p[0.421236456952442, -0.110121067948472, 0.313227119372687, -1.14175821581895, 1.17425228864145, -1.25915044067046], a = 0.2, v = 0.2, t = 0.2)
movej(p[0.421317680597483, -0.110119606148345, 0.313128976392873, -1.14316226906893, 1.17636838879754, -1.25900817940049], a = 0.2, v = 0.2, t = 0.2)
movej(p[0.421403752238572, -0.110287648755294, 0.313158170489865, -1.14331552546291, 1.17839616865546, -1.2522651273444], a = 0.2, v = 0.2, t = 0.2)
movej(p[0.421292330694031, -0.110372153453825, 0.313124550738835, -1.13361479044717, 1.1806297650889, -1.2480344836512], a = 0.2, v = 0.2, t = 0.2)
movej(p[0.421039009003124, -0.110354552066402, 0.312994046398766, -1.130886808851, 1.18048585213748, -1.2488483021438], a = 0.2, v = 0.2, t = 0.2)
movej(p[0.42046407978983, -0.110368873861595, 0.31286051918662, -1.1257814275919, 1.17793220850677, -1.2497859716213], a = 0.2, v = 0.2, t = 0.2)
movej(p[0.419593653638498, -0.110434720073819, 0.312801688549091, -1.13357645411625, 1.17062771511465, -1.26906409583066], a = 0.2, v = 0.2, t = 0.2)
movej(p[0.418793565267366, -0.110296347227245, 0.312715154778163, -1.13139205662473, 1.16516293169781, -1.27732766590921], a = 0.2, v = 0.2, t = 0.2)
movej(p[0.418142298548721, -0.110021631648556, 0.312646257853623, -1.13372135599061, 1.15752304040781, -1.28310415413852], a = 0.2, v = 0.2, t = 0.2)
movej(p[0.417598055950342, -0.109901704099104, 0.312667700071133, -1.12215740909683, 1.15539523484737, -1.26155333485217], a = 0.2, v = 0.2, t = 0.2)
movej(p[0.417298556993189, -0.109881113374047, 0.312786094525843, -1.12260856339048, 1.15026031817498, -1.26454102164543], a = 0.2, v = 0.2, t = 0.2)
movej(p[0.417671566810707, -0.109865094345477, 0.31288423731192, -1.13102205524569, 1.14704106234179, -1.26782482443805], a = 0.2, v = 0.2, t = 0.2)
movej(p[0.418548206584409, -0.109871028729732, 0.313014158815713, -1.13824010096637, 1.14672293933199, -1.27156374161184], a = 0.2, v = 0.2, t = 0.2)
movej(p[0.419676147941809, -0.110043330988869, 0.313197288110647, -1.13336630613984, 1.15500358831381, -1.25712539155018], a = 0.2, v = 0.2, t = 0.2)
movej(p[0.420610041272268, -0.110080658139708, 0.313248106824067, -1.13004038545492, 1.16469946324101, -1.24964030611544], a = 0.2, v = 0.2, t = 0.2)
movej(p[0.421256961883165, -0.110127439942592, 0.313286954050032, -1.12914512162996, 1.17541824801235, -1.23784615638932], a = 0.2, v = 0.2, t = 0.2)
movej(p[0.421441835946096, -0.110252294028779, 0.3133126877526, -1.13359728392386, 1.18020928313501, -1.2362627695934], a = 0.2, v = 0.2, t = 0.2)
movej(p[0.421403768137315, -0.110399308790761, 0.313361720597818, -1.13581545190557, 1.18336063259642, -1.2400218118845], a = 0.2, v = 0.2, t = 0.2)
movej(p[0.421421416485677, -0.110411335378993, 0.313306058692752, -1.13422017801399, 1.18504318505768, -1.23752343613076], a = 0.2, v = 0.2, t = 0.2)
movej(p[0.421385085159598, -0.110476907987692, 0.313256070810884, -1.13268986800922, 1.18563766681405, -1.23515070047425], a = 0.2, v = 0.2, t = 0.2)
movej(p[0.421108350944638, -0.110618554417782, 0.31318045616142, -1.12812911404656, 1.18481035558614, -1.23435724798669], a = 0.2, v = 0.2, t = 0.2)
movej(p[0.420551076796898, -0.110608711523097, 0.313005029062361, -1.1266887307029, 1.18255258201563, -1.24443924409601], a = 0.2, v = 0.2, t = 0.2)
movej(p[0.419704469825012, -0.110536680363525, 0.312813715079323, -1.12895699138628, 1.17688191671879, -1.25769084366916], a = 0.2, v = 0.2, t = 0.2)
movej(p[0.418788618827933, -0.110484269819244, 0.312775907482246, -1.12858767111938, 1.17171373517349, -1.25857764057434], a = 0.2, v = 0.2, t = 0.2)
movej(p[0.417939067814996, -0.110414700768253, 0.312787245174366, -1.12452262958869, 1.1646640880757, -1.26150110459609], a = 0.2, v = 0.2, t = 0.2)
movej(p[0.417423215382586, -0.110154359406204, 0.312767134588492, -1.1238319581908, 1.15873224977633, -1.25839048972901], a = 0.2, v = 0.2, t = 0.2)
movej(p[0.417286857833462, -0.109998361200016, 0.31277725453336, -1.12476018484007, 1.15198548632491, -1.25682928771218], a = 0.2, v = 0.2, t = 0.2)
movej(p[0.417573981984995, -0.110015801618885, 0.312920956871184, -1.13434761742992, 1.14827706602621, -1.26294358246299], a = 0.2, v = 0.2, t = 0.2)
movej(p[0.418400322251666, -0.110094247222517, 0.313072887447675, -1.1411529998652, 1.14926415467113, -1.26964118313214], a = 0.2, v = 0.2, t = 0.2)
movej(p[0.419514806484397, -0.11009802180296, 0.313218478091732, -1.14531299687816, 1.15617806832885, -1.26278860517787], a = 0.2, v = 0.2, t = 0.2)
movej(p[0.420508014987831, -0.110204965908543, 0.313389099347242, -1.14023582945875, 1.16821391107308, -1.24176341220761], a = 0.2, v = 0.2, t = 0.2)
movej(p[0.421062862990447, -0.110287984708833, 0.313491597475324, -1.13488263917763, 1.17719219444126, -1.23148450903204], a = 0.2, v = 0.2, t = 0.2)
movej(p[0.421375724173335, -0.110329328355923, 0.313456854849401, -1.13133205786594, 1.18408637181027, -1.22635049919313], a = 0.2, v = 0.2, t = 0.2)
movej(p[0.421435298281722, -0.110417968711135, 0.313385037801023, -1.1312401697597, 1.18463618053037, -1.22721296097178], a = 0.2, v = 0.2, t = 0.2)
movej(p[0.421426405368857, -0.11058425455455, 0.313389546168874, -1.13795306747691, 1.18389365464254, -1.23427087614353], a = 0.2, v = 0.2, t = 0.2)
movej(p[0.42137317810817, -0.110650212184826, 0.313361774106868, -1.14118371523774, 1.18368550020224, -1.2418110654073], a = 0.2, v = 0.2, t = 0.2)
movej(p[0.421244404820476, -0.110634539936453, 0.313245991747261, -1.14023691842156, 1.18475214013441, -1.23949313378825], a = 0.2, v = 0.2, t = 0.2)
movej(p[0.420803658009475, -0.110737273131663, 0.313153837883189, -1.13146209928943, 1.18633901710219, -1.23217699803651], a = 0.2, v = 0.2, t = 0.2)
movej(p[0.420090984729078, -0.110739782541066, 0.313045528078125, -1.12657652735344, 1.18237801967851, -1.24225817893887], a = 0.2, v = 0.2, t = 0.2)
movej(p[0.419354185038734, -0.110603718270702, 0.312940152317917, -1.12338826908991, 1.17708059697556, -1.24950221629318], a = 0.2, v = 0.2, t = 0.2)
movej(p[0.418596120254181, -0.110418189785887, 0.312863811630584, -1.12102118641492, 1.17064575689816, -1.25245186219646], a = 0.2, v = 0.2, t = 0.2)
movej(p[0.417872767134717, -0.1103798367176, 0.312891943306949, -1.12250930324188, 1.16385609922712, -1.25494239134791], a = 0.2, v = 0.2, t = 0.2)
movej(p[0.417377592787054, -0.110235960633763, 0.312886874115661, -1.12139252549623, 1.15913393253206, -1.25471606467678], a = 0.2, v = 0.2, t = 0.2)
movej(p[0.417306838502732, -0.110048284860135, 0.312930051065117, -1.12738452373876, 1.15284230006393, -1.25700271888158], a = 0.2, v = 0.2, t = 0.2)
movej(p[0.417740635916953, -0.110050737139278, 0.313066405832658, -1.12373847893015, 1.15285923052294, -1.24424445233544], a = 0.2, v = 0.2, t = 0.2)
movej(p[0.418538004643536, -0.110106117257631, 0.313242778379156, -1.12854517326701, 1.15469544394981, -1.25019276429887], a = 0.2, v = 0.2, t = 0.2)
movej(p[0.419692643708122, -0.110085127100025, 0.313333776134187, -1.13778784336572, 1.16013033809652, -1.24933933498614], a = 0.2, v = 0.2, t = 0.2)
movej(p[0.42062702356279, -0.110087268273989, 0.313415040002714, -1.14564619353522, 1.16760442581453, -1.24861705263597], a = 0.2, v = 0.2, t = 0.2)
movej(p[0.421144057276823, -0.110301547176014, 0.313540463583229, -1.15001844773503, 1.17170664287167, -1.24585878924892], a = 0.2, v = 0.2, t = 0.2)
movej(p[0.421344645706969, -0.110383277032182, 0.313514785786371, -1.14370926328687, 1.17721504668347, -1.24151335992657], a = 0.2, v = 0.2, t = 0.2)
movej(p[0.421452299114524, -0.110438091887514, 0.313452092215914, -1.14418084861661, 1.17907337961215, -1.24233866302119], a = 0.2, v = 0.2, t = 0.2)
movej(p[0.421447597637921, -0.110500100024066, 0.31341735740457, -1.14379627300763, 1.18109207332287, -1.23927540297251], a = 0.2, v = 0.2, t = 0.2)
movej(p[0.421335654568617, -0.110604653516478, 0.313400891771903, -1.1447794429581, 1.18237382591352, -1.2420771397678], a = 0.2, v = 0.2, t = 0.2)
movej(p[0.421048212472832, -0.110611428931533, 0.313246850144992, -1.14009077880934, 1.18368528837535, -1.2404977500036], a = 0.2, v = 0.2, t = 0.2)
movej(p[0.420446760466826, -0.110665509859294, 0.313125318875668, -1.13634537033656, 1.18195416456603, -1.24352252540959], a = 0.2, v = 0.2, t = 0.2)
movej(p[0.419601372657458, -0.110748610606434, 0.313079694170762, -1.12434182760969, 1.17991134533083, -1.24120282381052], a = 0.2, v = 0.2, t = 0.2)
movej(p[0.418877612499906, -0.110625097775704, 0.313049905322435, -1.12228163390328, 1.17376184044845, -1.25130446158968], a = 0.2, v = 0.2, t = 0.2)
movej(p[0.418417400430534, -0.110388076570349, 0.313018554998409, -1.1213399783242, 1.16869131504749, -1.25199965311311], a = 0.2, v = 0.2, t = 0.2)
movej(p[0.418453025522011, -0.110357734763587, 0.313126958810702, -1.12694702062431, 1.1639204198941, -1.25247029022633], a = 0.2, v = 0.2, t = 0.2)
movej(p[0.418858434121169, -0.110426481617801, 0.313324364865736, -1.12617770375767, 1.1635429746679, -1.249806172159], a = 0.2, v = 0.2, t = 0.2)
movej(p[0.419793640794573, -0.110405039517697, 0.313436304590878, -1.12274751394414, 1.1689767369717, -1.23921661582704], a = 0.2, v = 0.2, t = 0.2)
movej(p[0.420633217501168, -0.110402124674609, 0.313517306751543, -1.12025042407861, 1.17599147477968, -1.22703610399199], a = 0.2, v = 0.2, t = 0.2)
movej(p[0.421249631380729, -0.11049070538048, 0.313582617751808, -1.12608035641397, 1.18026558572262, -1.22412421451187], a = 0.2, v = 0.2, t = 0.2)
movej(p[0.421485229701011, -0.11058086734884, 0.313598386429801, -1.13010530968928, 1.18315363672191, -1.22537131252244], a = 0.2, v = 0.2, t = 0.2)
movej(p[0.421584913674576, -0.11055687624703, 0.313518043538091, -1.13447374874965, 1.18409480141802, -1.22776404404998], a = 0.2, v = 0.2, t = 0.2)
movej(p[0.421539198994144, -0.11067123126825, 0.313473763938783, -1.13135338984431, 1.18549851215356, -1.21995210585114], a = 0.2, v = 0.2, t = 0.2)
movej(p[0.421167291560129, -0.11075037525508, 0.313366709873597, -1.12819592457165, 1.18402588672599, -1.22808807561418], a = 0.2, v = 0.2, t = 0.2)
movej(p[0.420563031167721, -0.110747016711105, 0.313214036018437, -1.12829537875684, 1.18061421955673, -1.23785766521532], a = 0.2, v = 0.2, t = 0.2)
movej(p[0.419560273364595, -0.110670590094975, 0.313057136588492, -1.12538760257142, 1.17681936951763, -1.24458713854474], a = 0.2, v = 0.2, t = 0.2)
movej(p[0.418484825897077, -0.110669195115557, 0.313054067852438, -1.12858892116114, 1.16908188656366, -1.25371221653358], a = 0.2, v = 0.2, t = 0.2)
movej(p[0.417594750436494, -0.110496833593018, 0.313030997559498, -1.12517063303667, 1.16159092650208, -1.25850185104236], a = 0.2, v = 0.2, t = 0.2)
movej(p[0.417070160935342, -0.110234698608261, 0.312978936258634, -1.12602630252429, 1.15381024462398, -1.25971638201616], a = 0.2, v = 0.2, t = 0.2)
movej(p[0.416870847780461, -0.110143138537625, 0.312999918064595, -1.1224659012347, 1.14956766510697, -1.25142252178826], a = 0.2, v = 0.2, t = 0.2)
movej(p[0.417055260751045, -0.11021616302338, 0.313130689198276, -1.12443330528682, 1.14798264465157, -1.25289360514495], a = 0.2, v = 0.2, t = 0.2)
movej(p[0.417823533836237, -0.110246458338708, 0.313277496094802, -1.13098143900999, 1.14982650514756, -1.25389426181477], a = 0.2, v = 0.2, t = 0.2)
movej(p[0.418876819172565, -0.11019515326409, 0.313375427959999, -1.13562430741279, 1.15430981591583, -1.25304101702867], a = 0.2, v = 0.2, t = 0.2)
movej(p[0.419951399847961, -0.110271988915844, 0.313504817647418, -1.13967277408592, 1.16078453457632, -1.24827036280985], a = 0.2, v = 0.2, t = 0.2)
movej(p[0.420775416467439, -0.110271174363633, 0.313512360121614, -1.13430126025499, 1.16972877840194, -1.23853916546466], a = 0.2, v = 0.2, t = 0.2)
movej(p[0.421343126757385, -0.110277737137637, 0.313496515203574, -1.13768651692751, 1.17628973004346, -1.23644895636449], a = 0.2, v = 0.2, t = 0.2)
movej(p[0.421505740149987, -0.110387723817882, 0.31346477896058, -1.13509076042467, 1.18156903398363, -1.22996107693442], a = 0.2, v = 0.2, t = 0.2)
movej(p[0.421359552321535, -0.110493813475656, 0.313439715091648, -1.14028014247579, 1.18286651200347, -1.24190577118101], a = 0.2, v = 0.2, t = 0.2)
movej(p[0.420934583391053, -0.110548793468101, 0.313291460178557, -1.14152989216662, 1.18185025106507, -1.24788496699998], a = 0.2, v = 0.2, t = 0.2)
movej(p[0.420088552444545, -0.110564384797881, 0.313163611313928, -1.13943440342285, 1.18066328702374, -1.25005862740289], a = 0.2, v = 0.2, t = 0.2)
movej(p[0.418951894668895, -0.110681176773456, 0.313120273652538, -1.13230477688899, 1.17563660953296, -1.25033973246865], a = 0.2, v = 0.2, t = 0.2)
movej(p[0.41777762427203, -0.110530997315824, 0.313031723659017, -1.12350905155652, 1.16918461183471, -1.25000995792793], a = 0.2, v = 0.2, t = 0.2)
movej(p[0.416800530275171, -0.110298859779034, 0.312948086011299, -1.12517310338677, 1.15681416378374, -1.25622740776201], a = 0.2, v = 0.2, t = 0.2)
movej(p[0.416269517344359, -0.110149767368796, 0.312947926188272, -1.12989972340239, 1.14719887522029, -1.25681539826234], a = 0.2, v = 0.2, t = 0.2)
movej(p[0.4161924659518, -0.110142980350487, 0.313042278547602, -1.13929121815906, 1.13806626974008, -1.27154954424145], a = 0.2, v = 0.2, t = 0.2)
movej(p[0.416974210780533, -0.110119330227565, 0.313124999444457, -1.14206022621346, 1.13923233727663, -1.26680417844367], a = 0.2, v = 0.2, t = 0.2)
movej(p[0.418140684294245, -0.110109436284709, 0.313253425666303, -1.14326709226056, 1.1434711785449, -1.26233843609911], a = 0.2, v = 0.2, t = 0.2)
movej(p[0.419388495911601, -0.110174300379797, 0.313413397805963, -1.13708264098789, 1.1544625087409, -1.24795111696833], a = 0.2, v = 0.2, t = 0.2)
movej(p[0.420401327859179, -0.110148321346, 0.31347895597203, -1.14287594381102, 1.16393035302774, -1.25345098459266], a = 0.2, v = 0.2, t = 0.2)
movej(p[0.421100272734181, -0.110148268675008, 0.313449918792104, -1.14367968964904, 1.17394464946222, -1.24600433793952], a = 0.2, v = 0.2, t = 0.2)
movej(p[0.421436153508736, -0.110282409307748, 0.313459563448749, -1.14891608747584, 1.17988235087723, -1.24137801079595], a = 0.2, v = 0.2, t = 0.2)
movej(p[0.421457394213967, -0.110423860626322, 0.313463968253408, -1.14208404841666, 1.18344431621502, -1.23511656154047], a = 0.2, v = 0.2, t = 0.2)
movej(p[0.421472644512646, -0.110450384359066, 0.313400510056999, -1.13648267807995, 1.18719751881706, -1.23134933496889], a = 0.2, v = 0.2, t = 0.2)
movej(p[0.421214960587192, -0.110546211691016, 0.31333614656251, -1.13431090756008, 1.18661211325693, -1.23197267833904], a = 0.2, v = 0.2, t = 0.2)
movej(p[0.420583529366398, -0.110666693368202, 0.313275247198264, -1.13284102732882, 1.18569918410901, -1.23923880007468], a = 0.2, v = 0.2, t = 0.2)
movej(p[0.41963289024796, -0.110638750400459, 0.313131755715421, -1.13773034580867, 1.17859394951484, -1.26187802890703], a = 0.2, v = 0.2, t = 0.2)
movej(p[0.418567163716333, -0.110460602655313, 0.312988954428711, -1.13704826092823, 1.17047928173823, -1.27239693088706], a = 0.2, v = 0.2, t = 0.2)
movej(p[0.417562021411741, -0.11038033281688, 0.312986663433837, -1.13148023572582, 1.16384233159708, -1.26341883207151], a = 0.2, v = 0.2, t = 0.2)
movej(p[0.416729348078921, -0.110274787421612, 0.313039556938622, -1.1288625172512, 1.15284114904574, -1.26631287365512], a = 0.2, v = 0.2, t = 0.2)
movej(p[0.416512434668897, -0.11009184988637, 0.313053663703491, -1.13182027050488, 1.14505598375547, -1.26675223498987], a = 0.2, v = 0.2, t = 0.2)
movej(p[0.416885979947115, -0.109971141121222, 0.313081356903045, -1.13262114786719, 1.14052954081377, -1.26401668745095], a = 0.2, v = 0.2, t = 0.2)
movej(p[0.417759269213678, -0.110045558261557, 0.313233645720528, -1.13857324628627, 1.1408785103336, -1.26307861868459], a = 0.2, v = 0.2, t = 0.2)
movej(p[0.41889216875466, -0.110065445602586, 0.313331622314638, -1.13727435178652, 1.14921709065785, -1.25713370042016], a = 0.2, v = 0.2, t = 0.2)
movej(p[0.420115946306922, -0.110014454280062, 0.313379355556205, -1.14277577842048, 1.1596161866317, -1.25310653722681], a = 0.2, v = 0.2, t = 0.2)
movej(p[0.421035156991367, -0.110105694291769, 0.313431723448479, -1.13567932150004, 1.17248183402833, -1.2335326690512], a = 0.2, v = 0.2, t = 0.2)
movej(p[0.421372044776661, -0.110236791704219, 0.313490865477263, -1.14253981986459, 1.17866318337483, -1.24047128784052], a = 0.2, v = 0.2, t = 0.2)
movej(p[0.421532775805409, -0.110295599168748, 0.313430976119591, -1.14720716660932, 1.18040871824791, -1.24792375233504], a = 0.2, v = 0.2, t = 0.2)
movej(p[0.421457440457655, -0.110285718460027, 0.313341261956189, -1.15342012593679, 1.18048104503919, -1.25606543118567], a = 0.2, v = 0.2, t = 0.2)
movej(p[0.421123896960999, -0.110529328573436, 0.313303938234925, -1.14325084864012, 1.18091103034653, -1.24670101916143], a = 0.2, v = 0.2, t = 0.2)
movej(p[0.42045738302384, -0.110571713336494, 0.31318231018284, -1.1342158624194, 1.17970381903825, -1.25062252591745], a = 0.2, v = 0.2, t = 0.2)
movej(p[0.41954208002403, -0.110491732923587, 0.312998571470016, -1.12904340222627, 1.17526334084561, -1.2549240246669], a = 0.2, v = 0.2, t = 0.2)
movej(p[0.418538798794658, -0.110342281350697, 0.31291756720932, -1.12778752357035, 1.16825959391055, -1.26118242652859], a = 0.2, v = 0.2, t = 0.2)
movej(p[0.417590305146018, -0.110220390383254, 0.312952526924275, -1.12383115336146, 1.16151978920011, -1.26426238887859], a = 0.2, v = 0.2, t = 0.2)
movej(p[0.4170549494868, -0.109986846781957, 0.312953932840249, -1.12737002364439, 1.15395378183311, -1.26822327845534], a = 0.2, v = 0.2, t = 0.2)
movej(p[0.416937855052178, -0.109825581171117, 0.312963496413906, -1.1310578647507, 1.14670077493121, -1.2694844514593], a = 0.2, v = 0.2, t = 0.2)
movej(p[0.417237468594031, -0.109909560598453, 0.313055901854342, -1.12666414456967, 1.14552484412147, -1.25496842028138], a = 0.2, v = 0.2, t = 0.2)
movej(p[0.417949875017969, -0.110002299940527, 0.313195173284521, -1.12853991041038, 1.14685557343448, -1.25470890032605], a = 0.2, v = 0.2, t = 0.2)
movej(p[0.418949677099492, -0.110024867188387, 0.313314456485796, -1.13178678973737, 1.15333920954452, -1.25100662883486], a = 0.2, v = 0.2, t = 0.2)
movej(p[0.419988531998172, -0.110083983421416, 0.313432104566548, -1.13818014741542, 1.16096589121933, -1.24824597153845], a = 0.2, v = 0.2, t = 0.2)
movej(p[0.420688963115713, -0.110199014296499, 0.313510646728919, -1.13690196771684, 1.16875834237438, -1.24258881382753], a = 0.2, v = 0.2, t = 0.2)
movej(p[0.421197304388188, -0.110214382399145, 0.313478448239791, -1.13672580624241, 1.17523181264593, -1.23740880756272], a = 0.2, v = 0.2, t = 0.2)
movej(p[0.421381565847871, -0.110277928838668, 0.31343089095883, -1.1417914904133, 1.17737775113609, -1.24168160579207], a = 0.2, v = 0.2, t = 0.2)
movej(p[0.42133151948222, -0.110391463081258, 0.313388739916449, -1.14433778639513, 1.1784604800241, -1.24617326235793], a = 0.2, v = 0.2, t = 0.2)
movej(p[0.420985907116546, -0.110476546973723, 0.313240330648423, -1.14694964549226, 1.17626614373653, -1.26246773423569], a = 0.2, v = 0.2, t = 0.2)
movej(p[0.420364220271652, -0.110461324375703, 0.3130566010776, -1.14593727432108, 1.17281000133807, -1.27144435821856], a = 0.2, v = 0.2, t = 0.2)
movej(p[0.419467067858062, -0.110487440563363, 0.31293927506287, -1.14199330880429, 1.16937883696436, -1.27266849349293], a = 0.2, v = 0.2, t = 0.2)
movej(p[0.418479955793167, -0.110410767183245, 0.312914151668997, -1.13398071875494, 1.16481722570228, -1.27602707399826], a = 0.2, v = 0.2, t = 0.2)
movej(p[0.417819235620618, -0.110143919492906, 0.312854323498233, -1.1308376232149, 1.15986953939898, -1.27580472633798], a = 0.2, v = 0.2, t = 0.2)
movej(p[0.417352415706072, -0.10990578461424, 0.312829029256004, -1.12666479936995, 1.15552300430705, -1.27020195975003], a = 0.2, v = 0.2, t = 0.2)
movej(p[0.41720429102912, -0.109859379120664, 0.312927832283509, -1.13215508461083, 1.15014218834108, -1.26930230160742], a = 0.2, v = 0.2, t = 0.2)
movej(p[0.417556692683416, -0.109931281817279, 0.313045723607486, -1.13664619079158, 1.14776905437067, -1.27378869767206], a = 0.2, v = 0.2, t = 0.2)
movej(p[0.418498585938596, -0.109919356214079, 0.313161899228146, -1.13999149110719, 1.15121640283678, -1.26920991977645], a = 0.2, v = 0.2, t = 0.2)
movej(p[0.419772325252252, -0.110038365767926, 0.31331176811998, -1.13200621460275, 1.16071075026542, -1.24780853919703], a = 0.2, v = 0.2, t = 0.2)
movej(p[0.420638758227408, -0.110104018328211, 0.313404535193631, -1.12928697944237, 1.16994080787464, -1.24139210770314], a = 0.2, v = 0.2, t = 0.2)
movej(p[0.421297621599519, -0.110155764952932, 0.313427042445951, -1.13820544733231, 1.17549092970451, -1.24533726260586], a = 0.2, v = 0.2, t = 0.2)
movej(p[0.421485437825906, -0.110184789733275, 0.313370911923411, -1.14518882783263, 1.17924215085642, -1.24963558105909], a = 0.2, v = 0.2, t = 0.2)
movej(p[0.421556728744405, -0.110399805075567, 0.313391470457989, -1.14442491708561, 1.18259192218097, -1.24011148058317], a = 0.2, v = 0.2, t = 0.2)
movej(p[0.421373847151168, -0.110518363966369, 0.313308600994574, -1.13453660345236, 1.18474790766386, -1.23351313225363], a = 0.2, v = 0.2, t = 0.2)
movej(p[0.420935795824719, -0.110542065320557, 0.313143201814087, -1.13100768819363, 1.18374094741812, -1.23463573376568], a = 0.2, v = 0.2, t = 0.2)
movej(p[0.420109866772907, -0.11058159969573, 0.313010690020451, -1.12701535602202, 1.18018026022959, -1.23843424481171], a = 0.2, v = 0.2, t = 0.2)
movej(p[0.419115180097412, -0.110551753211263, 0.312930020673368, -1.12669931059581, 1.17407457775542, -1.25488461848567], a = 0.2, v = 0.2, t = 0.2)
movej(p[0.418262317451927, -0.110349340776064, 0.312840723814452, -1.12931875036818, 1.16561588084156, -1.26653043743595], a = 0.2, v = 0.2, t = 0.2)
movej(p[0.417590365927767, -0.110053753198395, 0.312787381106717, -1.13495893629344, 1.15616757602506, -1.27741232210036], a = 0.2, v = 0.2, t = 0.2)
movej(p[0.417045603409208, -0.110027851036787, 0.312853278952498, -1.13086249543739, 1.15226873142461, -1.26708195966299], a = 0.2, v = 0.2, t = 0.2)
movej(p[0.416791375517428, -0.109984846857578, 0.312916496358419, -1.13004587248718, 1.14761781320249, -1.26787635593513], a = 0.2, v = 0.2, t = 0.2)
movej(p[0.417166103493656, -0.109923721487651, 0.312943030048006, -1.13167512339006, 1.14503055302995, -1.26591467526524], a = 0.2, v = 0.2, t = 0.2)
movej(p[0.418081341537443, -0.109928503634164, 0.313044976234202, -1.13986859998772, 1.14432427985371, -1.27019273382877], a = 0.2, v = 0.2, t = 0.2)
movej(p[0.419169947780765, -0.110030279035186, 0.313220762615209, -1.14679298258085, 1.14957511313361, -1.27461577193822], a = 0.2, v = 0.2, t = 0.2)
movej(p[0.420273798411642, -0.110062212522682, 0.313315149894481, -1.14825221242689, 1.1609200294607, -1.26641046459062], a = 0.2, v = 0.2, t = 0.2)
movej(p[0.421023308618981, -0.110111308815446, 0.313357585088606, -1.14987694631368, 1.16979955577002, -1.25967882107057], a = 0.2, v = 0.2, t = 0.2)
movej(p[0.421375230282277, -0.110284687288457, 0.313380501413544, -1.13860778431175, 1.1786748111682, -1.23963206714602], a = 0.2, v = 0.2, t = 0.2)
movej(p[0.421446174481025, -0.110376386558428, 0.313352400341487, -1.14225420261676, 1.18065399812415, -1.25009734498821], a = 0.2, v = 0.2, t = 0.2)
movej(p[0.421479294449187, -0.110391967619334, 0.313293358494887, -1.14547024090257, 1.18118802632823, -1.25357689531481], a = 0.2, v = 0.2, t = 0.2)
movej(p[0.421379356757342, -0.110478867142632, 0.313225186016575, -1.14304079201742, 1.18173631500222, -1.24844327517367], a = 0.2, v = 0.2, t = 0.2)
movej(p[0.420874164578457, -0.110639059813484, 0.31316143984101, -1.13605271154199, 1.18056350413061, -1.24893069354215], a = 0.2, v = 0.2, t = 0.2)
movej(p[0.420191494581676, -0.110569588204942, 0.312971415467308, -1.12711049585031, 1.17900903618768, -1.25137626006407], a = 0.2, v = 0.2, t = 0.2)
movej(p[0.419240093990107, -0.110413553700252, 0.312842160564853, -1.12620226568378, 1.17357642750077, -1.2600728716196], a = 0.2, v = 0.2, t = 0.2)
movej(p[0.418286506986982, -0.110279487580979, 0.312815861022369, -1.12836405419885, 1.16713024026683, -1.26560202349084], a = 0.2, v = 0.2, t = 0.2)
movej(p[0.417502733436575, -0.110120970675246, 0.312815662264213, -1.12794327982461, 1.15995600477138, -1.27140936948417], a = 0.2, v = 0.2, t = 0.2)
movej(p[0.417029656044392, -0.109870091631478, 0.312771623291382, -1.129823815303, 1.15430549600055, -1.26939754280783], a = 0.2, v = 0.2, t = 0.2)
movej(p[0.417095397246926, -0.109821471375338, 0.312833091164961, -1.12642285387369, 1.15096404937551, -1.25569599683746], a = 0.2, v = 0.2, t = 0.2)
movej(p[0.417586971982434, -0.109911879476224, 0.313006996757465, -1.12937939178861, 1.15024795049028, -1.25405867347596], a = 0.2, v = 0.2, t = 0.2)
movej(p[0.41870067134803, -0.109956703858085, 0.313152054590976, -1.13809055240741, 1.15265466988126, -1.26265518081995], a = 0.2, v = 0.2, t = 0.2)
movej(p[0.419948881143829, -0.109922850534653, 0.313249678876698, -1.14467942237073, 1.16073623190041, -1.26337724142809], a = 0.2, v = 0.2, t = 0.2)
movej(p[0.42099738916289, -0.110085530344476, 0.313379599546115, -1.14391367462757, 1.17087695098, -1.25010052165289], a = 0.2, v = 0.2, t = 0.2)
movej(p[0.421405254038101, -0.110201510627424, 0.313438161397639, -1.14142244986403, 1.17748851715512, -1.24960565263685], a = 0.2, v = 0.2, t = 0.2)
movej(p[0.421633780370575, -0.110243848108179, 0.313400720968931, -1.13921374623332, 1.18198812920022, -1.24517137557516], a = 0.2, v = 0.2, t = 0.2)
movej(p[0.421606675599876, -0.110289106423243, 0.313325280550727, -1.1377496960717, 1.18329948401332, -1.24261180854367], a = 0.2, v = 0.2, t = 0.2)
movej(p[0.421362875809435, -0.11045505025237, 0.313308004269964, -1.1414348616845, 1.18167561554582, -1.24857356550844], a = 0.2, v = 0.2, t = 0.2)
movej(p[0.420805441483702, -0.110530044257882, 0.313182212683473, -1.13727626183157, 1.17997897023498, -1.25251742685868], a = 0.2, v = 0.2, t = 0.2)
movej(p[0.419861260102708, -0.110464344348253, 0.31302371524293, -1.13528279356226, 1.17614505422195, -1.26057531975595], a = 0.2, v = 0.2, t = 0.2)
movej(p[0.418745464195481, -0.110491387971026, 0.312975064332526, -1.12512167274205, 1.17192608830801, -1.25309263747542], a = 0.2, v = 0.2, t = 0.2)
movej(p[0.41763125910143, -0.110407826131322, 0.312992790210111, -1.12945790036824, 1.16115869933291, -1.26925083250699], a = 0.2, v = 0.2, t = 0.2)
movej(p[0.416878465697222, -0.11018787890856, 0.312973634218742, -1.13528121546204, 1.15032382385664, -1.27668080790284], a = 0.2, v = 0.2, t = 0.2)
movej(p[0.416461268778909, -0.110031375135841, 0.312947821551721, -1.13421627492094, 1.14319176044178, -1.27131452822279], a = 0.2, v = 0.2, t = 0.2)
movej(p[0.416413742649441, -0.11013865247295, 0.313095882626905, -1.12894751332089, 1.14139348157336, -1.25956803369102], a = 0.2, v = 0.2, t = 0.2)
movej(p[0.417125408632429, -0.110157064106222, 0.313209368909664, -1.12290767937829, 1.14427479706964, -1.25218750630043], a = 0.2, v = 0.2, t = 0.2)
movej(p[0.418312382282593, -0.110100058145264, 0.313319415895268, -1.12854823474268, 1.14869999076476, -1.253791410876], a = 0.2, v = 0.2, t = 0.2)
movej(p[0.419712154291946, -0.110091325839363, 0.313414403222504, -1.12899460404227, 1.159609672026, -1.2426724732991], a = 0.2, v = 0.2, t = 0.2)
movej(p[0.420676118450329, -0.110197987741285, 0.313508711763577, -1.13147570101184, 1.16917045674148, -1.2401760087232], a = 0.2, v = 0.2, t = 0.2)
movej(p[0.421264785741554, -0.110220916692656, 0.313463304572692, -1.1339472648697, 1.17767387502926, -1.23600236092899], a = 0.2, v = 0.2, t = 0.2)
movej(p[0.421518167842999, -0.11027922349262, 0.313394384269548, -1.13559824398623, 1.18177467387136, -1.23532183369537], a = 0.2, v = 0.2, t = 0.2)
movej(p[0.421485346882101, -0.11040649270326, 0.313343918971474, -1.13302884099636, 1.1849902207059, -1.23209353521605], a = 0.2, v = 0.2, t = 0.2)
movej(p[0.421206581241546, -0.110507277972468, 0.313282105961856, -1.13656399120768, 1.1837455330777, -1.24443790819116], a = 0.2, v = 0.2, t = 0.2)
movej(p[0.420635267424055, -0.110494967060414, 0.31313177737599, -1.13484403583678, 1.1822037915706, -1.24855246001625], a = 0.2, v = 0.2, t = 0.2)
movej(p[0.419785571257494, -0.110547865372067, 0.313082203816952, -1.13504479789875, 1.17810963911158, -1.25361836749928], a = 0.2, v = 0.2, t = 0.2)
movej(p[0.418784866745869, -0.1105148447536, 0.313045254384344, -1.12946543073504, 1.17216941456789, -1.26155781348168], a = 0.2, v = 0.2, t = 0.2)
movej(p[0.418014296744255, -0.110291957983402, 0.312988742954675, -1.130902198318, 1.16396938969098, -1.27169498078481], a = 0.2, v = 0.2, t = 0.2)
movej(p[0.417385841364325, -0.110050612746472, 0.312904145275603, -1.12886874260255, 1.15621510808075, -1.27081292536275], a = 0.2, v = 0.2, t = 0.2)
movej(p[0.417013793392951, -0.109994443369878, 0.31293975573931, -1.13348525104215, 1.14877786853614, -1.27063168650188], a = 0.2, v = 0.2, t = 0.2)
movej(p[0.416880844592579, -0.110008496481105, 0.312974101661114, -1.13004692876329, 1.14596151296065, -1.26857705332655], a = 0.2, v = 0.2, t = 0.2)
movej(p[0.417343568311947, -0.109971863655435, 0.313008719295605, -1.13610115513512, 1.14511067001882, -1.27130177957429], a = 0.2, v = 0.2, t = 0.2)
movej(p[0.418179410793434, -0.110019102526766, 0.313099780919118, -1.1319804638188, 1.14998550180982, -1.25830562897311], a = 0.2, v = 0.2, t = 0.2)
movej(p[0.41912492901573, -0.11015041673107, 0.313291861673652, -1.14097411976161, 1.15366735956888, -1.26530573691917], a = 0.2, v = 0.2, t = 0.2)
movej(p[0.420105681744656, -0.110188541488631, 0.313379578781663, -1.14103574305406, 1.1627116480305, -1.25742103450388], a = 0.2, v = 0.2, t = 0.2)
movej(p[0.420839774908221, -0.110203360019458, 0.313391304321554, -1.14369552798022, 1.17100587147058, -1.25194570323161], a = 0.2, v = 0.2, t = 0.2)
movej(p[0.421273423874149, -0.110371152683974, 0.313428185003406, -1.13551786854526, 1.17950414402537, -1.23367400121443], a = 0.2, v = 0.2, t = 0.2)
movej(p[0.421357764164458, -0.110500101562884, 0.313394518909804, -1.13840647626771, 1.18089008008478, -1.24349008935385], a = 0.2, v = 0.2, t = 0.2)
movej(p[0.421272845812312, -0.110508638035183, 0.313318631366093, -1.13977530266478, 1.18206477132458, -1.24712082560242], a = 0.2, v = 0.2, t = 0.2)
movej(p[0.420887483187528, -0.110536736994766, 0.313211305168865, -1.14476454944435, 1.17924217417513, -1.25554241159679], a = 0.2, v = 0.2, t = 0.2)
movej(p[0.420098607267729, -0.110690591302184, 0.31321496059632, -1.13716568961938, 1.17894943191762, -1.25243593795094], a = 0.2, v = 0.2, t = 0.2)
movej(p[0.419257982525108, -0.110623146807613, 0.313101314806497, -1.12790031252588, 1.17615200586853, -1.25604856895981], a = 0.2, v = 0.2, t = 0.2)
movej(p[0.418457774070743, -0.110381876633434, 0.312971395604238, -1.12118023366054, 1.17203876285147, -1.25694031938666], a = 0.2, v = 0.2, t = 0.2)
movej(p[0.417744966138402, -0.110238213117974, 0.31295609233967, -1.12084122503898, 1.16479791993489, -1.25429804058218], a = 0.2, v = 0.2, t = 0.2)
movej(p[0.417107826204912, -0.110180493357409, 0.313018078210098, -1.12233601418514, 1.15621919321102, -1.25991597495194], a = 0.2, v = 0.2, t = 0.2)
movej(p[0.417016711469064, -0.110041197260168, 0.313040252267482, -1.12761843553379, 1.15057199199089, -1.26328829272442], a = 0.2, v = 0.2, t = 0.2)
movej(p[0.417472767309658, -0.109954464754001, 0.31308090387304, -1.13003932817168, 1.14805571886759, -1.26338047569032], a = 0.2, v = 0.2, t = 0.2)
movej(p[0.418429246985269, -0.109965870312246, 0.313191105404261, -1.13589502791987, 1.15021755823737, -1.26363409747432], a = 0.2, v = 0.2, t = 0.2)
movej(p[0.41950140835565, -0.109988215866353, 0.31328249930709, -1.13949238228492, 1.15640963137592, -1.26560061760731], a = 0.2, v = 0.2, t = 0.2)
movej(p[0.420591881321495, -0.109940577549197, 0.313267344291413, -1.13974731992913, 1.16707258817414, -1.25317544498197], a = 0.2, v = 0.2, t = 0.2)
movej(p[0.421276930443928, -0.110073609427989, 0.313317025110682, -1.14036460899838, 1.17567404961951, -1.24063649414749], a = 0.2, v = 0.2, t = 0.2)
movej(p[0.421507559334765, -0.110255673609206, 0.313384432161567, -1.13994827515262, 1.18230555564348, -1.23734035811168], a = 0.2, v = 0.2, t = 0.2)
movej(p[0.421577365792432, -0.110333418404419, 0.31335744840569, -1.15027123311534, 1.18152708011148, -1.25317498677925], a = 0.2, v = 0.2, t = 0.2)
movej(p[0.421419064698598, -0.110346964651986, 0.313245273633715, -1.14953265442399, 1.18094514075343, -1.25411983795407], a = 0.2, v = 0.2, t = 0.2)
movej(p[0.421029468155854, -0.110558586082398, 0.313190945536271, -1.14553258236836, 1.1785112137852, -1.25014309036544], a = 0.2, v = 0.2, t = 0.2)
movej(p[0.420243164101531, -0.11062970836093, 0.3131193722923, -1.13474728845801, 1.17655765367433, -1.25409785448775], a = 0.2, v = 0.2, t = 0.2)
movej(p[0.419392958080858, -0.110500795282838, 0.312994544447618, -1.1300548398378, 1.17371752773352, -1.25890925198132], a = 0.2, v = 0.2, t = 0.2)
movej(p[0.418464430045184, -0.11026617012401, 0.312915171134643, -1.12715306619522, 1.16793403619893, -1.26277027641471], a = 0.2, v = 0.2, t = 0.2)
movej(p[0.417598963998541, -0.110212712699264, 0.313026265157218, -1.13196593329287, 1.16045498909579, -1.26916926880808], a = 0.2, v = 0.2, t = 0.2)
movej(p[0.4169899959249, -0.110058073276668, 0.313068355687756, -1.13234557386608, 1.15198724215284, -1.27398620361354], a = 0.2, v = 0.2, t = 0.2)
movej(p[0.416981365495278, -0.109877015737327, 0.313085240085774, -1.13643527873171, 1.14537224376379, -1.27457024871236], a = 0.2, v = 0.2, t = 0.2)
movej(p[0.417554211319585, -0.109832660024407, 0.313148864449077, -1.13313047771081, 1.14592806067709, -1.26320189501876], a = 0.2, v = 0.2, t = 0.2)
movej(p[0.418467596511069, -0.109931439888135, 0.313285343300919, -1.13846849878149, 1.14829948337692, -1.26720976006747], a = 0.2, v = 0.2, t = 0.2)
movej(p[0.419684732421207, -0.109953338483613, 0.313360136904045, -1.13812664947485, 1.15995252313046, -1.25985128362575], a = 0.2, v = 0.2, t = 0.2)
movej(p[0.420693910769147, -0.109993442324649, 0.313400340296722, -1.1404437560605, 1.16854601318789, -1.25498318010708], a = 0.2, v = 0.2, t = 0.2)
movej(p[0.421317080011854, -0.110138511872505, 0.313478495943851, -1.1310952004902, 1.1808286055971, -1.235185579146], a = 0.2, v = 0.2, t = 0.2)
movej(p[0.421577327981514, -0.110209597662691, 0.313482547133161, -1.13543417342612, 1.1843120591516, -1.24493554735308], a = 0.2, v = 0.2, t = 0.2)
movej(p[0.421690532699537, -0.110226387929758, 0.313419191746823, -1.13906430958573, 1.1859345698715, -1.24856102855483], a = 0.2, v = 0.2, t = 0.2)
movej(p[0.421695303823212, -0.110323529946105, 0.313385498836844, -1.13953335562209, 1.18687729979046, -1.24621248501797], a = 0.2, v = 0.2, t = 0.2)
movej(p[0.421395479173025, -0.110532458840784, 0.313362927308139, -1.13417506904548, 1.18602916760551, -1.24490958151592], a = 0.2, v = 0.2, t = 0.2)
movej(p[0.420868511944141, -0.110529953290865, 0.313216017364288, -1.13075620899479, 1.18406523942736, -1.25187332597128], a = 0.2, v = 0.2, t = 0.2)
movej(p[0.419955199586052, -0.11047000100662, 0.313056308797279, -1.12935585139986, 1.17971343844772, -1.26079878482358], a = 0.2, v = 0.2, t = 0.2)
movej(p[0.418882033840678, -0.110429205745205, 0.313049059962821, -1.13036311376732, 1.17472147014205, -1.26715830307041], a = 0.2, v = 0.2, t = 0.2)
movej(p[0.417984930295988, -0.110327565445416, 0.313109612568578, -1.12614414767326, 1.1691786251884, -1.26828646282465], a = 0.2, v = 0.2, t = 0.2)
movej(p[0.417320213221759, -0.110068987748276, 0.313167741761757, -1.12700548090097, 1.16156576917337, -1.26741038648118], a = 0.2, v = 0.2, t = 0.2)
movej(p[0.416763930286851, -0.109912432125576, 0.313354562746862, -1.13000002337986, 1.15329001313625, -1.26269788665991], a = 0.2, v = 0.2, t = 0.2)
movej(p[0.4162407314338, -0.109897508751586, 0.313620780162653, -1.13300882918511, 1.14648250190487, -1.26109535801383], a = 0.2, v = 0.2, t = 0.2)
movej(p[0.416249505998433, -0.109839284539193, 0.313809277137978, -1.13666228789609, 1.14171401931686, -1.26823659980769], a = 0.2, v = 0.2, t = 0.2)
movej(p[0.416981991999755, -0.109693369009756, 0.313842881020746, -1.13917203483897, 1.13999665565561, -1.27092554266907], a = 0.2, v = 0.2, t = 0.2)
movej(p[0.418104939165785, -0.10973554217884, 0.313905193396026, -1.13623887026961, 1.14364228289045, -1.2628242541173], a = 0.2, v = 0.2, t = 0.2)
movej(p[0.419130971746117, -0.109804351170784, 0.313984998879076, -1.13760841155977, 1.1502987189695, -1.26803317217054], a = 0.2, v = 0.2, t = 0.2)
movej(p[0.42009996083996, -0.109880752833049, 0.31401136166378, -1.1440188636428, 1.15897791607912, -1.26878100743893], a = 0.2, v = 0.2, t = 0.2)
movej(p[0.420843497113404, -0.109930890642872, 0.313973267544825, -1.14709124971558, 1.1684797050622, -1.26630241714851], a = 0.2, v = 0.2, t = 0.2)
movej(p[0.421303513420459, -0.110154297736057, 0.313990701264275, -1.14817174267936, 1.17580372955884, -1.25867476623405], a = 0.2, v = 0.2, t = 0.2)
movej(p[0.421462211697969, -0.110224443595855, 0.313916841263128, -1.14084015069135, 1.18167568011347, -1.25133322323128], a = 0.2, v = 0.2, t = 0.2)
movej(p[0.421562810688555, -0.110223706283497, 0.313803412356699, -1.14248649950589, 1.18389554609352, -1.25292365904763], a = 0.2, v = 0.2, t = 0.2)
movej(p[0.42156336130395, -0.110279731077278, 0.313738615833694, -1.138389954244, 1.18649087396355, -1.24478554752407], a = 0.2, v = 0.2, t = 0.2)
movej(p[0.421483117932168, -0.110438168014029, 0.313730797944791, -1.14116019567075, 1.18592389721788, -1.24895404937909], a = 0.2, v = 0.2, t = 0.2)
movej(p[0.421245127439341, -0.110476838271884, 0.313611523225963, -1.13884103968415, 1.1868530416507, -1.2486912784956], a = 0.2, v = 0.2, t = 0.2)
movej(p[0.420666912530523, -0.110507056990237, 0.313467139384323, -1.13800903836007, 1.18369842726344, -1.25443510629741], a = 0.2, v = 0.2, t = 0.2)
movej(p[0.419700000255457, -0.110597897299577, 0.313421614247022, -1.13291884937044, 1.18081056355259, -1.25455312252068], a = 0.2, v = 0.2, t = 0.2)
movej(p[0.418725948366554, -0.110508170497475, 0.313401941227224, -1.13316662348754, 1.17255077083496, -1.27081151131574], a = 0.2, v = 0.2, t = 0.2)
movej(p[0.417994061105616, -0.110225287967096, 0.313358977477585, -1.13710809820909, 1.1646643060266, -1.27882541768544], a = 0.2, v = 0.2, t = 0.2)
movej(p[0.417439875721851, -0.110007986973992, 0.313374304275737, -1.13702641408952, 1.15680419776423, -1.27865908969536], a = 0.2, v = 0.2, t = 0.2)
movej(p[0.417077966404791, -0.109990626527126, 0.313485472275713, -1.13304462494208, 1.15286424655011, -1.26816079500596], a = 0.2, v = 0.2, t = 0.2)
movej(p[0.417297767336824, -0.109987819807856, 0.313582766809299, -1.13540256231478, 1.14996532149971, -1.2717134350714], a = 0.2, v = 0.2, t = 0.2)
movej(p[0.418064464572744, -0.109946218749712, 0.313644484921665, -1.14017780215209, 1.14967082961479, -1.27090407668691], a = 0.2, v = 0.2, t = 0.2)
movej(p[0.419182759645357, -0.110050291322199, 0.313780979561574, -1.14351678508191, 1.15348543969051, -1.26680007279191], a = 0.2, v = 0.2, t = 0.2)
movej(p[0.420083710151602, -0.110104799220813, 0.313844462259462, -1.14207547589375, 1.16112826838835, -1.26603044144405], a = 0.2, v = 0.2, t = 0.2)
movej(p[0.420948972575195, -0.110094476595072, 0.313829137193744, -1.1503656578638, 1.16890783544882, -1.27034472599305], a = 0.2, v = 0.2, t = 0.2)
movej(p[0.421398462283342, -0.110102185203927, 0.313751224721188, -1.14930148279533, 1.17705046455633, -1.26199510925717], a = 0.2, v = 0.2, t = 0.2)
movej(p[0.421543329175605, -0.110295412212533, 0.313744655592966, -1.15093087789601, 1.18082172323969, -1.25617086269892], a = 0.2, v = 0.2, t = 0.2)
movej(p[0.421217846201353, -0.110397672624716, 0.313612805673762, -1.13642774705525, 1.18330989790985, -1.24624412748049], a = 0.2, v = 0.2, t = 0.2)
movej(p[0.420520719553316, -0.110368987107069, 0.313396102271647, -1.13311141693968, 1.18004150798716, -1.25252353900516], a = 0.2, v = 0.2, t = 0.2)
movej(p[0.41944536233941, -0.110341013355236, 0.313260163855413, -1.12449394967406, 1.17558348922391, -1.25074212771548], a = 0.2, v = 0.2, t = 0.2)
movej(p[0.418284342718422, -0.110266635788305, 0.313289206433107, -1.13098510049274, 1.16718034018716, -1.27093345630493], a = 0.2, v = 0.2, t = 0.2)
movej(p[0.417458635925808, -0.110006819091432, 0.313329897281673, -1.13848051398366, 1.15858667080692, -1.28235986138685], a = 0.2, v = 0.2, t = 0.2)
movej(p[0.416967779248006, -0.109713155353234, 0.313350769968746, -1.14644206694322, 1.14863241424871, -1.29191690262731], a = 0.2, v = 0.2, t = 0.2)
movej(p[0.416887775594484, -0.109741307773338, 0.313466133851263, -1.14084231914445, 1.14523139530002, -1.2742601108703], a = 0.2, v = 0.2, t = 0.2)
movej(p[0.41711345248732, -0.109811398731909, 0.313553635693389, -1.13826864417214, 1.14343269068014, -1.274628100649], a = 0.2, v = 0.2, t = 0.2)
movej(p[0.417847687792557, -0.109830265352669, 0.313616427008591, -1.14200810783233, 1.14538612374602, -1.27339709270099], a = 0.2, v = 0.2, t = 0.2)
movej(p[0.418663708982414, -0.109889623975781, 0.313696986745853, -1.14570155765426, 1.15021089222823, -1.27390176418573], a = 0.2, v = 0.2, t = 0.2)
movej(p[0.419307709969057, -0.110080823117066, 0.313805993731746, -1.14136878242569, 1.1575349040621, -1.26339448023493], a = 0.2, v = 0.2, t = 0.2)
movej(p[0.419721693592603, -0.110151724854672, 0.313772496399592, -1.13641838354662, 1.16412919432474, -1.25922251236406], a = 0.2, v = 0.2, t = 0.2)
movej(p[0.419789722892824, -0.110191603683407, 0.313663352723296, -1.13579811671205, 1.16656179789327, -1.25807020416006], a = 0.2, v = 0.2, t = 0.2)
movej(p[0.419254110140894, -0.11029222057017, 0.313577622902133, -1.13376072093079, 1.16870264223668, -1.25220352976929], a = 0.2, v = 0.2, t = 0.2)
movej(p[0.41822409237558, -0.110306681908432, 0.31349070794031, -1.13183546726243, 1.16502924183002, -1.26109812294011], a = 0.2, v = 0.2, t = 0.2)
movej(p[0.417143605008267, -0.110098355806585, 0.313368357450277, -1.13085132469145, 1.15942716503081, -1.26370092439771], a = 0.2, v = 0.2, t = 0.2)
movej(p[0.416173192902831, -0.109884117248534, 0.313386405545042, -1.13259574309486, 1.14870737701143, -1.26613863909247], a = 0.2, v = 0.2, t = 0.2)
movej(p[0.415163139462918, -0.109791712581364, 0.31361050511243, -1.13289267598508, 1.14122443372311, -1.25891518459597], a = 0.2, v = 0.2, t = 0.2)
movej(p[0.414323608179941, -0.109695556413531, 0.313950786888596, -1.13708315913785, 1.13112499828955, -1.2643306293096], a = 0.2, v = 0.2, t = 0.2)
movej(p[0.413787719221936, -0.1095212341928, 0.314217939798646, -1.14449349131489, 1.1206267300027, -1.27170586941128], a = 0.2, v = 0.2, t = 0.2)
movej(p[0.413954478916227, -0.10944882998039, 0.314353211249017, -1.15121514258503, 1.1109580653455, -1.2747910665709], a = 0.2, v = 0.2, t = 0.2)
movej(p[0.414463388651422, -0.109443741105349, 0.314238934351639, -1.15293090924015, 1.10828575413734, -1.28012950474509], a = 0.2, v = 0.2, t = 0.2)
movej(p[0.415418408248096, -0.109404510044954, 0.314025009843298, -1.1532093676892, 1.11179326998167, -1.28022143927309], a = 0.2, v = 0.2, t = 0.2)
movej(p[0.416279632666905, -0.109405090665659, 0.313877307102203, -1.14757772926285, 1.12033462242473, -1.27219877731466], a = 0.2, v = 0.2, t = 0.2)
movej(p[0.417093950846983, -0.109646015835852, 0.313939516110897, -1.14765788929671, 1.12843023101781, -1.26704529714706], a = 0.2, v = 0.2, t = 0.2)
movej(p[0.417801622642541, -0.109794125971793, 0.313906774892179, -1.14676406183674, 1.1347681012272, -1.27033687599334], a = 0.2, v = 0.2, t = 0.2)
movej(p[0.418578498942942, -0.109863497961138, 0.31381401473495, -1.15404066621661, 1.13964792341039, -1.27692000377923], a = 0.2, v = 0.2, t = 0.2)
movej(p[0.419274971884116, -0.109949417776663, 0.313719199687551, -1.1496103778875, 1.14583111835844, -1.26917190885775], a = 0.2, v = 0.2, t = 0.2)
movej(p[0.419820183600348, -0.110070744505743, 0.313686085717477, -1.15614998859859, 1.15152648905457, -1.27405485915505], a = 0.2, v = 0.2, t = 0.2)
movej(p[0.420196652322111, -0.11015742596365, 0.313600549153041, -1.15975411045774, 1.15618107987464, -1.27599489917221], a = 0.2, v = 0.2, t = 0.2)
movej(p[0.420301503671524, -0.110172024432348, 0.313485440212736, -1.16571552808208, 1.15878272153543, -1.28090836860149], a = 0.2, v = 0.2, t = 0.2)
movej(p[0.419968104207835, -0.110346858803458, 0.313424922749046, -1.15695759540665, 1.16116731325019, -1.27259539563256], a = 0.2, v = 0.2, t = 0.2)
movej(p[0.419359541672247, -0.110263601193981, 0.313313232464153, -1.14874747085076, 1.16064138178616, -1.27789676653164], a = 0.2, v = 0.2, t = 0.2)
movej(p[0.418619091689351, -0.109981073243724, 0.313181931691463, -1.14646309387802, 1.15743439056975, -1.28586316084285], a = 0.2, v = 0.2, t = 0.2)
movej(p[0.417994804037282, -0.109734777462985, 0.31316128396123, -1.14597589424494, 1.15222121425468, -1.28791857083952], a = 0.2, v = 0.2, t = 0.2)
movej(p[0.417452784193912, -0.10979274166963, 0.313281983400507, -1.14434629189787, 1.14785145601355, -1.28539499167937], a = 0.2, v = 0.2, t = 0.2)
movej(p[0.417644543751846, -0.109829018562201, 0.313355352183422, -1.13925073301548, 1.14584260806088, -1.27728125039763], a = 0.2, v = 0.2, t = 0.2)
movej(p[0.418327044869375, -0.109846562000663, 0.313393407864191, -1.13827185823029, 1.14731843651978, -1.26991235402498], a = 0.2, v = 0.2, t = 0.2)
movej(p[0.419444218355724, -0.109894022951716, 0.313483572111667, -1.13762864826175, 1.15443311639092, -1.25711323286512], a = 0.2, v = 0.2, t = 0.2)
movej(p[0.42033699889335, -0.109947453737712, 0.313538561172809, -1.14305897394047, 1.16245849776497, -1.25884821393333], a = 0.2, v = 0.2, t = 0.2)
movej(p[0.420985450421124, -0.109948451785577, 0.31350562164749, -1.14557149802413, 1.17095341344894, -1.25498208562347], a = 0.2, v = 0.2, t = 0.2)
movej(p[0.421285945427807, -0.110054258127776, 0.313458177355602, -1.14467996352521, 1.17590695798697, -1.25039834275088], a = 0.2, v = 0.2, t = 0.2)
movej(p[0.421249601912187, -0.110235100127558, 0.313447818232836, -1.14111759331593, 1.18038528354771, -1.24831537783233], a = 0.2, v = 0.2, t = 0.2)
movej(p[0.420943254415733, -0.11032525152593, 0.313361979171187, -1.14504742050089, 1.17860337872734, -1.26139260285779], a = 0.2, v = 0.2, t = 0.2)
movej(p[0.420297365141019, -0.110291781311191, 0.313222240938999, -1.14629764046037, 1.17574790532785, -1.27230635367366], a = 0.2, v = 0.2, t = 0.2)
movej(p[0.419440264992397, -0.110312563675254, 0.313192229063426, -1.1482866220156, 1.17191298611934, -1.27893207599563], a = 0.2, v = 0.2, t = 0.2)
movej(p[0.418540982387647, -0.110202464276488, 0.313202435104545, -1.14301971402218, 1.167328906332, -1.28506880114431], a = 0.2, v = 0.2, t = 0.2)
movej(p[0.417884740081056, -0.109941755382702, 0.313195052407885, -1.14129871281867, 1.16218779339863, -1.28587705473301], a = 0.2, v = 0.2, t = 0.2)
movej(p[0.417492748759408, -0.109735758133164, 0.313187031769786, -1.13687864351865, 1.15471809945518, -1.27876535112443], a = 0.2, v = 0.2, t = 0.2)
movej(p[0.417436663188468, -0.109809461130152, 0.313334280754391, -1.13962252835173, 1.14992960197812, -1.27197323169247], a = 0.2, v = 0.2, t = 0.2)
movej(p[0.417840349599748, -0.109917565220862, 0.313471314827146, -1.14261175857156, 1.14848626723413, -1.27609331709368], a = 0.2, v = 0.2, t = 0.2)
movej(p[0.418841454084336, -0.109931936607491, 0.313534665240286, -1.14898333295157, 1.15160023637728, -1.27747934230342], a = 0.2, v = 0.2, t = 0.2)
movej(p[0.419930363468027, -0.109993753604479, 0.313569721156613, -1.14485382266076, 1.1595888481343, -1.26459474179762], a = 0.2, v = 0.2, t = 0.2)
movej(p[0.420667631454369, -0.110152031571031, 0.313653289197512, -1.1530305131209, 1.16482426869482, -1.26792383785764], a = 0.2, v = 0.2, t = 0.2)
movej(p[0.421089830125113, -0.110236851792699, 0.313625047272283, -1.15473262328628, 1.17103314400567, -1.26347021908322], a = 0.2, v = 0.2, t = 0.2)
movej(p[0.421260663931998, -0.110272429493961, 0.313540843610458, -1.15817676041902, 1.17382696537872, -1.26425313773919], a = 0.2, v = 0.2, t = 0.2)
movej(p[0.421210585641087, -0.110430217773365, 0.313483480959064, -1.15106122365179, 1.17584951336651, -1.25536163489736], a = 0.2, v = 0.2, t = 0.2)
movej(p[0.420873603418122, -0.110520481894244, 0.3133633194771, -1.15288140428996, 1.17387822663894, -1.2709018143049], a = 0.2, v = 0.2, t = 0.2)
movej(p[0.42029518870778, -0.110448298000863, 0.313200631082627, -1.15504700632397, 1.17024694728076, -1.28387315928974], a = 0.2, v = 0.2, t = 0.2)
movej(p[0.419521013158107, -0.110336286329983, 0.313094272826835, -1.15154801723334, 1.16784272504089, -1.28740973479996], a = 0.2, v = 0.2, t = 0.2)
movej(p[0.418586335789596, -0.110317111850605, 0.313161349536155, -1.1372372756656, 1.1665213512605, -1.27328353711047], a = 0.2, v = 0.2, t = 0.2)
movej(p[0.417952644356073, -0.110112900120282, 0.313172502887333, -1.13031678096951, 1.16244469526841, -1.27432110960017], a = 0.2, v = 0.2, t = 0.2)
movej(p[0.417701875301102, -0.109846634173753, 0.313158922526065, -1.13519274839169, 1.15639406140654, -1.27744408331224], a = 0.2, v = 0.2, t = 0.2)
movej(p[0.417955208763907, -0.1098062302028, 0.313234213653394, -1.14046601013022, 1.1522733326096, -1.27701105879466], a = 0.2, v = 0.2, t = 0.2)
movej(p[0.418521895310671, -0.109907153723787, 0.313383076788952, -1.14433936051322, 1.15151225520765, -1.27930349958961], a = 0.2, v = 0.2, t = 0.2)
movej(p[0.419434715045624, -0.109952829446474, 0.313442002303256, -1.14631015275914, 1.15619638689633, -1.27923183265311], a = 0.2, v = 0.2, t = 0.2)
movej(p[0.420390079880001, -0.109932916597058, 0.313438054042228, -1.14849952441576, 1.16333455462375, -1.27320520286267], a = 0.2, v = 0.2, t = 0.2)
movej(p[0.421113534244398, -0.11009803281294, 0.31349269698918, -1.14976026416852, 1.17138390098464, -1.26096289183432], a = 0.2, v = 0.2, t = 0.2)
movej(p[0.421309658217787, -0.110199609368358, 0.313496136039585, -1.14888978463211, 1.17507631619346, -1.26199577104959], a = 0.2, v = 0.2, t = 0.2)
movej(p[0.421502709803166, -0.110217923147778, 0.313422905598458, -1.15365985621747, 1.17577588427396, -1.26822465079025], a = 0.2, v = 0.2, t = 0.2)
movej(p[0.42155209518379, -0.11022483101821, 0.313335336962248, -1.15353169860084, 1.17709216371437, -1.26836697904473], a = 0.2, v = 0.2, t = 0.2)
movej(p[0.421593940617255, -0.110446014168044, 0.313367331284612, -1.14639621695427, 1.180673448602, -1.25792051139883], a = 0.2, v = 0.2, t = 0.2)
movej(p[0.421518977411423, -0.110519968109799, 0.31331294343422, -1.13899948206466, 1.18301172134202, -1.2571345190224], a = 0.2, v = 0.2, t = 0.2)
movej(p[0.421379791986996, -0.110498333903738, 0.313213813269008, -1.14182010026519, 1.18170887377814, -1.25960036730729], a = 0.2, v = 0.2, t = 0.2)
movej(p[0.420902763238493, -0.110556150457692, 0.313146773390648, -1.14489851537775, 1.17920761767034, -1.26473751512352], a = 0.2, v = 0.2, t = 0.2)
movej(p[0.420066612787513, -0.110730372071386, 0.313178193103376, -1.14280546019469, 1.17686300403093, -1.27049332687685], a = 0.2, v = 0.2, t = 0.2)
movej(p[0.419216659894083, -0.110609229979317, 0.313115143619006, -1.13844897891194, 1.17358907442627, -1.27739604370171], a = 0.2, v = 0.2, t = 0.2)
movej(p[0.41844902927745, -0.110341724697679, 0.313045898468246, -1.13673902634894, 1.16729352669345, -1.28248857662162], a = 0.2, v = 0.2, t = 0.2)
movej(p[0.417832712747352, -0.110171966302269, 0.313071083759575, -1.13563805311524, 1.16037396913501, -1.27677437628095], a = 0.2, v = 0.2, t = 0.2)
movej(p[0.417230291028176, -0.110121854272667, 0.313166404142651, -1.13565279419302, 1.15212868977868, -1.28003813600744], a = 0.2, v = 0.2, t = 0.2)
movej(p[0.417255630883729, -0.109989805527658, 0.313199170648815, -1.13648809803955, 1.14782329329255, -1.27595529778424], a = 0.2, v = 0.2, t = 0.2)
movej(p[0.417813601938511, -0.109893236584871, 0.313226151781388, -1.14294187573084, 1.1436463558466, -1.28121911768766], a = 0.2, v = 0.2, t = 0.2)
movej(p[0.418875631034681, -0.109993797135764, 0.313343153989452, -1.14475128159024, 1.14764062756317, -1.27212612981454], a = 0.2, v = 0.2, t = 0.2)
movej(p[0.419919886452799, -0.110041791938941, 0.313396807733956, -1.13966240911388, 1.15645610141768, -1.2697673675718], a = 0.2, v = 0.2, t = 0.2)
movej(p[0.420863840873768, -0.110001914433854, 0.313329961520737, -1.1391786735016, 1.16691029296308, -1.26061144236937], a = 0.2, v = 0.2, t = 0.2)
movej(p[0.421414795544929, -0.110012106383523, 0.313263316434743, -1.13700321925874, 1.17707957394405, -1.25047264706943], a = 0.2, v = 0.2, t = 0.2)
movej(p[0.421575375964299, -0.110199806611154, 0.313274189738167, -1.14601239329367, 1.17956187562704, -1.25530150137739], a = 0.2, v = 0.2, t = 0.2)
movej(p[0.421581835590705, -0.110295743693036, 0.313251365898336, -1.14499486276219, 1.18172613345263, -1.25802392622823], a = 0.2, v = 0.2, t = 0.2)
movej(p[0.421604642905988, -0.11026791844534, 0.313157843904344, -1.14554734687344, 1.18134009486965, -1.26145414033479], a = 0.2, v = 0.2, t = 0.2)
movej(p[0.421581720739611, -0.110351571839461, 0.31309393588183, -1.13847925787567, 1.18353233480516, -1.25123731247694], a = 0.2, v = 0.2, t = 0.2)
movej(p[0.421343463272365, -0.110493128690084, 0.313094120118644, -1.14294522707326, 1.18117205704506, -1.26384750890271], a = 0.2, v = 0.2, t = 0.2)
movej(p[0.42088002800459, -0.110467837791663, 0.312977930513516, -1.13932501119177, 1.17982518082843, -1.26511150693327], a = 0.2, v = 0.2, t = 0.2)
movej(p[0.420139353439252, -0.11040860086076, 0.312895030078783, -1.14048086403398, 1.17511852829454, -1.2755626074563], a = 0.2, v = 0.2, t = 0.2)
movej(p[0.419240005845483, -0.110385683022056, 0.312945978661192, -1.13308308191427, 1.1730412149268, -1.2715936406893], a = 0.2, v = 0.2, t = 0.2)
movej(p[0.418417864554584, -0.110269143367724, 0.313029373242361, -1.13704267642483, 1.16615505309635, -1.28914058783234], a = 0.2, v = 0.2, t = 0.2)
movej(p[0.417913824644362, -0.109972913406085, 0.313035289155677, -1.14402285649895, 1.15843945115636, -1.29638227549499], a = 0.2, v = 0.2, t = 0.2)
movej(p[0.417743373748438, -0.109802022431165, 0.313054834417753, -1.14544548706071, 1.15176966804019, -1.29544185141009], a = 0.2, v = 0.2, t = 0.2)
movej(p[0.417755984980844, -0.109852923286647, 0.313203735689502, -1.14774975679939, 1.14854053615603, -1.29052490344746], a = 0.2, v = 0.2, t = 0.2)
movej(p[0.418352616121947, -0.109876831564453, 0.31331391046392, -1.14999265775948, 1.14912526024831, -1.29228627313004], a = 0.2, v = 0.2, t = 0.2)
movej(p[0.419308783453164, -0.109850817140279, 0.313376349429708, -1.15594678244263, 1.15322127346122, -1.28974554456772], a = 0.2, v = 0.2, t = 0.2)
movej(p[0.420395750193622, -0.109949001285689, 0.313442509155591, -1.15462967314142, 1.16070958025539, -1.27521610294421], a = 0.2, v = 0.2, t = 0.2)
movej(p[0.421004176437808, -0.110059952529742, 0.313462626009924, -1.1482538326241, 1.16887018039215, -1.26518701782305], a = 0.2, v = 0.2, t = 0.2)
movej(p[0.4214363844642, -0.110097538223056, 0.313410634867597, -1.14169360969119, 1.17637099283716, -1.25343288041746], a = 0.2, v = 0.2, t = 0.2)
movej(p[0.421584607481179, -0.110147836545803, 0.313344914144415, -1.14327948194296, 1.1795453224577, -1.25262543537828], a = 0.2, v = 0.2, t = 0.2)
movej(p[0.421672190233255, -0.110324494633001, 0.313357703408471, -1.14377557188494, 1.18285884364069, -1.24718172426605], a = 0.2, v = 0.2, t = 0.2)
movej(p[0.421635849098606, -0.1104037329963, 0.313340361297463, -1.14194918319922, 1.18456948166896, -1.24856664348566], a = 0.2, v = 0.2, t = 0.2)
movej(p[0.421618908631495, -0.110379876913359, 0.313252953583954, -1.13682997804544, 1.18675268599131, -1.24312813802799], a = 0.2, v = 0.2, t = 0.2)
movej(p[0.421347198939179, -0.110481420697632, 0.313192925844724, -1.13074213208722, 1.18629590094733, -1.23735899412945], a = 0.2, v = 0.2, t = 0.2)
movej(p[0.420720874984572, -0.110620713176401, 0.313149131067137, -1.13500735576134, 1.18249532524877, -1.25645594786025], a = 0.2, v = 0.2, t = 0.2)
movej(p[0.420031972854425, -0.110593132873259, 0.313036369361947, -1.13303918372604, 1.17958596908051, -1.26415894261949], a = 0.2, v = 0.2, t = 0.2)
movej(p[0.419291077950613, -0.110425852152861, 0.312936268691678, -1.13110928836171, 1.17487090352372, -1.27164919300708], a = 0.2, v = 0.2, t = 0.2)
movej(p[0.418548668919396, -0.110402446289662, 0.312996767144023, -1.12364322111548, 1.17078848606397, -1.26009582564792], a = 0.2, v = 0.2, t = 0.2)
movej(p[0.417895342254982, -0.110277286217415, 0.313040455499233, -1.12204240223793, 1.16441917759667, -1.26550303956081], a = 0.2, v = 0.2, t = 0.2)
movej(p[0.417644205394051, -0.110036763915885, 0.313053225430657, -1.12891410933517, 1.15754384764267, -1.26983238764827], a = 0.2, v = 0.2, t = 0.2)
movej(p[0.417859313492381, -0.109890573961099, 0.313111167620403, -1.13293181810069, 1.15310646810854, -1.27036315701503], a = 0.2, v = 0.2, t = 0.2)
movej(p[0.418435480463745, -0.109991031473974, 0.313256317026588, -1.13072440661687, 1.15406985330639, -1.26308388286014], a = 0.2, v = 0.2, t = 0.2)
movej(p[0.419435373078279, -0.110019287307729, 0.313341882548609, -1.13344748652415, 1.15822131809409, -1.26433012296257], a = 0.2, v = 0.2, t = 0.2)
movej(p[0.420477136548636, -0.11000304048187, 0.313361532899235, -1.13527077753978, 1.16695411453438, -1.25638710041141], a = 0.2, v = 0.2, t = 0.2)
movej(p[0.421186514207802, -0.110127665595524, 0.313422612801377, -1.14206206977166, 1.1737169022621, -1.25148760486078], a = 0.2, v = 0.2, t = 0.2)
movej(p[0.421435977809335, -0.110319702951439, 0.313472643498404, -1.14192235500522, 1.17949262527561, -1.24827698658595], a = 0.2, v = 0.2, t = 0.2)
movej(p[0.421553093610995, -0.110376446796427, 0.31340344934361, -1.14220783496908, 1.18263119314826, -1.24564343421991], a = 0.2, v = 0.2, t = 0.2)
movej(p[0.421494003232869, -0.110439609038156, 0.313326809674166, -1.14089890316739, 1.18251876181335, -1.24575331863453], a = 0.2, v = 0.2, t = 0.2)
movej(p[0.421171057093496, -0.110529858062462, 0.313249005916083, -1.14082635431433, 1.18200615317815, -1.24962049814644], a = 0.2, v = 0.2, t = 0.2)
movej(p[0.420565735465393, -0.110481882383311, 0.313110189500925, -1.1443108777297, 1.17764355914397, -1.27044819659027], a = 0.2, v = 0.2, t = 0.2)
movej(p[0.419814243193366, -0.110286085237039, 0.312934715335035, -1.14587461177431, 1.17330588224339, -1.28261207159337], a = 0.2, v = 0.2, t = 0.2)
movej(p[0.419008982604419, -0.11015775026314, 0.312888304590851, -1.13711410250714, 1.16937900900767, -1.27546761810195], a = 0.2, v = 0.2, t = 0.2)
movej(p[0.418167157176849, -0.110038025693196, 0.312924072844594, -1.12912595626571, 1.16435685457669, -1.2754862943706], a = 0.2, v = 0.2, t = 0.2)
movej(p[0.417759644699382, -0.109817867577613, 0.312901201348105, -1.12635719487755, 1.1577312588268, -1.2758524988738], a = 0.2, v = 0.2, t = 0.2)
movej(p[0.417840658965722, -0.109630638975493, 0.312911612793618, -1.13350333311275, 1.15080473200495, -1.28146887173988], a = 0.2, v = 0.2, t = 0.2)
movej(p[0.418485125609296, -0.109727668603728, 0.313052548972667, -1.13713240844424, 1.14925297060378, -1.27628133510873], a = 0.2, v = 0.2, t = 0.2)
movej(p[0.41937805160055, -0.109799227138546, 0.313161187361539, -1.13778668895982, 1.15247928192599, -1.27690356962568], a = 0.2, v = 0.2, t = 0.2)
movej(p[0.420404210307785, -0.109789922729091, 0.313191692002671, -1.13825932293422, 1.16182292514755, -1.27053410944101], a = 0.2, v = 0.2, t = 0.2)
movej(p[0.421150388237538, -0.109819244314809, 0.313164538517426, -1.13651103738243, 1.17066289550308, -1.25951199149144], a = 0.2, v = 0.2, t = 0.2)
movej(p[0.421419299948754, -0.109994843968612, 0.313212751814922, -1.14403302441564, 1.17681306446276, -1.25966825887648], a = 0.2, v = 0.2, t = 0.2)
movej(p[0.421515348385822, -0.110115652152783, 0.313180606220466, -1.14558387995134, 1.18000207617125, -1.25866719403971], a = 0.2, v = 0.2, t = 0.2)
movej(p[0.421563706081396, -0.110136483872862, 0.313102448507614, -1.14816292739795, 1.18038349128585, -1.26196984150601], a = 0.2, v = 0.2, t = 0.2)
movej(p[0.421454119954502, -0.110302520029395, 0.31307237868886, -1.14158222915308, 1.18042167440442, -1.25251691902337], a = 0.2, v = 0.2, t = 0.2)
movej(p[0.421029281043901, -0.110387313154357, 0.312982649871866, -1.14175874078923, 1.17800291556401, -1.26620193738186], a = 0.2, v = 0.2, t = 0.2)
movej(p[0.420359167675025, -0.110319811848316, 0.312825715762649, -1.14046331067521, 1.17537836111727, -1.27483318227351], a = 0.2, v = 0.2, t = 0.2)
movej(p[0.419474897963716, -0.11022449974732, 0.312719338131909, -1.13449555533769, 1.172796589177, -1.27578908208362], a = 0.2, v = 0.2, t = 0.2)
movej(p[0.418584502976599, -0.110199508092078, 0.312755474387726, -1.12727949144519, 1.1682518234401, -1.2727331608233], a = 0.2, v = 0.2, t = 0.2)
movej(p[0.417895005223366, -0.110007834667706, 0.31277527328043, -1.12852483431306, 1.16049678066557, -1.27956890393297], a = 0.2, v = 0.2, t = 0.2)
movej(p[0.417581455423936, -0.109784247438484, 0.312800014483043, -1.13892454706522, 1.15093717432544, -1.2875244327216], a = 0.2, v = 0.2, t = 0.2)
movej(p[0.417758815142382, -0.109721439003115, 0.312887595306966, -1.14375020915433, 1.14768021625208, -1.28558117417215], a = 0.2, v = 0.2, t = 0.2)
movej(p[0.4183177718681, -0.109825918620767, 0.31303286888223, -1.14545722189179, 1.14727064669879, -1.28712276345797], a = 0.2, v = 0.2, t = 0.2)
movej(p[0.41941039731004, -0.109856007828091, 0.313114903078326, -1.14603446067743, 1.15513784520756, -1.27955108769901], a = 0.2, v = 0.2, t = 0.2)
movej(p[0.420439212623407, -0.109936127229206, 0.313173426840552, -1.14466324867988, 1.16265146196805, -1.26888513157294], a = 0.2, v = 0.2, t = 0.2)
movej(p[0.421153799256611, -0.110105618490165, 0.313262504996362, -1.14831114925647, 1.17134138429885, -1.26064300208766], a = 0.2, v = 0.2, t = 0.2)
movej(p[0.421407633494232, -0.110229616921719, 0.313270949199608, -1.15415808179373, 1.17479436903817, -1.26749516938133], a = 0.2, v = 0.2, t = 0.2)
movej(p[0.421497402213293, -0.110268191948167, 0.313217687937685, -1.15811858233624, 1.17738614346478, -1.27007935330502], a = 0.2, v = 0.2, t = 0.2)
movej(p[0.421525503806108, -0.110381971751397, 0.313211764202457, -1.15038839381323, 1.18186378728121, -1.2566867266332], a = 0.2, v = 0.2, t = 0.2)
movej(p[0.421435434169429, -0.110473237807133, 0.313208324446796, -1.13731781122882, 1.18525420386672, -1.24698142833843], a = 0.2, v = 0.2, t = 0.2)
movej(p[0.42143236088956, -0.110465786487773, 0.313165486774232, -1.12548239931733, 1.19043887232226, -1.23463366836292], a = 0.2, v = 0.2, t = 0.2)
movej(p[0.421166494814405, -0.11049398429566, 0.313071021224567, -1.125472170997, 1.18966994790833, -1.23577061606679], a = 0.2, v = 0.2, t = 0.2)
movej(p[0.420646699644942, -0.11061341520242, 0.313070139581732, -1.12905381543067, 1.18818320346467, -1.24019995736099], a = 0.2, v = 0.2, t = 0.2)
movej(p[0.419909973042892, -0.110597792415038, 0.312993962745053, -1.12575924436332, 1.1840839888007, -1.2497605949121], a = 0.2, v = 0.2, t = 0.2)
movej(p[0.419224521998099, -0.11043125630538, 0.312912789741095, -1.12605988772252, 1.17917227393609, -1.25817150529011], a = 0.2, v = 0.2, t = 0.2)
movej(p[0.418576845179017, -0.110332107934276, 0.312858284072294, -1.11660636352298, 1.17534159560036, -1.24791790952749], a = 0.2, v = 0.2, t = 0.2)
movej(p[0.417988467692137, -0.110217665939665, 0.312870045063168, -1.12056853080894, 1.16904680670551, -1.25725368203865], a = 0.2, v = 0.2, t = 0.2)
movej(p[0.41777332564489, -0.110040138378426, 0.312878986341111, -1.12487691488572, 1.1630451356974, -1.25984954318879], a = 0.2, v = 0.2, t = 0.2)
movej(p[0.418002574308209, -0.109901907804711, 0.312952828080371, -1.13341171092448, 1.15706495532915, -1.26786735838076], a = 0.2, v = 0.2, t = 0.2)
movej(p[0.41871030288005, -0.110022220191484, 0.313128406790891, -1.13792352740968, 1.15589262850975, -1.26533892492197], a = 0.2, v = 0.2, t = 0.2)
movej(p[0.419569685833512, -0.110101326843481, 0.313224436981966, -1.13977170694142, 1.15951724826657, -1.26908055834312], a = 0.2, v = 0.2, t = 0.2)
movej(p[0.420518383922839, -0.110115937111885, 0.313254119661906, -1.14572528373043, 1.16749574136254, -1.26693010733251], a = 0.2, v = 0.2, t = 0.2)
movej(p[0.421111535557285, -0.110198287953197, 0.313283854689556, -1.14433699214991, 1.17613059303001, -1.25296219835195], a = 0.2, v = 0.2, t = 0.2)
movej(p[0.421370747663827, -0.11040410852358, 0.313387037783591, -1.14710111963408, 1.18054728514967, -1.24938941051555], a = 0.2, v = 0.2, t = 0.2)
movej(p[0.421498370437737, -0.110455750739293, 0.31333969577544, -1.13628436113697, 1.18610800167848, -1.23487644665507], a = 0.2, v = 0.2, t = 0.2)
movej(p[0.421565085024518, -0.110499056130321, 0.313293213240887, -1.14041374517662, 1.18600915302558, -1.23958255090678], a = 0.2, v = 0.2, t = 0.2)
movej(p[0.421533573694033, -0.110596854117441, 0.313254419448002, -1.13042106634725, 1.18951212833528, -1.22994645569418], a = 0.2, v = 0.2, t = 0.2)
movej(p[0.421380507606541, -0.110655236462836, 0.313190411755449, -1.13992662258466, 1.18609052363502, -1.25198107818018], a = 0.2, v = 0.2, t = 0.2)
movej(p[0.421037589993676, -0.110748995501239, 0.313048089444813, -1.14014239464892, 1.18500623237445, -1.25458497091469], a = 0.2, v = 0.2, t = 0.2)
movej(p[0.420417979284001, -0.110660678714624, 0.312961701196439, -1.14118292835843, 1.18167617286481, -1.25999567771705], a = 0.2, v = 0.2, t = 0.2)
movej(p[0.419565391067746, -0.110742183257066, 0.312984771785195, -1.1311606864941, 1.17988139364159, -1.25691652418581], a = 0.2, v = 0.2, t = 0.2)
movej(p[0.418934860208764, -0.110543145797235, 0.312915470694621, -1.12317508537315, 1.17715487253388, -1.25739513926449], a = 0.2, v = 0.2, t = 0.2)
movej(p[0.418393762690701, -0.110286879563888, 0.312854224665424, -1.12148111957666, 1.17201508449863, -1.25876692608934], a = 0.2, v = 0.2, t = 0.2)
movej(p[0.417978999502073, -0.110177337211334, 0.312863432096801, -1.12774786081217, 1.16384951375093, -1.26186043189873], a = 0.2, v = 0.2, t = 0.2)
