def moving():
set_payload_mass(0.62)
set_tcp(p[0,0,0,0,0,0])
movej(p[0.3781, -0.109, 0.3421, -1.162, 1.114, -1.212], a = 0.2, v = 0.2, t = 0.2)
movej(p[0.379291967766015, -0.110201175340555, 0.343450514955868, -1.162, 1.114, -1.212], a = 0.2, v = 0.2, t = 0.2)
movej(p[0.38048393553203, -0.11140235068111, 0.344801029911737, -1.162, 1.114, -1.212], a = 0.2, v = 0.2, t = 0.2)
movej(p[0.381675903298045, -0.112603526021664, 0.346151544867605, -1.162, 1.114, -1.212], a = 0.2, v = 0.2, t = 0.2)
movej(p[0.38286787106406, -0.113804701362219, 0.347502059823474, -1.162, 1.114, -1.212], a = 0.2, v = 0.2, t = 0.2)
movej(p[0.381675903298045, -0.112603526021664, 0.346151544867605, -1.162, 1.114, -1.212], a = 0.2, v = 0.2, t = 0.2)
movej(p[0.38048393553203, -0.11140235068111, 0.344801029911737, -1.162, 1.114, -1.212], a = 0.2, v = 0.2, t = 0.2)
movej(p[0.379291967766015, -0.110201175340555, 0.343450514955868, -1.162, 1.114, -1.212], a = 0.2, v = 0.2, t = 0.2)
movej(p[0.3781, -0.109, 0.3421, -1.162, 1.114, -1.212], a = 0.2, v = 0.2, t = 0.2)
movej(p[0.378234985132146, -0.109019671656025, 0.342107569679567, -1.16181487560562, 1.11411296388547, -1.21174813294678], a = 0.2, v = 0.2, t = 0.2)
movej(p[0.37837006977749, -0.109039338784526, 0.342115148112702, -1.16162975266551, 1.11422590790426, -1.21149625893213], a = 0.2, v = 0.2, t = 0.2)
movej(p[0.378379125478504, -0.109038926779884, 0.342115944687448, -1.16142704798752, 1.11436234775846, -1.21126840979784], a = 0.2, v = 0.2, t = 0.2)
movej(p[0.378373183344672, -0.109017661666895, 0.34217249790146, -1.16137296517622, 1.11441330320067, -1.21125136482052], a = 0.2, v = 0.2, t = 0.2)
movej(p[0.377748797401099, -0.108782648918263, 0.342531279146021, -1.16172876878812, 1.12052097719511, -1.20725725546703], a = 0.2, v = 0.2, t = 0.2)
movej(p[0.377748797401099, -0.108782648918263, 0.342531279146021, -1.16138669565336, 1.12082353902607, -1.20709572830849], a = 0.2, v = 0.2, t = 0.2)
movej(p[0.377952153474121, -0.108835350518049, 0.342484668965318, -1.16137876906414, 1.12081599754142, -1.20710028177256], a = 0.2, v = 0.2, t = 0.2)
movej(p[0.377954656431537, -0.108842361986423, 0.342459841067392, -1.16037865353515, 1.11859050308968, -1.20831289704918], a = 0.2, v = 0.2, t = 0.2)
movej(p[0.37796036562759, -0.108850309839687, 0.342399048002747, -1.15870507583121, 1.11541662677744, -1.20986127138043], a = 0.2, v = 0.2, t = 0.2)
movej(p[0.378269213461753, -0.108934998254956, 0.342193302558929, -1.15784911925656, 1.11177055938189, -1.21304123244622], a = 0.2, v = 0.2, t = 0.2)
movej(p[0.378935699518455, -0.109095171150848, 0.342250539519398, -1.1583968268276, 1.11140093969462, -1.21365510882093], a = 0.2, v = 0.2, t = 0.2)
movej(p[0.379084490753713, -0.109124932452356, 0.342322287782393, -1.15843638743136, 1.11116047114867, -1.21368321838773], a = 0.2, v = 0.2, t = 0.2)
movej(p[0.37909811836143, -0.109131280512576, 0.34234200707344, -1.15918065759869, 1.10992140746723, -1.21533498547101], a = 0.2, v = 0.2, t = 0.2)
movej(p[0.379100593459018, -0.109132508372999, 0.34232364362467, -1.15830948619282, 1.10872965850634, -1.21619990375854], a = 0.2, v = 0.2, t = 0.2)
movej(p[0.379358562426165, -0.109209123363135, 0.342364262404508, -1.15844660085745, 1.10807750651664, -1.2171733130607], a = 0.2, v = 0.2, t = 0.2)
movej(p[0.379421741500752, -0.109243452772657, 0.342420042563851, -1.15747168811259, 1.1084347578837, -1.21685230967912], a = 0.2, v = 0.2, t = 0.2)
movej(p[0.379420510639567, -0.109243555242883, 0.342434088363244, -1.15641113089285, 1.10950755538018, -1.21673502357801], a = 0.2, v = 0.2, t = 0.2)
movej(p[0.37936855587841, -0.10922830090314, 0.342429646751806, -1.15671726824905, 1.10997530030056, -1.21638057033504], a = 0.2, v = 0.2, t = 0.2)
movej(p[0.378768425891807, -0.109073645081767, 0.342599936875109, -1.1592396131704, 1.1149716891208, -1.21114306893807], a = 0.2, v = 0.2, t = 0.2)
movej(p[0.37704898855113, -0.108622980876815, 0.343047333338956, -1.16273781226695, 1.12590312272028, -1.20097357072927], a = 0.2, v = 0.2, t = 0.2)
movej(p[0.375452892747873, -0.108144134622936, 0.343216933875429, -1.15824127688369, 1.13414792563887, -1.1902374101208], a = 0.2, v = 0.2, t = 0.2)
movej(p[0.373319713854765, -0.107651751796705, 0.343969790098377, -1.15408446027969, 1.14049211683321, -1.18496205300728], a = 0.2, v = 0.2, t = 0.2)
movej(p[0.368937830093831, -0.106416703437326, 0.344864688615336, -1.14283351655906, 1.16134150233918, -1.16294211954098], a = 0.2, v = 0.2, t = 0.2)
movej(p[0.366449443025318, -0.105789826461259, 0.345556881127672, -1.13878621040725, 1.16397564416411, -1.15868210713369], a = 0.2, v = 0.2, t = 0.2)
movej(p[0.366447522532689, -0.105789986343882, 0.345578796559349, -1.13669093113429, 1.16653889302472, -1.16134978513496], a = 0.2, v = 0.2, t = 0.2)
movej(p[0.36731948784306, -0.106197474448351, 0.345652235801073, -1.13420952121449, 1.16255462823891, -1.16478087931535], a = 0.2, v = 0.2, t = 0.2)
movej(p[0.369692008829501, -0.106653320032616, 0.344731091603783, -1.13514959970175, 1.15113390034937, -1.17497131670222], a = 0.2, v = 0.2, t = 0.2)
movej(p[0.372124625067774, -0.107182147197177, 0.34394819446666, -1.1460460900995, 1.13901821751843, -1.18975208811273], a = 0.2, v = 0.2, t = 0.2)
movej(p[0.374280431483823, -0.107672526146226, 0.343296918555199, -1.14894884373914, 1.12840587420351, -1.20074424699222], a = 0.2, v = 0.2, t = 0.2)
movej(p[0.376189568867791, -0.108208559542781, 0.342866526934793, -1.15168339406018, 1.12168316777429, -1.20756981888003], a = 0.2, v = 0.2, t = 0.2)
movej(p[0.376945973245601, -0.108478900189623, 0.342760485047337, -1.15608321157228, 1.11745870930658, -1.21096800156096], a = 0.2, v = 0.2, t = 0.2)
movej(p[0.377551778766387, -0.108616473913884, 0.342588809185966, -1.15600792021594, 1.11738696225188, -1.21101111032898], a = 0.2, v = 0.2, t = 0.2)
movej(p[0.3782230445675, -0.108856631435678, 0.342499418476254, -1.15486966524034, 1.11449180922194, -1.21326186822167], a = 0.2, v = 0.2, t = 0.2)
movej(p[0.378691981878822, -0.10904065514608, 0.342431756950558, -1.15720818275086, 1.1126516691552, -1.21507007315384], a = 0.2, v = 0.2, t = 0.2)
movej(p[0.378920308490939, -0.109089022231237, 0.342358355089051, -1.15727660840147, 1.11178793679321, -1.21470529054872], a = 0.2, v = 0.2, t = 0.2)
movej(p[0.37909105610968, -0.109289968325262, 0.342371852051329, -1.15979848769793, 1.11169389093921, -1.2123964449688], a = 0.2, v = 0.2, t = 0.2)
movej(p[0.379086996886623, -0.109290306258988, 0.342418173304647, -1.1588298958535, 1.11382962062376, -1.20944871192527], a = 0.2, v = 0.2, t = 0.2)
movej(p[0.378783153898603, -0.109117776173468, 0.34243476692457, -1.15904035742097, 1.11442448874339, -1.20891704026197], a = 0.2, v = 0.2, t = 0.2)
movej(p[0.37755142360073, -0.108864345714009, 0.342770173969097, -1.15713633177639, 1.12069654712321, -1.20297889048738], a = 0.2, v = 0.2, t = 0.2)
movej(p[0.375929867474253, -0.108302738500603, 0.343111011637992, -1.15286949034579, 1.12984365896328, -1.19144901426342], a = 0.2, v = 0.2, t = 0.2)
movej(p[0.375079359281319, -0.108104059089387, 0.343333465420405, -1.14956664617731, 1.13669359286263, -1.18265742401155], a = 0.2, v = 0.2, t = 0.2)
movej(p[0.372423042955134, -0.107399250181586, 0.344016329029577, -1.14957527207006, 1.14302418216754, -1.18134501084686], a = 0.2, v = 0.2, t = 0.2)
movej(p[0.37004631812058, -0.10665452794486, 0.344582240109993, -1.14207907215133, 1.15493796616804, -1.16600380507876], a = 0.2, v = 0.2, t = 0.2)
movej(p[0.367381690584204, -0.106072282450669, 0.345312168392005, -1.14169632374918, 1.16447787870528, -1.15508522545476], a = 0.2, v = 0.2, t = 0.2)
movej(p[0.367381690584204, -0.106072282450669, 0.345312168392005, -1.14206185386293, 1.16396534982049, -1.15460018639802], a = 0.2, v = 0.2, t = 0.2)
movej(p[0.368368835207043, -0.106310821932228, 0.345079814568412, -1.14027301371964, 1.15710629213832, -1.1615842662567], a = 0.2, v = 0.2, t = 0.2)
movej(p[0.371591571282556, -0.107086765528087, 0.344234254266817, -1.1529886603219, 1.13964238257894, -1.19063768622721], a = 0.2, v = 0.2, t = 0.2)
movej(p[0.373502661637613, -0.107423508988001, 0.34371514039972, -1.14768114970345, 1.13616526024781, -1.19581417516258], a = 0.2, v = 0.2, t = 0.2)
movej(p[0.375135392415973, -0.108030073118679, 0.343319641384843, -1.14633757791108, 1.13216883235831, -1.19988855650649], a = 0.2, v = 0.2, t = 0.2)
movej(p[0.376297525027298, -0.108313869865798, 0.343030315253945, -1.14766312541437, 1.12523348049064, -1.20743319670678], a = 0.2, v = 0.2, t = 0.2)
movej(p[0.377410108163043, -0.108700331741688, 0.34273820689299, -1.1574091097431, 1.11651770820558, -1.21155278524511], a = 0.2, v = 0.2, t = 0.2)
movej(p[0.377927820149788, -0.108820446435435, 0.342606220343954, -1.16179853764588, 1.1132134993999, -1.21394194526261], a = 0.2, v = 0.2, t = 0.2)
movej(p[0.378313202455733, -0.108912196150499, 0.342508519995695, -1.16179853764588, 1.1132134993999, -1.21394194526261], a = 0.2, v = 0.2, t = 0.2)
movej(p[0.378573844456271, -0.108985688394682, 0.34242802926579, -1.1589878255225, 1.11422588142647, -1.21258730317739], a = 0.2, v = 0.2, t = 0.2)
movej(p[0.378600760850812, -0.109017778608443, 0.342424231123392, -1.15808299758842, 1.11458509996165, -1.21352900443138], a = 0.2, v = 0.2, t = 0.2)
movej(p[0.378654130460115, -0.109032811128278, 0.342411331195086, -1.15663965804105, 1.11503113288578, -1.21672752168908], a = 0.2, v = 0.2, t = 0.2)
movej(p[0.378654130460115, -0.109032811128278, 0.342411331195086, -1.1565900012948, 1.11510661084573, -1.21679866824493], a = 0.2, v = 0.2, t = 0.2)
movej(p[0.377755345554752, -0.108703247647187, 0.342647675236313, -1.15486904432571, 1.12472344462013, -1.21146790802975], a = 0.2, v = 0.2, t = 0.2)
movej(p[0.374990738068932, -0.10768220199456, 0.343343634110529, -1.15489347395203, 1.13436776254478, -1.20126661389537], a = 0.2, v = 0.2, t = 0.2)
movej(p[0.372958247766231, -0.107193994864877, 0.343875901663504, -1.1544722520752, 1.1430843163076, -1.19148312066817], a = 0.2, v = 0.2, t = 0.2)
movej(p[0.370504878203955, -0.106553525871732, 0.344575377810144, -1.14178975728758, 1.15301569013863, -1.17415577788331], a = 0.2, v = 0.2, t = 0.2)
movej(p[0.367966984577346, -0.105840892374762, 0.3452582359865, -1.13839668585753, 1.15853579277769, -1.16131943715563], a = 0.2, v = 0.2, t = 0.2)
movej(p[0.366160923417506, -0.105562362093846, 0.3457638434128, -1.14107998698559, 1.1585913887589, -1.15893325893639], a = 0.2, v = 0.2, t = 0.2)
movej(p[0.366160923417506, -0.105562362093846, 0.3457638434128, -1.14416425280384, 1.15664849825163, -1.16244276939871], a = 0.2, v = 0.2, t = 0.2)
movej(p[0.367300436513884, -0.105873930018503, 0.345507266774137, -1.14810829214585, 1.15086416658445, -1.17149308841769], a = 0.2, v = 0.2, t = 0.2)
movej(p[0.370012207996465, -0.106492098723226, 0.344790041691778, -1.14545016667962, 1.14420961092423, -1.17819612681391], a = 0.2, v = 0.2, t = 0.2)
movej(p[0.372904745601179, -0.107323267345727, 0.343994648175157, -1.15080466241565, 1.13614863564738, -1.19336815379318], a = 0.2, v = 0.2, t = 0.2)
movej(p[0.37542109573914, -0.108087112223546, 0.34330330456608, -1.15346547794315, 1.1288728665776, -1.20227795199104], a = 0.2, v = 0.2, t = 0.2)
movej(p[0.376381515098624, -0.108434884404006, 0.34300858418262, -1.16248268038869, 1.12287994698326, -1.21230924644769], a = 0.2, v = 0.2, t = 0.2)
movej(p[0.377275530320009, -0.108797452413305, 0.342727010049281, -1.16373427856189, 1.12204787623403, -1.21371590000051], a = 0.2, v = 0.2, t = 0.2)
movej(p[0.377857906169676, -0.108964363973605, 0.342566117132212, -1.1627026129322, 1.11710706068132, -1.21842468127002], a = 0.2, v = 0.2, t = 0.2)
movej(p[0.378199523100054, -0.109008205594467, 0.342480792017741, -1.16295566717926, 1.11545753893415, -1.21762666937625], a = 0.2, v = 0.2, t = 0.2)
movej(p[0.378780996060341, -0.109207538841342, 0.34230352170679, -1.16217922740148, 1.1142618344366, -1.21791268818195], a = 0.2, v = 0.2, t = 0.2)
movej(p[0.378780996060341, -0.109207538841342, 0.34230352170679, -1.16011715656733, 1.11564667551471, -1.2156016438313], a = 0.2, v = 0.2, t = 0.2)
movej(p[0.378550608311018, -0.109038120015448, 0.342401718684313, -1.1574387949561, 1.11879585248495, -1.21605433246575], a = 0.2, v = 0.2, t = 0.2)
movej(p[0.378046041928145, -0.108800719643043, 0.342576067984444, -1.15627969779705, 1.12239173704278, -1.21277218490995], a = 0.2, v = 0.2, t = 0.2)
movej(p[0.377416125977153, -0.108525113761116, 0.342781371522001, -1.15263232906291, 1.12698047392215, -1.20952993805215], a = 0.2, v = 0.2, t = 0.2)
movej(p[0.375201538647591, -0.10781967677076, 0.343426455254846, -1.15253070638896, 1.13660629917246, -1.19926276293623], a = 0.2, v = 0.2, t = 0.2)
movej(p[0.373235244619173, -0.107212895522123, 0.344013072063429, -1.15226813241535, 1.14549174567833, -1.19270598120761], a = 0.2, v = 0.2, t = 0.2)
movej(p[0.370919456597227, -0.106619340183659, 0.344638432565533, -1.1448056368862, 1.15249576254894, -1.17985861200782], a = 0.2, v = 0.2, t = 0.2)
movej(p[0.368356414075459, -0.106069400395142, 0.345282363369744, -1.13753244359377, 1.15986280578956, -1.16854319801138], a = 0.2, v = 0.2, t = 0.2)
movej(p[0.367277019937847, -0.105895791180353, 0.345527742456525, -1.13672143183846, 1.16282844587919, -1.16303790479752], a = 0.2, v = 0.2, t = 0.2)
movej(p[0.367277019937847, -0.105895791180353, 0.345527742456525, -1.13764005507579, 1.16153928814237, -1.1618130516887], a = 0.2, v = 0.2, t = 0.2)
movej(p[0.370544614692461, -0.106646495775338, 0.344724644747223, -1.14318206294247, 1.14550999104018, -1.17710650850298], a = 0.2, v = 0.2, t = 0.2)
movej(p[0.372594445360582, -0.107345965185726, 0.344080525638701, -1.15534037574806, 1.13506793463901, -1.19068176891752], a = 0.2, v = 0.2, t = 0.2)
movej(p[0.374654082888287, -0.108025941510207, 0.343429076106799, -1.15954430143975, 1.12836415300619, -1.19965535176306], a = 0.2, v = 0.2, t = 0.2)
movej(p[0.37607370298949, -0.108499818238116, 0.343004626575043, -1.16151662246985, 1.12313237670622, -1.2077584006889], a = 0.2, v = 0.2, t = 0.2)
movej(p[0.37699499445772, -0.108862186658708, 0.342676757015122, -1.15872490793464, 1.12238671525785, -1.21035102238046], a = 0.2, v = 0.2, t = 0.2)
movej(p[0.378138888366079, -0.109010683411858, 0.342481383166507, -1.16138747116648, 1.1173435827927, -1.21675051883628], a = 0.2, v = 0.2, t = 0.2)
movej(p[0.378450033011117, -0.109131718232704, 0.342371141196246, -1.16306867309856, 1.11430146553946, -1.21623714327193], a = 0.2, v = 0.2, t = 0.2)
movej(p[0.378579079290398, -0.109135383016811, 0.342329419293589, -1.16139499023197, 1.1126985132025, -1.2171888761312], a = 0.2, v = 0.2, t = 0.2)
movej(p[0.378650828306122, -0.109132118672344, 0.34233573061658, -1.16178762929163, 1.1122468655612, -1.21707043759977], a = 0.2, v = 0.2, t = 0.2)
movej(p[0.378647239677801, -0.109098524283002, 0.342359151520736, -1.16097902465335, 1.11370294769653, -1.21735375476215], a = 0.2, v = 0.2, t = 0.2)
movej(p[0.37860839576148, -0.108834809716555, 0.3425683814364, -1.16396619057036, 1.11656538605794, -1.2156512697996], a = 0.2, v = 0.2, t = 0.2)
movej(p[0.377385269658955, -0.108382305792364, 0.342973755283499, -1.15718361568303, 1.12936678470738, -1.21177927141489], a = 0.2, v = 0.2, t = 0.2)
movej(p[0.37549398837722, -0.107882245642994, 0.343450522491234, -1.15256180369591, 1.13856442498849, -1.20267619910265], a = 0.2, v = 0.2, t = 0.2)
movej(p[0.373709965700857, -0.10736773986402, 0.343950246078454, -1.14844397568923, 1.15019678318302, -1.18999034934013], a = 0.2, v = 0.2, t = 0.2)
movej(p[0.371417373800427, -0.106804166834214, 0.344518192896526, -1.14680410904889, 1.15600575654508, -1.18290440377342], a = 0.2, v = 0.2, t = 0.2)
movej(p[0.368951000297642, -0.106255070834553, 0.345059762825452, -1.144670868496, 1.1598145172072, -1.17137785435843], a = 0.2, v = 0.2, t = 0.2)
movej(p[0.368641838266114, -0.106248645433957, 0.345102786568768, -1.14631282734964, 1.15740629464562, -1.16895112778789], a = 0.2, v = 0.2, t = 0.2)
movej(p[0.368641838266114, -0.106248645433957, 0.345102786568768, -1.14104239306293, 1.15411521384903, -1.17035491263184], a = 0.2, v = 0.2, t = 0.2)
movej(p[0.370586683318389, -0.106781781650045, 0.344592827249077, -1.1344443965472, 1.14799708512455, -1.17432323641005], a = 0.2, v = 0.2, t = 0.2)
movej(p[0.372587017052073, -0.107437810032641, 0.343961150832615, -1.14826612712237, 1.1358586851661, -1.18763209345322], a = 0.2, v = 0.2, t = 0.2)
movej(p[0.374547562106416, -0.108088157430552, 0.343331048394975, -1.15602028923271, 1.12632949686096, -1.19899440172114], a = 0.2, v = 0.2, t = 0.2)
movej(p[0.376717317159813, -0.108706104752507, 0.342732264823436, -1.16303287795628, 1.11948410584592, -1.20919881120833], a = 0.2, v = 0.2, t = 0.2)
movej(p[0.377335275793474, -0.108950262416063, 0.342477556102714, -1.1652149307996, 1.11700848903218, -1.21271593608197], a = 0.2, v = 0.2, t = 0.2)
movej(p[0.377828140736189, -0.109043238518134, 0.34239237768593, -1.17103581019451, 1.11225713487272, -1.21680902169754], a = 0.2, v = 0.2, t = 0.2)
movej(p[0.378237320026758, -0.109106208772004, 0.34233712702714, -1.17171412397362, 1.11169647494208, -1.21767871789779], a = 0.2, v = 0.2, t = 0.2)
movej(p[0.378581393039356, -0.109112596905379, 0.342342738065739, -1.16968405272646, 1.11079969733512, -1.21919353840103], a = 0.2, v = 0.2, t = 0.2)
movej(p[0.378893267401738, -0.10909840764663, 0.342370171749863, -1.1685680845255, 1.11101556604905, -1.22024735978717], a = 0.2, v = 0.2, t = 0.2)
movej(p[0.378896177401042, -0.109082301631743, 0.34238359442428, -1.16713513986329, 1.11198464259192, -1.21863716812387], a = 0.2, v = 0.2, t = 0.2)
movej(p[0.378887660907043, -0.109055956444257, 0.342411951441513, -1.1672257710515, 1.11173079263223, -1.21816783293617], a = 0.2, v = 0.2, t = 0.2)
movej(p[0.378605872335938, -0.108911906291987, 0.342568400937597, -1.16685229803205, 1.11203717827168, -1.21769225470236], a = 0.2, v = 0.2, t = 0.2)
movej(p[0.377458946217624, -0.108418637520634, 0.34305403143328, -1.1623108763607, 1.12661535556819, -1.21067585391562], a = 0.2, v = 0.2, t = 0.2)
movej(p[0.376487987745384, -0.108040753819247, 0.343451846935003, -1.16176993952599, 1.1369171305181, -1.20654990154284], a = 0.2, v = 0.2, t = 0.2)
movej(p[0.374500221723072, -0.107539392374041, 0.3439246858524, -1.15609023317607, 1.14831644493988, -1.19477654544232], a = 0.2, v = 0.2, t = 0.2)
movej(p[0.37285379196553, -0.107100588500388, 0.344337636919655, -1.15530594591714, 1.15404042070679, -1.18818583453996], a = 0.2, v = 0.2, t = 0.2)
movej(p[0.372450233989471, -0.106961572009081, 0.344481571853233, -1.15371469221235, 1.15620736952604, -1.18510847986082], a = 0.2, v = 0.2, t = 0.2)
movej(p[0.370951523546915, -0.106634422961814, 0.344770630411736, -1.1514144029851, 1.15902242272842, -1.18006322191917], a = 0.2, v = 0.2, t = 0.2)
movej(p[0.368346416904262, -0.105935875563724, 0.345452615494438, -1.14056288392811, 1.16540474054497, -1.16654390183498], a = 0.2, v = 0.2, t = 0.2)
movej(p[0.368346416904262, -0.105935875563724, 0.345452615494438, -1.1391013208088, 1.15887829366857, -1.16583204889489], a = 0.2, v = 0.2, t = 0.2)
movej(p[0.371501859842541, -0.107036029208294, 0.344329959509016, -1.14071668960145, 1.14344945807051, -1.18093587594528], a = 0.2, v = 0.2, t = 0.2)
movej(p[0.373696313946865, -0.107771750794627, 0.343542149511987, -1.1486104110495, 1.13569791967272, -1.19269728897902], a = 0.2, v = 0.2, t = 0.2)
movej(p[0.375506004059215, -0.108359818593593, 0.342938331823374, -1.15693539197753, 1.12918698392666, -1.20320354425242], a = 0.2, v = 0.2, t = 0.2)
movej(p[0.376685590522727, -0.108704686312945, 0.342589556980174, -1.16021142434535, 1.12310700134638, -1.20960071390714], a = 0.2, v = 0.2, t = 0.2)
movej(p[0.377697114369234, -0.108845716075873, 0.34254255247065, -1.16439642860754, 1.12032172543865, -1.21430459439279], a = 0.2, v = 0.2, t = 0.2)
movej(p[0.377994457499418, -0.10888198249848, 0.342551078285784, -1.16638559668927, 1.11953840277224, -1.21597253960424], a = 0.2, v = 0.2, t = 0.2)
movej(p[0.37821637194502, -0.10895799939959, 0.342486047911505, -1.16928255117505, 1.11724523650121, -1.21818484702711], a = 0.2, v = 0.2, t = 0.2)
movej(p[0.378281553089679, -0.108955033871676, 0.342491781498966, -1.16900580030351, 1.11697906487412, -1.21834276972461], a = 0.2, v = 0.2, t = 0.2)
movej(p[0.378304938488197, -0.108962038215592, 0.342542567247975, -1.16886215248678, 1.11691989448374, -1.21845184999901], a = 0.2, v = 0.2, t = 0.2)
movej(p[0.378855925777935, -0.108973054937242, 0.342605326935604, -1.1682385400907, 1.11696662927602, -1.21890321858323], a = 0.2, v = 0.2, t = 0.2)
movej(p[0.378854048932865, -0.108973211186169, 0.342626744289289, -1.16543003966361, 1.11934612990103, -1.21722569355849], a = 0.2, v = 0.2, t = 0.2)
movej(p[0.378281848467973, -0.108733917666348, 0.342897272937214, -1.16558868023901, 1.12367080125779, -1.21319540713993], a = 0.2, v = 0.2, t = 0.2)
movej(p[0.377055951920913, -0.108326110385507, 0.343340124173634, -1.16772886756217, 1.13426843619346, -1.20736381667549], a = 0.2, v = 0.2, t = 0.2)
movej(p[0.375473413139043, -0.107904319412716, 0.343727831936194, -1.16314394454475, 1.14685023964354, -1.19766013982448], a = 0.2, v = 0.2, t = 0.2)
movej(p[0.37412623308855, -0.107512946863891, 0.344131124211824, -1.16016810783353, 1.15201670738015, -1.19105555162858], a = 0.2, v = 0.2, t = 0.2)
movej(p[0.37370215968544, -0.107389808004114, 0.344251462152587, -1.15769603384492, 1.15372617173876, -1.18867492529416], a = 0.2, v = 0.2, t = 0.2)
movej(p[0.373231413517653, -0.107245902082763, 0.344408417468886, -1.15529216067788, 1.15524861347755, -1.18595225053779], a = 0.2, v = 0.2, t = 0.2)
movej(p[0.371236218444641, -0.106727680204976, 0.344825616517314, -1.15123121526599, 1.16049853310206, -1.17812149965404], a = 0.2, v = 0.2, t = 0.2)
movej(p[0.370977484129965, -0.106739451766159, 0.344802857238845, -1.15199264321927, 1.15940691212592, -1.17710154795423], a = 0.2, v = 0.2, t = 0.2)
movej(p[0.371006579088123, -0.106839410952515, 0.344523797936056, -1.14771156038266, 1.1477910730172, -1.18034745487601], a = 0.2, v = 0.2, t = 0.2)
movej(p[0.374572237142482, -0.10790075246008, 0.34342884026395, -1.15363543145466, 1.13182222769287, -1.19841286962519], a = 0.2, v = 0.2, t = 0.2)
movej(p[0.37588280036758, -0.108345113641242, 0.342860331333769, -1.15892075524647, 1.12832165572005, -1.20437199904834], a = 0.2, v = 0.2, t = 0.2)
movej(p[0.376882259165237, -0.10862135285199, 0.342604588591483, -1.16180436951804, 1.12465713097359, -1.20926702670112], a = 0.2, v = 0.2, t = 0.2)
movej(p[0.377541481758513, -0.108779948873227, 0.342507108211084, -1.16410480586028, 1.12290073972935, -1.21129078484711], a = 0.2, v = 0.2, t = 0.2)
movej(p[0.377856399203301, -0.108862332585514, 0.342476783684408, -1.16593371691163, 1.12163988428622, -1.21337428301531], a = 0.2, v = 0.2, t = 0.2)
movej(p[0.378483696311004, -0.108971569067761, 0.342511081637895, -1.16510713232436, 1.11836382903604, -1.21643993504018], a = 0.2, v = 0.2, t = 0.2)
movej(p[0.37870510639224, -0.109018897443886, 0.342543189125188, -1.1653560375384, 1.11817664721085, -1.2168649310994], a = 0.2, v = 0.2, t = 0.2)
movej(p[0.378750362027546, -0.109026305392061, 0.342534050756795, -1.16569957489271, 1.11801077328811, -1.21744082956991], a = 0.2, v = 0.2, t = 0.2)
movej(p[0.378771491538256, -0.109044406464797, 0.342548820487428, -1.16577187307422, 1.11834705641363, -1.21795684712161], a = 0.2, v = 0.2, t = 0.2)
movej(p[0.37882697709107, -0.109042284773087, 0.342554400976038, -1.16657051188858, 1.11991156166081, -1.21777176436588], a = 0.2, v = 0.2, t = 0.2)
movej(p[0.378860115080271, -0.109053468178346, 0.342581014790468, -1.16665296839004, 1.11985651289096, -1.21786440717676], a = 0.2, v = 0.2, t = 0.2)
movej(p[0.37903048445081, -0.109087159533001, 0.342595698802307, -1.16559241262709, 1.11880410513109, -1.21877073063333], a = 0.2, v = 0.2, t = 0.2)
movej(p[0.379016683092416, -0.109088308507669, 0.342753191063589, -1.16559241262709, 1.11880410513109, -1.21877073063333], a = 0.2, v = 0.2, t = 0.2)
movej(p[0.377907323532394, -0.108741324437888, 0.343223278078838, -1.16584098776402, 1.12616032153639, -1.21157004112317], a = 0.2, v = 0.2, t = 0.2)
movej(p[0.376554090773825, -0.108353632479723, 0.343535063480532, -1.16606769286736, 1.13618935118264, -1.20133207251017], a = 0.2, v = 0.2, t = 0.2)
movej(p[0.375430815853458, -0.108036982039287, 0.343750636952571, -1.16750799598189, 1.1467589924744, -1.19024078461539], a = 0.2, v = 0.2, t = 0.2)
movej(p[0.37415881576262, -0.107683056300371, 0.344015487760084, -1.16345367062849, 1.14998947712571, -1.18481585652727], a = 0.2, v = 0.2, t = 0.2)
movej(p[0.373221468677997, -0.107417780715161, 0.344391033398909, -1.16230060379717, 1.15338295903097, -1.18054068540613], a = 0.2, v = 0.2, t = 0.2)
movej(p[0.371467417188352, -0.106924381348996, 0.344846550003592, -1.15591951012804, 1.1576242259676, -1.17289091565329], a = 0.2, v = 0.2, t = 0.2)
movej(p[0.371116659930686, -0.106826460297213, 0.344889005436839, -1.15466539559695, 1.15841549305526, -1.17146151425413], a = 0.2, v = 0.2, t = 0.2)
movej(p[0.371116659930686, -0.106826460297213, 0.344889005436839, -1.15376976553548, 1.1577899920804, -1.17206841908791], a = 0.2, v = 0.2, t = 0.2)
movej(p[0.371704320042843, -0.107015005265052, 0.344622109112994, -1.14992708000913, 1.15243476574709, -1.17773673054901], a = 0.2, v = 0.2, t = 0.2)
movej(p[0.373503977106554, -0.107539819157148, 0.343851735033928, -1.15188790577689, 1.13940529608671, -1.19281064171152], a = 0.2, v = 0.2, t = 0.2)
movej(p[0.375765576616384, -0.108196092767196, 0.343157423291341, -1.15466600343988, 1.12926569543615, -1.20425875170372], a = 0.2, v = 0.2, t = 0.2)
movej(p[0.376560503363879, -0.10840104632905, 0.342729281254629, -1.15855653933234, 1.1261984272197, -1.20710918946605], a = 0.2, v = 0.2, t = 0.2)
movej(p[0.376893089676749, -0.108474406676145, 0.34263622356303, -1.16034409807225, 1.12554833314286, -1.20722354496826], a = 0.2, v = 0.2, t = 0.2)
movej(p[0.377191832070532, -0.1087181607623, 0.342350030730066, -1.16512113288676, 1.11868037440709, -1.21412358568266], a = 0.2, v = 0.2, t = 0.2)
movej(p[0.377730204680855, -0.108855471492409, 0.342316501252726, -1.16545902417774, 1.1176586442788, -1.21559523198544], a = 0.2, v = 0.2, t = 0.2)
movej(p[0.378663165441865, -0.109089079620883, 0.342265751368721, -1.16611015181791, 1.11434171922694, -1.2194747547476], a = 0.2, v = 0.2, t = 0.2)
movej(p[0.378834399797077, -0.109126034358177, 0.342280286601309, -1.16598283075249, 1.11466296253911, -1.22002958655524], a = 0.2, v = 0.2, t = 0.2)
movej(p[0.379005163617829, -0.109170518880006, 0.342294926438743, -1.16604874604213, 1.1152464346562, -1.22017186358403], a = 0.2, v = 0.2, t = 0.2)
movej(p[0.378996058736864, -0.109171276868987, 0.342398825508013, -1.16429940563266, 1.11691639662175, -1.21967994481103], a = 0.2, v = 0.2, t = 0.2)
movej(p[0.378748021292725, -0.10901870310783, 0.342808054946973, -1.16142792939607, 1.11959623175849, -1.21872199073691], a = 0.2, v = 0.2, t = 0.2)
movej(p[0.378263635283734, -0.10883426807966, 0.343144805247162, -1.15917022128763, 1.12504620652081, -1.21453730046239], a = 0.2, v = 0.2, t = 0.2)
movej(p[0.377060243360223, -0.108473022439245, 0.343508980212956, -1.1584826660745, 1.13495641957822, -1.20578004932885], a = 0.2, v = 0.2, t = 0.2)
movej(p[0.375269723494359, -0.107970613746974, 0.343852347677744, -1.15908498068908, 1.14594586364871, -1.19423264566944], a = 0.2, v = 0.2, t = 0.2)
movej(p[0.373780752825765, -0.107558701553917, 0.344102221852638, -1.15550889288315, 1.15059029219372, -1.18746379084472], a = 0.2, v = 0.2, t = 0.2)
movej(p[0.371995107576406, -0.10708357061957, 0.344406566605623, -1.15113432816799, 1.15337035006047, -1.18251194861098], a = 0.2, v = 0.2, t = 0.2)
movej(p[0.37084080493219, -0.106757547663053, 0.345054561858213, -1.12806169880841, 1.13462197517894, -1.19431087678257], a = 0.2, v = 0.2, t = 0.2)
movej(p[0.370687710233242, -0.106712248224534, 0.34509909784393, -1.12805021775449, 1.13463854426441, -1.19432686777772], a = 0.2, v = 0.2, t = 0.2)
movej(p[0.370687710233242, -0.106712248224534, 0.34509909784393, -1.12811224641342, 1.13460889196886, -1.19438458667429], a = 0.2, v = 0.2, t = 0.2)
movej(p[0.371978942947503, -0.107104743703583, 0.34447104951255, -1.13822286327287, 1.13649944740767, -1.19410588627362], a = 0.2, v = 0.2, t = 0.2)
movej(p[0.373140579393996, -0.107487269274795, 0.343786041561102, -1.14731948441198, 1.13515445145307, -1.1966164125622], a = 0.2, v = 0.2, t = 0.2)
movej(p[0.374151935330867, -0.107792436567233, 0.34339059010696, -1.1519356206386, 1.13154052888648, -1.19996021809156], a = 0.2, v = 0.2, t = 0.2)
movej(p[0.375537647371529, -0.108203394016387, 0.342964933184842, -1.15697937549142, 1.12499185736878, -1.20693606110786], a = 0.2, v = 0.2, t = 0.2)
movej(p[0.375750525369823, -0.108256266400944, 0.342950677351167, -1.15805174095161, 1.12407501632731, -1.20751732956673], a = 0.2, v = 0.2, t = 0.2)
movej(p[0.37632057382633, -0.108416596246587, 0.342778010887052, -1.1606004267849, 1.12366524111411, -1.20899327527838], a = 0.2, v = 0.2, t = 0.2)
movej(p[0.377063754574369, -0.10860997855097, 0.34267739478449, -1.1637563823237, 1.1238057631335, -1.21023574213116], a = 0.2, v = 0.2, t = 0.2)
movej(p[0.377512493014824, -0.108744437719938, 0.34247671889172, -1.16682752194728, 1.12436741039046, -1.21134211416825], a = 0.2, v = 0.2, t = 0.2)
movej(p[0.378194361954957, -0.108909318520961, 0.342505454930684, -1.16755773388402, 1.12424303353019, -1.21301142058021], a = 0.2, v = 0.2, t = 0.2)
movej(p[0.378737264538017, -0.109035631330036, 0.342539259657726, -1.16843224001154, 1.12384559304751, -1.21453956133489], a = 0.2, v = 0.2, t = 0.2)
movej(p[0.379103503667807, -0.109138879734727, 0.342566886397296, -1.16795621891908, 1.12347806310093, -1.21484408293195], a = 0.2, v = 0.2, t = 0.2)
movej(p[0.379103503667807, -0.109138879734727, 0.342566886397296, -1.16736786367281, 1.12408443480159, -1.21533375003675], a = 0.2, v = 0.2, t = 0.2)
movej(p[0.378461094876497, -0.108915229915738, 0.342994777415329, -1.16405233614875, 1.12682748129392, -1.21326239396502], a = 0.2, v = 0.2, t = 0.2)
movej(p[0.377679187443276, -0.108679855396467, 0.343333433068688, -1.15986787919309, 1.12955124749592, -1.21018028629483], a = 0.2, v = 0.2, t = 0.2)
movej(p[0.377095324593437, -0.108507448176688, 0.343598637090426, -1.15630565479049, 1.13224778216714, -1.20779010252429], a = 0.2, v = 0.2, t = 0.2)
movej(p[0.375358860539246, -0.108027805679961, 0.343702537397623, -1.14982114044645, 1.13645915789284, -1.20094287330784], a = 0.2, v = 0.2, t = 0.2)
movej(p[0.373963075286927, -0.107631094341681, 0.344454566023068, -1.13898664077738, 1.13435678817934, -1.20201414927477], a = 0.2, v = 0.2, t = 0.2)
movej(p[0.371498901232614, -0.106955647708067, 0.344746988466102, -1.13065525264553, 1.13822632380448, -1.19444910576879], a = 0.2, v = 0.2, t = 0.2)
movej(p[0.369391911442781, -0.106377207876161, 0.344716645651357, -1.12756573708761, 1.1394552459938, -1.19173486544427], a = 0.2, v = 0.2, t = 0.2)
movej(p[0.369404962063147, -0.106376121401064, 0.344567720331549, -1.128147945338, 1.13861924833158, -1.19092911016486], a = 0.2, v = 0.2, t = 0.2)
movej(p[0.371291160532101, -0.106928345313325, 0.344724064012092, -1.13269635939569, 1.13573006517687, -1.19576517509229], a = 0.2, v = 0.2, t = 0.2)
movej(p[0.372516076665267, -0.107286896300974, 0.344205192933725, -1.1387771138886, 1.13382179882926, -1.19836071130004], a = 0.2, v = 0.2, t = 0.2)
movej(p[0.373520682901124, -0.107579889612876, 0.343757941617285, -1.14614917316869, 1.13231314477908, -1.19996983198506], a = 0.2, v = 0.2, t = 0.2)
movej(p[0.374605705073977, -0.10789204541839, 0.343316894808542, -1.15359153214734, 1.13082560909881, -1.20179006867534], a = 0.2, v = 0.2, t = 0.2)
movej(p[0.375834641684652, -0.108240684984068, 0.34288427829223, -1.16084167019658, 1.12934955337617, -1.20427992174348], a = 0.2, v = 0.2, t = 0.2)
movej(p[0.376840254754895, -0.108520717346615, 0.342589093606174, -1.16444260075623, 1.1267299711741, -1.20760982193357], a = 0.2, v = 0.2, t = 0.2)
movej(p[0.377336063079469, -0.108669221845075, 0.342444339576108, -1.16598388351835, 1.12457924422183, -1.21017272666678], a = 0.2, v = 0.2, t = 0.2)
movej(p[0.377898311057597, -0.108835637346219, 0.342339508702461, -1.16758431613487, 1.12241177866273, -1.21313477402181], a = 0.2, v = 0.2, t = 0.2)
movej(p[0.378273665824104, -0.108977620152409, 0.342370362097862, -1.16650901943013, 1.12103971762969, -1.21495233328185], a = 0.2, v = 0.2, t = 0.2)
movej(p[0.378425155542911, -0.108986644229299, 0.342383571607012, -1.16758052553996, 1.1201255860652, -1.21713101128578], a = 0.2, v = 0.2, t = 0.2)
movej(p[0.379344858957036, -0.109220092623541, 0.342465174347607, -1.16707154542501, 1.12090344313804, -1.21785441963711], a = 0.2, v = 0.2, t = 0.2)
movej(p[0.379330481450853, -0.109221289562995, 0.342629241238392, -1.16731973369039, 1.12474656650871, -1.21600347459302], a = 0.2, v = 0.2, t = 0.2)
movej(p[0.378971434773933, -0.109092551338932, 0.342987611387062, -1.16508279102273, 1.12769224995589, -1.21318540038138], a = 0.2, v = 0.2, t = 0.2)
movej(p[0.378173652396876, -0.108868546721565, 0.343275001540434, -1.16352500963806, 1.13318620710214, -1.20711439416819], a = 0.2, v = 0.2, t = 0.2)
movej(p[0.377205489626175, -0.108580217609898, 0.343486293264818, -1.16206375848024, 1.13968957551288, -1.19953553423983], a = 0.2, v = 0.2, t = 0.2)
movej(p[0.37581952708631, -0.108181741113819, 0.343624231621215, -1.1612762165457, 1.14124725833402, -1.19714285443964], a = 0.2, v = 0.2, t = 0.2)
movej(p[0.374676436203792, -0.107861768709409, 0.343801753126165, -1.15871932170631, 1.14176266104309, -1.19547973509219], a = 0.2, v = 0.2, t = 0.2)
movej(p[0.373006549200759, -0.107429105166696, 0.344141831743414, -1.14054840405739, 1.13590939806327, -1.19816620984852], a = 0.2, v = 0.2, t = 0.2)
movej(p[0.371237620938286, -0.106930488196676, 0.344630113546712, -1.13282466294703, 1.13977016902553, -1.19407575437133], a = 0.2, v = 0.2, t = 0.2)
movej(p[0.370591976649368, -0.106736030386119, 0.344879122345955, -1.13045875703417, 1.14116602005718, -1.19164288023046], a = 0.2, v = 0.2, t = 0.2)
movej(p[0.370591976649368, -0.106736030386119, 0.344879122345955, -1.13042765237007, 1.14121071781788, -1.19168580067888], a = 0.2, v = 0.2, t = 0.2)
movej(p[0.372514649447978, -0.107295793492427, 0.344486484975979, -1.13641062230832, 1.13747727121753, -1.19823073686799], a = 0.2, v = 0.2, t = 0.2)
movej(p[0.374086847466119, -0.107740291182658, 0.343949335038687, -1.14411640496505, 1.13195443510059, -1.20386102271438], a = 0.2, v = 0.2, t = 0.2)
movej(p[0.374966864992599, -0.107973438400404, 0.343233309488902, -1.15124606006071, 1.1307523678193, -1.20332415566695], a = 0.2, v = 0.2, t = 0.2)
movej(p[0.37578316768055, -0.108193324077567, 0.342742383607914, -1.16121390317747, 1.12623121569603, -1.20537520402333], a = 0.2, v = 0.2, t = 0.2)
movej(p[0.376427998646754, -0.108373991354497, 0.342550322940233, -1.16343048129376, 1.12449732738839, -1.20631624544142], a = 0.2, v = 0.2, t = 0.2)
movej(p[0.377120340009146, -0.108569437107619, 0.342338727204196, -1.16643062222993, 1.1220771383962, -1.20918967283985], a = 0.2, v = 0.2, t = 0.2)
movej(p[0.377753474290431, -0.108750032895893, 0.34223619012252, -1.16821861302556, 1.12065285192917, -1.2111651440191], a = 0.2, v = 0.2, t = 0.2)
movej(p[0.378034410083897, -0.10883458865635, 0.342210601583612, -1.16839030774766, 1.12053813636835, -1.21135887017095], a = 0.2, v = 0.2, t = 0.2)
movej(p[0.378181662456498, -0.108881744518242, 0.342223161577746, -1.16908416210742, 1.12134986184435, -1.21171828338153], a = 0.2, v = 0.2, t = 0.2)
movej(p[0.378629164298573, -0.109009738824836, 0.342383914054613, -1.16865277435907, 1.12278841915437, -1.21322582943124], a = 0.2, v = 0.2, t = 0.2)
movej(p[0.378973844041336, -0.109127384404596, 0.342593252637993, -1.1698876038481, 1.1235598168748, -1.21297514707127], a = 0.2, v = 0.2, t = 0.2)
movej(p[0.37941894815581, -0.109259189937276, 0.342631296413221, -1.17002536888777, 1.12401089847839, -1.21300331890606], a = 0.2, v = 0.2, t = 0.2)
movej(p[0.379411239996757, -0.109259831647986, 0.342719256986726, -1.17031001405749, 1.1256536556852, -1.21268946635556], a = 0.2, v = 0.2, t = 0.2)
movej(p[0.378809208532072, -0.109088503121181, 0.342815718489057, -1.16782494598398, 1.12734520126322, -1.21002085490307], a = 0.2, v = 0.2, t = 0.2)
movej(p[0.377393294083084, -0.108714305982484, 0.343406104959546, -1.15738277297888, 1.12734460449668, -1.21104773152427], a = 0.2, v = 0.2, t = 0.2)
movej(p[0.37623655642718, -0.108364474050555, 0.343445722062128, -1.15438422029869, 1.12946659594493, -1.20813870162102], a = 0.2, v = 0.2, t = 0.2)
movej(p[0.375570794884677, -0.108181453519148, 0.343696297626794, -1.15151902958475, 1.13179859844321, -1.20520549017926], a = 0.2, v = 0.2, t = 0.2)
movej(p[0.37415574554899, -0.107742101379104, 0.343936988890884, -1.15197157727978, 1.14212126819499, -1.19434265039512], a = 0.2, v = 0.2, t = 0.2)
movej(p[0.372422028454145, -0.107215829274131, 0.344298558353879, -1.1460152452422, 1.14594624622765, -1.18763401728068], a = 0.2, v = 0.2, t = 0.2)
movej(p[0.371512663419123, -0.106994611589793, 0.344397061547813, -1.13490949246558, 1.1389902504924, -1.19538493114164], a = 0.2, v = 0.2, t = 0.2)
movej(p[0.371512663419123, -0.106994611589793, 0.344397061547813, -1.13549726935219, 1.13861166282424, -1.19604050470598], a = 0.2, v = 0.2, t = 0.2)
movej(p[0.372728146625919, -0.107335218885429, 0.34398300031544, -1.14147807557464, 1.13408102788451, -1.20063635862158], a = 0.2, v = 0.2, t = 0.2)
movej(p[0.374270622001468, -0.107778434829485, 0.343647138807135, -1.14843663286933, 1.13169454237854, -1.20316860582192], a = 0.2, v = 0.2, t = 0.2)
movej(p[0.375290789594645, -0.108052137440187, 0.343273468962586, -1.15331404369429, 1.12849218221639, -1.2044997465057], a = 0.2, v = 0.2, t = 0.2)
movej(p[0.376122449433283, -0.108244873258276, 0.342685307218486, -1.15922083545599, 1.12472238984613, -1.20656261805426], a = 0.2, v = 0.2, t = 0.2)
movej(p[0.376895733220259, -0.108463948911194, 0.342445396791245, -1.16477148299858, 1.12222195847466, -1.20890563440748], a = 0.2, v = 0.2, t = 0.2)
movej(p[0.377187230795131, -0.108550866333902, 0.342463179802055, -1.16603777033973, 1.12342063399343, -1.20818698162455], a = 0.2, v = 0.2, t = 0.2)
movej(p[0.377543237414235, -0.108654022159863, 0.342380891450967, -1.16571005131753, 1.12397431077992, -1.20881963727028], a = 0.2, v = 0.2, t = 0.2)
movej(p[0.37789612868274, -0.108757533859921, 0.342333061015432, -1.16535902480708, 1.12449426222272, -1.2094778024671], a = 0.2, v = 0.2, t = 0.2)
movej(p[0.378307663199352, -0.108911385728438, 0.342336882558476, -1.16732418175134, 1.12271563348023, -1.21218918496795], a = 0.2, v = 0.2, t = 0.2)
movej(p[0.378736865990696, -0.109031301753483, 0.342373619608442, -1.16993218694676, 1.12033675794136, -1.21359570040964], a = 0.2, v = 0.2, t = 0.2)
movej(p[0.37882262075882, -0.109039528683517, 0.342233507198691, -1.16828525670426, 1.11627262264786, -1.21712538750134], a = 0.2, v = 0.2, t = 0.2)
movej(p[0.379082942028213, -0.109143003463646, 0.342255564772867, -1.16792705205019, 1.1168222050075, -1.2176371339501], a = 0.2, v = 0.2, t = 0.2)
movej(p[0.379049778612313, -0.109145764345849, 0.342634004431697, -1.16384689752057, 1.12198681352993, -1.21406457677682], a = 0.2, v = 0.2, t = 0.2)
movej(p[0.378529997698002, -0.109060695887557, 0.343014410607411, -1.16623931220404, 1.12811692609599, -1.20864792155838], a = 0.2, v = 0.2, t = 0.2)
movej(p[0.377130311616515, -0.108620160734174, 0.343261476108696, -1.16619316542986, 1.13753950807931, -1.19859399223649], a = 0.2, v = 0.2, t = 0.2)
movej(p[0.375718137542617, -0.108187247262879, 0.343582480300851, -1.16267449278707, 1.14282229499248, -1.19368241589241], a = 0.2, v = 0.2, t = 0.2)
movej(p[0.374577459079675, -0.107837690685201, 0.34374697733177, -1.15952793509585, 1.14781603715782, -1.18688386068815], a = 0.2, v = 0.2, t = 0.2)
movej(p[0.373253096779925, -0.107447982847833, 0.344060805486173, -1.15562715863197, 1.15031048178708, -1.18245671047624], a = 0.2, v = 0.2, t = 0.2)
movej(p[0.372007302774071, -0.107115862251665, 0.344594217845029, -1.14947393821141, 1.15421365120753, -1.17934134253506], a = 0.2, v = 0.2, t = 0.2)
movej(p[0.370664927387465, -0.106727085434304, 0.344513550331643, -1.14289772829186, 1.15784872406178, -1.18009351259022], a = 0.2, v = 0.2, t = 0.2)
movej(p[0.370664927387465, -0.106727085434304, 0.344513550331643, -1.14059328593076, 1.155686743544, -1.1814897945724], a = 0.2, v = 0.2, t = 0.2)
movej(p[0.372109287307945, -0.107133632464294, 0.344019783319261, -1.14183350631459, 1.14067803248828, -1.1967808472141], a = 0.2, v = 0.2, t = 0.2)
movej(p[0.373790426537326, -0.10758115770678, 0.343545764090986, -1.14524403822337, 1.13758513636765, -1.19885087318287], a = 0.2, v = 0.2, t = 0.2)
movej(p[0.375309237034501, -0.107982013443424, 0.342936092070904, -1.15027479095321, 1.13299809887244, -1.20157630948339], a = 0.2, v = 0.2, t = 0.2)
movej(p[0.376124254405251, -0.108209493615686, 0.342667051727083, -1.15651578356769, 1.1269684812915, -1.20751956948776], a = 0.2, v = 0.2, t = 0.2)
movej(p[0.376958041926113, -0.108439701101139, 0.342392810111541, -1.16402370870912, 1.12048697144667, -1.21145391384391], a = 0.2, v = 0.2, t = 0.2)
movej(p[0.377446417494942, -0.108554510185275, 0.342278569409638, -1.1657399219706, 1.12043619127995, -1.21224020261825], a = 0.2, v = 0.2, t = 0.2)
movej(p[0.37797392279951, -0.108741423681119, 0.342230876341752, -1.16630326080572, 1.12026233904693, -1.21347630716513], a = 0.2, v = 0.2, t = 0.2)
movej(p[0.378193541432716, -0.108806892116827, 0.342213906961253, -1.16514874226996, 1.11918396804553, -1.21414746758154], a = 0.2, v = 0.2, t = 0.2)
movej(p[0.378602213184645, -0.108955370637522, 0.342248636459771, -1.1632921469304, 1.11860880849085, -1.21563172828027], a = 0.2, v = 0.2, t = 0.2)
movej(p[0.378760334370616, -0.109033630421033, 0.342312516478806, -1.16383641452622, 1.11855054981108, -1.21715159631503], a = 0.2, v = 0.2, t = 0.2)
movej(p[0.379159333836242, -0.109158715368237, 0.342374275546262, -1.16456912589543, 1.11925430734486, -1.21673192571478], a = 0.2, v = 0.2, t = 0.2)
movej(p[0.379153519981283, -0.109159199376542, 0.342440619534886, -1.16559321839563, 1.12062459132001, -1.21597786097042], a = 0.2, v = 0.2, t = 0.2)
movej(p[0.378877936106747, -0.109163626632077, 0.342781540739131, -1.16338940434818, 1.12321188752187, -1.21177169546618], a = 0.2, v = 0.2, t = 0.2)
movej(p[0.377252884284067, -0.108666137140622, 0.343180430435034, -1.16680695104803, 1.13348248912237, -1.20397962966187], a = 0.2, v = 0.2, t = 0.2)
movej(p[0.375733789520927, -0.108202337719306, 0.343518591383973, -1.16177123298662, 1.14149066465393, -1.19273737765972], a = 0.2, v = 0.2, t = 0.2)
movej(p[0.374045920463442, -0.107677782512886, 0.343853347609014, -1.15727874464195, 1.14966848645524, -1.18187185054172], a = 0.2, v = 0.2, t = 0.2)
movej(p[0.372582134403705, -0.10722105147021, 0.344158157165909, -1.15409408397825, 1.15225018390114, -1.17764577401365], a = 0.2, v = 0.2, t = 0.2)
movej(p[0.371437326564028, -0.106931973429588, 0.344574522386171, -1.1483797833762, 1.15717997132017, -1.17520603805686], a = 0.2, v = 0.2, t = 0.2)
movej(p[0.371437326564028, -0.106931973429588, 0.344574522386171, -1.14561289557585, 1.15718518307041, -1.1776913613261], a = 0.2, v = 0.2, t = 0.2)
movej(p[0.371798373243878, -0.107089209047324, 0.344599995224336, -1.14222027619622, 1.15358529986568, -1.18021060168812], a = 0.2, v = 0.2, t = 0.2)
movej(p[0.37296313197331, -0.107364659288401, 0.344030883498131, -1.1473826279013, 1.14586628815218, -1.1885783718858], a = 0.2, v = 0.2, t = 0.2)
movej(p[0.373963746277349, -0.107551540472393, 0.343375354240491, -1.15024110290545, 1.1374437910779, -1.19540404852552], a = 0.2, v = 0.2, t = 0.2)
movej(p[0.375535505319889, -0.10799129645756, 0.342881868287597, -1.15175796296754, 1.13059017159896, -1.20306074306518], a = 0.2, v = 0.2, t = 0.2)
movej(p[0.37637361993229, -0.108203866253175, 0.342540173294259, -1.15386987399475, 1.12692398954427, -1.20707985969942], a = 0.2, v = 0.2, t = 0.2)
movej(p[0.376853740712354, -0.108324564714112, 0.342397158581456, -1.15752480410349, 1.12410713416003, -1.20996519056434], a = 0.2, v = 0.2, t = 0.2)
movej(p[0.377462529432192, -0.108520890595559, 0.34235561639962, -1.16069405874573, 1.12208953239797, -1.21013785503184], a = 0.2, v = 0.2, t = 0.2)
movej(p[0.377952935724093, -0.108717771359072, 0.342356699830526, -1.16417955145763, 1.11955330765227, -1.21341901874521], a = 0.2, v = 0.2, t = 0.2)
movej(p[0.378670791942068, -0.108981157725216, 0.342430534865863, -1.16208870698446, 1.11755159782265, -1.21461613275255], a = 0.2, v = 0.2, t = 0.2)
movej(p[0.378868792744016, -0.109084148732294, 0.342350864639998, -1.16096811927646, 1.11953023821423, -1.21702917132879], a = 0.2, v = 0.2, t = 0.2)
movej(p[0.379056452891561, -0.109124960817674, 0.342458262697291, -1.16205904504169, 1.12057788690361, -1.2164028895485], a = 0.2, v = 0.2, t = 0.2)
movej(p[0.379056452891561, -0.109124960817674, 0.342458262697291, -1.16361577204496, 1.12154775541012, -1.2153293414061], a = 0.2, v = 0.2, t = 0.2)
movej(p[0.378870308991432, -0.109122130188312, 0.342628588549651, -1.16380632207341, 1.12608300931649, -1.21065550120542], a = 0.2, v = 0.2, t = 0.2)
movej(p[0.377994248744263, -0.108903784921213, 0.342938290063477, -1.1629839509745, 1.12650553670372, -1.20891967755863], a = 0.2, v = 0.2, t = 0.2)
movej(p[0.377132086007436, -0.108668438605173, 0.343263989812868, -1.16532524189225, 1.13534491654806, -1.20107865035902], a = 0.2, v = 0.2, t = 0.2)
movej(p[0.375551140148856, -0.108167436587153, 0.343543496360513, -1.1604958963334, 1.13882711392081, -1.19525395173465], a = 0.2, v = 0.2, t = 0.2)
movej(p[0.373933862878596, -0.107676344019071, 0.343925854701177, -1.15253221504782, 1.14770844819597, -1.18587950960266], a = 0.2, v = 0.2, t = 0.2)
movej(p[0.372081073994981, -0.10711192262141, 0.34433157674718, -1.15083031782895, 1.15120691758172, -1.18130646522977], a = 0.2, v = 0.2, t = 0.2)
movej(p[0.369436618369106, -0.106355307167612, 0.345102992632326, -1.14475178166921, 1.16324036907146, -1.16527578083492], a = 0.2, v = 0.2, t = 0.2)
movej(p[0.369436618369106, -0.106355307167612, 0.345102992632326, -1.14425563537158, 1.163941401462, -1.16593604098061], a = 0.2, v = 0.2, t = 0.2)
movej(p[0.370677556370093, -0.106779683932436, 0.344855284156121, -1.13849190404045, 1.15469049624952, -1.17656831461089], a = 0.2, v = 0.2, t = 0.2)
movej(p[0.371947698710722, -0.107037172276707, 0.344248658235882, -1.14243969118958, 1.14847527761607, -1.18510253958111], a = 0.2, v = 0.2, t = 0.2)
movej(p[0.373103411303875, -0.107306303727227, 0.343763124020435, -1.14393689315782, 1.14308631993587, -1.19161085552636], a = 0.2, v = 0.2, t = 0.2)
movej(p[0.374059411048444, -0.107496678237866, 0.343275018320731, -1.14223671108057, 1.13731530635507, -1.19790548502547], a = 0.2, v = 0.2, t = 0.2)
movej(p[0.374632832226491, -0.107634395903789, 0.343061453396037, -1.14375693764092, 1.13440595420926, -1.20166286131959], a = 0.2, v = 0.2, t = 0.2)
movej(p[0.375967128256264, -0.108039469695394, 0.342748885582139, -1.15098705827786, 1.1272549162086, -1.20794025568762], a = 0.2, v = 0.2, t = 0.2)
movej(p[0.376639636231079, -0.108215890404006, 0.342533582499524, -1.15563297534596, 1.1235667479807, -1.21126270897113], a = 0.2, v = 0.2, t = 0.2)
movej(p[0.377165097678161, -0.108369521008063, 0.342442787207092, -1.15532970715513, 1.12327693180728, -1.21143785782666], a = 0.2, v = 0.2, t = 0.2)
movej(p[0.377406037713786, -0.108485289301418, 0.342463056678878, -1.15485236563276, 1.12385859837274, -1.2117034493029], a = 0.2, v = 0.2, t = 0.2)
movej(p[0.377406242422896, -0.108487582354561, 0.342463057889121, -1.15474626713488, 1.12392812220554, -1.21159131808059], a = 0.2, v = 0.2, t = 0.2)
movej(p[0.378026468937109, -0.108699542563874, 0.342403531418253, -1.15471512484377, 1.12397492273305, -1.21163537036394], a = 0.2, v = 0.2, t = 0.2)
movej(p[0.378732418226798, -0.109005071277549, 0.342463166185867, -1.15795186093217, 1.12252877087206, -1.21452753065089], a = 0.2, v = 0.2, t = 0.2)
movej(p[0.378731004045862, -0.109005189009298, 0.34247930391283, -1.16020771420678, 1.1212785217432, -1.21310989108146], a = 0.2, v = 0.2, t = 0.2)
movej(p[0.378219529272385, -0.108911241702019, 0.342710425849373, -1.16479378547971, 1.12532637296189, -1.21035050987612], a = 0.2, v = 0.2, t = 0.2)
movej(p[0.377041170729369, -0.10860330207376, 0.343134027147116, -1.16410720716289, 1.13365339827272, -1.20089462161348], a = 0.2, v = 0.2, t = 0.2)
movej(p[0.375995371519109, -0.108286289586118, 0.34337456245533, -1.16027599917351, 1.13868112624937, -1.19384653265104], a = 0.2, v = 0.2, t = 0.2)
movej(p[0.374598523739189, -0.107855404996977, 0.343704022317187, -1.15538773239571, 1.14413820950069, -1.18689995974989], a = 0.2, v = 0.2, t = 0.2)
movej(p[0.372602615911496, -0.107201121983298, 0.344105788631558, -1.15319930291425, 1.15141329659128, -1.17831906788634], a = 0.2, v = 0.2, t = 0.2)
movej(p[0.370391345891036, -0.106568597561326, 0.344716600322854, -1.13929287593929, 1.16263435442459, -1.16782136737687], a = 0.2, v = 0.2, t = 0.2)
movej(p[0.369722874647318, -0.106441387934491, 0.345006284076563, -1.13832648779227, 1.16359927942624, -1.16786791061439], a = 0.2, v = 0.2, t = 0.2)
movej(p[0.369722874647318, -0.106441387934491, 0.345006284076563, -1.1375028696174, 1.16353650308103, -1.16858840695516], a = 0.2, v = 0.2, t = 0.2)
movej(p[0.371512384296082, -0.106948798516662, 0.344495347937617, -1.13346751060508, 1.15652394203609, -1.17736154480282], a = 0.2, v = 0.2, t = 0.2)
movej(p[0.372664323093828, -0.107182350666982, 0.34397490868148, -1.13697821082777, 1.14843168489868, -1.18776318660565], a = 0.2, v = 0.2, t = 0.2)
movej(p[0.373725231758401, -0.107366661616798, 0.343468836019492, -1.13988928997024, 1.14212322692813, -1.19303741569431], a = 0.2, v = 0.2, t = 0.2)
movej(p[0.374692187277842, -0.107606318831182, 0.343112434822781, -1.14718098135904, 1.13333579381846, -1.20231439401439], a = 0.2, v = 0.2, t = 0.2)
movej(p[0.375766351645842, -0.107939339483954, 0.34286844604159, -1.1494190402343, 1.13160141002216, -1.20487049302336], a = 0.2, v = 0.2, t = 0.2)
movej(p[0.376782968955796, -0.108257785775354, 0.342657667260413, -1.15635702942284, 1.12541741277597, -1.20772759583352], a = 0.2, v = 0.2, t = 0.2)
movej(p[0.376999066099914, -0.108322134841481, 0.342647022919546, -1.16046491610688, 1.12245239799987, -1.21074522191828], a = 0.2, v = 0.2, t = 0.2)
movej(p[0.37718335719561, -0.108384666955717, 0.342584616295406, -1.16145710049631, 1.12179269150442, -1.21185990923471], a = 0.2, v = 0.2, t = 0.2)
movej(p[0.377296187538718, -0.108411055984635, 0.342560782436573, -1.16078311868654, 1.12119706974612, -1.21226428196996], a = 0.2, v = 0.2, t = 0.2)
movej(p[0.377794751158714, -0.108593863207871, 0.342505262656771, -1.15964103071072, 1.1229287136097, -1.21389268747258], a = 0.2, v = 0.2, t = 0.2)
movej(p[0.378631275763439, -0.108934710684953, 0.342459333547729, -1.15986117216069, 1.12337460091555, -1.21351975769588], a = 0.2, v = 0.2, t = 0.2)
movej(p[0.378907225092395, -0.109027723832615, 0.34243997218903, -1.16062463770667, 1.12362640517537, -1.21291645661386], a = 0.2, v = 0.2, t = 0.2)
movej(p[0.378907225092395, -0.109027723832615, 0.34243997218903, -1.16011753974084, 1.12402557033168, -1.21151762427584], a = 0.2, v = 0.2, t = 0.2)
movej(p[0.378628674792413, -0.108951487716623, 0.342502149154206, -1.1610753295289, 1.12344687681942, -1.21038792041866], a = 0.2, v = 0.2, t = 0.2)
movej(p[0.377828610609076, -0.108758886494183, 0.342779172044335, -1.16517648868564, 1.12641927105114, -1.20688298494997], a = 0.2, v = 0.2, t = 0.2)
movej(p[0.376908660460134, -0.10843784821336, 0.342969228577262, -1.16465411049446, 1.13206210261817, -1.20066871171172], a = 0.2, v = 0.2, t = 0.2)
movej(p[0.375767787192272, -0.108066042653769, 0.343214681490332, -1.15546525502454, 1.14037765013141, -1.1916496130159], a = 0.2, v = 0.2, t = 0.2)
movej(p[0.374183732844976, -0.107574070808471, 0.343609594681107, -1.15305597377101, 1.14671426229064, -1.18535572609928], a = 0.2, v = 0.2, t = 0.2)
movej(p[0.373757840728965, -0.107455435371001, 0.343734659298389, -1.15158773564055, 1.14876272540978, -1.18247898826336], a = 0.2, v = 0.2, t = 0.2)
movej(p[0.372558882041333, -0.107131769913201, 0.344081581835533, -1.14703629467194, 1.15232533276522, -1.17923209068323], a = 0.2, v = 0.2, t = 0.2)
movej(p[0.371930169851837, -0.106992396112696, 0.344300251784342, -1.14280307284708, 1.15603631985036, -1.17765741721632], a = 0.2, v = 0.2, t = 0.2)
movej(p[0.371930169851837, -0.106992396112696, 0.344300251784342, -1.13829137392301, 1.15251799729743, -1.18060437511208], a = 0.2, v = 0.2, t = 0.2)
movej(p[0.373268942578529, -0.10734134658637, 0.343878061243014, -1.14165197614106, 1.14684920738003, -1.18825486649355], a = 0.2, v = 0.2, t = 0.2)
movej(p[0.374099518818318, -0.107536226175868, 0.343592351958084, -1.14537578587134, 1.14255546762097, -1.19189600550983], a = 0.2, v = 0.2, t = 0.2)
movej(p[0.375342512702517, -0.107841145439231, 0.343180660742881, -1.14858488821114, 1.13737170610249, -1.19885275138171], a = 0.2, v = 0.2, t = 0.2)
movej(p[0.376066823846045, -0.108032468411475, 0.34295191986841, -1.14883934643814, 1.13177652956263, -1.2049307790164], a = 0.2, v = 0.2, t = 0.2)
movej(p[0.377323743543798, -0.108475772418187, 0.342685396640468, -1.1534637530847, 1.12578702393219, -1.21374751770464], a = 0.2, v = 0.2, t = 0.2)
movej(p[0.377865684734448, -0.108656968856608, 0.342591728574513, -1.15618951643154, 1.12318228663192, -1.21438106796412], a = 0.2, v = 0.2, t = 0.2)
movej(p[0.378142505711063, -0.108759331586253, 0.34256615146589, -1.15759417559627, 1.12356747971599, -1.2145763535586], a = 0.2, v = 0.2, t = 0.2)
movej(p[0.378492478348445, -0.108873853586118, 0.342477228270768, -1.16208146979326, 1.11921679558827, -1.21518433266723], a = 0.2, v = 0.2, t = 0.2)
movej(p[0.378706817995508, -0.108916957882117, 0.342404747201767, -1.16208146979326, 1.11921679558827, -1.21518433266723], a = 0.2, v = 0.2, t = 0.2)
movej(p[0.379138455267219, -0.109155385084591, 0.342440832999387, -1.1592569644792, 1.12208350533999, -1.21496150510868], a = 0.2, v = 0.2, t = 0.2)
movej(p[0.379132650141772, -0.109155868366156, 0.342507077372412, -1.15698372466237, 1.12425265379071, -1.21206693655167], a = 0.2, v = 0.2, t = 0.2)
movej(p[0.37763852495964, -0.108646924942071, 0.342767647864217, -1.15369803677806, 1.13144416812823, -1.2036938725552], a = 0.2, v = 0.2, t = 0.2)
movej(p[0.376049693321831, -0.108192262330016, 0.343208750432669, -1.15313111187879, 1.13926339306018, -1.19581745029761], a = 0.2, v = 0.2, t = 0.2)
movej(p[0.374271243396543, -0.107549407438462, 0.343568455022088, -1.14711267074593, 1.14414279517614, -1.18925891981037], a = 0.2, v = 0.2, t = 0.2)
movej(p[0.372341797965081, -0.106998362866343, 0.3441134233758, -1.13092912039953, 1.15766598174747, -1.18011347787233], a = 0.2, v = 0.2, t = 0.2)
movej(p[0.37069902691411, -0.106567920329743, 0.344623907985537, -1.12894238137143, 1.16373398944148, -1.17250636587706], a = 0.2, v = 0.2, t = 0.2)
movej(p[0.368714125771278, -0.10604155929892, 0.34523631517721, -1.12732261082006, 1.16862216919642, -1.16414614284717], a = 0.2, v = 0.2, t = 0.2)
movej(p[0.368714125771278, -0.10604155929892, 0.34523631517721, -1.12732261082006, 1.16862216919642, -1.16414614284717], a = 0.2, v = 0.2, t = 0.2)
movej(p[0.369833747813227, -0.106345566123481, 0.34493006615468, -1.12466453611737, 1.16592944574888, -1.16884830751266], a = 0.2, v = 0.2, t = 0.2)
movej(p[0.371068851901766, -0.106642696792166, 0.344505794441976, -1.12574892757309, 1.15781071453963, -1.17837738634829], a = 0.2, v = 0.2, t = 0.2)
movej(p[0.372977884433921, -0.107201649690854, 0.343981064465489, -1.13416426164112, 1.1485237096063, -1.18832683716649], a = 0.2, v = 0.2, t = 0.2)
movej(p[0.373855666019833, -0.107405759047171, 0.343688984411226, -1.14284630129377, 1.14136370275168, -1.19578690289414], a = 0.2, v = 0.2, t = 0.2)
movej(p[0.374524413508188, -0.107665524755784, 0.343560681786751, -1.14411499092329, 1.14035344142919, -1.19661291085751], a = 0.2, v = 0.2, t = 0.2)
movej(p[0.375014113432644, -0.107719280004816, 0.343346114740844, -1.14800438907532, 1.13740479423196, -1.19963732576822], a = 0.2, v = 0.2, t = 0.2)
movej(p[0.376173430844673, -0.108096820821668, 0.343061881157716, -1.1509271045667, 1.13156279379272, -1.20620728629418], a = 0.2, v = 0.2, t = 0.2)
movej(p[0.377334281878692, -0.108517468930166, 0.342817922994022, -1.15460128687997, 1.12685081728605, -1.21124502037297], a = 0.2, v = 0.2, t = 0.2)
movej(p[0.377813264909561, -0.108606959936602, 0.342636287298446, -1.15656205633371, 1.12479347588929, -1.21114493190475], a = 0.2, v = 0.2, t = 0.2)
movej(p[0.37807447069803, -0.108765964020285, 0.342631314628953, -1.15874278100975, 1.12357257986297, -1.21227023098992], a = 0.2, v = 0.2, t = 0.2)
movej(p[0.378372200554777, -0.108816077868877, 0.342563781195891, -1.16004008507674, 1.12290432989217, -1.21113133121198], a = 0.2, v = 0.2, t = 0.2)
movej(p[0.378430581192775, -0.10888584219205, 0.342551924960439, -1.16113047520469, 1.1222811341185, -1.20993637820742], a = 0.2, v = 0.2, t = 0.2)
movej(p[0.378538141099517, -0.108905024174359, 0.342515735901093, -1.16352153848342, 1.12024842449895, -1.20959662246756], a = 0.2, v = 0.2, t = 0.2)
movej(p[0.378538141099517, -0.108905024174359, 0.342515735901093, -1.16480079741418, 1.1214686993539, -1.20886213675257], a = 0.2, v = 0.2, t = 0.2)
movej(p[0.378162206101257, -0.108860573464049, 0.342668729761872, -1.16011935032251, 1.12684957794446, -1.20913411233495], a = 0.2, v = 0.2, t = 0.2)
movej(p[0.376158151317693, -0.108137218215752, 0.343139953858492, -1.14467699296784, 1.14035695097222, -1.19654727498295], a = 0.2, v = 0.2, t = 0.2)
movej(p[0.373699958548241, -0.107386686069434, 0.343788211951811, -1.14438341018798, 1.1496324580027, -1.18716964039994], a = 0.2, v = 0.2, t = 0.2)
movej(p[0.371596418897959, -0.106791179655919, 0.344400966422342, -1.13630974486668, 1.15856913255883, -1.17411946522207], a = 0.2, v = 0.2, t = 0.2)
movej(p[0.369772409949183, -0.106304112718513, 0.344955912269494, -1.12978179642817, 1.16700280247863, -1.16444596236225], a = 0.2, v = 0.2, t = 0.2)
movej(p[0.368988035359605, -0.106143216839468, 0.345229762172418, -1.12891331893616, 1.16976092263653, -1.1609465466278], a = 0.2, v = 0.2, t = 0.2)
movej(p[0.368988035359605, -0.106143216839468, 0.345229762172418, -1.12931137780353, 1.16920979826018, -1.1604204394151], a = 0.2, v = 0.2, t = 0.2)
movej(p[0.370978680413803, -0.106620109747142, 0.344631570545252, -1.13472526343755, 1.15764209294366, -1.17122623230738], a = 0.2, v = 0.2, t = 0.2)
movej(p[0.372331386920448, -0.107001643722506, 0.34423576096664, -1.13799899576141, 1.15100322149958, -1.17865562210593], a = 0.2, v = 0.2, t = 0.2)
movej(p[0.373864522329948, -0.107414328067509, 0.343769805928544, -1.15224053352357, 1.14132317507542, -1.19293993138568], a = 0.2, v = 0.2, t = 0.2)
movej(p[0.374835349588041, -0.107631676941641, 0.343563481737384, -1.1416534888818, 1.14366184820917, -1.19394721669359], a = 0.2, v = 0.2, t = 0.2)
movej(p[0.374853297677094, -0.107634156837234, 0.343562928368431, -1.14074959725042, 1.14408251251723, -1.19386632713471], a = 0.2, v = 0.2, t = 0.2)
movej(p[0.375164319168834, -0.107927866614799, 0.343479423528819, -1.14056375126756, 1.14390685296699, -1.19397708333058], a = 0.2, v = 0.2, t = 0.2)
movej(p[0.375965331570745, -0.108251095653637, 0.34324319088832, -1.14419815477313, 1.14050679223603, -1.19539265179329], a = 0.2, v = 0.2, t = 0.2)
movej(p[0.376746256632629, -0.108441710887509, 0.343009076620628, -1.14785310660187, 1.13779063158239, -1.19881005313535], a = 0.2, v = 0.2, t = 0.2)
movej(p[0.377213305850747, -0.108598383889709, 0.342877904907836, -1.15370439171832, 1.13156854442406, -1.2020442405162], a = 0.2, v = 0.2, t = 0.2)
movej(p[0.37814578323259, -0.108926437456156, 0.342621034123409, -1.16130008128281, 1.12510165723466, -1.20616877964743], a = 0.2, v = 0.2, t = 0.2)
movej(p[0.378360768262179, -0.108959549470107, 0.342532620767037, -1.1626392763861, 1.12323504135808, -1.20433094185013], a = 0.2, v = 0.2, t = 0.2)
movej(p[0.378522625804851, -0.108951954451604, 0.34247648956739, -1.15680665499294, 1.12710105685723, -1.19775005761839], a = 0.2, v = 0.2, t = 0.2)
movej(p[0.378783369760219, -0.109156251589666, 0.342417941475031, -1.14350016794286, 1.13275751103135, -1.1973569048596], a = 0.2, v = 0.2, t = 0.2)
movej(p[0.378870007429978, -0.109152213624436, 0.342396250485762, -1.13890540094564, 1.1348555347223, -1.1963784664136], a = 0.2, v = 0.2, t = 0.2)
movej(p[0.378865012911053, -0.10904312849019, 0.342396608629773, -1.13890540094564, 1.1348555347223, -1.1963784664136], a = 0.2, v = 0.2, t = 0.2)
movej(p[0.37808000554533, -0.108705300057897, 0.342616983574117, -1.14293703763103, 1.13403382198412, -1.19727327120173], a = 0.2, v = 0.2, t = 0.2)
movej(p[0.377449352552357, -0.108503399401643, 0.34278996287189, -1.14550887937513, 1.13646323021286, -1.19576013138415], a = 0.2, v = 0.2, t = 0.2)
movej(p[0.376834008659238, -0.108308189412705, 0.342958011000175, -1.14809758725338, 1.13892971406651, -1.19423994241271], a = 0.2, v = 0.2, t = 0.2)
movej(p[0.374812058902722, -0.107571464629121, 0.34352865227574, -1.15196545221301, 1.14420978357863, -1.19032706844953], a = 0.2, v = 0.2, t = 0.2)
movej(p[0.372678792988931, -0.106969173413217, 0.344160534624206, -1.14069838956969, 1.15464186412499, -1.18461473102638], a = 0.2, v = 0.2, t = 0.2)
movej(p[0.371610124320527, -0.106871020644605, 0.344487515298232, -1.1408898626877, 1.1561926614149, -1.18298847002382], a = 0.2, v = 0.2, t = 0.2)
movej(p[0.371610124320527, -0.106871020644605, 0.344487515298232, -1.14427533354973, 1.15134753542956, -1.1784094523139], a = 0.2, v = 0.2, t = 0.2)
movej(p[0.372440637763652, -0.106953378377595, 0.344260845219468, -1.14713995414745, 1.14774591305991, -1.18221760879475], a = 0.2, v = 0.2, t = 0.2)
movej(p[0.372975153019378, -0.107081166136225, 0.344108591844661, -1.14632386983982, 1.14581280867682, -1.18239765261377], a = 0.2, v = 0.2, t = 0.2)
movej(p[0.373919702406985, -0.107518196794555, 0.34382568281679, -1.14859859973928, 1.14267389617859, -1.18654642493739], a = 0.2, v = 0.2, t = 0.2)
movej(p[0.375623584502033, -0.108083156085177, 0.343336637730817, -1.15891848553434, 1.13162417712722, -1.19783436843861], a = 0.2, v = 0.2, t = 0.2)
movej(p[0.376055086304022, -0.108239623432978, 0.343195927731343, -1.1664155739573, 1.12610127477398, -1.20456654076769], a = 0.2, v = 0.2, t = 0.2)
movej(p[0.376610433368558, -0.108437172885705, 0.343025716857311, -1.16883129564066, 1.12449767790103, -1.20729797215548], a = 0.2, v = 0.2, t = 0.2)
movej(p[0.377257334041478, -0.108730543181999, 0.342827293349056, -1.16570393125493, 1.12434133731337, -1.21109169521611], a = 0.2, v = 0.2, t = 0.2)
movej(p[0.377749076306815, -0.108792384551171, 0.342695363483066, -1.164433224086, 1.122711987508, -1.21225708315058], a = 0.2, v = 0.2, t = 0.2)
movej(p[0.378432531514906, -0.109017886058844, 0.34245867715357, -1.16383330614548, 1.12078604674065, -1.21214193321698], a = 0.2, v = 0.2, t = 0.2)
movej(p[0.378440358734602, -0.109075875436341, 0.342454523031608, -1.16436684022949, 1.12036923913941, -1.21256044555913], a = 0.2, v = 0.2, t = 0.2)
movej(p[0.378532464389303, -0.109071592650664, 0.342434517629365, -1.16182021343585, 1.1206288167513, -1.21120252666397], a = 0.2, v = 0.2, t = 0.2)
movej(p[0.378584563921283, -0.109069212735468, 0.34243618938627, -1.16016731672361, 1.12202235865037, -1.21250627089905], a = 0.2, v = 0.2, t = 0.2)
movej(p[0.378577753629452, -0.108920469361023, 0.342436677734651, -1.15839392110789, 1.12324238969298, -1.21090332651734], a = 0.2, v = 0.2, t = 0.2)
movej(p[0.378337213642506, -0.108649916882081, 0.342537433284464, -1.15522891561572, 1.12580814981725, -1.20877274856736], a = 0.2, v = 0.2, t = 0.2)
movej(p[0.378127576295446, -0.108639861724867, 0.342588401966329, -1.15412614488007, 1.12662030254414, -1.20748868270803], a = 0.2, v = 0.2, t = 0.2)
movej(p[0.376275254476345, -0.108090636717906, 0.343116625243185, -1.15393434970163, 1.13538968884581, -1.20089736449352], a = 0.2, v = 0.2, t = 0.2)
movej(p[0.374207497669772, -0.107530525786906, 0.34369732292171, -1.14420174263497, 1.14697727846101, -1.18861838402429], a = 0.2, v = 0.2, t = 0.2)
movej(p[0.372595964904465, -0.106985664203427, 0.344186484041579, -1.14119275165494, 1.15347395539692, -1.18225714942778], a = 0.2, v = 0.2, t = 0.2)
movej(p[0.371960708666329, -0.10687368561311, 0.34436462785208, -1.13766714438279, 1.15572335954728, -1.17825855471901], a = 0.2, v = 0.2, t = 0.2)
movej(p[0.371960708666329, -0.10687368561311, 0.34436462785208, -1.13789029438586, 1.15546215160681, -1.17797513326035], a = 0.2, v = 0.2, t = 0.2)
movej(p[0.371984012703339, -0.106939640249694, 0.344349725578021, -1.14237622317411, 1.15095993713073, -1.17783214583479], a = 0.2, v = 0.2, t = 0.2)
movej(p[0.373317301194769, -0.107379872094157, 0.343968550576557, -1.14429621391845, 1.1406340344807, -1.18369332845765], a = 0.2, v = 0.2, t = 0.2)
movej(p[0.374170157504932, -0.107707325709259, 0.343699185593362, -1.1469299214432, 1.13732586100957, -1.1879251409901], a = 0.2, v = 0.2, t = 0.2)
movej(p[0.375303395826736, -0.1081005796486, 0.343355131287782, -1.14928826782485, 1.13408361475351, -1.19242284193486], a = 0.2, v = 0.2, t = 0.2)
movej(p[0.376074251474426, -0.108325049234051, 0.343138760181505, -1.15297782762631, 1.13111110410802, -1.197176538803], a = 0.2, v = 0.2, t = 0.2)
movej(p[0.376670639113891, -0.108604942887493, 0.342918139746693, -1.16198421008855, 1.12491315023664, -1.20653239528857], a = 0.2, v = 0.2, t = 0.2)
movej(p[0.377131950835055, -0.108752709228125, 0.342768761922058, -1.16771531945595, 1.12037238222036, -1.21082298651313], a = 0.2, v = 0.2, t = 0.2)
movej(p[0.377502767690347, -0.108894775870311, 0.342639904640504, -1.16686013864573, 1.11955503349991, -1.21131302641125], a = 0.2, v = 0.2, t = 0.2)
movej(p[0.378283224944018, -0.109078905787246, 0.342436314000048, -1.16396330646056, 1.11891358272668, -1.21329771171966], a = 0.2, v = 0.2, t = 0.2)
movej(p[0.378634511858529, -0.109171732823742, 0.342313231893351, -1.16152977196491, 1.1196272571168, -1.21324006017984], a = 0.2, v = 0.2, t = 0.2)
movej(p[0.378673620545324, -0.109169953506994, 0.342316672045827, -1.16145144008376, 1.11959274004306, -1.21329885682976], a = 0.2, v = 0.2, t = 0.2)
movej(p[0.378664399069694, -0.109005868150898, 0.342336636271382, -1.15811720532621, 1.1221726248399, -1.21022841644382], a = 0.2, v = 0.2, t = 0.2)
movej(p[0.377900665815841, -0.108672269345417, 0.342586952699009, -1.15888207109347, 1.1258844969576, -1.20745480367679], a = 0.2, v = 0.2, t = 0.2)
