def moving():
set_payload_mass(0)
set_tcp(p[0,0,0,0,0,0])
movej(p[-0.4796, -0.2425, 0.3673, -0.9, -1.75, 1.541], a = 0.2, v = 0.2, t = 0.2)
movej(p[-0.479618624240431, -0.242518017506301, 0.367518227128662, -0.9, -1.75, 1.541], a = 0.2, v = 0.2, t = 0.2)
movej(p[-0.479637248480861, -0.242536035012602, 0.367736454257324, -0.9, -1.75, 1.541], a = 0.2, v = 0.2, t = 0.2)
movej(p[-0.479655872721292, -0.242554052518903, 0.367954681385986, -0.9, -1.75, 1.541], a = 0.2, v = 0.2, t = 0.2)
movej(p[-0.479674496961722, -0.242572070025204, 0.368172908514648, -0.9, -1.75, 1.541], a = 0.2, v = 0.2, t = 0.2)
movej(p[-0.479693121202153, -0.242590087531505, 0.36839113564331, -0.9, -1.75, 1.541], a = 0.2, v = 0.2, t = 0.2)
movej(p[-0.479711745442583, -0.242608105037806, 0.368609362771972, -0.9, -1.75, 1.541], a = 0.2, v = 0.2, t = 0.2)
movej(p[-0.479730369683014, -0.242626122544107, 0.368827589900634, -0.9, -1.75, 1.541], a = 0.2, v = 0.2, t = 0.2)
movej(p[-0.479748993923445, -0.242644140050408, 0.369045817029296, -0.9, -1.75, 1.541], a = 0.2, v = 0.2, t = 0.2)
movej(p[-0.479767618163875, -0.242662157556709, 0.369264044157958, -0.9, -1.75, 1.541], a = 0.2, v = 0.2, t = 0.2)
movej(p[-0.479786242404306, -0.24268017506301, 0.36948227128662, -0.9, -1.75, 1.541], a = 0.2, v = 0.2, t = 0.2)
movej(p[-0.479737357621159, -0.242632882831596, 0.368909470162132, -0.9, -1.75, 1.541], a = 0.2, v = 0.2, t = 0.2)
movej(p[-0.47971009850562, -0.242606511754191, 0.36859006500109, -0.9, -1.75, 1.541], a = 0.2, v = 0.2, t = 0.2)
movej(p[-0.479686241007548, -0.242583431477525, 0.368310517852804, -0.9, -1.75, 1.541], a = 0.2, v = 0.2, t = 0.2)
movej(p[-0.479677837011452, -0.242575301263938, 0.368212045115408, -0.9, -1.75, 1.541], a = 0.2, v = 0.2, t = 0.2)
movej(p[-0.479675220382632, -0.242572769878755, 0.368181385105596, -0.9, -1.75, 1.541], a = 0.2, v = 0.2, t = 0.2)
movej(p[-0.479672680713482, -0.242570312946077, 0.368151626860779, -0.9, -1.75, 1.541], a = 0.2, v = 0.2, t = 0.2)
movej(p[-0.479663276241661, -0.24256121484992, 0.368041431178454, -0.9, -1.75, 1.541], a = 0.2, v = 0.2, t = 0.2)
movej(p[-0.47967201886031, -0.242569672654531, 0.368143871681826, -0.9, -1.75, 1.541], a = 0.2, v = 0.2, t = 0.2)
movej(p[-0.479729492342762, -0.242625273785546, 0.368817309779697, -0.9, -1.75, 1.541], a = 0.2, v = 0.2, t = 0.2)
movej(p[-0.479805297618895, -0.242698609503342, 0.369705548299251, -0.9, -1.75, 1.541], a = 0.2, v = 0.2, t = 0.2)
movej(p[-0.479887798386422, -0.242778422589105, 0.370672240373324, -0.9, -1.75, 1.541], a = 0.2, v = 0.2, t = 0.2)
movej(p[-0.479998266298464, -0.242885291715322, 0.371966633846388, -0.9, -1.75, 1.541], a = 0.2, v = 0.2, t = 0.2)
movej(p[-0.480090033010403, -0.242974068882733, 0.373041898425796, -0.9, -1.75, 1.541], a = 0.2, v = 0.2, t = 0.2)
movej(p[-0.480109626942691, -0.242993024490601, 0.373271487793388, -0.9, -1.75, 1.541], a = 0.2, v = 0.2, t = 0.2)
movej(p[-0.480015120466457, -0.242901596813999, 0.372164120380178, -0.9, -1.75, 1.541], a = 0.2, v = 0.2, t = 0.2)
movej(p[-0.479885412636615, -0.242776114561438, 0.370644285658496, -0.9, -1.75, 1.541], a = 0.2, v = 0.2, t = 0.2)
movej(p[-0.479790521362024, -0.242684314622309, 0.369532409420313, -0.9, -1.75, 1.541], a = 0.2, v = 0.2, t = 0.2)
movej(p[-0.479719995519336, -0.242616086346383, 0.36870603197938, -0.9, -1.75, 1.541], a = 0.2, v = 0.2, t = 0.2)
movej(p[-0.479696030277724, -0.242592901836208, 0.368425222360101, -0.9, -1.75, 1.541], a = 0.2, v = 0.2, t = 0.2)
movej(p[-0.479685394451164, -0.242582612499965, 0.368300598437865, -0.9, -1.75, 1.541], a = 0.2, v = 0.2, t = 0.2)
movej(p[-0.479672696105416, -0.242570327836578, 0.368151807213777, -0.9, -1.75, 1.541], a = 0.2, v = 0.2, t = 0.2)
movej(p[-0.4796712954394, -0.242568972800981, 0.368135395090878, -0.9, -1.75, 1.541], a = 0.2, v = 0.2, t = 0.2)
movej(p[-0.479694860490722, -0.242591770158127, 0.368411515532185, -0.9, -1.75, 1.541], a = 0.2, v = 0.2, t = 0.2)
movej(p[-0.479764170370605, -0.242658822084469, 0.369223645086206, -0.9, -1.75, 1.541], a = 0.2, v = 0.2, t = 0.2)
movej(p[-0.479851473421615, -0.242743281006567, 0.370246607295934, -0.9, -1.75, 1.541], a = 0.2, v = 0.2, t = 0.2)
movej(p[-0.479954599381024, -0.242843047363772, 0.371454972388525, -0.9, -1.75, 1.541], a = 0.2, v = 0.2, t = 0.2)
movej(p[-0.480051707094145, -0.242936991535055, 0.372592819458549, -0.9, -1.75, 1.541], a = 0.2, v = 0.2, t = 0.2)
movej(p[-0.480104085846364, -0.242987663910214, 0.373206560713786, -0.9, -1.75, 1.541], a = 0.2, v = 0.2, t = 0.2)
movej(p[-0.48006021883378, -0.24294522598215, 0.372692554666938, -0.9, -1.75, 1.541], a = 0.2, v = 0.2, t = 0.2)
movej(p[-0.479942162698158, -0.242831015838903, 0.371309247165419, -0.9, -1.75, 1.541], a = 0.2, v = 0.2, t = 0.2)
movej(p[-0.47982626143333, -0.242718890365806, 0.369951189083745, -0.9, -1.75, 1.541], a = 0.2, v = 0.2, t = 0.2)
movej(p[-0.479738219569476, -0.242633716699656, 0.36891956993007, -0.9, -1.75, 1.541], a = 0.2, v = 0.2, t = 0.2)
movej(p[-0.479705049951189, -0.242601627669839, 0.368530909217453, -0.9, -1.75, 1.541], a = 0.2, v = 0.2, t = 0.2)
movej(p[-0.479687780200972, -0.242584920527632, 0.368328553152694, -0.9, -1.75, 1.541], a = 0.2, v = 0.2, t = 0.2)
movej(p[-0.479677636916307, -0.242575107687424, 0.368209700526423, -0.9, -1.75, 1.541], a = 0.2, v = 0.2, t = 0.2)
movej(p[-0.479669433015357, -0.24256717105035, 0.368113572378012, -0.9, -1.75, 1.541], a = 0.2, v = 0.2, t = 0.2)
movej(p[-0.479676420953502, -0.242573931337839, 0.36819545263951, -0.9, -1.75, 1.541], a = 0.2, v = 0.2, t = 0.2)
movej(p[-0.479725859846282, -0.242621759627292, 0.368774746471958, -0.9, -1.75, 1.541], a = 0.2, v = 0.2, t = 0.2)
movej(p[-0.479799910441911, -0.242693397827965, 0.369642424749638, -0.9, -1.75, 1.541], a = 0.2, v = 0.2, t = 0.2)
movej(p[-0.479911471181283, -0.242801324179759, 0.370949623285624, -0.9, -1.75, 1.541], a = 0.2, v = 0.2, t = 0.2)
movej(p[-0.480009410058853, -0.2428960724381, 0.372097209417588, -0.9, -1.75, 1.541], a = 0.2, v = 0.2, t = 0.2)
movej(p[-0.480079905117673, -0.242964270933025, 0.372923226152523, -0.9, -1.75, 1.541], a = 0.2, v = 0.2, t = 0.2)
movej(p[-0.480106748650988, -0.2429902399669, 0.373237761782595, -0.9, -1.75, 1.541], a = 0.2, v = 0.2, t = 0.2)
movej(p[-0.480043641720603, -0.242929188912492, 0.372498314487129, -0.9, -1.75, 1.541], a = 0.2, v = 0.2, t = 0.2)
movej(p[-0.479907992604145, -0.242797958926516, 0.370908863507874, -0.9, -1.75, 1.541], a = 0.2, v = 0.2, t = 0.2)
movej(p[-0.479788935992798, -0.242682780900699, 0.369513833061427, -0.9, -1.75, 1.541], a = 0.2, v = 0.2, t = 0.2)
movej(p[-0.479734479329456, -0.242630098307894, 0.368875744151339, -0.9, -1.75, 1.541], a = 0.2, v = 0.2, t = 0.2)
movej(p[-0.479702987432001, -0.242599632342694, 0.368506741915601, -0.9, -1.75, 1.541], a = 0.2, v = 0.2, t = 0.2)
movej(p[-0.479683932217412, -0.242581197902363, 0.36828346490297, -0.9, -1.75, 1.541], a = 0.2, v = 0.2, t = 0.2)
movej(p[-0.479673265606983, -0.242570878785118, 0.368158480274737, -0.9, -1.75, 1.541], a = 0.2, v = 0.2, t = 0.2)
movej(p[-0.47967151092648, -0.242569181267996, 0.368137920032863, -0.9, -1.75, 1.541], a = 0.2, v = 0.2, t = 0.2)
movej(p[-0.479692905715074, -0.24258987906449, 0.368388610701326, -0.9, -1.75, 1.541], a = 0.2, v = 0.2, t = 0.2)
movej(p[-0.479761830796601, -0.242656558728305, 0.369196231430374, -0.9, -1.75, 1.541], a = 0.2, v = 0.2, t = 0.2)
movej(p[-0.479872914386012, -0.242764023474565, 0.370497839023394, -0.9, -1.75, 1.541], a = 0.2, v = 0.2, t = 0.2)
movej(p[-0.47998071949343, -0.242868316544096, 0.371761031427649, -0.9, -1.75, 1.541], a = 0.2, v = 0.2, t = 0.2)
movej(p[-0.480050429563603, -0.242935755623466, 0.372577850159641, -0.9, -1.75, 1.541], a = 0.2, v = 0.2, t = 0.2)
movej(p[-0.480115229606754, -0.242998444632993, 0.373337136284986, -0.9, -1.75, 1.541], a = 0.2, v = 0.2, t = 0.2)
movej(p[-0.480094650590675, -0.242978536033055, 0.373096004325464, -0.9, -1.75, 1.541], a = 0.2, v = 0.2, t = 0.2)
movej(p[-0.479956123182514, -0.242844521523378, 0.371472827335416, -0.9, -1.75, 1.541], a = 0.2, v = 0.2, t = 0.2)
movej(p[-0.479815163848743, -0.242708154314531, 0.369821154571543, -0.9, -1.75, 1.541], a = 0.2, v = 0.2, t = 0.2)
movej(p[-0.479745115156016, -0.242640387644137, 0.369000368073575, -0.9, -1.75, 1.541], a = 0.2, v = 0.2, t = 0.2)
movej(p[-0.479709898410475, -0.242606318177677, 0.368587720412105, -0.9, -1.75, 1.541], a = 0.2, v = 0.2, t = 0.2)
movej(p[-0.479682793214278, -0.242580096005284, 0.368270118781052, -0.9, -1.75, 1.541], a = 0.2, v = 0.2, t = 0.2)
movej(p[-0.479675559005185, -0.242573097469778, 0.368185352871572, -0.9, -1.75, 1.541], a = 0.2, v = 0.2, t = 0.2)
movej(p[-0.479673742756945, -0.242571340390652, 0.368164071217702, -0.9, -1.75, 1.541], a = 0.2, v = 0.2, t = 0.2)
movej(p[-0.479691120250702, -0.242588151766365, 0.368367689753454, -0.9, -1.75, 1.541], a = 0.2, v = 0.2, t = 0.2)
movej(p[-0.479748085799324, -0.242643261510845, 0.369035176202361, -0.9, -1.75, 1.541], a = 0.2, v = 0.2, t = 0.2)
movej(p[-0.479849410902427, -0.242741285679423, 0.370222439994082, -0.9, -1.75, 1.541], a = 0.2, v = 0.2, t = 0.2)
movej(p[-0.479947272820326, -0.24283595948526, 0.371369124361052, -0.9, -1.75, 1.541], a = 0.2, v = 0.2, t = 0.2)
movej(p[-0.480025417670463, -0.242911558559219, 0.372284776536438, -0.9, -1.75, 1.541], a = 0.2, v = 0.2, t = 0.2)
movej(p[-0.480100376390213, -0.242984075299455, 0.373163095641053, -0.9, -1.75, 1.541], a = 0.2, v = 0.2, t = 0.2)
movej(p[-0.480103916535088, -0.242987500114703, 0.373204576830798, -0.9, -1.75, 1.541], a = 0.2, v = 0.2, t = 0.2)
movej(p[-0.47999135531999, -0.242878605880339, 0.371885655349885, -0.9, -1.75, 1.541], a = 0.2, v = 0.2, t = 0.2)
movej(p[-0.479846825057475, -0.242738784075243, 0.370192140690268, -0.9, -1.75, 1.541], a = 0.2, v = 0.2, t = 0.2)
movej(p[-0.479761784620798, -0.242656514056802, 0.369195690371377, -0.9, -1.75, 1.541], a = 0.2, v = 0.2, t = 0.2)
movej(p[-0.479714100408522, -0.242610383284471, 0.368636956780803, -0.9, -1.75, 1.541], a = 0.2, v = 0.2, t = 0.2)
movej(p[-0.479681885090158, -0.24257921746572, 0.368259477954117, -0.9, -1.75, 1.541], a = 0.2, v = 0.2, t = 0.2)
movej(p[-0.479675543613251, -0.242573082579277, 0.368185172518573, -0.9, -1.75, 1.541], a = 0.2, v = 0.2, t = 0.2)
movej(p[-0.479675081855223, -0.242572635864245, 0.368179761928606, -0.9, -1.75, 1.541], a = 0.2, v = 0.2, t = 0.2)
movej(p[-0.47968527131569, -0.242582493375957, 0.368299155613874, -0.9, -1.75, 1.541], a = 0.2, v = 0.2, t = 0.2)
movej(p[-0.479743776057737, -0.242639092170544, 0.368984677362671, -0.9, -1.75, 1.541], a = 0.2, v = 0.2, t = 0.2)
movej(p[-0.479843454223876, -0.242735523055507, 0.37015264338351, -0.9, -1.75, 1.541], a = 0.2, v = 0.2, t = 0.2)
movej(p[-0.479935190151947, -0.242824270441916, 0.37122754725692, -0.9, -1.75, 1.541], a = 0.2, v = 0.2, t = 0.2)
movej(p[-0.480013966071388, -0.242900480026419, 0.372150593905261, -0.9, -1.75, 1.541], a = 0.2, v = 0.2, t = 0.2)
movej(p[-0.480091402892551, -0.242975394137328, 0.373057949842697, -0.9, -1.75, 1.541], a = 0.2, v = 0.2, t = 0.2)
movej(p[-0.480110581242614, -0.242993947701668, 0.37328266967932, -0.9, -1.75, 1.541], a = 0.2, v = 0.2, t = 0.2)
movej(p[-0.480000267249915, -0.242887227480462, 0.371990079736245, -0.9, -1.75, 1.541], a = 0.2, v = 0.2, t = 0.2)
movej(p[-0.479874915337463, -0.242765959239705, 0.37052128491325, -0.9, -1.75, 1.541], a = 0.2, v = 0.2, t = 0.2)
movej(p[-0.47978099375473, -0.242675097402144, 0.369420770913997, -0.9, -1.75, 1.541], a = 0.2, v = 0.2, t = 0.2)
movej(p[-0.479721981078853, -0.242618007221021, 0.368729297516237, -0.9, -1.75, 1.541], a = 0.2, v = 0.2, t = 0.2)
movej(p[-0.479683301148108, -0.242580587391819, 0.368276070430016, -0.9, -1.75, 1.541], a = 0.2, v = 0.2, t = 0.2)
movej(p[-0.479675482045514, -0.242573023017273, 0.368184451106577, -0.9, -1.75, 1.541], a = 0.2, v = 0.2, t = 0.2)
movej(p[-0.479671941900638, -0.242569598202026, 0.368142969916832, -0.9, -1.75, 1.541], a = 0.2, v = 0.2, t = 0.2)
movej(p[-0.479666493155917, -0.242564326964645, 0.368079124955223, -0.9, -1.75, 1.541], a = 0.2, v = 0.2, t = 0.2)
movej(p[-0.479686194831745, -0.242583386806021, 0.368309976793808, -0.9, -1.75, 1.541], a = 0.2, v = 0.2, t = 0.2)
movej(p[-0.47977025018463, -0.242664703832393, 0.369294884520769, -0.9, -1.75, 1.541], a = 0.2, v = 0.2, t = 0.2)
movej(p[-0.479865033715681, -0.242756399538015, 0.37040549828796, -0.9, -1.75, 1.541], a = 0.2, v = 0.2, t = 0.2)
movej(p[-0.479946626359088, -0.242835334084215, 0.371361549535098, -0.9, -1.75, 1.541], a = 0.2, v = 0.2, t = 0.2)
movej(p[-0.480048074597665, -0.242933477376802, 0.37255025615081, -0.9, -1.75, 1.541], a = 0.2, v = 0.2, t = 0.2)
movej(p[-0.480119416212868, -0.243002494849285, 0.373386192300685, -0.9, -1.75, 1.541], a = 0.2, v = 0.2, t = 0.2)
movej(p[-0.480080967161136, -0.242965298377599, 0.372935670509447, -0.9, -1.75, 1.541], a = 0.2, v = 0.2, t = 0.2)
movej(p[-0.479956584940541, -0.24284496823841, 0.371478237925383, -0.9, -1.75, 1.541], a = 0.2, v = 0.2, t = 0.2)
movej(p[-0.47984074524345, -0.242732902327318, 0.370120901255705, -0.9, -1.75, 1.541], a = 0.2, v = 0.2, t = 0.2)
movej(p[-0.479756628322828, -0.242651525738942, 0.369135272116748, -0.9, -1.75, 1.541], a = 0.2, v = 0.2, t = 0.2)
movej(p[-0.479700247667706, -0.242596981833503, 0.368474639081798, -0.9, -1.75, 1.541], a = 0.2, v = 0.2, t = 0.2)
movej(p[-0.479683870649675, -0.242581138340359, 0.368282743490975, -0.9, -1.75, 1.541], a = 0.2, v = 0.2, t = 0.2)
movej(p[-0.479676636440582, -0.242574139804854, 0.368197977581494, -0.9, -1.75, 1.541], a = 0.2, v = 0.2, t = 0.2)
movej(p[-0.479665323368915, -0.242563195286563, 0.368065418127307, -0.9, -1.75, 1.541], a = 0.2, v = 0.2, t = 0.2)
movej(p[-0.479665246409244, -0.242563120834058, 0.368064516362313, -0.9, -1.75, 1.541], a = 0.2, v = 0.2, t = 0.2)
movej(p[-0.479685132788282, -0.242582359361447, 0.368297532436884, -0.9, -1.75, 1.541], a = 0.2, v = 0.2, t = 0.2)
movej(p[-0.479752072310293, -0.242647118150623, 0.369081887629075, -0.9, -1.75, 1.541], a = 0.2, v = 0.2, t = 0.2)
movej(p[-0.479823783331917, -0.242716492995133, 0.369922152250923, -0.9, -1.75, 1.541], a = 0.2, v = 0.2, t = 0.2)
movej(p[-0.479920183016063, -0.242809752203367, 0.371051703082998, -0.9, -1.75, 1.541], a = 0.2, v = 0.2, t = 0.2)
movej(p[-0.480005285020477, -0.242892081783812, 0.372048874813884, -0.9, -1.75, 1.541], a = 0.2, v = 0.2, t = 0.2)
movej(p[-0.480045965902674, -0.242931437378154, 0.372525547789962, -0.9, -1.75, 1.541], a = 0.2, v = 0.2, t = 0.2)
movej(p[-0.479995249479352, -0.242882373177111, 0.371931284658605, -0.9, -1.75, 1.541], a = 0.2, v = 0.2, t = 0.2)
movej(p[-0.479879548309669, -0.242770441280529, 0.370575571165917, -0.9, -1.75, 1.541], a = 0.2, v = 0.2, t = 0.2)
movej(p[-0.479786334755911, -0.242680264406017, 0.369483353404614, -0.9, -1.75, 1.541], a = 0.2, v = 0.2, t = 0.2)
movej(p[-0.479714500598812, -0.242610770437499, 0.368641645958774, -0.9, -1.75, 1.541], a = 0.2, v = 0.2, t = 0.2)
movej(p[-0.479691705144203, -0.242588717605406, 0.368374543167412, -0.9, -1.75, 1.541], a = 0.2, v = 0.2, t = 0.2)
movej(p[-0.479679345421008, -0.242576760533043, 0.3682297197093, -0.9, -1.75, 1.541], a = 0.2, v = 0.2, t = 0.2)
movej(p[-0.47966653933172, -0.242564371636148, 0.36807966601422, -0.9, -1.75, 1.541], a = 0.2, v = 0.2, t = 0.2)
movej(p[-0.479665107881836, -0.242562986819548, 0.368062893185323, -0.9, -1.75, 1.541], a = 0.2, v = 0.2, t = 0.2)
movej(p[-0.479665215625376, -0.242563091053056, 0.368064155656315, -0.9, -1.75, 1.541], a = 0.2, v = 0.2, t = 0.2)
movej(p[-0.479683778298069, -0.242581048997353, 0.368281661372981, -0.9, -1.75, 1.541], a = 0.2, v = 0.2, t = 0.2)
movej(p[-0.479740682278955, -0.242636099179828, 0.368948426409893, -0.9, -1.75, 1.541], a = 0.2, v = 0.2, t = 0.2)
movej(p[-0.479825815067237, -0.242718458541275, 0.369945958846777, -0.9, -1.75, 1.541], a = 0.2, v = 0.2, t = 0.2)
movej(p[-0.479907669373526, -0.242797646225993, 0.370905076094897, -0.9, -1.75, 1.541], a = 0.2, v = 0.2, t = 0.2)
movej(p[-0.479969914355593, -0.242857863412341, 0.371634423622425, -0.9, -1.75, 1.541], a = 0.2, v = 0.2, t = 0.2)
movej(p[-0.480039547466096, -0.242925228039206, 0.372450340589423, -0.9, -1.75, 1.541], a = 0.2, v = 0.2, t = 0.2)
movej(p[-0.480040517157953, -0.242926166140774, 0.372461702828353, -0.9, -1.75, 1.541], a = 0.2, v = 0.2, t = 0.2)
movej(p[-0.479938714904888, -0.242827680366662, 0.371268848093667, -0.9, -1.75, 1.541], a = 0.2, v = 0.2, t = 0.2)
movej(p[-0.479822690504586, -0.242715435769557, 0.369909347188002, -0.9, -1.75, 1.541], a = 0.2, v = 0.2, t = 0.2)
movej(p[-0.479750994874896, -0.242646075815548, 0.369069262919152, -0.9, -1.75, 1.541], a = 0.2, v = 0.2, t = 0.2)
movej(p[-0.479710006154014, -0.242606422411185, 0.368588982883097, -0.9, -1.75, 1.541], a = 0.2, v = 0.2, t = 0.2)
movej(p[-0.479679468556482, -0.242576879657051, 0.368231162533291, -0.9, -1.75, 1.541], a = 0.2, v = 0.2, t = 0.2)
movej(p[-0.479670187220135, -0.242567900684903, 0.368122409674958, -0.9, -1.75, 1.541], a = 0.2, v = 0.2, t = 0.2)
movej(p[-0.479665661991468, -0.242563522877587, 0.368069385893283, -0.9, -1.75, 1.541], a = 0.2, v = 0.2, t = 0.2)
movej(p[-0.479663661040017, -0.242561587112447, 0.368045940003427, -0.9, -1.75, 1.541], a = 0.2, v = 0.2, t = 0.2)
movej(p[-0.479653225308602, -0.242551491352718, 0.367923660670176, -0.9, -1.75, 1.541], a = 0.2, v = 0.2, t = 0.2)
movej(p[-0.479653410011813, -0.242551670038731, 0.367925824906163, -0.9, -1.75, 1.541], a = 0.2, v = 0.2, t = 0.2)
movej(p[-0.479677344469557, -0.242574824767903, 0.368206273819444, -0.9, -1.75, 1.541], a = 0.2, v = 0.2, t = 0.2)
movej(p[-0.479729892533053, -0.242625660938574, 0.368821998957668, -0.9, -1.75, 1.541], a = 0.2, v = 0.2, t = 0.2)
movej(p[-0.47979496963102, -0.24268861797712, 0.369584531436993, -0.9, -1.75, 1.541], a = 0.2, v = 0.2, t = 0.2)
movej(p[-0.479876300611545, -0.242767299384802, 0.37053751668315, -0.9, -1.75, 1.541], a = 0.2, v = 0.2, t = 0.2)
movej(p[-0.479944610015702, -0.242833383428574, 0.371337923292243, -0.9, -1.75, 1.541], a = 0.2, v = 0.2, t = 0.2)
movej(p[-0.480001821835273, -0.24288873142107, 0.372008295389133, -0.9, -1.75, 1.541], a = 0.2, v = 0.2, t = 0.2)
movej(p[-0.480039793737043, -0.242925466287223, 0.372453226237405, -0.9, -1.75, 1.541], a = 0.2, v = 0.2, t = 0.2)
movej(p[-0.479965989412362, -0.242854066334567, 0.371588433607707, -0.9, -1.75, 1.541], a = 0.2, v = 0.2, t = 0.2)
movej(p[-0.479850903920048, -0.242742730058028, 0.370239934234975, -0.9, -1.75, 1.541], a = 0.2, v = 0.2, t = 0.2)
movej(p[-0.479750333021723, -0.242645435524002, 0.3690615077402, -0.9, -1.75, 1.541], a = 0.2, v = 0.2, t = 0.2)
movej(p[-0.479707543444536, -0.242604039931013, 0.368560126403274, -0.9, -1.75, 1.541], a = 0.2, v = 0.2, t = 0.2)
movej(p[-0.47968356281099, -0.242580840530338, 0.368279136430997, -0.9, -1.75, 1.541], a = 0.2, v = 0.2, t = 0.2)
movej(p[-0.479666016005956, -0.242563865359112, 0.368073534012257, -0.9, -1.75, 1.541], a = 0.2, v = 0.2, t = 0.2)
movej(p[-0.479661398425684, -0.242559398208789, 0.368019428112589, -0.9, -1.75, 1.541], a = 0.2, v = 0.2, t = 0.2)
movej(p[-0.479658797188797, -0.242556881714107, 0.367988948455776, -0.9, -1.75, 1.541], a = 0.2, v = 0.2, t = 0.2)
movej(p[-0.479658904932337, -0.242556985947615, 0.367990210926768, -0.9, -1.75, 1.541], a = 0.2, v = 0.2, t = 0.2)
movej(p[-0.479651701507113, -0.242550017193112, 0.367905805723286, -0.9, -1.75, 1.541], a = 0.2, v = 0.2, t = 0.2)
movej(p[-0.479664461420598, -0.242562361418503, 0.368055318359369, -0.9, -1.75, 1.541], a = 0.2, v = 0.2, t = 0.2)
movej(p[-0.47972487476249, -0.242620806635223, 0.368763203880029, -0.9, -1.75, 1.541], a = 0.2, v = 0.2, t = 0.2)
movej(p[-0.479790752241038, -0.242684537979826, 0.369535114715296, -0.9, -1.75, 1.541], a = 0.2, v = 0.2, t = 0.2)
movej(p[-0.479868204454134, -0.242759466981236, 0.370442651005732, -0.9, -1.75, 1.541], a = 0.2, v = 0.2, t = 0.2)
movej(p[-0.479955076530986, -0.242843508969305, 0.371460563331491, -0.9, -1.75, 1.541], a = 0.2, v = 0.2, t = 0.2)
movej(p[-0.480020984793402, -0.242907270094909, 0.372232834872756, -0.9, -1.75, 1.541], a = 0.2, v = 0.2, t = 0.2)
movej(p[-0.480025463846266, -0.242911603230722, 0.372285317595435, -0.9, -1.75, 1.541], a = 0.2, v = 0.2, t = 0.2)
movej(p[-0.479932650482798, -0.242821813509238, 0.371197789012102, -0.9, -1.75, 1.541], a = 0.2, v = 0.2, t = 0.2)
movej(p[-0.479833172411804, -0.242725576200789, 0.370032167580249, -0.9, -1.75, 1.541], a = 0.2, v = 0.2, t = 0.2)
movej(p[-0.479754781290719, -0.242649738878813, 0.36911362975688, -0.9, -1.75, 1.541], a = 0.2, v = 0.2, t = 0.2)
movej(p[-0.479700786385404, -0.242597503001041, 0.368480951436759, -0.9, -1.75, 1.541], a = 0.2, v = 0.2, t = 0.2)
movej(p[-0.479680022666114, -0.24257741571509, 0.368237655241251, -0.9, -1.75, 1.541], a = 0.2, v = 0.2, t = 0.2)
movej(p[-0.479670002516924, -0.24256772199889, 0.368120245438971, -0.9, -1.75, 1.541], a = 0.2, v = 0.2, t = 0.2)
movej(p[-0.479655980464831, -0.242554156752411, 0.367955943856978, -0.9, -1.75, 1.541], a = 0.2, v = 0.2, t = 0.2)
movej(p[-0.479656611534135, -0.242554767262955, 0.367963338329933, -0.9, -1.75, 1.541], a = 0.2, v = 0.2, t = 0.2)
movej(p[-0.479655487922936, -0.242553680256376, 0.367950172561014, -0.9, -1.75, 1.541], a = 0.2, v = 0.2, t = 0.2)
movej(p[-0.479659412866167, -0.24255747733415, 0.367996162575732, -0.9, -1.75, 1.541], a = 0.2, v = 0.2, t = 0.2)
movej(p[-0.479699431895191, -0.242596192636946, 0.368465080372857, -0.9, -1.75, 1.541], a = 0.2, v = 0.2, t = 0.2)
movej(p[-0.479776607053471, -0.242670853609337, 0.369369370309312, -0.9, -1.75, 1.541], a = 0.2, v = 0.2, t = 0.2)
movej(p[-0.479852273802196, -0.242744055312623, 0.370255985651877, -0.9, -1.75, 1.541], a = 0.2, v = 0.2, t = 0.2)
movej(p[-0.47990971650078, -0.242799626662636, 0.37092906304375, -0.9, -1.75, 1.541], a = 0.2, v = 0.2, t = 0.2)
movej(p[-0.479994910856799, -0.242882045586088, 0.371927316892629, -0.9, -1.75, 1.541], a = 0.2, v = 0.2, t = 0.2)
movej(p[-0.480069700265272, -0.242954398530812, 0.372803652114257, -0.9, -1.75, 1.541], a = 0.2, v = 0.2, t = 0.2)
movej(p[-0.480030558576499, -0.242916531986578, 0.372345014438069, -0.9, -1.75, 1.541], a = 0.2, v = 0.2, t = 0.2)
movej(p[-0.479903298064202, -0.242793417323688, 0.370853855843211, -0.9, -1.75, 1.541], a = 0.2, v = 0.2, t = 0.2)
movej(p[-0.479812855058607, -0.24270592073937, 0.369794101621708, -0.9, -1.75, 1.541], a = 0.2, v = 0.2, t = 0.2)
movej(p[-0.479738927598451, -0.242634401662705, 0.368927866168019, -0.9, -1.75, 1.541], a = 0.2, v = 0.2, t = 0.2)
movej(p[-0.479685656114046, -0.242582865638484, 0.368303664438846, -0.9, -1.75, 1.541], a = 0.2, v = 0.2, t = 0.2)
movej(p[-0.479672542186074, -0.242570178931568, 0.368150003683789, -0.9, -1.75, 1.541], a = 0.2, v = 0.2, t = 0.2)
movej(p[-0.479665277193112, -0.24256315061506, 0.36806487706831, -0.9, -1.75, 1.541], a = 0.2, v = 0.2, t = 0.2)
movej(p[-0.479661413817618, -0.24255941309929, 0.368019608465588, -0.9, -1.75, 1.541], a = 0.2, v = 0.2, t = 0.2)
movej(p[-0.479652486495759, -0.242550776608667, 0.367915003726229, -0.9, -1.75, 1.541], a = 0.2, v = 0.2, t = 0.2)
movej(p[-0.479653410011813, -0.242551670038731, 0.367925824906163, -0.9, -1.75, 1.541], a = 0.2, v = 0.2, t = 0.2)
movej(p[-0.479659105027482, -0.242557179524129, 0.367992555515754, -0.9, -1.75, 1.541], a = 0.2, v = 0.2, t = 0.2)
movej(p[-0.479697584863083, -0.242594405776817, 0.368443438012989, -0.9, -1.75, 1.541], a = 0.2, v = 0.2, t = 0.2)
movej(p[-0.479770788902329, -0.242665224999931, 0.36930119687573, -0.9, -1.75, 1.541], a = 0.2, v = 0.2, t = 0.2)
movej(p[-0.479848856792795, -0.242740749621385, 0.370215947286122, -0.9, -1.75, 1.541], a = 0.2, v = 0.2, t = 0.2)
movej(p[-0.479914826622948, -0.242804570308993, 0.370988940239383, -0.9, -1.75, 1.541], a = 0.2, v = 0.2, t = 0.2)
movej(p[-0.47997189991511, -0.24285978428698, 0.371657689159283, -0.9, -1.75, 1.541], a = 0.2, v = 0.2, t = 0.2)
movej(p[-0.480028511449245, -0.242914551549935, 0.372321027489216, -0.9, -1.75, 1.541], a = 0.2, v = 0.2, t = 0.2)
movej(p[-0.479997158079198, -0.242884219599245, 0.371953648430468, -0.9, -1.75, 1.541], a = 0.2, v = 0.2, t = 0.2)
movej(p[-0.479874376619765, -0.242765438072167, 0.370514972558289, -0.9, -1.75, 1.541], a = 0.2, v = 0.2, t = 0.2)
movej(p[-0.479786457891385, -0.242680383530026, 0.369484796228605, -0.9, -1.75, 1.541], a = 0.2, v = 0.2, t = 0.2)
movej(p[-0.479723489488409, -0.242619466490127, 0.368746972110128, -0.9, -1.75, 1.541], a = 0.2, v = 0.2, t = 0.2)
movej(p[-0.479692874931205, -0.242589849283488, 0.368388249995328, -0.9, -1.75, 1.541], a = 0.2, v = 0.2, t = 0.2)
movej(p[-0.479663737999688, -0.242561661564953, 0.368046841768421, -0.9, -1.75, 1.541], a = 0.2, v = 0.2, t = 0.2)
movej(p[-0.47965833543077, -0.242556434999075, 0.367983537865809, -0.9, -1.75, 1.541], a = 0.2, v = 0.2, t = 0.2)
movej(p[-0.479656780845412, -0.242554931058467, 0.367965322212921, -0.9, -1.75, 1.541], a = 0.2, v = 0.2, t = 0.2)
movej(p[-0.479646452857537, -0.242544939532245, 0.367844305350663, -0.9, -1.75, 1.541], a = 0.2, v = 0.2, t = 0.2)
movej(p[-0.479647237846183, -0.2425456989478, 0.367853503353606, -0.9, -1.75, 1.541], a = 0.2, v = 0.2, t = 0.2)
movej(p[-0.479649269581503, -0.242547664493942, 0.367877309949461, -0.9, -1.75, 1.541], a = 0.2, v = 0.2, t = 0.2)
movej(p[-0.479689304002461, -0.242586394687239, 0.368346408099584, -0.9, -1.75, 1.541], a = 0.2, v = 0.2, t = 0.2)
movej(p[-0.479746438862361, -0.24264166822723, 0.36901587843148, -0.9, -1.75, 1.541], a = 0.2, v = 0.2, t = 0.2)
movej(p[-0.479824322049616, -0.242717014162671, 0.369928464605885, -0.9, -1.75, 1.541], a = 0.2, v = 0.2, t = 0.2)
movej(p[-0.479903313456136, -0.242793432214189, 0.37085403619621, -0.9, -1.75, 1.541], a = 0.2, v = 0.2, t = 0.2)
movej(p[-0.479955261234197, -0.242843687655318, 0.371462727567478, -0.9, -1.75, 1.541], a = 0.2, v = 0.2, t = 0.2)
movej(p[-0.480008471150865, -0.242895164117535, 0.372086207884655, -0.9, -1.75, 1.541], a = 0.2, v = 0.2, t = 0.2)
movej(p[-0.480015689968023, -0.242902147762539, 0.372170793441137, -0.9, -1.75, 1.541], a = 0.2, v = 0.2, t = 0.2)
movej(p[-0.479903959917374, -0.242794057615234, 0.370861611022163, -0.9, -1.75, 1.541], a = 0.2, v = 0.2, t = 0.2)
movej(p[-0.479793630532741, -0.242687322503527, 0.36956884072609, -0.9, -1.75, 1.541], a = 0.2, v = 0.2, t = 0.2)
movej(p[-0.479732401418334, -0.242628088090249, 0.368851396496488, -0.9, -1.75, 1.541], a = 0.2, v = 0.2, t = 0.2)
movej(p[-0.479695199113275, -0.24259209774915, 0.368415483298161, -0.9, -1.75, 1.541], a = 0.2, v = 0.2, t = 0.2)
movej(p[-0.479676621048647, -0.242574124914353, 0.368197797228496, -0.9, -1.75, 1.541], a = 0.2, v = 0.2, t = 0.2)
movej(p[-0.479656626926069, -0.242554782153456, 0.367963518682932, -0.9, -1.75, 1.541], a = 0.2, v = 0.2, t = 0.2)
movej(p[-0.479654903029435, -0.242553114417335, 0.367943319147056, -0.9, -1.75, 1.541], a = 0.2, v = 0.2, t = 0.2)
movej(p[-0.479655195476185, -0.242553397336856, 0.367946745854035, -0.9, -1.75, 1.541], a = 0.2, v = 0.2, t = 0.2)
movej(p[-0.479649254189568, -0.242547649603441, 0.367877129596462, -0.9, -1.75, 1.541], a = 0.2, v = 0.2, t = 0.2)
movej(p[-0.479692490132849, -0.242589477020961, 0.368383741170355, -0.9, -1.75, 1.541], a = 0.2, v = 0.2, t = 0.2)
movej(p[-0.479767956786428, -0.242662485147733, 0.369268011923934, -0.9, -1.75, 1.541], a = 0.2, v = 0.2, t = 0.2)
movej(p[-0.479847702397727, -0.242739632833804, 0.370202420811205, -0.9, -1.75, 1.541], a = 0.2, v = 0.2, t = 0.2)
movej(p[-0.47991407241817, -0.24280384067444, 0.370980102942437, -0.9, -1.75, 1.541], a = 0.2, v = 0.2, t = 0.2)
movej(p[-0.479998805016162, -0.24288581288286, 0.37197294620135, -0.9, -1.75, 1.541], a = 0.2, v = 0.2, t = 0.2)
movej(p[-0.480060126482175, -0.242945136639143, 0.372691472548944, -0.9, -1.75, 1.541], a = 0.2, v = 0.2, t = 0.2)
movej(p[-0.480003437988368, -0.242890294923683, 0.372027232454017, -0.9, -1.75, 1.541], a = 0.2, v = 0.2, t = 0.2)
movej(p[-0.47988612066559, -0.242776799524488, 0.370652581896445, -0.9, -1.75, 1.541], a = 0.2, v = 0.2, t = 0.2)
movej(p[-0.479788412667034, -0.242682274623662, 0.369507701059464, -0.9, -1.75, 1.541], a = 0.2, v = 0.2, t = 0.2)
movej(p[-0.479723535664211, -0.24261951116163, 0.368747513169125, -0.9, -1.75, 1.541], a = 0.2, v = 0.2, t = 0.2)
movej(p[-0.479678160242071, -0.24257561396446, 0.368215832528385, -0.9, -1.75, 1.541], a = 0.2, v = 0.2, t = 0.2)
movej(p[-0.479666877954273, -0.242564699227172, 0.368083633780195, -0.9, -1.75, 1.541], a = 0.2, v = 0.2, t = 0.2)
movej(p[-0.479661767832106, -0.242559755580815, 0.368023756584563, -0.9, -1.75, 1.541], a = 0.2, v = 0.2, t = 0.2)
movej(p[-0.479654964597172, -0.24255317397934, 0.367944040559051, -0.9, -1.75, 1.541], a = 0.2, v = 0.2, t = 0.2)
movej(p[-0.479647730388079, -0.242546175443834, 0.367859274649571, -0.9, -1.75, 1.541], a = 0.2, v = 0.2, t = 0.2)
movej(p[-0.479649762123398, -0.242548140989976, 0.367883081245425, -0.9, -1.75, 1.541], a = 0.2, v = 0.2, t = 0.2)
movej(p[-0.479686179439811, -0.24258337191552, 0.368309796440809, -0.9, -1.75, 1.541], a = 0.2, v = 0.2, t = 0.2)
movej(p[-0.479752888082807, -0.24264790734718, 0.369091446338016, -0.9, -1.75, 1.541], a = 0.2, v = 0.2, t = 0.2)
movej(p[-0.479838498021051, -0.242730728314161, 0.370094569717866, -0.9, -1.75, 1.541], a = 0.2, v = 0.2, t = 0.2)
movej(p[-0.479925647152719, -0.242815038331249, 0.371115728397605, -0.9, -1.75, 1.541], a = 0.2, v = 0.2, t = 0.2)
movej(p[-0.479987368809022, -0.242874749240561, 0.371838943923171, -0.9, -1.75, 1.541], a = 0.2, v = 0.2, t = 0.2)
movej(p[-0.480038623950041, -0.242924334609141, 0.372439519409489, -0.9, -1.75, 1.541], a = 0.2, v = 0.2, t = 0.2)
movej(p[-0.480027772636402, -0.242913836805883, 0.372312370545269, -0.9, -1.75, 1.541], a = 0.2, v = 0.2, t = 0.2)
movej(p[-0.47990282091424, -0.242792955718154, 0.370848264900245, -0.9, -1.75, 1.541], a = 0.2, v = 0.2, t = 0.2)
movej(p[-0.479779208290358, -0.242673370104019, 0.369399849966126, -0.9, -1.75, 1.541], a = 0.2, v = 0.2, t = 0.2)
movej(p[-0.479719872383862, -0.242615967222374, 0.368704589155388, -0.9, -1.75, 1.541], a = 0.2, v = 0.2, t = 0.2)
movej(p[-0.479686995212325, -0.242584161112077, 0.36831935514975, -0.9, -1.75, 1.541], a = 0.2, v = 0.2, t = 0.2)
movej(p[-0.479666816386536, -0.242564639665168, 0.3680829123682, -0.9, -1.75, 1.541], a = 0.2, v = 0.2, t = 0.2)
movej(p[-0.479655426355199, -0.242553620694372, 0.367949451149018, -0.9, -1.75, 1.541], a = 0.2, v = 0.2, t = 0.2)
movej(p[-0.479653256092471, -0.24255152113372, 0.367924021376174, -0.9, -1.75, 1.541], a = 0.2, v = 0.2, t = 0.2)
movej(p[-0.479653517755353, -0.242551774272239, 0.367927087377155, -0.9, -1.75, 1.541], a = 0.2, v = 0.2, t = 0.2)
movej(p[-0.479644374946414, -0.2425429293146, 0.367819957695812, -0.9, -1.75, 1.541], a = 0.2, v = 0.2, t = 0.2)
movej(p[-0.479658904932337, -0.242556985947615, 0.367990210926768, -0.9, -1.75, 1.541], a = 0.2, v = 0.2, t = 0.2)
movej(p[-0.479718517893649, -0.242614656858279, 0.368688718091486, -0.9, -1.75, 1.541], a = 0.2, v = 0.2, t = 0.2)
movej(p[-0.479777699880802, -0.242671910834914, 0.369382175372234, -0.9, -1.75, 1.541], a = 0.2, v = 0.2, t = 0.2)
movej(p[-0.479852966439237, -0.242744725385172, 0.370264101536827, -0.9, -1.75, 1.541], a = 0.2, v = 0.2, t = 0.2)
movej(p[-0.479936082884133, -0.242825134090978, 0.371238007730856, -0.9, -1.75, 1.541], a = 0.2, v = 0.2, t = 0.2)
movej(p[-0.480000744399876, -0.242887689085995, 0.37199567067921, -0.9, -1.75, 1.541], a = 0.2, v = 0.2, t = 0.2)
movej(p[-0.48003662299859, -0.242922398844002, 0.372416073519633, -0.9, -1.75, 1.541], a = 0.2, v = 0.2, t = 0.2)
movej(p[-0.479980781061167, -0.242868376106101, 0.371761752839645, -0.9, -1.75, 1.541], a = 0.2, v = 0.2, t = 0.2)
movej(p[-0.479877501182415, -0.242768460843886, 0.370551584217064, -0.9, -1.75, 1.541], a = 0.2, v = 0.2, t = 0.2)
movej(p[-0.479771558499041, -0.242665969524985, 0.369310214525675, -0.9, -1.75, 1.541], a = 0.2, v = 0.2, t = 0.2)
movej(p[-0.47970817451384, -0.242604650441557, 0.368567520876229, -0.9, -1.75, 1.541], a = 0.2, v = 0.2, t = 0.2)
movej(p[-0.479683424283582, -0.242580706515828, 0.368277513254007, -0.9, -1.75, 1.541], a = 0.2, v = 0.2, t = 0.2)
movej(p[-0.479667893821933, -0.242565682000243, 0.368095537078122, -0.9, -1.75, 1.541], a = 0.2, v = 0.2, t = 0.2)
movej(p[-0.47965125514102, -0.242549585368581, 0.367900575486318, -0.9, -1.75, 1.541], a = 0.2, v = 0.2, t = 0.2)
movej(p[-0.479650870342664, -0.242549213106054, 0.367896066661345, -0.9, -1.75, 1.541], a = 0.2, v = 0.2, t = 0.2)
movej(p[-0.47965216326514, -0.242550463908144, 0.367911216313253, -0.9, -1.75, 1.541], a = 0.2, v = 0.2, t = 0.2)
movej(p[-0.479649515852451, -0.242547902741959, 0.367880195597443, -0.9, -1.75, 1.541], a = 0.2, v = 0.2, t = 0.2)
movej(p[-0.479685609938244, -0.242582820966981, 0.36830312337985, -0.9, -1.75, 1.541], a = 0.2, v = 0.2, t = 0.2)
movej(p[-0.479755443143891, -0.242650379170359, 0.369121384935833, -0.9, -1.75, 1.541], a = 0.2, v = 0.2, t = 0.2)
movej(p[-0.479825538012421, -0.242718190512256, 0.369942712492797, -0.9, -1.75, 1.541], a = 0.2, v = 0.2, t = 0.2)
movej(p[-0.479882719048123, -0.24277350872375, 0.370612723883689, -0.9, -1.75, 1.541], a = 0.2, v = 0.2, t = 0.2)
movej(p[-0.479937329630807, -0.242826340221565, 0.371252616323766, -0.9, -1.75, 1.541], a = 0.2, v = 0.2, t = 0.2)
movej(p[-0.4798902610959, -0.242780805069277, 0.370701096853148, -0.9, -1.75, 1.541], a = 0.2, v = 0.2, t = 0.2)
movej(p[-0.479785811430147, -0.24267975812898, 0.369477221402651, -0.9, -1.75, 1.541], a = 0.2, v = 0.2, t = 0.2)
movej(p[-0.479716101359973, -0.242612319049611, 0.368660402670659, -0.9, -1.75, 1.541], a = 0.2, v = 0.2, t = 0.2)
movej(p[-0.479685656114046, -0.242582865638484, 0.368303664438846, -0.9, -1.75, 1.541], a = 0.2, v = 0.2, t = 0.2)
movej(p[-0.479669417623423, -0.242567156159849, 0.368113392025013, -0.9, -1.75, 1.541], a = 0.2, v = 0.2, t = 0.2)
movej(p[-0.479651132005546, -0.242549466244572, 0.367899132662327, -0.9, -1.75, 1.541], a = 0.2, v = 0.2, t = 0.2)
movej(p[-0.479650470152373, -0.242548825953026, 0.367891377483374, -0.9, -1.75, 1.541], a = 0.2, v = 0.2, t = 0.2)
movej(p[-0.479652471103825, -0.242550761718166, 0.36791482337323, -0.9, -1.75, 1.541], a = 0.2, v = 0.2, t = 0.2)
movej(p[-0.479682008225631, -0.242579336589729, 0.368260920778109, -0.9, -1.75, 1.541], a = 0.2, v = 0.2, t = 0.2)
movej(p[-0.479745376818898, -0.242640640782656, 0.369003434074556, -0.9, -1.75, 1.541], a = 0.2, v = 0.2, t = 0.2)
movej(p[-0.479841622583702, -0.242733751085879, 0.370131181376642, -0.9, -1.75, 1.541], a = 0.2, v = 0.2, t = 0.2)
movej(p[-0.479931434519993, -0.242820637159653, 0.37118354112519, -0.9, -1.75, 1.541], a = 0.2, v = 0.2, t = 0.2)
movej(p[-0.479999928627361, -0.242886899889438, 0.371986111970269, -0.9, -1.75, 1.541], a = 0.2, v = 0.2, t = 0.2)
movej(p[-0.480057063487261, -0.242942173429429, 0.372655582302164, -0.9, -1.75, 1.541], a = 0.2, v = 0.2, t = 0.2)
movej(p[-0.480019153153227, -0.242905498125281, 0.372211372865888, -0.9, -1.75, 1.541], a = 0.2, v = 0.2, t = 0.2)
movej(p[-0.479905914693023, -0.242795948708871, 0.370884515853023, -0.9, -1.75, 1.541], a = 0.2, v = 0.2, t = 0.2)
movej(p[-0.479805220659224, -0.242698535050836, 0.369704646534257, -0.9, -1.75, 1.541], a = 0.2, v = 0.2, t = 0.2)
movej(p[-0.479743237340039, -0.242638571003006, 0.36897836500771, -0.9, -1.75, 1.541], a = 0.2, v = 0.2, t = 0.2)
movej(p[-0.479701048048287, -0.242597756139559, 0.368484017437741, -0.9, -1.75, 1.541], a = 0.2, v = 0.2, t = 0.2)
movej(p[-0.479666800994602, -0.242564624774667, 0.368082732015201, -0.9, -1.75, 1.541], a = 0.2, v = 0.2, t = 0.2)
movej(p[-0.47966087509992, -0.242558891931753, 0.368013296110627, -0.9, -1.75, 1.541], a = 0.2, v = 0.2, t = 0.2)
movej(p[-0.479658258471099, -0.24255636054657, 0.367982636100815, -0.9, -1.75, 1.541], a = 0.2, v = 0.2, t = 0.2)
movej(p[-0.479663137714253, -0.242561080835411, 0.368039808001464, -0.9, -1.75, 1.541], a = 0.2, v = 0.2, t = 0.2)
movej(p[-0.47970066324993, -0.242597383877032, 0.368479508612768, -0.9, -1.75, 1.541], a = 0.2, v = 0.2, t = 0.2)
movej(p[-0.479780608956374, -0.242674725139617, 0.369416262089025, -0.9, -1.75, 1.541], a = 0.2, v = 0.2, t = 0.2)
movej(p[-0.479875977380926, -0.242766986684279, 0.370533729270174, -0.9, -1.75, 1.541], a = 0.2, v = 0.2, t = 0.2)
movej(p[-0.479979288043545, -0.242866931727496, 0.371744258598752, -0.9, -1.75, 1.541], a = 0.2, v = 0.2, t = 0.2)
movej(p[-0.480070993187748, -0.242955649332903, 0.372818801766164, -0.9, -1.75, 1.541], a = 0.2, v = 0.2, t = 0.2)
movej(p[-0.480095820377678, -0.242979667711137, 0.37310971115338, -0.9, -1.75, 1.541], a = 0.2, v = 0.2, t = 0.2)
movej(p[-0.479988892610511, -0.242876223400167, 0.371856798870062, -0.9, -1.75, 1.541], a = 0.2, v = 0.2, t = 0.2)
movej(p[-0.479880579569263, -0.242771438944101, 0.370587654816843, -0.9, -1.75, 1.541], a = 0.2, v = 0.2, t = 0.2)
movej(p[-0.479790244307208, -0.24268404659329, 0.369529163066333, -0.9, -1.75, 1.541], a = 0.2, v = 0.2, t = 0.2)
movej(p[-0.479726106117229, -0.242621997875309, 0.368777632119941, -0.9, -1.75, 1.541], a = 0.2, v = 0.2, t = 0.2)
movej(p[-0.479678729743638, -0.242576164913, 0.368222505589344, -0.9, -1.75, 1.541], a = 0.2, v = 0.2, t = 0.2)
movej(p[-0.479667339712301, -0.242565145942204, 0.368089044370162, -0.9, -1.75, 1.541], a = 0.2, v = 0.2, t = 0.2)
movej(p[-0.479660798140249, -0.242558817479247, 0.368012394345632, -0.9, -1.75, 1.541], a = 0.2, v = 0.2, t = 0.2)
movej(p[-0.479652871294115, -0.242551148871193, 0.367919512551202, -0.9, -1.75, 1.541], a = 0.2, v = 0.2, t = 0.2)
movej(p[-0.479648176754172, -0.242546607268366, 0.367864504886539, -0.9, -1.75, 1.541], a = 0.2, v = 0.2, t = 0.2)
movej(p[-0.479668617242843, -0.242566381853793, 0.368104013669071, -0.9, -1.75, 1.541], a = 0.2, v = 0.2, t = 0.2)
movej(p[-0.479736664984118, -0.242632212759047, 0.368901354277182, -0.9, -1.75, 1.541], a = 0.2, v = 0.2, t = 0.2)
movej(p[-0.479814809834255, -0.242707811833006, 0.369817006452568, -0.9, -1.75, 1.541], a = 0.2, v = 0.2, t = 0.2)
movej(p[-0.479918736174245, -0.242808352496266, 0.371034749901102, -0.9, -1.75, 1.541], a = 0.2, v = 0.2, t = 0.2)
movej(p[-0.480018829922608, -0.242905185424759, 0.372207585452911, -0.9, -1.75, 1.541], a = 0.2, v = 0.2, t = 0.2)
movej(p[-0.480076318796995, -0.242960801446275, 0.372881203903781, -0.9, -1.75, 1.541], a = 0.2, v = 0.2, t = 0.2)
movej(p[-0.480046596971978, -0.242932047888698, 0.372532942262916, -0.9, -1.75, 1.541], a = 0.2, v = 0.2, t = 0.2)
movej(p[-0.479945040989861, -0.242833800362604, 0.371342973176212, -0.9, -1.75, 1.541], a = 0.2, v = 0.2, t = 0.2)
movej(p[-0.479827477396135, -0.242720066715391, 0.369965436970658, -0.9, -1.75, 1.541], a = 0.2, v = 0.2, t = 0.2)
movej(p[-0.479729892533053, -0.242625660938574, 0.368821998957668, -0.9, -1.75, 1.541], a = 0.2, v = 0.2, t = 0.2)
movej(p[-0.479692043766756, -0.24258904519643, 0.368378510933388, -0.9, -1.75, 1.541], a = 0.2, v = 0.2, t = 0.2)
movej(p[-0.479673311782786, -0.242570923456621, 0.368159021333733, -0.9, -1.75, 1.541], a = 0.2, v = 0.2, t = 0.2)
movej(p[-0.479661059803131, -0.242559070617765, 0.368015460346613, -0.9, -1.75, 1.541], a = 0.2, v = 0.2, t = 0.2)
movej(p[-0.479647330197788, -0.242545788290806, 0.3678545854716, -0.9, -1.75, 1.541], a = 0.2, v = 0.2, t = 0.2)
movej(p[-0.479649408108911, -0.242547798508452, 0.367878933126451, -0.9, -1.75, 1.541], a = 0.2, v = 0.2, t = 0.2)
movej(p[-0.479677390645359, -0.242574869439406, 0.36820681487844, -0.9, -1.75, 1.541], a = 0.2, v = 0.2, t = 0.2)
movej(p[-0.479735356669708, -0.242630947066456, 0.368886024272276, -0.9, -1.75, 1.541], a = 0.2, v = 0.2, t = 0.2)
movej(p[-0.47983548120194, -0.24272780977595, 0.370059220530083, -0.9, -1.75, 1.541], a = 0.2, v = 0.2, t = 0.2)
movej(p[-0.479934512906841, -0.242823615259868, 0.371219611724968, -0.9, -1.75, 1.541], a = 0.2, v = 0.2, t = 0.2)
movej(p[-0.480006193144597, -0.242892960323376, 0.372059515640819, -0.9, -1.75, 1.541], a = 0.2, v = 0.2, t = 0.2)
movej(p[-0.480069731049141, -0.242954428311814, 0.372804012820254, -0.9, -1.75, 1.541], a = 0.2, v = 0.2, t = 0.2)
movej(p[-0.480033298340794, -0.242919182495769, 0.372377117271872, -0.9, -1.75, 1.541], a = 0.2, v = 0.2, t = 0.2)
movej(p[-0.479923877080281, -0.242813325923625, 0.371094987802733, -0.9, -1.75, 1.541], a = 0.2, v = 0.2, t = 0.2)
movej(p[-0.47979769400338, -0.24269125359581, 0.369616453917798, -0.9, -1.75, 1.541], a = 0.2, v = 0.2, t = 0.2)
movej(p[-0.479737249877619, -0.242632778598088, 0.36890820769114, -0.9, -1.75, 1.541], a = 0.2, v = 0.2, t = 0.2)
movej(p[-0.479696753698634, -0.242593601689759, 0.368433698951049, -0.9, -1.75, 1.541], a = 0.2, v = 0.2, t = 0.2)
movej(p[-0.479674543137525, -0.242572114696707, 0.368173449573645, -0.9, -1.75, 1.541], a = 0.2, v = 0.2, t = 0.2)
movej(p[-0.479654102648854, -0.242552340111279, 0.367933940791113, -0.9, -1.75, 1.541], a = 0.2, v = 0.2, t = 0.2)
movej(p[-0.479651316708757, -0.242549644930585, 0.367901296898313, -0.9, -1.75, 1.541], a = 0.2, v = 0.2, t = 0.2)
movej(p[-0.479654933813303, -0.242553144198338, 0.367943679853054, -0.9, -1.75, 1.541], a = 0.2, v = 0.2, t = 0.2)
movej(p[-0.479683116444897, -0.242580408705806, 0.368273906194029, -0.9, -1.75, 1.541], a = 0.2, v = 0.2, t = 0.2)
movej(p[-0.479769696074998, -0.242664167774355, 0.369288391812809, -0.9, -1.75, 1.541], a = 0.2, v = 0.2, t = 0.2)
movej(p[-0.479861201124055, -0.242752691803247, 0.370360590391235, -0.9, -1.75, 1.541], a = 0.2, v = 0.2, t = 0.2)
movej(p[-0.479941547020789, -0.24283042021886, 0.371302033045463, -0.9, -1.75, 1.541], a = 0.2, v = 0.2, t = 0.2)
movej(p[-0.480007070484849, -0.242893809081937, 0.372069795761756, -0.9, -1.75, 1.541], a = 0.2, v = 0.2, t = 0.2)
movej(p[-0.480063943681866, -0.24294882948341, 0.37273620009267, -0.9, -1.75, 1.541], a = 0.2, v = 0.2, t = 0.2)
movej(p[-0.47999672710504, -0.242883802665214, 0.371948598546499, -0.9, -1.75, 1.541], a = 0.2, v = 0.2, t = 0.2)
movej(p[-0.479869943742704, -0.242761149607858, 0.370463030894607, -0.9, -1.75, 1.541], a = 0.2, v = 0.2, t = 0.2)
movej(p[-0.479776222255115, -0.24267048134681, 0.36936486148434, -0.9, -1.75, 1.541], a = 0.2, v = 0.2, t = 0.2)
movej(p[-0.47971474686976, -0.242611008685516, 0.368644531606757, -0.9, -1.75, 1.541], a = 0.2, v = 0.2, t = 0.2)
movej(p[-0.479679545516153, -0.242576954109557, 0.368232064298285, -0.9, -1.75, 1.541], a = 0.2, v = 0.2, t = 0.2)
movej(p[-0.479655795761621, -0.242553978066398, 0.367953779620992, -0.9, -1.75, 1.541], a = 0.2, v = 0.2, t = 0.2)
movej(p[-0.479651639939376, -0.242549957631107, 0.36790508431129, -0.9, -1.75, 1.541], a = 0.2, v = 0.2, t = 0.2)
movej(p[-0.479650393192702, -0.24254875150052, 0.36789047571838, -0.9, -1.75, 1.541], a = 0.2, v = 0.2, t = 0.2)
movej(p[-0.47964780734775, -0.24254624989634, 0.367860176414566, -0.9, -1.75, 1.541], a = 0.2, v = 0.2, t = 0.2)
movej(p[-0.479706927767166, -0.24260344431097, 0.368552912283318, -0.9, -1.75, 1.541], a = 0.2, v = 0.2, t = 0.2)
movej(p[-0.479798063409802, -0.242691610967836, 0.369620782389771, -0.9, -1.75, 1.541], a = 0.2, v = 0.2, t = 0.2)
movej(p[-0.479879825364486, -0.242770709309548, 0.370578817519897, -0.9, -1.75, 1.541], a = 0.2, v = 0.2, t = 0.2)
movej(p[-0.479955769168027, -0.242844179041853, 0.371468679216441, -0.9, -1.75, 1.541], a = 0.2, v = 0.2, t = 0.2)
movej(p[-0.48003571487447, -0.242921520304438, 0.372405432692698, -0.9, -1.75, 1.541], a = 0.2, v = 0.2, t = 0.2)
movej(p[-0.480085969539764, -0.242970137790449, 0.372994285234088, -0.9, -1.75, 1.541], a = 0.2, v = 0.2, t = 0.2)
movej(p[-0.480029712020116, -0.242915713009019, 0.372335095023129, -0.9, -1.75, 1.541], a = 0.2, v = 0.2, t = 0.2)
movej(p[-0.479918551471034, -0.242808173810253, 0.371032585665115, -0.9, -1.75, 1.541], a = 0.2, v = 0.2, t = 0.2)
movej(p[-0.479814532779439, -0.242707543803987, 0.369813760098588, -0.9, -1.75, 1.541], a = 0.2, v = 0.2, t = 0.2)
movej(p[-0.479734833343944, -0.242630440789419, 0.368879892270314, -0.9, -1.75, 1.541], a = 0.2, v = 0.2, t = 0.2)
movej(p[-0.479682316064316, -0.24257963439975, 0.368264527838086, -0.9, -1.75, 1.541], a = 0.2, v = 0.2, t = 0.2)
movej(p[-0.479667001089747, -0.242564818351181, 0.368085076604187, -0.9, -1.75, 1.541], a = 0.2, v = 0.2, t = 0.2)
movej(p[-0.479659181987153, -0.242557253976634, 0.367993457280748, -0.9, -1.75, 1.541], a = 0.2, v = 0.2, t = 0.2)
movej(p[-0.479648269105777, -0.242546696611372, 0.367865587004532, -0.9, -1.75, 1.541], a = 0.2, v = 0.2, t = 0.2)
movej(p[-0.479647653428407, -0.242546100991329, 0.367858372884577, -0.9, -1.75, 1.541], a = 0.2, v = 0.2, t = 0.2)
movej(p[-0.479655703410015, -0.242553888723391, 0.367952697502998, -0.9, -1.75, 1.541], a = 0.2, v = 0.2, t = 0.2)
movej(p[-0.479716024400302, -0.242612244597105, 0.368659500905665, -0.9, -1.75, 1.541], a = 0.2, v = 0.2, t = 0.2)
movej(p[-0.479782271285272, -0.242676333313733, 0.369435740212906, -0.9, -1.75, 1.541], a = 0.2, v = 0.2, t = 0.2)
movej(p[-0.479879640661275, -0.242770530623535, 0.370576653283911, -0.9, -1.75, 1.541], a = 0.2, v = 0.2, t = 0.2)
movej(p[-0.479971761387702, -0.24285965027247, 0.371656065982293, -0.9, -1.75, 1.541], a = 0.2, v = 0.2, t = 0.2)
movej(p[-0.480029388789497, -0.242915400308496, 0.372331307610153, -0.9, -1.75, 1.541], a = 0.2, v = 0.2, t = 0.2)
movej(p[-0.480079381791909, -0.242963764655989, 0.372917094150561, -0.9, -1.75, 1.541], a = 0.2, v = 0.2, t = 0.2)
movej(p[-0.480006500983282, -0.242893258133397, 0.372063122700797, -0.9, -1.75, 1.541], a = 0.2, v = 0.2, t = 0.2)
movej(p[-0.479876700801835, -0.24276768653783, 0.370542205861122, -0.9, -1.75, 1.541], a = 0.2, v = 0.2, t = 0.2)
movej(p[-0.47976175383693, -0.2426564842758, 0.36919532966538, -0.9, -1.75, 1.541], a = 0.2, v = 0.2, t = 0.2)
movej(p[-0.479710683399121, -0.242607077593232, 0.368596918415048, -0.9, -1.75, 1.541], a = 0.2, v = 0.2, t = 0.2)
movej(p[-0.479683178012634, -0.242580468267811, 0.368274627606024, -0.9, -1.75, 1.541], a = 0.2, v = 0.2, t = 0.2)
movej(p[-0.479659566785509, -0.242557626239161, 0.367997966105721, -0.9, -1.75, 1.541], a = 0.2, v = 0.2, t = 0.2)
movej(p[-0.479653225308602, -0.242551491352718, 0.367923660670176, -0.9, -1.75, 1.541], a = 0.2, v = 0.2, t = 0.2)
movej(p[-0.479653671674695, -0.242551923177249, 0.367928890907144, -0.9, -1.75, 1.541], a = 0.2, v = 0.2, t = 0.2)
movej(p[-0.479672619145745, -0.242570253384073, 0.368150905448783, -0.9, -1.75, 1.541], a = 0.2, v = 0.2, t = 0.2)
movej(p[-0.4797273066881, -0.242623159334393, 0.368791699653854, -0.9, -1.75, 1.541], a = 0.2, v = 0.2, t = 0.2)
movej(p[-0.479819319670988, -0.242712174749821, 0.369869849881244, -0.9, -1.75, 1.541], a = 0.2, v = 0.2, t = 0.2)
movej(p[-0.479922214751383, -0.242811717749509, 0.371075509678852, -0.9, -1.75, 1.541], a = 0.2, v = 0.2, t = 0.2)
movej(p[-0.480001113806298, -0.242888046458021, 0.371999999151184, -0.9, -1.75, 1.541], a = 0.2, v = 0.2, t = 0.2)
movej(p[-0.4800775347598, -0.24296197779586, 0.372895451790694, -0.9, -1.75, 1.541], a = 0.2, v = 0.2, t = 0.2)
movej(p[-0.480087524125122, -0.242971641731057, 0.373012500886976, -0.9, -1.75, 1.541], a = 0.2, v = 0.2, t = 0.2)
movej(p[-0.47997008366687, -0.242858027207853, 0.371636407505413, -0.9, -1.75, 1.541], a = 0.2, v = 0.2, t = 0.2)
movej(p[-0.47983729745018, -0.242729566855077, 0.370080502183953, -0.9, -1.75, 1.541], a = 0.2, v = 0.2, t = 0.2)
movej(p[-0.479762169419154, -0.242656886319329, 0.36920019919635, -0.9, -1.75, 1.541], a = 0.2, v = 0.2, t = 0.2)
movej(p[-0.479711329860359, -0.242607702994277, 0.368604493241002, -0.9, -1.75, 1.541], a = 0.2, v = 0.2, t = 0.2)
movej(p[-0.479679068366192, -0.242576492504024, 0.36822647335532, -0.9, -1.75, 1.541], a = 0.2, v = 0.2, t = 0.2)
movej(p[-0.479657765929203, -0.242555884050535, 0.36797686480485, -0.9, -1.75, 1.541], a = 0.2, v = 0.2, t = 0.2)
movej(p[-0.479654210392394, -0.242552444344787, 0.367935203262105, -0.9, -1.75, 1.541], a = 0.2, v = 0.2, t = 0.2)
movej(p[-0.479655041556843, -0.242553248431845, 0.367944942324046, -0.9, -1.75, 1.541], a = 0.2, v = 0.2, t = 0.2)
movej(p[-0.479665246409244, -0.242563120834058, 0.368064516362313, -0.9, -1.75, 1.541], a = 0.2, v = 0.2, t = 0.2)
movej(p[-0.479740112777388, -0.242635548231288, 0.368941753348934, -0.9, -1.75, 1.541], a = 0.2, v = 0.2, t = 0.2)
movej(p[-0.479824106562536, -0.242716805695656, 0.3699259396639, -0.9, -1.75, 1.541], a = 0.2, v = 0.2, t = 0.2)
movej(p[-0.479906345667181, -0.242796365642901, 0.370889565736992, -0.9, -1.75, 1.541], a = 0.2, v = 0.2, t = 0.2)
movej(p[-0.47997596338575, -0.242863715379264, 0.371705302350991, -0.9, -1.75, 1.541], a = 0.2, v = 0.2, t = 0.2)
movej(p[-0.480056601729234, -0.242941726714397, 0.372650171712198, -0.9, -1.75, 1.541], a = 0.2, v = 0.2, t = 0.2)
movej(p[-0.480079520319317, -0.242963898670498, 0.372918717327551, -0.9, -1.75, 1.541], a = 0.2, v = 0.2, t = 0.2)
movej(p[-0.47999447988264, -0.242881628652058, 0.37192226700866, -0.9, -1.75, 1.541], a = 0.2, v = 0.2, t = 0.2)
movej(p[-0.479900081149946, -0.242790305208963, 0.370816162066442, -0.9, -1.75, 1.541], a = 0.2, v = 0.2, t = 0.2)
movej(p[-0.479810192253983, -0.242703344682684, 0.3697629005529, -0.9, -1.75, 1.541], a = 0.2, v = 0.2, t = 0.2)
movej(p[-0.479742129120773, -0.242637498886929, 0.368965379591789, -0.9, -1.75, 1.541], a = 0.2, v = 0.2, t = 0.2)
movej(p[-0.479685702289849, -0.242582910309987, 0.368304205497843, -0.9, -1.75, 1.541], a = 0.2, v = 0.2, t = 0.2)
movej(p[-0.479668524891237, -0.242566292510787, 0.368102931551077, -0.9, -1.75, 1.541], a = 0.2, v = 0.2, t = 0.2)
movej(p[-0.479661737048237, -0.242559725799813, 0.368023395878565, -0.9, -1.75, 1.541], a = 0.2, v = 0.2, t = 0.2)
movej(p[-0.479654348919802, -0.242552578359297, 0.367936826439096, -0.9, -1.75, 1.541], a = 0.2, v = 0.2, t = 0.2)
movej(p[-0.479654502839144, -0.242552727264307, 0.367938629969085, -0.9, -1.75, 1.541], a = 0.2, v = 0.2, t = 0.2)
movej(p[-0.479702848904593, -0.242599498328185, 0.368505118738611, -0.9, -1.75, 1.541], a = 0.2, v = 0.2, t = 0.2)
movej(p[-0.479774051992387, -0.242668381786159, 0.369339431711496, -0.9, -1.75, 1.541], a = 0.2, v = 0.2, t = 0.2)
movej(p[-0.479844777930221, -0.2427368036386, 0.370168153741415, -0.9, -1.75, 1.541], a = 0.2, v = 0.2, t = 0.2)
movej(p[-0.479939161270981, -0.242828112191193, 0.371274078330635, -0.9, -1.75, 1.541], a = 0.2, v = 0.2, t = 0.2)
movej(p[-0.480026926080019, -0.242913017828324, 0.37230245113033, -0.9, -1.75, 1.541], a = 0.2, v = 0.2, t = 0.2)
movej(p[-0.480074995090651, -0.242959520863182, 0.372865693545876, -0.9, -1.75, 1.541], a = 0.2, v = 0.2, t = 0.2)
movej(p[-0.48001048749425, -0.242897114773176, 0.37210983412751, -0.9, -1.75, 1.541], a = 0.2, v = 0.2, t = 0.2)
movej(p[-0.47990162034337, -0.242791794259071, 0.370834197366332, -0.9, -1.75, 1.541], a = 0.2, v = 0.2, t = 0.2)
movej(p[-0.479799171629067, -0.242692683083914, 0.369633767805691, -0.9, -1.75, 1.541], a = 0.2, v = 0.2, t = 0.2)
movej(p[-0.479718148487227, -0.242614299486254, 0.368684389619512, -0.9, -1.75, 1.541], a = 0.2, v = 0.2, t = 0.2)
movej(p[-0.479685040436677, -0.242582270018441, 0.368296450318891, -0.9, -1.75, 1.541], a = 0.2, v = 0.2, t = 0.2)
movej(p[-0.47966857106704, -0.24256633718229, 0.368103472610074, -0.9, -1.75, 1.541], a = 0.2, v = 0.2, t = 0.2)
movej(p[-0.479661429209552, -0.242559427989791, 0.368019788818587, -0.9, -1.75, 1.541], a = 0.2, v = 0.2, t = 0.2)
movej(p[-0.479648222929974, -0.242546651939869, 0.367865045945536, -0.9, -1.75, 1.541], a = 0.2, v = 0.2, t = 0.2)
movej(p[-0.479654164216591, -0.242552399673284, 0.367934662203109, -0.9, -1.75, 1.541], a = 0.2, v = 0.2, t = 0.2)
movej(p[-0.479706619928481, -0.242603146500948, 0.36854930522334, -0.9, -1.75, 1.541], a = 0.2, v = 0.2, t = 0.2)
movej(p[-0.479766125146254, -0.242660713178105, 0.369246549917066, -0.9, -1.75, 1.541], a = 0.2, v = 0.2, t = 0.2)
movej(p[-0.479856614327652, -0.242748254433927, 0.370306845197565, -0.9, -1.75, 1.541], a = 0.2, v = 0.2, t = 0.2)
movej(p[-0.479958462756519, -0.242846784879541, 0.371500240991248, -0.9, -1.75, 1.541], a = 0.2, v = 0.2, t = 0.2)
movej(p[-0.480041179011125, -0.24292680643232, 0.372469458007306, -0.9, -1.75, 1.541], a = 0.2, v = 0.2, t = 0.2)
movej(p[-0.480072840219857, -0.242957436193032, 0.372840444126031, -0.9, -1.75, 1.541], a = 0.2, v = 0.2, t = 0.2)
movej(p[-0.480009440842722, -0.242896102219103, 0.372097570123586, -0.9, -1.75, 1.541], a = 0.2, v = 0.2, t = 0.2)
movej(p[-0.479897449129191, -0.242787758933279, 0.370785321703631, -0.9, -1.75, 1.541], a = 0.2, v = 0.2, t = 0.2)
movej(p[-0.479791383310342, -0.24268514849037, 0.369542509188251, -0.9, -1.75, 1.541], a = 0.2, v = 0.2, t = 0.2)
movej(p[-0.479715085492314, -0.24261133627654, 0.368648499372732, -0.9, -1.75, 1.541], a = 0.2, v = 0.2, t = 0.2)
movej(p[-0.479685363667296, -0.242582582718963, 0.368300237731867, -0.9, -1.75, 1.541], a = 0.2, v = 0.2, t = 0.2)
movej(p[-0.479669202136344, -0.242566947692834, 0.368110867083028, -0.9, -1.75, 1.541], a = 0.2, v = 0.2, t = 0.2)
movej(p[-0.479652178657074, -0.242550478798645, 0.367911396666252, -0.9, -1.75, 1.541], a = 0.2, v = 0.2, t = 0.2)
movej(p[-0.479649177229897, -0.242547575150935, 0.367876227831467, -0.9, -1.75, 1.541], a = 0.2, v = 0.2, t = 0.2)
movej(p[-0.479649715947596, -0.242548096318473, 0.367882540186428, -0.9, -1.75, 1.541], a = 0.2, v = 0.2, t = 0.2)
movej(p[-0.479675081855223, -0.242572635864245, 0.368179761928606, -0.9, -1.75, 1.541], a = 0.2, v = 0.2, t = 0.2)
movej(p[-0.479720980603128, -0.242617039338451, 0.368717574571309, -0.9, -1.75, 1.541], a = 0.2, v = 0.2, t = 0.2)
movej(p[-0.479819612117738, -0.242712457669342, 0.369873276588223, -0.9, -1.75, 1.541], a = 0.2, v = 0.2, t = 0.2)
movej(p[-0.479910024339465, -0.242799924472658, 0.370932670103728, -0.9, -1.75, 1.541], a = 0.2, v = 0.2, t = 0.2)
movej(p[-0.479967220767101, -0.242855257574653, 0.371602861847619, -0.9, -1.75, 1.541], a = 0.2, v = 0.2, t = 0.2)
movej(p[-0.480039747561241, -0.24292542161572, 0.372452685178408, -0.9, -1.75, 1.541], a = 0.2, v = 0.2, t = 0.2)
movej(p[-0.480120108849908, -0.243003164921834, 0.373394308185635, -0.9, -1.75, 1.541], a = 0.2, v = 0.2, t = 0.2)
movej(p[-0.480159866216051, -0.243041627086111, 0.373860159981779, -0.9, -1.75, 1.541], a = 0.2, v = 0.2, t = 0.2)
movej(p[-0.480031666795765, -0.242917604102655, 0.372357999853989, -0.9, -1.75, 1.541], a = 0.2, v = 0.2, t = 0.2)
movej(p[-0.479905606854338, -0.242795650898849, 0.370880908793045, -0.9, -1.75, 1.541], a = 0.2, v = 0.2, t = 0.2)
movej(p[-0.479813717006924, -0.24270675460743, 0.369804201389646, -0.9, -1.75, 1.541], a = 0.2, v = 0.2, t = 0.2)
movej(p[-0.479732986311835, -0.24262865392929, 0.368858249910446, -0.9, -1.75, 1.541], a = 0.2, v = 0.2, t = 0.2)
movej(p[-0.479688241958999, -0.242585367242664, 0.368333963742661, -0.9, -1.75, 1.541], a = 0.2, v = 0.2, t = 0.2)
movej(p[-0.479668740378316, -0.242566500977802, 0.368105456493062, -0.9, -1.75, 1.541], a = 0.2, v = 0.2, t = 0.2)
movej(p[-0.479659228162956, -0.242557298648138, 0.367993998339745, -0.9, -1.75, 1.541], a = 0.2, v = 0.2, t = 0.2)
movej(p[-0.479646021883378, -0.242544522598215, 0.367839255466694, -0.9, -1.75, 1.541], a = 0.2, v = 0.2, t = 0.2)
movej(p[-0.479647053142972, -0.242545520261787, 0.36785133911762, -0.9, -1.75, 1.541], a = 0.2, v = 0.2, t = 0.2)
movej(p[-0.479646006491444, -0.242544507707714, 0.367839075113695, -0.9, -1.75, 1.541], a = 0.2, v = 0.2, t = 0.2)
movej(p[-0.479646714520419, -0.242545192670763, 0.367847371351644, -0.9, -1.75, 1.541], a = 0.2, v = 0.2, t = 0.2)
movej(p[-0.479664692299611, -0.242562584776019, 0.368058023654352, -0.9, -1.75, 1.541], a = 0.2, v = 0.2, t = 0.2)
movej(p[-0.479741344132127, -0.242636739471374, 0.368956181588846, -0.9, -1.75, 1.541], a = 0.2, v = 0.2, t = 0.2)
movej(p[-0.479833926616582, -0.242726305835342, 0.370041004877195, -0.9, -1.75, 1.541], a = 0.2, v = 0.2, t = 0.2)
movej(p[-0.479900450556367, -0.242790662580989, 0.370820490538416, -0.9, -1.75, 1.541], a = 0.2, v = 0.2, t = 0.2)
movej(p[-0.47999033945233, -0.242877623107268, 0.371873752051958, -0.9, -1.75, 1.541], a = 0.2, v = 0.2, t = 0.2)
movej(p[-0.48006417456088, -0.242949052840926, 0.372738905387654, -0.9, -1.75, 1.541], a = 0.2, v = 0.2, t = 0.2)
movej(p[-0.480032574919885, -0.242918482642219, 0.372368640680924, -0.9, -1.75, 1.541], a = 0.2, v = 0.2, t = 0.2)
movej(p[-0.479903405807742, -0.242793521557195, 0.370855118314203, -0.9, -1.75, 1.541], a = 0.2, v = 0.2, t = 0.2)
movej(p[-0.479810900282958, -0.242704029645733, 0.369771196790849, -0.9, -1.75, 1.541], a = 0.2, v = 0.2, t = 0.2)
movej(p[-0.47974534603503, -0.242640611001654, 0.369003073368558, -0.9, -1.75, 1.541], a = 0.2, v = 0.2, t = 0.2)
movej(p[-0.479695645479368, -0.242592529573682, 0.368420713535129, -0.9, -1.75, 1.541], a = 0.2, v = 0.2, t = 0.2)
movej(p[-0.479664969354428, -0.242562852805039, 0.368061270008333, -0.9, -1.75, 1.541], a = 0.2, v = 0.2, t = 0.2)
movej(p[-0.47965611899224, -0.24255429076692, 0.367957567033968, -0.9, -1.75, 1.541], a = 0.2, v = 0.2, t = 0.2)
movej(p[-0.479656657709938, -0.242554811934458, 0.36796387938893, -0.9, -1.75, 1.541], a = 0.2, v = 0.2, t = 0.2)
movej(p[-0.47968193126596, -0.242579262137224, 0.368260019013114, -0.9, -1.75, 1.541], a = 0.2, v = 0.2, t = 0.2)
movej(p[-0.479774051992387, -0.242668381786159, 0.369339431711496, -0.9, -1.75, 1.541], a = 0.2, v = 0.2, t = 0.2)
movej(p[-0.479887413588066, -0.242778050326578, 0.370667731548352, -0.9, -1.75, 1.541], a = 0.2, v = 0.2, t = 0.2)
movej(p[-0.479984444341516, -0.242871920045356, 0.371804676853381, -0.9, -1.75, 1.541], a = 0.2, v = 0.2, t = 0.2)
movej(p[-0.480052984624687, -0.242938227446645, 0.372607788757457, -0.9, -1.75, 1.541], a = 0.2, v = 0.2, t = 0.2)
movej(p[-0.480118415737142, -0.243001526966715, 0.373374469355757, -0.9, -1.75, 1.541], a = 0.2, v = 0.2, t = 0.2)
movej(p[-0.480043133786774, -0.242928697525956, 0.372492362838165, -0.9, -1.75, 1.541], a = 0.2, v = 0.2, t = 0.2)
movej(p[-0.479912871847299, -0.242802679215357, 0.370966035408523, -0.9, -1.75, 1.541], a = 0.2, v = 0.2, t = 0.2)
movej(p[-0.479827646707412, -0.242720230510903, 0.369967420853646, -0.9, -1.75, 1.541], a = 0.2, v = 0.2, t = 0.2)
movej(p[-0.479768079921902, -0.242662604271742, 0.369269454747925, -0.9, -1.75, 1.541], a = 0.2, v = 0.2, t = 0.2)
movej(p[-0.479734740992338, -0.242630351446413, 0.36887881015232, -0.9, -1.75, 1.541], a = 0.2, v = 0.2, t = 0.2)
movej(p[-0.479716132143842, -0.242612348830613, 0.368660763376657, -0.9, -1.75, 1.541], a = 0.2, v = 0.2, t = 0.2)
movej(p[-0.479731570253885, -0.242627284003191, 0.368841657434548, -0.9, -1.75, 1.541], a = 0.2, v = 0.2, t = 0.2)
movej(p[-0.479838251750103, -0.242730490066144, 0.370091684069884, -0.9, -1.75, 1.541], a = 0.2, v = 0.2, t = 0.2)
movej(p[-0.479954383893945, -0.242842838896756, 0.371452447446541, -0.9, -1.75, 1.541], a = 0.2, v = 0.2, t = 0.2)
movej(p[-0.480062312136837, -0.242947251090296, 0.372717082674787, -0.9, -1.75, 1.541], a = 0.2, v = 0.2, t = 0.2)
movej(p[-0.480161036003053, -0.243042758764193, 0.373873866809695, -0.9, -1.75, 1.541], a = 0.2, v = 0.2, t = 0.2)
movej(p[-0.48029174430862, -0.243169208899324, 0.375405424476305, -0.9, -1.75, 1.541], a = 0.2, v = 0.2, t = 0.2)
movej(p[-0.480419127956392, -0.243292442686222, 0.376898025895154, -0.9, -1.75, 1.541], a = 0.2, v = 0.2, t = 0.2)
movej(p[-0.480447479899262, -0.243319870989203, 0.377230236119117, -0.9, -1.75, 1.541], a = 0.2, v = 0.2, t = 0.2)
movej(p[-0.480258359203253, -0.243136911402492, 0.375014238821703, -0.9, -1.75, 1.541], a = 0.2, v = 0.2, t = 0.2)
movej(p[-0.480097728977523, -0.24298151413327, 0.373132074925243, -0.9, -1.75, 1.541], a = 0.2, v = 0.2, t = 0.2)
movej(p[-0.479984336597976, -0.242871815811849, 0.371803414382389, -0.9, -1.75, 1.541], a = 0.2, v = 0.2, t = 0.2)
movej(p[-0.47990536058339, -0.242795412650832, 0.370878023145063, -0.9, -1.75, 1.541], a = 0.2, v = 0.2, t = 0.2)
movej(p[-0.479837759208207, -0.242730013570109, 0.370085912773919, -0.9, -1.75, 1.541], a = 0.2, v = 0.2, t = 0.2)
movej(p[-0.479773313179544, -0.242667667042107, 0.369330774767549, -0.9, -1.75, 1.541], a = 0.2, v = 0.2, t = 0.2)
movej(p[-0.479736588024447, -0.242632138306542, 0.368900452512187, -0.9, -1.75, 1.541], a = 0.2, v = 0.2, t = 0.2)
movej(p[-0.479706265913994, -0.242602804019423, 0.368545157104366, -0.9, -1.75, 1.541], a = 0.2, v = 0.2, t = 0.2)
movej(p[-0.479686225615613, -0.242583416587024, 0.368310337499806, -0.9, -1.75, 1.541], a = 0.2, v = 0.2, t = 0.2)
movej(p[-0.479667924605802, -0.242565711781245, 0.36809589778412, -0.9, -1.75, 1.541], a = 0.2, v = 0.2, t = 0.2)
movej(p[-0.479678514256559, -0.242575956445985, 0.36821998064736, -0.9, -1.75, 1.541], a = 0.2, v = 0.2, t = 0.2)
movej(p[-0.479761892364338, -0.242656618290309, 0.36919695284237, -0.9, -1.75, 1.541], a = 0.2, v = 0.2, t = 0.2)
movej(p[-0.479842992465849, -0.242735076340475, 0.370147232793543, -0.9, -1.75, 1.541], a = 0.2, v = 0.2, t = 0.2)
movej(p[-0.479951875008664, -0.242840411745081, 0.371423049907721, -0.9, -1.75, 1.541], a = 0.2, v = 0.2, t = 0.2)
movej(p[-0.480032113161858, -0.242918035927186, 0.372363230090957, -0.9, -1.75, 1.541], a = 0.2, v = 0.2, t = 0.2)
movej(p[-0.480020815482125, -0.242907106299397, 0.372230850989768, -0.9, -1.75, 1.541], a = 0.2, v = 0.2, t = 0.2)
movej(p[-0.479879363606459, -0.242770262594516, 0.37057340692993, -0.9, -1.75, 1.541], a = 0.2, v = 0.2, t = 0.2)
movej(p[-0.479779623872582, -0.242673772147548, 0.369404719497096, -0.9, -1.75, 1.541], a = 0.2, v = 0.2, t = 0.2)
movej(p[-0.479716286063184, -0.242612497735623, 0.368662566906646, -0.9, -1.75, 1.541], a = 0.2, v = 0.2, t = 0.2)
movej(p[-0.479678237201743, -0.242575688416965, 0.368216734293379, -0.9, -1.75, 1.541], a = 0.2, v = 0.2, t = 0.2)
movej(p[-0.479661567736961, -0.242559562004301, 0.368021411995577, -0.9, -1.75, 1.541], a = 0.2, v = 0.2, t = 0.2)
movej(p[-0.4796560112487, -0.242554186533413, 0.367956304562976, -0.9, -1.75, 1.541], a = 0.2, v = 0.2, t = 0.2)
movej(p[-0.479658135335625, -0.242556241422561, 0.367981193276824, -0.9, -1.75, 1.541], a = 0.2, v = 0.2, t = 0.2)
movej(p[-0.479686456494627, -0.24258363994454, 0.368313042794789, -0.9, -1.75, 1.541], a = 0.2, v = 0.2, t = 0.2)
movej(p[-0.479779423777437, -0.242673578571034, 0.36940237490811, -0.9, -1.75, 1.541], a = 0.2, v = 0.2, t = 0.2)
movej(p[-0.47986717319454, -0.242758469317664, 0.370430567354806, -0.9, -1.75, 1.541], a = 0.2, v = 0.2, t = 0.2)
movej(p[-0.479947211252589, -0.242835899923255, 0.371368402949056, -0.9, -1.75, 1.541], a = 0.2, v = 0.2, t = 0.2)
movej(p[-0.480025263751121, -0.242911409654208, 0.372282973006449, -0.9, -1.75, 1.541], a = 0.2, v = 0.2, t = 0.2)
movej(p[-0.480062342920705, -0.242947280871298, 0.372717443380785, -0.9, -1.75, 1.541], a = 0.2, v = 0.2, t = 0.2)
movej(p[-0.479966328034915, -0.242854393925591, 0.371592401373683, -0.9, -1.75, 1.541], a = 0.2, v = 0.2, t = 0.2)
movej(p[-0.479827369652595, -0.242719962481884, 0.369964174499666, -0.9, -1.75, 1.541], a = 0.2, v = 0.2, t = 0.2)
movej(p[-0.47975101026683, -0.242646090706049, 0.369069443272151, -0.9, -1.75, 1.541], a = 0.2, v = 0.2, t = 0.2)
movej(p[-0.479702510282039, -0.242599170737161, 0.368501150972636, -0.9, -1.75, 1.541], a = 0.2, v = 0.2, t = 0.2)
movej(p[-0.479679268461337, -0.242576686080538, 0.368228817944305, -0.9, -1.75, 1.541], a = 0.2, v = 0.2, t = 0.2)
movej(p[-0.479656873197017, -0.242555020401473, 0.367966404330914, -0.9, -1.75, 1.541], a = 0.2, v = 0.2, t = 0.2)
movej(p[-0.479654041081117, -0.242552280549275, 0.367933219379118, -0.9, -1.75, 1.541], a = 0.2, v = 0.2, t = 0.2)
movej(p[-0.479659443650035, -0.242557507115153, 0.36799652328173, -0.9, -1.75, 1.541], a = 0.2, v = 0.2, t = 0.2)
movej(p[-0.479695368424552, -0.242592261544662, 0.368417467181149, -0.9, -1.75, 1.541], a = 0.2, v = 0.2, t = 0.2)
movej(p[-0.479773928856914, -0.24266826266215, 0.369337988887505, -0.9, -1.75, 1.541], a = 0.2, v = 0.2, t = 0.2)
movej(p[-0.479864525781851, -0.242755908151479, 0.370399546638996, -0.9, -1.75, 1.541], a = 0.2, v = 0.2, t = 0.2)
movej(p[-0.479937129535662, -0.242826146645051, 0.37125027173478, -0.9, -1.75, 1.541], a = 0.2, v = 0.2, t = 0.2)
movej(p[-0.479992063348965, -0.242879290843389, 0.371893951587834, -0.9, -1.75, 1.541], a = 0.2, v = 0.2, t = 0.2)
movej(p[-0.480006824213901, -0.24289357083392, 0.372066910113774, -0.9, -1.75, 1.541], a = 0.2, v = 0.2, t = 0.2)
movej(p[-0.479907592413855, -0.242797571773488, 0.370904174329902, -0.9, -1.75, 1.541], a = 0.2, v = 0.2, t = 0.2)
movej(p[-0.479807991207387, -0.24270121534103, 0.369737110074058, -0.9, -1.75, 1.541], a = 0.2, v = 0.2, t = 0.2)
movej(p[-0.479725244168912, -0.242621164007249, 0.368767532352002, -0.9, -1.75, 1.541], a = 0.2, v = 0.2, t = 0.2)
movej(p[-0.479692951890876, -0.242589923735993, 0.368389151760322, -0.9, -1.75, 1.541], a = 0.2, v = 0.2, t = 0.2)
movej(p[-0.479675574397119, -0.242573112360279, 0.368185533224571, -0.9, -1.75, 1.541], a = 0.2, v = 0.2, t = 0.2)
movej(p[-0.479660490301564, -0.242558519669226, 0.368008787285654, -0.9, -1.75, 1.541], a = 0.2, v = 0.2, t = 0.2)
movej(p[-0.479651424452296, -0.242549749164092, 0.367902559369306, -0.9, -1.75, 1.541], a = 0.2, v = 0.2, t = 0.2)
movej(p[-0.479650654855584, -0.242549004639039, 0.367893541719361, -0.9, -1.75, 1.541], a = 0.2, v = 0.2, t = 0.2)
movej(p[-0.479650577895913, -0.242548930186533, 0.367892639954367, -0.9, -1.75, 1.541], a = 0.2, v = 0.2, t = 0.2)
movej(p[-0.479641111856355, -0.242539772528372, 0.367781722860047, -0.9, -1.75, 1.541], a = 0.2, v = 0.2, t = 0.2)
movej(p[-0.479657612009861, -0.242555735145525, 0.367975061274861, -0.9, -1.75, 1.541], a = 0.2, v = 0.2, t = 0.2)
movej(p[-0.479709328908908, -0.242605767229137, 0.368581047351146, -0.9, -1.75, 1.541], a = 0.2, v = 0.2, t = 0.2)
movej(p[-0.479774559926217, -0.242668873172694, 0.36934538336046, -0.9, -1.75, 1.541], a = 0.2, v = 0.2, t = 0.2)
movej(p[-0.479845470567262, -0.242737473711148, 0.370176269626365, -0.9, -1.75, 1.541], a = 0.2, v = 0.2, t = 0.2)
movej(p[-0.479937575901755, -0.242826578469582, 0.371255501971748, -0.9, -1.75, 1.541], a = 0.2, v = 0.2, t = 0.2)
movej(p[-0.480024894344699, -0.242911052282182, 0.372278644534475, -0.9, -1.75, 1.541], a = 0.2, v = 0.2, t = 0.2)
movej(p[-0.480066591094556, -0.242951390649595, 0.37276722080848, -0.9, -1.75, 1.541], a = 0.2, v = 0.2, t = 0.2)
movej(p[-0.479972377065072, -0.242860245892513, 0.371663280102248, -0.9, -1.75, 1.541], a = 0.2, v = 0.2, t = 0.2)
movej(p[-0.479863017372295, -0.242754448882374, 0.370381872045105, -0.9, -1.75, 1.541], a = 0.2, v = 0.2, t = 0.2)
movej(p[-0.479772512798963, -0.242666892736051, 0.369321396411607, -0.9, -1.75, 1.541], a = 0.2, v = 0.2, t = 0.2)
movej(p[-0.479704203394806, -0.242600808692279, 0.368520989802514, -0.9, -1.75, 1.541], a = 0.2, v = 0.2, t = 0.2)
movej(p[-0.479676713400253, -0.242574214257359, 0.368198879346489, -0.9, -1.75, 1.541], a = 0.2, v = 0.2, t = 0.2)
movej(p[-0.479664938570559, -0.242562823024036, 0.368060909302335, -0.9, -1.75, 1.541], a = 0.2, v = 0.2, t = 0.2)
movej(p[-0.479659274338759, -0.242557343319641, 0.367994539398742, -0.9, -1.75, 1.541], a = 0.2, v = 0.2, t = 0.2)
movej(p[-0.479647468725197, -0.242545922305316, 0.36785620864859, -0.9, -1.75, 1.541], a = 0.2, v = 0.2, t = 0.2)
movej(p[-0.479648900175081, -0.242547307121916, 0.367872981477487, -0.9, -1.75, 1.541], a = 0.2, v = 0.2, t = 0.2)
movej(p[-0.479649023310555, -0.242547426245925, 0.367874424301478, -0.9, -1.75, 1.541], a = 0.2, v = 0.2, t = 0.2)
movej(p[-0.479668694202514, -0.242566456306299, 0.368104915434065, -0.9, -1.75, 1.541], a = 0.2, v = 0.2, t = 0.2)
movej(p[-0.479720657372508, -0.242616726637929, 0.368713787158332, -0.9, -1.75, 1.541], a = 0.2, v = 0.2, t = 0.2)
movej(p[-0.479801434243401, -0.242694871987572, 0.369660279696529, -0.9, -1.75, 1.541], a = 0.2, v = 0.2, t = 0.2)
movej(p[-0.479882395817504, -0.242773196023228, 0.370608936470713, -0.9, -1.75, 1.541], a = 0.2, v = 0.2, t = 0.2)
movej(p[-0.479943455620634, -0.242832266640993, 0.371324396817326, -0.9, -1.75, 1.541], a = 0.2, v = 0.2, t = 0.2)
movej(p[-0.480004946397924, -0.242891754192789, 0.372044907047908, -0.9, -1.75, 1.541], a = 0.2, v = 0.2, t = 0.2)
movej(p[-0.480029234870155, -0.242915251403485, 0.372329504080164, -0.9, -1.75, 1.541], a = 0.2, v = 0.2, t = 0.2)
movej(p[-0.479933620174655, -0.242822751610806, 0.371209151251033, -0.9, -1.75, 1.541], a = 0.2, v = 0.2, t = 0.2)
movej(p[-0.479806251918818, -0.242699532714408, 0.369716730185183, -0.9, -1.75, 1.541], a = 0.2, v = 0.2, t = 0.2)
movej(p[-0.4797397587629, -0.242635205749763, 0.36893760522996, -0.9, -1.75, 1.541], a = 0.2, v = 0.2, t = 0.2)
movej(p[-0.479703587717436, -0.242600213072236, 0.368513775682558, -0.9, -1.75, 1.541], a = 0.2, v = 0.2, t = 0.2)
movej(p[-0.479677298293754, -0.2425747800964, 0.368205732760447, -0.9, -1.75, 1.541], a = 0.2, v = 0.2, t = 0.2)
movej(p[-0.479659228162956, -0.242557298648138, 0.367993998339745, -0.9, -1.75, 1.541], a = 0.2, v = 0.2, t = 0.2)
movej(p[-0.479655210868119, -0.242553412227357, 0.367946926207034, -0.9, -1.75, 1.541], a = 0.2, v = 0.2, t = 0.2)
movej(p[-0.479653009821523, -0.242551282885703, 0.367921135728192, -0.9, -1.75, 1.541], a = 0.2, v = 0.2, t = 0.2)
movej(p[-0.479643066632004, -0.242541663622009, 0.367804627690906, -0.9, -1.75, 1.541], a = 0.2, v = 0.2, t = 0.2)
movej(p[-0.479646252762392, -0.242544745955731, 0.367841960761677, -0.9, -1.75, 1.541], a = 0.2, v = 0.2, t = 0.2)
movej(p[-0.479679222285534, -0.242576641409034, 0.368228276885309, -0.9, -1.75, 1.541], a = 0.2, v = 0.2, t = 0.2)
movej(p[-0.479743160380368, -0.242638496550501, 0.368977463242715, -0.9, -1.75, 1.541], a = 0.2, v = 0.2, t = 0.2)
movej(p[-0.479799387116147, -0.242692891550929, 0.369636292747676, -0.9, -1.75, 1.541], a = 0.2, v = 0.2, t = 0.2)
movej(p[-0.479881795532068, -0.242772615293686, 0.370601902703756, -0.9, -1.75, 1.541], a = 0.2, v = 0.2, t = 0.2)
movej(p[-0.479950936100675, -0.242839503424516, 0.371412048374789, -0.9, -1.75, 1.541], a = 0.2, v = 0.2, t = 0.2)
movej(p[-0.47999752748562, -0.24288457697127, 0.371957976902441, -0.9, -1.75, 1.541], a = 0.2, v = 0.2, t = 0.2)
movej(p[-0.480023893868973, -0.242910084399612, 0.372266921589547, -0.9, -1.75, 1.541], a = 0.2, v = 0.2, t = 0.2)
movej(p[-0.479928510052487, -0.242817807964449, 0.3711492740554, -0.9, -1.75, 1.541], a = 0.2, v = 0.2, t = 0.2)
movej(p[-0.479822444233638, -0.242715197521539, 0.36990646154002, -0.9, -1.75, 1.541], a = 0.2, v = 0.2, t = 0.2)
movej(p[-0.479732093579649, -0.242627790280228, 0.36884778943651, -0.9, -1.75, 1.541], a = 0.2, v = 0.2, t = 0.2)
movej(p[-0.47969550695196, -0.242592395559172, 0.368419090358139, -0.9, -1.75, 1.541], a = 0.2, v = 0.2, t = 0.2)
movej(p[-0.479674065987564, -0.242571653091174, 0.368167858630679, -0.9, -1.75, 1.541], a = 0.2, v = 0.2, t = 0.2)
movej(p[-0.4796599669758, -0.242558013392189, 0.368002655283692, -0.9, -1.75, 1.541], a = 0.2, v = 0.2, t = 0.2)
movej(p[-0.479648700079936, -0.242547113545402, 0.367870636888501, -0.9, -1.75, 1.541], a = 0.2, v = 0.2, t = 0.2)
movej(p[-0.479649977610478, -0.242548349456991, 0.36788560618741, -0.9, -1.75, 1.541], a = 0.2, v = 0.2, t = 0.2)
movej(p[-0.479688442054144, -0.242585560819178, 0.368336308331646, -0.9, -1.75, 1.541], a = 0.2, v = 0.2, t = 0.2)
movej(p[-0.479748624517023, -0.242643782678383, 0.369041488557323, -0.9, -1.75, 1.541], a = 0.2, v = 0.2, t = 0.2)
movej(p[-0.479835004051978, -0.242727348170417, 0.370053629587117, -0.9, -1.75, 1.541], a = 0.2, v = 0.2, t = 0.2)
movej(p[-0.479922230143317, -0.24281173264001, 0.371075690031851, -0.9, -1.75, 1.541], a = 0.2, v = 0.2, t = 0.2)
movej(p[-0.479991894037688, -0.242879127047877, 0.371891967704846, -0.9, -1.75, 1.541], a = 0.2, v = 0.2, t = 0.2)
movej(p[-0.480022077620733, -0.242908327320485, 0.372245639935678, -0.9, -1.75, 1.541], a = 0.2, v = 0.2, t = 0.2)
movej(p[-0.479941808683671, -0.242830673357378, 0.371305099046444, -0.9, -1.75, 1.541], a = 0.2, v = 0.2, t = 0.2)
movej(p[-0.479827862194491, -0.242720438977918, 0.36996994579563, -0.9, -1.75, 1.541], a = 0.2, v = 0.2, t = 0.2)
movej(p[-0.47973591077934, -0.242631483124494, 0.368892516980236, -0.9, -1.75, 1.541], a = 0.2, v = 0.2, t = 0.2)
movej(p[-0.479693536784377, -0.242590489575034, 0.36839600517428, -0.9, -1.75, 1.541], a = 0.2, v = 0.2, t = 0.2)
movej(p[-0.479673003944101, -0.2425706256466, 0.368155414273755, -0.9, -1.75, 1.541], a = 0.2, v = 0.2, t = 0.2)
movej(p[-0.479662460469147, -0.242560425653363, 0.368031872469513, -0.9, -1.75, 1.541], a = 0.2, v = 0.2, t = 0.2)
movej(p[-0.479647992050961, -0.242546428582353, 0.367862340650552, -0.9, -1.75, 1.541], a = 0.2, v = 0.2, t = 0.2)
movej(p[-0.479647237846183, -0.2425456989478, 0.367853503353606, -0.9, -1.75, 1.541], a = 0.2, v = 0.2, t = 0.2)
movej(p[-0.479656765453478, -0.242554916167966, 0.367965141859922, -0.9, -1.75, 1.541], a = 0.2, v = 0.2, t = 0.2)
movej(p[-0.479700740209602, -0.242597458329537, 0.368480410377763, -0.9, -1.75, 1.541], a = 0.2, v = 0.2, t = 0.2)
movej(p[-0.47978251755622, -0.24267657156175, 0.369438625860888, -0.9, -1.75, 1.541], a = 0.2, v = 0.2, t = 0.2)
movej(p[-0.479874730634252, -0.242765780553692, 0.370519120677263, -0.9, -1.75, 1.541], a = 0.2, v = 0.2, t = 0.2)
movej(p[-0.4799513516829, -0.242839905468045, 0.371416917905759, -0.9, -1.75, 1.541], a = 0.2, v = 0.2, t = 0.2)
movej(p[-0.48000420758508, -0.242891039448737, 0.372036250103962, -0.9, -1.75, 1.541], a = 0.2, v = 0.2, t = 0.2)
movej(p[-0.480029588884642, -0.24291559388501, 0.372333652199138, -0.9, -1.75, 1.541], a = 0.2, v = 0.2, t = 0.2)
movej(p[-0.479934266635893, -0.242823377011851, 0.371216726076986, -0.9, -1.75, 1.541], a = 0.2, v = 0.2, t = 0.2)
movej(p[-0.479806452013963, -0.242699726290922, 0.369719074774168, -0.9, -1.75, 1.541], a = 0.2, v = 0.2, t = 0.2)
movej(p[-0.479728630394445, -0.242624439917486, 0.368807210011759, -0.9, -1.75, 1.541], a = 0.2, v = 0.2, t = 0.2)
movej(p[-0.479689888895962, -0.242586960526279, 0.368353261513542, -0.9, -1.75, 1.541], a = 0.2, v = 0.2, t = 0.2)
movej(p[-0.479668648026711, -0.242566411634796, 0.368104374375068, -0.9, -1.75, 1.541], a = 0.2, v = 0.2, t = 0.2)
movej(p[-0.479649054094423, -0.242547456026927, 0.367874785007476, -0.9, -1.75, 1.541], a = 0.2, v = 0.2, t = 0.2)
movej(p[-0.479647838131618, -0.242546279677342, 0.367860537120563, -0.9, -1.75, 1.541], a = 0.2, v = 0.2, t = 0.2)
movej(p[-0.479647468725197, -0.242545922305316, 0.36785620864859, -0.9, -1.75, 1.541], a = 0.2, v = 0.2, t = 0.2)
movej(p[-0.47964548316568, -0.242544001430677, 0.367832943111732, -0.9, -1.75, 1.541], a = 0.2, v = 0.2, t = 0.2)
movej(p[-0.479639526487129, -0.242538238806761, 0.36776314650116, -0.9, -1.75, 1.541], a = 0.2, v = 0.2, t = 0.2)
movej(p[-0.479671741805493, -0.242569404625512, 0.368140625327846, -0.9, -1.75, 1.541], a = 0.2, v = 0.2, t = 0.2)
movej(p[-0.479736957430869, -0.242632495678568, 0.368904780984161, -0.9, -1.75, 1.541], a = 0.2, v = 0.2, t = 0.2)
movej(p[-0.479792229866725, -0.242685967467929, 0.36955242860319, -0.9, -1.75, 1.541], a = 0.2, v = 0.2, t = 0.2)
movej(p[-0.479862078464307, -0.242753540561808, 0.370370870512172, -0.9, -1.75, 1.541], a = 0.2, v = 0.2, t = 0.2)
movej(p[-0.479936852480845, -0.242825878616032, 0.3712470253808, -0.9, -1.75, 1.541], a = 0.2, v = 0.2, t = 0.2)
movej(p[-0.479991986389294, -0.242879216390883, 0.37189304982284, -0.9, -1.75, 1.541], a = 0.2, v = 0.2, t = 0.2)
movej(p[-0.479978656974242, -0.242866321216952, 0.371736864125797, -0.9, -1.75, 1.541], a = 0.2, v = 0.2, t = 0.2)
movej(p[-0.479885828218839, -0.242776516604967, 0.370649155189466, -0.9, -1.75, 1.541], a = 0.2, v = 0.2, t = 0.2)
movej(p[-0.479788351099297, -0.242682215061658, 0.369506979647469, -0.9, -1.75, 1.541], a = 0.2, v = 0.2, t = 0.2)
movej(p[-0.479711822402255, -0.242608179490312, 0.368610264536967, -0.9, -1.75, 1.541], a = 0.2, v = 0.2, t = 0.2)
movej(p[-0.479682593119133, -0.24257990242877, 0.368267774192066, -0.9, -1.75, 1.541], a = 0.2, v = 0.2, t = 0.2)
movej(p[-0.479665061706033, -0.242562942148045, 0.368062352126326, -0.9, -1.75, 1.541], a = 0.2, v = 0.2, t = 0.2)
movej(p[-0.479656473006727, -0.242554633248445, 0.367961715152943, -0.9, -1.75, 1.541], a = 0.2, v = 0.2, t = 0.2)
movej(p[-0.479641727533725, -0.242540368148415, 0.367788936980002, -0.9, -1.75, 1.541], a = 0.2, v = 0.2, t = 0.2)
movej(p[-0.479640896369276, -0.242539564061357, 0.367779197918062, -0.9, -1.75, 1.541], a = 0.2, v = 0.2, t = 0.2)
movej(p[-0.47964232781916, -0.242540948877957, 0.367795970746959, -0.9, -1.75, 1.541], a = 0.2, v = 0.2, t = 0.2)
movej(p[-0.47964385162065, -0.242542423037563, 0.36781382569385, -0.9, -1.75, 1.541], a = 0.2, v = 0.2, t = 0.2)
movej(p[-0.479700955696681, -0.242597666796553, 0.368482935319747, -0.9, -1.75, 1.541], a = 0.2, v = 0.2, t = 0.2)
movej(p[-0.479766617688149, -0.24266118967414, 0.36925232121303, -0.9, -1.75, 1.541], a = 0.2, v = 0.2, t = 0.2)
movej(p[-0.479835173363255, -0.242727511965929, 0.370055613470105, -0.9, -1.75, 1.541], a = 0.2, v = 0.2, t = 0.2)
movej(p[-0.479889676202399, -0.242780239230236, 0.37069424343919, -0.9, -1.75, 1.541], a = 0.2, v = 0.2, t = 0.2)
movej(p[-0.479956800427621, -0.242845176705425, 0.371480762867367, -0.9, -1.75, 1.541], a = 0.2, v = 0.2, t = 0.2)
movej(p[-0.480005038749529, -0.242891843535795, 0.372045989165902, -0.9, -1.75, 1.541], a = 0.2, v = 0.2, t = 0.2)
movej(p[-0.479923553849662, -0.242813013223103, 0.371091200389756, -0.9, -1.75, 1.541], a = 0.2, v = 0.2, t = 0.2)
movej(p[-0.47982241344977, -0.242715167740537, 0.369906100834022, -0.9, -1.75, 1.541], a = 0.2, v = 0.2, t = 0.2)
movej(p[-0.479749809695959, -0.242644929246965, 0.369055375738238, -0.9, -1.75, 1.541], a = 0.2, v = 0.2, t = 0.2)
movej(p[-0.47970229479496, -0.242598962270146, 0.368498626030651, -0.9, -1.75, 1.541], a = 0.2, v = 0.2, t = 0.2)
movej(p[-0.479664953962493, -0.242562837914538, 0.368061089655334, -0.9, -1.75, 1.541], a = 0.2, v = 0.2, t = 0.2)
movej(p[-0.479655364787462, -0.242553561132368, 0.367948729737023, -0.9, -1.75, 1.541], a = 0.2, v = 0.2, t = 0.2)
movej(p[-0.479651085829743, -0.242549421573069, 0.36789859160333, -0.9, -1.75, 1.541], a = 0.2, v = 0.2, t = 0.2)
movej(p[-0.479645390814074, -0.242543912087671, 0.367831860993739, -0.9, -1.75, 1.541], a = 0.2, v = 0.2, t = 0.2)
movej(p[-0.479660844316051, -0.24255886215075, 0.368012935404629, -0.9, -1.75, 1.541], a = 0.2, v = 0.2, t = 0.2)
movej(p[-0.479728876665393, -0.242624678165503, 0.368810095659741, -0.9, -1.75, 1.541], a = 0.2, v = 0.2, t = 0.2)
movej(p[-0.479798956141988, -0.242692474616899, 0.369631242863707, -0.9, -1.75, 1.541], a = 0.2, v = 0.2, t = 0.2)
movej(p[-0.479861770625622, -0.242753242751787, 0.370367263452194, -0.9, -1.75, 1.541], a = 0.2, v = 0.2, t = 0.2)
movej(p[-0.479946333912337, -0.242835051164694, 0.371358122828119, -0.9, -1.75, 1.541], a = 0.2, v = 0.2, t = 0.2)
movej(p[-0.480021831349785, -0.242908089072468, 0.372242754287695, -0.9, -1.75, 1.541], a = 0.2, v = 0.2, t = 0.2)
movej(p[-0.48003985530478, -0.242925525849227, 0.372453947649401, -0.9, -1.75, 1.541], a = 0.2, v = 0.2, t = 0.2)
movej(p[-0.479922122399778, -0.242811628406503, 0.371074427560859, -0.9, -1.75, 1.541], a = 0.2, v = 0.2, t = 0.2)
movej(p[-0.479825691931763, -0.242718339417266, 0.369944516022786, -0.9, -1.75, 1.541], a = 0.2, v = 0.2, t = 0.2)
movej(p[-0.479746638957506, -0.242641861803744, 0.369018223020465, -0.9, -1.75, 1.541], a = 0.2, v = 0.2, t = 0.2)
movej(p[-0.479687118347799, -0.242584280236086, 0.368320797973741, -0.9, -1.75, 1.541], a = 0.2, v = 0.2, t = 0.2)
movej(p[-0.479664692299611, -0.242562584776019, 0.368058023654352, -0.9, -1.75, 1.541], a = 0.2, v = 0.2, t = 0.2)
movej(p[-0.479654010297249, -0.242552250768273, 0.36793285867312, -0.9, -1.75, 1.541], a = 0.2, v = 0.2, t = 0.2)
movej(p[-0.479649438892779, -0.242547828289454, 0.367879293832448, -0.9, -1.75, 1.541], a = 0.2, v = 0.2, t = 0.2)
movej(p[-0.479636879074439, -0.242535677640576, 0.367732125785351, -0.9, -1.75, 1.541], a = 0.2, v = 0.2, t = 0.2)
movej(p[-0.479637186913124, -0.242535975450598, 0.367735732845329, -0.9, -1.75, 1.541], a = 0.2, v = 0.2, t = 0.2)
movej(p[-0.479650808774927, -0.242549153544049, 0.36789534524935, -0.9, -1.75, 1.541], a = 0.2, v = 0.2, t = 0.2)
movej(p[-0.47969612262933, -0.242592991179215, 0.368426304478095, -0.9, -1.75, 1.541], a = 0.2, v = 0.2, t = 0.2)
movej(p[-0.479764293506079, -0.242658941208477, 0.369225087910197, -0.9, -1.75, 1.541], a = 0.2, v = 0.2, t = 0.2)
movej(p[-0.479851334894207, -0.242743146992058, 0.370244984118944, -0.9, -1.75, 1.541], a = 0.2, v = 0.2, t = 0.2)
movej(p[-0.479931249816782, -0.24282045847364, 0.371181376889203, -0.9, -1.75, 1.541], a = 0.2, v = 0.2, t = 0.2)
movej(p[-0.479992602066663, -0.242879812010926, 0.371900263942795, -0.9, -1.75, 1.541], a = 0.2, v = 0.2, t = 0.2)
movej(p[-0.480048213125073, -0.242933611391311, 0.3725518793278, -0.9, -1.75, 1.541], a = 0.2, v = 0.2, t = 0.2)
movej(p[-0.479983520825461, -0.242871026615292, 0.371793855673448, -0.9, -1.75, 1.541], a = 0.2, v = 0.2, t = 0.2)
movej(p[-0.479849518645967, -0.242741389912931, 0.370223702465075, -0.9, -1.75, 1.541], a = 0.2, v = 0.2, t = 0.2)
movej(p[-0.479742852541683, -0.242638198740479, 0.368973856182737, -0.9, -1.75, 1.541], a = 0.2, v = 0.2, t = 0.2)
movej(p[-0.479694752747182, -0.242591665924619, 0.368410253061193, -0.9, -1.75, 1.541], a = 0.2, v = 0.2, t = 0.2)
movej(p[-0.479670341139477, -0.242568049589914, 0.368124213204947, -0.9, -1.75, 1.541], a = 0.2, v = 0.2, t = 0.2)
movej(p[-0.479647684212276, -0.242546130772331, 0.367858733590574, -0.9, -1.75, 1.541], a = 0.2, v = 0.2, t = 0.2)
movej(p[-0.479643574565834, -0.242542155008544, 0.36781057933987, -0.9, -1.75, 1.541], a = 0.2, v = 0.2, t = 0.2)
movej(p[-0.479645575517285, -0.242544090773684, 0.367834025229726, -0.9, -1.75, 1.541], a = 0.2, v = 0.2, t = 0.2)
movej(p[-0.479691320345847, -0.242588345342879, 0.36837003434244, -0.9, -1.75, 1.541], a = 0.2, v = 0.2, t = 0.2)
movej(p[-0.479754442668166, -0.242649411287789, 0.369109661990905, -0.9, -1.75, 1.541], a = 0.2, v = 0.2, t = 0.2)
movej(p[-0.47984114543374, -0.242733289480346, 0.370125590433676, -0.9, -1.75, 1.541], a = 0.2, v = 0.2, t = 0.2)
movej(p[-0.479931742358678, -0.242820934969675, 0.371187148185168, -0.9, -1.75, 1.541], a = 0.2, v = 0.2, t = 0.2)
movej(p[-0.479996496226026, -0.242883579307698, 0.371945893251516, -0.9, -1.75, 1.541], a = 0.2, v = 0.2, t = 0.2)
movej(p[-0.48005313854403, -0.242938376351655, 0.372609592287446, -0.9, -1.75, 1.541], a = 0.2, v = 0.2, t = 0.2)
movej(p[-0.480008117136377, -0.24289482163601, 0.372082059765681, -0.9, -1.75, 1.541], a = 0.2, v = 0.2, t = 0.2)
movej(p[-0.47988804465737, -0.242778660837122, 0.370675126021307, -0.9, -1.75, 1.541], a = 0.2, v = 0.2, t = 0.2)
movej(p[-0.479767864434823, -0.242662395804727, 0.369266929805941, -0.9, -1.75, 1.541], a = 0.2, v = 0.2, t = 0.2)
movej(p[-0.479710868102332, -0.242607256279245, 0.368599082651035, -0.9, -1.75, 1.541], a = 0.2, v = 0.2, t = 0.2)
movej(p[-0.479677144374412, -0.242574631191389, 0.368203929230458, -0.9, -1.75, 1.541], a = 0.2, v = 0.2, t = 0.2)
movej(p[-0.479657411914716, -0.242555541569011, 0.367972716685876, -0.9, -1.75, 1.541], a = 0.2, v = 0.2, t = 0.2)
movej(p[-0.479643405254557, -0.242541991213032, 0.367808595456882, -0.9, -1.75, 1.541], a = 0.2, v = 0.2, t = 0.2)
movej(p[-0.479642820361056, -0.242541425373991, 0.367801742042924, -0.9, -1.75, 1.541], a = 0.2, v = 0.2, t = 0.2)
movej(p[-0.479662060278856, -0.242560038500335, 0.368027183291542, -0.9, -1.75, 1.541], a = 0.2, v = 0.2, t = 0.2)
movej(p[-0.479722335093341, -0.242618349702546, 0.368733445635211, -0.9, -1.75, 1.541], a = 0.2, v = 0.2, t = 0.2)
movej(p[-0.479815317768085, -0.242708303219542, 0.369822958101531, -0.9, -1.75, 1.541], a = 0.2, v = 0.2, t = 0.2)
movej(p[-0.479907623197723, -0.24279760155449, 0.3709045350359, -0.9, -1.75, 1.541], a = 0.2, v = 0.2, t = 0.2)
movej(p[-0.479984706004398, -0.242872173183875, 0.371807742854363, -0.9, -1.75, 1.541], a = 0.2, v = 0.2, t = 0.2)
movej(p[-0.480045827375266, -0.242931303363645, 0.372523924612972, -0.9, -1.75, 1.541], a = 0.2, v = 0.2, t = 0.2)
movej(p[-0.480045781199463, -0.242931258692141, 0.372523383553975, -0.9, -1.75, 1.541], a = 0.2, v = 0.2, t = 0.2)
movej(p[-0.479930495612004, -0.242819728839088, 0.371172539592257, -0.9, -1.75, 1.541], a = 0.2, v = 0.2, t = 0.2)
movej(p[-0.479805805552725, -0.242699100889877, 0.369711499948215, -0.9, -1.75, 1.541], a = 0.2, v = 0.2, t = 0.2)
movej(p[-0.479732462986071, -0.242628147652254, 0.368852117908484, -0.9, -1.75, 1.541], a = 0.2, v = 0.2, t = 0.2)
movej(p[-0.479686179439811, -0.24258337191552, 0.368309796440809, -0.9, -1.75, 1.541], a = 0.2, v = 0.2, t = 0.2)
movej(p[-0.479664830827019, -0.242562718790529, 0.368059646831343, -0.9, -1.75, 1.541], a = 0.2, v = 0.2, t = 0.2)
movej(p[-0.479643436038426, -0.242542020994034, 0.36780895616288, -0.9, -1.75, 1.541], a = 0.2, v = 0.2, t = 0.2)
movej(p[-0.479640634706394, -0.242539310922839, 0.367776131917081, -0.9, -1.75, 1.541], a = 0.2, v = 0.2, t = 0.2)
movej(p[-0.479640065204827, -0.242538759974299, 0.367769458856122, -0.9, -1.75, 1.541], a = 0.2, v = 0.2, t = 0.2)
movej(p[-0.47963270786026, -0.242531642314785, 0.36768325012265, -0.9, -1.75, 1.541], a = 0.2, v = 0.2, t = 0.2)
movej(p[-0.479665846694679, -0.2425637015636, 0.36807155012927, -0.9, -1.75, 1.541], a = 0.2, v = 0.2, t = 0.2)
movej(p[-0.479734648640733, -0.242630262103406, 0.368877728034327, -0.9, -1.75, 1.541], a = 0.2, v = 0.2, t = 0.2)
movej(p[-0.479806944555859, -0.242700202786957, 0.369724846070133, -0.9, -1.75, 1.541], a = 0.2, v = 0.2, t = 0.2)
movej(p[-0.479871329016785, -0.242762489752954, 0.370479262664508, -0.9, -1.75, 1.541], a = 0.2, v = 0.2, t = 0.2)
movej(p[-0.479957616200135, -0.242845965901982, 0.371490321576309, -0.9, -1.75, 1.541], a = 0.2, v = 0.2, t = 0.2)
movej(p[-0.480027264702572, -0.242913345419348, 0.372306418896305, -0.9, -1.75, 1.541], a = 0.2, v = 0.2, t = 0.2)
movej(p[-0.480011857376398, -0.242898440027771, 0.372125885544412, -0.9, -1.75, 1.541], a = 0.2, v = 0.2, t = 0.2)
movej(p[-0.479927463400959, -0.242816795410376, 0.371137010051475, -0.9, -1.75, 1.541], a = 0.2, v = 0.2, t = 0.2)
movej(p[-0.479833834264976, -0.242726216492335, 0.370039922759201, -0.9, -1.75, 1.541], a = 0.2, v = 0.2, t = 0.2)
movej(p[-0.479752103094161, -0.242647147931626, 0.369082248335073, -0.9, -1.75, 1.541], a = 0.2, v = 0.2, t = 0.2)
movej(p[-0.479688996163776, -0.242586096877217, 0.368342801039606, -0.9, -1.75, 1.541], a = 0.2, v = 0.2, t = 0.2)
movej(p[-0.479669017433133, -0.242566769006821, 0.368108702847042, -0.9, -1.75, 1.541], a = 0.2, v = 0.2, t = 0.2)
movej(p[-0.479656426830924, -0.242554588576942, 0.367961174093946, -0.9, -1.75, 1.541], a = 0.2, v = 0.2, t = 0.2)
movej(p[-0.479646483641405, -0.242544969313247, 0.367844666056661, -0.9, -1.75, 1.541], a = 0.2, v = 0.2, t = 0.2)
movej(p[-0.479636632803492, -0.242535439392559, 0.367729240137368, -0.9, -1.75, 1.541], a = 0.2, v = 0.2, t = 0.2)
movej(p[-0.479636802114768, -0.242535603188071, 0.367731224020356, -0.9, -1.75, 1.541], a = 0.2, v = 0.2, t = 0.2)
movej(p[-0.479663414769069, -0.24256134886443, 0.368043054355444, -0.9, -1.75, 1.541], a = 0.2, v = 0.2, t = 0.2)
movej(p[-0.479713761785969, -0.242610055693447, 0.368632989014827, -0.9, -1.75, 1.541], a = 0.2, v = 0.2, t = 0.2)
movej(p[-0.479789890292721, -0.242683704111765, 0.369525014947358, -0.9, -1.75, 1.541], a = 0.2, v = 0.2, t = 0.2)
movej(p[-0.479873807118198, -0.242764887123628, 0.37050829949733, -0.9, -1.75, 1.541], a = 0.2, v = 0.2, t = 0.2)
movej(p[-0.479942824551331, -0.242831656130449, 0.371317002344371, -0.9, -1.75, 1.541], a = 0.2, v = 0.2, t = 0.2)
movej(p[-0.479996034467999, -0.242883132592666, 0.371940482661549, -0.9, -1.75, 1.541], a = 0.2, v = 0.2, t = 0.2)
movej(p[-0.480014504789087, -0.242901001193956, 0.372156906260222, -0.9, -1.75, 1.541], a = 0.2, v = 0.2, t = 0.2)
movej(p[-0.479929048770186, -0.242818329131987, 0.371155586410361, -0.9, -1.75, 1.541], a = 0.2, v = 0.2, t = 0.2)
movej(p[-0.479802850301351, -0.242696241913671, 0.369676872172427, -0.9, -1.75, 1.541], a = 0.2, v = 0.2, t = 0.2)
movej(p[-0.479734571681062, -0.242630187650901, 0.368876826269332, -0.9, -1.75, 1.541], a = 0.2, v = 0.2, t = 0.2)
movej(p[-0.479691705144203, -0.242588717605406, 0.368374543167412, -0.9, -1.75, 1.541], a = 0.2, v = 0.2, t = 0.2)
movej(p[-0.479666908738142, -0.242564729008174, 0.368083994486193, -0.9, -1.75, 1.541], a = 0.2, v = 0.2, t = 0.2)
movej(p[-0.479643097415872, -0.242541693403011, 0.367804988396904, -0.9, -1.75, 1.541], a = 0.2, v = 0.2, t = 0.2)
movej(p[-0.479639449527458, -0.242538164354256, 0.367762244736166, -0.9, -1.75, 1.541], a = 0.2, v = 0.2, t = 0.2)
movej(p[-0.479638926201693, -0.242537658077219, 0.367756112734204, -0.9, -1.75, 1.541], a = 0.2, v = 0.2, t = 0.2)
movej(p[-0.47963292334734, -0.2425318507818, 0.367685775064635, -0.9, -1.75, 1.541], a = 0.2, v = 0.2, t = 0.2)
movej(p[-0.479671603278085, -0.242569270611002, 0.368139002150856, -0.9, -1.75, 1.541], a = 0.2, v = 0.2, t = 0.2)
movej(p[-0.479749871263696, -0.24264498880897, 0.369056097150233, -0.9, -1.75, 1.541], a = 0.2, v = 0.2, t = 0.2)
movej(p[-0.479835804432559, -0.242728122476473, 0.37006300794306, -0.9, -1.75, 1.541], a = 0.2, v = 0.2, t = 0.2)
movej(p[-0.479922045440106, -0.242811553953997, 0.371073525795864, -0.9, -1.75, 1.541], a = 0.2, v = 0.2, t = 0.2)
movej(p[-0.480014304693942, -0.242900807617442, 0.372154561671236, -0.9, -1.75, 1.541], a = 0.2, v = 0.2, t = 0.2)
movej(p[-0.480079858941871, -0.242964226261522, 0.372922685093527, -0.9, -1.75, 1.541], a = 0.2, v = 0.2, t = 0.2)
movej(p[-0.480033883234295, -0.24291974833481, 0.37238397068583, -0.9, -1.75, 1.541], a = 0.2, v = 0.2, t = 0.2)
movej(p[-0.479895217298726, -0.242785599810623, 0.370759170518791, -0.9, -1.75, 1.541], a = 0.2, v = 0.2, t = 0.2)
movej(p[-0.479783641167419, -0.242677658568329, 0.369451791629807, -0.9, -1.75, 1.541], a = 0.2, v = 0.2, t = 0.2)
movej(p[-0.479716409198658, -0.242612616859632, 0.368664009730637, -0.9, -1.75, 1.541], a = 0.2, v = 0.2, t = 0.2)
movej(p[-0.479664261325453, -0.242562167841989, 0.368052973770383, -0.9, -1.75, 1.541], a = 0.2, v = 0.2, t = 0.2)
movej(p[-0.479652794334444, -0.242551074418688, 0.367918610786207, -0.9, -1.75, 1.541], a = 0.2, v = 0.2, t = 0.2)
movej(p[-0.479645637085022, -0.242544150335688, 0.367834746641721, -0.9, -1.75, 1.541], a = 0.2, v = 0.2, t = 0.2)
movej(p[-0.479638972377496, -0.242537702748723, 0.3677566537932, -0.9, -1.75, 1.541], a = 0.2, v = 0.2, t = 0.2)
movej(p[-0.479631153274902, -0.242530138374176, 0.367665034469762, -0.9, -1.75, 1.541], a = 0.2, v = 0.2, t = 0.2)
movej(p[-0.479659074243614, -0.242557149743127, 0.367992194809756, -0.9, -1.75, 1.541], a = 0.2, v = 0.2, t = 0.2)
movej(p[-0.479732724648953, -0.242628400790772, 0.368855183909465, -0.9, -1.75, 1.541], a = 0.2, v = 0.2, t = 0.2)
movej(p[-0.479803635289997, -0.242697001329226, 0.369686070175371, -0.9, -1.75, 1.541], a = 0.2, v = 0.2, t = 0.2)
movej(p[-0.479899804095129, -0.242790037179944, 0.370812915712462, -0.9, -1.75, 1.541], a = 0.2, v = 0.2, t = 0.2)
movej(p[-0.479993448623046, -0.242880630988485, 0.371910183357735, -0.9, -1.75, 1.541], a = 0.2, v = 0.2, t = 0.2)
movej(p[-0.480047566663835, -0.242932985990266, 0.372544304501847, -0.9, -1.75, 1.541], a = 0.2, v = 0.2, t = 0.2)
movej(p[-0.48004595051074, -0.242931422487653, 0.372525367436963, -0.9, -1.75, 1.541], a = 0.2, v = 0.2, t = 0.2)
movej(p[-0.479949812489476, -0.242838416417937, 0.371398882605869, -0.9, -1.75, 1.541], a = 0.2, v = 0.2, t = 0.2)
movej(p[-0.479830140200759, -0.242722642772077, 0.369996638039467, -0.9, -1.75, 1.541], a = 0.2, v = 0.2, t = 0.2)
movej(p[-0.479730831441041, -0.24262656925914, 0.368833000490601, -0.9, -1.75, 1.541], a = 0.2, v = 0.2, t = 0.2)
movej(p[-0.479687780200972, -0.242584920527632, 0.368328553152694, -0.9, -1.75, 1.541], a = 0.2, v = 0.2, t = 0.2)
movej(p[-0.479666385412378, -0.242564222731138, 0.368077862484231, -0.9, -1.75, 1.541], a = 0.2, v = 0.2, t = 0.2)
movej(p[-0.479650362408834, -0.242548721719518, 0.367890115012382, -0.9, -1.75, 1.541], a = 0.2, v = 0.2, t = 0.2)
movej(p[-0.47963706377765, -0.242535856326589, 0.367734290021337, -0.9, -1.75, 1.541], a = 0.2, v = 0.2, t = 0.2)
movej(p[-0.479637094561519, -0.242535886107591, 0.367734650727335, -0.9, -1.75, 1.541], a = 0.2, v = 0.2, t = 0.2)
movej(p[-0.479666493155917, -0.242564326964645, 0.368079124955223, -0.9, -1.75, 1.541], a = 0.2, v = 0.2, t = 0.2)
movej(p[-0.479725675143071, -0.242621580941279, 0.368772582235971, -0.9, -1.75, 1.541], a = 0.2, v = 0.2, t = 0.2)
movej(p[-0.479822567369112, -0.242715316645548, 0.369907904364011, -0.9, -1.75, 1.541], a = 0.2, v = 0.2, t = 0.2)
movej(p[-0.479922122399778, -0.242811628406503, 0.371074427560859, -0.9, -1.75, 1.541], a = 0.2, v = 0.2, t = 0.2)
movej(p[-0.480000790575679, -0.242887733757498, 0.371996211738207, -0.9, -1.75, 1.541], a = 0.2, v = 0.2, t = 0.2)
movej(p[-0.48006366662705, -0.242948561454391, 0.37273295373869, -0.9, -1.75, 1.541], a = 0.2, v = 0.2, t = 0.2)
movej(p[-0.480060172657977, -0.242945181310647, 0.372692013607941, -0.9, -1.75, 1.541], a = 0.2, v = 0.2, t = 0.2)
movej(p[-0.479944179041544, -0.242832966494544, 0.371332873408274, -0.9, -1.75, 1.541], a = 0.2, v = 0.2, t = 0.2)
movej(p[-0.479808637668625, -0.242701840742075, 0.369744684900011, -0.9, -1.75, 1.541], a = 0.2, v = 0.2, t = 0.2)
movej(p[-0.47973957405969, -0.24263502706375, 0.368935440993973, -0.9, -1.75, 1.541], a = 0.2, v = 0.2, t = 0.2)
movej(p[-0.479693259729561, -0.242590221546015, 0.3683927588203, -0.9, -1.75, 1.541], a = 0.2, v = 0.2, t = 0.2)
movej(p[-0.479665985222087, -0.24256383557811, 0.36807317330626, -0.9, -1.75, 1.541], a = 0.2, v = 0.2, t = 0.2)
movej(p[-0.479643097415872, -0.242541693403011, 0.367804988396904, -0.9, -1.75, 1.541], a = 0.2, v = 0.2, t = 0.2)
movej(p[-0.479639972853222, -0.242538670631292, 0.367768376738128, -0.9, -1.75, 1.541], a = 0.2, v = 0.2, t = 0.2)
movej(p[-0.479638972377496, -0.242537702748723, 0.3677566537932, -0.9, -1.75, 1.541], a = 0.2, v = 0.2, t = 0.2)
movej(p[-0.479655410963265, -0.242553605803871, 0.367949270796019, -0.9, -1.75, 1.541], a = 0.2, v = 0.2, t = 0.2)
movej(p[-0.479740574535415, -0.24263599494632, 0.368947163938901, -0.9, -1.75, 1.541], a = 0.2, v = 0.2, t = 0.2)
movej(p[-0.479840729851516, -0.242732887436817, 0.370120720902706, -0.9, -1.75, 1.541], a = 0.2, v = 0.2, t = 0.2)
movej(p[-0.479931742358678, -0.242820934969675, 0.371187148185168, -0.9, -1.75, 1.541], a = 0.2, v = 0.2, t = 0.2)
movej(p[-0.480005408155951, -0.242892200907821, 0.372050317637875, -0.9, -1.75, 1.541], a = 0.2, v = 0.2, t = 0.2)
movej(p[-0.480082383219086, -0.242966668303698, 0.372952262985345, -0.9, -1.75, 1.541], a = 0.2, v = 0.2, t = 0.2)
movej(p[-0.480075595376086, -0.242960101592724, 0.372872727312833, -0.9, -1.75, 1.541], a = 0.2, v = 0.2, t = 0.2)
movej(p[-0.479953845176247, -0.242842317729219, 0.37144613509158, -0.9, -1.75, 1.541], a = 0.2, v = 0.2, t = 0.2)
movej(p[-0.479836650988942, -0.242728941454032, 0.370072927357999, -0.9, -1.75, 1.541], a = 0.2, v = 0.2, t = 0.2)
movej(p[-0.479751179578107, -0.242646254501561, 0.369071427155139, -0.9, -1.75, 1.541], a = 0.2, v = 0.2, t = 0.2)
movej(p[-0.479698185148518, -0.242594986506359, 0.368450471779946, -0.9, -1.75, 1.541], a = 0.2, v = 0.2, t = 0.2)
movej(p[-0.479658058375954, -0.242556166970056, 0.367980291511829, -0.9, -1.75, 1.541], a = 0.2, v = 0.2, t = 0.2)
movej(p[-0.479645652476956, -0.242544165226189, 0.36783492699472, -0.9, -1.75, 1.541], a = 0.2, v = 0.2, t = 0.2)
movej(p[-0.479640680882197, -0.242539355594342, 0.367776672976077, -0.9, -1.75, 1.541], a = 0.2, v = 0.2, t = 0.2)
movej(p[-0.479632969523142, -0.242531895453303, 0.367686316123631, -0.9, -1.75, 1.541], a = 0.2, v = 0.2, t = 0.2)
movej(p[-0.479638633754943, -0.242537375157699, 0.367752686027225, -0.9, -1.75, 1.541], a = 0.2, v = 0.2, t = 0.2)
movej(p[-0.479688503621881, -0.242585620381183, 0.368337029743642, -0.9, -1.75, 1.541], a = 0.2, v = 0.2, t = 0.2)
movej(p[-0.479772312703818, -0.242666699159537, 0.369319051822621, -0.9, -1.75, 1.541], a = 0.2, v = 0.2, t = 0.2)
movej(p[-0.479850903920048, -0.242742730058028, 0.370239934234975, -0.9, -1.75, 1.541], a = 0.2, v = 0.2, t = 0.2)
movej(p[-0.479947488307405, -0.242836167952275, 0.371371649303036, -0.9, -1.75, 1.541], a = 0.2, v = 0.2, t = 0.2)
movej(p[-0.480031020334527, -0.24291697870161, 0.372350425028035, -0.9, -1.75, 1.541], a = 0.2, v = 0.2, t = 0.2)
movej(p[-0.480064528575367, -0.242949395322451, 0.372743053506628, -0.9, -1.75, 1.541], a = 0.2, v = 0.2, t = 0.2)
movej(p[-0.479986937834863, -0.242874332306531, 0.371833894039202, -0.9, -1.75, 1.541], a = 0.2, v = 0.2, t = 0.2)
movej(p[-0.479872822034406, -0.242763934131559, 0.3704967569054, -0.9, -1.75, 1.541], a = 0.2, v = 0.2, t = 0.2)
movej(p[-0.479775098643916, -0.242669394340232, 0.369351695715421, -0.9, -1.75, 1.541], a = 0.2, v = 0.2, t = 0.2)
movej(p[-0.479697661822754, -0.242594480229322, 0.368444339777984, -0.9, -1.75, 1.541], a = 0.2, v = 0.2, t = 0.2)
movej(p[-0.479670294963675, -0.242568004918411, 0.36812367214595, -0.9, -1.75, 1.541], a = 0.2, v = 0.2, t = 0.2)
movej(p[-0.479653256092471, -0.24255152113372, 0.367924021376174, -0.9, -1.75, 1.541], a = 0.2, v = 0.2, t = 0.2)
movej(p[-0.479644775136705, -0.242543316467628, 0.367824646873783, -0.9, -1.75, 1.541], a = 0.2, v = 0.2, t = 0.2)
movej(p[-0.47963099935556, -0.242529989469166, 0.367663230939773, -0.9, -1.75, 1.541], a = 0.2, v = 0.2, t = 0.2)
movej(p[-0.479630506813664, -0.242529512973131, 0.367657459643808, -0.9, -1.75, 1.541], a = 0.2, v = 0.2, t = 0.2)
movej(p[-0.479635632327766, -0.242534471509989, 0.36771751719244, -0.9, -1.75, 1.541], a = 0.2, v = 0.2, t = 0.2)
movej(p[-0.479667847646131, -0.24256563732874, 0.368094996019126, -0.9, -1.75, 1.541], a = 0.2, v = 0.2, t = 0.2)
movej(p[-0.479742421567524, -0.242637781806449, 0.368968806298768, -0.9, -1.75, 1.541], a = 0.2, v = 0.2, t = 0.2)
movej(p[-0.479833788089173, -0.242726171820832, 0.370039381700205, -0.9, -1.75, 1.541], a = 0.2, v = 0.2, t = 0.2)
movej(p[-0.479912533224746, -0.242802351624333, 0.370962067642548, -0.9, -1.75, 1.541], a = 0.2, v = 0.2, t = 0.2)
movej(p[-0.479975517019657, -0.242863283554733, 0.371700072114023, -0.9, -1.75, 1.541], a = 0.2, v = 0.2, t = 0.2)
movej(p[-0.480047074121939, -0.242932509494232, 0.372538533205882, -0.9, -1.75, 1.541], a = 0.2, v = 0.2, t = 0.2)
movej(p[-0.480035776442207, -0.242921579866442, 0.372406154104694, -0.9, -1.75, 1.541], a = 0.2, v = 0.2, t = 0.2)
movej(p[-0.47991781265819, -0.242807459066202, 0.371023928721168, -0.9, -1.75, 1.541], a = 0.2, v = 0.2, t = 0.2)
movej(p[-0.479799294764541, -0.242692802207922, 0.369635210629683, -0.9, -1.75, 1.541], a = 0.2, v = 0.2, t = 0.2)
movej(p[-0.479731462510345, -0.242627179769684, 0.368840394963556, -0.9, -1.75, 1.541], a = 0.2, v = 0.2, t = 0.2)
movej(p[-0.479684594070584, -0.24258183819391, 0.368291220081923, -0.9, -1.75, 1.541], a = 0.2, v = 0.2, t = 0.2)
movej(p[-0.479648238321909, -0.24254666683037, 0.367865226298535, -0.9, -1.75, 1.541], a = 0.2, v = 0.2, t = 0.2)
movej(p[-0.479641004112816, -0.242539668294864, 0.367780460389054, -0.9, -1.75, 1.541], a = 0.2, v = 0.2, t = 0.2)
movej(p[-0.4796367713309, -0.242535573407069, 0.367730863314358, -0.9, -1.75, 1.541], a = 0.2, v = 0.2, t = 0.2)
movej(p[-0.47963332353763, -0.242532237934828, 0.367690464242606, -0.9, -1.75, 1.541], a = 0.2, v = 0.2, t = 0.2)
movej(p[-0.479638095037244, -0.242536853990161, 0.367746373672263, -0.9, -1.75, 1.541], a = 0.2, v = 0.2, t = 0.2)
movej(p[-0.479697507903411, -0.242594331324312, 0.368442536247995, -0.9, -1.75, 1.541], a = 0.2, v = 0.2, t = 0.2)
movej(p[-0.479785257320514, -0.242679222070942, 0.369470728694691, -0.9, -1.75, 1.541], a = 0.2, v = 0.2, t = 0.2)
movej(p[-0.479865557041445, -0.242756905815051, 0.370411630289922, -0.9, -1.75, 1.541], a = 0.2, v = 0.2, t = 0.2)
movej(p[-0.479963064944856, -0.242851237139363, 0.371554166537917, -0.9, -1.75, 1.541], a = 0.2, v = 0.2, t = 0.2)
movej(p[-0.480050722010354, -0.242936038542986, 0.37258127686662, -0.9, -1.75, 1.541], a = 0.2, v = 0.2, t = 0.2)
