def moving():
set_payload_mass(0)
set_tcp(p[0,0,0,0,0,0])
movej(p[0.4155, 0.0836, 0.3521, -1.218, 1.04, -1.028], a = 0.2, v = 0.2, t = 0.2)
movej(p[0.415495323426148, 0.0835930196425961, 0.352199646396159, -1.218, 1.04, -1.028], a = 0.2, v = 0.2, t = 0.2)
movej(p[0.4155, 0.0836, 0.3521, -1.218, 1.04, -1.028], a = 0.2, v = 0.2, t = 0.2)
movej(p[0.415495323426148, 0.0835930196425961, 0.352199646396159, -1.218, 1.04, -1.028], a = 0.2, v = 0.2, t = 0.2)
movej(p[0.4155, 0.0836, 0.3521, -1.218, 1.04, -1.028], a = 0.2, v = 0.2, t = 0.2)
movej(p[0.415495323426148, 0.0835930196425961, 0.352199646396159, -1.218, 1.04, -1.028], a = 0.2, v = 0.2, t = 0.2)
movej(p[0.4155, 0.0836, 0.3521, -1.218, 1.04, -1.028], a = 0.2, v = 0.2, t = 0.2)
movej(p[0.415495323426148, 0.0835930196425961, 0.352199646396159, -1.218, 1.04, -1.028], a = 0.2, v = 0.2, t = 0.2)
movej(p[0.4155, 0.0836, 0.3521, -1.218, 1.04, -1.028], a = 0.2, v = 0.2, t = 0.2)
movej(p[0.415495323426148, 0.0835930196425961, 0.352199646396159, -1.218, 1.04, -1.028], a = 0.2, v = 0.2, t = 0.2)
movej(p[0.4155, 0.0836, 0.3521, -1.218, 1.04, -1.028], a = 0.2, v = 0.2, t = 0.2)
movej(p[0.41551230313049, 0.0836183639242582, 0.351837850260984, -1.218, 1.04, -1.028], a = 0.2, v = 0.2, t = 0.2)
movej(p[0.415530954242326, 0.0836462029856564, 0.351440440503822, -1.218, 1.04, -1.028], a = 0.2, v = 0.2, t = 0.2)
movej(p[0.415543782084402, 0.0836653501060154, 0.351167110439157, -1.218, 1.04, -1.028], a = 0.2, v = 0.2, t = 0.2)
movej(p[0.415551475048389, 0.0836768327939448, 0.351003192117475, -1.218, 1.04, -1.028], a = 0.2, v = 0.2, t = 0.2)
movej(p[0.415552658221574, 0.083678598824368, 0.350977981579247, -1.218, 1.04, -1.028], a = 0.2, v = 0.2, t = 0.2)
movej(p[0.415553682391247, 0.0836801275226394, 0.350956159018488, -1.218, 1.04, -1.028], a = 0.2, v = 0.2, t = 0.2)
movej(p[0.415549347207286, 0.083673656731326, 0.351048531227728, -1.218, 1.04, -1.028], a = 0.2, v = 0.2, t = 0.2)
movej(p[0.41553361661582, 0.0836501769031265, 0.351383711810489, -1.218, 1.04, -1.028], a = 0.2, v = 0.2, t = 0.2)
movej(p[0.415492459024664, 0.0835887441736862, 0.352260679813807, -1.218, 1.04, -1.028], a = 0.2, v = 0.2, t = 0.2)
movej(p[0.415429865421941, 0.0834953155800136, 0.3535943970032, -1.218, 1.04, -1.028], a = 0.2, v = 0.2, t = 0.2)
movej(p[0.415381570443772, 0.0834232294291035, 0.354623445336336, -1.218, 1.04, -1.028], a = 0.2, v = 0.2, t = 0.2)
movej(p[0.415348217119059, 0.0833734455200988, 0.355334123433744, -1.218, 1.04, -1.028], a = 0.2, v = 0.2, t = 0.2)
movej(p[0.415329328437271, 0.0833452518565444, 0.355736595227831, -1.218, 1.04, -1.028], a = 0.2, v = 0.2, t = 0.2)
movej(p[0.415319390717836, 0.0833304185970611, 0.355948343819669, -1.218, 1.04, -1.028], a = 0.2, v = 0.2, t = 0.2)
movej(p[0.415321757064205, 0.0833339506579075, 0.355897922743213, -1.218, 1.04, -1.028], a = 0.2, v = 0.2, t = 0.2)
movej(p[0.415337297319115, 0.0833571463855607, 0.355566797768775, -1.218, 1.04, -1.028], a = 0.2, v = 0.2, t = 0.2)
movej(p[0.41536986497942, 0.0834057575945215, 0.354872860265923, -1.218, 1.04, -1.028], a = 0.2, v = 0.2, t = 0.2)
movej(p[0.415418805324781, 0.0834788070347534, 0.353830060730116, -1.218, 1.04, -1.028], a = 0.2, v = 0.2, t = 0.2)
movej(p[0.415479000780432, 0.0835686561011492, 0.352547442212674, -1.218, 1.04, -1.028], a = 0.2, v = 0.2, t = 0.2)
movej(p[0.4155229357888, 0.0836342344648517, 0.351611294214677, -1.218, 1.04, -1.028], a = 0.2, v = 0.2, t = 0.2)
movej(p[0.415536711104738, 0.0836547958056207, 0.35131777579015, -1.218, 1.04, -1.028], a = 0.2, v = 0.2, t = 0.2)
movej(p[0.415539742927566, 0.0836593211713256, 0.35125317503152, -1.218, 1.04, -1.028], a = 0.2, v = 0.2, t = 0.2)
movej(p[0.415544624803011, 0.0836666079664195, 0.35114915415857, -1.218, 1.04, -1.028], a = 0.2, v = 0.2, t = 0.2)
movej(p[0.415554491438524, 0.0836813351244703, 0.350938920191953, -1.218, 1.04, -1.028], a = 0.2, v = 0.2, t = 0.2)
movej(p[0.415560042531686, 0.0836896208087087, 0.350820639919712, -1.218, 1.04, -1.028], a = 0.2, v = 0.2, t = 0.2)
movej(p[0.415552054943547, 0.0836776983582629, 0.350990835964352, -1.218, 1.04, -1.028], a = 0.2, v = 0.2, t = 0.2)
movej(p[0.415536076493667, 0.0836538485711209, 0.351331297806109, -1.218, 1.04, -1.028], a = 0.2, v = 0.2, t = 0.2)
movej(p[0.415516487261115, 0.0836246092500275, 0.351748696630341, -1.218, 1.04, -1.028], a = 0.2, v = 0.2, t = 0.2)
movej(p[0.415485653206737, 0.0835785856595563, 0.352405695214137, -1.218, 1.04, -1.028], a = 0.2, v = 0.2, t = 0.2)
movej(p[0.415439125038168, 0.0835091366876733, 0.353397097138805, -1.218, 1.04, -1.028], a = 0.2, v = 0.2, t = 0.2)
movej(p[0.415390072455035, 0.0834359197188638, 0.354442288188119, -1.218, 1.04, -1.028], a = 0.2, v = 0.2, t = 0.2)
movej(p[0.415350854706712, 0.0833773824416746, 0.35527792286631, -1.218, 1.04, -1.028], a = 0.2, v = 0.2, t = 0.2)
movej(p[0.415328215412694, 0.0833435905314823, 0.355760311070117, -1.218, 1.04, -1.028], a = 0.2, v = 0.2, t = 0.2)
movej(p[0.415316837308512, 0.0833266073219186, 0.356002750751972, -1.218, 1.04, -1.028], a = 0.2, v = 0.2, t = 0.2)
movej(p[0.415314924589807, 0.0833237523557404, 0.356043506128001, -1.218, 1.04, -1.028], a = 0.2, v = 0.2, t = 0.2)
movej(p[0.415322898148225, 0.0833356538651141, 0.35587360902255, -1.218, 1.04, -1.028], a = 0.2, v = 0.2, t = 0.2)
movej(p[0.415333097755796, 0.083350878024612, 0.355656280232526, -1.218, 1.04, -1.028], a = 0.2, v = 0.2, t = 0.2)
movej(p[0.415334598936002, 0.0833531187193386, 0.355624293739359, -1.218, 1.04, -1.028], a = 0.2, v = 0.2, t = 0.2)
movej(p[0.415334178044356, 0.0833524904871723, 0.355633261915014, -1.218, 1.04, -1.028], a = 0.2, v = 0.2, t = 0.2)
movej(p[0.415353843037403, 0.0833818428900557, 0.355214248819164, -1.218, 1.04, -1.028], a = 0.2, v = 0.2, t = 0.2)
movej(p[0.415397372586818, 0.0834468160567713, 0.354286740163714, -1.218, 1.04, -1.028], a = 0.2, v = 0.2, t = 0.2)
movej(p[0.415453009785935, 0.0835298613688056, 0.353101246988608, -1.218, 1.04, -1.028], a = 0.2, v = 0.2, t = 0.2)
movej(p[0.415500674361949, 0.0836010065675376, 0.352085630989674, -1.218, 1.04, -1.028], a = 0.2, v = 0.2, t = 0.2)
movej(p[0.415527991165134, 0.0836417802312053, 0.351503576460429, -1.218, 1.04, -1.028], a = 0.2, v = 0.2, t = 0.2)
movej(p[0.415545652713943, 0.0836681422489769, 0.351127251880694, -1.218, 1.04, -1.028], a = 0.2, v = 0.2, t = 0.2)
movej(p[0.415549459445059, 0.0836738242599037, 0.35104613971422, -1.218, 1.04, -1.028], a = 0.2, v = 0.2, t = 0.2)
movej(p[0.41555505730396, 0.0836821797477162, 0.350926862978018, -1.218, 1.04, -1.028], a = 0.2, v = 0.2, t = 0.2)
movej(p[0.415557362854869, 0.0836856210639163, 0.350877737304711, -1.218, 1.04, -1.028], a = 0.2, v = 0.2, t = 0.2)
movej(p[0.41555902771516, 0.0836881060711521, 0.350842263187678, -1.218, 1.04, -1.028], a = 0.2, v = 0.2, t = 0.2)
movej(p[0.41554153265238, 0.0836619925541041, 0.35121504035571, -1.218, 1.04, -1.028], a = 0.2, v = 0.2, t = 0.2)
movej(p[0.415500247559113, 0.0836003695121995, 0.352094725118373, -1.218, 1.04, -1.028], a = 0.2, v = 0.2, t = 0.2)
movej(p[0.415450213194772, 0.083525687115078, 0.353160835533511, -1.218, 1.04, -1.028], a = 0.2, v = 0.2, t = 0.2)
movej(p[0.415407932290576, 0.0834625777037893, 0.354061738601187, -1.218, 1.04, -1.028], a = 0.2, v = 0.2, t = 0.2)
movej(p[0.415376837751034, 0.0834161653074107, 0.354724287489249, -1.218, 1.04, -1.028], a = 0.2, v = 0.2, t = 0.2)
movej(p[0.41534591156815, 0.0833700042038987, 0.35538324910705, -1.218, 1.04, -1.028], a = 0.2, v = 0.2, t = 0.2)
movej(p[0.415317272229881, 0.0833272564951572, 0.355993483637129, -1.218, 1.04, -1.028], a = 0.2, v = 0.2, t = 0.2)
movej(p[0.415306371136232, 0.0833109852820487, 0.356225759386576, -1.218, 1.04, -1.028], a = 0.2, v = 0.2, t = 0.2)
movej(p[0.415315714930788, 0.0833249320361417, 0.35602666588705, -1.218, 1.04, -1.028], a = 0.2, v = 0.2, t = 0.2)
movej(p[0.415332728306461, 0.0833503265763771, 0.355664152297823, -1.218, 1.04, -1.028], a = 0.2, v = 0.2, t = 0.2)
movej(p[0.415347969260645, 0.0833730755611564, 0.35533940469274, -1.218, 1.04, -1.028], a = 0.2, v = 0.2, t = 0.2)
movej(p[0.415369818213682, 0.0834056877909475, 0.354873856729884, -1.218, 1.04, -1.028], a = 0.2, v = 0.2, t = 0.2)
movej(p[0.415413759301595, 0.0834712752291146, 0.353937579191572, -1.218, 1.04, -1.028], a = 0.2, v = 0.2, t = 0.2)
movej(p[0.415466753301171, 0.0835503752431441, 0.352808406159575, -1.218, 1.04, -1.028], a = 0.2, v = 0.2, t = 0.2)
movej(p[0.415510669603243, 0.083615925685417, 0.351872656747163, -1.218, 1.04, -1.028], a = 0.2, v = 0.2, t = 0.2)
movej(p[0.415526232305708, 0.0836391549187857, 0.351541053470024, -1.218, 1.04, -1.028], a = 0.2, v = 0.2, t = 0.2)
movej(p[0.415535589194671, 0.0836531212178795, 0.351341680960589, -1.218, 1.04, -1.028], a = 0.2, v = 0.2, t = 0.2)
movej(p[0.415541148705666, 0.0836614194667612, 0.351223221324835, -1.218, 1.04, -1.028], a = 0.2, v = 0.2, t = 0.2)
movej(p[0.415544336258404, 0.0836661772783677, 0.351155302341213, -1.218, 1.04, -1.028], a = 0.2, v = 0.2, t = 0.2)
movej(p[0.415542779894626, 0.0836638542154237, 0.351188464661854, -1.218, 1.04, -1.028], a = 0.2, v = 0.2, t = 0.2)
movej(p[0.415538815095314, 0.0836579362684167, 0.351272944876518, -1.218, 1.04, -1.028], a = 0.2, v = 0.2, t = 0.2)
movej(p[0.415535311873842, 0.0836527072826854, 0.351347589991881, -1.218, 1.04, -1.028], a = 0.2, v = 0.2, t = 0.2)
movej(p[0.415518031465801, 0.0836269141640422, 0.351715793390329, -1.218, 1.04, -1.028], a = 0.2, v = 0.2, t = 0.2)
movej(p[0.415478521431613, 0.0835679406145153, 0.35255765596828, -1.218, 1.04, -1.028], a = 0.2, v = 0.2, t = 0.2)
movej(p[0.415423481898633, 0.0834857873921573, 0.353730414333957, -1.218, 1.04, -1.028], a = 0.2, v = 0.2, t = 0.2)
movej(p[0.415380836221677, 0.0834221335129911, 0.354639089820533, -1.218, 1.04, -1.028], a = 0.2, v = 0.2, t = 0.2)
movej(p[0.415349779094726, 0.0833757769594717, 0.355300841537427, -1.218, 1.04, -1.028], a = 0.2, v = 0.2, t = 0.2)
movej(p[0.415325994040115, 0.0833402748617155, 0.355807643108292, -1.218, 1.04, -1.028], a = 0.2, v = 0.2, t = 0.2)
movej(p[0.415310449108631, 0.0833170721537049, 0.356138867729126, -1.218, 1.04, -1.028], a = 0.2, v = 0.2, t = 0.2)
movej(p[0.415307404659053, 0.0833125279410349, 0.356203737533025, -1.218, 1.04, -1.028], a = 0.2, v = 0.2, t = 0.2)
movej(p[0.415315602693015, 0.083324764507564, 0.356029057400558, -1.218, 1.04, -1.028], a = 0.2, v = 0.2, t = 0.2)
movej(p[0.415328898192477, 0.0833446096636633, 0.355745762696277, -1.218, 1.04, -1.028], a = 0.2, v = 0.2, t = 0.2)
movej(p[0.415355877347029, 0.0833848793455264, 0.355170902636835, -1.218, 1.04, -1.028], a = 0.2, v = 0.2, t = 0.2)
movej(p[0.415401342998018, 0.0834527423802072, 0.354202140373375, -1.218, 1.04, -1.028], a = 0.2, v = 0.2, t = 0.2)
movej(p[0.415447444663051, 0.0835215547434949, 0.353219826200037, -1.218, 1.04, -1.028], a = 0.2, v = 0.2, t = 0.2)
movej(p[0.415479299613501, 0.0835691021459873, 0.352541074807959, -1.218, 1.04, -1.028], a = 0.2, v = 0.2, t = 0.2)
movej(p[0.415499860993519, 0.0835997925158565, 0.352102961889479, -1.218, 1.04, -1.028], a = 0.2, v = 0.2, t = 0.2)
movej(p[0.415517415093367, 0.0836259941529364, 0.351728926785343, -1.218, 1.04, -1.028], a = 0.2, v = 0.2, t = 0.2)
movej(p[0.415534587472552, 0.0836516260253235, 0.351363025218646, -1.218, 1.04, -1.028], a = 0.2, v = 0.2, t = 0.2)
movej(p[0.415545212648344, 0.0836674853973452, 0.351136628606572, -1.218, 1.04, -1.028], a = 0.2, v = 0.2, t = 0.2)
movej(p[0.415541571000285, 0.0836620497930348, 0.351214223255261, -1.218, 1.04, -1.028], a = 0.2, v = 0.2, t = 0.2)
movej(p[0.415532136012539, 0.0836479669219724, 0.351415259859513, -1.218, 1.04, -1.028], a = 0.2, v = 0.2, t = 0.2)
movej(p[0.415528974648615, 0.0836432482003674, 0.351482620823316, -1.218, 1.04, -1.028], a = 0.2, v = 0.2, t = 0.2)
movej(p[0.415524281706754, 0.0836362434117126, 0.351582615981862, -1.218, 1.04, -1.028], a = 0.2, v = 0.2, t = 0.2)
movej(p[0.415509110433521, 0.0836135984342585, 0.351905878855642, -1.218, 1.04, -1.028], a = 0.2, v = 0.2, t = 0.2)
movej(p[0.415473970657597, 0.0835611480287256, 0.352654621876383, -1.218, 1.04, -1.028], a = 0.2, v = 0.2, t = 0.2)
movej(p[0.415435547459172, 0.0835037967142594, 0.353473326631866, -1.218, 1.04, -1.028], a = 0.2, v = 0.2, t = 0.2)
movej(p[0.415395473897834, 0.0834439820316653, 0.354327196600555, -1.218, 1.04, -1.028], a = 0.2, v = 0.2, t = 0.2)
movej(p[0.415364201648485, 0.0833973043817054, 0.354993532051672, -1.218, 1.04, -1.028], a = 0.2, v = 0.2, t = 0.2)
movej(p[0.415335969172141, 0.083355163964058, 0.355595097345285, -1.218, 1.04, -1.028], a = 0.2, v = 0.2, t = 0.2)
movej(p[0.41531407812994, 0.0833224889110503, 0.356061542125706, -1.218, 1.04, -1.028], a = 0.2, v = 0.2, t = 0.2)
movej(p[0.415296517595125, 0.0832962776689986, 0.356435714343284, -1.218, 1.04, -1.028], a = 0.2, v = 0.2, t = 0.2)
movej(p[0.415297139579448, 0.0832972060565334, 0.356422461372595, -1.218, 1.04, -1.028], a = 0.2, v = 0.2, t = 0.2)
movej(p[0.41530996274495, 0.0833163461965349, 0.356149230954326, -1.218, 1.04, -1.028], a = 0.2, v = 0.2, t = 0.2)
movej(p[0.41532691064859, 0.0833416430117666, 0.355788112414645, -1.218, 1.04, -1.028], a = 0.2, v = 0.2, t = 0.2)
movej(p[0.415337348761427, 0.0833572231694921, 0.355565701658418, -1.218, 1.04, -1.028], a = 0.2, v = 0.2, t = 0.2)
movej(p[0.41535955781065, 0.0833903728868033, 0.355092480923058, -1.218, 1.04, -1.028], a = 0.2, v = 0.2, t = 0.2)
movej(p[0.415413361792818, 0.0834706818987352, 0.353946049135246, -1.218, 1.04, -1.028], a = 0.2, v = 0.2, t = 0.2)
movej(p[0.415473627397076, 0.0835606356704921, 0.352661935921861, -1.218, 1.04, -1.028], a = 0.2, v = 0.2, t = 0.2)
movej(p[0.415520799062207, 0.0836310451395539, 0.351656822653082, -1.218, 1.04, -1.028], a = 0.2, v = 0.2, t = 0.2)
movej(p[0.415538875890774, 0.0836580270130629, 0.351271649473368, -1.218, 1.04, -1.028], a = 0.2, v = 0.2, t = 0.2)
movej(p[0.41554311894623, 0.0836643602913355, 0.351181240298133, -1.218, 1.04, -1.028], a = 0.2, v = 0.2, t = 0.2)
movej(p[0.415546716634495, 0.0836697302802863, 0.351104582325567, -1.218, 1.04, -1.028], a = 0.2, v = 0.2, t = 0.2)
movej(p[0.415551278632287, 0.0836765396189338, 0.351007377266114, -1.218, 1.04, -1.028], a = 0.2, v = 0.2, t = 0.2)
movej(p[0.415551760319394, 0.0836772585957464, 0.35099711368731, -1.218, 1.04, -1.028], a = 0.2, v = 0.2, t = 0.2)
movej(p[0.415526731296138, 0.0836398997229207, 0.351530421199554, -1.218, 1.04, -1.028], a = 0.2, v = 0.2, t = 0.2)
movej(p[0.415491795418834, 0.0835877536609706, 0.352274819637422, -1.218, 1.04, -1.028], a = 0.2, v = 0.2, t = 0.2)
movej(p[0.415447940379879, 0.0835222946613797, 0.353209263682044, -1.218, 1.04, -1.028], a = 0.2, v = 0.2, t = 0.2)
movej(p[0.415403597106615, 0.0834561069124759, 0.354154110810426, -1.218, 1.04, -1.028], a = 0.2, v = 0.2, t = 0.2)
movej(p[0.415361615503145, 0.083393444244061, 0.355048636508748, -1.218, 1.04, -1.028], a = 0.2, v = 0.2, t = 0.2)
movej(p[0.415335969172141, 0.083355163964058, 0.355595097345285, -1.218, 1.04, -1.028], a = 0.2, v = 0.2, t = 0.2)
movej(p[0.415330731409427, 0.0833473459637656, 0.355706701308983, -1.218, 1.04, -1.028], a = 0.2, v = 0.2, t = 0.2)
movej(p[0.415340940370146, 0.0833625840839783, 0.355489173226167, -1.218, 1.04, -1.028], a = 0.2, v = 0.2, t = 0.2)
movej(p[0.415370538406055, 0.0834067627659877, 0.354858511184876, -1.218, 1.04, -1.028], a = 0.2, v = 0.2, t = 0.2)
movej(p[0.415418665027566, 0.0834785976240313, 0.353833050122001, -1.218, 1.04, -1.028], a = 0.2, v = 0.2, t = 0.2)
movej(p[0.415472775792978, 0.0835593645474089, 0.352680081530601, -1.218, 1.04, -1.028], a = 0.2, v = 0.2, t = 0.2)
movej(p[0.415510551753582, 0.0836157497804104, 0.351875167836346, -1.218, 1.04, -1.028], a = 0.2, v = 0.2, t = 0.2)
movej(p[0.415526783206108, 0.0836399772048879, 0.351529315124557, -1.218, 1.04, -1.028], a = 0.2, v = 0.2, t = 0.2)
movej(p[0.415534122621111, 0.0836509321777976, 0.351372930070424, -1.218, 1.04, -1.028], a = 0.2, v = 0.2, t = 0.2)
movej(p[0.415542776621024, 0.0836638493291735, 0.351188534414332, -1.218, 1.04, -1.028], a = 0.2, v = 0.2, t = 0.2)
movej(p[0.415544476555619, 0.0836663866890898, 0.351152312949328, -1.218, 1.04, -1.028], a = 0.2, v = 0.2, t = 0.2)
movej(p[0.415538236603129, 0.0836570727982058, 0.351285271135723, -1.218, 1.04, -1.028], a = 0.2, v = 0.2, t = 0.2)
movej(p[0.415530015186297, 0.0836448013298897, 0.351460449500171, -1.218, 1.04, -1.028], a = 0.2, v = 0.2, t = 0.2)
movej(p[0.415523124254726, 0.0836345157732551, 0.351607278464912, -1.218, 1.04, -1.028], a = 0.2, v = 0.2, t = 0.2)
movej(p[0.41551284140414, 0.0836191673633954, 0.351826380960786, -1.218, 1.04, -1.028], a = 0.2, v = 0.2, t = 0.2)
movej(p[0.4154784414622, 0.0835678212504037, 0.352559359921654, -1.218, 1.04, -1.028], a = 0.2, v = 0.2, t = 0.2)
movej(p[0.415419913672784, 0.0834804613794581, 0.353806444534227, -1.218, 1.04, -1.028], a = 0.2, v = 0.2, t = 0.2)
movej(p[0.415359108859561, 0.0833897027724925, 0.355102046977089, -1.218, 1.04, -1.028], a = 0.2, v = 0.2, t = 0.2)
movej(p[0.415321658856154, 0.083333804070402, 0.355900015317532, -1.218, 1.04, -1.028], a = 0.2, v = 0.2, t = 0.2)
movej(p[0.415307418688774, 0.0833125488821071, 0.356203438593837, -1.218, 1.04, -1.028], a = 0.2, v = 0.2, t = 0.2)
movej(p[0.415306286957902, 0.0833108596356154, 0.356227553021707, -1.218, 1.04, -1.028], a = 0.2, v = 0.2, t = 0.2)
movej(p[0.415308756188896, 0.0833145452643247, 0.356174939724535, -1.218, 1.04, -1.028], a = 0.2, v = 0.2, t = 0.2)
movej(p[0.415321789800222, 0.0833339995204093, 0.355897225218439, -1.218, 1.04, -1.028], a = 0.2, v = 0.2, t = 0.2)
movej(p[0.415346089277957, 0.08337026945748, 0.355379462543996, -1.218, 1.04, -1.028], a = 0.2, v = 0.2, t = 0.2)
movej(p[0.415381537707755, 0.0834231805666017, 0.354624142861109, -1.218, 1.04, -1.028], a = 0.2, v = 0.2, t = 0.2)
movej(p[0.41542531043901, 0.0834885167119022, 0.353691452593059, -1.218, 1.04, -1.028], a = 0.2, v = 0.2, t = 0.2)
movej(p[0.41547005870357, 0.0835553089597572, 0.35273797608677, -1.218, 1.04, -1.028], a = 0.2, v = 0.2, t = 0.2)
movej(p[0.415502171426771, 0.0836032411195498, 0.352053732185335, -1.218, 1.04, -1.028], a = 0.2, v = 0.2, t = 0.2)
movej(p[0.41551414710356, 0.0836211162791825, 0.351798559686979, -1.218, 1.04, -1.028], a = 0.2, v = 0.2, t = 0.2)
movej(p[0.415514845316036, 0.083622158446543, 0.351783682480032, -1.218, 1.04, -1.028], a = 0.2, v = 0.2, t = 0.2)
movej(p[0.41552248683771, 0.0836335643505409, 0.351620860268708, -1.218, 1.04, -1.028], a = 0.2, v = 0.2, t = 0.2)
movej(p[0.415532233285275, 0.0836481121134064, 0.351413187214473, -1.218, 1.04, -1.028], a = 0.2, v = 0.2, t = 0.2)
movej(p[0.415541029920691, 0.0836612421656832, 0.351225752343297, -1.218, 1.04, -1.028], a = 0.2, v = 0.2, t = 0.2)
movej(p[0.415532520894567, 0.0836485414053868, 0.351407058961109, -1.218, 1.04, -1.028], a = 0.2, v = 0.2, t = 0.2)
movej(p[0.415523499315949, 0.0836350755979189, 0.35159928682394, -1.218, 1.04, -1.028], a = 0.2, v = 0.2, t = 0.2)
movej(p[0.415514939782828, 0.0836222994497625, 0.35178166962283, -1.218, 1.04, -1.028], a = 0.2, v = 0.2, t = 0.2)
movej(p[0.415507224838944, 0.0836107839541533, 0.351946056282574, -1.218, 1.04, -1.028], a = 0.2, v = 0.2, t = 0.2)
movej(p[0.415481115994786, 0.083571813316803, 0.352502372147691, -1.218, 1.04, -1.028], a = 0.2, v = 0.2, t = 0.2)
movej(p[0.415432844399485, 0.0834997620676799, 0.353530922248846, -1.218, 1.04, -1.028], a = 0.2, v = 0.2, t = 0.2)
movej(p[0.415378844001216, 0.083419159880737, 0.354681539185297, -1.218, 1.04, -1.028], a = 0.2, v = 0.2, t = 0.2)
movej(p[0.415342895178016, 0.0833655018733732, 0.355447521032573, -1.218, 1.04, -1.028], a = 0.2, v = 0.2, t = 0.2)
movej(p[0.415323660429762, 0.0833367916633709, 0.355857366659976, -1.218, 1.04, -1.028], a = 0.2, v = 0.2, t = 0.2)
movej(p[0.415314513051308, 0.0833231380842889, 0.356052275010863, -1.218, 1.04, -1.028], a = 0.2, v = 0.2, t = 0.2)
movej(p[0.41531224491299, 0.083319752610948, 0.356100603513, -1.218, 1.04, -1.028], a = 0.2, v = 0.2, t = 0.2)
movej(p[0.415318268340111, 0.0833287433112842, 0.355972258954747, -1.218, 1.04, -1.028], a = 0.2, v = 0.2, t = 0.2)
movej(p[0.415331853787151, 0.0833490212495425, 0.355682786173905, -1.218, 1.04, -1.028], a = 0.2, v = 0.2, t = 0.2)
movej(p[0.415357738623422, 0.0833876575277732, 0.355131243371164, -1.218, 1.04, -1.028], a = 0.2, v = 0.2, t = 0.2)
movej(p[0.415395244745715, 0.0834436399941525, 0.354332079273967, -1.218, 1.04, -1.028], a = 0.2, v = 0.2, t = 0.2)
movej(p[0.415444886577154, 0.083517736487995, 0.353274332778736, -1.218, 1.04, -1.028], a = 0.2, v = 0.2, t = 0.2)
movej(p[0.415481430260548, 0.0835722823968206, 0.352495675909869, -1.218, 1.04, -1.028], a = 0.2, v = 0.2, t = 0.2)
movej(p[0.415498176416792, 0.0835972780794339, 0.352138856115718, -1.218, 1.04, -1.028], a = 0.2, v = 0.2, t = 0.2)
movej(p[0.415509517763104, 0.0836142064233884, 0.351897199654537, -1.218, 1.04, -1.028], a = 0.2, v = 0.2, t = 0.2)
movej(p[0.415519559302479, 0.0836291946468061, 0.351683238912704, -1.218, 1.04, -1.028], a = 0.2, v = 0.2, t = 0.2)
movej(p[0.41552538070161, 0.0836378837957025, 0.351559199078765, -1.218, 1.04, -1.028], a = 0.2, v = 0.2, t = 0.2)
movej(p[0.415522711313255, 0.0836338994076963, 0.351616077241692, -1.218, 1.04, -1.028], a = 0.2, v = 0.2, t = 0.2)
movej(p[0.41551956257608, 0.0836291995330563, 0.351683169160226, -1.218, 1.04, -1.028], a = 0.2, v = 0.2, t = 0.2)
movej(p[0.415516278218264, 0.0836242972280515, 0.351753150824249, -1.218, 1.04, -1.028], a = 0.2, v = 0.2, t = 0.2)
movej(p[0.415496577683255, 0.0835948917744518, 0.352172921232709, -1.218, 1.04, -1.028], a = 0.2, v = 0.2, t = 0.2)
movej(p[0.415466749092255, 0.0835503689608225, 0.352808495841332, -1.218, 1.04, -1.028], a = 0.2, v = 0.2, t = 0.2)
movej(p[0.415431422721034, 0.0834976400390291, 0.353561214753279, -1.218, 1.04, -1.028], a = 0.2, v = 0.2, t = 0.2)
movej(p[0.415399360130705, 0.0834497827086679, 0.354244390445346, -1.218, 1.04, -1.028], a = 0.2, v = 0.2, t = 0.2)
movej(p[0.415360811132443, 0.0833922436225875, 0.355065775688887, -1.218, 1.04, -1.028], a = 0.2, v = 0.2, t = 0.2)
movej(p[0.415323941024194, 0.0833372104848151, 0.355851387876206, -1.218, 1.04, -1.028], a = 0.2, v = 0.2, t = 0.2)
movej(p[0.415310790498522, 0.0833175817197954, 0.356131593542206, -1.218, 1.04, -1.028], a = 0.2, v = 0.2, t = 0.2)
movej(p[0.415315251949977, 0.0833242409807587, 0.35603653088027, -1.218, 1.04, -1.028], a = 0.2, v = 0.2, t = 0.2)
movej(p[0.415323679136058, 0.0833368195848005, 0.355856968074391, -1.218, 1.04, -1.028], a = 0.2, v = 0.2, t = 0.2)
movej(p[0.415336773542843, 0.0833563645855315, 0.355577958165145, -1.218, 1.04, -1.028], a = 0.2, v = 0.2, t = 0.2)
movej(p[0.415365946010532, 0.083399908055017, 0.354956363945904, -1.218, 1.04, -1.028], a = 0.2, v = 0.2, t = 0.2)
movej(p[0.415419534870302, 0.0834798959705084, 0.353814515892316, -1.218, 1.04, -1.028], a = 0.2, v = 0.2, t = 0.2)
movej(p[0.415465800683078, 0.083548953344341, 0.352828704130473, -1.218, 1.04, -1.028], a = 0.2, v = 0.2, t = 0.2)
movej(p[0.415499366978963, 0.0835990551388218, 0.352113488136184, -1.218, 1.04, -1.028], a = 0.2, v = 0.2, t = 0.2)
movej(p[0.41551732156189, 0.0836258545457883, 0.351730919713266, -1.218, 1.04, -1.028], a = 0.2, v = 0.2, t = 0.2)
movej(p[0.415531089395311, 0.0836464047179854, 0.351437560722973, -1.218, 1.04, -1.028], a = 0.2, v = 0.2, t = 0.2)
movej(p[0.415532236091219, 0.0836481163016209, 0.351413127426635, -1.218, 1.04, -1.028], a = 0.2, v = 0.2, t = 0.2)
movej(p[0.415525618739219, 0.0836382390958943, 0.3515541270772, -1.218, 1.04, -1.028], a = 0.2, v = 0.2, t = 0.2)
movej(p[0.415522407803612, 0.0836334463825008, 0.351622544292803, -1.218, 1.04, -1.028], a = 0.2, v = 0.2, t = 0.2)
movej(p[0.415522696348219, 0.0836338770705526, 0.35161639611016, -1.218, 1.04, -1.028], a = 0.2, v = 0.2, t = 0.2)
movej(p[0.415525617803904, 0.0836382376998229, 0.351554147006479, -1.218, 1.04, -1.028], a = 0.2, v = 0.2, t = 0.2)
movej(p[0.415510351596221, 0.0836154510211135, 0.351879432702102, -1.218, 1.04, -1.028], a = 0.2, v = 0.2, t = 0.2)
movej(p[0.415476585797695, 0.0835650514445859, 0.35259889961165, -1.218, 1.04, -1.028], a = 0.2, v = 0.2, t = 0.2)
movej(p[0.415434747765043, 0.0835026030731433, 0.35349036616561, -1.218, 1.04, -1.028], a = 0.2, v = 0.2, t = 0.2)
movej(p[0.415399636048562, 0.0834501945497548, 0.354238511307973, -1.218, 1.04, -1.028], a = 0.2, v = 0.2, t = 0.2)
movej(p[0.41537271768947, 0.0834100156125379, 0.354812075964266, -1.218, 1.04, -1.028], a = 0.2, v = 0.2, t = 0.2)
movej(p[0.41534719762596, 0.0833719238021848, 0.355355846348106, -1.218, 1.04, -1.028], a = 0.2, v = 0.2, t = 0.2)
movej(p[0.415319647929397, 0.0833308025167184, 0.35594286326788, -1.218, 1.04, -1.028], a = 0.2, v = 0.2, t = 0.2)
movej(p[0.415306946354815, 0.0833118438660093, 0.356213502879849, -1.218, 1.04, -1.028], a = 0.2, v = 0.2, t = 0.2)
movej(p[0.41531197834828, 0.0833193547305759, 0.356106283357582, -1.218, 1.04, -1.028], a = 0.2, v = 0.2, t = 0.2)
movej(p[0.415323319039871, 0.0833362820972804, 0.355864640846895, -1.218, 1.04, -1.028], a = 0.2, v = 0.2, t = 0.2)
movej(p[0.415338531934612, 0.0833589891999153, 0.355540491120189, -1.218, 1.04, -1.028], a = 0.2, v = 0.2, t = 0.2)
movej(p[0.415367718432022, 0.0834025536104731, 0.35491859796176, -1.218, 1.04, -1.028], a = 0.2, v = 0.2, t = 0.2)
movej(p[0.415412113147599, 0.0834688181433084, 0.35397265472302, -1.218, 1.04, -1.028], a = 0.2, v = 0.2, t = 0.2)
movej(p[0.41545736040259, 0.0835363551952984, 0.353008545946261, -1.218, 1.04, -1.028], a = 0.2, v = 0.2, t = 0.2)
movej(p[0.415487871773372, 0.0835818971411087, 0.352358422963799, -1.218, 1.04, -1.028], a = 0.2, v = 0.2, t = 0.2)
movej(p[0.415506684227007, 0.0836099770248374, 0.35195757540597, -1.218, 1.04, -1.028], a = 0.2, v = 0.2, t = 0.2)
movej(p[0.415520558686311, 0.0836306863491833, 0.351661944477844, -1.218, 1.04, -1.028], a = 0.2, v = 0.2, t = 0.2)
movej(p[0.415524864407856, 0.0836371131642451, 0.351570200040901, -1.218, 1.04, -1.028], a = 0.2, v = 0.2, t = 0.2)
movej(p[0.415518602007811, 0.0836277657676455, 0.351703636529997, -1.218, 1.04, -1.028], a = 0.2, v = 0.2, t = 0.2)
movej(p[0.415517315482344, 0.0836258454713237, 0.351731049253581, -1.218, 1.04, -1.028], a = 0.2, v = 0.2, t = 0.2)
movej(p[0.415517415093367, 0.0836259941529364, 0.351728926785343, -1.218, 1.04, -1.028], a = 0.2, v = 0.2, t = 0.2)
movej(p[0.415516948371297, 0.0836252975132675, 0.351738871495679, -1.218, 1.04, -1.028], a = 0.2, v = 0.2, t = 0.2)
movej(p[0.415494829579949, 0.0835922825168542, 0.352210169055594, -1.218, 1.04, -1.028], a = 0.2, v = 0.2, t = 0.2)
movej(p[0.415452308299857, 0.083528814315195, 0.353116193948032, -1.218, 1.04, -1.028], a = 0.2, v = 0.2, t = 0.2)
movej(p[0.415406870708311, 0.0834609931626586, 0.354084358333115, -1.218, 1.04, -1.028], a = 0.2, v = 0.2, t = 0.2)
movej(p[0.415375345923975, 0.0834139385733989, 0.354756074689624, -1.218, 1.04, -1.028], a = 0.2, v = 0.2, t = 0.2)
movej(p[0.415356026997392, 0.0833851027169633, 0.355167713952158, -1.218, 1.04, -1.028], a = 0.2, v = 0.2, t = 0.2)
movej(p[0.415334603612576, 0.0833531256996961, 0.355624194092963, -1.218, 1.04, -1.028], a = 0.2, v = 0.2, t = 0.2)
movej(p[0.415310505227517, 0.0833171559179937, 0.356137671972372, -1.218, 1.04, -1.028], a = 0.2, v = 0.2, t = 0.2)
movej(p[0.415302484903361, 0.083305184605046, 0.356308565541785, -1.218, 1.04, -1.028], a = 0.2, v = 0.2, t = 0.2)
movej(p[0.415312894956755, 0.0833207228806271, 0.356086752663934, -1.218, 1.04, -1.028], a = 0.2, v = 0.2, t = 0.2)
movej(p[0.415328271531581, 0.0833436742957712, 0.355759115313363, -1.218, 1.04, -1.028], a = 0.2, v = 0.2, t = 0.2)
movej(p[0.415338737703861, 0.0833592963356411, 0.355536106678758, -1.218, 1.04, -1.028], a = 0.2, v = 0.2, t = 0.2)
movej(p[0.415359590546667, 0.0833904217493051, 0.355091783398285, -1.218, 1.04, -1.028], a = 0.2, v = 0.2, t = 0.2)
movej(p[0.415398901826467, 0.0834490986336423, 0.35425415579217, -1.218, 1.04, -1.028], a = 0.2, v = 0.2, t = 0.2)
movej(p[0.415444956725762, 0.083517841193356, 0.353272838082794, -1.218, 1.04, -1.028], a = 0.2, v = 0.2, t = 0.2)
movej(p[0.415481250680113, 0.0835720143510962, 0.352499502331482, -1.218, 1.04, -1.028], a = 0.2, v = 0.2, t = 0.2)
movej(p[0.415504173842163, 0.083606229968983, 0.352011065591428, -1.218, 1.04, -1.028], a = 0.2, v = 0.2, t = 0.2)
movej(p[0.415521696496729, 0.0836323846701397, 0.351637700509659, -1.218, 1.04, -1.028], a = 0.2, v = 0.2, t = 0.2)
movej(p[0.415526168236646, 0.0836390592878893, 0.351542418625652, -1.218, 1.04, -1.028], a = 0.2, v = 0.2, t = 0.2)
movej(p[0.415520761181959, 0.0836309885986589, 0.351657629788891, -1.218, 1.04, -1.028], a = 0.2, v = 0.2, t = 0.2)
movej(p[0.415520520338405, 0.0836306291102526, 0.351662761578293, -1.218, 1.04, -1.028], a = 0.2, v = 0.2, t = 0.2)
movej(p[0.415520699451184, 0.0836308964579412, 0.35165894512132, -1.218, 1.04, -1.028], a = 0.2, v = 0.2, t = 0.2)
movej(p[0.415520665312195, 0.0836308455013321, 0.351659672540012, -1.218, 1.04, -1.028], a = 0.2, v = 0.2, t = 0.2)
movej(p[0.415495679219887, 0.0835935507081874, 0.352192065298339, -1.218, 1.04, -1.028], a = 0.2, v = 0.2, t = 0.2)
movej(p[0.415453150083151, 0.0835300707795277, 0.353098257596723, -1.218, 1.04, -1.028], a = 0.2, v = 0.2, t = 0.2)
movej(p[0.415410167692877, 0.0834659143146284, 0.354014107623823, -1.218, 1.04, -1.028], a = 0.2, v = 0.2, t = 0.2)
movej(p[0.415377642121736, 0.0834173659288842, 0.35470714830911, -1.218, 1.04, -1.028], a = 0.2, v = 0.2, t = 0.2)
movej(p[0.415354923325963, 0.083383455352616, 0.355191230501651, -1.218, 1.04, -1.028], a = 0.2, v = 0.2, t = 0.2)
movej(p[0.415327972230854, 0.0833432275528973, 0.355765492682717, -1.218, 1.04, -1.028], a = 0.2, v = 0.2, t = 0.2)
movej(p[0.415301554265164, 0.0833037955139226, 0.35632839517462, -1.218, 1.04, -1.028], a = 0.2, v = 0.2, t = 0.2)
movej(p[0.415296788836409, 0.0832966825297281, 0.356429934852307, -1.218, 1.04, -1.028], a = 0.2, v = 0.2, t = 0.2)
movej(p[0.415305739798762, 0.0833100429337991, 0.356239211650058, -1.218, 1.04, -1.028], a = 0.2, v = 0.2, t = 0.2)
movej(p[0.415320386828066, 0.0833319054131882, 0.355927119137287, -1.218, 1.04, -1.028], a = 0.2, v = 0.2, t = 0.2)
movej(p[0.41532859889175, 0.0833441629207894, 0.355752140065632, -1.218, 1.04, -1.028], a = 0.2, v = 0.2, t = 0.2)
movej(p[0.415341599767059, 0.0833635683143723, 0.355475123084309, -1.218, 1.04, -1.028], a = 0.2, v = 0.2, t = 0.2)
movej(p[0.415371389542496, 0.0834080331910352, 0.354840375540775, -1.218, 1.04, -1.028], a = 0.2, v = 0.2, t = 0.2)
movej(p[0.415414582378593, 0.0834725037720176, 0.353920041425848, -1.218, 1.04, -1.028], a = 0.2, v = 0.2, t = 0.2)
movej(p[0.415462827317423, 0.0835445152331036, 0.352892059309151, -1.218, 1.04, -1.028], a = 0.2, v = 0.2, t = 0.2)
movej(p[0.415504859895547, 0.0836072539874141, 0.351996447465111, -1.218, 1.04, -1.028], a = 0.2, v = 0.2, t = 0.2)
movej(p[0.415532970313314, 0.0836492122177333, 0.351397482942438, -1.218, 1.04, -1.028], a = 0.2, v = 0.2, t = 0.2)
movej(p[0.415543916302072, 0.0836655504422728, 0.351164250587588, -1.218, 1.04, -1.028], a = 0.2, v = 0.2, t = 0.2)
movej(p[0.415547135187854, 0.083670355022274, 0.351095663973111, -1.218, 1.04, -1.028], a = 0.2, v = 0.2, t = 0.2)
movej(p[0.415556474305837, 0.0836842947960096, 0.350896670119981, -1.218, 1.04, -1.028], a = 0.2, v = 0.2, t = 0.2)
movej(p[0.415566968537561, 0.0836999587180239, 0.350673063607, -1.218, 1.04, -1.028], a = 0.2, v = 0.2, t = 0.2)
movej(p[0.415576957699309, 0.0837148687614387, 0.350460218904804, -1.218, 1.04, -1.028], a = 0.2, v = 0.2, t = 0.2)
movej(p[0.415571705906873, 0.0837070298200741, 0.350572121807691, -1.218, 1.04, -1.028], a = 0.2, v = 0.2, t = 0.2)
movej(p[0.415562165696215, 0.0836927898909701, 0.350775400455855, -1.218, 1.04, -1.028], a = 0.2, v = 0.2, t = 0.2)
movej(p[0.415558779856746, 0.0836877361122097, 0.350847544446675, -1.218, 1.04, -1.028], a = 0.2, v = 0.2, t = 0.2)
movej(p[0.415559869498453, 0.0836893625354848, 0.35082432683637, -1.218, 1.04, -1.028], a = 0.2, v = 0.2, t = 0.2)
movej(p[0.415559284926722, 0.0836884899908093, 0.35083678263589, -1.218, 1.04, -1.028], a = 0.2, v = 0.2, t = 0.2)
movej(p[0.415533981388581, 0.083650721371004, 0.351375939391588, -1.218, 1.04, -1.028], a = 0.2, v = 0.2, t = 0.2)
movej(p[0.415493338220548, 0.0835900564808781, 0.352241946291329, -1.218, 1.04, -1.028], a = 0.2, v = 0.2, t = 0.2)
movej(p[0.415458572570532, 0.0835381645039375, 0.352982717600376, -1.218, 1.04, -1.028], a = 0.2, v = 0.2, t = 0.2)
movej(p[0.415429823332777, 0.083495252756797, 0.353595293820765, -1.218, 1.04, -1.028], a = 0.2, v = 0.2, t = 0.2)
movej(p[0.415400014851044, 0.0834507599587045, 0.354230439949884, -1.218, 1.04, -1.028], a = 0.2, v = 0.2, t = 0.2)
movej(p[0.415364211001633, 0.0833973183424202, 0.354993332758879, -1.218, 1.04, -1.028], a = 0.2, v = 0.2, t = 0.2)
movej(p[0.415334033070566, 0.0833522740960928, 0.355636350953295, -1.218, 1.04, -1.028], a = 0.2, v = 0.2, t = 0.2)
movej(p[0.415315780402822, 0.0833250297611453, 0.356025270837504, -1.218, 1.04, -1.028], a = 0.2, v = 0.2, t = 0.2)
movej(p[0.415310944825459, 0.0833178120715897, 0.356128305211133, -1.218, 1.04, -1.028], a = 0.2, v = 0.2, t = 0.2)
movej(p[0.415313975245315, 0.0833223353431874, 0.356063734346422, -1.218, 1.04, -1.028], a = 0.2, v = 0.2, t = 0.2)
movej(p[0.41532436191584, 0.0833378387169815, 0.355842419700552, -1.218, 1.04, -1.028], a = 0.2, v = 0.2, t = 0.2)
movej(p[0.415334552170264, 0.0833530489157646, 0.355625290203321, -1.218, 1.04, -1.028], a = 0.2, v = 0.2, t = 0.2)
movej(p[0.415352982547815, 0.0833805585042934, 0.355232583756057, -1.218, 1.04, -1.028], a = 0.2, v = 0.2, t = 0.2)
movej(p[0.41539793377568, 0.0834476536996597, 0.354274782596175, -1.218, 1.04, -1.028], a = 0.2, v = 0.2, t = 0.2)
movej(p[0.415457282303806, 0.0835362386233297, 0.353010210041077, -1.218, 1.04, -1.028], a = 0.2, v = 0.2, t = 0.2)
movej(p[0.415507512915893, 0.0836112139441694, 0.35193991806457, -1.218, 1.04, -1.028], a = 0.2, v = 0.2, t = 0.2)
movej(p[0.41553460758182, 0.0836516560408604, 0.351362596739143, -1.218, 1.04, -1.028], a = 0.2, v = 0.2, t = 0.2)
movej(p[0.415547074392394, 0.0836702642776277, 0.351096959376261, -1.218, 1.04, -1.028], a = 0.2, v = 0.2, t = 0.2)
movej(p[0.415556030031321, 0.0836836316620562, 0.350906136527616, -1.218, 1.04, -1.028], a = 0.2, v = 0.2, t = 0.2)
movej(p[0.415554753326659, 0.0836817260244849, 0.350933339993768, -1.218, 1.04, -1.028], a = 0.2, v = 0.2, t = 0.2)
movej(p[0.415556315302326, 0.0836840574638578, 0.350900058097451, -1.218, 1.04, -1.028], a = 0.2, v = 0.2, t = 0.2)
movej(p[0.415558751797303, 0.0836876942300653, 0.350848142325052, -1.218, 1.04, -1.028], a = 0.2, v = 0.2, t = 0.2)
movej(p[0.415565350443008, 0.0836975435143622, 0.350707541260071, -1.218, 1.04, -1.028], a = 0.2, v = 0.2, t = 0.2)
movej(p[0.415556881167762, 0.0836849020871037, 0.350888000883515, -1.218, 1.04, -1.028], a = 0.2, v = 0.2, t = 0.2)
movej(p[0.415535436738364, 0.0836528936582281, 0.351344929433104, -1.218, 1.04, -1.028], a = 0.2, v = 0.2, t = 0.2)
movej(p[0.415506728654458, 0.0836100433382327, 0.351956628765206, -1.218, 1.04, -1.028], a = 0.2, v = 0.2, t = 0.2)
movej(p[0.415475453131508, 0.0835633608020226, 0.3526230339688, -1.218, 1.04, -1.028], a = 0.2, v = 0.2, t = 0.2)
movej(p[0.415439728316195, 0.0835100371537785, 0.3533842427537, -1.218, 1.04, -1.028], a = 0.2, v = 0.2, t = 0.2)
movej(p[0.415389656239962, 0.0834352984670548, 0.354451156717377, -1.218, 1.04, -1.028], a = 0.2, v = 0.2, t = 0.2)
movej(p[0.41534674867487, 0.083371253687874, 0.355365412402138, -1.218, 1.04, -1.028], a = 0.2, v = 0.2, t = 0.2)
movej(p[0.41532210313067, 0.0833344672043554, 0.355890548909897, -1.218, 1.04, -1.028], a = 0.2, v = 0.2, t = 0.2)
movej(p[0.41531426051632, 0.0833227611449891, 0.356057655916256, -1.218, 1.04, -1.028], a = 0.2, v = 0.2, t = 0.2)
movej(p[0.415321490499495, 0.0833335527775355, 0.355903602587794, -1.218, 1.04, -1.028], a = 0.2, v = 0.2, t = 0.2)
movej(p[0.415351023063371, 0.0833776337345412, 0.355274335596048, -1.218, 1.04, -1.028], a = 0.2, v = 0.2, t = 0.2)
movej(p[0.415404350035005, 0.0834572307500179, 0.354138067740645, -1.218, 1.04, -1.028], a = 0.2, v = 0.2, t = 0.2)
movej(p[0.415456870765307, 0.0835356243518782, 0.353018978923939, -1.218, 1.04, -1.028], a = 0.2, v = 0.2, t = 0.2)
movej(p[0.415488209422004, 0.0835824011229133, 0.352351228493997, -1.218, 1.04, -1.028], a = 0.2, v = 0.2, t = 0.2)
movej(p[0.415508061945663, 0.0836120334381286, 0.351928219577661, -1.218, 1.04, -1.028], a = 0.2, v = 0.2, t = 0.2)
movej(p[0.41552355449952, 0.0836351579661362, 0.351598110996465, -1.218, 1.04, -1.028], a = 0.2, v = 0.2, t = 0.2)
movej(p[0.415539108316495, 0.0836583739368259, 0.351266697047479, -1.218, 1.04, -1.028], a = 0.2, v = 0.2, t = 0.2)
movej(p[0.41554351598735, 0.0836649529236791, 0.351172780319099, -1.218, 1.04, -1.028], a = 0.2, v = 0.2, t = 0.2)
movej(p[0.415535663084538, 0.0836532315075264, 0.351340106547529, -1.218, 1.04, -1.028], a = 0.2, v = 0.2, t = 0.2)
movej(p[0.415526671435993, 0.083639810374346, 0.351531696673425, -1.218, 1.04, -1.028], a = 0.2, v = 0.2, t = 0.2)
movej(p[0.415523315058939, 0.0836348005718372, 0.351603212891948, -1.218, 1.04, -1.028], a = 0.2, v = 0.2, t = 0.2)
movej(p[0.415523310382365, 0.0836347935914798, 0.351603312538344, -1.218, 1.04, -1.028], a = 0.2, v = 0.2, t = 0.2)
movej(p[0.415507929130966, 0.0836118351959783, 0.351931049535312, -1.218, 1.04, -1.028], a = 0.2, v = 0.2, t = 0.2)
movej(p[0.415466434358835, 0.0835498991827692, 0.352815202043793, -1.218, 1.04, -1.028], a = 0.2, v = 0.2, t = 0.2)
movej(p[0.415411098331073, 0.0834673034057517, 0.353994277990987, -1.218, 1.04, -1.028], a = 0.2, v = 0.2, t = 0.2)
movej(p[0.415366086307748, 0.0834001174657391, 0.354953374554019, -1.218, 1.04, -1.028], a = 0.2, v = 0.2, t = 0.2)
movej(p[0.415334781322383, 0.0833533909532774, 0.355620407529909, -1.218, 1.04, -1.028], a = 0.2, v = 0.2, t = 0.2)
movej(p[0.415307245655542, 0.0833122906088832, 0.356207125510495, -1.218, 1.04, -1.028], a = 0.2, v = 0.2, t = 0.2)
movej(p[0.415290386606805, 0.0832871264204421, 0.356566350768649, -1.218, 1.04, -1.028], a = 0.2, v = 0.2, t = 0.2)
movej(p[0.415284031142941, 0.0832776401147302, 0.356701770221029, -1.218, 1.04, -1.028], a = 0.2, v = 0.2, t = 0.2)
movej(p[0.41528922681649, 0.083285395291806, 0.356591063074896, -1.218, 1.04, -1.028], a = 0.2, v = 0.2, t = 0.2)
movej(p[0.415299337569158, 0.0833004868245132, 0.3563756275664, -1.218, 1.04, -1.028], a = 0.2, v = 0.2, t = 0.2)
movej(p[0.415318099983452, 0.0833284920184177, 0.355975846225009, -1.218, 1.04, -1.028], a = 0.2, v = 0.2, t = 0.2)
movej(p[0.415365295966767, 0.0833989377853379, 0.35497021479497, -1.218, 1.04, -1.028], a = 0.2, v = 0.2, t = 0.2)
movej(p[0.415420610482288, 0.0834815014527113, 0.353791597221199, -1.218, 1.04, -1.028], a = 0.2, v = 0.2, t = 0.2)
movej(p[0.415472545705544, 0.0835590211138246, 0.352684984133292, -1.218, 1.04, -1.028], a = 0.2, v = 0.2, t = 0.2)
movej(p[0.415512068366482, 0.0836180135103165, 0.351842852510072, -1.218, 1.04, -1.028], a = 0.2, v = 0.2, t = 0.2)
movej(p[0.415538370820798, 0.0836572731344633, 0.351282411284153, -1.218, 1.04, -1.028], a = 0.2, v = 0.2, t = 0.2)
movej(p[0.415549459445059, 0.0836738242599037, 0.35104613971422, -1.218, 1.04, -1.028], a = 0.2, v = 0.2, t = 0.2)
movej(p[0.415551493754684, 0.0836768607153744, 0.351002793531891, -1.218, 1.04, -1.028], a = 0.2, v = 0.2, t = 0.2)
movej(p[0.415553022994334, 0.0836791432922455, 0.350970209160347, -1.218, 1.04, -1.028], a = 0.2, v = 0.2, t = 0.2)
movej(p[0.415556376097786, 0.0836841482085041, 0.350898762694301, -1.218, 1.04, -1.028], a = 0.2, v = 0.2, t = 0.2)
movej(p[0.415552335537978, 0.0836781171797071, 0.350984857180582, -1.218, 1.04, -1.028], a = 0.2, v = 0.2, t = 0.2)
movej(p[0.415552443099176, 0.0836782777279274, 0.350982565313471, -1.218, 1.04, -1.028], a = 0.2, v = 0.2, t = 0.2)
movej(p[0.415549220939792, 0.0836734682616761, 0.351051221680424, -1.218, 1.04, -1.028], a = 0.2, v = 0.2, t = 0.2)
movej(p[0.415545445541722, 0.0836678330191439, 0.351131666216044, -1.218, 1.04, -1.028], a = 0.2, v = 0.2, t = 0.2)
movej(p[0.415519808096208, 0.08362956600182, 0.351677937724428, -1.218, 1.04, -1.028], a = 0.2, v = 0.2, t = 0.2)
movej(p[0.415480372419543, 0.0835707034399758, 0.35251821592468, -1.218, 1.04, -1.028], a = 0.2, v = 0.2, t = 0.2)
movej(p[0.415440976961414, 0.0835119009092053, 0.353357637165926, -1.218, 1.04, -1.028], a = 0.2, v = 0.2, t = 0.2)
movej(p[0.415406445140091, 0.0834603579501349, 0.354093426155165, -1.218, 1.04, -1.028], a = 0.2, v = 0.2, t = 0.2)
movej(p[0.415372829927242, 0.0834101831411156, 0.354809684450758, -1.218, 1.04, -1.028], a = 0.2, v = 0.2, t = 0.2)
movej(p[0.415345023019118, 0.083368677935992, 0.35540218192232, -1.218, 1.04, -1.028], a = 0.2, v = 0.2, t = 0.2)
movej(p[0.415326513139812, 0.0833410496813873, 0.355796582358319, -1.218, 1.04, -1.028], a = 0.2, v = 0.2, t = 0.2)
movej(p[0.415322065718079, 0.0833344113614962, 0.355891346081066, -1.218, 1.04, -1.028], a = 0.2, v = 0.2, t = 0.2)
movej(p[0.415317828742169, 0.0833280871576882, 0.355981625715986, -1.218, 1.04, -1.028], a = 0.2, v = 0.2, t = 0.2)
movej(p[0.415316912133694, 0.0833267190076371, 0.356001156409634, -1.218, 1.04, -1.028], a = 0.2, v = 0.2, t = 0.2)
movej(p[0.415331652694476, 0.0833487210941742, 0.35568707096894, -1.218, 1.04, -1.028], a = 0.2, v = 0.2, t = 0.2)
movej(p[0.415349643474084, 0.083375574529107, 0.355303731282915, -1.218, 1.04, -1.028], a = 0.2, v = 0.2, t = 0.2)
movej(p[0.415366161132929, 0.0834002291514576, 0.354951780211681, -1.218, 1.04, -1.028], a = 0.2, v = 0.2, t = 0.2)
movej(p[0.415391517516355, 0.0834380766493016, 0.354411497451705, -1.218, 1.04, -1.028], a = 0.2, v = 0.2, t = 0.2)
movej(p[0.415431394661591, 0.0834975981568847, 0.353561812631656, -1.218, 1.04, -1.028], a = 0.2, v = 0.2, t = 0.2)
movej(p[0.4154831844434, 0.0835749007288828, 0.35245829854667, -1.218, 1.04, -1.028], a = 0.2, v = 0.2, t = 0.2)
movej(p[0.415520194381208, 0.0836301425793415, 0.351669706932105, -1.218, 1.04, -1.028], a = 0.2, v = 0.2, t = 0.2)
movej(p[0.415533021287969, 0.083649288303629, 0.35139639679672, -1.218, 1.04, -1.028], a = 0.2, v = 0.2, t = 0.2)
movej(p[0.415536506270804, 0.0836544900659664, 0.351322140302302, -1.218, 1.04, -1.028], a = 0.2, v = 0.2, t = 0.2)
movej(p[0.415543907416582, 0.0836655371795938, 0.35116443991574, -1.218, 1.04, -1.028], a = 0.2, v = 0.2, t = 0.2)
movej(p[0.415552742399903, 0.0836787244708012, 0.350976187944116, -1.218, 1.04, -1.028], a = 0.2, v = 0.2, t = 0.2)
movej(p[0.415559958353357, 0.0836894951622755, 0.350822433554843, -1.218, 1.04, -1.028], a = 0.2, v = 0.2, t = 0.2)
movej(p[0.415555337898391, 0.0836825985691604, 0.350920884194248, -1.218, 1.04, -1.028], a = 0.2, v = 0.2, t = 0.2)
movej(p[0.415549782128655, 0.0836743059045646, 0.351039264112885, -1.218, 1.04, -1.028], a = 0.2, v = 0.2, t = 0.2)
movej(p[0.415540792350739, 0.083660887563527, 0.351230814380222, -1.218, 1.04, -1.028], a = 0.2, v = 0.2, t = 0.2)
movej(p[0.415516988589832, 0.0836253575443412, 0.351738014536672, -1.218, 1.04, -1.028], a = 0.2, v = 0.2, t = 0.2)
movej(p[0.415486712918372, 0.083580167408544, 0.352383115340768, -1.218, 1.04, -1.028], a = 0.2, v = 0.2, t = 0.2)
movej(p[0.415449160965655, 0.0835241165346621, 0.353183255972647, -1.218, 1.04, -1.028], a = 0.2, v = 0.2, t = 0.2)
movej(p[0.415410981416727, 0.0834671288968166, 0.353996769150891, -1.218, 1.04, -1.028], a = 0.2, v = 0.2, t = 0.2)
movej(p[0.415366741028087, 0.0834010947157757, 0.354939424058557, -1.218, 1.04, -1.028], a = 0.2, v = 0.2, t = 0.2)
movej(p[0.415326428961483, 0.083340924034954, 0.35579837599345, -1.218, 1.04, -1.028], a = 0.2, v = 0.2, t = 0.2)
movej(p[0.415310813881391, 0.0833176166215824, 0.356131095310225, -1.218, 1.04, -1.028], a = 0.2, v = 0.2, t = 0.2)
movej(p[0.415318146749191, 0.0833285618219917, 0.355974849761047, -1.218, 1.04, -1.028], a = 0.2, v = 0.2, t = 0.2)
movej(p[0.415337002694962, 0.0833567066230443, 0.355573075491734, -1.218, 1.04, -1.028], a = 0.2, v = 0.2, t = 0.2)
movej(p[0.41535994596628, 0.0833909522564678, 0.355084210272176, -1.218, 1.04, -1.028], a = 0.2, v = 0.2, t = 0.2)
movej(p[0.415390137927069, 0.0834360174438674, 0.354440893138572, -1.218, 1.04, -1.028], a = 0.2, v = 0.2, t = 0.2)
movej(p[0.415431427397608, 0.0834976470193865, 0.353561115106883, -1.218, 1.04, -1.028], a = 0.2, v = 0.2, t = 0.2)
movej(p[0.415470986068165, 0.0835566931646304, 0.352718216206411, -1.218, 1.04, -1.028], a = 0.2, v = 0.2, t = 0.2)
movej(p[0.415503106741541, 0.0836046371910306, 0.352033802906104, -1.218, 1.04, -1.028], a = 0.2, v = 0.2, t = 0.2)
movej(p[0.415520389394337, 0.0836304336602453, 0.351665551677385, -1.218, 1.04, -1.028], a = 0.2, v = 0.2, t = 0.2)
movej(p[0.415522971330761, 0.083634287515568, 0.351610536902066, -1.218, 1.04, -1.028], a = 0.2, v = 0.2, t = 0.2)
movej(p[0.415526581645775, 0.0836396763514838, 0.351533609884231, -1.218, 1.04, -1.028], a = 0.2, v = 0.2, t = 0.2)
movej(p[0.415530104508857, 0.0836449346547162, 0.351458546254004, -1.218, 1.04, -1.028], a = 0.2, v = 0.2, t = 0.2)
movej(p[0.415535001816995, 0.0836522444849895, 0.351354196547946, -1.218, 1.04, -1.028], a = 0.2, v = 0.2, t = 0.2)
movej(p[0.41553434101711, 0.0836512581604884, 0.351368276583724, -1.218, 1.04, -1.028], a = 0.2, v = 0.2, t = 0.2)
movej(p[0.415521247545639, 0.0836317145558289, 0.35164726656369, -1.218, 1.04, -1.028], a = 0.2, v = 0.2, t = 0.2)
movej(p[0.415492618495832, 0.0835889822038737, 0.352257281871698, -1.218, 1.04, -1.028], a = 0.2, v = 0.2, t = 0.2)
movej(p[0.415446696411235, 0.0835204378863103, 0.353235769623423, -1.218, 1.04, -1.028], a = 0.2, v = 0.2, t = 0.2)
movej(p[0.415408100647234, 0.0834628289966558, 0.354058151330925, -1.218, 1.04, -1.028], a = 0.2, v = 0.2, t = 0.2)
movej(p[0.41537864290854, 0.0834188597253686, 0.354685823980332, -1.218, 1.04, -1.028], a = 0.2, v = 0.2, t = 0.2)
movej(p[0.415354329401084, 0.0833825688472257, 0.355203885593964, -1.218, 1.04, -1.028], a = 0.2, v = 0.2, t = 0.2)
movej(p[0.415328206059547, 0.0833435765707675, 0.355760510362909, -1.218, 1.04, -1.028], a = 0.2, v = 0.2, t = 0.2)
movej(p[0.415305772534779, 0.083310091796301, 0.356238514125285, -1.218, 1.04, -1.028], a = 0.2, v = 0.2, t = 0.2)
movej(p[0.415305258111655, 0.0833093239569865, 0.356249475228862, -1.218, 1.04, -1.028], a = 0.2, v = 0.2, t = 0.2)
movej(p[0.415316753130183, 0.0833264816754853, 0.356004544387103, -1.218, 1.04, -1.028], a = 0.2, v = 0.2, t = 0.2)
movej(p[0.415327789844474, 0.0833429553189586, 0.355769378892167, -1.218, 1.04, -1.028], a = 0.2, v = 0.2, t = 0.2)
movej(p[0.415348698806166, 0.0833741644969114, 0.355323859854939, -1.218, 1.04, -1.028], a = 0.2, v = 0.2, t = 0.2)
movej(p[0.415383908730698, 0.0834267196078054, 0.354573622138257, -1.218, 1.04, -1.028], a = 0.2, v = 0.2, t = 0.2)
movej(p[0.415432488979872, 0.0834992315605172, 0.353538495374955, -1.218, 1.04, -1.028], a = 0.2, v = 0.2, t = 0.2)
movej(p[0.415470801811155, 0.0835564181385487, 0.35272214227442, -1.218, 1.04, -1.028], a = 0.2, v = 0.2, t = 0.2)
movej(p[0.415488830471012, 0.0835833281143765, 0.352337995452587, -1.218, 1.04, -1.028], a = 0.2, v = 0.2, t = 0.2)
movej(p[0.415504792552884, 0.0836071534702675, 0.351997882373216, -1.218, 1.04, -1.028], a = 0.2, v = 0.2, t = 0.2)
movej(p[0.415519299284972, 0.0836288065389344, 0.35168877925233, -1.218, 1.04, -1.028], a = 0.2, v = 0.2, t = 0.2)
movej(p[0.415533990274071, 0.0836507346336831, 0.351375750063436, -1.218, 1.04, -1.028], a = 0.2, v = 0.2, t = 0.2)
movej(p[0.41553476845596, 0.0836518961651551, 0.351359168903115, -1.218, 1.04, -1.028], a = 0.2, v = 0.2, t = 0.2)
movej(p[0.415533990741729, 0.0836507353317188, 0.351375740098796, -1.218, 1.04, -1.028], a = 0.2, v = 0.2, t = 0.2)
movej(p[0.415533759251323, 0.0836503898040273, 0.351380672595406, -1.218, 1.04, -1.028], a = 0.2, v = 0.2, t = 0.2)
movej(p[0.415527530522609, 0.083641092666001, 0.35151339163045, -1.218, 1.04, -1.028], a = 0.2, v = 0.2, t = 0.2)
movej(p[0.415508871928255, 0.0836132424360309, 0.351910960821846, -1.218, 1.04, -1.028], a = 0.2, v = 0.2, t = 0.2)
movej(p[0.415481386768412, 0.0835722174794967, 0.352496602621353, -1.218, 1.04, -1.028], a = 0.2, v = 0.2, t = 0.2)
movej(p[0.415450947416866, 0.0835267830311904, 0.353145191049314, -1.218, 1.04, -1.028], a = 0.2, v = 0.2, t = 0.2)
movej(p[0.41540854492175, 0.0834634921306092, 0.35404868492329, -1.218, 1.04, -1.028], a = 0.2, v = 0.2, t = 0.2)
movej(p[0.415366432374213, 0.083400634012187, 0.354946000720704, -1.218, 1.04, -1.028], a = 0.2, v = 0.2, t = 0.2)
movej(p[0.415341543648173, 0.0833634845500834, 0.355476318841063, -1.218, 1.04, -1.028], a = 0.2, v = 0.2, t = 0.2)
movej(p[0.415335225596898, 0.0833540540872308, 0.355610941122274, -1.218, 1.04, -1.028], a = 0.2, v = 0.2, t = 0.2)
movej(p[0.415338111042965, 0.083358360967749, 0.355549459295844, -1.218, 1.04, -1.028], a = 0.2, v = 0.2, t = 0.2)
movej(p[0.415359417513435, 0.0833901634760812, 0.355095470314942, -1.218, 1.04, -1.028], a = 0.2, v = 0.2, t = 0.2)
movej(p[0.415397611092084, 0.0834471720549989, 0.35428165819751, -1.218, 1.04, -1.028], a = 0.2, v = 0.2, t = 0.2)
movej(p[0.415447697198039, 0.0835219316827947, 0.353214445294645, -1.218, 1.04, -1.028], a = 0.2, v = 0.2, t = 0.2)
movej(p[0.41547672983617, 0.0835652664395939, 0.352595830502649, -1.218, 1.04, -1.028], a = 0.2, v = 0.2, t = 0.2)
movej(p[0.415492780305287, 0.0835892237242398, 0.352253834106391, -1.218, 1.04, -1.028], a = 0.2, v = 0.2, t = 0.2)
movej(p[0.415501469800396, 0.0836021938565285, 0.352068682134151, -1.218, 1.04, -1.028], a = 0.2, v = 0.2, t = 0.2)
movej(p[0.415506984463048, 0.0836104251637827, 0.351951178107336, -1.218, 1.04, -1.028], a = 0.2, v = 0.2, t = 0.2)
movej(p[0.415505924751413, 0.083608843414795, 0.351973757980706, -1.218, 1.04, -1.028], a = 0.2, v = 0.2, t = 0.2)
movej(p[0.41550370758775, 0.0836055340273498, 0.352021000337125, -1.218, 1.04, -1.028], a = 0.2, v = 0.2, t = 0.2)
movej(p[0.415507529751559, 0.083611239073456, 0.351939559337544, -1.218, 1.04, -1.028], a = 0.2, v = 0.2, t = 0.2)
movej(p[0.415504599597446, 0.083606865460721, 0.352001993783522, -1.218, 1.04, -1.028], a = 0.2, v = 0.2, t = 0.2)
movej(p[0.415491478814784, 0.0835872810907743, 0.352281565698442, -1.218, 1.04, -1.028], a = 0.2, v = 0.2, t = 0.2)
movej(p[0.415471370482535, 0.083557266950009, 0.352710025272647, -1.218, 1.04, -1.028], a = 0.2, v = 0.2, t = 0.2)
movej(p[0.415451115773525, 0.083527034324057, 0.353141603779052, -1.218, 1.04, -1.028], a = 0.2, v = 0.2, t = 0.2)
movej(p[0.415419651784649, 0.0834800704794435, 0.353812024732412, -1.218, 1.04, -1.028], a = 0.2, v = 0.2, t = 0.2)
movej(p[0.415377730976639, 0.0834174985556749, 0.354705255027583, -1.218, 1.04, -1.028], a = 0.2, v = 0.2, t = 0.2)
movej(p[0.415341899067785, 0.0833640150572461, 0.355468745714955, -1.218, 1.04, -1.028], a = 0.2, v = 0.2, t = 0.2)
movej(p[0.415322126513539, 0.0833345021061424, 0.355890050677916, -1.218, 1.04, -1.028], a = 0.2, v = 0.2, t = 0.2)
movej(p[0.415310650201306, 0.0833173723090732, 0.356134582934091, -1.218, 1.04, -1.028], a = 0.2, v = 0.2, t = 0.2)
movej(p[0.415308129528, 0.0833136098964325, 0.356188292341621, -1.218, 1.04, -1.028], a = 0.2, v = 0.2, t = 0.2)
movej(p[0.41531961519338, 0.0833307536542165, 0.355943560792653, -1.218, 1.04, -1.028], a = 0.2, v = 0.2, t = 0.2)
movej(p[0.415348343386553, 0.0833736339897487, 0.355331432981047, -1.218, 1.04, -1.028], a = 0.2, v = 0.2, t = 0.2)
movej(p[0.415379639018771, 0.0834203465414957, 0.35466459929795, -1.218, 1.04, -1.028], a = 0.2, v = 0.2, t = 0.2)
movej(p[0.415416490420725, 0.0834753517578384, 0.353879385696215, -1.218, 1.04, -1.028], a = 0.2, v = 0.2, t = 0.2)
movej(p[0.41544950703212, 0.08352463308111, 0.353175882139331, -1.218, 1.04, -1.028], a = 0.2, v = 0.2, t = 0.2)
movej(p[0.415475219302816, 0.0835630117841524, 0.352628016288608, -1.218, 1.04, -1.028], a = 0.2, v = 0.2, t = 0.2)
movej(p[0.41548111880073, 0.0835718175050175, 0.352502312359853, -1.218, 1.04, -1.028], a = 0.2, v = 0.2, t = 0.2)
movej(p[0.415485602232082, 0.0835785095736606, 0.352406781359855, -1.218, 1.04, -1.028], a = 0.2, v = 0.2, t = 0.2)
movej(p[0.415490155344384, 0.083585305649629, 0.352309765628555, -1.218, 1.04, -1.028], a = 0.2, v = 0.2, t = 0.2)
movej(p[0.41549805407762, 0.0835970954732842, 0.352141462865442, -1.218, 1.04, -1.028], a = 0.2, v = 0.2, t = 0.2)
movej(p[0.415488787446532, 0.0835832638950884, 0.352338912199431, -1.218, 1.04, -1.028], a = 0.2, v = 0.2, t = 0.2)
movej(p[0.415472105639945, 0.0835583642621929, 0.352694360859171, -1.218, 1.04, -1.028], a = 0.2, v = 0.2, t = 0.2)
movej(p[0.415447075213717, 0.08352100329526, 0.353227698265334, -1.218, 1.04, -1.028], a = 0.2, v = 0.2, t = 0.2)
movej(p[0.415418459258316, 0.0834782904883055, 0.353837434563432, -1.218, 1.04, -1.028], a = 0.2, v = 0.2, t = 0.2)
movej(p[0.415375677960718, 0.0834144341787746, 0.354748999795497, -1.218, 1.04, -1.028], a = 0.2, v = 0.2, t = 0.2)
movej(p[0.415341721357979, 0.0833637498036648, 0.355472532278009, -1.218, 1.04, -1.028], a = 0.2, v = 0.2, t = 0.2)
movej(p[0.415318712614627, 0.0833294064452376, 0.355962792547112, -1.218, 1.04, -1.028], a = 0.2, v = 0.2, t = 0.2)
movej(p[0.415308017290227, 0.0833134423678548, 0.356190683855128, -1.218, 1.04, -1.028], a = 0.2, v = 0.2, t = 0.2)
movej(p[0.415300820043069, 0.0833026995978102, 0.356344039658817, -1.218, 1.04, -1.028], a = 0.2, v = 0.2, t = 0.2)
movej(p[0.41530825111892, 0.083313791385725, 0.35618570153532, -1.218, 1.04, -1.028], a = 0.2, v = 0.2, t = 0.2)
movej(p[0.415339911523898, 0.0833610484053495, 0.355511095433322, -1.218, 1.04, -1.028], a = 0.2, v = 0.2, t = 0.2)
movej(p[0.415380700601035, 0.0834219310826264, 0.354641979566022, -1.218, 1.04, -1.028], a = 0.2, v = 0.2, t = 0.2)
movej(p[0.415421578533076, 0.0834829463866939, 0.353770970417194, -1.218, 1.04, -1.028], a = 0.2, v = 0.2, t = 0.2)
movej(p[0.415455678706632, 0.083533845058776, 0.35304437879032, -1.218, 1.04, -1.028], a = 0.2, v = 0.2, t = 0.2)
movej(p[0.415483358879605, 0.0835751610962139, 0.352454581736093, -1.218, 1.04, -1.028], a = 0.2, v = 0.2, t = 0.2)
movej(p[0.41549246510421, 0.0835887532481508, 0.352260550273492, -1.218, 1.04, -1.028], a = 0.2, v = 0.2, t = 0.2)
movej(p[0.415494672914725, 0.0835920486748812, 0.352213507209865, -1.218, 1.04, -1.028], a = 0.2, v = 0.2, t = 0.2)
movej(p[0.415494103775687, 0.0835911991653852, 0.352225634176278, -1.218, 1.04, -1.028], a = 0.2, v = 0.2, t = 0.2)
movej(p[0.415498909937401, 0.0835983729484927, 0.352123226578481, -1.218, 1.04, -1.028], a = 0.2, v = 0.2, t = 0.2)
movej(p[0.415493418189961, 0.0835901758449897, 0.352240242337955, -1.218, 1.04, -1.028], a = 0.2, v = 0.2, t = 0.2)
movej(p[0.415478637878301, 0.0835681144254147, 0.352555174773016, -1.218, 1.04, -1.028], a = 0.2, v = 0.2, t = 0.2)
movej(p[0.415451821936177, 0.083528088358025, 0.353126557173232, -1.218, 1.04, -1.028], a = 0.2, v = 0.2, t = 0.2)
movej(p[0.415420007204261, 0.0834806009866062, 0.353804451606304, -1.218, 1.04, -1.028], a = 0.2, v = 0.2, t = 0.2)
movej(p[0.415373854096916, 0.083411711839387, 0.354787861889999, -1.218, 1.04, -1.028], a = 0.2, v = 0.2, t = 0.2)
movej(p[0.415332821837939, 0.0833504661835252, 0.3556621593699, -1.218, 1.04, -1.028], a = 0.2, v = 0.2, t = 0.2)
movej(p[0.415306170043556, 0.0833106851266803, 0.356230044181611, -1.218, 1.04, -1.028], a = 0.2, v = 0.2, t = 0.2)
movej(p[0.415295516808321, 0.0832947838725142, 0.356457038672062, -1.218, 1.04, -1.028], a = 0.2, v = 0.2, t = 0.2)
movej(p[0.415295021091493, 0.0832940439546294, 0.356467601190055, -1.218, 1.04, -1.028], a = 0.2, v = 0.2, t = 0.2)
movej(p[0.415303284597489, 0.0833063782461621, 0.356291526008042, -1.218, 1.04, -1.028], a = 0.2, v = 0.2, t = 0.2)
movej(p[0.415323894258455, 0.0833371406812411, 0.355852384340168, -1.218, 1.04, -1.028], a = 0.2, v = 0.2, t = 0.2)
movej(p[0.415348217119059, 0.0833734455200988, 0.355334123433744, -1.218, 1.04, -1.028], a = 0.2, v = 0.2, t = 0.2)
movej(p[0.415374274988563, 0.0834123400715534, 0.354778893714345, -1.218, 1.04, -1.028], a = 0.2, v = 0.2, t = 0.2)
movej(p[0.415404527744811, 0.0834574960035993, 0.354134281177591, -1.218, 1.04, -1.028], a = 0.2, v = 0.2, t = 0.2)
movej(p[0.415423411750026, 0.0834856826867962, 0.3537319090299, -1.218, 1.04, -1.028], a = 0.2, v = 0.2, t = 0.2)
movej(p[0.415423191951055, 0.0834853546099982, 0.353736592410519, -1.218, 1.04, -1.028], a = 0.2, v = 0.2, t = 0.2)
movej(p[0.415402745970174, 0.0834548364874284, 0.354172246454527, -1.218, 1.04, -1.028], a = 0.2, v = 0.2, t = 0.2)
movej(p[0.415388519832516, 0.0834336022402057, 0.354475370791644, -1.218, 1.04, -1.028], a = 0.2, v = 0.2, t = 0.2)
movej(p[0.415388622717141, 0.0834337558080686, 0.354473178570928, -1.218, 1.04, -1.028], a = 0.2, v = 0.2, t = 0.2)
movej(p[0.415399851170959, 0.0834505156461954, 0.35423392757375, -1.218, 1.04, -1.028], a = 0.2, v = 0.2, t = 0.2)
movej(p[0.415411926084645, 0.0834685389290122, 0.353976640578867, -1.218, 1.04, -1.028], a = 0.2, v = 0.2, t = 0.2)
movej(p[0.415420933165884, 0.0834819830973721, 0.353784721619864, -1.218, 1.04, -1.028], a = 0.2, v = 0.2, t = 0.2)
movej(p[0.415433957424062, 0.083501423392742, 0.353507206406561, -1.218, 1.04, -1.028], a = 0.2, v = 0.2, t = 0.2)
movej(p[0.415446560790593, 0.0835202354559456, 0.353238659368911, -1.218, 1.04, -1.028], a = 0.2, v = 0.2, t = 0.2)
movej(p[0.41546531198111, 0.0835482238969923, 0.352839117178871, -1.218, 1.04, -1.028], a = 0.2, v = 0.2, t = 0.2)
movej(p[0.415484321318504, 0.0835765976537677, 0.352434074507763, -1.218, 1.04, -1.028], a = 0.2, v = 0.2, t = 0.2)
movej(p[0.415501862211708, 0.0836027795783182, 0.352060320805049, -1.218, 1.04, -1.028], a = 0.2, v = 0.2, t = 0.2)
movej(p[0.415505128798543, 0.0836076553579649, 0.351990717797332, -1.218, 1.04, -1.028], a = 0.2, v = 0.2, t = 0.2)
movej(p[0.415506113217339, 0.0836091247231984, 0.351969742230941, -1.218, 1.04, -1.028], a = 0.2, v = 0.2, t = 0.2)
movej(p[0.415503911018712, 0.0836058376728969, 0.352016665718892, -1.218, 1.04, -1.028], a = 0.2, v = 0.2, t = 0.2)
movej(p[0.415498904325512, 0.0835983645720638, 0.352123346154156, -1.218, 1.04, -1.028], a = 0.2, v = 0.2, t = 0.2)
movej(p[0.415464729747666, 0.0835473548424955, 0.352851523155193, -1.218, 1.04, -1.028], a = 0.2, v = 0.2, t = 0.2)
movej(p[0.415421882510376, 0.0834834001099252, 0.353764493401444, -1.218, 1.04, -1.028], a = 0.2, v = 0.2, t = 0.2)
movej(p[0.415376159647825, 0.0834151531555872, 0.354738736216692, -1.218, 1.04, -1.028], a = 0.2, v = 0.2, t = 0.2)
movej(p[0.415342567817846, 0.0833650132483549, 0.355454496280304, -1.218, 1.04, -1.028], a = 0.2, v = 0.2, t = 0.2)
movej(p[0.415314461608996, 0.0833230613003574, 0.356053371121221, -1.218, 1.04, -1.028], a = 0.2, v = 0.2, t = 0.2)
movej(p[0.415302517639378, 0.0833052334675479, 0.356307868017012, -1.218, 1.04, -1.028], a = 0.2, v = 0.2, t = 0.2)
movej(p[0.415305431144887, 0.0833095822302105, 0.356245788312204, -1.218, 1.04, -1.028], a = 0.2, v = 0.2, t = 0.2)
movej(p[0.415313675944588, 0.0833218886003136, 0.356070111715776, -1.218, 1.04, -1.028], a = 0.2, v = 0.2, t = 0.2)
movej(p[0.415324282414085, 0.0833377200509056, 0.355844113689287, -1.218, 1.04, -1.028], a = 0.2, v = 0.2, t = 0.2)
movej(p[0.415339785256404, 0.0833608599356996, 0.355513785886019, -1.218, 1.04, -1.028], a = 0.2, v = 0.2, t = 0.2)
movej(p[0.415364346622275, 0.0833975207727849, 0.354990443013391, -1.218, 1.04, -1.028], a = 0.2, v = 0.2, t = 0.2)
movej(p[0.415395572105885, 0.0834441286191708, 0.354325104026235, -1.218, 1.04, -1.028], a = 0.2, v = 0.2, t = 0.2)
movej(p[0.41544060751208, 0.0835113494609704, 0.353365509231222, -1.218, 1.04, -1.028], a = 0.2, v = 0.2, t = 0.2)
movej(p[0.415487608014607, 0.0835815034489511, 0.352364043020543, -1.218, 1.04, -1.028], a = 0.2, v = 0.2, t = 0.2)
movej(p[0.415523297755616, 0.0836347747445148, 0.351603581583614, -1.218, 1.04, -1.028], a = 0.2, v = 0.2, t = 0.2)
movej(p[0.415538463884618, 0.0836574120435756, 0.35128042832087, -1.218, 1.04, -1.028], a = 0.2, v = 0.2, t = 0.2)
movej(p[0.415544988172799, 0.0836671503401898, 0.351141411633588, -1.218, 1.04, -1.028], a = 0.2, v = 0.2, t = 0.2)
movej(p[0.415550909182953, 0.0836759881706989, 0.351015249331411, -1.218, 1.04, -1.028], a = 0.2, v = 0.2, t = 0.2)
movej(p[0.415552616132409, 0.0836785360011513, 0.350978878396813, -1.218, 1.04, -1.028], a = 0.2, v = 0.2, t = 0.2)
movej(p[0.415544480296879, 0.0836663922733758, 0.351152233232211, -1.218, 1.04, -1.028], a = 0.2, v = 0.2, t = 0.2)
movej(p[0.415527082039177, 0.083640423249726, 0.351522947719842, -1.218, 1.04, -1.028], a = 0.2, v = 0.2, t = 0.2)
movej(p[0.415500165181265, 0.0836002465532039, 0.352096480389641, -1.218, 1.04, -1.028], a = 0.2, v = 0.2, t = 0.2)
movej(p[0.415457566171839, 0.0835366623310242, 0.35300416150483, -1.218, 1.04, -1.028], a = 0.2, v = 0.2, t = 0.2)
movej(p[0.415406028925018, 0.0834597366983259, 0.354102294684423, -1.218, 1.04, -1.028], a = 0.2, v = 0.2, t = 0.2)
movej(p[0.415360413623665, 0.0833916502922082, 0.35507424563256, -1.218, 1.04, -1.028], a = 0.2, v = 0.2, t = 0.2)
movej(p[0.415324254354642, 0.0833376781687612, 0.355844711567664, -1.218, 1.04, -1.028], a = 0.2, v = 0.2, t = 0.2)
movej(p[0.41530226510439, 0.083304856528248, 0.356313248922404, -1.218, 1.04, -1.028], a = 0.2, v = 0.2, t = 0.2)
movej(p[0.415294198014495, 0.0832928154117263, 0.356485138955779, -1.218, 1.04, -1.028], a = 0.2, v = 0.2, t = 0.2)
movej(p[0.415311833374491, 0.0833191383394964, 0.356109372395862, -1.218, 1.04, -1.028], a = 0.2, v = 0.2, t = 0.2)
movej(p[0.415340332415545, 0.0833616766375158, 0.355502127257668, -1.218, 1.04, -1.028], a = 0.2, v = 0.2, t = 0.2)
movej(p[0.415362232810894, 0.0833943656512383, 0.355035483184455, -1.218, 1.04, -1.028], a = 0.2, v = 0.2, t = 0.2)
movej(p[0.415396268915389, 0.083445168692424, 0.354310256713208, -1.218, 1.04, -1.028], a = 0.2, v = 0.2, t = 0.2)
movej(p[0.415438708823096, 0.0835085154358644, 0.353405965668063, -1.218, 1.04, -1.028], a = 0.2, v = 0.2, t = 0.2)
movej(p[0.415490713727302, 0.0835861391043031, 0.352297867848853, -1.218, 1.04, -1.028], a = 0.2, v = 0.2, t = 0.2)
movej(p[0.415519508795481, 0.0836291192589461, 0.351684315093782, -1.218, 1.04, -1.028], a = 0.2, v = 0.2, t = 0.2)
movej(p[0.415536796218382, 0.0836549228481254, 0.35131596222574, -1.218, 1.04, -1.028], a = 0.2, v = 0.2, t = 0.2)
movej(p[0.415542120030055, 0.083662869286994, 0.351202524768352, -1.218, 1.04, -1.028], a = 0.2, v = 0.2, t = 0.2)
movej(p[0.415552555336949, 0.0836784452565051, 0.350980173799963, -1.218, 1.04, -1.028], a = 0.2, v = 0.2, t = 0.2)
movej(p[0.415550357347238, 0.0836751644885253, 0.351027007606158, -1.218, 1.04, -1.028], a = 0.2, v = 0.2, t = 0.2)
movej(p[0.415549870983558, 0.0836744385313552, 0.351037370831358, -1.218, 1.04, -1.028], a = 0.2, v = 0.2, t = 0.2)
movej(p[0.415546487014718, 0.0836693875447378, 0.351109474963619, -1.218, 1.04, -1.028], a = 0.2, v = 0.2, t = 0.2)
movej(p[0.415543183482949, 0.0836644566202677, 0.351179865177866, -1.218, 1.04, -1.028], a = 0.2, v = 0.2, t = 0.2)
movej(p[0.415521495871711, 0.083632085212807, 0.351641975340054, -1.218, 1.04, -1.028], a = 0.2, v = 0.2, t = 0.2)
movej(p[0.415489559081218, 0.08358441565406, 0.352322470544065, -1.218, 1.04, -1.028], a = 0.2, v = 0.2, t = 0.2)
movej(p[0.415449974689505, 0.0835253311168504, 0.353165917499715, -1.218, 1.04, -1.028], a = 0.2, v = 0.2, t = 0.2)
movej(p[0.41541001336594, 0.083465683962834, 0.354017395954896, -1.218, 1.04, -1.028], a = 0.2, v = 0.2, t = 0.2)
movej(p[0.41535952039806, 0.0833903170439441, 0.355093278094227, -1.218, 1.04, -1.028], a = 0.2, v = 0.2, t = 0.2)
movej(p[0.415321074284422, 0.0833329315257265, 0.355912471117052, -1.218, 1.04, -1.028], a = 0.2, v = 0.2, t = 0.2)
movej(p[0.415307058592588, 0.083312011394587, 0.356211111366341, -1.218, 1.04, -1.028], a = 0.2, v = 0.2, t = 0.2)
movej(p[0.415307867639864, 0.0833132189964179, 0.356193872539806, -1.218, 1.04, -1.028], a = 0.2, v = 0.2, t = 0.2)
movej(p[0.415317010341745, 0.0833268655951425, 0.355999063835314, -1.218, 1.04, -1.028], a = 0.2, v = 0.2, t = 0.2)
movej(p[0.415343185125595, 0.0833659346555322, 0.355441342956011, -1.218, 1.04, -1.028], a = 0.2, v = 0.2, t = 0.2)
movej(p[0.415391208862481, 0.0834376159457129, 0.354418074113852, -1.218, 1.04, -1.028], a = 0.2, v = 0.2, t = 0.2)
movej(p[0.415447982469044, 0.0835223574845963, 0.353208366864479, -1.218, 1.04, -1.028], a = 0.2, v = 0.2, t = 0.2)
movej(p[0.415495279934011, 0.0835929547252722, 0.352200573107644, -1.218, 1.04, -1.028], a = 0.2, v = 0.2, t = 0.2)
movej(p[0.415529102786738, 0.0836434394621602, 0.351479890512062, -1.218, 1.04, -1.028], a = 0.2, v = 0.2, t = 0.2)
movej(p[0.415551259925992, 0.0836765116975042, 0.351007775851699, -1.218, 1.04, -1.028], a = 0.2, v = 0.2, t = 0.2)
movej(p[0.41555562784597, 0.0836830313513195, 0.350914706117686, -1.218, 1.04, -1.028], a = 0.2, v = 0.2, t = 0.2)
movej(p[0.415554818798693, 0.0836818237494886, 0.350931944944222, -1.218, 1.04, -1.028], a = 0.2, v = 0.2, t = 0.2)
movej(p[0.415553443885981, 0.0836797715244118, 0.350961240984692, -1.218, 1.04, -1.028], a = 0.2, v = 0.2, t = 0.2)
movej(p[0.41555472994379, 0.0836816911226979, 0.350933838225749, -1.218, 1.04, -1.028], a = 0.2, v = 0.2, t = 0.2)
movej(p[0.415542634453179, 0.0836636371263084, 0.351191563664775, -1.218, 1.04, -1.028], a = 0.2, v = 0.2, t = 0.2)
movej(p[0.415514634402555, 0.083621843632424, 0.351788176532499, -1.218, 1.04, -1.028], a = 0.2, v = 0.2, t = 0.2)
movej(p[0.415473884140981, 0.0835610188921136, 0.352656465334712, -1.218, 1.04, -1.028], a = 0.2, v = 0.2, t = 0.2)
movej(p[0.415431951173879, 0.0834984288194158, 0.353549954710513, -1.218, 1.04, -1.028], a = 0.2, v = 0.2, t = 0.2)
movej(p[0.41538275829353, 0.0834250024398841, 0.354598135151712, -1.218, 1.04, -1.028], a = 0.2, v = 0.2, t = 0.2)
movej(p[0.415344111087217, 0.0833673167662982, 0.355421612969572, -1.218, 1.04, -1.028], a = 0.2, v = 0.2, t = 0.2)
movej(p[0.415324399328431, 0.0833378945598407, 0.355841622529383, -1.218, 1.04, -1.028], a = 0.2, v = 0.2, t = 0.2)
movej(p[0.41532189736142, 0.0833341600686296, 0.355894933351328, -1.218, 1.04, -1.028], a = 0.2, v = 0.2, t = 0.2)
movej(p[0.415325521706156, 0.0833395698456177, 0.355817707394304, -1.218, 1.04, -1.028], a = 0.2, v = 0.2, t = 0.2)
movej(p[0.415336399416935, 0.0833558061569391, 0.355585929876838, -1.218, 1.04, -1.028], a = 0.2, v = 0.2, t = 0.2)
movej(p[0.415362078483957, 0.083394135299444, 0.355038771515528, -1.218, 1.04, -1.028], a = 0.2, v = 0.2, t = 0.2)
movej(p[0.415399229186637, 0.0834495872586606, 0.354247180544439, -1.218, 1.04, -1.028], a = 0.2, v = 0.2, t = 0.2)
movej(p[0.41543433154997, 0.0835019818213344, 0.353499234694868, -1.218, 1.04, -1.028], a = 0.2, v = 0.2, t = 0.2)
movej(p[0.415475704731181, 0.083563736345251, 0.352617672992687, -1.218, 1.04, -1.028], a = 0.2, v = 0.2, t = 0.2)
movej(p[0.415509793680961, 0.0836146182644752, 0.351891320517163, -1.218, 1.04, -1.028], a = 0.2, v = 0.2, t = 0.2)
movej(p[0.41553323220145, 0.0836496031177479, 0.351391902744253, -1.218, 1.04, -1.028], a = 0.2, v = 0.2, t = 0.2)
movej(p[0.41553930052368, 0.0836586608295152, 0.351262601580597, -1.218, 1.04, -1.028], a = 0.2, v = 0.2, t = 0.2)
movej(p[0.415544143583561, 0.0836658896876427, 0.351159407772734, -1.218, 1.04, -1.028], a = 0.2, v = 0.2, t = 0.2)
movej(p[0.415548907609344, 0.08367300057773, 0.351057897988967, -1.218, 1.04, -1.028], a = 0.2, v = 0.2, t = 0.2)
movej(p[0.415555272426357, 0.0836825008441568, 0.350922279243794, -1.218, 1.04, -1.028], a = 0.2, v = 0.2, t = 0.2)
movej(p[0.415549379943303, 0.0836737055938278, 0.351047833702955, -1.218, 1.04, -1.028], a = 0.2, v = 0.2, t = 0.2)
movej(p[0.415545796752418, 0.083668357243985, 0.351124182771692, -1.218, 1.04, -1.028], a = 0.2, v = 0.2, t = 0.2)
movej(p[0.415538095838256, 0.083656862689448, 0.351288270492247, -1.218, 1.04, -1.028], a = 0.2, v = 0.2, t = 0.2)
movej(p[0.415526127082796, 0.0836389978607441, 0.351543295513938, -1.218, 1.04, -1.028], a = 0.2, v = 0.2, t = 0.2)
movej(p[0.415493500030003, 0.0835902980012443, 0.352238498526022, -1.218, 1.04, -1.028], a = 0.2, v = 0.2, t = 0.2)
movej(p[0.415440336270796, 0.083510944600241, 0.353371288722199, -1.218, 1.04, -1.028], a = 0.2, v = 0.2, t = 0.2)
movej(p[0.41538984797949, 0.0834355846617084, 0.354447071215134, -1.218, 1.04, -1.028], a = 0.2, v = 0.2, t = 0.2)
movej(p[0.415353885126568, 0.0833819057132724, 0.355213352001599, -1.218, 1.04, -1.028], a = 0.2, v = 0.2, t = 0.2)
movej(p[0.415336067380192, 0.0833553105515635, 0.355593004770965, -1.218, 1.04, -1.028], a = 0.2, v = 0.2, t = 0.2)
movej(p[0.415320784336843, 0.0833324987435675, 0.355918649193614, -1.218, 1.04, -1.028], a = 0.2, v = 0.2, t = 0.2)
movej(p[0.415299936170611, 0.0833013803102609, 0.356362872827692, -1.218, 1.04, -1.028], a = 0.2, v = 0.2, t = 0.2)
movej(p[0.415292032760801, 0.0832895835062483, 0.356531275237201, -1.218, 1.04, -1.028], a = 0.2, v = 0.2, t = 0.2)
movej(p[0.415302419431327, 0.0833050868800424, 0.356309960591331, -1.218, 1.04, -1.028], a = 0.2, v = 0.2, t = 0.2)
movej(p[0.41533304163691, 0.0833507942603231, 0.35565747598928, -1.218, 1.04, -1.028], a = 0.2, v = 0.2, t = 0.2)
movej(p[0.415370145573851, 0.0834061764159657, 0.354866881482153, -1.218, 1.04, -1.028], a = 0.2, v = 0.2, t = 0.2)
movej(p[0.415412131853895, 0.083468846064738, 0.353972256137436, -1.218, 1.04, -1.028], a = 0.2, v = 0.2, t = 0.2)
movej(p[0.415461263938784, 0.0835421816996234, 0.352925371099387, -1.218, 1.04, -1.028], a = 0.2, v = 0.2, t = 0.2)
movej(p[0.415502813193001, 0.0836041990339963, 0.35204005771039, -1.218, 1.04, -1.028], a = 0.2, v = 0.2, t = 0.2)
movej(p[0.415534565492655, 0.0836515932176437, 0.351363493556708, -1.218, 1.04, -1.028], a = 0.2, v = 0.2, t = 0.2)
movej(p[0.415546463164192, 0.083669351944915, 0.351109983160239, -1.218, 1.04, -1.028], a = 0.2, v = 0.2, t = 0.2)
movej(p[0.415551007391004, 0.0836761347582044, 0.351013156757091, -1.218, 1.04, -1.028], a = 0.2, v = 0.2, t = 0.2)
movej(p[0.415553584183196, 0.0836799809351339, 0.350958251592808, -1.218, 1.04, -1.028], a = 0.2, v = 0.2, t = 0.2)
movej(p[0.415556970022665, 0.0836850347138944, 0.350886107601988, -1.218, 1.04, -1.028], a = 0.2, v = 0.2, t = 0.2)
movej(p[0.415552312155109, 0.0836780822779201, 0.350985355412563, -1.218, 1.04, -1.028], a = 0.2, v = 0.2, t = 0.2)
movej(p[0.415544256288991, 0.0836660579142561, 0.351157006294587, -1.218, 1.04, -1.028], a = 0.2, v = 0.2, t = 0.2)
movej(p[0.415528144089099, 0.0836420084888924, 0.351500318023274, -1.218, 1.04, -1.028], a = 0.2, v = 0.2, t = 0.2)
movej(p[0.415499472342172, 0.0835992124062741, 0.352111243102879, -1.218, 1.04, -1.028], a = 0.2, v = 0.2, t = 0.2)
movej(p[0.415453571442455, 0.0835306997097298, 0.353089279456429, -1.218, 1.04, -1.028], a = 0.2, v = 0.2, t = 0.2)
movej(p[0.415413282291062, 0.0834705632326594, 0.35394774312398, -1.218, 1.04, -1.028], a = 0.2, v = 0.2, t = 0.2)
movej(p[0.415384212707998, 0.0834271733310367, 0.354567145122506, -1.218, 1.04, -1.028], a = 0.2, v = 0.2, t = 0.2)
movej(p[0.41536159679685, 0.0833934163226314, 0.355049035094332, -1.218, 1.04, -1.028], a = 0.2, v = 0.2, t = 0.2)
movej(p[0.415338293429345, 0.0833586332016877, 0.355545573086394, -1.218, 1.04, -1.028], a = 0.2, v = 0.2, t = 0.2)
movej(p[0.415325545089025, 0.0833396047474047, 0.355817209162324, -1.218, 1.04, -1.028], a = 0.2, v = 0.2, t = 0.2)
movej(p[0.415325456234122, 0.083339472120614, 0.355819102443851, -1.218, 1.04, -1.028], a = 0.2, v = 0.2, t = 0.2)
movej(p[0.415329510823651, 0.0833455240904832, 0.355732709018381, -1.218, 1.04, -1.028], a = 0.2, v = 0.2, t = 0.2)
movej(p[0.415350223369242, 0.0833764400934251, 0.355291375129791, -1.218, 1.04, -1.028], a = 0.2, v = 0.2, t = 0.2)
movej(p[0.415395936878645, 0.0834446730870483, 0.354317331607335, -1.218, 1.04, -1.028], a = 0.2, v = 0.2, t = 0.2)
movej(p[0.415458926587173, 0.083538692916993, 0.352975174368187, -1.218, 1.04, -1.028], a = 0.2, v = 0.2, t = 0.2)
movej(p[0.415503043280434, 0.0836045424675806, 0.352035155107699, -1.218, 1.04, -1.028], a = 0.2, v = 0.2, t = 0.2)
movej(p[0.415528473319898, 0.0836424999060537, 0.351493302916985, -1.218, 1.04, -1.028], a = 0.2, v = 0.2, t = 0.2)
movej(p[0.41554171503876, 0.0836622647880428, 0.35121115414626, -1.218, 1.04, -1.028], a = 0.2, v = 0.2, t = 0.2)
movej(p[0.415554715914068, 0.0836816701816257, 0.350934137164937, -1.218, 1.04, -1.028], a = 0.2, v = 0.2, t = 0.2)
movej(p[0.415555066657107, 0.083682193708431, 0.350926663685225, -1.218, 1.04, -1.028], a = 0.2, v = 0.2, t = 0.2)
movej(p[0.415555160188584, 0.0836823333155791, 0.350924670757302, -1.218, 1.04, -1.028], a = 0.2, v = 0.2, t = 0.2)
movej(p[0.415555202277749, 0.0836823961387957, 0.350923773939737, -1.218, 1.04, -1.028], a = 0.2, v = 0.2, t = 0.2)
movej(p[0.415554968449056, 0.0836820471209255, 0.350928756259545, -1.218, 1.04, -1.028], a = 0.2, v = 0.2, t = 0.2)
movej(p[0.415534306410464, 0.0836512065058436, 0.351369013967055, -1.218, 1.04, -1.028], a = 0.2, v = 0.2, t = 0.2)
movej(p[0.415505096530184, 0.0836076071934988, 0.351991405357466, -1.218, 1.04, -1.028], a = 0.2, v = 0.2, t = 0.2)
movej(p[0.415472331050805, 0.0835587007154198, 0.352689557902876, -1.218, 1.04, -1.028], a = 0.2, v = 0.2, t = 0.2)
movej(p[0.41543541183853, 0.0835035942838946, 0.353476216377355, -1.218, 1.04, -1.028], a = 0.2, v = 0.2, t = 0.2)
movej(p[0.415387051388326, 0.0834314104079809, 0.354506659760038, -1.218, 1.04, -1.028], a = 0.2, v = 0.2, t = 0.2)
movej(p[0.415350092425174, 0.0833762446434178, 0.355294165228884, -1.218, 1.04, -1.028], a = 0.2, v = 0.2, t = 0.2)
movej(p[0.415328121881217, 0.0833434509243342, 0.35576230399804, -1.218, 1.04, -1.028], a = 0.2, v = 0.2, t = 0.2)
movej(p[0.41531951698533, 0.083330607066711, 0.355945653366973, -1.218, 1.04, -1.028], a = 0.2, v = 0.2, t = 0.2)
movej(p[0.415317393820801, 0.0833274379844497, 0.355990892830829, -1.218, 1.04, -1.028], a = 0.2, v = 0.2, t = 0.2)
movej(p[0.415328033026314, 0.0833433182975436, 0.355764197279567, -1.218, 1.04, -1.028], a = 0.2, v = 0.2, t = 0.2)
movej(p[0.415373278878332, 0.0834108532554264, 0.354800118396726, -1.218, 1.04, -1.028], a = 0.2, v = 0.2, t = 0.2)
movej(p[0.415427615989919, 0.0834919580281023, 0.353642326919752, -1.218, 1.04, -1.028], a = 0.2, v = 0.2, t = 0.2)
movej(p[0.415482373525494, 0.0835736903349089, 0.352475577231764, -1.218, 1.04, -1.028], a = 0.2, v = 0.2, t = 0.2)
movej(p[0.415517111583724, 0.0836255411277409, 0.351735393836453, -1.218, 1.04, -1.028], a = 0.2, v = 0.2, t = 0.2)
movej(p[0.415540594064008, 0.0836605915963731, 0.351235039387419, -1.218, 1.04, -1.028], a = 0.2, v = 0.2, t = 0.2)
movej(p[0.415544251612417, 0.0836660509338987, 0.351157105940983, -1.218, 1.04, -1.028], a = 0.2, v = 0.2, t = 0.2)
movej(p[0.41554770105329, 0.0836711996455198, 0.351083606759176, -1.218, 1.04, -1.028], a = 0.2, v = 0.2, t = 0.2)
movej(p[0.415546775091668, 0.0836698175347539, 0.351103336745616, -1.218, 1.04, -1.028], a = 0.2, v = 0.2, t = 0.2)
movej(p[0.415552181211041, 0.0836778868279128, 0.350988145511655, -1.218, 1.04, -1.028], a = 0.2, v = 0.2, t = 0.2)
movej(p[0.415549244322662, 0.0836735031634631, 0.351050723448443, -1.218, 1.04, -1.028], a = 0.2, v = 0.2, t = 0.2)
movej(p[0.415545514755015, 0.0836679363284335, 0.35113019144938, -1.218, 1.04, -1.028], a = 0.2, v = 0.2, t = 0.2)
movej(p[0.415537347118782, 0.0836557451342276, 0.351304223880272, -1.218, 1.04, -1.028], a = 0.2, v = 0.2, t = 0.2)
movej(p[0.41552394452578, 0.0836357401279437, 0.351589800487025, -1.218, 1.04, -1.028], a = 0.2, v = 0.2, t = 0.2)
movej(p[0.415486715256659, 0.0835801708987227, 0.35238306551757, -1.218, 1.04, -1.028], a = 0.2, v = 0.2, t = 0.2)
movej(p[0.415440930195675, 0.0835118311056313, 0.353358633629887, -1.218, 1.04, -1.028], a = 0.2, v = 0.2, t = 0.2)
movej(p[0.415401801302256, 0.0834534264552328, 0.354192375026551, -1.218, 1.04, -1.028], a = 0.2, v = 0.2, t = 0.2)
movej(p[0.415369579708415, 0.0834053317927199, 0.354878938696088, -1.218, 1.04, -1.028], a = 0.2, v = 0.2, t = 0.2)
movej(p[0.415339654312336, 0.0833606644856923, 0.355516575985111, -1.218, 1.04, -1.028], a = 0.2, v = 0.2, t = 0.2)
movej(p[0.415317202081273, 0.0833271517897961, 0.355994978333072, -1.218, 1.04, -1.028], a = 0.2, v = 0.2, t = 0.2)
movej(p[0.415307652517467, 0.0833128978999773, 0.356198456274029, -1.218, 1.04, -1.028], a = 0.2, v = 0.2, t = 0.2)
movej(p[0.415311234773038, 0.0833182448537487, 0.356122127134571, -1.218, 1.04, -1.028], a = 0.2, v = 0.2, t = 0.2)
movej(p[0.415318464756213, 0.0833290364862952, 0.355968073806109, -1.218, 1.04, -1.028], a = 0.2, v = 0.2, t = 0.2)
movej(p[0.415338143778982, 0.0833584098302508, 0.355548761771071, -1.218, 1.04, -1.028], a = 0.2, v = 0.2, t = 0.2)
movej(p[0.415384647629366, 0.0834278225042752, 0.354557878007663, -1.218, 1.04, -1.028], a = 0.2, v = 0.2, t = 0.2)
movej(p[0.415437857686655, 0.0835072450108169, 0.353424101312164, -1.218, 1.04, -1.028], a = 0.2, v = 0.2, t = 0.2)
movej(p[0.415490819885529, 0.0835862975584161, 0.352295605875661, -1.218, 1.04, -1.028], a = 0.2, v = 0.2, t = 0.2)
movej(p[0.415523135010846, 0.0836345318280771, 0.3516070492782, -1.218, 1.04, -1.028], a = 0.2, v = 0.2, t = 0.2)
movej(p[0.415549253675809, 0.0836735171241779, 0.351050524155651, -1.218, 1.04, -1.028], a = 0.2, v = 0.2, t = 0.2)
movej(p[0.415555805555776, 0.0836832966049008, 0.350910919554632, -1.218, 1.04, -1.028], a = 0.2, v = 0.2, t = 0.2)
movej(p[0.415554252933257, 0.0836809791262427, 0.350944002158157, -1.218, 1.04, -1.028], a = 0.2, v = 0.2, t = 0.2)
movej(p[0.415554444672785, 0.0836812653208963, 0.350939916655914, -1.218, 1.04, -1.028], a = 0.2, v = 0.2, t = 0.2)
movej(p[0.415555800879202, 0.0836832896245434, 0.350911019201028, -1.218, 1.04, -1.028], a = 0.2, v = 0.2, t = 0.2)
movej(p[0.415559733877812, 0.0836891601051201, 0.350827216581858, -1.218, 1.04, -1.028], a = 0.2, v = 0.2, t = 0.2)
movej(p[0.415553060406925, 0.0836791991351047, 0.350969411989178, -1.218, 1.04, -1.028], a = 0.2, v = 0.2, t = 0.2)
movej(p[0.415548472687976, 0.0836723514044915, 0.35106716510381, -1.218, 1.04, -1.028], a = 0.2, v = 0.2, t = 0.2)
movej(p[0.41554706971582, 0.0836702572972703, 0.351097059022657, -1.218, 1.04, -1.028], a = 0.2, v = 0.2, t = 0.2)
movej(p[0.415542002180394, 0.0836626933819874, 0.351205035857536, -1.218, 1.04, -1.028], a = 0.2, v = 0.2, t = 0.2)
movej(p[0.415538380173946, 0.0836572870951781, 0.351282211991361, -1.218, 1.04, -1.028], a = 0.2, v = 0.2, t = 0.2)
movej(p[0.41552794720534, 0.0836417146158457, 0.351504513136553, -1.218, 1.04, -1.028], a = 0.2, v = 0.2, t = 0.2)
movej(p[0.41551067194153, 0.0836159291755957, 0.351872606923965, -1.218, 1.04, -1.028], a = 0.2, v = 0.2, t = 0.2)
movej(p[0.415467957518938, 0.0835521726851756, 0.352782747212564, -1.218, 1.04, -1.028], a = 0.2, v = 0.2, t = 0.2)
movej(p[0.415412819310251, 0.0834698721772764, 0.3539576081172, -1.218, 1.04, -1.028], a = 0.2, v = 0.2, t = 0.2)
movej(p[0.415368476036986, 0.0834036844283725, 0.354902455245582, -1.218, 1.04, -1.028], a = 0.2, v = 0.2, t = 0.2)
movej(p[0.415338751733583, 0.0833593172767133, 0.35553580773957, -1.218, 1.04, -1.028], a = 0.2, v = 0.2, t = 0.2)
movej(p[0.415315298715715, 0.0833243107843327, 0.356035534416308, -1.218, 1.04, -1.028], a = 0.2, v = 0.2, t = 0.2)
movej(p[0.415297616589981, 0.0832979180529886, 0.356412297440186, -1.218, 1.04, -1.028], a = 0.2, v = 0.2, t = 0.2)
movej(p[0.41529674207067, 0.083296612726154, 0.356430931316268, -1.218, 1.04, -1.028], a = 0.2, v = 0.2, t = 0.2)
movej(p[0.415314433549552, 0.083323019418213, 0.356053968999598, -1.218, 1.04, -1.028], a = 0.2, v = 0.2, t = 0.2)
movej(p[0.415340037791392, 0.0833612368749994, 0.355508404980626, -1.218, 1.04, -1.028], a = 0.2, v = 0.2, t = 0.2)
movej(p[0.415375238362776, 0.0834137780251786, 0.354758366556736, -1.218, 1.04, -1.028], a = 0.2, v = 0.2, t = 0.2)
movej(p[0.415422158428233, 0.083483811951012, 0.35375861426407, -1.218, 1.04, -1.028], a = 0.2, v = 0.2, t = 0.2)
movej(p[0.415471428472051, 0.0835573535064408, 0.352708789657335, -1.218, 1.04, -1.028], a = 0.2, v = 0.2, t = 0.2)
movej(p[0.415506164191994, 0.0836092008090941, 0.351968656085223, -1.218, 1.04, -1.028], a = 0.2, v = 0.2, t = 0.2)
movej(p[0.415524336890326, 0.0836363257799299, 0.351581440154387, -1.218, 1.04, -1.028], a = 0.2, v = 0.2, t = 0.2)
movej(p[0.415535049050391, 0.0836523149865993, 0.351353190119345, -1.218, 1.04, -1.028], a = 0.2, v = 0.2, t = 0.2)
movej(p[0.415547270808496, 0.0836705574526387, 0.351092774227623, -1.218, 1.04, -1.028], a = 0.2, v = 0.2, t = 0.2)
movej(p[0.415548351097056, 0.083672169915199, 0.35106975591011, -1.218, 1.04, -1.028], a = 0.2, v = 0.2, t = 0.2)
movej(p[0.415546657242007, 0.0836696416297473, 0.351105847834799, -1.218, 1.04, -1.028], a = 0.2, v = 0.2, t = 0.2)
movej(p[0.415542269680419, 0.0836630926584309, 0.351199336083675, -1.218, 1.04, -1.028], a = 0.2, v = 0.2, t = 0.2)
movej(p[0.415540428513293, 0.083660344491721, 0.351238566869843, -1.218, 1.04, -1.028], a = 0.2, v = 0.2, t = 0.2)
movej(p[0.415523980535398, 0.0836357938766957, 0.351589033209775, -1.218, 1.04, -1.028], a = 0.2, v = 0.2, t = 0.2)
movej(p[0.415484596768704, 0.0835770087968187, 0.35242820533503, -1.218, 1.04, -1.028], a = 0.2, v = 0.2, t = 0.2)
movej(p[0.415444236533389, 0.0835167662183158, 0.353288183627803, -1.218, 1.04, -1.028], a = 0.2, v = 0.2, t = 0.2)
movej(p[0.415410004012792, 0.0834656700021192, 0.354017595247688, -1.218, 1.04, -1.028], a = 0.2, v = 0.2, t = 0.2)
movej(p[0.415378577436507, 0.083418762000365, 0.354687219029878, -1.218, 1.04, -1.028], a = 0.2, v = 0.2, t = 0.2)
movej(p[0.415342460256648, 0.0833648527001346, 0.355456788147416, -1.218, 1.04, -1.028], a = 0.2, v = 0.2, t = 0.2)
movej(p[0.415320143646226, 0.0833315424346032, 0.355932300749888, -1.218, 1.04, -1.028], a = 0.2, v = 0.2, t = 0.2)
movej(p[0.415313535647373, 0.0833216791895914, 0.35607310110766, -1.218, 1.04, -1.028], a = 0.2, v = 0.2, t = 0.2)
movej(p[0.415315382894044, 0.083324436430766, 0.356033740781178, -1.218, 1.04, -1.028], a = 0.2, v = 0.2, t = 0.2)
movej(p[0.415319549721347, 0.0833306559292129, 0.3559449558422, -1.218, 1.04, -1.028], a = 0.2, v = 0.2, t = 0.2)
movej(p[0.415340215501199, 0.0833615021285807, 0.355504618417572, -1.218, 1.04, -1.028], a = 0.2, v = 0.2, t = 0.2)
movej(p[0.415383726344318, 0.0834264473738667, 0.354577508347707, -1.218, 1.04, -1.028], a = 0.2, v = 0.2, t = 0.2)
movej(p[0.415431974556749, 0.0834984637212028, 0.353549456478532, -1.218, 1.04, -1.028], a = 0.2, v = 0.2, t = 0.2)
movej(p[0.41547235162773, 0.0835587314289924, 0.352689119458733, -1.218, 1.04, -1.028], a = 0.2, v = 0.2, t = 0.2)
movej(p[0.4155022707572, 0.083603389382341, 0.352051615695881, -1.218, 1.04, -1.028], a = 0.2, v = 0.2, t = 0.2)
movej(p[0.415524582410453, 0.0836366922486936, 0.351576208718589, -1.218, 1.04, -1.028], a = 0.2, v = 0.2, t = 0.2)
movej(p[0.415532730405075, 0.0836488541253985, 0.351402594802561, -1.218, 1.04, -1.028], a = 0.2, v = 0.2, t = 0.2)
movej(p[0.415539546979122, 0.0836590286943504, 0.351257350215519, -1.218, 1.04, -1.028], a = 0.2, v = 0.2, t = 0.2)
movej(p[0.415544501809118, 0.0836664243830198, 0.351151774858789, -1.218, 1.04, -1.028], a = 0.2, v = 0.2, t = 0.2)
movej(p[0.415549571682831, 0.0836739917884814, 0.351043748200712, -1.218, 1.04, -1.028], a = 0.2, v = 0.2, t = 0.2)
movej(p[0.415544028072187, 0.0836657172728148, 0.351161869038719, -1.218, 1.04, -1.028], a = 0.2, v = 0.2, t = 0.2)
movej(p[0.415540048307839, 0.0836597769886641, 0.351246668121851, -1.218, 1.04, -1.028], a = 0.2, v = 0.2, t = 0.2)
movej(p[0.415537936367087, 0.0836566246592605, 0.351291668434356, -1.218, 1.04, -1.028], a = 0.2, v = 0.2, t = 0.2)
movej(p[0.415536845790065, 0.0836549968399139, 0.351314905973941, -1.218, 1.04, -1.028], a = 0.2, v = 0.2, t = 0.2)
movej(p[0.415515631915758, 0.0836233325426583, 0.351766921956198, -1.218, 1.04, -1.028], a = 0.2, v = 0.2, t = 0.2)
movej(p[0.415486872857197, 0.0835804061367672, 0.352379707434019, -1.218, 1.04, -1.028], a = 0.2, v = 0.2, t = 0.2)
movej(p[0.415453621481795, 0.083530774399554, 0.35308821323999, -1.218, 1.04, -1.028], a = 0.2, v = 0.2, t = 0.2)
movej(p[0.41541783259742, 0.0834773551204134, 0.353850787180518, -1.218, 1.04, -1.028], a = 0.2, v = 0.2, t = 0.2)
movej(p[0.415373648327666, 0.0834114047036613, 0.35479224633143, -1.218, 1.04, -1.028], a = 0.2, v = 0.2, t = 0.2)
movej(p[0.4153398039627, 0.0833608878571292, 0.355513387300434, -1.218, 1.04, -1.028], a = 0.2, v = 0.2, t = 0.2)
movej(p[0.415319325245802, 0.0833303208720575, 0.355949738869215, -1.218, 1.04, -1.028], a = 0.2, v = 0.2, t = 0.2)
movej(p[0.415312193470677, 0.0833196758270165, 0.356101699623358, -1.218, 1.04, -1.028], a = 0.2, v = 0.2, t = 0.2)
movej(p[0.415311234773038, 0.0833182448537487, 0.356122127134571, -1.218, 1.04, -1.028], a = 0.2, v = 0.2, t = 0.2)
movej(p[0.415317267553307, 0.0833272495147998, 0.355993583283525, -1.218, 1.04, -1.028], a = 0.2, v = 0.2, t = 0.2)
movej(p[0.415327607458094, 0.0833426830850198, 0.355773265101617, -1.218, 1.04, -1.028], a = 0.2, v = 0.2, t = 0.2)
movej(p[0.415340641069419, 0.0833621373411045, 0.355495550595522, -1.218, 1.04, -1.028], a = 0.2, v = 0.2, t = 0.2)
movej(p[0.415375041946674, 0.0834134848501676, 0.354762551705374, -1.218, 1.04, -1.028], a = 0.2, v = 0.2, t = 0.2)
movej(p[0.415429500649181, 0.0834947711121361, 0.3536021694221, -1.218, 1.04, -1.028], a = 0.2, v = 0.2, t = 0.2)
movej(p[0.415484078604321, 0.0835762353732184, 0.352439246155724, -1.218, 1.04, -1.028], a = 0.2, v = 0.2, t = 0.2)
movej(p[0.415514290674377, 0.0836213305761549, 0.351795500542617, -1.218, 1.04, -1.028], a = 0.2, v = 0.2, t = 0.2)
movej(p[0.4155329979051, 0.083649253401842, 0.351396895028701, -1.218, 1.04, -1.028], a = 0.2, v = 0.2, t = 0.2)
movej(p[0.415545231822297, 0.0836675140168106, 0.351136220056348, -1.218, 1.04, -1.028], a = 0.2, v = 0.2, t = 0.2)
movej(p[0.415556946639796, 0.0836849998121074, 0.350886605833969, -1.218, 1.04, -1.028], a = 0.2, v = 0.2, t = 0.2)
movej(p[0.415554505468245, 0.0836813560655425, 0.350938621252764, -1.218, 1.04, -1.028], a = 0.2, v = 0.2, t = 0.2)
movej(p[0.415553775922724, 0.0836802671297875, 0.350954166090565, -1.218, 1.04, -1.028], a = 0.2, v = 0.2, t = 0.2)
movej(p[0.415551376840338, 0.0836766862064393, 0.351005284691795, -1.218, 1.04, -1.028], a = 0.2, v = 0.2, t = 0.2)
movej(p[0.415555005861647, 0.0836821029637847, 0.350927959088375, -1.218, 1.04, -1.028], a = 0.2, v = 0.2, t = 0.2)
movej(p[0.415547065039247, 0.0836702503169129, 0.351097158669054, -1.218, 1.04, -1.028], a = 0.2, v = 0.2, t = 0.2)
movej(p[0.415537272761258, 0.0836556341465449, 0.351305808257971, -1.218, 1.04, -1.028], a = 0.2, v = 0.2, t = 0.2)
movej(p[0.415520711610276, 0.0836309146068704, 0.35165868604069, -1.218, 1.04, -1.028], a = 0.2, v = 0.2, t = 0.2)
movej(p[0.415499997865518, 0.0835999968140253, 0.352100045480608, -1.218, 1.04, -1.028], a = 0.2, v = 0.2, t = 0.2)
movej(p[0.415457877164, 0.0835371265247915, 0.352997535019485, -1.218, 1.04, -1.028], a = 0.2, v = 0.2, t = 0.2)
movej(p[0.415412047675565, 0.0834687204183047, 0.353974049772567, -1.218, 1.04, -1.028], a = 0.2, v = 0.2, t = 0.2)
movej(p[0.415372787838078, 0.0834101203178989, 0.354810581268323, -1.218, 1.04, -1.028], a = 0.2, v = 0.2, t = 0.2)
movej(p[0.415348698806166, 0.0833741644969114, 0.355323859854939, -1.218, 1.04, -1.028], a = 0.2, v = 0.2, t = 0.2)
movej(p[0.415328178000103, 0.0833435346886231, 0.355761108241286, -1.218, 1.04, -1.028], a = 0.2, v = 0.2, t = 0.2)
movej(p[0.415318403960753, 0.0833289457416489, 0.355969369209259, -1.218, 1.04, -1.028], a = 0.2, v = 0.2, t = 0.2)
movej(p[0.415321906714568, 0.0833341740293444, 0.355894734058536, -1.218, 1.04, -1.028], a = 0.2, v = 0.2, t = 0.2)
movej(p[0.415332756365905, 0.0833503684585215, 0.355663554419446, -1.218, 1.04, -1.028], a = 0.2, v = 0.2, t = 0.2)
movej(p[0.415344120440365, 0.083367330727013, 0.355421413676779, -1.218, 1.04, -1.028], a = 0.2, v = 0.2, t = 0.2)
movej(p[0.415373695093405, 0.0834114745072353, 0.354791249867468, -1.218, 1.04, -1.028], a = 0.2, v = 0.2, t = 0.2)
movej(p[0.415420993961344, 0.0834820738420184, 0.353783426216714, -1.218, 1.04, -1.028], a = 0.2, v = 0.2, t = 0.2)
movej(p[0.415473674630472, 0.0835607061721019, 0.35266092949326, -1.218, 1.04, -1.028], a = 0.2, v = 0.2, t = 0.2)
movej(p[0.41550082064518, 0.0836012249131172, 0.352082514050402, -1.218, 1.04, -1.028], a = 0.2, v = 0.2, t = 0.2)
movej(p[0.415516216019832, 0.083624204389298, 0.351754476121318, -1.218, 1.04, -1.028], a = 0.2, v = 0.2, t = 0.2)
movej(p[0.415525909154455, 0.0836386725760891, 0.351547939035999, -1.218, 1.04, -1.028], a = 0.2, v = 0.2, t = 0.2)
movej(p[0.415537632857444, 0.083656171634065, 0.351298135485467, -1.218, 1.04, -1.028], a = 0.2, v = 0.2, t = 0.2)
movej(p[0.415539620868989, 0.0836591389839974, 0.35125577580246, -1.218, 1.04, -1.028], a = 0.2, v = 0.2, t = 0.2)
movej(p[0.415533746156916, 0.0836503702590266, 0.351380951605315, -1.218, 1.04, -1.028], a = 0.2, v = 0.2, t = 0.2)
movej(p[0.415527271440418, 0.0836407059542009, 0.351518912040798, -1.218, 1.04, -1.028], a = 0.2, v = 0.2, t = 0.2)
movej(p[0.415525737991852, 0.0836384170950081, 0.351551586094098, -1.218, 1.04, -1.028], a = 0.2, v = 0.2, t = 0.2)
movej(p[0.415518422895033, 0.0836274984199569, 0.35170745298697, -1.218, 1.04, -1.028], a = 0.2, v = 0.2, t = 0.2)
movej(p[0.41549185340835, 0.0835878402174024, 0.352273584022109, -1.218, 1.04, -1.028], a = 0.2, v = 0.2, t = 0.2)
movej(p[0.415458559476125, 0.0835381449589368, 0.352982996610286, -1.218, 1.04, -1.028], a = 0.2, v = 0.2, t = 0.2)
movej(p[0.415421943305836, 0.0834834908545714, 0.353763197998294, -1.218, 1.04, -1.028], a = 0.2, v = 0.2, t = 0.2)
movej(p[0.415390310960301, 0.0834362757170914, 0.354437206221915, -1.218, 1.04, -1.028], a = 0.2, v = 0.2, t = 0.2)
movej(p[0.415360062880626, 0.0833911267654029, 0.355081719112272, -1.218, 1.04, -1.028], a = 0.2, v = 0.2, t = 0.2)
movej(p[0.415333350290784, 0.0833512549639118, 0.355650899327134, -1.218, 1.04, -1.028], a = 0.2, v = 0.2, t = 0.2)
movej(p[0.415316163881878, 0.0833256021504524, 0.356017099833019, -1.218, 1.04, -1.028], a = 0.2, v = 0.2, t = 0.2)
movej(p[0.415304874632599, 0.0833087515676794, 0.356257646233347, -1.218, 1.04, -1.028], a = 0.2, v = 0.2, t = 0.2)
movej(p[0.415317501381999, 0.08332759853267, 0.355988600963717, -1.218, 1.04, -1.028], a = 0.2, v = 0.2, t = 0.2)
movej(p[0.415340248237215, 0.0833615509910826, 0.355503920892799, -1.218, 1.04, -1.028], a = 0.2, v = 0.2, t = 0.2)
movej(p[0.415370271841345, 0.0834063648856156, 0.354864191029457, -1.218, 1.04, -1.028], a = 0.2, v = 0.2, t = 0.2)
movej(p[0.415399528487364, 0.0834500340015345, 0.354240803175085, -1.218, 1.04, -1.028], a = 0.2, v = 0.2, t = 0.2)
movej(p[0.415430955063649, 0.0834969420032887, 0.353571179392895, -1.218, 1.04, -1.028], a = 0.2, v = 0.2, t = 0.2)
movej(p[0.41546793039481, 0.0835521321991027, 0.352783325161662, -1.218, 1.04, -1.028], a = 0.2, v = 0.2, t = 0.2)
movej(p[0.415495636335704, 0.08359348669831, 0.352192979055792, -1.218, 1.04, -1.028], a = 0.2, v = 0.2, t = 0.2)
movej(p[0.415517891636243, 0.0836267054513559, 0.351718772817574, -1.218, 1.04, -1.028], a = 0.2, v = 0.2, t = 0.2)
movej(p[0.415524243358849, 0.0836361861727818, 0.351583433082311, -1.218, 1.04, -1.028], a = 0.2, v = 0.2, t = 0.2)
movej(p[0.415518753996461, 0.0836279926292611, 0.351700398022122, -1.218, 1.04, -1.028], a = 0.2, v = 0.2, t = 0.2)
movej(p[0.415516144468252, 0.0836240975898298, 0.351756000711179, -1.218, 1.04, -1.028], a = 0.2, v = 0.2, t = 0.2)
movej(p[0.415514189660382, 0.0836211798004349, 0.351797652904774, -1.218, 1.04, -1.028], a = 0.2, v = 0.2, t = 0.2)
movej(p[0.41551360508865, 0.0836203072557594, 0.351810108704294, -1.218, 1.04, -1.028], a = 0.2, v = 0.2, t = 0.2)
movej(p[0.415491067276285, 0.0835866668193228, 0.352290334581304, -1.218, 1.04, -1.028], a = 0.2, v = 0.2, t = 0.2)
movej(p[0.415450493789203, 0.0835261059365222, 0.353154856749742, -1.218, 1.04, -1.028], a = 0.2, v = 0.2, t = 0.2)
movej(p[0.415406552701289, 0.0834605184983551, 0.354091134288054, -1.218, 1.04, -1.028], a = 0.2, v = 0.2, t = 0.2)
movej(p[0.415372619481419, 0.0834098690250324, 0.354814168538585, -1.218, 1.04, -1.028], a = 0.2, v = 0.2, t = 0.2)
movej(p[0.415344517949142, 0.0833679240573923, 0.355412943733106, -1.218, 1.04, -1.028], a = 0.2, v = 0.2, t = 0.2)
movej(p[0.41531831510585, 0.0833288131148582, 0.355971262490786, -1.218, 1.04, -1.028], a = 0.2, v = 0.2, t = 0.2)
movej(p[0.415304977517224, 0.0833089051355423, 0.356255454012632, -1.218, 1.04, -1.028], a = 0.2, v = 0.2, t = 0.2)
movej(p[0.41530963538478, 0.0833158575715166, 0.356156206202057, -1.218, 1.04, -1.028], a = 0.2, v = 0.2, t = 0.2)
movej(p[0.41532754198606, 0.0833425853600162, 0.355774660151164, -1.218, 1.04, -1.028], a = 0.2, v = 0.2, t = 0.2)
movej(p[0.415362340372092, 0.0833945261994586, 0.355033191317343, -1.218, 1.04, -1.028], a = 0.2, v = 0.2, t = 0.2)
movej(p[0.415408577657767, 0.083463540993111, 0.354047987398517, -1.218, 1.04, -1.028], a = 0.2, v = 0.2, t = 0.2)
movej(p[0.415453934812243, 0.0835312420835, 0.353081536931448, -1.218, 1.04, -1.028], a = 0.2, v = 0.2, t = 0.2)
movej(p[0.415475303948802, 0.0835631381286214, 0.352626212688838, -1.218, 1.04, -1.028], a = 0.2, v = 0.2, t = 0.2)
movej(p[0.415488804282198, 0.083583289024375, 0.352338553472405, -1.218, 1.04, -1.028], a = 0.2, v = 0.2, t = 0.2)
movej(p[0.415499915316601, 0.0835998735996881, 0.352101804396942, -1.218, 1.04, -1.028], a = 0.2, v = 0.2, t = 0.2)
movej(p[0.415509238103987, 0.0836137889980157, 0.351903158509027, -1.218, 1.04, -1.028], a = 0.2, v = 0.2, t = 0.2)
movej(p[0.415507570905409, 0.0836113005006012, 0.351938682449258, -1.218, 1.04, -1.028], a = 0.2, v = 0.2, t = 0.2)
movej(p[0.415502972664169, 0.0836044370641838, 0.352036659768281, -1.218, 1.04, -1.028], a = 0.2, v = 0.2, t = 0.2)
movej(p[0.415494870733799, 0.0835923439439994, 0.352209292167307, -1.218, 1.04, -1.028], a = 0.2, v = 0.2, t = 0.2)
movej(p[0.415471649206337, 0.0835576829793103, 0.352704086347436, -1.218, 1.04, -1.028], a = 0.2, v = 0.2, t = 0.2)
movej(p[0.41543333543974, 0.0835004950052073, 0.35352045937725, -1.218, 1.04, -1.028], a = 0.2, v = 0.2, t = 0.2)
movej(p[0.415393682770049, 0.0834413085547796, 0.354365361170284, -1.218, 1.04, -1.028], a = 0.2, v = 0.2, t = 0.2)
movej(p[0.41536247131616, 0.0833947216494659, 0.35503040121825, -1.218, 1.04, -1.028], a = 0.2, v = 0.2, t = 0.2)
movej(p[0.415335468778739, 0.0833544170658158, 0.355605759509674, -1.218, 1.04, -1.028], a = 0.2, v = 0.2, t = 0.2)
movej(p[0.415314171661417, 0.0833226285181984, 0.356059549197783, -1.218, 1.04, -1.028], a = 0.2, v = 0.2, t = 0.2)
movej(p[0.415307895699307, 0.0833132608785623, 0.356193274661429, -1.218, 1.04, -1.028], a = 0.2, v = 0.2, t = 0.2)
movej(p[0.415316308855667, 0.083325818541532, 0.356014010794738, -1.218, 1.04, -1.028], a = 0.2, v = 0.2, t = 0.2)
movej(p[0.415330039276497, 0.0833463128708698, 0.355721448975615, -1.218, 1.04, -1.028], a = 0.2, v = 0.2, t = 0.2)
movej(p[0.415362181368581, 0.0833942888673069, 0.355036579294812, -1.218, 1.04, -1.028], a = 0.2, v = 0.2, t = 0.2)
movej(p[0.415409096757465, 0.0834643158127829, 0.354036926648543, -1.218, 1.04, -1.028], a = 0.2, v = 0.2, t = 0.2)
movej(p[0.41546085146497, 0.0835415660321004, 0.352934159911528, -1.218, 1.04, -1.028], a = 0.2, v = 0.2, t = 0.2)
movej(p[0.415492061048229, 0.0835881501452711, 0.35226915972212, -1.218, 1.04, -1.028], a = 0.2, v = 0.2, t = 0.2)
movej(p[0.415508319157225, 0.0836124173577858, 0.351922739025872, -1.218, 1.04, -1.028], a = 0.2, v = 0.2, t = 0.2)
movej(p[0.415519878712473, 0.0836296714052168, 0.351676433063846, -1.218, 1.04, -1.028], a = 0.2, v = 0.2, t = 0.2)
movej(p[0.415522553245059, 0.0836336634716161, 0.351619445289883, -1.218, 1.04, -1.028], a = 0.2, v = 0.2, t = 0.2)
movej(p[0.41552151738395, 0.0836321173224511, 0.351641516966632, -1.218, 1.04, -1.028], a = 0.2, v = 0.2, t = 0.2)
movej(p[0.415518459372309, 0.0836275528667447, 0.35170667574508, -1.218, 1.04, -1.028], a = 0.2, v = 0.2, t = 0.2)
movej(p[0.415520277156565, 0.0836302661316676, 0.351667943190893, -1.218, 1.04, -1.028], a = 0.2, v = 0.2, t = 0.2)
movej(p[0.415503877253849, 0.0836057872747164, 0.352017385165872, -1.218, 1.04, -1.028], a = 0.2, v = 0.2, t = 0.2)
movej(p[0.415475474176091, 0.0835633922136309, 0.352622585560017, -1.218, 1.04, -1.028], a = 0.2, v = 0.2, t = 0.2)
movej(p[0.415438287931449, 0.083507887203698, 0.353414933843717, -1.218, 1.04, -1.028], a = 0.2, v = 0.2, t = 0.2)
movej(p[0.415403653225501, 0.0834561906767647, 0.354152915053672, -1.218, 1.04, -1.028], a = 0.2, v = 0.2, t = 0.2)
movej(p[0.415371052829179, 0.0834075306053021, 0.354847550081298, -1.218, 1.04, -1.028], a = 0.2, v = 0.2, t = 0.2)
movej(p[0.415335136741995, 0.0833539214604401, 0.355612834403801, -1.218, 1.04, -1.028], a = 0.2, v = 0.2, t = 0.2)
movej(p[0.415304411651788, 0.0833080605122964, 0.356267511226567, -1.218, 1.04, -1.028], a = 0.2, v = 0.2, t = 0.2)
movej(p[0.415281669473145, 0.0832741150342412, 0.356752091651089, -1.218, 1.04, -1.028], a = 0.2, v = 0.2, t = 0.2)
movej(p[0.415281819123509, 0.0832743384056782, 0.356748902966412, -1.218, 1.04, -1.028], a = 0.2, v = 0.2, t = 0.2)
movej(p[0.415305169256752, 0.0833091913301959, 0.356251368510389, -1.218, 1.04, -1.028], a = 0.2, v = 0.2, t = 0.2)
movej(p[0.415344901428198, 0.0833684964466995, 0.355404772728621, -1.218, 1.04, -1.028], a = 0.2, v = 0.2, t = 0.2)
movej(p[0.415386686615566, 0.0834308659401033, 0.354514432178938, -1.218, 1.04, -1.028], a = 0.2, v = 0.2, t = 0.2)
movej(p[0.415435266864741, 0.0835033778928151, 0.353479305415636, -1.218, 1.04, -1.028], a = 0.2, v = 0.2, t = 0.2)
movej(p[0.415475859993433, 0.0835639680931168, 0.352614364732334, -1.218, 1.04, -1.028], a = 0.2, v = 0.2, t = 0.2)
movej(p[0.415505919139524, 0.0836088350383661, 0.351973877556381, -1.218, 1.04, -1.028], a = 0.2, v = 0.2, t = 0.2)
movej(p[0.415513087391925, 0.0836195345301948, 0.351821139560348, -1.218, 1.04, -1.028], a = 0.2, v = 0.2, t = 0.2)
movej(p[0.415517630683422, 0.0836263159474127, 0.35172433308648, -1.218, 1.04, -1.028], a = 0.2, v = 0.2, t = 0.2)
movej(p[0.415519438646873, 0.0836290145535851, 0.351685809789725, -1.218, 1.04, -1.028], a = 0.2, v = 0.2, t = 0.2)
movej(p[0.415521911619126, 0.0836327057665803, 0.351633116775436, -1.218, 1.04, -1.028], a = 0.2, v = 0.2, t = 0.2)
movej(p[0.415523652239914, 0.083635303855606, 0.351596028386785, -1.218, 1.04, -1.028], a = 0.2, v = 0.2, t = 0.2)
movej(p[0.41551905470016, 0.0836284414662422, 0.351693990758849, -1.218, 1.04, -1.028], a = 0.2, v = 0.2, t = 0.2)
movej(p[0.415504054028341, 0.0836060511322263, 0.352013618532098, -1.218, 1.04, -1.028], a = 0.2, v = 0.2, t = 0.2)
movej(p[0.415469373117843, 0.0835542856393618, 0.352752584248447, -1.218, 1.04, -1.028], a = 0.2, v = 0.2, t = 0.2)
movej(p[0.415422958122362, 0.083485005592128, 0.353741574730327, -1.218, 1.04, -1.028], a = 0.2, v = 0.2, t = 0.2)
movej(p[0.41538927743748, 0.0834347330581051, 0.354459228075466, -1.218, 1.04, -1.028], a = 0.2, v = 0.2, t = 0.2)
movej(p[0.415360553920881, 0.0833918597029303, 0.355071256240676, -1.218, 1.04, -1.028], a = 0.2, v = 0.2, t = 0.2)
movej(p[0.415329711916327, 0.0833458242458516, 0.355728424223346, -1.218, 1.04, -1.028], a = 0.2, v = 0.2, t = 0.2)
movej(p[0.41529737340814, 0.0832975550744035, 0.356417479052787, -1.218, 1.04, -1.028], a = 0.2, v = 0.2, t = 0.2)
movej(p[0.415282880705773, 0.0832759229468088, 0.356726283234484, -1.218, 1.04, -1.028], a = 0.2, v = 0.2, t = 0.2)
movej(p[0.415289633678415, 0.0832860025829001, 0.35658239383843, -1.218, 1.04, -1.028], a = 0.2, v = 0.2, t = 0.2)
movej(p[0.41530205933514, 0.0833045493925223, 0.356317633363835, -1.218, 1.04, -1.028], a = 0.2, v = 0.2, t = 0.2)
movej(p[0.415327382982549, 0.0833423480278644, 0.355778048128633, -1.218, 1.04, -1.028], a = 0.2, v = 0.2, t = 0.2)
movej(p[0.415364706718461, 0.083398058260305, 0.354982770240886, -1.218, 1.04, -1.028], a = 0.2, v = 0.2, t = 0.2)
movej(p[0.415413675123266, 0.0834711495826813, 0.353939372826703, -1.218, 1.04, -1.028], a = 0.2, v = 0.2, t = 0.2)
