def moving():
set_payload_mass(0)
set_tcp(p[0,0,0,0,0,0])
movej(p[0.421286721293426, 0.220576400473718, 0.311899633301922, -1.405, 0.76, -0.761], a = 0.2, v = 0.2, t = 0.1)
movej(p[0.422959960363433, 0.221714536975409, 0.310948362405635, -1.405, 0.76, -0.761], a = 0.2, v = 0.2, t = 0.1)
movej(p[0.423789940545149, 0.222271805463113, 0.310972543608452, -1.405, 0.76, -0.761], a = 0.2, v = 0.2, t = 0.1)
movej(p[0.424619920726865, 0.222829073950818, 0.310996724811269, -1.405, 0.76, -0.761], a = 0.2, v = 0.2, t = 0.1)
movej(p[0.425449900908582, 0.223386342438522, 0.311020906014086, -1.405, 0.76, -0.761], a = 0.2, v = 0.2, t = 0.1)
movej(p[0.424619920726865, 0.222829073950818, 0.310996724811269, -1.405, 0.76, -0.761], a = 0.2, v = 0.2, t = 0.1)
movej(p[0.423789940545149, 0.222271805463113, 0.310972543608452, -1.405, 0.76, -0.761], a = 0.2, v = 0.2, t = 0.1)
movej(p[0.422959960363433, 0.221714536975409, 0.310948362405635, -1.405, 0.76, -0.761], a = 0.2, v = 0.2, t = 0.1)
movej(p[0.422129980181716, 0.221157268487704, 0.310924181202817, -1.405, 0.76, -0.761], a = 0.2, v = 0.2, t = 0.1)
movej(p[0.421714990090858, 0.220878634243852, 0.310912090601409, -1.405, 0.76, -0.761], a = 0.2, v = 0.2, t = 0.1)
movej(p[0.4213, 0.2206, 0.3109, -1.405, 0.76, -0.761], a = 0.2, v = 0.2, t = 0.1)
movej(p[0.421300008747164, 0.220600029007054, 0.310900147854922, -1.405, 0.76, -0.761], a = 0.2, v = 0.2, t = 0.1)
movej(p[0.421300104161734, 0.220600469000771, 0.31090228228824, -1.405, 0.76, -0.761], a = 0.2, v = 0.2, t = 0.1)
movej(p[0.421299998926904, 0.220601776982225, 0.310907180554785, -1.405, 0.76, -0.761], a = 0.2, v = 0.2, t = 0.1)
movej(p[0.421299688132234, 0.220604445100664, 0.31091351171579, -1.405, 0.76, -0.761], a = 0.2, v = 0.2, t = 0.1)
movej(p[0.421300794433936, 0.220607239934824, 0.310919190445187, -1.405, 0.76, -0.761], a = 0.2, v = 0.2, t = 0.1)
movej(p[0.421303538873657, 0.22060794002982, 0.310922334562648, -1.405, 0.76, -0.761], a = 0.2, v = 0.2, t = 0.1)
movej(p[0.421305674066203, 0.220605479146175, 0.310923170145962, -1.405, 0.76, -0.761], a = 0.2, v = 0.2, t = 0.1)
movej(p[0.421304696715371, 0.220600150649745, 0.310921498805138, -1.405, 0.76, -0.761], a = 0.2, v = 0.2, t = 0.1)
movej(p[0.421299144224281, 0.220592823986781, 0.31091795787101, -1.405, 0.76, -0.761], a = 0.2, v = 0.2, t = 0.1)
movej(p[0.421288605485735, 0.220585036309698, 0.310913771609609, -1.405, 0.76, -0.761], a = 0.2, v = 0.2, t = 0.1)
movej(p[0.421274426636661, 0.220576923227304, 0.31090911215932, -1.405, 0.76, -0.761], a = 0.2, v = 0.2, t = 0.1)
movej(p[0.421258391770074, 0.220568134355532, 0.310903379721747, -1.405, 0.76, -0.761], a = 0.2, v = 0.2, t = 0.1)
movej(p[0.421241825651926, 0.220558822943898, 0.310896618520902, -1.405, 0.76, -0.761], a = 0.2, v = 0.2, t = 0.1)
movej(p[0.421225351227206, 0.220549483837237, 0.310889374707065, -1.405, 0.76, -0.761], a = 0.2, v = 0.2, t = 0.1)
movej(p[0.421209466594256, 0.22054041617676, 0.310881933058355, -1.405, 0.76, -0.761], a = 0.2, v = 0.2, t = 0.1)
movej(p[0.421195796572462, 0.220531388394146, 0.310874478753274, -1.405, 0.76, -0.761], a = 0.2, v = 0.2, t = 0.1)
movej(p[0.421185554121626, 0.220523869184483, 0.310866714449833, -1.405, 0.76, -0.761], a = 0.2, v = 0.2, t = 0.1)
movej(p[0.421180040216693, 0.220519403424532, 0.310859397159252, -1.405, 0.76, -0.761], a = 0.2, v = 0.2, t = 0.1)
movej(p[0.421179797102288, 0.220519073577314, 0.310853259896247, -1.405, 0.76, -0.761], a = 0.2, v = 0.2, t = 0.1)
movej(p[0.421184559991895, 0.22052422976775, 0.310848856210089, -1.405, 0.76, -0.761], a = 0.2, v = 0.2, t = 0.1)
movej(p[0.421194288145893, 0.220535846447892, 0.310847210932219, -1.405, 0.76, -0.761], a = 0.2, v = 0.2, t = 0.1)
movej(p[0.421208334508002, 0.220552231724895, 0.31084836055608, -1.405, 0.76, -0.761], a = 0.2, v = 0.2, t = 0.1)
movej(p[0.421225418092927, 0.220568562082346, 0.310853222575585, -1.405, 0.76, -0.761], a = 0.2, v = 0.2, t = 0.1)
movej(p[0.421243501458422, 0.220581068617452, 0.310860404481184, -1.405, 0.76, -0.761], a = 0.2, v = 0.2, t = 0.1)
movej(p[0.421261211542486, 0.220588791460498, 0.310867446485921, -1.405, 0.76, -0.761], a = 0.2, v = 0.2, t = 0.1)
movej(p[0.421277848374292, 0.22059222716661, 0.310873407668519, -1.405, 0.76, -0.761], a = 0.2, v = 0.2, t = 0.1)
movej(p[0.421292289277822, 0.220591963735082, 0.310876804453775, -1.405, 0.76, -0.761], a = 0.2, v = 0.2, t = 0.1)
movej(p[0.421303585073719, 0.220589309549389, 0.310876713776558, -1.405, 0.76, -0.761], a = 0.2, v = 0.2, t = 0.1)
movej(p[0.421309655740723, 0.220585525821783, 0.310873488910433, -1.405, 0.76, -0.761], a = 0.2, v = 0.2, t = 0.1)
movej(p[0.421307956408285, 0.220581586702746, 0.310869045754856, -1.405, 0.76, -0.761], a = 0.2, v = 0.2, t = 0.1)
movej(p[0.421298320183414, 0.220578572442395, 0.310864067837745, -1.405, 0.76, -0.761], a = 0.2, v = 0.2, t = 0.1)
movej(p[0.421283663822947, 0.220575717896761, 0.310856303006961, -1.405, 0.76, -0.761], a = 0.2, v = 0.2, t = 0.1)
movej(p[0.421266701381543, 0.220572004398592, 0.31084484392886, -1.405, 0.76, -0.761], a = 0.2, v = 0.2, t = 0.1)
movej(p[0.421247917177724, 0.220567952309662, 0.310831263891776, -1.405, 0.76, -0.761], a = 0.2, v = 0.2, t = 0.1)
movej(p[0.42122762029405, 0.220564556315964, 0.310817513189215, -1.405, 0.76, -0.761], a = 0.2, v = 0.2, t = 0.1)
movej(p[0.42120776727808, 0.220561923048064, 0.310805605056277, -1.405, 0.76, -0.761], a = 0.2, v = 0.2, t = 0.1)
movej(p[0.421190588148466, 0.220559577778366, 0.31079780073057, -1.405, 0.76, -0.761], a = 0.2, v = 0.2, t = 0.1)
movej(p[0.42117758111028, 0.220557740878479, 0.310796032015375, -1.405, 0.76, -0.761], a = 0.2, v = 0.2, t = 0.1)
movej(p[0.421170311744997, 0.220557489363401, 0.310799240728599, -1.405, 0.76, -0.761], a = 0.2, v = 0.2, t = 0.1)
movej(p[0.421169277557347, 0.220559212342763, 0.31080582407152, -1.405, 0.76, -0.761], a = 0.2, v = 0.2, t = 0.1)
movej(p[0.421175447470437, 0.220564033695157, 0.310813032424908, -1.405, 0.76, -0.761], a = 0.2, v = 0.2, t = 0.1)
movej(p[0.421189408680321, 0.220570688866684, 0.310819308171917, -1.405, 0.76, -0.761], a = 0.2, v = 0.2, t = 0.1)
movej(p[0.42121060511269, 0.22057643127287, 0.310824780157755, -1.405, 0.76, -0.761], a = 0.2, v = 0.2, t = 0.1)
movej(p[0.421236828119517, 0.220579725260859, 0.310829609872972, -1.405, 0.76, -0.761], a = 0.2, v = 0.2, t = 0.1)
movej(p[0.421264910321086, 0.220580524029979, 0.310835159653953, -1.405, 0.76, -0.761], a = 0.2, v = 0.2, t = 0.1)
movej(p[0.421292824030725, 0.220579481996025, 0.310841440023405, -1.405, 0.76, -0.761], a = 0.2, v = 0.2, t = 0.1)
movej(p[0.421319552418013, 0.220577271501094, 0.310846394592014, -1.405, 0.76, -0.761], a = 0.2, v = 0.2, t = 0.1)
movej(p[0.421344720846957, 0.220576141935748, 0.310848883051503, -1.405, 0.76, -0.761], a = 0.2, v = 0.2, t = 0.1)
movej(p[0.421367791631365, 0.220577639750522, 0.310847643294783, -1.405, 0.76, -0.761], a = 0.2, v = 0.2, t = 0.1)
movej(p[0.4213870785956, 0.220581109195399, 0.310843085606682, -1.405, 0.76, -0.761], a = 0.2, v = 0.2, t = 0.1)
movej(p[0.421401055887184, 0.220584848018316, 0.31083496346311, -1.405, 0.76, -0.761], a = 0.2, v = 0.2, t = 0.1)
movej(p[0.421409231459393, 0.220588346276974, 0.310824168622935, -1.405, 0.76, -0.761], a = 0.2, v = 0.2, t = 0.1)
movej(p[0.421412169918621, 0.220590944650348, 0.310812512688045, -1.405, 0.76, -0.761], a = 0.2, v = 0.2, t = 0.1)
movej(p[0.42140997200636, 0.220590924515033, 0.310800703697094, -1.405, 0.76, -0.761], a = 0.2, v = 0.2, t = 0.1)
movej(p[0.42140257898301, 0.220586824123681, 0.310786894696279, -1.405, 0.76, -0.761], a = 0.2, v = 0.2, t = 0.1)
movej(p[0.42139073543596, 0.220579337770369, 0.310770014564989, -1.405, 0.76, -0.761], a = 0.2, v = 0.2, t = 0.1)
movej(p[0.421376518848749, 0.220569659811576, 0.310750979411702, -1.405, 0.76, -0.761], a = 0.2, v = 0.2, t = 0.1)
movej(p[0.421362564568435, 0.220558648561734, 0.310729392340691, -1.405, 0.76, -0.761], a = 0.2, v = 0.2, t = 0.1)
movej(p[0.42134970845303, 0.220548009629959, 0.31070594695698, -1.405, 0.76, -0.761], a = 0.2, v = 0.2, t = 0.1)
movej(p[0.42133726712382, 0.220539369134296, 0.310683207502101, -1.405, 0.76, -0.761], a = 0.2, v = 0.2, t = 0.1)
movej(p[0.421325787532173, 0.220534227202059, 0.310664940022157, -1.405, 0.76, -0.761], a = 0.2, v = 0.2, t = 0.1)
movej(p[0.421316977065712, 0.220532950090339, 0.310653286618046, -1.405, 0.76, -0.761], a = 0.2, v = 0.2, t = 0.1)
movej(p[0.421312814876279, 0.220535490887044, 0.310646571848859, -1.405, 0.76, -0.761], a = 0.2, v = 0.2, t = 0.1)
movej(p[0.42131423890443, 0.2205406151717, 0.310643531573939, -1.405, 0.76, -0.761], a = 0.2, v = 0.2, t = 0.1)
movej(p[0.421321182620689, 0.220547875546636, 0.310643857238339, -1.405, 0.76, -0.761], a = 0.2, v = 0.2, t = 0.1)
movej(p[0.421332363640379, 0.220557318017666, 0.310646048349138, -1.405, 0.76, -0.761], a = 0.2, v = 0.2, t = 0.1)
movej(p[0.421346340883751, 0.220568074835506, 0.310648187589112, -1.405, 0.76, -0.761], a = 0.2, v = 0.2, t = 0.1)
movej(p[0.421360709791419, 0.220579385665587, 0.310650128031409, -1.405, 0.76, -0.761], a = 0.2, v = 0.2, t = 0.1)
movej(p[0.421373799277967, 0.220590057153231, 0.310653233823801, -1.405, 0.76, -0.761], a = 0.2, v = 0.2, t = 0.1)
movej(p[0.421385078617839, 0.220599612738901, 0.31065812790079, -1.405, 0.76, -0.761], a = 0.2, v = 0.2, t = 0.1)
movej(p[0.421394272438966, 0.220607796434022, 0.310662833839829, -1.405, 0.76, -0.761], a = 0.2, v = 0.2, t = 0.1)
movej(p[0.421401887890098, 0.220614543768329, 0.310665408141055, -1.405, 0.76, -0.761], a = 0.2, v = 0.2, t = 0.1)
movej(p[0.421408641044512, 0.220621305448869, 0.310666935946912, -1.405, 0.76, -0.761], a = 0.2, v = 0.2, t = 0.1)
movej(p[0.421415756360227, 0.220627759563926, 0.310666677648442, -1.405, 0.76, -0.761], a = 0.2, v = 0.2, t = 0.1)
movej(p[0.42142306866793, 0.220632515041983, 0.310662949606394, -1.405, 0.76, -0.761], a = 0.2, v = 0.2, t = 0.1)
movej(p[0.421429096614259, 0.22063353190021, 0.310655433891099, -1.405, 0.76, -0.761], a = 0.2, v = 0.2, t = 0.1)
movej(p[0.421432269216276, 0.220629783982728, 0.310647303588706, -1.405, 0.76, -0.761], a = 0.2, v = 0.2, t = 0.1)
movej(p[0.421429967398329, 0.220622364878924, 0.31064018632632, -1.405, 0.76, -0.761], a = 0.2, v = 0.2, t = 0.1)
movej(p[0.421421279928954, 0.220613519857309, 0.31063156306751, -1.405, 0.76, -0.761], a = 0.2, v = 0.2, t = 0.1)
movej(p[0.421407656070941, 0.220604335925712, 0.310618885775124, -1.405, 0.76, -0.761], a = 0.2, v = 0.2, t = 0.1)
movej(p[0.421390899023298, 0.220594688405391, 0.310602975752121, -1.405, 0.76, -0.761], a = 0.2, v = 0.2, t = 0.1)
movej(p[0.421372376383799, 0.220585082084116, 0.310587332354391, -1.405, 0.76, -0.761], a = 0.2, v = 0.2, t = 0.1)
movej(p[0.421352538085092, 0.220575495774712, 0.310575031184267, -1.405, 0.76, -0.761], a = 0.2, v = 0.2, t = 0.1)
movej(p[0.42133242830089, 0.220566457290284, 0.310566825839508, -1.405, 0.76, -0.761], a = 0.2, v = 0.2, t = 0.1)
movej(p[0.421313298982093, 0.220558007092754, 0.310561366404274, -1.405, 0.76, -0.761], a = 0.2, v = 0.2, t = 0.1)
movej(p[0.421295841409878, 0.220550017366768, 0.31055689439667, -1.405, 0.76, -0.761], a = 0.2, v = 0.2, t = 0.1)
movej(p[0.421280593697833, 0.220542159728077, 0.310552804990648, -1.405, 0.76, -0.761], a = 0.2, v = 0.2, t = 0.1)
movej(p[0.421267871200451, 0.220534226840212, 0.31054950362934, -1.405, 0.76, -0.761], a = 0.2, v = 0.2, t = 0.1)
movej(p[0.421259595751709, 0.220527674370584, 0.310548260651107, -1.405, 0.76, -0.761], a = 0.2, v = 0.2, t = 0.1)
movej(p[0.421258934249823, 0.220523445575762, 0.310550394852271, -1.405, 0.76, -0.761], a = 0.2, v = 0.2, t = 0.1)
movej(p[0.4212666438084, 0.22052160277409, 0.310556190861376, -1.405, 0.76, -0.761], a = 0.2, v = 0.2, t = 0.1)
movej(p[0.421280692554234, 0.220522221917743, 0.310564329006288, -1.405, 0.76, -0.761], a = 0.2, v = 0.2, t = 0.1)
movej(p[0.421299141132413, 0.220525648308189, 0.310573246110621, -1.405, 0.76, -0.761], a = 0.2, v = 0.2, t = 0.1)
movej(p[0.421320908667571, 0.220531258806201, 0.310580765317707, -1.405, 0.76, -0.761], a = 0.2, v = 0.2, t = 0.1)
movej(p[0.421344717907516, 0.220537237621177, 0.310585562329875, -1.405, 0.76, -0.761], a = 0.2, v = 0.2, t = 0.1)
movej(p[0.421369112019292, 0.220542383113719, 0.310588537774403, -1.405, 0.76, -0.761], a = 0.2, v = 0.2, t = 0.1)
movej(p[0.421392437616337, 0.220546237140239, 0.310589467802402, -1.405, 0.76, -0.761], a = 0.2, v = 0.2, t = 0.1)
movej(p[0.421412784283216, 0.220548600994935, 0.31058774613434, -1.405, 0.76, -0.761], a = 0.2, v = 0.2, t = 0.1)
movej(p[0.421427991239397, 0.220549566089891, 0.310583061120847, -1.405, 0.76, -0.761], a = 0.2, v = 0.2, t = 0.1)
movej(p[0.421436321810113, 0.220549815707372, 0.310576762321148, -1.405, 0.76, -0.761], a = 0.2, v = 0.2, t = 0.1)
movej(p[0.42143757196826, 0.220549370769067, 0.310569084605894, -1.405, 0.76, -0.761], a = 0.2, v = 0.2, t = 0.1)
movej(p[0.42143228564247, 0.220547970333629, 0.310559116705502, -1.405, 0.76, -0.761], a = 0.2, v = 0.2, t = 0.1)
movej(p[0.421421497458029, 0.220546349379161, 0.310547507941698, -1.405, 0.76, -0.761], a = 0.2, v = 0.2, t = 0.1)
movej(p[0.421406699330143, 0.220544845038363, 0.310536237807233, -1.405, 0.76, -0.761], a = 0.2, v = 0.2, t = 0.1)
movej(p[0.421388706140149, 0.220543497285497, 0.310525653193256, -1.405, 0.76, -0.761], a = 0.2, v = 0.2, t = 0.1)
movej(p[0.421367382920287, 0.220541723469858, 0.31051553547712, -1.405, 0.76, -0.761], a = 0.2, v = 0.2, t = 0.1)
movej(p[0.421343022944545, 0.220539004495975, 0.310505424133844, -1.405, 0.76, -0.761], a = 0.2, v = 0.2, t = 0.1)
movej(p[0.421317113540832, 0.220535150053075, 0.310495757582743, -1.405, 0.76, -0.761], a = 0.2, v = 0.2, t = 0.1)
movej(p[0.421292974180386, 0.22052962164332, 0.310486618224022, -1.405, 0.76, -0.761], a = 0.2, v = 0.2, t = 0.1)
movej(p[0.421273355096961, 0.220523431909822, 0.310479165900439, -1.405, 0.76, -0.761], a = 0.2, v = 0.2, t = 0.1)
movej(p[0.421259178332839, 0.220517594956184, 0.310475079403496, -1.405, 0.76, -0.761], a = 0.2, v = 0.2, t = 0.1)
movej(p[0.421249691587498, 0.220512155587894, 0.310475286141084, -1.405, 0.76, -0.761], a = 0.2, v = 0.2, t = 0.1)
movej(p[0.421244186568295, 0.220508677201271, 0.310480804977019, -1.405, 0.76, -0.761], a = 0.2, v = 0.2, t = 0.1)
movej(p[0.421243771173027, 0.22050764158638, 0.310490890719509, -1.405, 0.76, -0.761], a = 0.2, v = 0.2, t = 0.1)
movej(p[0.42125018825739, 0.220508096295593, 0.310503361233925, -1.405, 0.76, -0.761], a = 0.2, v = 0.2, t = 0.1)
movej(p[0.421263306617552, 0.220509875672178, 0.310515371825486, -1.405, 0.76, -0.761], a = 0.2, v = 0.2, t = 0.1)
movej(p[0.421281397058781, 0.220513634976305, 0.310525435451255, -1.405, 0.76, -0.761], a = 0.2, v = 0.2, t = 0.1)
movej(p[0.421302405484702, 0.22051913606429, 0.310532913981412, -1.405, 0.76, -0.761], a = 0.2, v = 0.2, t = 0.1)
movej(p[0.421323750728002, 0.220524764733604, 0.310537843060048, -1.405, 0.76, -0.761], a = 0.2, v = 0.2, t = 0.1)
movej(p[0.42134317295023, 0.220529880561542, 0.310541567058737, -1.405, 0.76, -0.761], a = 0.2, v = 0.2, t = 0.1)
movej(p[0.421359510875033, 0.220534460796554, 0.31054468624042, -1.405, 0.76, -0.761], a = 0.2, v = 0.2, t = 0.1)
movej(p[0.421371860845506, 0.220537708723136, 0.310545753272862, -1.405, 0.76, -0.761], a = 0.2, v = 0.2, t = 0.1)
movej(p[0.421378956489252, 0.220538080823373, 0.310543040280373, -1.405, 0.76, -0.761], a = 0.2, v = 0.2, t = 0.1)
movej(p[0.421380180462126, 0.220535796457674, 0.310537669653803, -1.405, 0.76, -0.761], a = 0.2, v = 0.2, t = 0.1)
movej(p[0.421375213949028, 0.220532472817234, 0.310532263286089, -1.405, 0.76, -0.761], a = 0.2, v = 0.2, t = 0.1)
movej(p[0.421363672630892, 0.220529192796603, 0.310528207137997, -1.405, 0.76, -0.761], a = 0.2, v = 0.2, t = 0.1)
movej(p[0.421345663479344, 0.220525964405478, 0.310526814300506, -1.405, 0.76, -0.761], a = 0.2, v = 0.2, t = 0.1)
movej(p[0.421323214444393, 0.220522385729452, 0.310528449350869, -1.405, 0.76, -0.761], a = 0.2, v = 0.2, t = 0.1)
movej(p[0.421298140544758, 0.220518896468651, 0.310532059380802, -1.405, 0.76, -0.761], a = 0.2, v = 0.2, t = 0.1)
movej(p[0.421271524997037, 0.220515490795063, 0.31053533679029, -1.405, 0.76, -0.761], a = 0.2, v = 0.2, t = 0.1)
movej(p[0.421245260238373, 0.220511186467294, 0.31053520840109, -1.405, 0.76, -0.761], a = 0.2, v = 0.2, t = 0.1)
movej(p[0.421220992098923, 0.220505371902689, 0.310531459555922, -1.405, 0.76, -0.761], a = 0.2, v = 0.2, t = 0.1)
movej(p[0.421199685724047, 0.220499450738859, 0.310527305374831, -1.405, 0.76, -0.761], a = 0.2, v = 0.2, t = 0.1)
movej(p[0.421182668134954, 0.220495572156684, 0.310524976016385, -1.405, 0.76, -0.761], a = 0.2, v = 0.2, t = 0.1)
movej(p[0.421172526417127, 0.220494224468404, 0.310524746458507, -1.405, 0.76, -0.761], a = 0.2, v = 0.2, t = 0.1)
movej(p[0.421170960612141, 0.220494160827663, 0.31052627872663, -1.405, 0.76, -0.761], a = 0.2, v = 0.2, t = 0.1)
movej(p[0.42117709394771, 0.220494240161781, 0.310528273773221, -1.405, 0.76, -0.761], a = 0.2, v = 0.2, t = 0.1)
movej(p[0.42118971710207, 0.220495323843476, 0.310529230317521, -1.405, 0.76, -0.761], a = 0.2, v = 0.2, t = 0.1)
movej(p[0.421206872455629, 0.220499292594117, 0.310529260790237, -1.405, 0.76, -0.761], a = 0.2, v = 0.2, t = 0.1)
movej(p[0.421226596097366, 0.220506513106262, 0.310530129413877, -1.405, 0.76, -0.761], a = 0.2, v = 0.2, t = 0.1)
movej(p[0.421248087389515, 0.220515564621325, 0.310533211532113, -1.405, 0.76, -0.761], a = 0.2, v = 0.2, t = 0.1)
movej(p[0.421271318458912, 0.220524538251109, 0.310537262269477, -1.405, 0.76, -0.761], a = 0.2, v = 0.2, t = 0.1)
movej(p[0.421295967889424, 0.220533748767111, 0.310540518139768, -1.405, 0.76, -0.761], a = 0.2, v = 0.2, t = 0.1)
movej(p[0.421321318508573, 0.220544610774497, 0.310542976002723, -1.405, 0.76, -0.761], a = 0.2, v = 0.2, t = 0.1)
movej(p[0.421346474686851, 0.220556638815857, 0.310545168704371, -1.405, 0.76, -0.761], a = 0.2, v = 0.2, t = 0.1)
movej(p[0.421369706839587, 0.220567722025664, 0.310548288899981, -1.405, 0.76, -0.761], a = 0.2, v = 0.2, t = 0.1)
movej(p[0.421389530669565, 0.220575726394721, 0.310551805323586, -1.405, 0.76, -0.761], a = 0.2, v = 0.2, t = 0.1)
movej(p[0.42140450443624, 0.220580192109265, 0.310553148036958, -1.405, 0.76, -0.761], a = 0.2, v = 0.2, t = 0.1)
movej(p[0.421414826080499, 0.220581069511788, 0.310551299123335, -1.405, 0.76, -0.761], a = 0.2, v = 0.2, t = 0.1)
movej(p[0.42142054737096, 0.220577691564807, 0.310547613025038, -1.405, 0.76, -0.761], a = 0.2, v = 0.2, t = 0.1)
movej(p[0.421421829448183, 0.220570546354065, 0.310543299844141, -1.405, 0.76, -0.761], a = 0.2, v = 0.2, t = 0.1)
movej(p[0.421419463040867, 0.220560544906653, 0.310536044731456, -1.405, 0.76, -0.761], a = 0.2, v = 0.2, t = 0.1)
movej(p[0.421413997852662, 0.220548803716654, 0.310526491571178, -1.405, 0.76, -0.761], a = 0.2, v = 0.2, t = 0.1)
movej(p[0.421405275997283, 0.220537181245586, 0.310517220071567, -1.405, 0.76, -0.761], a = 0.2, v = 0.2, t = 0.1)
movej(p[0.421393370615845, 0.220527294363494, 0.310509853956627, -1.405, 0.76, -0.761], a = 0.2, v = 0.2, t = 0.1)
movej(p[0.421380072817918, 0.220519065333562, 0.310503761943932, -1.405, 0.76, -0.761], a = 0.2, v = 0.2, t = 0.1)
movej(p[0.421367162238472, 0.220511128531, 0.310497618950732, -1.405, 0.76, -0.761], a = 0.2, v = 0.2, t = 0.1)
movej(p[0.421355517997293, 0.220502436335318, 0.310493209581662, -1.405, 0.76, -0.761], a = 0.2, v = 0.2, t = 0.1)
movej(p[0.421345960054833, 0.220494065796127, 0.310492280783201, -1.405, 0.76, -0.761], a = 0.2, v = 0.2, t = 0.1)
movej(p[0.421339013925072, 0.220486882073796, 0.310495978371036, -1.405, 0.76, -0.761], a = 0.2, v = 0.2, t = 0.1)
movej(p[0.421335095891705, 0.220482024967294, 0.310503736564123, -1.405, 0.76, -0.761], a = 0.2, v = 0.2, t = 0.1)
movej(p[0.421335426689786, 0.220481391271924, 0.310515505317362, -1.405, 0.76, -0.761], a = 0.2, v = 0.2, t = 0.1)
movej(p[0.421340643105979, 0.220486513563084, 0.310529730684682, -1.405, 0.76, -0.761], a = 0.2, v = 0.2, t = 0.1)
movej(p[0.42135055879601, 0.220496924767356, 0.310544177349273, -1.405, 0.76, -0.761], a = 0.2, v = 0.2, t = 0.1)
movej(p[0.421364512895858, 0.220510143567294, 0.310557119344892, -1.405, 0.76, -0.761], a = 0.2, v = 0.2, t = 0.1)
movej(p[0.421381488391177, 0.220524093881841, 0.310568558172924, -1.405, 0.76, -0.761], a = 0.2, v = 0.2, t = 0.1)
movej(p[0.421399965980204, 0.220538431352741, 0.310580102122072, -1.405, 0.76, -0.761], a = 0.2, v = 0.2, t = 0.1)
movej(p[0.421418170032223, 0.220552394945537, 0.310592612970217, -1.405, 0.76, -0.761], a = 0.2, v = 0.2, t = 0.1)
movej(p[0.421435752609372, 0.220565238670292, 0.310605036105459, -1.405, 0.76, -0.761], a = 0.2, v = 0.2, t = 0.1)
movej(p[0.421453082208582, 0.220575894474886, 0.310615235432136, -1.405, 0.76, -0.761], a = 0.2, v = 0.2, t = 0.1)
movej(p[0.421469841321309, 0.220584771879314, 0.310622065978764, -1.405, 0.76, -0.761], a = 0.2, v = 0.2, t = 0.1)
movej(p[0.421484905644129, 0.220592178112808, 0.310626352368899, -1.405, 0.76, -0.761], a = 0.2, v = 0.2, t = 0.1)
movej(p[0.421495164279469, 0.22059737811134, 0.31062861613793, -1.405, 0.76, -0.761], a = 0.2, v = 0.2, t = 0.1)
movej(p[0.421497050289322, 0.220599505654685, 0.310626880754354, -1.405, 0.76, -0.761], a = 0.2, v = 0.2, t = 0.1)
movej(p[0.421490030667254, 0.220598237381002, 0.310619847032942, -1.405, 0.76, -0.761], a = 0.2, v = 0.2, t = 0.1)
movej(p[0.421476089773756, 0.220594479915401, 0.310609160322704, -1.405, 0.76, -0.761], a = 0.2, v = 0.2, t = 0.1)
movej(p[0.421456958386853, 0.220588803960198, 0.31059723796087, -1.405, 0.76, -0.761], a = 0.2, v = 0.2, t = 0.1)
movej(p[0.421433394451396, 0.220581132667685, 0.310584772452338, -1.405, 0.76, -0.761], a = 0.2, v = 0.2, t = 0.1)
movej(p[0.421406844317096, 0.220571922563367, 0.31057222494565, -1.405, 0.76, -0.761], a = 0.2, v = 0.2, t = 0.1)
movej(p[0.421377795110893, 0.220561784341985, 0.310560396615116, -1.405, 0.76, -0.761], a = 0.2, v = 0.2, t = 0.1)
movej(p[0.421346884752884, 0.220551111450241, 0.310549547311934, -1.405, 0.76, -0.761], a = 0.2, v = 0.2, t = 0.1)
movej(p[0.421316101428368, 0.220540728778719, 0.310539104693783, -1.405, 0.76, -0.761], a = 0.2, v = 0.2, t = 0.1)
movej(p[0.421287302875426, 0.220531313776135, 0.310527645894728, -1.405, 0.76, -0.761], a = 0.2, v = 0.2, t = 0.1)
movej(p[0.42126205755474, 0.220523929067415, 0.310516537320402, -1.405, 0.76, -0.761], a = 0.2, v = 0.2, t = 0.1)
movej(p[0.421241845712801, 0.220518164841318, 0.310507631634581, -1.405, 0.76, -0.761], a = 0.2, v = 0.2, t = 0.1)
movej(p[0.421228215958367, 0.220513854298127, 0.310502816156467, -1.405, 0.76, -0.761], a = 0.2, v = 0.2, t = 0.1)
movej(p[0.421221693470405, 0.220511004360916, 0.310501935966331, -1.405, 0.76, -0.761], a = 0.2, v = 0.2, t = 0.1)
movej(p[0.421220750237247, 0.220510163721205, 0.310502817926129, -1.405, 0.76, -0.761], a = 0.2, v = 0.2, t = 0.1)
movej(p[0.421224149599482, 0.220511079021105, 0.310504287204688, -1.405, 0.76, -0.761], a = 0.2, v = 0.2, t = 0.1)
movej(p[0.421231298718727, 0.220512869656091, 0.310505548856527, -1.405, 0.76, -0.761], a = 0.2, v = 0.2, t = 0.1)
movej(p[0.421241171455567, 0.220515385150152, 0.310505756394275, -1.405, 0.76, -0.761], a = 0.2, v = 0.2, t = 0.1)
movej(p[0.421253193923521, 0.220520082238849, 0.31050629608407, -1.405, 0.76, -0.761], a = 0.2, v = 0.2, t = 0.1)
movej(p[0.421267197296361, 0.220528088463643, 0.310508316714823, -1.405, 0.76, -0.761], a = 0.2, v = 0.2, t = 0.1)
movej(p[0.421283479757345, 0.220538730783218, 0.310512958780782, -1.405, 0.76, -0.761], a = 0.2, v = 0.2, t = 0.1)
movej(p[0.421301471321995, 0.220551465225404, 0.310520686045866, -1.405, 0.76, -0.761], a = 0.2, v = 0.2, t = 0.1)
movej(p[0.421319946639262, 0.220565530439968, 0.310531221169794, -1.405, 0.76, -0.761], a = 0.2, v = 0.2, t = 0.1)
movej(p[0.42133732553731, 0.220580302009656, 0.310543177925648, -1.405, 0.76, -0.761], a = 0.2, v = 0.2, t = 0.1)
movej(p[0.421353210671554, 0.220594463660323, 0.310554253129187, -1.405, 0.76, -0.761], a = 0.2, v = 0.2, t = 0.1)
movej(p[0.421366658686764, 0.220606702460787, 0.310563107778311, -1.405, 0.76, -0.761], a = 0.2, v = 0.2, t = 0.1)
movej(p[0.421376264023017, 0.220615310722968, 0.310569461805672, -1.405, 0.76, -0.761], a = 0.2, v = 0.2, t = 0.1)
movej(p[0.421380427271085, 0.220618883529858, 0.310573248793453, -1.405, 0.76, -0.761], a = 0.2, v = 0.2, t = 0.1)
movej(p[0.421378662430708, 0.220618361058068, 0.310573701194463, -1.405, 0.76, -0.761], a = 0.2, v = 0.2, t = 0.1)
movej(p[0.421372154562125, 0.220615112769203, 0.31057132624942, -1.405, 0.76, -0.761], a = 0.2, v = 0.2, t = 0.1)
movej(p[0.421362085136155, 0.22061056680806, 0.310568214116724, -1.405, 0.76, -0.761], a = 0.2, v = 0.2, t = 0.1)
movej(p[0.421349144889649, 0.220605651154689, 0.310566166529051, -1.405, 0.76, -0.761], a = 0.2, v = 0.2, t = 0.1)
movej(p[0.421334854191779, 0.220600513191099, 0.310565059107471, -1.405, 0.76, -0.761], a = 0.2, v = 0.2, t = 0.1)
movej(p[0.42132053724046, 0.220595164892699, 0.310563290130886, -1.405, 0.76, -0.761], a = 0.2, v = 0.2, t = 0.1)
movej(p[0.421306861560451, 0.220589101820026, 0.310559622104843, -1.405, 0.76, -0.761], a = 0.2, v = 0.2, t = 0.1)
movej(p[0.42129365904552, 0.220582291284483, 0.310554251097571, -1.405, 0.76, -0.761], a = 0.2, v = 0.2, t = 0.1)
movej(p[0.421281448919375, 0.220574875629723, 0.310547455465004, -1.405, 0.76, -0.761], a = 0.2, v = 0.2, t = 0.1)
movej(p[0.421271234759959, 0.220567422551254, 0.310540256305138, -1.405, 0.76, -0.761], a = 0.2, v = 0.2, t = 0.1)
movej(p[0.421264186500526, 0.220560964508705, 0.310534168074082, -1.405, 0.76, -0.761], a = 0.2, v = 0.2, t = 0.1)
movej(p[0.421261949895761, 0.220556483845423, 0.31052996109064, -1.405, 0.76, -0.761], a = 0.2, v = 0.2, t = 0.1)
movej(p[0.421265385794303, 0.220554476143465, 0.310528021622914, -1.405, 0.76, -0.761], a = 0.2, v = 0.2, t = 0.1)
movej(p[0.421274390390437, 0.220555404975545, 0.310527722002431, -1.405, 0.76, -0.761], a = 0.2, v = 0.2, t = 0.1)
movej(p[0.421287608917714, 0.220559185434633, 0.310530457747612, -1.405, 0.76, -0.761], a = 0.2, v = 0.2, t = 0.1)
movej(p[0.421303899718572, 0.220565327682212, 0.3105380287988, -1.405, 0.76, -0.761], a = 0.2, v = 0.2, t = 0.1)
movej(p[0.421322149739417, 0.22057339989826, 0.310550495207354, -1.405, 0.76, -0.761], a = 0.2, v = 0.2, t = 0.1)
movej(p[0.421341302202157, 0.22058379986378, 0.310566096682578, -1.405, 0.76, -0.761], a = 0.2, v = 0.2, t = 0.1)
movej(p[0.421360132383219, 0.220597076314809, 0.310582256966927, -1.405, 0.76, -0.761], a = 0.2, v = 0.2, t = 0.1)
movej(p[0.421378479204509, 0.220612194422455, 0.310597916111341, -1.405, 0.76, -0.761], a = 0.2, v = 0.2, t = 0.1)
movej(p[0.421395909995905, 0.220626564845743, 0.310611422657712, -1.405, 0.76, -0.761], a = 0.2, v = 0.2, t = 0.1)
movej(p[0.421410014771467, 0.220638127311432, 0.310622212776316, -1.405, 0.76, -0.761], a = 0.2, v = 0.2, t = 0.1)
movej(p[0.421419278835529, 0.220645748580938, 0.310631265969243, -1.405, 0.76, -0.761], a = 0.2, v = 0.2, t = 0.1)
movej(p[0.421423301412217, 0.22064927386654, 0.310638991411834, -1.405, 0.76, -0.761], a = 0.2, v = 0.2, t = 0.1)
movej(p[0.421423093950401, 0.220649759199545, 0.310645431472196, -1.405, 0.76, -0.761], a = 0.2, v = 0.2, t = 0.1)
movej(p[0.421419725766145, 0.220647653449701, 0.310651138144993, -1.405, 0.76, -0.761], a = 0.2, v = 0.2, t = 0.1)
movej(p[0.421413382962778, 0.220643193460253, 0.310655307195913, -1.405, 0.76, -0.761], a = 0.2, v = 0.2, t = 0.1)
movej(p[0.42140427584275, 0.220636897348455, 0.310656645170515, -1.405, 0.76, -0.761], a = 0.2, v = 0.2, t = 0.1)
movej(p[0.421392561237503, 0.22063003959257, 0.310653481615849, -1.405, 0.76, -0.761], a = 0.2, v = 0.2, t = 0.1)
movej(p[0.42137773968244, 0.220623558336093, 0.310645309853617, -1.405, 0.76, -0.761], a = 0.2, v = 0.2, t = 0.1)
movej(p[0.421360344449535, 0.22061769298889, 0.310633907266701, -1.405, 0.76, -0.761], a = 0.2, v = 0.2, t = 0.1)
movej(p[0.421341265578153, 0.220613659628942, 0.31062107703376, -1.405, 0.76, -0.761], a = 0.2, v = 0.2, t = 0.1)
movej(p[0.421321708642909, 0.220612508299953, 0.310608028387223, -1.405, 0.76, -0.761], a = 0.2, v = 0.2, t = 0.1)
movej(p[0.421303348589306, 0.220614697947379, 0.310595260582171, -1.405, 0.76, -0.761], a = 0.2, v = 0.2, t = 0.1)
movej(p[0.421288384914485, 0.220619349229334, 0.310584034535405, -1.405, 0.76, -0.761], a = 0.2, v = 0.2, t = 0.1)
movej(p[0.421279412605812, 0.22062479691257, 0.310575350773176, -1.405, 0.76, -0.761], a = 0.2, v = 0.2, t = 0.1)
movej(p[0.421277266309103, 0.22063072782058, 0.310568910878254, -1.405, 0.76, -0.761], a = 0.2, v = 0.2, t = 0.1)
movej(p[0.421280489590222, 0.22063705355354, 0.310561368197673, -1.405, 0.76, -0.761], a = 0.2, v = 0.2, t = 0.1)
movej(p[0.421287478590164, 0.220644009147373, 0.310552275817113, -1.405, 0.76, -0.761], a = 0.2, v = 0.2, t = 0.1)
movej(p[0.421297398838406, 0.220650802217133, 0.310544369959344, -1.405, 0.76, -0.761], a = 0.2, v = 0.2, t = 0.1)
movej(p[0.4213094230327, 0.220656660591274, 0.310538599764027, -1.405, 0.76, -0.761], a = 0.2, v = 0.2, t = 0.1)
movej(p[0.421322313244337, 0.220660962318978, 0.310533726661144, -1.405, 0.76, -0.761], a = 0.2, v = 0.2, t = 0.1)
movej(p[0.421335250515041, 0.22066377385754, 0.310527876657158, -1.405, 0.76, -0.761], a = 0.2, v = 0.2, t = 0.1)
movej(p[0.421347904970569, 0.220664708133464, 0.310521814517454, -1.405, 0.76, -0.761], a = 0.2, v = 0.2, t = 0.1)
movej(p[0.421359398901644, 0.220663343865257, 0.310516543012858, -1.405, 0.76, -0.761], a = 0.2, v = 0.2, t = 0.1)
movej(p[0.421368469361066, 0.220659696046066, 0.310510609194103, -1.405, 0.76, -0.761], a = 0.2, v = 0.2, t = 0.1)
movej(p[0.421373254861061, 0.220654153744525, 0.310503524345662, -1.405, 0.76, -0.761], a = 0.2, v = 0.2, t = 0.1)
movej(p[0.421372849804465, 0.220647427278006, 0.310495817399488, -1.405, 0.76, -0.761], a = 0.2, v = 0.2, t = 0.1)
movej(p[0.42136640364446, 0.220640193540501, 0.31048772512262, -1.405, 0.76, -0.761], a = 0.2, v = 0.2, t = 0.1)
movej(p[0.421353897606645, 0.220632988105179, 0.310478673694612, -1.405, 0.76, -0.761], a = 0.2, v = 0.2, t = 0.1)
movej(p[0.421336716558476, 0.220625779246096, 0.31046813656291, -1.405, 0.76, -0.761], a = 0.2, v = 0.2, t = 0.1)
movej(p[0.421316976844398, 0.220617033979996, 0.310457551179262, -1.405, 0.76, -0.761], a = 0.2, v = 0.2, t = 0.1)
movej(p[0.421296239757693, 0.220606497389091, 0.310448001657227, -1.405, 0.76, -0.761], a = 0.2, v = 0.2, t = 0.1)
movej(p[0.42127566409303, 0.220595328491214, 0.310439832862833, -1.405, 0.76, -0.761], a = 0.2, v = 0.2, t = 0.1)
movej(p[0.421256637040337, 0.220584236703544, 0.310433761220789, -1.405, 0.76, -0.761], a = 0.2, v = 0.2, t = 0.1)
movej(p[0.421241767569083, 0.220573593524391, 0.310432043969745, -1.405, 0.76, -0.761], a = 0.2, v = 0.2, t = 0.1)
movej(p[0.421233115225426, 0.220563846268192, 0.31043502614074, -1.405, 0.76, -0.761], a = 0.2, v = 0.2, t = 0.1)
movej(p[0.421230753134599, 0.220556541746509, 0.310440322334081, -1.405, 0.76, -0.761], a = 0.2, v = 0.2, t = 0.1)
movej(p[0.42123357221427, 0.220552963153194, 0.31044559324754, -1.405, 0.76, -0.761], a = 0.2, v = 0.2, t = 0.1)
movej(p[0.421240960702725, 0.220552475601448, 0.310451233919543, -1.405, 0.76, -0.761], a = 0.2, v = 0.2, t = 0.1)
movej(p[0.421252241357026, 0.220554533505029, 0.310458407908279, -1.405, 0.76, -0.761], a = 0.2, v = 0.2, t = 0.1)
movej(p[0.421266138197598, 0.220557832704723, 0.310467272550545, -1.405, 0.76, -0.761], a = 0.2, v = 0.2, t = 0.1)
movej(p[0.421281910012618, 0.220562384261895, 0.310477622189634, -1.405, 0.76, -0.761], a = 0.2, v = 0.2, t = 0.1)
movej(p[0.421299205403801, 0.220565971343847, 0.310489457843605, -1.405, 0.76, -0.761], a = 0.2, v = 0.2, t = 0.1)
movej(p[0.421317243264932, 0.22056746677036, 0.310500316636326, -1.405, 0.76, -0.761], a = 0.2, v = 0.2, t = 0.1)
movej(p[0.421335310720426, 0.220568557840793, 0.310508395259927, -1.405, 0.76, -0.761], a = 0.2, v = 0.2, t = 0.1)
movej(p[0.4213534229388, 0.220572388306726, 0.310512721750458, -1.405, 0.76, -0.761], a = 0.2, v = 0.2, t = 0.1)
movej(p[0.421371509361551, 0.220579386469711, 0.310515607126151, -1.405, 0.76, -0.761], a = 0.2, v = 0.2, t = 0.1)
movej(p[0.421388702634763, 0.220587496783404, 0.310519548275354, -1.405, 0.76, -0.761], a = 0.2, v = 0.2, t = 0.1)
movej(p[0.421402906794717, 0.220593895146518, 0.310524726785515, -1.405, 0.76, -0.761], a = 0.2, v = 0.2, t = 0.1)
movej(p[0.421412750886324, 0.220597581932588, 0.310528368844259, -1.405, 0.76, -0.761], a = 0.2, v = 0.2, t = 0.1)
movej(p[0.421418546637763, 0.220598111679012, 0.310528469342959, -1.405, 0.76, -0.761], a = 0.2, v = 0.2, t = 0.1)
movej(p[0.42142089749264, 0.22059613272284, 0.310524567426018, -1.405, 0.76, -0.761], a = 0.2, v = 0.2, t = 0.1)
movej(p[0.421419812381816, 0.220593262047635, 0.310518130910317, -1.405, 0.76, -0.761], a = 0.2, v = 0.2, t = 0.1)
movej(p[0.421414009029005, 0.220590335983723, 0.310511277282363, -1.405, 0.76, -0.761], a = 0.2, v = 0.2, t = 0.1)
movej(p[0.421403125325223, 0.220587597913782, 0.310505160900835, -1.405, 0.76, -0.761], a = 0.2, v = 0.2, t = 0.1)
movej(p[0.421388507724674, 0.220584598200417, 0.310499866064586, -1.405, 0.76, -0.761], a = 0.2, v = 0.2, t = 0.1)
movej(p[0.421371195282357, 0.220580539100328, 0.310494944580207, -1.405, 0.76, -0.761], a = 0.2, v = 0.2, t = 0.1)
movej(p[0.4213513387863, 0.220575420906326, 0.310490383452111, -1.405, 0.76, -0.761], a = 0.2, v = 0.2, t = 0.1)
movej(p[0.421329743647808, 0.220570385804888, 0.310487258724763, -1.405, 0.76, -0.761], a = 0.2, v = 0.2, t = 0.1)
movej(p[0.421308465548065, 0.220566357533658, 0.310486523844348, -1.405, 0.76, -0.761], a = 0.2, v = 0.2, t = 0.1)
movej(p[0.421289920633671, 0.220562980685049, 0.310487794365742, -1.405, 0.76, -0.761], a = 0.2, v = 0.2, t = 0.1)
movej(p[0.421275848758889, 0.220560566967826, 0.310489633221168, -1.405, 0.76, -0.761], a = 0.2, v = 0.2, t = 0.1)
movej(p[0.42126696888723, 0.220560624118361, 0.310491753434161, -1.405, 0.76, -0.761], a = 0.2, v = 0.2, t = 0.1)
movej(p[0.421263703368667, 0.22056401306786, 0.310495217320101, -1.405, 0.76, -0.761], a = 0.2, v = 0.2, t = 0.1)
movej(p[0.421265885646171, 0.220570792704595, 0.310500373184785, -1.405, 0.76, -0.761], a = 0.2, v = 0.2, t = 0.1)
movej(p[0.421273146614801, 0.220580787315326, 0.310505991529371, -1.405, 0.76, -0.761], a = 0.2, v = 0.2, t = 0.1)
movej(p[0.421284302068498, 0.220593073088868, 0.310512762080552, -1.405, 0.76, -0.761], a = 0.2, v = 0.2, t = 0.1)
movej(p[0.421297918140177, 0.220605946179162, 0.310518847914869, -1.405, 0.76, -0.761], a = 0.2, v = 0.2, t = 0.1)
movej(p[0.421311198541141, 0.220617151136125, 0.310522502033051, -1.405, 0.76, -0.761], a = 0.2, v = 0.2, t = 0.1)
movej(p[0.421320724930315, 0.220625485920324, 0.310523683661437, -1.405, 0.76, -0.761], a = 0.2, v = 0.2, t = 0.1)
movej(p[0.421324321513795, 0.220630696868921, 0.310523725410641, -1.405, 0.76, -0.761], a = 0.2, v = 0.2, t = 0.1)
movej(p[0.421320775982733, 0.220632747425171, 0.310522981449922, -1.405, 0.76, -0.761], a = 0.2, v = 0.2, t = 0.1)
movej(p[0.421309986285608, 0.220632478818511, 0.310520620972127, -1.405, 0.76, -0.761], a = 0.2, v = 0.2, t = 0.1)
movej(p[0.421293431079119, 0.220631604641655, 0.310515271548615, -1.405, 0.76, -0.761], a = 0.2, v = 0.2, t = 0.1)
movej(p[0.421273364897326, 0.220631004980644, 0.310507650149206, -1.405, 0.76, -0.761], a = 0.2, v = 0.2, t = 0.1)
movej(p[0.421252362960038, 0.22063150809368, 0.310498296713986, -1.405, 0.76, -0.761], a = 0.2, v = 0.2, t = 0.1)
movej(p[0.421233163277547, 0.220633547323278, 0.310488535312401, -1.405, 0.76, -0.761], a = 0.2, v = 0.2, t = 0.1)
movej(p[0.421218431810977, 0.220637246833998, 0.310478577352715, -1.405, 0.76, -0.761], a = 0.2, v = 0.2, t = 0.1)
movej(p[0.421209689614625, 0.220642107616228, 0.310468945447812, -1.405, 0.76, -0.761], a = 0.2, v = 0.2, t = 0.1)
movej(p[0.421206540742415, 0.220647556130982, 0.310460890263408, -1.405, 0.76, -0.761], a = 0.2, v = 0.2, t = 0.1)
movej(p[0.421208135694844, 0.220652750352514, 0.310454589713081, -1.405, 0.76, -0.761], a = 0.2, v = 0.2, t = 0.1)
movej(p[0.421213502976176, 0.220656886079038, 0.310450104940265, -1.405, 0.76, -0.761], a = 0.2, v = 0.2, t = 0.1)
movej(p[0.421220269639026, 0.220659484385753, 0.310448196411749, -1.405, 0.76, -0.761], a = 0.2, v = 0.2, t = 0.1)
movej(p[0.421227131304173, 0.220661504408755, 0.310448827428766, -1.405, 0.76, -0.761], a = 0.2, v = 0.2, t = 0.1)
movej(p[0.421235087280325, 0.220664978364139, 0.310451630085269, -1.405, 0.76, -0.761], a = 0.2, v = 0.2, t = 0.1)
movej(p[0.421246061512252, 0.220670965083342, 0.310456360827365, -1.405, 0.76, -0.761], a = 0.2, v = 0.2, t = 0.1)
movej(p[0.421260508034586, 0.220678941547462, 0.310462797259498, -1.405, 0.76, -0.761], a = 0.2, v = 0.2, t = 0.1)
movej(p[0.421276289222833, 0.220687123004079, 0.310470309646545, -1.405, 0.76, -0.761], a = 0.2, v = 0.2, t = 0.1)
movej(p[0.42129027715931, 0.220693216686887, 0.310477400796588, -1.405, 0.76, -0.761], a = 0.2, v = 0.2, t = 0.1)
movej(p[0.421300045716566, 0.220695424449729, 0.31048116299214, -1.405, 0.76, -0.761], a = 0.2, v = 0.2, t = 0.1)
movej(p[0.421304268608261, 0.220693348520079, 0.310479919619781, -1.405, 0.76, -0.761], a = 0.2, v = 0.2, t = 0.1)
movej(p[0.421302525822688, 0.220686697857212, 0.310473207063869, -1.405, 0.76, -0.761], a = 0.2, v = 0.2, t = 0.1)
movej(p[0.421294299108342, 0.220676248358128, 0.310462421265383, -1.405, 0.76, -0.761], a = 0.2, v = 0.2, t = 0.1)
movej(p[0.42128078876493, 0.220663085183629, 0.31044884624288, -1.405, 0.76, -0.761], a = 0.2, v = 0.2, t = 0.1)
movej(p[0.42126262471752, 0.220647962722226, 0.310434954070666, -1.405, 0.76, -0.761], a = 0.2, v = 0.2, t = 0.1)
movej(p[0.421240185477782, 0.220631583619829, 0.31042319625596, -1.405, 0.76, -0.761], a = 0.2, v = 0.2, t = 0.1)
movej(p[0.421214316383273, 0.220614941242709, 0.310413482433589, -1.405, 0.76, -0.761], a = 0.2, v = 0.2, t = 0.1)
movej(p[0.421188131453657, 0.220599376611245, 0.310404618163151, -1.405, 0.76, -0.761], a = 0.2, v = 0.2, t = 0.1)
movej(p[0.421165132272217, 0.220586417251774, 0.310396666012987, -1.405, 0.76, -0.761], a = 0.2, v = 0.2, t = 0.1)
movej(p[0.421147507791937, 0.220577273801022, 0.310389938734698, -1.405, 0.76, -0.761], a = 0.2, v = 0.2, t = 0.1)
movej(p[0.421136283490283, 0.220572111846027, 0.310385536256417, -1.405, 0.76, -0.761], a = 0.2, v = 0.2, t = 0.1)
movej(p[0.421133783303858, 0.22057028686944, 0.310385333914394, -1.405, 0.76, -0.761], a = 0.2, v = 0.2, t = 0.1)
movej(p[0.421139839103834, 0.220571017967566, 0.310389692179322, -1.405, 0.76, -0.761], a = 0.2, v = 0.2, t = 0.1)
movej(p[0.421152395885147, 0.220573968603875, 0.310396591080569, -1.405, 0.76, -0.761], a = 0.2, v = 0.2, t = 0.1)
movej(p[0.42116895446044, 0.220579320889005, 0.310404161044317, -1.405, 0.76, -0.761], a = 0.2, v = 0.2, t = 0.1)
movej(p[0.421187102123245, 0.220586787846578, 0.310413122524625, -1.405, 0.76, -0.761], a = 0.2, v = 0.2, t = 0.1)
movej(p[0.421206999217097, 0.2205960092554, 0.310424164402211, -1.405, 0.76, -0.761], a = 0.2, v = 0.2, t = 0.1)
movej(p[0.421228476444357, 0.220605454280111, 0.310436070856193, -1.405, 0.76, -0.761], a = 0.2, v = 0.2, t = 0.1)
movej(p[0.421249583737293, 0.220612740770986, 0.310446195804274, -1.405, 0.76, -0.761], a = 0.2, v = 0.2, t = 0.1)
movej(p[0.421267565462403, 0.220615930820388, 0.310452391133796, -1.405, 0.76, -0.761], a = 0.2, v = 0.2, t = 0.1)
movej(p[0.421280395204229, 0.220615360103169, 0.310454442779852, -1.405, 0.76, -0.761], a = 0.2, v = 0.2, t = 0.1)
movej(p[0.421288409748132, 0.220612301817532, 0.31045309353377, -1.405, 0.76, -0.761], a = 0.2, v = 0.2, t = 0.1)
movej(p[0.421292198785547, 0.220607908401206, 0.310449763943788, -1.405, 0.76, -0.761], a = 0.2, v = 0.2, t = 0.1)
movej(p[0.421291427258761, 0.220602329665018, 0.310444603150926, -1.405, 0.76, -0.761], a = 0.2, v = 0.2, t = 0.1)
movej(p[0.421285903347758, 0.220595826504026, 0.310438472080762, -1.405, 0.76, -0.761], a = 0.2, v = 0.2, t = 0.1)
movej(p[0.421276574135171, 0.220588322879135, 0.310432210822902, -1.405, 0.76, -0.761], a = 0.2, v = 0.2, t = 0.1)
movej(p[0.42126551577934, 0.220580470332986, 0.310426718651902, -1.405, 0.76, -0.761], a = 0.2, v = 0.2, t = 0.1)
movej(p[0.42125482698237, 0.220574098280893, 0.31042280790703, -1.405, 0.76, -0.761], a = 0.2, v = 0.2, t = 0.1)
movej(p[0.421246314457002, 0.220571539510202, 0.310420911790625, -1.405, 0.76, -0.761], a = 0.2, v = 0.2, t = 0.1)
movej(p[0.42124060723178, 0.220574388767858, 0.310421287384916, -1.405, 0.76, -0.761], a = 0.2, v = 0.2, t = 0.1)
movej(p[0.421237452739229, 0.220582632352446, 0.310422911637637, -1.405, 0.76, -0.761], a = 0.2, v = 0.2, t = 0.1)
movej(p[0.421236387026183, 0.220594716265662, 0.310426448958102, -1.405, 0.76, -0.761], a = 0.2, v = 0.2, t = 0.1)
movej(p[0.421237188577059, 0.220608822904305, 0.310434039295012, -1.405, 0.76, -0.761], a = 0.2, v = 0.2, t = 0.1)
movej(p[0.421240527846008, 0.220624481647473, 0.310446542760102, -1.405, 0.76, -0.761], a = 0.2, v = 0.2, t = 0.1)
movej(p[0.421245785755841, 0.220641510490005, 0.310461074779825, -1.405, 0.76, -0.761], a = 0.2, v = 0.2, t = 0.1)
movej(p[0.421252155892966, 0.220659045206639, 0.310474157975595, -1.405, 0.76, -0.761], a = 0.2, v = 0.2, t = 0.1)
movej(p[0.421259153003176, 0.220674712929829, 0.31048414129988, -1.405, 0.76, -0.761], a = 0.2, v = 0.2, t = 0.1)
movej(p[0.421266086308937, 0.22068522191284, 0.310491840195403, -1.405, 0.76, -0.761], a = 0.2, v = 0.2, t = 0.1)
movej(p[0.421272904499121, 0.220691039239021, 0.31049788723573, -1.405, 0.76, -0.761], a = 0.2, v = 0.2, t = 0.1)
movej(p[0.421280220600522, 0.220695220733603, 0.310501012211308, -1.405, 0.76, -0.761], a = 0.2, v = 0.2, t = 0.1)
movej(p[0.421288690450451, 0.220699664377368, 0.310500263273214, -1.405, 0.76, -0.761], a = 0.2, v = 0.2, t = 0.1)
movej(p[0.421298037212287, 0.220704389718812, 0.310495263068375, -1.405, 0.76, -0.761], a = 0.2, v = 0.2, t = 0.1)
movej(p[0.421306977119673, 0.22070959866668, 0.310486548511873, -1.405, 0.76, -0.761], a = 0.2, v = 0.2, t = 0.1)
movej(p[0.42131438060944, 0.22071620658412, 0.310475790819538, -1.405, 0.76, -0.761], a = 0.2, v = 0.2, t = 0.1)
movej(p[0.421320461558691, 0.220724093376919, 0.310465446898156, -1.405, 0.76, -0.761], a = 0.2, v = 0.2, t = 0.1)
movej(p[0.421326829878299, 0.220732260148207, 0.310456486907526, -1.405, 0.76, -0.761], a = 0.2, v = 0.2, t = 0.1)
movej(p[0.421334512045817, 0.220740338757083, 0.310447430247057, -1.405, 0.76, -0.761], a = 0.2, v = 0.2, t = 0.1)
movej(p[0.421344371749361, 0.220747508987778, 0.310436012198238, -1.405, 0.76, -0.761], a = 0.2, v = 0.2, t = 0.1)
movej(p[0.421355822470187, 0.220752472107294, 0.310423371741039, -1.405, 0.76, -0.761], a = 0.2, v = 0.2, t = 0.1)
movej(p[0.421367517017637, 0.220754920722765, 0.31041130539096, -1.405, 0.76, -0.761], a = 0.2, v = 0.2, t = 0.1)
movej(p[0.421378772593494, 0.220756489574087, 0.310400421883636, -1.405, 0.76, -0.761], a = 0.2, v = 0.2, t = 0.1)
movej(p[0.421390081134284, 0.220758058284905, 0.310390494426884, -1.405, 0.76, -0.761], a = 0.2, v = 0.2, t = 0.1)
movej(p[0.421401540179484, 0.220759137023881, 0.310380944543988, -1.405, 0.76, -0.761], a = 0.2, v = 0.2, t = 0.1)
movej(p[0.421411288958409, 0.220758879961334, 0.310372051667608, -1.405, 0.76, -0.761], a = 0.2, v = 0.2, t = 0.1)
movej(p[0.421416069090615, 0.220757536946287, 0.310364442656852, -1.405, 0.76, -0.761], a = 0.2, v = 0.2, t = 0.1)
movej(p[0.42141476386146, 0.220755411344126, 0.310359060188152, -1.405, 0.76, -0.761], a = 0.2, v = 0.2, t = 0.1)
movej(p[0.421407978456218, 0.220752915344959, 0.310354374464103, -1.405, 0.76, -0.761], a = 0.2, v = 0.2, t = 0.1)
movej(p[0.421396958300123, 0.220750223773828, 0.310349760919102, -1.405, 0.76, -0.761], a = 0.2, v = 0.2, t = 0.1)
movej(p[0.421382899550305, 0.220747521415174, 0.310345518907167, -1.405, 0.76, -0.761], a = 0.2, v = 0.2, t = 0.1)
movej(p[0.421366725587835, 0.220744827428205, 0.310342059292415, -1.405, 0.76, -0.761], a = 0.2, v = 0.2, t = 0.1)
movej(p[0.421349664678636, 0.220742115705897, 0.310339758906699, -1.405, 0.76, -0.761], a = 0.2, v = 0.2, t = 0.1)
movej(p[0.421333714160037, 0.220739993989243, 0.310339385896152, -1.405, 0.76, -0.761], a = 0.2, v = 0.2, t = 0.1)
movej(p[0.421321302137951, 0.220740223353055, 0.310342442614323, -1.405, 0.76, -0.761], a = 0.2, v = 0.2, t = 0.1)
movej(p[0.421314167835906, 0.220743798837845, 0.310348762577285, -1.405, 0.76, -0.761], a = 0.2, v = 0.2, t = 0.1)
movej(p[0.421313140194681, 0.220750309688347, 0.310355488050745, -1.405, 0.76, -0.761], a = 0.2, v = 0.2, t = 0.1)
movej(p[0.421318768474711, 0.220757671865095, 0.310360406334432, -1.405, 0.76, -0.761], a = 0.2, v = 0.2, t = 0.1)
movej(p[0.421329640536066, 0.220764501394061, 0.310364439353894, -1.405, 0.76, -0.761], a = 0.2, v = 0.2, t = 0.1)
movej(p[0.421342806167998, 0.220771248812421, 0.310369057105655, -1.405, 0.76, -0.761], a = 0.2, v = 0.2, t = 0.1)
movej(p[0.421355476877816, 0.220778549450103, 0.310374728727656, -1.405, 0.76, -0.761], a = 0.2, v = 0.2, t = 0.1)
movej(p[0.421366602893728, 0.220785653443455, 0.310380551252743, -1.405, 0.76, -0.761], a = 0.2, v = 0.2, t = 0.1)
movej(p[0.421376544598222, 0.220791439639912, 0.310383202789529, -1.405, 0.76, -0.761], a = 0.2, v = 0.2, t = 0.1)
movej(p[0.421384782698045, 0.220795179893276, 0.310381598860889, -1.405, 0.76, -0.761], a = 0.2, v = 0.2, t = 0.1)
movej(p[0.421390386484796, 0.220796861922307, 0.310376165974789, -1.405, 0.76, -0.761], a = 0.2, v = 0.2, t = 0.1)
movej(p[0.421391704082205, 0.220796751010189, 0.310367697748022, -1.405, 0.76, -0.761], a = 0.2, v = 0.2, t = 0.1)
movej(p[0.421387170972811, 0.220794596488043, 0.310356409569137, -1.405, 0.76, -0.761], a = 0.2, v = 0.2, t = 0.1)
movej(p[0.42137817694356, 0.220790336125769, 0.310342846624025, -1.405, 0.76, -0.761], a = 0.2, v = 0.2, t = 0.1)
movej(p[0.421366072836604, 0.220783885840686, 0.310329311710241, -1.405, 0.76, -0.761], a = 0.2, v = 0.2, t = 0.1)
movej(p[0.421351769938246, 0.220775832705096, 0.310317355351692, -1.405, 0.76, -0.761], a = 0.2, v = 0.2, t = 0.1)
movej(p[0.421334852126811, 0.220767279809749, 0.310307666307805, -1.405, 0.76, -0.761], a = 0.2, v = 0.2, t = 0.1)
movej(p[0.4213171047656, 0.220758854950987, 0.31029864551522, -1.405, 0.76, -0.761], a = 0.2, v = 0.2, t = 0.1)
movej(p[0.421301471060716, 0.220750889601414, 0.310288989400485, -1.405, 0.76, -0.761], a = 0.2, v = 0.2, t = 0.1)
movej(p[0.421289627809205, 0.220743562233777, 0.310278608408328, -1.405, 0.76, -0.761], a = 0.2, v = 0.2, t = 0.1)
movej(p[0.421282271135057, 0.220736613302104, 0.310269275307285, -1.405, 0.76, -0.761], a = 0.2, v = 0.2, t = 0.1)
movej(p[0.421279749877052, 0.220730326000473, 0.310262505968596, -1.405, 0.76, -0.761], a = 0.2, v = 0.2, t = 0.1)
movej(p[0.421281913453351, 0.220725090544385, 0.310257164184986, -1.405, 0.76, -0.761], a = 0.2, v = 0.2, t = 0.1)
movej(p[0.421288255127735, 0.220722119748737, 0.310252576602592, -1.405, 0.76, -0.761], a = 0.2, v = 0.2, t = 0.1)
movej(p[0.421298573807264, 0.220721276409002, 0.31024937854617, -1.405, 0.76, -0.761], a = 0.2, v = 0.2, t = 0.1)
movej(p[0.421313029448116, 0.220721661356784, 0.310245970333183, -1.405, 0.76, -0.761], a = 0.2, v = 0.2, t = 0.1)
movej(p[0.421330048780524, 0.220722942329644, 0.310242308215366, -1.405, 0.76, -0.761], a = 0.2, v = 0.2, t = 0.1)
movej(p[0.421347159295191, 0.220725347351099, 0.310237898561224, -1.405, 0.76, -0.761], a = 0.2, v = 0.2, t = 0.1)
movej(p[0.42136282063079, 0.220728095387826, 0.310232109252941, -1.405, 0.76, -0.761], a = 0.2, v = 0.2, t = 0.1)
movej(p[0.421375808130715, 0.220730016266918, 0.310225541633645, -1.405, 0.76, -0.761], a = 0.2, v = 0.2, t = 0.1)
movej(p[0.421385740887088, 0.220729467544597, 0.310219247270084, -1.405, 0.76, -0.761], a = 0.2, v = 0.2, t = 0.1)
movej(p[0.42139234555585, 0.220725361979577, 0.310214291264796, -1.405, 0.76, -0.761], a = 0.2, v = 0.2, t = 0.1)
movej(p[0.421396165742641, 0.220718030189238, 0.310209994389501, -1.405, 0.76, -0.761], a = 0.2, v = 0.2, t = 0.1)
movej(p[0.421396821150245, 0.220708315951681, 0.310205175073828, -1.405, 0.76, -0.761], a = 0.2, v = 0.2, t = 0.1)
movej(p[0.421393828148674, 0.220697245341116, 0.310198493619396, -1.405, 0.76, -0.761], a = 0.2, v = 0.2, t = 0.1)
movej(p[0.421386278462176, 0.220686100007375, 0.310189272963531, -1.405, 0.76, -0.761], a = 0.2, v = 0.2, t = 0.1)
movej(p[0.421373767930645, 0.220675541767611, 0.31017753936771, -1.405, 0.76, -0.761], a = 0.2, v = 0.2, t = 0.1)
movej(p[0.421357868332389, 0.220665393996097, 0.310164694048656, -1.405, 0.76, -0.761], a = 0.2, v = 0.2, t = 0.1)
movej(p[0.421341218329309, 0.220655709875505, 0.310151825698693, -1.405, 0.76, -0.761], a = 0.2, v = 0.2, t = 0.1)
movej(p[0.421325454888192, 0.220647483330137, 0.310140401048613, -1.405, 0.76, -0.761], a = 0.2, v = 0.2, t = 0.1)
movej(p[0.421311911709215, 0.220642015729548, 0.310132109139302, -1.405, 0.76, -0.761], a = 0.2, v = 0.2, t = 0.1)
movej(p[0.421301581488437, 0.220639082896166, 0.310128232332235, -1.405, 0.76, -0.761], a = 0.2, v = 0.2, t = 0.1)
movej(p[0.42129588947776, 0.220637999035531, 0.310127291826217, -1.405, 0.76, -0.761], a = 0.2, v = 0.2, t = 0.1)
movej(p[0.421295805913593, 0.220638433884144, 0.310126920842775, -1.405, 0.76, -0.761], a = 0.2, v = 0.2, t = 0.1)
movej(p[0.421300926532509, 0.220640254908166, 0.310125853421854, -1.405, 0.76, -0.761], a = 0.2, v = 0.2, t = 0.1)
movej(p[0.421310223060818, 0.220643399298879, 0.310124149449013, -1.405, 0.76, -0.761], a = 0.2, v = 0.2, t = 0.1)
movej(p[0.421322086404775, 0.22064846441418, 0.310122786013229, -1.405, 0.76, -0.761], a = 0.2, v = 0.2, t = 0.1)
movej(p[0.421334630292452, 0.220655140002973, 0.310120996464342, -1.405, 0.76, -0.761], a = 0.2, v = 0.2, t = 0.1)
movej(p[0.421346560375596, 0.220661677994397, 0.31011780600398, -1.405, 0.76, -0.761], a = 0.2, v = 0.2, t = 0.1)
movej(p[0.421355934273298, 0.220666906417611, 0.310112935079369, -1.405, 0.76, -0.761], a = 0.2, v = 0.2, t = 0.1)
movej(p[0.421360146157229, 0.220670223785738, 0.31010787143923, -1.405, 0.76, -0.761], a = 0.2, v = 0.2, t = 0.1)
movej(p[0.421357314733379, 0.220671660038393, 0.310104672563444, -1.405, 0.76, -0.761], a = 0.2, v = 0.2, t = 0.1)
movej(p[0.421347271628326, 0.220671219074125, 0.310104230635397, -1.405, 0.76, -0.761], a = 0.2, v = 0.2, t = 0.1)
movej(p[0.421333390369292, 0.220668705385692, 0.310106255730973, -1.405, 0.76, -0.761], a = 0.2, v = 0.2, t = 0.1)
movej(p[0.42131760049424, 0.220664018936567, 0.310109435629939, -1.405, 0.76, -0.761], a = 0.2, v = 0.2, t = 0.1)
movej(p[0.421300917761207, 0.220658192852017, 0.310111959537499, -1.405, 0.76, -0.761], a = 0.2, v = 0.2, t = 0.1)
movej(p[0.421283979716455, 0.220652231554242, 0.310111681836537, -1.405, 0.76, -0.761], a = 0.2, v = 0.2, t = 0.1)
movej(p[0.421267352752592, 0.220646886641625, 0.310108439725681, -1.405, 0.76, -0.761], a = 0.2, v = 0.2, t = 0.1)
movej(p[0.421251536513816, 0.22064241899267, 0.310103553480312, -1.405, 0.76, -0.761], a = 0.2, v = 0.2, t = 0.1)
movej(p[0.421236709430236, 0.220640286427308, 0.310099690851869, -1.405, 0.76, -0.761], a = 0.2, v = 0.2, t = 0.1)
movej(p[0.421224525577669, 0.220641892943932, 0.310098743631753, -1.405, 0.76, -0.761], a = 0.2, v = 0.2, t = 0.1)
movej(p[0.42121766101606, 0.220646847174803, 0.310101622452413, -1.405, 0.76, -0.761], a = 0.2, v = 0.2, t = 0.1)
movej(p[0.421219004092082, 0.220654110368996, 0.31010839317748, -1.405, 0.76, -0.761], a = 0.2, v = 0.2, t = 0.1)
movej(p[0.421229604100415, 0.220662693400575, 0.310118407159467, -1.405, 0.76, -0.761], a = 0.2, v = 0.2, t = 0.1)
movej(p[0.42124728226071, 0.220671644119892, 0.310130049404495, -1.405, 0.76, -0.761], a = 0.2, v = 0.2, t = 0.1)
movej(p[0.42126875520496, 0.220679590806189, 0.310141564297943, -1.405, 0.76, -0.761], a = 0.2, v = 0.2, t = 0.1)
movej(p[0.421291141660839, 0.220686207398966, 0.310151715431978, -1.405, 0.76, -0.761], a = 0.2, v = 0.2, t = 0.1)
movej(p[0.421313215147962, 0.220692677695443, 0.310159397052104, -1.405, 0.76, -0.761], a = 0.2, v = 0.2, t = 0.1)
movej(p[0.42133430811751, 0.220700311812492, 0.310163325741646, -1.405, 0.76, -0.761], a = 0.2, v = 0.2, t = 0.1)
movej(p[0.421353949534079, 0.22070960833814, 0.310163050847051, -1.405, 0.76, -0.761], a = 0.2, v = 0.2, t = 0.1)
movej(p[0.421371310614626, 0.220718498372383, 0.310159804990093, -1.405, 0.76, -0.761], a = 0.2, v = 0.2, t = 0.1)
movej(p[0.421385381891138, 0.220724535164417, 0.310155793832993, -1.405, 0.76, -0.761], a = 0.2, v = 0.2, t = 0.1)
movej(p[0.421395127318908, 0.220726658013417, 0.310152547147347, -1.405, 0.76, -0.761], a = 0.2, v = 0.2, t = 0.1)
movej(p[0.42139987999438, 0.220725824447629, 0.310149110324696, -1.405, 0.76, -0.761], a = 0.2, v = 0.2, t = 0.1)
movej(p[0.421399947350468, 0.22072228588413, 0.310144396982302, -1.405, 0.76, -0.761], a = 0.2, v = 0.2, t = 0.1)
movej(p[0.421396895169263, 0.220716748593506, 0.310138483607424, -1.405, 0.76, -0.761], a = 0.2, v = 0.2, t = 0.1)
movej(p[0.421391721290318, 0.220711456744219, 0.310133157066635, -1.405, 0.76, -0.761], a = 0.2, v = 0.2, t = 0.1)
movej(p[0.42138582280651, 0.220707174517414, 0.310128482969893, -1.405, 0.76, -0.761], a = 0.2, v = 0.2, t = 0.1)
movej(p[0.42138059209103, 0.220702970204318, 0.310124112690387, -1.405, 0.76, -0.761], a = 0.2, v = 0.2, t = 0.1)
movej(p[0.421376585581785, 0.220698406965309, 0.310120691544319, -1.405, 0.76, -0.761], a = 0.2, v = 0.2, t = 0.1)
movej(p[0.42137404404556, 0.220695545280886, 0.310119291748306, -1.405, 0.76, -0.761], a = 0.2, v = 0.2, t = 0.1)
movej(p[0.421374401891192, 0.220696248056274, 0.310119968333302, -1.405, 0.76, -0.761], a = 0.2, v = 0.2, t = 0.1)
movej(p[0.42137932767331, 0.220700522359408, 0.310122522549473, -1.405, 0.76, -0.761], a = 0.2, v = 0.2, t = 0.1)
movej(p[0.421388841436018, 0.220707691972255, 0.310125267085819, -1.405, 0.76, -0.761], a = 0.2, v = 0.2, t = 0.1)
movej(p[0.421402481370367, 0.220717026748207, 0.310127258232945, -1.405, 0.76, -0.761], a = 0.2, v = 0.2, t = 0.1)
movej(p[0.421420566358844, 0.220727999186694, 0.310128466765718, -1.405, 0.76, -0.761], a = 0.2, v = 0.2, t = 0.1)
movej(p[0.421441644737623, 0.220740281732095, 0.310130728350897, -1.405, 0.76, -0.761], a = 0.2, v = 0.2, t = 0.1)
movej(p[0.421463428959944, 0.220753929614306, 0.310135318383904, -1.405, 0.76, -0.761], a = 0.2, v = 0.2, t = 0.1)
movej(p[0.421484143423271, 0.220767688956186, 0.310140643111702, -1.405, 0.76, -0.761], a = 0.2, v = 0.2, t = 0.1)
movej(p[0.421502260946356, 0.220779244728084, 0.310142013902384, -1.405, 0.76, -0.761], a = 0.2, v = 0.2, t = 0.1)
movej(p[0.421515942034208, 0.220787085040028, 0.310139028502442, -1.405, 0.76, -0.761], a = 0.2, v = 0.2, t = 0.1)
movej(p[0.421523687158117, 0.220791005524106, 0.3101337739424, -1.405, 0.76, -0.761], a = 0.2, v = 0.2, t = 0.1)
movej(p[0.421525564651603, 0.220792105762865, 0.310128256815079, -1.405, 0.76, -0.761], a = 0.2, v = 0.2, t = 0.1)
movej(p[0.421522343989003, 0.220791225356146, 0.310122331098715, -1.405, 0.76, -0.761], a = 0.2, v = 0.2, t = 0.1)
movej(p[0.421515473204557, 0.220788805700185, 0.310116252531851, -1.405, 0.76, -0.761], a = 0.2, v = 0.2, t = 0.1)
movej(p[0.421505249044256, 0.220785077208316, 0.310110860800447, -1.405, 0.76, -0.761], a = 0.2, v = 0.2, t = 0.1)
movej(p[0.421492061544476, 0.220780707896426, 0.310106570000388, -1.405, 0.76, -0.761], a = 0.2, v = 0.2, t = 0.1)
movej(p[0.421477268432507, 0.220776873949869, 0.310103945125136, -1.405, 0.76, -0.761], a = 0.2, v = 0.2, t = 0.1)
movej(p[0.421464169889577, 0.220774124398504, 0.310104266423137, -1.405, 0.76, -0.761], a = 0.2, v = 0.2, t = 0.1)
movej(p[0.421455328164749, 0.220771759372014, 0.310107426361706, -1.405, 0.76, -0.761], a = 0.2, v = 0.2, t = 0.1)
movej(p[0.421450927102576, 0.220769848431143, 0.310112996866687, -1.405, 0.76, -0.761], a = 0.2, v = 0.2, t = 0.1)
movej(p[0.421450632037464, 0.220769055415884, 0.310120764082043, -1.405, 0.76, -0.761], a = 0.2, v = 0.2, t = 0.1)
movej(p[0.42145357884857, 0.220769682434403, 0.310130349524186, -1.405, 0.76, -0.761], a = 0.2, v = 0.2, t = 0.1)
movej(p[0.421460155194087, 0.220771482124331, 0.310141054246779, -1.405, 0.76, -0.761], a = 0.2, v = 0.2, t = 0.1)
movej(p[0.421470421655149, 0.220774586030798, 0.310151778755482, -1.405, 0.76, -0.761], a = 0.2, v = 0.2, t = 0.1)
movej(p[0.421483595996631, 0.220779086542445, 0.310159824854129, -1.405, 0.76, -0.761], a = 0.2, v = 0.2, t = 0.1)
movej(p[0.421497974766951, 0.220784530008798, 0.310163192483731, -1.405, 0.76, -0.761], a = 0.2, v = 0.2, t = 0.1)
movej(p[0.421511662306107, 0.220790883367686, 0.31016150055238, -1.405, 0.76, -0.761], a = 0.2, v = 0.2, t = 0.1)
movej(p[0.421523504091448, 0.220797532490953, 0.310156711956163, -1.405, 0.76, -0.761], a = 0.2, v = 0.2, t = 0.1)
movej(p[0.421532656845438, 0.220803155309887, 0.310151376232161, -1.405, 0.76, -0.761], a = 0.2, v = 0.2, t = 0.1)
movej(p[0.421538626460222, 0.220805980353944, 0.310146952548469, -1.405, 0.76, -0.761], a = 0.2, v = 0.2, t = 0.1)
movej(p[0.421540713715767, 0.220805152501249, 0.310142443073976, -1.405, 0.76, -0.761], a = 0.2, v = 0.2, t = 0.1)
movej(p[0.421538994034038, 0.220801361157244, 0.310135210112591, -1.405, 0.76, -0.761], a = 0.2, v = 0.2, t = 0.1)
movej(p[0.421533401551593, 0.220796044545543, 0.31012480656718, -1.405, 0.76, -0.761], a = 0.2, v = 0.2, t = 0.1)
movej(p[0.42152354769198, 0.220790064100978, 0.310112243978334, -1.405, 0.76, -0.761], a = 0.2, v = 0.2, t = 0.1)
movej(p[0.421509427984925, 0.220782867617775, 0.3100987397013, -1.405, 0.76, -0.761], a = 0.2, v = 0.2, t = 0.1)
movej(p[0.421490835044305, 0.220773687433179, 0.310084828061718, -1.405, 0.76, -0.761], a = 0.2, v = 0.2, t = 0.1)
movej(p[0.421468848605019, 0.22076271245873, 0.31007069792455, -1.405, 0.76, -0.761], a = 0.2, v = 0.2, t = 0.1)
movej(p[0.421445647482203, 0.220750943185609, 0.310056724970522, -1.405, 0.76, -0.761], a = 0.2, v = 0.2, t = 0.1)
movej(p[0.421423810975607, 0.220739944067708, 0.310044042785454, -1.405, 0.76, -0.761], a = 0.2, v = 0.2, t = 0.1)
movej(p[0.421404934410757, 0.220731573198664, 0.310034407047137, -1.405, 0.76, -0.761], a = 0.2, v = 0.2, t = 0.1)
movej(p[0.421390071313671, 0.220726955141307, 0.310029302828759, -1.405, 0.76, -0.761], a = 0.2, v = 0.2, t = 0.1)
movej(p[0.421379756625946, 0.220726139940762, 0.310030844189915, -1.405, 0.76, -0.761], a = 0.2, v = 0.2, t = 0.1)
movej(p[0.421374822582542, 0.220728886401447, 0.310038397257067, -1.405, 0.76, -0.761], a = 0.2, v = 0.2, t = 0.1)
movej(p[0.42137540749221, 0.22073435433025, 0.310049622180598, -1.405, 0.76, -0.761], a = 0.2, v = 0.2, t = 0.1)
movej(p[0.421381344088349, 0.220740761029964, 0.310061676626337, -1.405, 0.76, -0.761], a = 0.2, v = 0.2, t = 0.1)
movej(p[0.421390867821778, 0.220746133110881, 0.310072585868161, -1.405, 0.76, -0.761], a = 0.2, v = 0.2, t = 0.1)
movej(p[0.421401811231835, 0.220749078587563, 0.310080929754034, -1.405, 0.76, -0.761], a = 0.2, v = 0.2, t = 0.1)
movej(p[0.421412235012712, 0.220749408785652, 0.31008475336299, -1.405, 0.76, -0.761], a = 0.2, v = 0.2, t = 0.1)
movej(p[0.421421098243628, 0.220747294371743, 0.310083801807132, -1.405, 0.76, -0.761], a = 0.2, v = 0.2, t = 0.1)
movej(p[0.421426668978614, 0.220743472573185, 0.310077936435831, -1.405, 0.76, -0.761], a = 0.2, v = 0.2, t = 0.1)
movej(p[0.421427611066699, 0.220738108825799, 0.310069340211426, -1.405, 0.76, -0.761], a = 0.2, v = 0.2, t = 0.1)
movej(p[0.42142282045284, 0.220731787787265, 0.310061219446887, -1.405, 0.76, -0.761], a = 0.2, v = 0.2, t = 0.1)
movej(p[0.421411738882798, 0.22072542242785, 0.310055127844724, -1.405, 0.76, -0.761], a = 0.2, v = 0.2, t = 0.1)
movej(p[0.421394494212683, 0.220719960211897, 0.310050647309097, -1.405, 0.76, -0.761], a = 0.2, v = 0.2, t = 0.1)
movej(p[0.421372269510495, 0.220714837839517, 0.310045337361089, -1.405, 0.76, -0.761], a = 0.2, v = 0.2, t = 0.1)
movej(p[0.421347133053594, 0.220709192534482, 0.310037757575436, -1.405, 0.76, -0.761], a = 0.2, v = 0.2, t = 0.1)
movej(p[0.421320650600188, 0.220702360002335, 0.310029588682668, -1.405, 0.76, -0.761], a = 0.2, v = 0.2, t = 0.1)
movej(p[0.421294556937348, 0.220693849011869, 0.310022315670233, -1.405, 0.76, -0.761], a = 0.2, v = 0.2, t = 0.1)
movej(p[0.421270617701207, 0.22068450702793, 0.31001636413933, -1.405, 0.76, -0.761], a = 0.2, v = 0.2, t = 0.1)
movej(p[0.42125038041603, 0.220675764438806, 0.310011712387609, -1.405, 0.76, -0.761], a = 0.2, v = 0.2, t = 0.1)
movej(p[0.421234157180329, 0.22066996550263, 0.310008549952216, -1.405, 0.76, -0.761], a = 0.2, v = 0.2, t = 0.1)
movej(p[0.421221997815297, 0.220667792848774, 0.3100077139114, -1.405, 0.76, -0.761], a = 0.2, v = 0.2, t = 0.1)
movej(p[0.421214066844144, 0.220669550063757, 0.310010580118835, -1.405, 0.76, -0.761], a = 0.2, v = 0.2, t = 0.1)
movej(p[0.421211087832155, 0.220674839692027, 0.310016112422815, -1.405, 0.76, -0.761], a = 0.2, v = 0.2, t = 0.1)
movej(p[0.421213095886869, 0.220683551725812, 0.31002224993767, -1.405, 0.76, -0.761], a = 0.2, v = 0.2, t = 0.1)
movej(p[0.421218821607546, 0.220694907117804, 0.310027822993335, -1.405, 0.76, -0.761], a = 0.2, v = 0.2, t = 0.1)
movej(p[0.421226775000159, 0.220707540677566, 0.310032932623819, -1.405, 0.76, -0.761], a = 0.2, v = 0.2, t = 0.1)
movej(p[0.421235445338785, 0.220719472047097, 0.310037846131144, -1.405, 0.76, -0.761], a = 0.2, v = 0.2, t = 0.1)
movej(p[0.421243512607101, 0.220727711573122, 0.310042589442307, -1.405, 0.76, -0.761], a = 0.2, v = 0.2, t = 0.1)
movej(p[0.421249086167326, 0.220731016996679, 0.310047719339531, -1.405, 0.76, -0.761], a = 0.2, v = 0.2, t = 0.1)
movej(p[0.421250637218214, 0.220730278662728, 0.310054754090779, -1.405, 0.76, -0.761], a = 0.2, v = 0.2, t = 0.1)
movej(p[0.421247328646644, 0.220726376065428, 0.310062480891184, -1.405, 0.76, -0.761], a = 0.2, v = 0.2, t = 0.1)
movej(p[0.421239168320818, 0.220720376352997, 0.310068492146556, -1.405, 0.76, -0.761], a = 0.2, v = 0.2, t = 0.1)
movej(p[0.421227366157616, 0.220712747295233, 0.310071593524214, -1.405, 0.76, -0.761], a = 0.2, v = 0.2, t = 0.1)
movej(p[0.421214275028931, 0.220702542996875, 0.310071713918498, -1.405, 0.76, -0.761], a = 0.2, v = 0.2, t = 0.1)
movej(p[0.421201957305847, 0.220689661596301, 0.310069640599835, -1.405, 0.76, -0.761], a = 0.2, v = 0.2, t = 0.1)
movej(p[0.421190799625509, 0.220675729685815, 0.31006755088749, -1.405, 0.76, -0.761], a = 0.2, v = 0.2, t = 0.1)
movej(p[0.421180755110959, 0.220663849291318, 0.3100661166117, -1.405, 0.76, -0.761], a = 0.2, v = 0.2, t = 0.1)
movej(p[0.42117237504372, 0.220654732364009, 0.310066855451012, -1.405, 0.76, -0.761], a = 0.2, v = 0.2, t = 0.1)
movej(p[0.42116582409659, 0.220647521202892, 0.310070482612994, -1.405, 0.76, -0.761], a = 0.2, v = 0.2, t = 0.1)
movej(p[0.421161352830513, 0.220642576954407, 0.310077816247672, -1.405, 0.76, -0.761], a = 0.2, v = 0.2, t = 0.1)
movej(p[0.421159466629283, 0.220640728565622, 0.31008883962251, -1.405, 0.76, -0.761], a = 0.2, v = 0.2, t = 0.1)
movej(p[0.421160480275243, 0.220642028355701, 0.310101674463358, -1.405, 0.76, -0.761], a = 0.2, v = 0.2, t = 0.1)
movej(p[0.421164734903278, 0.220644981943047, 0.310113659057305, -1.405, 0.76, -0.761], a = 0.2, v = 0.2, t = 0.1)
movej(p[0.421171513797207, 0.220647859046683, 0.310123928736403, -1.405, 0.76, -0.761], a = 0.2, v = 0.2, t = 0.1)
movej(p[0.421179760864027, 0.220649854775972, 0.310133561877504, -1.405, 0.76, -0.761], a = 0.2, v = 0.2, t = 0.1)
movej(p[0.421187728207563, 0.220650456639587, 0.310142778256846, -1.405, 0.76, -0.761], a = 0.2, v = 0.2, t = 0.1)
movej(p[0.421194704888086, 0.220649805459481, 0.310150320296249, -1.405, 0.76, -0.761], a = 0.2, v = 0.2, t = 0.1)
movej(p[0.421201182663648, 0.220648612131385, 0.310154479675988, -1.405, 0.76, -0.761], a = 0.2, v = 0.2, t = 0.1)
movej(p[0.421205222858357, 0.220648608371031, 0.310156208869898, -1.405, 0.76, -0.761], a = 0.2, v = 0.2, t = 0.1)
movej(p[0.421204614298356, 0.220650251495763, 0.310157674103272, -1.405, 0.76, -0.761], a = 0.2, v = 0.2, t = 0.1)
movej(p[0.421198708283752, 0.220651842816413, 0.310160448250725, -1.405, 0.76, -0.761], a = 0.2, v = 0.2, t = 0.1)
movej(p[0.421188987349168, 0.2206521417314, 0.310164236612724, -1.405, 0.76, -0.761], a = 0.2, v = 0.2, t = 0.1)
movej(p[0.421176312353756, 0.22065073462743, 0.310167426267832, -1.405, 0.76, -0.761], a = 0.2, v = 0.2, t = 0.1)
movej(p[0.421160923460076, 0.220648151374479, 0.310169371673059, -1.405, 0.76, -0.761], a = 0.2, v = 0.2, t = 0.1)
movej(p[0.421143506410595, 0.220644539577422, 0.310170965745013, -1.405, 0.76, -0.761], a = 0.2, v = 0.2, t = 0.1)
movej(p[0.421125648505828, 0.220640804774903, 0.310172909188222, -1.405, 0.76, -0.761], a = 0.2, v = 0.2, t = 0.1)
movej(p[0.421108628467125, 0.220637907857806, 0.310174342343787, -1.405, 0.76, -0.761], a = 0.2, v = 0.2, t = 0.1)
movej(p[0.421093982774754, 0.220636088461746, 0.310173123484097, -1.405, 0.76, -0.761], a = 0.2, v = 0.2, t = 0.1)
movej(p[0.421082706969946, 0.220635046013791, 0.310169385784108, -1.405, 0.76, -0.761], a = 0.2, v = 0.2, t = 0.1)
movej(p[0.421074164933982, 0.22063493675865, 0.310164655043796, -1.405, 0.76, -0.761], a = 0.2, v = 0.2, t = 0.1)
movej(p[0.421067214668915, 0.220636110908017, 0.310160696010864, -1.405, 0.76, -0.761], a = 0.2, v = 0.2, t = 0.1)
movej(p[0.421062229376508, 0.220638379524838, 0.310159143781712, -1.405, 0.76, -0.761], a = 0.2, v = 0.2, t = 0.1)
movej(p[0.421060982064782, 0.220640734850674, 0.310161157542042, -1.405, 0.76, -0.761], a = 0.2, v = 0.2, t = 0.1)
movej(p[0.421063910997649, 0.220643326898907, 0.310167301858702, -1.405, 0.76, -0.761], a = 0.2, v = 0.2, t = 0.1)
movej(p[0.421070081351496, 0.220646574554401, 0.310175610482907, -1.405, 0.76, -0.761], a = 0.2, v = 0.2, t = 0.1)
movej(p[0.421078464743357, 0.220650710742238, 0.310184459660558, -1.405, 0.76, -0.761], a = 0.2, v = 0.2, t = 0.1)
movej(p[0.421089172294618, 0.220655189162507, 0.310191666174201, -1.405, 0.76, -0.761], a = 0.2, v = 0.2, t = 0.1)
movej(p[0.421101621006687, 0.220659624425482, 0.310196718999962, -1.405, 0.76, -0.761], a = 0.2, v = 0.2, t = 0.1)
movej(p[0.421113883325782, 0.22066348909282, 0.310199856182417, -1.405, 0.76, -0.761], a = 0.2, v = 0.2, t = 0.1)
movej(p[0.42112440683862, 0.220666817695827, 0.31020154209273, -1.405, 0.76, -0.761], a = 0.2, v = 0.2, t = 0.1)
movej(p[0.421133010507097, 0.220668751363021, 0.310201440934855, -1.405, 0.76, -0.761], a = 0.2, v = 0.2, t = 0.1)
movej(p[0.421139903729635, 0.220668262033671, 0.310199557229242, -1.405, 0.76, -0.761], a = 0.2, v = 0.2, t = 0.1)
movej(p[0.421144976802558, 0.220665191479005, 0.310196313940145, -1.405, 0.76, -0.761], a = 0.2, v = 0.2, t = 0.1)
movej(p[0.421147321999366, 0.220659855507467, 0.310191686458036, -1.405, 0.76, -0.761], a = 0.2, v = 0.2, t = 0.1)
movej(p[0.421146372418609, 0.220652315975528, 0.310185800761176, -1.405, 0.76, -0.761], a = 0.2, v = 0.2, t = 0.1)
movej(p[0.421141935038185, 0.220642722174878, 0.31017811961269, -1.405, 0.76, -0.761], a = 0.2, v = 0.2, t = 0.1)
movej(p[0.421133416850445, 0.220631559614427, 0.310168999726792, -1.405, 0.76, -0.761], a = 0.2, v = 0.2, t = 0.1)
movej(p[0.421121415071964, 0.220620101154557, 0.31015906130007, -1.405, 0.76, -0.761], a = 0.2, v = 0.2, t = 0.1)
movej(p[0.421107103565676, 0.220608899421146, 0.310148625079233, -1.405, 0.76, -0.761], a = 0.2, v = 0.2, t = 0.1)
movej(p[0.421092021598334, 0.220598455085428, 0.310138494614017, -1.405, 0.76, -0.761], a = 0.2, v = 0.2, t = 0.1)
movej(p[0.421077489820454, 0.220590258760987, 0.310130002107242, -1.405, 0.76, -0.761], a = 0.2, v = 0.2, t = 0.1)
movej(p[0.421065152128799, 0.22058521411225, 0.310124678275096, -1.405, 0.76, -0.761], a = 0.2, v = 0.2, t = 0.1)
movej(p[0.421056260232474, 0.220583304762539, 0.310122243249546, -1.405, 0.76, -0.761], a = 0.2, v = 0.2, t = 0.1)
movej(p[0.421051278590114, 0.220584468836218, 0.310121249206852, -1.405, 0.76, -0.761], a = 0.2, v = 0.2, t = 0.1)
movej(p[0.421050574926938, 0.220588038065151, 0.310122903701928, -1.405, 0.76, -0.761], a = 0.2, v = 0.2, t = 0.1)
movej(p[0.42105452624044, 0.220592680490695, 0.310127924570447, -1.405, 0.76, -0.761], a = 0.2, v = 0.2, t = 0.1)
movej(p[0.421062521357451, 0.22059735177816, 0.310134915539006, -1.405, 0.76, -0.761], a = 0.2, v = 0.2, t = 0.1)
movej(p[0.421072929840259, 0.220602188780928, 0.310141187200975, -1.405, 0.76, -0.761], a = 0.2, v = 0.2, t = 0.1)
movej(p[0.421084107568491, 0.220607499703139, 0.31014627782872, -1.405, 0.76, -0.761], a = 0.2, v = 0.2, t = 0.1)
movej(p[0.421094773262846, 0.220612584806341, 0.310151278295034, -1.405, 0.76, -0.761], a = 0.2, v = 0.2, t = 0.1)
movej(p[0.421104057731746, 0.220617167576738, 0.310156829767697, -1.405, 0.76, -0.761], a = 0.2, v = 0.2, t = 0.1)
movej(p[0.421110912885765, 0.220621119234284, 0.310164034694554, -1.405, 0.76, -0.761], a = 0.2, v = 0.2, t = 0.1)
movej(p[0.421114419253789, 0.220624340449669, 0.310172541393134, -1.405, 0.76, -0.761], a = 0.2, v = 0.2, t = 0.1)
movej(p[0.421113723525387, 0.220626318298761, 0.310180863882903, -1.405, 0.76, -0.761], a = 0.2, v = 0.2, t = 0.1)
movej(p[0.421109074923254, 0.220626176163602, 0.310186258779455, -1.405, 0.76, -0.761], a = 0.2, v = 0.2, t = 0.1)
movej(p[0.421101006237326, 0.220623256261806, 0.310187500184664, -1.405, 0.76, -0.761], a = 0.2, v = 0.2, t = 0.1)
movej(p[0.421089496356417, 0.220618057118022, 0.31018560995786, -1.405, 0.76, -0.761], a = 0.2, v = 0.2, t = 0.1)
movej(p[0.421074687847125, 0.220611404165484, 0.310181112664333, -1.405, 0.76, -0.761], a = 0.2, v = 0.2, t = 0.1)
movej(p[0.421058161598597, 0.220603316657368, 0.310173973737937, -1.405, 0.76, -0.761], a = 0.2, v = 0.2, t = 0.1)
movej(p[0.42104120460871, 0.220593891937736, 0.31016516792305, -1.405, 0.76, -0.761], a = 0.2, v = 0.2, t = 0.1)
movej(p[0.421024003324534, 0.220584766114848, 0.310157321269795, -1.405, 0.76, -0.761], a = 0.2, v = 0.2, t = 0.1)
movej(p[0.421007630352923, 0.220577472770099, 0.310152341912507, -1.405, 0.76, -0.761], a = 0.2, v = 0.2, t = 0.1)
movej(p[0.420992655559834, 0.220571181616882, 0.310150797031883, -1.405, 0.76, -0.761], a = 0.2, v = 0.2, t = 0.1)
movej(p[0.420980973943809, 0.220566061747034, 0.310151568371478, -1.405, 0.76, -0.761], a = 0.2, v = 0.2, t = 0.1)
movej(p[0.420974972060179, 0.22056268852928, 0.310154514148096, -1.405, 0.76, -0.761], a = 0.2, v = 0.2, t = 0.1)
movej(p[0.420975841593619, 0.220561032408863, 0.310158161948359, -1.405, 0.76, -0.761], a = 0.2, v = 0.2, t = 0.1)
movej(p[0.420983221324167, 0.220560311261481, 0.310161505148844, -1.405, 0.76, -0.761], a = 0.2, v = 0.2, t = 0.1)
movej(p[0.420994625025966, 0.22056033538607, 0.310163808989397, -1.405, 0.76, -0.761], a = 0.2, v = 0.2, t = 0.1)
movej(p[0.421007803858805, 0.220561824330758, 0.310164970551583, -1.405, 0.76, -0.761], a = 0.2, v = 0.2, t = 0.1)
movej(p[0.421021913512879, 0.220563901631645, 0.31016553513989, -1.405, 0.76, -0.761], a = 0.2, v = 0.2, t = 0.1)
movej(p[0.421036304159007, 0.220565145897977, 0.310167175194558, -1.405, 0.76, -0.761], a = 0.2, v = 0.2, t = 0.1)
movej(p[0.42104971598468, 0.220565035953331, 0.310170223809536, -1.405, 0.76, -0.761], a = 0.2, v = 0.2, t = 0.1)
movej(p[0.421060015814648, 0.220563962396068, 0.310173226343536, -1.405, 0.76, -0.761], a = 0.2, v = 0.2, t = 0.1)
movej(p[0.421065806976746, 0.220562139522031, 0.310175222955868, -1.405, 0.76, -0.761], a = 0.2, v = 0.2, t = 0.1)
movej(p[0.421066704012441, 0.220559240339313, 0.310175020373717, -1.405, 0.76, -0.761], a = 0.2, v = 0.2, t = 0.1)
movej(p[0.421062398145021, 0.220554684083928, 0.31017145736535, -1.405, 0.76, -0.761], a = 0.2, v = 0.2, t = 0.1)
movej(p[0.421053641812992, 0.220548623466416, 0.310160828167177, -1.405, 0.76, -0.761], a = 0.2, v = 0.2, t = 0.1)
movej(p[0.421041821827848, 0.220540783427095, 0.310143184722032, -1.405, 0.76, -0.761], a = 0.2, v = 0.2, t = 0.1)
movej(p[0.421028576310911, 0.220531026928247, 0.310121990818184, -1.405, 0.76, -0.761], a = 0.2, v = 0.2, t = 0.1)
movej(p[0.42101486822074, 0.220519579332848, 0.310100768852594, -1.405, 0.76, -0.761], a = 0.2, v = 0.2, t = 0.1)
movej(p[0.421001277768739, 0.220508636169035, 0.310082576464374, -1.405, 0.76, -0.761], a = 0.2, v = 0.2, t = 0.1)
movej(p[0.420988303659685, 0.220500353772384, 0.310068754655919, -1.405, 0.76, -0.761], a = 0.2, v = 0.2, t = 0.1)
movej(p[0.420977110351266, 0.220494682432666, 0.310059188674503, -1.405, 0.76, -0.761], a = 0.2, v = 0.2, t = 0.1)
movej(p[0.420969052229146, 0.220491059455601, 0.310054476444556, -1.405, 0.76, -0.761], a = 0.2, v = 0.2, t = 0.1)
movej(p[0.420965848320188, 0.220489435096218, 0.310053541223733, -1.405, 0.76, -0.761], a = 0.2, v = 0.2, t = 0.1)
movej(p[0.42096789232751, 0.220490143394418, 0.310053781168996, -1.405, 0.76, -0.761], a = 0.2, v = 0.2, t = 0.1)
movej(p[0.420974914820451, 0.220491565921778, 0.310052984697527, -1.405, 0.76, -0.761], a = 0.2, v = 0.2, t = 0.1)
movej(p[0.420985767932605, 0.220492078450125, 0.310052137597615, -1.405, 0.76, -0.761], a = 0.2, v = 0.2, t = 0.1)
movej(p[0.420999187687375, 0.220490795199748, 0.310051351222137, -1.405, 0.76, -0.761], a = 0.2, v = 0.2, t = 0.1)
movej(p[0.421014942855057, 0.220488095030347, 0.310047639346529, -1.405, 0.76, -0.761], a = 0.2, v = 0.2, t = 0.1)
movej(p[0.421032042887299, 0.220484746453413, 0.310039342345516, -1.405, 0.76, -0.761], a = 0.2, v = 0.2, t = 0.1)
movej(p[0.421048249906361, 0.220481792761145, 0.310028031700437, -1.405, 0.76, -0.761], a = 0.2, v = 0.2, t = 0.1)
movej(p[0.421061981462462, 0.220480352239349, 0.310016693884554, -1.405, 0.76, -0.761], a = 0.2, v = 0.2, t = 0.1)
movej(p[0.421072742818545, 0.220480921881665, 0.31000825112879, -1.405, 0.76, -0.761], a = 0.2, v = 0.2, t = 0.1)
movej(p[0.421079483620692, 0.220483629002323, 0.310004805261096, -1.405, 0.76, -0.761], a = 0.2, v = 0.2, t = 0.1)
movej(p[0.42108178311156, 0.220487736928254, 0.310005684062721, -1.405, 0.76, -0.761], a = 0.2, v = 0.2, t = 0.1)
movej(p[0.421080047111291, 0.220491390377071, 0.310007209790026, -1.405, 0.76, -0.761], a = 0.2, v = 0.2, t = 0.1)
movej(p[0.421074938170132, 0.22049315855034, 0.310007332723026, -1.405, 0.76, -0.761], a = 0.2, v = 0.2, t = 0.1)
movej(p[0.421066541912593, 0.220491972631288, 0.310006944101951, -1.405, 0.76, -0.761], a = 0.2, v = 0.2, t = 0.1)
movej(p[0.421054297522401, 0.220488053786959, 0.3100070040514, -1.405, 0.76, -0.761], a = 0.2, v = 0.2, t = 0.1)
movej(p[0.421038664439989, 0.220481821668433, 0.310007339512254, -1.405, 0.76, -0.761], a = 0.2, v = 0.2, t = 0.1)
movej(p[0.42102064886698, 0.220473762797136, 0.31000698897466, -1.405, 0.76, -0.761], a = 0.2, v = 0.2, t = 0.1)
movej(p[0.421001366917108, 0.220465101620827, 0.310005385947821, -1.405, 0.76, -0.761], a = 0.2, v = 0.2, t = 0.1)
movej(p[0.42098169837548, 0.22045742913613, 0.310002372603036, -1.405, 0.76, -0.761], a = 0.2, v = 0.2, t = 0.1)
movej(p[0.420962930755439, 0.220452142463834, 0.309997403808307, -1.405, 0.76, -0.761], a = 0.2, v = 0.2, t = 0.1)
movej(p[0.420947282025145, 0.220449326403926, 0.309990432999547, -1.405, 0.76, -0.761], a = 0.2, v = 0.2, t = 0.1)
movej(p[0.420937113521637, 0.220448650134609, 0.309982473096456, -1.405, 0.76, -0.761], a = 0.2, v = 0.2, t = 0.1)
movej(p[0.420933367686419, 0.220449795283241, 0.309975393785605, -1.405, 0.76, -0.761], a = 0.2, v = 0.2, t = 0.1)
movej(p[0.420935206719368, 0.220453134715931, 0.309969714932188, -1.405, 0.76, -0.761], a = 0.2, v = 0.2, t = 0.1)
movej(p[0.420941150482013, 0.220459039946144, 0.309965868807938, -1.405, 0.76, -0.761], a = 0.2, v = 0.2, t = 0.1)
movej(p[0.420950188668666, 0.220466605644842, 0.309964022693305, -1.405, 0.76, -0.761], a = 0.2, v = 0.2, t = 0.1)
movej(p[0.420962349867372, 0.220474152753163, 0.309964960630415, -1.405, 0.76, -0.761], a = 0.2, v = 0.2, t = 0.1)
movej(p[0.42097755686034, 0.220480402587213, 0.309967800093961, -1.405, 0.76, -0.761], a = 0.2, v = 0.2, t = 0.1)
movej(p[0.420995475941786, 0.220486323001779, 0.309970374699268, -1.405, 0.76, -0.761], a = 0.2, v = 0.2, t = 0.1)
movej(p[0.421014465503735, 0.220492325498197, 0.309972113149647, -1.405, 0.76, -0.761], a = 0.2, v = 0.2, t = 0.1)
movej(p[0.421033136228639, 0.220497491725711, 0.309973630549674, -1.405, 0.76, -0.761], a = 0.2, v = 0.2, t = 0.1)
movej(p[0.42105151252487, 0.220501049451896, 0.309975137076213, -1.405, 0.76, -0.761], a = 0.2, v = 0.2, t = 0.1)
movej(p[0.421070022351233, 0.220503148702488, 0.30997688904653, -1.405, 0.76, -0.761], a = 0.2, v = 0.2, t = 0.1)
movej(p[0.421088686683426, 0.220504733289918, 0.309979078082948, -1.405, 0.76, -0.761], a = 0.2, v = 0.2, t = 0.1)
movej(p[0.421105152873475, 0.220506894754396, 0.309980892407502, -1.405, 0.76, -0.761], a = 0.2, v = 0.2, t = 0.1)
movej(p[0.421116699581043, 0.220509522860482, 0.309981674041526, -1.405, 0.76, -0.761], a = 0.2, v = 0.2, t = 0.1)
movej(p[0.421122152515835, 0.22051117731293, 0.309981227329932, -1.405, 0.76, -0.761], a = 0.2, v = 0.2, t = 0.1)
movej(p[0.421121532617692, 0.220511170242928, 0.30998091481704, -1.405, 0.76, -0.761], a = 0.2, v = 0.2, t = 0.1)
movej(p[0.421115499284717, 0.220509996714274, 0.309979571514875, -1.405, 0.76, -0.761], a = 0.2, v = 0.2, t = 0.1)
movej(p[0.421105203061489, 0.22050849290237, 0.309977325481484, -1.405, 0.76, -0.761], a = 0.2, v = 0.2, t = 0.1)
movej(p[0.421093099307618, 0.220506024352302, 0.309973749191257, -1.405, 0.76, -0.761], a = 0.2, v = 0.2, t = 0.1)
movej(p[0.421081382445851, 0.220502307030289, 0.309968385912745, -1.405, 0.76, -0.761], a = 0.2, v = 0.2, t = 0.1)
movej(p[0.421070700615096, 0.220497604631366, 0.309961281492284, -1.405, 0.76, -0.761], a = 0.2, v = 0.2, t = 0.1)
movej(p[0.421060865729892, 0.220492399367787, 0.309954395530906, -1.405, 0.76, -0.761], a = 0.2, v = 0.2, t = 0.1)
movej(p[0.421051629962545, 0.220487103492289, 0.309949339057509, -1.405, 0.76, -0.761], a = 0.2, v = 0.2, t = 0.1)
movej(p[0.421042872022592, 0.220482876626469, 0.309947743426249, -1.405, 0.76, -0.761], a = 0.2, v = 0.2, t = 0.1)
movej(p[0.421034902031148, 0.220480782666404, 0.309950011010124, -1.405, 0.76, -0.761], a = 0.2, v = 0.2, t = 0.1)
movej(p[0.421028881656073, 0.220480346324721, 0.309955343725369, -1.405, 0.76, -0.761], a = 0.2, v = 0.2, t = 0.1)
movej(p[0.421025939961578, 0.220480564261582, 0.309962295355827, -1.405, 0.76, -0.761], a = 0.2, v = 0.2, t = 0.1)
movej(p[0.421027380079861, 0.220481119397738, 0.309968637905487, -1.405, 0.76, -0.761], a = 0.2, v = 0.2, t = 0.1)
movej(p[0.421034388212016, 0.220481882487425, 0.309974268037531, -1.405, 0.76, -0.761], a = 0.2, v = 0.2, t = 0.1)
movej(p[0.42104608387798, 0.220483282621203, 0.309979585333183, -1.405, 0.76, -0.761], a = 0.2, v = 0.2, t = 0.1)
movej(p[0.421060272301017, 0.220486043256943, 0.309983740410444, -1.405, 0.76, -0.761], a = 0.2, v = 0.2, t = 0.1)
movej(p[0.421075179835182, 0.220490651306096, 0.309986143992382, -1.405, 0.76, -0.761], a = 0.2, v = 0.2, t = 0.1)
movej(p[0.421090338817656, 0.220496378849087, 0.309986663641918, -1.405, 0.76, -0.761], a = 0.2, v = 0.2, t = 0.1)
movej(p[0.421104566719812, 0.220502208933611, 0.309985844857042, -1.405, 0.76, -0.761], a = 0.2, v = 0.2, t = 0.1)
movej(p[0.421115996985401, 0.220507990194151, 0.309983669273413, -1.405, 0.76, -0.761], a = 0.2, v = 0.2, t = 0.1)
movej(p[0.421123280606952, 0.220513139463261, 0.309979708058228, -1.405, 0.76, -0.761], a = 0.2, v = 0.2, t = 0.1)
movej(p[0.421125673818072, 0.220516954946418, 0.30997434991575, -1.405, 0.76, -0.761], a = 0.2, v = 0.2, t = 0.1)
movej(p[0.421123413958528, 0.220518551989161, 0.309968711529605, -1.405, 0.76, -0.761], a = 0.2, v = 0.2, t = 0.1)
movej(p[0.421118227510871, 0.220516783882753, 0.309962506658501, -1.405, 0.76, -0.761], a = 0.2, v = 0.2, t = 0.1)
movej(p[0.42111059913453, 0.220510952190358, 0.30995556819403, -1.405, 0.76, -0.761], a = 0.2, v = 0.2, t = 0.1)
movej(p[0.421100080840354, 0.220502003398056, 0.309947043211334, -1.405, 0.76, -0.761], a = 0.2, v = 0.2, t = 0.1)
movej(p[0.42108527762106, 0.220492035322955, 0.309937170781678, -1.405, 0.76, -0.761], a = 0.2, v = 0.2, t = 0.1)
movej(p[0.421066834298449, 0.220482440876487, 0.309927711985294, -1.405, 0.76, -0.761], a = 0.2, v = 0.2, t = 0.1)
movej(p[0.421046631274511, 0.220473299530318, 0.30991978407668, -1.405, 0.76, -0.761], a = 0.2, v = 0.2, t = 0.1)
movej(p[0.421026529443109, 0.22046500122547, 0.309912898789474, -1.405, 0.76, -0.761], a = 0.2, v = 0.2, t = 0.1)
movej(p[0.421008324833019, 0.220457617552868, 0.309905916244137, -1.405, 0.76, -0.761], a = 0.2, v = 0.2, t = 0.1)
movej(p[0.420992951448605, 0.220451170089613, 0.309899240500415, -1.405, 0.76, -0.761], a = 0.2, v = 0.2, t = 0.1)
movej(p[0.420982031933807, 0.220444916260369, 0.309894445157532, -1.405, 0.76, -0.761], a = 0.2, v = 0.2, t = 0.1)
movej(p[0.42097644308635, 0.220439080539088, 0.309891827264632, -1.405, 0.76, -0.761], a = 0.2, v = 0.2, t = 0.1)
movej(p[0.420975516842303, 0.220434192994354, 0.309891018324932, -1.405, 0.76, -0.761], a = 0.2, v = 0.2, t = 0.1)
movej(p[0.420977330167872, 0.220430795252355, 0.309891780497936, -1.405, 0.76, -0.761], a = 0.2, v = 0.2, t = 0.1)
movej(p[0.420981274322575, 0.22042927992954, 0.309893594775601, -1.405, 0.76, -0.761], a = 0.2, v = 0.2, t = 0.1)
movej(p[0.420987743418535, 0.220429516026237, 0.309896994495268, -1.405, 0.76, -0.761], a = 0.2, v = 0.2, t = 0.1)
movej(p[0.420997058004232, 0.220431027850608, 0.309902518885041, -1.405, 0.76, -0.761], a = 0.2, v = 0.2, t = 0.1)
movej(p[0.421007916075076, 0.22043381288845, 0.309910417688227, -1.405, 0.76, -0.761], a = 0.2, v = 0.2, t = 0.1)
movej(p[0.421018896683769, 0.220437932009946, 0.309919551055012, -1.405, 0.76, -0.761], a = 0.2, v = 0.2, t = 0.1)
movej(p[0.42102874496589, 0.220442518645648, 0.309927662044175, -1.405, 0.76, -0.761], a = 0.2, v = 0.2, t = 0.1)
movej(p[0.421036211672954, 0.220446549253091, 0.309932610127266, -1.405, 0.76, -0.761], a = 0.2, v = 0.2, t = 0.1)
movej(p[0.421040001500826, 0.220448764580718, 0.309933974232175, -1.405, 0.76, -0.761], a = 0.2, v = 0.2, t = 0.1)
movej(p[0.421039802988128, 0.220447565744182, 0.309933098983257, -1.405, 0.76, -0.761], a = 0.2, v = 0.2, t = 0.1)
movej(p[0.421035677348316, 0.220442248836361, 0.309931492134362, -1.405, 0.76, -0.761], a = 0.2, v = 0.2, t = 0.1)
movej(p[0.42102797202122, 0.220433682662408, 0.309928139430507, -1.405, 0.76, -0.761], a = 0.2, v = 0.2, t = 0.1)
movej(p[0.421016957025391, 0.220423619748861, 0.309921480243706, -1.405, 0.76, -0.761], a = 0.2, v = 0.2, t = 0.1)
movej(p[0.421002913397211, 0.22041307445723, 0.309912154478861, -1.405, 0.76, -0.761], a = 0.2, v = 0.2, t = 0.1)
movej(p[0.420985617574178, 0.220401759803276, 0.309903159493785, -1.405, 0.76, -0.761], a = 0.2, v = 0.2, t = 0.1)
movej(p[0.420965981168545, 0.220389103429448, 0.309896907770795, -1.405, 0.76, -0.761], a = 0.2, v = 0.2, t = 0.1)
movej(p[0.420946789105201, 0.22037436390053, 0.309893264743226, -1.405, 0.76, -0.761], a = 0.2, v = 0.2, t = 0.1)
movej(p[0.420929630038905, 0.220358469266399, 0.309891952305915, -1.405, 0.76, -0.761], a = 0.2, v = 0.2, t = 0.1)
movej(p[0.420914511601444, 0.22034338634932, 0.30989287194015, -1.405, 0.76, -0.761], a = 0.2, v = 0.2, t = 0.1)
movej(p[0.420901199690444, 0.220331303019399, 0.309895985155938, -1.405, 0.76, -0.761], a = 0.2, v = 0.2, t = 0.1)
movej(p[0.420890529950339, 0.22032236491488, 0.309900972369359, -1.405, 0.76, -0.761], a = 0.2, v = 0.2, t = 0.1)
movej(p[0.420883610457493, 0.22031626339938, 0.309906936681671, -1.405, 0.76, -0.761], a = 0.2, v = 0.2, t = 0.1)
movej(p[0.420881127788796, 0.220313162333134, 0.309913209831699, -1.405, 0.76, -0.761], a = 0.2, v = 0.2, t = 0.1)
movej(p[0.42088393539641, 0.220312542604273, 0.309917804172525, -1.405, 0.76, -0.761], a = 0.2, v = 0.2, t = 0.1)
movej(p[0.420892294603315, 0.220313732720143, 0.309919739968004, -1.405, 0.76, -0.761], a = 0.2, v = 0.2, t = 0.1)
movej(p[0.420904659576373, 0.220315842959491, 0.30991946485862, -1.405, 0.76, -0.761], a = 0.2, v = 0.2, t = 0.1)
movej(p[0.420918466777626, 0.220318184208449, 0.309917917885489, -1.405, 0.76, -0.761], a = 0.2, v = 0.2, t = 0.1)
movej(p[0.420931436679136, 0.220320570957544, 0.30991672599809, -1.405, 0.76, -0.761], a = 0.2, v = 0.2, t = 0.1)
movej(p[0.420941695084131, 0.220322409222674, 0.30991702870963, -1.405, 0.76, -0.761], a = 0.2, v = 0.2, t = 0.1)
movej(p[0.420947840614029, 0.220323767977663, 0.309918357867692, -1.405, 0.76, -0.761], a = 0.2, v = 0.2, t = 0.1)
movej(p[0.420949328449943, 0.220324298379971, 0.309920034756384, -1.405, 0.76, -0.761], a = 0.2, v = 0.2, t = 0.1)
movej(p[0.420945984585756, 0.220324141443789, 0.309922135420882, -1.405, 0.76, -0.761], a = 0.2, v = 0.2, t = 0.1)
movej(p[0.420938892956926, 0.220323617814564, 0.309924356710365, -1.405, 0.76, -0.761], a = 0.2, v = 0.2, t = 0.1)
movej(p[0.420928420543419, 0.22032286069157, 0.309926623613784, -1.405, 0.76, -0.761], a = 0.2, v = 0.2, t = 0.1)
movej(p[0.420914761733454, 0.220320858153811, 0.309928959840202, -1.405, 0.76, -0.761], a = 0.2, v = 0.2, t = 0.1)
movej(p[0.42089856510822, 0.220317635294359, 0.309931270559347, -1.405, 0.76, -0.761], a = 0.2, v = 0.2, t = 0.1)
movej(p[0.420880786491778, 0.220313750096794, 0.309933627657838, -1.405, 0.76, -0.761], a = 0.2, v = 0.2, t = 0.1)
movej(p[0.420862880736021, 0.220310281743218, 0.309936076939207, -1.405, 0.76, -0.761], a = 0.2, v = 0.2, t = 0.1)
movej(p[0.420845787378435, 0.22030834977308, 0.309939086471537, -1.405, 0.76, -0.761], a = 0.2, v = 0.2, t = 0.1)
movej(p[0.420831500039693, 0.220308448462732, 0.30994285846637, -1.405, 0.76, -0.761], a = 0.2, v = 0.2, t = 0.1)
movej(p[0.42082184343995, 0.220309554837434, 0.309945308247464, -1.405, 0.76, -0.761], a = 0.2, v = 0.2, t = 0.1)
movej(p[0.420817362883953, 0.220311060279082, 0.309945880489026, -1.405, 0.76, -0.761], a = 0.2, v = 0.2, t = 0.1)
movej(p[0.420817289143273, 0.220313542912002, 0.309945330897271, -1.405, 0.76, -0.761], a = 0.2, v = 0.2, t = 0.1)
movej(p[0.420820632700237, 0.220318035281516, 0.309946383699236, -1.405, 0.76, -0.761], a = 0.2, v = 0.2, t = 0.1)
movej(p[0.420828096677188, 0.220323919251329, 0.309951019369988, -1.405, 0.76, -0.761], a = 0.2, v = 0.2, t = 0.1)
movej(p[0.420839647516757, 0.220330558141903, 0.309958231069386, -1.405, 0.76, -0.761], a = 0.2, v = 0.2, t = 0.1)
movej(p[0.420854032366257, 0.220338019384799, 0.309965589861834, -1.405, 0.76, -0.761], a = 0.2, v = 0.2, t = 0.1)
movej(p[0.420869175653048, 0.220346111441305, 0.30997158311151, -1.405, 0.76, -0.761], a = 0.2, v = 0.2, t = 0.1)
movej(p[0.42088415097636, 0.220353989263853, 0.309975045146836, -1.405, 0.76, -0.761], a = 0.2, v = 0.2, t = 0.1)
movej(p[0.420899057158675, 0.220360167176238, 0.309978701218137, -1.405, 0.76, -0.761], a = 0.2, v = 0.2, t = 0.1)
movej(p[0.420913866033457, 0.22036400390465, 0.309984401496094, -1.405, 0.76, -0.761], a = 0.2, v = 0.2, t = 0.1)
movej(p[0.42092639406443, 0.220365347568194, 0.309991936324971, -1.405, 0.76, -0.761], a = 0.2, v = 0.2, t = 0.1)
movej(p[0.420934746717173, 0.220365217807587, 0.309997551234084, -1.405, 0.76, -0.761], a = 0.2, v = 0.2, t = 0.1)
movej(p[0.420938357884241, 0.220364885042945, 0.310000497412982, -1.405, 0.76, -0.761], a = 0.2, v = 0.2, t = 0.1)
movej(p[0.420937538849897, 0.220364556357305, 0.310001653204266, -1.405, 0.76, -0.761], a = 0.2, v = 0.2, t = 0.1)
movej(p[0.420932836302776, 0.220363551905067, 0.31000168506761, -1.405, 0.76, -0.761], a = 0.2, v = 0.2, t = 0.1)
movej(p[0.420924608565618, 0.220361015703697, 0.310000287448247, -1.405, 0.76, -0.761], a = 0.2, v = 0.2, t = 0.1)
movej(p[0.420914542108942, 0.220356991921246, 0.309996949595379, -1.405, 0.76, -0.761], a = 0.2, v = 0.2, t = 0.1)
movej(p[0.420904894177592, 0.22035217413464, 0.309992086002378, -1.405, 0.76, -0.761], a = 0.2, v = 0.2, t = 0.1)
movej(p[0.420896615236135, 0.220347152424241, 0.309986701584301, -1.405, 0.76, -0.761], a = 0.2, v = 0.2, t = 0.1)
movej(p[0.42088934311795, 0.22034277135201, 0.309981703796069, -1.405, 0.76, -0.761], a = 0.2, v = 0.2, t = 0.1)
movej(p[0.420882266205307, 0.220339436360046, 0.309977658636239, -1.405, 0.76, -0.761], a = 0.2, v = 0.2, t = 0.1)
movej(p[0.420875817665684, 0.220338046631249, 0.309974913204288, -1.405, 0.76, -0.761], a = 0.2, v = 0.2, t = 0.1)
movej(p[0.420871784097148, 0.220339570696955, 0.309975304754525, -1.405, 0.76, -0.761], a = 0.2, v = 0.2, t = 0.1)
movej(p[0.420871049409152, 0.220343757803708, 0.309978506986806, -1.405, 0.76, -0.761], a = 0.2, v = 0.2, t = 0.1)
movej(p[0.420873135122319, 0.220348772155194, 0.309982541498147, -1.405, 0.76, -0.761], a = 0.2, v = 0.2, t = 0.1)
movej(p[0.42087700516225, 0.220353744004203, 0.309985696377441, -1.405, 0.76, -0.761], a = 0.2, v = 0.2, t = 0.1)
movej(p[0.420882789108702, 0.220358678534675, 0.309989773128287, -1.405, 0.76, -0.761], a = 0.2, v = 0.2, t = 0.1)
movej(p[0.420891534148696, 0.220363524896943, 0.309995358671169, -1.405, 0.76, -0.761], a = 0.2, v = 0.2, t = 0.1)
movej(p[0.420904043231956, 0.220367472349556, 0.310002261464868, -1.405, 0.76, -0.761], a = 0.2, v = 0.2, t = 0.1)
movej(p[0.420919198393558, 0.220370450789256, 0.310008329220612, -1.405, 0.76, -0.761], a = 0.2, v = 0.2, t = 0.1)
movej(p[0.42093523575765, 0.220372224562141, 0.310011920353125, -1.405, 0.76, -0.761], a = 0.2, v = 0.2, t = 0.1)
movej(p[0.420950413881717, 0.220371919812027, 0.310013462272442, -1.405, 0.76, -0.761], a = 0.2, v = 0.2, t = 0.1)
movej(p[0.420962312464313, 0.220369478351529, 0.310013336606836, -1.405, 0.76, -0.761], a = 0.2, v = 0.2, t = 0.1)
movej(p[0.420968884169691, 0.220366048304291, 0.31001338093935, -1.405, 0.76, -0.761], a = 0.2, v = 0.2, t = 0.1)
movej(p[0.420969805610686, 0.220361813115631, 0.310011741625315, -1.405, 0.76, -0.761], a = 0.2, v = 0.2, t = 0.1)
movej(p[0.420964695323934, 0.220355608349087, 0.310008481142153, -1.405, 0.76, -0.761], a = 0.2, v = 0.2, t = 0.1)
movej(p[0.420953498349498, 0.220347005056466, 0.310004122829, -1.405, 0.76, -0.761], a = 0.2, v = 0.2, t = 0.1)
movej(p[0.420936530943525, 0.220337329881275, 0.310000081712373, -1.405, 0.76, -0.761], a = 0.2, v = 0.2, t = 0.1)
movej(p[0.420915430392817, 0.220327321699362, 0.30999715726361, -1.405, 0.76, -0.761], a = 0.2, v = 0.2, t = 0.1)
movej(p[0.42089197560784, 0.220316777686576, 0.309995786478031, -1.405, 0.76, -0.761], a = 0.2, v = 0.2, t = 0.1)
movej(p[0.420869363361342, 0.220305680859392, 0.309997259877073, -1.405, 0.76, -0.761], a = 0.2, v = 0.2, t = 0.1)
movej(p[0.420850053997907, 0.220294762334148, 0.310000358938098, -1.405, 0.76, -0.761], a = 0.2, v = 0.2, t = 0.1)
movej(p[0.420834440544749, 0.22028549746197, 0.310003165994383, -1.405, 0.76, -0.761], a = 0.2, v = 0.2, t = 0.1)
movej(p[0.420823094295239, 0.22028001497582, 0.310005166680436, -1.405, 0.76, -0.761], a = 0.2, v = 0.2, t = 0.1)
movej(p[0.420817907854816, 0.220279248314202, 0.310007725656737, -1.405, 0.76, -0.761], a = 0.2, v = 0.2, t = 0.1)
movej(p[0.420819731520844, 0.22028265590271, 0.310012127904433, -1.405, 0.76, -0.761], a = 0.2, v = 0.2, t = 0.1)
movej(p[0.420826593414098, 0.220289353764661, 0.310018300351294, -1.405, 0.76, -0.761], a = 0.2, v = 0.2, t = 0.1)
movej(p[0.4208366570025, 0.220298312478549, 0.310024462663843, -1.405, 0.76, -0.761], a = 0.2, v = 0.2, t = 0.1)
movej(p[0.420848724244987, 0.220307668224819, 0.310029539554081, -1.405, 0.76, -0.761], a = 0.2, v = 0.2, t = 0.1)
movej(p[0.420861871377859, 0.220315868699307, 0.310032569769488, -1.405, 0.76, -0.761], a = 0.2, v = 0.2, t = 0.1)
movej(p[0.420875004672511, 0.220322281074647, 0.310034894344092, -1.405, 0.76, -0.761], a = 0.2, v = 0.2, t = 0.1)
movej(p[0.420887428190966, 0.220326539121093, 0.310036914541029, -1.405, 0.76, -0.761], a = 0.2, v = 0.2, t = 0.1)
movej(p[0.420899252136167, 0.220329151844073, 0.310039038985783, -1.405, 0.76, -0.761], a = 0.2, v = 0.2, t = 0.1)
movej(p[0.420910513993403, 0.220331369517758, 0.310042349078533, -1.405, 0.76, -0.761], a = 0.2, v = 0.2, t = 0.1)
movej(p[0.420921047691384, 0.220333998364136, 0.310046371466949, -1.405, 0.76, -0.761], a = 0.2, v = 0.2, t = 0.1)
movej(p[0.420931141248664, 0.220336801359343, 0.310049246700036, -1.405, 0.76, -0.761], a = 0.2, v = 0.2, t = 0.1)
movej(p[0.420941776713239, 0.220338709883044, 0.310049545074918, -1.405, 0.76, -0.761], a = 0.2, v = 0.2, t = 0.1)
movej(p[0.42095286494299, 0.220338580130205, 0.310046745223462, -1.405, 0.76, -0.761], a = 0.2, v = 0.2, t = 0.1)
movej(p[0.420963286767897, 0.220334915910897, 0.310039923636514, -1.405, 0.76, -0.761], a = 0.2, v = 0.2, t = 0.1)
movej(p[0.420969947677767, 0.220326836843409, 0.310030237870865, -1.405, 0.76, -0.761], a = 0.2, v = 0.2, t = 0.1)
movej(p[0.420970092013136, 0.220315820390435, 0.31001933380588, -1.405, 0.76, -0.761], a = 0.2, v = 0.2, t = 0.1)
movej(p[0.420962448617887, 0.220302863245248, 0.310008270472086, -1.405, 0.76, -0.761], a = 0.2, v = 0.2, t = 0.1)
movej(p[0.420945900599786, 0.220289363957853, 0.30999781832624, -1.405, 0.76, -0.761], a = 0.2, v = 0.2, t = 0.1)
movej(p[0.420921387678162, 0.220276461373499, 0.309988780017137, -1.405, 0.76, -0.761], a = 0.2, v = 0.2, t = 0.1)
movej(p[0.420894003278841, 0.220263571194516, 0.309982733968542, -1.405, 0.76, -0.761], a = 0.2, v = 0.2, t = 0.1)
movej(p[0.420867493442345, 0.220250237373109, 0.309979059933071, -1.405, 0.76, -0.761], a = 0.2, v = 0.2, t = 0.1)
movej(p[0.42084274701461, 0.220237358955685, 0.309975825221806, -1.405, 0.76, -0.761], a = 0.2, v = 0.2, t = 0.1)
movej(p[0.420819352613517, 0.22022879730083, 0.309971691007411, -1.405, 0.76, -0.761], a = 0.2, v = 0.2, t = 0.1)
movej(p[0.420797521160732, 0.220225928452369, 0.309966124369215, -1.405, 0.76, -0.761], a = 0.2, v = 0.2, t = 0.1)
movej(p[0.420779216451356, 0.220226792689857, 0.309959670335264, -1.405, 0.76, -0.761], a = 0.2, v = 0.2, t = 0.1)
movej(p[0.420765967071811, 0.220228940612978, 0.309954904342928, -1.405, 0.76, -0.761], a = 0.2, v = 0.2, t = 0.1)
movej(p[0.420758644437788, 0.22023170989404, 0.309954342255425, -1.405, 0.76, -0.761], a = 0.2, v = 0.2, t = 0.1)
movej(p[0.420757697736697, 0.220235125630978, 0.309958529829808, -1.405, 0.76, -0.761], a = 0.2, v = 0.2, t = 0.1)
movej(p[0.420763326376327, 0.220239172765558, 0.309964898416669, -1.405, 0.76, -0.761], a = 0.2, v = 0.2, t = 0.1)
movej(p[0.420776352433814, 0.220243966253313, 0.30997024847176, -1.405, 0.76, -0.761], a = 0.2, v = 0.2, t = 0.1)
movej(p[0.420796422936618, 0.220249361383157, 0.309974356811106, -1.405, 0.76, -0.761], a = 0.2, v = 0.2, t = 0.1)
movej(p[0.420820720939478, 0.220255286494689, 0.309979082019706, -1.405, 0.76, -0.761], a = 0.2, v = 0.2, t = 0.1)
movej(p[0.420845710302434, 0.220261319414776, 0.309983728924192, -1.405, 0.76, -0.761], a = 0.2, v = 0.2, t = 0.1)
movej(p[0.420869065816851, 0.220267332401648, 0.309987018165015, -1.405, 0.76, -0.761], a = 0.2, v = 0.2, t = 0.1)
movej(p[0.420890645623728, 0.22027273600575, 0.309989207042092, -1.405, 0.76, -0.761], a = 0.2, v = 0.2, t = 0.1)
movej(p[0.420909541803627, 0.220277749424606, 0.309991097966629, -1.405, 0.76, -0.761], a = 0.2, v = 0.2, t = 0.1)
movej(p[0.420924920363978, 0.220283219339732, 0.30999278888148, -1.405, 0.76, -0.761], a = 0.2, v = 0.2, t = 0.1)
movej(p[0.420935771124135, 0.220289692735397, 0.309993105850844, -1.405, 0.76, -0.761], a = 0.2, v = 0.2, t = 0.1)
movej(p[0.420942685984691, 0.220296335669409, 0.309992068060788, -1.405, 0.76, -0.761], a = 0.2, v = 0.2, t = 0.1)
movej(p[0.420945234109937, 0.220300758574167, 0.309989436309995, -1.405, 0.76, -0.761], a = 0.2, v = 0.2, t = 0.1)
movej(p[0.42094211686541, 0.220300992450579, 0.309985711070354, -1.405, 0.76, -0.761], a = 0.2, v = 0.2, t = 0.1)
movej(p[0.420932977070969, 0.220297151041277, 0.309979695844493, -1.405, 0.76, -0.761], a = 0.2, v = 0.2, t = 0.1)
movej(p[0.420918170754712, 0.220290394253049, 0.309968831794937, -1.405, 0.76, -0.761], a = 0.2, v = 0.2, t = 0.1)
movej(p[0.420896378294337, 0.220281775019921, 0.309952643073058, -1.405, 0.76, -0.761], a = 0.2, v = 0.2, t = 0.1)
movej(p[0.420868074648691, 0.220272461796344, 0.309933348374259, -1.405, 0.76, -0.761], a = 0.2, v = 0.2, t = 0.1)
movej(p[0.420836290235336, 0.220264341059973, 0.309914319695049, -1.405, 0.76, -0.761], a = 0.2, v = 0.2, t = 0.1)
movej(p[0.420804566738234, 0.220259023464522, 0.30989737274089, -1.405, 0.76, -0.761], a = 0.2, v = 0.2, t = 0.1)
movej(p[0.420776742266474, 0.220256404391819, 0.309884812853333, -1.405, 0.76, -0.761], a = 0.2, v = 0.2, t = 0.1)
movej(p[0.42075569061442, 0.220255870906699, 0.309877400006349, -1.405, 0.76, -0.761], a = 0.2, v = 0.2, t = 0.1)
movej(p[0.420743903712255, 0.220256113313973, 0.309873380738373, -1.405, 0.76, -0.761], a = 0.2, v = 0.2, t = 0.1)
movej(p[0.420741564095724, 0.220256718426082, 0.309871256172577, -1.405, 0.76, -0.761], a = 0.2, v = 0.2, t = 0.1)
movej(p[0.420746655752798, 0.220257835561017, 0.309869456487111, -1.405, 0.76, -0.761], a = 0.2, v = 0.2, t = 0.1)
movej(p[0.420757923594683, 0.220260021345808, 0.309866596644264, -1.405, 0.76, -0.761], a = 0.2, v = 0.2, t = 0.1)
movej(p[0.420773523803504, 0.220264191156067, 0.309862189584346, -1.405, 0.76, -0.761], a = 0.2, v = 0.2, t = 0.1)
movej(p[0.420791518504698, 0.22026960868529, 0.309857753755216, -1.405, 0.76, -0.761], a = 0.2, v = 0.2, t = 0.1)
movej(p[0.420811210267662, 0.220274127618318, 0.309853906470245, -1.405, 0.76, -0.761], a = 0.2, v = 0.2, t = 0.1)
movej(p[0.42083099162014, 0.220277174010653, 0.309850482778975, -1.405, 0.76, -0.761], a = 0.2, v = 0.2, t = 0.1)
movej(p[0.420849362070619, 0.220280024846766, 0.309847513904498, -1.405, 0.76, -0.761], a = 0.2, v = 0.2, t = 0.1)
movej(p[0.420864979941477, 0.220283645918352, 0.309845511010739, -1.405, 0.76, -0.761], a = 0.2, v = 0.2, t = 0.1)
movej(p[0.420875828048968, 0.220287724215924, 0.309845700374906, -1.405, 0.76, -0.761], a = 0.2, v = 0.2, t = 0.1)
movej(p[0.420880236901582, 0.220291410540728, 0.309847332512787, -1.405, 0.76, -0.761], a = 0.2, v = 0.2, t = 0.1)
movej(p[0.420877850700562, 0.220294482943249, 0.30984850476423, -1.405, 0.76, -0.761], a = 0.2, v = 0.2, t = 0.1)
movej(p[0.420870540990721, 0.220296120910018, 0.309846235523851, -1.405, 0.76, -0.761], a = 0.2, v = 0.2, t = 0.1)
movej(p[0.420859141676851, 0.220295708163094, 0.309839172825197, -1.405, 0.76, -0.761], a = 0.2, v = 0.2, t = 0.1)
movej(p[0.420842657353255, 0.220292972176742, 0.30982839341393, -1.405, 0.76, -0.761], a = 0.2, v = 0.2, t = 0.1)
movej(p[0.420820951572678, 0.220288028891745, 0.309817645588848, -1.405, 0.76, -0.761], a = 0.2, v = 0.2, t = 0.1)
movej(p[0.420795445913719, 0.220281820997134, 0.30981105598692, -1.405, 0.76, -0.761], a = 0.2, v = 0.2, t = 0.1)
movej(p[0.420768391314509, 0.220277216995871, 0.309811033076186, -1.405, 0.76, -0.761], a = 0.2, v = 0.2, t = 0.1)
movej(p[0.420742172844219, 0.220275307463887, 0.30981731616876, -1.405, 0.76, -0.761], a = 0.2, v = 0.2, t = 0.1)
movej(p[0.420718843616424, 0.220275117799687, 0.309827509648733, -1.405, 0.76, -0.761], a = 0.2, v = 0.2, t = 0.1)
movej(p[0.420700134195538, 0.220276532634961, 0.309839544014244, -1.405, 0.76, -0.761], a = 0.2, v = 0.2, t = 0.1)
movej(p[0.420686027387655, 0.220278783930246, 0.309850783945245, -1.405, 0.76, -0.761], a = 0.2, v = 0.2, t = 0.1)
movej(p[0.420677335073692, 0.220280954442426, 0.309860084155987, -1.405, 0.76, -0.761], a = 0.2, v = 0.2, t = 0.1)
movej(p[0.420674951163632, 0.22028252449982, 0.309867100126098, -1.405, 0.76, -0.761], a = 0.2, v = 0.2, t = 0.1)
movej(p[0.420679281283306, 0.220283622152204, 0.309871003960092, -1.405, 0.76, -0.761], a = 0.2, v = 0.2, t = 0.1)
movej(p[0.420690028185202, 0.22028503162918, 0.309871741198381, -1.405, 0.76, -0.761], a = 0.2, v = 0.2, t = 0.1)
movej(p[0.420705529091993, 0.220287715197614, 0.309871207165489, -1.405, 0.76, -0.761], a = 0.2, v = 0.2, t = 0.1)
movej(p[0.420723057452405, 0.220291971678034, 0.30987281195884, -1.405, 0.76, -0.761], a = 0.2, v = 0.2, t = 0.1)
movej(p[0.420740621798342, 0.2202968605726, 0.30987763033312, -1.405, 0.76, -0.761], a = 0.2, v = 0.2, t = 0.1)
movej(p[0.420756093329947, 0.22030082634156, 0.309881969956649, -1.405, 0.76, -0.761], a = 0.2, v = 0.2, t = 0.1)
movej(p[0.420768821070221, 0.220303481440641, 0.309880879223688, -1.405, 0.76, -0.761], a = 0.2, v = 0.2, t = 0.1)
