def moving():
set_payload_mass(0.606)
set_tcp(p[0.0005,0.0025,0.058,0,0,0])
movej(p[0.5359, 0.0125, 0.1627, -1.263, 1.183, -1.155], a = 0.2, v = 0.2, t = 0.2)
movej(p[0.536008715768837, 0.0124068925151484, 0.162797528856605, -1.2611951163603, 1.18136264918527, -1.15321089796327], a = 0.2, v = 0.2, t = 0.2)
movej(p[0.5359, 0.0125, 0.1627, -1.263, 1.183, -1.155], a = 0.2, v = 0.2, t = 0.2)
movej(p[0.536008715768837, 0.0124068925151484, 0.162797528856605, -1.2611951163603, 1.18136264918527, -1.15321089796327], a = 0.2, v = 0.2, t = 0.2)
movej(p[0.5359, 0.0125, 0.1627, -1.263, 1.183, -1.155], a = 0.2, v = 0.2, t = 0.2)
movej(p[0.536008715768837, 0.0124068925151484, 0.162797528856605, -1.2611951163603, 1.18136264918527, -1.15321089796327], a = 0.2, v = 0.2, t = 0.2)
movej(p[0.5359, 0.0125, 0.1627, -1.263, 1.183, -1.155], a = 0.2, v = 0.2, t = 0.2)
movej(p[0.536923125645958, 0.0125649970086579, 0.16250746023411, -1.26278527205705, 1.17901219841436, -1.16049502248849], a = 0.2, v = 0.2, t = 0.2)
movej(p[0.537946254425419, 0.0126298935115809, 0.162314821025884, -1.26257588054168, 1.17500636567662, -1.16597599992951], a = 0.2, v = 0.2, t = 0.2)
movej(p[0.538966282428866, 0.0126959001509812, 0.162121263784375, -1.2622933362137, 1.17114504663527, -1.17139885843461], a = 0.2, v = 0.2, t = 0.2)
movej(p[0.539685425020556, 0.0128561201124109, 0.16183115003638, -1.25434073295468, 1.18355046869262, -1.17288031623305], a = 0.2, v = 0.2, t = 0.2)
movej(p[0.540188950442686, 0.0127874416943412, 0.161860416982938, -1.25008591680343, 1.17679367408424, -1.18523200489205], a = 0.2, v = 0.2, t = 0.2)
movej(p[0.540615022847639, 0.0127598830611704, 0.161835124939218, -1.25435539478743, 1.17903653410706, -1.18166348107519], a = 0.2, v = 0.2, t = 0.2)
movej(p[0.540904016891755, 0.0127318258976092, 0.161786005716524, -1.257286748675, 1.21081258932228, -1.15342868096192], a = 0.2, v = 0.2, t = 0.2)
movej(p[0.54100938688829, 0.0127631430458459, 0.161766221630584, -1.24804565241786, 1.19636552346457, -1.17575132720883], a = 0.2, v = 0.2, t = 0.2)
movej(p[0.540812103099439, 0.012630246719707, 0.161972357709802, -1.23657233865943, 1.20438879761607, -1.17729697465666], a = 0.2, v = 0.2, t = 0.2)
movej(p[0.539616329403298, 0.0125121962054837, 0.162275325172919, -1.2402762471795, 1.19610420218084, -1.20108317312458], a = 0.2, v = 0.2, t = 0.2)
movej(p[0.537875601923253, 0.0122488410946883, 0.16282402630818, -1.23229985347542, 1.21066280497656, -1.20181380751794], a = 0.2, v = 0.2, t = 0.2)
movej(p[0.535400971720603, 0.0120760435296651, 0.16321614182898, -1.22791578023565, 1.23110390915162, -1.18235092723567], a = 0.2, v = 0.2, t = 0.2)
movej(p[0.533258528243567, 0.0118893544283505, 0.163662832568929, -1.24628341307486, 1.21809676913141, -1.18550895810964], a = 0.2, v = 0.2, t = 0.2)
movej(p[0.53116676759942, 0.0117162943795378, 0.164020718244957, -1.25144639996582, 1.23228723872612, -1.16353947572391], a = 0.2, v = 0.2, t = 0.2)
movej(p[0.528606425565807, 0.0114631152441159, 0.164557140817467, -1.26251060357654, 1.22671567330968, -1.17025180092654], a = 0.2, v = 0.2, t = 0.2)
movej(p[0.526000790832432, 0.0111845180082031, 0.165164285179518, -1.2735170226238, 1.2178077018123, -1.17167321961528], a = 0.2, v = 0.2, t = 0.2)
movej(p[0.523582296345229, 0.0109444887651335, 0.165595951969809, -1.28459635965856, 1.2278836803201, -1.15565568781648], a = 0.2, v = 0.2, t = 0.2)
movej(p[0.523640177144126, 0.01093854210519, 0.165687553227194, -1.27328821992738, 1.21182527285746, -1.15642803090598], a = 0.2, v = 0.2, t = 0.2)
movej(p[0.524682063680387, 0.0110195129060682, 0.165848115878398, -1.25831602639841, 1.17453365418591, -1.17699822670824], a = 0.2, v = 0.2, t = 0.2)
movej(p[0.525446300841223, 0.011121739286587, 0.165731569968457, -1.24204545152507, 1.17013489797368, -1.17774196659242], a = 0.2, v = 0.2, t = 0.2)
movej(p[0.526166224026663, 0.0112061811322657, 0.165561109293329, -1.2395602040278, 1.15477781334925, -1.19016175854545], a = 0.2, v = 0.2, t = 0.2)
movej(p[0.526999266446886, 0.0113245184125582, 0.165333004900121, -1.23248111600257, 1.18101777750997, -1.17325117903155], a = 0.2, v = 0.2, t = 0.2)
movej(p[0.528149626885472, 0.0114478266601992, 0.165125462236073, -1.24117863859408, 1.15610655008628, -1.18913469848335], a = 0.2, v = 0.2, t = 0.2)
movej(p[0.529099854792061, 0.0115383803823084, 0.164759585618959, -1.24058767206779, 1.16040171182769, -1.18513081419846], a = 0.2, v = 0.2, t = 0.2)
movej(p[0.529835811121472, 0.0116280976648832, 0.164569214191461, -1.24306745349443, 1.17041955619599, -1.17831553436541], a = 0.2, v = 0.2, t = 0.2)
movej(p[0.530973026293921, 0.0117427971363517, 0.164244860522148, -1.24954907369989, 1.17207366579459, -1.173103847624], a = 0.2, v = 0.2, t = 0.2)
movej(p[0.531812736504533, 0.0117692000829443, 0.163925555751427, -1.23870936366575, 1.15034907735839, -1.1818997735947], a = 0.2, v = 0.2, t = 0.2)
movej(p[0.532630392754358, 0.0118418593045182, 0.163704216024667, -1.24185916041646, 1.15403217884591, -1.18117872609004], a = 0.2, v = 0.2, t = 0.2)
movej(p[0.533707016749852, 0.0119443018300138, 0.163403916805059, -1.24838389158287, 1.17619902740276, -1.16827554158195], a = 0.2, v = 0.2, t = 0.2)
movej(p[0.534465997992558, 0.0120803475866605, 0.163399340199496, -1.24734434069126, 1.14799939614167, -1.1942908794345], a = 0.2, v = 0.2, t = 0.2)
movej(p[0.535300999982253, 0.0121713499261023, 0.163151158428566, -1.24146118303454, 1.16336414150492, -1.18330192535424], a = 0.2, v = 0.2, t = 0.2)
movej(p[0.536310242752054, 0.0121952786839754, 0.162811539382942, -1.2447648982298, 1.16292784664743, -1.18094358721253], a = 0.2, v = 0.2, t = 0.2)
movej(p[0.537355369319186, 0.012240950676535, 0.162479131775072, -1.2525782444938, 1.17835721373161, -1.17618078914987], a = 0.2, v = 0.2, t = 0.2)
movej(p[0.537966982771999, 0.0122546851732278, 0.162301099929778, -1.25425869517303, 1.17632197406226, -1.17922771872874], a = 0.2, v = 0.2, t = 0.2)
movej(p[0.538729391247004, 0.0123745351310281, 0.162165377069299, -1.25456833627662, 1.18850034156316, -1.18077279948635], a = 0.2, v = 0.2, t = 0.2)
movej(p[0.539336604276907, 0.0123911940915206, 0.16200386018055, -1.25451908920677, 1.18459834636914, -1.1929826045363], a = 0.2, v = 0.2, t = 0.2)
movej(p[0.540042577071189, 0.0126016396066926, 0.16199210650546, -1.25192535058569, 1.17147722376284, -1.20124541296125], a = 0.2, v = 0.2, t = 0.2)
movej(p[0.540351827592185, 0.0126164074809637, 0.161908588572338, -1.25679331287466, 1.18298308626345, -1.19988522896866], a = 0.2, v = 0.2, t = 0.2)
movej(p[0.539907946422326, 0.0126431625520321, 0.16204555295901, -1.24991097242691, 1.19572245755458, -1.20201190322094], a = 0.2, v = 0.2, t = 0.2)
movej(p[0.538882105059256, 0.0127256218960591, 0.162403628669436, -1.24669470846222, 1.20444581669092, -1.20286836050146], a = 0.2, v = 0.2, t = 0.2)
movej(p[0.537673735492107, 0.0123334386414227, 0.162459341719716, -1.23057543719748, 1.2060653425919, -1.18864289041422], a = 0.2, v = 0.2, t = 0.2)
movej(p[0.536644050330689, 0.0124104945624512, 0.162883395670753, -1.24512495020733, 1.19783285919631, -1.21612697752264], a = 0.2, v = 0.2, t = 0.2)
movej(p[0.535710473576355, 0.0122706866514864, 0.163060444313222, -1.24591948369017, 1.20592919531007, -1.20720303379016], a = 0.2, v = 0.2, t = 0.2)
movej(p[0.533689754135139, 0.0120437949208044, 0.16351158001613, -1.24760522597281, 1.21931066988629, -1.20178636748476], a = 0.2, v = 0.2, t = 0.2)
movej(p[0.531411826690992, 0.0116616518528292, 0.163994167992358, -1.24982991038687, 1.2081463133976, -1.20568780156961], a = 0.2, v = 0.2, t = 0.2)
movej(p[0.529239266348561, 0.0114677274496641, 0.164557034783307, -1.25215505253324, 1.19068482978908, -1.21108907128406], a = 0.2, v = 0.2, t = 0.2)
movej(p[0.526522800271334, 0.0111071814556858, 0.165143252744053, -1.25338395920511, 1.19830034425827, -1.19322378511854], a = 0.2, v = 0.2, t = 0.2)
movej(p[0.524401138915021, 0.0108266467554314, 0.165623502045024, -1.25409899428785, 1.19409800695892, -1.19440223191245], a = 0.2, v = 0.2, t = 0.2)
movej(p[0.523086858398494, 0.0105884210102162, 0.165906930127954, -1.25322835733267, 1.1857369624417, -1.19632198007249], a = 0.2, v = 0.2, t = 0.2)
movej(p[0.522517019700622, 0.0106022180339945, 0.166096464374311, -1.25278201784374, 1.16508344202243, -1.18832163016129], a = 0.2, v = 0.2, t = 0.2)
movej(p[0.523481539066246, 0.0111623422013094, 0.166051178167515, -1.25106926018479, 1.15096667239845, -1.19313453460241], a = 0.2, v = 0.2, t = 0.2)
movej(p[0.524131808853837, 0.0113334737109199, 0.165946071270668, -1.24991133803695, 1.14318909396627, -1.19040984773195], a = 0.2, v = 0.2, t = 0.2)
movej(p[0.524777538814687, 0.011480032114523, 0.165830460925135, -1.24850782529197, 1.13653642902941, -1.18614504440794], a = 0.2, v = 0.2, t = 0.2)
movej(p[0.525423169000163, 0.0116265844987638, 0.165714853519335, -1.24707995350021, 1.12991188255935, -1.18186165939358], a = 0.2, v = 0.2, t = 0.2)
movej(p[0.526013582909242, 0.0118076339502241, 0.165612317271639, -1.24847104104696, 1.13503369995351, -1.16979682433035], a = 0.2, v = 0.2, t = 0.2)
movej(p[0.526560813050901, 0.0118497024715316, 0.165467174061068, -1.25129587421217, 1.1456467972339, -1.15888209759541], a = 0.2, v = 0.2, t = 0.2)
movej(p[0.527383458760159, 0.0118436154550478, 0.165206314778563, -1.25280373341401, 1.15129366076938, -1.15414225704563], a = 0.2, v = 0.2, t = 0.2)
movej(p[0.528688912330031, 0.0122711282964867, 0.164956452902091, -1.25397474591362, 1.15146232602057, -1.15372846808979], a = 0.2, v = 0.2, t = 0.2)
movej(p[0.530124292092086, 0.0122959925514782, 0.164481994697917, -1.25527915501706, 1.14310854112417, -1.16044879459405], a = 0.2, v = 0.2, t = 0.2)
movej(p[0.531171969847121, 0.0125497399903954, 0.164196199213614, -1.26147656261646, 1.16253979210807, -1.14373167664216], a = 0.2, v = 0.2, t = 0.2)
movej(p[0.531981536672874, 0.012627685861807, 0.164007072256864, -1.25889637121523, 1.15549341281649, -1.1457138481882], a = 0.2, v = 0.2, t = 0.2)
movej(p[0.53249900133988, 0.0126262265909835, 0.163871497631918, -1.25818358298624, 1.16057857708808, -1.15204505614686], a = 0.2, v = 0.2, t = 0.2)
movej(p[0.533082161632059, 0.0125706931555504, 0.163708476157338, -1.25754784629183, 1.16409448917801, -1.15514084158967], a = 0.2, v = 0.2, t = 0.2)
movej(p[0.534365975430964, 0.0126830480557975, 0.163405491758182, -1.25652189831481, 1.16869532260099, -1.15271221698722], a = 0.2, v = 0.2, t = 0.2)
movej(p[0.535211189992484, 0.0129146180513525, 0.163233878436574, -1.25385403896528, 1.1782944551658, -1.16194082590487], a = 0.2, v = 0.2, t = 0.2)
movej(p[0.536181016878797, 0.0132054932508907, 0.163018118526306, -1.25311094031989, 1.18229535924438, -1.18037538705501], a = 0.2, v = 0.2, t = 0.2)
movej(p[0.536981573924368, 0.01328996816681, 0.162801896082129, -1.25453751768256, 1.18154052584384, -1.1746363799257], a = 0.2, v = 0.2, t = 0.2)
movej(p[0.537675321499386, 0.0129719385492231, 0.162582348354984, -1.25276672553866, 1.18312860376364, -1.16927898924928], a = 0.2, v = 0.2, t = 0.2)
movej(p[0.538406698340257, 0.0129553901344261, 0.162393143052191, -1.25193646530468, 1.18213654403203, -1.16965090388305], a = 0.2, v = 0.2, t = 0.2)
movej(p[0.539044493695989, 0.0130908952513685, 0.162247525925831, -1.25214029061252, 1.17838820836794, -1.16904006341208], a = 0.2, v = 0.2, t = 0.2)
movej(p[0.539500754495628, 0.0132029179636406, 0.162144760539401, -1.25194943549193, 1.17779385828566, -1.16962234243702], a = 0.2, v = 0.2, t = 0.2)
movej(p[0.539774882954766, 0.013136159307184, 0.162069728215176, -1.25103840932356, 1.18169072544423, -1.17089862577111], a = 0.2, v = 0.2, t = 0.2)
movej(p[0.540102613187627, 0.0128198135926356, 0.161962646081485, -1.25035869858809, 1.18282190254981, -1.17290673062241], a = 0.2, v = 0.2, t = 0.2)
movej(p[0.540493474821042, 0.0128647185941567, 0.161870346924598, -1.25051325561688, 1.18209934197971, -1.17184751059386], a = 0.2, v = 0.2, t = 0.2)
movej(p[0.54072193697058, 0.0130407146164917, 0.161827581209929, -1.25060827062653, 1.18183114105811, -1.17171698230923], a = 0.2, v = 0.2, t = 0.2)
movej(p[0.540726557125709, 0.0129139217935375, 0.16182001786319, -1.25148984498086, 1.17965224627711, -1.17097845555303], a = 0.2, v = 0.2, t = 0.2)
movej(p[0.540730672542426, 0.0128009285712648, 0.161813374440452, -1.25230947613206, 1.1776450694968, -1.1701374031733], a = 0.2, v = 0.2, t = 0.2)
movej(p[0.540335844135281, 0.0127898600258636, 0.161908356682023, -1.25206961205411, 1.17987996364024, -1.17184917591814], a = 0.2, v = 0.2, t = 0.2)
movej(p[0.538945039342609, 0.0126009170093119, 0.162233085222771, -1.25159924867258, 1.1858870467421, -1.17553758379824], a = 0.2, v = 0.2, t = 0.2)
movej(p[0.536192029859253, 0.0128142477418342, 0.162883336161344, -1.24524178134792, 1.20676225920063, -1.20566231176409], a = 0.2, v = 0.2, t = 0.2)
movej(p[0.534531986125173, 0.0127030636850716, 0.163260669232334, -1.24487589862408, 1.2060969463073, -1.21698783238486], a = 0.2, v = 0.2, t = 0.2)
movej(p[0.532960265305921, 0.0124792426600234, 0.163625909078294, -1.24688470364883, 1.2032425252665, -1.21124921080739], a = 0.2, v = 0.2, t = 0.2)
movej(p[0.531722464904751, 0.0122291813404296, 0.163922804200024, -1.24830988707182, 1.20419646476525, -1.20855332426254], a = 0.2, v = 0.2, t = 0.2)
movej(p[0.530321387897921, 0.0122102275357542, 0.164246958753007, -1.2512982033721, 1.200748694434, -1.1903895501641], a = 0.2, v = 0.2, t = 0.2)
movej(p[0.528859314601995, 0.0121580550314761, 0.164575915463132, -1.25375377431001, 1.19606165279745, -1.18766193248362], a = 0.2, v = 0.2, t = 0.2)
movej(p[0.527940637717268, 0.0120545797781912, 0.164785395446486, -1.25503198225567, 1.19640633924639, -1.1827056805469], a = 0.2, v = 0.2, t = 0.2)
movej(p[0.526942860692342, 0.0120406403842608, 0.165003958805327, -1.25698092035793, 1.19322304317924, -1.17672966072046], a = 0.2, v = 0.2, t = 0.2)
movej(p[0.526682437623631, 0.0119310959601651, 0.165077708140458, -1.25998935448101, 1.18408852150243, -1.17464350002086], a = 0.2, v = 0.2, t = 0.2)
movej(p[0.527102529877026, 0.012026960138305, 0.164966100354052, -1.25938326811284, 1.18388949974602, -1.17093608412192], a = 0.2, v = 0.2, t = 0.2)
movej(p[0.527648314911038, 0.0118549350636386, 0.164857391383241, -1.26072155052691, 1.18132968900991, -1.16352566211607], a = 0.2, v = 0.2, t = 0.2)
movej(p[0.528001552203738, 0.012112429507143, 0.164739807682796, -1.26271409745729, 1.17884820815943, -1.16119846240638], a = 0.2, v = 0.2, t = 0.2)
movej(p[0.52860858358887, 0.0123137352566881, 0.164562415961835, -1.26096306881476, 1.17254493916302, -1.16678855034134], a = 0.2, v = 0.2, t = 0.2)
movej(p[0.529412696151014, 0.0122373018372263, 0.164399323320093, -1.25988948713886, 1.17581515976758, -1.16452058030447], a = 0.2, v = 0.2, t = 0.2)
movej(p[0.530245201705237, 0.0124505645711267, 0.164187487302103, -1.26010563968493, 1.17574516792386, -1.16440985707558], a = 0.2, v = 0.2, t = 0.2)
movej(p[0.530658743422567, 0.0125392254016765, 0.164076919833317, -1.26204429570858, 1.17384750137557, -1.16095444747891], a = 0.2, v = 0.2, t = 0.2)
movej(p[0.53116373297583, 0.0126869097667644, 0.163945781130397, -1.26164785116128, 1.16993845751764, -1.16131768618154], a = 0.2, v = 0.2, t = 0.2)
movej(p[0.531999977314182, 0.0127943315996798, 0.163739368687973, -1.25916861977194, 1.17265606945168, -1.162788845273], a = 0.2, v = 0.2, t = 0.2)
movej(p[0.532940006040382, 0.0128885296494221, 0.163500819780315, -1.26001234170311, 1.17353555690422, -1.15645718338745], a = 0.2, v = 0.2, t = 0.2)
movej(p[0.533484063638303, 0.0130297062156306, 0.163359086907285, -1.26080999790593, 1.17299923266928, -1.15631157698223], a = 0.2, v = 0.2, t = 0.2)
movej(p[0.53437504804056, 0.01304359347333, 0.163159032817076, -1.25901166702382, 1.17511031350917, -1.15925865206907], a = 0.2, v = 0.2, t = 0.2)
movej(p[0.535210726110057, 0.0131274582701269, 0.162956601001348, -1.25896515716711, 1.17481128783192, -1.15339548646456], a = 0.2, v = 0.2, t = 0.2)
movej(p[0.535553253691912, 0.0132771956570949, 0.162836570086111, -1.26036940074685, 1.17280108452022, -1.15484313981828], a = 0.2, v = 0.2, t = 0.2)
movej(p[0.536071382594428, 0.0132731780419444, 0.16272170303624, -1.25571337717081, 1.17742936686968, -1.16367168631469], a = 0.2, v = 0.2, t = 0.2)
movej(p[0.536626831316935, 0.0131818897266762, 0.162633465968285, -1.26121214564395, 1.17131055377182, -1.14976954444011], a = 0.2, v = 0.2, t = 0.2)
movej(p[0.53748758167907, 0.0132173140745588, 0.162437843194404, -1.25731942218133, 1.17960526359043, -1.17695596864425], a = 0.2, v = 0.2, t = 0.2)
movej(p[0.538234950321882, 0.0133400591235944, 0.162243210810975, -1.25514238479145, 1.17966135348538, -1.18132032942362], a = 0.2, v = 0.2, t = 0.2)
movej(p[0.539008334937817, 0.013170365958704, 0.162132076452541, -1.25790112834369, 1.17795807283674, -1.18018602476723], a = 0.2, v = 0.2, t = 0.2)
movej(p[0.539555390710729, 0.0134532077761567, 0.161936555871466, -1.25963709269375, 1.17771828113676, -1.17680108415029], a = 0.2, v = 0.2, t = 0.2)
movej(p[0.540011995218147, 0.0134984806148145, 0.161824436542689, -1.25844663003747, 1.17776212575165, -1.17944343809813], a = 0.2, v = 0.2, t = 0.2)
movej(p[0.540424505392356, 0.0133824256895244, 0.161776738424383, -1.25920526271519, 1.17650041022943, -1.18127258494768], a = 0.2, v = 0.2, t = 0.2)
movej(p[0.540778532512837, 0.0131927169087229, 0.161770364536196, -1.2618534528621, 1.17485726538642, -1.18070360034203], a = 0.2, v = 0.2, t = 0.2)
movej(p[0.540781367365443, 0.0130966593242189, 0.161799157314283, -1.2581387731884, 1.18094625497891, -1.18087010077878], a = 0.2, v = 0.2, t = 0.2)
movej(p[0.540225932642788, 0.0131551379296854, 0.161858107136776, -1.23508402787093, 1.20707398111718, -1.20297988030104], a = 0.2, v = 0.2, t = 0.2)
movej(p[0.539182552934475, 0.0129963859751407, 0.162116910867834, -1.23318223854139, 1.20912722507821, -1.20552787951732], a = 0.2, v = 0.2, t = 0.2)
movej(p[0.53759883901848, 0.0129316604686716, 0.162448487059825, -1.23165765347131, 1.20957489627728, -1.21438400348016], a = 0.2, v = 0.2, t = 0.2)
movej(p[0.535520421002215, 0.0128149818945684, 0.162898437623789, -1.22914284476329, 1.21482101090674, -1.21432748618384], a = 0.2, v = 0.2, t = 0.2)
movej(p[0.533452093796838, 0.012622329144298, 0.16337883256476, -1.2343113061933, 1.20515494141915, -1.21222646347187], a = 0.2, v = 0.2, t = 0.2)
movej(p[0.532047237859359, 0.0126072253418337, 0.16367785910218, -1.24653939170552, 1.19527544013297, -1.19773856428993], a = 0.2, v = 0.2, t = 0.2)
movej(p[0.529848929854058, 0.0125411364634472, 0.164115036130375, -1.2490965808352, 1.19167979935172, -1.19358579106892], a = 0.2, v = 0.2, t = 0.2)
movej(p[0.528499176616735, 0.0124471015730624, 0.164411605882248, -1.24977332979739, 1.19422015045801, -1.18651118771326], a = 0.2, v = 0.2, t = 0.2)
movej(p[0.52835456255293, 0.01229780744776, 0.164511078273895, -1.25080050441634, 1.19114922484699, -1.18329562312812], a = 0.2, v = 0.2, t = 0.2)
movej(p[0.528519162111531, 0.012298298412054, 0.164482483094888, -1.25311580266361, 1.1917192215934, -1.17875276464586], a = 0.2, v = 0.2, t = 0.2)
movej(p[0.528625489874709, 0.0122804699087627, 0.164479617567367, -1.25735581644568, 1.19255520185018, -1.16682711555874], a = 0.2, v = 0.2, t = 0.2)
movej(p[0.528755881564201, 0.0123246183240994, 0.164420300919328, -1.25335246736422, 1.18072644736767, -1.18438953558271], a = 0.2, v = 0.2, t = 0.2)
movej(p[0.529426454259967, 0.0122429402026015, 0.164340358726701, -1.25074994812337, 1.1876650135807, -1.1754509615146], a = 0.2, v = 0.2, t = 0.2)
movej(p[0.530248500774665, 0.0123089454584786, 0.164176162856259, -1.25188481346815, 1.19060102699904, -1.16529258574043], a = 0.2, v = 0.2, t = 0.2)
movej(p[0.53073828858625, 0.0123563799499889, 0.164055161209007, -1.25037188064346, 1.18041191571063, -1.18113293593365], a = 0.2, v = 0.2, t = 0.2)
movej(p[0.531720538163168, 0.0125352595729199, 0.163773183268124, -1.2559632224708, 1.18066397981808, -1.1707998216361], a = 0.2, v = 0.2, t = 0.2)
movej(p[0.533450729297454, 0.012753633540437, 0.163329244827405, -1.25661518773755, 1.18944158986859, -1.16042422351616], a = 0.2, v = 0.2, t = 0.2)
movej(p[0.534517021359669, 0.012964330328748, 0.163005388746015, -1.25776452403153, 1.18053285848579, -1.16600589962037], a = 0.2, v = 0.2, t = 0.2)
movej(p[0.535591432948817, 0.0129705031425815, 0.162810464418457, -1.25289667159619, 1.18642024505603, -1.16616285634113], a = 0.2, v = 0.2, t = 0.2)
movej(p[0.53632009497308, 0.0130554777475552, 0.162621338029747, -1.2521848794156, 1.18230651432815, -1.17290042996796], a = 0.2, v = 0.2, t = 0.2)
movej(p[0.536745538152034, 0.0131653784614936, 0.162468359683054, -1.26355556752929, 1.16704194076598, -1.17455395955629], a = 0.2, v = 0.2, t = 0.2)
movej(p[0.537266666872925, 0.0131415146754138, 0.162394260519922, -1.24994605147058, 1.18461249556623, -1.17621156564836], a = 0.2, v = 0.2, t = 0.2)
movej(p[0.537939692525059, 0.0131329400057837, 0.162298936249085, -1.25219298232827, 1.18488718669456, -1.17984683186439], a = 0.2, v = 0.2, t = 0.2)
movej(p[0.538596390784719, 0.0132927944716556, 0.162048755843177, -1.25788660413478, 1.18322563079896, -1.18988262579764], a = 0.2, v = 0.2, t = 0.2)
movej(p[0.539026562084423, 0.0133678598650979, 0.161923692820592, -1.25804136212299, 1.1811463889731, -1.17687212805011], a = 0.2, v = 0.2, t = 0.2)
movej(p[0.539738485732626, 0.0132522501093457, 0.16190891298619, -1.25158710000924, 1.19413912151043, -1.187449087637], a = 0.2, v = 0.2, t = 0.2)
movej(p[0.540279523986048, 0.0133272537560323, 0.161753718007799, -1.25218051499565, 1.19680805598742, -1.18550099240941], a = 0.2, v = 0.2, t = 0.2)
movej(p[0.540618286544236, 0.0133837503221543, 0.161644944264708, -1.24295147933687, 1.19724664472935, -1.19008004654011], a = 0.2, v = 0.2, t = 0.2)
movej(p[0.540698823647628, 0.0132973343473549, 0.161738643433738, -1.23129926873653, 1.18315742768575, -1.21893557716653], a = 0.2, v = 0.2, t = 0.2)
movej(p[0.540134640834044, 0.0132029092245896, 0.161915553973412, -1.24148038866544, 1.19791707007631, -1.19326515688039], a = 0.2, v = 0.2, t = 0.2)
movej(p[0.539146155657685, 0.0131752468568312, 0.162064211026818, -1.22881392980911, 1.21288691220364, -1.19373438781323], a = 0.2, v = 0.2, t = 0.2)
movej(p[0.537831592633075, 0.0130311005043312, 0.162391218096147, -1.22043124571715, 1.2240038297305, -1.19211013039606], a = 0.2, v = 0.2, t = 0.2)
movej(p[0.53660781368565, 0.0127573353285059, 0.162901164423071, -1.24607836905679, 1.19317192892611, -1.1907512145593], a = 0.2, v = 0.2, t = 0.2)
movej(p[0.534616627417269, 0.0128116665337425, 0.1630255582523, -1.23211233584034, 1.20277904913707, -1.21094184282199], a = 0.2, v = 0.2, t = 0.2)
movej(p[0.532489415331027, 0.0127049667118455, 0.163418231218204, -1.2506063310645, 1.192555569617, -1.17345661315635], a = 0.2, v = 0.2, t = 0.2)
movej(p[0.530691806234025, 0.0125014549618215, 0.163863125061698, -1.25472347410028, 1.19184611395043, -1.18333116617906], a = 0.2, v = 0.2, t = 0.2)
movej(p[0.529119312512375, 0.012397258353825, 0.164140923661858, -1.26072071211088, 1.19508335253591, -1.17908688061813], a = 0.2, v = 0.2, t = 0.2)
movej(p[0.527417141468281, 0.012386900839382, 0.16428137923684, -1.26976079420139, 1.18232882151356, -1.18674882917035], a = 0.2, v = 0.2, t = 0.2)
movej(p[0.52613395374476, 0.0122358515051492, 0.164611424286544, -1.27109449278066, 1.19239442032372, -1.16823837086192], a = 0.2, v = 0.2, t = 0.2)
movej(p[0.526044671824324, 0.0122671449418624, 0.164577485672816, -1.26479664285751, 1.17069634783575, -1.17954161196029], a = 0.2, v = 0.2, t = 0.2)
movej(p[0.526058731653733, 0.0121818870069233, 0.164723630346776, -1.27195807030344, 1.17719061703283, -1.17201783752912], a = 0.2, v = 0.2, t = 0.2)
movej(p[0.526535980977026, 0.0121841348155755, 0.164710452305491, -1.26317612697098, 1.17362414735163, -1.17734508571885], a = 0.2, v = 0.2, t = 0.2)
movej(p[0.526837670799606, 0.0121973463256504, 0.164666482236659, -1.25767428127274, 1.18692571465363, -1.16316043262506], a = 0.2, v = 0.2, t = 0.2)
movej(p[0.527062739917449, 0.0122333866786476, 0.164585963138617, -1.25672520734951, 1.17750928660709, -1.16749696941334], a = 0.2, v = 0.2, t = 0.2)
movej(p[0.528089646051833, 0.0121906783057474, 0.164678783266004, -1.24867142220387, 1.1547960445846, -1.1840616429453], a = 0.2, v = 0.2, t = 0.2)
movej(p[0.528550044692313, 0.0122332137117289, 0.16457417599531, -1.24749211142659, 1.16851779461224, -1.17303848414364], a = 0.2, v = 0.2, t = 0.2)
movej(p[0.529088237344022, 0.0123777209994901, 0.164233401798179, -1.24641911472784, 1.17700148056068, -1.16007987715858], a = 0.2, v = 0.2, t = 0.2)
movej(p[0.530561205572185, 0.0124749804291278, 0.163971947974016, -1.2456957974002, 1.18287274485058, -1.15798504539138], a = 0.2, v = 0.2, t = 0.2)
movej(p[0.532152571432267, 0.0126481577090751, 0.163482631645785, -1.25065870678714, 1.18323368921449, -1.15683920041826], a = 0.2, v = 0.2, t = 0.2)
movej(p[0.533134618546146, 0.0127697091141059, 0.163120619184593, -1.25081914365256, 1.16729133758037, -1.17757368211851], a = 0.2, v = 0.2, t = 0.2)
movej(p[0.534635113575994, 0.0128145127317703, 0.163049912740436, -1.24747584995624, 1.19461060683271, -1.15798428722053], a = 0.2, v = 0.2, t = 0.2)
movej(p[0.536008221513361, 0.0129794303064579, 0.162527775741269, -1.24884717692752, 1.17896030374934, -1.17484786100792], a = 0.2, v = 0.2, t = 0.2)
movej(p[0.537448129810164, 0.0131047784005137, 0.162116821556338, -1.24573284716837, 1.1877335746242, -1.18077124728929], a = 0.2, v = 0.2, t = 0.2)
movej(p[0.538475878678772, 0.0131708588616076, 0.162022183690037, -1.25173864872144, 1.1650553343026, -1.19491482947472], a = 0.2, v = 0.2, t = 0.2)
movej(p[0.539200941850303, 0.013222226626578, 0.1618666084349, -1.24869209970255, 1.19217467401075, -1.17965710555266], a = 0.2, v = 0.2, t = 0.2)
movej(p[0.539794819250096, 0.0132613230469968, 0.16182227623526, -1.24693305986349, 1.18624048598376, -1.18916597598463], a = 0.2, v = 0.2, t = 0.2)
movej(p[0.539734827850158, 0.0132375887358341, 0.161945236449993, -1.24495749933265, 1.20034876049433, -1.17932268944545], a = 0.2, v = 0.2, t = 0.2)
movej(p[0.538532837010894, 0.0131327317340041, 0.162159453936422, -1.24888572098721, 1.20212678510264, -1.17670076201594], a = 0.2, v = 0.2, t = 0.2)
movej(p[0.53733084617163, 0.0130278747321741, 0.162373671422851, -1.25281720974847, 1.20389773758084, -1.17407813678858], a = 0.2, v = 0.2, t = 0.2)
movej(p[0.536128952204294, 0.0129230230602624, 0.162587786014084, -1.25674912149636, 1.2056671857269, -1.17145408612566], a = 0.2, v = 0.2, t = 0.2)
movej(p[0.534926955328081, 0.0128182658747234, 0.162802002987387, -1.26068219886611, 1.20742959765037, -1.16883149122045], a = 0.2, v = 0.2, t = 0.2)
movej(p[0.533724964488816, 0.0127134088728934, 0.163016220473816, -1.26461518137764, 1.20918797218839, -1.16620698534719], a = 0.2, v = 0.2, t = 0.2)
movej(p[0.532522970746106, 0.0126085511816194, 0.163230338004782, -1.26855143987151, 1.21094140862501, -1.16357972386213], a = 0.2, v = 0.2, t = 0.2)
movej(p[0.531321079682216, 0.0125037001991517, 0.163444552551478, -1.27248805266962, 1.21268912759002, -1.16095526041005], a = 0.2, v = 0.2, t = 0.2)
movej(p[0.530119088842952, 0.0123988431973217, 0.163658770037908, -1.27642456212166, 1.21443282076794, -1.15832889966975], a = 0.2, v = 0.2, t = 0.2)
movej(p[0.528917098003688, 0.0122939861954917, 0.163872987524337, -1.28036481107543, 1.21617202963312, -1.15570240079111], a = 0.2, v = 0.2, t = 0.2)
movej(p[0.527794098745561, 0.0122282950640527, 0.164072635017429, -1.28064378948412, 1.20810934832346, -1.16032465097574], a = 0.2, v = 0.2, t = 0.2)
movej(p[0.526998675040604, 0.0122153134275357, 0.164279511349343, -1.2862044297877, 1.20303398090288, -1.1597861859954], a = 0.2, v = 0.2, t = 0.2)
movej(p[0.526364330517321, 0.0121648502504635, 0.164498674721145, -1.29031935236873, 1.20685775388129, -1.15034685224537], a = 0.2, v = 0.2, t = 0.2)
movej(p[0.525743826229893, 0.0120487857089218, 0.164675669753506, -1.28300962535535, 1.19945014535368, -1.15586657142744], a = 0.2, v = 0.2, t = 0.2)
movej(p[0.526575312033002, 0.0119215105680745, 0.164687810912858, -1.26694068721126, 1.19218854409816, -1.16263730264547], a = 0.2, v = 0.2, t = 0.2)
movej(p[0.527928610318288, 0.0117845819589383, 0.164712173528507, -1.24789549609951, 1.20157386057263, -1.15863361421263], a = 0.2, v = 0.2, t = 0.2)
movej(p[0.529660914359396, 0.011931157192105, 0.164230351880816, -1.24527694683429, 1.19330992316109, -1.15841431691097], a = 0.2, v = 0.2, t = 0.2)
movej(p[0.530684053434102, 0.0120806228865295, 0.163806426309518, -1.24935659465519, 1.17552839995672, -1.17273242036469], a = 0.2, v = 0.2, t = 0.2)
movej(p[0.531783119002465, 0.0120801379943013, 0.163682863850342, -1.2467343100931, 1.17874983720546, -1.17387077312708], a = 0.2, v = 0.2, t = 0.2)
movej(p[0.532530544396098, 0.0122345751723467, 0.16335775320919, -1.24904881997943, 1.18844414644267, -1.15418432802644], a = 0.2, v = 0.2, t = 0.2)
movej(p[0.532885036657173, 0.0122793535184825, 0.163200982176931, -1.25014244292219, 1.17352547909566, -1.16700103868219], a = 0.2, v = 0.2, t = 0.2)
movej(p[0.532980955232982, 0.0122887077202152, 0.163210036773817, -1.2507643661183, 1.18732571811049, -1.15643753078329], a = 0.2, v = 0.2, t = 0.2)
movej(p[0.533076867771841, 0.012298161738239, 0.163219090857577, -1.25135710175167, 1.20101296966223, -1.14573355142155], a = 0.2, v = 0.2, t = 0.2)
movej(p[0.533327524099524, 0.0123348103795489, 0.16307279536044, -1.25257523169282, 1.1640537976138, -1.17984236721688], a = 0.2, v = 0.2, t = 0.2)
movej(p[0.534288168182745, 0.0123921206045122, 0.162880122649638, -1.25347110799422, 1.17898091694643, -1.16797496152241], a = 0.2, v = 0.2, t = 0.2)
movej(p[0.535004381432327, 0.0125067361126984, 0.162737374001986, -1.26132262569503, 1.2090322506845, -1.14457138265783], a = 0.2, v = 0.2, t = 0.2)
movej(p[0.535522355522362, 0.0125751625817721, 0.162490052995232, -1.25492634741745, 1.20282671588421, -1.15028880695945], a = 0.2, v = 0.2, t = 0.2)
movej(p[0.536345791247313, 0.0125453936269721, 0.162387804688617, -1.24426501295008, 1.21168336590738, -1.15274328284008], a = 0.2, v = 0.2, t = 0.2)
movej(p[0.537803086788508, 0.0126986250611072, 0.161953943232384, -1.2528923611621, 1.18645832328259, -1.17120924004693], a = 0.2, v = 0.2, t = 0.2)
movej(p[0.538979887853907, 0.0126761643871126, 0.161824872822917, -1.24476943163384, 1.19700317306177, -1.17652634233638], a = 0.2, v = 0.2, t = 0.2)
movej(p[0.539710024546691, 0.0126742740759523, 0.161773263748382, -1.24283957452281, 1.21870584087537, -1.16270068649589], a = 0.2, v = 0.2, t = 0.2)
movej(p[0.539981193344744, 0.0126939504050858, 0.161611482800696, -1.24016704120272, 1.20389549979278, -1.18486740643808], a = 0.2, v = 0.2, t = 0.2)
movej(p[0.54013036731561, 0.0126414750211946, 0.1616924494636, -1.2398652157052, 1.21682193585332, -1.18462407480984], a = 0.2, v = 0.2, t = 0.2)
movej(p[0.540022374064455, 0.0125604685919148, 0.161762974892492, -1.23399780836966, 1.21555918728724, -1.19582077564898], a = 0.2, v = 0.2, t = 0.2)
movej(p[0.539015900421132, 0.0124671855350167, 0.16206477485371, -1.22918899182212, 1.23706190745463, -1.18584656670334], a = 0.2, v = 0.2, t = 0.2)
movej(p[0.537358928212489, 0.0122882182320001, 0.162550434316954, -1.22702474459772, 1.24181367729091, -1.19126521076658], a = 0.2, v = 0.2, t = 0.2)
movej(p[0.535602939349692, 0.0122459883485031, 0.162853644690578, -1.23468991929291, 1.22310535484695, -1.19847296950771], a = 0.2, v = 0.2, t = 0.2)
movej(p[0.533770266234384, 0.012312422826498, 0.163038779783307, -1.23683835148376, 1.23335420624145, -1.16591972174422], a = 0.2, v = 0.2, t = 0.2)
movej(p[0.532303637429809, 0.0123074279163181, 0.16322467978455, -1.24665463380396, 1.21241414564239, -1.17966324200341], a = 0.2, v = 0.2, t = 0.2)
movej(p[0.531018068086572, 0.0122290648912062, 0.163612518591304, -1.2541020397944, 1.21896407137897, -1.16297956027647], a = 0.2, v = 0.2, t = 0.2)
movej(p[0.529411567910498, 0.0122483698147487, 0.163934672831073, -1.27195775403752, 1.21861090293341, -1.1506203580154], a = 0.2, v = 0.2, t = 0.2)
movej(p[0.528399345439405, 0.0122316376069118, 0.16407223878702, -1.27201742873928, 1.21660071773442, -1.14851784142795], a = 0.2, v = 0.2, t = 0.2)
movej(p[0.528092883729161, 0.0120318696699995, 0.164286609497557, -1.25826292119497, 1.19397136974547, -1.16783910527614], a = 0.2, v = 0.2, t = 0.2)
movej(p[0.527488506701035, 0.0120756027199033, 0.164372093813193, -1.27273762274291, 1.17678175076931, -1.17819960313164], a = 0.2, v = 0.2, t = 0.2)
movej(p[0.527480449619983, 0.0120252752113137, 0.164499031259694, -1.27283887666715, 1.19789012467053, -1.16558335636161], a = 0.2, v = 0.2, t = 0.2)
movej(p[0.527723658763925, 0.0121148848609089, 0.164296861966768, -1.26424314917058, 1.2224405462899, -1.13752549279297], a = 0.2, v = 0.2, t = 0.2)
movej(p[0.528219022974502, 0.0118619257855039, 0.164569844924203, -1.2571452215966, 1.2014236242327, -1.16382930318265], a = 0.2, v = 0.2, t = 0.2)
movej(p[0.528707540352321, 0.0117224685284981, 0.164727192644357, -1.25793081778144, 1.20190497113263, -1.17353649004204], a = 0.2, v = 0.2, t = 0.2)
movej(p[0.52969189742522, 0.011816197522434, 0.164441038719468, -1.25087786069655, 1.21321461852689, -1.15612175636155], a = 0.2, v = 0.2, t = 0.2)
movej(p[0.53067625449812, 0.0119099265163698, 0.16415488479458, -1.24384995997759, 1.22435272313881, -1.13859204980634], a = 0.2, v = 0.2, t = 0.2)
movej(p[0.531458537185577, 0.0119268855714426, 0.164057811485397, -1.25941203293692, 1.20325887774677, -1.17803101031278], a = 0.2, v = 0.2, t = 0.2)
movej(p[0.532352651818185, 0.0120756794324139, 0.163695964348206, -1.26055389588792, 1.19873271499524, -1.18580074095916], a = 0.2, v = 0.2, t = 0.2)
movej(p[0.533400582276285, 0.0122401764506131, 0.163273415953357, -1.25635616457564, 1.20046010239537, -1.18242316697871], a = 0.2, v = 0.2, t = 0.2)
movej(p[0.53489598242421, 0.0123873447132763, 0.162790368046778, -1.24507217499916, 1.20878609836659, -1.16699418851946], a = 0.2, v = 0.2, t = 0.2)
movej(p[0.535754000176682, 0.012325064016222, 0.162914240526443, -1.26327076784521, 1.21149028206269, -1.18274722814495], a = 0.2, v = 0.2, t = 0.2)
movej(p[0.537002719030276, 0.0123321161765654, 0.162691036624794, -1.26104701714394, 1.20296169885781, -1.19885392951937], a = 0.2, v = 0.2, t = 0.2)
movej(p[0.537900471313514, 0.0123960229849613, 0.162455725473801, -1.25789601250085, 1.2060814136197, -1.19909696540366], a = 0.2, v = 0.2, t = 0.2)
movej(p[0.538727740182042, 0.0124195574868215, 0.162289970092632, -1.25442445299979, 1.21042134833705, -1.19902829355028], a = 0.2, v = 0.2, t = 0.2)
movej(p[0.539337495437084, 0.0123099791811623, 0.162350848774266, -1.24993832246748, 1.21834462411526, -1.19845917071419], a = 0.2, v = 0.2, t = 0.2)
movej(p[0.539382137812751, 0.0123666030483824, 0.162277729652582, -1.25479839528455, 1.21263066416192, -1.20186931142341], a = 0.2, v = 0.2, t = 0.2)
movej(p[0.539374265387322, 0.0124387215246659, 0.162192222925967, -1.26050083724687, 1.20561091975906, -1.20563583777418], a = 0.2, v = 0.2, t = 0.2)
movej(p[0.538893917710712, 0.0124501589050716, 0.162097648585342, -1.23347885276702, 1.22735610957813, -1.19291887025874], a = 0.2, v = 0.2, t = 0.2)
movej(p[0.538427126510294, 0.012220344268614, 0.162601910638328, -1.2541778254417, 1.21517618018159, -1.19868869633885], a = 0.2, v = 0.2, t = 0.2)
movej(p[0.53724080828708, 0.0125756317422311, 0.162300270895651, -1.26196679029094, 1.20545570888039, -1.18958600042541], a = 0.2, v = 0.2, t = 0.2)
movej(p[0.53579799023099, 0.0124556404439485, 0.162579213838485, -1.24364206619429, 1.22562169852336, -1.17541942751793], a = 0.2, v = 0.2, t = 0.2)
movej(p[0.534221778562579, 0.0120458245710341, 0.163220789474456, -1.21399794368835, 1.25314172359945, -1.16820621991035], a = 0.2, v = 0.2, t = 0.2)
movej(p[0.53361907913226, 0.0120950795844185, 0.163347305285128, -1.24309527507539, 1.21409226266798, -1.18943308395933], a = 0.2, v = 0.2, t = 0.2)
movej(p[0.53199706005103, 0.0120887739313178, 0.163644775685107, -1.25751223415163, 1.1957225264731, -1.18784506718189], a = 0.2, v = 0.2, t = 0.2)
movej(p[0.529506594644648, 0.0120340915267713, 0.164047441333316, -1.25573754166106, 1.19326478105782, -1.17960672350925], a = 0.2, v = 0.2, t = 0.2)
movej(p[0.52867693508764, 0.0119135329220302, 0.164368804355907, -1.25963229668411, 1.20065994129048, -1.17008999202134], a = 0.2, v = 0.2, t = 0.2)
movej(p[0.528302570689499, 0.0118488922022217, 0.164500978350122, -1.26102496881396, 1.19432975508129, -1.17640465237597], a = 0.2, v = 0.2, t = 0.2)
movej(p[0.528297142382191, 0.0118682290949571, 0.164448179126083, -1.25915625285372, 1.18892554554767, -1.1821207918029], a = 0.2, v = 0.2, t = 0.2)
movej(p[0.528375588726343, 0.0118772086668565, 0.164414524581402, -1.25727248241218, 1.19176481497151, -1.17995575644663], a = 0.2, v = 0.2, t = 0.2)
movej(p[0.529185829448636, 0.0116229369504177, 0.164683772656898, -1.26078174278666, 1.20864182333055, -1.1722984072812], a = 0.2, v = 0.2, t = 0.2)
movej(p[0.529637001136932, 0.0116191519313538, 0.16452492848385, -1.24324656954766, 1.21317147987963, -1.17162813027946], a = 0.2, v = 0.2, t = 0.2)
movej(p[0.529971738630928, 0.011696574080357, 0.164227143156883, -1.21883065642645, 1.2136555603772, -1.1733978467196], a = 0.2, v = 0.2, t = 0.2)
movej(p[0.531429116873323, 0.0118724903965423, 0.163995613011344, -1.25884436100633, 1.19941357891099, -1.18715202493326], a = 0.2, v = 0.2, t = 0.2)
movej(p[0.532577406459803, 0.0133810562570469, 0.161924549950957, -1.26858245027965, 1.16083218629538, -1.18751927419475], a = 0.2, v = 0.2, t = 0.2)
movej(p[0.533188720039628, 0.0133180793626165, 0.161892220585216, -1.26630630689907, 1.16571999537964, -1.18628462704059], a = 0.2, v = 0.2, t = 0.2)
movej(p[0.533777622097968, 0.0131896656439267, 0.161944930949811, -1.26352242501136, 1.17240575766055, -1.1849800320984], a = 0.2, v = 0.2, t = 0.2)
movej(p[0.534366521252862, 0.0130612512357929, 0.161997541358942, -1.26071545315781, 1.17907379938827, -1.18365809205662], a = 0.2, v = 0.2, t = 0.2)
movej(p[0.534955420407756, 0.0129328368276591, 0.162050151768074, -1.25788542530683, 1.18572180109111, -1.18232089971136], a = 0.2, v = 0.2, t = 0.2)
movej(p[0.535544319562649, 0.0128044224195253, 0.162102762177205, -1.25502986605279, 1.19235137728334, -1.18096597326914], a = 0.2, v = 0.2, t = 0.2)
movej(p[0.536133221620989, 0.0126760087008355, 0.1621554725418, -1.25214881848442, 1.19896020405602, -1.17959543805157], a = 0.2, v = 0.2, t = 0.2)
movej(p[0.536722120775883, 0.0125475942927017, 0.162208082950932, -1.24924495778491, 1.20555064821724, -1.17820772157063], a = 0.2, v = 0.2, t = 0.2)
movej(p[0.537311019930777, 0.0124191798845679, 0.162260693360063, -1.24631913994934, 1.21211913930608, -1.17680364104109], a = 0.2, v = 0.2, t = 0.2)
movej(p[0.53789991908567, 0.0122907654764341, 0.162313303769195, -1.24336598663692, 1.21866853648214, -1.17538416250696], a = 0.2, v = 0.2, t = 0.2)
movej(p[0.53848882114401, 0.0121623517577443, 0.162366014133789, -1.24039023879892, 1.22519905654594, -1.17394763392263], a = 0.2, v = 0.2, t = 0.2)
movej(p[0.539038622364093, 0.0121947323972893, 0.162196452190601, -1.23144834030203, 1.2215863623829, -1.18476884629016], a = 0.2, v = 0.2, t = 0.2)
movej(p[0.5388228821525, 0.0121876474816162, 0.16226509550835, -1.22708895252619, 1.24513039370534, -1.16782130174429], a = 0.2, v = 0.2, t = 0.2)
movej(p[0.538619744814659, 0.0121416528488905, 0.162314432570843, -1.22327050523819, 1.24381889190044, -1.17493775891098], a = 0.2, v = 0.2, t = 0.2)
movej(p[0.538194288802237, 0.0119996768398692, 0.162503348436658, -1.22124822002601, 1.24433839900381, -1.18677805315288], a = 0.2, v = 0.2, t = 0.2)
movej(p[0.537535202271937, 0.0119256231761674, 0.162712088180043, -1.22213083681196, 1.25736556699825, -1.17221444806841], a = 0.2, v = 0.2, t = 0.2)
movej(p[0.536421616239152, 0.0118837437640305, 0.162892189491601, -1.21533253839084, 1.25385576217427, -1.18363086819661], a = 0.2, v = 0.2, t = 0.2)
movej(p[0.535170700876903, 0.0118029016442827, 0.163189098733903, -1.21918637942836, 1.25824664019503, -1.17633019375666], a = 0.2, v = 0.2, t = 0.2)
movej(p[0.533793841757371, 0.0119584071073385, 0.16329434984279, -1.23360228018782, 1.2290405889079, -1.19108076255377], a = 0.2, v = 0.2, t = 0.2)
movej(p[0.533025005598225, 0.0119861302023922, 0.163408632345344, -1.23888887147648, 1.2228436135354, -1.19040505121446], a = 0.2, v = 0.2, t = 0.2)
movej(p[0.532997263871137, 0.0119923661985012, 0.163408494756347, -1.23911231265637, 1.22301228115208, -1.18979554646058], a = 0.2, v = 0.2, t = 0.2)
movej(p[0.532096330243939, 0.01227301063623, 0.16335349349313, -1.25764469301552, 1.2076962140969, -1.19050532594923], a = 0.2, v = 0.2, t = 0.2)
movej(p[0.531248363638523, 0.0123446049993147, 0.163480976916654, -1.2581011463161, 1.20493964022521, -1.18736010329749], a = 0.2, v = 0.2, t = 0.2)
movej(p[0.530137220745004, 0.0122313071901791, 0.163771248748954, -1.26309069930659, 1.19917616997977, -1.18190156544722], a = 0.2, v = 0.2, t = 0.2)
movej(p[0.528964591276915, 0.0120876859844001, 0.164089627391171, -1.26783494995873, 1.19435395158755, -1.17744725115654], a = 0.2, v = 0.2, t = 0.2)
movej(p[0.529558977807296, 0.0119479220230694, 0.16403310812353, -1.25849566251741, 1.20263540384337, -1.1806759591337], a = 0.2, v = 0.2, t = 0.2)
movej(p[0.530283538901417, 0.011724361350964, 0.164015304281992, -1.25456561509931, 1.20757818024665, -1.17620307082571], a = 0.2, v = 0.2, t = 0.2)
movej(p[0.530770264327268, 0.0116378633483555, 0.163971949520143, -1.25490995561914, 1.20781039417907, -1.16920893535891], a = 0.2, v = 0.2, t = 0.2)
movej(p[0.531395603631021, 0.0114434939505786, 0.163959527668878, -1.25139434218758, 1.21506829160294, -1.16191156952987], a = 0.2, v = 0.2, t = 0.2)
movej(p[0.532583002227369, 0.0115415086342833, 0.163657842078952, -1.24935281640092, 1.20727639582544, -1.1684757423871], a = 0.2, v = 0.2, t = 0.2)
movej(p[0.533608197137319, 0.0117203846004527, 0.163357108915932, -1.24795869282345, 1.20640052024157, -1.1768187297881], a = 0.2, v = 0.2, t = 0.2)
movej(p[0.534890508506884, 0.0117993381266548, 0.163064002822197, -1.2482227497717, 1.21464340352528, -1.16934128633298], a = 0.2, v = 0.2, t = 0.2)
movej(p[0.535569131227094, 0.0119159990402067, 0.162884415086358, -1.26341248471906, 1.20760320605155, -1.17303991666985], a = 0.2, v = 0.2, t = 0.2)
movej(p[0.534885236320889, 0.0120500398685917, 0.162939171853906, -1.26158773135692, 1.2070877356918, -1.17330244229149], a = 0.2, v = 0.2, t = 0.2)
movej(p[0.534402203680179, 0.0119976108782086, 0.163061512399008, -1.26148891602493, 1.20741450042895, -1.17250533579504], a = 0.2, v = 0.2, t = 0.2)
movej(p[0.533919068130591, 0.0119452763741982, 0.163183955326181, -1.26139232141996, 1.20773888234727, -1.17170801288589], a = 0.2, v = 0.2, t = 0.2)
movej(p[0.533436038393327, 0.011892848073259, 0.163306395826747, -1.26129638505249, 1.20806559174423, -1.17091099008403], a = 0.2, v = 0.2, t = 0.2)
movej(p[0.532953005752617, 0.0118404190828759, 0.16342873637185, -1.26120009173442, 1.20838952184283, -1.17011329450513], a = 0.2, v = 0.2, t = 0.2)
movej(p[0.532469876239979, 0.0117879847625744, 0.163551179812149, -1.26110187764707, 1.20871538101211, -1.16931544121378], a = 0.2, v = 0.2, t = 0.2)
movej(p[0.531986843599269, 0.0117355557721913, 0.163673520357252, -1.26100718540727, 1.20904011914816, -1.16851655049052], a = 0.2, v = 0.2, t = 0.2)
movej(p[0.531503813862004, 0.0116831274712521, 0.163795960857818, -1.26091054932133, 1.20936466190064, -1.16771960450751], a = 0.2, v = 0.2, t = 0.2)
movej(p[0.531020678312416, 0.0116307929672417, 0.163918403784991, -1.26081615785609, 1.20968894662895, -1.16692034121866], a = 0.2, v = 0.2, t = 0.2)
movej(p[0.530537645671706, 0.0115783639768586, 0.164040744330094, -1.26071854344544, 1.21001389902304, -1.16612174273849], a = 0.2, v = 0.2, t = 0.2)
movej(p[0.530054516159068, 0.0115259296565572, 0.164163187770393, -1.26062315145212, 1.21033647272166, -1.16532293206308], a = 0.2, v = 0.2, t = 0.2)
movej(p[0.529571486421804, 0.011473501355618, 0.164285628270959, -1.26052841462955, 1.21066136707027, -1.16452441824543], a = 0.2, v = 0.2, t = 0.2)
movej(p[0.529903189731592, 0.011416618129357, 0.16424597196193, -1.25950536985906, 1.21248816223782, -1.16442247093059], a = 0.2, v = 0.2, t = 0.2)
movej(p[0.530338951789482, 0.0113671027301335, 0.16418143248453, -1.25828236173785, 1.21450093477727, -1.16446133765153], a = 0.2, v = 0.2, t = 0.2)
movej(p[0.530533642963348, 0.0113564467263668, 0.164144436722582, -1.25694615300861, 1.21604233211249, -1.16456421685869], a = 0.2, v = 0.2, t = 0.2)
movej(p[0.531238449289274, 0.0113714244310718, 0.163988800475848, -1.25647044984871, 1.21152592508287, -1.17174973136492], a = 0.2, v = 0.2, t = 0.2)
movej(p[0.532356636125023, 0.0114960879546533, 0.163702347467057, -1.25596908909446, 1.20768429291399, -1.17341371405471], a = 0.2, v = 0.2, t = 0.2)
movej(p[0.533744271162881, 0.0117181086107919, 0.163320757582552, -1.25523209960591, 1.2059372602773, -1.1682304880782], a = 0.2, v = 0.2, t = 0.2)
movej(p[0.535131903297294, 0.0119401285774867, 0.162939067742584, -1.254499991781, 1.20419596948706, -1.16304365883845], a = 0.2, v = 0.2, t = 0.2)
movej(p[0.536519438559778, 0.0121621432142631, 0.162557480797813, -1.25376942327322, 1.2024634212956, -1.15785200881216], a = 0.2, v = 0.2, t = 0.2)
movej(p[0.537907076731139, 0.0123840633646669, 0.162175791470971, -1.25304294802901, 1.20073786104115, -1.15265811864572], a = 0.2, v = 0.2, t = 0.2)
movej(p[0.539294611993623, 0.0126060780014433, 0.1617942045262, -1.25231723537584, 1.19902228503328, -1.14746077342363], a = 0.2, v = 0.2, t = 0.2)
movej(p[0.540105970918606, 0.0122949013629469, 0.161777385058153, -1.25577223265147, 1.20234292513266, -1.16910298070448], a = 0.2, v = 0.2, t = 0.2)
movej(p[0.539929954711786, 0.0122394424324145, 0.161829801295723, -1.25156913872361, 1.20697361604264, -1.19303322830165], a = 0.2, v = 0.2, t = 0.2)
movej(p[0.539594464329434, 0.0125496944321699, 0.161739262740417, -1.24195263335275, 1.20965036334191, -1.20527692809451], a = 0.2, v = 0.2, t = 0.2)
movej(p[0.538581731599201, 0.012348308366747, 0.162035887435559, -1.23536962567331, 1.22464099726993, -1.20449064041628], a = 0.2, v = 0.2, t = 0.2)
movej(p[0.537281830342151, 0.0122416082080177, 0.162341901288266, -1.23809816321571, 1.22101864662723, -1.20734022185205], a = 0.2, v = 0.2, t = 0.2)
movej(p[0.535786405214996, 0.0122487909558705, 0.162643504947406, -1.24005376510698, 1.22299028137563, -1.20088457582665], a = 0.2, v = 0.2, t = 0.2)
movej(p[0.533768753278953, 0.0121776594509227, 0.16309247674383, -1.24855842790366, 1.21554663282238, -1.19684066834113], a = 0.2, v = 0.2, t = 0.2)
movej(p[0.532387443333975, 0.012096009762913, 0.163421691877676, -1.24660732433709, 1.21210571875939, -1.19885307193441], a = 0.2, v = 0.2, t = 0.2)
movej(p[0.530905272019541, 0.0119137544925682, 0.163822661042449, -1.25085755612033, 1.20459728161191, -1.19148621416704], a = 0.2, v = 0.2, t = 0.2)
movej(p[0.529793308525902, 0.0118748976472166, 0.164084430777873, -1.25608893545694, 1.20260451295554, -1.17949768857617], a = 0.2, v = 0.2, t = 0.2)
movej(p[0.530302509592703, 0.0118145472679646, 0.164010429525904, -1.25528952736541, 1.19676746169886, -1.18199274497929], a = 0.2, v = 0.2, t = 0.2)
movej(p[0.530802585976473, 0.0116636221963617, 0.163944721359316, -1.24734096339518, 1.20404498790362, -1.18191534977689], a = 0.2, v = 0.2, t = 0.2)
movej(p[0.531546830089237, 0.0115543616019886, 0.163849323439347, -1.25363635285603, 1.20054334599727, -1.1740871299008], a = 0.2, v = 0.2, t = 0.2)
movej(p[0.532323855870539, 0.0116535666323919, 0.163657193386691, -1.25510316849037, 1.19427845032649, -1.17586828533859], a = 0.2, v = 0.2, t = 0.2)
movej(p[0.533364851122364, 0.011896059952624, 0.163346058230656, -1.2505553461861, 1.19566520081671, -1.18143924839872], a = 0.2, v = 0.2, t = 0.2)
movej(p[0.534823976130613, 0.0120656927186449, 0.163021479249518, -1.25202744275956, 1.18378530923471, -1.1788539839407], a = 0.2, v = 0.2, t = 0.2)
movej(p[0.536026128168874, 0.0120646450053903, 0.162803385510034, -1.25646363262951, 1.18522084114376, -1.19090718775376], a = 0.2, v = 0.2, t = 0.2)
movej(p[0.536883124106461, 0.0122017376251996, 0.162589862826105, -1.25502862620971, 1.18206283326379, -1.19432727590472], a = 0.2, v = 0.2, t = 0.2)
movej(p[0.538311750145897, 0.0122060508656148, 0.162289720034419, -1.2544976923059, 1.18215591813854, -1.19688917172013], a = 0.2, v = 0.2, t = 0.2)
movej(p[0.539521404090715, 0.0121712509874915, 0.162063237447298, -1.25666761185552, 1.1790734804672, -1.19755866174194], a = 0.2, v = 0.2, t = 0.2)
movej(p[0.540194987868069, 0.0122341903111666, 0.16191898213051, -1.25708453142565, 1.17474391373717, -1.19686991397817], a = 0.2, v = 0.2, t = 0.2)
movej(p[0.540418456778956, 0.0125773860479702, 0.161719138686517, -1.2434063877028, 1.1814714759538, -1.19505520084279], a = 0.2, v = 0.2, t = 0.2)
movej(p[0.54052137582116, 0.0125415562853784, 0.161723599500847, -1.24518118328452, 1.18188759259491, -1.20208794953647], a = 0.2, v = 0.2, t = 0.2)
movej(p[0.540193018674846, 0.0123878142109288, 0.161833342013159, -1.25110685941452, 1.17801171529944, -1.20734760246688], a = 0.2, v = 0.2, t = 0.2)
movej(p[0.539894879467123, 0.0124859501903288, 0.161824417756002, -1.24180341429149, 1.18985499166202, -1.21237973225769], a = 0.2, v = 0.2, t = 0.2)
movej(p[0.53959674629635, 0.0125839863534378, 0.161815494011971, -1.23238887940813, 1.20162889443334, -1.21740761650213], a = 0.2, v = 0.2, t = 0.2)
movej(p[0.538351125787562, 0.0124783692772787, 0.162122324749203, -1.23683224898831, 1.20064809835042, -1.22483962612197], a = 0.2, v = 0.2, t = 0.2)
movej(p[0.536817283522617, 0.012201865719943, 0.162590373816128, -1.25165471722887, 1.18780465797045, -1.19731533345727], a = 0.2, v = 0.2, t = 0.2)
movej(p[0.53407562068276, 0.0122991284258466, 0.163115940004719, -1.24287123669604, 1.19998651563664, -1.20586327914818], a = 0.2, v = 0.2, t = 0.2)
movej(p[0.532836502711623, 0.0121595796848428, 0.163410710512891, -1.24138799795538, 1.20430613482745, -1.20721382134757], a = 0.2, v = 0.2, t = 0.2)
movej(p[0.532222876473751, 0.0121677787914859, 0.163572142185265, -1.24675612551019, 1.19748940688898, -1.18865499709563], a = 0.2, v = 0.2, t = 0.2)
movej(p[0.532637727236884, 0.012075845439523, 0.163472986887248, -1.24564001173376, 1.20529648043936, -1.18987542471391], a = 0.2, v = 0.2, t = 0.2)
movej(p[0.533305653287644, 0.0119258248451367, 0.163401396441127, -1.25076185340026, 1.19904961582219, -1.18152947545535], a = 0.2, v = 0.2, t = 0.2)
movej(p[0.534201785094787, 0.0122070795651456, 0.163175137879524, -1.24753781968456, 1.1997204897496, -1.18279532033773], a = 0.2, v = 0.2, t = 0.2)
movej(p[0.535286187563891, 0.0121916226600892, 0.162962064514018, -1.24896129408247, 1.19112275405471, -1.18164597972457], a = 0.2, v = 0.2, t = 0.2)
movej(p[0.536307457580157, 0.0123391655723638, 0.162712284024561, -1.24433935012648, 1.19890203226119, -1.17864884663347], a = 0.2, v = 0.2, t = 0.2)
movej(p[0.537652451741534, 0.0124969858777162, 0.162446026185091, -1.24596336811252, 1.17683844078651, -1.18333799090724], a = 0.2, v = 0.2, t = 0.2)
movej(p[0.53850697410351, 0.0127769013393837, 0.162253900166024, -1.23714760019864, 1.17973637415214, -1.19532174885917], a = 0.2, v = 0.2, t = 0.2)
movej(p[0.53949247462841, 0.0127199940220128, 0.16207910118819, -1.23635107292543, 1.18653054447424, -1.18548453259323], a = 0.2, v = 0.2, t = 0.2)
movej(p[0.540334720498392, 0.012677976919888, 0.161906459832692, -1.23485628317451, 1.19287992123053, -1.18420779503512], a = 0.2, v = 0.2, t = 0.2)
movej(p[0.540874416922707, 0.0129122496576748, 0.161820936771992, -1.23274352926634, 1.19317785618506, -1.17133568760954], a = 0.2, v = 0.2, t = 0.2)
movej(p[0.541073022605903, 0.0129160041194087, 0.161793232140264, -1.23179913767045, 1.19297140930397, -1.17903764521129], a = 0.2, v = 0.2, t = 0.2)
movej(p[0.540964910778256, 0.0130066722302522, 0.161779239770953, -1.22240142307408, 1.19966923108328, -1.19138801796686], a = 0.2, v = 0.2, t = 0.2)
movej(p[0.540498658028074, 0.0128216277374081, 0.161924017423287, -1.22603826421652, 1.19797516870359, -1.19330629650966], a = 0.2, v = 0.2, t = 0.2)
movej(p[0.53984894889725, 0.0128092818881342, 0.162060327200377, -1.22148334902358, 1.2116246695898, -1.1961410172139], a = 0.2, v = 0.2, t = 0.2)
movej(p[0.538663743134756, 0.012822469009236, 0.162296753384181, -1.22376533119925, 1.20989587126398, -1.20282701913139], a = 0.2, v = 0.2, t = 0.2)
movej(p[0.537479617750329, 0.0128029405825435, 0.162509663281804, -1.22150735726151, 1.21512207079145, -1.20672938326952], a = 0.2, v = 0.2, t = 0.2)
movej(p[0.535769922582243, 0.0127262333356546, 0.162908609882863, -1.22817453390423, 1.20906456357294, -1.20235491853382], a = 0.2, v = 0.2, t = 0.2)
movej(p[0.533554086706636, 0.01237785033735, 0.16340086661351, -1.2376717045177, 1.20584596823778, -1.20034579675705], a = 0.2, v = 0.2, t = 0.2)
movej(p[0.531617155917334, 0.0124121033352919, 0.163794843655461, -1.24079232185935, 1.20601362063397, -1.19454961787507], a = 0.2, v = 0.2, t = 0.2)
movej(p[0.530109388478283, 0.0121176762165538, 0.164172318888409, -1.24883844384962, 1.19264652025466, -1.18638323911534], a = 0.2, v = 0.2, t = 0.2)
movej(p[0.529188707432335, 0.0121995688649517, 0.164332757212293, -1.24771146458318, 1.19826165430683, -1.17155574915189], a = 0.2, v = 0.2, t = 0.2)
movej(p[0.529040317384987, 0.0121263441521738, 0.164384993744401, -1.25062529771336, 1.1957948135667, -1.17048364632661], a = 0.2, v = 0.2, t = 0.2)
movej(p[0.529441689572373, 0.01197121626674, 0.164331685899261, -1.25327050457666, 1.19449724315129, -1.16996429785421], a = 0.2, v = 0.2, t = 0.2)
movej(p[0.530066770217189, 0.011853880342762, 0.164223297715306, -1.2511204428613, 1.19754024613067, -1.16589700135583], a = 0.2, v = 0.2, t = 0.2)
movej(p[0.531039194482658, 0.0119627765947712, 0.164046234268413, -1.2501564154001, 1.19024654976396, -1.16589837610087], a = 0.2, v = 0.2, t = 0.2)
movej(p[0.532571853145427, 0.0120333276558806, 0.163694591336998, -1.2465329632165, 1.19806271421294, -1.16225208580145], a = 0.2, v = 0.2, t = 0.2)
movej(p[0.533966232011827, 0.0123454040561041, 0.163348700664444, -1.23946820161706, 1.19957600592181, -1.16750640980093], a = 0.2, v = 0.2, t = 0.2)
movej(p[0.535072077824101, 0.0125318689124593, 0.163127108771947, -1.24240838695764, 1.18598473987348, -1.16160518410653], a = 0.2, v = 0.2, t = 0.2)
movej(p[0.536495349870136, 0.0126165262503678, 0.162772343175934, -1.23624841835325, 1.19203951044158, -1.16337370087721], a = 0.2, v = 0.2, t = 0.2)
movej(p[0.538077845471421, 0.0125432734293897, 0.162450257867154, -1.23671527507056, 1.18704597692082, -1.17254206845348], a = 0.2, v = 0.2, t = 0.2)
movej(p[0.539204446326206, 0.0128098035648766, 0.162202399659957, -1.23609652938517, 1.18160402921143, -1.1664280281622], a = 0.2, v = 0.2, t = 0.2)
movej(p[0.539996152267872, 0.0125707856317326, 0.162071102327287, -1.23810833260107, 1.18194064944052, -1.18345063166046], a = 0.2, v = 0.2, t = 0.2)
movej(p[0.540639296653333, 0.0123044280581339, 0.161974722441224, -1.24055274755165, 1.18438311567772, -1.18693489957565], a = 0.2, v = 0.2, t = 0.2)
movej(p[0.540633015878174, 0.0122529781775233, 0.161979361584308, -1.2402214268564, 1.18715523392564, -1.18571578000425], a = 0.2, v = 0.2, t = 0.2)
movej(p[0.539766975340981, 0.0126075842681422, 0.162103517085328, -1.2322632925116, 1.19526611703297, -1.18967272499205], a = 0.2, v = 0.2, t = 0.2)
movej(p[0.538854216719788, 0.0127240592286972, 0.162232873117278, -1.22208824616462, 1.21463310367945, -1.20543986204634], a = 0.2, v = 0.2, t = 0.2)
movej(p[0.537761868398804, 0.0126662169661615, 0.162468392539636, -1.22397612183929, 1.21445147741446, -1.19929135462544], a = 0.2, v = 0.2, t = 0.2)
movej(p[0.536152211191617, 0.0126860030726904, 0.162823849956693, -1.22906057220424, 1.2142836099279, -1.19671769723232], a = 0.2, v = 0.2, t = 0.2)
movej(p[0.534244401144768, 0.0125708375517796, 0.163236920154038, -1.23234209591225, 1.2112636874507, -1.19604558654221], a = 0.2, v = 0.2, t = 0.2)
movej(p[0.532407933680135, 0.0122587524339872, 0.163637370988222, -1.23446317646138, 1.21622421366204, -1.1984756614807], a = 0.2, v = 0.2, t = 0.2)
movej(p[0.530654301208119, 0.0120343383780473, 0.164059121796861, -1.24463819587742, 1.20697181298181, -1.17820205265768], a = 0.2, v = 0.2, t = 0.2)
movej(p[0.530372390683658, 0.0119813597892649, 0.164124901469472, -1.24710613263399, 1.20298758969508, -1.17136339381956], a = 0.2, v = 0.2, t = 0.2)
movej(p[0.530853880773683, 0.0119374999197928, 0.164018376612946, -1.24735907974247, 1.19991909867508, -1.16858360036978], a = 0.2, v = 0.2, t = 0.2)
movej(p[0.53137320385705, 0.0119561534835888, 0.163895214891456, -1.24577808421224, 1.2086308741795, -1.16471043850093], a = 0.2, v = 0.2, t = 0.2)
movej(p[0.532285573731863, 0.0120530248113732, 0.163703071280096, -1.24588961096388, 1.20155543254689, -1.16637814842716], a = 0.2, v = 0.2, t = 0.2)
movej(p[0.533165561048381, 0.0121209086034895, 0.163495460843136, -1.24532592763847, 1.19777253955056, -1.15997329425415], a = 0.2, v = 0.2, t = 0.2)
movej(p[0.534361635074215, 0.0122527908304488, 0.163190188271591, -1.23773585698907, 1.20470997447196, -1.17348587661363], a = 0.2, v = 0.2, t = 0.2)
movej(p[0.535766224811511, 0.012155810132179, 0.16291795415535, -1.24148048246532, 1.19651472668161, -1.17521179866492], a = 0.2, v = 0.2, t = 0.2)
movej(p[0.537136477487561, 0.0124401511296918, 0.16262507880488, -1.23843484754569, 1.19123344731676, -1.1765043507525], a = 0.2, v = 0.2, t = 0.2)
movej(p[0.538661944679812, 0.0127408827019245, 0.162252348316688, -1.23122032709881, 1.19550704450931, -1.17248221065393], a = 0.2, v = 0.2, t = 0.2)
movej(p[0.539664596598982, 0.0125927469632379, 0.162078280651945, -1.23502263213095, 1.18265728374701, -1.18250928223401], a = 0.2, v = 0.2, t = 0.2)
movej(p[0.540493166594968, 0.0124343080393081, 0.161948057922993, -1.2397969920367, 1.17602902084712, -1.18715103365437], a = 0.2, v = 0.2, t = 0.2)
movej(p[0.540980556324819, 0.0123867917274035, 0.161840386472097, -1.23964141360374, 1.17633481910154, -1.18782155982677], a = 0.2, v = 0.2, t = 0.2)
movej(p[0.54118043287102, 0.0122068829843303, 0.161792702298151, -1.24075751632339, 1.17864083540745, -1.18730808801582], a = 0.2, v = 0.2, t = 0.2)
movej(p[0.541187267090979, 0.0122767938077563, 0.161786819254259, -1.23966906646476, 1.17877618220086, -1.18751478937404], a = 0.2, v = 0.2, t = 0.2)
movej(p[0.540424442055721, 0.0123449869266543, 0.161946468413728, -1.23909698150667, 1.1801436745441, -1.18675755069045], a = 0.2, v = 0.2, t = 0.2)
movej(p[0.539100407328381, 0.0127529741942852, 0.162174299667614, -1.22791055483936, 1.20158623187299, -1.20040674862397], a = 0.2, v = 0.2, t = 0.2)
movej(p[0.537884695622675, 0.0127742736538932, 0.162398850355945, -1.223748411386, 1.21245072815739, -1.20766705072644], a = 0.2, v = 0.2, t = 0.2)
movej(p[0.536597296576551, 0.0127620072010151, 0.162686441941659, -1.22637820978979, 1.21364275323258, -1.20359490282987], a = 0.2, v = 0.2, t = 0.2)
movej(p[0.534802517490751, 0.0126153824299108, 0.163075136384213, -1.23008391766165, 1.21092926851488, -1.20395789358431], a = 0.2, v = 0.2, t = 0.2)
movej(p[0.53306715953569, 0.0123469129047372, 0.163462244911452, -1.23705832979916, 1.21168721847935, -1.18901162066833], a = 0.2, v = 0.2, t = 0.2)
movej(p[0.532385268951369, 0.0122629061230593, 0.163601184292641, -1.24077005138963, 1.20685690311684, -1.18845197273065], a = 0.2, v = 0.2, t = 0.2)
movej(p[0.532467961868575, 0.0122561156836744, 0.163587524081192, -1.24465742859732, 1.19700612629627, -1.17362383890125], a = 0.2, v = 0.2, t = 0.2)
movej(p[0.532835236603628, 0.0122310603638449, 0.163493691411295, -1.24229204716147, 1.20069673933099, -1.18009285921209], a = 0.2, v = 0.2, t = 0.2)
movej(p[0.53342830115575, 0.0121392097836786, 0.163340737241887, -1.24112053405309, 1.20745626202968, -1.18002787699145], a = 0.2, v = 0.2, t = 0.2)
movej(p[0.534435768974967, 0.0124396728131312, 0.16316353551736, -1.24014890079402, 1.19703511838276, -1.17978379499265], a = 0.2, v = 0.2, t = 0.2)
movej(p[0.535276358155086, 0.0124871868602708, 0.162964913424958, -1.23960960600247, 1.19552059824077, -1.17425835265546], a = 0.2, v = 0.2, t = 0.2)
movej(p[0.536098942806159, 0.0125893891214281, 0.162780843520754, -1.23690666784729, 1.19336011736239, -1.17763077798571], a = 0.2, v = 0.2, t = 0.2)
movej(p[0.537333804361637, 0.01268599318474, 0.162542817947013, -1.23754060701126, 1.18256778888752, -1.17275395242121], a = 0.2, v = 0.2, t = 0.2)
movej(p[0.538266695144927, 0.0128491716048635, 0.16235972540304, -1.23525419454851, 1.18455591539784, -1.17683578152601], a = 0.2, v = 0.2, t = 0.2)
movej(p[0.539110356089736, 0.0129064281254871, 0.16214924167196, -1.23045085163634, 1.19121920073252, -1.1835249102468], a = 0.2, v = 0.2, t = 0.2)
movej(p[0.539454930736161, 0.012864438637137, 0.162107508041525, -1.23414987269245, 1.17834653905829, -1.17686080320257], a = 0.2, v = 0.2, t = 0.2)
movej(p[0.540790985957915, 0.0127332861335014, 0.161840801845095, -1.23395010888736, 1.18877481250655, -1.18840554705057], a = 0.2, v = 0.2, t = 0.2)
movej(p[0.541421303488657, 0.012740322304247, 0.161698789159957, -1.23320885162784, 1.18882321801311, -1.18876589936491], a = 0.2, v = 0.2, t = 0.2)
movej(p[0.541427465759181, 0.0126309347129875, 0.161687359317419, -1.23432639067834, 1.19086619464468, -1.18770370401779], a = 0.2, v = 0.2, t = 0.2)
movej(p[0.541096915553736, 0.0125610807027029, 0.161751566863142, -1.23491389763841, 1.19184566541301, -1.18763891899879], a = 0.2, v = 0.2, t = 0.2)
movej(p[0.540387951976956, 0.0125793879749249, 0.161902292144971, -1.23499908283847, 1.19245767683515, -1.18764862452239], a = 0.2, v = 0.2, t = 0.2)
movej(p[0.539159851361278, 0.0126889455585498, 0.162135397858416, -1.23045073133378, 1.20518316671191, -1.19843007862793], a = 0.2, v = 0.2, t = 0.2)
movej(p[0.537741560679812, 0.0127647347647272, 0.162402673669324, -1.22519535886528, 1.22254141542259, -1.2102182432337], a = 0.2, v = 0.2, t = 0.2)
movej(p[0.536304318378622, 0.0128053422093779, 0.162733670667961, -1.22879824245883, 1.21938738391509, -1.20462548913835], a = 0.2, v = 0.2, t = 0.2)
movej(p[0.5342500320658, 0.0124810965779709, 0.16315583926635, -1.23562395708627, 1.22099375881388, -1.19571351735631], a = 0.2, v = 0.2, t = 0.2)
movej(p[0.532321141713749, 0.0121081894148147, 0.163550290210616, -1.24358816234143, 1.21562741153324, -1.18470141109406], a = 0.2, v = 0.2, t = 0.2)
movej(p[0.531106004077309, 0.0120257167710309, 0.163830164320769, -1.24748760845562, 1.20484721438606, -1.18656698077734], a = 0.2, v = 0.2, t = 0.2)
movej(p[0.530660628065146, 0.012040227211116, 0.163921936402139, -1.25037641283796, 1.19870407283907, -1.17686284673823], a = 0.2, v = 0.2, t = 0.2)
movej(p[0.531059028126158, 0.0121575213277619, 0.163849328058359, -1.24856488751483, 1.20210119926989, -1.177286130742], a = 0.2, v = 0.2, t = 0.2)
movej(p[0.531564303385737, 0.0120716991099192, 0.163719191403332, -1.24882271344567, 1.19728776057501, -1.18040891426543], a = 0.2, v = 0.2, t = 0.2)
movej(p[0.532050325303759, 0.0119098117155699, 0.163596241386036, -1.25027271083703, 1.20290243248686, -1.17350201050576], a = 0.2, v = 0.2, t = 0.2)
movej(p[0.533139294794193, 0.0122787934277506, 0.163413698528107, -1.24721329403134, 1.19242879225702, -1.17329027610135], a = 0.2, v = 0.2, t = 0.2)
movej(p[0.534180101224746, 0.0123312225754128, 0.163179813644899, -1.24376597058252, 1.19729363728666, -1.17495632685883], a = 0.2, v = 0.2, t = 0.2)
movej(p[0.535469105515094, 0.0124210630408226, 0.162918452304528, -1.2432231429294, 1.18924048619435, -1.17154793111533], a = 0.2, v = 0.2, t = 0.2)
movej(p[0.536263608271516, 0.0126216609258153, 0.162775337600272, -1.2412789189895, 1.18159973232669, -1.17212277806091], a = 0.2, v = 0.2, t = 0.2)
movej(p[0.537483371867818, 0.0125260147408586, 0.162481651055741, -1.23908360025556, 1.18950993139093, -1.17426640782009], a = 0.2, v = 0.2, t = 0.2)
movej(p[0.538262466932491, 0.0126664378494906, 0.16233189561923, -1.23706463462533, 1.18410045538472, -1.17133140074814], a = 0.2, v = 0.2, t = 0.2)
movej(p[0.539615190935026, 0.012758152079738, 0.162036155982157, -1.23391926581929, 1.18704612805302, -1.17398192769383], a = 0.2, v = 0.2, t = 0.2)
movej(p[0.539735769632682, 0.0128178716968238, 0.162022637291139, -1.23402120314174, 1.17796764853834, -1.17187531267761], a = 0.2, v = 0.2, t = 0.2)
movej(p[0.540056071735691, 0.0128358381772031, 0.161963587325934, -1.23396964651082, 1.17360783391082, -1.17142065071486], a = 0.2, v = 0.2, t = 0.2)
movej(p[0.541270541250791, 0.012718592891982, 0.161701117308628, -1.23163842231016, 1.1944600293661, -1.18029625726589], a = 0.2, v = 0.2, t = 0.2)
movej(p[0.54155583076989, 0.0127340612855731, 0.161646002890443, -1.22996849245049, 1.19751452984578, -1.18383909348384], a = 0.2, v = 0.2, t = 0.2)
movej(p[0.541352139601736, 0.0126013871894539, 0.161658937426954, -1.23118689845557, 1.19363964607021, -1.1874096778554], a = 0.2, v = 0.2, t = 0.2)
movej(p[0.540788857838683, 0.0125147587065363, 0.161763335757208, -1.23259112329726, 1.19433652548191, -1.18696964915468], a = 0.2, v = 0.2, t = 0.2)
movej(p[0.539644740286716, 0.0128169397341756, 0.162074309717236, -1.22782237099897, 1.2091560440305, -1.1944456211304], a = 0.2, v = 0.2, t = 0.2)
movej(p[0.538507750934267, 0.0129919128219687, 0.162325927305982, -1.22480542764619, 1.22392290074959, -1.20628519878048], a = 0.2, v = 0.2, t = 0.2)
movej(p[0.536874392272827, 0.0128133664351078, 0.162654628356842, -1.22897909319758, 1.21525572277713, -1.21832979556841], a = 0.2, v = 0.2, t = 0.2)
movej(p[0.535263850383791, 0.0126895609871796, 0.162995594989702, -1.23232310438005, 1.22671561607218, -1.20288534914085], a = 0.2, v = 0.2, t = 0.2)
movej(p[0.533278475028844, 0.0124548655614639, 0.163422747617127, -1.23929434615234, 1.21159903741308, -1.19967454178427], a = 0.2, v = 0.2, t = 0.2)
movej(p[0.531706474855082, 0.0122935170649518, 0.163763553979108, -1.24419381685946, 1.20110478443544, -1.19373925267186], a = 0.2, v = 0.2, t = 0.2)
movej(p[0.531853889791293, 0.0122344333826287, 0.163710057389824, -1.24411478510506, 1.20616118150013, -1.18985168074346], a = 0.2, v = 0.2, t = 0.2)
movej(p[0.532121991420257, 0.0122740923305056, 0.163651773820955, -1.2440193939021, 1.20906967965774, -1.18351317933781], a = 0.2, v = 0.2, t = 0.2)
movej(p[0.532514317163801, 0.0122359133257634, 0.163575111936361, -1.24439219450172, 1.20266458490679, -1.18214407602388], a = 0.2, v = 0.2, t = 0.2)
movej(p[0.533096979581112, 0.0124534777861747, 0.163495159056364, -1.24131691792001, 1.20207598876048, -1.18447696784428], a = 0.2, v = 0.2, t = 0.2)
movej(p[0.533708009555742, 0.0124126749874582, 0.163355737351741, -1.24205918950722, 1.18907532474172, -1.18350442827265], a = 0.2, v = 0.2, t = 0.2)
movej(p[0.534231748447665, 0.0124864400736412, 0.163260579928759, -1.24090095757134, 1.19221305820733, -1.17620786287878], a = 0.2, v = 0.2, t = 0.2)
movej(p[0.535235807437045, 0.0125973905639834, 0.163052469994982, -1.2383079887685, 1.19768529778471, -1.17607050859662], a = 0.2, v = 0.2, t = 0.2)
movej(p[0.536668318262654, 0.0125771131512149, 0.162697759646888, -1.23783464550583, 1.19636502404292, -1.17009591277923], a = 0.2, v = 0.2, t = 0.2)
movej(p[0.537573836281637, 0.0127226027829299, 0.162552900838526, -1.23531521733774, 1.18663824850759, -1.1703709233102], a = 0.2, v = 0.2, t = 0.2)
movej(p[0.53837630424109, 0.012821208279514, 0.162393050595816, -1.23283004859893, 1.19054257573607, -1.17184713069756], a = 0.2, v = 0.2, t = 0.2)
movej(p[0.539328226698544, 0.0127009790511412, 0.162105512898043, -1.23346113834399, 1.19311947891693, -1.17257916492041], a = 0.2, v = 0.2, t = 0.2)
movej(p[0.540194411851121, 0.0129298170491326, 0.161993736191479, -1.2303582305181, 1.16231698744235, -1.18035721334184], a = 0.2, v = 0.2, t = 0.2)
movej(p[0.541110181791441, 0.0129312697752198, 0.161772638823805, -1.22847503474383, 1.19834496249486, -1.17624326965721], a = 0.2, v = 0.2, t = 0.2)
movej(p[0.541801991849789, 0.012838362039929, 0.16157750613589, -1.22865692371315, 1.19886338497871, -1.17505431982222], a = 0.2, v = 0.2, t = 0.2)
movej(p[0.542241870487169, 0.0127930998398427, 0.161453891502372, -1.22874011931307, 1.19433243443087, -1.17861636753094], a = 0.2, v = 0.2, t = 0.2)
movej(p[0.542395263991198, 0.0128542073199782, 0.161441210855975, -1.22790543121907, 1.1881145095154, -1.1837045815378], a = 0.2, v = 0.2, t = 0.2)
movej(p[0.542330454926646, 0.012860751806346, 0.1614694600126, -1.22750107822832, 1.1895208954283, -1.18437361337536], a = 0.2, v = 0.2, t = 0.2)
movej(p[0.542150494674306, 0.0126981640907766, 0.161464603849125, -1.2286626885623, 1.19246744708264, -1.18866852192128], a = 0.2, v = 0.2, t = 0.2)
movej(p[0.541867644748959, 0.0130042298342644, 0.161655391061471, -1.22509672261848, 1.19157211988386, -1.18915053676819], a = 0.2, v = 0.2, t = 0.2)
movej(p[0.540912162284969, 0.012778157902146, 0.161796754573439, -1.22886949983408, 1.19350559740499, -1.18702006070002], a = 0.2, v = 0.2, t = 0.2)
movej(p[0.539578024366444, 0.0128861792662085, 0.162101581555936, -1.22790991652636, 1.21947437137575, -1.20304850727416], a = 0.2, v = 0.2, t = 0.2)
movej(p[0.538155848975575, 0.0131157509382845, 0.162531482340986, -1.22754580828738, 1.21943235704524, -1.21439862791298], a = 0.2, v = 0.2, t = 0.2)
movej(p[0.536196135539527, 0.0130845673506884, 0.16301491185233, -1.2287066991497, 1.22746269396405, -1.2026827204853], a = 0.2, v = 0.2, t = 0.2)
movej(p[0.534272100502218, 0.0127318469485354, 0.16332294416088, -1.23596905490752, 1.22998387104539, -1.19441489125225], a = 0.2, v = 0.2, t = 0.2)
movej(p[0.532700647244906, 0.0127090581376388, 0.163697294291351, -1.2398703409225, 1.22517246846259, -1.18844705765875], a = 0.2, v = 0.2, t = 0.2)
movej(p[0.531822004952007, 0.0125988723502186, 0.163884348169631, -1.24338856435764, 1.21804480375359, -1.17907846762915], a = 0.2, v = 0.2, t = 0.2)
movej(p[0.531103800213421, 0.0125216160307947, 0.164029198004224, -1.24670680120497, 1.20296767157651, -1.18483112452018], a = 0.2, v = 0.2, t = 0.2)
movej(p[0.531210602822462, 0.0125473125091937, 0.164029520029097, -1.24609960168808, 1.20848327889928, -1.17866818432824], a = 0.2, v = 0.2, t = 0.2)
movej(p[0.531874234081005, 0.0125216775030119, 0.163883163412773, -1.24567003781137, 1.1987815974542, -1.17843164520026], a = 0.2, v = 0.2, t = 0.2)
movej(p[0.53229861960556, 0.0124718531378452, 0.163775437143072, -1.24606312566668, 1.1981918617664, -1.17005467305663], a = 0.2, v = 0.2, t = 0.2)
movej(p[0.53248375904079, 0.0125620042698833, 0.16377714093745, -1.24436407207459, 1.19746934342966, -1.17159176469266], a = 0.2, v = 0.2, t = 0.2)
movej(p[0.5325897008702, 0.012624139203855, 0.163782038769782, -1.24329335572078, 1.19284033720955, -1.17703652494102], a = 0.2, v = 0.2, t = 0.2)
movej(p[0.533775248465209, 0.012626923204791, 0.163491268346068, -1.24225209280665, 1.19234831402904, -1.17349383817945], a = 0.2, v = 0.2, t = 0.2)
movej(p[0.535065111242433, 0.0126755916987183, 0.163181544398607, -1.24060484961979, 1.19502162934264, -1.17722298946383], a = 0.2, v = 0.2, t = 0.2)
movej(p[0.536576445955373, 0.0126319979345238, 0.16280109473152, -1.23946032083609, 1.19292478201511, -1.16771435613143], a = 0.2, v = 0.2, t = 0.2)
movej(p[0.537691813283552, 0.0126862094991153, 0.162543422130153, -1.23765386262304, 1.1909113685861, -1.17021407220113], a = 0.2, v = 0.2, t = 0.2)
movej(p[0.538525694318036, 0.0128988360633958, 0.162445001073003, -1.23406031540802, 1.19235523306856, -1.16821625964676], a = 0.2, v = 0.2, t = 0.2)
movej(p[0.539259840549126, 0.0129368152941162, 0.162267544657483, -1.23350397682014, 1.19494711069155, -1.17229654141924], a = 0.2, v = 0.2, t = 0.2)
movej(p[0.540443019788505, 0.0128050539907584, 0.161927048465961, -1.23183698562924, 1.21067050237663, -1.17191671697578], a = 0.2, v = 0.2, t = 0.2)
movej(p[0.540996791664955, 0.0128436104432005, 0.16184026552508, -1.22876518834488, 1.21372548924997, -1.17354283481345], a = 0.2, v = 0.2, t = 0.2)
movej(p[0.541347802375358, 0.012835943473359, 0.161753888509875, -1.22816037410111, 1.2135796272678, -1.17242195241887], a = 0.2, v = 0.2, t = 0.2)
movej(p[0.541697719259342, 0.0128024856221371, 0.161652414343237, -1.22809530105681, 1.20950282047321, -1.17525462348592], a = 0.2, v = 0.2, t = 0.2)
movej(p[0.541702619205984, 0.0128452583802242, 0.161671585720041, -1.22784736639192, 1.20086428476441, -1.18267634816173], a = 0.2, v = 0.2, t = 0.2)
movej(p[0.541118151348675, 0.0128269640399855, 0.161812544334135, -1.22852198749965, 1.19990861702359, -1.18253210518598], a = 0.2, v = 0.2, t = 0.2)
movej(p[0.540417442167162, 0.0127156099355221, 0.161920104672378, -1.23115088652306, 1.2014898988511, -1.18424044941816], a = 0.2, v = 0.2, t = 0.2)
movej(p[0.539050935361956, 0.0129702627557201, 0.162345014006811, -1.23188075672726, 1.21973485692561, -1.20371315326349], a = 0.2, v = 0.2, t = 0.2)
movej(p[0.538079594150908, 0.0131400742347568, 0.162683896542962, -1.22958374583659, 1.23466358661901, -1.19835974429613], a = 0.2, v = 0.2, t = 0.2)
movej(p[0.536617559776698, 0.0128925176488816, 0.162910053403167, -1.2349504617242, 1.23882230412364, -1.19864555627024], a = 0.2, v = 0.2, t = 0.2)
movej(p[0.534703026855159, 0.0125885327381222, 0.163232180096218, -1.2396236199033, 1.24966528795521, -1.1885633876532], a = 0.2, v = 0.2, t = 0.2)
movej(p[0.532916111488766, 0.0124235031886027, 0.16361196914442, -1.24496765332572, 1.24244284098899, -1.17351860195627], a = 0.2, v = 0.2, t = 0.2)
movej(p[0.531577205837677, 0.0122499920045866, 0.16387245581683, -1.25099856961561, 1.21786743649534, -1.17413953348768], a = 0.2, v = 0.2, t = 0.2)
movej(p[0.531262350331636, 0.012289328022299, 0.164022793230756, -1.24886349056141, 1.21082821661923, -1.17151185573957], a = 0.2, v = 0.2, t = 0.2)
movej(p[0.531825875143033, 0.0123110663413486, 0.163882219113562, -1.24871966031705, 1.20903148284162, -1.17207867279948], a = 0.2, v = 0.2, t = 0.2)
movej(p[0.532436017382833, 0.0123884236934564, 0.163781125605923, -1.24711414489115, 1.19660890359837, -1.18042020316137], a = 0.2, v = 0.2, t = 0.2)
movej(p[0.533176665354587, 0.0123468538094498, 0.16362403793397, -1.24429135300625, 1.18865603113199, -1.17446357508146], a = 0.2, v = 0.2, t = 0.2)
movej(p[0.534068070151339, 0.0124311712030078, 0.163419183923825, -1.24405221950908, 1.20546108723374, -1.16426952046952], a = 0.2, v = 0.2, t = 0.2)
movej(p[0.534508239650437, 0.0124210314847925, 0.163322930881391, -1.242544148191, 1.18170210771294, -1.17714205136516], a = 0.2, v = 0.2, t = 0.2)
movej(p[0.535286854907183, 0.0124722356924998, 0.163168102230697, -1.24063362019619, 1.19060177300944, -1.16128581086521], a = 0.2, v = 0.2, t = 0.2)
movej(p[0.53654622506074, 0.0125190088415329, 0.162809454898545, -1.24207960562714, 1.20208916956034, -1.16774033372086], a = 0.2, v = 0.2, t = 0.2)
movej(p[0.537822910517587, 0.012560423597923, 0.162510468339939, -1.24112357609247, 1.19151482736341, -1.16840728555369], a = 0.2, v = 0.2, t = 0.2)
movej(p[0.538482758551604, 0.0126163333510017, 0.162368661388363, -1.23998224600321, 1.19325165688102, -1.17686140104659], a = 0.2, v = 0.2, t = 0.2)
movej(p[0.539377719220518, 0.0127137835126951, 0.162182121748921, -1.23859749304855, 1.19182730246246, -1.18713772254735], a = 0.2, v = 0.2, t = 0.2)
movej(p[0.54059510247472, 0.0126029052411969, 0.161837686731397, -1.23471952716062, 1.21301917347266, -1.17988805947892], a = 0.2, v = 0.2, t = 0.2)
movej(p[0.540992354250572, 0.0127225783374142, 0.161812616497566, -1.23305892085642, 1.21458877451529, -1.1766024972331], a = 0.2, v = 0.2, t = 0.2)
movej(p[0.541469473869319, 0.0127362255184491, 0.161699319040152, -1.2321119910406, 1.21495957369473, -1.17446115446245], a = 0.2, v = 0.2, t = 0.2)
movej(p[0.541820124094494, 0.0126826564967652, 0.161574751951798, -1.23198318510889, 1.21479515333437, -1.1727245238894], a = 0.2, v = 0.2, t = 0.2)
movej(p[0.541761762693753, 0.0126934790045744, 0.161599282753421, -1.23148164943356, 1.2138391189686, -1.1720524370816], a = 0.2, v = 0.2, t = 0.2)
movej(p[0.541447521000757, 0.0127383962283681, 0.161717249449526, -1.23073844728658, 1.21305581755823, -1.17137237181182], a = 0.2, v = 0.2, t = 0.2)
movej(p[0.540694528765553, 0.0128167900111183, 0.161952576495462, -1.23226204692213, 1.20890563175132, -1.1847736842909], a = 0.2, v = 0.2, t = 0.2)
movej(p[0.539686481661159, 0.0129113460086061, 0.162252226138647, -1.23458190580693, 1.21519564503919, -1.19941305634814], a = 0.2, v = 0.2, t = 0.2)
movej(p[0.538657840628108, 0.012920982956, 0.162509040107054, -1.23578259803536, 1.23770271114852, -1.19048143236157], a = 0.2, v = 0.2, t = 0.2)
movej(p[0.537912580552894, 0.0129192070675406, 0.162726987638611, -1.23564449795922, 1.23226613566661, -1.19196813627771], a = 0.2, v = 0.2, t = 0.2)
movej(p[0.535076870248466, 0.0126514599543902, 0.163279512988945, -1.243216059638, 1.23649940269031, -1.19915021426191], a = 0.2, v = 0.2, t = 0.2)
movej(p[0.533048074710211, 0.0124906049626219, 0.163731228148731, -1.24703339083901, 1.22574588231416, -1.18682685038848], a = 0.2, v = 0.2, t = 0.2)
movej(p[0.531738023889416, 0.0123732913068622, 0.164021402808386, -1.24781342104991, 1.23563635581246, -1.16847551055009], a = 0.2, v = 0.2, t = 0.2)
movej(p[0.530856274532069, 0.0123093653085776, 0.164201124697874, -1.25186404210545, 1.2277679596363, -1.17286517616066], a = 0.2, v = 0.2, t = 0.2)
movej(p[0.531066182912844, 0.0122898152099598, 0.164145340064468, -1.25122348827261, 1.22245386615304, -1.17280196205931], a = 0.2, v = 0.2, t = 0.2)
movej(p[0.53150522002527, 0.0123208965583126, 0.164071245572786, -1.24975504154525, 1.20212504148901, -1.17433966184469], a = 0.2, v = 0.2, t = 0.2)
movej(p[0.531950246079084, 0.0123298010699748, 0.163978121617227, -1.24773261600311, 1.19741763994438, -1.17411025984229], a = 0.2, v = 0.2, t = 0.2)
movej(p[0.532912554933338, 0.0123660143979246, 0.163754532252761, -1.24551278276164, 1.20079742141331, -1.17312755818146], a = 0.2, v = 0.2, t = 0.2)
movej(p[0.53383307814522, 0.0125221361494608, 0.163630473738007, -1.24334321140892, 1.18603016106827, -1.17582009664444], a = 0.2, v = 0.2, t = 0.2)
movej(p[0.534628303854841, 0.0124784463585799, 0.163334854349382, -1.24685039709222, 1.18546186963973, -1.17756657719444], a = 0.2, v = 0.2, t = 0.2)
movej(p[0.535681903988786, 0.0124784388405466, 0.163040032390069, -1.24654277253458, 1.20031944022234, -1.16426998643151], a = 0.2, v = 0.2, t = 0.2)
movej(p[0.536822567249537, 0.012610534804126, 0.162824106958542, -1.24440064571993, 1.19869176612764, -1.16260935504846], a = 0.2, v = 0.2, t = 0.2)
movej(p[0.537510884095822, 0.0126515949406816, 0.16271328961195, -1.23908255115106, 1.18126245141309, -1.16413825096796], a = 0.2, v = 0.2, t = 0.2)
movej(p[0.53827231279085, 0.0127127973720247, 0.162522875182911, -1.24051666022944, 1.19822814434214, -1.15982733544098], a = 0.2, v = 0.2, t = 0.2)
movej(p[0.539230099612867, 0.0126907385181747, 0.162203376152337, -1.2424691574713, 1.19989660486566, -1.17113338731856], a = 0.2, v = 0.2, t = 0.2)
movej(p[0.53991321657423, 0.0127814458074836, 0.162106173555845, -1.23760800332838, 1.21349382448407, -1.17445454545343], a = 0.2, v = 0.2, t = 0.2)
movej(p[0.540777716141698, 0.0127226916497965, 0.161865371112333, -1.23373353338783, 1.20787498397873, -1.17859968245452], a = 0.2, v = 0.2, t = 0.2)
movej(p[0.541693657006495, 0.0127103619702343, 0.161611649274099, -1.23202185131446, 1.20821068238141, -1.17637042886508], a = 0.2, v = 0.2, t = 0.2)
movej(p[0.542181393474453, 0.0126105111511338, 0.161394980029053, -1.23231684643878, 1.20828717632867, -1.17453862714413], a = 0.2, v = 0.2, t = 0.2)
movej(p[0.542237551802361, 0.0126164405708323, 0.161381002397327, -1.23228729842278, 1.20993483138469, -1.17338553678788], a = 0.2, v = 0.2, t = 0.2)
movej(p[0.542648900210428, 0.0127721896864906, 0.161367379249652, -1.23178651682887, 1.22243300889259, -1.16813446493424], a = 0.2, v = 0.2, t = 0.2)
movej(p[0.542698410856973, 0.0128169823344717, 0.161391043453959, -1.23133128302887, 1.21289915712863, -1.17719018009124], a = 0.2, v = 0.2, t = 0.2)
movej(p[0.542388439337975, 0.0128658516141399, 0.161525966472437, -1.23050125397357, 1.20784151164415, -1.18079237917465], a = 0.2, v = 0.2, t = 0.2)
movej(p[0.541607119566535, 0.0128615057247236, 0.161746179705467, -1.23077220230381, 1.20730617314886, -1.17967407955347], a = 0.2, v = 0.2, t = 0.2)
movej(p[0.540613147780719, 0.012885696323342, 0.162029098357979, -1.23261043534968, 1.21525717116063, -1.18249848843701], a = 0.2, v = 0.2, t = 0.2)
movej(p[0.539511135585534, 0.0130563477508887, 0.162431697441361, -1.23551898343732, 1.24110424562712, -1.19555321564674], a = 0.2, v = 0.2, t = 0.2)
movej(p[0.537896353928794, 0.0128431102436946, 0.162731385373354, -1.23729375052061, 1.24043503501111, -1.1881109859017], a = 0.2, v = 0.2, t = 0.2)
movej(p[0.536064722166389, 0.0125543621667524, 0.162976365668501, -1.24429003241534, 1.22192195595376, -1.17458453900127], a = 0.2, v = 0.2, t = 0.2)
movej(p[0.533961876851244, 0.0124601175754004, 0.163517411366733, -1.24431821213192, 1.22969793554396, -1.16782263535072], a = 0.2, v = 0.2, t = 0.2)
movej(p[0.532165920344118, 0.012193736615972, 0.163756999239891, -1.25374322122131, 1.19920166557294, -1.18583183023843], a = 0.2, v = 0.2, t = 0.2)
movej(p[0.530963134945938, 0.0121414115325104, 0.164065419572502, -1.25399805774661, 1.21140626520359, -1.17146414406699], a = 0.2, v = 0.2, t = 0.2)
movej(p[0.530557589381065, 0.0121015512638493, 0.164142503512423, -1.25475846386442, 1.20862331851909, -1.17002905844373], a = 0.2, v = 0.2, t = 0.2)
movej(p[0.531010130514948, 0.0122205797553903, 0.164179560095453, -1.24777287993889, 1.19745460200778, -1.16624984286862], a = 0.2, v = 0.2, t = 0.2)
movej(p[0.531343468244016, 0.0122395724156955, 0.164088810455044, -1.24886851419554, 1.18272436673304, -1.17925800032305], a = 0.2, v = 0.2, t = 0.2)
movej(p[0.532175439641777, 0.0123551624350325, 0.163982010123878, -1.24411739860812, 1.19732132756559, -1.16631045072558], a = 0.2, v = 0.2, t = 0.2)
movej(p[0.53323350904852, 0.0124233580330597, 0.163747214913272, -1.24168337559059, 1.18794113618645, -1.17024671467719], a = 0.2, v = 0.2, t = 0.2)
movej(p[0.534104778335398, 0.0125318552950519, 0.163571791927653, -1.24236197468605, 1.18370126529966, -1.17725946416169], a = 0.2, v = 0.2, t = 0.2)
movej(p[0.535048069348306, 0.0125257549205087, 0.163272612800044, -1.24317540167059, 1.18016025614323, -1.18217843688667], a = 0.2, v = 0.2, t = 0.2)
movej(p[0.536058496691398, 0.0124631872621731, 0.16291174624235, -1.24283940592052, 1.17991929425499, -1.18142279851742], a = 0.2, v = 0.2, t = 0.2)
movej(p[0.536556167018767, 0.0125628087475126, 0.162852183293164, -1.2425264366629, 1.17977880527055, -1.18464368964736], a = 0.2, v = 0.2, t = 0.2)
movej(p[0.537666665313778, 0.0126239928396357, 0.1625659912883, -1.24259397344867, 1.19534243420762, -1.16714622267434], a = 0.2, v = 0.2, t = 0.2)
movej(p[0.538816479184124, 0.0126377618729845, 0.162221058516183, -1.24314849364269, 1.19742188894756, -1.17191753378668], a = 0.2, v = 0.2, t = 0.2)
movej(p[0.539888431093885, 0.0128708224582395, 0.162107877745905, -1.24300789588118, 1.19717364607056, -1.18070948850137], a = 0.2, v = 0.2, t = 0.2)
movej(p[0.540450549987203, 0.0130038992015502, 0.162048913178872, -1.24459227989251, 1.20344642862811, -1.19640391056843], a = 0.2, v = 0.2, t = 0.2)
movej(p[0.54116555973818, 0.0128481290933586, 0.161747092786252, -1.23584383480821, 1.21781739934204, -1.17212296977898], a = 0.2, v = 0.2, t = 0.2)
movej(p[0.541518478957573, 0.0128329150977308, 0.161631799512728, -1.23494242113736, 1.21115060917183, -1.17662304027497], a = 0.2, v = 0.2, t = 0.2)
movej(p[0.541674832147751, 0.0128230758586597, 0.161581105141286, -1.23434666049438, 1.20103820496767, -1.18449890831856], a = 0.2, v = 0.2, t = 0.2)
movej(p[0.541548442411913, 0.0128956662495075, 0.161695525287377, -1.2334932817341, 1.20492772649536, -1.18173300083754], a = 0.2, v = 0.2, t = 0.2)
movej(p[0.540792438842623, 0.0129087778018501, 0.161895674182992, -1.23874075007923, 1.2170578848519, -1.18441878080978], a = 0.2, v = 0.2, t = 0.2)
movej(p[0.539744840503946, 0.0130548375249306, 0.162370094922519, -1.23867906718297, 1.22608002554781, -1.1938444413062], a = 0.2, v = 0.2, t = 0.2)
movej(p[0.538725750212314, 0.0129834060239539, 0.162608182171589, -1.23728196831681, 1.25025181224314, -1.17873229842001], a = 0.2, v = 0.2, t = 0.2)
movej(p[0.537242140575319, 0.0128555164956813, 0.162921979452608, -1.24220980900978, 1.23644876850796, -1.19439536465486], a = 0.2, v = 0.2, t = 0.2)
movej(p[0.535708056177963, 0.0126860655501885, 0.163189408132559, -1.24845296696453, 1.23797838294404, -1.19470931648959], a = 0.2, v = 0.2, t = 0.2)
movej(p[0.533522210768718, 0.0125019619852103, 0.163675258638626, -1.25028631829249, 1.24785630583561, -1.17424291191197], a = 0.2, v = 0.2, t = 0.2)
movej(p[0.531874646748639, 0.0123459182466172, 0.164027127309279, -1.25169579974821, 1.23846573351111, -1.17228506805082], a = 0.2, v = 0.2, t = 0.2)
movej(p[0.530571400634285, 0.0121237910242345, 0.164194172190967, -1.25497388658426, 1.22378337743484, -1.16330104933358], a = 0.2, v = 0.2, t = 0.2)
movej(p[0.530311911596928, 0.0122006527721648, 0.164405770634243, -1.25139248807266, 1.2153876056957, -1.16575088362181], a = 0.2, v = 0.2, t = 0.2)
movej(p[0.530623319632727, 0.0121873934027096, 0.164321082769932, -1.24925849850933, 1.22021073433496, -1.16057921379274], a = 0.2, v = 0.2, t = 0.2)
movej(p[0.531035719502324, 0.0122933747904143, 0.164241242723485, -1.25646154787796, 1.20433395682354, -1.18479377453935], a = 0.2, v = 0.2, t = 0.2)
movej(p[0.53207942148675, 0.0124191826016196, 0.164157234614676, -1.24283011188016, 1.19546886786306, -1.17259160400974], a = 0.2, v = 0.2, t = 0.2)
movej(p[0.532992027220401, 0.0124257660296154, 0.163880068773739, -1.24081604945639, 1.19097900503026, -1.17247418107503], a = 0.2, v = 0.2, t = 0.2)
movej(p[0.534105327930663, 0.0124209917217192, 0.163475697515469, -1.24443558195276, 1.18936217146282, -1.1768878249315], a = 0.2, v = 0.2, t = 0.2)
movej(p[0.535675556399577, 0.0125578235400958, 0.163102797329236, -1.24484079250594, 1.20347552684853, -1.16548500997856], a = 0.2, v = 0.2, t = 0.2)
movej(p[0.536763243416363, 0.0126407760264442, 0.162876144073088, -1.24162093019493, 1.1906395745868, -1.17989906028541], a = 0.2, v = 0.2, t = 0.2)
movej(p[0.537434605529056, 0.0126871741374144, 0.162697451966549, -1.24269632907563, 1.20453797298822, -1.1665308822218], a = 0.2, v = 0.2, t = 0.2)
movej(p[0.538412954742187, 0.0127419846675385, 0.162433850841831, -1.24316496896988, 1.19841811745873, -1.17313410996938], a = 0.2, v = 0.2, t = 0.2)
movej(p[0.539938032461792, 0.0127917886326939, 0.16201374056557, -1.24089786563879, 1.20770549683899, -1.17262236681796], a = 0.2, v = 0.2, t = 0.2)
movej(p[0.540857770009795, 0.0128717846388242, 0.161843209008968, -1.23630763170688, 1.21898798833434, -1.16735720585602], a = 0.2, v = 0.2, t = 0.2)
movej(p[0.54150363042455, 0.0129469380580422, 0.161711680083512, -1.23709415287406, 1.22352645374549, -1.16659010834367], a = 0.2, v = 0.2, t = 0.2)
movej(p[0.541695921281423, 0.0129157802345519, 0.161612467652847, -1.23689872316758, 1.21059886990828, -1.17771429562087], a = 0.2, v = 0.2, t = 0.2)
movej(p[0.5416007777417, 0.0129053468422149, 0.16163771326976, -1.23534928893976, 1.21052659448589, -1.17537004611283], a = 0.2, v = 0.2, t = 0.2)
movej(p[0.54118947399684, 0.012944426194973, 0.161820467212679, -1.23353309524731, 1.20899250930835, -1.1748633954173], a = 0.2, v = 0.2, t = 0.2)
movej(p[0.539974132344677, 0.0130290928281299, 0.162323394254849, -1.23800781394087, 1.24493588128246, -1.18138224326105], a = 0.2, v = 0.2, t = 0.2)
movej(p[0.539156539681186, 0.0129695533732759, 0.162543140972508, -1.24039626324817, 1.23509723880879, -1.19110878189086], a = 0.2, v = 0.2, t = 0.2)
movej(p[0.537925539103443, 0.0128699335771529, 0.162831197518722, -1.24249737623599, 1.24803900140426, -1.18165652474294], a = 0.2, v = 0.2, t = 0.2)
movej(p[0.535957931286901, 0.0127044591210081, 0.163281967553936, -1.24386605092224, 1.25250101976877, -1.17784277056954], a = 0.2, v = 0.2, t = 0.2)
movej(p[0.534244662199294, 0.0125121176292318, 0.163601779911405, -1.24639493028684, 1.24954401326526, -1.17523807826116], a = 0.2, v = 0.2, t = 0.2)
movej(p[0.53253394050878, 0.0123438374725829, 0.16391444923591, -1.25240818665025, 1.25496912231158, -1.15721724226043], a = 0.2, v = 0.2, t = 0.2)
movej(p[0.531286909202275, 0.0121807595196683, 0.164110167609778, -1.25359534068444, 1.23073305163443, -1.16493764063565], a = 0.2, v = 0.2, t = 0.2)
movej(p[0.530858429020846, 0.0121748847961253, 0.16424720983592, -1.25473627617558, 1.21767106013833, -1.17783331785405], a = 0.2, v = 0.2, t = 0.2)
movej(p[0.530883889083075, 0.0121652734878508, 0.164241234220089, -1.25326913504645, 1.21270785701562, -1.17475987984324], a = 0.2, v = 0.2, t = 0.2)
movej(p[0.531026532062596, 0.012199405298158, 0.164291479716591, -1.247892757972, 1.20117452979874, -1.17831562851195], a = 0.2, v = 0.2, t = 0.2)
movej(p[0.531472460875876, 0.0122720770179167, 0.164294932922913, -1.24251001509709, 1.21956535856822, -1.15986677636892], a = 0.2, v = 0.2, t = 0.2)
movej(p[0.532057088225748, 0.0122496055582985, 0.164075915970864, -1.23834923675567, 1.2033951101244, -1.16640684989778], a = 0.2, v = 0.2, t = 0.2)
movej(p[0.532756404595215, 0.0123935318088963, 0.164045605910102, -1.23772387598391, 1.18068609372896, -1.18365581067476], a = 0.2, v = 0.2, t = 0.2)
movej(p[0.533419856601285, 0.0124328536543341, 0.163869693494073, -1.23691839082579, 1.18469284584134, -1.18013851381332], a = 0.2, v = 0.2, t = 0.2)
movej(p[0.53442538619979, 0.0124161076905991, 0.163456830067224, -1.23800128746107, 1.20134064082354, -1.16583173386438], a = 0.2, v = 0.2, t = 0.2)
movej(p[0.535638058902691, 0.0125486858259362, 0.163189087478774, -1.24117335725243, 1.19725184643513, -1.16940537580064], a = 0.2, v = 0.2, t = 0.2)
movej(p[0.536731978683524, 0.0126721948321213, 0.162944065462431, -1.24435044634766, 1.19283716578122, -1.17617142307525], a = 0.2, v = 0.2, t = 0.2)
movej(p[0.537797922908691, 0.0126870828730986, 0.162595258359479, -1.24115162267366, 1.19451092867492, -1.17201988840928], a = 0.2, v = 0.2, t = 0.2)
movej(p[0.538816313333171, 0.0127209034297817, 0.162259807374577, -1.2421199170265, 1.20217634271597, -1.16371679647998], a = 0.2, v = 0.2, t = 0.2)
movej(p[0.539654881220176, 0.0128995221221483, 0.162233816960536, -1.24431531932276, 1.21213497798423, -1.16889486429662], a = 0.2, v = 0.2, t = 0.2)
movej(p[0.540389834263338, 0.0128109425417272, 0.161885833724907, -1.23531933451335, 1.20799850142178, -1.18086216454972], a = 0.2, v = 0.2, t = 0.2)
movej(p[0.540880027488326, 0.0128449540580821, 0.161740902193034, -1.23730081313822, 1.21071268085944, -1.18138861323378], a = 0.2, v = 0.2, t = 0.2)
movej(p[0.541288686907931, 0.0129091997861574, 0.161693572971695, -1.2375807340084, 1.21892663010771, -1.17583554534126], a = 0.2, v = 0.2, t = 0.2)
movej(p[0.541640251665777, 0.0129721857839693, 0.161702635262822, -1.23345161023745, 1.22121366482192, -1.1711814412102], a = 0.2, v = 0.2, t = 0.2)
movej(p[0.541642028777834, 0.0130469637850055, 0.161865040442647, -1.22989305805741, 1.22340613058904, -1.16740030211781], a = 0.2, v = 0.2, t = 0.2)
movej(p[0.541642304184518, 0.0130398791001678, 0.16180885626879, -1.23630776918272, 1.21931565988943, -1.17742926933924], a = 0.2, v = 0.2, t = 0.2)
movej(p[0.540939745011369, 0.0130291860291023, 0.162069944695298, -1.23554247544019, 1.21941048595791, -1.17607185407443], a = 0.2, v = 0.2, t = 0.2)
movej(p[0.539932163444834, 0.0130168455418998, 0.16244205008246, -1.23670790274375, 1.24640068234216, -1.17141197831584], a = 0.2, v = 0.2, t = 0.2)
movej(p[0.538144503470651, 0.0128873545925773, 0.162903352034274, -1.23710728531921, 1.25827480802367, -1.1685164470269], a = 0.2, v = 0.2, t = 0.2)
movej(p[0.535992624251294, 0.0127148204112307, 0.163388736378443, -1.2422963182732, 1.25472870788961, -1.1728443456817], a = 0.2, v = 0.2, t = 0.2)
movej(p[0.533793567360521, 0.0124770376624068, 0.163741481279904, -1.24872043617813, 1.26277235046001, -1.15800290877076], a = 0.2, v = 0.2, t = 0.2)
movej(p[0.532007158233417, 0.0122784636760238, 0.164001733662277, -1.25720320506942, 1.25542352756057, -1.16115310728558], a = 0.2, v = 0.2, t = 0.2)
movej(p[0.531272880591785, 0.0122157273066398, 0.164178464256563, -1.2553901387742, 1.22595251735713, -1.17113578739059], a = 0.2, v = 0.2, t = 0.2)
movej(p[0.531489508010637, 0.0122721290527528, 0.164240913551491, -1.25016502098099, 1.20957686911535, -1.17663340620234], a = 0.2, v = 0.2, t = 0.2)
movej(p[0.532015192764822, 0.012306367312061, 0.164151274604501, -1.24217180692602, 1.20820100632335, -1.16479317095876], a = 0.2, v = 0.2, t = 0.2)
movej(p[0.532622735556515, 0.0123562390334496, 0.164034939280253, -1.2398658134113, 1.20975652402538, -1.16762106543845], a = 0.2, v = 0.2, t = 0.2)
movej(p[0.533638422821475, 0.012495085330684, 0.163952055171148, -1.23429511421967, 1.19391983414639, -1.17912965184252], a = 0.2, v = 0.2, t = 0.2)
movej(p[0.534459960830775, 0.0124918291043998, 0.163611773161243, -1.23403388265711, 1.20396985145079, -1.16413895110039], a = 0.2, v = 0.2, t = 0.2)
movej(p[0.535429319128242, 0.0124981720516769, 0.163185294699709, -1.23664399345033, 1.19219322290964, -1.17051844547628], a = 0.2, v = 0.2, t = 0.2)
movej(p[0.536976668082346, 0.0126766974848604, 0.162890005919123, -1.24478517547269, 1.21560427246158, -1.15955647410152], a = 0.2, v = 0.2, t = 0.2)
movej(p[0.538067018785308, 0.0127724873066125, 0.162654182734093, -1.2420531476053, 1.20884776358597, -1.1568194562861], a = 0.2, v = 0.2, t = 0.2)
movej(p[0.538724822140468, 0.0127717757001222, 0.162357656614574, -1.24411765609485, 1.19991274016002, -1.16904116535996], a = 0.2, v = 0.2, t = 0.2)
movej(p[0.539821682293135, 0.0127996766784666, 0.162013264133677, -1.24006901200526, 1.22216753624362, -1.15543149460684], a = 0.2, v = 0.2, t = 0.2)
movej(p[0.540617057470515, 0.0128573366111867, 0.161845198463873, -1.23678343924027, 1.21322152629172, -1.17733283882666], a = 0.2, v = 0.2, t = 0.2)
movej(p[0.541377928951831, 0.0129097345907165, 0.161624647493208, -1.23918673451408, 1.22472742303357, -1.16974095396919], a = 0.2, v = 0.2, t = 0.2)
movej(p[0.541670132583205, 0.0129431945875285, 0.161616529215981, -1.23576564068167, 1.22678226254329, -1.16635163711091], a = 0.2, v = 0.2, t = 0.2)
movej(p[0.54167156266961, 0.0129417551177209, 0.161631504287919, -1.23360922077166, 1.22792367643174, -1.16340522362902], a = 0.2, v = 0.2, t = 0.2)
movej(p[0.540702036356442, 0.0128707476470424, 0.16187565224958, -1.23346866393268, 1.20979596917859, -1.17875450573764], a = 0.2, v = 0.2, t = 0.2)
movej(p[0.539761476875, 0.0128844699952391, 0.162300155334409, -1.23976357380637, 1.23270412743809, -1.17717655789673], a = 0.2, v = 0.2, t = 0.2)
movej(p[0.539376007721212, 0.0128765789102364, 0.162474379219843, -1.23936780287765, 1.24439115399641, -1.17189433831185], a = 0.2, v = 0.2, t = 0.2)
movej(p[0.539449419272511, 0.012910414344883, 0.162521435436204, -1.24025481817232, 1.24245464009375, -1.16885320395484], a = 0.2, v = 0.2, t = 0.2)
movej(p[0.539732253045303, 0.0129041560671701, 0.162341886693718, -1.24439880486234, 1.23763987388259, -1.16807202628322], a = 0.2, v = 0.2, t = 0.2)
movej(p[0.540197783095676, 0.0129036818181915, 0.16211247137756, -1.24483679429283, 1.22427373303229, -1.1721957668291], a = 0.2, v = 0.2, t = 0.2)
movej(p[0.540778396451225, 0.0129420740887553, 0.16197028556632, -1.23847042499638, 1.21578203745527, -1.17637106355026], a = 0.2, v = 0.2, t = 0.2)
movej(p[0.541317877415411, 0.0129056479635496, 0.161653131917935, -1.23484972400388, 1.2221976274364, -1.16808103430561], a = 0.2, v = 0.2, t = 0.2)
movej(p[0.542050264045262, 0.0130100213527276, 0.161568910364598, -1.23887786493653, 1.21928339490899, -1.17619570932641], a = 0.2, v = 0.2, t = 0.2)
movej(p[0.542403009312126, 0.0130685852571161, 0.16156136147009, -1.23623840648228, 1.22077584369333, -1.1745250826884], a = 0.2, v = 0.2, t = 0.2)
movej(p[0.542294117053758, 0.01305727777836, 0.161597817292557, -1.23339150261215, 1.22214247931828, -1.17073255697824], a = 0.2, v = 0.2, t = 0.2)
movej(p[0.54195485350589, 0.0130617545369303, 0.161763410510173, -1.23507861117137, 1.2291560726626, -1.16474058685611], a = 0.2, v = 0.2, t = 0.2)
movej(p[0.541321814398864, 0.0130214597457745, 0.161918437310378, -1.23897821842852, 1.22660530575428, -1.16881708358612], a = 0.2, v = 0.2, t = 0.2)
movej(p[0.540291553393009, 0.0129850270265134, 0.162294669122939, -1.24503173903051, 1.22506977731282, -1.18984587926188], a = 0.2, v = 0.2, t = 0.2)
movej(p[0.539226347469845, 0.0129354328278046, 0.162665503879549, -1.24726144623105, 1.23462211117714, -1.19284080939014], a = 0.2, v = 0.2, t = 0.2)
movej(p[0.537817306184621, 0.01275441953297, 0.162856947875608, -1.24050166476763, 1.2563302069153, -1.16861321054744], a = 0.2, v = 0.2, t = 0.2)
movej(p[0.535996013043403, 0.0125562869844825, 0.163087296734913, -1.2464401632614, 1.24963188433709, -1.17196771937688], a = 0.2, v = 0.2, t = 0.2)
movej(p[0.534454480688563, 0.0124775932515215, 0.163576914897744, -1.24908954912336, 1.23013457976173, -1.18639779907492], a = 0.2, v = 0.2, t = 0.2)
movej(p[0.53406064610501, 0.0124908500543972, 0.163792854444783, -1.25107905632513, 1.24453882719365, -1.16683791295988], a = 0.2, v = 0.2, t = 0.2)
movej(p[0.534120533549978, 0.0124658519068065, 0.163682238729117, -1.24974377243402, 1.23163023815292, -1.17301719436367], a = 0.2, v = 0.2, t = 0.2)
movej(p[0.534496328090532, 0.0125017797976826, 0.163638460538803, -1.24654371280157, 1.22568747805395, -1.17421235410617], a = 0.2, v = 0.2, t = 0.2)
movej(p[0.535435108086772, 0.0126093658965026, 0.163524411032008, -1.24533597568875, 1.2181205421929, -1.17802857353766], a = 0.2, v = 0.2, t = 0.2)
movej(p[0.536515361165205, 0.0126529265187805, 0.16312806962776, -1.24290675944542, 1.22717059009184, -1.1641824668182], a = 0.2, v = 0.2, t = 0.2)
movej(p[0.537571221287443, 0.0127169911675639, 0.162758807156007, -1.24714169976335, 1.19262794427528, -1.19191187367226], a = 0.2, v = 0.2, t = 0.2)
movej(p[0.538645773152019, 0.0128252044259791, 0.162553070428514, -1.25042482472675, 1.20009867656817, -1.18661448339536], a = 0.2, v = 0.2, t = 0.2)
movej(p[0.539591975291191, 0.0128495712071541, 0.162163356402848, -1.24569869699428, 1.21380851415633, -1.16913054788629], a = 0.2, v = 0.2, t = 0.2)
movej(p[0.540806390076353, 0.0129057707355606, 0.161750725293276, -1.24511700141106, 1.2262117992513, -1.16798416745861], a = 0.2, v = 0.2, t = 0.2)
movej(p[0.541875065671419, 0.0129699219804012, 0.161442417281223, -1.2397357140054, 1.22612545461864, -1.16609649914136], a = 0.2, v = 0.2, t = 0.2)
movej(p[0.542220298244285, 0.0130813054499273, 0.161703041787647, -1.23500065478574, 1.229110029491, -1.16218522517432], a = 0.2, v = 0.2, t = 0.2)
movej(p[0.541866172623197, 0.013041668907043, 0.161705898176566, -1.24119769709194, 1.22414761982623, -1.17010036948155], a = 0.2, v = 0.2, t = 0.2)
movej(p[0.541451524891603, 0.0130262737871096, 0.161874518486629, -1.24238441122958, 1.22274418020512, -1.17156638227943], a = 0.2, v = 0.2, t = 0.2)
movej(p[0.540500635845137, 0.0129782551454382, 0.162298246809217, -1.2368100876578, 1.23787260274088, -1.16908047681037], a = 0.2, v = 0.2, t = 0.2)
movej(p[0.538749906926525, 0.0128398973796888, 0.162763439352356, -1.24050808033174, 1.24768477597672, -1.17948279242239], a = 0.2, v = 0.2, t = 0.2)
movej(p[0.537023633938168, 0.012665631840673, 0.163049689700095, -1.23948451721586, 1.26377200492696, -1.16214442950922], a = 0.2, v = 0.2, t = 0.2)
movej(p[0.535345055463698, 0.0125313673378344, 0.163403809705635, -1.24776292495134, 1.24149684242812, -1.18516497118114], a = 0.2, v = 0.2, t = 0.2)
