def moving():
set_payload_mass(0)
set_tcp(p[0,0,0,0,0,0])
movej(p[0.4774, 0.1525, 0.3627, -1.351, 0.862, -0.876], a = 0.2, v = 0.2, t = 0.2)
movej(p[0.477398002477371, 0.152498032260707, 0.362774837490641, -1.351, 0.862, -0.876], a = 0.2, v = 0.2, t = 0.2)
movej(p[0.477391150246585, 0.152491282197621, 0.363031557364397, -1.351, 0.862, -0.876], a = 0.2, v = 0.2, t = 0.2)
movej(p[0.477390466623872, 0.152490608767816, 0.363057169393842, -1.351, 0.862, -0.876], a = 0.2, v = 0.2, t = 0.2)
movej(p[0.477390739219429, 0.152490877298936, 0.363046956559627, -1.351, 0.862, -0.876], a = 0.2, v = 0.2, t = 0.2)
movej(p[0.477392308377612, 0.152492423060755, 0.362988167808467, -1.351, 0.862, -0.876], a = 0.2, v = 0.2, t = 0.2)
movej(p[0.477395889728439, 0.152495951013151, 0.3628539919523, -1.351, 0.862, -0.876], a = 0.2, v = 0.2, t = 0.2)
movej(p[0.477408719857097, 0.152508589842834, 0.362373309220987, -1.351, 0.862, -0.876], a = 0.2, v = 0.2, t = 0.2)
movej(p[0.477432596774008, 0.152532110751643, 0.361478756879261, -1.351, 0.862, -0.876], a = 0.2, v = 0.2, t = 0.2)
movej(p[0.477457946560455, 0.152557082569303, 0.360529023255211, -1.351, 0.862, -0.876], a = 0.2, v = 0.2, t = 0.2)
movej(p[0.47748346971981, 0.152582225174857, 0.359572794188657, -1.351, 0.862, -0.876], a = 0.2, v = 0.2, t = 0.2)
movej(p[0.477506112221614, 0.152604530073859, 0.358724489397564, -1.351, 0.862, -0.876], a = 0.2, v = 0.2, t = 0.2)
movej(p[0.477520016728847, 0.152618227262985, 0.358203554908699, -1.351, 0.862, -0.876], a = 0.2, v = 0.2, t = 0.2)
movej(p[0.477515156952868, 0.152613439946931, 0.358385627158596, -1.351, 0.862, -0.876], a = 0.2, v = 0.2, t = 0.2)
movej(p[0.477491335515289, 0.152589973690248, 0.35927810095872, -1.351, 0.862, -0.876], a = 0.2, v = 0.2, t = 0.2)
movej(p[0.477462072835668, 0.152561147321188, 0.360374431723603, -1.351, 0.862, -0.876], a = 0.2, v = 0.2, t = 0.2)
movej(p[0.477430665666538, 0.152530208437251, 0.361551106115773, -1.351, 0.862, -0.876], a = 0.2, v = 0.2, t = 0.2)
movej(p[0.477406259028712, 0.152506165705737, 0.362465504532597, -1.351, 0.862, -0.876], a = 0.2, v = 0.2, t = 0.2)
movej(p[0.477392629250856, 0.152492739149735, 0.362976146243339, -1.351, 0.862, -0.876], a = 0.2, v = 0.2, t = 0.2)
movej(p[0.477391013148624, 0.152491147143809, 0.36303669376047, -1.351, 0.862, -0.876], a = 0.2, v = 0.2, t = 0.2)
movej(p[0.477392464679957, 0.15249257703261, 0.362982311917224, -1.351, 0.862, -0.876], a = 0.2, v = 0.2, t = 0.2)
movej(p[0.477401220145182, 0.15250120195265, 0.362654287074251, -1.351, 0.862, -0.876], a = 0.2, v = 0.2, t = 0.2)
movej(p[0.477419848797435, 0.152519552849147, 0.361956361770126, -1.351, 0.862, -0.876], a = 0.2, v = 0.2, t = 0.2)
movej(p[0.477444580842874, 0.152543916136402, 0.361029771907369, -1.351, 0.862, -0.876], a = 0.2, v = 0.2, t = 0.2)
movej(p[0.4774721764753, 0.15257110031417, 0.359995897320415, -1.351, 0.862, -0.876], a = 0.2, v = 0.2, t = 0.2)
movej(p[0.477494650938747, 0.152593239680289, 0.359153888112057, -1.351, 0.862, -0.876], a = 0.2, v = 0.2, t = 0.2)
movej(p[0.477514594157736, 0.152612885543151, 0.358406712364264, -1.351, 0.862, -0.876], a = 0.2, v = 0.2, t = 0.2)
movej(p[0.477518509718184, 0.152616742722058, 0.358260015293546, -1.351, 0.862, -0.876], a = 0.2, v = 0.2, t = 0.2)
movej(p[0.477507203137298, 0.15260560472384, 0.358683618074727, -1.351, 0.862, -0.876], a = 0.2, v = 0.2, t = 0.2)
movej(p[0.477481183864698, 0.152579973402158, 0.359658434099833, -1.351, 0.862, -0.876], a = 0.2, v = 0.2, t = 0.2)
movej(p[0.477449790031945, 0.15254904765575, 0.360834608842579, -1.351, 0.862, -0.876], a = 0.2, v = 0.2, t = 0.2)
movej(p[0.477420554825263, 0.152520248350003, 0.361929910329649, -1.351, 0.862, -0.876], a = 0.2, v = 0.2, t = 0.2)
movej(p[0.477402915865588, 0.152502872389632, 0.362590756650062, -1.351, 0.862, -0.876], a = 0.2, v = 0.2, t = 0.2)
movej(p[0.477396911294959, 0.152496957347975, 0.362815718806466, -1.351, 0.862, -0.876], a = 0.2, v = 0.2, t = 0.2)
movej(p[0.477395948675228, 0.152496009081035, 0.362851783501848, -1.351, 0.862, -0.876], a = 0.2, v = 0.2, t = 0.2)
movej(p[0.477399022176798, 0.152499036756276, 0.362736634295726, -1.351, 0.862, -0.876], a = 0.2, v = 0.2, t = 0.2)
movej(p[0.477410738717931, 0.152510578602176, 0.362297672291268, -1.351, 0.862, -0.876], a = 0.2, v = 0.2, t = 0.2)
movej(p[0.477430662999263, 0.152530205809745, 0.361551206045657, -1.351, 0.862, -0.876], a = 0.2, v = 0.2, t = 0.2)
movej(p[0.477455778065465, 0.152554946406871, 0.36061026625146, -1.351, 0.862, -0.876], a = 0.2, v = 0.2, t = 0.2)
movej(p[0.477482394807779, 0.152581166289912, 0.359613065932186, -1.351, 0.862, -0.876], a = 0.2, v = 0.2, t = 0.2)
movej(p[0.477506400287369, 0.152604813844514, 0.358713696970018, -1.351, 0.862, -0.876], a = 0.2, v = 0.2, t = 0.2)
movej(p[0.477517234760491, 0.152615486774158, 0.358307781778426, -1.351, 0.862, -0.876], a = 0.2, v = 0.2, t = 0.2)
movej(p[0.477514671508725, 0.152612961740827, 0.358403814397608, -1.351, 0.862, -0.876], a = 0.2, v = 0.2, t = 0.2)
movej(p[0.477500596295859, 0.152599096391312, 0.358931144399093, -1.351, 0.862, -0.876], a = 0.2, v = 0.2, t = 0.2)
movej(p[0.477473718160545, 0.152572619012676, 0.359938137847067, -1.351, 0.862, -0.876], a = 0.2, v = 0.2, t = 0.2)
movej(p[0.477441428123221, 0.152540810424231, 0.361147889031067, -1.351, 0.862, -0.876], a = 0.2, v = 0.2, t = 0.2)
movej(p[0.477414040004829, 0.152513830666435, 0.362173989072993, -1.351, 0.862, -0.876], a = 0.2, v = 0.2, t = 0.2)
movej(p[0.477402282521018, 0.152502248488317, 0.36261448500118, -1.351, 0.862, -0.876], a = 0.2, v = 0.2, t = 0.2)
movej(p[0.47739666830616, 0.152496717982172, 0.36282482241896, -1.351, 0.862, -0.876], a = 0.2, v = 0.2, t = 0.2)
movej(p[0.477395780103416, 0.152495843022652, 0.362858099070561, -1.351, 0.862, -0.876], a = 0.2, v = 0.2, t = 0.2)
movej(p[0.4774020917308, 0.152502060542808, 0.362621632985832, -1.351, 0.862, -0.876], a = 0.2, v = 0.2, t = 0.2)
movej(p[0.477417661898244, 0.152517398556923, 0.362038294282579, -1.351, 0.862, -0.876], a = 0.2, v = 0.2, t = 0.2)
movej(p[0.477443092503139, 0.152542449988017, 0.361085532783024, -1.351, 0.862, -0.876], a = 0.2, v = 0.2, t = 0.2)
movej(p[0.477470722810147, 0.152569668323363, 0.360050359107569, -1.351, 0.862, -0.876], a = 0.2, v = 0.2, t = 0.2)
movej(p[0.477497630285492, 0.152596174604566, 0.359042266430863, -1.351, 0.862, -0.876], a = 0.2, v = 0.2, t = 0.2)
movej(p[0.477514967576307, 0.152613253394001, 0.358392722180408, -1.351, 0.862, -0.876], a = 0.2, v = 0.2, t = 0.2)
movej(p[0.477518725767501, 0.152616955550049, 0.358251920972887, -1.351, 0.862, -0.876], a = 0.2, v = 0.2, t = 0.2)
movej(p[0.477510686599114, 0.152609036246763, 0.358553109645328, -1.351, 0.862, -0.876], a = 0.2, v = 0.2, t = 0.2)
movej(p[0.477484872706728, 0.152583607243048, 0.359520231069313, -1.351, 0.862, -0.876], a = 0.2, v = 0.2, t = 0.2)
movej(p[0.477450718243822, 0.152549962027862, 0.360799833242709, -1.351, 0.862, -0.876], a = 0.2, v = 0.2, t = 0.2)
movej(p[0.477419368421116, 0.152519079635305, 0.361974359142357, -1.351, 0.862, -0.876], a = 0.2, v = 0.2, t = 0.2)
movej(p[0.477404015850008, 0.152503955973134, 0.362549545565618, -1.351, 0.862, -0.876], a = 0.2, v = 0.2, t = 0.2)
movej(p[0.477397024120714, 0.152497068491481, 0.362811491772343, -1.351, 0.862, -0.876], a = 0.2, v = 0.2, t = 0.2)
movej(p[0.477396009222382, 0.152496068725423, 0.362849515093466, -1.351, 0.862, -0.876], a = 0.2, v = 0.2, t = 0.2)
movej(p[0.477402642123102, 0.152502602728685, 0.362601012454127, -1.351, 0.862, -0.876], a = 0.2, v = 0.2, t = 0.2)
movej(p[0.477415331499631, 0.152515102904872, 0.362125603022829, -1.351, 0.862, -0.876], a = 0.2, v = 0.2, t = 0.2)
movej(p[0.47743828607267, 0.152537715222084, 0.361265606435227, -1.351, 0.862, -0.876], a = 0.2, v = 0.2, t = 0.2)
movej(p[0.477464806793066, 0.152563840514907, 0.360272003591801, -1.351, 0.862, -0.876], a = 0.2, v = 0.2, t = 0.2)
movej(p[0.477489916524717, 0.152588575857021, 0.359331263657373, -1.351, 0.862, -0.876], a = 0.2, v = 0.2, t = 0.2)
movej(p[0.477506288261798, 0.152604703489259, 0.358717894025174, -1.351, 0.862, -0.876], a = 0.2, v = 0.2, t = 0.2)
movej(p[0.477515477025929, 0.15261375524766, 0.358373635572434, -1.351, 0.862, -0.876], a = 0.2, v = 0.2, t = 0.2)
movej(p[0.477512783077664, 0.152611101466532, 0.358474564755966, -1.351, 0.862, -0.876], a = 0.2, v = 0.2, t = 0.2)
movej(p[0.47749293854787, 0.152591552821394, 0.359218043098025, -1.351, 0.862, -0.876], a = 0.2, v = 0.2, t = 0.2)
movej(p[0.477459728300495, 0.152558837743356, 0.360462270092241, -1.351, 0.862, -0.876], a = 0.2, v = 0.2, t = 0.2)
movej(p[0.477427787676263, 0.152527373358205, 0.361658930461348, -1.351, 0.862, -0.876], a = 0.2, v = 0.2, t = 0.2)
movej(p[0.477408370444005, 0.152508245639539, 0.36238640003588, -1.351, 0.862, -0.876], a = 0.2, v = 0.2, t = 0.2)
movej(p[0.477398266751028, 0.152498292594008, 0.362764936437666, -1.351, 0.862, -0.876], a = 0.2, v = 0.2, t = 0.2)
movej(p[0.477396712049479, 0.152496761073271, 0.362823183568852, -1.351, 0.862, -0.876], a = 0.2, v = 0.2, t = 0.2)
movej(p[0.477401872374063, 0.152501844456709, 0.362629851219549, -1.351, 0.862, -0.876], a = 0.2, v = 0.2, t = 0.2)
movej(p[0.477415711319664, 0.152515477061736, 0.36211137300725, -1.351, 0.862, -0.876], a = 0.2, v = 0.2, t = 0.2)
movej(p[0.477438171379823, 0.152537602239323, 0.361269903420268, -1.351, 0.862, -0.876], a = 0.2, v = 0.2, t = 0.2)
movej(p[0.477465124198852, 0.152564153188129, 0.360260111935523, -1.351, 0.862, -0.876], a = 0.2, v = 0.2, t = 0.2)
movej(p[0.477489473756983, 0.152588139691014, 0.359347852018231, -1.351, 0.862, -0.876], a = 0.2, v = 0.2, t = 0.2)
movej(p[0.477506915071542, 0.152605320953185, 0.358694410502273, -1.351, 0.862, -0.876], a = 0.2, v = 0.2, t = 0.2)
movej(p[0.477516543936133, 0.152614806250086, 0.358333663618559, -1.351, 0.862, -0.876], a = 0.2, v = 0.2, t = 0.2)
movej(p[0.477519667315756, 0.152617883059691, 0.358216645723593, -1.351, 0.862, -0.876], a = 0.2, v = 0.2, t = 0.2)
movej(p[0.4775019859464, 0.152600465321973, 0.358879080929172, -1.351, 0.862, -0.876], a = 0.2, v = 0.2, t = 0.2)
movej(p[0.477471149574229, 0.152570088724334, 0.360034370326019, -1.351, 0.862, -0.876], a = 0.2, v = 0.2, t = 0.2)
movej(p[0.477435906862915, 0.152535371486672, 0.361354743892366, -1.351, 0.862, -0.876], a = 0.2, v = 0.2, t = 0.2)
movej(p[0.477410838207307, 0.152510676608152, 0.36229394490657, -1.351, 0.862, -0.876], a = 0.2, v = 0.2, t = 0.2)
movej(p[0.477396267681379, 0.152496323330761, 0.36283983188764, -1.351, 0.862, -0.876], a = 0.2, v = 0.2, t = 0.2)
movej(p[0.477392873039837, 0.152492979303789, 0.362967012651879, -1.351, 0.862, -0.876], a = 0.2, v = 0.2, t = 0.2)
movej(p[0.477394892967581, 0.152494969114134, 0.362891335750207, -1.351, 0.862, -0.876], a = 0.2, v = 0.2, t = 0.2)
movej(p[0.477401751013027, 0.152501724905183, 0.362634398029302, -1.351, 0.862, -0.876], a = 0.2, v = 0.2, t = 0.2)
movej(p[0.47741865999274, 0.152518381769693, 0.36200090051973, -1.351, 0.862, -0.876], a = 0.2, v = 0.2, t = 0.2)
movej(p[0.477445911813353, 0.152545227261929, 0.360979906894912, -1.351, 0.862, -0.876], a = 0.2, v = 0.2, t = 0.2)
movej(p[0.477473600800423, 0.152572503402409, 0.359942534761993, -1.351, 0.862, -0.876], a = 0.2, v = 0.2, t = 0.2)
movej(p[0.477497254199645, 0.152595804126211, 0.359056356544604, -1.351, 0.862, -0.876], a = 0.2, v = 0.2, t = 0.2)
movej(p[0.477515949133695, 0.152614220316233, 0.358355947982844, -1.351, 0.862, -0.876], a = 0.2, v = 0.2, t = 0.2)
movej(p[0.477523836267378, 0.152621989851673, 0.35806045531383, -1.351, 0.862, -0.876], a = 0.2, v = 0.2, t = 0.2)
movej(p[0.477514724854236, 0.152613014290949, 0.358401815799915, -1.351, 0.862, -0.876], a = 0.2, v = 0.2, t = 0.2)
movej(p[0.477485208783442, 0.152583938308813, 0.359507639903843, -1.351, 0.862, -0.876], a = 0.2, v = 0.2, t = 0.2)
movej(p[0.477450507529057, 0.152549754454882, 0.360807727703599, -1.351, 0.862, -0.876], a = 0.2, v = 0.2, t = 0.2)
movej(p[0.477420129128091, 0.152519829000035, 0.361945859139245, -1.351, 0.862, -0.876], a = 0.2, v = 0.2, t = 0.2)
movej(p[0.477399944456655, 0.152499945284814, 0.362702080939919, -1.351, 0.862, -0.876], a = 0.2, v = 0.2, t = 0.2)
movej(p[0.477391009414438, 0.1524911434653, 0.363036833662309, -1.351, 0.862, -0.876], a = 0.2, v = 0.2, t = 0.2)
movej(p[0.477391399903573, 0.152491528132189, 0.363022203927191, -1.351, 0.862, -0.876], a = 0.2, v = 0.2, t = 0.2)
movej(p[0.477392548432408, 0.152492659536301, 0.362979174118845, -1.351, 0.862, -0.876], a = 0.2, v = 0.2, t = 0.2)
movej(p[0.477399339849311, 0.152499349692248, 0.36272473264646, -1.351, 0.862, -0.876], a = 0.2, v = 0.2, t = 0.2)
movej(p[0.477414780973966, 0.15251456058762, 0.362146228551028, -1.351, 0.862, -0.876], a = 0.2, v = 0.2, t = 0.2)
movej(p[0.477435901528364, 0.15253536623166, 0.361354943752136, -1.351, 0.862, -0.876], a = 0.2, v = 0.2, t = 0.2)
movej(p[0.477462881020148, 0.152561943455527, 0.360344152968543, -1.351, 0.862, -0.876], a = 0.2, v = 0.2, t = 0.2)
movej(p[0.477486163668075, 0.152584878955985, 0.359471865005125, -1.351, 0.862, -0.876], a = 0.2, v = 0.2, t = 0.2)
movej(p[0.477504133103186, 0.152602580464357, 0.358798637372, -1.351, 0.862, -0.876], a = 0.2, v = 0.2, t = 0.2)
movej(p[0.477505224018869, 0.152603655114338, 0.358757766049164, -1.351, 0.862, -0.876], a = 0.2, v = 0.2, t = 0.2)
movej(p[0.477491695597482, 0.152590328403567, 0.359264610424288, -1.351, 0.862, -0.876], a = 0.2, v = 0.2, t = 0.2)
movej(p[0.477466337809209, 0.152565348703389, 0.360214643837991, -1.351, 0.862, -0.876], a = 0.2, v = 0.2, t = 0.2)
movej(p[0.477435672142671, 0.152535140266138, 0.361363537722218, -1.351, 0.862, -0.876], a = 0.2, v = 0.2, t = 0.2)
movej(p[0.477412059552763, 0.15251187974318, 0.362248187012372, -1.351, 0.862, -0.876], a = 0.2, v = 0.2, t = 0.2)
movej(p[0.477398182145049, 0.152498209249515, 0.362768106213608, -1.351, 0.862, -0.876], a = 0.2, v = 0.2, t = 0.2)
movej(p[0.477394891367216, 0.15249496753763, 0.362891395708138, -1.351, 0.862, -0.876], a = 0.2, v = 0.2, t = 0.2)
movej(p[0.477393204848911, 0.152493306165544, 0.362954581374224, -1.351, 0.862, -0.876], a = 0.2, v = 0.2, t = 0.2)
movej(p[0.477394871362649, 0.152494947831335, 0.362892145182273, -1.351, 0.862, -0.876], a = 0.2, v = 0.2, t = 0.2)
movej(p[0.477401390450723, 0.152501369718913, 0.362647906551114, -1.351, 0.862, -0.876], a = 0.2, v = 0.2, t = 0.2)
movej(p[0.477414707090435, 0.152514487805702, 0.362148996608834, -1.351, 0.862, -0.876], a = 0.2, v = 0.2, t = 0.2)
movej(p[0.477435493435211, 0.152534964223232, 0.361370233024492, -1.351, 0.862, -0.876], a = 0.2, v = 0.2, t = 0.2)
movej(p[0.477462064833842, 0.15256113943867, 0.360374731513257, -1.351, 0.862, -0.876], a = 0.2, v = 0.2, t = 0.2)
movej(p[0.477483939160299, 0.152582687615925, 0.359555206528953, -1.351, 0.862, -0.876], a = 0.2, v = 0.2, t = 0.2)
movej(p[0.47749704348488, 0.152595596553231, 0.359064251005494, -1.351, 0.862, -0.876], a = 0.2, v = 0.2, t = 0.2)
movej(p[0.47750151650591, 0.152600002880905, 0.358896668588876, -1.351, 0.862, -0.876], a = 0.2, v = 0.2, t = 0.2)
movej(p[0.477498203749727, 0.15259673951837, 0.359020781505656, -1.351, 0.862, -0.876], a = 0.2, v = 0.2, t = 0.2)
movej(p[0.477479170071688, 0.152577989635077, 0.35973388116277, -1.351, 0.862, -0.876], a = 0.2, v = 0.2, t = 0.2)
movej(p[0.477451078326016, 0.152550316741181, 0.360786342708276, -1.351, 0.862, -0.876], a = 0.2, v = 0.2, t = 0.2)
movej(p[0.477423400808232, 0.152523051898977, 0.36182328514269, -1.351, 0.862, -0.876], a = 0.2, v = 0.2, t = 0.2)
movej(p[0.477407465704152, 0.152507354389481, 0.362420296252766, -1.351, 0.862, -0.876], a = 0.2, v = 0.2, t = 0.2)
movej(p[0.477397613161837, 0.152497648749921, 0.362789423256609, -1.351, 0.862, -0.876], a = 0.2, v = 0.2, t = 0.2)
movej(p[0.477394285095492, 0.152494370305501, 0.362914109770927, -1.351, 0.862, -0.876], a = 0.2, v = 0.2, t = 0.2)
movej(p[0.477395664610386, 0.152495729251639, 0.362862426034567, -1.351, 0.862, -0.876], a = 0.2, v = 0.2, t = 0.2)
movej(p[0.47739710947353, 0.152497152571675, 0.362808294016033, -1.351, 0.862, -0.876], a = 0.2, v = 0.2, t = 0.2)
movej(p[0.477399041807946, 0.152499056094721, 0.362735898811774, -1.351, 0.862, -0.876], a = 0.2, v = 0.2, t = 0.2)
movej(p[0.477403660835637, 0.152503606252077, 0.362562846233269, -1.351, 0.862, -0.876], a = 0.2, v = 0.2, t = 0.2)
movej(p[0.477419368421116, 0.152519079635305, 0.361974359142357, -1.351, 0.862, -0.876], a = 0.2, v = 0.2, t = 0.2)
movej(p[0.47743598154663, 0.152535445056842, 0.361351945855595, -1.351, 0.862, -0.876], a = 0.2, v = 0.2, t = 0.2)
movej(p[0.477454481769567, 0.152553669438922, 0.360658832175418, -1.351, 0.862, -0.876], a = 0.2, v = 0.2, t = 0.2)
movej(p[0.477470696137392, 0.152569642048303, 0.360051358406415, -1.351, 0.862, -0.876], a = 0.2, v = 0.2, t = 0.2)
movej(p[0.477486179671728, 0.152584894721021, 0.359471265425817, -1.351, 0.862, -0.876], a = 0.2, v = 0.2, t = 0.2)
movej(p[0.477492959886074, 0.152591573841443, 0.359217243658947, -1.351, 0.862, -0.876], a = 0.2, v = 0.2, t = 0.2)
movej(p[0.477490441977993, 0.152589093475716, 0.35931157747009, -1.351, 0.862, -0.876], a = 0.2, v = 0.2, t = 0.2)
movej(p[0.477478012474116, 0.152576849297444, 0.359777250732724, -1.351, 0.862, -0.876], a = 0.2, v = 0.2, t = 0.2)
movej(p[0.477452686693149, 0.152551901127339, 0.360726084987811, -1.351, 0.862, -0.876], a = 0.2, v = 0.2, t = 0.2)
movej(p[0.477426864798937, 0.152526464241106, 0.361693506201449, -1.351, 0.862, -0.876], a = 0.2, v = 0.2, t = 0.2)
movej(p[0.47740695412071, 0.152506850433818, 0.362439462804648, -1.351, 0.862, -0.876], a = 0.2, v = 0.2, t = 0.2)
movej(p[0.477399837664278, 0.152499840084726, 0.362706081932642, -1.351, 0.862, -0.876], a = 0.2, v = 0.2, t = 0.2)
movej(p[0.477396823541595, 0.152496870903025, 0.362819006499672, -1.351, 0.862, -0.876], a = 0.2, v = 0.2, t = 0.2)
movej(p[0.477396126849232, 0.15249618459844, 0.362845108185552, -1.351, 0.862, -0.876], a = 0.2, v = 0.2, t = 0.2)
movej(p[0.477397868740176, 0.152497900517552, 0.362779847975059, -1.351, 0.862, -0.876], a = 0.2, v = 0.2, t = 0.2)
movej(p[0.477399106996159, 0.152499120310969, 0.362733456525393, -1.351, 0.862, -0.876], a = 0.2, v = 0.2, t = 0.2)
movej(p[0.477402709151735, 0.152502668757912, 0.362598501216125, -1.351, 0.862, -0.876], a = 0.2, v = 0.2, t = 0.2)
movej(p[0.477413975190035, 0.152513766818037, 0.362176417369191, -1.351, 0.862, -0.876], a = 0.2, v = 0.2, t = 0.2)
movej(p[0.477434053106436, 0.152533545369956, 0.361424195162222, -1.351, 0.862, -0.876], a = 0.2, v = 0.2, t = 0.2)
movej(p[0.477454233712945, 0.152553425080858, 0.360668125654693, -1.351, 0.862, -0.876], a = 0.2, v = 0.2, t = 0.2)
movej(p[0.477473518114882, 0.152572421949721, 0.359945632588418, -1.351, 0.862, -0.876], a = 0.2, v = 0.2, t = 0.2)
movej(p[0.477490457981646, 0.152589109240752, 0.359310977890782, -1.351, 0.862, -0.876], a = 0.2, v = 0.2, t = 0.2)
movej(p[0.477500991052635, 0.15259948526221, 0.35891635477616, -1.351, 0.862, -0.876], a = 0.2, v = 0.2, t = 0.2)
movej(p[0.47749442955488, 0.152593021597286, 0.359162182292485, -1.351, 0.862, -0.876], a = 0.2, v = 0.2, t = 0.2)
movej(p[0.477476233401351, 0.152575096750898, 0.359843903965809, -1.351, 0.862, -0.876], a = 0.2, v = 0.2, t = 0.2)
movej(p[0.477452894740639, 0.152552106072812, 0.360718290456805, -1.351, 0.862, -0.876], a = 0.2, v = 0.2, t = 0.2)
movej(p[0.477427504945059, 0.152527094842562, 0.361669523029125, -1.351, 0.862, -0.876], a = 0.2, v = 0.2, t = 0.2)
movej(p[0.477408999921026, 0.152508865730971, 0.362362816583095, -1.351, 0.862, -0.876], a = 0.2, v = 0.2, t = 0.2)
movej(p[0.477398043820141, 0.152498072987051, 0.362773288577428, -1.351, 0.862, -0.876], a = 0.2, v = 0.2, t = 0.2)
movej(p[0.477396154588897, 0.152496211924503, 0.362844068914751, -1.351, 0.862, -0.876], a = 0.2, v = 0.2, t = 0.2)
movej(p[0.477394708392116, 0.152494787290714, 0.362898250898227, -1.351, 0.862, -0.876], a = 0.2, v = 0.2, t = 0.2)
movej(p[0.477395938806308, 0.152495999359263, 0.362852153242422, -1.351, 0.862, -0.876], a = 0.2, v = 0.2, t = 0.2)
movej(p[0.477399563687072, 0.152499570192558, 0.362716346530537, -1.351, 0.862, -0.876], a = 0.2, v = 0.2, t = 0.2)
movej(p[0.477409755560178, 0.15250961010344, 0.362334506446763, -1.351, 0.862, -0.876], a = 0.2, v = 0.2, t = 0.2)
movej(p[0.477426318540912, 0.152525926127863, 0.361713971841833, -1.351, 0.862, -0.876], a = 0.2, v = 0.2, t = 0.2)
movej(p[0.477451526428302, 0.1525507581622, 0.360769554487649, -1.351, 0.862, -0.876], a = 0.2, v = 0.2, t = 0.2)
movej(p[0.477474456995861, 0.152573346831857, 0.359910457269009, -1.351, 0.862, -0.876], a = 0.2, v = 0.2, t = 0.2)
movej(p[0.47749006322487, 0.152588720369854, 0.359325767513715, -1.351, 0.862, -0.876], a = 0.2, v = 0.2, t = 0.2)
movej(p[0.477502743452645, 0.152601211533696, 0.358850700841921, -1.351, 0.862, -0.876], a = 0.2, v = 0.2, t = 0.2)
movej(p[0.477510769284654, 0.152609117699451, 0.358550011818903, -1.351, 0.862, -0.876], a = 0.2, v = 0.2, t = 0.2)
movej(p[0.477501911262686, 0.152600391751803, 0.358881878965943, -1.351, 0.862, -0.876], a = 0.2, v = 0.2, t = 0.2)
movej(p[0.477477228295116, 0.15257607681066, 0.359806630118821, -1.351, 0.862, -0.876], a = 0.2, v = 0.2, t = 0.2)
movej(p[0.477445749109547, 0.152545066984059, 0.360986002617877, -1.351, 0.862, -0.876], a = 0.2, v = 0.2, t = 0.2)
movej(p[0.477419871202549, 0.152519574920198, 0.361955522359094, -1.351, 0.862, -0.876], a = 0.2, v = 0.2, t = 0.2)
movej(p[0.477400557353891, 0.152500549043668, 0.362679118651296, -1.351, 0.862, -0.876], a = 0.2, v = 0.2, t = 0.2)
movej(p[0.477392748211343, 0.152492856336505, 0.362971689370482, -1.351, 0.862, -0.876], a = 0.2, v = 0.2, t = 0.2)
movej(p[0.477392662058344, 0.152492771468059, 0.362974917105758, -1.351, 0.862, -0.876], a = 0.2, v = 0.2, t = 0.2)
movej(p[0.477393002936155, 0.152493107263335, 0.362962146066495, -1.351, 0.862, -0.876], a = 0.2, v = 0.2, t = 0.2)
movej(p[0.47739333234468, 0.152493431760334, 0.362949804725736, -1.351, 0.862, -0.876], a = 0.2, v = 0.2, t = 0.2)
movej(p[0.477395132222194, 0.152495204801428, 0.362882372039551, -1.351, 0.862, -0.876], a = 0.2, v = 0.2, t = 0.2)
movej(p[0.477406088589807, 0.152505997808099, 0.362471890052229, -1.351, 0.862, -0.876], a = 0.2, v = 0.2, t = 0.2)
movej(p[0.477423001783815, 0.152522658824069, 0.361838234653439, -1.351, 0.862, -0.876], a = 0.2, v = 0.2, t = 0.2)
movej(p[0.477445325012741, 0.152544649210594, 0.361001891469542, -1.351, 0.862, -0.876], a = 0.2, v = 0.2, t = 0.2)
movej(p[0.477466804582423, 0.152565808516951, 0.360197156108171, -1.351, 0.862, -0.876], a = 0.2, v = 0.2, t = 0.2)
movej(p[0.477481733323453, 0.152580514668407, 0.359637848543588, -1.351, 0.862, -0.876], a = 0.2, v = 0.2, t = 0.2)
movej(p[0.477492370418186, 0.152590993162602, 0.359239328163462, -1.351, 0.862, -0.876], a = 0.2, v = 0.2, t = 0.2)
movej(p[0.477495112377411, 0.152593694238839, 0.359136600242006, -1.351, 0.862, -0.876], a = 0.2, v = 0.2, t = 0.2)
movej(p[0.477490329952421, 0.152588983120461, 0.359315774525247, -1.351, 0.862, -0.876], a = 0.2, v = 0.2, t = 0.2)
movej(p[0.477468591657015, 0.152567568946016, 0.360130203085432, -1.351, 0.862, -0.876], a = 0.2, v = 0.2, t = 0.2)
movej(p[0.477442401678782, 0.152541769463945, 0.361111414623157, -1.351, 0.862, -0.876], a = 0.2, v = 0.2, t = 0.2)
movej(p[0.477419856265807, 0.152519560206164, 0.361956081966449, -1.351, 0.862, -0.876], a = 0.2, v = 0.2, t = 0.2)
movej(p[0.477404541570011, 0.15250447385458, 0.362529849385346, -1.351, 0.862, -0.876], a = 0.2, v = 0.2, t = 0.2)
movej(p[0.477398307480325, 0.152498332716025, 0.362763410508327, -1.351, 0.862, -0.876], a = 0.2, v = 0.2, t = 0.2)
movej(p[0.477396570150422, 0.152496621289949, 0.362828499838717, -1.351, 0.862, -0.876], a = 0.2, v = 0.2, t = 0.2)
movej(p[0.477398571460582, 0.152498592760301, 0.36275352044764, -1.351, 0.862, -0.876], a = 0.2, v = 0.2, t = 0.2)
movej(p[0.477397743271537, 0.152497776919667, 0.362784548676835, -1.351, 0.862, -0.876], a = 0.2, v = 0.2, t = 0.2)
movej(p[0.47739898288783, 0.152498998053112, 0.362738106262927, -1.351, 0.862, -0.876], a = 0.2, v = 0.2, t = 0.2)
movej(p[0.477406666855137, 0.152506567451414, 0.362450225253229, -1.351, 0.862, -0.876], a = 0.2, v = 0.2, t = 0.2)
movej(p[0.47741992668188, 0.152519629572324, 0.361953443817493, -1.351, 0.862, -0.876], a = 0.2, v = 0.2, t = 0.2)
movej(p[0.477438262067191, 0.152537691574529, 0.361266505804189, -1.351, 0.862, -0.876], a = 0.2, v = 0.2, t = 0.2)
movej(p[0.47745789588222, 0.152557032646688, 0.36053092192302, -1.351, 0.862, -0.876], a = 0.2, v = 0.2, t = 0.2)
movej(p[0.477476052026616, 0.152574918080485, 0.359850699197967, -1.351, 0.862, -0.876], a = 0.2, v = 0.2, t = 0.2)
movej(p[0.477488574885136, 0.152587254221469, 0.35938152838937, -1.351, 0.862, -0.876], a = 0.2, v = 0.2, t = 0.2)
movej(p[0.477493509344829, 0.152592115107693, 0.359196658102702, -1.351, 0.862, -0.876], a = 0.2, v = 0.2, t = 0.2)
movej(p[0.47748917235485, 0.152587842782828, 0.3593591440952, -1.351, 0.862, -0.876], a = 0.2, v = 0.2, t = 0.2)
movej(p[0.477471378959923, 0.152570314689856, 0.360025776355936, -1.351, 0.862, -0.876], a = 0.2, v = 0.2, t = 0.2)
movej(p[0.477445127634353, 0.152544454775146, 0.361009286281009, -1.351, 0.862, -0.876], a = 0.2, v = 0.2, t = 0.2)
movej(p[0.477420475873908, 0.152520170575824, 0.361932868254236, -1.351, 0.862, -0.876], a = 0.2, v = 0.2, t = 0.2)
movej(p[0.477408180533989, 0.152508058561107, 0.36239351504367, -1.351, 0.862, -0.876], a = 0.2, v = 0.2, t = 0.2)
movej(p[0.477399913100164, 0.152499914395852, 0.362703255715643, -1.351, 0.862, -0.876], a = 0.2, v = 0.2, t = 0.2)
movej(p[0.477397929127294, 0.15249796000429, 0.36277758556247, -1.351, 0.862, -0.876], a = 0.2, v = 0.2, t = 0.2)
movej(p[0.477395518710416, 0.152495585527057, 0.36286789219926, -1.351, 0.862, -0.876], a = 0.2, v = 0.2, t = 0.2)
movej(p[0.4773985100599, 0.152498532275111, 0.362755820833585, -1.351, 0.862, -0.876], a = 0.2, v = 0.2, t = 0.2)
movej(p[0.477405492720458, 0.152505410823244, 0.362494214388467, -1.351, 0.862, -0.876], a = 0.2, v = 0.2, t = 0.2)
movej(p[0.47742102559939, 0.152520712104824, 0.361912272705002, -1.351, 0.862, -0.876], a = 0.2, v = 0.2, t = 0.2)
movej(p[0.477444266104364, 0.152543606090686, 0.361041563633762, -1.351, 0.862, -0.876], a = 0.2, v = 0.2, t = 0.2)
movej(p[0.47746576701225, 0.152564786417091, 0.360236028833314, -1.351, 0.862, -0.876], a = 0.2, v = 0.2, t = 0.2)
movej(p[0.477483331021483, 0.152582088544541, 0.359577990542661, -1.351, 0.862, -0.876], a = 0.2, v = 0.2, t = 0.2)
movej(p[0.477497822329329, 0.152596363785003, 0.359035071479166, -1.351, 0.862, -0.876], a = 0.2, v = 0.2, t = 0.2)
movej(p[0.477505586768338, 0.152604012455164, 0.358744175584847, -1.351, 0.862, -0.876], a = 0.2, v = 0.2, t = 0.2)
movej(p[0.477495491130533, 0.1525940673447, 0.359122410198381, -1.351, 0.862, -0.876], a = 0.2, v = 0.2, t = 0.2)
movej(p[0.477471928418678, 0.152570855956106, 0.360005190799691, -1.351, 0.862, -0.876], a = 0.2, v = 0.2, t = 0.2)
movej(p[0.477441516143313, 0.152540897131931, 0.361144591344873, -1.351, 0.862, -0.876], a = 0.2, v = 0.2, t = 0.2)
movej(p[0.477416559780004, 0.152516312871416, 0.362079585310931, -1.351, 0.862, -0.876], a = 0.2, v = 0.2, t = 0.2)
movej(p[0.477399257190443, 0.152499268265835, 0.362727829473586, -1.351, 0.862, -0.876], a = 0.2, v = 0.2, t = 0.2)
movej(p[0.477394241352174, 0.152494327214402, 0.362915748621036, -1.351, 0.862, -0.876], a = 0.2, v = 0.2, t = 0.2)
movej(p[0.477395106883077, 0.15249517984012, 0.362883321373455, -1.351, 0.862, -0.876], a = 0.2, v = 0.2, t = 0.2)
movej(p[0.477394732664323, 0.152494811201019, 0.362897341536277, -1.351, 0.862, -0.876], a = 0.2, v = 0.2, t = 0.2)
movej(p[0.477395763032852, 0.152495826206613, 0.362858738621823, -1.351, 0.862, -0.876], a = 0.2, v = 0.2, t = 0.2)
movej(p[0.477403205798435, 0.152503157999542, 0.362579894271597, -1.351, 0.862, -0.876], a = 0.2, v = 0.2, t = 0.2)
movej(p[0.477418354056239, 0.152518080394747, 0.362012362477503, -1.351, 0.862, -0.876], a = 0.2, v = 0.2, t = 0.2)
movej(p[0.477441254750313, 0.152540639636336, 0.361154384473572, -1.351, 0.862, -0.876], a = 0.2, v = 0.2, t = 0.2)
movej(p[0.47746571366674, 0.15256473386697, 0.360238027431008, -1.351, 0.862, -0.876], a = 0.2, v = 0.2, t = 0.2)
movej(p[0.477488326828513, 0.152587009863405, 0.359390821868645, -1.351, 0.862, -0.876], a = 0.2, v = 0.2, t = 0.2)
movej(p[0.47750219399389, 0.152600670267446, 0.358871286398166, -1.351, 0.862, -0.876], a = 0.2, v = 0.2, t = 0.2)
movej(p[0.477505866832267, 0.152604288343301, 0.358733682946955, -1.351, 0.862, -0.876], a = 0.2, v = 0.2, t = 0.2)
movej(p[0.477497961027655, 0.152596500415318, 0.359029875125162, -1.351, 0.862, -0.876], a = 0.2, v = 0.2, t = 0.2)
movej(p[0.477475667938943, 0.152574539719611, 0.359865089101362, -1.351, 0.862, -0.876], a = 0.2, v = 0.2, t = 0.2)
movej(p[0.477445749109547, 0.152545066984059, 0.360986002617877, -1.351, 0.862, -0.876], a = 0.2, v = 0.2, t = 0.2)
movej(p[0.477418970730337, 0.15251868787415, 0.361989258688164, -1.351, 0.862, -0.876], a = 0.2, v = 0.2, t = 0.2)
movej(p[0.477403988910525, 0.152503929435323, 0.362550554857453, -1.351, 0.862, -0.876], a = 0.2, v = 0.2, t = 0.2)
movej(p[0.47739570995407, 0.152495773919242, 0.362860727226528, -1.351, 0.862, -0.876], a = 0.2, v = 0.2, t = 0.2)
movej(p[0.477394218413605, 0.152494304617849, 0.362916608018044, -1.351, 0.862, -0.876], a = 0.2, v = 0.2, t = 0.2)
movej(p[0.4773943800505, 0.152494463844717, 0.362910552267032, -1.351, 0.862, -0.876], a = 0.2, v = 0.2, t = 0.2)
movej(p[0.477395819845821, 0.152495882172492, 0.362856610115279, -1.351, 0.862, -0.876], a = 0.2, v = 0.2, t = 0.2)
movej(p[0.477399461130329, 0.152499469164949, 0.362720188834603, -1.351, 0.862, -0.876], a = 0.2, v = 0.2, t = 0.2)
movej(p[0.477411313515803, 0.152511144829733, 0.362276137401119, -1.351, 0.862, -0.876], a = 0.2, v = 0.2, t = 0.2)
movej(p[0.477430470955426, 0.152530016629308, 0.361558400997355, -1.351, 0.862, -0.876], a = 0.2, v = 0.2, t = 0.2)
movej(p[0.477450320819771, 0.152549570529458, 0.360814722795527, -1.351, 0.862, -0.876], a = 0.2, v = 0.2, t = 0.2)
movej(p[0.477470704139219, 0.152569649930821, 0.360051058616761, -1.351, 0.862, -0.876], a = 0.2, v = 0.2, t = 0.2)
movej(p[0.477489916524717, 0.152588575857021, 0.359331263657373, -1.351, 0.862, -0.876], a = 0.2, v = 0.2, t = 0.2)
movej(p[0.477503159547624, 0.152601621424643, 0.35883511177991, -1.351, 0.862, -0.876], a = 0.2, v = 0.2, t = 0.2)
movej(p[0.477505039976859, 0.15260347381642, 0.358764661211207, -1.351, 0.862, -0.876], a = 0.2, v = 0.2, t = 0.2)
movej(p[0.477493250619105, 0.152591860239604, 0.359206351301516, -1.351, 0.862, -0.876], a = 0.2, v = 0.2, t = 0.2)
movej(p[0.477471693698433, 0.152570624735572, 0.360013984629543, -1.351, 0.862, -0.876], a = 0.2, v = 0.2, t = 0.2)
movej(p[0.477440814649854, 0.152540206097835, 0.361170872904545, -1.351, 0.862, -0.876], a = 0.2, v = 0.2, t = 0.2)
movej(p[0.477415804674307, 0.152515569024449, 0.362107875461286, -1.351, 0.862, -0.876], a = 0.2, v = 0.2, t = 0.2)
movej(p[0.477401734982701, 0.152501709113871, 0.362634998607909, -1.351, 0.862, -0.876], a = 0.2, v = 0.2, t = 0.2)
movej(p[0.477396410914074, 0.152496464427836, 0.362834465652833, -1.351, 0.862, -0.876], a = 0.2, v = 0.2, t = 0.2)
movej(p[0.477393637214271, 0.152493732084277, 0.362938382739917, -1.351, 0.862, -0.876], a = 0.2, v = 0.2, t = 0.2)
movej(p[0.477393799918077, 0.152493892362148, 0.362932287016951, -1.351, 0.862, -0.876], a = 0.2, v = 0.2, t = 0.2)
movej(p[0.477396766195172, 0.152496814411645, 0.362821154992192, -1.351, 0.862, -0.876], a = 0.2, v = 0.2, t = 0.2)
movej(p[0.477404689337074, 0.152504619418416, 0.362524313269735, -1.351, 0.862, -0.876], a = 0.2, v = 0.2, t = 0.2)
movej(p[0.477420890368522, 0.152520578890266, 0.361917339150156, -1.351, 0.862, -0.876], a = 0.2, v = 0.2, t = 0.2)
movej(p[0.477443433914405, 0.152542786308793, 0.361072741757784, -1.351, 0.862, -0.876], a = 0.2, v = 0.2, t = 0.2)
movej(p[0.477462795667332, 0.152561859375333, 0.360347350724853, -1.351, 0.862, -0.876], a = 0.2, v = 0.2, t = 0.2)
movej(p[0.477475193163902, 0.152574072023531, 0.359882876620836, -1.351, 0.862, -0.876], a = 0.2, v = 0.2, t = 0.2)
movej(p[0.477474062239086, 0.152572957960959, 0.359925246891943, -1.351, 0.862, -0.876], a = 0.2, v = 0.2, t = 0.2)
movej(p[0.47746289168925, 0.152561953965551, 0.360343753249005, -1.351, 0.862, -0.876], a = 0.2, v = 0.2, t = 0.2)
movej(p[0.477437813964905, 0.15253725015351, 0.361283294024816, -1.351, 0.862, -0.876], a = 0.2, v = 0.2, t = 0.2)
movej(p[0.477415329099083, 0.152515100540117, 0.362125692959725, -1.351, 0.862, -0.876], a = 0.2, v = 0.2, t = 0.2)
movej(p[0.477398773800103, 0.152498792082911, 0.362745939766587, -1.351, 0.862, -0.876], a = 0.2, v = 0.2, t = 0.2)
movej(p[0.477392440141022, 0.152492552859555, 0.362983231272164, -1.351, 0.862, -0.876], a = 0.2, v = 0.2, t = 0.2)
movej(p[0.477389941970779, 0.152490091937372, 0.36307682560216, -1.351, 0.862, -0.876], a = 0.2, v = 0.2, t = 0.2)
movej(p[0.477391192122811, 0.152491323449466, 0.363029988465208, -1.351, 0.862, -0.876], a = 0.2, v = 0.2, t = 0.2)
movej(p[0.477401249085121, 0.152501230461091, 0.362653202835002, -1.351, 0.862, -0.876], a = 0.2, v = 0.2, t = 0.2)
movej(p[0.477417604018366, 0.152517341540041, 0.362040462761077, -1.351, 0.862, -0.876], a = 0.2, v = 0.2, t = 0.2)
movej(p[0.477444599513803, 0.152543934528944, 0.361029072398177, -1.351, 0.862, -0.876], a = 0.2, v = 0.2, t = 0.2)
movej(p[0.4774732220473, 0.152572130296548, 0.359956724805618, -1.351, 0.862, -0.876], a = 0.2, v = 0.2, t = 0.2)
movej(p[0.477497016812125, 0.152595570278171, 0.359065250304341, -1.351, 0.862, -0.876], a = 0.2, v = 0.2, t = 0.2)
movej(p[0.477511174710532, 0.152609517080374, 0.358534822476431, -1.351, 0.862, -0.876], a = 0.2, v = 0.2, t = 0.2)
movej(p[0.477516477254246, 0.152614740562435, 0.358336161865677, -1.351, 0.862, -0.876], a = 0.2, v = 0.2, t = 0.2)
movej(p[0.477511305407032, 0.152609645828171, 0.358529925912081, -1.351, 0.862, -0.876], a = 0.2, v = 0.2, t = 0.2)
movej(p[0.47749058601087, 0.152589235361043, 0.359306181256317, -1.351, 0.862, -0.876], a = 0.2, v = 0.2, t = 0.2)
movej(p[0.477462403577832, 0.152561473131941, 0.360362040417902, -1.351, 0.862, -0.876], a = 0.2, v = 0.2, t = 0.2)
movej(p[0.477433546324089, 0.152533046143803, 0.361443181840313, -1.351, 0.862, -0.876], a = 0.2, v = 0.2, t = 0.2)
movej(p[0.477411606916109, 0.152511433855401, 0.362265145113803, -1.351, 0.862, -0.876], a = 0.2, v = 0.2, t = 0.2)
movej(p[0.477396526673831, 0.1524965784616, 0.362830128695837, -1.351, 0.862, -0.876], a = 0.2, v = 0.2, t = 0.2)
movej(p[0.477392212622421, 0.152492328733287, 0.362991755291327, -1.351, 0.862, -0.876], a = 0.2, v = 0.2, t = 0.2)
movej(p[0.477396104977573, 0.152496163052891, 0.362845927610606, -1.351, 0.862, -0.876], a = 0.2, v = 0.2, t = 0.2)
movej(p[0.477407657747989, 0.152507543569918, 0.362413101301068, -1.351, 0.862, -0.876], a = 0.2, v = 0.2, t = 0.2)
movej(p[0.477430393604436, 0.152529940431632, 0.361561298964011, -1.351, 0.862, -0.876], a = 0.2, v = 0.2, t = 0.2)
movej(p[0.47746066984875, 0.152559765252997, 0.360426994842948, -1.351, 0.862, -0.876], a = 0.2, v = 0.2, t = 0.2)
movej(p[0.477492135697942, 0.152590761942068, 0.359248121993315, -1.351, 0.862, -0.876], a = 0.2, v = 0.2, t = 0.2)
movej(p[0.477518379021684, 0.15261661397426, 0.358264911857896, -1.351, 0.862, -0.876], a = 0.2, v = 0.2, t = 0.2)
movej(p[0.477532568927397, 0.152630592306536, 0.35773328487137, -1.351, 0.862, -0.876], a = 0.2, v = 0.2, t = 0.2)
movej(p[0.477534452023908, 0.152632447325819, 0.357662734372782, -1.351, 0.862, -0.876], a = 0.2, v = 0.2, t = 0.2)
movej(p[0.477513511243879, 0.152611818775688, 0.358447283897447, -1.351, 0.862, -0.876], a = 0.2, v = 0.2, t = 0.2)
movej(p[0.477482245440351, 0.152581019149572, 0.359618662005728, -1.351, 0.862, -0.876], a = 0.2, v = 0.2, t = 0.2)
movej(p[0.477448728456292, 0.152548001908336, 0.360874380936684, -1.351, 0.862, -0.876], a = 0.2, v = 0.2, t = 0.2)
movej(p[0.477421670546608, 0.152521347435791, 0.361888109658886, -1.351, 0.862, -0.876], a = 0.2, v = 0.2, t = 0.2)
movej(p[0.47740312471326, 0.152503078123357, 0.362582932140091, -1.351, 0.862, -0.876], a = 0.2, v = 0.2, t = 0.2)
movej(p[0.477394115990225, 0.152494203721616, 0.362920445325616, -1.351, 0.862, -0.876], a = 0.2, v = 0.2, t = 0.2)
movej(p[0.47739348597975, 0.152493583104683, 0.362944048764378, -1.351, 0.862, -0.876], a = 0.2, v = 0.2, t = 0.2)
movej(p[0.477393183777434, 0.152493285408246, 0.362955370820313, -1.351, 0.862, -0.876], a = 0.2, v = 0.2, t = 0.2)
movej(p[0.477400117805557, 0.15250011604906, 0.362695586396783, -1.351, 0.862, -0.876], a = 0.2, v = 0.2, t = 0.2)
movej(p[0.477416980676079, 0.152516727491874, 0.362063816375128, -1.351, 0.862, -0.876], a = 0.2, v = 0.2, t = 0.2)
movej(p[0.47744254571166, 0.152541911349273, 0.361106018409384, -1.351, 0.862, -0.876], a = 0.2, v = 0.2, t = 0.2)
movej(p[0.47747123225977, 0.152570170177022, 0.360031272499594, -1.351, 0.862, -0.876], a = 0.2, v = 0.2, t = 0.2)
movej(p[0.477498014373166, 0.15259655296544, 0.359027876527468, -1.351, 0.862, -0.876], a = 0.2, v = 0.2, t = 0.2)
movej(p[0.477520118085317, 0.152618327108216, 0.358199757573081, -1.351, 0.862, -0.876], a = 0.2, v = 0.2, t = 0.2)
movej(p[0.47752593808048, 0.152624060326454, 0.357981710564698, -1.351, 0.862, -0.876], a = 0.2, v = 0.2, t = 0.2)
movej(p[0.477515997144654, 0.152614267611343, 0.35835414924492, -1.351, 0.862, -0.876], a = 0.2, v = 0.2, t = 0.2)
movej(p[0.477492455771003, 0.152591077242796, 0.359236130407153, -1.351, 0.862, -0.876], a = 0.2, v = 0.2, t = 0.2)
movej(p[0.477462126181179, 0.15256119987131, 0.360372433125909, -1.351, 0.862, -0.876], a = 0.2, v = 0.2, t = 0.2)
movej(p[0.477429497399865, 0.152529057589594, 0.361594875405265, -1.351, 0.862, -0.876], a = 0.2, v = 0.2, t = 0.2)
movej(p[0.477404907253483, 0.152504834085662, 0.362516148998156, -1.351, 0.862, -0.876], a = 0.2, v = 0.2, t = 0.2)
movej(p[0.477395783837601, 0.15249584670116, 0.362857959168722, -1.351, 0.862, -0.876], a = 0.2, v = 0.2, t = 0.2)
movej(p[0.477391591147227, 0.152491716524374, 0.363015038954459, -1.351, 0.862, -0.876], a = 0.2, v = 0.2, t = 0.2)
movej(p[0.477393761242582, 0.15249385426331, 0.362933736000279, -1.351, 0.862, -0.876], a = 0.2, v = 0.2, t = 0.2)
movej(p[0.477402605688118, 0.152502566836952, 0.362602377496352, -1.351, 0.862, -0.876], a = 0.2, v = 0.2, t = 0.2)
movej(p[0.477420542822523, 0.152520236526226, 0.361930360014131, -1.351, 0.862, -0.876], a = 0.2, v = 0.2, t = 0.2)
movej(p[0.477445260998129, 0.152544586150449, 0.361004289786775, -1.351, 0.862, -0.876], a = 0.2, v = 0.2, t = 0.2)
movej(p[0.477472163138923, 0.152571087176639, 0.359996396969838, -1.351, 0.862, -0.876], a = 0.2, v = 0.2, t = 0.2)
movej(p[0.477497387563421, 0.152595935501514, 0.359051360050369, -1.351, 0.862, -0.876], a = 0.2, v = 0.2, t = 0.2)
movej(p[0.477511724169287, 0.152610058346623, 0.358514236920186, -1.351, 0.862, -0.876], a = 0.2, v = 0.2, t = 0.2)
movej(p[0.477514887558042, 0.152613174568819, 0.358395720076949, -1.351, 0.862, -0.876], a = 0.2, v = 0.2, t = 0.2)
movej(p[0.477506715025879, 0.15260512389023, 0.358701905243625, -1.351, 0.862, -0.876], a = 0.2, v = 0.2, t = 0.2)
movej(p[0.477487470633075, 0.152586166433957, 0.359422899361629, -1.351, 0.862, -0.876], a = 0.2, v = 0.2, t = 0.2)
movej(p[0.477460643175995, 0.152559738977937, 0.360427994141794, -1.351, 0.862, -0.876], a = 0.2, v = 0.2, t = 0.2)
movej(p[0.477432764812365, 0.152532276284526, 0.361472461296525, -1.351, 0.862, -0.876], a = 0.2, v = 0.2, t = 0.2)
movej(p[0.477413939448543, 0.152513731609456, 0.362177756429646, -1.351, 0.862, -0.876], a = 0.2, v = 0.2, t = 0.2)
movej(p[0.477400464852776, 0.152500457921757, 0.362682584219697, -1.351, 0.862, -0.876], a = 0.2, v = 0.2, t = 0.2)
movej(p[0.477395621933978, 0.152495687211542, 0.362864024912722, -1.351, 0.862, -0.876], a = 0.2, v = 0.2, t = 0.2)
movej(p[0.477396983844853, 0.15249702881614, 0.362813000713602, -1.351, 0.862, -0.876], a = 0.2, v = 0.2, t = 0.2)
movej(p[0.477406413197236, 0.152506317575587, 0.362459728585263, -1.351, 0.862, -0.876], a = 0.2, v = 0.2, t = 0.2)
movej(p[0.477423292516846, 0.15252294522223, 0.361827342296008, -1.351, 0.862, -0.876], a = 0.2, v = 0.2, t = 0.2)
movej(p[0.477447365478506, 0.152546659252736, 0.360925445107758, -1.351, 0.862, -0.876], a = 0.2, v = 0.2, t = 0.2)
movej(p[0.477473707491443, 0.152572608502652, 0.359938537566606, -1.351, 0.862, -0.876], a = 0.2, v = 0.2, t = 0.2)
movej(p[0.477491503553646, 0.15259013922313, 0.359271805375985, -1.351, 0.862, -0.876], a = 0.2, v = 0.2, t = 0.2)
movej(p[0.477504066421298, 0.152602514776705, 0.358801135619117, -1.351, 0.862, -0.876], a = 0.2, v = 0.2, t = 0.2)
movej(p[0.477507848617971, 0.152606240580308, 0.358659435042634, -1.351, 0.862, -0.876], a = 0.2, v = 0.2, t = 0.2)
movej(p[0.477498230422482, 0.152596765793431, 0.359019782206809, -1.351, 0.862, -0.876], a = 0.2, v = 0.2, t = 0.2)
movej(p[0.477472963321576, 0.15257187542846, 0.359966418004433, -1.351, 0.862, -0.876], a = 0.2, v = 0.2, t = 0.2)
movej(p[0.477438752845885, 0.152538175035646, 0.361248118705407, -1.351, 0.862, -0.876], a = 0.2, v = 0.2, t = 0.2)
movej(p[0.477415504605812, 0.152515273430016, 0.362119117573313, -1.351, 0.862, -0.876], a = 0.2, v = 0.2, t = 0.2)
movej(p[0.477397911656639, 0.152497942794125, 0.362778240103214, -1.351, 0.862, -0.876], a = 0.2, v = 0.2, t = 0.2)
movej(p[0.47739300346961, 0.152493107788836, 0.362962126080518, -1.351, 0.862, -0.876], a = 0.2, v = 0.2, t = 0.2)
movej(p[0.477390983008411, 0.15249111745299, 0.363037822968167, -1.351, 0.862, -0.876], a = 0.2, v = 0.2, t = 0.2)
movej(p[0.477395950809048, 0.15249601118304, 0.362851703557941, -1.351, 0.862, -0.876], a = 0.2, v = 0.2, t = 0.2)
movej(p[0.47740789513551, 0.152507777417958, 0.362404207541331, -1.351, 0.862, -0.876], a = 0.2, v = 0.2, t = 0.2)
movej(p[0.477430094869579, 0.152529646150953, 0.361572491111095, -1.351, 0.862, -0.876], a = 0.2, v = 0.2, t = 0.2)
movej(p[0.47745671961372, 0.152555873916512, 0.360574991002167, -1.351, 0.862, -0.876], a = 0.2, v = 0.2, t = 0.2)
movej(p[0.47747965551583, 0.152578467841181, 0.359715693923757, -1.351, 0.862, -0.876], a = 0.2, v = 0.2, t = 0.2)
movej(p[0.47749775031289, 0.152596292842339, 0.359037769586052, -1.351, 0.862, -0.876], a = 0.2, v = 0.2, t = 0.2)
movej(p[0.477512137596991, 0.152610465610064, 0.35849874778806, -1.351, 0.862, -0.876], a = 0.2, v = 0.2, t = 0.2)
movej(p[0.477518805785766, 0.152617034375231, 0.358248923076346, -1.351, 0.862, -0.876], a = 0.2, v = 0.2, t = 0.2)
movej(p[0.47750881150443, 0.152607189109998, 0.358623360354262, -1.351, 0.862, -0.876], a = 0.2, v = 0.2, t = 0.2)
movej(p[0.477484272569738, 0.152583016054183, 0.359542715293367, -1.351, 0.862, -0.876], a = 0.2, v = 0.2, t = 0.2)
movej(p[0.477454948542781, 0.152554129252484, 0.360641344445598, -1.351, 0.862, -0.876], a = 0.2, v = 0.2, t = 0.2)
movej(p[0.477425393529765, 0.152525014908759, 0.361748627525842, -1.351, 0.862, -0.876], a = 0.2, v = 0.2, t = 0.2)
movej(p[0.477405353755404, 0.152505273930177, 0.36249942073546, -1.351, 0.862, -0.876], a = 0.2, v = 0.2, t = 0.2)
movej(p[0.477395878525882, 0.152495939977625, 0.362854411657816, -1.351, 0.862, -0.876], a = 0.2, v = 0.2, t = 0.2)
movej(p[0.477394004498109, 0.152494093891863, 0.362924622394796, -1.351, 0.862, -0.876], a = 0.2, v = 0.2, t = 0.2)
movej(p[0.477393223253112, 0.152493324295336, 0.36295389185802, -1.351, 0.862, -0.876], a = 0.2, v = 0.2, t = 0.2)
movej(p[0.47739597028016, 0.152496030363834, 0.362850974069783, -1.351, 0.862, -0.876], a = 0.2, v = 0.2, t = 0.2)
movej(p[0.477409463226782, 0.152509322128775, 0.362345458762125, -1.351, 0.862, -0.876], a = 0.2, v = 0.2, t = 0.2)
movej(p[0.477427998391028, 0.152527580931184, 0.361651036000458, -1.351, 0.862, -0.876], a = 0.2, v = 0.2, t = 0.2)
movej(p[0.477453609570475, 0.152552810244438, 0.36069150924771, -1.351, 0.862, -0.876], a = 0.2, v = 0.2, t = 0.2)
movej(p[0.477479084718871, 0.152577905554883, 0.35973707891908, -1.351, 0.862, -0.876], a = 0.2, v = 0.2, t = 0.2)
movej(p[0.477500004160696, 0.152598513084966, 0.358953328833493, -1.351, 0.862, -0.876], a = 0.2, v = 0.2, t = 0.2)
movej(p[0.477512772408562, 0.152611090956508, 0.358474964475504, -1.351, 0.862, -0.876], a = 0.2, v = 0.2, t = 0.2)
movej(p[0.47751093198846, 0.152609277977322, 0.358543916095937, -1.351, 0.862, -0.876], a = 0.2, v = 0.2, t = 0.2)
movej(p[0.477497502256268, 0.152596048484275, 0.359047063065328, -1.351, 0.862, -0.876], a = 0.2, v = 0.2, t = 0.2)
movej(p[0.477467588761423, 0.152566581003735, 0.360167776722074, -1.351, 0.862, -0.876], a = 0.2, v = 0.2, t = 0.2)
movej(p[0.477434213142967, 0.15253370302032, 0.361418199369141, -1.351, 0.862, -0.876], a = 0.2, v = 0.2, t = 0.2)
movej(p[0.47740601417282, 0.15250592450068, 0.362474678096011, -1.351, 0.862, -0.876], a = 0.2, v = 0.2, t = 0.2)
movej(p[0.477395009260793, 0.152495083673398, 0.362886978807235, -1.351, 0.862, -0.876], a = 0.2, v = 0.2, t = 0.2)
movej(p[0.477388978817593, 0.152489143144932, 0.36311291028352, -1.351, 0.862, -0.876], a = 0.2, v = 0.2, t = 0.2)
movej(p[0.477389817675741, 0.15248996949559, 0.363081482334786, -1.351, 0.862, -0.876], a = 0.2, v = 0.2, t = 0.2)
movej(p[0.477396269281744, 0.152496324907264, 0.362839771929709, -1.351, 0.862, -0.876], a = 0.2, v = 0.2, t = 0.2)
movej(p[0.477411298312333, 0.152511129852949, 0.362276707001461, -1.351, 0.862, -0.876], a = 0.2, v = 0.2, t = 0.2)
movej(p[0.477436733718324, 0.152536186013553, 0.361323765628114, -1.351, 0.862, -0.876], a = 0.2, v = 0.2, t = 0.2)
movej(p[0.477466500513015, 0.152565508981259, 0.360208548115025, -1.351, 0.862, -0.876], a = 0.2, v = 0.2, t = 0.2)
movej(p[0.477496149947584, 0.152594716338699, 0.359097727516863, -1.351, 0.862, -0.876], a = 0.2, v = 0.2, t = 0.2)
movej(p[0.477516303881338, 0.15261456977454, 0.358342657308181, -1.351, 0.862, -0.876], a = 0.2, v = 0.2, t = 0.2)
movej(p[0.477527514440306, 0.152625613182539, 0.357922652002849, -1.351, 0.862, -0.876], a = 0.2, v = 0.2, t = 0.2)
movej(p[0.477528469324939, 0.152626553829711, 0.357886877104131, -1.351, 0.862, -0.876], a = 0.2, v = 0.2, t = 0.2)
movej(p[0.477509320954052, 0.152607690963657, 0.358604273746287, -1.351, 0.862, -0.876], a = 0.2, v = 0.2, t = 0.2)
movej(p[0.477477561704555, 0.152576405248919, 0.359794138883235, -1.351, 0.862, -0.876], a = 0.2, v = 0.2, t = 0.2)
movej(p[0.477440147830976, 0.152539549221319, 0.361195855375716, -1.351, 0.862, -0.876], a = 0.2, v = 0.2, t = 0.2)
movej(p[0.477414285127449, 0.152514072134242, 0.362164805516591, -1.351, 0.862, -0.876], a = 0.2, v = 0.2, t = 0.2)
movej(p[0.477398693888528, 0.152498713362829, 0.362748933665933, -1.351, 0.862, -0.876], a = 0.2, v = 0.2, t = 0.2)
movej(p[0.477392052319163, 0.152492170820173, 0.362997761077397, -1.351, 0.862, -0.876], a = 0.2, v = 0.2, t = 0.2)
movej(p[0.47739296532757, 0.152493070215499, 0.362963555077869, -1.351, 0.862, -0.876], a = 0.2, v = 0.2, t = 0.2)
movej(p[0.477400453730237, 0.152500446965057, 0.362683000927316, -1.351, 0.862, -0.876], a = 0.2, v = 0.2, t = 0.2)
movej(p[0.477415931369894, 0.152515693830987, 0.362103128791763, -1.351, 0.862, -0.876], a = 0.2, v = 0.2, t = 0.2)
movej(p[0.477438608813007, 0.152538033150318, 0.36125351491918, -1.351, 0.862, -0.876], a = 0.2, v = 0.2, t = 0.2)
movej(p[0.477465316242689, 0.152564342368566, 0.360252916983826, -1.351, 0.862, -0.876], a = 0.2, v = 0.2, t = 0.2)
movej(p[0.477486011633371, 0.152584729188139, 0.359477561008552, -1.351, 0.862, -0.876], a = 0.2, v = 0.2, t = 0.2)
movej(p[0.477502983507441, 0.152601448009242, 0.3588417071523, -1.351, 0.862, -0.876], a = 0.2, v = 0.2, t = 0.2)
movej(p[0.477512841757726, 0.152611159271665, 0.358472366298503, -1.351, 0.862, -0.876], a = 0.2, v = 0.2, t = 0.2)
movej(p[0.477516311883164, 0.152614577657058, 0.358342357518527, -1.351, 0.862, -0.876], a = 0.2, v = 0.2, t = 0.2)
movej(p[0.477503951728451, 0.152602401793945, 0.358805432604159, -1.351, 0.862, -0.876], a = 0.2, v = 0.2, t = 0.2)
movej(p[0.477481527943238, 0.15258031235044, 0.359645543144708, -1.351, 0.862, -0.876], a = 0.2, v = 0.2, t = 0.2)
movej(p[0.477455970109302, 0.152555135587307, 0.360603071299763, -1.351, 0.862, -0.876], a = 0.2, v = 0.2, t = 0.2)
movej(p[0.477429700112804, 0.152529257280055, 0.361587280734029, -1.351, 0.862, -0.876], a = 0.2, v = 0.2, t = 0.2)
movej(p[0.477410139647851, 0.152509988464313, 0.362320116543369, -1.351, 0.862, -0.876], a = 0.2, v = 0.2, t = 0.2)
movej(p[0.477398466850037, 0.152498489709513, 0.362757439697717, -1.351, 0.862, -0.876], a = 0.2, v = 0.2, t = 0.2)
movej(p[0.477396231406432, 0.152496287596678, 0.362841190934072, -1.351, 0.862, -0.876], a = 0.2, v = 0.2, t = 0.2)
movej(p[0.477398624192619, 0.152498644706096, 0.362751544833819, -1.351, 0.862, -0.876], a = 0.2, v = 0.2, t = 0.2)
movej(p[0.477409060201452, 0.152508925112608, 0.362360558167701, -1.351, 0.862, -0.876], a = 0.2, v = 0.2, t = 0.2)
movej(p[0.477429982844008, 0.152529535795698, 0.361576688166252, -1.351, 0.862, -0.876], a = 0.2, v = 0.2, t = 0.2)
movej(p[0.477452582669404, 0.152551798654602, 0.360729982253313, -1.351, 0.862, -0.876], a = 0.2, v = 0.2, t = 0.2)
movej(p[0.477474206271963, 0.152573099846287, 0.35991985067817, -1.351, 0.862, -0.876], a = 0.2, v = 0.2, t = 0.2)
movej(p[0.477493258620931, 0.152591868122122, 0.359206051511862, -1.351, 0.862, -0.876], a = 0.2, v = 0.2, t = 0.2)
movej(p[0.477510123803981, 0.152608481842983, 0.358574194850997, -1.351, 0.862, -0.876], a = 0.2, v = 0.2, t = 0.2)
movej(p[0.477512564361073, 0.152610886011035, 0.35848275900651, -1.351, 0.862, -0.876], a = 0.2, v = 0.2, t = 0.2)
movej(p[0.477500390915645, 0.152598894073345, 0.358938839000214, -1.351, 0.862, -0.876], a = 0.2, v = 0.2, t = 0.2)
movej(p[0.47747473705979, 0.152573622719994, 0.359899964631117, -1.351, 0.862, -0.876], a = 0.2, v = 0.2, t = 0.2)
movej(p[0.477446034508027, 0.152545348127208, 0.360975310120216, -1.351, 0.862, -0.876], a = 0.2, v = 0.2, t = 0.2)
movej(p[0.477417064695258, 0.152516810258315, 0.36206066858376, -1.351, 0.862, -0.876], a = 0.2, v = 0.2, t = 0.2)
movej(p[0.477398693355073, 0.152498712837328, 0.36274895365191, -1.351, 0.862, -0.876], a = 0.2, v = 0.2, t = 0.2)
movej(p[0.47739236198985, 0.152492475873627, 0.362986159217785, -1.351, 0.862, -0.876], a = 0.2, v = 0.2, t = 0.2)
movej(p[0.477390521836475, 0.152490663157191, 0.363055100845229, -1.351, 0.862, -0.876], a = 0.2, v = 0.2, t = 0.2)
movej(p[0.477394930576166, 0.152495006161969, 0.362889926738833, -1.351, 0.862, -0.876], a = 0.2, v = 0.2, t = 0.2)
movej(p[0.477405310012085, 0.152505230839078, 0.362501059585568, -1.351, 0.862, -0.876], a = 0.2, v = 0.2, t = 0.2)
movej(p[0.4774263329442, 0.152525940316396, 0.361713432220456, -1.351, 0.862, -0.876], a = 0.2, v = 0.2, t = 0.2)
movej(p[0.477449232571363, 0.152548498506982, 0.360855494188478, -1.351, 0.862, -0.876], a = 0.2, v = 0.2, t = 0.2)
movej(p[0.477474176931933, 0.15257307094372, 0.359920949906901, -1.351, 0.862, -0.876], a = 0.2, v = 0.2, t = 0.2)
movej(p[0.477497027481227, 0.152595580788195, 0.359064850584802, -1.351, 0.862, -0.876], a = 0.2, v = 0.2, t = 0.2)
movej(p[0.477513217843573, 0.152611529750021, 0.358458276184762, -1.351, 0.862, -0.876], a = 0.2, v = 0.2, t = 0.2)
movej(p[0.477513489905675, 0.15261179775564, 0.358448083336524, -1.351, 0.862, -0.876], a = 0.2, v = 0.2, t = 0.2)
movej(p[0.477498150404217, 0.152596686968249, 0.359022780103349, -1.351, 0.862, -0.876], a = 0.2, v = 0.2, t = 0.2)
movej(p[0.47747356079129, 0.152572463989818, 0.359944033710263, -1.351, 0.862, -0.876], a = 0.2, v = 0.2, t = 0.2)
movej(p[0.47744103069917, 0.152540418925827, 0.361162778583886, -1.351, 0.862, -0.876], a = 0.2, v = 0.2, t = 0.2)
movej(p[0.477414089082699, 0.152513879012546, 0.362172150363115, -1.351, 0.862, -0.876], a = 0.2, v = 0.2, t = 0.2)
movej(p[0.477397308185555, 0.152497348320877, 0.362800849239624, -1.351, 0.862, -0.876], a = 0.2, v = 0.2, t = 0.2)
movej(p[0.477390347396657, 0.152490491318295, 0.363061636259688, -1.351, 0.862, -0.876], a = 0.2, v = 0.2, t = 0.2)
movej(p[0.477387442466899, 0.152487629701437, 0.363170469897099, -1.351, 0.862, -0.876], a = 0.2, v = 0.2, t = 0.2)
movej(p[0.477387337109516, 0.152487525914947, 0.363174417127544, -1.351, 0.862, -0.876], a = 0.2, v = 0.2, t = 0.2)
movej(p[0.477395271720703, 0.152495342219995, 0.362877145706582, -1.351, 0.862, -0.876], a = 0.2, v = 0.2, t = 0.2)
movej(p[0.4774095592487, 0.152509416718993, 0.362341861286276, -1.351, 0.862, -0.876], a = 0.2, v = 0.2, t = 0.2)
movej(p[0.477434173133834, 0.152533663607729, 0.361419698317412, -1.351, 0.862, -0.876], a = 0.2, v = 0.2, t = 0.2)
movej(p[0.477462758325475, 0.152561822590248, 0.360348749743239, -1.351, 0.862, -0.876], a = 0.2, v = 0.2, t = 0.2)
movej(p[0.477486561092126, 0.152585270454388, 0.359456975452307, -1.351, 0.862, -0.876], a = 0.2, v = 0.2, t = 0.2)
movej(p[0.477504247796032, 0.152602693447118, 0.358794340386959, -1.351, 0.862, -0.876], a = 0.2, v = 0.2, t = 0.2)
movej(p[0.477518776445735, 0.152617005472664, 0.358250022305078, -1.351, 0.862, -0.876], a = 0.2, v = 0.2, t = 0.2)
movej(p[0.477532224848857, 0.152630253358253, 0.357746175826494, -1.351, 0.862, -0.876], a = 0.2, v = 0.2, t = 0.2)
movej(p[0.477531675390102, 0.152629712092004, 0.35776676138274, -1.351, 0.862, -0.876], a = 0.2, v = 0.2, t = 0.2)
movej(p[0.477512182940675, 0.152610510277667, 0.35849704898002, -1.351, 0.862, -0.876], a = 0.2, v = 0.2, t = 0.2)
movej(p[0.477482173423912, 0.152580948206908, 0.359621360112614, -1.351, 0.862, -0.876], a = 0.2, v = 0.2, t = 0.2)
movej(p[0.477454700486159, 0.15255388489442, 0.360650637924873, -1.351, 0.862, -0.876], a = 0.2, v = 0.2, t = 0.2)
movej(p[0.477428838582814, 0.152528408595595, 0.361619558086782, -1.351, 0.862, -0.876], a = 0.2, v = 0.2, t = 0.2)
movej(p[0.477409102344405, 0.152508966627204, 0.362358979275523, -1.351, 0.862, -0.876], a = 0.2, v = 0.2, t = 0.2)
movej(p[0.477396740589327, 0.152496789187586, 0.362822114319085, -1.351, 0.862, -0.876], a = 0.2, v = 0.2, t = 0.2)
movej(p[0.477392622582667, 0.15249273258097, 0.362976396068051, -1.351, 0.862, -0.876], a = 0.2, v = 0.2, t = 0.2)
movej(p[0.477390150284997, 0.152490297145596, 0.363069021078166, -1.351, 0.862, -0.876], a = 0.2, v = 0.2, t = 0.2)
movej(p[0.477390229769807, 0.152490375445277, 0.363066043167602, -1.351, 0.862, -0.876], a = 0.2, v = 0.2, t = 0.2)
movej(p[0.477392315312528, 0.152492429892271, 0.362987907990767, -1.351, 0.862, -0.876], a = 0.2, v = 0.2, t = 0.2)
movej(p[0.477398847176852, 0.152498864365603, 0.36274319069546, -1.351, 0.862, -0.876], a = 0.2, v = 0.2, t = 0.2)
movej(p[0.477414480638744, 0.152514264730437, 0.362157480656043, -1.351, 0.862, -0.876], a = 0.2, v = 0.2, t = 0.2)
movej(p[0.477440254521997, 0.152539654321561, 0.361191858180329, -1.351, 0.862, -0.876], a = 0.2, v = 0.2, t = 0.2)
movej(p[0.477466244454566, 0.152565256740677, 0.360218141383955, -1.351, 0.862, -0.876], a = 0.2, v = 0.2, t = 0.2)
movej(p[0.477485910276901, 0.152584629342908, 0.35948135834417, -1.351, 0.862, -0.876], a = 0.2, v = 0.2, t = 0.2)
movej(p[0.477500716323257, 0.152599214629085, 0.358926647554282, -1.351, 0.862, -0.876], a = 0.2, v = 0.2, t = 0.2)
movej(p[0.477510153144012, 0.15260851074555, 0.358573095622265, -1.351, 0.862, -0.876], a = 0.2, v = 0.2, t = 0.2)
movej(p[0.47750413043591, 0.152602577836851, 0.358798737301885, -1.351, 0.862, -0.876], a = 0.2, v = 0.2, t = 0.2)
movej(p[0.477483635090891, 0.152582388080233, 0.359566598535807, -1.351, 0.862, -0.876], a = 0.2, v = 0.2, t = 0.2)
movej(p[0.477453590899547, 0.152552791851896, 0.360692208756902, -1.351, 0.862, -0.876], a = 0.2, v = 0.2, t = 0.2)
movej(p[0.477429481396212, 0.152529041824557, 0.361595474984573, -1.351, 0.862, -0.876], a = 0.2, v = 0.2, t = 0.2)
movej(p[0.477406489481316, 0.152506392722261, 0.362456870590561, -1.351, 0.862, -0.876], a = 0.2, v = 0.2, t = 0.2)
movej(p[0.477394666249163, 0.152494745776118, 0.362899829790405, -1.351, 0.862, -0.876], a = 0.2, v = 0.2, t = 0.2)
movej(p[0.477390745620891, 0.15249088360495, 0.363046716727904, -1.351, 0.862, -0.876], a = 0.2, v = 0.2, t = 0.2)
movej(p[0.477399602629295, 0.152499608554146, 0.36271488755422, -1.351, 0.862, -0.876], a = 0.2, v = 0.2, t = 0.2)
movej(p[0.477418554101903, 0.152518277457702, 0.362004867736152, -1.351, 0.862, -0.876], a = 0.2, v = 0.2, t = 0.2)
movej(p[0.477447424158568, 0.152546717057869, 0.360923246650295, -1.351, 0.862, -0.876], a = 0.2, v = 0.2, t = 0.2)
movej(p[0.47747829520532, 0.152577127813087, 0.359766658164947, -1.351, 0.862, -0.876], a = 0.2, v = 0.2, t = 0.2)
movej(p[0.477500297561002, 0.152598802110633, 0.358942336546178, -1.351, 0.862, -0.876], a = 0.2, v = 0.2, t = 0.2)
movej(p[0.47751343922744, 0.152611747833024, 0.358449982004333, -1.351, 0.862, -0.876], a = 0.2, v = 0.2, t = 0.2)
movej(p[0.477515348996705, 0.152613629127368, 0.358378432206898, -1.351, 0.862, -0.876], a = 0.2, v = 0.2, t = 0.2)
movej(p[0.477509158250246, 0.152607530685787, 0.358610369469253, -1.351, 0.862, -0.876], a = 0.2, v = 0.2, t = 0.2)
movej(p[0.477489500429738, 0.152588165966074, 0.359346852719384, -1.351, 0.862, -0.876], a = 0.2, v = 0.2, t = 0.2)
movej(p[0.477467618101454, 0.152566609906301, 0.360166677493342, -1.351, 0.862, -0.876], a = 0.2, v = 0.2, t = 0.2)
movej(p[0.4774502087942, 0.152549460174203, 0.360818919850683, -1.351, 0.862, -0.876], a = 0.2, v = 0.2, t = 0.2)
movej(p[0.47743922495365, 0.15253864010422, 0.361230431115818, -1.351, 0.862, -0.876], a = 0.2, v = 0.2, t = 0.2)
movej(p[0.477437595248313, 0.152537034698013, 0.36129148827536, -1.351, 0.862, -0.876], a = 0.2, v = 0.2, t = 0.2)
movej(p[0.47745196119421, 0.152551186445689, 0.360753265916445, -1.351, 0.862, -0.876], a = 0.2, v = 0.2, t = 0.2)
movej(p[0.477479519484779, 0.152578333838372, 0.359720790347876, -1.351, 0.862, -0.876], a = 0.2, v = 0.2, t = 0.2)
movej(p[0.47750857411691, 0.152606955261958, 0.358632254113999, -1.351, 0.862, -0.876], a = 0.2, v = 0.2, t = 0.2)
movej(p[0.477534449356632, 0.152632444698313, 0.357662834302667, -1.351, 0.862, -0.876], a = 0.2, v = 0.2, t = 0.2)
movej(p[0.477560959407926, 0.152658559481112, 0.356669631178779, -1.351, 0.862, -0.876], a = 0.2, v = 0.2, t = 0.2)
movej(p[0.477582724376087, 0.152679999930618, 0.355854203319747, -1.351, 0.862, -0.876], a = 0.2, v = 0.2, t = 0.2)
movej(p[0.477596572870535, 0.152693641942117, 0.355335367358461, -1.351, 0.862, -0.876], a = 0.2, v = 0.2, t = 0.2)
movej(p[0.477591921142046, 0.152689059571536, 0.355509645077352, -1.351, 0.862, -0.876], a = 0.2, v = 0.2, t = 0.2)
movej(p[0.477578587431771, 0.152675924668708, 0.356009194570894, -1.351, 0.862, -0.876], a = 0.2, v = 0.2, t = 0.2)
movej(p[0.477553576389314, 0.152651286544319, 0.356946237099588, -1.351, 0.862, -0.876], a = 0.2, v = 0.2, t = 0.2)
movej(p[0.477530925885683, 0.152628973762799, 0.357794841680336, -1.351, 0.862, -0.876], a = 0.2, v = 0.2, t = 0.2)
movej(p[0.47750904889195, 0.152607422958038, 0.358614466594525, -1.351, 0.862, -0.876], a = 0.2, v = 0.2, t = 0.2)
movej(p[0.47749021792685, 0.152588872765206, 0.359319971580404, -1.351, 0.862, -0.876], a = 0.2, v = 0.2, t = 0.2)
movej(p[0.477469685239974, 0.152568646223503, 0.360089231832711, -1.351, 0.862, -0.876], a = 0.2, v = 0.2, t = 0.2)
movej(p[0.477451289040782, 0.15255052431416, 0.360778448247386, -1.351, 0.862, -0.876], a = 0.2, v = 0.2, t = 0.2)
movej(p[0.477436792398385, 0.152536243818687, 0.361321567170651, -1.351, 0.862, -0.876], a = 0.2, v = 0.2, t = 0.2)
movej(p[0.477426894138967, 0.152526493143672, 0.361692406972718, -1.351, 0.862, -0.876], a = 0.2, v = 0.2, t = 0.2)
movej(p[0.477424305548085, 0.152523943149034, 0.361789388925805, -1.351, 0.862, -0.876], a = 0.2, v = 0.2, t = 0.2)
movej(p[0.477433215581926, 0.152532720333051, 0.361455573146014, -1.351, 0.862, -0.876], a = 0.2, v = 0.2, t = 0.2)
movej(p[0.477449643331792, 0.152548903142917, 0.360840104986237, -1.351, 0.862, -0.876], a = 0.2, v = 0.2, t = 0.2)
movej(p[0.477469695909076, 0.152568656733528, 0.360088832113172, -1.351, 0.862, -0.876], a = 0.2, v = 0.2, t = 0.2)
movej(p[0.477486443732003, 0.152585154844122, 0.359461372367233, -1.351, 0.862, -0.876], a = 0.2, v = 0.2, t = 0.2)
movej(p[0.47750062563589, 0.152599125293879, 0.358930045170361, -1.351, 0.862, -0.876], a = 0.2, v = 0.2, t = 0.2)
movej(p[0.477495376437686, 0.15259395436194, 0.359126707183422, -1.351, 0.862, -0.876], a = 0.2, v = 0.2, t = 0.2)
movej(p[0.477477140275024, 0.15257599010296, 0.359809927805016, -1.351, 0.862, -0.876], a = 0.2, v = 0.2, t = 0.2)
movej(p[0.477447232114731, 0.152546527877432, 0.360930441601992, -1.351, 0.862, -0.876], a = 0.2, v = 0.2, t = 0.2)
movej(p[0.477423355731276, 0.152523007494124, 0.361824973957741, -1.351, 0.862, -0.876], a = 0.2, v = 0.2, t = 0.2)
movej(p[0.47740616007279, 0.152506068225261, 0.362469211931319, -1.351, 0.862, -0.876], a = 0.2, v = 0.2, t = 0.2)
movej(p[0.477398207110748, 0.152498233842972, 0.362767170869888, -1.351, 0.862, -0.876], a = 0.2, v = 0.2, t = 0.2)
movej(p[0.477399120092482, 0.152499133212024, 0.362732965869659, -1.351, 0.862, -0.876], a = 0.2, v = 0.2, t = 0.2)
movej(p[0.477407389953528, 0.152507279768309, 0.362423134261491, -1.351, 0.862, -0.876], a = 0.2, v = 0.2, t = 0.2)
movej(p[0.477424841403735, 0.152524471015003, 0.361769313011972, -1.351, 0.862, -0.876], a = 0.2, v = 0.2, t = 0.2)
movej(p[0.477447693553394, 0.152546982435982, 0.360913153731942, -1.351, 0.862, -0.876], a = 0.2, v = 0.2, t = 0.2)
movej(p[0.477471648354749, 0.152570580067969, 0.360015683437583, -1.351, 0.862, -0.876], a = 0.2, v = 0.2, t = 0.2)
movej(p[0.477489228367636, 0.152587897960455, 0.359357045567622, -1.351, 0.862, -0.876], a = 0.2, v = 0.2, t = 0.2)
movej(p[0.477499756104074, 0.152598268726901, 0.358962622312769, -1.351, 0.862, -0.876], a = 0.2, v = 0.2, t = 0.2)
movej(p[0.477500953710778, 0.152599448477125, 0.358917753794545, -1.351, 0.862, -0.876], a = 0.2, v = 0.2, t = 0.2)
movej(p[0.477489921859268, 0.152588581112033, 0.359331063797604, -1.351, 0.862, -0.876], a = 0.2, v = 0.2, t = 0.2)
movej(p[0.477463163751352, 0.15256222197117, 0.360333560400767, -1.351, 0.862, -0.876], a = 0.2, v = 0.2, t = 0.2)
movej(p[0.477434101117395, 0.152533592665065, 0.361422396424298, -1.351, 0.862, -0.876], a = 0.2, v = 0.2, t = 0.2)
movej(p[0.477414269123796, 0.152514056369206, 0.362165405095899, -1.351, 0.862, -0.876], a = 0.2, v = 0.2, t = 0.2)
movej(p[0.477403051629911, 0.152503006129691, 0.362585670218932, -1.351, 0.862, -0.876], a = 0.2, v = 0.2, t = 0.2)
movej(p[0.477398643236966, 0.152498663466489, 0.362750831334443, -1.351, 0.862, -0.876], a = 0.2, v = 0.2, t = 0.2)
movej(p[0.477400015588358, 0.152500015355934, 0.362699415979775, -1.351, 0.862, -0.876], a = 0.2, v = 0.2, t = 0.2)
movej(p[0.477409162358104, 0.15250902574609, 0.362356730853117, -1.351, 0.862, -0.876], a = 0.2, v = 0.2, t = 0.2)
movej(p[0.477424875278134, 0.15252450438433, 0.361768043902436, -1.351, 0.862, -0.876], a = 0.2, v = 0.2, t = 0.2)
movej(p[0.47744571176769, 0.152545030198974, 0.360987401636263, -1.351, 0.862, -0.876], a = 0.2, v = 0.2, t = 0.2)
movej(p[0.477470469418974, 0.152569418710287, 0.360059852446614, -1.351, 0.862, -0.876], a = 0.2, v = 0.2, t = 0.2)
movej(p[0.477487393282085, 0.152586090236281, 0.359425797328285, -1.351, 0.862, -0.876], a = 0.2, v = 0.2, t = 0.2)
movej(p[0.477494197501911, 0.152592793004258, 0.359170876192453, -1.351, 0.862, -0.876], a = 0.2, v = 0.2, t = 0.2)
movej(p[0.477487337269299, 0.152586035058654, 0.359427895855864, -1.351, 0.862, -0.876], a = 0.2, v = 0.2, t = 0.2)
movej(p[0.477471949756882, 0.152570876976154, 0.360004391360613, -1.351, 0.862, -0.876], a = 0.2, v = 0.2, t = 0.2)
movej(p[0.477447536184139, 0.152546827413124, 0.360919049595138, -1.351, 0.862, -0.876], a = 0.2, v = 0.2, t = 0.2)
movej(p[0.477422130118179, 0.152521800155086, 0.361870891739754, -1.351, 0.862, -0.876], a = 0.2, v = 0.2, t = 0.2)
movej(p[0.477402715019742, 0.152502674538425, 0.362598281370379, -1.351, 0.862, -0.876], a = 0.2, v = 0.2, t = 0.2)
movej(p[0.477397449337775, 0.152497487368498, 0.362795560950127, -1.351, 0.862, -0.876], a = 0.2, v = 0.2, t = 0.2)
movej(p[0.477392436940291, 0.152492549706547, 0.362983351188025, -1.351, 0.862, -0.876], a = 0.2, v = 0.2, t = 0.2)
movej(p[0.477391277742355, 0.152491407792411, 0.363026780715909, -1.351, 0.862, -0.876], a = 0.2, v = 0.2, t = 0.2)
movej(p[0.477390017721404, 0.152490166558545, 0.363073987593435, -1.351, 0.862, -0.876], a = 0.2, v = 0.2, t = 0.2)
movej(p[0.477392080592283, 0.152492198671737, 0.362996701820619, -1.351, 0.862, -0.876], a = 0.2, v = 0.2, t = 0.2)
movej(p[0.47739597134707, 0.152496031414837, 0.362850934097829, -1.351, 0.862, -0.876], a = 0.2, v = 0.2, t = 0.2)
movej(p[0.47740876200005, 0.15250863135743, 0.362371730328809, -1.351, 0.862, -0.876], a = 0.2, v = 0.2, t = 0.2)
movej(p[0.47743088438313, 0.152530423892748, 0.361542911865229, -1.351, 0.862, -0.876], a = 0.2, v = 0.2, t = 0.2)
movej(p[0.477453662915985, 0.15255286279456, 0.360689510650016, -1.351, 0.862, -0.876], a = 0.2, v = 0.2, t = 0.2)
movej(p[0.47747432096481, 0.152573212829048, 0.359915553693128, -1.351, 0.862, -0.876], a = 0.2, v = 0.2, t = 0.2)
movej(p[0.477490743380125, 0.152589390383901, 0.359300285393121, -1.351, 0.862, -0.876], a = 0.2, v = 0.2, t = 0.2)
movej(p[0.477506621671236, 0.152605031927517, 0.358705402789589, -1.351, 0.862, -0.876], a = 0.2, v = 0.2, t = 0.2)
movej(p[0.477505941515981, 0.15260436191347, 0.358730884910184, -1.351, 0.862, -0.876], a = 0.2, v = 0.2, t = 0.2)
movej(p[0.477491084791391, 0.152589726704678, 0.359287494367881, -1.351, 0.862, -0.876], a = 0.2, v = 0.2, t = 0.2)
movej(p[0.477462574283464, 0.152561641292329, 0.360355644905282, -1.351, 0.862, -0.876], a = 0.2, v = 0.2, t = 0.2)
movej(p[0.477434671914354, 0.152534154951363, 0.361401011428975, -1.351, 0.862, -0.876], a = 0.2, v = 0.2, t = 0.2)
movej(p[0.477409690745383, 0.152509546255042, 0.362336934742961, -1.351, 0.862, -0.876], a = 0.2, v = 0.2, t = 0.2)
movej(p[0.477395146358754, 0.15249521872721, 0.362881842411162, -1.351, 0.862, -0.876], a = 0.2, v = 0.2, t = 0.2)
movej(p[0.477390778428379, 0.152490915923275, 0.363045487590323, -1.351, 0.862, -0.876], a = 0.2, v = 0.2, t = 0.2)
movej(p[0.477390609056384, 0.15249074907664, 0.363051833138, -1.351, 0.862, -0.876], a = 0.2, v = 0.2, t = 0.2)
movej(p[0.477390181758848, 0.152490328150168, 0.363067841905527, -1.351, 0.862, -0.876], a = 0.2, v = 0.2, t = 0.2)
movej(p[0.47739087311666, 0.15249100919974, 0.363041940079416, -1.351, 0.862, -0.876], a = 0.2, v = 0.2, t = 0.2)
movej(p[0.477397155617396, 0.15249719802753, 0.362806565229028, -1.351, 0.862, -0.876], a = 0.2, v = 0.2, t = 0.2)
movej(p[0.477409706482308, 0.152509561757328, 0.362336345156642, -1.351, 0.862, -0.876], a = 0.2, v = 0.2, t = 0.2)
movej(p[0.477429588087232, 0.1525291469248, 0.361591477789186, -1.351, 0.862, -0.876], a = 0.2, v = 0.2, t = 0.2)
movej(p[0.477453436197567, 0.152552639456544, 0.360698004690214, -1.351, 0.862, -0.876], a = 0.2, v = 0.2, t = 0.2)
movej(p[0.477475209167555, 0.152574087788568, 0.359882277041528, -1.351, 0.862, -0.876], a = 0.2, v = 0.2, t = 0.2)
movej(p[0.477488729587115, 0.152587406616821, 0.359375732456058, -1.351, 0.862, -0.876], a = 0.2, v = 0.2, t = 0.2)
movej(p[0.477493298630064, 0.152591907534713, 0.359204552563592, -1.351, 0.862, -0.876], a = 0.2, v = 0.2, t = 0.2)
movej(p[0.477492674487595, 0.152591292698294, 0.359227936156608, -1.351, 0.862, -0.876], a = 0.2, v = 0.2, t = 0.2)
movej(p[0.477476590816269, 0.15257544883671, 0.359830513361261, -1.351, 0.862, -0.876], a = 0.2, v = 0.2, t = 0.2)
movej(p[0.47745104631871, 0.152550285211108, 0.360787541866892, -1.351, 0.862, -0.876], a = 0.2, v = 0.2, t = 0.2)
movej(p[0.477421964747097, 0.15252163724971, 0.361877087392605, -1.351, 0.862, -0.876], a = 0.2, v = 0.2, t = 0.2)
movej(p[0.477405694366486, 0.152505609462702, 0.362486659689185, -1.351, 0.862, -0.876], a = 0.2, v = 0.2, t = 0.2)
movej(p[0.47739427229257, 0.152494357693472, 0.362914589434373, -1.351, 0.862, -0.876], a = 0.2, v = 0.2, t = 0.2)
movej(p[0.477390426348012, 0.152490569092474, 0.363058678335101, -1.351, 0.862, -0.876], a = 0.2, v = 0.2, t = 0.2)
movej(p[0.477388001794573, 0.152488180689459, 0.36314951460028, -1.351, 0.862, -0.876], a = 0.2, v = 0.2, t = 0.2)
movej(p[0.477388968148491, 0.152489132634907, 0.363113310003058, -1.351, 0.862, -0.876], a = 0.2, v = 0.2, t = 0.2)
movej(p[0.477389585889499, 0.152489741165312, 0.363090166241765, -1.351, 0.862, -0.876], a = 0.2, v = 0.2, t = 0.2)
movej(p[0.477396883021839, 0.15249692949641, 0.362816778063243, -1.351, 0.862, -0.876], a = 0.2, v = 0.2, t = 0.2)
movej(p[0.47741357163125, 0.152513369276369, 0.362191536760744, -1.351, 0.862, -0.876], a = 0.2, v = 0.2, t = 0.2)
movej(p[0.477432116664416, 0.152531637800551, 0.361496744258504, -1.351, 0.862, -0.876], a = 0.2, v = 0.2, t = 0.2)
movej(p[0.477452078554333, 0.152551302055956, 0.360748869001519, -1.351, 0.862, -0.876], a = 0.2, v = 0.2, t = 0.2)
movej(p[0.477471733707566, 0.152570664148163, 0.360012485681273, -1.351, 0.862, -0.876], a = 0.2, v = 0.2, t = 0.2)
movej(p[0.477489089669309, 0.15258776133014, 0.359362241921625, -1.351, 0.862, -0.876], a = 0.2, v = 0.2, t = 0.2)
movej(p[0.477495845878176, 0.152594416803007, 0.359109119523717, -1.351, 0.862, -0.876], a = 0.2, v = 0.2, t = 0.2)
movej(p[0.477490076561248, 0.152588733507385, 0.359325267864292, -1.351, 0.862, -0.876], a = 0.2, v = 0.2, t = 0.2)
movej(p[0.477474443659484, 0.152573333694327, 0.359910956918433, -1.351, 0.862, -0.876], a = 0.2, v = 0.2, t = 0.2)
movej(p[0.47744767221519, 0.152546961415933, 0.360913953171019, -1.351, 0.862, -0.876], a = 0.2, v = 0.2, t = 0.2)
movej(p[0.477419923214422, 0.152519626156567, 0.361953573726343, -1.351, 0.862, -0.876], a = 0.2, v = 0.2, t = 0.2)
movej(p[0.477400887375889, 0.152500874144993, 0.362666754326664, -1.351, 0.862, -0.876], a = 0.2, v = 0.2, t = 0.2)
movej(p[0.477394082115826, 0.152494170352289, 0.362921714435151, -1.351, 0.862, -0.876], a = 0.2, v = 0.2, t = 0.2)
movej(p[0.477391067561045, 0.152491200744933, 0.363034655190823, -1.351, 0.862, -0.876], a = 0.2, v = 0.2, t = 0.2)
movej(p[0.477392752478984, 0.152492860540515, 0.362971529482667, -1.351, 0.862, -0.876], a = 0.2, v = 0.2, t = 0.2)
movej(p[0.477401449504203, 0.152501427891897, 0.362645694103467, -1.351, 0.862, -0.876], a = 0.2, v = 0.2, t = 0.2)
movej(p[0.477417825668961, 0.152517559885796, 0.362032158587659, -1.351, 0.862, -0.876], a = 0.2, v = 0.2, t = 0.2)
movej(p[0.477438216723507, 0.152537646906926, 0.361268204612229, -1.351, 0.862, -0.876], a = 0.2, v = 0.2, t = 0.2)
movej(p[0.47745977897873, 0.152558887665971, 0.360460371424432, -1.351, 0.862, -0.876], a = 0.2, v = 0.2, t = 0.2)
movej(p[0.47748216275481, 0.152580937696884, 0.359621759832153, -1.351, 0.862, -0.876], a = 0.2, v = 0.2, t = 0.2)
movej(p[0.477493135926258, 0.152591747256843, 0.359210648286558, -1.351, 0.862, -0.876], a = 0.2, v = 0.2, t = 0.2)
movej(p[0.477491036780431, 0.152589679409569, 0.359289293105805, -1.351, 0.862, -0.876], a = 0.2, v = 0.2, t = 0.2)
movej(p[0.477473595465872, 0.152572498147397, 0.359942734621762, -1.351, 0.862, -0.876], a = 0.2, v = 0.2, t = 0.2)
movej(p[0.477449611324486, 0.152548871612844, 0.360841304144853, -1.351, 0.862, -0.876], a = 0.2, v = 0.2, t = 0.2)
movej(p[0.4774222552134, 0.152521923385121, 0.361866205028163, -1.351, 0.862, -0.876], a = 0.2, v = 0.2, t = 0.2)
movej(p[0.477402437356361, 0.152502401015044, 0.362608684071375, -1.351, 0.862, -0.876], a = 0.2, v = 0.2, t = 0.2)
movej(p[0.477395124487095, 0.15249519718166, 0.362882661836216, -1.351, 0.862, -0.876], a = 0.2, v = 0.2, t = 0.2)
movej(p[0.477392578039166, 0.152492688701618, 0.362978064897125, -1.351, 0.862, -0.876], a = 0.2, v = 0.2, t = 0.2)
movej(p[0.477391423642325, 0.152491551516993, 0.363021314551217, -1.351, 0.862, -0.876], a = 0.2, v = 0.2, t = 0.2)
movej(p[0.477394326971718, 0.152494411557346, 0.362912540871737, -1.351, 0.862, -0.876], a = 0.2, v = 0.2, t = 0.2)
movej(p[0.477405758914554, 0.152505673048349, 0.362484241385976, -1.351, 0.862, -0.876], a = 0.2, v = 0.2, t = 0.2)
movej(p[0.477423899588752, 0.152523543242611, 0.361804598254254, -1.351, 0.862, -0.876], a = 0.2, v = 0.2, t = 0.2)
movej(p[0.477447658878812, 0.152546948278403, 0.360914452820443, -1.351, 0.862, -0.876], a = 0.2, v = 0.2, t = 0.2)
movej(p[0.477471296274382, 0.152570233237168, 0.360028874182361, -1.351, 0.862, -0.876], a = 0.2, v = 0.2, t = 0.2)
movej(p[0.477489684471748, 0.152588347263993, 0.359339957557341, -1.351, 0.862, -0.876], a = 0.2, v = 0.2, t = 0.2)
movej(p[0.477498073053227, 0.152596610770573, 0.359025678070005, -1.351, 0.862, -0.876], a = 0.2, v = 0.2, t = 0.2)
movej(p[0.477493221279074, 0.152591831337037, 0.359207450530248, -1.351, 0.862, -0.876], a = 0.2, v = 0.2, t = 0.2)
movej(p[0.477478044481422, 0.152576880827517, 0.359776051574107, -1.351, 0.862, -0.876], a = 0.2, v = 0.2, t = 0.2)
movej(p[0.477448811141833, 0.152548083361024, 0.360871283110259, -1.351, 0.862, -0.876], a = 0.2, v = 0.2, t = 0.2)
movej(p[0.47742129792822, 0.152520980373193, 0.361902069863776, -1.351, 0.862, -0.876], a = 0.2, v = 0.2, t = 0.2)
movej(p[0.477402055029089, 0.152502024388324, 0.362623008021045, -1.351, 0.862, -0.876], a = 0.2, v = 0.2, t = 0.2)
movej(p[0.477395235712484, 0.152495306748663, 0.362878494760025, -1.351, 0.862, -0.876], a = 0.2, v = 0.2, t = 0.2)
movej(p[0.477392927452258, 0.152493032904913, 0.362964974082232, -1.351, 0.862, -0.876], a = 0.2, v = 0.2, t = 0.2)
movej(p[0.477392144606896, 0.152492261731882, 0.362994303503387, -1.351, 0.862, -0.876], a = 0.2, v = 0.2, t = 0.2)
movej(p[0.477394510747, 0.152494592592514, 0.362905655702682, -1.351, 0.862, -0.876], a = 0.2, v = 0.2, t = 0.2)
movej(p[0.477394672650624, 0.152494752082133, 0.362899589958682, -1.351, 0.862, -0.876], a = 0.2, v = 0.2, t = 0.2)
movej(p[0.477401905795025, 0.15250187737936, 0.362628599098093, -1.351, 0.862, -0.876], a = 0.2, v = 0.2, t = 0.2)
movej(p[0.477415690514915, 0.152515456567189, 0.36211215246035, -1.351, 0.862, -0.876], a = 0.2, v = 0.2, t = 0.2)
movej(p[0.477435437422426, 0.152534909045605, 0.361372331552071, -1.351, 0.862, -0.876], a = 0.2, v = 0.2, t = 0.2)
movej(p[0.477453889634404, 0.152553086132575, 0.360681016609818, -1.351, 0.862, -0.876], a = 0.2, v = 0.2, t = 0.2)
movej(p[0.4774712615998, 0.152570199079589, 0.360030173270862, -1.351, 0.862, -0.876], a = 0.2, v = 0.2, t = 0.2)
movej(p[0.477486942512524, 0.152585646187756, 0.359442685478797, -1.351, 0.862, -0.876], a = 0.2, v = 0.2, t = 0.2)
movej(p[0.477492722498554, 0.152591339993403, 0.359226137418684, -1.351, 0.862, -0.876], a = 0.2, v = 0.2, t = 0.2)
movej(p[0.477486545088473, 0.152585254689352, 0.359457575031615, -1.351, 0.862, -0.876], a = 0.2, v = 0.2, t = 0.2)
movej(p[0.477467348706627, 0.152566344528189, 0.360176770411695, -1.351, 0.862, -0.876], a = 0.2, v = 0.2, t = 0.2)
movej(p[0.477444276773466, 0.15254361660071, 0.361041163914224, -1.351, 0.862, -0.876], a = 0.2, v = 0.2, t = 0.2)
movej(p[0.47741897366434, 0.152518690764407, 0.361989148765291, -1.351, 0.862, -0.876], a = 0.2, v = 0.2, t = 0.2)
movej(p[0.477403103908511, 0.15250305762881, 0.362583711593192, -1.351, 0.862, -0.876], a = 0.2, v = 0.2, t = 0.2)
movej(p[0.477395938006126, 0.152495998571011, 0.362852183221387, -1.351, 0.862, -0.876], a = 0.2, v = 0.2, t = 0.2)
movej(p[0.477392606579014, 0.152492716815933, 0.362976995647359, -1.351, 0.862, -0.876], a = 0.2, v = 0.2, t = 0.2)
movej(p[0.477390897655595, 0.152491033372796, 0.363041020724477, -1.351, 0.862, -0.876], a = 0.2, v = 0.2, t = 0.2)
movej(p[0.477391766653956, 0.152491889414273, 0.363008463568047, -1.351, 0.862, -0.876], a = 0.2, v = 0.2, t = 0.2)
movej(p[0.477395931337937, 0.152495992002246, 0.362852433046099, -1.351, 0.862, -0.876], a = 0.2, v = 0.2, t = 0.2)
movej(p[0.477405274537321, 0.152505195893247, 0.362502388653035, -1.351, 0.862, -0.876], a = 0.2, v = 0.2, t = 0.2)
movej(p[0.477421952744357, 0.152521625425933, 0.361877537077086, -1.351, 0.862, -0.876], a = 0.2, v = 0.2, t = 0.2)
movej(p[0.477444564839221, 0.152543900371365, 0.361030371486678, -1.351, 0.862, -0.876], a = 0.2, v = 0.2, t = 0.2)
movej(p[0.477461547382393, 0.152560629702493, 0.360394117910886, -1.351, 0.862, -0.876], a = 0.2, v = 0.2, t = 0.2)
movej(p[0.477476158717637, 0.152575023180728, 0.35984670200258, -1.351, 0.862, -0.876], a = 0.2, v = 0.2, t = 0.2)
movej(p[0.477487222576452, 0.152585922075893, 0.359432192840905, -1.351, 0.862, -0.876], a = 0.2, v = 0.2, t = 0.2)
movej(p[0.477491034113156, 0.152589676782063, 0.35928939303569, -1.351, 0.862, -0.876], a = 0.2, v = 0.2, t = 0.2)
movej(p[0.47747913272983, 0.152577952849992, 0.359735280181156, -1.351, 0.862, -0.876], a = 0.2, v = 0.2, t = 0.2)
movej(p[0.477455201933955, 0.15255437886556, 0.360631851106552, -1.351, 0.862, -0.876], a = 0.2, v = 0.2, t = 0.2)
movej(p[0.477430449617222, 0.15252999560926, 0.361559200436432, -1.351, 0.862, -0.876], a = 0.2, v = 0.2, t = 0.2)
movej(p[0.47741082700475, 0.152510665572627, 0.362294364612085, -1.351, 0.862, -0.876], a = 0.2, v = 0.2, t = 0.2)
movej(p[0.477399189841737, 0.152499201921307, 0.362730352703174, -1.351, 0.862, -0.876], a = 0.2, v = 0.2, t = 0.2)
movej(p[0.47739222249134, 0.15249233845506, 0.362991385550754, -1.351, 0.862, -0.876], a = 0.2, v = 0.2, t = 0.2)
movej(p[0.477393063750036, 0.152493167170473, 0.362959867665124, -1.351, 0.862, -0.876], a = 0.2, v = 0.2, t = 0.2)
movej(p[0.477396731787318, 0.152496780516816, 0.362822444087705, -1.351, 0.862, -0.876], a = 0.2, v = 0.2, t = 0.2)
movej(p[0.477411588778636, 0.152511415988359, 0.362265824637019, -1.351, 0.862, -0.876], a = 0.2, v = 0.2, t = 0.2)
movej(p[0.477434085113742, 0.152533576900029, 0.361422996003606, -1.351, 0.862, -0.876], a = 0.2, v = 0.2, t = 0.2)
movej(p[0.477456983673995, 0.152556134039613, 0.360565097943583, -1.351, 0.862, -0.876], a = 0.2, v = 0.2, t = 0.2)
movej(p[0.477476737516422, 0.152575593349544, 0.359825017217603, -1.351, 0.862, -0.876], a = 0.2, v = 0.2, t = 0.2)
movej(p[0.477493805412411, 0.152592406760866, 0.359185565885502, -1.351, 0.862, -0.876], a = 0.2, v = 0.2, t = 0.2)
movej(p[0.47750614422892, 0.152604561603932, 0.358723290238947, -1.351, 0.862, -0.876], a = 0.2, v = 0.2, t = 0.2)
movej(p[0.477503951728451, 0.152602401793945, 0.358805432604159, -1.351, 0.862, -0.876], a = 0.2, v = 0.2, t = 0.2)
movej(p[0.477486718461381, 0.152585425477246, 0.359451079589111, -1.351, 0.862, -0.876], a = 0.2, v = 0.2, t = 0.2)
movej(p[0.477459586934893, 0.152558698485534, 0.36046756637613, -1.351, 0.862, -0.876], a = 0.2, v = 0.2, t = 0.2)
movej(p[0.477432295371875, 0.152531813843458, 0.36149004895623, -1.351, 0.862, -0.876], a = 0.2, v = 0.2, t = 0.2)
movej(p[0.477409049265623, 0.152508914339833, 0.362360967880228, -1.351, 0.862, -0.876], a = 0.2, v = 0.2, t = 0.2)
movej(p[0.477396703514197, 0.152496752665252, 0.362823503344483, -1.351, 0.862, -0.876], a = 0.2, v = 0.2, t = 0.2)
movej(p[0.477392765815362, 0.152492873678045, 0.362971029833244, -1.351, 0.862, -0.876], a = 0.2, v = 0.2, t = 0.2)
movej(p[0.477391665297486, 0.152491789569042, 0.363012260903665, -1.351, 0.862, -0.876], a = 0.2, v = 0.2, t = 0.2)
movej(p[0.477391310549844, 0.152491440110735, 0.363025551578328, -1.351, 0.862, -0.876], a = 0.2, v = 0.2, t = 0.2)
movej(p[0.477394631841309, 0.15249471188129, 0.362901118885918, -1.351, 0.862, -0.876], a = 0.2, v = 0.2, t = 0.2)
movej(p[0.477407377950788, 0.152507267944532, 0.362423583945972, -1.351, 0.862, -0.876], a = 0.2, v = 0.2, t = 0.2)
movej(p[0.477423692074717, 0.152523338822639, 0.361812372799283, -1.351, 0.862, -0.876], a = 0.2, v = 0.2, t = 0.2)
movej(p[0.477446087853537, 0.15254540067733, 0.360973311522522, -1.351, 0.862, -0.876], a = 0.2, v = 0.2, t = 0.2)
movej(p[0.477468741024443, 0.152567716086356, 0.36012460701189, -1.351, 0.862, -0.876], a = 0.2, v = 0.2, t = 0.2)
movej(p[0.477487089212677, 0.15258579070059, 0.359437189335139, -1.351, 0.862, -0.876], a = 0.2, v = 0.2, t = 0.2)
movej(p[0.477498974592349, 0.152597498867624, 0.358991901768982, -1.351, 0.862, -0.876], a = 0.2, v = 0.2, t = 0.2)
movej(p[0.477500404252023, 0.152598907210876, 0.35893833935079, -1.351, 0.862, -0.876], a = 0.2, v = 0.2, t = 0.2)
movej(p[0.477489281713146, 0.152587950510577, 0.359355046969928, -1.351, 0.862, -0.876], a = 0.2, v = 0.2, t = 0.2)
movej(p[0.477462246208577, 0.152561318109083, 0.360367936281099, -1.351, 0.862, -0.876], a = 0.2, v = 0.2, t = 0.2)
movej(p[0.477430398938987, 0.152529945686644, 0.361561099104241, -1.351, 0.862, -0.876], a = 0.2, v = 0.2, t = 0.2)
movej(p[0.477405626884416, 0.152505542986799, 0.362489187915268, -1.351, 0.862, -0.876], a = 0.2, v = 0.2, t = 0.2)
movej(p[0.47739522531011, 0.15249529650139, 0.362878884486575, -1.351, 0.862, -0.876], a = 0.2, v = 0.2, t = 0.2)
movej(p[0.477390002251206, 0.15249015131901, 0.363074567186766, -1.351, 0.862, -0.876], a = 0.2, v = 0.2, t = 0.2)
movej(p[0.477392012043303, 0.152492131144831, 0.362999270018656, -1.351, 0.862, -0.876], a = 0.2, v = 0.2, t = 0.2)
movej(p[0.477400526546858, 0.152500518695973, 0.362680272841464, -1.351, 0.862, -0.876], a = 0.2, v = 0.2, t = 0.2)
movej(p[0.477416201564903, 0.152515959997351, 0.362093005894444, -1.351, 0.862, -0.876], a = 0.2, v = 0.2, t = 0.2)
movej(p[0.477438800856844, 0.152538222330755, 0.361246319967483, -1.351, 0.862, -0.876], a = 0.2, v = 0.2, t = 0.2)
movej(p[0.477463886583015, 0.152562934025314, 0.360306479402017, -1.351, 0.862, -0.876], a = 0.2, v = 0.2, t = 0.2)
movej(p[0.477487350605677, 0.152586048196184, 0.35942739620644, -1.351, 0.862, -0.876], a = 0.2, v = 0.2, t = 0.2)
movej(p[0.477501212436502, 0.152599703345214, 0.358908060595731, -1.351, 0.862, -0.876], a = 0.2, v = 0.2, t = 0.2)
movej(p[0.477504063754022, 0.152602512149199, 0.358801235549002, -1.351, 0.862, -0.876], a = 0.2, v = 0.2, t = 0.2)
movej(p[0.477497632952768, 0.152596177232072, 0.359042166500978, -1.351, 0.862, -0.876], a = 0.2, v = 0.2, t = 0.2)
movej(p[0.477473723495096, 0.152572624267689, 0.359937937987298, -1.351, 0.862, -0.876], a = 0.2, v = 0.2, t = 0.2)
movej(p[0.477444562171945, 0.152543897743859, 0.361030471416562, -1.351, 0.862, -0.876], a = 0.2, v = 0.2, t = 0.2)
movej(p[0.47741762749039, 0.152517364662095, 0.362039583378092, -1.351, 0.862, -0.876], a = 0.2, v = 0.2, t = 0.2)
movej(p[0.477403184460231, 0.152503136979493, 0.362580693710674, -1.351, 0.862, -0.876], a = 0.2, v = 0.2, t = 0.2)
movej(p[0.477395278122165, 0.15249534852601, 0.362876905874858, -1.351, 0.862, -0.876], a = 0.2, v = 0.2, t = 0.2)
movej(p[0.4773936742894, 0.152493768606612, 0.36293699371452, -1.351, 0.862, -0.876], a = 0.2, v = 0.2, t = 0.2)
movej(p[0.47739922259588, 0.152499234187082, 0.36272912556419, -1.351, 0.862, -0.876], a = 0.2, v = 0.2, t = 0.2)
movej(p[0.477413063248538, 0.152512868473713, 0.362210583396765, -1.351, 0.862, -0.876], a = 0.2, v = 0.2, t = 0.2)
movej(p[0.477434418523181, 0.152533905338287, 0.361410504768021, -1.351, 0.862, -0.876], a = 0.2, v = 0.2, t = 0.2)
movej(p[0.477458898777812, 0.152558020588969, 0.360493348286379, -1.351, 0.862, -0.876], a = 0.2, v = 0.2, t = 0.2)
movej(p[0.477482512167902, 0.152581281900179, 0.359608669017259, -1.351, 0.862, -0.876], a = 0.2, v = 0.2, t = 0.2)
movej(p[0.477497200854135, 0.152595751576089, 0.359058355142297, -1.351, 0.862, -0.876], a = 0.2, v = 0.2, t = 0.2)
movej(p[0.477503983735757, 0.152602433324017, 0.358804233445543, -1.351, 0.862, -0.876], a = 0.2, v = 0.2, t = 0.2)
movej(p[0.477499438698288, 0.152597956053679, 0.358974513969046, -1.351, 0.862, -0.876], a = 0.2, v = 0.2, t = 0.2)
movej(p[0.47748355240535, 0.152582306627545, 0.359569696362232, -1.351, 0.862, -0.876], a = 0.2, v = 0.2, t = 0.2)
movej(p[0.477453894968955, 0.152553091387587, 0.360680816750048, -1.351, 0.862, -0.876], a = 0.2, v = 0.2, t = 0.2)
movej(p[0.4774241895216, 0.152523828852521, 0.361793735875789, -1.351, 0.862, -0.876], a = 0.2, v = 0.2, t = 0.2)
movej(p[0.477405551667246, 0.152505468891128, 0.362492005938016, -1.351, 0.862, -0.876], a = 0.2, v = 0.2, t = 0.2)
movej(p[0.47739488656612, 0.152494962808119, 0.36289157558193, -1.351, 0.862, -0.876], a = 0.2, v = 0.2, t = 0.2)
movej(p[0.477390809368775, 0.152490946402345, 0.36304432840366, -1.351, 0.862, -0.876], a = 0.2, v = 0.2, t = 0.2)
movej(p[0.47739032205754, 0.152490466356987, 0.363062585593592, -1.351, 0.862, -0.876], a = 0.2, v = 0.2, t = 0.2)
movej(p[0.477392150741629, 0.152492267775146, 0.362994073664652, -1.351, 0.862, -0.876], a = 0.2, v = 0.2, t = 0.2)
movej(p[0.477398894894411, 0.152498911371686, 0.362741402949823, -1.351, 0.862, -0.876], a = 0.2, v = 0.2, t = 0.2)
movej(p[0.47741443529506, 0.152514220062834, 0.362159179464083, -1.351, 0.862, -0.876], a = 0.2, v = 0.2, t = 0.2)
movej(p[0.477438120701589, 0.152537552316708, 0.361271802088077, -1.351, 0.862, -0.876], a = 0.2, v = 0.2, t = 0.2)
movej(p[0.477459088154373, 0.1525582071419, 0.360486253264566, -1.351, 0.862, -0.876], a = 0.2, v = 0.2, t = 0.2)
movej(p[0.477477060256759, 0.152575911277778, 0.359812925701556, -1.351, 0.862, -0.876], a = 0.2, v = 0.2, t = 0.2)
movej(p[0.477492191710727, 0.152590817119696, 0.359246023465736, -1.351, 0.862, -0.876], a = 0.2, v = 0.2, t = 0.2)
movej(p[0.477502690107135, 0.152601158983575, 0.358852699439615, -1.351, 0.862, -0.876], a = 0.2, v = 0.2, t = 0.2)
movej(p[0.477499289330859, 0.15259780891334, 0.358980110042589, -1.351, 0.862, -0.876], a = 0.2, v = 0.2, t = 0.2)
movej(p[0.477482960270187, 0.152581723321198, 0.359591880796632, -1.351, 0.862, -0.876], a = 0.2, v = 0.2, t = 0.2)
movej(p[0.477459354881924, 0.152558469892506, 0.360476260276097, -1.351, 0.862, -0.876], a = 0.2, v = 0.2, t = 0.2)
movej(p[0.477432628781314, 0.152532142281716, 0.361477557720644, -1.351, 0.862, -0.876], a = 0.2, v = 0.2, t = 0.2)
movej(p[0.477410528003165, 0.152510371029197, 0.362305566752159, -1.351, 0.862, -0.876], a = 0.2, v = 0.2, t = 0.2)
movej(p[0.477394827352603, 0.152494904477484, 0.36289379402537, -1.351, 0.862, -0.876], a = 0.2, v = 0.2, t = 0.2)
movej(p[0.477391169450969, 0.152491301115664, 0.363030837869228, -1.351, 0.862, -0.876], a = 0.2, v = 0.2, t = 0.2)
movej(p[0.477388818781062, 0.152488985494568, 0.363118906076601, -1.351, 0.862, -0.876], a = 0.2, v = 0.2, t = 0.2)
movej(p[0.477389992915742, 0.152490142122738, 0.363074916941362, -1.351, 0.862, -0.876], a = 0.2, v = 0.2, t = 0.2)
movej(p[0.477396238074621, 0.152496294165443, 0.36284094110936, -1.351, 0.862, -0.876], a = 0.2, v = 0.2, t = 0.2)
movej(p[0.477408389915117, 0.152508264820333, 0.362385670547722, -1.351, 0.862, -0.876], a = 0.2, v = 0.2, t = 0.2)
movej(p[0.477426686091477, 0.152526288198199, 0.361700201503723, -1.351, 0.862, -0.876], a = 0.2, v = 0.2, t = 0.2)
movej(p[0.477449203231333, 0.152548469604416, 0.36085659341721, -1.351, 0.862, -0.876], a = 0.2, v = 0.2, t = 0.2)
movej(p[0.477470640124607, 0.152569586870675, 0.360053456933994, -1.351, 0.862, -0.876], a = 0.2, v = 0.2, t = 0.2)
movej(p[0.477486142329871, 0.152584857935936, 0.359472664444203, -1.351, 0.862, -0.876], a = 0.2, v = 0.2, t = 0.2)
movej(p[0.477494336200237, 0.152592929634573, 0.359165679838449, -1.351, 0.862, -0.876], a = 0.2, v = 0.2, t = 0.2)
movej(p[0.477492535789268, 0.152591156067978, 0.359233132510612, -1.351, 0.862, -0.876], a = 0.2, v = 0.2, t = 0.2)
movej(p[0.477479722197718, 0.152578533528833, 0.35971319567664, -1.351, 0.862, -0.876], a = 0.2, v = 0.2, t = 0.2)
movej(p[0.477454327067587, 0.15255351704357, 0.360664628108729, -1.351, 0.862, -0.876], a = 0.2, v = 0.2, t = 0.2)
movej(p[0.477428518509753, 0.152528093294867, 0.361631549672944, -1.351, 0.862, -0.876], a = 0.2, v = 0.2, t = 0.2)
movej(p[0.477409235174726, 0.152509097477006, 0.362354002767265, -1.351, 0.862, -0.876], a = 0.2, v = 0.2, t = 0.2)
movej(p[0.477398152778346, 0.152498180320673, 0.362769206441639, -1.351, 0.862, -0.876], a = 0.2, v = 0.2, t = 0.2)
movej(p[0.477393211250372, 0.152493312471559, 0.362954341542501, -1.351, 0.862, -0.876], a = 0.2, v = 0.2, t = 0.2)
movej(p[0.477392630317766, 0.152492740200737, 0.362976106271386, -1.351, 0.862, -0.876], a = 0.2, v = 0.2, t = 0.2)
movej(p[0.477395899063903, 0.152495960209422, 0.362853642197704, -1.351, 0.862, -0.876], a = 0.2, v = 0.2, t = 0.2)
movej(p[0.477403930497191, 0.15250387189294, 0.362552743321928, -1.351, 0.862, -0.876], a = 0.2, v = 0.2, t = 0.2)
movej(p[0.477422626764879, 0.152522289396716, 0.361852284795226, -1.351, 0.862, -0.876], a = 0.2, v = 0.2, t = 0.2)
movej(p[0.47744934726421, 0.152548611489743, 0.360851197203437, -1.351, 0.862, -0.876], a = 0.2, v = 0.2, t = 0.2)
movej(p[0.47747379817881, 0.152572697837858, 0.359935139950526, -1.351, 0.862, -0.876], a = 0.2, v = 0.2, t = 0.2)
movej(p[0.477493648043156, 0.152592251738008, 0.359191461748698, -1.351, 0.862, -0.876], a = 0.2, v = 0.2, t = 0.2)
movej(p[0.477508958204583, 0.152607333622832, 0.358617864210604, -1.351, 0.862, -0.876], a = 0.2, v = 0.2, t = 0.2)
movej(p[0.477517186749531, 0.152615439479048, 0.35830958051635, -1.351, 0.862, -0.876], a = 0.2, v = 0.2, t = 0.2)
movej(p[0.477507120451757, 0.152605523271152, 0.358686715901153, -1.351, 0.862, -0.876], a = 0.2, v = 0.2, t = 0.2)
movej(p[0.477480418356626, 0.152579219307916, 0.359687113976737, -1.351, 0.862, -0.876], a = 0.2, v = 0.2, t = 0.2)
movej(p[0.477445709100415, 0.152545027571468, 0.360987501566148, -1.351, 0.862, -0.876], a = 0.2, v = 0.2, t = 0.2)
movej(p[0.477417394103783, 0.152517134755314, 0.362048327243002, -1.351, 0.862, -0.876], a = 0.2, v = 0.2, t = 0.2)
movej(p[0.4773978301447, 0.15249786249754, 0.36278129396049, -1.351, 0.862, -0.876], a = 0.2, v = 0.2, t = 0.2)
movej(p[0.477389939303504, 0.152490089309866, 0.363076925532045, -1.351, 0.862, -0.876], a = 0.2, v = 0.2, t = 0.2)
movej(p[0.477389585089316, 0.152489740377061, 0.363090196220731, -1.351, 0.862, -0.876], a = 0.2, v = 0.2, t = 0.2)
movej(p[0.477389968910262, 0.152490118475184, 0.363075816310325, -1.351, 0.862, -0.876], a = 0.2, v = 0.2, t = 0.2)
movej(p[0.477397822089528, 0.152497854562471, 0.362781595748742, -1.351, 0.862, -0.876], a = 0.2, v = 0.2, t = 0.2)
movej(p[0.477412844798673, 0.152512653280966, 0.362218767654321, -1.351, 0.862, -0.876], a = 0.2, v = 0.2, t = 0.2)
movej(p[0.477435064003854, 0.152534541194755, 0.361386321735927, -1.351, 0.862, -0.876], a = 0.2, v = 0.2, t = 0.2)
movej(p[0.477458650721189, 0.152557776230905, 0.360502641765654, -1.351, 0.862, -0.876], a = 0.2, v = 0.2, t = 0.2)
movej(p[0.477481005157238, 0.152579797359251, 0.359665129402107, -1.351, 0.862, -0.876], a = 0.2, v = 0.2, t = 0.2)
movej(p[0.477502916825553, 0.152601382321591, 0.358844205399417, -1.351, 0.862, -0.876], a = 0.2, v = 0.2, t = 0.2)
movej(p[0.477509958432899, 0.152608318937607, 0.358580390503847, -1.351, 0.862, -0.876], a = 0.2, v = 0.2, t = 0.2)
movej(p[0.47750569879391, 0.152604122810418, 0.35873997852969, -1.351, 0.862, -0.876], a = 0.2, v = 0.2, t = 0.2)
movej(p[0.47748757999137, 0.152586274161706, 0.359418802236357, -1.351, 0.862, -0.876], a = 0.2, v = 0.2, t = 0.2)
movej(p[0.47746046180126, 0.152559560307524, 0.360434789373953, -1.351, 0.862, -0.876], a = 0.2, v = 0.2, t = 0.2)
movej(p[0.477430534970038, 0.152530079689454, 0.361556002680122, -1.351, 0.862, -0.876], a = 0.2, v = 0.2, t = 0.2)
movej(p[0.477409082339839, 0.152508946920908, 0.362359728749658, -1.351, 0.862, -0.876], a = 0.2, v = 0.2, t = 0.2)
movej(p[0.477398537612856, 0.152498559417249, 0.362754788557876, -1.351, 0.862, -0.876], a = 0.2, v = 0.2, t = 0.2)
movej(p[0.477393166706871, 0.152493268592207, 0.362956010371575, -1.351, 0.862, -0.876], a = 0.2, v = 0.2, t = 0.2)
movej(p[0.477393087222061, 0.152493190292526, 0.362958988282139, -1.351, 0.862, -0.876], a = 0.2, v = 0.2, t = 0.2)
movej(p[0.477401007003196, 0.15250099198864, 0.362662272471336, -1.351, 0.862, -0.876], a = 0.2, v = 0.2, t = 0.2)
movej(p[0.477417453584027, 0.152517193348699, 0.362046098806573, -1.351, 0.862, -0.876], a = 0.2, v = 0.2, t = 0.2)
movej(p[0.477440334540262, 0.152539733146743, 0.361188860283788, -1.351, 0.862, -0.876], a = 0.2, v = 0.2, t = 0.2)
movej(p[0.477467215342852, 0.152566213152885, 0.36018176690593, -1.351, 0.862, -0.876], a = 0.2, v = 0.2, t = 0.2)
movej(p[0.477494336200237, 0.152592929634573, 0.359165679838449, -1.351, 0.862, -0.876], a = 0.2, v = 0.2, t = 0.2)
movej(p[0.477511494783593, 0.152609832381102, 0.358522830890269, -1.351, 0.862, -0.876], a = 0.2, v = 0.2, t = 0.2)
movej(p[0.477519077847868, 0.15261730238085, 0.358238730228108, -1.351, 0.862, -0.876], a = 0.2, v = 0.2, t = 0.2)
movej(p[0.47751330853094, 0.152611619085227, 0.358454878568683, -1.351, 0.862, -0.876], a = 0.2, v = 0.2, t = 0.2)
movej(p[0.477493608034023, 0.152592212325417, 0.359192960696968, -1.351, 0.862, -0.876], a = 0.2, v = 0.2, t = 0.2)
movej(p[0.477463681202801, 0.152562731707347, 0.360314174003138, -1.351, 0.862, -0.876], a = 0.2, v = 0.2, t = 0.2)
movej(p[0.477432575435803, 0.152532089731595, 0.361479556318338, -1.351, 0.862, -0.876], a = 0.2, v = 0.2, t = 0.2)
movej(p[0.477413636712772, 0.152513433387518, 0.362189098471558, -1.351, 0.862, -0.876], a = 0.2, v = 0.2, t = 0.2)
movej(p[0.477399499859169, 0.152499507316337, 0.362718737852677, -1.351, 0.862, -0.876], a = 0.2, v = 0.2, t = 0.2)
movej(p[0.477394527017381, 0.152494608620301, 0.362905046130386, -1.351, 0.862, -0.876], a = 0.2, v = 0.2, t = 0.2)
movej(p[0.477393509985229, 0.152493606752238, 0.362943149395416, -1.351, 0.862, -0.876], a = 0.2, v = 0.2, t = 0.2)
movej(p[0.47740186189167, 0.15250183413061, 0.362630243943995, -1.351, 0.862, -0.876], a = 0.2, v = 0.2, t = 0.2)
movej(p[0.477418330584215, 0.152518057272694, 0.362013241860489, -1.351, 0.862, -0.876], a = 0.2, v = 0.2, t = 0.2)
movej(p[0.477444642190211, 0.152543976569041, 0.361027473520022, -1.351, 0.862, -0.876], a = 0.2, v = 0.2, t = 0.2)
movej(p[0.477474561019606, 0.152573449304594, 0.359906560003506, -1.351, 0.862, -0.876], a = 0.2, v = 0.2, t = 0.2)
movej(p[0.477496285978635, 0.152594850341508, 0.359092631092744, -1.351, 0.862, -0.876], a = 0.2, v = 0.2, t = 0.2)
movej(p[0.477513063141593, 0.152611377354669, 0.358464072118074, -1.351, 0.862, -0.876], a = 0.2, v = 0.2, t = 0.2)
movej(p[0.477520910266143, 0.152619107477518, 0.35817007839733, -1.351, 0.862, -0.876], a = 0.2, v = 0.2, t = 0.2)
movej(p[0.477520163429001, 0.152618371775819, 0.358198058765041, -1.351, 0.862, -0.876], a = 0.2, v = 0.2, t = 0.2)
movej(p[0.477498969257798, 0.152597493612612, 0.358992101628751, -1.351, 0.862, -0.876], a = 0.2, v = 0.2, t = 0.2)
movej(p[0.477469805267372, 0.152568764461276, 0.3600847349879, -1.351, 0.862, -0.876], a = 0.2, v = 0.2, t = 0.2)
movej(p[0.477440902669946, 0.152540292805536, 0.361167575218351, -1.351, 0.862, -0.876], a = 0.2, v = 0.2, t = 0.2)
movej(p[0.477417280211119, 0.152517022560805, 0.362052594249078, -1.351, 0.862, -0.876], a = 0.2, v = 0.2, t = 0.2)
movej(p[0.477402063911117, 0.152502033137919, 0.362622675254529, -1.351, 0.862, -0.876], a = 0.2, v = 0.2, t = 0.2)
movej(p[0.47739528185635, 0.152495352204518, 0.36287676597302, -1.351, 0.862, -0.876], a = 0.2, v = 0.2, t = 0.2)
movej(p[0.477396515471274, 0.152496567426074, 0.362830548401353, -1.351, 0.862, -0.876], a = 0.2, v = 0.2, t = 0.2)
movej(p[0.477400029676107, 0.152500029233632, 0.362698888180103, -1.351, 0.862, -0.876], a = 0.2, v = 0.2, t = 0.2)
movej(p[0.47741077579306, 0.15251061512451, 0.362296283265871, -1.351, 0.862, -0.876], a = 0.2, v = 0.2, t = 0.2)
movej(p[0.47743090838861, 0.152530447540303, 0.361542012496266, -1.351, 0.862, -0.876], a = 0.2, v = 0.2, t = 0.2)
movej(p[0.477452254594516, 0.152551475471356, 0.36074227362913, -1.351, 0.862, -0.876], a = 0.2, v = 0.2, t = 0.2)
movej(p[0.47747301399981, 0.152571925351075, 0.359964519336624, -1.351, 0.862, -0.876], a = 0.2, v = 0.2, t = 0.2)
movej(p[0.477488793601728, 0.152587469676966, 0.359373334138826, -1.351, 0.862, -0.876], a = 0.2, v = 0.2, t = 0.2)
movej(p[0.477503020849298, 0.152601484794327, 0.358840308133914, -1.351, 0.862, -0.876], a = 0.2, v = 0.2, t = 0.2)
movej(p[0.477502794130879, 0.152601261456312, 0.358848802174112, -1.351, 0.862, -0.876], a = 0.2, v = 0.2, t = 0.2)
movej(p[0.477488249477524, 0.152586933665729, 0.359393719835301, -1.351, 0.862, -0.876], a = 0.2, v = 0.2, t = 0.2)
movej(p[0.477463486491689, 0.152562539899404, 0.36032146888472, -1.351, 0.862, -0.876], a = 0.2, v = 0.2, t = 0.2)
movej(p[0.477438587474803, 0.15253801213027, 0.361254314358257, -1.351, 0.862, -0.876], a = 0.2, v = 0.2, t = 0.2)
movej(p[0.477414510778957, 0.152514294421256, 0.362156351448346, -1.351, 0.862, -0.876], a = 0.2, v = 0.2, t = 0.2)
movej(p[0.477400046949384, 0.152500046249362, 0.36269824103417, -1.351, 0.862, -0.876], a = 0.2, v = 0.2, t = 0.2)
movej(p[0.47739386713342, 0.1524939585753, 0.362929768783857, -1.351, 0.862, -0.876], a = 0.2, v = 0.2, t = 0.2)
movej(p[0.47739230971125, 0.152492424374508, 0.362988117843525, -1.351, 0.862, -0.876], a = 0.2, v = 0.2, t = 0.2)
movej(p[0.477391582611946, 0.152491708116354, 0.36301535873009, -1.351, 0.862, -0.876], a = 0.2, v = 0.2, t = 0.2)
movej(p[0.477394074647455, 0.152494162995272, 0.362921994238828, -1.351, 0.862, -0.876], a = 0.2, v = 0.2, t = 0.2)
movej(p[0.477403569348087, 0.152503516128619, 0.362566273828314, -1.351, 0.862, -0.876], a = 0.2, v = 0.2, t = 0.2)
movej(p[0.477418760815755, 0.152518481089423, 0.361997123170089, -1.351, 0.862, -0.876], a = 0.2, v = 0.2, t = 0.2)
movej(p[0.477438710169476, 0.152538132995549, 0.361249717583562, -1.351, 0.862, -0.876], a = 0.2, v = 0.2, t = 0.2)
movej(p[0.477463217096862, 0.152562274521291, 0.360331561803073, -1.351, 0.862, -0.876], a = 0.2, v = 0.2, t = 0.2)
movej(p[0.477481375908534, 0.152580162582594, 0.359651239148135, -1.351, 0.862, -0.876], a = 0.2, v = 0.2, t = 0.2)
movej(p[0.477494658940574, 0.152593247562808, 0.359153588322402, -1.351, 0.862, -0.876], a = 0.2, v = 0.2, t = 0.2)
movej(p[0.47749952671838, 0.15259804276138, 0.358971216282852, -1.351, 0.862, -0.876], a = 0.2, v = 0.2, t = 0.2)
movej(p[0.477500062840757, 0.152598570890099, 0.35895113037603, -1.351, 0.862, -0.876], a = 0.2, v = 0.2, t = 0.2)
movej(p[0.477483082964861, 0.152581844186477, 0.359587284021937, -1.351, 0.862, -0.876], a = 0.2, v = 0.2, t = 0.2)
movej(p[0.477455850081904, 0.152555017349534, 0.360607568144574, -1.351, 0.862, -0.876], a = 0.2, v = 0.2, t = 0.2)
movej(p[0.477428145091181, 0.152527725444018, 0.3616455398568, -1.351, 0.862, -0.876], a = 0.2, v = 0.2, t = 0.2)
movej(p[0.477410702442984, 0.152510542868093, 0.3622990313377, -1.351, 0.862, -0.876], a = 0.2, v = 0.2, t = 0.2)
movej(p[0.477399621620296, 0.152499627261989, 0.362714176053441, -1.351, 0.862, -0.876], a = 0.2, v = 0.2, t = 0.2)
movej(p[0.477393768710954, 0.152493861620327, 0.362933456196602, -1.351, 0.862, -0.876], a = 0.2, v = 0.2, t = 0.2)
movej(p[0.477394773473638, 0.152494851401862, 0.362895812609041, -1.351, 0.862, -0.876], a = 0.2, v = 0.2, t = 0.2)
movej(p[0.477397866099574, 0.152497897916321, 0.362779946905645, -1.351, 0.862, -0.876], a = 0.2, v = 0.2, t = 0.2)
movej(p[0.477411248701008, 0.152511080981336, 0.362278565697317, -1.351, 0.862, -0.876], a = 0.2, v = 0.2, t = 0.2)
movej(p[0.477431724574916, 0.152531251557159, 0.361511433951553, -1.351, 0.862, -0.876], a = 0.2, v = 0.2, t = 0.2)
movej(p[0.477457989236863, 0.1525571246094, 0.360527424377056, -1.351, 0.862, -0.876], a = 0.2, v = 0.2, t = 0.2)
movej(p[0.477480063608983, 0.15257886984961, 0.359700404651401, -1.351, 0.862, -0.876], a = 0.2, v = 0.2, t = 0.2)
movej(p[0.477500268220972, 0.152598773208066, 0.358943435774909, -1.351, 0.862, -0.876], a = 0.2, v = 0.2, t = 0.2)
movej(p[0.477515594386052, 0.152613870857926, 0.358369238657507, -1.351, 0.862, -0.876], a = 0.2, v = 0.2, t = 0.2)
movej(p[0.477517301442378, 0.152615552461809, 0.358305283531309, -1.351, 0.862, -0.876], a = 0.2, v = 0.2, t = 0.2)
movej(p[0.47750360764991, 0.152602062845662, 0.358818323559283, -1.351, 0.862, -0.876], a = 0.2, v = 0.2, t = 0.2)
movej(p[0.477476761521902, 0.152575616997099, 0.359824117848641, -1.351, 0.862, -0.876], a = 0.2, v = 0.2, t = 0.2)
