def moving():
set_payload_mass(0.606)
set_tcp(p[0.0005,0.0025,0.058,0,0,0])
movej(p[0.5359, 0.0125, 0.1626, -1.263, 1.183, -1.155], a = 0.2, v = 0.2, t = 0.2)
movej(p[0.536008715768837, 0.0124068925151484, 0.162697528856605, -1.2611951163603, 1.18136264918527, -1.15321089796327], a = 0.2, v = 0.2, t = 0.2)
movej(p[0.5359, 0.0125, 0.1626, -1.263, 1.183, -1.155], a = 0.2, v = 0.2, t = 0.2)
movej(p[0.536008715768837, 0.0124068925151484, 0.162697528856605, -1.2611951163603, 1.18136264918527, -1.15321089796327], a = 0.2, v = 0.2, t = 0.2)
movej(p[0.5359, 0.0125, 0.1626, -1.263, 1.183, -1.155], a = 0.2, v = 0.2, t = 0.2)
movej(p[0.536008715768837, 0.0124068925151484, 0.162697528856605, -1.2611951163603, 1.18136264918527, -1.15321089796327], a = 0.2, v = 0.2, t = 0.2)
movej(p[0.5359, 0.0125, 0.1626, -1.263, 1.183, -1.155], a = 0.2, v = 0.2, t = 0.2)
movej(p[0.536763121254109, 0.0124290048885648, 0.162445870570764, -1.25760922922186, 1.21736056989459, -1.14551111910208], a = 0.2, v = 0.2, t = 0.2)
movej(p[0.538233407257851, 0.0123499633154978, 0.161937850307851, -1.25804822909848, 1.23284186046703, -1.13907973840878], a = 0.2, v = 0.2, t = 0.2)
movej(p[0.539538126154486, 0.0122659510422455, 0.161455873064814, -1.25558505246415, 1.23188178500757, -1.13313253635121], a = 0.2, v = 0.2, t = 0.2)
movej(p[0.540548705733972, 0.0122719177706296, 0.16103640348108, -1.24287253386233, 1.20017810079815, -1.14045251056861], a = 0.2, v = 0.2, t = 0.2)
movej(p[0.541540629329383, 0.0122869005470559, 0.160750572921347, -1.2525867001864, 1.17605012359933, -1.17071272562036], a = 0.2, v = 0.2, t = 0.2)
movej(p[0.54257239856845, 0.0123027715690587, 0.160692980990688, -1.25680965319715, 1.17833381266389, -1.18229996062244], a = 0.2, v = 0.2, t = 0.2)
movej(p[0.543039562456861, 0.0123957638340479, 0.160363429240401, -1.25964321940223, 1.1839783352069, -1.18316128915806], a = 0.2, v = 0.2, t = 0.2)
movej(p[0.542248198487629, 0.0124600129976034, 0.159896755260857, -1.22226618507698, 1.17456347757346, -1.17236340661775], a = 0.2, v = 0.2, t = 0.2)
movej(p[0.539893652720791, 0.0125933498209392, 0.159708615144425, -1.21583359075212, 1.16546676083222, -1.13914412921493], a = 0.2, v = 0.2, t = 0.2)
movej(p[0.536868505286122, 0.0125404178333647, 0.159748131192379, -1.21570368801217, 1.15619194814716, -1.11261198133375], a = 0.2, v = 0.2, t = 0.2)
movej(p[0.53378873185094, 0.0126717480099238, 0.160226058145457, -1.25946369199971, 1.14681754289997, -1.09608497513273], a = 0.2, v = 0.2, t = 0.2)
movej(p[0.530941624126165, 0.0125734035440484, 0.160959727152609, -1.26964210861984, 1.1520752946359, -1.07921020433295], a = 0.2, v = 0.2, t = 0.2)
movej(p[0.528850582028046, 0.0126363737004761, 0.161774268048694, -1.27890320395109, 1.14298241837856, -1.08852819435564], a = 0.2, v = 0.2, t = 0.2)
movej(p[0.52813643732338, 0.012495207275028, 0.162558765503835, -1.26599385035454, 1.18184739061896, -1.06303040528788], a = 0.2, v = 0.2, t = 0.2)
movej(p[0.529326056114014, 0.0124775127878913, 0.16277924475591, -1.26738816620881, 1.21954481454915, -1.05723996991866], a = 0.2, v = 0.2, t = 0.2)
movej(p[0.531567890482196, 0.0124086551900282, 0.162886527827523, -1.27190059618429, 1.26530748709221, -1.03613388107437], a = 0.2, v = 0.2, t = 0.2)
movej(p[0.534057779468402, 0.0122585805955933, 0.162371600602593, -1.25199627990458, 1.25917425538665, -1.06984491313093], a = 0.2, v = 0.2, t = 0.2)
movej(p[0.536134532559732, 0.012274064527841, 0.162132469951077, -1.24307706281163, 1.24998701251423, -1.09103642960352], a = 0.2, v = 0.2, t = 0.2)
movej(p[0.537851103765984, 0.0122152644431315, 0.161765972406741, -1.24024510772103, 1.24001022188051, -1.1119498363657], a = 0.2, v = 0.2, t = 0.2)
movej(p[0.539263787659095, 0.0123567050081109, 0.161695369299704, -1.24452501184878, 1.2159980052099, -1.12835496670499], a = 0.2, v = 0.2, t = 0.2)
movej(p[0.540447773682103, 0.0123356645073189, 0.161241585871569, -1.23790711494454, 1.19712936928636, -1.15124110841], a = 0.2, v = 0.2, t = 0.2)
movej(p[0.541492707677982, 0.0123705940044934, 0.160860236121233, -1.21920029965221, 1.20774070629728, -1.16081516813667], a = 0.2, v = 0.2, t = 0.2)
movej(p[0.542161781157874, 0.012280598488056, 0.160382417600844, -1.2210739867685, 1.22621513820764, -1.14177926718818], a = 0.2, v = 0.2, t = 0.2)
movej(p[0.54210735019669, 0.0123603635495501, 0.159946754009263, -1.20462436912628, 1.20609296165945, -1.14631776201847], a = 0.2, v = 0.2, t = 0.2)
movej(p[0.540721420449136, 0.0124156009205467, 0.159395967594587, -1.18166828744587, 1.16232950161816, -1.14813867552763], a = 0.2, v = 0.2, t = 0.2)
movej(p[0.538457222420814, 0.0124253213859037, 0.159146729335096, -1.19915692871202, 1.12097977288168, -1.1726028814444], a = 0.2, v = 0.2, t = 0.2)
movej(p[0.53577951623945, 0.0124621375393865, 0.159250267365081, -1.2211842202069, 1.13468963982509, -1.14376162228431], a = 0.2, v = 0.2, t = 0.2)
movej(p[0.533227287817432, 0.0124822777793856, 0.160052988579737, -1.24699653017779, 1.13208189183964, -1.12929840373448], a = 0.2, v = 0.2, t = 0.2)
movej(p[0.53121977864219, 0.0125597272295725, 0.160912324266232, -1.23472776726974, 1.15524056051221, -1.0992684611696], a = 0.2, v = 0.2, t = 0.2)
movej(p[0.530210284918546, 0.0125128886977362, 0.161808816560431, -1.24795172110978, 1.19432089655215, -1.0829488165204], a = 0.2, v = 0.2, t = 0.2)
movej(p[0.530718547490692, 0.0125145826530354, 0.162125948993764, -1.27365542339104, 1.21644814432352, -1.08900558900991], a = 0.2, v = 0.2, t = 0.2)
movej(p[0.532177085300556, 0.0125062526805109, 0.162230044931985, -1.28248892884978, 1.23294411197264, -1.08479231803707], a = 0.2, v = 0.2, t = 0.2)
movej(p[0.534356588456652, 0.0125462018073699, 0.161618156300751, -1.28572302781716, 1.21653948503212, -1.10974328974018], a = 0.2, v = 0.2, t = 0.2)
movej(p[0.536315756796189, 0.0124580084069494, 0.161254819138385, -1.25952898255146, 1.21897901917749, -1.11971609303025], a = 0.2, v = 0.2, t = 0.2)
movej(p[0.537928306762568, 0.0124150063061434, 0.160825504899605, -1.24388507405108, 1.23472427844223, -1.12439430046446], a = 0.2, v = 0.2, t = 0.2)
movej(p[0.539209468453442, 0.0123601470517634, 0.160889513797003, -1.20800155932577, 1.24120500017326, -1.12407826375404], a = 0.2, v = 0.2, t = 0.2)
movej(p[0.540312740178157, 0.0123528908237552, 0.160646522709515, -1.18833005529622, 1.24042311880415, -1.12344355723644], a = 0.2, v = 0.2, t = 0.2)
movej(p[0.541288523368872, 0.0123120236355568, 0.16028020998786, -1.217609731619, 1.24275900189475, -1.14664244333407], a = 0.2, v = 0.2, t = 0.2)
movej(p[0.542169107043472, 0.0122608152702423, 0.160185753704582, -1.20898573049604, 1.25234115362846, -1.15766162973944], a = 0.2, v = 0.2, t = 0.2)
movej(p[0.542860999263018, 0.0121508217123595, 0.159897194819506, -1.21771086896278, 1.26016881925005, -1.16048022419805], a = 0.2, v = 0.2, t = 0.2)
movej(p[0.54279056664078, 0.012209294146348, 0.159966767643138, -1.20586550294925, 1.23487766184232, -1.16887086977647], a = 0.2, v = 0.2, t = 0.2)
movej(p[0.541491019868835, 0.0123701398972853, 0.159495780575021, -1.21383194798632, 1.19171018065847, -1.16560215516831], a = 0.2, v = 0.2, t = 0.2)
movej(p[0.539066077923401, 0.012533489505445, 0.159463046664663, -1.22610685955432, 1.15991076618922, -1.14927990495319], a = 0.2, v = 0.2, t = 0.2)
movej(p[0.536238371246443, 0.0125445356463452, 0.159571219611575, -1.2302959744019, 1.17331061151067, -1.10117109158037], a = 0.2, v = 0.2, t = 0.2)
movej(p[0.533431200868631, 0.0123974966501255, 0.160170404886595, -1.21749652805365, 1.18086258765842, -1.0615117710823], a = 0.2, v = 0.2, t = 0.2)
movej(p[0.531100545403196, 0.0124641229473577, 0.161068114660163, -1.22395671777325, 1.18292912681074, -1.04650613020065], a = 0.2, v = 0.2, t = 0.2)
movej(p[0.530039871169065, 0.0125082386277101, 0.161570330277102, -1.25127799085612, 1.19024416666465, -1.05934475444507], a = 0.2, v = 0.2, t = 0.2)
movej(p[0.530585730072562, 0.0125013623654149, 0.161958761962459, -1.28436276025114, 1.21277478527068, -1.06860029334072], a = 0.2, v = 0.2, t = 0.2)
movej(p[0.532441622493263, 0.0123497178176735, 0.161768117731876, -1.30231124795103, 1.23286262998863, -1.07916154346256], a = 0.2, v = 0.2, t = 0.2)
movej(p[0.534717417584853, 0.0122778226339128, 0.161647543234848, -1.28776535460343, 1.22194935760929, -1.1008374313197], a = 0.2, v = 0.2, t = 0.2)
movej(p[0.536864402684461, 0.0123360246104215, 0.161316758098402, -1.28475132679558, 1.22157201748881, -1.11875737498464], a = 0.2, v = 0.2, t = 0.2)
movej(p[0.53846911795094, 0.0122608338756, 0.161053967422336, -1.26544250077027, 1.21437821929418, -1.14283453705816], a = 0.2, v = 0.2, t = 0.2)
movej(p[0.539651920296337, 0.0122472082366972, 0.160881342458649, -1.24473143809959, 1.22459082291373, -1.13493345005365], a = 0.2, v = 0.2, t = 0.2)
movej(p[0.540574481849103, 0.0121338325441883, 0.160754281458318, -1.24199917273616, 1.22734685259309, -1.13986496428278], a = 0.2, v = 0.2, t = 0.2)
movej(p[0.541313860225907, 0.0121063907458874, 0.160474178456333, -1.23708952233651, 1.23556201976406, -1.14168131496167], a = 0.2, v = 0.2, t = 0.2)
movej(p[0.541899701728533, 0.0121320707561806, 0.160218077758809, -1.21926081625707, 1.23697909491036, -1.13984554640973], a = 0.2, v = 0.2, t = 0.2)
movej(p[0.542175139112572, 0.0121592873947961, 0.1597539862501, -1.21721308767583, 1.21857493451096, -1.1441125797878], a = 0.2, v = 0.2, t = 0.2)
movej(p[0.54144843152898, 0.012195991605142, 0.159431989348728, -1.20751230577932, 1.19804309806428, -1.14486181398937], a = 0.2, v = 0.2, t = 0.2)
movej(p[0.539824669238077, 0.0122196903465368, 0.159139840902391, -1.22831172630955, 1.16227453295873, -1.14973076995228], a = 0.2, v = 0.2, t = 0.2)
movej(p[0.537474285248685, 0.012228255273982, 0.159235466562798, -1.20572342156162, 1.17136471530415, -1.12084059250384], a = 0.2, v = 0.2, t = 0.2)
movej(p[0.535070288236262, 0.0124687353078566, 0.159603471231858, -1.20289551256429, 1.16348421446426, -1.11266030275112], a = 0.2, v = 0.2, t = 0.2)
movej(p[0.53295117851713, 0.012606326526876, 0.160368590575029, -1.21581309578147, 1.19615780410893, -1.08878352284821], a = 0.2, v = 0.2, t = 0.2)
movej(p[0.531554916928761, 0.0126443931868321, 0.160989944553245, -1.24874324107992, 1.19070027935948, -1.09121588593852], a = 0.2, v = 0.2, t = 0.2)
movej(p[0.531269687058837, 0.0125729615175617, 0.161796517748887, -1.28167628574829, 1.20742262264439, -1.08085688562755], a = 0.2, v = 0.2, t = 0.2)
movej(p[0.53220772473029, 0.0124637711937369, 0.161890336924532, -1.29356381081103, 1.20645247590301, -1.09683282101864], a = 0.2, v = 0.2, t = 0.2)
movej(p[0.533979218161534, 0.0124330829159336, 0.161685112753707, -1.29348673809856, 1.23144840833186, -1.10341352950824], a = 0.2, v = 0.2, t = 0.2)
movej(p[0.535840529493338, 0.012328213991004, 0.161204589594174, -1.27894282653534, 1.24231549276074, -1.10436616165335], a = 0.2, v = 0.2, t = 0.2)
movej(p[0.537463609565035, 0.0122488538020945, 0.160762414560379, -1.24451949730741, 1.23398764848176, -1.12084475113028], a = 0.2, v = 0.2, t = 0.2)
movej(p[0.538771014137007, 0.0121449509896808, 0.160698242550435, -1.25028973059075, 1.2344569676164, -1.13417370088643], a = 0.2, v = 0.2, t = 0.2)
movej(p[0.539818465623023, 0.0121383535745983, 0.160296897105516, -1.22794884494585, 1.24094423766996, -1.13673968828517], a = 0.2, v = 0.2, t = 0.2)
movej(p[0.540747186604187, 0.0121898079084465, 0.160087084003986, -1.25415989314636, 1.25764679768966, -1.13756169491485], a = 0.2, v = 0.2, t = 0.2)
movej(p[0.541389451536565, 0.0122054989945141, 0.159531480562622, -1.24487378718268, 1.24364891369312, -1.13385321421569], a = 0.2, v = 0.2, t = 0.2)
movej(p[0.54173445013118, 0.0121697000598323, 0.159350129761992, -1.23569157386455, 1.19178701646574, -1.15595353434916], a = 0.2, v = 0.2, t = 0.2)
movej(p[0.540977903896296, 0.0120181385468902, 0.159051807740216, -1.21859364289204, 1.12794627304198, -1.17300901091225], a = 0.2, v = 0.2, t = 0.2)
movej(p[0.539350285452175, 0.0121567258104961, 0.158884434733956, -1.2247374841994, 1.12954965426598, -1.16394450053053], a = 0.2, v = 0.2, t = 0.2)
movej(p[0.537075844944957, 0.0122518855611136, 0.158894520297244, -1.25333586852993, 1.13193623498529, -1.13477356020904], a = 0.2, v = 0.2, t = 0.2)
movej(p[0.534588331177837, 0.012456757850848, 0.159170254231121, -1.2655231052498, 1.17448600026047, -1.07963647976276], a = 0.2, v = 0.2, t = 0.2)
movej(p[0.532255471211001, 0.0123987449009857, 0.159904614578677, -1.25793213981889, 1.1642618861273, -1.06654827316517], a = 0.2, v = 0.2, t = 0.2)
movej(p[0.529943656136026, 0.012457488776948, 0.160911980513705, -1.26479613379213, 1.17272647160526, -1.06188705255403], a = 0.2, v = 0.2, t = 0.2)
movej(p[0.528632803023761, 0.0124604575704219, 0.161921259451774, -1.27234438820894, 1.18838981137601, -1.06110259254172], a = 0.2, v = 0.2, t = 0.2)
movej(p[0.52876957730833, 0.0124680218946549, 0.16271120794888, -1.27132766296667, 1.21458596646539, -1.04490023762933], a = 0.2, v = 0.2, t = 0.2)
movej(p[0.53046988684846, 0.0123548539107472, 0.162567596655245, -1.26870191331798, 1.24407327123137, -1.05494786014757], a = 0.2, v = 0.2, t = 0.2)
movej(p[0.53295864846115, 0.0123473007016094, 0.162115737646382, -1.29131708562973, 1.24341502182207, -1.0861720847165], a = 0.2, v = 0.2, t = 0.2)
movej(p[0.53538777145061, 0.0123430471734226, 0.161755858427739, -1.30006769008978, 1.2408614959966, -1.10949732081357], a = 0.2, v = 0.2, t = 0.2)
movej(p[0.537411423898562, 0.0123427019139472, 0.161363850571702, -1.28971392544074, 1.22953145254801, -1.14069201867113], a = 0.2, v = 0.2, t = 0.2)
movej(p[0.539003705546349, 0.0122881143782096, 0.161238640125007, -1.25340469973935, 1.22381532175308, -1.14982412591238], a = 0.2, v = 0.2, t = 0.2)
movej(p[0.540086863016286, 0.0122860892670461, 0.160786303743157, -1.23414618933167, 1.22477035256488, -1.15659059670093], a = 0.2, v = 0.2, t = 0.2)
movej(p[0.541106834672329, 0.0123273648713435, 0.160543596754674, -1.22592698349509, 1.23177059943743, -1.14697534568647], a = 0.2, v = 0.2, t = 0.2)
movej(p[0.541924668934305, 0.0122180203409416, 0.160248173679053, -1.20738844190037, 1.232882502897, -1.14761950386547], a = 0.2, v = 0.2, t = 0.2)
movej(p[0.54225932096698, 0.0122010146996624, 0.160104510500783, -1.18116527356568, 1.21071367643556, -1.15035634639924], a = 0.2, v = 0.2, t = 0.2)
movej(p[0.541670738230669, 0.0121784536949813, 0.159641248905479, -1.17483506502946, 1.15408405919856, -1.17333303302215], a = 0.2, v = 0.2, t = 0.2)
movej(p[0.539855465655641, 0.012263792314669, 0.159520212091063, -1.1676704623503, 1.14884069493574, -1.14498444355114], a = 0.2, v = 0.2, t = 0.2)
movej(p[0.537377189704314, 0.0123922462078348, 0.159245459504173, -1.19802052787824, 1.12157748084005, -1.15173705665468], a = 0.2, v = 0.2, t = 0.2)
movej(p[0.534704410410226, 0.0125411859309707, 0.159830195764695, -1.20322502353168, 1.14412616845785, -1.11428913252544], a = 0.2, v = 0.2, t = 0.2)
movej(p[0.532302684469048, 0.0126406106610832, 0.160308256006626, -1.22483224428036, 1.12444451355179, -1.11135998118106], a = 0.2, v = 0.2, t = 0.2)
movej(p[0.530386862355062, 0.0126311697533967, 0.161336003674307, -1.25802322444947, 1.14722978181061, -1.07900865921111], a = 0.2, v = 0.2, t = 0.2)
movej(p[0.529237046821691, 0.0126123084090325, 0.161976603283194, -1.28184476350013, 1.16494735515644, -1.0735732619882], a = 0.2, v = 0.2, t = 0.2)
movej(p[0.529689574625229, 0.0125737548731138, 0.162537560020112, -1.30881627180345, 1.20878825488654, -1.07792926264607], a = 0.2, v = 0.2, t = 0.2)
movej(p[0.531400892038509, 0.0125564061536932, 0.162409285329162, -1.28716886384149, 1.24588235431395, -1.0773299317491], a = 0.2, v = 0.2, t = 0.2)
movej(p[0.533799056898323, 0.0123528798416305, 0.16211765923469, -1.25571726475196, 1.25990244195622, -1.07171450882228], a = 0.2, v = 0.2, t = 0.2)
movej(p[0.536085879590194, 0.0122710234474579, 0.161748872689115, -1.23278367212671, 1.26701429633832, -1.07969261872099], a = 0.2, v = 0.2, t = 0.2)
movej(p[0.537906817236184, 0.0122389168041055, 0.161320763445849, -1.23395438867151, 1.25306731506262, -1.12272270524027], a = 0.2, v = 0.2, t = 0.2)
movej(p[0.539284942468129, 0.0123492148662945, 0.161006750034267, -1.24832391824545, 1.23391401264533, -1.16200380409377], a = 0.2, v = 0.2, t = 0.2)
movej(p[0.540375141378054, 0.012256866768523, 0.160567637823965, -1.23393994688612, 1.23033965957452, -1.15843953528376], a = 0.2, v = 0.2, t = 0.2)
movej(p[0.541367198282576, 0.0120457287683169, 0.16045263845197, -1.20848177151124, 1.24241951544699, -1.14209013319248], a = 0.2, v = 0.2, t = 0.2)
movej(p[0.542297274053372, 0.0119243102113534, 0.160064098277595, -1.18681027605541, 1.24001555309745, -1.14181420479061], a = 0.2, v = 0.2, t = 0.2)
movej(p[0.542883714829678, 0.0120246227206693, 0.159739635184994, -1.16466638102674, 1.22012366178775, -1.14842646602017], a = 0.2, v = 0.2, t = 0.2)
movej(p[0.542359672571908, 0.0122276201399377, 0.159272042664265, -1.18064291648503, 1.17724584219216, -1.16167339233277], a = 0.2, v = 0.2, t = 0.2)
movej(p[0.540636173536145, 0.012386956040835, 0.158981655662473, -1.19731499808916, 1.15920015926921, -1.15288114361092], a = 0.2, v = 0.2, t = 0.2)
movej(p[0.537966808361335, 0.0125531867440019, 0.159013527357392, -1.23970510669195, 1.14139349591525, -1.14993558037196], a = 0.2, v = 0.2, t = 0.2)
movej(p[0.535005730740372, 0.0126930553693597, 0.159660624516765, -1.25122182156181, 1.13545754632985, -1.13495988910974], a = 0.2, v = 0.2, t = 0.2)
movej(p[0.532141330074713, 0.0127608919219483, 0.16066707137602, -1.27300162118262, 1.1573446714104, -1.10644478336461], a = 0.2, v = 0.2, t = 0.2)
movej(p[0.529733697295123, 0.0127320484930867, 0.161777349024745, -1.27848785185199, 1.18471377375626, -1.08122816896411], a = 0.2, v = 0.2, t = 0.2)
movej(p[0.528574903395605, 0.0126354459073049, 0.1624030586664, -1.28848799801084, 1.20796298667943, -1.06295278798417], a = 0.2, v = 0.2, t = 0.2)
movej(p[0.528876308095585, 0.0125315731691865, 0.162834226716384, -1.29656220773017, 1.22335584531854, -1.06811022849689], a = 0.2, v = 0.2, t = 0.2)
movej(p[0.530661408248217, 0.0124898139720003, 0.162758597926908, -1.31448911155497, 1.2409609268515, -1.07440896839853], a = 0.2, v = 0.2, t = 0.2)
movej(p[0.533194306960371, 0.01246546406987, 0.16257638591663, -1.31378967126532, 1.26563091439215, -1.08687136865464], a = 0.2, v = 0.2, t = 0.2)
movej(p[0.535694581451584, 0.0124008233083692, 0.162017398512944, -1.28748846732244, 1.26227502869816, -1.10500512635252], a = 0.2, v = 0.2, t = 0.2)
movej(p[0.537696747078494, 0.0121796447852961, 0.161866184277808, -1.28421060219834, 1.22911733211128, -1.1338626103951], a = 0.2, v = 0.2, t = 0.2)
movej(p[0.539288980084852, 0.012154711309377, 0.161466678633615, -1.24856086365653, 1.21108721307448, -1.15550999173621], a = 0.2, v = 0.2, t = 0.2)
movej(p[0.540450520739784, 0.0122129890656328, 0.161491833342248, -1.24630218282933, 1.21572503574148, -1.16377962291488], a = 0.2, v = 0.2, t = 0.2)
movej(p[0.541402289754164, 0.012274136302675, 0.160924154845503, -1.19447800057993, 1.22720660325202, -1.15769018084253], a = 0.2, v = 0.2, t = 0.2)
movej(p[0.542228066410885, 0.0122465249591754, 0.160569011064725, -1.1855097017444, 1.237974994976, -1.14475647719066], a = 0.2, v = 0.2, t = 0.2)
movej(p[0.542999635552878, 0.0122021562312478, 0.160220859816694, -1.18845960336289, 1.24205439954981, -1.1457500627187], a = 0.2, v = 0.2, t = 0.2)
movej(p[0.543767766808963, 0.012263811795537, 0.160024144852295, -1.1813228033839, 1.2238849193483, -1.15877559014439], a = 0.2, v = 0.2, t = 0.2)
movej(p[0.543732975638159, 0.0121976065387735, 0.160109249345778, -1.17601800640329, 1.19301695177414, -1.16565768945371], a = 0.2, v = 0.2, t = 0.2)
movej(p[0.542750919023743, 0.0122647351147622, 0.159863990782491, -1.17573075164027, 1.1640928297001, -1.16334980462906], a = 0.2, v = 0.2, t = 0.2)
movej(p[0.54061994053242, 0.0122733608940067, 0.159395494463345, -1.22246030155562, 1.15322281203384, -1.13949309748808], a = 0.2, v = 0.2, t = 0.2)
movej(p[0.538223009966413, 0.0124155517021199, 0.159103377615608, -1.25658314354506, 1.13532089808149, -1.14676349155998], a = 0.2, v = 0.2, t = 0.2)
movej(p[0.535874878648763, 0.0124846123160086, 0.159050454628615, -1.26043572710331, 1.15023309276526, -1.13328622256382], a = 0.2, v = 0.2, t = 0.2)
movej(p[0.533979554133941, 0.0125611974010848, 0.159979069908499, -1.22857292284284, 1.16974727793487, -1.12505105418163], a = 0.2, v = 0.2, t = 0.2)
movej(p[0.533102301123528, 0.0125792391689363, 0.160557473686438, -1.23082632739117, 1.21481097544181, -1.09573894546332], a = 0.2, v = 0.2, t = 0.2)
movej(p[0.533693805843181, 0.0125298701093201, 0.160969223419384, -1.24329747196635, 1.22865959186461, -1.09296678568377], a = 0.2, v = 0.2, t = 0.2)
movej(p[0.535534841583927, 0.0124567260654656, 0.16088443647268, -1.26187036017841, 1.22355109058138, -1.13083209423421], a = 0.2, v = 0.2, t = 0.2)
movej(p[0.537780444779067, 0.0124876705789982, 0.160680732535925, -1.26563702253422, 1.22784073525622, -1.15061666772514], a = 0.2, v = 0.2, t = 0.2)
movej(p[0.539692078614874, 0.0124642193266716, 0.16067828988127, -1.23947946938948, 1.23302122096492, -1.15004408133289], a = 0.2, v = 0.2, t = 0.2)
movej(p[0.541308045051515, 0.0124933643321443, 0.160453470108106, -1.23918940261466, 1.26054121247382, -1.13520329685918], a = 0.2, v = 0.2, t = 0.2)
movej(p[0.542696427144429, 0.012373539139208, 0.1602544966998, -1.25513973612822, 1.24427314107461, -1.15495532371813], a = 0.2, v = 0.2, t = 0.2)
movej(p[0.543879215598464, 0.0122945050196737, 0.159784190517242, -1.25828336861891, 1.24061262401167, -1.16552225098037], a = 0.2, v = 0.2, t = 0.2)
movej(p[0.544823759570203, 0.0122599908666512, 0.159612227565439, -1.25220137962656, 1.24406090047156, -1.15768862153331], a = 0.2, v = 0.2, t = 0.2)
movej(p[0.545460457901144, 0.012145070805685, 0.159232964774009, -1.20735849984842, 1.25504480674454, -1.15240994238959], a = 0.2, v = 0.2, t = 0.2)
movej(p[0.54589961470165, 0.0121855704714501, 0.159069962276659, -1.18516031251012, 1.26927529951041, -1.15142806006739], a = 0.2, v = 0.2, t = 0.2)
movej(p[0.546000108499886, 0.0122917188091182, 0.158956262022365, -1.17138436824738, 1.24106212331076, -1.17340882984308], a = 0.2, v = 0.2, t = 0.2)
movej(p[0.545341222907717, 0.0122644141892889, 0.158713072349336, -1.1882691418142, 1.18922414663679, -1.19959006103083], a = 0.2, v = 0.2, t = 0.2)
movej(p[0.543677083818972, 0.0123065676346586, 0.15849660269129, -1.19669147844288, 1.14214774528055, -1.2157948984229], a = 0.2, v = 0.2, t = 0.2)
movej(p[0.541244220448002, 0.012217061764117, 0.158167109905735, -1.20061554477237, 1.13083140639602, -1.20313463685543], a = 0.2, v = 0.2, t = 0.2)
movej(p[0.538511565157758, 0.0124394183134576, 0.158523176623872, -1.22005477615095, 1.15470683546469, -1.16348127467243], a = 0.2, v = 0.2, t = 0.2)
movej(p[0.536071899200308, 0.0124463781804574, 0.158980466676616, -1.24467927543005, 1.15160083995562, -1.13202995283025], a = 0.2, v = 0.2, t = 0.2)
movej(p[0.534312144885432, 0.0125019603414888, 0.159995328964226, -1.24110204359739, 1.18115503467959, -1.0896970250272], a = 0.2, v = 0.2, t = 0.2)
movej(p[0.533884756815643, 0.0124431052569648, 0.160438541108946, -1.22231018917658, 1.20368414637911, -1.0756343590728], a = 0.2, v = 0.2, t = 0.2)
movej(p[0.534807878189311, 0.0125446230818551, 0.160610615508861, -1.23969685510506, 1.27409054055165, -1.06156778521654], a = 0.2, v = 0.2, t = 0.2)
movej(p[0.536789780478267, 0.0125254268184561, 0.160199521312712, -1.26531018029222, 1.27312896714948, -1.10487734514837], a = 0.2, v = 0.2, t = 0.2)
movej(p[0.53917314984802, 0.012528908197438, 0.16014187180045, -1.28471901254444, 1.28677208275743, -1.13590417269771], a = 0.2, v = 0.2, t = 0.2)
movej(p[0.541270580119837, 0.0123479773131263, 0.160081594623441, -1.25287134477297, 1.25487770759909, -1.16074902145859], a = 0.2, v = 0.2, t = 0.2)
movej(p[0.542806643570617, 0.0123019889219295, 0.159940249969656, -1.24204579011091, 1.24943169027265, -1.1694146655975], a = 0.2, v = 0.2, t = 0.2)
movej(p[0.543935776864739, 0.0123937007238814, 0.159746947806222, -1.24224832150638, 1.25619773067967, -1.17259786669058], a = 0.2, v = 0.2, t = 0.2)
movej(p[0.544639545614024, 0.0125098397814025, 0.159501304147954, -1.24645650330812, 1.26159515311315, -1.18265691732394], a = 0.2, v = 0.2, t = 0.2)
movej(p[0.545160056677262, 0.0124817738162701, 0.159431653871226, -1.22922159897813, 1.23013348602422, -1.19514874000033], a = 0.2, v = 0.2, t = 0.2)
movej(p[0.545297573026769, 0.0123213040815062, 0.158878821294903, -1.20520853116045, 1.1576778003539, -1.21364307420286], a = 0.2, v = 0.2, t = 0.2)
movej(p[0.544534243330405, 0.0122043269481108, 0.158543541327544, -1.17378038127941, 1.09013957478051, -1.22987506080656], a = 0.2, v = 0.2, t = 0.2)
movej(p[0.542826611625595, 0.0122583100333797, 0.158286834975205, -1.18148098358746, 1.07556037215184, -1.23706693010913], a = 0.2, v = 0.2, t = 0.2)
movej(p[0.540140035910639, 0.0123338894949741, 0.15818507184192, -1.17797687816253, 1.11126934068237, -1.20129466851988], a = 0.2, v = 0.2, t = 0.2)
movej(p[0.537172174327317, 0.0124574255433076, 0.158659301584702, -1.20170523983937, 1.14070208393174, -1.16011051875778], a = 0.2, v = 0.2, t = 0.2)
movej(p[0.534295829025361, 0.0123931686514778, 0.159293640235989, -1.21497483292067, 1.16188114583241, -1.1029756351966], a = 0.2, v = 0.2, t = 0.2)
movej(p[0.531818055923226, 0.0124824037078912, 0.160384351571776, -1.25395319803423, 1.15610539956821, -1.08523206489574], a = 0.2, v = 0.2, t = 0.2)
movej(p[0.530600361645795, 0.0125632527819687, 0.161265641751021, -1.27520561822036, 1.17971578363019, -1.06139836206968], a = 0.2, v = 0.2, t = 0.2)
movej(p[0.531109743778686, 0.0125648532571286, 0.161800869455153, -1.29179080367721, 1.200899683732, -1.07011982508518], a = 0.2, v = 0.2, t = 0.2)
movej(p[0.533176057561894, 0.0124982353309891, 0.161707742974795, -1.28957095906011, 1.23044431514884, -1.08411586558307], a = 0.2, v = 0.2, t = 0.2)
movej(p[0.535757162658878, 0.0123456715882491, 0.161229600883754, -1.30624247099858, 1.23104434605713, -1.11554603542397], a = 0.2, v = 0.2, t = 0.2)
movej(p[0.538174378208028, 0.0124317253080826, 0.160547421231794, -1.29394763452111, 1.24993860675368, -1.13375550746212], a = 0.2, v = 0.2, t = 0.2)
movej(p[0.540187049415975, 0.0124053612997394, 0.160403301995858, -1.28430447961925, 1.2534090175676, -1.14423818271727], a = 0.2, v = 0.2, t = 0.2)
movej(p[0.541798815246489, 0.0124236579838078, 0.160146364674051, -1.26479399955972, 1.258881086915, -1.15488614492773], a = 0.2, v = 0.2, t = 0.2)
movej(p[0.542951121697977, 0.012279232751863, 0.160211832970484, -1.24890815341094, 1.23873664414699, -1.16807761052551], a = 0.2, v = 0.2, t = 0.2)
movej(p[0.543856801739462, 0.0122653872260659, 0.159848270581381, -1.23562679108078, 1.20955531248007, -1.19413155799121], a = 0.2, v = 0.2, t = 0.2)
movej(p[0.544520199965201, 0.0122880631864705, 0.159847352427312, -1.20595245552559, 1.20216077523743, -1.1989307183564], a = 0.2, v = 0.2, t = 0.2)
movej(p[0.544304188105357, 0.0123467819022151, 0.159847619500653, -1.19768348819522, 1.19483630346602, -1.19054301804932], a = 0.2, v = 0.2, t = 0.2)
movej(p[0.542998329977674, 0.0122304733552144, 0.159761697997763, -1.19148060837436, 1.19133884014381, -1.15287045107462], a = 0.2, v = 0.2, t = 0.2)
movej(p[0.540506181201082, 0.0121837773783553, 0.159171115100976, -1.19858269054946, 1.15380027204471, -1.14308374322041], a = 0.2, v = 0.2, t = 0.2)
movej(p[0.537611194665583, 0.0121540316113037, 0.158739982531205, -1.20319119286065, 1.13950405021114, -1.13091126575062], a = 0.2, v = 0.2, t = 0.2)
movej(p[0.534550713242822, 0.0122953910831029, 0.1589951810092, -1.23550701742974, 1.15339806634984, -1.10580470746084], a = 0.2, v = 0.2, t = 0.2)
movej(p[0.53177240865513, 0.0124724529647341, 0.159940647909828, -1.24035962828553, 1.18505183381714, -1.05803930375355], a = 0.2, v = 0.2, t = 0.2)
movej(p[0.530040084493232, 0.0125091480431515, 0.161341315818265, -1.26744264292136, 1.21642926166355, -1.02050159756077], a = 0.2, v = 0.2, t = 0.2)
movej(p[0.529525831302149, 0.0124244368872766, 0.162157814556739, -1.264794125608, 1.25249370707584, -1.00577697029213], a = 0.2, v = 0.2, t = 0.2)
movej(p[0.530743316800701, 0.0123763265213497, 0.16238758955452, -1.29888912623346, 1.27811451555223, -1.03741582873203], a = 0.2, v = 0.2, t = 0.2)
movej(p[0.533031616942809, 0.0124509956120865, 0.16190981241587, -1.29728773576796, 1.30291149319229, -1.0653895664608], a = 0.2, v = 0.2, t = 0.2)
movej(p[0.535727344808563, 0.0125325195070594, 0.161612498946871, -1.29270308410651, 1.29367881236552, -1.11270505986173], a = 0.2, v = 0.2, t = 0.2)
movej(p[0.538093302133667, 0.0123441741199548, 0.161273202085788, -1.24702756511384, 1.25439353037372, -1.14019900029964], a = 0.2, v = 0.2, t = 0.2)
movej(p[0.539853999584258, 0.0122812256556371, 0.161241000844763, -1.20959666757216, 1.25513606496485, -1.1406052293982], a = 0.2, v = 0.2, t = 0.2)
movej(p[0.541204080046149, 0.0122109445073039, 0.16114634438429, -1.18287398879479, 1.25359929303254, -1.13915590465516], a = 0.2, v = 0.2, t = 0.2)
movej(p[0.542217894367108, 0.0123143410419324, 0.160770828733289, -1.17949071267491, 1.27813471438371, -1.1254721790874], a = 0.2, v = 0.2, t = 0.2)
movej(p[0.543052649603802, 0.0122424430770658, 0.160303179489668, -1.17789118289341, 1.27006127510857, -1.13350918745636], a = 0.2, v = 0.2, t = 0.2)
movej(p[0.543701340322015, 0.0122712983679221, 0.159638850296577, -1.18252156860949, 1.24169732853281, -1.15687103330781], a = 0.2, v = 0.2, t = 0.2)
movej(p[0.543456084532051, 0.0123591974251226, 0.159376448285662, -1.18492223338404, 1.2309069706126, -1.14885242968033], a = 0.2, v = 0.2, t = 0.2)
movej(p[0.542090664502297, 0.0124811617557308, 0.159226384805739, -1.18577363710451, 1.20429301532406, -1.13501877825306], a = 0.2, v = 0.2, t = 0.2)
movej(p[0.539407390227079, 0.0123701854259158, 0.159024767542907, -1.18793650368834, 1.17697146360476, -1.11392188538649], a = 0.2, v = 0.2, t = 0.2)
movej(p[0.536426235132187, 0.0122780673265909, 0.159301882281736, -1.19681814680159, 1.14364255454404, -1.11024378186508], a = 0.2, v = 0.2, t = 0.2)
movej(p[0.533282584243608, 0.0123236468082229, 0.159706822579179, -1.2143419125029, 1.12512789275548, -1.09563648893326], a = 0.2, v = 0.2, t = 0.2)
movej(p[0.530509099889077, 0.0125169892595221, 0.160839020445117, -1.2101301441074, 1.13577395909911, -1.07963804922959], a = 0.2, v = 0.2, t = 0.2)
movej(p[0.528701380749295, 0.0127252886564795, 0.161678544375979, -1.24519243819165, 1.16038547588845, -1.07715108427937], a = 0.2, v = 0.2, t = 0.2)
movej(p[0.528819015419652, 0.0126907410080434, 0.162178279668827, -1.28200295563511, 1.19740962881609, -1.07788913571663], a = 0.2, v = 0.2, t = 0.2)
movej(p[0.53063417994552, 0.0125988549640071, 0.162377489576822, -1.3052803545346, 1.23497479672643, -1.0866373065133], a = 0.2, v = 0.2, t = 0.2)
movej(p[0.533253947499874, 0.0124243606643057, 0.162352978172756, -1.28811773637129, 1.25758464599738, -1.08994008670747], a = 0.2, v = 0.2, t = 0.2)
movej(p[0.535849329485265, 0.0124112137762402, 0.162100871027188, -1.27240994233335, 1.26482677327326, -1.10031336445877], a = 0.2, v = 0.2, t = 0.2)
movej(p[0.538037264857678, 0.0123704850833256, 0.161619231808075, -1.24820643647809, 1.26205336323986, -1.10847857454307], a = 0.2, v = 0.2, t = 0.2)
movej(p[0.539768791991615, 0.0123527727756729, 0.161332522284166, -1.23339673515362, 1.26147993307553, -1.12239995934406], a = 0.2, v = 0.2, t = 0.2)
movej(p[0.541132287406477, 0.0123728387706714, 0.161255661360453, -1.19852654920219, 1.26961361284857, -1.11962023406112], a = 0.2, v = 0.2, t = 0.2)
movej(p[0.542164059743467, 0.0124104740830583, 0.16124954221148, -1.1879898799985, 1.25136897128072, -1.13382716831738], a = 0.2, v = 0.2, t = 0.2)
movej(p[0.543096409064369, 0.0123835818843349, 0.160842576113308, -1.17925362874756, 1.25770112433474, -1.12321485147416], a = 0.2, v = 0.2, t = 0.2)
movej(p[0.543522612010894, 0.0123514891274059, 0.160343000309924, -1.18200390700232, 1.19292477572861, -1.16959317523184], a = 0.2, v = 0.2, t = 0.2)
movej(p[0.542917450789311, 0.0122218378259495, 0.159686272226146, -1.1741845839591, 1.15193809073977, -1.18145967231901], a = 0.2, v = 0.2, t = 0.2)
movej(p[0.540757121328946, 0.0123007508419895, 0.159443844188411, -1.1814552518745, 1.09544489488354, -1.20021162845132], a = 0.2, v = 0.2, t = 0.2)
movej(p[0.53755375939654, 0.0123339436540372, 0.159509552480429, -1.1898705357042, 1.11970524958422, -1.16004442966824], a = 0.2, v = 0.2, t = 0.2)
movej(p[0.534486985264673, 0.0124624183229366, 0.160048648935716, -1.22901277549993, 1.14260458841317, -1.11517502586405], a = 0.2, v = 0.2, t = 0.2)
movej(p[0.531863464651393, 0.0126108377395544, 0.160746208832193, -1.23962964002747, 1.13864617359606, -1.090903117916], a = 0.2, v = 0.2, t = 0.2)
movej(p[0.530099461288575, 0.0126441835554767, 0.161503633141696, -1.26326508841336, 1.16472677407659, -1.06702784733126], a = 0.2, v = 0.2, t = 0.2)
movej(p[0.529608290911129, 0.0127145879694715, 0.162114940863315, -1.26206029751869, 1.17926677937904, -1.06834610860833], a = 0.2, v = 0.2, t = 0.2)
movej(p[0.53074349433019, 0.0125549285628837, 0.162323904676071, -1.28288147583862, 1.24217904372873, -1.06558714525823], a = 0.2, v = 0.2, t = 0.2)
movej(p[0.533080577406514, 0.0125306424015036, 0.162329738776235, -1.29623675214218, 1.25057235135087, -1.08477810041439], a = 0.2, v = 0.2, t = 0.2)
movej(p[0.535549324570122, 0.0124520495923863, 0.16192293071838, -1.28570100997023, 1.22600204386102, -1.13248215500114], a = 0.2, v = 0.2, t = 0.2)
movej(p[0.537774732616676, 0.0124225797656125, 0.16168703532282, -1.25989302451072, 1.19247427343041, -1.16052294595658], a = 0.2, v = 0.2, t = 0.2)
movej(p[0.539473420309737, 0.0123164171672425, 0.161557148933031, -1.24737450222693, 1.18122751159616, -1.1813314528812], a = 0.2, v = 0.2, t = 0.2)
movej(p[0.540668208113491, 0.0122733104908258, 0.161394183535331, -1.22353394641394, 1.19722980543476, -1.17470416384081], a = 0.2, v = 0.2, t = 0.2)
movej(p[0.541639748359331, 0.012260862670567, 0.161044105299953, -1.23692474382104, 1.22596137295903, -1.17080294408863], a = 0.2, v = 0.2, t = 0.2)
movej(p[0.542516215941279, 0.0121691710628014, 0.160590987899098, -1.24593560038303, 1.23542812744005, -1.16789704748524], a = 0.2, v = 0.2, t = 0.2)
movej(p[0.543069365414705, 0.0121236460247461, 0.16032112118485, -1.25579260777772, 1.23140228240394, -1.16290457667582], a = 0.2, v = 0.2, t = 0.2)
movej(p[0.542864736809607, 0.0120341410857531, 0.15992800447092, -1.24651225058063, 1.20366903976518, -1.15579277984135], a = 0.2, v = 0.2, t = 0.2)
movej(p[0.541410914737864, 0.0120380629173921, 0.159386447175197, -1.21712601423679, 1.16389235651206, -1.16349055241093], a = 0.2, v = 0.2, t = 0.2)
movej(p[0.538881785011236, 0.0120769192220842, 0.159280664078385, -1.20387339408687, 1.17430548881549, -1.14212898265976], a = 0.2, v = 0.2, t = 0.2)
movej(p[0.535990784528949, 0.0122172870800483, 0.159695419667216, -1.19337026960521, 1.17224566949288, -1.12206051505001], a = 0.2, v = 0.2, t = 0.2)
movej(p[0.533038178245353, 0.012422747384404, 0.160441862893393, -1.21229044138287, 1.1989565389125, -1.07905424780388], a = 0.2, v = 0.2, t = 0.2)
movej(p[0.530463993085966, 0.0125185833143547, 0.161338741665201, -1.23927942167595, 1.2011599062791, -1.05505028766001], a = 0.2, v = 0.2, t = 0.2)
movej(p[0.528499495207881, 0.0125719872686845, 0.162173153221905, -1.2814956964621, 1.20841354949917, -1.05412842477547], a = 0.2, v = 0.2, t = 0.2)
movej(p[0.528235902966381, 0.0125847395939433, 0.162736723554195, -1.29336400485638, 1.24120843055203, -1.04240575175604], a = 0.2, v = 0.2, t = 0.2)
movej(p[0.529658349954809, 0.0125332288453449, 0.162735062976727, -1.30384782098053, 1.2637890036758, -1.05471187179917], a = 0.2, v = 0.2, t = 0.2)
movej(p[0.532266092425271, 0.0124111082756214, 0.16218854814454, -1.2878546350281, 1.27600502974209, -1.0692697842214], a = 0.2, v = 0.2, t = 0.2)
movej(p[0.53510440815664, 0.0123078102251786, 0.161895060661948, -1.26350116506469, 1.25206270244099, -1.10251692869291], a = 0.2, v = 0.2, t = 0.2)
movej(p[0.537385247198443, 0.0121963980729938, 0.161590930414474, -1.24781665648532, 1.22008637219405, -1.13231250142162], a = 0.2, v = 0.2, t = 0.2)
movej(p[0.53913109667537, 0.0123008876601365, 0.161513285645844, -1.23224939208737, 1.23241991237867, -1.13426652708622], a = 0.2, v = 0.2, t = 0.2)
movej(p[0.540566748791038, 0.0122974239651824, 0.161340439166866, -1.22485194466645, 1.24734062695178, -1.12911145591949], a = 0.2, v = 0.2, t = 0.2)
movej(p[0.541793875371754, 0.012339452507534, 0.160939041681288, -1.23150442744139, 1.26007569531218, -1.13644312050999], a = 0.2, v = 0.2, t = 0.2)
movej(p[0.542933457303146, 0.0121670473217254, 0.16072964992011, -1.23483862054767, 1.24707598871235, -1.14902602026704], a = 0.2, v = 0.2, t = 0.2)
movej(p[0.543514847944308, 0.0121976550556215, 0.160465240776744, -1.24299367198492, 1.2186694705456, -1.17453123384526], a = 0.2, v = 0.2, t = 0.2)
movej(p[0.543061689589307, 0.0122567495525868, 0.160091624163996, -1.20968920564498, 1.21139369426598, -1.16718099932323], a = 0.2, v = 0.2, t = 0.2)
movej(p[0.541065973776098, 0.012340652334664, 0.159456107188481, -1.19741447458923, 1.18206535989368, -1.15790635605579], a = 0.2, v = 0.2, t = 0.2)
movej(p[0.538109920665806, 0.012297259507376, 0.15895180915698, -1.19462879952018, 1.16908194178988, -1.12876424809252], a = 0.2, v = 0.2, t = 0.2)
movej(p[0.53473631151235, 0.0123085992036178, 0.159484219002408, -1.19353597121456, 1.14948323041285, -1.096776011085], a = 0.2, v = 0.2, t = 0.2)
movej(p[0.531504191386821, 0.0124253464617841, 0.160432179136568, -1.20935293819852, 1.15558926233351, -1.06091641537921], a = 0.2, v = 0.2, t = 0.2)
movej(p[0.528692818498424, 0.0125749186705448, 0.161515457059519, -1.22724923670138, 1.1818161032297, -1.02186164358318], a = 0.2, v = 0.2, t = 0.2)
movej(p[0.527464286006037, 0.012669800198381, 0.161975987782735, -1.28101264745745, 1.21455861376381, -1.00973790206614], a = 0.2, v = 0.2, t = 0.2)
movej(p[0.528283819910934, 0.0125675773292025, 0.162307305387824, -1.29506957896755, 1.24622762898262, -1.01717784177681], a = 0.2, v = 0.2, t = 0.2)
movej(p[0.530567383858317, 0.0125012517063416, 0.162400582169305, -1.30235248016711, 1.24617180054887, -1.05609893265844], a = 0.2, v = 0.2, t = 0.2)
movej(p[0.533378661605794, 0.0124402380772712, 0.162645170833155, -1.28024021904782, 1.24640935001893, -1.08793051041823], a = 0.2, v = 0.2, t = 0.2)
movej(p[0.535827444387841, 0.012411933866478, 0.162467244654719, -1.26727861951426, 1.24145155867138, -1.11099996436051], a = 0.2, v = 0.2, t = 0.2)
movej(p[0.537915973227278, 0.012331092662503, 0.161952923648216, -1.26120917838714, 1.25240894922926, -1.12728078447433], a = 0.2, v = 0.2, t = 0.2)
movej(p[0.539530696375466, 0.0121727247465923, 0.161431220548056, -1.24069198129008, 1.26745687194797, -1.11773949386035], a = 0.2, v = 0.2, t = 0.2)
movej(p[0.540895844590326, 0.0122107095173263, 0.161072962771788, -1.24144513125703, 1.28381849778656, -1.12772732659542], a = 0.2, v = 0.2, t = 0.2)
movej(p[0.542244237252853, 0.0123035653467453, 0.16113600080939, -1.21360803669744, 1.28405766134741, -1.12170278886568], a = 0.2, v = 0.2, t = 0.2)
movej(p[0.543298957300169, 0.0124173483527414, 0.161054356754268, -1.17884969991787, 1.26446141245957, -1.1414929369015], a = 0.2, v = 0.2, t = 0.2)
movej(p[0.543583529790541, 0.0123240070843823, 0.160629648731922, -1.1273769073924, 1.21523880727685, -1.1523834703503], a = 0.2, v = 0.2, t = 0.2)
movej(p[0.542414419870904, 0.0122647568111336, 0.159804734312224, -1.10967026201061, 1.16729223213095, -1.15904652646227], a = 0.2, v = 0.2, t = 0.2)
movej(p[0.53988971285301, 0.0122287457954515, 0.159161699699279, -1.15519523749048, 1.14028421391687, -1.14406574819154], a = 0.2, v = 0.2, t = 0.2)
movej(p[0.536883250741916, 0.0123859374362414, 0.159187318355007, -1.20616622989098, 1.15106934817156, -1.11660298543796], a = 0.2, v = 0.2, t = 0.2)
movej(p[0.533515997547128, 0.0125928419293962, 0.159948097056669, -1.25926553089202, 1.17490925502533, -1.08203096150874], a = 0.2, v = 0.2, t = 0.2)
movej(p[0.530659648601562, 0.0126690048176084, 0.161058799164898, -1.24500104374624, 1.19705783231446, -1.04184777122715], a = 0.2, v = 0.2, t = 0.2)
movej(p[0.529029130447013, 0.012717411336374, 0.161928203840998, -1.28363082220376, 1.22224360896539, -1.02768714806361], a = 0.2, v = 0.2, t = 0.2)
movej(p[0.529001053051508, 0.0125746540841987, 0.162393980725153, -1.29456848761107, 1.23835986714185, -1.03955266023148], a = 0.2, v = 0.2, t = 0.2)
movej(p[0.530635340171876, 0.0124851626227638, 0.162639896602294, -1.30193790460186, 1.25687152580271, -1.0587355585347], a = 0.2, v = 0.2, t = 0.2)
movej(p[0.532973094667358, 0.0123457270906083, 0.16242933872495, -1.28112911416586, 1.23298212816455, -1.09366842328085], a = 0.2, v = 0.2, t = 0.2)
movej(p[0.535491724636174, 0.0122361805867082, 0.162214641314795, -1.24467217249366, 1.2228904233932, -1.10836036377357], a = 0.2, v = 0.2, t = 0.2)
movej(p[0.537713133205597, 0.0122001370126016, 0.161800968188086, -1.24517184504965, 1.20774774387957, -1.13228104911807], a = 0.2, v = 0.2, t = 0.2)
movej(p[0.539375783888398, 0.0122024149179181, 0.161721132767835, -1.200979069281, 1.22744754854462, -1.12065529509012], a = 0.2, v = 0.2, t = 0.2)
movej(p[0.540806544450783, 0.0121389481062935, 0.161466905756196, -1.20324757111605, 1.23488731269379, -1.13831148406888], a = 0.2, v = 0.2, t = 0.2)
movej(p[0.541983541446415, 0.0121943918989258, 0.161174039601391, -1.20042892251916, 1.25272701012496, -1.13885940533226], a = 0.2, v = 0.2, t = 0.2)
movej(p[0.543003159943639, 0.0122083041500346, 0.160506142156428, -1.22993491133954, 1.25106312005174, -1.15990344977759], a = 0.2, v = 0.2, t = 0.2)
movej(p[0.543728951536241, 0.0122534300334839, 0.160035948666094, -1.20805965000377, 1.23273799207669, -1.15511397712947], a = 0.2, v = 0.2, t = 0.2)
movej(p[0.54321246421278, 0.0122839324186085, 0.159668870814262, -1.18239569872021, 1.17815020511506, -1.17125318191597], a = 0.2, v = 0.2, t = 0.2)
movej(p[0.541384886169035, 0.012340011016843, 0.159287977282627, -1.1728156735614, 1.12970961516868, -1.1790849088686], a = 0.2, v = 0.2, t = 0.2)
movej(p[0.538298165124165, 0.0123803311161351, 0.159258707531228, -1.20079755971151, 1.11293272162061, -1.16808690793536], a = 0.2, v = 0.2, t = 0.2)
movej(p[0.534939458683136, 0.0123416438170175, 0.159406658367733, -1.23038912287783, 1.13440227424315, -1.13896770426592], a = 0.2, v = 0.2, t = 0.2)
movej(p[0.531764134267754, 0.0123326982136074, 0.160397555173613, -1.24584636331333, 1.1711560749195, -1.08804065165457], a = 0.2, v = 0.2, t = 0.2)
movej(p[0.529167550363324, 0.0124239007747919, 0.161548629435238, -1.27861500727793, 1.18494724983922, -1.0544095987213], a = 0.2, v = 0.2, t = 0.2)
movej(p[0.528324355480147, 0.0126554508946802, 0.162376493434615, -1.29737826709602, 1.20409077737054, -1.04058303997395], a = 0.2, v = 0.2, t = 0.2)
movej(p[0.529188356449504, 0.0126534531532051, 0.162592157458457, -1.31927896249007, 1.22130738249976, -1.05554557030044], a = 0.2, v = 0.2, t = 0.2)
movej(p[0.531768326855179, 0.012579128844397, 0.162177197034485, -1.31443865284058, 1.24268652391288, -1.08851201940701], a = 0.2, v = 0.2, t = 0.2)
movej(p[0.534581854688696, 0.0123658686802848, 0.161880265848445, -1.30695122660471, 1.23529794974816, -1.12189248880492], a = 0.2, v = 0.2, t = 0.2)
movej(p[0.537090897079722, 0.0123600042920347, 0.161773229927089, -1.27447955364937, 1.24301853217095, -1.12765773259085], a = 0.2, v = 0.2, t = 0.2)
movej(p[0.538768916111943, 0.0124179116402095, 0.161689392979206, -1.25051346121002, 1.23236625629118, -1.12677970322242], a = 0.2, v = 0.2, t = 0.2)
movej(p[0.540127325408196, 0.0124387448021181, 0.161213566753553, -1.23435867688915, 1.24250959566721, -1.12550524103698], a = 0.2, v = 0.2, t = 0.2)
movej(p[0.541237277769083, 0.0123595060622258, 0.160730170908451, -1.2308862027183, 1.2313166275511, -1.13986340305599], a = 0.2, v = 0.2, t = 0.2)
movej(p[0.542286998607994, 0.0123250776907086, 0.16032164825646, -1.20318062538621, 1.25420775056173, -1.1415595313561], a = 0.2, v = 0.2, t = 0.2)
movej(p[0.543024954876239, 0.0123063433189817, 0.160126764465511, -1.17562728580882, 1.27637549389214, -1.12842885404811], a = 0.2, v = 0.2, t = 0.2)
movej(p[0.542706935648547, 0.012354611025864, 0.159742394016867, -1.14186834343762, 1.25454834057846, -1.13240063460932], a = 0.2, v = 0.2, t = 0.2)
movej(p[0.541101698000611, 0.0122892148165583, 0.159308058652136, -1.12940812912085, 1.18460247969109, -1.14938321362515], a = 0.2, v = 0.2, t = 0.2)
movej(p[0.538444894796297, 0.0122995135328348, 0.159130647473265, -1.11668402510653, 1.13966125765768, -1.14135961571462], a = 0.2, v = 0.2, t = 0.2)
movej(p[0.535634622696618, 0.0124164643800663, 0.159608248593758, -1.14340477110652, 1.15405445140242, -1.09951603108286], a = 0.2, v = 0.2, t = 0.2)
movej(p[0.533351741140343, 0.0125853973029234, 0.160600007817408, -1.18618474663174, 1.20553377731824, -1.05753216195258], a = 0.2, v = 0.2, t = 0.2)
movej(p[0.532016440573994, 0.0126873018416036, 0.161693061778063, -1.23887971441598, 1.22504698393378, -1.03947209241825], a = 0.2, v = 0.2, t = 0.2)
movej(p[0.53200191055734, 0.0125839449969262, 0.161995170785665, -1.27523647526701, 1.21989543402023, -1.07739982212108], a = 0.2, v = 0.2, t = 0.2)
movej(p[0.533171071700043, 0.0125208427658643, 0.162135882549665, -1.29059901867854, 1.23026597094874, -1.10573471644043], a = 0.2, v = 0.2, t = 0.2)
movej(p[0.535056437945783, 0.0124449241975913, 0.161803927539451, -1.28477575237073, 1.25445796095859, -1.13373172215666], a = 0.2, v = 0.2, t = 0.2)
movej(p[0.537101352844678, 0.012423202670881, 0.161607786949631, -1.27971977612811, 1.27178407851747, -1.13307385337945], a = 0.2, v = 0.2, t = 0.2)
movej(p[0.538836786333409, 0.0122610142206873, 0.161263284349764, -1.26744340777918, 1.26509345356944, -1.13753787105271], a = 0.2, v = 0.2, t = 0.2)
movej(p[0.540294721957542, 0.0121465825822708, 0.160997024339784, -1.25789005298467, 1.25002820852613, -1.14968904935775], a = 0.2, v = 0.2, t = 0.2)
movej(p[0.541445377374964, 0.0120865319875532, 0.160964915399737, -1.22065462648241, 1.27943951435302, -1.12769226394984], a = 0.2, v = 0.2, t = 0.2)
movej(p[0.542335664885162, 0.0121650753350735, 0.160577652399508, -1.22130472101945, 1.27464794873832, -1.1452868900342], a = 0.2, v = 0.2, t = 0.2)
movej(p[0.54309751446298, 0.0122438197065649, 0.160121086273699, -1.21389522323101, 1.27144842877329, -1.13580743519803], a = 0.2, v = 0.2, t = 0.2)
movej(p[0.542845724463608, 0.0122497008039118, 0.159326102254105, -1.21705267566929, 1.21265746456599, -1.16718663490586], a = 0.2, v = 0.2, t = 0.2)
movej(p[0.541340203642321, 0.0122967191795925, 0.159057070250395, -1.20782476033019, 1.1990202137068, -1.14369686710366], a = 0.2, v = 0.2, t = 0.2)
movej(p[0.53829912798601, 0.0123086079498075, 0.159042477764754, -1.19922291146672, 1.18304805253225, -1.12122929219594], a = 0.2, v = 0.2, t = 0.2)
movej(p[0.534650159096448, 0.012378189032458, 0.159543066816956, -1.20586461146965, 1.17248871238854, -1.08889231090313], a = 0.2, v = 0.2, t = 0.2)
movej(p[0.531299664647416, 0.0123730581092433, 0.160435079249826, -1.22455147102842, 1.1472233042521, -1.07851369349291], a = 0.2, v = 0.2, t = 0.2)
movej(p[0.528781710677372, 0.0124339292216515, 0.161352375535665, -1.26774340349945, 1.16257031761784, -1.05842238160665], a = 0.2, v = 0.2, t = 0.2)
movej(p[0.527929754537835, 0.0125361914902716, 0.162349510668143, -1.32819645718096, 1.21451775230821, -1.04756888062465], a = 0.2, v = 0.2, t = 0.2)
movej(p[0.529119927135797, 0.0127556678893252, 0.162628795870615, -1.35129250642077, 1.27338704230506, -1.03897199532724], a = 0.2, v = 0.2, t = 0.2)
movej(p[0.531499762292069, 0.0126858371522449, 0.162587501702358, -1.33375151337294, 1.28591425707286, -1.07113466337306], a = 0.2, v = 0.2, t = 0.2)
movej(p[0.534129595923743, 0.0125309002374049, 0.162325577462479, -1.29031752126542, 1.27344183276329, -1.08659893810299], a = 0.2, v = 0.2, t = 0.2)
movej(p[0.536210432925969, 0.0122551890371712, 0.162153345658419, -1.23448988168396, 1.26900638017697, -1.08362024634172], a = 0.2, v = 0.2, t = 0.2)
movej(p[0.537959323930713, 0.0122287902364322, 0.161820101147367, -1.20406604854439, 1.24273350113912, -1.10207032515849], a = 0.2, v = 0.2, t = 0.2)
movej(p[0.539286422763421, 0.0121867245142772, 0.161234528779385, -1.21562097749011, 1.23184117116977, -1.12256887810675], a = 0.2, v = 0.2, t = 0.2)
movej(p[0.540440890357731, 0.0120854201556237, 0.160764298452198, -1.23942090981232, 1.20514020880658, -1.16654684748039], a = 0.2, v = 0.2, t = 0.2)
movej(p[0.541531591994126, 0.012017673106484, 0.160620533572631, -1.23903783393725, 1.21576061525094, -1.1630797952626], a = 0.2, v = 0.2, t = 0.2)
movej(p[0.54233336790328, 0.0120756642413513, 0.160408460178075, -1.22375183343971, 1.21270148281706, -1.16678015357885], a = 0.2, v = 0.2, t = 0.2)
movej(p[0.542674777089181, 0.0122619151236911, 0.160131340032633, -1.19934969992659, 1.20768446813275, -1.16132235121268], a = 0.2, v = 0.2, t = 0.2)
movej(p[0.542046876357667, 0.0122424986786563, 0.159520432577591, -1.18702430631989, 1.1604336104731, -1.1671819606808], a = 0.2, v = 0.2, t = 0.2)
movej(p[0.540434254406105, 0.0121978575947705, 0.159010634908834, -1.16020633476418, 1.12002556494819, -1.15946056527713], a = 0.2, v = 0.2, t = 0.2)
movej(p[0.538008366401582, 0.0122488745450877, 0.158841642252502, -1.1778138945269, 1.11171995006642, -1.14375746452176], a = 0.2, v = 0.2, t = 0.2)
movej(p[0.535243271194011, 0.0124550510493684, 0.159349730103347, -1.21307335507781, 1.11783786381875, -1.128516727279], a = 0.2, v = 0.2, t = 0.2)
movej(p[0.532656610164415, 0.0126283256146268, 0.160478040280907, -1.25887973580613, 1.15990484793403, -1.10151719825979], a = 0.2, v = 0.2, t = 0.2)
movej(p[0.531061826978318, 0.012659734803061, 0.161266878717234, -1.27894779778345, 1.17231487944665, -1.09120105287889], a = 0.2, v = 0.2, t = 0.2)
movej(p[0.53111057111165, 0.0126633323180075, 0.161697230318778, -1.29840088896439, 1.20726219878598, -1.08066171336022], a = 0.2, v = 0.2, t = 0.2)
movej(p[0.532586866609194, 0.0126611134332857, 0.161586532878064, -1.29305255700294, 1.24016984885319, -1.07811363835846], a = 0.2, v = 0.2, t = 0.2)
movej(p[0.534858741347601, 0.0125644537898486, 0.161459079879975, -1.27774583326652, 1.25794166716843, -1.08908251276099], a = 0.2, v = 0.2, t = 0.2)
movej(p[0.536999842611628, 0.0123544798777604, 0.161239764144506, -1.24831425817008, 1.27879646004205, -1.10011607589127], a = 0.2, v = 0.2, t = 0.2)
movej(p[0.538901057571528, 0.012181311268542, 0.161012556110688, -1.23215092231869, 1.2539389485212, -1.1350561863146], a = 0.2, v = 0.2, t = 0.2)
movej(p[0.540292157328143, 0.0121558319806211, 0.160612563807471, -1.22828903594629, 1.23093196662926, -1.15039120062481], a = 0.2, v = 0.2, t = 0.2)
movej(p[0.541411847186126, 0.0121282969633121, 0.160429462512139, -1.21949215989863, 1.21596394854403, -1.16066156591518], a = 0.2, v = 0.2, t = 0.2)
movej(p[0.54222982304739, 0.0121479484676113, 0.160175064240979, -1.23045002789146, 1.21373374548466, -1.16342589164534], a = 0.2, v = 0.2, t = 0.2)
movej(p[0.543050752250679, 0.0121152126816979, 0.159971464025836, -1.23380334118938, 1.21232410385696, -1.17941678258218], a = 0.2, v = 0.2, t = 0.2)
movej(p[0.543543236457671, 0.0121549328447803, 0.159660852830595, -1.2407389291063, 1.19386275002469, -1.19167490292309], a = 0.2, v = 0.2, t = 0.2)
movej(p[0.543120750839976, 0.0120649532309891, 0.159271266321533, -1.20492518222282, 1.17015435443102, -1.18686324309574], a = 0.2, v = 0.2, t = 0.2)
movej(p[0.541290093556437, 0.0120651011098442, 0.158909456304039, -1.17974063594572, 1.14974263663089, -1.17348624840466], a = 0.2, v = 0.2, t = 0.2)
movej(p[0.538715986948981, 0.0121698399834787, 0.158725089864841, -1.18236663139825, 1.14570879406961, -1.15095371405713], a = 0.2, v = 0.2, t = 0.2)
movej(p[0.53629169943495, 0.0123598617760382, 0.158903547120962, -1.22262621585241, 1.15120886964919, -1.13263920061956], a = 0.2, v = 0.2, t = 0.2)
movej(p[0.534128069753126, 0.0125251227374834, 0.159492990069476, -1.25269877103014, 1.15146680522567, -1.12298904702162], a = 0.2, v = 0.2, t = 0.2)
movej(p[0.532632071293063, 0.0125744036158553, 0.160204902869626, -1.26512061909074, 1.16484593919928, -1.1088824382597], a = 0.2, v = 0.2, t = 0.2)
movej(p[0.532147450376895, 0.0126654385096119, 0.160907258745327, -1.26319846453955, 1.18293871070379, -1.10643523160083], a = 0.2, v = 0.2, t = 0.2)
movej(p[0.533170638633758, 0.0126528831610996, 0.161292809303156, -1.27100716992845, 1.22815868621543, -1.09032212629823], a = 0.2, v = 0.2, t = 0.2)
movej(p[0.535175798474087, 0.0124305152243202, 0.161161865360692, -1.26554730909977, 1.26047230501373, -1.08662282588124], a = 0.2, v = 0.2, t = 0.2)
movej(p[0.537444895508433, 0.0123210648352776, 0.160945241483101, -1.25727894405379, 1.27480410586661, -1.10338148809037], a = 0.2, v = 0.2, t = 0.2)
movej(p[0.539355586097627, 0.0121919532240287, 0.160874724365993, -1.23137991918539, 1.26486914569459, -1.12594789758468], a = 0.2, v = 0.2, t = 0.2)
movej(p[0.54081810693563, 0.0123158491498934, 0.161037779294046, -1.20681338672565, 1.25428526349067, -1.13414511548371], a = 0.2, v = 0.2, t = 0.2)
movej(p[0.541957299685031, 0.0121639085516293, 0.160612161441024, -1.21791811960286, 1.24006994302917, -1.14417890933508], a = 0.2, v = 0.2, t = 0.2)
movej(p[0.542927885791269, 0.0121271113060127, 0.160186645186701, -1.2180505092562, 1.21644725668624, -1.15651088388163], a = 0.2, v = 0.2, t = 0.2)
movej(p[0.543361752194731, 0.0120014241467299, 0.159670484773711, -1.22483106568949, 1.18872429714026, -1.18795286228515], a = 0.2, v = 0.2, t = 0.2)
movej(p[0.5429409471786, 0.0122109533388556, 0.159379728539649, -1.22856324219966, 1.17638849189803, -1.1896491739378], a = 0.2, v = 0.2, t = 0.2)
movej(p[0.541279820838935, 0.0122517482072748, 0.159140270536477, -1.23653007743251, 1.18045316973847, -1.17081791501809], a = 0.2, v = 0.2, t = 0.2)
movej(p[0.53880002216224, 0.0123031123348414, 0.158924720018362, -1.23490917456038, 1.17243725156351, -1.14008930931331], a = 0.2, v = 0.2, t = 0.2)
movej(p[0.535783159619677, 0.0121784943641737, 0.15930424118023, -1.2176088145039, 1.17864077232029, -1.1093545659821], a = 0.2, v = 0.2, t = 0.2)
movej(p[0.532597063801359, 0.0122207657219246, 0.159874410238026, -1.23225475134931, 1.18397380937476, -1.08960199063399], a = 0.2, v = 0.2, t = 0.2)
movej(p[0.529760123994842, 0.0123722201365362, 0.160954416048517, -1.25503262805259, 1.19759778218108, -1.0736483601028], a = 0.2, v = 0.2, t = 0.2)
movej(p[0.527941215317693, 0.0124946747769706, 0.161680606238017, -1.28482242355895, 1.20639517274543, -1.05868194611518], a = 0.2, v = 0.2, t = 0.2)
movej(p[0.527832307347451, 0.0125376335345421, 0.162576010927734, -1.29538851887314, 1.2218845665986, -1.03563591746826], a = 0.2, v = 0.2, t = 0.2)
movej(p[0.529458202562945, 0.0124077456864708, 0.162614266484931, -1.29865499559882, 1.23678876055008, -1.03817986853104], a = 0.2, v = 0.2, t = 0.2)
movej(p[0.531990399690262, 0.0123227792067162, 0.162495028208436, -1.29898452089568, 1.24055550930248, -1.05836676189607], a = 0.2, v = 0.2, t = 0.2)
movej(p[0.534707717341566, 0.0122289578337648, 0.161908798125494, -1.28446846521771, 1.25053771143844, -1.0893415129039], a = 0.2, v = 0.2, t = 0.2)
movej(p[0.536920825860453, 0.0121615480967921, 0.161462487702816, -1.27851774230549, 1.24361343994681, -1.11323926466588], a = 0.2, v = 0.2, t = 0.2)
movej(p[0.538692210613133, 0.0121173231432257, 0.161195242393116, -1.25507161269303, 1.23342696927271, -1.13912556213946], a = 0.2, v = 0.2, t = 0.2)
movej(p[0.540034193255816, 0.0120211580862241, 0.160980245908145, -1.24805632005986, 1.24736535036552, -1.12174899356652], a = 0.2, v = 0.2, t = 0.2)
movej(p[0.541013226157146, 0.0120098254416499, 0.160947983983546, -1.23044115423951, 1.25836696558316, -1.12041071692007], a = 0.2, v = 0.2, t = 0.2)
movej(p[0.541977331393677, 0.0120551004619301, 0.160725680559523, -1.23783933674715, 1.25187638684537, -1.13039448067761], a = 0.2, v = 0.2, t = 0.2)
movej(p[0.542794944126062, 0.0121240498577864, 0.160406824242896, -1.23350632904117, 1.24921113244006, -1.15174496817539], a = 0.2, v = 0.2, t = 0.2)
movej(p[0.543354864922978, 0.0122157068899222, 0.16003196837494, -1.22981625724285, 1.24954370925838, -1.15482963404104], a = 0.2, v = 0.2, t = 0.2)
movej(p[0.543070743252434, 0.0123336119028744, 0.159406526253919, -1.23388865754463, 1.24024977922736, -1.13788161045792], a = 0.2, v = 0.2, t = 0.2)
movej(p[0.541624927022157, 0.0123466759681469, 0.15901934223492, -1.2241753529564, 1.18476205151208, -1.15510480332189], a = 0.2, v = 0.2, t = 0.2)
movej(p[0.539405885709529, 0.0124609091335672, 0.158656021509848, -1.22555717573772, 1.12966556996052, -1.16404616455902], a = 0.2, v = 0.2, t = 0.2)
movej(p[0.536904469809499, 0.0124909159402824, 0.158860432919443, -1.2254810840905, 1.12350758655387, -1.15017776306447], a = 0.2, v = 0.2, t = 0.2)
movej(p[0.534526826913174, 0.0126121110806064, 0.159591556534216, -1.23914472327836, 1.12990419340193, -1.12467782268163], a = 0.2, v = 0.2, t = 0.2)
movej(p[0.532347846992288, 0.0125447742679441, 0.160529103833522, -1.2468418241527, 1.15437851500892, -1.08950716809569], a = 0.2, v = 0.2, t = 0.2)
movej(p[0.531255810804067, 0.0123693625797841, 0.161391704048786, -1.24591025742581, 1.18194455465401, -1.06772808646813], a = 0.2, v = 0.2, t = 0.2)
movej(p[0.531517051929279, 0.0123076004446568, 0.161736518438398, -1.25461644176106, 1.21215154582317, -1.06096460610635], a = 0.2, v = 0.2, t = 0.2)
movej(p[0.533203313327891, 0.0122986060796739, 0.161451873994916, -1.28013276781126, 1.22970789395044, -1.07594619346588], a = 0.2, v = 0.2, t = 0.2)
movej(p[0.5354308225527, 0.0123115326598408, 0.161201298755438, -1.2916807739688, 1.22454088897757, -1.10288904696538], a = 0.2, v = 0.2, t = 0.2)
movej(p[0.537529681738255, 0.0121709733656405, 0.160753429130854, -1.27339655585455, 1.2304539126192, -1.11937049895208], a = 0.2, v = 0.2, t = 0.2)
movej(p[0.53919507828901, 0.0121250349682528, 0.160487773652314, -1.25454494090545, 1.23219588071961, -1.13652189596391], a = 0.2, v = 0.2, t = 0.2)
movej(p[0.540454854092664, 0.0120364350115709, 0.160409972943423, -1.22380791141309, 1.2474206946705, -1.13808233691467], a = 0.2, v = 0.2, t = 0.2)
movej(p[0.541516013982458, 0.0120928304719359, 0.160201481072256, -1.22905850590551, 1.24107924963885, -1.15519964153577], a = 0.2, v = 0.2, t = 0.2)
movej(p[0.542441242958158, 0.0119745544014654, 0.160001844087255, -1.23236281786192, 1.24697596156397, -1.16054821839166], a = 0.2, v = 0.2, t = 0.2)
movej(p[0.54314389065365, 0.0119999073517163, 0.15953566067664, -1.25781880355464, 1.23253904057642, -1.17812851677413], a = 0.2, v = 0.2, t = 0.2)
movej(p[0.543593921633184, 0.0119855203089973, 0.159401433682106, -1.24820207745, 1.23978078591406, -1.17108867012464], a = 0.2, v = 0.2, t = 0.2)
movej(p[0.54323546366578, 0.0121658558646576, 0.159115770777498, -1.22607345165137, 1.21066393742059, -1.17295709803441], a = 0.2, v = 0.2, t = 0.2)
movej(p[0.542060534477671, 0.0122562316371003, 0.158862348252287, -1.20174345132464, 1.16871613904895, -1.18349531408449], a = 0.2, v = 0.2, t = 0.2)
movej(p[0.539942718173153, 0.0122412900789886, 0.158475968831819, -1.18677161549161, 1.15046467767498, -1.16597709383265], a = 0.2, v = 0.2, t = 0.2)
movej(p[0.537448978203729, 0.0122427494221714, 0.158753186619151, -1.19220806817553, 1.15318157585211, -1.14636845776238], a = 0.2, v = 0.2, t = 0.2)
movej(p[0.534992879177383, 0.0123468354281344, 0.159212184927661, -1.2179819937844, 1.18361408521128, -1.11812086660238], a = 0.2, v = 0.2, t = 0.2)
movej(p[0.532703379338668, 0.0125604363615617, 0.159841166780078, -1.24951957926851, 1.18778124661177, -1.10627418308128], a = 0.2, v = 0.2, t = 0.2)
movej(p[0.531499881539678, 0.0127143324812259, 0.160530655732187, -1.28053149560325, 1.2012367406429, -1.08559819871569], a = 0.2, v = 0.2, t = 0.2)
movej(p[0.53173547478161, 0.0126305479832657, 0.161235506974051, -1.29136338890209, 1.22645193508607, -1.06410169670297], a = 0.2, v = 0.2, t = 0.2)
movej(p[0.533478983060528, 0.0125839784903856, 0.161738570275913, -1.30848216698888, 1.24509074682072, -1.07594620592635], a = 0.2, v = 0.2, t = 0.2)
movej(p[0.535569002028665, 0.0123871884720042, 0.161675256269417, -1.29592652839556, 1.25507699720579, -1.0906502180437], a = 0.2, v = 0.2, t = 0.2)
movej(p[0.537529200996082, 0.012261593272404, 0.161558776989785, -1.27365059831744, 1.25049539166389, -1.11150056317527], a = 0.2, v = 0.2, t = 0.2)
movej(p[0.539183047384096, 0.0121300713292893, 0.161351773035876, -1.24759128096911, 1.25381045488599, -1.11258097221578], a = 0.2, v = 0.2, t = 0.2)
movej(p[0.54052274839243, 0.012088533090419, 0.160973893633183, -1.23942053724593, 1.23511966893262, -1.12903268215884], a = 0.2, v = 0.2, t = 0.2)
movej(p[0.541439633703083, 0.012024652198436, 0.16056162918074, -1.23309782799025, 1.22345483435058, -1.13434812512485], a = 0.2, v = 0.2, t = 0.2)
movej(p[0.542124836615106, 0.0119511498861664, 0.159960873887841, -1.23698728577763, 1.21504714377282, -1.1453008162013], a = 0.2, v = 0.2, t = 0.2)
movej(p[0.542735148383578, 0.0119440895099399, 0.159726698200692, -1.24803679616112, 1.23294690495801, -1.15568010280253], a = 0.2, v = 0.2, t = 0.2)
movej(p[0.543402236938637, 0.0119908809376927, 0.159349338983369, -1.26378810669017, 1.23346841851937, -1.16890136881067], a = 0.2, v = 0.2, t = 0.2)
movej(p[0.544068373934951, 0.0120894411298528, 0.159015069668201, -1.25062051024614, 1.23413886269677, -1.16841839363055], a = 0.2, v = 0.2, t = 0.2)
movej(p[0.54388849235012, 0.0121242968128734, 0.158644987299937, -1.21977037700572, 1.22836574802449, -1.15923608873494], a = 0.2, v = 0.2, t = 0.2)
movej(p[0.542550085081576, 0.0121472835898653, 0.158341653652623, -1.18586394986886, 1.23675302769781, -1.14338903351005], a = 0.2, v = 0.2, t = 0.2)
movej(p[0.54027237528544, 0.0122086999042688, 0.158185292650424, -1.18334158339461, 1.19521936414928, -1.15634054437175], a = 0.2, v = 0.2, t = 0.2)
movej(p[0.537637811060347, 0.0123501932675755, 0.158497249208938, -1.19837445128754, 1.15382309288167, -1.1456474271369], a = 0.2, v = 0.2, t = 0.2)
movej(p[0.535186636523501, 0.0124771624797037, 0.159183848136197, -1.2283533422849, 1.11357171378478, -1.14731921460446], a = 0.2, v = 0.2, t = 0.2)
movej(p[0.532658050891077, 0.0125508491166279, 0.16003153374852, -1.24314585107355, 1.13524290699069, -1.1064321606526], a = 0.2, v = 0.2, t = 0.2)
movej(p[0.530897917246006, 0.0125428596854009, 0.160651969676297, -1.28464961886698, 1.15311066008108, -1.10906251825389], a = 0.2, v = 0.2, t = 0.2)
movej(p[0.530463066618536, 0.0126345133884737, 0.161255532233206, -1.30760885303321, 1.21711267651111, -1.08409380801463], a = 0.2, v = 0.2, t = 0.2)
movej(p[0.531799532161627, 0.0126570292386276, 0.161296991912694, -1.32022132771905, 1.25153322616619, -1.09331680297935], a = 0.2, v = 0.2, t = 0.2)
movej(p[0.534243169618768, 0.012523159317714, 0.161368096852252, -1.29894841174947, 1.29041163913381, -1.08230903999895], a = 0.2, v = 0.2, t = 0.2)
movej(p[0.536719666904271, 0.0123639144629413, 0.161179607055901, -1.28219615703016, 1.27260219829441, -1.11674560814819], a = 0.2, v = 0.2, t = 0.2)
movej(p[0.538729182779664, 0.0121766865288628, 0.16108851211509, -1.26619540841829, 1.2702668552204, -1.12109207691346], a = 0.2, v = 0.2, t = 0.2)
movej(p[0.540190754273174, 0.0120910600575754, 0.160861765542072, -1.25076726129484, 1.2631153774099, -1.13882210892057], a = 0.2, v = 0.2, t = 0.2)
movej(p[0.541262416398467, 0.0121191750744423, 0.16053000882407, -1.24414522891575, 1.23847877773978, -1.15734617725508], a = 0.2, v = 0.2, t = 0.2)
movej(p[0.542227236556657, 0.0121434790633687, 0.160088331524595, -1.23790161360342, 1.22353365300825, -1.17486314299461], a = 0.2, v = 0.2, t = 0.2)
movej(p[0.543070480780366, 0.0121674051464395, 0.159703612088862, -1.22399242723779, 1.21009414129285, -1.17805423139514], a = 0.2, v = 0.2, t = 0.2)
movej(p[0.543861986723056, 0.0120935195373163, 0.159461432685216, -1.19733579430482, 1.25405624605585, -1.14482927908696], a = 0.2, v = 0.2, t = 0.2)
movej(p[0.54447006363031, 0.0121514067455421, 0.159471482878697, -1.18548017141551, 1.25598240547214, -1.14782118874509], a = 0.2, v = 0.2, t = 0.2)
movej(p[0.544645754691566, 0.0121636433479256, 0.159322931259868, -1.18588072483222, 1.2193998303773, -1.17228422225172], a = 0.2, v = 0.2, t = 0.2)
movej(p[0.543940161407812, 0.0121723523295229, 0.159020723140917, -1.18887832061075, 1.14860050053173, -1.20300254808482], a = 0.2, v = 0.2, t = 0.2)
movej(p[0.542264377100387, 0.0121569894619239, 0.158685835398845, -1.17824283145975, 1.1177392886584, -1.20182539453651], a = 0.2, v = 0.2, t = 0.2)
movej(p[0.539926801372424, 0.0122822959581209, 0.158764676835572, -1.19092925748328, 1.12027044293942, -1.17509541514145], a = 0.2, v = 0.2, t = 0.2)
movej(p[0.537556906922985, 0.0123862249271853, 0.158951251995784, -1.19599385064588, 1.15349046422035, -1.13708720570739], a = 0.2, v = 0.2, t = 0.2)
movej(p[0.535530090580509, 0.0124550667988675, 0.159483962132014, -1.20975819841771, 1.17742490405815, -1.10388473980602], a = 0.2, v = 0.2, t = 0.2)
movej(p[0.534200129683089, 0.0124335501348818, 0.159842885021492, -1.20981511813629, 1.21434739629168, -1.0794843335577], a = 0.2, v = 0.2, t = 0.2)
movej(p[0.533959345948652, 0.0123523284364112, 0.16062758550314, -1.22665441939134, 1.23455072661396, -1.0635279377038], a = 0.2, v = 0.2, t = 0.2)
movej(p[0.534862948571843, 0.0124193167837591, 0.160778455236926, -1.25693661551197, 1.24394141779213, -1.09370035895248], a = 0.2, v = 0.2, t = 0.2)
movej(p[0.536536571144067, 0.0123099837296173, 0.160605039071152, -1.25949438141213, 1.24707497680538, -1.12156127847504], a = 0.2, v = 0.2, t = 0.2)
movej(p[0.538346234746971, 0.012302940960206, 0.15986091361948, -1.26650941159638, 1.25593178817788, -1.13544940789105], a = 0.2, v = 0.2, t = 0.2)
movej(p[0.539949160910074, 0.012058286947092, 0.159462883012109, -1.25383509798295, 1.24250352634633, -1.14810882210706], a = 0.2, v = 0.2, t = 0.2)
movej(p[0.541250621912562, 0.0120884065277887, 0.159134641953947, -1.24584688714411, 1.233959339917, -1.14279090444596], a = 0.2, v = 0.2, t = 0.2)
movej(p[0.542333076780652, 0.0119480983063259, 0.159045441084346, -1.24066546592857, 1.22424513512312, -1.15640598671962], a = 0.2, v = 0.2, t = 0.2)
movej(p[0.543204752141269, 0.0119786774064263, 0.159220899781281, -1.21778165820114, 1.25190533858744, -1.13327101524624], a = 0.2, v = 0.2, t = 0.2)
movej(p[0.543924844142772, 0.0120156181664678, 0.159285466371091, -1.22865326629957, 1.23673615455622, -1.14903131729847], a = 0.2, v = 0.2, t = 0.2)
movej(p[0.544206622429566, 0.012014193494057, 0.159345321571366, -1.21157793949601, 1.19914396585985, -1.16337318943861], a = 0.2, v = 0.2, t = 0.2)
movej(p[0.543458244452431, 0.0120303846406685, 0.158817303529429, -1.20761606131369, 1.1574338787268, -1.17442656428291], a = 0.2, v = 0.2, t = 0.2)
movej(p[0.541563845891403, 0.0120278926149806, 0.158610031231758, -1.19022085402509, 1.1491967675456, -1.15492644196826], a = 0.2, v = 0.2, t = 0.2)
movej(p[0.538985150836384, 0.0120849974275017, 0.158546580277386, -1.20090608081756, 1.17329985429181, -1.12384846645656], a = 0.2, v = 0.2, t = 0.2)
movej(p[0.536528803786183, 0.0122385502515181, 0.159051165043807, -1.20451117164862, 1.16735556567584, -1.10529782235672], a = 0.2, v = 0.2, t = 0.2)
movej(p[0.534313951176761, 0.0123198204038316, 0.159816352562324, -1.22059500213342, 1.18841699767258, -1.08715779320702], a = 0.2, v = 0.2, t = 0.2)
movej(p[0.532506630213924, 0.0124233666733157, 0.160414079458308, -1.23855400502747, 1.18769356655252, -1.07967887778782], a = 0.2, v = 0.2, t = 0.2)
movej(p[0.531638710768663, 0.0124305508006303, 0.160916253148332, -1.26798299398724, 1.19873616204551, -1.07521830300944], a = 0.2, v = 0.2, t = 0.2)
movej(p[0.531894198448336, 0.0123862868723775, 0.161098221419718, -1.29976514141716, 1.18094237401129, -1.10409211236139], a = 0.2, v = 0.2, t = 0.2)
movej(p[0.533548411009784, 0.0124523596792667, 0.161134752991529, -1.2879225574106, 1.19925289502514, -1.11472792455645], a = 0.2, v = 0.2, t = 0.2)
movej(p[0.53576180774893, 0.0123926345564763, 0.160731920583041, -1.27521398720897, 1.23070777488679, -1.12077828992821], a = 0.2, v = 0.2, t = 0.2)
movej(p[0.53790464133006, 0.0123365123927096, 0.160603134147801, -1.26052842054682, 1.24418435945274, -1.11256799618643], a = 0.2, v = 0.2, t = 0.2)
movej(p[0.539470056425377, 0.012187692677547, 0.160359600737911, -1.25480404317183, 1.23688019643621, -1.12952548898683], a = 0.2, v = 0.2, t = 0.2)
movej(p[0.540601738088178, 0.0120817744901881, 0.160273334802185, -1.25471907399557, 1.22185649803134, -1.14809627560526], a = 0.2, v = 0.2, t = 0.2)
movej(p[0.54158446769587, 0.0119983720759265, 0.159814172299513, -1.25323620876031, 1.2282771868378, -1.16574197442438], a = 0.2, v = 0.2, t = 0.2)
movej(p[0.542516384066229, 0.0118967753151969, 0.159494672772494, -1.25538929011346, 1.24109059070656, -1.16791067658289], a = 0.2, v = 0.2, t = 0.2)
movej(p[0.543382897254834, 0.0118993016263144, 0.159124531767164, -1.26061058475181, 1.23744424749512, -1.17649143080705], a = 0.2, v = 0.2, t = 0.2)
movej(p[0.54411262964755, 0.0119403806934938, 0.158861443996145, -1.24794755030914, 1.22475642748129, -1.18185080926524], a = 0.2, v = 0.2, t = 0.2)
movej(p[0.544097187360565, 0.0120441166655554, 0.158580351964466, -1.23828518644052, 1.18617233198244, -1.19468884986078], a = 0.2, v = 0.2, t = 0.2)
movej(p[0.543108505214017, 0.0120743137006246, 0.158170667162369, -1.20375462179086, 1.15235385521389, -1.20458527618232], a = 0.2, v = 0.2, t = 0.2)
movej(p[0.541040965365217, 0.0120650563928282, 0.157961367667919, -1.17219689550894, 1.12150519110254, -1.19380210408895], a = 0.2, v = 0.2, t = 0.2)
movej(p[0.538363342737257, 0.0121388883663374, 0.158020428259931, -1.16685718361929, 1.1177550129352, -1.17622286855127], a = 0.2, v = 0.2, t = 0.2)
movej(p[0.535594869613893, 0.0122058010073955, 0.158626718068747, -1.18188288129264, 1.14001424521629, -1.13887466237432], a = 0.2, v = 0.2, t = 0.2)
movej(p[0.533001566498486, 0.0124175449537616, 0.159324664201482, -1.23273470363138, 1.1690872034411, -1.10713344619287], a = 0.2, v = 0.2, t = 0.2)
movej(p[0.531122147021858, 0.0123948263091536, 0.160332737718721, -1.24622885459693, 1.19471650314332, -1.06782739352593], a = 0.2, v = 0.2, t = 0.2)
movej(p[0.530612623402097, 0.0124152570696016, 0.160970574672286, -1.26414525854952, 1.20653848624423, -1.07104710124854], a = 0.2, v = 0.2, t = 0.2)
movej(p[0.531657290637548, 0.012328061161822, 0.161449257682434, -1.24971414205572, 1.21274249466892, -1.09616583627423], a = 0.2, v = 0.2, t = 0.2)
movej(p[0.533845128444305, 0.0123086260720969, 0.161291198600116, -1.25473949932462, 1.21821554889449, -1.13073215045643], a = 0.2, v = 0.2, t = 0.2)
movej(p[0.53620905420582, 0.0122838825953995, 0.161263521565721, -1.25861856056497, 1.20800008892823, -1.14428999010622], a = 0.2, v = 0.2, t = 0.2)
movej(p[0.538371899582382, 0.0121297517285275, 0.160979460659999, -1.27006932050473, 1.2302452265556, -1.14613801026095], a = 0.2, v = 0.2, t = 0.2)
movej(p[0.540064391205213, 0.0121195297205671, 0.160876544724889, -1.2504547545212, 1.251923973097, -1.13042913402781], a = 0.2, v = 0.2, t = 0.2)
movej(p[0.541386185605892, 0.0120453052282853, 0.160443085831013, -1.23664273760704, 1.27766375160961, -1.12512500716769], a = 0.2, v = 0.2, t = 0.2)
movej(p[0.542402606906085, 0.0121514179770402, 0.16025345854931, -1.20306941555757, 1.28484417573705, -1.11443890735348], a = 0.2, v = 0.2, t = 0.2)
movej(p[0.543315169844584, 0.0120821078379176, 0.159948704907833, -1.20138470532469, 1.24718178267851, -1.13912767888805], a = 0.2, v = 0.2, t = 0.2)
movej(p[0.544198914969021, 0.0120362406368069, 0.159686745409064, -1.20410076199217, 1.21658133794842, -1.17293915592669], a = 0.2, v = 0.2, t = 0.2)
movej(p[0.544903751778935, 0.0119928136520248, 0.159480588444633, -1.22776692125058, 1.19573018819689, -1.19455641435719], a = 0.2, v = 0.2, t = 0.2)
movej(p[0.54482277380744, 0.0120626607891743, 0.159218941510646, -1.23580625677559, 1.1751022100194, -1.20211180343693], a = 0.2, v = 0.2, t = 0.2)
movej(p[0.543468385391261, 0.0122123587946709, 0.159000035865743, -1.21659948925484, 1.1848444979547, -1.17624267552416], a = 0.2, v = 0.2, t = 0.2)
movej(p[0.541146410637953, 0.0122248960441379, 0.158516851510373, -1.21058418947579, 1.16912682379186, -1.14625561243576], a = 0.2, v = 0.2, t = 0.2)
movej(p[0.538248006997765, 0.0121975418812445, 0.158277387027995, -1.23187338924152, 1.15583467144405, -1.13143521891634], a = 0.2, v = 0.2, t = 0.2)
movej(p[0.535357794611385, 0.0122893579197203, 0.158738875285584, -1.25937702101347, 1.12850320812669, -1.12886798786837], a = 0.2, v = 0.2, t = 0.2)
movej(p[0.532596298463093, 0.0123707552513031, 0.159546652393424, -1.25297645282594, 1.13150070095722, -1.1128621148318], a = 0.2, v = 0.2, t = 0.2)
movej(p[0.530293847808983, 0.0124427235288537, 0.160487325560077, -1.26378601605058, 1.18415491490454, -1.07571164290572], a = 0.2, v = 0.2, t = 0.2)
movej(p[0.529354252158716, 0.012359614887005, 0.161256521770449, -1.26881138263106, 1.23028591450109, -1.03383340768794], a = 0.2, v = 0.2, t = 0.2)
movej(p[0.530070505382589, 0.0122495964784458, 0.161631451243109, -1.27135730232188, 1.25183606333774, -1.02861141853472], a = 0.2, v = 0.2, t = 0.2)
movej(p[0.532305952284585, 0.0122866569056458, 0.161963328552509, -1.25943844253857, 1.24406090205072, -1.04682311715245], a = 0.2, v = 0.2, t = 0.2)
movej(p[0.534893218177116, 0.0122821243553271, 0.161834792696671, -1.2400736639949, 1.24617198587067, -1.06267938132928], a = 0.2, v = 0.2, t = 0.2)
movej(p[0.537253104140853, 0.0121975684861683, 0.161482900934407, -1.22309517844351, 1.2389049334723, -1.08619346009376], a = 0.2, v = 0.2, t = 0.2)
movej(p[0.539256261512523, 0.0122354046087547, 0.161041883075187, -1.20350548847224, 1.2438515848702, -1.11891796997744], a = 0.2, v = 0.2, t = 0.2)
movej(p[0.54087413548149, 0.0122444138448947, 0.160432375415921, -1.22446246327852, 1.23428132088465, -1.16437927080902], a = 0.2, v = 0.2, t = 0.2)
movej(p[0.542175159930094, 0.0123027861600677, 0.160232209286279, -1.2378124686095, 1.23683561359038, -1.18321152277378], a = 0.2, v = 0.2, t = 0.2)
movej(p[0.543200997237177, 0.0122000832741701, 0.160036645638778, -1.24323115257222, 1.22697379324247, -1.18511943308394], a = 0.2, v = 0.2, t = 0.2)
movej(p[0.544156678782094, 0.0120791011019537, 0.160082652538378, -1.23592693585014, 1.23443294291546, -1.17386323706222], a = 0.2, v = 0.2, t = 0.2)
movej(p[0.544644584473884, 0.0120939637519982, 0.159708617409609, -1.2096292690389, 1.21804079447232, -1.16981380595665], a = 0.2, v = 0.2, t = 0.2)
movej(p[0.54428299632989, 0.0120629444893021, 0.159207106429605, -1.21896529221743, 1.18161391211213, -1.18630011892773], a = 0.2, v = 0.2, t = 0.2)
movej(p[0.54260416133146, 0.0121387366079747, 0.158747823398787, -1.19534276389944, 1.16096965257906, -1.18036014726114], a = 0.2, v = 0.2, t = 0.2)
movej(p[0.539922907421872, 0.0120892702519662, 0.158410763077274, -1.19253562186867, 1.14569486256048, -1.16008088115346], a = 0.2, v = 0.2, t = 0.2)
movej(p[0.537045353398817, 0.0121357801405565, 0.158652598340756, -1.17988473996818, 1.17775181423364, -1.1132644038709], a = 0.2, v = 0.2, t = 0.2)
movej(p[0.534325990866066, 0.0122368080092131, 0.159476724061521, -1.19630931409786, 1.16694915067489, -1.09885615086133], a = 0.2, v = 0.2, t = 0.2)
movej(p[0.532153194287075, 0.0124617864596255, 0.160331439590615, -1.24376852476761, 1.19356895021358, -1.08786389354962], a = 0.2, v = 0.2, t = 0.2)
movej(p[0.530809302658131, 0.0125638909864221, 0.160956433151271, -1.2884013506125, 1.21517391543721, -1.09288791860733], a = 0.2, v = 0.2, t = 0.2)
movej(p[0.531155419476575, 0.012518505828023, 0.161181196844707, -1.31070809487537, 1.26549411700219, -1.06225165890969], a = 0.2, v = 0.2, t = 0.2)
movej(p[0.532893246804236, 0.0124384569320559, 0.16152154344318, -1.29674094437191, 1.28393191720758, -1.06003935130524], a = 0.2, v = 0.2, t = 0.2)
movej(p[0.535274885326234, 0.0124171035553302, 0.161563159616383, -1.28166654910701, 1.28495231957357, -1.06973758492008], a = 0.2, v = 0.2, t = 0.2)
movej(p[0.537577719064049, 0.0124073423735694, 0.161337064692674, -1.2682591538806, 1.27921689178394, -1.10567075164249], a = 0.2, v = 0.2, t = 0.2)
movej(p[0.539495521112116, 0.0123320252695532, 0.160852685895479, -1.27703818654851, 1.26234722710607, -1.13098623195362], a = 0.2, v = 0.2, t = 0.2)
movej(p[0.54102010714543, 0.0120729335889678, 0.160528362217378, -1.26742553664225, 1.26649287086203, -1.15186718691655], a = 0.2, v = 0.2, t = 0.2)
movej(p[0.542205204622158, 0.0120587552252144, 0.16055836466982, -1.25008452139227, 1.26074184214197, -1.1551961940547], a = 0.2, v = 0.2, t = 0.2)
movej(p[0.543215818748925, 0.0120390213684207, 0.160196296838917, -1.22086917536663, 1.25593839848799, -1.17188427258941], a = 0.2, v = 0.2, t = 0.2)
movej(p[0.544003715966883, 0.0122535331315414, 0.160136415063584, -1.2189001666049, 1.23181752853397, -1.17872933680712], a = 0.2, v = 0.2, t = 0.2)
movej(p[0.544194730578422, 0.0122850738891337, 0.159635828658266, -1.21535579652662, 1.20665243704536, -1.18701988345439], a = 0.2, v = 0.2, t = 0.2)
movej(p[0.543356284181159, 0.0122298950067039, 0.159534307707469, -1.20917274016434, 1.18882580901701, -1.18327931732804], a = 0.2, v = 0.2, t = 0.2)
movej(p[0.541325001310716, 0.0122871519847246, 0.159181432989173, -1.20369964406062, 1.17308723734186, -1.16411041881668], a = 0.2, v = 0.2, t = 0.2)
movej(p[0.538654367902788, 0.0122827799263258, 0.158967208113959, -1.20795738555331, 1.16038961467586, -1.1386395865513], a = 0.2, v = 0.2, t = 0.2)
movej(p[0.535890397348215, 0.0123179848485816, 0.159152298212187, -1.2070558881548, 1.14577997833928, -1.11551690827915], a = 0.2, v = 0.2, t = 0.2)
movej(p[0.533664818424929, 0.0122194051362249, 0.159489146359713, -1.21431322637788, 1.15622097287622, -1.09460002453338], a = 0.2, v = 0.2, t = 0.2)
movej(p[0.532194079265419, 0.0122152108914656, 0.159969191184744, -1.23890368888439, 1.1923404566128, -1.07917813331466], a = 0.2, v = 0.2, t = 0.2)
movej(p[0.531928034441651, 0.0122554860525847, 0.160536490632729, -1.26301328569911, 1.23231796181459, -1.05710819128811], a = 0.2, v = 0.2, t = 0.2)
movej(p[0.532926490506666, 0.0123346906089842, 0.160852195536371, -1.27014856454055, 1.25738926081015, -1.06683442405938], a = 0.2, v = 0.2, t = 0.2)
movej(p[0.534888364640288, 0.0123125198772631, 0.160819972090146, -1.25268392398952, 1.2699131060467, -1.08092552015372], a = 0.2, v = 0.2, t = 0.2)
movej(p[0.537235475277321, 0.0122414903573197, 0.160474460837621, -1.26145861326316, 1.27866078028545, -1.10951737391983], a = 0.2, v = 0.2, t = 0.2)
movej(p[0.539170349569099, 0.0121687732041969, 0.160275495545275, -1.24621255389954, 1.26571245349448, -1.12865212633144], a = 0.2, v = 0.2, t = 0.2)
movej(p[0.540707132952741, 0.0121259326757875, 0.159964332654671, -1.26431861324871, 1.25473419381361, -1.15369272437038], a = 0.2, v = 0.2, t = 0.2)
movej(p[0.541859131803414, 0.0121569840606191, 0.160174564541991, -1.23624544515856, 1.25391469884549, -1.14911978338553], a = 0.2, v = 0.2, t = 0.2)
movej(p[0.542776596575889, 0.012179936571251, 0.16009923465666, -1.23232423056555, 1.26358451999431, -1.15235175921112], a = 0.2, v = 0.2, t = 0.2)
movej(p[0.54370044310672, 0.012174605908771, 0.16004992606605, -1.22068401779141, 1.25849041456613, -1.15218992607324], a = 0.2, v = 0.2, t = 0.2)
movej(p[0.54439932226692, 0.012112573665461, 0.15948100879058, -1.21765953344222, 1.25121920227421, -1.15904622017986], a = 0.2, v = 0.2, t = 0.2)
movej(p[0.545013178299826, 0.0120918596015076, 0.159254127580869, -1.21766325676414, 1.23050958777123, -1.17868108455694], a = 0.2, v = 0.2, t = 0.2)
movej(p[0.545095691790431, 0.0121307927487646, 0.159232753905172, -1.22089311509893, 1.23963262680543, -1.16237051662467], a = 0.2, v = 0.2, t = 0.2)
movej(p[0.544531873383975, 0.0121424057597739, 0.15897923109078, -1.22175984780701, 1.21366843376383, -1.16825332517387], a = 0.2, v = 0.2, t = 0.2)
movej(p[0.542931769605178, 0.0121983110439808, 0.158579725873325, -1.22869198972913, 1.20246150214744, -1.15646551088202], a = 0.2, v = 0.2, t = 0.2)
movej(p[0.540552312821885, 0.0121994789519745, 0.158418432221771, -1.21961359873184, 1.18372986906255, -1.14603108278192], a = 0.2, v = 0.2, t = 0.2)
movej(p[0.537978292725272, 0.0122838772850037, 0.158930113503152, -1.21629337370549, 1.19782252500917, -1.12408921918776], a = 0.2, v = 0.2, t = 0.2)
movej(p[0.535893968846939, 0.0124299678556643, 0.159538494454171, -1.2226123095167, 1.20731214894381, -1.10561420662826], a = 0.2, v = 0.2, t = 0.2)
movej(p[0.534923740477422, 0.0124988702958519, 0.160153363305635, -1.22527785916016, 1.235439633249, -1.09331197150179], a = 0.2, v = 0.2, t = 0.2)
movej(p[0.535252125469992, 0.0124915821833074, 0.160185293293725, -1.23238631797286, 1.24614035219939, -1.10128305226032], a = 0.2, v = 0.2, t = 0.2)
movej(p[0.53684755476724, 0.0123285803962259, 0.160394287755594, -1.25743753099598, 1.26456040051644, -1.1074681553514], a = 0.2, v = 0.2, t = 0.2)
movej(p[0.538904641967054, 0.0123636092889105, 0.160027756601205, -1.27208080371604, 1.26234205561053, -1.13611608273598], a = 0.2, v = 0.2, t = 0.2)
movej(p[0.54094727860393, 0.0123624223487614, 0.159737828815429, -1.28689752784537, 1.1933536786182, -1.18955679693213], a = 0.2, v = 0.2, t = 0.2)
movej(p[0.5424824693495, 0.012300430094589, 0.159469463267082, -1.26687114039188, 1.17950967700142, -1.20710205035288], a = 0.2, v = 0.2, t = 0.2)
movej(p[0.54368738560853, 0.012205266586305, 0.159516456206082, -1.24925502451763, 1.20069638184802, -1.19609611263326], a = 0.2, v = 0.2, t = 0.2)
movej(p[0.544478320640476, 0.0121500664874848, 0.159575498706298, -1.22844352263742, 1.24680483684741, -1.17024416232726], a = 0.2, v = 0.2, t = 0.2)
movej(p[0.545026475157551, 0.0121078952445234, 0.159418504164748, -1.20036507371515, 1.27405661674006, -1.13862625712738], a = 0.2, v = 0.2, t = 0.2)
movej(p[0.545456306484728, 0.011882416935153, 0.159353649908289, -1.18269462371473, 1.2633179044571, -1.13346930552738], a = 0.2, v = 0.2, t = 0.2)
movej(p[0.545734665619126, 0.0118511397044025, 0.159212520686885, -1.17927514212509, 1.28312937556264, -1.12064348245439], a = 0.2, v = 0.2, t = 0.2)
movej(p[0.545329881985673, 0.0119233999027302, 0.159147046006082, -1.18880005713281, 1.27690808929214, -1.11156201803187], a = 0.2, v = 0.2, t = 0.2)
movej(p[0.543996802472942, 0.0121041275985877, 0.158646782429267, -1.20560890026078, 1.26918296467937, -1.11336576038703], a = 0.2, v = 0.2, t = 0.2)
movej(p[0.541478292567028, 0.012269668389721, 0.158211770946219, -1.208975145926, 1.24012061399838, -1.11985479109592], a = 0.2, v = 0.2, t = 0.2)
movej(p[0.538551513021627, 0.0122575288568802, 0.15785337247738, -1.23487680673283, 1.20009526177833, -1.14294115954572], a = 0.2, v = 0.2, t = 0.2)
movej(p[0.535377134640956, 0.0122773363330991, 0.158310705948509, -1.24140411368864, 1.15856742674528, -1.14063704441736], a = 0.2, v = 0.2, t = 0.2)
movej(p[0.532401991799885, 0.0122399238463391, 0.159276375619016, -1.26618478690284, 1.14041120790741, -1.11857026345126], a = 0.2, v = 0.2, t = 0.2)
movej(p[0.530133081808616, 0.0123699909635871, 0.160229379883672, -1.27848413381655, 1.17204887745374, -1.08992027510653], a = 0.2, v = 0.2, t = 0.2)
movej(p[0.529412971756739, 0.0124212792923445, 0.160967362955916, -1.29543133084751, 1.23108808330931, -1.06093608266437], a = 0.2, v = 0.2, t = 0.2)
movej(p[0.530399439166749, 0.0123909361304453, 0.161294776428323, -1.29599326226045, 1.26424411081831, -1.05821780774084], a = 0.2, v = 0.2, t = 0.2)
movej(p[0.532462031304615, 0.0122379726146176, 0.161609484944038, -1.28877134643917, 1.28230047031631, -1.06115589867769], a = 0.2, v = 0.2, t = 0.2)
movej(p[0.534888475690457, 0.0121289584597455, 0.161455117290763, -1.27094059713353, 1.26831002554355, -1.08163939666171], a = 0.2, v = 0.2, t = 0.2)
movej(p[0.537188552615988, 0.0120752899387481, 0.161313942946793, -1.24232751175895, 1.29559151271554, -1.0813057663828], a = 0.2, v = 0.2, t = 0.2)
movej(p[0.539167651580271, 0.0120565113563146, 0.160960953141678, -1.22921483934818, 1.28423850188424, -1.10539050812571], a = 0.2, v = 0.2, t = 0.2)
movej(p[0.540739737577327, 0.0120262738515386, 0.160700200819226, -1.2354832254891, 1.2784360312883, -1.1320050902336], a = 0.2, v = 0.2, t = 0.2)
movej(p[0.542010413351346, 0.0118449659993526, 0.160414730315571, -1.22434972872584, 1.23456798753518, -1.15964006765484], a = 0.2, v = 0.2, t = 0.2)
movej(p[0.542933483149839, 0.0119660482663547, 0.160057035386018, -1.20908175178358, 1.23207032248997, -1.16666814391725], a = 0.2, v = 0.2, t = 0.2)
movej(p[0.543676785641931, 0.0119815841970209, 0.160042340345729, -1.18651846397678, 1.21966457744153, -1.17967180827002], a = 0.2, v = 0.2, t = 0.2)
movej(p[0.543638790175839, 0.0121921350475931, 0.15972815196469, -1.19582964777125, 1.20176747286996, -1.18347640598306], a = 0.2, v = 0.2, t = 0.2)
movej(p[0.542165683615519, 0.0120645482263727, 0.159402357355323, -1.17878832748103, 1.17221281206054, -1.18671623985869], a = 0.2, v = 0.2, t = 0.2)
movej(p[0.539652109927272, 0.0121190154204517, 0.158733964401947, -1.15428498672811, 1.14744870128781, -1.17423153140449], a = 0.2, v = 0.2, t = 0.2)
movej(p[0.536507418725137, 0.0121656691987232, 0.15859588565562, -1.17198362929032, 1.15380380049295, -1.15555473041034], a = 0.2, v = 0.2, t = 0.2)
movej(p[0.533599821218723, 0.0123131201040415, 0.159192855448341, -1.21200193212772, 1.17745111950013, -1.11847954574482], a = 0.2, v = 0.2, t = 0.2)
movej(p[0.531044547844498, 0.0123663910579785, 0.160106986271851, -1.26599742363081, 1.19204313514146, -1.09428848500076], a = 0.2, v = 0.2, t = 0.2)
movej(p[0.529409774925115, 0.0122669719585956, 0.161134794204847, -1.26319326624304, 1.19456343510613, -1.07773491949426], a = 0.2, v = 0.2, t = 0.2)
movej(p[0.529374816637106, 0.0121492676968414, 0.161795915145194, -1.27774964680754, 1.20141515219447, -1.08830353527297], a = 0.2, v = 0.2, t = 0.2)
movej(p[0.531212535597381, 0.0119772215237112, 0.161861733448535, -1.28562451073867, 1.22243859040399, -1.08958321148329], a = 0.2, v = 0.2, t = 0.2)
movej(p[0.534080258953951, 0.0119558832072017, 0.161797008948294, -1.28351326144744, 1.25204263049782, -1.10721705191923], a = 0.2, v = 0.2, t = 0.2)
movej(p[0.536870790783743, 0.0119348526822372, 0.161417983561229, -1.26867581072454, 1.26547146617855, -1.11650859902715], a = 0.2, v = 0.2, t = 0.2)
movej(p[0.538942635265477, 0.0120038607526361, 0.161393642069326, -1.25002342535027, 1.26708659677989, -1.11616242341807], a = 0.2, v = 0.2, t = 0.2)
movej(p[0.54058601729752, 0.0119624277870626, 0.161121391770846, -1.26157830924602, 1.2528248759601, -1.13534246360508], a = 0.2, v = 0.2, t = 0.2)
movej(p[0.541905743579696, 0.0118608909659656, 0.160762514442927, -1.23452860175084, 1.22529355613087, -1.146439106128], a = 0.2, v = 0.2, t = 0.2)
movej(p[0.542979177915873, 0.0118163181774607, 0.160243423979384, -1.24245416802427, 1.1860530800801, -1.20364734368592], a = 0.2, v = 0.2, t = 0.2)
movej(p[0.543847061478495, 0.0118900268856747, 0.159888659271354, -1.23096266140663, 1.20345582021235, -1.19921597415785], a = 0.2, v = 0.2, t = 0.2)
movej(p[0.543986934433749, 0.0120546510543897, 0.159642653582266, -1.22737155092808, 1.16004795593025, -1.21259395122568], a = 0.2, v = 0.2, t = 0.2)
movej(p[0.54289126487081, 0.0121645155938381, 0.159499944740847, -1.21588374864757, 1.15837168972994, -1.17905308897561], a = 0.2, v = 0.2, t = 0.2)
movej(p[0.540361948015956, 0.0122177222085314, 0.159073625384017, -1.2267789414639, 1.09883640566474, -1.17284479426201], a = 0.2, v = 0.2, t = 0.2)
movej(p[0.537100274136733, 0.012344538810054, 0.158950697236017, -1.26178865408698, 1.13133418763945, -1.13398713212431], a = 0.2, v = 0.2, t = 0.2)
movej(p[0.533842601961963, 0.0124754959806168, 0.159465308291871, -1.26048374275761, 1.13883046650037, -1.10567695360558], a = 0.2, v = 0.2, t = 0.2)
movej(p[0.530856360871911, 0.0126430594844025, 0.16046380161803, -1.25397208782025, 1.16296986652791, -1.07063566855354], a = 0.2, v = 0.2, t = 0.2)
movej(p[0.529012717547453, 0.0126226290584685, 0.161595475665571, -1.28202636375425, 1.1942099773538, -1.05599710868333], a = 0.2, v = 0.2, t = 0.2)
movej(p[0.528789409098607, 0.0124867859253222, 0.162191321236463, -1.31073956432195, 1.23399409474145, -1.04845013029851], a = 0.2, v = 0.2, t = 0.2)
movej(p[0.530248880356683, 0.0123637605902194, 0.162544671842198, -1.32387062388015, 1.2909827408069, -1.044875142112], a = 0.2, v = 0.2, t = 0.2)
movej(p[0.532908054449768, 0.012306740357993, 0.162581023479176, -1.29210081978047, 1.30116015357624, -1.05653863511833], a = 0.2, v = 0.2, t = 0.2)
movej(p[0.535558048131917, 0.0122423217494777, 0.162215803825992, -1.24724083894766, 1.28802845390101, -1.0823675062175], a = 0.2, v = 0.2, t = 0.2)
movej(p[0.537788439254105, 0.0121285732007965, 0.161887003427366, -1.2142121547244, 1.27944670186957, -1.08087010269543], a = 0.2, v = 0.2, t = 0.2)
movej(p[0.539444333798121, 0.0120136068479304, 0.1615282882979, -1.20010382104787, 1.25534315680427, -1.10518542959252], a = 0.2, v = 0.2, t = 0.2)
movej(p[0.540785316016201, 0.0120332180907529, 0.161380332504675, -1.20551180492841, 1.23859270886673, -1.12920646884124], a = 0.2, v = 0.2, t = 0.2)
movej(p[0.541925894006863, 0.0120619704412349, 0.161361509827976, -1.20410078494835, 1.23839155110597, -1.15273479344487], a = 0.2, v = 0.2, t = 0.2)
movej(p[0.542757004310703, 0.0121867352108721, 0.161172834779259, -1.19928413900165, 1.23589847379521, -1.16666119740195], a = 0.2, v = 0.2, t = 0.2)
movej(p[0.543301009419539, 0.0121393966785934, 0.160891641025021, -1.20207808757305, 1.25962517659038, -1.15165609316312], a = 0.2, v = 0.2, t = 0.2)
movej(p[0.542913678291219, 0.0121035819750058, 0.160173313978027, -1.20316491312318, 1.19585247495352, -1.17521464562441], a = 0.2, v = 0.2, t = 0.2)
movej(p[0.541537794818859, 0.0120336128583033, 0.159863606471995, -1.18631076055893, 1.14251402414797, -1.18246269147144], a = 0.2, v = 0.2, t = 0.2)
movej(p[0.539172043893967, 0.0119540675223641, 0.159536197368724, -1.16113788565152, 1.11098514011291, -1.17384554844844], a = 0.2, v = 0.2, t = 0.2)
movej(p[0.536350201662579, 0.0122246680113003, 0.160028581677515, -1.17182389193605, 1.11809834582528, -1.14545187768641], a = 0.2, v = 0.2, t = 0.2)
movej(p[0.533392702051926, 0.0123210477345889, 0.160686979815962, -1.21032360422193, 1.15872859429906, -1.1109637301832], a = 0.2, v = 0.2, t = 0.2)
movej(p[0.530609407045445, 0.0125663076851798, 0.161517670305775, -1.25145739374537, 1.16706375876188, -1.07671840583707], a = 0.2, v = 0.2, t = 0.2)
movej(p[0.528685355668674, 0.0125118290589434, 0.162309962551684, -1.29839083099454, 1.18922686382201, -1.07259143768596], a = 0.2, v = 0.2, t = 0.2)
movej(p[0.528037965214987, 0.0123654430454708, 0.162958057070358, -1.31433461110724, 1.18968945006683, -1.07060650820673], a = 0.2, v = 0.2, t = 0.2)
movej(p[0.529204354608113, 0.0121868354181915, 0.163451922938246, -1.33545955622929, 1.23674573042997, -1.07288327386424], a = 0.2, v = 0.2, t = 0.2)
movej(p[0.531477294873536, 0.0121435744537122, 0.163534604435901, -1.31730183922721, 1.25586130871334, -1.07583800420953], a = 0.2, v = 0.2, t = 0.2)
movej(p[0.534159302826466, 0.0121664386874034, 0.163322331616772, -1.28467546914068, 1.26879044997467, -1.09372603189885], a = 0.2, v = 0.2, t = 0.2)
movej(p[0.536650573450233, 0.0121401526883981, 0.163085654746952, -1.2696925205753, 1.24973657405057, -1.12553288466389], a = 0.2, v = 0.2, t = 0.2)
movej(p[0.538559798893849, 0.0120640166093763, 0.162585742695204, -1.25932373083864, 1.24963336938332, -1.13376894278435], a = 0.2, v = 0.2, t = 0.2)
movej(p[0.540062544570447, 0.0120418384925062, 0.162097097570702, -1.26812921718399, 1.25009188846369, -1.13905033614349], a = 0.2, v = 0.2, t = 0.2)
movej(p[0.541176516467544, 0.0121441251206327, 0.16178504981749, -1.25298668177557, 1.24578563912749, -1.14785561547788], a = 0.2, v = 0.2, t = 0.2)
movej(p[0.542048166374924, 0.012118155112587, 0.161663566880226, -1.21955684004893, 1.24178589912426, -1.15136744133223], a = 0.2, v = 0.2, t = 0.2)
movej(p[0.542814276496984, 0.0120742662304144, 0.161379439337566, -1.20018481733075, 1.21950640395603, -1.15684189784067], a = 0.2, v = 0.2, t = 0.2)
movej(p[0.542691763243159, 0.0120349531264787, 0.160930267439407, -1.18404246573596, 1.19367613364034, -1.16815704145915], a = 0.2, v = 0.2, t = 0.2)
movej(p[0.541510651116361, 0.0121068914309939, 0.160415635214633, -1.1967819522767, 1.14787169052372, -1.17957885247781], a = 0.2, v = 0.2, t = 0.2)
movej(p[0.538873877636781, 0.0122757143611889, 0.160494263579249, -1.20779054467502, 1.13314762224619, -1.17405905560223], a = 0.2, v = 0.2, t = 0.2)
movej(p[0.535821167880875, 0.0123931568560255, 0.160753903283232, -1.22211208211717, 1.13897621552027, -1.14298287730194], a = 0.2, v = 0.2, t = 0.2)
movej(p[0.532921459742999, 0.0123190006731389, 0.161441912414818, -1.24168321879639, 1.15187917211038, -1.11132990561937], a = 0.2, v = 0.2, t = 0.2)
movej(p[0.530352491765517, 0.0123425382107344, 0.162248768072251, -1.25930225707822, 1.16371980049522, -1.08242030926361], a = 0.2, v = 0.2, t = 0.2)
movej(p[0.528793076330972, 0.0123455983899953, 0.163142441765668, -1.2837106304677, 1.17066351062439, -1.07652668682309], a = 0.2, v = 0.2, t = 0.2)
movej(p[0.528654648486786, 0.0123690783248364, 0.163764826250624, -1.28102030869782, 1.19972465544349, -1.07412920886507], a = 0.2, v = 0.2, t = 0.2)
movej(p[0.530236373404965, 0.0122955388908517, 0.163779975486932, -1.28618397682479, 1.24254711736527, -1.0860412791947], a = 0.2, v = 0.2, t = 0.2)
movej(p[0.532751489926022, 0.0122104089389657, 0.163390233790676, -1.28062448972517, 1.25796396620088, -1.09817698170894], a = 0.2, v = 0.2, t = 0.2)
movej(p[0.535285502066697, 0.0121843501800363, 0.163045696340038, -1.27494551517688, 1.2666779755364, -1.10648978489282], a = 0.2, v = 0.2, t = 0.2)
movej(p[0.537425615207287, 0.0122176593104502, 0.162895712872259, -1.27169596850439, 1.25975671896615, -1.11806892231435], a = 0.2, v = 0.2, t = 0.2)
movej(p[0.539148292902983, 0.0121772794630982, 0.162813307557036, -1.24567803654746, 1.25539575319004, -1.12682697999863], a = 0.2, v = 0.2, t = 0.2)
movej(p[0.540453364617708, 0.0122690348470813, 0.162682794780894, -1.25522387269366, 1.24712563952034, -1.14610175854223], a = 0.2, v = 0.2, t = 0.2)
movej(p[0.541659424095279, 0.0121753375167921, 0.162397407387903, -1.24477032175391, 1.22769623905693, -1.16184759982698], a = 0.2, v = 0.2, t = 0.2)
movej(p[0.542540991375239, 0.0121920885115868, 0.16230200258206, -1.23097955336714, 1.20331916620562, -1.18406426806261], a = 0.2, v = 0.2, t = 0.2)
movej(p[0.542467069861974, 0.0121374670623138, 0.161994378432072, -1.22639934772681, 1.19202854518353, -1.17493591002143], a = 0.2, v = 0.2, t = 0.2)
movej(p[0.541352612195078, 0.0121729243408465, 0.1616263177254, -1.21572837606957, 1.17269265018377, -1.15852342191027], a = 0.2, v = 0.2, t = 0.2)
movej(p[0.53890835292647, 0.0121695195885354, 0.161392494802688, -1.2150516840327, 1.18008601174322, -1.1297163151871], a = 0.2, v = 0.2, t = 0.2)
movej(p[0.536191330441487, 0.0122533774452186, 0.161497550710039, -1.19966830728464, 1.17097903030308, -1.10702279964294], a = 0.2, v = 0.2, t = 0.2)
movej(p[0.533261311196859, 0.0123938021322744, 0.162223977603332, -1.20926330015197, 1.15469754096798, -1.10656242099244], a = 0.2, v = 0.2, t = 0.2)
movej(p[0.530709347568528, 0.0125306988173231, 0.163176752988608, -1.2448018088773, 1.1488755855544, -1.08356503800691], a = 0.2, v = 0.2, t = 0.2)
movej(p[0.528682638367303, 0.0125496108534523, 0.163975522746086, -1.27238914837393, 1.16285926927919, -1.07314154705602], a = 0.2, v = 0.2, t = 0.2)
movej(p[0.527870384989609, 0.0124007637667079, 0.164377311241679, -1.28369701023746, 1.21338583765148, -1.04258413616416], a = 0.2, v = 0.2, t = 0.2)
movej(p[0.528803768027678, 0.0123030058532698, 0.164493036498235, -1.28779867486123, 1.24661288020092, -1.05321459965091], a = 0.2, v = 0.2, t = 0.2)
movej(p[0.530892909194368, 0.012116250172554, 0.164394623165061, -1.27929877184021, 1.27327443460663, -1.05814771563428], a = 0.2, v = 0.2, t = 0.2)
movej(p[0.533581699944365, 0.0120925906568437, 0.163994140343994, -1.27737591602839, 1.26515677443348, -1.09982400137555], a = 0.2, v = 0.2, t = 0.2)
movej(p[0.536127111106832, 0.0120819210814057, 0.1636832708237, -1.2640312672049, 1.25548518840118, -1.12285498414494], a = 0.2, v = 0.2, t = 0.2)
movej(p[0.538107819265352, 0.0121212186430205, 0.163231339829051, -1.27309774728143, 1.2449489264902, -1.13913329315494], a = 0.2, v = 0.2, t = 0.2)
movej(p[0.539468252299016, 0.0120902979808135, 0.163065199582377, -1.25408264774195, 1.2300135453547, -1.15189771150539], a = 0.2, v = 0.2, t = 0.2)
movej(p[0.540586642880615, 0.0120273901525621, 0.162687333144817, -1.25058383140031, 1.21378315278908, -1.16670745475101], a = 0.2, v = 0.2, t = 0.2)
movej(p[0.541563918178271, 0.0120147600103601, 0.162538334206147, -1.24421547676798, 1.18469193556118, -1.20278882402827], a = 0.2, v = 0.2, t = 0.2)
movej(p[0.542105490001911, 0.0119595733924952, 0.162199304451003, -1.26016973140248, 1.1543721237218, -1.21349267441244], a = 0.2, v = 0.2, t = 0.2)
movej(p[0.541654624053437, 0.0120356927638907, 0.161968967714452, -1.25341273394497, 1.14435602736403, -1.21533704564274], a = 0.2, v = 0.2, t = 0.2)
movej(p[0.540346598791782, 0.0120565321270524, 0.161658303482495, -1.24607086816756, 1.12440459263293, -1.19794003055679], a = 0.2, v = 0.2, t = 0.2)
movej(p[0.538528301640505, 0.0121115951436814, 0.161376021405209, -1.22574061922512, 1.14605144478422, -1.16349552789186], a = 0.2, v = 0.2, t = 0.2)
movej(p[0.536432832715387, 0.0121603325247834, 0.161512486967346, -1.22367465074034, 1.16296407271451, -1.11957562470223], a = 0.2, v = 0.2, t = 0.2)
movej(p[0.534125316809345, 0.0122776710605081, 0.161835319233228, -1.19508021187756, 1.18968007965683, -1.08171692345368], a = 0.2, v = 0.2, t = 0.2)
movej(p[0.531738060309587, 0.0124573971559609, 0.162465453458436, -1.20600880056367, 1.19253100612971, -1.0604861914173], a = 0.2, v = 0.2, t = 0.2)
movej(p[0.52946687483171, 0.0124465185421246, 0.163147875024142, -1.2295325259498, 1.18878668603837, -1.05906962778618], a = 0.2, v = 0.2, t = 0.2)
movej(p[0.528125340550941, 0.0123873197943142, 0.164090673775615, -1.27668519145597, 1.21710964193425, -1.04310058681713], a = 0.2, v = 0.2, t = 0.2)
movej(p[0.527917682591425, 0.0122164462904379, 0.164649329894907, -1.29696526097888, 1.21917170757882, -1.05008241354988], a = 0.2, v = 0.2, t = 0.2)
movej(p[0.529223157143244, 0.0121349535785264, 0.164820664303446, -1.31384144848243, 1.23699732098287, -1.05408963517602], a = 0.2, v = 0.2, t = 0.2)
movej(p[0.531531361318261, 0.0120908022403779, 0.16456763855879, -1.30288696283864, 1.23622905318979, -1.08001375415521], a = 0.2, v = 0.2, t = 0.2)
movej(p[0.534016265139906, 0.0121393596472564, 0.164344656641561, -1.29064137238028, 1.23692043202004, -1.10497278959111], a = 0.2, v = 0.2, t = 0.2)
movej(p[0.536451367783288, 0.0121105810954061, 0.163905857745084, -1.27591860416606, 1.24170616689129, -1.1266379066523], a = 0.2, v = 0.2, t = 0.2)
movej(p[0.538264120420799, 0.0120626771825743, 0.163745884480966, -1.25559372477934, 1.24998358816349, -1.12794831482801], a = 0.2, v = 0.2, t = 0.2)
movej(p[0.539689850377295, 0.0120278018657525, 0.163501920978928, -1.24973267839155, 1.25040406046009, -1.12834140505484], a = 0.2, v = 0.2, t = 0.2)
movej(p[0.540826794603729, 0.0121140491475951, 0.16329380310571, -1.2375360924275, 1.22676370230707, -1.14234846907057], a = 0.2, v = 0.2, t = 0.2)
movej(p[0.541810791497064, 0.0121121153727942, 0.162796144982877, -1.2403124529058, 1.17565968584031, -1.17794506653602], a = 0.2, v = 0.2, t = 0.2)
