def moving():
set_payload_mass(0.62)
set_tcp(p[0,0,0,0,0,0])
movej(p[0.3675, -0.1061, 0.3453, -1.142, 1.164, -1.156], a = 0.2, v = 0.2, t = 0.2)
movej(p[0.368736049001965, -0.10737318257928, 0.346540439028957, -1.142, 1.164, -1.156], a = 0.2, v = 0.2, t = 0.2)
movej(p[0.36997209800393, -0.10864636515856, 0.347780878057914, -1.142, 1.164, -1.156], a = 0.2, v = 0.2, t = 0.2)
movej(p[0.371208147005894, -0.10991954773784, 0.349021317086871, -1.142, 1.164, -1.156], a = 0.2, v = 0.2, t = 0.2)
movej(p[0.372444196007859, -0.111192730317119, 0.350261756115829, -1.142, 1.164, -1.156], a = 0.2, v = 0.2, t = 0.2)
movej(p[0.371208147005894, -0.10991954773784, 0.349021317086871, -1.142, 1.164, -1.156], a = 0.2, v = 0.2, t = 0.2)
movej(p[0.36997209800393, -0.10864636515856, 0.347780878057914, -1.142, 1.164, -1.156], a = 0.2, v = 0.2, t = 0.2)
movej(p[0.368736049001965, -0.10737318257928, 0.346540439028957, -1.142, 1.164, -1.156], a = 0.2, v = 0.2, t = 0.2)
movej(p[0.3675, -0.1061, 0.3453, -1.142, 1.164, -1.156], a = 0.2, v = 0.2, t = 0.2)
movej(p[0.367635181907918, -0.106119663101341, 0.3453021152346, -1.14180882164516, 1.16410957827003, -1.15575014089537], a = 0.2, v = 0.2, t = 0.2)
movej(p[0.367770463552778, -0.106139321882794, 0.345304236289927, -1.14161764498607, 1.16421913612989, -1.15550027461503], a = 0.2, v = 0.2, t = 0.2)
movej(p[0.367779539614549, -0.106138928773032, 0.345304765976104, -1.14140991014262, 1.16435277387842, -1.15527414102319], a = 0.2, v = 0.2, t = 0.2)
movej(p[0.367775385850052, -0.106120967730498, 0.345362609966212, -1.14135599083058, 1.16440378773347, -1.15525704090766], a = 0.2, v = 0.2, t = 0.2)
movej(p[0.367162526243432, -0.105908868976391, 0.345754056004742, -1.1416983112863, 1.17037943786419, -1.15111514374488], a = 0.2, v = 0.2, t = 0.2)
movej(p[0.367162526243432, -0.105908868976391, 0.345754056004742, -1.1413554143023, 1.17068139901171, -1.15095393070298], a = 0.2, v = 0.2, t = 0.2)
movej(p[0.367364348837187, -0.105958184762037, 0.345698026959274, -1.1413474676131, 1.17067412069272, -1.15095882952201], a = 0.2, v = 0.2, t = 0.2)
movej(p[0.367366063921341, -0.105963749858675, 0.345672769521048, -1.14034222257547, 1.16850422767503, -1.15224491036394], a = 0.2, v = 0.2, t = 0.2)
movej(p[0.367369833053207, -0.105968172721636, 0.345611468689665, -1.13865541221561, 1.1654093555348, -1.15390399924648], a = 0.2, v = 0.2, t = 0.2)
movej(p[0.367672035962072, -0.106039953845785, 0.345391443300017, -1.13782861590375, 1.16186778271397, -1.15718341976525], a = 0.2, v = 0.2, t = 0.2)
movej(p[0.368340205572952, -0.106201121645768, 0.345418077889287, -1.13838986873807, 1.16150571264851, -1.1577926894878], a = 0.2, v = 0.2, t = 0.2)
movej(p[0.368491253770665, -0.106234504651341, 0.345483211574169, -1.13842642713725, 1.16126697787629, -1.15782589096381], a = 0.2, v = 0.2, t = 0.2)
movej(p[0.368505513477786, -0.106241934166742, 0.345502088095399, -1.13920070557062, 1.16006042804941, -1.15948714695518], a = 0.2, v = 0.2, t = 0.2)
movej(p[0.368507400751422, -0.106242096910628, 0.345483614825178, -1.13833213041515, 1.15890765452423, -1.16039792415147], a = 0.2, v = 0.2, t = 0.2)
movej(p[0.368766630242684, -0.10632013411431, 0.345511507399479, -1.1384872358407, 1.15827841747847, -1.16138147146669], a = 0.2, v = 0.2, t = 0.2)
movej(p[0.368831604422, -0.10635742049749, 0.345563175684254, -1.13750560343154, 1.15864041815114, -1.16107366056053], a = 0.2, v = 0.2, t = 0.2)
movej(p[0.368830824089449, -0.106358333908192, 0.345577224412382, -1.13645567698237, 1.1597183209556, -1.16095276140204], a = 0.2, v = 0.2, t = 0.2)
movej(p[0.368778735400804, -0.106343007763306, 0.34557532762612, -1.13676023689188, 1.16017098096314, -1.16058112854047], a = 0.2, v = 0.2, t = 0.2)
movej(p[0.368184180277296, -0.106200224240236, 0.345773292826724, -1.13922150333379, 1.16498659681071, -1.15518114785199], a = 0.2, v = 0.2, t = 0.2)
movej(p[0.36647940942713, -0.105781259836934, 0.346300504138431, -1.14261862085437, 1.17557741302321, -1.14469534969741], a = 0.2, v = 0.2, t = 0.2)
movej(p[0.364888987263052, -0.105317816617401, 0.346548208826072, -1.13793501660855, 1.18360371122626, -1.13388389755017], a = 0.2, v = 0.2, t = 0.2)
movej(p[0.362780418471526, -0.104876020702781, 0.347395816961489, -1.13371855436594, 1.1898521372706, -1.12855516210159], a = 0.2, v = 0.2, t = 0.2)
movej(p[0.358427953251895, -0.103707802929384, 0.3484996316406, -1.12215099277005, 1.21025270713869, -1.10631987080959], a = 0.2, v = 0.2, t = 0.2)
movej(p[0.355962254081607, -0.103129330527337, 0.349305778464519, -1.11801313878964, 1.21283674983387, -1.10209277778204], a = 0.2, v = 0.2, t = 0.2)
movej(p[0.355961036541457, -0.103130755707157, 0.349327698465852, -1.11602962448905, 1.21546868554508, -1.10473221706505], a = 0.2, v = 0.2, t = 0.2)
movej(p[0.356835396707098, -0.1035391342654, 0.349349712868139, -1.1135695268607, 1.2116207791318, -1.10830634206886], a = 0.2, v = 0.2, t = 0.2)
movej(p[0.359177751751716, -0.10393405137824, 0.348328649217361, -1.11461080220342, 1.20048162024747, -1.11873348068305], a = 0.2, v = 0.2, t = 0.2)
movej(p[0.361584686056053, -0.104409592603695, 0.347439416032254, -1.12576522084493, 1.18860512182877, -1.13353945049689], a = 0.2, v = 0.2, t = 0.2)
movej(p[0.363719121128993, -0.104855157965874, 0.346692561590323, -1.12881753785731, 1.17825619951041, -1.14470082205032], a = 0.2, v = 0.2, t = 0.2)
movej(p[0.36561414199203, -0.105359749802905, 0.346171354043703, -1.13164710243849, 1.17168435017406, -1.1516141820525], a = 0.2, v = 0.2, t = 0.2)
movej(p[0.366367087993479, -0.105621243498086, 0.346025855259234, -1.13609035715495, 1.16749756570791, -1.155012332734], a = 0.2, v = 0.2, t = 0.2)
movej(p[0.366967250779662, -0.105746876310612, 0.345827309328784, -1.13601487579009, 1.16742830877834, -1.15505872689665], a = 0.2, v = 0.2, t = 0.2)
movej(p[0.367635598761501, -0.105979453305415, 0.345702878518047, -1.13489025381599, 1.16461695033175, -1.15739932772575], a = 0.2, v = 0.2, t = 0.2)
movej(p[0.368102350332954, -0.106157854687692, 0.345609814414614, -1.13725876659454, 1.16279398740511, -1.15919718513455], a = 0.2, v = 0.2, t = 0.2)
movej(p[0.368328267498899, -0.106201227102324, 0.345526504644596, -1.13730266014637, 1.16192785223797, -1.15885383981068], a = 0.2, v = 0.2, t = 0.2)
movej(p[0.368499601754207, -0.106402095886399, 0.345522961405647, -1.13976461398676, 1.1617502759449, -1.15650060880375], a = 0.2, v = 0.2, t = 0.2)
movej(p[0.368497028317071, -0.10640510819829, 0.345569292317556, -1.13874260184827, 1.16382330077458, -1.15353001074603], a = 0.2, v = 0.2, t = 0.2)
movej(p[0.36819366484154, -0.106234743230014, 0.345605471307288, -1.13894819039926, 1.16439982556304, -1.15298062514991], a = 0.2, v = 0.2, t = 0.2)
movej(p[0.366973002109263, -0.106004763187125, 0.345994027717481, -1.13696968780721, 1.17053068515366, -1.14694563379146], a = 0.2, v = 0.2, t = 0.2)
movej(p[0.365362516312296, -0.105468616586535, 0.346418173412311, -1.13250801074211, 1.17943299564282, -1.13531531829933], a = 0.2, v = 0.2, t = 0.2)
movej(p[0.364519328899664, -0.105285643306263, 0.346678709678282, -1.1290557824244, 1.18609743333495, -1.12645055836726], a = 0.2, v = 0.2, t = 0.2)
movej(p[0.361885394081092, -0.104629343322378, 0.347485389560679, -1.12913261473219, 1.19235540430858, -1.12498263949486], a = 0.2, v = 0.2, t = 0.2)
movej(p[0.359527114033514, -0.10392562227902, 0.348168748478329, -1.12137285252985, 1.20396997699568, -1.10954977137409], a = 0.2, v = 0.2, t = 0.2)
movej(p[0.356886527053917, -0.103394413114088, 0.349015602802447, -1.12084004985244, 1.21321717217537, -1.09843230454548], a = 0.2, v = 0.2, t = 0.2)
movej(p[0.356886527053917, -0.103394413114088, 0.349015602802447, -1.12118444886637, 1.21269269237565, -1.09795393212742], a = 0.2, v = 0.2, t = 0.2)
movej(p[0.357866011736459, -0.103616195237086, 0.348738535416086, -1.11947145660895, 1.20605570108658, -1.10512776676735], a = 0.2, v = 0.2, t = 0.2)
movej(p[0.361060951271818, -0.104332435219033, 0.347747349180476, -1.13276755927354, 1.18914326484268, -1.1342573629819], a = 0.2, v = 0.2, t = 0.2)
movej(p[0.362954842917288, -0.104632961784331, 0.347149018227937, -1.12753253104802, 1.18587575028801, -1.13961876657722], a = 0.2, v = 0.2, t = 0.2)
movej(p[0.364574801437903, -0.105210814762231, 0.346667385964254, -1.12623516294075, 1.18201212992141, -1.14380948746886], a = 0.2, v = 0.2, t = 0.2)
movej(p[0.365727414413509, -0.105473971442231, 0.34632528320157, -1.12766793759959, 1.17526430184015, -1.15147550774548], a = 0.2, v = 0.2, t = 0.2)
movej(p[0.366830537972755, -0.105839613990289, 0.345976076600707, -1.13742214600072, 1.16655640177642, -1.15559018039518], a = 0.2, v = 0.2, t = 0.2)
movej(p[0.367343902355863, -0.105950366346208, 0.345820948860396, -1.14184113951164, 1.16326241482463, -1.15795951742326], a = 0.2, v = 0.2, t = 0.2)
movej(p[0.367726068748173, -0.106035174510495, 0.345705886643054, -1.14184113951164, 1.16326241482463, -1.15795951742326], a = 0.2, v = 0.2, t = 0.2)
movej(p[0.367984087981944, -0.106103124547987, 0.345613026601007, -1.13899838678105, 1.16427978491363, -1.15664472299126], a = 0.2, v = 0.2, t = 0.2)
movej(p[0.368010907596302, -0.106134861271247, 0.345606531319457, -1.13812368882844, 1.16466902013045, -1.15759379737172], a = 0.2, v = 0.2, t = 0.2)
movej(p[0.368063854830327, -0.106148964851942, 0.345591091778639, -1.13677552131513, 1.16519907499044, -1.1608016288422], a = 0.2, v = 0.2, t = 0.2)
movej(p[0.368063854830327, -0.106148964851942, 0.345591091778639, -1.13672900327078, 1.16527620529885, -1.16087171653936], a = 0.2, v = 0.2, t = 0.2)
movej(p[0.367172702583574, -0.105836269942073, 0.345874560412617, -1.13500662480559, 1.17473835148691, -1.15535427773899], a = 0.2, v = 0.2, t = 0.2)
movej(p[0.364430570509255, -0.10486534002891, 0.346715960626972, -1.13489672256522, 1.18410093716729, -1.14494350460317], a = 0.2, v = 0.2, t = 0.2)
movej(p[0.362415579963946, -0.104414726687583, 0.34734000589691, -1.1343382055119, 1.19255688799093, -1.13498154226092], a = 0.2, v = 0.2, t = 0.2)
movej(p[0.359985097174581, -0.103822996839393, 0.348153085731466, -1.12128238113222, 1.20223734388634, -1.11773096914754], a = 0.2, v = 0.2, t = 0.2)
movej(p[0.357469514636497, -0.103158524313428, 0.348956432858383, -1.11760515984112, 1.20749661411775, -1.10486766692192], a = 0.2, v = 0.2, t = 0.2)
movej(p[0.355680235889007, -0.102915018219783, 0.349534586165161, -1.12023107740696, 1.20746259894575, -1.1024302715946], a = 0.2, v = 0.2, t = 0.2)
movej(p[0.355680235889007, -0.102915018219783, 0.349534586165161, -1.12339293735445, 1.20556306934935, -1.1059121779035], a = 0.2, v = 0.2, t = 0.2)
movej(p[0.356811323129251, -0.103207851375018, 0.349224285281898, -1.12751078060282, 1.19995365966812, -1.11499580471769], a = 0.2, v = 0.2, t = 0.2)
movej(p[0.359499479909516, -0.103775510817505, 0.348386535425395, -1.12492307471855, 1.19352574116358, -1.12190228035857], a = 0.2, v = 0.2, t = 0.2)
movej(p[0.362366063528227, -0.104550773384351, 0.347452762310883, -1.13059615076065, 1.18576306839569, -1.13711388353127], a = 0.2, v = 0.2, t = 0.2)
movej(p[0.364859903628358, -0.10526595023585, 0.346638688219625, -1.13340155399318, 1.17868692317984, -1.1461204854127], a = 0.2, v = 0.2, t = 0.2)
movej(p[0.365810811295836, -0.105593280456524, 0.346293955751523, -1.14263999206418, 1.17281574851357, -1.15607468544267], a = 0.2, v = 0.2, t = 0.2)
movej(p[0.366695787723433, -0.105936339839753, 0.345963607825577, -1.14392280731099, 1.17200081168403, -1.15747048742072], a = 0.2, v = 0.2, t = 0.2)
movej(p[0.367272913511482, -0.106091953003184, 0.345774880513998, -1.14294245002128, 1.16720815539761, -1.16230983060836], a = 0.2, v = 0.2, t = 0.2)
movej(p[0.367611675556486, -0.106129777114894, 0.345676319855325, -1.14314597440902, 1.16555025948943, -1.16155044780227], a = 0.2, v = 0.2, t = 0.2)
movej(p[0.368187413549798, -0.106316819574451, 0.345469413617188, -1.14235549568369, 1.16438025070573, -1.16188232163744], a = 0.2, v = 0.2, t = 0.2)
movej(p[0.368187413549798, -0.106316819574451, 0.345469413617188, -1.14024225842519, 1.16573684971403, -1.15958886494478], a = 0.2, v = 0.2, t = 0.2)
movej(p[0.367960084432019, -0.106154027642798, 0.345584496887904, -1.13761992243279, 1.16891144338056, -1.16001886266876], a = 0.2, v = 0.2, t = 0.2)
movej(p[0.367461074115349, -0.105928579080781, 0.345788225873913, -1.13642122602793, 1.17243010494031, -1.15668235056226], a = 0.2, v = 0.2, t = 0.2)
movej(p[0.366837723782887, -0.105667149333159, 0.346029039287324, -1.13274362975353, 1.17697116028908, -1.15341426290644], a = 0.2, v = 0.2, t = 0.2)
movej(p[0.364644080567395, -0.105006705567016, 0.346783966359886, -1.13250541695932, 1.18631580186104, -1.14294075657115], a = 0.2, v = 0.2, t = 0.2)
movej(p[0.362696849792353, -0.104440637161248, 0.347466955260762, -1.1322019954385, 1.1950046600718, -1.13618723347753], a = 0.2, v = 0.2, t = 0.2)
movej(p[0.360401561092078, -0.103891064009976, 0.348198991457815, -1.12446292574648, 1.20179749802178, -1.12336446221073], a = 0.2, v = 0.2, t = 0.2)
movej(p[0.357859792081767, -0.103386854451901, 0.348954935000527, -1.11696565140195, 1.20897934679873, -1.11205410352159], a = 0.2, v = 0.2, t = 0.2)
movej(p[0.356788600590352, -0.103230924553642, 0.349244205489082, -1.1160453403326, 1.21181958464508, -1.10650819527571], a = 0.2, v = 0.2, t = 0.2)
movej(p[0.356788600590352, -0.103230924553642, 0.349244205489082, -1.11691060015975, 1.21050033624479, -1.1053000567597], a = 0.2, v = 0.2, t = 0.2)
movej(p[0.360029705088334, -0.103924271559617, 0.348295411326755, -1.12263777544613, 1.19482668181559, -1.12083188834937], a = 0.2, v = 0.2, t = 0.2)
movej(p[0.362058699953116, -0.104579314794981, 0.347547045875591, -1.13505224965167, 1.18456837322202, -1.13436595340391], a = 0.2, v = 0.2, t = 0.2)
movej(p[0.364097238419148, -0.105214446043406, 0.34679217485364, -1.13941709037665, 1.17803942707235, -1.14338837477839], a = 0.2, v = 0.2, t = 0.2)
movej(p[0.365503108777287, -0.105658816474401, 0.346296088927452, -1.14154316164018, 1.17298561928845, -1.15155355324075], a = 0.2, v = 0.2, t = 0.2)
movej(p[0.366413864736227, -0.10599893244677, 0.345918687286496, -1.13880457600559, 1.1723395321378, -1.15421653631669], a = 0.2, v = 0.2, t = 0.2)
movej(p[0.36755109387731, -0.106132469445046, 0.345678701347819, -1.1415781819985, 1.16742717975666, -1.16066380326963], a = 0.2, v = 0.2, t = 0.2)
movej(p[0.367858694414338, -0.106246019322839, 0.345551807514742, -1.14319999682494, 1.1643719983967, -1.16019219433301], a = 0.2, v = 0.2, t = 0.2)
movej(p[0.367986342822449, -0.106246886862615, 0.345505848606124, -1.14152187098503, 1.16282438572808, -1.16121716769636], a = 0.2, v = 0.2, t = 0.2)
movej(p[0.368058253158019, -0.10624377222373, 0.345510045350451, -1.14190496653814, 1.16236786754258, -1.16110197809305], a = 0.2, v = 0.2, t = 0.2)
movej(p[0.368055375875192, -0.106211590712343, 0.345535463288377, -1.14112581986347, 1.16383103304771, -1.16136526555006], a = 0.2, v = 0.2, t = 0.2)
movej(p[0.368022934085642, -0.105960458356415, 0.345760655317759, -1.14412090661693, 1.16659456736007, -1.15953203463984], a = 0.2, v = 0.2, t = 0.2)
movej(p[0.366812871728397, -0.105535730456747, 0.346230208853388, -1.13741522274933, 1.17932162015334, -1.15549797685576], a = 0.2, v = 0.2, t = 0.2)
movej(p[0.364937226176868, -0.105069663548665, 0.346795051674197, -1.132667780569, 1.18833076334829, -1.14629321530144], a = 0.2, v = 0.2, t = 0.2)
movej(p[0.363169501847738, -0.104590167892972, 0.347380210953688, -1.12836562467764, 1.1996747403018, -1.13344401871108], a = 0.2, v = 0.2, t = 0.2)
movej(p[0.360895594988501, -0.104067156525306, 0.348052492497989, -1.12661475107061, 1.20531763352961, -1.12626939769915], a = 0.2, v = 0.2, t = 0.2)
movej(p[0.358447168579985, -0.103557611212486, 0.348703164732114, -1.1242090329356, 1.20888790215175, -1.11472864972774], a = 0.2, v = 0.2, t = 0.2)
movej(p[0.358139535280639, -0.103554610942232, 0.348756327139059, -1.12574689274238, 1.20642180202243, -1.11233517815425], a = 0.2, v = 0.2, t = 0.2)
movej(p[0.358139535280639, -0.103554610942232, 0.348756327139059, -1.12044255399838, 1.20325980183394, -1.11393021568522], a = 0.2, v = 0.2, t = 0.2)
movej(p[0.360067694074964, -0.104051628061281, 0.348154751992266, -1.11383209953946, 1.19736328115508, -1.11818159603423], a = 0.2, v = 0.2, t = 0.2)
movej(p[0.362047563519733, -0.10466416823493, 0.347422881172151, -1.12787939094207, 1.18539157467056, -1.13145815137824], a = 0.2, v = 0.2, t = 0.2)
movej(p[0.36398770827553, -0.1052712484787, 0.346694177093545, -1.13582823817204, 1.17605632638184, -1.14285666161648], a = 0.2, v = 0.2, t = 0.2)
movej(p[0.366137919438066, -0.10584714552241, 0.345991914890695, -1.14304582309278, 1.16937162422607, -1.15304811504196], a = 0.2, v = 0.2, t = 0.2)
movej(p[0.366747698653535, -0.106074375761386, 0.345703994594645, -1.14529614070498, 1.16695547406018, -1.15656848734065], a = 0.2, v = 0.2, t = 0.2)
movej(p[0.367237694937622, -0.106160800748597, 0.345597927949714, -1.15117692767339, 1.16223933838777, -1.16064117898232], a = 0.2, v = 0.2, t = 0.2)
movej(p[0.367644970735289, -0.106219244740965, 0.345526120537904, -1.15187351908532, 1.16169097832261, -1.16150730251791], a = 0.2, v = 0.2, t = 0.2)
movej(p[0.36798905441961, -0.106224897057648, 0.345520376018775, -1.14986578890052, 1.16086141976009, -1.16308337245696], a = 0.2, v = 0.2, t = 0.2)
movej(p[0.368301629997521, -0.106211358530232, 0.34553861817789, -1.14878021141502, 1.16111369230135, -1.16415232418719], a = 0.2, v = 0.2, t = 0.2)
movej(p[0.368304948915054, -0.106196041902744, 0.345552845816794, -1.14731164336088, 1.16206305280752, -1.16255430461211], a = 0.2, v = 0.2, t = 0.2)
movej(p[0.368297313095794, -0.106171396311084, 0.345582929185555, -1.1473847793559, 1.16179998299526, -1.16209098037864], a = 0.2, v = 0.2, t = 0.2)
movej(p[0.368020505476945, -0.10603743590887, 0.345756318466612, -1.14700129316782, 1.16209967699796, -1.16161740680713], a = 0.2, v = 0.2, t = 0.2)
movej(p[0.366889124821303, -0.105576391918851, 0.346305869948555, -1.14248232012227, 1.1764928547831, -1.15435661097463], a = 0.2, v = 0.2, t = 0.2)
movej(p[0.365930948471607, -0.105224958174456, 0.346755543192351, -1.14199202690715, 1.18664259502627, -1.14999714226818], a = 0.2, v = 0.2, t = 0.2)
movej(p[0.363958740370803, -0.104757660137073, 0.347319618942033, -1.13614446218779, 1.19779702799149, -1.13809787426982], a = 0.2, v = 0.2, t = 0.2)
movej(p[0.362325850894343, -0.104348334136708, 0.347809448048038, -1.13526459089422, 1.20335354541211, -1.13140114504229], a = 0.2, v = 0.2, t = 0.2)
movej(p[0.361926941731552, -0.104219050509038, 0.347973944593467, -1.1336161213122, 1.20546366962775, -1.12831320858561], a = 0.2, v = 0.2, t = 0.2)
movej(p[0.360437862972201, -0.103913622955346, 0.348329011908065, -1.13121090540729, 1.20818622500461, -1.12326237420235], a = 0.2, v = 0.2, t = 0.2)
movej(p[0.357855090950632, -0.103263367660336, 0.349132821261028, -1.12004362412525, 1.21439618547066, -1.10985641764553], a = 0.2, v = 0.2, t = 0.2)
movej(p[0.357855090950632, -0.103263367660336, 0.349132821261028, -1.11844624788135, 1.20792189156375, -1.109342662997], a = 0.2, v = 0.2, t = 0.2)
movej(p[0.3609742894326, -0.10428755740875, 0.347848628584936, -1.12023886634949, 1.19289669289269, -1.12475392320517], a = 0.2, v = 0.2, t = 0.2)
movej(p[0.363143275888701, -0.104970092862767, 0.346950183947096, -1.12836757194784, 1.1853331256501, -1.13650369433144], a = 0.2, v = 0.2, t = 0.2)
movej(p[0.36493340981975, -0.105516967009057, 0.346256103968256, -1.13691524915689, 1.17896808420272, -1.14696036896469], a = 0.2, v = 0.2, t = 0.2)
movej(p[0.366101637610459, -0.105837623101635, 0.345850609998748, -1.1402863724199, 1.1730176146097, -1.15341853244623], a = 0.2, v = 0.2, t = 0.2)
movej(p[0.367111306738892, -0.105972636947694, 0.345763324132413, -1.14457567443561, 1.17028973287068, -1.15808625100533], a = 0.2, v = 0.2, t = 0.2)
movej(p[0.367408813877415, -0.106008427857151, 0.345760259278779, -1.146606990527, 1.16951794629373, -1.15972524695166], a = 0.2, v = 0.2, t = 0.2)
movej(p[0.367628623556976, -0.106079904968442, 0.345683916189158, -1.14954002182423, 1.16724533520062, -1.1619249813442], a = 0.2, v = 0.2, t = 0.2)
movej(p[0.367693951254338, -0.106077075442132, 0.345687728765489, -1.14926251345941, 1.16698836369709, -1.16209503725472], a = 0.2, v = 0.2, t = 0.2)
movej(p[0.367718959338547, -0.106086916160637, 0.345737255384427, -1.14912056620834, 1.16693396067162, -1.16220834014162], a = 0.2, v = 0.2, t = 0.2)
movej(p[0.36827168662233, -0.10609984425153, 0.345781668830898, -1.14850871502943, 1.16699873918871, -1.16267049486753], a = 0.2, v = 0.2, t = 0.2)
movej(p[0.368270496753547, -0.106101237040899, 0.345803090650383, -1.14568135579666, 1.1693668841686, -1.16099966390351], a = 0.2, v = 0.2, t = 0.2)
movej(p[0.367706964652302, -0.105879632880951, 0.346105057001423, -1.14579536886556, 1.17357443146663, -1.15687090647275], a = 0.2, v = 0.2, t = 0.2)
movej(p[0.366495387226754, -0.105501690179004, 0.346609522853535, -1.14795072507652, 1.18394333012563, -1.1507463738524], a = 0.2, v = 0.2, t = 0.2)
movej(p[0.36492556807534, -0.105107703311999, 0.347071146196189, -1.14328109625616, 1.19629891377783, -1.14085723387082], a = 0.2, v = 0.2, t = 0.2)
movej(p[0.363591522482646, -0.104744263542093, 0.347539061904691, -1.14019200118415, 1.20133358326775, -1.13420813844885], a = 0.2, v = 0.2, t = 0.2)
movej(p[0.363171371939897, -0.104629537321425, 0.347679753289358, -1.1376717803446, 1.20301698437561, -1.13184526106249], a = 0.2, v = 0.2, t = 0.2)
movej(p[0.362705720136261, -0.104496325388702, 0.347859666653927, -1.13520709672165, 1.20450649589914, -1.12914458633114], a = 0.2, v = 0.2, t = 0.2)
movej(p[0.360724284790492, -0.104009019278285, 0.348369430388698, -1.13099655185366, 1.20961368187947, -1.12129351611647], a = 0.2, v = 0.2, t = 0.2)
movej(p[0.360464968739896, -0.104020250985777, 0.348354296497919, -1.13171299502106, 1.20849732887131, -1.12028800083647], a = 0.2, v = 0.2, t = 0.2)
movej(p[0.360485233194199, -0.104103915317938, 0.348069161299433, -1.12731383087321, 1.19709442460228, -1.12390806777611], a = 0.2, v = 0.2, t = 0.2)
movej(p[0.364015276308973, -0.105089700235504, 0.346801754827878, -1.1335097154372, 1.18153212163309, -1.14219018967579], a = 0.2, v = 0.2, t = 0.2)
movej(p[0.365307497179519, -0.105496655517545, 0.346167099133708, -1.13892674194965, 1.17810464713172, -1.14810393350429], a = 0.2, v = 0.2, t = 0.2)
movej(p[0.366298586181213, -0.105754692953032, 0.34586413112779, -1.14190079650573, 1.17452669267618, -1.15301261842672], a = 0.2, v = 0.2, t = 0.2)
movej(p[0.366954539817158, -0.105905415351788, 0.345736706106682, -1.14423849903837, 1.17279177479647, -1.15502407546918], a = 0.2, v = 0.2, t = 0.2)
movej(p[0.36726842375186, -0.105984960426562, 0.345691660500741, -1.14611307286814, 1.17155685913438, -1.15709273968563], a = 0.2, v = 0.2, t = 0.2)
movej(p[0.367896628614072, -0.106094077052796, 0.345699587226017, -1.14531830425947, 1.16838000111068, -1.16024820540315], a = 0.2, v = 0.2, t = 0.2)
movej(p[0.368119010158375, -0.106142498292488, 0.345721838569791, -1.14557728663808, 1.16819939488588, -1.16067108472393], a = 0.2, v = 0.2, t = 0.2)
movej(p[0.36816395885054, -0.106149230868522, 0.345710850053394, -1.14593595540959, 1.16804170738935, -1.16124177306515], a = 0.2, v = 0.2, t = 0.2)
movej(p[0.368185572275338, -0.106168086561134, 0.345723872062633, -1.14602903601639, 1.16838523575107, -1.1617460399557], a = 0.2, v = 0.2, t = 0.2)
movej(p[0.368241205474364, -0.106166120196157, 0.345727792595112, -1.14685091445393, 1.16992309202119, -1.16150502535679], a = 0.2, v = 0.2, t = 0.2)
movej(p[0.368275192145198, -0.106178713929531, 0.345752648059004, -1.1469354284509, 1.16986916971919, -1.16159695355923], a = 0.2, v = 0.2, t = 0.2)
movej(p[0.36844598482684, -0.106212674671152, 0.345759926652706, -1.14588015441562, 1.16885847536628, -1.16254958276647], a = 0.2, v = 0.2, t = 0.2)
movej(p[0.368437235140579, -0.106222916531582, 0.345917451753199, -1.14588015441562, 1.16885847536628, -1.16254958276647], a = 0.2, v = 0.2, t = 0.2)
movej(p[0.36734308028271, -0.10590690685384, 0.346441876591069, -1.14604282464876, 1.17600858787541, -1.15518300741771], a = 0.2, v = 0.2, t = 0.2)
movej(p[0.366000059302173, -0.105541900125277, 0.346818464992298, -1.14614175639388, 1.18574888426864, -1.14472223470548], a = 0.2, v = 0.2, t = 0.2)
movej(p[0.364883882775683, -0.105241586543376, 0.347087626067197, -1.14744536227672, 1.19598959533402, -1.13337070210754], a = 0.2, v = 0.2, t = 0.2)
movej(p[0.363620590496869, -0.104907344850939, 0.347412847098688, -1.14327571143215, 1.19914234562441, -1.12796922569882], a = 0.2, v = 0.2, t = 0.2)
movej(p[0.362695430835867, -0.104666950077033, 0.34783274610361, -1.14205350268158, 1.20243855675087, -1.1236471743526], a = 0.2, v = 0.2, t = 0.2)
movej(p[0.360956272142241, -0.104205893524823, 0.348371623486737, -1.13550322564088, 1.20658163820577, -1.11605167615217], a = 0.2, v = 0.2, t = 0.2)
movej(p[0.360606936533556, -0.104111643302068, 0.348430811137606, -1.1342173400394, 1.20735541616858, -1.11463368517297], a = 0.2, v = 0.2, t = 0.2)
movej(p[0.360606936533556, -0.104111643302068, 0.348430811137606, -1.13332528248141, 1.20676019637912, -1.11527358409487], a = 0.2, v = 0.2, t = 0.2)
movej(p[0.361185975507748, -0.104282744764103, 0.348134896595793, -1.12954053068025, 1.20161819229007, -1.12114113832284], a = 0.2, v = 0.2, t = 0.2)
movej(p[0.362960671875359, -0.104756926656116, 0.34727858139327, -1.1317214730991, 1.18896926147168, -1.13645291825197], a = 0.2, v = 0.2, t = 0.2)
movej(p[0.365199667514958, -0.105365315737395, 0.346475862612103, -1.13466986501188, 1.17910097300587, -1.14805904608114], a = 0.2, v = 0.2, t = 0.2)
movej(p[0.365980723059748, -0.105542898916452, 0.346011495784617, -1.13860507807186, 1.17605890915481, -1.15089329868914], a = 0.2, v = 0.2, t = 0.2)
movej(p[0.366310247081441, -0.105609775837243, 0.345903808614571, -1.14039125040112, 1.17539004951487, -1.1509850514297], a = 0.2, v = 0.2, t = 0.2)
movej(p[0.366599965326188, -0.105835765498447, 0.345594678509777, -1.14527043374636, 1.16864595375319, -1.15793141583658], a = 0.2, v = 0.2, t = 0.2)
movej(p[0.367137153224093, -0.10596928184503, 0.345536145804906, -1.14563523445453, 1.16765726508975, -1.15941645417702], a = 0.2, v = 0.2, t = 0.2)
movej(p[0.368068291230824, -0.106196744508407, 0.345442301043784, -1.14634636068065, 1.16443532954134, -1.16335204736803], a = 0.2, v = 0.2, t = 0.2)
movej(p[0.368239947620894, -0.106233952035958, 0.345449215784675, -1.14624002152491, 1.16476760698237, -1.16389968860811], a = 0.2, v = 0.2, t = 0.2)
movej(p[0.368411146140704, -0.106278684309071, 0.345455816584392, -1.14631992209914, 1.16534888036646, -1.16402540989902], a = 0.2, v = 0.2, t = 0.2)
movej(p[0.368405373893538, -0.106285440957034, 0.345559737317987, -1.1445779490341, 1.16702187413865, -1.16353109732872], a = 0.2, v = 0.2, t = 0.2)
movej(p[0.368170384289627, -0.106157398266582, 0.345984772628845, -1.14171321991987, 1.16970401841062, -1.16257122959655], a = 0.2, v = 0.2, t = 0.2)
movej(p[0.367696808189875, -0.105994100700155, 0.346346858851369, -1.13941673197521, 1.17506061546676, -1.15831247820044], a = 0.2, v = 0.2, t = 0.2)
movej(p[0.366505260571347, -0.105658051542205, 0.34676942148131, -1.13863837724155, 1.18472758241153, -1.1493500032101], a = 0.2, v = 0.2, t = 0.2)
movej(p[0.364726050147048, -0.105181665243158, 0.347198074557989, -1.13909407236816, 1.19538853283463, -1.13755098710422], a = 0.2, v = 0.2, t = 0.2)
movej(p[0.363245349267508, -0.104789333078789, 0.347518609716951, -1.13538927018356, 1.19991002029234, -1.13076393244765], a = 0.2, v = 0.2, t = 0.2)
movej(p[0.361469794243282, -0.104337921414178, 0.347906599349541, -1.13090437723945, 1.20262992342071, -1.12585174238169], a = 0.2, v = 0.2, t = 0.2)
movej(p[0.360336441596955, -0.104053201241789, 0.348608774265428, -1.10777705760189, 1.18459280605185, -1.13858100484753], a = 0.2, v = 0.2, t = 0.2)
movej(p[0.360184797064604, -0.10401100306523, 0.348660704311673, -1.10776627170989, 1.1846097581436, -1.13859677595663], a = 0.2, v = 0.2, t = 0.2)
movej(p[0.360184797064604, -0.10401100306523, 0.348660704311673, -1.10782967957028, 1.18458063802561, -1.13865372771742], a = 0.2, v = 0.2, t = 0.2)
movej(p[0.361455728292637, -0.104362815138188, 0.347970239679029, -1.11799823635667, 1.18630768094132, -1.13811092481177], a = 0.2, v = 0.2, t = 0.2)
movej(p[0.362595293840373, -0.104701794394576, 0.347227646677343, -1.12717586952702, 1.18489409011831, -1.14045163716298], a = 0.2, v = 0.2, t = 0.2)
movej(p[0.363593834990875, -0.104980645166747, 0.346783228431079, -1.13184397746685, 1.18130924658637, -1.14377617680583], a = 0.2, v = 0.2, t = 0.2)
movej(p[0.364965700225611, -0.105362234494021, 0.346290640303903, -1.13699751956739, 1.17488009984878, -1.15078509378058], a = 0.2, v = 0.2, t = 0.2)
movej(p[0.365178076107702, -0.105413551535812, 0.346266581918096, -1.13807513859633, 1.17396646466017, -1.15136434873793], a = 0.2, v = 0.2, t = 0.2)
movej(p[0.365742495891653, -0.105561954684312, 0.346066878580617, -1.14066838195443, 1.17355359891978, -1.15279069138155], a = 0.2, v = 0.2, t = 0.2)
movej(p[0.366482306068436, -0.105746969781641, 0.345931644501744, -1.14387336465762, 1.17367338548746, -1.1539573515664], a = 0.2, v = 0.2, t = 0.2)
movej(p[0.366924550048766, -0.105868304552748, 0.345709350990407, -1.14699633088823, 1.17420956269599, -1.1549795828714], a = 0.2, v = 0.2, t = 0.2)
movej(p[0.367607187662415, -0.106032487356356, 0.345706784780903, -1.14777531726417, 1.17411020281998, -1.15663062102173], a = 0.2, v = 0.2, t = 0.2)
movej(p[0.368151046123352, -0.106158880638789, 0.345715928774725, -1.14869049488054, 1.1737347015045, -1.15814469281881], a = 0.2, v = 0.2, t = 0.2)
movej(p[0.368518106236071, -0.106262430608635, 0.345725870977471, -1.14821557155648, 1.17338304700169, -1.15846770630753], a = 0.2, v = 0.2, t = 0.2)
movej(p[0.368518106236071, -0.106262430608635, 0.345725870977471, -1.14764947939564, 1.17400373888198, -1.15895321305898], a = 0.2, v = 0.2, t = 0.2)
movej(p[0.367889459754679, -0.106065703303676, 0.346186198023078, -1.14430817333149, 1.176732028813, -1.15689157535083], a = 0.2, v = 0.2, t = 0.2)
movej(p[0.367118514659536, -0.105852566221295, 0.346562607765764, -1.14006545817432, 1.17943270667734, -1.15384167356562], a = 0.2, v = 0.2, t = 0.2)
movej(p[0.36654323625179, -0.105697466912622, 0.346855783835781, -1.13646678943976, 1.18211168564938, -1.1514684942073], a = 0.2, v = 0.2, t = 0.2)
movej(p[0.364810413119146, -0.105229879717321, 0.347042454175583, -1.12983250615271, 1.18624388690544, -1.14467747806017], a = 0.2, v = 0.2, t = 0.2)
movej(p[0.363438948050415, -0.10488130362524, 0.347860208223743, -1.11895672290416, 1.18433450522728, -1.14603158530858], a = 0.2, v = 0.2, t = 0.2)
movej(p[0.360984589542956, -0.104231289304291, 0.348269474041306, -1.11044329153462, 1.18813789909274, -1.13857232759275], a = 0.2, v = 0.2, t = 0.2)
movej(p[0.358877013198338, -0.103658480498877, 0.348339697428033, -1.10728563041295, 1.18934548045378, -1.13590199585591], a = 0.2, v = 0.2, t = 0.2)
movej(p[0.358885286937086, -0.103648795754194, 0.348190741055334, -1.10783279615912, 1.18849011360614, -1.13510727167019], a = 0.2, v = 0.2, t = 0.2)
movej(p[0.360776188547461, -0.104203347064256, 0.348254797314883, -1.11248774780533, 1.18565749804203, -1.13990320170295], a = 0.2, v = 0.2, t = 0.2)
movej(p[0.361984292412899, -0.104527748453822, 0.347677342270087, -1.11863229952105, 1.18372994784407, -1.14240771750591], a = 0.2, v = 0.2, t = 0.2)
movej(p[0.362974413930386, -0.104791488492259, 0.34718215232397, -1.12605085429461, 1.18215982518308, -1.14389092824598], a = 0.2, v = 0.2, t = 0.2)
movej(p[0.364045131856224, -0.105074471013785, 0.346689485432653, -1.13354641968489, 1.18061375648092, -1.14558237463015], a = 0.2, v = 0.2, t = 0.2)
movej(p[0.365260004225898, -0.105393923143503, 0.346198540168675, -1.14086866760753, 1.17909550109912, -1.1479449074062], a = 0.2, v = 0.2, t = 0.2)
movej(p[0.366255985904515, -0.105653461550904, 0.345855801082865, -1.14453454648143, 1.17651199585047, -1.15125191778574], a = 0.2, v = 0.2, t = 0.2)
movej(p[0.366747083243293, -0.105791889456675, 0.345686998450336, -1.14611948261067, 1.17440776712734, -1.15382701989989], a = 0.2, v = 0.2, t = 0.2)
movej(p[0.367305886111519, -0.10595029116055, 0.345554882309486, -1.14777515837145, 1.17229432971485, -1.15679898393354], a = 0.2, v = 0.2, t = 0.2)
movej(p[0.367682207175641, -0.106092669021245, 0.345565524277412, -1.14672612065728, 1.17098547809915, -1.15866811224889], a = 0.2, v = 0.2, t = 0.2)
movej(p[0.367834052962499, -0.106101976119883, 0.345573353385192, -1.14784931470647, 1.1701076658714, -1.16083921756834], a = 0.2, v = 0.2, t = 0.2)
movej(p[0.368756178419501, -0.106336927404433, 0.345612006527828, -1.14737248897484, 1.17090229311353, -1.16155165978663], a = 0.2, v = 0.2, t = 0.2)
movej(p[0.368747063471195, -0.106347596818809, 0.345776107628721, -1.14763161480777, 1.17467569702415, -1.1596050951858], a = 0.2, v = 0.2, t = 0.2)
movej(p[0.368399521753938, -0.106240764757407, 0.346152563303963, -1.14535431644867, 1.17757404567005, -1.15677085363707], a = 0.2, v = 0.2, t = 0.2)
movej(p[0.36761108194947, -0.106036080290546, 0.34647767072276, -1.1437070773427, 1.18292478045037, -1.15061567371788], a = 0.2, v = 0.2, t = 0.2)
movej(p[0.366649834929219, -0.10576332262351, 0.34673598146805, -1.14213081801078, 1.18924462986049, -1.14292983525295], a = 0.2, v = 0.2, t = 0.2)
movej(p[0.365268521070382, -0.105377656056983, 0.346940764262366, -1.14129773379499, 1.19075261158803, -1.14052277992469], a = 0.2, v = 0.2, t = 0.2)
movej(p[0.364131316259734, -0.105071899108154, 0.347172779125859, -1.13869274554377, 1.19126669945164, -1.13890713913787], a = 0.2, v = 0.2, t = 0.2)
movej(p[0.362472655469571, -0.104664585929924, 0.347590288608407, -1.12043875911085, 1.18577338825047, -1.14212319306997], a = 0.2, v = 0.2, t = 0.2)
movej(p[0.36071967055992, -0.104200249092865, 0.348162635014253, -1.11263510039298, 1.18963210892722, -1.13811464253298], a = 0.2, v = 0.2, t = 0.2)
movej(p[0.36008209727029, -0.104022392974604, 0.348442890739524, -1.11021440995264, 1.19100106744854, -1.13570506684082], a = 0.2, v = 0.2, t = 0.2)
movej(p[0.36008209727029, -0.104022392974604, 0.348442890739524, -1.1101851760059, 1.19104679697682, -1.13574739726145], a = 0.2, v = 0.2, t = 0.2)
movej(p[0.361991884151987, -0.104552804099978, 0.347957558240533, -1.11631474544004, 1.18739089371304, -1.14223713589244], a = 0.2, v = 0.2, t = 0.2)
movej(p[0.363546609789505, -0.104960901486033, 0.347345839697788, -1.12411739742343, 1.18191408198476, -1.14782241667679], a = 0.2, v = 0.2, t = 0.2)
movej(p[0.364403527811517, -0.105149824718944, 0.346589876355014, -1.13123596182935, 1.18060683743045, -1.14716384003174], a = 0.2, v = 0.2, t = 0.2)
movej(p[0.365203955853849, -0.105338641304066, 0.346061320533712, -1.14122196096627, 1.17601696742268, -1.14910692678389], a = 0.2, v = 0.2, t = 0.2)
movej(p[0.365842523208553, -0.105506005648283, 0.345838709101411, -1.14344450155924, 1.17428309588776, -1.15004061683113], a = 0.2, v = 0.2, t = 0.2)
movej(p[0.366527968817382, -0.105686856400481, 0.345594238893071, -1.14649778416792, 1.17189675523716, -1.15290050256901], a = 0.2, v = 0.2, t = 0.2)
movej(p[0.367157712122395, -0.105859330870049, 0.345461334276374, -1.14832541251833, 1.17049795590628, -1.15486649479738], a = 0.2, v = 0.2, t = 0.2)
movej(p[0.367437786129801, -0.105941420098494, 0.345421973395432, -1.14850139827424, 1.17038561117759, -1.15505874001593], a = 0.2, v = 0.2, t = 0.2)
movej(p[0.367585421894247, -0.105988771327404, 0.345427095131204, -1.14922147531422, 1.17118890980526, -1.1553815570541], a = 0.2, v = 0.2, t = 0.2)
movej(p[0.368037995741057, -0.106124430872369, 0.345565858242452, -1.1488561494466, 1.17265466955666, -1.15685718500728], a = 0.2, v = 0.2, t = 0.2)
movej(p[0.36838934364313, -0.106252864719783, 0.345756977703908, -1.15010074223037, 1.17339738798963, -1.15656129318059], a = 0.2, v = 0.2, t = 0.2)
movej(p[0.368835596221435, -0.106385283092431, 0.345773155186446, -1.15024729012505, 1.17384379751358, -1.15657506230054], a = 0.2, v = 0.2, t = 0.2)
movej(p[0.368830709458014, -0.106391003245979, 0.345861134100889, -1.15055113711517, 1.17546402906393, -1.15621485634865], a = 0.2, v = 0.2, t = 0.2)
movej(p[0.36823186961141, -0.106227336731526, 0.345986450820306, -1.14800844392496, 1.17712394890552, -1.1535664110946], a = 0.2, v = 0.2, t = 0.2)
movej(p[0.36683513672438, -0.105892007503742, 0.346642259451906, -1.13756025792932, 1.17729581317769, -1.15481534993673], a = 0.2, v = 0.2, t = 0.2)
movej(p[0.365679840210317, -0.105548555251568, 0.346738822462797, -1.13450255646643, 1.17938535593269, -1.15192730254539], a = 0.2, v = 0.2, t = 0.2)
movej(p[0.365022223950472, -0.105382268767812, 0.347020625088951, -1.13158157991244, 1.18168092603628, -1.14900686357724], a = 0.2, v = 0.2, t = 0.2)
movej(p[0.363615079323361, -0.104961789211561, 0.347331218313551, -1.13189494017664, 1.19169673323726, -1.13790983269122], a = 0.2, v = 0.2, t = 0.2)
movej(p[0.361893196607031, -0.104462452356829, 0.347777595269396, -1.12578939625422, 1.19544012052081, -1.13125434084817], a = 0.2, v = 0.2, t = 0.2)
movej(p[0.360987186289439, -0.104250032634719, 0.347917624109556, -1.11475174663018, 1.18885522065076, -1.13939451320887], a = 0.2, v = 0.2, t = 0.2)
movej(p[0.360987186289439, -0.104250032634719, 0.347917624109556, -1.11535409670907, 1.18848459064194, -1.14004491097942], a = 0.2, v = 0.2, t = 0.2)
movej(p[0.362189196661236, -0.104562573350142, 0.347446085322926, -1.12141237248276, 1.18399619420436, -1.14461144762812], a = 0.2, v = 0.2, t = 0.2)
movej(p[0.363720659012012, -0.104981051822456, 0.34703624090566, -1.12842809805975, 1.18157950493083, -1.14704565301647], a = 0.2, v = 0.2, t = 0.2)
movej(p[0.364728666868896, -0.105229715271322, 0.34661508673002, -1.1333073942146, 1.1783574787172, -1.14834784384129], a = 0.2, v = 0.2, t = 0.2)
movej(p[0.365541297785147, -0.105385791063418, 0.345990578314484, -1.13923135773579, 1.17457246225297, -1.1503713104969], a = 0.2, v = 0.2, t = 0.2)
movej(p[0.366306766032479, -0.10558835850725, 0.3457139128793, -1.1448271820857, 1.17205861119012, -1.15264959006598], a = 0.2, v = 0.2, t = 0.2)
movej(p[0.366598788081851, -0.105675266346679, 0.345717356732692, -1.14609688126555, 1.17321539468915, -1.15187589787475], a = 0.2, v = 0.2, t = 0.2)
movej(p[0.366952101138369, -0.105772437055606, 0.345617953777904, -1.14579552753161, 1.17378299746734, -1.15249958593808], a = 0.2, v = 0.2, t = 0.2)
movej(p[0.367303404280596, -0.105871953199994, 0.34555301296433, -1.14547097291731, 1.17431798368061, -1.15315005281492], a = 0.2, v = 0.2, t = 0.2)
movej(p[0.367715035204862, -0.106024516461812, 0.345534844493511, -1.14749178922548, 1.17258010745279, -1.15585457112807], a = 0.2, v = 0.2, t = 0.2)
movej(p[0.368145338456386, -0.106145038350262, 0.345550909552857, -1.15010996902741, 1.17020985543927, -1.15725974116008], a = 0.2, v = 0.2, t = 0.2)
movej(p[0.368226572433153, -0.106144936746494, 0.345407891789291, -1.14849252002983, 1.16627217008543, -1.16091511748023], a = 0.2, v = 0.2, t = 0.2)
movej(p[0.368487591018062, -0.10624871513196, 0.345415642598418, -1.1481570328222, 1.16683358937143, -1.16141907412758], a = 0.2, v = 0.2, t = 0.2)
movej(p[0.368466566313378, -0.106273325396207, 0.345794161166902, -1.1440449017264, 1.17194580595974, -1.15781709444761], a = 0.2, v = 0.2, t = 0.2)
movej(p[0.367959131159686, -0.106211846799659, 0.346195219325982, -1.14639050509318, 1.17788454490421, -1.15221291762366], a = 0.2, v = 0.2, t = 0.2)
movej(p[0.366567544586513, -0.105790505803782, 0.346511750974568, -1.14621133314612, 1.18703035739279, -1.14195658132582], a = 0.2, v = 0.2, t = 0.2)
movej(p[0.365165853274519, -0.105381061927658, 0.3469020208276, -1.14262770883991, 1.19222369141653, -1.13700398140668], a = 0.2, v = 0.2, t = 0.2)
movej(p[0.364030606929211, -0.105045013854979, 0.347122665016994, -1.13935893360095, 1.19708504540662, -1.1301694753601], a = 0.2, v = 0.2, t = 0.2)
movej(p[0.362716504564619, -0.104678024093766, 0.347500486801092, -1.13535970702155, 1.19952549319957, -1.12577745751798], a = 0.2, v = 0.2, t = 0.2)
movej(p[0.361488031034725, -0.104380908692329, 0.348091596574804, -1.12916167905956, 1.20342472322031, -1.12270553039858], a = 0.2, v = 0.2, t = 0.2)
movej(p[0.360143293458942, -0.103992227377096, 0.348076298618467, -1.1226453633101, 1.20714509808102, -1.12350460798032], a = 0.2, v = 0.2, t = 0.2)
movej(p[0.360143293458942, -0.103992227377096, 0.348076298618467, -1.1203363241573, 1.20506106764804, -1.12500039077225], a = 0.2, v = 0.2, t = 0.2)
movej(p[0.361571590126276, -0.104365319991727, 0.347514130973549, -1.12176789298202, 1.19046094864165, -1.14059461050025], a = 0.2, v = 0.2, t = 0.2)
movej(p[0.363237226239981, -0.10477973696541, 0.346961756925783, -1.12519815233681, 1.187384124301, -1.14266244441783], a = 0.2, v = 0.2, t = 0.2)
movej(p[0.364736216894214, -0.105140258710687, 0.346281888034228, -1.13024830088506, 1.18281411578569, -1.14538613029543], a = 0.2, v = 0.2, t = 0.2)
movej(p[0.365542474624604, -0.105349415246566, 0.345974340857871, -1.13658200178079, 1.1768614431801, -1.1513269957372], a = 0.2, v = 0.2, t = 0.2)
movej(p[0.366367329597223, -0.105560938443217, 0.345660847968916, -1.1441218555239, 1.17039991400755, -1.1552490535194], a = 0.2, v = 0.2, t = 0.2)
movej(p[0.366851934491028, -0.105667503363457, 0.345524668768323, -1.14586582625353, 1.17034105665584, -1.1559969039416], a = 0.2, v = 0.2, t = 0.2)
movej(p[0.367377866887403, -0.105849759192663, 0.345449495254608, -1.14646400469053, 1.17018600650728, -1.15722103761246], a = 0.2, v = 0.2, t = 0.2)
movej(p[0.367596908227236, -0.105913474898292, 0.345421789293153, -1.14530715938364, 1.16914602396324, -1.15794197131072], a = 0.2, v = 0.2, t = 0.2)
movej(p[0.368006661113629, -0.106062459049539, 0.345434862348246, -1.14347777364692, 1.16863263314494, -1.15947581308249], a = 0.2, v = 0.2, t = 0.2)
movej(p[0.368166840952112, -0.106143779442269, 0.345489056195403, -1.14406700702006, 1.16859849976023, -1.16098026100084], a = 0.2, v = 0.2, t = 0.2)
movej(p[0.368567763869611, -0.106270991938909, 0.345530755055375, -1.14480167223445, 1.16927790840938, -1.16052848563537], a = 0.2, v = 0.2, t = 0.2)
movej(p[0.36856407804352, -0.106275306346908, 0.345597112877594, -1.1458300615307, 1.17060788151544, -1.15972040668263], a = 0.2, v = 0.2, t = 0.2)
movej(p[0.368299557973337, -0.106300161839829, 0.345945831499038, -1.14353974322337, 1.17312102788939, -1.15551100859293], a = 0.2, v = 0.2, t = 0.2)
movej(p[0.366687514468805, -0.105831374167758, 0.346424325039235, -1.14691469554454, 1.18310598396808, -1.14741311421078], a = 0.2, v = 0.2, t = 0.2)
movej(p[0.365179469553783, -0.105392407322254, 0.346836902635361, -1.14167178350077, 1.19089499985264, -1.13611497287133], a = 0.2, v = 0.2, t = 0.2)
movej(p[0.363502554787356, -0.104893103662211, 0.347254963122859, -1.13698948799982, 1.19885181368604, -1.12517525349619], a = 0.2, v = 0.2, t = 0.2)
movej(p[0.362048730713814, -0.104459107991914, 0.347632090503665, -1.13371636355494, 1.20137255710251, -1.12096590522278], a = 0.2, v = 0.2, t = 0.2)
movej(p[0.36091749528071, -0.104197928312917, 0.348100708333212, -1.12799562183195, 1.20629887157101, -1.11853194182777], a = 0.2, v = 0.2, t = 0.2)
movej(p[0.36091749528071, -0.104197928312917, 0.348100708333212, -1.12529013282015, 1.20639644054399, -1.12106854287642], a = 0.2, v = 0.2, t = 0.2)
movej(p[0.361279361689269, -0.104355267987631, 0.348105560046066, -1.12189697099837, 1.20292408872069, -1.12374327897207], a = 0.2, v = 0.2, t = 0.2)
movej(p[0.362425630113719, -0.104594001734622, 0.347484674559718, -1.12718727201224, 1.19536077759549, -1.13216835075156], a = 0.2, v = 0.2, t = 0.2)
movej(p[0.363404964437787, -0.104739845778232, 0.34678789197767, -1.13011080855896, 1.18709973568834, -1.13912272638911], a = 0.2, v = 0.2, t = 0.2)
movej(p[0.364960643815002, -0.105145720493741, 0.346220029678678, -1.13173931836947, 1.18043292815204, -1.14689433140832], a = 0.2, v = 0.2, t = 0.2)
movej(p[0.365787642420002, -0.105335744801057, 0.345840106581252, -1.13391361783465, 1.17684623443351, -1.15094693352273], a = 0.2, v = 0.2, t = 0.2)
movej(p[0.366263082462467, -0.105446560520397, 0.345675140122941, -1.1376177240456, 1.17405691548737, -1.15381466510755], a = 0.2, v = 0.2, t = 0.2)
movej(p[0.366870464834643, -0.10563831916681, 0.345602969592276, -1.14076933383769, 1.17201165100632, -1.15396903173551], a = 0.2, v = 0.2, t = 0.2)
movej(p[0.367360891196471, -0.105833442416237, 0.34557707671378, -1.1443196822473, 1.16951156543961, -1.15722764204178], a = 0.2, v = 0.2, t = 0.2)
movej(p[0.368081060454415, -0.106098450195193, 0.345612694925478, -1.14222334504138, 1.16757926089605, -1.1585161978165], a = 0.2, v = 0.2, t = 0.2)
movej(p[0.368276532477735, -0.106196088000387, 0.345520954219702, -1.14120162728617, 1.16960999139157, -1.1608956837738], a = 0.2, v = 0.2, t = 0.2)
movej(p[0.368467584515559, -0.106242434280709, 0.345619784585195, -1.14229542517111, 1.17062138637853, -1.16022160046457], a = 0.2, v = 0.2, t = 0.2)
movej(p[0.368467584515559, -0.106242434280709, 0.345619784585195, -1.14384237612323, 1.17153951736266, -1.15909363791968], a = 0.2, v = 0.2, t = 0.2)
movej(p[0.36828698695622, -0.106249965626657, 0.345795842133709, -1.14397344000755, 1.17594227480187, -1.15431741041368], a = 0.2, v = 0.2, t = 0.2)
movej(p[0.367421030752997, -0.10605245196636, 0.346145383902452, -1.14310505557807, 1.17633754890454, -1.15259451784147], a = 0.2, v = 0.2, t = 0.2)
movej(p[0.366569456731493, -0.105838842715001, 0.346511424301361, -1.14537530213891, 1.18491603916165, -1.14450688250759], a = 0.2, v = 0.2, t = 0.2)
movej(p[0.36499766943364, -0.10535955180566, 0.346869588585636, -1.14041976647993, 1.18832170117209, -1.13871774882786], a = 0.2, v = 0.2, t = 0.2)
movej(p[0.363392874831483, -0.104896176542388, 0.347330970455974, -1.13230825722286, 1.19705874610056, -1.12932119261315], a = 0.2, v = 0.2, t = 0.2)
movej(p[0.361553349358414, -0.104361654158939, 0.347827398089694, -1.13052831950834, 1.20046099854976, -1.12471112046964], a = 0.2, v = 0.2, t = 0.2)
movej(p[0.358934042336657, -0.103658687453958, 0.348725041397173, -1.12417448640002, 1.21215961952583, -1.10855742350262], a = 0.2, v = 0.2, t = 0.2)
movej(p[0.358934042336657, -0.103658687453958, 0.348725041397173, -1.12370726131557, 1.21287682080769, -1.10920853020005], a = 0.2, v = 0.2, t = 0.2)
movej(p[0.360166922296662, -0.104064343304192, 0.348413862051153, -1.11807010227582, 1.20399870705488, -1.12016433118346], a = 0.2, v = 0.2, t = 0.2)
movej(p[0.361417297293317, -0.104282667685827, 0.34775321566153, -1.1221712957173, 1.19794974734632, -1.12874390002456], a = 0.2, v = 0.2, t = 0.2)
movej(p[0.362557192923335, -0.104519924758655, 0.34721637877377, -1.12377011300371, 1.19271374801144, -1.13533519251888], a = 0.2, v = 0.2, t = 0.2)
movej(p[0.363497301028132, -0.104679015816041, 0.346687879079585, -1.12214876255317, 1.18713968791647, -1.14179159363779], a = 0.2, v = 0.2, t = 0.2)
movej(p[0.364063754909289, -0.104802483134288, 0.346448559623945, -1.12373403957526, 1.18430755027647, -1.14557741120728], a = 0.2, v = 0.2, t = 0.2)
movej(p[0.365387844775832, -0.105184855568208, 0.34607079427734, -1.13105132997699, 1.17723421437185, -1.15185839218774], a = 0.2, v = 0.2, t = 0.2)
movej(p[0.366053325542481, -0.105346560114567, 0.345824352298556, -1.13574805270375, 1.17357463992585, -1.15516231789803], a = 0.2, v = 0.2, t = 0.2)
movej(p[0.366575794812551, -0.105493116914151, 0.345708150550169, -1.13544402398582, 1.17329490117413, -1.15535071892881], a = 0.2, v = 0.2, t = 0.2)
movej(p[0.36681739967157, -0.105609124667144, 0.345714027908747, -1.13498237974835, 1.17388481437732, -1.15561112983719], a = 0.2, v = 0.2, t = 0.2)
movej(p[0.366817607077286, -0.105611413364543, 0.345713890624058, -1.13487382553859, 1.17395303659427, -1.15549991335481], a = 0.2, v = 0.2, t = 0.2)
movej(p[0.3674358643173, -0.105817711837665, 0.345622510182181, -1.13484462777221, 1.17400086806003, -1.15554331720267], a = 0.2, v = 0.2, t = 0.2)
movej(p[0.368143728821289, -0.106124012108175, 0.345641913488038, -1.13815220190851, 1.1725785665538, -1.15839229908822], a = 0.2, v = 0.2, t = 0.2)
movej(p[0.368142832268997, -0.106125061558769, 0.345658054579929, -1.14035394765357, 1.17127528201732, -1.15696203268239], a = 0.2, v = 0.2, t = 0.2)
movej(p[0.367638907928499, -0.106046112580289, 0.345910398012281, -1.14494287656438, 1.17517044463797, -1.15401112906414], a = 0.2, v = 0.2, t = 0.2)
movej(p[0.366474348008176, -0.105766620688047, 0.346388391949634, -1.14411948963341, 1.18325054068696, -1.14439224007514], a = 0.2, v = 0.2, t = 0.2)
movej(p[0.365436406292413, -0.105467144558184, 0.346680010162923, -1.14015617960003, 1.18815052546003, -1.13732334684379], a = 0.2, v = 0.2, t = 0.2)
movej(p[0.364050306614648, -0.105060165567246, 0.347078111700517, -1.13514297515209, 1.19349399033026, -1.13036700058136], a = 0.2, v = 0.2, t = 0.2)
movej(p[0.362067500749939, -0.104436139000059, 0.34758032902033, -1.13282359534584, 1.20056878289493, -1.12167730174478], a = 0.2, v = 0.2, t = 0.2)
movej(p[0.359876163539359, -0.103846506829143, 0.348296756478312, -1.11875856369711, 1.21169069646517, -1.11122696873367], a = 0.2, v = 0.2, t = 0.2)
movej(p[0.3592171585366, -0.10373819493112, 0.348614457137872, -1.1178064436162, 1.21266378067533, -1.11126966217112], a = 0.2, v = 0.2, t = 0.2)
movej(p[0.3592171585366, -0.10373819493112, 0.348614457137872, -1.1169993839491, 1.21262855818294, -1.11200712069008], a = 0.2, v = 0.2, t = 0.2)
movej(p[0.36098999942389, -0.104209945940217, 0.348018342892305, -1.11308172890484, 1.205908354705, -1.12101645249872], a = 0.2, v = 0.2, t = 0.2)
movej(p[0.362124962600402, -0.104409687830199, 0.347448844529403, -1.11676643668888, 1.19804094340948, -1.13151450709357], a = 0.2, v = 0.2, t = 0.2)
movej(p[0.363169343106037, -0.104561373164317, 0.346899419212492, -1.11973343477409, 1.19184557528477, -1.13686846773071], a = 0.2, v = 0.2, t = 0.2)
movej(p[0.364124678168912, -0.104777202317134, 0.346499152970552, -1.12717079966252, 1.18320934991581, -1.14617999050628], a = 0.2, v = 0.2, t = 0.2)
movej(p[0.365190879177331, -0.105092375186222, 0.346202262684019, -1.12946144591693, 1.18150839708821, -1.14872319071003], a = 0.2, v = 0.2, t = 0.2)
movej(p[0.366200608567283, -0.10539508203128, 0.345941184889059, -1.13640298471366, 1.17532807299828, -1.15157674454026], a = 0.2, v = 0.2, t = 0.2)
movej(p[0.366416331417474, -0.105458054514344, 0.345919967012584, -1.14056299627283, 1.17238786024313, -1.15457020314385], a = 0.2, v = 0.2, t = 0.2)
movej(p[0.366598604838052, -0.105516334580315, 0.345848218186383, -1.14157989493407, 1.17174175472621, -1.15567631772371], a = 0.2, v = 0.2, t = 0.2)
movej(p[0.366710645828062, -0.105540966284439, 0.345819318087601, -1.14090546906739, 1.1711685338043, -1.15610886151964], a = 0.2, v = 0.2, t = 0.2)
movej(p[0.367207395829208, -0.105718760896103, 0.345737494359844, -1.13983534616161, 1.17293809917327, -1.15771301515757], a = 0.2, v = 0.2, t = 0.2)
movej(p[0.368042430792163, -0.106053855865792, 0.345645364712429, -1.14005282125104, 1.17336986545649, -1.15732537023755], a = 0.2, v = 0.2, t = 0.2)
movej(p[0.368317730492594, -0.10614476158598, 0.345611889871433, -1.14080558395684, 1.17359630587161, -1.15670125744648], a = 0.2, v = 0.2, t = 0.2)
movej(p[0.368317730492594, -0.10614476158598, 0.345611889871433, -1.14026286805305, 1.1739708423568, -1.15530800933906], a = 0.2, v = 0.2, t = 0.2)
movej(p[0.368041222408787, -0.106073074071599, 0.345687205008499, -1.14118162727972, 1.17335897044242, -1.15417592504435], a = 0.2, v = 0.2, t = 0.2)
movej(p[0.367250207829602, -0.105899151963018, 0.346000233195192, -1.14524476905159, 1.17617777097579, -1.15051948790827], a = 0.2, v = 0.2, t = 0.2)
movej(p[0.366336429267679, -0.10559237193173, 0.346237699176277, -1.14463519571039, 1.18165804469442, -1.14419532255894], a = 0.2, v = 0.2, t = 0.2)
movej(p[0.365203553769255, -0.105238765759616, 0.346540410425015, -1.13529407218983, 1.1898586527246, -1.1351942922757], a = 0.2, v = 0.2, t = 0.2)
movej(p[0.363632365998705, -0.104775133169892, 0.347013310743707, -1.13280210964955, 1.19605307337881, -1.1288128934642], a = 0.2, v = 0.2, t = 0.2)
movej(p[0.363210554460524, -0.104665180135603, 0.347158517411972, -1.1312807966365, 1.19804785102787, -1.12592525376862], a = 0.2, v = 0.2, t = 0.2)
movej(p[0.362022930627496, -0.104365643670037, 0.347561560892281, -1.12668056943613, 1.20158284026581, -1.12269642826546], a = 0.2, v = 0.2, t = 0.2)
movej(p[0.361401375607046, -0.104240984772437, 0.347807833375118, -1.12245011537542, 1.20529567802601, -1.12112382385415], a = 0.2, v = 0.2, t = 0.2)
movej(p[0.361401375607046, -0.104240984772437, 0.347807833375118, -1.11794769080025, 1.20192928370423, -1.12424689946136], a = 0.2, v = 0.2, t = 0.2)
movej(p[0.362726361919513, -0.104561012120252, 0.347323769878843, -1.12144396607699, 1.19641264068708, -1.13194415731558], a = 0.2, v = 0.2, t = 0.2)
movej(p[0.36354759747593, -0.10473661660478, 0.347000969683845, -1.12521328501949, 1.19217188804536, -1.13560187895687], a = 0.2, v = 0.2, t = 0.2)
movej(p[0.364777137287413, -0.105013580915893, 0.346532971999719, -1.12854698470043, 1.18712412779442, -1.14259776532319], a = 0.2, v = 0.2, t = 0.2)
movej(p[0.365493982271598, -0.105189232855979, 0.346270611246951, -1.12888442114484, 1.18169187227174, -1.14879137762902], a = 0.2, v = 0.2, t = 0.2)
movej(p[0.366742256043038, -0.10561265441481, 0.345939058875443, -1.13368020443397, 1.1758619880666, -1.15763002647959], a = 0.2, v = 0.2, t = 0.2)
movej(p[0.367281137816797, -0.105786516031725, 0.345817878505441, -1.13639044099681, 1.17324975640449, -1.15826799931226], a = 0.2, v = 0.2, t = 0.2)
movej(p[0.367557120942833, -0.105886395892168, 0.345777635523184, -1.13781192278727, 1.17361601697652, -1.15842260395966], a = 0.2, v = 0.2, t = 0.2)
movej(p[0.3679042043517, -0.105994550928518, 0.345671150475401, -1.1422600706992, 1.16924442677385, -1.15904082429007], a = 0.2, v = 0.2, t = 0.2)
movej(p[0.368116164879908, -0.106032764799921, 0.345589508546745, -1.1422600706992, 1.16924442677385, -1.15904082429007], a = 0.2, v = 0.2, t = 0.2)
movej(p[0.368549023305627, -0.10627155652344, 0.345598025944368, -1.13946694998407, 1.17212669265389, -1.1588078029649], a = 0.2, v = 0.2, t = 0.2)
movej(p[0.368545343013809, -0.106275864453349, 0.345664284130217, -1.13713804722084, 1.17425292156101, -1.1559174806462], a = 0.2, v = 0.2, t = 0.2)
movej(p[0.367059715867718, -0.105787292466129, 0.346001240872398, -1.13371850792152, 1.18126608963972, -1.14746210981048], a = 0.2, v = 0.2, t = 0.2)
movej(p[0.365485277286495, -0.105363576794759, 0.346518235769656, -1.13305307281089, 1.18887329625861, -1.13942684365297], a = 0.2, v = 0.2, t = 0.2)
movej(p[0.363718484521054, -0.104747879474337, 0.346970888035319, -1.12690701718388, 1.19366767247273, -1.13289592245969], a = 0.2, v = 0.2, t = 0.2)
movej(p[0.361806816915948, -0.10423494914113, 0.347607935710824, -1.11063239997605, 1.20713680492081, -1.12378553745585], a = 0.2, v = 0.2, t = 0.2)
movej(p[0.360180717550358, -0.103839565768443, 0.348194489102962, -1.10852384963035, 1.21303080765225, -1.11609111530774], a = 0.2, v = 0.2, t = 0.2)
movej(p[0.358215811974787, -0.103355323351999, 0.34889917797843, -1.1067430923085, 1.21773172796965, -1.10766734478799], a = 0.2, v = 0.2, t = 0.2)
movej(p[0.358215811974787, -0.103355323351999, 0.34889917797843, -1.1067430923085, 1.21773172796965, -1.10766734478799], a = 0.2, v = 0.2, t = 0.2)
movej(p[0.359325418661561, -0.103637813311886, 0.348540382001265, -1.1041638668252, 1.21519535627037, -1.11248011935387], a = 0.2, v = 0.2, t = 0.2)
movej(p[0.360546660493188, -0.1039063028319, 0.348060530986546, -1.10538693281431, 1.20731844556225, -1.12216203689205], a = 0.2, v = 0.2, t = 0.2)
movej(p[0.362438583282325, -0.104428353855523, 0.347443873878682, -1.11396045379547, 1.1981845930629, -1.1321344969411], a = 0.2, v = 0.2, t = 0.2)
movej(p[0.363306807059361, -0.10461266286046, 0.347112679730653, -1.12276702656898, 1.19110641587379, -1.13956478092351], a = 0.2, v = 0.2, t = 0.2)
movej(p[0.363971415615298, -0.104862586516155, 0.346948373237479, -1.12404698175336, 1.19010230941818, -1.14038628668175], a = 0.2, v = 0.2, t = 0.2)
movej(p[0.364454057979457, -0.104902427969895, 0.34671555642777, -1.12798764928726, 1.18718173596275, -1.14339148058463], a = 0.2, v = 0.2, t = 0.2)
movej(p[0.365604133230164, -0.105259474585382, 0.346373230133017, -1.13101264404824, 1.18147620836005, -1.15002409255183], a = 0.2, v = 0.2, t = 0.2)
movej(p[0.366757082951849, -0.105661867408276, 0.346068562288716, -1.13476678566565, 1.1768497673056, -1.15508446098155], a = 0.2, v = 0.2, t = 0.2)
movej(p[0.367230111509562, -0.105739310919788, 0.345866890783259, -1.13669721461805, 1.17477677683097, -1.15499404580105], a = 0.2, v = 0.2, t = 0.2)
movej(p[0.367491215509069, -0.105896970129275, 0.345844446071078, -1.13889770855918, 1.1735565805376, -1.15609918815132], a = 0.2, v = 0.2, t = 0.2)
movej(p[0.367786690299924, -0.105942212389701, 0.345764677556985, -1.14015538153537, 1.17285071578236, -1.15495284489919], a = 0.2, v = 0.2, t = 0.2)
movej(p[0.367844745358537, -0.106011001759881, 0.345746969854714, -1.14120457880531, 1.17219139147953, -1.15375399065814], a = 0.2, v = 0.2, t = 0.2)
movej(p[0.367951114297954, -0.106027744230657, 0.345706324210426, -1.14356028965102, 1.17013168772524, -1.15341483521644], a = 0.2, v = 0.2, t = 0.2)
movej(p[0.367951114297954, -0.106027744230657, 0.345706324210426, -1.14484285716075, 1.17130943716301, -1.15262453647274], a = 0.2, v = 0.2, t = 0.2)
movej(p[0.367580217956649, -0.105993306188953, 0.345873536755679, -1.14024258542846, 1.1767249966696, -1.15286142234723], a = 0.2, v = 0.2, t = 0.2)
movej(p[0.365591410261844, -0.105304339200515, 0.346449296238386, -1.12460908980598, 1.19009632909123, -1.14030868026421], a = 0.2, v = 0.2, t = 0.2)
movej(p[0.363154334024349, -0.104599799325056, 0.347217756859712, -1.12420047147043, 1.19911404456444, -1.13073363540337], a = 0.2, v = 0.2, t = 0.2)
movej(p[0.361070778673899, -0.104046907403742, 0.347930556000391, -1.11587578930076, 1.20782996383161, -1.11767195984428], a = 0.2, v = 0.2, t = 0.2)
movej(p[0.359264889990841, -0.103598101072757, 0.348570514344092, -1.10919201042457, 1.21609456558281, -1.10795465931875], a = 0.2, v = 0.2, t = 0.2)
movej(p[0.358489493545759, -0.103455601576756, 0.3488780513282, -1.10826781893197, 1.21877194127914, -1.1044146740286], a = 0.2, v = 0.2, t = 0.2)
movej(p[0.358489493545759, -0.103455601576756, 0.3488780513282, -1.10864299503462, 1.21820779984996, -1.10389557600973], a = 0.2, v = 0.2, t = 0.2)
movej(p[0.360460535686173, -0.103891257518886, 0.348190210808311, -1.11418762642661, 1.20687131715031, -1.11484488852925], a = 0.2, v = 0.2, t = 0.2)
movej(p[0.361800332652111, -0.104245288309673, 0.347730151486877, -1.11757311686559, 1.20038841204324, -1.12234864955092], a = 0.2, v = 0.2, t = 0.2)
movej(p[0.363318257204112, -0.104625836380915, 0.347192550454601, -1.13211112250659, 1.19087109177693, -1.13652593931034], a = 0.2, v = 0.2, t = 0.2)
movej(p[0.36428224088653, -0.104828008920967, 0.346943196300672, -1.12155560945458, 1.1933670045932, -1.13769874758076], a = 0.2, v = 0.2, t = 0.2)
movej(p[0.364300165026385, -0.104830398242312, 0.346941928880465, -1.12065330918205, 1.19379601710681, -1.13762696143706], a = 0.2, v = 0.2, t = 0.2)
movej(p[0.364608706709126, -0.105117874021006, 0.346831780949591, -1.1204670663486, 1.19362658986788, -1.13774578439645], a = 0.2, v = 0.2, t = 0.2)
movej(p[0.365402132598993, -0.10542454912589, 0.346551906911258, -1.12409787569348, 1.19022785877781, -1.13916426675045], a = 0.2, v = 0.2, t = 0.2)
movej(p[0.366175389507987, -0.105599013237257, 0.346282419181412, -1.12781844733574, 1.18754973464143, -1.14256042027218], a = 0.2, v = 0.2, t = 0.2)
movej(p[0.366638187283791, -0.105746464399712, 0.346127616747964, -1.13367935567329, 1.18135507427731, -1.14581460180677], a = 0.2, v = 0.2, t = 0.2)
movej(p[0.3675623555795, -0.10605636940868, 0.345822677972758, -1.14131260440821, 1.1749107975326, -1.14992440013656], a = 0.2, v = 0.2, t = 0.2)
movej(p[0.367774438936773, -0.106083689801359, 0.345725692738255, -1.14257233822844, 1.17299992463141, -1.14811074215359], a = 0.2, v = 0.2, t = 0.2)
movej(p[0.367934406777504, -0.106072388036274, 0.3456649570812, -1.136594250973, 1.17678505295205, -1.14158007681731], a = 0.2, v = 0.2, t = 0.2)
movej(p[0.368193388170024, -0.106272187057218, 0.345586461224249, -1.12332491919947, 1.18258447275625, -1.14133223940196], a = 0.2, v = 0.2, t = 0.2)
movej(p[0.368279281894303, -0.106266645149977, 0.3455622859188, -1.11872114015588, 1.18471311547289, -1.14040299532694], a = 0.2, v = 0.2, t = 0.2)
movej(p[0.368274169968178, -0.106157776677081, 0.345569080315068, -1.11872114015588, 1.18471311547289, -1.14040299532694], a = 0.2, v = 0.2, t = 0.2)
movej(p[0.367496215510234, -0.105835566135995, 0.345833460644476, -1.12277866627207, 1.18385810209651, -1.14122888008194], a = 0.2, v = 0.2, t = 0.2)
movej(p[0.366871182241144, -0.105645863633707, 0.346037801739601, -1.12535621318978, 1.18620173876383, -1.13960412500518], a = 0.2, v = 0.2, t = 0.2)
movej(p[0.36626130036625, -0.105462510640023, 0.346236348959131, -1.12795123944832, 1.18858166348658, -1.13797107080089], a = 0.2, v = 0.2, t = 0.2)
movej(p[0.364257774305153, -0.104765965344018, 0.346912650417888, -1.13180839114444, 1.19368642057007, -1.13385473965806], a = 0.2, v = 0.2, t = 0.2)
movej(p[0.362145112292921, -0.104207489874004, 0.347645874695626, -1.12051368288029, 1.20408766016523, -1.12813965259707], a = 0.2, v = 0.2, t = 0.2)
movej(p[0.361087344719822, -0.104131549168062, 0.348011885379186, -1.1206853835008, 1.20559059838094, -1.12647529393333], a = 0.2, v = 0.2, t = 0.2)
movej(p[0.361087344719822, -0.104131549168062, 0.348011885379186, -1.12387001896637, 1.20063460009877, -1.12196016025267], a = 0.2, v = 0.2, t = 0.2)
movej(p[0.361910272477139, -0.104198212165694, 0.347754473936194, -1.12679299410855, 1.19709713138564, -1.12578567122343], a = 0.2, v = 0.2, t = 0.2)
movej(p[0.362439791763252, -0.104315408744898, 0.347578145698361, -1.12594680317539, 1.19519329611152, -1.1260313449474], a = 0.2, v = 0.2, t = 0.2)
movej(p[0.363375323381714, -0.10473257670177, 0.347240568527009, -1.128295669728, 1.19213088460272, -1.13019718051995], a = 0.2, v = 0.2, t = 0.2)
movej(p[0.365063351025463, -0.10526330006299, 0.346665717522146, -1.1387909154049, 1.18124713141663, -1.14150485850596], a = 0.2, v = 0.2, t = 0.2)
movej(p[0.365490313959049, -0.105410105891686, 0.346502543253325, -1.14641589042578, 1.17579586268687, -1.14819207586358], a = 0.2, v = 0.2, t = 0.2)
movej(p[0.366040163380941, -0.105595852853045, 0.346303617212821, -1.14889212242549, 1.17422571499904, -1.15090253572336], a = 0.2, v = 0.2, t = 0.2)
movej(p[0.366680731429209, -0.105875361309104, 0.346068104795888, -1.14586122136792, 1.17419473909408, -1.15475492543495], a = 0.2, v = 0.2, t = 0.2)
movej(p[0.367168071027342, -0.105928019298806, 0.3459172155908, -1.14459288436773, 1.17261972487009, -1.15598478128385], a = 0.2, v = 0.2, t = 0.2)
movej(p[0.367843867812471, -0.106137460807346, 0.345646262957099, -1.14395567630439, 1.17071389844881, -1.15593136081767], a = 0.2, v = 0.2, t = 0.2)
movej(p[0.367851627863094, -0.106195091420169, 0.345638530940545, -1.14449624240517, 1.17030108194637, -1.15634741280286], a = 0.2, v = 0.2, t = 0.2)
movej(p[0.367943040444874, -0.106189385336309, 0.345615877232257, -1.14190594519309, 1.1705673128191, -1.15504253267088], a = 0.2, v = 0.2, t = 0.2)
movej(p[0.367995163885865, -0.106186946810311, 0.345616020376419, -1.1403082448253, 1.17200182310901, -1.15634261295516], a = 0.2, v = 0.2, t = 0.2)
movej(p[0.367988193503081, -0.106038498865126, 0.345625284896605, -1.1385026172902, 1.17320534927024, -1.1547526527406], a = 0.2, v = 0.2, t = 0.2)
movej(p[0.36775067743217, -0.105774918946136, 0.345749065154983, -1.13530772336966, 1.17575403969798, -1.15263297490592], a = 0.2, v = 0.2, t = 0.2)
movej(p[0.367542767743865, -0.105768448551186, 0.345807189379694, -1.13417754011965, 1.17654953900821, -1.1513565182053], a = 0.2, v = 0.2, t = 0.2)
movej(p[0.365707650127081, -0.105256137395302, 0.346424963344932, -1.13394070183984, 1.18512171988972, -1.14457041844458], a = 0.2, v = 0.2, t = 0.2)
movej(p[0.363658875373981, -0.104736630659529, 0.347102596743272, -1.12401514867022, 1.19651065852073, -1.13224855909459], a = 0.2, v = 0.2, t = 0.2)
movej(p[0.362063177565266, -0.104225697135771, 0.347673461033242, -1.12092255863541, 1.20287136743899, -1.12580825233901], a = 0.2, v = 0.2, t = 0.2)
movej(p[0.361433817142861, -0.104126078483603, 0.347877927394411, -1.11730815957547, 1.20507175062874, -1.12184095263636], a = 0.2, v = 0.2, t = 0.2)
movej(p[0.361433817142861, -0.104126078483603, 0.347877927394411, -1.11751958630016, 1.20480320229344, -1.12156021457779], a = 0.2, v = 0.2, t = 0.2)
movej(p[0.36145671148403, -0.104190996208605, 0.347858518424241, -1.12194128961261, 1.20026501982888, -1.1214351036857], a = 0.2, v = 0.2, t = 0.2)
movej(p[0.362777639761047, -0.104604527882113, 0.347410303406665, -1.12386260471675, 1.19010759390796, -1.12749686161157], a = 0.2, v = 0.2, t = 0.2)
movej(p[0.363621827064393, -0.104913358216828, 0.3470954719101, -1.12657144769161, 1.18687373009894, -1.13174198987474], a = 0.2, v = 0.2, t = 0.2)
movej(p[0.364743939978723, -0.105282732780248, 0.346693382169628, -1.12901298691036, 1.1837147699836, -1.13625619967217], a = 0.2, v = 0.2, t = 0.2)
movej(p[0.365507741606655, -0.10549204566375, 0.346439972087019, -1.13280243617915, 1.18080970341361, -1.14098993543309], a = 0.2, v = 0.2, t = 0.2)
movej(p[0.36609709553683, -0.105756977746333, 0.346184697751046, -1.14200644328879, 1.17472133605671, -1.15027678749726], a = 0.2, v = 0.2, t = 0.2)
movej(p[0.366553565036148, -0.105894507986338, 0.346012424249672, -1.14780585711659, 1.1702196734232, -1.15454340962814], a = 0.2, v = 0.2, t = 0.2)
movej(p[0.366920236382808, -0.106027803082865, 0.345863841576452, -1.14694841866105, 1.16943076921937, -1.15507079843192], a = 0.2, v = 0.2, t = 0.2)
movej(p[0.367693995333681, -0.106197548573784, 0.345625199471498, -1.14408860750806, 1.16887703590484, -1.15712748550014], a = 0.2, v = 0.2, t = 0.2)
movej(p[0.368041272370758, -0.10628207713764, 0.345485836128358, -1.14165694675462, 1.16961949423281, -1.15710468130508], a = 0.2, v = 0.2, t = 0.2)
movej(p[0.368080468989175, -0.106280379421853, 0.345488123674156, -1.14157948143244, 1.16958757627297, -1.1571658406608], a = 0.2, v = 0.2, t = 0.2)
movej(p[0.368071693829166, -0.106117741761655, 0.345517781692497, -1.13818771630371, 1.17213317677385, -1.15411283785175], a = 0.2, v = 0.2, t = 0.2)
movej(p[0.367315966436909, -0.105801410108936, 0.34581111657634, -1.1389364989933, 1.17574972655282, -1.1512386357152], a = 0.2, v = 0.2, t = 0.2)
movej(p[0.366562310944963, -0.105545740733588, 0.346084764781104, -1.13714728535088, 1.18004562934456, -1.14821849086611], a = 0.2, v = 0.2, t = 0.2)
movej(p[0.365509645113115, -0.105188930184187, 0.34648648265262, -1.12573778848525, 1.19094046462442, -1.14239712370945], a = 0.2, v = 0.2, t = 0.2)
movej(p[0.363415988440137, -0.104595060531073, 0.347216540089269, -1.12028323338698, 1.20192349731939, -1.13373054446565], a = 0.2, v = 0.2, t = 0.2)
movej(p[0.360924263076593, -0.104134799764391, 0.347965380312094, -1.11082615382194, 1.21129780460646, -1.1191692076834], a = 0.2, v = 0.2, t = 0.2)
movej(p[0.358508698916161, -0.103586949707694, 0.348735788043243, -1.10845751241255, 1.21899413316638, -1.10847918504271], a = 0.2, v = 0.2, t = 0.2)
movej(p[0.356718841442483, -0.103104087374848, 0.349290529903426, -1.1042767980097, 1.22156328506042, -1.09921949869348], a = 0.2, v = 0.2, t = 0.2)
movej(p[0.356718841442483, -0.103104087374848, 0.349290529903426, -1.10755063817134, 1.2166703913969, -1.09470120538631], a = 0.2, v = 0.2, t = 0.2)
movej(p[0.359063414520385, -0.103637078867941, 0.348545247245188, -1.1036356269501, 1.2097264323719, -1.10047503995812], a = 0.2, v = 0.2, t = 0.2)
movej(p[0.360563512623684, -0.104018020924722, 0.348072871303958, -1.11298288820073, 1.19912345816903, -1.11453395289159], a = 0.2, v = 0.2, t = 0.2)
movej(p[0.361774543626289, -0.104424086750218, 0.347631282008239, -1.1197289502482, 1.19213568996757, -1.12487068698006], a = 0.2, v = 0.2, t = 0.2)
movej(p[0.362547945495982, -0.104612104810412, 0.347381395540025, -1.12233758956166, 1.19053212443909, -1.1277149722162], a = 0.2, v = 0.2, t = 0.2)
movej(p[0.363415561478783, -0.10496872927459, 0.347028726916615, -1.12566027154838, 1.18854535481401, -1.13150276605833], a = 0.2, v = 0.2, t = 0.2)
movej(p[0.36442467690221, -0.105201748549017, 0.346716142272163, -1.12836610767032, 1.18625033449629, -1.13515327897322], a = 0.2, v = 0.2, t = 0.2)
movej(p[0.364743484880611, -0.105335480245743, 0.346577117180188, -1.13212163979229, 1.18181671639241, -1.14315943997166], a = 0.2, v = 0.2, t = 0.2)
movej(p[0.365317692318921, -0.105428020051943, 0.346412200892155, -1.13212163979229, 1.18181671639241, -1.14315943997166], a = 0.2, v = 0.2, t = 0.2)
movej(p[0.36582922626347, -0.105524445879842, 0.346288112805347, -1.12869888325523, 1.18236453445948, -1.1465266782962], a = 0.2, v = 0.2, t = 0.2)
movej(p[0.366201565070773, -0.105635529823862, 0.346147913126472, -1.12908678084181, 1.18074077238057, -1.14848283856045], a = 0.2, v = 0.2, t = 0.2)
movej(p[0.366683515362852, -0.105751277037555, 0.345983288740406, -1.12966217414826, 1.18014242437986, -1.14849098674872], a = 0.2, v = 0.2, t = 0.2)
movej(p[0.366683515362852, -0.105751277037555, 0.345983288740406, -1.13076867259962, 1.18088655339886, -1.1480968874573], a = 0.2, v = 0.2, t = 0.2)
movej(p[0.366407816989038, -0.105658654517374, 0.346103066557349, -1.13066950122138, 1.18104685544121, -1.1482426490891], a = 0.2, v = 0.2, t = 0.2)
movej(p[0.366311859885864, -0.105663427779528, 0.346116997469699, -1.13023058130829, 1.18131379151313, -1.14777770717061], a = 0.2, v = 0.2, t = 0.2)
movej(p[0.366215902782691, -0.105668201041683, 0.346130928382049, -1.12979651270902, 1.18158489469274, -1.14730689317902], a = 0.2, v = 0.2, t = 0.2)
movej(p[0.365215968700959, -0.105334457835447, 0.346498345521664, -1.12662279907737, 1.18623966396218, -1.14153041081161], a = 0.2, v = 0.2, t = 0.2)
movej(p[0.365213673119677, -0.105289920883316, 0.346504626461201, -1.12722351201408, 1.18697168496107, -1.14121186327065], a = 0.2, v = 0.2, t = 0.2)
movej(p[0.365214670489102, -0.105289877684441, 0.346504684668473, -1.12775996557281, 1.18663951083847, -1.14179449564858], a = 0.2, v = 0.2, t = 0.2)
movej(p[0.365906702509549, -0.105498332296959, 0.346286385934632, -1.12892135197416, 1.1821722003583, -1.14373209695595], a = 0.2, v = 0.2, t = 0.2)
movej(p[0.367321254132167, -0.105865478118937, 0.345817883434795, -1.13381894078448, 1.17629462191164, -1.15149789305526], a = 0.2, v = 0.2, t = 0.2)
movej(p[0.368134512539407, -0.106126683985035, 0.34552349975901, -1.13386592015776, 1.1726961968859, -1.15547328660464], a = 0.2, v = 0.2, t = 0.2)
movej(p[0.368134512539407, -0.106126683985035, 0.34552349975901, -1.13386592015776, 1.1726961968859, -1.15547328660464], a = 0.2, v = 0.2, t = 0.2)
movej(p[0.367949595244155, -0.105872617739634, 0.345696252752803, -1.13516046915592, 1.17623183807709, -1.15284339203591], a = 0.2, v = 0.2, t = 0.2)
movej(p[0.365699933391173, -0.105217634363406, 0.346454738813387, -1.12790826290587, 1.18809545532418, -1.1414590198952], a = 0.2, v = 0.2, t = 0.2)
movej(p[0.363776255909994, -0.104539524002452, 0.347195599837313, -1.12252912387743, 1.19709440830489, -1.13002978109034], a = 0.2, v = 0.2, t = 0.2)
movej(p[0.361936721382667, -0.104044942654185, 0.347812879006507, -1.11900931602904, 1.20454771464722, -1.12106539604403], a = 0.2, v = 0.2, t = 0.2)
movej(p[0.358344135370144, -0.103344125209664, 0.348827544691389, -1.10495323451396, 1.21740871835242, -1.10282800813734], a = 0.2, v = 0.2, t = 0.2)
movej(p[0.355624359753999, -0.102704185482025, 0.34965177790645, -1.09932232074493, 1.22478448280516, -1.09177257010807], a = 0.2, v = 0.2, t = 0.2)
movej(p[0.355624359753999, -0.102704185482025, 0.34965177790645, -1.10463742409729, 1.21691166596036, -1.08446805229504], a = 0.2, v = 0.2, t = 0.2)
movej(p[0.356503174796652, -0.10290866848729, 0.349370544691192, -1.10987920017162, 1.20810726299529, -1.09367648576688], a = 0.2, v = 0.2, t = 0.2)
movej(p[0.359069472533536, -0.10356304107479, 0.348547988715957, -1.11215823848849, 1.19927613695263, -1.10497064044334], a = 0.2, v = 0.2, t = 0.2)
movej(p[0.360510898383363, -0.104097439185187, 0.347975059026507, -1.11281038731977, 1.19710712497631, -1.11333371093849], a = 0.2, v = 0.2, t = 0.2)
movej(p[0.36185777120315, -0.104478965129783, 0.347543012002539, -1.11953409129261, 1.19353702447605, -1.12210498455149], a = 0.2, v = 0.2, t = 0.2)
movej(p[0.362928597128359, -0.104774978870097, 0.347185297642406, -1.12990610644648, 1.18714547654405, -1.133428592639], a = 0.2, v = 0.2, t = 0.2)
movej(p[0.36435052702188, -0.105174597252052, 0.346710677629433, -1.13191027191017, 1.18324613868108, -1.13743743305297], a = 0.2, v = 0.2, t = 0.2)
movej(p[0.365727953556568, -0.105516633131087, 0.346263524804338, -1.13363122866575, 1.17890343054926, -1.14296520799824], a = 0.2, v = 0.2, t = 0.2)
movej(p[0.366182980183189, -0.10570025485106, 0.346079743757927, -1.1366330312887, 1.17748420250338, -1.15025510955677], a = 0.2, v = 0.2, t = 0.2)
movej(p[0.366959959372386, -0.105853145407442, 0.345862750469267, -1.13572936542131, 1.17668324282808, -1.15116342155378], a = 0.2, v = 0.2, t = 0.2)
movej(p[0.367263037451056, -0.105934796626125, 0.345774212247478, -1.13327705452235, 1.17913077924303, -1.15426743575323], a = 0.2, v = 0.2, t = 0.2)
movej(p[0.367480331112228, -0.105976556277539, 0.345705181628703, -1.12726919568586, 1.181659964332, -1.15408974498224], a = 0.2, v = 0.2, t = 0.2)
movej(p[0.368133680455317, -0.106007662797505, 0.345576556940945, -1.11967542343862, 1.18350464954239, -1.1546171413473], a = 0.2, v = 0.2, t = 0.2)
movej(p[0.368133680455317, -0.106007662797505, 0.345576556940945, -1.11967542343862, 1.18350464954239, -1.1546171413473], a = 0.2, v = 0.2, t = 0.2)
movej(p[0.367820423511881, -0.10580553877128, 0.345756970259223, -1.1241362925551, 1.18303131764054, -1.15157980535105], a = 0.2, v = 0.2, t = 0.2)
movej(p[0.36669060091299, -0.105397928526114, 0.346204375045821, -1.13279003958059, 1.18401387667408, -1.14477868252104], a = 0.2, v = 0.2, t = 0.2)
movej(p[0.365271957938673, -0.104911870132733, 0.346750938234891, -1.1368126863951, 1.18769122494068, -1.14224548267436], a = 0.2, v = 0.2, t = 0.2)
movej(p[0.364327615088596, -0.104616416013103, 0.347109920873331, -1.12662560033728, 1.19844717927581, -1.13779477130885], a = 0.2, v = 0.2, t = 0.2)
movej(p[0.361974997845031, -0.10400490267463, 0.34785745324196, -1.1169083429254, 1.20849570251185, -1.12253735834391], a = 0.2, v = 0.2, t = 0.2)
movej(p[0.359531842254521, -0.103489669749274, 0.348552747886836, -1.11691206956521, 1.2153770581449, -1.11450054919975], a = 0.2, v = 0.2, t = 0.2)
movej(p[0.356801163210052, -0.102985244903112, 0.349293294590743, -1.10701868390351, 1.21979438993296, -1.09915356340977], a = 0.2, v = 0.2, t = 0.2)
movej(p[0.356801163210052, -0.102985244903112, 0.349293294590743, -1.10843407426489, 1.21767382064421, -1.0971989747304], a = 0.2, v = 0.2, t = 0.2)
movej(p[0.358039488965824, -0.103216193501847, 0.348946404467889, -1.10324941352773, 1.21038554852404, -1.10128158737187], a = 0.2, v = 0.2, t = 0.2)
movej(p[0.360658733647923, -0.103875777127149, 0.348137892212863, -1.10666874992391, 1.20059722346653, -1.1128042276203], a = 0.2, v = 0.2, t = 0.2)
movej(p[0.361702303494603, -0.104267335079171, 0.347721968319212, -1.11816368659248, 1.19230513153626, -1.12185283166079], a = 0.2, v = 0.2, t = 0.2)
movej(p[0.363150531236703, -0.104672832832211, 0.347239193175598, -1.12828567815842, 1.18568155473678, -1.131913546516], a = 0.2, v = 0.2, t = 0.2)
movej(p[0.364445635520281, -0.10514519787414, 0.346703318953582, -1.13220749460296, 1.18251935943312, -1.13700525507254], a = 0.2, v = 0.2, t = 0.2)
movej(p[0.365914777532975, -0.10553506682419, 0.346228542797565, -1.12792233553193, 1.18240901901166, -1.14094964933188], a = 0.2, v = 0.2, t = 0.2)
movej(p[0.367064576843523, -0.105753763437198, 0.345925707269722, -1.11886336144273, 1.18564586257309, -1.15010304274156], a = 0.2, v = 0.2, t = 0.2)
movej(p[0.367603640084337, -0.10587983683794, 0.345757361197513, -1.11591597101929, 1.18674343836996, -1.15263970011596], a = 0.2, v = 0.2, t = 0.2)
movej(p[0.367891483975512, -0.105896837263795, 0.345701486786252, -1.11415210342822, 1.18783762791978, -1.1508661280584], a = 0.2, v = 0.2, t = 0.2)
movej(p[0.368079783299635, -0.10591313412658, 0.34566712711806, -1.11200861159625, 1.18907871091084, -1.15328546266667], a = 0.2, v = 0.2, t = 0.2)
movej(p[0.368238945776913, -0.105905248448798, 0.34566052242938, -1.10786016061216, 1.18915188620177, -1.15348109002394], a = 0.2, v = 0.2, t = 0.2)
movej(p[0.368339556430157, -0.105866325608416, 0.345668641477996, -1.10786016061216, 1.18915188620177, -1.15348109002394], a = 0.2, v = 0.2, t = 0.2)
movej(p[0.368335470344846, -0.105820834409513, 0.345704894129336, -1.11644756521759, 1.18612909642304, -1.15217140991394], a = 0.2, v = 0.2, t = 0.2)
movej(p[0.367073512098067, -0.105451700929233, 0.346158315486489, -1.12329321885442, 1.1924217209351, -1.14782530745494], a = 0.2, v = 0.2, t = 0.2)
movej(p[0.365901224953988, -0.105083255649189, 0.346584154608037, -1.12090617648195, 1.19699276309524, -1.14161169318329], a = 0.2, v = 0.2, t = 0.2)
movej(p[0.364448988750109, -0.104682595157587, 0.34707391996881, -1.12240653273871, 1.20128540509496, -1.13733066731073], a = 0.2, v = 0.2, t = 0.2)
movej(p[0.364158724889463, -0.104626512932416, 0.347154281248184, -1.12403926736036, 1.20171546655246, -1.13321066355781], a = 0.2, v = 0.2, t = 0.2)
movej(p[0.363039554302058, -0.104315214964617, 0.347547338726847, -1.12673403624086, 1.20404053674419, -1.13029261040218], a = 0.2, v = 0.2, t = 0.2)
movej(p[0.360632182528616, -0.103708926265834, 0.348297210881392, -1.11379866758304, 1.21342550787814, -1.11368870184069], a = 0.2, v = 0.2, t = 0.2)
movej(p[0.357173130132724, -0.102960807458754, 0.349266766874083, -1.1023634640035, 1.22008970599803, -1.10106155304324], a = 0.2, v = 0.2, t = 0.2)
movej(p[0.357173130132724, -0.102960807458754, 0.349266766874083, -1.10392145977804, 1.21692806919716, -1.09865305404294], a = 0.2, v = 0.2, t = 0.2)
movej(p[0.358829782900685, -0.10340937935813, 0.348713279026432, -1.10112578212315, 1.20981871117146, -1.10434406258593], a = 0.2, v = 0.2, t = 0.2)
movej(p[0.36149334679426, -0.104218072262956, 0.347778300213558, -1.11830179934741, 1.19598382348172, -1.12210553590502], a = 0.2, v = 0.2, t = 0.2)
movej(p[0.362196189458208, -0.104584700341773, 0.34739766283815, -1.11922621804581, 1.19142920681956, -1.12723483000326], a = 0.2, v = 0.2, t = 0.2)
movej(p[0.363230487000751, -0.105003922362783, 0.346932655203169, -1.12340941984733, 1.1886943992624, -1.13196992745162], a = 0.2, v = 0.2, t = 0.2)
movej(p[0.364087517697551, -0.105327276734059, 0.34658376978456, -1.13057769857434, 1.18369288522041, -1.1404010113096], a = 0.2, v = 0.2, t = 0.2)
movej(p[0.365101797613432, -0.105583779698088, 0.346268841139174, -1.12574992715954, 1.18603515837152, -1.14566844916327], a = 0.2, v = 0.2, t = 0.2)
movej(p[0.366233949713032, -0.105733882544552, 0.346028499780154, -1.11224425959508, 1.19009293787111, -1.14860325703659], a = 0.2, v = 0.2, t = 0.2)
movej(p[0.366463263293304, -0.105808651032547, 0.3459429359145, -1.10412193308168, 1.19725020257831, -1.15087812844965], a = 0.2, v = 0.2, t = 0.2)
movej(p[0.366764600680183, -0.105841118995295, 0.345897544388155, -1.10156549978901, 1.19793614639616, -1.15193938239669], a = 0.2, v = 0.2, t = 0.2)
movej(p[0.367107383841006, -0.105846092276858, 0.345865476162031, -1.0975324460237, 1.19997826151741, -1.15244861114084], a = 0.2, v = 0.2, t = 0.2)
movej(p[0.367502336590718, -0.105841344871579, 0.345834227839864, -1.09536661823602, 1.19798050923477, -1.15384856103246], a = 0.2, v = 0.2, t = 0.2)
movej(p[0.368113683131387, -0.105849772476251, 0.345783129672664, -1.09504789009318, 1.19744190219403, -1.15397511650759], a = 0.2, v = 0.2, t = 0.2)
movej(p[0.368113683131387, -0.105849772476251, 0.345783129672664, -1.09543595583615, 1.1967594406363, -1.15477475981269], a = 0.2, v = 0.2, t = 0.2)
movej(p[0.368100708191145, -0.105807476356956, 0.34581085239292, -1.09678984594879, 1.19465825276454, -1.1528130523144], a = 0.2, v = 0.2, t = 0.2)
movej(p[0.367686007244997, -0.105699946022216, 0.345915046502037, -1.12278035450382, 1.18076085106607, -1.14972845244434], a = 0.2, v = 0.2, t = 0.2)
movej(p[0.367347386441645, -0.105644160087326, 0.345992702544978, -1.12901865860043, 1.17968780215515, -1.14813698072696], a = 0.2, v = 0.2, t = 0.2)
movej(p[0.366529439245008, -0.105347228147923, 0.346344349323545, -1.13318684518479, 1.18350129391363, -1.14552442165488], a = 0.2, v = 0.2, t = 0.2)
movej(p[0.365013047014641, -0.104881293074877, 0.346897121773463, -1.12531260770017, 1.19240756428068, -1.13777733331351], a = 0.2, v = 0.2, t = 0.2)
movej(p[0.36249437265737, -0.104330813246914, 0.347599245160792, -1.11896210225873, 1.2045760828483, -1.12636594831531], a = 0.2, v = 0.2, t = 0.2)
movej(p[0.360337432069584, -0.103849491438814, 0.348220714482487, -1.11477645364395, 1.21002903380703, -1.11838816162867], a = 0.2, v = 0.2, t = 0.2)
movej(p[0.359095869543196, -0.103626560687334, 0.348484704620773, -1.10831303358847, 1.21381698601948, -1.11123080129333], a = 0.2, v = 0.2, t = 0.2)
movej(p[0.359095869543196, -0.103626560687334, 0.348484704620773, -1.10797363861947, 1.20816402153873, -1.10979200509003], a = 0.2, v = 0.2, t = 0.2)
movej(p[0.361134668707513, -0.104103364779528, 0.347870716896755, -1.11626655657695, 1.19356463271268, -1.12148349717535], a = 0.2, v = 0.2, t = 0.2)
movej(p[0.362286780239608, -0.104611044992887, 0.347302925254885, -1.11721249292947, 1.18909092377772, -1.12680063545036], a = 0.2, v = 0.2, t = 0.2)
movej(p[0.363244578415815, -0.104928394485922, 0.346927208016891, -1.12288149401618, 1.18364644706622, -1.13463412209851], a = 0.2, v = 0.2, t = 0.2)
movej(p[0.364336854746444, -0.10524151082007, 0.346571981907439, -1.12745141032272, 1.18077458993233, -1.13954972322145], a = 0.2, v = 0.2, t = 0.2)
movej(p[0.36508803668401, -0.105570025260241, 0.346197210124516, -1.13373683050563, 1.17661937982807, -1.14584704220721], a = 0.2, v = 0.2, t = 0.2)
movej(p[0.366210377329314, -0.105777415596656, 0.345930418456242, -1.13765860433478, 1.17306604895149, -1.14855316767854], a = 0.2, v = 0.2, t = 0.2)
movej(p[0.366780386515976, -0.105929746358668, 0.345751244668915, -1.14050554197759, 1.17082571269273, -1.15143952703808], a = 0.2, v = 0.2, t = 0.2)
movej(p[0.367030900045451, -0.106006899442965, 0.345668409512529, -1.14380083565413, 1.16855738409608, -1.15460989774226], a = 0.2, v = 0.2, t = 0.2)
movej(p[0.367445253477527, -0.106099509862314, 0.345565969073469, -1.14764600559203, 1.16655118022013, -1.15741625759424], a = 0.2, v = 0.2, t = 0.2)
movej(p[0.367770400201237, -0.106166799513063, 0.34548892433995, -1.14909401000812, 1.16547812028812, -1.15863674019755], a = 0.2, v = 0.2, t = 0.2)
movej(p[0.368040036040088, -0.106159441869017, 0.345496751822392, -1.14819089835865, 1.16458602881016, -1.15925303212375], a = 0.2, v = 0.2, t = 0.2)
movej(p[0.36857256886987, -0.106191113143312, 0.345438961809511, -1.14947599061436, 1.1637943353779, -1.16074549443164], a = 0.2, v = 0.2, t = 0.2)
movej(p[0.368626120208458, -0.106203454162479, 0.345435914945342, -1.15012592041368, 1.16440074928637, -1.16035106405175], a = 0.2, v = 0.2, t = 0.2)
movej(p[0.368625130238587, -0.106188836562601, 0.345442029332757, -1.14644161853968, 1.1682166098976, -1.15998289578775], a = 0.2, v = 0.2, t = 0.2)
movej(p[0.368311512077237, -0.105961319967703, 0.345673352738226, -1.13967152205103, 1.17374968345602, -1.15468369313036], a = 0.2, v = 0.2, t = 0.2)
movej(p[0.366917650799962, -0.10544328596638, 0.346264621385447, -1.12730644981214, 1.18797472372557, -1.14581339496606], a = 0.2, v = 0.2, t = 0.2)
movej(p[0.365570444730898, -0.105032874734435, 0.346771995092069, -1.1263364688713, 1.19429274323521, -1.14034445412315], a = 0.2, v = 0.2, t = 0.2)
movej(p[0.36405393352156, -0.104592469943064, 0.347306239709907, -1.11605928795731, 1.20462558252066, -1.13071442929526], a = 0.2, v = 0.2, t = 0.2)
movej(p[0.362216296646203, -0.10419500816827, 0.347801589033019, -1.11850923742032, 1.20968939821361, -1.12584188387953], a = 0.2, v = 0.2, t = 0.2)
movej(p[0.360193658409183, -0.103672524609465, 0.348417437068595, -1.10982436757694, 1.21561153436712, -1.11462412334149], a = 0.2, v = 0.2, t = 0.2)
movej(p[0.36002919219094, -0.103679648103947, 0.348407838689405, -1.11041831305459, 1.21471043616699, -1.11379652070533], a = 0.2, v = 0.2, t = 0.2)
movej(p[0.360033900777661, -0.10371725867208, 0.348355070949489, -1.10906398695731, 1.20702209033355, -1.1139521580258], a = 0.2, v = 0.2, t = 0.2)
movej(p[0.361955336949919, -0.104173948956614, 0.347807833752331, -1.11978394713869, 1.19269933947942, -1.12376251730079], a = 0.2, v = 0.2, t = 0.2)
movej(p[0.362781786329871, -0.104603457010063, 0.347262866134579, -1.12054494388468, 1.18943694724042, -1.1277801130731], a = 0.2, v = 0.2, t = 0.2)
movej(p[0.363621378768324, -0.104926468215572, 0.346905005228069, -1.1276719365984, 1.18360823205448, -1.13713898251095], a = 0.2, v = 0.2, t = 0.2)
movej(p[0.364462768132769, -0.105212127492, 0.346535019369975, -1.12952990953365, 1.18095989044394, -1.13866348240246], a = 0.2, v = 0.2, t = 0.2)
movej(p[0.365291640804291, -0.105475329299227, 0.346242577592733, -1.13466638972958, 1.17658936985148, -1.14485010758488], a = 0.2, v = 0.2, t = 0.2)
movej(p[0.366321475087873, -0.105777263595553, 0.345895851059192, -1.14046863831072, 1.17145234341245, -1.1515421192607], a = 0.2, v = 0.2, t = 0.2)
movej(p[0.366577825615922, -0.105880877854548, 0.345746382460142, -1.13970973457034, 1.17047529045775, -1.15231929350957], a = 0.2, v = 0.2, t = 0.2)
movej(p[0.367038060657829, -0.105987274558132, 0.345608459120323, -1.14065277832029, 1.17012535003835, -1.15398555860358], a = 0.2, v = 0.2, t = 0.2)
movej(p[0.367310418961281, -0.106050879332669, 0.345572480971445, -1.14078810188923, 1.170172485477, -1.1544723408741], a = 0.2, v = 0.2, t = 0.2)
movej(p[0.367451043641516, -0.106046632290855, 0.34554433631041, -1.14069031018619, 1.17005976488704, -1.15455763776274], a = 0.2, v = 0.2, t = 0.2)
movej(p[0.367783499641049, -0.106132417930671, 0.345460573476315, -1.14024655906315, 1.16877007639616, -1.15567345383428], a = 0.2, v = 0.2, t = 0.2)
movej(p[0.368060668604359, -0.106120412963317, 0.345476749277266, -1.14222171300618, 1.16646316849797, -1.155169391794], a = 0.2, v = 0.2, t = 0.2)
movej(p[0.368041347927228, -0.105953396272469, 0.345683852600304, -1.14299516331122, 1.16717335680632, -1.15469509347924], a = 0.2, v = 0.2, t = 0.2)
movej(p[0.367167442765841, -0.105547947621539, 0.346202539731781, -1.1294611016519, 1.18206730340814, -1.14773053832], a = 0.2, v = 0.2, t = 0.2)
movej(p[0.365893501064717, -0.105187343486479, 0.346661465368367, -1.12932610232407, 1.18959004709638, -1.14214794686016], a = 0.2, v = 0.2, t = 0.2)
movej(p[0.364615051816523, -0.104746329662485, 0.34722041427197, -1.12561655215314, 1.20039922198742, -1.13471632615742], a = 0.2, v = 0.2, t = 0.2)
movej(p[0.363691289884057, -0.104504484005723, 0.34748471883196, -1.12160651859504, 1.20582621243131, -1.1288705525422], a = 0.2, v = 0.2, t = 0.2)
movej(p[0.361865496068198, -0.104160297894101, 0.347875090606733, -1.11449336213269, 1.21333971081348, -1.12044844415231], a = 0.2, v = 0.2, t = 0.2)
movej(p[0.359843096245245, -0.103644640055621, 0.34850566320345, -1.10858012234601, 1.21928186486501, -1.1111186733929], a = 0.2, v = 0.2, t = 0.2)
movej(p[0.359843096245245, -0.103644640055621, 0.34850566320345, -1.10979320777862, 1.2174511940921, -1.10943719170478], a = 0.2, v = 0.2, t = 0.2)
movej(p[0.360102596682353, -0.103772790732782, 0.34827919946003, -1.10586831931775, 1.20599824086778, -1.11375010018426], a = 0.2, v = 0.2, t = 0.2)
movej(p[0.361909300844968, -0.104336717174784, 0.347576701248787, -1.11316679132483, 1.19177531434399, -1.12402576656491], a = 0.2, v = 0.2, t = 0.2)
movej(p[0.36329037443876, -0.10481994638672, 0.346998326467815, -1.12408451167168, 1.18503906875858, -1.13589561812413], a = 0.2, v = 0.2, t = 0.2)
movej(p[0.364454904295125, -0.105248627820137, 0.346485539716546, -1.13052558703573, 1.1799123864837, -1.13972668516455], a = 0.2, v = 0.2, t = 0.2)
movej(p[0.36519839416982, -0.105495887046847, 0.346153059805826, -1.13710487962726, 1.17757974968949, -1.14587730223133], a = 0.2, v = 0.2, t = 0.2)
movej(p[0.365998677166952, -0.105777424426729, 0.345819498479782, -1.14056295766701, 1.17539718291122, -1.14964723486393], a = 0.2, v = 0.2, t = 0.2)
movej(p[0.366489487997604, -0.105864564269848, 0.345696569287744, -1.13927096652397, 1.17348138804516, -1.15270874775816], a = 0.2, v = 0.2, t = 0.2)
movej(p[0.367500583439781, -0.105994546503692, 0.345606879568747, -1.14234769908792, 1.17112009750443, -1.15650244728547], a = 0.2, v = 0.2, t = 0.2)
movej(p[0.36775018643646, -0.106052190831915, 0.34550970567579, -1.1425837625942, 1.16935230471228, -1.15755020129805], a = 0.2, v = 0.2, t = 0.2)
movej(p[0.36797442896148, -0.106101977124247, 0.345468440617099, -1.14381054498083, 1.16840022023802, -1.15854765633524], a = 0.2, v = 0.2, t = 0.2)
movej(p[0.368078726031682, -0.106131945350798, 0.345440469622396, -1.14462345247022, 1.16756305341226, -1.15874267622204], a = 0.2, v = 0.2, t = 0.2)
movej(p[0.368165397434746, -0.106128191368563, 0.345445527834353, -1.14434398007321, 1.16802812391618, -1.15916165877944], a = 0.2, v = 0.2, t = 0.2)
movej(p[0.368158395744091, -0.106079171387444, 0.345529119866144, -1.14306965384292, 1.16935293716836, -1.15906653477891], a = 0.2, v = 0.2, t = 0.2)
movej(p[0.367781230253513, -0.105691418517806, 0.346063809771421, -1.13167927540536, 1.1785138910125, -1.14992698517915], a = 0.2, v = 0.2, t = 0.2)
movej(p[0.366061559011377, -0.105085980830596, 0.346862563773524, -1.12304757806161, 1.19476647790537, -1.13906990004485], a = 0.2, v = 0.2, t = 0.2)
movej(p[0.3641229532931, -0.104619025479432, 0.347430089516627, -1.12040882601428, 1.20410652161047, -1.12944201599974], a = 0.2, v = 0.2, t = 0.2)
movej(p[0.362381310184093, -0.104249109250859, 0.347852401385611, -1.11762361221156, 1.21020816455425, -1.12128063649476], a = 0.2, v = 0.2, t = 0.2)
movej(p[0.360486758899908, -0.103723287719209, 0.348483810926597, -1.11372566485603, 1.21385918599882, -1.11370713798403], a = 0.2, v = 0.2, t = 0.2)
movej(p[0.360486758899908, -0.103723287719209, 0.348483810926597, -1.11405550573671, 1.21335664868829, -1.11324691784012], a = 0.2, v = 0.2, t = 0.2)
movej(p[0.360519820415541, -0.103825508549917, 0.348338490253762, -1.11498955715622, 1.20818121592569, -1.11392175445911], a = 0.2, v = 0.2, t = 0.2)
movej(p[0.361823705442028, -0.104233607036643, 0.347820931829198, -1.11925637025877, 1.1978677030535, -1.12356323462215], a = 0.2, v = 0.2, t = 0.2)
movej(p[0.362831215603234, -0.104616767907386, 0.347289937834697, -1.12599664788458, 1.18637925851428, -1.13099669738997], a = 0.2, v = 0.2, t = 0.2)
movej(p[0.363672199972493, -0.104912160407537, 0.346910063077024, -1.12628269994563, 1.1833051125784, -1.13457690231276], a = 0.2, v = 0.2, t = 0.2)
movej(p[0.364749134351034, -0.105144917499504, 0.346663589101814, -1.12818081718639, 1.1812267853059, -1.13946539776934], a = 0.2, v = 0.2, t = 0.2)
movej(p[0.365562703549091, -0.105483753464903, 0.346186127953106, -1.13440908073184, 1.17704742833256, -1.14654446343145], a = 0.2, v = 0.2, t = 0.2)
movej(p[0.365870401968913, -0.105626917513715, 0.345971301354271, -1.13470901666291, 1.17564190583226, -1.14821746537069], a = 0.2, v = 0.2, t = 0.2)
movej(p[0.366316325501537, -0.105713284199439, 0.34587132151306, -1.13379195153522, 1.17501696152417, -1.14997004638131], a = 0.2, v = 0.2, t = 0.2)
movej(p[0.366824916125687, -0.105848860907814, 0.345739104747206, -1.13533333012163, 1.17457436595097, -1.15356837861508], a = 0.2, v = 0.2, t = 0.2)
movej(p[0.367509682562923, -0.105985465621385, 0.345641798382223, -1.13806385297154, 1.17284617988797, -1.1565310670539], a = 0.2, v = 0.2, t = 0.2)
movej(p[0.367898105402197, -0.106064651065314, 0.345544210199538, -1.14189693148519, 1.16986599073883, -1.1591253095989], a = 0.2, v = 0.2, t = 0.2)
movej(p[0.367957127303473, -0.106069319017348, 0.345539657684464, -1.14348599012978, 1.17006098166261, -1.15873982053813], a = 0.2, v = 0.2, t = 0.2)
movej(p[0.367963610204738, -0.106069038224661, 0.345540036031733, -1.14348599012978, 1.17006098166261, -1.15873982053813], a = 0.2, v = 0.2, t = 0.2)
movej(p[0.367940659584854, -0.105898697856345, 0.345806870976913, -1.13780917692716, 1.1736935877757, -1.1526326887964], a = 0.2, v = 0.2, t = 0.2)
movej(p[0.366908875178188, -0.105519035943412, 0.346335486252922, -1.12797315793382, 1.18335236082379, -1.14744048435866], a = 0.2, v = 0.2, t = 0.2)
movej(p[0.365727323358498, -0.10510930062351, 0.346922071971306, -1.12824837989284, 1.19210708557786, -1.13913240068324], a = 0.2, v = 0.2, t = 0.2)
movej(p[0.36409945976964, -0.104691915406106, 0.347402266271941, -1.12920181056745, 1.20009525654074, -1.13169141745124], a = 0.2, v = 0.2, t = 0.2)
movej(p[0.362077561382316, -0.104266659158906, 0.347869717163001, -1.11988801538525, 1.21096991616424, -1.12283625662377], a = 0.2, v = 0.2, t = 0.2)
movej(p[0.360304895564215, -0.103740167538122, 0.348484053504578, -1.10949775325185, 1.21796579496078, -1.11050653390987], a = 0.2, v = 0.2, t = 0.2)
movej(p[0.359563074887166, -0.103584021086619, 0.348652828143626, -1.11133599581836, 1.21379507709868, -1.10752769484571], a = 0.2, v = 0.2, t = 0.2)
movej(p[0.359563074887166, -0.103584021086619, 0.348652828143626, -1.10919759733457, 1.21090602713883, -1.11008945210678], a = 0.2, v = 0.2, t = 0.2)
movej(p[0.360460279413151, -0.103784150385526, 0.348458711471825, -1.10721388357121, 1.20666429409129, -1.11408126890819], a = 0.2, v = 0.2, t = 0.2)
movej(p[0.362009216914697, -0.104275602352958, 0.347836233689078, -1.1134628685877, 1.19470974091426, -1.12658518281741], a = 0.2, v = 0.2, t = 0.2)
movej(p[0.363227504201761, -0.1047805124006, 0.347108301528799, -1.12067562243247, 1.18937188473587, -1.13545602681449], a = 0.2, v = 0.2, t = 0.2)
movej(p[0.364238326208957, -0.105066069736083, 0.346743618422639, -1.12247826561073, 1.18856634702586, -1.13870361133322], a = 0.2, v = 0.2, t = 0.2)
movej(p[0.364924738255787, -0.105273222090943, 0.346472902420445, -1.12411918673486, 1.18567234609439, -1.14259314651376], a = 0.2, v = 0.2, t = 0.2)
movej(p[0.36616348336103, -0.105637982608095, 0.346066952288825, -1.13310078603946, 1.17805990540383, -1.14881229107611], a = 0.2, v = 0.2, t = 0.2)
movej(p[0.366491508221605, -0.105721190414999, 0.345936943051789, -1.13345624773154, 1.17641987030052, -1.15076417642068], a = 0.2, v = 0.2, t = 0.2)
movej(p[0.367117089802662, -0.105878868629628, 0.345764723668229, -1.13490605456909, 1.17550576030662, -1.15233769125423], a = 0.2, v = 0.2, t = 0.2)
movej(p[0.367338658754796, -0.106013118643069, 0.345565665226203, -1.139207599295, 1.1760368180352, -1.15349476340979], a = 0.2, v = 0.2, t = 0.2)
movej(p[0.367698992387213, -0.106037822974308, 0.345544730581063, -1.14143065302801, 1.17427213043257, -1.15499909037615], a = 0.2, v = 0.2, t = 0.2)
movej(p[0.368164899995012, -0.106030977661046, 0.345610397411972, -1.14010783857342, 1.17348618384773, -1.15330536138523], a = 0.2, v = 0.2, t = 0.2)
movej(p[0.36815592340354, -0.106041485123169, 0.345772007603622, -1.13948624278271, 1.17291491370233, -1.15369004057702], a = 0.2, v = 0.2, t = 0.2)
movej(p[0.367689627780569, -0.105671850211873, 0.346359583415198, -1.12886786334236, 1.18199736210555, -1.14832575972685], a = 0.2, v = 0.2, t = 0.2)
movej(p[0.366504478179908, -0.105354308465197, 0.346715458706796, -1.12535296496538, 1.18722811527526, -1.14311743789263], a = 0.2, v = 0.2, t = 0.2)
movej(p[0.365220057177527, -0.105080835096946, 0.347014879974411, -1.12444269555437, 1.19034840560539, -1.13925385957914], a = 0.2, v = 0.2, t = 0.2)
movej(p[0.363644567379261, -0.104702400868514, 0.347404821316551, -1.120548280046, 1.19269201809534, -1.13454923484126], a = 0.2, v = 0.2, t = 0.2)
movej(p[0.362176423070202, -0.104282654501025, 0.347915920254876, -1.11675466892009, 1.1958001910247, -1.12654879957057], a = 0.2, v = 0.2, t = 0.2)
movej(p[0.359901319978695, -0.103802595712868, 0.348343362780755, -1.11369521141809, 1.1964895080518, -1.11687112156802], a = 0.2, v = 0.2, t = 0.2)
movej(p[0.358201593906575, -0.103226293554749, 0.349170737249968, -1.10785799050708, 1.19969194437923, -1.10948243882495], a = 0.2, v = 0.2, t = 0.2)
movej(p[0.358201593906575, -0.103226293554749, 0.349170737249968, -1.10784071166662, 1.19967666464257, -1.10949355828548], a = 0.2, v = 0.2, t = 0.2)
movej(p[0.359278633184529, -0.103566679402472, 0.3487154374384, -1.1121386014467, 1.19638769773329, -1.11513570115536], a = 0.2, v = 0.2, t = 0.2)
movej(p[0.361108491393416, -0.104117965872742, 0.347993368298311, -1.11825020893274, 1.19214196980898, -1.12373436383426], a = 0.2, v = 0.2, t = 0.2)
movej(p[0.362367990903332, -0.104556989586487, 0.347338450613948, -1.12307185813897, 1.18955035063877, -1.13051744116217], a = 0.2, v = 0.2, t = 0.2)
movej(p[0.363377001511544, -0.104927013365203, 0.346766843007544, -1.12702964501039, 1.18757096061479, -1.1360920156949], a = 0.2, v = 0.2, t = 0.2)
movej(p[0.364333912645809, -0.105283134412983, 0.346204887804303, -1.13094077499422, 1.18552555747269, -1.14149284477826], a = 0.2, v = 0.2, t = 0.2)
movej(p[0.364930695672856, -0.105477548416589, 0.345924601889869, -1.13275729324926, 1.18451364323581, -1.1443128260232], a = 0.2, v = 0.2, t = 0.2)
movej(p[0.365576987049188, -0.105644470204166, 0.345737676360016, -1.13436134373929, 1.18350017703657, -1.146792029159], a = 0.2, v = 0.2, t = 0.2)
movej(p[0.367006091283296, -0.106014034921951, 0.345344596803915, -1.13901151712414, 1.18065235007723, -1.15278856026408], a = 0.2, v = 0.2, t = 0.2)
movej(p[0.367233554314735, -0.106037449279219, 0.345355708833531, -1.13886444348692, 1.18068670840611, -1.15348073150507], a = 0.2, v = 0.2, t = 0.2)
movej(p[0.367464862554294, -0.106034155647979, 0.345476964350128, -1.13802002918013, 1.1804630350638, -1.1541980721958], a = 0.2, v = 0.2, t = 0.2)
movej(p[0.367804913314331, -0.106026514187083, 0.345722872907672, -1.13667649906085, 1.17921992015536, -1.15504168338682], a = 0.2, v = 0.2, t = 0.2)
movej(p[0.367965988476529, -0.106019537568775, 0.345732273382137, -1.13602993305847, 1.17792828076124, -1.15521297884652], a = 0.2, v = 0.2, t = 0.2)
movej(p[0.367964900409083, -0.106017130035689, 0.345749130424988, -1.13569313070372, 1.17813992593493, -1.15484783322622], a = 0.2, v = 0.2, t = 0.2)
movej(p[0.367821512638387, -0.105815865079467, 0.346177189631888, -1.12670525288816, 1.18698967527064, -1.14953497923968], a = 0.2, v = 0.2, t = 0.2)
movej(p[0.36673696466413, -0.10542996855276, 0.3467703233202, -1.12181237130664, 1.19064960861735, -1.14352281236813], a = 0.2, v = 0.2, t = 0.2)
movej(p[0.36547829992648, -0.10513600002083, 0.347056449359614, -1.12320287026196, 1.1919979511261, -1.13956842528098], a = 0.2, v = 0.2, t = 0.2)
movej(p[0.363905167005237, -0.104778246815083, 0.347368096701784, -1.12283060906693, 1.19849089734053, -1.13117945070173], a = 0.2, v = 0.2, t = 0.2)
movej(p[0.361932423450446, -0.104241713071998, 0.348008505539606, -1.11765611393001, 1.20717222453913, -1.11913087832916], a = 0.2, v = 0.2, t = 0.2)
movej(p[0.359873913894547, -0.103792620694854, 0.348310773740154, -1.11503439244127, 1.21251883272155, -1.11073307256049], a = 0.2, v = 0.2, t = 0.2)
