def moving():
set_payload_mass(0.62)
set_tcp(p[0,0.005,0.058,0,0,0])
movej(p[0.4431, -0.1037, 0.3786, -1.201, 1.094, -1.2], a = 0.2, v = 0.2, t = 0.2)
movej(p[0.444342861276817, -0.104837080408716, 0.379960089699507, -1.201, 1.094, -1.2], a = 0.2, v = 0.2, t = 0.2)
movej(p[0.445585722553633, -0.105974160817432, 0.381320179399014, -1.201, 1.094, -1.2], a = 0.2, v = 0.2, t = 0.2)
movej(p[0.446828583830449, -0.107111241226148, 0.38268026909852, -1.201, 1.094, -1.2], a = 0.2, v = 0.2, t = 0.2)
movej(p[0.448071445107266, -0.108248321634864, 0.384040358798027, -1.201, 1.094, -1.2], a = 0.2, v = 0.2, t = 0.2)
movej(p[0.446828583830449, -0.107111241226148, 0.38268026909852, -1.201, 1.094, -1.2], a = 0.2, v = 0.2, t = 0.2)
movej(p[0.445585722553633, -0.105974160817432, 0.381320179399014, -1.201, 1.094, -1.2], a = 0.2, v = 0.2, t = 0.2)
movej(p[0.444342861276817, -0.104837080408716, 0.379960089699507, -1.201, 1.094, -1.2], a = 0.2, v = 0.2, t = 0.2)
movej(p[0.4431, -0.1037, 0.3786, -1.201, 1.094, -1.2], a = 0.2, v = 0.2, t = 0.2)
movej(p[0.442586027229113, -0.104055248660321, 0.378416786394536, -1.20596581324741, 1.10766626198373, -1.18491739365486], a = 0.2, v = 0.2, t = 0.2)
movej(p[0.441656849381683, -0.104452215336719, 0.377975873295191, -1.21206624486561, 1.13253843717644, -1.16634045827573], a = 0.2, v = 0.2, t = 0.2)
movej(p[0.440184094978918, -0.105098623769743, 0.377473469705183, -1.21548498051584, 1.16199455548172, -1.16895733939469], a = 0.2, v = 0.2, t = 0.2)
movej(p[0.438553154523943, -0.105747257074113, 0.377466785964721, -1.2277251560725, 1.19609778550087, -1.15507230415533], a = 0.2, v = 0.2, t = 0.2)
movej(p[0.436810370387863, -0.106580634859142, 0.377741958156896, -1.2395652626873, 1.22334266594383, -1.15524456430583], a = 0.2, v = 0.2, t = 0.2)
movej(p[0.435221306616692, -0.107206988244595, 0.378049520896471, -1.24151169852855, 1.241527183644, -1.16588120854506], a = 0.2, v = 0.2, t = 0.2)
movej(p[0.433962700131389, -0.107607907570177, 0.378102112650357, -1.2364952453002, 1.25460884825484, -1.18494807761166], a = 0.2, v = 0.2, t = 0.2)
movej(p[0.433222329564001, -0.107712498423885, 0.378467014831587, -1.23246380556992, 1.26583745626686, -1.18606108881032], a = 0.2, v = 0.2, t = 0.2)
movej(p[0.432889924238448, -0.107632412111055, 0.379113285283442, -1.2289107396993, 1.2659089982533, -1.19370787877413], a = 0.2, v = 0.2, t = 0.2)
movej(p[0.432873322884535, -0.107442794682834, 0.379853213277211, -1.22351072291766, 1.25785625715978, -1.21226611418904], a = 0.2, v = 0.2, t = 0.2)
movej(p[0.433820183008151, -0.106936244278686, 0.379972725805273, -1.2169864132175, 1.23465358758241, -1.22504587491779], a = 0.2, v = 0.2, t = 0.2)
movej(p[0.435060545048624, -0.106216474817537, 0.380487554205181, -1.21343134499174, 1.21278287975689, -1.22505418671501], a = 0.2, v = 0.2, t = 0.2)
movej(p[0.436515861511681, -0.105294024431883, 0.38114717524666, -1.20187385467603, 1.18096493865433, -1.23655258146583], a = 0.2, v = 0.2, t = 0.2)
movej(p[0.437849185883158, -0.104327492336593, 0.381701063331745, -1.19351497806033, 1.15330047577433, -1.25047084086035], a = 0.2, v = 0.2, t = 0.2)
movej(p[0.439101134608406, -0.103529212780018, 0.381989470378304, -1.19239234302155, 1.12900806059344, -1.23977571697008], a = 0.2, v = 0.2, t = 0.2)
movej(p[0.439878838713137, -0.102976096607834, 0.382288850813793, -1.19370805476072, 1.11356244382093, -1.22781809667012], a = 0.2, v = 0.2, t = 0.2)
movej(p[0.440226271327879, -0.102710890401213, 0.382621862113576, -1.19506193140952, 1.09694568906982, -1.226602698393], a = 0.2, v = 0.2, t = 0.2)
movej(p[0.440520561851142, -0.102525653569129, 0.382488133343459, -1.19221971063972, 1.08945769365228, -1.23873099931393], a = 0.2, v = 0.2, t = 0.2)
movej(p[0.440923348801936, -0.102579700384592, 0.382025524973443, -1.19463310843815, 1.0857204692384, -1.22944945518839], a = 0.2, v = 0.2, t = 0.2)
movej(p[0.441122802458325, -0.102802716471563, 0.381601440481384, -1.19142922267646, 1.09253338987809, -1.22107031077268], a = 0.2, v = 0.2, t = 0.2)
movej(p[0.441151478779113, -0.103113972154355, 0.381472413382851, -1.1844207461016, 1.09134575694275, -1.23030557770633], a = 0.2, v = 0.2, t = 0.2)
movej(p[0.44134597315453, -0.103227592953314, 0.381242354650404, -1.18210100331585, 1.09773862376766, -1.23449004867485], a = 0.2, v = 0.2, t = 0.2)
movej(p[0.441350878345266, -0.103460627076456, 0.381055684971411, -1.18874371734979, 1.10246803510316, -1.22498074130834], a = 0.2, v = 0.2, t = 0.2)
movej(p[0.441304040333013, -0.103577604548656, 0.380713244586518, -1.18440840403564, 1.09822753625599, -1.21725042935193], a = 0.2, v = 0.2, t = 0.2)
movej(p[0.441418371979491, -0.103543038987173, 0.380360395025553, -1.17606518540779, 1.08740096486559, -1.22385483607929], a = 0.2, v = 0.2, t = 0.2)
movej(p[0.441972795554756, -0.103375163376407, 0.37994079327079, -1.17332608722908, 1.08452292611211, -1.21574253141], a = 0.2, v = 0.2, t = 0.2)
movej(p[0.442370443043743, -0.103328462488728, 0.379474772168164, -1.17348388930414, 1.08604743823503, -1.20526040845924], a = 0.2, v = 0.2, t = 0.2)
movej(p[0.442403484042102, -0.103503834756622, 0.379220604926409, -1.18076327803493, 1.09267432218021, -1.19085671010453], a = 0.2, v = 0.2, t = 0.2)
movej(p[0.442458407437136, -0.103813968583187, 0.378243617519161, -1.19209072543985, 1.09895561711682, -1.18936401167552], a = 0.2, v = 0.2, t = 0.2)
movej(p[0.442227126417685, -0.104301506775425, 0.377589725975037, -1.21044669574311, 1.12165784311165, -1.1665020892578], a = 0.2, v = 0.2, t = 0.2)
movej(p[0.441222971701627, -0.105122038828556, 0.377277505089921, -1.22666070136087, 1.14421870685982, -1.16174361231859], a = 0.2, v = 0.2, t = 0.2)
movej(p[0.439486557725318, -0.105820521646194, 0.377694621375797, -1.22744864032084, 1.17214661975859, -1.16657104895804], a = 0.2, v = 0.2, t = 0.2)
movej(p[0.437876139511619, -0.106340476340189, 0.378123229975315, -1.22980583914995, 1.19418397002869, -1.17449652011927], a = 0.2, v = 0.2, t = 0.2)
movej(p[0.43656465787178, -0.106584405233025, 0.378685902775886, -1.22829768259141, 1.2148120512237, -1.17787483823493], a = 0.2, v = 0.2, t = 0.2)
movej(p[0.435845940282924, -0.106623818691932, 0.379056696326029, -1.21536215527334, 1.21816721560215, -1.19657188367851], a = 0.2, v = 0.2, t = 0.2)
movej(p[0.436094788342481, -0.10621947568866, 0.379341612747739, -1.20092845770249, 1.20748774227034, -1.22979980416267], a = 0.2, v = 0.2, t = 0.2)
movej(p[0.437401645079878, -0.105546526316383, 0.379505264390786, -1.19684846970589, 1.18049756639574, -1.23471353055356], a = 0.2, v = 0.2, t = 0.2)
movej(p[0.438749579430191, -0.104731240163462, 0.380099242129594, -1.19537083631687, 1.15637442190308, -1.22510993575196], a = 0.2, v = 0.2, t = 0.2)
movej(p[0.439569615445269, -0.10399728876877, 0.380817799143498, -1.18759640216061, 1.12736039044876, -1.23079201441288], a = 0.2, v = 0.2, t = 0.2)
movej(p[0.440255318881498, -0.103409611295668, 0.38106512367155, -1.17947680780165, 1.10967363380812, -1.23557683725555], a = 0.2, v = 0.2, t = 0.2)
movej(p[0.440805598958626, -0.103147844674392, 0.381011792922422, -1.18178871504145, 1.09471216918344, -1.23244474325177], a = 0.2, v = 0.2, t = 0.2)
movej(p[0.44118966971072, -0.103176735968246, 0.38100264029847, -1.18485816278977, 1.08374226548121, -1.2213153624167], a = 0.2, v = 0.2, t = 0.2)
movej(p[0.441374774106155, -0.103210445883529, 0.380776844551605, -1.18391021296297, 1.07931184590201, -1.22761687357327], a = 0.2, v = 0.2, t = 0.2)
movej(p[0.441691918844258, -0.10338434662736, 0.380082694714762, -1.19596320215121, 1.089911090285, -1.21353408195896], a = 0.2, v = 0.2, t = 0.2)
movej(p[0.441455828145313, -0.103882332034169, 0.379338928356749, -1.21163337298613, 1.10957610298701, -1.19619607542743], a = 0.2, v = 0.2, t = 0.2)
movej(p[0.440441820616803, -0.104670467027958, 0.378988006892195, -1.2284890533385, 1.13103377918693, -1.17746881844628], a = 0.2, v = 0.2, t = 0.2)
movej(p[0.438954158432111, -0.105292861292442, 0.378835164324253, -1.23085631776532, 1.15330534191195, -1.18606311936085], a = 0.2, v = 0.2, t = 0.2)
movej(p[0.437567226492236, -0.105713506372982, 0.378770054075652, -1.2331946661342, 1.17765759971349, -1.18693679108536], a = 0.2, v = 0.2, t = 0.2)
movej(p[0.436365700539294, -0.106128502622358, 0.378951022636208, -1.23167752136044, 1.20068643298018, -1.19369248642224], a = 0.2, v = 0.2, t = 0.2)
movej(p[0.435790866859627, -0.106285364801265, 0.379357924924171, -1.21810789342568, 1.20168216597642, -1.21563649924652], a = 0.2, v = 0.2, t = 0.2)
movej(p[0.436441359353084, -0.105899801531343, 0.37964435420138, -1.20428253272373, 1.18963634908361, -1.23899789213915], a = 0.2, v = 0.2, t = 0.2)
movej(p[0.437740150114907, -0.105224347375388, 0.380027291402768, -1.19840359177522, 1.16908842189891, -1.23321463073651], a = 0.2, v = 0.2, t = 0.2)
movej(p[0.438895395242659, -0.104499037655453, 0.380707559798751, -1.19580434032024, 1.14343704149922, -1.23076719908697], a = 0.2, v = 0.2, t = 0.2)
movej(p[0.439498894973132, -0.103823646813186, 0.381467916633869, -1.19247879282279, 1.12146654874458, -1.23144664619586], a = 0.2, v = 0.2, t = 0.2)
movej(p[0.440161175928233, -0.103328253829075, 0.381819736850987, -1.19211255334857, 1.10434497834113, -1.23194575429088], a = 0.2, v = 0.2, t = 0.2)
movej(p[0.440623550071348, -0.103119555834053, 0.381821410993214, -1.19176986540344, 1.09810719768769, -1.22085089987755], a = 0.2, v = 0.2, t = 0.2)
movej(p[0.440970838613109, -0.103128013837593, 0.381633188914441, -1.18617063819574, 1.08611067283901, -1.21956258322874], a = 0.2, v = 0.2, t = 0.2)
movej(p[0.441267982907784, -0.103172893482087, 0.380975261056958, -1.18656249184933, 1.08137679793594, -1.22738790028587], a = 0.2, v = 0.2, t = 0.2)
movej(p[0.441710307589934, -0.103381973055306, 0.38006516409332, -1.19679663519133, 1.09139119835085, -1.21255433907669], a = 0.2, v = 0.2, t = 0.2)
movej(p[0.441473517360218, -0.103769919343886, 0.379280242541806, -1.21013192933686, 1.12068813567521, -1.18828853322654], a = 0.2, v = 0.2, t = 0.2)
movej(p[0.440627189609775, -0.104331354156894, 0.378807392450849, -1.21261708801503, 1.14310854328039, -1.1776804783471], a = 0.2, v = 0.2, t = 0.2)
movej(p[0.439785535390888, -0.104624184746357, 0.378560432644191, -1.21236622574237, 1.15476224588073, -1.18505054214939], a = 0.2, v = 0.2, t = 0.2)
movej(p[0.439146022300925, -0.105018795359286, 0.378511490694608, -1.21431275074661, 1.16288223390879, -1.19146554984842], a = 0.2, v = 0.2, t = 0.2)
movej(p[0.438959813951085, -0.10529734919697, 0.378637267719385, -1.20837903489486, 1.15799249494964, -1.20822293178935], a = 0.2, v = 0.2, t = 0.2)
movej(p[0.439040608420711, -0.105151669349172, 0.379375662682277, -1.20017932524314, 1.14959170665325, -1.21938170440806], a = 0.2, v = 0.2, t = 0.2)
movej(p[0.439886836833764, -0.104564505876101, 0.379751433895163, -1.18951620519477, 1.13200875821629, -1.22793827640729], a = 0.2, v = 0.2, t = 0.2)
movej(p[0.440581479763228, -0.104041219085408, 0.380260296920772, -1.19104648887279, 1.12346066811326, -1.21286654055715], a = 0.2, v = 0.2, t = 0.2)
movej(p[0.441030025466664, -0.103691726182505, 0.380422636542398, -1.1805336762275, 1.10834399999144, -1.21499558192844], a = 0.2, v = 0.2, t = 0.2)
movej(p[0.441230440404562, -0.103454422241148, 0.380488382718588, -1.17163243109647, 1.09172374252033, -1.22458125986611], a = 0.2, v = 0.2, t = 0.2)
movej(p[0.441905544798784, -0.10321368479835, 0.380115301972721, -1.16736569478308, 1.08249684777621, -1.21986672335933], a = 0.2, v = 0.2, t = 0.2)
movej(p[0.442288891950084, -0.103329596480348, 0.379686581548707, -1.17850961475888, 1.08616060595488, -1.20423365047032], a = 0.2, v = 0.2, t = 0.2)
movej(p[0.442208854562221, -0.103635791587855, 0.379280115278049, -1.18742767341704, 1.09683444205321, -1.19367384497111], a = 0.2, v = 0.2, t = 0.2)
movej(p[0.441816050205947, -0.104079220417468, 0.378797931704956, -1.20191806722714, 1.11783245139682, -1.18457522556753], a = 0.2, v = 0.2, t = 0.2)
movej(p[0.44138377068064, -0.104569181252454, 0.378269318493639, -1.21498310893847, 1.13880722305258, -1.17183017942244], a = 0.2, v = 0.2, t = 0.2)
movej(p[0.44083898743213, -0.105023876666058, 0.378057532651121, -1.21991238337161, 1.15443160177601, -1.16811861895499], a = 0.2, v = 0.2, t = 0.2)
movej(p[0.440141225735892, -0.105237077892557, 0.378319722383947, -1.20955613210803, 1.15848118156206, -1.18354089809349], a = 0.2, v = 0.2, t = 0.2)
movej(p[0.440204511005354, -0.10495642973331, 0.378396199022107, -1.19336066358906, 1.15290377726839, -1.20299692991662], a = 0.2, v = 0.2, t = 0.2)
movej(p[0.440639167812519, -0.104797832415016, 0.378552778337614, -1.19059326036378, 1.14311143983419, -1.20512802970582], a = 0.2, v = 0.2, t = 0.2)
movej(p[0.441186258880076, -0.104685640419544, 0.378809259963373, -1.18691487813524, 1.1260170303334, -1.21195566037171], a = 0.2, v = 0.2, t = 0.2)
movej(p[0.441448573350683, -0.104472555286527, 0.379294990376974, -1.18054735691275, 1.10779428615759, -1.22048949350522], a = 0.2, v = 0.2, t = 0.2)
movej(p[0.441979073350473, -0.104198110261123, 0.379377808925344, -1.17900190462525, 1.09487448792923, -1.22275678128519], a = 0.2, v = 0.2, t = 0.2)
movej(p[0.442386865165549, -0.103983376169025, 0.379176501447719, -1.17929663503473, 1.09130675882288, -1.20679285832835], a = 0.2, v = 0.2, t = 0.2)
movej(p[0.442671835258381, -0.104049772272107, 0.3789566255075, -1.17512888140236, 1.08499862133025, -1.20675062143433], a = 0.2, v = 0.2, t = 0.2)
movej(p[0.442853580665032, -0.103934932941038, 0.378680489106501, -1.16895671209208, 1.08581957387718, -1.21348567043384], a = 0.2, v = 0.2, t = 0.2)
movej(p[0.443274092440914, -0.104036818790541, 0.377918064976342, -1.17966611654622, 1.10104854151492, -1.20539125168602], a = 0.2, v = 0.2, t = 0.2)
movej(p[0.443298686838262, -0.104407567094939, 0.377249002996154, -1.19972079831213, 1.12029132315179, -1.17617757235102], a = 0.2, v = 0.2, t = 0.2)
movej(p[0.442645793371405, -0.104951709789432, 0.37699248370942, -1.20799300952013, 1.13671306089592, -1.16684708857651], a = 0.2, v = 0.2, t = 0.2)
movej(p[0.441771498759874, -0.105260475601463, 0.376900852151159, -1.20269511660431, 1.14757471021619, -1.1776091772596], a = 0.2, v = 0.2, t = 0.2)
movej(p[0.441275188151245, -0.105442573305895, 0.376932126194755, -1.20548333179973, 1.15706321415875, -1.17530832000021], a = 0.2, v = 0.2, t = 0.2)
movej(p[0.441168040106564, -0.10547010845883, 0.377005731981714, -1.19983364948421, 1.15862140835803, -1.18147075877544], a = 0.2, v = 0.2, t = 0.2)
movej(p[0.44125197281801, -0.105297483051821, 0.377606747305731, -1.19048662881305, 1.14590741482295, -1.19066830058867], a = 0.2, v = 0.2, t = 0.2)
movej(p[0.441838652726239, -0.104837703683657, 0.377768010104888, -1.17280979491753, 1.12610624643246, -1.21688010377189], a = 0.2, v = 0.2, t = 0.2)
movej(p[0.44238398956993, -0.104524569644634, 0.377922985571071, -1.17681837625962, 1.11907503698576, -1.20414830019653], a = 0.2, v = 0.2, t = 0.2)
movej(p[0.442720910971047, -0.10449393991039, 0.377848721651505, -1.18234672814493, 1.11372690783605, -1.18980110419231], a = 0.2, v = 0.2, t = 0.2)
movej(p[0.442756481003162, -0.104424798900563, 0.378004068223323, -1.17834629782735, 1.10738097149357, -1.19419287949264], a = 0.2, v = 0.2, t = 0.2)
movej(p[0.443139064759967, -0.104246207265852, 0.377700936203698, -1.17506800139584, 1.10265055372459, -1.20456308703889], a = 0.2, v = 0.2, t = 0.2)
movej(p[0.443598756745905, -0.104167577963986, 0.377170225412973, -1.18641151713819, 1.11077298767159, -1.18311724007201], a = 0.2, v = 0.2, t = 0.2)
movej(p[0.44352831200879, -0.104437766545707, 0.3765906234887, -1.19452986142494, 1.12187074611207, -1.16663935307982], a = 0.2, v = 0.2, t = 0.2)
movej(p[0.442957859406042, -0.104837654245349, 0.37622684342411, -1.19544070969186, 1.13688461874268, -1.16568846323808], a = 0.2, v = 0.2, t = 0.2)
movej(p[0.442406055912505, -0.105286074980844, 0.375865883600032, -1.19807044750698, 1.15012369417116, -1.17345203125451], a = 0.2, v = 0.2, t = 0.2)
movej(p[0.441804074711146, -0.105632306200969, 0.375996655406711, -1.20859894420245, 1.17023220955654, -1.16375469464114], a = 0.2, v = 0.2, t = 0.2)
movej(p[0.44139082835221, -0.105852774798305, 0.376476985766375, -1.21030913724426, 1.1703796351453, -1.16544312151786], a = 0.2, v = 0.2, t = 0.2)
movej(p[0.441251379583686, -0.105717035142603, 0.377267953728322, -1.20077286348378, 1.16379411273311, -1.18516183390778], a = 0.2, v = 0.2, t = 0.2)
movej(p[0.441876036115748, -0.105241371728011, 0.377389733295453, -1.18861813892073, 1.14494586236414, -1.19762899697659], a = 0.2, v = 0.2, t = 0.2)
movej(p[0.442293734692443, -0.105003302856236, 0.377554593424712, -1.19089025387107, 1.14167374581055, -1.18394712588594], a = 0.2, v = 0.2, t = 0.2)
movej(p[0.442583467313711, -0.104961324306245, 0.377602355371001, -1.18572544433654, 1.12508848543361, -1.18792202602438], a = 0.2, v = 0.2, t = 0.2)
movej(p[0.442766901282669, -0.10494816499345, 0.377646326897234, -1.18010785540401, 1.11057299430324, -1.20040903705538], a = 0.2, v = 0.2, t = 0.2)
movej(p[0.44331895462206, -0.104773172974512, 0.377306097887325, -1.18020279529865, 1.10529069815117, -1.1941625843885], a = 0.2, v = 0.2, t = 0.2)
movej(p[0.443640546688494, -0.104676442624127, 0.376996958063603, -1.18420216404722, 1.11461184629228, -1.17453907487699], a = 0.2, v = 0.2, t = 0.2)
movej(p[0.443603825702953, -0.104802918326789, 0.376588502317705, -1.18510558503636, 1.12396116867849, -1.17044839070837], a = 0.2, v = 0.2, t = 0.2)
movej(p[0.443353829764801, -0.104999341764578, 0.375917890135022, -1.18522628836538, 1.13908327465716, -1.17735842594062], a = 0.2, v = 0.2, t = 0.2)
movej(p[0.443104847738085, -0.105393169128592, 0.375241052783234, -1.1966966282681, 1.15542327272347, -1.16893692085166], a = 0.2, v = 0.2, t = 0.2)
movej(p[0.442421899321913, -0.105775216814959, 0.375017770599014, -1.20676420505689, 1.17517159470719, -1.1590358808302], a = 0.2, v = 0.2, t = 0.2)
movej(p[0.441455008734681, -0.106103179093904, 0.375415660817431, -1.20586873029935, 1.1826731313227, -1.16463144210251], a = 0.2, v = 0.2, t = 0.2)
movej(p[0.441034009469258, -0.106166280980587, 0.375771789362215, -1.1992210217996, 1.17849466940494, -1.18756623967543], a = 0.2, v = 0.2, t = 0.2)
movej(p[0.441222259900037, -0.106102924641554, 0.375912458085163, -1.19799791826398, 1.17007044619819, -1.18887100326828], a = 0.2, v = 0.2, t = 0.2)
movej(p[0.44175635525988, -0.106024972559323, 0.376186488794154, -1.19173262108139, 1.151309526416, -1.19376616905439], a = 0.2, v = 0.2, t = 0.2)
movej(p[0.442129220445766, -0.105658613496856, 0.376592829649229, -1.17947789675155, 1.13524280401472, -1.20246373361686], a = 0.2, v = 0.2, t = 0.2)
movej(p[0.442622158672609, -0.105268298046581, 0.376796100226031, -1.17389990315569, 1.12435084187474, -1.21053219144563], a = 0.2, v = 0.2, t = 0.2)
movej(p[0.443112321025259, -0.104944304959026, 0.376691890102908, -1.1757629151863, 1.12350593764477, -1.19425554682266], a = 0.2, v = 0.2, t = 0.2)
movej(p[0.443379556690832, -0.104898419843937, 0.376559326754203, -1.17539859325247, 1.1208638742529, -1.18379930097202], a = 0.2, v = 0.2, t = 0.2)
movej(p[0.443505502163012, -0.104838138813592, 0.376543627700127, -1.16307009270372, 1.11447941997539, -1.19435093069017], a = 0.2, v = 0.2, t = 0.2)
movej(p[0.443903396364419, -0.104733620965353, 0.376122372691864, -1.16773722476338, 1.11432161535144, -1.19267705610778], a = 0.2, v = 0.2, t = 0.2)
movej(p[0.444148164796134, -0.104857747382331, 0.375539861536311, -1.18415652543387, 1.12284910949551, -1.17512461654408], a = 0.2, v = 0.2, t = 0.2)
movej(p[0.443892243840379, -0.105236523578131, 0.375094560211025, -1.19809742339322, 1.13175760917222, -1.16104708636623], a = 0.2, v = 0.2, t = 0.2)
movej(p[0.443190551403108, -0.105587331993533, 0.374856246136619, -1.19534227352911, 1.14527136801359, -1.1719510565814], a = 0.2, v = 0.2, t = 0.2)
movej(p[0.44258616502418, -0.105844106443366, 0.374712189630764, -1.1983045909036, 1.16166366545559, -1.16798189306283], a = 0.2, v = 0.2, t = 0.2)
movej(p[0.441846434437097, -0.10608074201352, 0.37497967848188, -1.20789891665412, 1.182861540248, -1.15665341213355], a = 0.2, v = 0.2, t = 0.2)
movej(p[0.441120757802833, -0.106327086787554, 0.375343295361011, -1.20835394414745, 1.19022704883406, -1.16062872228513], a = 0.2, v = 0.2, t = 0.2)
movej(p[0.440708883243228, -0.106233233472137, 0.375782142671971, -1.19439524384504, 1.18625721748518, -1.18286610166033], a = 0.2, v = 0.2, t = 0.2)
movej(p[0.441166921776769, -0.105979407363001, 0.375682217159148, -1.18575482125853, 1.17161689032193, -1.19234598257147], a = 0.2, v = 0.2, t = 0.2)
movej(p[0.441797055997308, -0.105761983284114, 0.375916436445343, -1.1875424127793, 1.16009466095254, -1.18489819097803], a = 0.2, v = 0.2, t = 0.2)
movej(p[0.442178049568319, -0.105508599960968, 0.376454338509292, -1.18092779617382, 1.14673338368738, -1.18688550862695], a = 0.2, v = 0.2, t = 0.2)
movej(p[0.442494933157122, -0.105342537902213, 0.37690164067773, -1.17917181350707, 1.13469748432116, -1.19573233294035], a = 0.2, v = 0.2, t = 0.2)
movej(p[0.442971461216246, -0.10513470372625, 0.376843999918976, -1.17917409510044, 1.12970972536998, -1.18829881789835], a = 0.2, v = 0.2, t = 0.2)
movej(p[0.443320741072782, -0.105152784353837, 0.37668042024041, -1.18207253792348, 1.12666631534785, -1.18007105504477], a = 0.2, v = 0.2, t = 0.2)
movej(p[0.44350420425381, -0.105115054072856, 0.376477520446225, -1.17263175687505, 1.12206368949817, -1.18283708354054], a = 0.2, v = 0.2, t = 0.2)
movej(p[0.443931146305771, -0.105030032607059, 0.375773869428872, -1.1673930606833, 1.11626759275663, -1.17624919881195], a = 0.2, v = 0.2, t = 0.2)
movej(p[0.444294378635504, -0.105058796829486, 0.375091309939418, -1.17557045518998, 1.11888938218463, -1.1612901775561], a = 0.2, v = 0.2, t = 0.2)
movej(p[0.444138010010142, -0.105378076105321, 0.374482571265499, -1.19429553290642, 1.14120870484279, -1.1324135823445], a = 0.2, v = 0.2, t = 0.2)
movej(p[0.443312895545766, -0.105805314666743, 0.374582554170099, -1.19800710691501, 1.15687927874479, -1.1516650356953], a = 0.2, v = 0.2, t = 0.2)
movej(p[0.442615051118227, -0.106036591139092, 0.374709655250703, -1.19553261585049, 1.17464481740503, -1.16638285857023], a = 0.2, v = 0.2, t = 0.2)
movej(p[0.442363492615637, -0.106102528779348, 0.374872218736677, -1.1988284467674, 1.18701569566584, -1.15847369600283], a = 0.2, v = 0.2, t = 0.2)
movej(p[0.442335141427468, -0.10613959587535, 0.375210772381648, -1.19629311615735, 1.18573629560282, -1.15697531783575], a = 0.2, v = 0.2, t = 0.2)
movej(p[0.442453338646124, -0.106021825379613, 0.375725820600591, -1.18615698592162, 1.16697325377717, -1.17770258126612], a = 0.2, v = 0.2, t = 0.2)
movej(p[0.442953283756608, -0.105767940621146, 0.375674004140649, -1.1800270668839, 1.15092930593843, -1.19404965671625], a = 0.2, v = 0.2, t = 0.2)
movej(p[0.443357314626735, -0.105491738339078, 0.375695255408617, -1.18247591285885, 1.14660890580079, -1.18329644095884], a = 0.2, v = 0.2, t = 0.2)
movej(p[0.443645586075652, -0.105480720873058, 0.375476558490013, -1.17954197451029, 1.13476232156393, -1.18049698678609], a = 0.2, v = 0.2, t = 0.2)
movej(p[0.443722688109401, -0.105407489565372, 0.375481359830077, -1.17181548424352, 1.12887158378216, -1.18766641453758], a = 0.2, v = 0.2, t = 0.2)
movej(p[0.444255964522188, -0.105351134745481, 0.374613837164414, -1.17198837330274, 1.12226589395965, -1.1949693277518], a = 0.2, v = 0.2, t = 0.2)
movej(p[0.444409653878973, -0.105414178453932, 0.37418495896896, -1.18863971085403, 1.13949292266908, -1.16684839126165], a = 0.2, v = 0.2, t = 0.2)
movej(p[0.444022527544565, -0.105707336002996, 0.37383415535975, -1.19701161111049, 1.15185900819021, -1.15623650468006], a = 0.2, v = 0.2, t = 0.2)
movej(p[0.443131912591706, -0.106125412620316, 0.374117720558945, -1.20163796541537, 1.16625988187029, -1.157420989774], a = 0.2, v = 0.2, t = 0.2)
movej(p[0.44256846932259, -0.106378516183977, 0.374132964198583, -1.20625993649548, 1.18159556719474, -1.15519855298716], a = 0.2, v = 0.2, t = 0.2)
movej(p[0.442248098644729, -0.106529348001869, 0.37433711867803, -1.21228184676136, 1.19318093008318, -1.14688543592957], a = 0.2, v = 0.2, t = 0.2)
movej(p[0.442108536863044, -0.10647442452402, 0.374903925665172, -1.19922040732938, 1.18725800723541, -1.15938254757902], a = 0.2, v = 0.2, t = 0.2)
movej(p[0.442325587576782, -0.106063635224981, 0.375427667986796, -1.17881903839269, 1.17042224842916, -1.18196993604534], a = 0.2, v = 0.2, t = 0.2)
movej(p[0.442924969404507, -0.105725958670224, 0.375643484216635, -1.17461111622478, 1.15713476294611, -1.18483746079313], a = 0.2, v = 0.2, t = 0.2)
movej(p[0.443355848551969, -0.105524804251853, 0.375595207614632, -1.17600621397238, 1.15089804108639, -1.17479919992057], a = 0.2, v = 0.2, t = 0.2)
movej(p[0.443541186994186, -0.105449855076592, 0.375723674888493, -1.17148571842525, 1.1450607521747, -1.17428943809042], a = 0.2, v = 0.2, t = 0.2)
movej(p[0.443843037598284, -0.105240565768362, 0.375521892494894, -1.16262734808947, 1.13867951865468, -1.19209490857825], a = 0.2, v = 0.2, t = 0.2)
movej(p[0.444304407571203, -0.105124692628732, 0.375099843642626, -1.17237682260714, 1.13665039473055, -1.17669266683867], a = 0.2, v = 0.2, t = 0.2)
movej(p[0.444442638272576, -0.105287684054938, 0.374615501732111, -1.1864699297194, 1.14222757055652, -1.15694939450259], a = 0.2, v = 0.2, t = 0.2)
movej(p[0.443991527165377, -0.105580451789592, 0.374192996930474, -1.18991415339572, 1.15169645667458, -1.14938075595101], a = 0.2, v = 0.2, t = 0.2)
movej(p[0.44348501478575, -0.105960256635489, 0.373864842819242, -1.18988019937382, 1.16702915419977, -1.16073713265338], a = 0.2, v = 0.2, t = 0.2)
movej(p[0.442838330197909, -0.106368770471969, 0.373870109863314, -1.21067086612988, 1.19016839992171, -1.14023304424218], a = 0.2, v = 0.2, t = 0.2)
movej(p[0.441803326830298, -0.106811026866661, 0.374246957820571, -1.2268266497328, 1.20761555707516, -1.12548900445688], a = 0.2, v = 0.2, t = 0.2)
movej(p[0.440268176672728, -0.107079883917701, 0.374776622591741, -1.22896500026243, 1.22379774425634, -1.1280369425777], a = 0.2, v = 0.2, t = 0.2)
movej(p[0.438699146103542, -0.107314802615536, 0.375258918640208, -1.22781497957637, 1.23850687613914, -1.14192343436287], a = 0.2, v = 0.2, t = 0.2)
movej(p[0.437247338682917, -0.107532109716786, 0.375692750009711, -1.22941821352933, 1.25241608050277, -1.14751361768297], a = 0.2, v = 0.2, t = 0.2)
movej(p[0.436230013761793, -0.107826081969274, 0.376250432831418, -1.22860172582788, 1.25439471362005, -1.16164729783035], a = 0.2, v = 0.2, t = 0.2)
movej(p[0.435902981638436, -0.107621122037834, 0.37681759136904, -1.20754892722208, 1.24896426280933, -1.19152125328458], a = 0.2, v = 0.2, t = 0.2)
movej(p[0.43692740274846, -0.106950399924963, 0.377057153984324, -1.19227231688156, 1.22921694047008, -1.20856675991357], a = 0.2, v = 0.2, t = 0.2)
movej(p[0.438308917199865, -0.105981259957078, 0.3776979365416, -1.18639196951399, 1.21155503982871, -1.20020126408509], a = 0.2, v = 0.2, t = 0.2)
movej(p[0.439630858153832, -0.105065069638343, 0.378180638410751, -1.1766653986577, 1.17737270300058, -1.20874586371223], a = 0.2, v = 0.2, t = 0.2)
movej(p[0.440322713625632, -0.104489108018993, 0.379003302385698, -1.17217385617946, 1.15095530248722, -1.22186665104089], a = 0.2, v = 0.2, t = 0.2)
movej(p[0.441064107791093, -0.104077977671067, 0.379221735158959, -1.17032221198351, 1.13195572134606, -1.22547914983259], a = 0.2, v = 0.2, t = 0.2)
movej(p[0.441570597688999, -0.103947120696314, 0.379356329753122, -1.17607787446603, 1.12527762322074, -1.21356412173022], a = 0.2, v = 0.2, t = 0.2)
movej(p[0.44182711643006, -0.103909407406589, 0.379156400537242, -1.17634116098152, 1.12093656053955, -1.20777229306204], a = 0.2, v = 0.2, t = 0.2)
movej(p[0.44190356911458, -0.104058854899403, 0.378520167208202, -1.18088689652491, 1.12516921156484, -1.20657946366141], a = 0.2, v = 0.2, t = 0.2)
movej(p[0.441995281372344, -0.10446228165628, 0.377601112916538, -1.19715385578543, 1.14072410282289, -1.18578288575657], a = 0.2, v = 0.2, t = 0.2)
movej(p[0.441449645727555, -0.105056813337394, 0.377152930408415, -1.21496056241615, 1.16417989846937, -1.16470290100717], a = 0.2, v = 0.2, t = 0.2)
movej(p[0.440477917980187, -0.105686029345764, 0.377274891917942, -1.22217571640099, 1.17733465785578, -1.16076566294153], a = 0.2, v = 0.2, t = 0.2)
movej(p[0.439450692712376, -0.105889803242691, 0.377664363437443, -1.22402303891804, 1.18965749019273, -1.16709133120303], a = 0.2, v = 0.2, t = 0.2)
movej(p[0.438575412816252, -0.106133931169008, 0.377955067357322, -1.22665129155662, 1.20212991644251, -1.16665290509181], a = 0.2, v = 0.2, t = 0.2)
movej(p[0.437966220431341, -0.106305572737669, 0.378113712305791, -1.22211754003966, 1.20969784425609, -1.17818941662182], a = 0.2, v = 0.2, t = 0.2)
movej(p[0.437858762867577, -0.106315324829693, 0.378458545026963, -1.20928652375301, 1.20018991835063, -1.2016673181886], a = 0.2, v = 0.2, t = 0.2)
movej(p[0.438650157031866, -0.105878225146874, 0.378637393028374, -1.19341661189864, 1.17937444531019, -1.22759962824723], a = 0.2, v = 0.2, t = 0.2)
movej(p[0.439820266815007, -0.105195916505234, 0.379049134732042, -1.19182739200005, 1.15654855204319, -1.21288614969214], a = 0.2, v = 0.2, t = 0.2)
movej(p[0.440647899056782, -0.104590723556028, 0.379368936052092, -1.18460102296074, 1.13408514713696, -1.20890126921953], a = 0.2, v = 0.2, t = 0.2)
movej(p[0.441023067804529, -0.104216163797673, 0.379739276960088, -1.17627695343912, 1.1120444896973, -1.22317738409104], a = 0.2, v = 0.2, t = 0.2)
movej(p[0.441602212801489, -0.103977013948833, 0.379336581621158, -1.17628080197738, 1.10461394776855, -1.23540443672353], a = 0.2, v = 0.2, t = 0.2)
movej(p[0.441925834594635, -0.104070939446382, 0.378880890839585, -1.19258974107056, 1.11154276240204, -1.21268087976187], a = 0.2, v = 0.2, t = 0.2)
movej(p[0.441709326736557, -0.104404741463094, 0.378223465082309, -1.20471762331966, 1.12970456259808, -1.18835333173445], a = 0.2, v = 0.2, t = 0.2)
movej(p[0.440858452260836, -0.104940370639824, 0.377990256562307, -1.21419417190383, 1.15033053516741, -1.1805836327168], a = 0.2, v = 0.2, t = 0.2)
movej(p[0.440118004644592, -0.105389363044359, 0.37792509225943, -1.22268419629031, 1.17005312302392, -1.17818209678027], a = 0.2, v = 0.2, t = 0.2)
movej(p[0.439288576942783, -0.105810294374658, 0.378164814171535, -1.23451349648482, 1.1875839171725, -1.17330015417417], a = 0.2, v = 0.2, t = 0.2)
movej(p[0.438207641823838, -0.10624994669399, 0.378442540238621, -1.23920437420037, 1.19721894916698, -1.17331712417651], a = 0.2, v = 0.2, t = 0.2)
movej(p[0.43712169709572, -0.106516375233946, 0.37866106661842, -1.23296836183515, 1.20589714007893, -1.19267201584092], a = 0.2, v = 0.2, t = 0.2)
movej(p[0.436841326770829, -0.106534246034585, 0.378519681371999, -1.22389297248168, 1.20405721808557, -1.20544012921807], a = 0.2, v = 0.2, t = 0.2)
movej(p[0.437302945856544, -0.106191031758317, 0.37884212976891, -1.21242854215493, 1.19708925819656, -1.20873818982417], a = 0.2, v = 0.2, t = 0.2)
movej(p[0.438169337152201, -0.105612372367765, 0.37932558359156, -1.19794085347278, 1.17249097772872, -1.22250672625987], a = 0.2, v = 0.2, t = 0.2)
movej(p[0.439196165763214, -0.104753086063323, 0.380001437620921, -1.18777697478274, 1.15000892623768, -1.22878268069352], a = 0.2, v = 0.2, t = 0.2)
movej(p[0.440113660692317, -0.104143971240601, 0.380368724876092, -1.19170340681899, 1.12940213902084, -1.21730419531135], a = 0.2, v = 0.2, t = 0.2)
movej(p[0.440673318102624, -0.103821852773191, 0.380554849052398, -1.19119479710031, 1.11535082791539, -1.20965075190838], a = 0.2, v = 0.2, t = 0.2)
movej(p[0.440926763700577, -0.103739080807782, 0.380715099998244, -1.18543631985839, 1.09984528921722, -1.21932100854385], a = 0.2, v = 0.2, t = 0.2)
movej(p[0.441558598407898, -0.103549498036994, 0.379986631841369, -1.18016635806441, 1.09517398058909, -1.22412538633505], a = 0.2, v = 0.2, t = 0.2)
movej(p[0.441929789351281, -0.103722788970513, 0.379310470867808, -1.19469129736971, 1.10828852616381, -1.19961343328504], a = 0.2, v = 0.2, t = 0.2)
movej(p[0.441650461394809, -0.104203595486502, 0.378686196035501, -1.21161058814475, 1.12996279281498, -1.17422238490096], a = 0.2, v = 0.2, t = 0.2)
movej(p[0.440646094312138, -0.104904073772297, 0.378639968436858, -1.22103808845205, 1.1508211422791, -1.1696313421432], a = 0.2, v = 0.2, t = 0.2)
movej(p[0.439774209516012, -0.105263896477867, 0.378559732553737, -1.22546429443998, 1.16902024180895, -1.17012940594763], a = 0.2, v = 0.2, t = 0.2)
movej(p[0.438834246427859, -0.105605947473665, 0.378860184603293, -1.23239571582958, 1.18832758440706, -1.16743281034443], a = 0.2, v = 0.2, t = 0.2)
movej(p[0.437970142763091, -0.10586827587739, 0.379066906259719, -1.22919120444527, 1.19658934777521, -1.17989078188166], a = 0.2, v = 0.2, t = 0.2)
movej(p[0.437605290939549, -0.105860977308099, 0.379320968005451, -1.2160495598228, 1.19332597182059, -1.20698663525558], a = 0.2, v = 0.2, t = 0.2)
movej(p[0.438226537475468, -0.105501229620141, 0.379381764572941, -1.20573037743177, 1.18156260114346, -1.21188066716], a = 0.2, v = 0.2, t = 0.2)
movej(p[0.439197531720149, -0.105092400643482, 0.379683351500109, -1.20219680722092, 1.16711373085308, -1.20508276454858], a = 0.2, v = 0.2, t = 0.2)
movej(p[0.43991321272769, -0.104558464265765, 0.380219693981081, -1.19241438690075, 1.14194053671768, -1.20793945910239], a = 0.2, v = 0.2, t = 0.2)
movej(p[0.440427805207182, -0.10406331855109, 0.380688002009402, -1.18737460526746, 1.12276088530187, -1.21649468022893], a = 0.2, v = 0.2, t = 0.2)
movej(p[0.441049448740808, -0.103665981669433, 0.380653463704942, -1.18264216233416, 1.10828909213002, -1.21299486513682], a = 0.2, v = 0.2, t = 0.2)
movej(p[0.441575667905952, -0.103585917445146, 0.380399617974969, -1.1776029358893, 1.10087708908284, -1.2088084600875], a = 0.2, v = 0.2, t = 0.2)
movej(p[0.441822425039792, -0.103628729584586, 0.379994568784727, -1.17203963583066, 1.09570244873931, -1.21136352191975], a = 0.2, v = 0.2, t = 0.2)
movej(p[0.442118920824778, -0.103787078726496, 0.379295483395547, -1.18264893456226, 1.0981015541739, -1.20446805568215], a = 0.2, v = 0.2, t = 0.2)
movej(p[0.442054398468255, -0.104259318849512, 0.378659488465216, -1.20898561474011, 1.11311229757959, -1.17625718594224], a = 0.2, v = 0.2, t = 0.2)
movej(p[0.441519826553959, -0.104824063250065, 0.378224940977604, -1.21891032179182, 1.13047589661517, -1.16668072826378], a = 0.2, v = 0.2, t = 0.2)
movej(p[0.44046502483752, -0.105211097355348, 0.37839745133449, -1.21808885981556, 1.15313426447738, -1.1671920076675], a = 0.2, v = 0.2, t = 0.2)
movej(p[0.439857659237614, -0.105235498308553, 0.378383755887891, -1.20883665581064, 1.1682386437601, -1.1781236768871], a = 0.2, v = 0.2, t = 0.2)
movej(p[0.439713808859922, -0.105236812292443, 0.378652027226085, -1.207789867529, 1.17615529037201, -1.17645565749004], a = 0.2, v = 0.2, t = 0.2)
movej(p[0.440011647026951, -0.105147754872418, 0.378960155008505, -1.19625482467017, 1.16220591742887, -1.19253597026108], a = 0.2, v = 0.2, t = 0.2)
movej(p[0.44051949914231, -0.104816519315829, 0.379482061198808, -1.18746853144185, 1.14357119520594, -1.20986384119514], a = 0.2, v = 0.2, t = 0.2)
movej(p[0.441258681334714, -0.104403152565268, 0.379594346300505, -1.18724057777484, 1.12880747644755, -1.20110458798098], a = 0.2, v = 0.2, t = 0.2)
movej(p[0.441765695594985, -0.104142765368972, 0.379595510038973, -1.18691280291659, 1.12301148556755, -1.19114163956964], a = 0.2, v = 0.2, t = 0.2)
movej(p[0.44203493864411, -0.104107165814988, 0.37957975578069, -1.17982741522661, 1.11092928494908, -1.19465088537333], a = 0.2, v = 0.2, t = 0.2)
movej(p[0.442431452273453, -0.104032590963757, 0.379199982054361, -1.17347289878113, 1.09940688463186, -1.21050669105704], a = 0.2, v = 0.2, t = 0.2)
movej(p[0.44307371268889, -0.104091011885742, 0.378581860223035, -1.18624588783603, 1.09904136179022, -1.19617773659667], a = 0.2, v = 0.2, t = 0.2)
movej(p[0.443216178354087, -0.104234969631672, 0.377835150949743, -1.19374852388794, 1.11255573675791, -1.17927340425201], a = 0.2, v = 0.2, t = 0.2)
movej(p[0.442633994563895, -0.104604777864596, 0.377666725104079, -1.19876149939746, 1.13168124996046, -1.1661199024124], a = 0.2, v = 0.2, t = 0.2)
movej(p[0.441850500650695, -0.10490099857622, 0.377538349363442, -1.20140750643697, 1.15013295526861, -1.17283086522597], a = 0.2, v = 0.2, t = 0.2)
movej(p[0.441107087921109, -0.105217240519512, 0.377585279265335, -1.20948075313048, 1.16585802876191, -1.17189935806994], a = 0.2, v = 0.2, t = 0.2)
movej(p[0.440606660078835, -0.105473247799398, 0.377713220477315, -1.21069886384527, 1.16907727250115, -1.18320497858291], a = 0.2, v = 0.2, t = 0.2)
movej(p[0.440350637657689, -0.105349701744659, 0.378110276753715, -1.19543489421645, 1.1632629457596, -1.19750010402699], a = 0.2, v = 0.2, t = 0.2)
movej(p[0.440831426385855, -0.104988072195753, 0.378253639123695, -1.18388421498693, 1.14891036730679, -1.20945105596879], a = 0.2, v = 0.2, t = 0.2)
movej(p[0.441365021401767, -0.104691145617991, 0.378410577163663, -1.18234943072765, 1.14349218557755, -1.19749046046562], a = 0.2, v = 0.2, t = 0.2)
movej(p[0.441718271797713, -0.104565182337059, 0.378531030903504, -1.17974262836046, 1.12950002825956, -1.20245701664137], a = 0.2, v = 0.2, t = 0.2)
movej(p[0.44198481932608, -0.104385790004742, 0.378555537121824, -1.16843699900942, 1.10922608780717, -1.21592950641138], a = 0.2, v = 0.2, t = 0.2)
movej(p[0.442559689970007, -0.104191119580687, 0.378202177312292, -1.16218103380792, 1.09666179123852, -1.21946207023319], a = 0.2, v = 0.2, t = 0.2)
movej(p[0.442918113685041, -0.104242956078242, 0.377821411453892, -1.16617232987158, 1.09269072358089, -1.2079185038291], a = 0.2, v = 0.2, t = 0.2)
movej(p[0.44299746607786, -0.104346875067323, 0.377674885630699, -1.16863107145023, 1.09879066772955, -1.19985712906287], a = 0.2, v = 0.2, t = 0.2)
movej(p[0.443025615940304, -0.10462452234487, 0.377205215392005, -1.1804732032766, 1.10754622127463, -1.20059655393288], a = 0.2, v = 0.2, t = 0.2)
movej(p[0.443135000584661, -0.104887176469714, 0.376547494949962, -1.19052415408634, 1.1230779751949, -1.18816950538927], a = 0.2, v = 0.2, t = 0.2)
movej(p[0.442672509630357, -0.105404241796526, 0.376284473507119, -1.20931175138601, 1.14553579402715, -1.17139892253144], a = 0.2, v = 0.2, t = 0.2)
movej(p[0.441777286249736, -0.105697666448411, 0.376569852516255, -1.20928251360974, 1.16288394404454, -1.16681317091308], a = 0.2, v = 0.2, t = 0.2)
movej(p[0.441141584868549, -0.105724032447312, 0.376733800062927, -1.20218960922102, 1.17173667517617, -1.18116453788768], a = 0.2, v = 0.2, t = 0.2)
movej(p[0.44098931529412, -0.105641865351544, 0.376769132697644, -1.19569008079209, 1.17425466833017, -1.17994249371845], a = 0.2, v = 0.2, t = 0.2)
movej(p[0.441152955798313, -0.105537662869059, 0.376981051922896, -1.18849415125887, 1.16798101479099, -1.18341658574323], a = 0.2, v = 0.2, t = 0.2)
movej(p[0.441496476283969, -0.105372755933154, 0.377782581143402, -1.18535692870796, 1.14928451365602, -1.19275623166556], a = 0.2, v = 0.2, t = 0.2)
movej(p[0.442162712546254, -0.105094748762556, 0.37788657410476, -1.17980428952224, 1.13122477806664, -1.2080100640794], a = 0.2, v = 0.2, t = 0.2)
movej(p[0.442709601972497, -0.104890758932761, 0.377803487782158, -1.18117504867615, 1.12217699232532, -1.19791113832832], a = 0.2, v = 0.2, t = 0.2)
movej(p[0.442946829864597, -0.104827031984529, 0.377702232551287, -1.17657417041545, 1.11609286290377, -1.19364376651359], a = 0.2, v = 0.2, t = 0.2)
movej(p[0.443049885923155, -0.104660981373485, 0.377397916969749, -1.17083406369658, 1.11404682530942, -1.19712138541933], a = 0.2, v = 0.2, t = 0.2)
movej(p[0.443428758194196, -0.104753034861616, 0.376595611141802, -1.17777249521811, 1.12414799449396, -1.18985356469199], a = 0.2, v = 0.2, t = 0.2)
movej(p[0.443346925258447, -0.104968782421082, 0.375696661913284, -1.18889540702795, 1.14122064392355, -1.17023516384127], a = 0.2, v = 0.2, t = 0.2)
movej(p[0.442610917470425, -0.105545396706357, 0.375589488851054, -1.19947566886746, 1.1571593453919, -1.15719608435441], a = 0.2, v = 0.2, t = 0.2)
movej(p[0.441684613740802, -0.105821921288592, 0.375618548589647, -1.19701175131613, 1.16792797182238, -1.17066371033801], a = 0.2, v = 0.2, t = 0.2)
movej(p[0.441131463992782, -0.106125063179028, 0.37599070543901, -1.20502202240519, 1.17818160068162, -1.17352508950185], a = 0.2, v = 0.2, t = 0.2)
movej(p[0.440876806200158, -0.106122316958453, 0.376374045584219, -1.20394159199343, 1.18512256933191, -1.17396218886574], a = 0.2, v = 0.2, t = 0.2)
movej(p[0.440878000568189, -0.105963433696021, 0.376827088211798, -1.19183979422379, 1.16828099181287, -1.19353656762417], a = 0.2, v = 0.2, t = 0.2)
movej(p[0.4413290321878, -0.105520635005115, 0.377132070289047, -1.17937220764073, 1.15091992031286, -1.21624639563549], a = 0.2, v = 0.2, t = 0.2)
movej(p[0.441993938639175, -0.105162014458628, 0.37731552798051, -1.18035534055762, 1.13730495890641, -1.20618019437472], a = 0.2, v = 0.2, t = 0.2)
movej(p[0.442448747634862, -0.105094026369243, 0.377555075368816, -1.18729522080964, 1.12906980644671, -1.19350748415472], a = 0.2, v = 0.2, t = 0.2)
movej(p[0.442569769642585, -0.10501724110065, 0.37776027136262, -1.18203820284997, 1.11923534302428, -1.19760620278692], a = 0.2, v = 0.2, t = 0.2)
movej(p[0.442973600771293, -0.104880449311199, 0.377486474856022, -1.1777270372748, 1.11479748744218, -1.2073649561529], a = 0.2, v = 0.2, t = 0.2)
movej(p[0.443402410297216, -0.104766257344562, 0.377000179498411, -1.18911728495753, 1.12363618947425, -1.18212006271593], a = 0.2, v = 0.2, t = 0.2)
movej(p[0.443368657764259, -0.105019439957874, 0.376517515176009, -1.19940939022331, 1.1349885200212, -1.15639902405082], a = 0.2, v = 0.2, t = 0.2)
movej(p[0.44280094162238, -0.105318486773695, 0.376119603650916, -1.20182152542535, 1.14760302869567, -1.1552784094328], a = 0.2, v = 0.2, t = 0.2)
movej(p[0.442325415488576, -0.10553836359483, 0.375630956021231, -1.19662340752514, 1.15993286492143, -1.16136926857237], a = 0.2, v = 0.2, t = 0.2)
movej(p[0.441662566012673, -0.105806622557471, 0.375563072950756, -1.1994591656227, 1.17769400697237, -1.16860686989412], a = 0.2, v = 0.2, t = 0.2)
movej(p[0.441200383368574, -0.106039506657691, 0.375780243159024, -1.20040585138711, 1.1805469721132, -1.17544194652445], a = 0.2, v = 0.2, t = 0.2)
movej(p[0.440778666044638, -0.106098025483079, 0.376486333001585, -1.19389182351967, 1.17603907926778, -1.20053596418701], a = 0.2, v = 0.2, t = 0.2)
movej(p[0.441200319224613, -0.105825976865163, 0.37672062618396, -1.18924022416454, 1.16273070769881, -1.19980977531678], a = 0.2, v = 0.2, t = 0.2)
movej(p[0.441690685321129, -0.105665712203336, 0.376783968899062, -1.18693582928591, 1.15288078259789, -1.19441544577986], a = 0.2, v = 0.2, t = 0.2)
movej(p[0.442010531023643, -0.105493043120862, 0.377117082805318, -1.17875972135893, 1.14098693831422, -1.19312028909096], a = 0.2, v = 0.2, t = 0.2)
movej(p[0.442312403523309, -0.105324589074737, 0.37738635560062, -1.1732772640091, 1.12553896646068, -1.20902857375762], a = 0.2, v = 0.2, t = 0.2)
movej(p[0.442853309671661, -0.104997401407369, 0.377393638120562, -1.17628662533455, 1.1208856647307, -1.19561087958525], a = 0.2, v = 0.2, t = 0.2)
movej(p[0.443322467221827, -0.105015863405313, 0.377109927584312, -1.18384057486826, 1.11396677949687, -1.19094780950643], a = 0.2, v = 0.2, t = 0.2)
movej(p[0.443441031287403, -0.105082677408346, 0.376756531532582, -1.18246087625751, 1.11417167315882, -1.19336505733641], a = 0.2, v = 0.2, t = 0.2)
movej(p[0.443583366905765, -0.10521608959985, 0.375971461019951, -1.18456241305884, 1.11784467695165, -1.19727121049332], a = 0.2, v = 0.2, t = 0.2)
movej(p[0.443555788204548, -0.105489165748736, 0.375221168197684, -1.19913643957588, 1.13503486373384, -1.17251373922026], a = 0.2, v = 0.2, t = 0.2)
movej(p[0.443026688711477, -0.105770451732391, 0.374801194051901, -1.20286332734378, 1.15564590445108, -1.15268604526168], a = 0.2, v = 0.2, t = 0.2)
movej(p[0.442137370810685, -0.106100110422927, 0.375088592628071, -1.19932693146242, 1.16807970145051, -1.1577922525271], a = 0.2, v = 0.2, t = 0.2)
movej(p[0.441513793612778, -0.106045446633261, 0.375306906961889, -1.18758992082788, 1.17908080911301, -1.17815177357245], a = 0.2, v = 0.2, t = 0.2)
movej(p[0.44131710352738, -0.106159687756541, 0.375696169631635, -1.19327597416913, 1.18435780797278, -1.1758755251023], a = 0.2, v = 0.2, t = 0.2)
movej(p[0.441406581531506, -0.106058953323784, 0.376131313287034, -1.18834913391115, 1.18302018054324, -1.17666243031323], a = 0.2, v = 0.2, t = 0.2)
movej(p[0.441619735057131, -0.105837083521259, 0.376703509770107, -1.17844301843762, 1.16332942599486, -1.19135723512183], a = 0.2, v = 0.2, t = 0.2)
movej(p[0.442193868031391, -0.105386930457482, 0.376897921644845, -1.17188087548987, 1.15204020235099, -1.19565383979378], a = 0.2, v = 0.2, t = 0.2)
movej(p[0.442610933852195, -0.105196044319205, 0.37701974113192, -1.18031144505339, 1.14520694689443, -1.18185579137161], a = 0.2, v = 0.2, t = 0.2)
movej(p[0.442905867070406, -0.105205563380267, 0.377087302842025, -1.17918650626635, 1.1357549636305, -1.17926618441146], a = 0.2, v = 0.2, t = 0.2)
movej(p[0.443120908591077, -0.105165057598757, 0.37689300797423, -1.17608519720356, 1.12348435402984, -1.19063014539016], a = 0.2, v = 0.2, t = 0.2)
movej(p[0.44373630510582, -0.10515616889292, 0.376163326082546, -1.17814921611502, 1.12846957378331, -1.19315030875717], a = 0.2, v = 0.2, t = 0.2)
movej(p[0.443908650433606, -0.105252483935637, 0.37556598916971, -1.1931109593919, 1.14512908211075, -1.16760707606932], a = 0.2, v = 0.2, t = 0.2)
movej(p[0.443454497972875, -0.105597400858785, 0.375337793912556, -1.20101542475517, 1.16249918310643, -1.15167631741199], a = 0.2, v = 0.2, t = 0.2)
movej(p[0.442537953609428, -0.105890068855807, 0.375291173239021, -1.19997960913407, 1.17300426365164, -1.15726566218903], a = 0.2, v = 0.2, t = 0.2)
movej(p[0.44197484010344, -0.106056780566378, 0.375425627496793, -1.20390064950799, 1.18589781793437, -1.14892144811165], a = 0.2, v = 0.2, t = 0.2)
movej(p[0.441614534783586, -0.106173789527176, 0.375616064151819, -1.20455006285135, 1.19129591430237, -1.15042614249794], a = 0.2, v = 0.2, t = 0.2)
movej(p[0.441540214481954, -0.106142796968915, 0.376052513935984, -1.19375352733627, 1.17670423822424, -1.17229193486877], a = 0.2, v = 0.2, t = 0.2)
movej(p[0.44175795540286, -0.105845785354994, 0.376415066735669, -1.18060878344532, 1.16260679800878, -1.19919182951731], a = 0.2, v = 0.2, t = 0.2)
movej(p[0.442316428428689, -0.105639933931228, 0.376670538946984, -1.18730067418585, 1.14974777506243, -1.19228104226614], a = 0.2, v = 0.2, t = 0.2)
movej(p[0.44266756770296, -0.105502454940385, 0.376972730236637, -1.19061881575988, 1.14546560984215, -1.17488648248126], a = 0.2, v = 0.2, t = 0.2)
movej(p[0.442776653172731, -0.105546169564172, 0.377119725946955, -1.18739443459382, 1.1294180653274, -1.18777860725257], a = 0.2, v = 0.2, t = 0.2)
movej(p[0.442983282693765, -0.105504388427807, 0.376892505037307, -1.18277692156751, 1.11597946277126, -1.20100296534938], a = 0.2, v = 0.2, t = 0.2)
movej(p[0.443439628516275, -0.105291737285811, 0.376222012051064, -1.18331722971213, 1.11627424470216, -1.19105753760612], a = 0.2, v = 0.2, t = 0.2)
movej(p[0.443625224761953, -0.105292780844895, 0.375540550013815, -1.18691924045566, 1.12688650421846, -1.17492929188327], a = 0.2, v = 0.2, t = 0.2)
movej(p[0.443395683422924, -0.105417622192428, 0.375051495608793, -1.18096722006393, 1.14259917572854, -1.16944514651798], a = 0.2, v = 0.2, t = 0.2)
movej(p[0.443034955759353, -0.105764668602098, 0.374579205818601, -1.18874794861686, 1.15874009928616, -1.16788311468101], a = 0.2, v = 0.2, t = 0.2)
movej(p[0.442425983977012, -0.106190367434483, 0.374493715975237, -1.20479036163758, 1.17605714538275, -1.15070315792465], a = 0.2, v = 0.2, t = 0.2)
movej(p[0.441726404403797, -0.106419119973252, 0.374730461633585, -1.20962694822812, 1.18914181504092, -1.14885235587775], a = 0.2, v = 0.2, t = 0.2)
movej(p[0.4410170396018, -0.106552140054315, 0.375556059765682, -1.20914723872082, 1.19397718569636, -1.15968333826019], a = 0.2, v = 0.2, t = 0.2)
movej(p[0.441154528897423, -0.106369860777769, 0.375830498336096, -1.19898787815358, 1.18704636218101, -1.17880544752703], a = 0.2, v = 0.2, t = 0.2)
movej(p[0.4415836230721, -0.10630567874867, 0.375977952282803, -1.20142202542605, 1.17678340174235, -1.18026863984586], a = 0.2, v = 0.2, t = 0.2)
movej(p[0.442085745031035, -0.106043378603477, 0.376088837187935, -1.18622180893958, 1.15960796556537, -1.19030451848488], a = 0.2, v = 0.2, t = 0.2)
movej(p[0.442403334537372, -0.105724188092085, 0.376339813706563, -1.17516987249514, 1.14156632449213, -1.20300911773537], a = 0.2, v = 0.2, t = 0.2)
movej(p[0.442957516579076, -0.105387875987849, 0.376139371048186, -1.16970829129945, 1.13502193674845, -1.19447433605213], a = 0.2, v = 0.2, t = 0.2)
movej(p[0.443283381579052, -0.105319597074253, 0.375746388603605, -1.17355150970304, 1.13044769467837, -1.18353968000697], a = 0.2, v = 0.2, t = 0.2)
movej(p[0.44339141204548, -0.105398768246161, 0.375315066226732, -1.17267974783029, 1.12841110146943, -1.18182841883722], a = 0.2, v = 0.2, t = 0.2)
movej(p[0.443395565636607, -0.105498890069993, 0.374663684444885, -1.17238197660277, 1.13329467712492, -1.19143776828376], a = 0.2, v = 0.2, t = 0.2)
movej(p[0.443411543562668, -0.105702561802175, 0.374113224808047, -1.18682358060525, 1.15160453846324, -1.17200312677194], a = 0.2, v = 0.2, t = 0.2)
movej(p[0.442741256970464, -0.106199039655268, 0.374156632246341, -1.21130206154804, 1.18154150075957, -1.13969220694986], a = 0.2, v = 0.2, t = 0.2)
movej(p[0.441434211321648, -0.106752160658007, 0.374422273452368, -1.21984954182214, 1.20191675170295, -1.12761936342646], a = 0.2, v = 0.2, t = 0.2)
movej(p[0.439765880521858, -0.107289841237763, 0.374596337482613, -1.22348494299766, 1.22017322116656, -1.13990284868156], a = 0.2, v = 0.2, t = 0.2)
movej(p[0.438084305839646, -0.107623002975061, 0.374652589193223, -1.22245211691287, 1.23967454667363, -1.13579361794634], a = 0.2, v = 0.2, t = 0.2)
movej(p[0.436331962088033, -0.108012684051022, 0.375251407400378, -1.22955421102348, 1.26243959210134, -1.13620330640557], a = 0.2, v = 0.2, t = 0.2)
movej(p[0.434752874457602, -0.10831887744794, 0.376101936123645, -1.22534449085313, 1.27642982596009, -1.14854996192376], a = 0.2, v = 0.2, t = 0.2)
movej(p[0.434237347852896, -0.108178600794684, 0.37688762613274, -1.21726790150702, 1.28021845533323, -1.17188072270432], a = 0.2, v = 0.2, t = 0.2)
movej(p[0.434693352080329, -0.107670248558646, 0.377632769906972, -1.20961194132188, 1.26690050130719, -1.18319412856158], a = 0.2, v = 0.2, t = 0.2)
movej(p[0.436016590919256, -0.106795078968489, 0.378566236562039, -1.19835075625259, 1.23712368228723, -1.20531820739375], a = 0.2, v = 0.2, t = 0.2)
movej(p[0.437360921210191, -0.105837363789002, 0.379406858034494, -1.18997551171645, 1.19843251616856, -1.22824605472229], a = 0.2, v = 0.2, t = 0.2)
movej(p[0.438719470950865, -0.104943065432841, 0.379816353287069, -1.18834693815266, 1.16774716868302, -1.22983136987004], a = 0.2, v = 0.2, t = 0.2)
movej(p[0.439597689324483, -0.104300070141836, 0.380236956971773, -1.19297698001712, 1.14513749088636, -1.21731921888766], a = 0.2, v = 0.2, t = 0.2)
movej(p[0.440173416317255, -0.103924385666279, 0.38063965351589, -1.18987586177615, 1.12818173750114, -1.21322911859968], a = 0.2, v = 0.2, t = 0.2)
movej(p[0.440461089048326, -0.103675125991361, 0.380697423415343, -1.17995789009546, 1.11222758923442, -1.22888517049741], a = 0.2, v = 0.2, t = 0.2)
movej(p[0.440966935827959, -0.103537512754468, 0.380041900431027, -1.18481939370106, 1.11545859853395, -1.21917055298204], a = 0.2, v = 0.2, t = 0.2)
movej(p[0.440787617918675, -0.104078414642437, 0.379104530892371, -1.2050065170513, 1.12427766258326, -1.19776280395551], a = 0.2, v = 0.2, t = 0.2)
movej(p[0.439803868873635, -0.104949356039263, 0.378370759119343, -1.21777152219415, 1.14824707658851, -1.18777322868069], a = 0.2, v = 0.2, t = 0.2)
movej(p[0.438371445469345, -0.105877694393331, 0.377993154870844, -1.22187770872345, 1.16757268444016, -1.19472513204257], a = 0.2, v = 0.2, t = 0.2)
movej(p[0.437232018379412, -0.106287204908561, 0.3780900443803, -1.2218768061408, 1.196947056238, -1.19529103638032], a = 0.2, v = 0.2, t = 0.2)
movej(p[0.436177389376337, -0.106602915090811, 0.378553805841394, -1.22759399786843, 1.21801966958113, -1.1895215774183], a = 0.2, v = 0.2, t = 0.2)
movej(p[0.434996716712415, -0.106943279808819, 0.379190594931285, -1.23089607601267, 1.23266458785918, -1.19227617800964], a = 0.2, v = 0.2, t = 0.2)
movej(p[0.434230974525999, -0.10692847858954, 0.379534352764432, -1.2245649311716, 1.2389296269295, -1.20446349775102], a = 0.2, v = 0.2, t = 0.2)
movej(p[0.434136988784752, -0.106724080779874, 0.379630010413609, -1.22173887705869, 1.2370632091103, -1.21105945985169], a = 0.2, v = 0.2, t = 0.2)
movej(p[0.434785692330371, -0.106374549809774, 0.37985210701611, -1.21173994403408, 1.22158533573618, -1.22565337329902], a = 0.2, v = 0.2, t = 0.2)
movej(p[0.435950552274522, -0.105787723265303, 0.380257050638382, -1.20122308074319, 1.19287019075408, -1.24518843534893], a = 0.2, v = 0.2, t = 0.2)
movej(p[0.437498067508317, -0.105056479761154, 0.380545440369841, -1.1938551892428, 1.16467286690052, -1.25394066103086], a = 0.2, v = 0.2, t = 0.2)
movej(p[0.438871858544295, -0.104268855067493, 0.380889286020387, -1.19307056464352, 1.14083816340227, -1.23489860136902], a = 0.2, v = 0.2, t = 0.2)
movej(p[0.439660618612964, -0.103820098433371, 0.381405365423935, -1.19549264388677, 1.12417590205332, -1.22188457737992], a = 0.2, v = 0.2, t = 0.2)
movej(p[0.44007888535533, -0.103466235238255, 0.381658978931331, -1.18704265337263, 1.10333257445783, -1.23160744716356], a = 0.2, v = 0.2, t = 0.2)
movej(p[0.440651913598573, -0.103240604969622, 0.381348881842789, -1.18647283187928, 1.09238294862289, -1.24026443085851], a = 0.2, v = 0.2, t = 0.2)
movej(p[0.441063559698848, -0.103185704008628, 0.380757520338537, -1.1894972139043, 1.09196607714916, -1.23056557456332], a = 0.2, v = 0.2, t = 0.2)
movej(p[0.441222946098989, -0.103466090463175, 0.380364041048667, -1.18968997871382, 1.09367277512346, -1.22068687617439], a = 0.2, v = 0.2, t = 0.2)
movej(p[0.441255806470869, -0.103669925013443, 0.380215141194817, -1.18268075352463, 1.0969056374987, -1.2270045634808], a = 0.2, v = 0.2, t = 0.2)
movej(p[0.441604736967355, -0.103788697161815, 0.380062301047234, -1.18154416696164, 1.10391112825442, -1.22178673088397], a = 0.2, v = 0.2, t = 0.2)
movej(p[0.441559253574096, -0.104150307011051, 0.379973410364517, -1.18773381069381, 1.11597550248841, -1.21332166625502], a = 0.2, v = 0.2, t = 0.2)
movej(p[0.441477660038668, -0.104423184785419, 0.37985862049026, -1.18272926342879, 1.11465430193377, -1.2137634313405], a = 0.2, v = 0.2, t = 0.2)
movej(p[0.441552768305645, -0.104494220881899, 0.379466322533436, -1.17313795743076, 1.1039480402068, -1.22751801670002], a = 0.2, v = 0.2, t = 0.2)
movej(p[0.442088615643481, -0.104297188337204, 0.379017810159398, -1.17098812403412, 1.09778625966184, -1.21683899235897], a = 0.2, v = 0.2, t = 0.2)
movej(p[0.442352513746967, -0.10422795695859, 0.37873038088933, -1.17258600003327, 1.10113456922512, -1.2024231369636], a = 0.2, v = 0.2, t = 0.2)
movej(p[0.442436140812196, -0.104203066820455, 0.378327927835813, -1.17137204476201, 1.09969216232032, -1.19719021245242], a = 0.2, v = 0.2, t = 0.2)
movej(p[0.442713070598144, -0.104356358153425, 0.377422324051485, -1.17961900853588, 1.10503574285356, -1.20211227609978], a = 0.2, v = 0.2, t = 0.2)
movej(p[0.442711419567002, -0.104750577177396, 0.376474991881633, -1.1974861090555, 1.11525342519066, -1.18073741437563], a = 0.2, v = 0.2, t = 0.2)
movej(p[0.4420774333007, -0.105492431165647, 0.376291986925535, -1.22059172024114, 1.14011432092411, -1.16125111825441], a = 0.2, v = 0.2, t = 0.2)
movej(p[0.440763720484336, -0.106139685678579, 0.376590979971622, -1.22646984509408, 1.16244576484041, -1.15687872335633], a = 0.2, v = 0.2, t = 0.2)
movej(p[0.439595509676988, -0.106465746138058, 0.376999899335752, -1.22918270290076, 1.18696863137546, -1.15841140237317], a = 0.2, v = 0.2, t = 0.2)
movej(p[0.438383143711363, -0.106752069880676, 0.377121751294328, -1.22628653416035, 1.20316464436343, -1.16868952366784], a = 0.2, v = 0.2, t = 0.2)
movej(p[0.437458435002563, -0.106951680213195, 0.377605735290573, -1.21777513791126, 1.20854626097333, -1.18739667036435], a = 0.2, v = 0.2, t = 0.2)
movej(p[0.437324523314604, -0.106812284838496, 0.377856977838205, -1.20109930042975, 1.20040861869612, -1.21662893615859], a = 0.2, v = 0.2, t = 0.2)
movej(p[0.438183812797301, -0.10621120972836, 0.37807595648968, -1.19229443945051, 1.18862202086143, -1.21052590866714], a = 0.2, v = 0.2, t = 0.2)
movej(p[0.439260467861452, -0.105558015127674, 0.378476804607267, -1.18557524921566, 1.16711575209427, -1.20844148475634], a = 0.2, v = 0.2, t = 0.2)
movej(p[0.439890840178637, -0.1048970881121, 0.379315333359016, -1.17942333257023, 1.14485951490387, -1.20953053621298], a = 0.2, v = 0.2, t = 0.2)
movej(p[0.440506926803068, -0.104514232887615, 0.379804227192053, -1.18200423724171, 1.12370268501608, -1.21595628751826], a = 0.2, v = 0.2, t = 0.2)
movej(p[0.440985524836162, -0.104288774861001, 0.379878171169862, -1.18457901210085, 1.11206701148102, -1.21118741598992], a = 0.2, v = 0.2, t = 0.2)
movej(p[0.441427884080961, -0.104283197020277, 0.379775779965486, -1.18451248987651, 1.10277828456873, -1.21307169486139], a = 0.2, v = 0.2, t = 0.2)
movej(p[0.441625929082893, -0.10427181781802, 0.379292188040444, -1.1794731541259, 1.09977706855609, -1.22035606910041], a = 0.2, v = 0.2, t = 0.2)
movej(p[0.441961464337125, -0.104380587978068, 0.378251509110922, -1.18811508609026, 1.10537179304635, -1.20614570937258], a = 0.2, v = 0.2, t = 0.2)
movej(p[0.441727569386394, -0.104733516054226, 0.377225945411349, -1.20253821505888, 1.1256325138796, -1.18142904608704], a = 0.2, v = 0.2, t = 0.2)
movej(p[0.440835922555892, -0.105301686964422, 0.376791525392747, -1.21240209952649, 1.14892611812666, -1.16968365500626], a = 0.2, v = 0.2, t = 0.2)
movej(p[0.439434424248301, -0.105902321909935, 0.377069097340267, -1.21626573370471, 1.17292962986572, -1.18000897939941], a = 0.2, v = 0.2, t = 0.2)
movej(p[0.438172694921205, -0.106456068890944, 0.37728992812745, -1.22724220400094, 1.19558699799473, -1.17881929168701], a = 0.2, v = 0.2, t = 0.2)
movej(p[0.437066279657346, -0.106918763660731, 0.377647321488906, -1.2329547071804, 1.21435881216605, -1.17873917113031], a = 0.2, v = 0.2, t = 0.2)
movej(p[0.43628077694726, -0.107055650601757, 0.378049425991682, -1.2225275696092, 1.21814163007653, -1.19713589558407], a = 0.2, v = 0.2, t = 0.2)
movej(p[0.436462983719414, -0.106722132387034, 0.378438748134641, -1.21084727891776, 1.21143972962812, -1.21959525244012], a = 0.2, v = 0.2, t = 0.2)
movej(p[0.437400877535894, -0.106284546334925, 0.378734628340819, -1.20891279995389, 1.19247572989037, -1.21910784339171], a = 0.2, v = 0.2, t = 0.2)
movej(p[0.438632742441831, -0.105685023400596, 0.379159136072591, -1.20151408573396, 1.16718720091098, -1.22205778881752], a = 0.2, v = 0.2, t = 0.2)
movej(p[0.439382559829375, -0.105024643762198, 0.379830643807563, -1.19012221786471, 1.13976190203218, -1.22587704821097], a = 0.2, v = 0.2, t = 0.2)
movej(p[0.440135181399023, -0.104366599766746, 0.380184844512461, -1.18197821156623, 1.12043969416643, -1.22850204867658], a = 0.2, v = 0.2, t = 0.2)
movej(p[0.440613945675518, -0.104016987323643, 0.380403056134698, -1.18536450433621, 1.11191557876574, -1.21055305933433], a = 0.2, v = 0.2, t = 0.2)
movej(p[0.441027269001441, -0.103958283804414, 0.3804410202227, -1.18548683144031, 1.10725911518625, -1.20125836700806], a = 0.2, v = 0.2, t = 0.2)
movej(p[0.441208475521757, -0.103893701709497, 0.380000336396817, -1.18058532474284, 1.10442245743593, -1.20523812709749], a = 0.2, v = 0.2, t = 0.2)
movej(p[0.441621551449858, -0.104020731258039, 0.379124871060356, -1.19384582929874, 1.1122616452107, -1.19707444156387], a = 0.2, v = 0.2, t = 0.2)
movej(p[0.441570554083635, -0.104365243060379, 0.378492015580583, -1.21059138798857, 1.13146381416417, -1.17095088011365], a = 0.2, v = 0.2, t = 0.2)
movej(p[0.441011171356097, -0.104958122283639, 0.378266079402522, -1.22103442305591, 1.14904134004567, -1.16667904424214], a = 0.2, v = 0.2, t = 0.2)
movej(p[0.440158728319154, -0.105297118869572, 0.37830100508782, -1.21594591524466, 1.16215811793492, -1.17425795601301], a = 0.2, v = 0.2, t = 0.2)
movej(p[0.439706023397929, -0.105466901488621, 0.37818709195878, -1.2158173107614, 1.1735675098101, -1.17683913336534], a = 0.2, v = 0.2, t = 0.2)
movej(p[0.439484415488283, -0.105667399514254, 0.378169075141649, -1.21314261441475, 1.17692231161014, -1.1815428758494], a = 0.2, v = 0.2, t = 0.2)
movej(p[0.439475681386231, -0.10558117288119, 0.378508135052596, -1.20093578101165, 1.16495769963385, -1.19812989900561], a = 0.2, v = 0.2, t = 0.2)
movej(p[0.440030183918011, -0.105220091819668, 0.378628280419793, -1.18475987583273, 1.13882837149646, -1.22471800772642], a = 0.2, v = 0.2, t = 0.2)
movej(p[0.440786025206774, -0.104724150282255, 0.378710118431565, -1.18167626697383, 1.12267009752082, -1.21615579804961], a = 0.2, v = 0.2, t = 0.2)
movej(p[0.441330733788754, -0.1045064951016, 0.37872070173213, -1.17493755703717, 1.11412346898304, -1.20984629447699], a = 0.2, v = 0.2, t = 0.2)
movej(p[0.441545865578414, -0.104352229688239, 0.378959892359493, -1.16778044861098, 1.10633273787308, -1.20977594000148], a = 0.2, v = 0.2, t = 0.2)
movej(p[0.441972271645311, -0.104132483239552, 0.378740775041593, -1.16512703481665, 1.09846440476726, -1.2145487790519], a = 0.2, v = 0.2, t = 0.2)
movej(p[0.442377328253715, -0.104198831934773, 0.378365479592206, -1.18154629530838, 1.09765538358772, -1.20079650658828], a = 0.2, v = 0.2, t = 0.2)
movej(p[0.442444429592987, -0.104411902876674, 0.377652032934785, -1.19295484496354, 1.10845148873318, -1.1903741546068], a = 0.2, v = 0.2, t = 0.2)
movej(p[0.442023489169539, -0.104865762246701, 0.377092848091244, -1.20098993927071, 1.12772642001305, -1.18715533679783], a = 0.2, v = 0.2, t = 0.2)
movej(p[0.441653428828284, -0.105244486358893, 0.376486118917168, -1.20241023564876, 1.15041380243987, -1.18115461641791], a = 0.2, v = 0.2, t = 0.2)
movej(p[0.441097873518128, -0.105597670543661, 0.376599441858303, -1.21083892229058, 1.17480801561634, -1.15841893715606], a = 0.2, v = 0.2, t = 0.2)
movej(p[0.440575690646127, -0.105772160997371, 0.377031833335731, -1.20352660100437, 1.17940082681874, -1.15953692166134], a = 0.2, v = 0.2, t = 0.2)
movej(p[0.440396597527118, -0.105599454637727, 0.377884934363548, -1.19664410490346, 1.17238799547088, -1.17543776307359], a = 0.2, v = 0.2, t = 0.2)
movej(p[0.440891738159714, -0.105329595990074, 0.377783725864203, -1.18691340306128, 1.15453459311224, -1.19333982178642], a = 0.2, v = 0.2, t = 0.2)
movej(p[0.441345777019462, -0.105144120624895, 0.378023760096659, -1.18615306021366, 1.14431804683388, -1.19228624732983], a = 0.2, v = 0.2, t = 0.2)
movej(p[0.441588553903271, -0.105037136009229, 0.378101126040062, -1.17930590344389, 1.12576032655397, -1.20164439316743], a = 0.2, v = 0.2, t = 0.2)
movej(p[0.44192327477338, -0.104746808469798, 0.37817490915101, -1.17436714323411, 1.11164469735312, -1.20784999050839], a = 0.2, v = 0.2, t = 0.2)
movej(p[0.44235428463355, -0.104635908612574, 0.378023230985793, -1.17751887312596, 1.10589992231858, -1.19632920267856], a = 0.2, v = 0.2, t = 0.2)
movej(p[0.442613446869921, -0.104679121316105, 0.377620554216172, -1.1736548630037, 1.10565438704201, -1.19205452554733], a = 0.2, v = 0.2, t = 0.2)
movej(p[0.442666654383009, -0.104758502502752, 0.377503977456663, -1.16609529154061, 1.10307621736903, -1.19467891657209], a = 0.2, v = 0.2, t = 0.2)
movej(p[0.443063323043176, -0.104603630225996, 0.377023198956588, -1.16503860391044, 1.09926830254983, -1.20055776935074], a = 0.2, v = 0.2, t = 0.2)
movej(p[0.443393223103692, -0.104524397811076, 0.376625253597624, -1.17734526014214, 1.11045491941697, -1.18047601077095], a = 0.2, v = 0.2, t = 0.2)
movej(p[0.443442207193127, -0.104729481014654, 0.376102211609186, -1.18321664625034, 1.12050466847486, -1.17269050034266], a = 0.2, v = 0.2, t = 0.2)
movej(p[0.443190137664584, -0.105032118792768, 0.375852227337956, -1.18445027318622, 1.13469135006007, -1.17448468268308], a = 0.2, v = 0.2, t = 0.2)
movej(p[0.443177081657428, -0.105384710090153, 0.375490938409001, -1.19147258988138, 1.14095073687301, -1.16816075064776], a = 0.2, v = 0.2, t = 0.2)
movej(p[0.443075117255431, -0.105651599962305, 0.375449077097888, -1.19864328971288, 1.14966242950044, -1.15651042613898], a = 0.2, v = 0.2, t = 0.2)
movej(p[0.442898779654323, -0.105724109046587, 0.375716340365159, -1.19130901406786, 1.14390626743401, -1.1645946396902], a = 0.2, v = 0.2, t = 0.2)
movej(p[0.442893299787303, -0.105505689514812, 0.375748431105204, -1.17711453326644, 1.13109325943215, -1.18860089725564], a = 0.2, v = 0.2, t = 0.2)
movej(p[0.443274147583369, -0.105297967285388, 0.375657476368466, -1.17953630151071, 1.12525848423396, -1.1862156032385], a = 0.2, v = 0.2, t = 0.2)
movej(p[0.443573224386263, -0.105288787715426, 0.375459053376185, -1.18135670466989, 1.12376473500787, -1.17754341235997], a = 0.2, v = 0.2, t = 0.2)
movej(p[0.443648922999456, -0.105395679264042, 0.37534541038566, -1.17523892390693, 1.1159998887757, -1.18329439400968], a = 0.2, v = 0.2, t = 0.2)
movej(p[0.443879965116062, -0.105403269182003, 0.374650633675415, -1.17891701323113, 1.11781108935028, -1.18532199235026], a = 0.2, v = 0.2, t = 0.2)
movej(p[0.443935873258201, -0.10557932754528, 0.373977697485303, -1.19592886127579, 1.12857813330354, -1.16745959516433], a = 0.2, v = 0.2, t = 0.2)
movej(p[0.443490547248327, -0.105966663443045, 0.37391888437339, -1.21390449262745, 1.15074038701776, -1.14706385663114], a = 0.2, v = 0.2, t = 0.2)
movej(p[0.442592789324242, -0.106327522962565, 0.374158243417116, -1.21388854690347, 1.16987520655523, -1.14831212519975], a = 0.2, v = 0.2, t = 0.2)
movej(p[0.441827683045341, -0.106481587802771, 0.374360793921928, -1.21131961262557, 1.18383723705265, -1.15120288364804], a = 0.2, v = 0.2, t = 0.2)
movej(p[0.44125835919333, -0.10658443307362, 0.374438286771891, -1.20873434953911, 1.19117224710304, -1.15860046323338], a = 0.2, v = 0.2, t = 0.2)
movej(p[0.441002746790542, -0.106618701341769, 0.37509851894722, -1.20400219209074, 1.18423465671743, -1.17107262815665], a = 0.2, v = 0.2, t = 0.2)
movej(p[0.441255877306065, -0.1063220876298, 0.375606880657012, -1.18788404976732, 1.16196316309664, -1.1985187954586], a = 0.2, v = 0.2, t = 0.2)
movej(p[0.442000394059666, -0.105876286964446, 0.375968220912697, -1.18394543007547, 1.14692739828556, -1.19184473645641], a = 0.2, v = 0.2, t = 0.2)
movej(p[0.442615751566494, -0.105542384877159, 0.375967757344191, -1.17902180733135, 1.13901029748312, -1.17858637804463], a = 0.2, v = 0.2, t = 0.2)
movej(p[0.442836551431799, -0.105549054518486, 0.376360345405988, -1.17839044495822, 1.1286157844975, -1.18082279228258], a = 0.2, v = 0.2, t = 0.2)
movej(p[0.443131597644115, -0.105323116365254, 0.376206777104858, -1.17198934714951, 1.12233002252465, -1.1935805361521], a = 0.2, v = 0.2, t = 0.2)
movej(p[0.443566640285609, -0.105277187760836, 0.37592842367219, -1.18367073143064, 1.11867630837723, -1.18409242014235], a = 0.2, v = 0.2, t = 0.2)
movej(p[0.443794369840469, -0.105188692540349, 0.37537602623538, -1.18750520363615, 1.1290478229145, -1.16698340560305], a = 0.2, v = 0.2, t = 0.2)
movej(p[0.443569832984127, -0.105545262937247, 0.375013865527263, -1.19339650257527, 1.13425992081894, -1.1675233273732], a = 0.2, v = 0.2, t = 0.2)
movej(p[0.44322704723753, -0.105781881086836, 0.374466619465606, -1.19487152142186, 1.15043375455678, -1.16523440019925], a = 0.2, v = 0.2, t = 0.2)
movej(p[0.442775711567754, -0.10615813502623, 0.374138969490361, -1.2075766463356, 1.16797353897965, -1.1541747757675], a = 0.2, v = 0.2, t = 0.2)
movej(p[0.442068320933951, -0.10640057723903, 0.374253382632355, -1.21061657052365, 1.18486009320967, -1.14219548038602], a = 0.2, v = 0.2, t = 0.2)
movej(p[0.441411663477431, -0.106469980406326, 0.374944029832571, -1.20156021790243, 1.19172479280018, -1.15852578085105], a = 0.2, v = 0.2, t = 0.2)
movej(p[0.441425618587259, -0.106328828520069, 0.375192474313121, -1.19100673115272, 1.18580110709153, -1.18215533801294], a = 0.2, v = 0.2, t = 0.2)
movej(p[0.441812255989502, -0.106183515855864, 0.375511714675245, -1.19041728791662, 1.17754817785818, -1.17880542842524], a = 0.2, v = 0.2, t = 0.2)
movej(p[0.442266098856427, -0.106006717824816, 0.375755058810903, -1.18107175159777, 1.15985410963393, -1.18299553859444], a = 0.2, v = 0.2, t = 0.2)
movej(p[0.442558427905006, -0.105717425948912, 0.376265299914982, -1.17069438978112, 1.14479226230791, -1.18612928670017], a = 0.2, v = 0.2, t = 0.2)
movej(p[0.443131481995471, -0.105453714903944, 0.376227257515438, -1.16854658264451, 1.13672982921302, -1.18695088071499], a = 0.2, v = 0.2, t = 0.2)
movej(p[0.443518084531701, -0.105317369785444, 0.37580394594346, -1.17471627761118, 1.13566841196917, -1.17401558545845], a = 0.2, v = 0.2, t = 0.2)
movej(p[0.44362749046134, -0.10542893768726, 0.375350893605056, -1.17875769745695, 1.13335482768892, -1.16965276148531], a = 0.2, v = 0.2, t = 0.2)
movej(p[0.443489588824617, -0.105631102708257, 0.374872620715668, -1.18468281918013, 1.14116051109005, -1.17360491971381], a = 0.2, v = 0.2, t = 0.2)
movej(p[0.443427886172233, -0.105935526930597, 0.374344156870897, -1.20090079408013, 1.16128435666596, -1.15692244768322], a = 0.2, v = 0.2, t = 0.2)
movej(p[0.442847574363663, -0.106495968719742, 0.374207514924869, -1.22594355896078, 1.18308853665642, -1.13549722521957], a = 0.2, v = 0.2, t = 0.2)
movej(p[0.441646646160486, -0.106894236620418, 0.374283162165433, -1.23170875808651, 1.20194510702426, -1.12643608232363], a = 0.2, v = 0.2, t = 0.2)
movej(p[0.440032611572249, -0.107340154169359, 0.374566398617043, -1.24116604262246, 1.21593999682953, -1.13584916775513], a = 0.2, v = 0.2, t = 0.2)
movej(p[0.438374952542381, -0.107627445538768, 0.37464907098099, -1.24104187458777, 1.23791917487033, -1.13404843175304], a = 0.2, v = 0.2, t = 0.2)
movej(p[0.436552832830601, -0.108052686524499, 0.375169521093872, -1.24653046790401, 1.26135891741513, -1.13621664045528], a = 0.2, v = 0.2, t = 0.2)
movej(p[0.43478057854255, -0.108396514440228, 0.375686642310657, -1.2374613142597, 1.28172606035398, -1.14289096637373], a = 0.2, v = 0.2, t = 0.2)
movej(p[0.433407761002732, -0.108689338609546, 0.376363349247396, -1.23705796198691, 1.29890443332099, -1.14701374326283], a = 0.2, v = 0.2, t = 0.2)
movej(p[0.432627133124195, -0.108716160737315, 0.376936896526016, -1.23300511023406, 1.30351656195317, -1.14911470005556], a = 0.2, v = 0.2, t = 0.2)
movej(p[0.432619219749616, -0.108224277379952, 0.37860347495587, -1.22447702509912, 1.29186696206645, -1.1642375735888], a = 0.2, v = 0.2, t = 0.2)
movej(p[0.432857699166988, -0.107335612320012, 0.380664404685295, -1.20984613171093, 1.26446397580987, -1.20307947871379], a = 0.2, v = 0.2, t = 0.2)
movej(p[0.433268462803802, -0.106165795123358, 0.3829326587564, -1.21005395338805, 1.23506490212919, -1.22929322568535], a = 0.2, v = 0.2, t = 0.2)
movej(p[0.433505657858745, -0.105152917038832, 0.384374051392637, -1.2095575402288, 1.20681305279916, -1.25550073509805], a = 0.2, v = 0.2, t = 0.2)
movej(p[0.434158831308846, -0.104319462041673, 0.385054936712905, -1.20501988358948, 1.17607041571575, -1.27733060828655], a = 0.2, v = 0.2, t = 0.2)
movej(p[0.435411719376372, -0.10346092037293, 0.385193696750827, -1.19408033237375, 1.13879618645523, -1.29370610897021], a = 0.2, v = 0.2, t = 0.2)
movej(p[0.437147331139932, -0.102698546383146, 0.38489504429815, -1.19598304612635, 1.10491611646085, -1.28305602587326], a = 0.2, v = 0.2, t = 0.2)
movej(p[0.438124138436454, -0.102345672385926, 0.38478776103968, -1.20175382438606, 1.09091940278106, -1.26253306158689], a = 0.2, v = 0.2, t = 0.2)
movej(p[0.438741614023181, -0.102285974470565, 0.384589939406135, -1.20178709034316, 1.07567146107897, -1.25978608147524], a = 0.2, v = 0.2, t = 0.2)
movej(p[0.43921579822769, -0.102277781349953, 0.384049328776413, -1.19958813310597, 1.07164816274267, -1.26182470627751], a = 0.2, v = 0.2, t = 0.2)
movej(p[0.440049932048831, -0.102300482703908, 0.382821633359399, -1.19837900026657, 1.0779598207647, -1.24848745632182], a = 0.2, v = 0.2, t = 0.2)
movej(p[0.440158427980307, -0.102696208808996, 0.381634437548842, -1.20787764543304, 1.09924658358745, -1.22098744626121], a = 0.2, v = 0.2, t = 0.2)
movej(p[0.439352298679964, -0.103431448877768, 0.381049691052571, -1.21140034545175, 1.12411733877507, -1.21084881548147], a = 0.2, v = 0.2, t = 0.2)
movej(p[0.4381019010856, -0.104144041895592, 0.380932939702014, -1.22332352285007, 1.14739856498076, -1.20531239927819], a = 0.2, v = 0.2, t = 0.2)
movej(p[0.436950722156976, -0.104803704970922, 0.380976615684403, -1.23370697711772, 1.17267244958493, -1.20256193177862], a = 0.2, v = 0.2, t = 0.2)
movej(p[0.435633257076713, -0.10539556846055, 0.381116656045855, -1.23720266526112, 1.19616167420582, -1.20359065492618], a = 0.2, v = 0.2, t = 0.2)
movej(p[0.434219040039806, -0.105908523881796, 0.381263266987923, -1.23350013686052, 1.20981872483, -1.21558370911077], a = 0.2, v = 0.2, t = 0.2)
movej(p[0.433387554607708, -0.105998249982827, 0.381283684945775, -1.22503967438538, 1.21871850032588, -1.22749886343463], a = 0.2, v = 0.2, t = 0.2)
movej(p[0.433427318636477, -0.105808173677164, 0.381274557512312, -1.217549554581, 1.21430808818652, -1.23744694105422], a = 0.2, v = 0.2, t = 0.2)
movej(p[0.434059250492102, -0.105454730100729, 0.381803927107323, -1.21231903602596, 1.20428346688872, -1.2427727188432], a = 0.2, v = 0.2, t = 0.2)
movej(p[0.435252973327115, -0.104773561754667, 0.382229495578774, -1.19873847863936, 1.17716377872626, -1.25935800994707], a = 0.2, v = 0.2, t = 0.2)
movej(p[0.436794608623297, -0.104025843379446, 0.382482235970256, -1.19524047471513, 1.15100105059476, -1.25371949480537], a = 0.2, v = 0.2, t = 0.2)
movej(p[0.43805698332117, -0.103314490327764, 0.382600085910584, -1.19185239937008, 1.126192230918, -1.24296861071153], a = 0.2, v = 0.2, t = 0.2)
movej(p[0.438774661240779, -0.102840842342362, 0.382862110356068, -1.18714169344913, 1.10329635904359, -1.2416027800636], a = 0.2, v = 0.2, t = 0.2)
movej(p[0.439206231573658, -0.102451638160142, 0.383203576360701, -1.18187856643635, 1.08461471844733, -1.24685706556365], a = 0.2, v = 0.2, t = 0.2)
movej(p[0.439980217247244, -0.1023504511349, 0.382701845453733, -1.18525665430511, 1.06911920632048, -1.24821728397742], a = 0.2, v = 0.2, t = 0.2)
movej(p[0.440379907033806, -0.102542612361595, 0.382062448857345, -1.19719493250412, 1.07566552238872, -1.22561248065012], a = 0.2, v = 0.2, t = 0.2)
movej(p[0.440150704045758, -0.103080232342457, 0.381252098165331, -1.20534656788103, 1.0937651716125, -1.20449780579157], a = 0.2, v = 0.2, t = 0.2)
movej(p[0.439511655583933, -0.103640849564729, 0.380597504741569, -1.20967558540969, 1.12137592342529, -1.19876806016441], a = 0.2, v = 0.2, t = 0.2)
movej(p[0.438772611161803, -0.104226573999259, 0.380268612032905, -1.21838810017763, 1.14467499409948, -1.1930532571601], a = 0.2, v = 0.2, t = 0.2)
movej(p[0.437651782778379, -0.104775308870403, 0.380467075799121, -1.22585466474018, 1.16896352400188, -1.19577886246976], a = 0.2, v = 0.2, t = 0.2)
movej(p[0.436097242759955, -0.105260170725633, 0.380854385309543, -1.22941910488502, 1.18826721336179, -1.19865098844586], a = 0.2, v = 0.2, t = 0.2)
movej(p[0.434784371018544, -0.105489232245819, 0.380871208524836, -1.22642834204207, 1.20363698448192, -1.20816156878747], a = 0.2, v = 0.2, t = 0.2)
movej(p[0.433845204886244, -0.105737444046081, 0.380705606537673, -1.22010414148838, 1.211014760245, -1.21928939956572], a = 0.2, v = 0.2, t = 0.2)
movej(p[0.433577524028096, -0.105757312172886, 0.380691985020933, -1.21049881361857, 1.21123006732087, -1.23637166223965], a = 0.2, v = 0.2, t = 0.2)
movej(p[0.434010703957825, -0.105582433966017, 0.381015561489859, -1.20064629004699, 1.20280988702409, -1.25025116029018], a = 0.2, v = 0.2, t = 0.2)
movej(p[0.435393473123488, -0.105101864634072, 0.38131180534918, -1.19856859535623, 1.18818417761987, -1.25111617411566], a = 0.2, v = 0.2, t = 0.2)
movej(p[0.436791715746183, -0.104499464871133, 0.381782054008179, -1.20021602691377, 1.16588039909384, -1.23619938971153], a = 0.2, v = 0.2, t = 0.2)
movej(p[0.437882885138305, -0.103814560736949, 0.382382432710562, -1.19146261732495, 1.13479354352339, -1.2391067930832], a = 0.2, v = 0.2, t = 0.2)
movej(p[0.438583148515056, -0.103107481356786, 0.383040386282578, -1.1865635043643, 1.10417153944569, -1.25021487172115], a = 0.2, v = 0.2, t = 0.2)
movej(p[0.439365553958971, -0.102822266890603, 0.382902346014131, -1.18994483460173, 1.08386909725555, -1.24750808670481], a = 0.2, v = 0.2, t = 0.2)
movej(p[0.439682976724822, -0.102922205483565, 0.38237620374539, -1.20311350180724, 1.08437212134122, -1.23430195883177], a = 0.2, v = 0.2, t = 0.2)
movej(p[0.439340685116706, -0.103505914818123, 0.381306942678174, -1.21356108139331, 1.0957665964822, -1.2184394688939], a = 0.2, v = 0.2, t = 0.2)
movej(p[0.43846858934302, -0.104022891252444, 0.380583874774049, -1.22249960932969, 1.13409073265083, -1.19936730799448], a = 0.2, v = 0.2, t = 0.2)
movej(p[0.437407543438685, -0.104795347587569, 0.380080939491116, -1.22973293180753, 1.16195116273814, -1.19014267609319], a = 0.2, v = 0.2, t = 0.2)
movej(p[0.436195173930074, -0.105334371319177, 0.380390565239001, -1.23324628713393, 1.1918807496544, -1.18570683294288], a = 0.2, v = 0.2, t = 0.2)
movej(p[0.434948486605441, -0.105832757258058, 0.380649191205458, -1.22907300327374, 1.20105950920831, -1.20397303168955], a = 0.2, v = 0.2, t = 0.2)
movej(p[0.434339258022382, -0.105873291615881, 0.380911744322788, -1.22746422846136, 1.20769746616077, -1.22030595733472], a = 0.2, v = 0.2, t = 0.2)
movej(p[0.434607262213868, -0.105649225914947, 0.38103227952516, -1.22250889643502, 1.19995163182533, -1.22697129843538], a = 0.2, v = 0.2, t = 0.2)
movej(p[0.435384857542937, -0.105188346504291, 0.381263184387699, -1.21147778702953, 1.18378037450691, -1.23785890191008], a = 0.2, v = 0.2, t = 0.2)
movej(p[0.436498796764453, -0.104478923258594, 0.381481845959159, -1.19413916876055, 1.15870584956012, -1.25092674823034], a = 0.2, v = 0.2, t = 0.2)
movej(p[0.437850366134457, -0.103765473626186, 0.381555792454558, -1.18534090966906, 1.13711582962964, -1.25071526164674], a = 0.2, v = 0.2, t = 0.2)
movej(p[0.438786641635975, -0.103143746645919, 0.382108407112133, -1.188285665018, 1.12690149028279, -1.23208856974662], a = 0.2, v = 0.2, t = 0.2)
movej(p[0.439359957963284, -0.10273082115191, 0.382730343538256, -1.18489407576204, 1.10867869244654, -1.22128380225859], a = 0.2, v = 0.2, t = 0.2)
movej(p[0.439608444942725, -0.10241172796866, 0.383053851438394, -1.17911074098925, 1.09194716581648, -1.2308515096613], a = 0.2, v = 0.2, t = 0.2)
movej(p[0.440385087293817, -0.102315369252901, 0.38278773583121, -1.18078633482058, 1.07326051568129, -1.23005627200667], a = 0.2, v = 0.2, t = 0.2)
movej(p[0.440829983264844, -0.102461031113777, 0.382393222717042, -1.18743663322194, 1.06745934814164, -1.22540075685069], a = 0.2, v = 0.2, t = 0.2)
movej(p[0.440914968190557, -0.102655366177377, 0.382281024920909, -1.18743624193935, 1.06513851755425, -1.22148445636253], a = 0.2, v = 0.2, t = 0.2)
movej(p[0.44100380853221, -0.102825594778587, 0.381649243187535, -1.1771854270712, 1.06291555722063, -1.2355606701604], a = 0.2, v = 0.2, t = 0.2)
movej(p[0.441316416183951, -0.103034648367798, 0.381278025990586, -1.17819898030227, 1.07340279185713, -1.21976753228429], a = 0.2, v = 0.2, t = 0.2)
movej(p[0.441468697224832, -0.103496694036103, 0.380814639431233, -1.17864304518131, 1.08389466568576, -1.21484133373188], a = 0.2, v = 0.2, t = 0.2)
movej(p[0.441430374253987, -0.103791786969127, 0.380763697933448, -1.17586777641359, 1.0923547425486, -1.21315477549085], a = 0.2, v = 0.2, t = 0.2)
movej(p[0.441550361740487, -0.104002329722119, 0.380446412911398, -1.17327049767939, 1.08973305870382, -1.23013046781901], a = 0.2, v = 0.2, t = 0.2)
movej(p[0.4418290504351, -0.103882397465289, 0.380038040017015, -1.17504942950991, 1.0935906859812, -1.21434589092141], a = 0.2, v = 0.2, t = 0.2)
movej(p[0.44191086540136, -0.103936203143027, 0.379557820928745, -1.17702138607642, 1.09735961849958, -1.20275810326617], a = 0.2, v = 0.2, t = 0.2)
movej(p[0.441650836149732, -0.103990696009303, 0.378874845766662, -1.1807122129497, 1.11303117536321, -1.19350148193523], a = 0.2, v = 0.2, t = 0.2)
movej(p[0.441184556007844, -0.104476169824132, 0.377912619722483, -1.19411775671616, 1.13676835562382, -1.18433949263254], a = 0.2, v = 0.2, t = 0.2)
movej(p[0.439957029557514, -0.105270172478929, 0.377491167907898, -1.21848170312654, 1.1719948210564, -1.16376991202964], a = 0.2, v = 0.2, t = 0.2)
movej(p[0.437917201328468, -0.106248312650678, 0.377688691270557, -1.22979965939598, 1.20415809476763, -1.16220009620178], a = 0.2, v = 0.2, t = 0.2)
movej(p[0.435939353013429, -0.10671360643862, 0.378506350305852, -1.23181262775115, 1.23197520351462, -1.16323202003375], a = 0.2, v = 0.2, t = 0.2)
movej(p[0.434601711814756, -0.106870503079066, 0.37907952820165, -1.22787280776421, 1.25019819400205, -1.17030207964866], a = 0.2, v = 0.2, t = 0.2)
movej(p[0.43380368891571, -0.106902304846849, 0.379717754924816, -1.2249577016175, 1.25714503879419, -1.18051885828754], a = 0.2, v = 0.2, t = 0.2)
movej(p[0.433414179360099, -0.107000398628567, 0.380095719574057, -1.21699427956725, 1.24757496722414, -1.20858749161129], a = 0.2, v = 0.2, t = 0.2)
movej(p[0.433981221471184, -0.10655326202843, 0.380532125045005, -1.21030948162733, 1.22878646410183, -1.23104604574327], a = 0.2, v = 0.2, t = 0.2)
movej(p[0.435245577377873, -0.105737845099513, 0.381155448358589, -1.20577290544858, 1.20416141721125, -1.23443626793411], a = 0.2, v = 0.2, t = 0.2)
movej(p[0.436731564787159, -0.104674303014872, 0.382104756451961, -1.19964939175104, 1.17257051099995, -1.23549308570097], a = 0.2, v = 0.2, t = 0.2)
movej(p[0.437786481034379, -0.103788070204986, 0.382800871136214, -1.19224007749764, 1.14081021277151, -1.24209783411759], a = 0.2, v = 0.2, t = 0.2)
movej(p[0.438916994003925, -0.103118737636982, 0.382898944930357, -1.18766831009612, 1.11112265208773, -1.24392097333118], a = 0.2, v = 0.2, t = 0.2)
movej(p[0.439601021236919, -0.102759175909847, 0.38295102762424, -1.18562881164088, 1.09369589401831, -1.23553151107418], a = 0.2, v = 0.2, t = 0.2)
movej(p[0.440049085459845, -0.102554278445991, 0.38293906386901, -1.17847963034577, 1.07976558467743, -1.23877223088382], a = 0.2, v = 0.2, t = 0.2)
movej(p[0.440321010848461, -0.102394773440458, 0.382911330022614, -1.16934802321389, 1.06642374106578, -1.24229970430254], a = 0.2, v = 0.2, t = 0.2)
movej(p[0.440922768793654, -0.102284304746515, 0.382513624738445, -1.16887904956782, 1.06117532092554, -1.23886316832944], a = 0.2, v = 0.2, t = 0.2)
movej(p[0.441309157477538, -0.102457907000776, 0.381942796758857, -1.18016709224208, 1.06281131336661, -1.22403335753663], a = 0.2, v = 0.2, t = 0.2)
movej(p[0.441175630049594, -0.102865830057259, 0.381302923339831, -1.19136992418404, 1.07532499580168, -1.2093422993887], a = 0.2, v = 0.2, t = 0.2)
movej(p[0.440731871432165, -0.103368856679294, 0.380462582577352, -1.20211212061204, 1.09664473470866, -1.20221281427037], a = 0.2, v = 0.2, t = 0.2)
movej(p[0.440331758087083, -0.104082588833532, 0.379738964519608, -1.21311952348095, 1.11793171578946, -1.19215142893001], a = 0.2, v = 0.2, t = 0.2)
movej(p[0.439507635606155, -0.104825107482822, 0.379647668342334, -1.22274107248577, 1.14281438208108, -1.19108513903563], a = 0.2, v = 0.2, t = 0.2)
movej(p[0.438565237888777, -0.105274719943298, 0.379710034898009, -1.2178854925416, 1.15148743280952, -1.2061934729352], a = 0.2, v = 0.2, t = 0.2)
movej(p[0.438270208163524, -0.105170417254411, 0.379858210099402, -1.20847535144058, 1.15576249395287, -1.22058208185387], a = 0.2, v = 0.2, t = 0.2)
movej(p[0.438683972240159, -0.104909662129288, 0.379884594900106, -1.20185516771473, 1.14796960617334, -1.22088121796862], a = 0.2, v = 0.2, t = 0.2)
movej(p[0.439431175648196, -0.104501416413394, 0.380420616916886, -1.19054399162104, 1.13714807059456, -1.21960923284734], a = 0.2, v = 0.2, t = 0.2)
movej(p[0.43995899158819, -0.103854541851297, 0.380963491146888, -1.1716928435148, 1.11769942187674, -1.22555954869128], a = 0.2, v = 0.2, t = 0.2)
movej(p[0.4406467047547, -0.103272523873814, 0.381194492768044, -1.15860173593443, 1.10360898020775, -1.23510746772135], a = 0.2, v = 0.2, t = 0.2)
movej(p[0.441160865997596, -0.103073135461625, 0.381140536443224, -1.16080890885466, 1.09457310401082, -1.22354653932564], a = 0.2, v = 0.2, t = 0.2)
movej(p[0.441407236036655, -0.10328566619553, 0.381142342710056, -1.16850787129982, 1.0847757524477, -1.21819359309999], a = 0.2, v = 0.2, t = 0.2)
movej(p[0.44150881275029, -0.103343771755949, 0.380949631921578, -1.17261181957509, 1.07690728946797, -1.22427322331162], a = 0.2, v = 0.2, t = 0.2)
movej(p[0.442019536870783, -0.103589044372775, 0.379904459003645, -1.18452507203232, 1.07823461049547, -1.21728637592319], a = 0.2, v = 0.2, t = 0.2)
movej(p[0.442129774028309, -0.104000469474148, 0.379103494981069, -1.20127718628315, 1.09307190117199, -1.19986219504527], a = 0.2, v = 0.2, t = 0.2)
movej(p[0.441584782012796, -0.104510787332292, 0.378513505977587, -1.20888146390687, 1.11424241285566, -1.18369419734046], a = 0.2, v = 0.2, t = 0.2)
movej(p[0.440602399926797, -0.104841320784434, 0.378608140574788, -1.20915151105644, 1.13850232728525, -1.18472812989529], a = 0.2, v = 0.2, t = 0.2)
movej(p[0.439867281993671, -0.10506964737661, 0.378462934282991, -1.2090757147233, 1.15763393258347, -1.1869480502449], a = 0.2, v = 0.2, t = 0.2)
movej(p[0.439363461045484, -0.105397543072263, 0.378653337736099, -1.20807951458168, 1.17019834337161, -1.18894967498768], a = 0.2, v = 0.2, t = 0.2)
movej(p[0.439271416316635, -0.10535793342468, 0.378987176514268, -1.1941150598664, 1.15926035641613, -1.20442056163574], a = 0.2, v = 0.2, t = 0.2)
movej(p[0.439811403235596, -0.104830526989436, 0.379303828198006, -1.17488644014817, 1.14232116943972, -1.22629518512583], a = 0.2, v = 0.2, t = 0.2)
movej(p[0.440708489190801, -0.104264163824314, 0.379410418273374, -1.16871339312037, 1.12149930802401, -1.22062046066362], a = 0.2, v = 0.2, t = 0.2)
movej(p[0.441243702729789, -0.104110926112432, 0.379786908087102, -1.17171234570879, 1.1087656073054, -1.2136821958544], a = 0.2, v = 0.2, t = 0.2)
movej(p[0.441472610183794, -0.104007705015289, 0.380099310627114, -1.16795093729979, 1.09426631198189, -1.21926239343925], a = 0.2, v = 0.2, t = 0.2)
movej(p[0.441835752563792, -0.103801062485449, 0.380004760664837, -1.16389665446906, 1.08928539206901, -1.2291458203885], a = 0.2, v = 0.2, t = 0.2)
movej(p[0.442289061414698, -0.103641400080162, 0.379565090381042, -1.1713072865206, 1.08896255696382, -1.21489628738344], a = 0.2, v = 0.2, t = 0.2)
movej(p[0.442438684525524, -0.103840475651854, 0.379094280843099, -1.18278043323083, 1.09230260382226, -1.1948295377065], a = 0.2, v = 0.2, t = 0.2)
movej(p[0.442218162126279, -0.104122801560235, 0.378681138232868, -1.18843692392464, 1.10158434485521, -1.19018759508431], a = 0.2, v = 0.2, t = 0.2)
movej(p[0.442107765327437, -0.104391929229664, 0.377873875745413, -1.19365949493678, 1.11896784610541, -1.18236936132404], a = 0.2, v = 0.2, t = 0.2)
movej(p[0.441704446943723, -0.104784698859891, 0.377462686431557, -1.2032846963388, 1.14368737641755, -1.1707839768886], a = 0.2, v = 0.2, t = 0.2)
movej(p[0.441024768940836, -0.105126591147614, 0.377531936605473, -1.20640359132362, 1.15708489174308, -1.16897882133639], a = 0.2, v = 0.2, t = 0.2)
movej(p[0.440556688187836, -0.105188471392763, 0.377885817035606, -1.194438869012, 1.15769840230443, -1.19452980435368], a = 0.2, v = 0.2, t = 0.2)
movej(p[0.440765528261876, -0.104936903850605, 0.377869333404104, -1.18337204473497, 1.14743177663149, -1.20258344317062], a = 0.2, v = 0.2, t = 0.2)
movej(p[0.441165023613417, -0.104849528854547, 0.378068270719509, -1.18024333267514, 1.1375601724119, -1.20289831826329], a = 0.2, v = 0.2, t = 0.2)
movej(p[0.441525141651573, -0.104670395507029, 0.378482586963142, -1.17321853160623, 1.12207921267421, -1.20348078270659], a = 0.2, v = 0.2, t = 0.2)
movej(p[0.441877249152123, -0.104387321319311, 0.378849161929146, -1.16545813625083, 1.11158589042207, -1.22090359611077], a = 0.2, v = 0.2, t = 0.2)
movej(p[0.44248789868525, -0.104087349621965, 0.378543949913821, -1.16133499724708, 1.101411277118, -1.21617587292004], a = 0.2, v = 0.2, t = 0.2)
movej(p[0.442835389137361, -0.104113602286375, 0.378233462070614, -1.1632212720769, 1.0977947065044, -1.20845936490154], a = 0.2, v = 0.2, t = 0.2)
movej(p[0.442920134600677, -0.104213982812255, 0.377994347264984, -1.15830770988486, 1.08813971189619, -1.2109503885251], a = 0.2, v = 0.2, t = 0.2)
movej(p[0.443211346217652, -0.104187733823198, 0.377724321191685, -1.16453237767014, 1.09124751525896, -1.20847428519008], a = 0.2, v = 0.2, t = 0.2)
movej(p[0.443646681377043, -0.104255006308838, 0.377012964295252, -1.18097242753476, 1.10433281109413, -1.18593875292727], a = 0.2, v = 0.2, t = 0.2)
movej(p[0.443447796694069, -0.104638530496173, 0.376799357598009, -1.2025615992151, 1.12810561130105, -1.15571378053295], a = 0.2, v = 0.2, t = 0.2)
movej(p[0.44273026796439, -0.105114628775575, 0.376631538995241, -1.20708535419515, 1.14364240010341, -1.1500933924552], a = 0.2, v = 0.2, t = 0.2)
movej(p[0.442086863384809, -0.105382046625615, 0.376591449388685, -1.20662529161536, 1.15510911853632, -1.15291632599497], a = 0.2, v = 0.2, t = 0.2)
movej(p[0.441678473915027, -0.105522454877868, 0.376507201993055, -1.20283153745921, 1.16412238870212, -1.15752876760811], a = 0.2, v = 0.2, t = 0.2)
movej(p[0.441579544623149, -0.105492069391114, 0.376878873161433, -1.1922478997919, 1.16395369916348, -1.16757370322301], a = 0.2, v = 0.2, t = 0.2)
movej(p[0.441698986259361, -0.105307659331859, 0.377445372327879, -1.17868877910873, 1.14871981433197, -1.1913119132022], a = 0.2, v = 0.2, t = 0.2)
movej(p[0.442372406451806, -0.104987064488577, 0.377546229084065, -1.17155667282202, 1.13182768907893, -1.20054013162619], a = 0.2, v = 0.2, t = 0.2)
movej(p[0.442868283919604, -0.104867075584209, 0.377616880769525, -1.17918856150546, 1.12752169049923, -1.1819394359174], a = 0.2, v = 0.2, t = 0.2)
movej(p[0.44313784169799, -0.104772509740704, 0.37745601347032, -1.17047663949836, 1.11800715703186, -1.18316417998706], a = 0.2, v = 0.2, t = 0.2)
movej(p[0.443292465486369, -0.104619091716297, 0.377405788077702, -1.16140554792041, 1.11081705812157, -1.19513413384612], a = 0.2, v = 0.2, t = 0.2)
movej(p[0.44380267790116, -0.10455828149805, 0.376776376726534, -1.16772618309287, 1.11146775480391, -1.20004283951709], a = 0.2, v = 0.2, t = 0.2)
movej(p[0.443996235474906, -0.104748362404797, 0.376429136769825, -1.18926955159405, 1.12507190317481, -1.17234088090687], a = 0.2, v = 0.2, t = 0.2)
movej(p[0.443584831215148, -0.105189158316077, 0.375995478260683, -1.20358699027699, 1.1362416563548, -1.15705216634123], a = 0.2, v = 0.2, t = 0.2)
movej(p[0.442872925101078, -0.105510359383598, 0.375755517323291, -1.20498187164532, 1.14873628167585, -1.15943381587558], a = 0.2, v = 0.2, t = 0.2)
movej(p[0.442392383795565, -0.105669029025527, 0.375315124339666, -1.19918534972167, 1.15818224623957, -1.16732765205962], a = 0.2, v = 0.2, t = 0.2)
movej(p[0.442127916221199, -0.105829313152048, 0.375588500108334, -1.19665499390606, 1.16773835678574, -1.17032195273515], a = 0.2, v = 0.2, t = 0.2)
movej(p[0.44210082369754, -0.105754617861098, 0.376080090332679, -1.17768735662429, 1.15392651896357, -1.18766247929963], a = 0.2, v = 0.2, t = 0.2)
movej(p[0.442382363201972, -0.105468924296342, 0.376509863095195, -1.16478398077523, 1.14034469367951, -1.20902066051342], a = 0.2, v = 0.2, t = 0.2)
movej(p[0.442987290753851, -0.105158148108528, 0.376353907561579, -1.1670746344117, 1.1303197363215, -1.20217101427338], a = 0.2, v = 0.2, t = 0.2)
movej(p[0.443304512058264, -0.105114512909777, 0.376377176912275, -1.1753855565486, 1.12854996909583, -1.18410473142481], a = 0.2, v = 0.2, t = 0.2)
movej(p[0.443419484383583, -0.105064681472909, 0.376381968103295, -1.17302256500232, 1.12212269880416, -1.18750244996262], a = 0.2, v = 0.2, t = 0.2)
movej(p[0.443699154984358, -0.104900285925975, 0.376145556633975, -1.16833186941641, 1.11206274732561, -1.19548988177507], a = 0.2, v = 0.2, t = 0.2)
movej(p[0.444189489621712, -0.104858358784658, 0.37546318921159, -1.17901124281999, 1.11043580091161, -1.18682059275559], a = 0.2, v = 0.2, t = 0.2)
movej(p[0.444212378679499, -0.10508561155936, 0.375212183633317, -1.1937789069394, 1.12210650313176, -1.16544810258302], a = 0.2, v = 0.2, t = 0.2)
movej(p[0.443760281955759, -0.105502809492936, 0.375191876821551, -1.20177332910465, 1.13800171664382, -1.16328407527153], a = 0.2, v = 0.2, t = 0.2)
movej(p[0.443224099981784, -0.105777300827155, 0.375045153847475, -1.20433976281635, 1.15815495196205, -1.16403128256111], a = 0.2, v = 0.2, t = 0.2)
movej(p[0.442917053127745, -0.106142127998281, 0.374790044802883, -1.21070719285718, 1.16703251766879, -1.15688830873293], a = 0.2, v = 0.2, t = 0.2)
movej(p[0.442652566281944, -0.106381303336402, 0.374893592287801, -1.20793941158581, 1.16936681184853, -1.15396416921699], a = 0.2, v = 0.2, t = 0.2)
movej(p[0.442554037092925, -0.106340579215537, 0.375409056241334, -1.19966936080115, 1.15644609127855, -1.17441217654866], a = 0.2, v = 0.2, t = 0.2)
movej(p[0.443095484905868, -0.105959652599931, 0.375370538319774, -1.18642527639541, 1.1443075157013, -1.19248971653485], a = 0.2, v = 0.2, t = 0.2)
movej(p[0.443580904188263, -0.105769732911763, 0.375226346637023, -1.18897739580009, 1.13624482927204, -1.18479938886951], a = 0.2, v = 0.2, t = 0.2)
movej(p[0.443942461488988, -0.105617265077995, 0.375205804880333, -1.18025981128876, 1.13035161105508, -1.17777640934703], a = 0.2, v = 0.2, t = 0.2)
movej(p[0.443984929651395, -0.105415569585233, 0.375276544302025, -1.1693123149742, 1.12367436663705, -1.18378887095441], a = 0.2, v = 0.2, t = 0.2)
movej(p[0.444348082506791, -0.105154616956637, 0.374760200048986, -1.16432965869492, 1.12360240133151, -1.1860177189467], a = 0.2, v = 0.2, t = 0.2)
movej(p[0.444681130629112, -0.105141322315342, 0.374042469417877, -1.17201780232352, 1.1268805230668, -1.17596295992037], a = 0.2, v = 0.2, t = 0.2)
movej(p[0.444701483151243, -0.105352096099915, 0.373937265251708, -1.1800234964501, 1.13095369152893, -1.15951976792059], a = 0.2, v = 0.2, t = 0.2)
movej(p[0.444482214699734, -0.105607063821836, 0.373726866603777, -1.18034512845816, 1.13099752274476, -1.17051478315115], a = 0.2, v = 0.2, t = 0.2)
movej(p[0.444423871792127, -0.105885145354409, 0.37328544246661, -1.18989385437426, 1.1389472975181, -1.17054070556391], a = 0.2, v = 0.2, t = 0.2)
movej(p[0.444201624017482, -0.106194535414139, 0.372696793259947, -1.20089316485135, 1.1494470900037, -1.15699958155521], a = 0.2, v = 0.2, t = 0.2)
movej(p[0.443861667373631, -0.106515634814507, 0.372833780997666, -1.19890335985315, 1.15153018191581, -1.16252926081616], a = 0.2, v = 0.2, t = 0.2)
movej(p[0.443587067570992, -0.106385920717403, 0.373301007402, -1.18088686290528, 1.14858025611142, -1.18253421495703], a = 0.2, v = 0.2, t = 0.2)
movej(p[0.443780792205212, -0.106091665036183, 0.373347353259963, -1.17063444694904, 1.14942391114023, -1.19335137401701], a = 0.2, v = 0.2, t = 0.2)
movej(p[0.444064839755157, -0.105873390076537, 0.373352722008605, -1.1752290266535, 1.15396365867783, -1.17563714083656], a = 0.2, v = 0.2, t = 0.2)
movej(p[0.444185178489413, -0.105938533081808, 0.373527104118931, -1.17423405997697, 1.15012999884607, -1.16974676813187], a = 0.2, v = 0.2, t = 0.2)
movej(p[0.444295112596952, -0.105895224007893, 0.373798253922022, -1.16982030911224, 1.14048139278884, -1.18281777548479], a = 0.2, v = 0.2, t = 0.2)
movej(p[0.444711157941895, -0.10579802282071, 0.373450934121606, -1.17107027663298, 1.13565659165897, -1.18158663384073], a = 0.2, v = 0.2, t = 0.2)
movej(p[0.444968010398541, -0.105751253714663, 0.373116635039593, -1.17950832304044, 1.14371277057812, -1.16111933659546], a = 0.2, v = 0.2, t = 0.2)
movej(p[0.44502986393165, -0.105792553574259, 0.372794625673208, -1.17413742190009, 1.14879630564433, -1.15597484189544], a = 0.2, v = 0.2, t = 0.2)
movej(p[0.444924070947342, -0.105928946158722, 0.372688674328834, -1.17224514310503, 1.15618803874547, -1.16069174430891], a = 0.2, v = 0.2, t = 0.2)
movej(p[0.444983766753658, -0.106113088032269, 0.372298109851296, -1.18213579217102, 1.17139658256594, -1.15065626059463], a = 0.2, v = 0.2, t = 0.2)
movej(p[0.444785420014172, -0.106445607359276, 0.372025501926609, -1.19611475547803, 1.18305838692539, -1.12897816405231], a = 0.2, v = 0.2, t = 0.2)
movej(p[0.444306963870944, -0.10680719277435, 0.372438730496548, -1.20091725562951, 1.18278234291158, -1.133491827806], a = 0.2, v = 0.2, t = 0.2)
movej(p[0.444049531361155, -0.106867509302274, 0.372705077382137, -1.1855600113325, 1.16844972081894, -1.164856307328], a = 0.2, v = 0.2, t = 0.2)
movej(p[0.444265080327437, -0.106779985980599, 0.372717171136644, -1.187787243917, 1.16555910161233, -1.16234621703826], a = 0.2, v = 0.2, t = 0.2)
movej(p[0.444553490764917, -0.106595443413306, 0.372381557664315, -1.18376827250696, 1.16515941777054, -1.15126302538816], a = 0.2, v = 0.2, t = 0.2)
movej(p[0.444691495404304, -0.10649527470514, 0.372145500993339, -1.17214712445634, 1.15458275510683, -1.1600811298075], a = 0.2, v = 0.2, t = 0.2)
movej(p[0.444868416941595, -0.106403618561168, 0.372084802039355, -1.16465688889348, 1.14814019832093, -1.18114997670157], a = 0.2, v = 0.2, t = 0.2)
movej(p[0.445240334206453, -0.106352105871602, 0.371746373995431, -1.17290030449682, 1.14786710829508, -1.1705297079029], a = 0.2, v = 0.2, t = 0.2)
movej(p[0.445379627301948, -0.106459269830866, 0.371508355846161, -1.18453250250859, 1.158120295014, -1.15178439397222], a = 0.2, v = 0.2, t = 0.2)
movej(p[0.445286357109706, -0.106592170409203, 0.371223579236312, -1.18462597941999, 1.15901287721305, -1.15332331833655], a = 0.2, v = 0.2, t = 0.2)
movej(p[0.445183466889413, -0.10667198648765, 0.370946112956938, -1.17861540071513, 1.16408539107898, -1.16678308854745], a = 0.2, v = 0.2, t = 0.2)
movej(p[0.445293721205013, -0.106737355134294, 0.370412886929885, -1.18835081601311, 1.17701531042739, -1.15068159127981], a = 0.2, v = 0.2, t = 0.2)
movej(p[0.445125976151536, -0.10689533657388, 0.370210305608484, -1.19651879667318, 1.19110098929917, -1.12512866591463], a = 0.2, v = 0.2, t = 0.2)
movej(p[0.444488129324672, -0.107148028945861, 0.370861153178581, -1.20097078171008, 1.19854601791342, -1.11594671409969], a = 0.2, v = 0.2, t = 0.2)
movej(p[0.444007954853428, -0.107183199647807, 0.371344723005277, -1.1923741608266, 1.20205176184308, -1.13406733432081], a = 0.2, v = 0.2, t = 0.2)
movej(p[0.443914473792824, -0.107209062726244, 0.37144347979359, -1.19444187378826, 1.20061941933071, -1.13506700500212], a = 0.2, v = 0.2, t = 0.2)
movej(p[0.444170111971343, -0.107217249556876, 0.371269567089329, -1.19041059736178, 1.18906191939993, -1.1438580197962], a = 0.2, v = 0.2, t = 0.2)
movej(p[0.444347947437664, -0.107150263902363, 0.371521834098484, -1.17990919628627, 1.17491156010028, -1.15494933338144], a = 0.2, v = 0.2, t = 0.2)
movej(p[0.44460976903989, -0.106934756330603, 0.371632601797844, -1.1657422972026, 1.16826630523945, -1.17244586803777], a = 0.2, v = 0.2, t = 0.2)
movej(p[0.445029537996355, -0.10669740190577, 0.371472117151222, -1.16767527663863, 1.17137694954183, -1.15657533376806], a = 0.2, v = 0.2, t = 0.2)
