def moving():
set_payload_mass(0.62)
set_tcp(p[0,0.005,0.058,0,0,0])
movej(p[0.4431, -0.1037, 0.3786, -1.201, 1.094, -1.2], a = 0.2, v = 0.2, t = 0.2)
movej(p[0.444342861276817, -0.104837080408716, 0.379960089699507, -1.201, 1.094, -1.2], a = 0.2, v = 0.2, t = 0.2)
movej(p[0.445585722553633, -0.105974160817432, 0.381320179399014, -1.201, 1.094, -1.2], a = 0.2, v = 0.2, t = 0.2)
movej(p[0.446828583830449, -0.107111241226148, 0.38268026909852, -1.201, 1.094, -1.2], a = 0.2, v = 0.2, t = 0.2)
movej(p[0.448071445107266, -0.108248321634864, 0.384040358798027, -1.201, 1.094, -1.2], a = 0.2, v = 0.2, t = 0.2)
movej(p[0.446828583830449, -0.107111241226148, 0.38268026909852, -1.201, 1.094, -1.2], a = 0.2, v = 0.2, t = 0.2)
movej(p[0.445585722553633, -0.105974160817432, 0.381320179399014, -1.201, 1.094, -1.2], a = 0.2, v = 0.2, t = 0.2)
movej(p[0.444342861276817, -0.104837080408716, 0.379960089699507, -1.201, 1.094, -1.2], a = 0.2, v = 0.2, t = 0.2)
movej(p[0.4431, -0.1037, 0.3786, -1.201, 1.094, -1.2], a = 0.2, v = 0.2, t = 0.2)
movej(p[0.443975238996062, -0.103759606429758, 0.378535360542979, -1.19598538078896, 1.12810959767673, -1.19015789474757], a = 0.2, v = 0.2, t = 0.2)
movej(p[0.445490692617545, -0.103820714985495, 0.378180763368498, -1.19666882782274, 1.14349332414727, -1.18375048400741], a = 0.2, v = 0.2, t = 0.2)
movej(p[0.446838866948427, -0.103888997625263, 0.377835198644085, -1.19457033239983, 1.14238744746419, -1.17774682255608], a = 0.2, v = 0.2, t = 0.2)
movej(p[0.447886859509642, -0.103871130749246, 0.377521106641038, -1.18184160266296, 1.11057391857185, -1.18445075204819], a = 0.2, v = 0.2, t = 0.2)
movej(p[0.448902511472675, -0.103843718737079, 0.377337979135794, -1.1899240823975, 1.08713933701768, -1.21500640753606], a = 0.2, v = 0.2, t = 0.2)
movej(p[0.449934451997664, -0.103813491400517, 0.377385953540534, -1.19344401716912, 1.08970661167042, -1.22667530911883], a = 0.2, v = 0.2, t = 0.2)
movej(p[0.45043155340889, -0.103715816692564, 0.377105162061882, -1.19615547051801, 1.09541900398676, -1.22764883204981], a = 0.2, v = 0.2, t = 0.2)
movej(p[0.449691244697219, -0.10366563061382, 0.376559640422601, -1.15994942636526, 1.08515280550384, -1.21501311490165], a = 0.2, v = 0.2, t = 0.2)
movej(p[0.447366677031021, -0.10356697921118, 0.376131021423928, -1.15545907624882, 1.075366127087, -1.18187423376483], a = 0.2, v = 0.2, t = 0.2)
movej(p[0.44435433682631, -0.103662773549682, 0.375861744149291, -1.15681977995592, 1.06564155531611, -1.15567991279113], a = 0.2, v = 0.2, t = 0.2)
movej(p[0.441240344010537, -0.103572494765795, 0.376021633749639, -1.20093059893083, 1.05674982584149, -1.14173876536901], a = 0.2, v = 0.2, t = 0.2)
movej(p[0.438334747798404, -0.103707024822239, 0.376461379765489, -1.21185081408358, 1.06191867472579, -1.12557710351908], a = 0.2, v = 0.2, t = 0.2)
movej(p[0.436170730442186, -0.103669004947533, 0.377057603330279, -1.22053756169027, 1.05313937788685, -1.13533218129251], a = 0.2, v = 0.2, t = 0.2)
movej(p[0.435382109901831, -0.103815657434529, 0.377766078853772, -1.20894255775679, 1.09138012394049, -1.10925397154754], a = 0.2, v = 0.2, t = 0.2)
movej(p[0.436543086794695, -0.103815086218285, 0.378107032502306, -1.21039154158631, 1.12902620952619, -1.10344832373737], a = 0.2, v = 0.2, t = 0.2)
movej(p[0.438762935242092, -0.103851353664416, 0.37844323170448, -1.21568271053182, 1.17456755250356, -1.08265606488973], a = 0.2, v = 0.2, t = 0.2)
movej(p[0.441294225408752, -0.10396900002367, 0.378186426290161, -1.19428891588471, 1.16859293409136, -1.11490880003929], a = 0.2, v = 0.2, t = 0.2)
movej(p[0.443384142111463, -0.103925351489359, 0.378160549578978, -1.1844122315232, 1.15958165371823, -1.1354019948977], a = 0.2, v = 0.2, t = 0.2)
movej(p[0.445129825542712, -0.103961868816776, 0.377971736314708, -1.18055159298963, 1.14989277420893, -1.1559549594112], a = 0.2, v = 0.2, t = 0.2)
movej(p[0.446540276564723, -0.103800736919988, 0.378044746179418, -1.18402902234783, 1.12622178987897, -1.17250744978731], a = 0.2, v = 0.2, t = 0.2)
movej(p[0.447764625265253, -0.103807607639298, 0.377714431090866, -1.17638059500369, 1.10762351599632, -1.19486100245963], a = 0.2, v = 0.2, t = 0.2)
movej(p[0.448842499239702, -0.103760064896714, 0.377441553571761, -1.1573587913568, 1.11808153029513, -1.20326184327161], a = 0.2, v = 0.2, t = 0.2)
movej(p[0.449558073183328, -0.103843362335094, 0.377035247626858, -1.1601275720059, 1.13626337643681, -1.18446039932632], a = 0.2, v = 0.2, t = 0.2)
movej(p[0.449547387811202, -0.103766977261082, 0.376595726179269, -1.14378623587172, 1.11593553439253, -1.18816007745674], a = 0.2, v = 0.2, t = 0.2)
movej(p[0.448224404279988, -0.103734774606093, 0.375905874258891, -1.1212962653222, 1.07181711440093, -1.1889452089674], a = 0.2, v = 0.2, t = 0.2)
movej(p[0.445997625548114, -0.103758801407623, 0.375426618480646, -1.13744629005672, 1.03117531553472, -1.21429132967986], a = 0.2, v = 0.2, t = 0.2)
movej(p[0.443323111817796, -0.103759526437008, 0.375255850429784, -1.1606620874712, 1.0447526600421, -1.18688231416657], a = 0.2, v = 0.2, t = 0.2)
movej(p[0.440702156313404, -0.103770973018086, 0.375793528879846, -1.18692305228013, 1.0423424847056, -1.17398262083045], a = 0.2, v = 0.2, t = 0.2)
movej(p[0.4386164507761, -0.10371701854356, 0.376442736592707, -1.17631044961617, 1.0647948754627, -1.14351480926052], a = 0.2, v = 0.2, t = 0.2)
movej(p[0.437521327198225, -0.103772895621042, 0.377231756212927, -1.18999877706012, 1.10385274228108, -1.12791732193421], a = 0.2, v = 0.2, t = 0.2)
movej(p[0.43799443682891, -0.103762070939103, 0.377599120875918, -1.2148690178727, 1.12654270108786, -1.13519049141763], a = 0.2, v = 0.2, t = 0.2)
movej(p[0.439434669681804, -0.103748997818626, 0.377851700207147, -1.22369505944531, 1.14313830583539, -1.13143062540441], a = 0.2, v = 0.2, t = 0.2)
movej(p[0.441664563399113, -0.10368164319707, 0.377465338975059, -1.2256377051211, 1.12719352266708, -1.15633349471081], a = 0.2, v = 0.2, t = 0.2)
movej(p[0.443651626180294, -0.103744074848268, 0.377304664320384, -1.19926602650475, 1.12932455310906, -1.16476479564533], a = 0.2, v = 0.2, t = 0.2)
movej(p[0.445300050350085, -0.103766652380415, 0.377042623671145, -1.183497055165, 1.14487610770814, -1.16847013311372], a = 0.2, v = 0.2, t = 0.2)
movej(p[0.446568582022491, -0.103802869116765, 0.37723755365604, -1.1481149390307, 1.15073638957012, -1.16619760129541], a = 0.2, v = 0.2, t = 0.2)
movej(p[0.447690910696993, -0.103795851743442, 0.377108577212988, -1.12876857134519, 1.1496169902427, -1.16451768799557], a = 0.2, v = 0.2, t = 0.2)
movej(p[0.448699493537787, -0.103824992383232, 0.376844154353219, -1.1563516365805, 1.15283607271739, -1.1889972345436], a = 0.2, v = 0.2, t = 0.2)
movej(p[0.449585733116112, -0.10386421018517, 0.376840511837478, -1.14720051405493, 1.1624649297434, -1.19937083178103], a = 0.2, v = 0.2, t = 0.2)
movej(p[0.450304927608464, -0.103966050872178, 0.376624948823394, -1.15559681101012, 1.1704925534875, -1.20258416138029], a = 0.2, v = 0.2, t = 0.2)
movej(p[0.450226964951817, -0.103908174584084, 0.3766865306149, -1.14362124924046, 1.14514053217666, -1.21036483759251], a = 0.2, v = 0.2, t = 0.2)
movej(p[0.448980313423029, -0.103768670006528, 0.376084101843168, -1.15190109223753, 1.10203996119529, -1.2077865800163], a = 0.2, v = 0.2, t = 0.2)
movej(p[0.446569430758812, -0.103640086808527, 0.375802660583448, -1.16507316680816, 1.07015794702825, -1.19247587200692], a = 0.2, v = 0.2, t = 0.2)
movej(p[0.443745592031366, -0.103668688463446, 0.375621372852766, -1.17173050373557, 1.08282436433001, -1.14507415303073], a = 0.2, v = 0.2, t = 0.2)
movej(p[0.440894128921643, -0.103852139208682, 0.375931780565675, -1.16120806975635, 1.08953104848939, -1.10514493801067], a = 0.2, v = 0.2, t = 0.2)
movej(p[0.438483223858286, -0.103813382404652, 0.376586235671259, -1.16837685569304, 1.09147729402546, -1.09064960146603], a = 0.2, v = 0.2, t = 0.2)
movej(p[0.437376265304376, -0.103781393767639, 0.376977152589706, -1.19457985435783, 1.09946206968395, -1.10478216153431], a = 0.2, v = 0.2, t = 0.2)
movej(p[0.437879598229202, -0.103778177912643, 0.377419344883581, -1.22655156150731, 1.12273808741859, -1.11561856912301], a = 0.2, v = 0.2, t = 0.2)
movej(p[0.439747142238634, -0.10390449608012, 0.377420375480625, -1.24353371538603, 1.14333411860935, -1.12693665689923], a = 0.2, v = 0.2, t = 0.2)
movej(p[0.44202410518626, -0.103944674029654, 0.377533405977384, -1.22809768480659, 1.1324963729052, -1.14761835445036], a = 0.2, v = 0.2, t = 0.2)
movej(p[0.444192669704393, -0.103857857754657, 0.377423214509524, -1.22415790846844, 1.13236029851302, -1.16516462099305], a = 0.2, v = 0.2, t = 0.2)
movej(p[0.445816714068962, -0.103911739863151, 0.377326259402408, -1.20386937687684, 1.12522086635051, -1.1879499773268], a = 0.2, v = 0.2, t = 0.2)
movej(p[0.447011042288158, -0.103909538826728, 0.377275449121235, -1.18382278617138, 1.1349323790484, -1.17897720370771], a = 0.2, v = 0.2, t = 0.2)
movej(p[0.447943212400707, -0.104010512618327, 0.377244119601918, -1.18084582418406, 1.13772536889049, -1.18368919230841], a = 0.2, v = 0.2, t = 0.2)
movej(p[0.448707655595977, -0.104029084415493, 0.377041208740568, -1.17585866772115, 1.14588820521881, -1.18517917323665], a = 0.2, v = 0.2, t = 0.2)
movej(p[0.449316206169711, -0.10399658545714, 0.376846100275055, -1.15838130929655, 1.14696632003102, -1.18239975289948], a = 0.2, v = 0.2, t = 0.2)
movej(p[0.449637249408922, -0.103968211709669, 0.376412379632923, -1.15624135769254, 1.12859519828132, -1.18659590302237], a = 0.2, v = 0.2, t = 0.2)
movej(p[0.44894683583391, -0.103943784308464, 0.376017581566679, -1.14675810395162, 1.10790725023008, -1.18691649530499], a = 0.2, v = 0.2, t = 0.2)
movej(p[0.447361275335504, -0.103944964789304, 0.375560949510468, -1.16720926869682, 1.07256786062635, -1.19302831143808], a = 0.2, v = 0.2, t = 0.2)
movej(p[0.445013530756497, -0.103969320929758, 0.375415950570243, -1.14644598762278, 1.08078695252107, -1.16320644581008], a = 0.2, v = 0.2, t = 0.2)
movej(p[0.442581467979069, -0.103760931178737, 0.375534711158, -1.14414370010991, 1.07272221174398, -1.15500428517099], a = 0.2, v = 0.2, t = 0.2)
movej(p[0.44039357270092, -0.103648993430003, 0.376078355478143, -1.15798626913029, 1.10523117100671, -1.13194654565094], a = 0.2, v = 0.2, t = 0.2)
movej(p[0.438940718679511, -0.103627125117261, 0.37655355357302, -1.19035398251336, 1.10037748910882, -1.13614755640327], a = 0.2, v = 0.2, t = 0.2)
movej(p[0.438575523418013, -0.103697808252498, 0.377327281688944, -1.22327472086842, 1.11752894001443, -1.12760982304746], a = 0.2, v = 0.2, t = 0.2)
movej(p[0.439500450016354, -0.10379306104934, 0.37751722096865, -1.23413235761371, 1.11703518532138, -1.14404441048553], a = 0.2, v = 0.2, t = 0.2)
movej(p[0.441283894698781, -0.103799726778173, 0.377494235312035, -1.23353261045535, 1.14214757530274, -1.15042890889729], a = 0.2, v = 0.2, t = 0.2)
movej(p[0.443185828214824, -0.103880924274285, 0.377207119064941, -1.21907808737474, 1.15276636263187, -1.15053621052186], a = 0.2, v = 0.2, t = 0.2)
movej(p[0.44484653430218, -0.103939782121466, 0.376933629093499, -1.18431913471266, 1.14409093649358, -1.16500088845547], a = 0.2, v = 0.2, t = 0.2)
movej(p[0.446154938028157, -0.104025426118191, 0.377004094345735, -1.18927972014789, 1.14488699899395, -1.17847786782453], a = 0.2, v = 0.2, t = 0.2)
movej(p[0.447237923534977, -0.104019488563788, 0.376711889888091, -1.16708668695874, 1.1510289615125, -1.17977932720887], a = 0.2, v = 0.2, t = 0.2)
movej(p[0.448182443922733, -0.103956057113353, 0.376597655763992, -1.19276203044224, 1.16821149668666, -1.18192051868159], a = 0.2, v = 0.2, t = 0.2)
movej(p[0.448877870447804, -0.103934525841234, 0.376110455609898, -1.18390296279973, 1.15398079797438, -1.17782526712208], a = 0.2, v = 0.2, t = 0.2)
movej(p[0.449240054570992, -0.103966484936129, 0.375965559150094, -1.17397325214855, 1.10232314645895, -1.19942631324065], a = 0.2, v = 0.2, t = 0.2)
movej(p[0.448520095060089, -0.10413058495152, 0.375592653513225, -1.15656012233171, 1.03847579613244, -1.21570190584937], a = 0.2, v = 0.2, t = 0.2)
movej(p[0.44691638480801, -0.104016202365079, 0.37525889910682, -1.1631029537086, 1.04002355099421, -1.20705988321987], a = 0.2, v = 0.2, t = 0.2)
movej(p[0.444651748797018, -0.103953401419488, 0.375035927143218, -1.1928805127467, 1.04240128632792, -1.17973991960198], a = 0.2, v = 0.2, t = 0.2)
movej(p[0.44214653031205, -0.103782354746129, 0.375054634818303, -1.20762587269169, 1.08426955922335, -1.12567724737996], a = 0.2, v = 0.2, t = 0.2)
movej(p[0.439751822309858, -0.103869226682542, 0.3755472940293, -1.20091158271745, 1.0737007568058, -1.11237231943883], a = 0.2, v = 0.2, t = 0.2)
movej(p[0.437348554082834, -0.103837429774036, 0.376312811303101, -1.20788040087298, 1.08221699701486, -1.10809769130371], a = 0.2, v = 0.2, t = 0.2)
movej(p[0.435941472133201, -0.103847127623958, 0.377182877397846, -1.21526709396699, 1.09800860672825, -1.10766301423866], a = 0.2, v = 0.2, t = 0.2)
movej(p[0.435996658988174, -0.103832910250521, 0.377982586925944, -1.21497382286679, 1.12394703377154, -1.09148607068483], a = 0.2, v = 0.2, t = 0.2)
movej(p[0.437704119548667, -0.103922693137679, 0.378014228607858, -1.21165224676906, 1.15355258786712, -1.10115387084241], a = 0.2, v = 0.2, t = 0.2)
movej(p[0.440225907607508, -0.103897475523022, 0.377818992755997, -1.23224934601521, 1.15379847808688, -1.13322388795202], a = 0.2, v = 0.2, t = 0.2)
movej(p[0.442678927255376, -0.103869260533545, 0.377709137560496, -1.23962306592534, 1.15178811685978, -1.15675122373967], a = 0.2, v = 0.2, t = 0.2)
movej(p[0.444731869627547, -0.103843106482985, 0.377525880662442, -1.22780438139693, 1.14078733929808, -1.18706626710579], a = 0.2, v = 0.2, t = 0.2)
movej(p[0.446329202495496, -0.103875745551593, 0.377564360541222, -1.19156724932176, 1.13456598502916, -1.1941607105535], a = 0.2, v = 0.2, t = 0.2)
movej(p[0.447452854340498, -0.103865031192906, 0.377225046318352, -1.1722159318431, 1.13529970350258, -1.1998047205013], a = 0.2, v = 0.2, t = 0.2)
movej(p[0.448491639675797, -0.103810672989845, 0.377087486332065, -1.16459520658749, 1.14199291510334, -1.18982767031024], a = 0.2, v = 0.2, t = 0.2)
movej(p[0.449336797652681, -0.103910111117238, 0.376877953630727, -1.14628502267325, 1.14280038333913, -1.18946195060495], a = 0.2, v = 0.2, t = 0.2)
movej(p[0.449684582675163, -0.10392320210762, 0.376769351201161, -1.12041715251156, 1.12023969855298, -1.19086768638323], a = 0.2, v = 0.2, t = 0.2)
movej(p[0.449146802811708, -0.103956906176586, 0.376248576013295, -1.11323765658545, 1.06389983718999, -1.21352957115099], a = 0.2, v = 0.2, t = 0.2)
movej(p[0.447352424360981, -0.103898163698246, 0.375942141013817, -1.10773180339068, 1.05804800502175, -1.18514234836622], a = 0.2, v = 0.2, t = 0.2)
movej(p[0.444913706728956, -0.103806673505449, 0.375414763602968, -1.13745171260538, 1.03138845420227, -1.19359005859577], a = 0.2, v = 0.2, t = 0.2)
movej(p[0.442193380243969, -0.1036923520093, 0.375722339774016, -1.14448827000373, 1.0533928008593, -1.15672401811615], a = 0.2, v = 0.2, t = 0.2)
movej(p[0.439754239026385, -0.103624312864732, 0.375951850479412, -1.16607318375291, 1.03402121990133, -1.1550838284064], a = 0.2, v = 0.2, t = 0.2)
movej(p[0.437743693830412, -0.103654928876089, 0.376778590732694, -1.20043154002161, 1.05686187916185, -1.12477267548496], a = 0.2, v = 0.2, t = 0.2)
movej(p[0.436534776698883, -0.103686355643011, 0.37729852447599, -1.22410927727148, 1.07492557255959, -1.1206049809081], a = 0.2, v = 0.2, t = 0.2)
movej(p[0.436928068788407, -0.1037151155203, 0.377903036221596, -1.2501749872451, 1.11935191270644, -1.12617504181243], a = 0.2, v = 0.2, t = 0.2)
movej(p[0.438643610868698, -0.103708842375258, 0.377950350931801, -1.22862482000604, 1.15604882861508, -1.12425402683783], a = 0.2, v = 0.2, t = 0.2)
movej(p[0.441061563198917, -0.103879910983097, 0.377906698970494, -1.19784917031733, 1.16941668413708, -1.1169528320177], a = 0.2, v = 0.2, t = 0.2)
movej(p[0.443375004531818, -0.103931370235026, 0.377774022091807, -1.17477843917574, 1.17625485456437, -1.12356940930828], a = 0.2, v = 0.2, t = 0.2)
movej(p[0.445230434355816, -0.10394007720506, 0.377534383555275, -1.17368909077372, 1.16302355838591, -1.16619791443721], a = 0.2, v = 0.2, t = 0.2)
movej(p[0.446631817003242, -0.103812026315874, 0.377361962891283, -1.18583638244249, 1.14479022481121, -1.20586921388009], a = 0.2, v = 0.2, t = 0.2)
movej(p[0.44776234611364, -0.103891445075569, 0.377037189187372, -1.17187844406138, 1.14089932075635, -1.2015920838809], a = 0.2, v = 0.2, t = 0.2)
movej(p[0.448763734186466, -0.104089107464787, 0.377025677454648, -1.14760597401761, 1.15226358878192, -1.18401128437862], a = 0.2, v = 0.2, t = 0.2)
movej(p[0.449730218295076, -0.104199573524298, 0.376735070176693, -1.12627955790657, 1.1494938232859, -1.18258648207804], a = 0.2, v = 0.2, t = 0.2)
movej(p[0.450345341148109, -0.104092849610516, 0.376471469031014, -1.10420731349087, 1.12935292372782, -1.18802848122695], a = 0.2, v = 0.2, t = 0.2)
movej(p[0.449869140632248, -0.103900128341148, 0.375951312721212, -1.11947239092377, 1.08695365197898, -1.20219414524826], a = 0.2, v = 0.2, t = 0.2)
movej(p[0.448182355112873, -0.103767098452667, 0.375485244993518, -1.13648787899358, 1.06902503482062, -1.19449080358294], a = 0.2, v = 0.2, t = 0.2)
movej(p[0.44552170874096, -0.103638732379451, 0.375243084049156, -1.17855729590333, 1.05188281233705, -1.19395116161901], a = 0.2, v = 0.2, t = 0.2)
movej(p[0.44250836898451, -0.10353721730295, 0.375583314625147, -1.1907639603757, 1.0458893452359, -1.17979258700516], a = 0.2, v = 0.2, t = 0.2)
movej(p[0.439555431942773, -0.103504207831783, 0.376291411690632, -1.21365602073543, 1.06769190727252, -1.15266393224771], a = 0.2, v = 0.2, t = 0.2)
movej(p[0.437047524468202, -0.103560740082592, 0.377150159736111, -1.22025818841626, 1.09475965277776, -1.12790479245436], a = 0.2, v = 0.2, t = 0.2)
movej(p[0.435832253610074, -0.103670115436725, 0.37765493858877, -1.23095514760002, 1.11791154694391, -1.11028006093564], a = 0.2, v = 0.2, t = 0.2)
movej(p[0.436089382558827, -0.103767113065824, 0.378115390964031, -1.23853152114876, 1.13354078724978, -1.11574738305144], a = 0.2, v = 0.2, t = 0.2)
movej(p[0.437873263200188, -0.10378388261782, 0.378222790865233, -1.25573492385464, 1.15159034080425, -1.12286330964995], a = 0.2, v = 0.2, t = 0.2)
movej(p[0.440411615164972, -0.103773224723502, 0.378300416457798, -1.25419729962346, 1.17645838990669, -1.13502946935564], a = 0.2, v = 0.2, t = 0.2)
movej(p[0.442956580752785, -0.103805561892191, 0.378000212624873, -1.22732917383617, 1.17290211275837, -1.15153707052593], a = 0.2, v = 0.2, t = 0.2)
movej(p[0.444966530462802, -0.103999086704344, 0.378055918924685, -1.22275538484574, 1.14015399931107, -1.18002405154525], a = 0.2, v = 0.2, t = 0.2)
movej(p[0.446591453586932, -0.104003709707286, 0.37782132171027, -1.18656457640204, 1.12184683404787, -1.1995824240165], a = 0.2, v = 0.2, t = 0.2)
movej(p[0.447743439276971, -0.103928738778601, 0.377964549078807, -1.18386107290043, 1.12659111056719, -1.20760847858699], a = 0.2, v = 0.2, t = 0.2)
movej(p[0.44874733752496, -0.103857418707132, 0.377496613322434, -1.13304925500788, 1.13708152052879, -1.19874628747104], a = 0.2, v = 0.2, t = 0.2)
movej(p[0.449605391997771, -0.103875375937159, 0.377227881787854, -1.12485021552584, 1.1474816747238, -1.18543329595596], a = 0.2, v = 0.2, t = 0.2)
movej(p[0.450409040448775, -0.103910819283731, 0.376960693178849, -1.12768033145957, 1.1516274482309, -1.18655321640412], a = 0.2, v = 0.2, t = 0.2)
movej(p[0.451192349919953, -0.103839397978134, 0.376843011056715, -1.12004401503707, 1.13356177640464, -1.1991290499014], a = 0.2, v = 0.2, t = 0.2)
movej(p[0.451149942195917, -0.103905584162252, 0.376924603399334, -1.11461144582851, 1.10272217293491, -1.20580256602315], a = 0.2, v = 0.2, t = 0.2)
movej(p[0.450197283414073, -0.103853917311651, 0.376579835383961, -1.11460821882794, 1.07374862913664, -1.20365537659245], a = 0.2, v = 0.2, t = 0.2)
movej(p[0.448125443313117, -0.103878446431551, 0.375896088754025, -1.16204577610891, 1.06323799243241, -1.18263691671998], a = 0.2, v = 0.2, t = 0.2)
movej(p[0.445769226149576, -0.10377216533196, 0.37535964525933, -1.195413030864, 1.04605038474162, -1.19175528203168], a = 0.2, v = 0.2, t = 0.2)
movej(p[0.443438087558061, -0.103736885692675, 0.375066662136819, -1.1998527183454, 1.0608032265438, -1.17856073802221], a = 0.2, v = 0.2, t = 0.2)
movej(p[0.441456897904054, -0.103681784363975, 0.375796249710869, -1.16875990868533, 1.07962585874548, -1.1686061847208], a = 0.2, v = 0.2, t = 0.2)
movej(p[0.440524947712092, -0.103672799245502, 0.376281880627665, -1.17230022520585, 1.12425719837543, -1.13954517387053], a = 0.2, v = 0.2, t = 0.2)
movej(p[0.441071875737284, -0.103711281845009, 0.376752244109236, -1.18465751956, 1.13828182008778, -1.13741522059674], a = 0.2, v = 0.2, t = 0.2)
movej(p[0.442912755714834, -0.103758690046666, 0.37685647868536, -1.20094171002354, 1.13412737289672, -1.17585279221834], a = 0.2, v = 0.2, t = 0.2)
movej(p[0.445166790917263, -0.103696965892461, 0.376882974001679, -1.20355247152723, 1.1388261073123, -1.19558239779643], a = 0.2, v = 0.2, t = 0.2)
movej(p[0.447068800521301, -0.103693190845403, 0.377075963807539, -1.17777589224265, 1.14353246996716, -1.19358229157701], a = 0.2, v = 0.2, t = 0.2)
movej(p[0.44869873899643, -0.103642363179853, 0.37701715903044, -1.17812385761156, 1.17080177669095, -1.17877158863775], a = 0.2, v = 0.2, t = 0.2)
movej(p[0.450101685098918, -0.103743576752067, 0.376961919766199, -1.19286891792789, 1.15515082011166, -1.19922045207874], a = 0.2, v = 0.2, t = 0.2)
movej(p[0.451327318421143, -0.103808549650948, 0.376615474523392, -1.19541575201279, 1.15173099740639, -1.20984680630663], a = 0.2, v = 0.2, t = 0.2)
movej(p[0.452284874247522, -0.103830625535973, 0.37654114221031, -1.18982698860032, 1.1549337515108, -1.20176336491675], a = 0.2, v = 0.2, t = 0.2)
movej(p[0.452958508516071, -0.103938718825741, 0.376229751197365, -1.14586587916203, 1.16505073618444, -1.19408262787481], a = 0.2, v = 0.2, t = 0.2)
movej(p[0.453411438088721, -0.103892937512665, 0.376112160355492, -1.12396728399967, 1.17889835488658, -1.19185071065327], a = 0.2, v = 0.2, t = 0.2)
movej(p[0.453521579613413, -0.103786047165375, 0.376008538354475, -1.10936277626189, 1.1508376976745, -1.2129645084724], a = 0.2, v = 0.2, t = 0.2)
movej(p[0.452891438351786, -0.103824185200588, 0.375699532750051, -1.12487210074404, 1.09973583354066, -1.24001664844602], a = 0.2, v = 0.2, t = 0.2)
movej(p[0.451257729422702, -0.103807037729897, 0.37531392150569, -1.13255722418276, 1.0530910727765, -1.2567532255873], a = 0.2, v = 0.2, t = 0.2)
movej(p[0.448872734975998, -0.103933160288407, 0.374738338698591, -1.13717648381828, 1.04160417096118, -1.24451008092221], a = 0.2, v = 0.2, t = 0.2)
movej(p[0.446115232449879, -0.103747645876754, 0.374811790040438, -1.15836519905808, 1.06509734949544, -1.2062176302229], a = 0.2, v = 0.2, t = 0.2)
movej(p[0.443641731126979, -0.103772724871294, 0.375017447196085, -1.18437303648709, 1.06187182841898, -1.17646239945073], a = 0.2, v = 0.2, t = 0.2)
movej(p[0.441786856838874, -0.103736178573385, 0.375846829997691, -1.18296011631412, 1.09067155682821, -1.13427738703062], a = 0.2, v = 0.2, t = 0.2)
movej(p[0.441317236714901, -0.103798476436159, 0.376244494936871, -1.16505839461718, 1.11266063536362, -1.11926688323148], a = 0.2, v = 0.2, t = 0.2)
movej(p[0.442216468271076, -0.103682792642573, 0.376509199312887, -1.18252492853516, 1.18317029231429, -1.10600994046911], a = 0.2, v = 0.2, t = 0.2)
movej(p[0.444230089975494, -0.103676195910554, 0.376302831359404, -1.20541767525119, 1.18335282507564, -1.1501669013709], a = 0.2, v = 0.2, t = 0.2)
movej(p[0.446606598396919, -0.103639098711131, 0.376488886887768, -1.22275835736706, 1.1978768618822, -1.18178833567915], a = 0.2, v = 0.2, t = 0.2)
movej(p[0.448701462468358, -0.103790481657367, 0.376644485068619, -1.19025210032219, 1.16581986471608, -1.20476746258767], a = 0.2, v = 0.2, t = 0.2)
movej(p[0.450244409604789, -0.103815419734955, 0.376661110187173, -1.17915149940193, 1.16033253738756, -1.21277217981115], a = 0.2, v = 0.2, t = 0.2)
movej(p[0.451386039786234, -0.103708781685267, 0.376583472360876, -1.17913582838662, 1.16716085717233, -1.21589210713366], a = 0.2, v = 0.2, t = 0.2)
movej(p[0.452109592747659, -0.10358409188817, 0.376410142887003, -1.18270074358672, 1.17281470009833, -1.22602499069913], a = 0.2, v = 0.2, t = 0.2)
movej(p[0.452634829651797, -0.103605152819984, 0.376394228802607, -1.16523818803722, 1.14126653743909, -1.23760561701577], a = 0.2, v = 0.2, t = 0.2)
movej(p[0.452830305127019, -0.10376693680285, 0.375859532233444, -1.1409871775522, 1.06872553530671, -1.25499499440952], a = 0.2, v = 0.2, t = 0.2)
movej(p[0.452106907344375, -0.103896773347676, 0.375448914830874, -1.10946630648887, 1.00096878998761, -1.26974992477499], a = 0.2, v = 0.2, t = 0.2)
movej(p[0.450433890565836, -0.103868657014414, 0.375018748938885, -1.1167504935674, 0.986650354717783, -1.27736637701717], a = 0.2, v = 0.2, t = 0.2)
movej(p[0.44777101647265, -0.103831972557113, 0.374642566965721, -1.1150472549629, 1.02163516499192, -1.24158294220137], a = 0.2, v = 0.2, t = 0.2)
movej(p[0.444768822531317, -0.103747914409338, 0.374810266543394, -1.14052868658848, 1.05072250713885, -1.20197029336559], a = 0.2, v = 0.2, t = 0.2)
movej(p[0.441843836652323, -0.103849369184825, 0.375147966565552, -1.1565896455036, 1.07116149597983, -1.14608627630065], a = 0.2, v = 0.2, t = 0.2)
movej(p[0.439266561285796, -0.103788952972792, 0.375979215761271, -1.1960264360816, 1.06576770302785, -1.13066766196412], a = 0.2, v = 0.2, t = 0.2)
movej(p[0.437964169168425, -0.103720214779681, 0.376730905949792, -1.21812738945308, 1.08938765659643, -1.10814631930896], a = 0.2, v = 0.2, t = 0.2)
movej(p[0.438416098012224, -0.103708168589504, 0.377315334408668, -1.23386922294199, 1.11101871544718, -1.11757187157022], a = 0.2, v = 0.2, t = 0.2)
movej(p[0.440481818952716, -0.103745891233558, 0.377434234106896, -1.23072709508027, 1.1407569516039, -1.13115510248], a = 0.2, v = 0.2, t = 0.2)
movej(p[0.443100112163544, -0.103864507644348, 0.377223355265557, -1.24544564774898, 1.14218383904451, -1.16310626141194], a = 0.2, v = 0.2, t = 0.2)
movej(p[0.445573011238993, -0.10374808553534, 0.376791011205257, -1.23221488183412, 1.16116274712948, -1.1803419248356], a = 0.2, v = 0.2, t = 0.2)
movej(p[0.447590042482502, -0.103746627116672, 0.37685341026073, -1.2221226841136, 1.16463515703547, -1.19015958112364], a = 0.2, v = 0.2, t = 0.2)
movej(p[0.449219233251141, -0.103706897630865, 0.376762307814345, -1.20228927017501, 1.1699367104053, -1.19959833537212], a = 0.2, v = 0.2, t = 0.2)
movej(p[0.450360662487265, -0.103834496974068, 0.376946189869304, -1.18605203781283, 1.14973195413255, -1.21187608251036], a = 0.2, v = 0.2, t = 0.2)
movej(p[0.451298868219591, -0.103837601662099, 0.376677143383279, -1.17173024221087, 1.12077613656175, -1.23705754152968], a = 0.2, v = 0.2, t = 0.2)
movej(p[0.45195851572702, -0.103805481397527, 0.376743819485795, -1.14226632021011, 1.1129575612027, -1.24024419200326], a = 0.2, v = 0.2, t = 0.2)
movej(p[0.451742831714886, -0.103749845954074, 0.37672158917222, -1.1346120072614, 1.10534047467063, -1.23155081389041], a = 0.2, v = 0.2, t = 0.2)
movej(p[0.45045429732594, -0.103885259011678, 0.376503602785642, -1.13055733672095, 1.10107314942214, -1.1940035768223], a = 0.2, v = 0.2, t = 0.2)
movej(p[0.448036443792908, -0.103970976626353, 0.375661931246239, -1.13829824283813, 1.0634764581531, -1.18489950435341], a = 0.2, v = 0.2, t = 0.2)
movej(p[0.445201369898716, -0.104044536192861, 0.374937602488877, -1.14358149605313, 1.04904710107532, -1.17318195847757], a = 0.2, v = 0.2, t = 0.2)
movej(p[0.442129199481654, -0.103945281047678, 0.374877830863646, -1.17673619340798, 1.06307223800487, -1.15002833788268], a = 0.2, v = 0.2, t = 0.2)
movej(p[0.439266651727298, -0.103802195737662, 0.375533255840428, -1.18391627493829, 1.09405774429382, -1.10292525993061], a = 0.2, v = 0.2, t = 0.2)
movej(p[0.437399877058275, -0.103781845483345, 0.376749357120193, -1.21245114099323, 1.12535661035674, -1.06715657574432], a = 0.2, v = 0.2, t = 0.2)
movej(p[0.436806044999067, -0.103869010657933, 0.377509665105285, -1.21040438996611, 1.16117471685254, -1.05233181590777], a = 0.2, v = 0.2, t = 0.2)
movej(p[0.437994202332789, -0.103898399264831, 0.377862936327163, -1.24211359220905, 1.18789540726451, -1.08532739669951], a = 0.2, v = 0.2, t = 0.2)
movej(p[0.440318131911963, -0.103793979819738, 0.377620837384116, -1.23884935284639, 1.21310454450797, -1.11276701318307], a = 0.2, v = 0.2, t = 0.2)
movej(p[0.443028775377533, -0.10367582624207, 0.377599815843966, -1.23183271503265, 1.20454458467206, -1.15927887386098], a = 0.2, v = 0.2, t = 0.2)
movej(p[0.445419359288133, -0.103832458584678, 0.377505342119429, -1.18561332574093, 1.16487530516251, -1.1841574546464], a = 0.2, v = 0.2, t = 0.2)
movej(p[0.447174815220222, -0.103870503916133, 0.377653605280219, -1.14870983457903, 1.16497718454388, -1.18254249308914], a = 0.2, v = 0.2, t = 0.2)
movej(p[0.448528327609474, -0.103922103760227, 0.377697856914444, -1.12246791846815, 1.16297121328049, -1.17968347950884], a = 0.2, v = 0.2, t = 0.2)
movej(p[0.449573722635419, -0.103806510807011, 0.377427099026661, -1.11973569504754, 1.18722768719955, -1.16587110732801], a = 0.2, v = 0.2, t = 0.2)
movej(p[0.450452809893676, -0.103869291553157, 0.377047697382118, -1.11777110474854, 1.17926072615234, -1.17376031702634], a = 0.2, v = 0.2, t = 0.2)
movej(p[0.45116556428569, -0.103835153683226, 0.376452902177865, -1.12122907963801, 1.15136451951405, -1.19722218167658], a = 0.2, v = 0.2, t = 0.2)
movej(p[0.450947248799624, -0.103752322579361, 0.376166181374858, -1.12408933064469, 1.14047262009657, -1.18948310639714], a = 0.2, v = 0.2, t = 0.2)
movej(p[0.449602794986097, -0.103650721891154, 0.375876548077313, -1.12582508532053, 1.11363115630081, -1.17598996863588], a = 0.2, v = 0.2, t = 0.2)
movej(p[0.446955943401298, -0.103801118690432, 0.375402751081424, -1.12924846759996, 1.0859872208301, -1.15538407978161], a = 0.2, v = 0.2, t = 0.2)
movej(p[0.443963603098617, -0.103934052447588, 0.375374605892416, -1.13838952103837, 1.05273678659119, -1.15238131728574], a = 0.2, v = 0.2, t = 0.2)
movej(p[0.440794697982176, -0.103930859019924, 0.375456001272591, -1.15656955110834, 1.0342707319768, -1.1389639309117], a = 0.2, v = 0.2, t = 0.2)
movej(p[0.437917634603037, -0.103770314188221, 0.3762975477332, -1.15321911779955, 1.04459244309203, -1.1228659645515], a = 0.2, v = 0.2, t = 0.2)
movej(p[0.436030904213627, -0.103582796652301, 0.37694648776818, -1.18779729230183, 1.06976690100161, -1.12218617200818], a = 0.2, v = 0.2, t = 0.2)
movej(p[0.436097292947656, -0.103612687517498, 0.377455865713101, -1.22382257250711, 1.10747083196739, -1.12473808067813], a = 0.2, v = 0.2, t = 0.2)
movej(p[0.437883661191334, -0.103677512562167, 0.377840100146831, -1.24603956038504, 1.1456229478112, -1.13447396612652], a = 0.2, v = 0.2, t = 0.2)
movej(p[0.440494334041108, -0.103814804102112, 0.378084577984098, -1.2287976619111, 1.16797572129313, -1.13671135035449], a = 0.2, v = 0.2, t = 0.2)
movej(p[0.443101829475905, -0.103792470543704, 0.378098974973022, -1.21271318130039, 1.1751012056102, -1.14607893298099], a = 0.2, v = 0.2, t = 0.2)
movej(p[0.44532788961468, -0.103804888178388, 0.37784363516301, -1.18844551038488, 1.17202640273618, -1.1528533229691], a = 0.2, v = 0.2, t = 0.2)
movej(p[0.447079735221498, -0.103799634292503, 0.377735414744153, -1.17310519446891, 1.1714239001573, -1.16580969352005], a = 0.2, v = 0.2, t = 0.2)
movej(p[0.44844354623367, -0.103760600629547, 0.377798071653865, -1.1388540589695, 1.17892032868047, -1.16115279734746], a = 0.2, v = 0.2, t = 0.2)
movej(p[0.449469932592924, -0.103708304970382, 0.377897087923584, -1.12780964840032, 1.16073401289278, -1.17470515265891], a = 0.2, v = 0.2, t = 0.2)
movej(p[0.450439279511923, -0.103724333298675, 0.377587686089525, -1.11973962932877, 1.16674738515015, -1.16372396122699], a = 0.2, v = 0.2, t = 0.2)
movej(p[0.450914716564718, -0.103753325032346, 0.37713450404199, -1.12030032204934, 1.10279621891128, -1.21001401795505], a = 0.2, v = 0.2, t = 0.2)
movej(p[0.45038167719284, -0.10389549517708, 0.376420376589728, -1.1121675024285, 1.0618877172779, -1.22154085113014], a = 0.2, v = 0.2, t = 0.2)
movej(p[0.44825657842235, -0.103848817137613, 0.375957993230174, -1.11862041770426, 1.00584606574941, -1.24078789630857], a = 0.2, v = 0.2, t = 0.2)
movej(p[0.445063127972324, -0.103860880242492, 0.375695932708294, -1.12897127243079, 1.02952679939796, -1.20137772956107], a = 0.2, v = 0.2, t = 0.2)
movej(p[0.441955850595773, -0.10377290706474, 0.375918019019709, -1.16988653118588, 1.05231952055621, -1.15899536356952], a = 0.2, v = 0.2, t = 0.2)
movej(p[0.439272993382334, -0.103657731943953, 0.376342860642611, -1.18169572620302, 1.04814535051512, -1.13558260082592], a = 0.2, v = 0.2, t = 0.2)
movej(p[0.437440511953341, -0.103645013241403, 0.376915888948286, -1.20614217163194, 1.07426776785677, -1.11313201874269], a = 0.2, v = 0.2, t = 0.2)
movej(p[0.436888511905229, -0.103577974611924, 0.377473297255312, -1.20479248081326, 1.08881171631726, -1.1143079565807], a = 0.2, v = 0.2, t = 0.2)
movej(p[0.437998466558518, -0.103720195314815, 0.377798286090676, -1.2250610668837, 1.15208003224622, -1.11243723731155], a = 0.2, v = 0.2, t = 0.2)
movej(p[0.440322822280218, -0.103711143735019, 0.37804296896279, -1.23712358912785, 1.16102802640258, -1.1320807227198], a = 0.2, v = 0.2, t = 0.2)
movej(p[0.442821060763495, -0.103756974092009, 0.377891027386988, -1.22431955618905, 1.1370415042867, -1.17875567781598], a = 0.2, v = 0.2, t = 0.2)
movej(p[0.445059118928276, -0.103756136564998, 0.377883883745861, -1.19757806077014, 1.1035181444387, -1.20524248344461], a = 0.2, v = 0.2, t = 0.2)
movej(p[0.446763468176154, -0.103838856262407, 0.377928960824471, -1.18417734066667, 1.09241576886255, -1.22519398821958], a = 0.2, v = 0.2, t = 0.2)
movej(p[0.447969130384723, -0.103865904437461, 0.377889201077804, -1.16093934528852, 1.10788761141532, -1.21727510112887], a = 0.2, v = 0.2, t = 0.2)
movej(p[0.448971447750221, -0.103866592858108, 0.377640284237678, -1.17417573631245, 1.13678964472713, -1.21398995043668], a = 0.2, v = 0.2, t = 0.2)
movej(p[0.449890807892612, -0.103948483990332, 0.377279744471292, -1.1831537845851, 1.14636643454177, -1.21155484187847], a = 0.2, v = 0.2, t = 0.2)
movej(p[0.450469213942611, -0.103987729396925, 0.377068128895574, -1.19316242692596, 1.14242669392496, -1.20717412839667], a = 0.2, v = 0.2, t = 0.2)
movej(p[0.450307078400564, -0.104082480819882, 0.376656839478311, -1.18457592450452, 1.11439521743814, -1.19978936739081], a = 0.2, v = 0.2, t = 0.2)
movej(p[0.448916317148714, -0.104102499982459, 0.375969612677988, -1.15542373793448, 1.07423504721063, -1.20602122731623], a = 0.2, v = 0.2, t = 0.2)
movej(p[0.446410958723001, -0.104100314865963, 0.37560578382526, -1.14345320400774, 1.0840569298128, -1.18413771060345], a = 0.2, v = 0.2, t = 0.2)
movej(p[0.443491067740437, -0.103998685996554, 0.375722047944588, -1.1341930136827, 1.08148421855839, -1.16374407554376], a = 0.2, v = 0.2, t = 0.2)
movej(p[0.440475108340935, -0.103830874631028, 0.376161483421827, -1.15502268911588, 1.10781667675839, -1.12212847046022], a = 0.2, v = 0.2, t = 0.2)
movej(p[0.437821660700685, -0.103766386577642, 0.376790023160447, -1.18291547835802, 1.11010615968219, -1.09984590921112], a = 0.2, v = 0.2, t = 0.2)
movej(p[0.435781611293631, -0.103736010335638, 0.3774190082493, -1.22453741025487, 1.11809747893556, -1.10117966910492], a = 0.2, v = 0.2, t = 0.2)
movej(p[0.435461638237585, -0.103723658590903, 0.377952599561844, -1.23665172211897, 1.1509446197239, -1.09010313356497], a = 0.2, v = 0.2, t = 0.2)
movej(p[0.436877369827693, -0.10375490524946, 0.37809661088336, -1.24616052912047, 1.17391963531771, -1.10273529932604], a = 0.2, v = 0.2, t = 0.2)
movej(p[0.439528735093049, -0.103843109816863, 0.377820214661333, -1.22953412308685, 1.18607028015926, -1.11620172177341], a = 0.2, v = 0.2, t = 0.2)
movej(p[0.442383322245744, -0.103907701681557, 0.377818926527699, -1.20390064241569, 1.16220690278976, -1.14783320106492], a = 0.2, v = 0.2, t = 0.2)
movej(p[0.444684603020083, -0.103988413317621, 0.377750173061169, -1.18703332584583, 1.13043636999981, -1.17657546885435], a = 0.2, v = 0.2, t = 0.2)
movej(p[0.44642766443402, -0.103859522800078, 0.377850479201214, -1.17151026448739, 1.14253446587212, -1.17760859703637], a = 0.2, v = 0.2, t = 0.2)
movej(p[0.447873379125057, -0.10384355960291, 0.377825198612686, -1.16440964597419, 1.15724483480547, -1.17204641265311], a = 0.2, v = 0.2, t = 0.2)
movej(p[0.449134427464219, -0.103786442086531, 0.377550934760674, -1.17048879965752, 1.17022301397914, -1.17958510231881], a = 0.2, v = 0.2, t = 0.2)
movej(p[0.450291678229617, -0.10394383648213, 0.37746030857065, -1.17317171335291, 1.15749283555199, -1.19225685796996], a = 0.2, v = 0.2, t = 0.2)
movej(p[0.450896584189481, -0.10390652329325, 0.377256444371348, -1.17999878777466, 1.12966862345353, -1.21803841460941], a = 0.2, v = 0.2, t = 0.2)
movej(p[0.450483234684704, -0.103856118048579, 0.376838071898772, -1.14761780866345, 1.12168563156828, -1.20902205812015], a = 0.2, v = 0.2, t = 0.2)
movej(p[0.448561989281984, -0.103804446656001, 0.376001442183894, -1.13618683721083, 1.09198325919309, -1.19934709189612], a = 0.2, v = 0.2, t = 0.2)
movej(p[0.445673839149316, -0.103892957556862, 0.37519819622872, -1.13508909295256, 1.0784527648875, -1.17045425793586], a = 0.2, v = 0.2, t = 0.2)
movej(p[0.442263635211271, -0.103926517170442, 0.375383156780667, -1.13584758266052, 1.05830524792964, -1.13885992896317], a = 0.2, v = 0.2, t = 0.2)
movej(p[0.438950254788409, -0.103850190663932, 0.375995156193983, -1.15335232768365, 1.06410619435108, -1.1042243228874], a = 0.2, v = 0.2, t = 0.2)
movej(p[0.436041099672897, -0.103734242090696, 0.376784493171358, -1.17296014144189, 1.09005197779867, -1.0664673318327], a = 0.2, v = 0.2, t = 0.2)
movej(p[0.434770750560761, -0.103654133685487, 0.37711642526217, -1.22642143625452, 1.1235721084691, -1.05725717049749], a = 0.2, v = 0.2, t = 0.2)
movej(p[0.435553431480507, -0.103742693773286, 0.377530459536614, -1.23966331041448, 1.15562111865759, -1.06525028247869], a = 0.2, v = 0.2, t = 0.2)
movej(p[0.437816184522738, -0.103775918384122, 0.377856969479968, -1.244733341511, 1.156287471348, -1.10409671871045], a = 0.2, v = 0.2, t = 0.2)
movej(p[0.440588297295465, -0.103795411218743, 0.378387855207369, -1.2212202360086, 1.15661829619438, -1.13435074570697], a = 0.2, v = 0.2, t = 0.2)
movej(p[0.443042597308034, -0.103789880165979, 0.378461182028726, -1.20723134642885, 1.15179939339523, -1.15646536020475], a = 0.2, v = 0.2, t = 0.2)
movej(p[0.445173666073027, -0.103844016589327, 0.378163475331309, -1.20029787128325, 1.16292357907532, -1.17217017665269], a = 0.2, v = 0.2, t = 0.2)
movej(p[0.446835261627283, -0.103982465502831, 0.377810604987946, -1.18050710361658, 1.17745267721128, -1.16157115721774], a = 0.2, v = 0.2, t = 0.2)
movej(p[0.448229240453192, -0.10392716771475, 0.377593380879817, -1.1806044557015, 1.19400059561166, -1.17139890535745], a = 0.2, v = 0.2, t = 0.2)
movej(p[0.449562740095799, -0.103814734820605, 0.377793121509336, -1.15351162236702, 1.19365725469265, -1.16395258257272], a = 0.2, v = 0.2, t = 0.2)
movej(p[0.450618639679846, -0.103686423420367, 0.377818791635519, -1.11831521908622, 1.17381008797272, -1.18172348068428], a = 0.2, v = 0.2, t = 0.2)
movej(p[0.450946378595843, -0.103778228463348, 0.377426070314575, -1.06726112933531, 1.123956236493, -1.18996355386954], a = 0.2, v = 0.2, t = 0.2)
movej(p[0.44986863577124, -0.103859043195185, 0.376486521602674, -1.04967279389571, 1.07585607441907, -1.19584120811795], a = 0.2, v = 0.2, t = 0.2)
movej(p[0.447423614722392, -0.10393485344573, 0.375589269848982, -1.09551896175951, 1.04927864214387, -1.18360687317935], a = 0.2, v = 0.2, t = 0.2)
movej(p[0.444428430539293, -0.103820365751301, 0.375306525741988, -1.14722576303818, 1.06042441496537, -1.15913726976254], a = 0.2, v = 0.2, t = 0.2)
movej(p[0.440998549868526, -0.103656933110073, 0.375717860321233, -1.2013232263084, 1.08461978266813, -1.12770527324943], a = 0.2, v = 0.2, t = 0.2)
movej(p[0.438042850766118, -0.103614862602741, 0.376530425485411, -1.18929476770994, 1.10590083569995, -1.08712082992917], a = 0.2, v = 0.2, t = 0.2)
movej(p[0.436331490919144, -0.103584516039318, 0.377228367957578, -1.22798180312321, 1.13157161079256, -1.07510836319682], a = 0.2, v = 0.2, t = 0.2)
movej(p[0.436257883895737, -0.103724882056399, 0.377689882276266, -1.2380122163761, 1.1480738099486, -1.08736038977592], a = 0.2, v = 0.2, t = 0.2)
movej(p[0.437859531915114, -0.103789611857322, 0.378102085390031, -1.24410868402159, 1.16702533354396, -1.10663517782089], a = 0.2, v = 0.2, t = 0.2)
movej(p[0.440208239035449, -0.103896975229131, 0.378132432346463, -1.22187380851334, 1.14329461166999, -1.14012708958969], a = 0.2, v = 0.2, t = 0.2)
movej(p[0.442736874999277, -0.103971900575999, 0.378176914804771, -1.18521466822618, 1.13278570025856, -1.15272562898946], a = 0.2, v = 0.2, t = 0.2)
movej(p[0.444989218213181, -0.103978751883839, 0.377992568029208, -1.18450458482569, 1.11804682321725, -1.17646189633569], a = 0.2, v = 0.2, t = 0.2)
movej(p[0.446651134898072, -0.10395325937073, 0.378082951879864, -1.14145936363679, 1.13680073324751, -1.16250307297255], a = 0.2, v = 0.2, t = 0.2)
movej(p[0.448101117522244, -0.103997846553109, 0.377976661855569, -1.14269666872801, 1.14457706950646, -1.18003376094474], a = 0.2, v = 0.2, t = 0.2)
movej(p[0.449301026522915, -0.103927383223972, 0.377805139740795, -1.1397858748614, 1.16238366982227, -1.18033725713191], a = 0.2, v = 0.2, t = 0.2)
movej(p[0.450383298541403, -0.10390292267402, 0.377244790396998, -1.16772609140834, 1.16158491184871, -1.20271765521212], a = 0.2, v = 0.2, t = 0.2)
movej(p[0.451152675735384, -0.103850261258088, 0.376850865012879, -1.14654135484287, 1.14279662238992, -1.19690289616071], a = 0.2, v = 0.2, t = 0.2)
movej(p[0.450676054317513, -0.103829308116463, 0.376432739804381, -1.12067723070968, 1.08805488231867, -1.21175295084251], a = 0.2, v = 0.2, t = 0.2)
movej(p[0.448896397802285, -0.103801545271258, 0.37586677327725, -1.11106216637289, 1.03959255229797, -1.21923859459896], a = 0.2, v = 0.2, t = 0.2)
movej(p[0.44582857917734, -0.103805385683674, 0.375522094625063, -1.13935330240145, 1.02307444903564, -1.20995594875003], a = 0.2, v = 0.2, t = 0.2)
movej(p[0.442473179962768, -0.103891043909602, 0.375326508599676, -1.17000344045755, 1.04454016936939, -1.18263864212186], a = 0.2, v = 0.2, t = 0.2)
movej(p[0.43921360813224, -0.10393933027666, 0.375987947602928, -1.18778831221103, 1.08072569513363, -1.13294024792273], a = 0.2, v = 0.2, t = 0.2)
movej(p[0.436511957887707, -0.103878280143393, 0.376867093024993, -1.22183382168103, 1.0945742938031, -1.10139932079151], a = 0.2, v = 0.2, t = 0.2)
movej(p[0.435585485876866, -0.103653841013565, 0.377602775402537, -1.24095521789223, 1.11385738211093, -1.08866638651748], a = 0.2, v = 0.2, t = 0.2)
movej(p[0.436422860336406, -0.10364224319305, 0.377905565993983, -1.26161406338605, 1.13172256716796, -1.10456612467626], a = 0.2, v = 0.2, t = 0.2)
movej(p[0.439032504568092, -0.103682269343791, 0.377756843293012, -1.25490814812315, 1.15354190157748, -1.13678632863581], a = 0.2, v = 0.2, t = 0.2)
movej(p[0.441864279699782, -0.103857183912097, 0.377750409463941, -1.24577013435756, 1.14655928750096, -1.16939459802169], a = 0.2, v = 0.2, t = 0.2)
movej(p[0.444370966602513, -0.103827934861013, 0.377900242918696, -1.21341260057043, 1.15377645370319, -1.17330222218634], a = 0.2, v = 0.2, t = 0.2)
movej(p[0.446047824139482, -0.103746624396191, 0.377987805332541, -1.18991416882985, 1.14267440469763, -1.17119489397714], a = 0.2, v = 0.2, t = 0.2)
movej(p[0.44744735154016, -0.103709272455915, 0.377653069136247, -1.1740016869813, 1.15251605241559, -1.16901816680614], a = 0.2, v = 0.2, t = 0.2)
movej(p[0.448601878020066, -0.103775565726054, 0.377286165369666, -1.16987035873318, 1.14150251236303, -1.18307023612702], a = 0.2, v = 0.2, t = 0.2)
movej(p[0.449688232034627, -0.103797466223109, 0.376987258640276, -1.14234222990722, 1.16395683742393, -1.18314495271603], a = 0.2, v = 0.2, t = 0.2)
movej(p[0.450442430715444, -0.103806844310109, 0.376868909479577, -1.11577990479325, 1.18545462885168, -1.16859194448919], a = 0.2, v = 0.2, t = 0.2)
movej(p[0.45016474605237, -0.103765403077114, 0.376453722178951, -1.08242243370724, 1.16315478029783, -1.17080773123971], a = 0.2, v = 0.2, t = 0.2)
movej(p[0.448613355649589, -0.103856250831474, 0.375858200321009, -1.06957715804473, 1.09329593189763, -1.18725951690553], a = 0.2, v = 0.2, t = 0.2)
movej(p[0.44598871430527, -0.103884865695581, 0.375410290665338, -1.05767457380865, 1.04802465849834, -1.17886805910102], a = 0.2, v = 0.2, t = 0.2)
movej(p[0.44314301432164, -0.103805126457839, 0.375597488054029, -1.08622329121196, 1.06212908149683, -1.13885610517172], a = 0.2, v = 0.2, t = 0.2)
movej(p[0.440768626058825, -0.103662834338991, 0.376349622497079, -1.13040828800691, 1.1136307772554, -1.09942605444422], a = 0.2, v = 0.2, t = 0.2)
movej(p[0.439327320672692, -0.103573457600614, 0.377299795997521, -1.18321754364938, 1.13375762132724, -1.08433268067101], a = 0.2, v = 0.2, t = 0.2)
movej(p[0.439283385911959, -0.103675209721283, 0.377599595687212, -1.21703357514936, 1.12983427027105, -1.12379184548427], a = 0.2, v = 0.2, t = 0.2)
movej(p[0.440432784744719, -0.103720807439386, 0.37785944687742, -1.23056912743851, 1.14094925998375, -1.1525720031952], a = 0.2, v = 0.2, t = 0.2)
movej(p[0.442343064239322, -0.103771830377467, 0.377722360952982, -1.22315049147289, 1.16551289059442, -1.17980202710659], a = 0.2, v = 0.2, t = 0.2)
movej(p[0.444397422374042, -0.103765580455299, 0.377736271100566, -1.21808990253499, 1.18274160701037, -1.17879619771595], a = 0.2, v = 0.2, t = 0.2)
movej(p[0.446161021498514, -0.103905074051002, 0.377572026790407, -1.2058001868127, 1.17589981410576, -1.1825760183086], a = 0.2, v = 0.2, t = 0.2)
movej(p[0.447639955772802, -0.104000304447758, 0.377456918750848, -1.19582754694801, 1.16086561915942, -1.19413761308337], a = 0.2, v = 0.2, t = 0.2)
movej(p[0.448788573425012, -0.104044143933058, 0.37754294511983, -1.16015617572861, 1.18925806479815, -1.1702673009668], a = 0.2, v = 0.2, t = 0.2)
movej(p[0.449712638296127, -0.10395523125355, 0.37724806855414, -1.15987261848842, 1.18477474560994, -1.18770043433925], a = 0.2, v = 0.2, t = 0.2)
movej(p[0.450516032072026, -0.103868360416322, 0.376871133571701, -1.15310695338682, 1.18128579613776, -1.17795620927934], a = 0.2, v = 0.2, t = 0.2)
movej(p[0.450346775104552, -0.103870802774002, 0.376054568512229, -1.15486768591885, 1.12307479590988, -1.20941699749635], a = 0.2, v = 0.2, t = 0.2)
movej(p[0.448876146152012, -0.103846843942723, 0.375632835956745, -1.14712359396155, 1.10886986198895, -1.18577712632784], a = 0.2, v = 0.2, t = 0.2)
movej(p[0.44585261479166, -0.103878374490874, 0.375307629301834, -1.13994918633264, 1.09237131522805, -1.16318551984347], a = 0.2, v = 0.2, t = 0.2)
movej(p[0.442170982167776, -0.103857812678518, 0.375432382329335, -1.14830592943534, 1.08139162594235, -1.13162420713951], a = 0.2, v = 0.2, t = 0.2)
movej(p[0.438747231336524, -0.103905369720922, 0.375977537475122, -1.16744176868779, 1.05626851954869, -1.12247973463976], a = 0.2, v = 0.2, t = 0.2)
movej(p[0.436148102131832, -0.10387491948981, 0.376632388698182, -1.21103763841099, 1.07205623969441, -1.10487398205856], a = 0.2, v = 0.2, t = 0.2)
movej(p[0.435197365000388, -0.103778869410836, 0.377536511807566, -1.27088233451893, 1.12497715649091, -1.09719293091672], a = 0.2, v = 0.2, t = 0.2)
movej(p[0.436349663778718, -0.103540797439939, 0.377934268252055, -1.29367862397351, 1.18419684018751, -1.0897118287955], a = 0.2, v = 0.2, t = 0.2)
movej(p[0.438721979342846, -0.103576956554986, 0.378136773298407, -1.27456604056417, 1.1968857378554, -1.12047781013389], a = 0.2, v = 0.2, t = 0.2)
movej(p[0.441366669760124, -0.103695963700091, 0.378145970116826, -1.23103830235175, 1.1838269530061, -1.13346038587921], a = 0.2, v = 0.2, t = 0.2)
movej(p[0.443457759758218, -0.103943018916735, 0.378189207021227, -1.17623456881731, 1.17833953669603, -1.12753199309446], a = 0.2, v = 0.2, t = 0.2)
movej(p[0.445231751715775, -0.103946480250638, 0.37803653383763, -1.14541815072563, 1.15183683569793, -1.1442371314604], a = 0.2, v = 0.2, t = 0.2)
movej(p[0.44661220806238, -0.103973119495728, 0.377589894765629, -1.15576042522144, 1.1414734419295, -1.16515998170675], a = 0.2, v = 0.2, t = 0.2)
movej(p[0.447809965868727, -0.104060763057848, 0.37724079678031, -1.17699392248263, 1.11593099373008, -1.21002731247327], a = 0.2, v = 0.2, t = 0.2)
movej(p[0.448910468261816, -0.104113817383661, 0.377209687549861, -1.17673964939935, 1.12648651609333, -1.2065257395535], a = 0.2, v = 0.2, t = 0.2)
movej(p[0.44972886279134, -0.104045672160536, 0.377080191111645, -1.16149212926036, 1.12322638378825, -1.20937541681934], a = 0.2, v = 0.2, t = 0.2)
movej(p[0.450094254863494, -0.103856229487226, 0.376838023183265, -1.13776522063904, 1.11769930543869, -1.20269612674554], a = 0.2, v = 0.2, t = 0.2)
movej(p[0.449532417654261, -0.103888229009184, 0.376166339309322, -1.12555813210932, 1.07033926504569, -1.20806981611871], a = 0.2, v = 0.2, t = 0.2)
movej(p[0.447981115198791, -0.103958878799747, 0.37549484444944, -1.09973303084659, 1.02936197825636, -1.1992041109852], a = 0.2, v = 0.2, t = 0.2)
movej(p[0.445584744934389, -0.103943439931313, 0.375078593257451, -1.11799822178743, 1.02106390348596, -1.18466099646748], a = 0.2, v = 0.2, t = 0.2)
movej(p[0.442779653977039, -0.103773660385155, 0.375300072711847, -1.15358045422431, 1.02750155601777, -1.17145229003316], a = 0.2, v = 0.2, t = 0.2)
movej(p[0.440089087517318, -0.103630542236695, 0.376156981420631, -1.19998033262829, 1.06991914872735, -1.14701819546825], a = 0.2, v = 0.2, t = 0.2)
movej(p[0.438421738889211, -0.103617161675173, 0.376778556467849, -1.22025079307923, 1.08252530782264, -1.13784412656999], a = 0.2, v = 0.2, t = 0.2)
movej(p[0.438426179952171, -0.103610306782856, 0.377211597714165, -1.23977135031815, 1.11767376433218, -1.12831995461438], a = 0.2, v = 0.2, t = 0.2)
movej(p[0.439905951014782, -0.103592149639946, 0.377252281412621, -1.23441794009462, 1.1504551424666, -1.12537017336448], a = 0.2, v = 0.2, t = 0.2)
movej(p[0.442180053630689, -0.103657185925189, 0.377358251947822, -1.21862389113065, 1.1681283562068, -1.13530367633266], a = 0.2, v = 0.2, t = 0.2)
movej(p[0.444335008178182, -0.103837933456238, 0.377360322372399, -1.18889807170104, 1.1886409353176, -1.14452459743857], a = 0.2, v = 0.2, t = 0.2)
movej(p[0.446251662944606, -0.103985345119202, 0.377329769310934, -1.17123868544007, 1.16407193742751, -1.17827951544502], a = 0.2, v = 0.2, t = 0.2)
movej(p[0.447676582335628, -0.103993382629227, 0.377074149090447, -1.16674275573581, 1.14125376885272, -1.19333363882913], a = 0.2, v = 0.2, t = 0.2)
movej(p[0.448809394227309, -0.104006050974645, 0.377006574163951, -1.15760624060347, 1.12630913372201, -1.20308366367292], a = 0.2, v = 0.2, t = 0.2)
movej(p[0.449648749253705, -0.103976262080267, 0.376836912933741, -1.16826946026241, 1.12431549720838, -1.20641601401776], a = 0.2, v = 0.2, t = 0.2)
movej(p[0.450486559495571, -0.103998509582893, 0.376718471035112, -1.17071526585761, 1.12324769201279, -1.22240465595803], a = 0.2, v = 0.2, t = 0.2)
movej(p[0.451007632608132, -0.10395362703118, 0.376459499862936, -1.17699758247932, 1.10512447705685, -1.2349909020694], a = 0.2, v = 0.2, t = 0.2)
movej(p[0.450628447129819, -0.104051936196877, 0.376029474564754, -1.14209028330978, 1.08070861032356, -1.22843694492143], a = 0.2, v = 0.2, t = 0.2)
movej(p[0.448844535623065, -0.104080027609972, 0.375482589559491, -1.11809072327993, 1.05963972466231, -1.21396763246807], a = 0.2, v = 0.2, t = 0.2)
movej(p[0.446301579888094, -0.104013076698036, 0.375035510430623, -1.12192175069332, 1.05525380000184, -1.19185017060119], a = 0.2, v = 0.2, t = 0.2)
movej(p[0.443869396501862, -0.103856557269079, 0.374964020090743, -1.1625921452522, 1.06110977549387, -1.17587893084012], a = 0.2, v = 0.2, t = 0.2)
movej(p[0.441654802484883, -0.103718633792194, 0.375328160214163, -1.19277290491795, 1.06172579140836, -1.16795574681669], a = 0.2, v = 0.2, t = 0.2)
movej(p[0.440093333492644, -0.103686434317403, 0.375883171576747, -1.20570524511135, 1.07509408053404, -1.15461370412691], a = 0.2, v = 0.2, t = 0.2)
movej(p[0.439538260372007, -0.103598132044475, 0.376531666063803, -1.20382967063494, 1.09311761632302, -1.15200601746274], a = 0.2, v = 0.2, t = 0.2)
movej(p[0.440516749294598, -0.103593810497587, 0.377019786777357, -1.21211203436671, 1.1382309430525, -1.13629666833499], a = 0.2, v = 0.2, t = 0.2)
movej(p[0.442527621178492, -0.103788361183857, 0.377095971406242, -1.20672297170632, 1.17039920742828, -1.13220587646212], a = 0.2, v = 0.2, t = 0.2)
movej(p[0.444808250254341, -0.103866757389705, 0.3771130505335, -1.19757705306979, 1.18485977562539, -1.14824970079777], a = 0.2, v = 0.2, t = 0.2)
movej(p[0.446717714137281, -0.103969049007816, 0.377239007288812, -1.1709052032292, 1.17483862855485, -1.16918959316734], a = 0.2, v = 0.2, t = 0.2)
movej(p[0.448154087780813, -0.103823357832097, 0.377549666505774, -1.1463224069913, 1.16396951635359, -1.17601607292937], a = 0.2, v = 0.2, t = 0.2)
movej(p[0.449332778392946, -0.103961583517804, 0.377243760109662, -1.15680503358342, 1.15010921909384, -1.18659339715437], a = 0.2, v = 0.2, t = 0.2)
movej(p[0.450342188961881, -0.103987081381129, 0.376919884096522, -1.15640749368522, 1.12669548798471, -1.19890237721051], a = 0.2, v = 0.2, t = 0.2)
movej(p[0.450828213678357, -0.104109645943824, 0.376451678166459, -1.16154939177966, 1.09964033779223, -1.23048408833564], a = 0.2, v = 0.2, t = 0.2)
movej(p[0.450436533594149, -0.103907869420134, 0.376117924548167, -1.16520944235242, 1.08739697330407, -1.23242873564929], a = 0.2, v = 0.2, t = 0.2)
movej(p[0.448808189854887, -0.103892174360821, 0.375709763544619, -1.17406162834833, 1.09126277150244, -1.21422219113258], a = 0.2, v = 0.2, t = 0.2)
movej(p[0.44636295119934, -0.103877433815842, 0.375241690462551, -1.1741774537315, 1.08268074192452, -1.18380076816036], a = 0.2, v = 0.2, t = 0.2)
movej(p[0.443325065798755, -0.10404276239268, 0.37531200622342, -1.15874601631967, 1.08807389734668, -1.15245668587748], a = 0.2, v = 0.2, t = 0.2)
movej(p[0.440097095767946, -0.10404249733389, 0.375553451032018, -1.17422471539804, 1.09333677116905, -1.13369446181333], a = 0.2, v = 0.2, t = 0.2)
movej(p[0.437162819018708, -0.103925050560779, 0.3763369079042, -1.19746267104668, 1.10710768853618, -1.11909173632886], a = 0.2, v = 0.2, t = 0.2)
movej(p[0.435277709249277, -0.103824202020344, 0.376872600759469, -1.22758340984273, 1.11620944126188, -1.10586787954256], a = 0.2, v = 0.2, t = 0.2)
movej(p[0.435077262917876, -0.103777466934697, 0.377751857865893, -1.23914289732708, 1.13154722567913, -1.08359915687637], a = 0.2, v = 0.2, t = 0.2)
movej(p[0.43669234065747, -0.103883944749535, 0.377956933370323, -1.24212409089263, 1.14655703935722, -1.08623061629462], a = 0.2, v = 0.2, t = 0.2)
movej(p[0.43922437932387, -0.103933531114616, 0.378097577407202, -1.2413302504885, 1.15064083760322, -1.10617868573515], a = 0.2, v = 0.2, t = 0.2)
movej(p[0.441988411719052, -0.103992115123365, 0.377792657400381, -1.22528218996723, 1.16084874451971, -1.13595439377699], a = 0.2, v = 0.2, t = 0.2)
movej(p[0.444236261103012, -0.104030641512488, 0.377575228683851, -1.21816951008322, 1.15420369822955, -1.15927316307717], a = 0.2, v = 0.2, t = 0.2)
movej(p[0.446026121670489, -0.104051213263288, 0.377490636744755, -1.19372958385745, 1.14402620124514, -1.18363259281395], a = 0.2, v = 0.2, t = 0.2)
movej(p[0.447384232770655, -0.104129526084172, 0.377414544946966, -1.18767140820714, 1.15755065473671, -1.16602157247163], a = 0.2, v = 0.2, t = 0.2)
movej(p[0.448361497693975, -0.104127099716181, 0.377482530716695, -1.17032036235407, 1.16822539941059, -1.16370047931412], a = 0.2, v = 0.2, t = 0.2)
movej(p[0.449342574379145, -0.104069417062498, 0.377359531545229, -1.17710839772961, 1.16202891977811, -1.17399063328116], a = 0.2, v = 0.2, t = 0.2)
movej(p[0.450187488948066, -0.103990725256512, 0.377125350160624, -1.17169850288653, 1.15965245886047, -1.19486033956458], a = 0.2, v = 0.2, t = 0.2)
movej(p[0.450781502229574, -0.10389333381036, 0.37680897639479, -1.16789365585164, 1.15997448811611, -1.19770719646615], a = 0.2, v = 0.2, t = 0.2)
movej(p[0.450561234242583, -0.10378321646198, 0.376156932879377, -1.17288182500056, 1.15045669330406, -1.18123027238368], a = 0.2, v = 0.2, t = 0.2)
movej(p[0.449162530715655, -0.103793060927004, 0.375624018030297, -1.16270773463052, 1.09508279247328, -1.19800347606427], a = 0.2, v = 0.2, t = 0.2)
movej(p[0.446990912722085, -0.103712623574712, 0.375035120216701, -1.16390535662405, 1.04015529246848, -1.20720396153254], a = 0.2, v = 0.2, t = 0.2)
movej(p[0.44448152955706, -0.103717044429286, 0.374982751095277, -1.16461708235341, 1.03375249038939, -1.19351623862177], a = 0.2, v = 0.2, t = 0.2)
movej(p[0.442040177262134, -0.10362538701871, 0.375466293891424, -1.17944066854964, 1.03994960140328, -1.16900042021704], a = 0.2, v = 0.2, t = 0.2)
movej(p[0.439777883775229, -0.103718178907387, 0.376176857417723, -1.18879171593162, 1.06398443842127, -1.13451940691595], a = 0.2, v = 0.2, t = 0.2)
movej(p[0.438605866703549, -0.103903991789189, 0.376924681584721, -1.1888846153828, 1.09119643029798, -1.11281527515635], a = 0.2, v = 0.2, t = 0.2)
movej(p[0.43883130281219, -0.103959970452888, 0.377294821288417, -1.19764779504903, 1.12146071001191, -1.10647173132423], a = 0.2, v = 0.2, t = 0.2)
movej(p[0.44053779464977, -0.103946632335987, 0.377183967487548, -1.22187371925104, 1.13971660672821, -1.12257708001784], a = 0.2, v = 0.2, t = 0.2)
movej(p[0.442778868373984, -0.103903460955778, 0.377162122847686, -1.23182769497378, 1.13519506342933, -1.14984492491198], a = 0.2, v = 0.2, t = 0.2)
movej(p[0.444914229249186, -0.104016765355355, 0.376932014085808, -1.2128771662439, 1.14104788615834, -1.16511625441854], a = 0.2, v = 0.2, t = 0.2)
movej(p[0.446598527418035, -0.10404055105673, 0.376838191062398, -1.19335962183717, 1.14274080973438, -1.18103791144858], a = 0.2, v = 0.2, t = 0.2)
movej(p[0.447860741972364, -0.104111653840238, 0.376890121699976, -1.16289453471772, 1.15745887262156, -1.18085161386188], a = 0.2, v = 0.2, t = 0.2)
movej(p[0.448936793061615, -0.104041386917718, 0.376790692162513, -1.16717869044888, 1.15150075672265, -1.19807447267632], a = 0.2, v = 0.2, t = 0.2)
movej(p[0.449879102216099, -0.104147654775, 0.376687476795513, -1.17010820092433, 1.1575500268051, -1.20350584260438], a = 0.2, v = 0.2, t = 0.2)
movej(p[0.450625317187013, -0.104115069816747, 0.376295322532397, -1.19432480729944, 1.14387087037385, -1.22231744241595], a = 0.2, v = 0.2, t = 0.2)
movej(p[0.451086865828922, -0.104123842331603, 0.376207871690576, -1.18518632848073, 1.15081729390483, -1.21480714574315], a = 0.2, v = 0.2, t = 0.2)
movej(p[0.450757075719437, -0.103950337269431, 0.375885767981832, -1.16345742480687, 1.12133768896738, -1.21561455410891], a = 0.2, v = 0.2, t = 0.2)
movej(p[0.449613091920556, -0.103878222779854, 0.37551300811021, -1.13914364673502, 1.07915627381171, -1.22494433229719], a = 0.2, v = 0.2, t = 0.2)
movej(p[0.447546268806567, -0.103925639777249, 0.374912464980835, -1.12542807816908, 1.06034357871611, -1.20691713742854], a = 0.2, v = 0.2, t = 0.2)
movej(p[0.445037464984464, -0.10395806166848, 0.374933514198618, -1.13183660809079, 1.06280906335849, -1.18780757727474], a = 0.2, v = 0.2, t = 0.2)
movej(p[0.442546126026602, -0.103886250079964, 0.375138475326309, -1.15861093629313, 1.0931996888107, -1.1611190250201], a = 0.2, v = 0.2, t = 0.2)
movej(p[0.440201635174708, -0.10370155036318, 0.375528733831547, -1.19032207402726, 1.09771643052407, -1.15108718136471], a = 0.2, v = 0.2, t = 0.2)
movej(p[0.438931980573743, -0.103560713968044, 0.376090541883246, -1.22192962884193, 1.11139580239051, -1.13226135807733], a = 0.2, v = 0.2, t = 0.2)
movej(p[0.439095398100814, -0.103636933352507, 0.376816368727733, -1.23360444073877, 1.13647901956817, -1.11149280884268], a = 0.2, v = 0.2, t = 0.2)
movej(p[0.440778814798258, -0.10365565842948, 0.377495206054534, -1.24970451232107, 1.15563266747764, -1.12404005838427], a = 0.2, v = 0.2, t = 0.2)
movej(p[0.44286683266623, -0.103823022307022, 0.37764714346748, -1.23646889906685, 1.16562355692, -1.13784492576764], a = 0.2, v = 0.2, t = 0.2)
movej(p[0.444830191930101, -0.10392136627027, 0.377732410310228, -1.21342324160566, 1.16097061944218, -1.1572613936062], a = 0.2, v = 0.2, t = 0.2)
movej(p[0.446498166602744, -0.104030540542479, 0.377696382497195, -1.18766936878855, 1.16383729682307, -1.15691015076725], a = 0.2, v = 0.2, t = 0.2)
movej(p[0.447869918549659, -0.104055235737599, 0.377457627804105, -1.17884389019295, 1.14527140399984, -1.17281054958744], a = 0.2, v = 0.2, t = 0.2)
movej(p[0.448824927314984, -0.104108500246279, 0.377141649054396, -1.17239648516101, 1.13358280938008, -1.17777829821405], a = 0.2, v = 0.2, t = 0.2)
movej(p[0.449568888654423, -0.104175808865448, 0.376614578264365, -1.17568727445259, 1.12542756746851, -1.18885127463424], a = 0.2, v = 0.2, t = 0.2)
movej(p[0.450199981791867, -0.104175567132426, 0.376444020504245, -1.18590270458678, 1.14370695405092, -1.19961130630164], a = 0.2, v = 0.2, t = 0.2)
movej(p[0.450901455987122, -0.104121523863188, 0.376136433385949, -1.20070157260217, 1.144743539134, -1.213518468321], a = 0.2, v = 0.2, t = 0.2)
movej(p[0.451596876402266, -0.10401547490838, 0.375871230350926, -1.18774962208741, 1.14516921048584, -1.21232875336557], a = 0.2, v = 0.2, t = 0.2)
movej(p[0.451455314170729, -0.103985390732616, 0.375484463832894, -1.15788407925586, 1.13869401863534, -1.20162697994607], a = 0.2, v = 0.2, t = 0.2)
movej(p[0.450154740405235, -0.103983283813074, 0.375045855634841, -1.12528018258293, 1.14624187297496, -1.18410737353474], a = 0.2, v = 0.2, t = 0.2)
movej(p[0.447904325931145, -0.103955260255917, 0.374657227255601, -1.12232390755938, 1.10488127534619, -1.19697631376798], a = 0.2, v = 0.2, t = 0.2)
movej(p[0.44524999775768, -0.103849464459434, 0.374697415803671, -1.13795399192344, 1.06353980351787, -1.18742300609794], a = 0.2, v = 0.2, t = 0.2)
movej(p[0.442739979247591, -0.103753346585673, 0.375129115133265, -1.16766239052923, 1.02381446589053, -1.19089471738284], a = 0.2, v = 0.2, t = 0.2)
movej(p[0.440137217442382, -0.103710648461401, 0.375713541154105, -1.18434413435748, 1.04505522054425, -1.15114562162315], a = 0.2, v = 0.2, t = 0.2)
movej(p[0.438323150001329, -0.103740020872551, 0.376151001553195, -1.22502796087289, 1.06371157501133, -1.15590088613094], a = 0.2, v = 0.2, t = 0.2)
movej(p[0.437827672955305, -0.103650979144078, 0.376706300839215, -1.24859405570108, 1.12775592505273, -1.13216534292917], a = 0.2, v = 0.2, t = 0.2)
movej(p[0.439152469186141, -0.103609176310741, 0.376883877544579, -1.26028229869375, 1.16258137671511, -1.1418057366773], a = 0.2, v = 0.2, t = 0.2)
movej(p[0.441577625154264, -0.10370778840621, 0.377205180011112, -1.23965451140768, 1.20089719114433, -1.12961577023768], a = 0.2, v = 0.2, t = 0.2)
movej(p[0.444062348067163, -0.103832850409149, 0.377271795878106, -1.22140969837069, 1.18333049674074, -1.16280004401677], a = 0.2, v = 0.2, t = 0.2)
movej(p[0.446073002355113, -0.103991965866383, 0.377387805561406, -1.20542924090077, 1.18077434690953, -1.16624171804958], a = 0.2, v = 0.2, t = 0.2)
movej(p[0.447551122945913, -0.104058107374236, 0.377312161978787, -1.18931668694342, 1.17364308902637, -1.18295628631259], a = 0.2, v = 0.2, t = 0.2)
movej(p[0.448650605143982, -0.10401670207423, 0.377091396985725, -1.18194328385425, 1.14920083166979, -1.20101975830423], a = 0.2, v = 0.2, t = 0.2)
movej(p[0.449655103775006, -0.10398128440511, 0.376750404980856, -1.17493289094547, 1.13445057706493, -1.21806668657389], a = 0.2, v = 0.2, t = 0.2)
movej(p[0.450532857050532, -0.103947637626186, 0.37645365693272, -1.16113327092125, 1.12082273863729, -1.22054225847342], a = 0.2, v = 0.2, t = 0.2)
movej(p[0.451345903024723, -0.104011679070512, 0.376294137211807, -1.13640738807049, 1.16376346588827, -1.18606149089989], a = 0.2, v = 0.2, t = 0.2)
movej(p[0.451948925230361, -0.103945074677079, 0.376365813809676, -1.12455341952963, 1.16554537723169, -1.18837083156008], a = 0.2, v = 0.2, t = 0.2)
movej(p[0.452138699857204, -0.103931220994577, 0.376235897169526, -1.12382980899724, 1.12938709209745, -1.21274378937748], a = 0.2, v = 0.2, t = 0.2)
movej(p[0.451467644787264, -0.103934366768404, 0.375863147021551, -1.12551008678262, 1.05917884656474, -1.24364835612082], a = 0.2, v = 0.2, t = 0.2)
movej(p[0.449835238708792, -0.1039756000043, 0.375358975346697, -1.11524715359475, 1.02811961894894, -1.24208574736953], a = 0.2, v = 0.2, t = 0.2)
movej(p[0.447500366298882, -0.1038831459694, 0.375197726920432, -1.12919791408578, 1.03037474375734, -1.21631767207165], a = 0.2, v = 0.2, t = 0.2)
movej(p[0.445122623967505, -0.103811885721261, 0.375140502754973, -1.13607101931998, 1.0630216215558, -1.17883277323551], a = 0.2, v = 0.2, t = 0.2)
movej(p[0.44305122154689, -0.10376875835443, 0.375462893543866, -1.15130737449311, 1.08663615433063, -1.14663277349403], a = 0.2, v = 0.2, t = 0.2)
movej(p[0.441691951044746, -0.10380708466911, 0.375684251606045, -1.15247007846197, 1.12317704569784, -1.12235401276262], a = 0.2, v = 0.2, t = 0.2)
movej(p[0.441373333778857, -0.103887053650943, 0.376440833800385, -1.16981082272545, 1.14342156908858, -1.10740689608587], a = 0.2, v = 0.2, t = 0.2)
movej(p[0.4422557867846, -0.103806299631174, 0.37668270628091, -1.19796241693833, 1.15382164464939, -1.13880638373437], a = 0.2, v = 0.2, t = 0.2)
movej(p[0.443939697559601, -0.103892805821684, 0.376681945768331, -1.19895288721191, 1.15746068286455, -1.16645326104753], a = 0.2, v = 0.2, t = 0.2)
movej(p[0.445815879449219, -0.103878494810301, 0.376126615815849, -1.20505337876772, 1.16668200266503, -1.18050737304645], a = 0.2, v = 0.2, t = 0.2)
movej(p[0.44745426850707, -0.104102650999508, 0.37589619981629, -1.19196634666254, 1.15323834798858, -1.19239581629854], a = 0.2, v = 0.2, t = 0.2)
movej(p[0.448781937792101, -0.104055946128892, 0.375702387930567, -1.18443770957238, 1.14445784343313, -1.18675454530563], a = 0.2, v = 0.2, t = 0.2)
movej(p[0.449869643680603, -0.104181345482651, 0.375725249159647, -1.17865363827112, 1.13488511572812, -1.1999758087446], a = 0.2, v = 0.2, t = 0.2)
movej(p[0.450718319846891, -0.104137304828522, 0.375988589159568, -1.15719057595278, 1.16176001054042, -1.17575341032533], a = 0.2, v = 0.2, t = 0.2)
movej(p[0.451427470919529, -0.104089723618111, 0.376126090939527, -1.1671402102446, 1.1470424472836, -1.19198080281288], a = 0.2, v = 0.2, t = 0.2)
movej(p[0.451701647270341, -0.104086776671311, 0.376214421691589, -1.14975688205637, 1.10939806443391, -1.20542401526373], a = 0.2, v = 0.2, t = 0.2)
movej(p[0.451011018427203, -0.104084395768502, 0.375612623606823, -1.14548959178541, 1.06780825057102, -1.21635528865424], a = 0.2, v = 0.2, t = 0.2)
movej(p[0.44914794307097, -0.104115114531631, 0.375212973136801, -1.12943513961151, 1.05893884808524, -1.19618274917681], a = 0.2, v = 0.2, t = 0.2)
movej(p[0.446588708462711, -0.104095137178811, 0.374886056793887, -1.1415218720706, 1.08269267055017, -1.16591169200898], a = 0.2, v = 0.2, t = 0.2)
movej(p[0.444091791515077, -0.103973596682136, 0.375135974283446, -1.14611346245424, 1.07650026475454, -1.14779401448173], a = 0.2, v = 0.2, t = 0.2)
movej(p[0.441809420853326, -0.103919337076829, 0.375670323340921, -1.1628340164846, 1.09754308521123, -1.13063111696973], a = 0.2, v = 0.2, t = 0.2)
movej(p[0.43994922618065, -0.103837994700648, 0.376079551312109, -1.18095024154597, 1.09700774056606, -1.12420806474004], a = 0.2, v = 0.2, t = 0.2)
movej(p[0.439034499998907, -0.103840186981658, 0.37649038631115, -1.21013763008259, 1.10850177962497, -1.12133645901526], a = 0.2, v = 0.2, t = 0.2)
movej(p[0.439270623553042, -0.103879721452192, 0.376697819178416, -1.24002080878928, 1.09174990056312, -1.15167189820517], a = 0.2, v = 0.2, t = 0.2)
movej(p[0.440911385633466, -0.103789868768335, 0.376902625576374, -1.22764885528733, 1.11002392389898, -1.16145943014201], a = 0.2, v = 0.2, t = 0.2)
movej(p[0.443154972745769, -0.103820448388036, 0.37672841902985, -1.2145900254462, 1.14135854691243, -1.16660392636372], a = 0.2, v = 0.2, t = 0.2)
movej(p[0.445300308611991, -0.10384679862239, 0.376819584186753, -1.20047775204197, 1.15443770545721, -1.15763821968046], a = 0.2, v = 0.2, t = 0.2)
movej(p[0.446884292489298, -0.103974746201146, 0.376738314613583, -1.19396468812042, 1.14731249078375, -1.17411702420048], a = 0.2, v = 0.2, t = 0.2)
movej(p[0.448020196167893, -0.104065040729385, 0.376768869337011, -1.1929685753134, 1.13260003024015, -1.19253411153982], a = 0.2, v = 0.2, t = 0.2)
movej(p[0.449045757328207, -0.104137165580558, 0.376413108236411, -1.19050918910443, 1.13930494457818, -1.20985581807701], a = 0.2, v = 0.2, t = 0.2)
movej(p[0.45000674538231, -0.10422737475998, 0.376191220348689, -1.19243168686568, 1.15219943091599, -1.2120478958399], a = 0.2, v = 0.2, t = 0.2)
movej(p[0.450906443519378, -0.104214706818987, 0.375911508644379, -1.1971330321943, 1.14879865731127, -1.22082461896275], a = 0.2, v = 0.2, t = 0.2)
movej(p[0.451658623202521, -0.104164802017126, 0.375724032605863, -1.18444522550037, 1.13597624760365, -1.22550470193723], a = 0.2, v = 0.2, t = 0.2)
movej(p[0.451670591773934, -0.104062972694908, 0.375442075359397, -1.17446171451491, 1.09744405936214, -1.23787969183426], a = 0.2, v = 0.2, t = 0.2)
movej(p[0.450728652891753, -0.104049306745391, 0.374933341372956, -1.14007471127772, 1.06320867709018, -1.24599213103553], a = 0.2, v = 0.2, t = 0.2)
movej(p[0.44869365837911, -0.104089269074315, 0.37451404034949, -1.10969743229897, 1.03164223774798, -1.23380473791379], a = 0.2, v = 0.2, t = 0.2)
movej(p[0.446023272506165, -0.104053246425275, 0.374298763992371, -1.10540009540132, 1.02749100433926, -1.21615210400774], a = 0.2, v = 0.2, t = 0.2)
movej(p[0.44320667172068, -0.104022177351497, 0.374618612075772, -1.12212815061299, 1.04934370434469, -1.17990851419526], a = 0.2, v = 0.2, t = 0.2)
movej(p[0.440552972395308, -0.103843252396118, 0.375046456793236, -1.17383769346819, 1.07873936982654, -1.1511195484665], a = 0.2, v = 0.2, t = 0.2)
movej(p[0.4385808271366, -0.103886743059075, 0.375857442343596, -1.18911561790121, 1.10397948011638, -1.11287622650591], a = 0.2, v = 0.2, t = 0.2)
movej(p[0.438008537551998, -0.103869775616811, 0.376439734754383, -1.20653072932547, 1.11617233461539, -1.11697338006034], a = 0.2, v = 0.2, t = 0.2)
movej(p[0.438999882628, -0.103939224964975, 0.377023243033408, -1.19090726131247, 1.12252382984086, -1.14099302864332], a = 0.2, v = 0.2, t = 0.2)
movej(p[0.441192477614802, -0.103928425609072, 0.377089615186082, -1.19395339256487, 1.12866086543678, -1.17539575827194], a = 0.2, v = 0.2, t = 0.2)
movej(p[0.443546964918387, -0.103919648420078, 0.377303708067877, -1.19710536696725, 1.11874312241127, -1.1890523225049], a = 0.2, v = 0.2, t = 0.2)
movej(p[0.445729408948205, -0.104044635379978, 0.377243182356259, -1.20814749281239, 1.14123416523018, -1.19138429419436], a = 0.2, v = 0.2, t = 0.2)
movej(p[0.447423536534942, -0.104031353571482, 0.377313747120278, -1.18953511750038, 1.16229942184634, -1.17470344136496], a = 0.2, v = 0.2, t = 0.2)
movej(p[0.448783602576681, -0.104089317309657, 0.377018117465534, -1.17605425524988, 1.18771559520854, -1.16859976370054], a = 0.2, v = 0.2, t = 0.2)
movej(p[0.449812550666652, -0.103969864127059, 0.376932516961957, -1.14351957103878, 1.19414578752277, -1.15621006165955], a = 0.2, v = 0.2, t = 0.2)
movej(p[0.450752343039055, -0.104027978464167, 0.376723082450247, -1.14074538395056, 1.15685748276874, -1.18068040853569], a = 0.2, v = 0.2, t = 0.2)
movej(p[0.451658778431891, -0.104062808380014, 0.376553100746303, -1.1417677144475, 1.12688209437389, -1.21438437621284], a = 0.2, v = 0.2, t = 0.2)
movej(p[0.452381521641816, -0.104097415185882, 0.376420337245687, -1.16404345427304, 1.10681851336043, -1.23713008246296], a = 0.2, v = 0.2, t = 0.2)
movej(p[0.452326775800141, -0.104030288627585, 0.376151279462878, -1.17168120000778, 1.08646420172396, -1.2451444532639], a = 0.2, v = 0.2, t = 0.2)
movej(p[0.450999956228811, -0.103901210426777, 0.375794087918586, -1.15409239396824, 1.09540834518057, -1.21848815731109], a = 0.2, v = 0.2, t = 0.2)
movej(p[0.448739586663304, -0.103924637452134, 0.375076194012281, -1.14987655120218, 1.07906032770004, -1.18860399095525], a = 0.2, v = 0.2, t = 0.2)
movej(p[0.445881487416246, -0.103994712769792, 0.374542159094113, -1.17175058450373, 1.06587441893165, -1.17516361155791], a = 0.2, v = 0.2, t = 0.2)
movej(p[0.442958261518057, -0.103941340350104, 0.374705349069833, -1.19918056401629, 1.03897388896228, -1.1742422715728], a = 0.2, v = 0.2, t = 0.2)
movej(p[0.440127806188256, -0.103894488797035, 0.375226230934123, -1.19371583026311, 1.04159030418319, -1.15805252772442], a = 0.2, v = 0.2, t = 0.2)
movej(p[0.437740490991982, -0.103849732871726, 0.375926264872469, -1.20606501202424, 1.09384829356969, -1.12166119428213], a = 0.2, v = 0.2, t = 0.2)
movej(p[0.436728398177456, -0.10394163799053, 0.376596064414363, -1.2129910103003, 1.13944106854511, -1.08035213912194], a = 0.2, v = 0.2, t = 0.2)
movej(p[0.437403996421734, -0.104039204528014, 0.377042990161542, -1.21564240883623, 1.16096812987761, -1.07524709510154], a = 0.2, v = 0.2, t = 0.2)
movej(p[0.439593094617013, -0.103968319858331, 0.377601168744461, -1.20296335370095, 1.15325024623756, -1.09262784414202], a = 0.2, v = 0.2, t = 0.2)
movej(p[0.44217976781342, -0.103936752613484, 0.377737594889109, -1.18301028445669, 1.15526505876301, -1.10724244511528], a = 0.2, v = 0.2, t = 0.2)
movej(p[0.444564192357691, -0.10398976934203, 0.377629206290194, -1.16505187152709, 1.1480727695815, -1.12959112041536], a = 0.2, v = 0.2, t = 0.2)
movej(p[0.446601241222633, -0.10392602240308, 0.377394821927207, -1.14394815733052, 1.15322241370649, -1.16084582347312], a = 0.2, v = 0.2, t = 0.2)
movej(p[0.448272676439963, -0.103897592214569, 0.376953694994056, -1.16219342549862, 1.14478195808409, -1.20693027651902], a = 0.2, v = 0.2, t = 0.2)
movej(p[0.449586435277978, -0.103821881355629, 0.376887031631742, -1.17430998992373, 1.14790444639322, -1.22623913256049], a = 0.2, v = 0.2, t = 0.2)
movej(p[0.450628188692319, -0.103911120098794, 0.376798028968704, -1.17960651469002, 1.13816962365121, -1.22846824997202], a = 0.2, v = 0.2, t = 0.2)
movej(p[0.451575712852223, -0.104018196718582, 0.376942296428626, -1.17297445771198, 1.145300611918, -1.21691540706382], a = 0.2, v = 0.2, t = 0.2)
movej(p[0.452099052821588, -0.103998611720181, 0.376619950582829, -1.14737738771647, 1.12837974208481, -1.21158585509029], a = 0.2, v = 0.2, t = 0.2)
movej(p[0.451791082239008, -0.104037766511792, 0.376084373822542, -1.15589803983059, 1.09239789860929, -1.2285734802382], a = 0.2, v = 0.2, t = 0.2)
movej(p[0.450167121985318, -0.103988640026877, 0.375455476388525, -1.13304489013545, 1.07124595453059, -1.22154247383341], a = 0.2, v = 0.2, t = 0.2)
movej(p[0.447535291790985, -0.104078312130174, 0.374846700690514, -1.13145831447151, 1.05556410914781, -1.20142188376435], a = 0.2, v = 0.2, t = 0.2)
movej(p[0.444647726250416, -0.104071368396972, 0.374793019655803, -1.12133955382931, 1.08662650389858, -1.15429789780381], a = 0.2, v = 0.2, t = 0.2)
movej(p[0.441857242300784, -0.104004190927995, 0.375334322651277, -1.13837485892081, 1.0758535841377, -1.14098618487671], a = 0.2, v = 0.2, t = 0.2)
movej(p[0.43960560164116, -0.103805107675136, 0.375960963785307, -1.18561322705984, 1.10310608979623, -1.13255356336139], a = 0.2, v = 0.2, t = 0.2)
movej(p[0.438203597598569, -0.103718441257173, 0.376444658515643, -1.22920032824404, 1.12560034160335, -1.13982788059916], a = 0.2, v = 0.2, t = 0.2)
movej(p[0.438525507372771, -0.103757550589085, 0.376703926600702, -1.25249803801343, 1.17587211532869, -1.11054598974671], a = 0.2, v = 0.2, t = 0.2)
movej(p[0.440220361921281, -0.103810801199687, 0.37722056950007, -1.23873244648809, 1.19402183880168, -1.10753195159115], a = 0.2, v = 0.2, t = 0.2)
movej(p[0.44258533778958, -0.103797969207355, 0.377505375406556, -1.22335326038794, 1.19491506185357, -1.11629300084902], a = 0.2, v = 0.2, t = 0.2)
movej(p[0.444899139596956, -0.10377626380636, 0.377515743191581, -1.2082392551727, 1.18950967562331, -1.15108175146891], a = 0.2, v = 0.2, t = 0.2)
movej(p[0.446857255921128, -0.103827131058838, 0.377230343183631, -1.21562493686085, 1.17321603545546, -1.17663524798032], a = 0.2, v = 0.2, t = 0.2)
movej(p[0.448410383398308, -0.104066400413433, 0.377065351863614, -1.204995496391, 1.17754657759744, -1.19672021807593], a = 0.2, v = 0.2, t = 0.2)
movej(p[0.449586287625602, -0.104063512438577, 0.377216342294873, -1.18777089168598, 1.17153917114028, -1.19910337587601], a = 0.2, v = 0.2, t = 0.2)
movej(p[0.450628795066741, -0.104071000692622, 0.376959543514263, -1.158115302098, 1.16651582417384, -1.21403900050818], a = 0.2, v = 0.2, t = 0.2)
movej(p[0.451415703261085, -0.103845644770911, 0.376978865828384, -1.15594892483648, 1.14247624514634, -1.22082064121377], a = 0.2, v = 0.2, t = 0.2)
movej(p[0.451656446012432, -0.103814367695978, 0.376500187624725, -1.15215484377692, 1.11739327813747, -1.22895546278179], a = 0.2, v = 0.2, t = 0.2)
movej(p[0.45083359677313, -0.103882091343441, 0.376313972129789, -1.14636619876998, 1.09939054692266, -1.22502219031687], a = 0.2, v = 0.2, t = 0.2)
movej(p[0.448848441185234, -0.103855885875367, 0.375755062840735, -1.1420984422898, 1.08321650464288, -1.20586389208697], a = 0.2, v = 0.2, t = 0.2)
movej(p[0.446214005813071, -0.10389958609597, 0.375269228741259, -1.147747859842, 1.07014693377224, -1.18097687591097], a = 0.2, v = 0.2, t = 0.2)
movej(p[0.443445372512623, -0.103902665565849, 0.375170785244418, -1.14819156054524, 1.05513082504457, -1.15813636298182], a = 0.2, v = 0.2, t = 0.2)
movej(p[0.44119856112346, -0.104030938498446, 0.375279278627854, -1.15642210141819, 1.06535298793193, -1.13779519773248], a = 0.2, v = 0.2, t = 0.2)
movej(p[0.439686645782147, -0.104053228919036, 0.375606615516846, -1.18129412079002, 1.10165411879178, -1.12371164180487], a = 0.2, v = 0.2, t = 0.2)
movej(p[0.439363478640346, -0.104013370355045, 0.376143462696105, -1.20600516063294, 1.1417239600306, -1.10302988496887], a = 0.2, v = 0.2, t = 0.2)
movej(p[0.440323262727135, -0.103918068261221, 0.376558901595779, -1.21234767497326, 1.16708456400087, -1.11291981754839], a = 0.2, v = 0.2, t = 0.2)
movej(p[0.442278271855702, -0.10391247437496, 0.376727389054247, -1.19429823466386, 1.17952295491837, -1.12584529475552], a = 0.2, v = 0.2, t = 0.2)
movej(p[0.444649153424198, -0.103952110393782, 0.376623942763951, -1.20133631419445, 1.18889378170728, -1.15451691614049], a = 0.2, v = 0.2, t = 0.2)
movej(p[0.446595038182684, -0.103998434762521, 0.376624180360332, -1.1853649372277, 1.17598762989007, -1.1726542426594], a = 0.2, v = 0.2, t = 0.2)
movej(p[0.44815601904884, -0.104021226570793, 0.37647193026158, -1.20191276386801, 1.16575884218053, -1.19841484485383], a = 0.2, v = 0.2, t = 0.2)
movej(p[0.449279962899851, -0.103972512361883, 0.376798488269483, -1.17451035953323, 1.1643599367951, -1.19239120748243], a = 0.2, v = 0.2, t = 0.2)
movej(p[0.450199925653345, -0.103936938707882, 0.376817091103258, -1.1704122990436, 1.17402036778505, -1.19532449319584], a = 0.2, v = 0.2, t = 0.2)
movej(p[0.451123959681419, -0.103929398934349, 0.376862439007032, -1.15898532113503, 1.16872044982855, -1.19456422258832], a = 0.2, v = 0.2, t = 0.2)
movej(p[0.451878113991044, -0.103984854350954, 0.37636835103901, -1.1556778266709, 1.16151439605866, -1.20121020430978], a = 0.2, v = 0.2, t = 0.2)
movej(p[0.452512172006366, -0.103998170729097, 0.376205512185603, -1.15474049613442, 1.14114590797457, -1.22071336474081], a = 0.2, v = 0.2, t = 0.2)
movej(p[0.452595902435435, -0.10395819383196, 0.376192391094065, -1.15875312024606, 1.15003808785838, -1.20472656713363], a = 0.2, v = 0.2, t = 0.2)
movej(p[0.452060849915163, -0.103956125852443, 0.375882529191097, -1.15944322555878, 1.12418536819172, -1.21071892396328], a = 0.2, v = 0.2, t = 0.2)
movej(p[0.450509359867088, -0.103925405972672, 0.37532128339627, -1.16698169309106, 1.11288799434193, -1.19950106813538], a = 0.2, v = 0.2, t = 0.2)
movej(p[0.448159062428569, -0.10395910276614, 0.374917800972609, -1.15870790393136, 1.0938153947831, -1.18879448742642], a = 0.2, v = 0.2, t = 0.2)
movej(p[0.445545312453907, -0.103908342917716, 0.375163269459064, -1.1565405530363, 1.10748259030709, -1.1668598040736], a = 0.2, v = 0.2, t = 0.2)
movej(p[0.443407925454421, -0.103788344751947, 0.375554489500509, -1.1637138481675, 1.11677621013667, -1.14889638218528], a = 0.2, v = 0.2, t = 0.2)
movej(p[0.442379077883735, -0.103729612598382, 0.376066522263337, -1.16683878828996, 1.14475778020284, -1.13675675963822], a = 0.2, v = 0.2, t = 0.2)
movej(p[0.442702546756129, -0.103732030642398, 0.376131878102588, -1.1733474609816, 1.15571334628866, -1.14496640403856], a = 0.2, v = 0.2, t = 0.2)
movej(p[0.444270315754896, -0.103871035583228, 0.376503927700266, -1.19757799635093, 1.17468191660931, -1.15234072886154], a = 0.2, v = 0.2, t = 0.2)
movej(p[0.446353430300425, -0.103808883456607, 0.376349167364718, -1.21046337028019, 1.17320747778976, -1.18143487398491], a = 0.2, v = 0.2, t = 0.2)
movej(p[0.448414831526513, -0.103782692476629, 0.376269399089355, -1.22261192028458, 1.10541131159566, -1.23538833241422], a = 0.2, v = 0.2, t = 0.2)
movej(p[0.449970112918646, -0.103824401508802, 0.376159700045064, -1.20200700340723, 1.0915186277149, -1.25172598334944], a = 0.2, v = 0.2, t = 0.2)
movej(p[0.451165091932776, -0.10390210543194, 0.376330213613496, -1.18510932545176, 1.11219126707184, -1.23978119814491], a = 0.2, v = 0.2, t = 0.2)
movej(p[0.451946522971495, -0.10394567758275, 0.376470136063089, -1.16572188397848, 1.15748144190728, -1.21287346391923], a = 0.2, v = 0.2, t = 0.2)
movej(p[0.452508376399236, -0.103980968472844, 0.376370264379355, -1.13961066068073, 1.18371425106163, -1.18000085900706], a = 0.2, v = 0.2, t = 0.2)
movej(p[0.452945604705497, -0.104200681696752, 0.376351316560376, -1.12254376866191, 1.17259320617874, -1.17401060861127], a = 0.2, v = 0.2, t = 0.2)
movej(p[0.453237331515891, -0.104228829575199, 0.376239590578456, -1.11975596444701, 1.1921399800564, -1.16106804911176], a = 0.2, v = 0.2, t = 0.2)
movej(p[0.452840419200346, -0.104162735565068, 0.376132583776833, -1.12966544170901, 1.18592309827532, -1.15263910912125], a = 0.2, v = 0.2, t = 0.2)
movej(p[0.451563136915131, -0.10400400358485, 0.375497460752585, -1.14617214935599, 1.17850463683466, -1.15535790841377], a = 0.2, v = 0.2, t = 0.2)
movej(p[0.449100279839938, -0.103876958731791, 0.374806283841379, -1.14930923647499, 1.14959770828597, -1.16208256090589], a = 0.2, v = 0.2, t = 0.2)
movej(p[0.446225908079701, -0.103932933947858, 0.374150929664436, -1.17382552219459, 1.11039421036174, -1.18648020723511], a = 0.2, v = 0.2, t = 0.2)
movej(p[0.443021432805213, -0.103955635209334, 0.37428149463494, -1.18063500524677, 1.06892982373814, -1.1847614285066], a = 0.2, v = 0.2, t = 0.2)
movej(p[0.439963940366639, -0.104029683021944, 0.37493849497055, -1.20638107905777, 1.05083272047629, -1.16436711138245], a = 0.2, v = 0.2, t = 0.2)
movej(p[0.437607938283327, -0.103926283832226, 0.375653792057724, -1.21986468665957, 1.08223006988532, -1.13655409210047], a = 0.2, v = 0.2, t = 0.2)
movej(p[0.436815528605411, -0.103880866564397, 0.376313967919543, -1.23775372756691, 1.141143067898, -1.1085648641803], a = 0.2, v = 0.2, t = 0.2)
movej(p[0.437763677051592, -0.103895200206921, 0.376740637945556, -1.23822987141646, 1.17428233660324, -1.10577291649809], a = 0.2, v = 0.2, t = 0.2)
movej(p[0.439785174958674, -0.104016882013444, 0.377265485889104, -1.23083373534424, 1.19225883916344, -1.10821172451666], a = 0.2, v = 0.2, t = 0.2)
movej(p[0.442215942167997, -0.104092229249886, 0.377360561564051, -1.21225460860356, 1.17825796696152, -1.12754014196348], a = 0.2, v = 0.2, t = 0.2)
movej(p[0.444518916138347, -0.104113959426229, 0.377455446021293, -1.1839125665651, 1.2050349112211, -1.12555454467732], a = 0.2, v = 0.2, t = 0.2)
movej(p[0.446523803848463, -0.104106638923446, 0.377306587604788, -1.16976569430985, 1.19383679631631, -1.1486819933725], a = 0.2, v = 0.2, t = 0.2)
movej(p[0.448114574726003, -0.104116025942437, 0.377207995710871, -1.17453450174508, 1.18858372580026, -1.17532808663109], a = 0.2, v = 0.2, t = 0.2)
movej(p[0.44941011861035, -0.104280907185016, 0.377055145823802, -1.16233759478976, 1.14498367487282, -1.20224081658001], a = 0.2, v = 0.2, t = 0.2)
movej(p[0.450363191221261, -0.104148817444117, 0.376792716157834, -1.14692637285298, 1.14234797915128, -1.20837601722351], a = 0.2, v = 0.2, t = 0.2)
movej(p[0.451103822230693, -0.104122779894397, 0.376853901597056, -1.12405669196337, 1.12979352014069, -1.22007589375448], a = 0.2, v = 0.2, t = 0.2)
movej(p[0.451095292293649, -0.103914666912, 0.376535930086333, -1.13312858128551, 1.11211482004527, -1.22443041761601], a = 0.2, v = 0.2, t = 0.2)
movej(p[0.449665076138678, -0.10406516868893, 0.376062332759799, -1.11631491813468, 1.08233361725007, -1.22687561445637], a = 0.2, v = 0.2, t = 0.2)
movej(p[0.447232494050958, -0.104050503925817, 0.375140325258296, -1.0929542089616, 1.05695371469706, -1.21334943190523], a = 0.2, v = 0.2, t = 0.2)
movej(p[0.44411805185137, -0.104049485497672, 0.37468144202671, -1.11138868311831, 1.06326240850082, -1.19580030787786], a = 0.2, v = 0.2, t = 0.2)
movej(p[0.441162928686025, -0.10393992560021, 0.374977215028713, -1.1527304491996, 1.08694040198256, -1.16118110720733], a = 0.2, v = 0.2, t = 0.2)
movej(p[0.438527105749697, -0.103917625223621, 0.375625161874977, -1.20718995514876, 1.1020764983841, -1.14010835822269], a = 0.2, v = 0.2, t = 0.2)
movej(p[0.436797325729016, -0.104034203787664, 0.376481331438123, -1.20530582259227, 1.10428182239264, -1.1235838798657], a = 0.2, v = 0.2, t = 0.2)
movej(p[0.436696564833068, -0.104148454331267, 0.377136275197566, -1.21903970831768, 1.11156716535591, -1.13478437216016], a = 0.2, v = 0.2, t = 0.2)
movej(p[0.438520091139305, -0.10429390308772, 0.377390714544775, -1.22659478325756, 1.13276324572347, -1.13637997575933], a = 0.2, v = 0.2, t = 0.2)
movej(p[0.441379431121836, -0.104274763411636, 0.377619385425287, -1.22336184994897, 1.1626283643488, -1.15355439512431], a = 0.2, v = 0.2, t = 0.2)
movej(p[0.444194117600662, -0.104258287897355, 0.377527521376582, -1.20815252442365, 1.17594543621044, -1.16187077550042], a = 0.2, v = 0.2, t = 0.2)
movej(p[0.446256468125844, -0.104159912215524, 0.377714408280899, -1.18978712505232, 1.17722071912977, -1.16051728410975], a = 0.2, v = 0.2, t = 0.2)
movej(p[0.447919482212337, -0.104179545978082, 0.377611743377469, -1.20022155096515, 1.16348301368213, -1.18015123726509], a = 0.2, v = 0.2, t = 0.2)
movej(p[0.449270237268657, -0.104264404030852, 0.377390293583826, -1.17314002909316, 1.13565372827534, -1.18979273606072], a = 0.2, v = 0.2, t = 0.2)
movej(p[0.450391619191232, -0.104296768418703, 0.376983897167724, -1.17808537930135, 1.09756263140425, -1.24695887850557], a = 0.2, v = 0.2, t = 0.2)
movej(p[0.451290142881373, -0.104212815458966, 0.376719095489469, -1.16689413257841, 1.11468669683017, -1.24186415415277], a = 0.2, v = 0.2, t = 0.2)
movej(p[0.451452185809002, -0.104047683198795, 0.376487453986589, -1.16288460884924, 1.07145450165581, -1.25513708197027], a = 0.2, v = 0.2, t = 0.2)
movej(p[0.450375456541631, -0.103954293494014, 0.376232777192542, -1.15338668509906, 1.06896834655115, -1.22136915552042], a = 0.2, v = 0.2, t = 0.2)
movej(p[0.447902485398417, -0.103939671632136, 0.375549972084121, -1.16480924144691, 1.00949805845709, -1.21613708695595], a = 0.2, v = 0.2, t = 0.2)
movej(p[0.444669047962421, -0.103860076536307, 0.375093619980344, -1.20126473026622, 1.04193556589111, -1.17942106777911], a = 0.2, v = 0.2, t = 0.2)
movej(p[0.441374359775137, -0.103772487018002, 0.375271833735305, -1.20146605626942, 1.04893571987507, -1.15131661267757], a = 0.2, v = 0.2, t = 0.2)
movej(p[0.438299692166223, -0.10364154591378, 0.375958838698909, -1.19679292550271, 1.07240271268437, -1.1162058414655], a = 0.2, v = 0.2, t = 0.2)
movej(p[0.436350465724911, -0.10368150267898, 0.376896412161314, -1.22505161676507, 1.10392692812421, -1.10311409762821], a = 0.2, v = 0.2, t = 0.2)
movej(p[0.436069277966678, -0.103816962446525, 0.377467320262935, -1.2534955244446, 1.14414382786164, -1.09704176162816], a = 0.2, v = 0.2, t = 0.2)
movej(p[0.437486514132117, -0.103917073092625, 0.377968785861664, -1.26622304731683, 1.20135709227031, -1.09399164377069], a = 0.2, v = 0.2, t = 0.2)
movej(p[0.440128567883385, -0.103935980573601, 0.378276964524613, -1.23423337943966, 1.21111796933195, -1.10375522788604], a = 0.2, v = 0.2, t = 0.2)
movej(p[0.442802642735584, -0.103964808206339, 0.378184799889024, -1.18874259356213, 1.19757215316205, -1.12689931041036], a = 0.2, v = 0.2, t = 0.2)
movej(p[0.445056298255584, -0.104048721712104, 0.378086370660002, -1.15634312563192, 1.18839239130189, -1.12368154868467], a = 0.2, v = 0.2, t = 0.2)
movej(p[0.446741594853846, -0.104142216811429, 0.377899516199023, -1.14127194551697, 1.16443472395687, -1.14704500943644], a = 0.2, v = 0.2, t = 0.2)
movej(p[0.44809028682204, -0.104104382084544, 0.377889155930199, -1.14539922048634, 1.14816749595733, -1.17114242602338], a = 0.2, v = 0.2, t = 0.2)
movej(p[0.449226317895146, -0.104059493667886, 0.377986713987719, -1.14273609891518, 1.1483437917996, -1.19431142703478], a = 0.2, v = 0.2, t = 0.2)
movej(p[0.450070592626288, -0.10392402543407, 0.377882996125796, -1.13724979226976, 1.14601224297551, -1.20782307993055], a = 0.2, v = 0.2, t = 0.2)
movej(p[0.450641085617623, -0.103965281879179, 0.377659192472844, -1.14067747531125, 1.16953048457511, -1.1930317147036], a = 0.2, v = 0.2, t = 0.2)
movej(p[0.45032973922873, -0.104010889746411, 0.376905345544768, -1.14084066980707, 1.10617346911128, -1.21669142189158], a = 0.2, v = 0.2, t = 0.2)
movej(p[0.448993801637008, -0.104102299581514, 0.376457255443148, -1.12412360588846, 1.05267697271989, -1.22323506290464], a = 0.2, v = 0.2, t = 0.2)
movej(p[0.44667521368923, -0.104217494125895, 0.375890526437921, -1.09991981113037, 1.02058812215003, -1.21352969359437], a = 0.2, v = 0.2, t = 0.2)
movej(p[0.443814409684634, -0.103984200375956, 0.376090113472882, -1.11196310910934, 1.02737629006561, -1.18598268541219], a = 0.2, v = 0.2, t = 0.2)
movej(p[0.440804063515952, -0.103926050722457, 0.376442272058311, -1.15158821648871, 1.0680612874772, -1.15374876636753], a = 0.2, v = 0.2, t = 0.2)
movej(p[0.437947360290821, -0.103715530217308, 0.376982510919157, -1.19395898248699, 1.07654969540381, -1.12206666427074], a = 0.2, v = 0.2, t = 0.2)
movej(p[0.43595331101476, -0.103792698257522, 0.377574525447954, -1.24031887342413, 1.09950255685455, -1.1204215538179], a = 0.2, v = 0.2, t = 0.2)
movej(p[0.435245103950422, -0.103944431004291, 0.378154171630707, -1.25614135138109, 1.10023282700745, -1.11931849502991], a = 0.2, v = 0.2, t = 0.2)
movej(p[0.436357210112491, -0.104103456371086, 0.378765889877442, -1.27650915623585, 1.14775231200779, -1.12250668169609], a = 0.2, v = 0.2, t = 0.2)
movej(p[0.43861016637899, -0.104113833554364, 0.379080604933632, -1.25832427975255, 1.16657421857359, -1.12436292507632], a = 0.2, v = 0.2, t = 0.2)
movej(p[0.441299265203224, -0.10405402161013, 0.379143208666205, -1.22512600144645, 1.1791841173606, -1.14021585392165], a = 0.2, v = 0.2, t = 0.2)
movej(p[0.443801805172124, -0.104046217127699, 0.379162418283813, -1.20876766062021, 1.16037403191202, -1.17091320893052], a = 0.2, v = 0.2, t = 0.2)
movej(p[0.445752989676551, -0.104098117981478, 0.378860696743938, -1.19810631101739, 1.16022300690529, -1.17849096402119], a = 0.2, v = 0.2, t = 0.2)
movej(p[0.447297977838063, -0.104101791955636, 0.378528268439184, -1.20649175410698, 1.16093082779965, -1.18417992038886], a = 0.2, v = 0.2, t = 0.2)
movej(p[0.448436523240901, -0.103985503644908, 0.378330882683457, -1.19112335698932, 1.15650206600177, -1.19208368684705], a = 0.2, v = 0.2, t = 0.2)
movej(p[0.449316297222788, -0.103999774369739, 0.378299256845781, -1.15801997511714, 1.15197746129421, -1.19377435770476], a = 0.2, v = 0.2, t = 0.2)
movej(p[0.450107964174862, -0.104034434371251, 0.378095194269868, -1.13876355817583, 1.12945971096261, -1.19825363079062], a = 0.2, v = 0.2, t = 0.2)
movej(p[0.450032555771123, -0.104078163795818, 0.377636160805214, -1.12238371715574, 1.10355565511689, -1.20870025957547], a = 0.2, v = 0.2, t = 0.2)
movej(p[0.448909375297401, -0.10402612849787, 0.377003068984293, -1.13457865239452, 1.0581558627193, -1.22091776695061], a = 0.2, v = 0.2, t = 0.2)
movej(p[0.446276331806042, -0.103894427628291, 0.376810728562995, -1.14581746536455, 1.043514471265, -1.21613091190734], a = 0.2, v = 0.2, t = 0.2)
movej(p[0.443211762040146, -0.103818949419713, 0.376756345116348, -1.16159506475263, 1.04904242716275, -1.18614049141769], a = 0.2, v = 0.2, t = 0.2)
movej(p[0.440258185497695, -0.103930315519145, 0.377145120358936, -1.18253765066756, 1.06175094333053, -1.15583153924836], a = 0.2, v = 0.2, t = 0.2)
movej(p[0.437620110941332, -0.103938579096849, 0.377685176731257, -1.20140741970619, 1.07343376474563, -1.12814184808495], a = 0.2, v = 0.2, t = 0.2)
movej(p[0.435977608865164, -0.103952415801099, 0.37841485748878, -1.225752673179, 1.08072455792898, -1.12360064449478], a = 0.2, v = 0.2, t = 0.2)
movej(p[0.435775974848503, -0.103927204001749, 0.379019658374195, -1.22304250454305, 1.10970911976789, -1.12095870661185], a = 0.2, v = 0.2, t = 0.2)
movej(p[0.437348715539186, -0.10397810711256, 0.379196821738581, -1.22720461854237, 1.15283323136657, -1.13282168757662], a = 0.2, v = 0.2, t = 0.2)
movej(p[0.439891420159607, -0.104029711484476, 0.379066641036913, -1.220966697319, 1.16835077785812, -1.1444420818785], a = 0.2, v = 0.2, t = 0.2)
movej(p[0.442447497154203, -0.10402171322568, 0.378982920857424, -1.21486377572699, 1.17710066190633, -1.15230756578687], a = 0.2, v = 0.2, t = 0.2)
movej(p[0.444591080869803, -0.103958807847846, 0.379052062458186, -1.21108053073903, 1.17030931031033, -1.16360119041632], a = 0.2, v = 0.2, t = 0.2)
movej(p[0.44631354591142, -0.103975128007884, 0.3791463356998, -1.18500247335094, 1.16562706371562, -1.17087171688655], a = 0.2, v = 0.2, t = 0.2)
movej(p[0.447623756997087, -0.103865565522283, 0.379149126495934, -1.19341410333627, 1.15785219756393, -1.19046498247933], a = 0.2, v = 0.2, t = 0.2)
movej(p[0.448853832131849, -0.103943766885979, 0.378989112975324, -1.18238208576464, 1.1385048456203, -1.20555547918722], a = 0.2, v = 0.2, t = 0.2)
movej(p[0.449740225147128, -0.103915025067038, 0.3789841257708, -1.16773422653643, 1.11427481425956, -1.22689322557172], a = 0.2, v = 0.2, t = 0.2)
movej(p[0.449698886799746, -0.103972525557812, 0.378670971902715, -1.16378211300559, 1.10273857242717, -1.21768581578858], a = 0.2, v = 0.2, t = 0.2)
movej(p[0.448627516438156, -0.103955144191073, 0.378190758168951, -1.15426417460276, 1.08292637890579, -1.20099005945195], a = 0.2, v = 0.2, t = 0.2)
movej(p[0.446220238634769, -0.103994768443235, 0.377708542843953, -1.15511447504385, 1.08981541071828, -1.17244032960813], a = 0.2, v = 0.2, t = 0.2)
movej(p[0.44350582491273, -0.103949008539786, 0.377534921864405, -1.14122390535604, 1.08007254982781, -1.14922221326674], a = 0.2, v = 0.2, t = 0.2)
movej(p[0.440515260604644, -0.103846022424443, 0.377957233215402, -1.15080312464616, 1.06393936910694, -1.14935873548947], a = 0.2, v = 0.2, t = 0.2)
movej(p[0.437877644765636, -0.103739828954681, 0.378643342266709, -1.18713396703706, 1.05834916353519, -1.12855838201135], a = 0.2, v = 0.2, t = 0.2)
movej(p[0.435779827238376, -0.103745039230664, 0.379230773498636, -1.21482108495612, 1.0726589970351, -1.11967708940693], a = 0.2, v = 0.2, t = 0.2)
movej(p[0.434932849220084, -0.103903048873144, 0.379548588207883, -1.22729945117623, 1.12293523794132, -1.08986881727778], a = 0.2, v = 0.2, t = 0.2)
movej(p[0.435850751482081, -0.103986806467259, 0.3797597586207, -1.23054653445671, 1.1564140723028, -1.10046037486021], a = 0.2, v = 0.2, t = 0.2)
movej(p[0.43794134827635, -0.104144358770792, 0.379876617502381, -1.22172707661757, 1.18300781806614, -1.10476706524214], a = 0.2, v = 0.2, t = 0.2)
movej(p[0.440657065351724, -0.10413208940416, 0.37975303680369, -1.21762935693847, 1.1755139632092, -1.14586162501262], a = 0.2, v = 0.2, t = 0.2)
movej(p[0.44322082999728, -0.104108340843493, 0.379703858225404, -1.20329820926003, 1.16597732949502, -1.16793585239198], a = 0.2, v = 0.2, t = 0.2)
movej(p[0.445236645152571, -0.104043517510143, 0.379456314438056, -1.21141576155528, 1.15587779811565, -1.18455470928936], a = 0.2, v = 0.2, t = 0.2)
movej(p[0.446607228691265, -0.104056039826443, 0.379430224918052, -1.19208373806575, 1.14081430860022, -1.19621477540799], a = 0.2, v = 0.2, t = 0.2)
movej(p[0.447759138709924, -0.104105255342735, 0.379169037103692, -1.18793385294255, 1.12477625570612, -1.21074210434038], a = 0.2, v = 0.2, t = 0.2)
movej(p[0.448746606901689, -0.104104846673213, 0.379120729600481, -1.17987651662758, 1.09621640087206, -1.24621285000601], a = 0.2, v = 0.2, t = 0.2)
movej(p[0.449320698555565, -0.104154329423202, 0.378839203388153, -1.19520940758738, 1.06637288980576, -1.25782537248071], a = 0.2, v = 0.2, t = 0.2)
movej(p[0.448894750938441, -0.104086015263342, 0.378563466054031, -1.18850753165198, 1.05626811458628, -1.25934231483419], a = 0.2, v = 0.2, t = 0.2)
movej(p[0.447625175723354, -0.104085666263966, 0.378120684752894, -1.18233176204923, 1.03585958247998, -1.24185746784958], a = 0.2, v = 0.2, t = 0.2)
movej(p[0.445844683451597, -0.104058199287517, 0.377653766695074, -1.16402187064302, 1.05653763746883, -1.20658315929927], a = 0.2, v = 0.2, t = 0.2)
movej(p[0.443745774860039, -0.104038512337822, 0.37757513243793, -1.1642654282052, 1.07266571551632, -1.16296185154789], a = 0.2, v = 0.2, t = 0.2)
movej(p[0.441415967171131, -0.103952143738708, 0.377659721197771, -1.1379622840629, 1.09829479778372, -1.12387543587363], a = 0.2, v = 0.2, t = 0.2)
movej(p[0.438974582574813, -0.103802700849105, 0.378041391582274, -1.14986852711607, 1.10099488235372, -1.10346466136892], a = 0.2, v = 0.2, t = 0.2)
movej(p[0.436645890491643, -0.103841874656396, 0.378488336329534, -1.17316224329489, 1.09762355027586, -1.10334534581056], a = 0.2, v = 0.2, t = 0.2)
movej(p[0.435215930474469, -0.103914565767684, 0.379289596933597, -1.2203357654034, 1.12654100011378, -1.089986233729], a = 0.2, v = 0.2, t = 0.2)
movej(p[0.434954586799648, -0.104085050240088, 0.379825368125806, -1.23993319117534, 1.12908211111122, -1.09797150247087], a = 0.2, v = 0.2, t = 0.2)
movej(p[0.436236691225608, -0.104146911579039, 0.380129739219646, -1.25622579634748, 1.14729402021871, -1.10276918957221], a = 0.2, v = 0.2, t = 0.2)
movej(p[0.438559054459816, -0.10415967611823, 0.380114120108681, -1.24403186230182, 1.14672644073877, -1.1277951023827], a = 0.2, v = 0.2, t = 0.2)
movej(p[0.44105284627648, -0.104077046303046, 0.380145749980346, -1.23060765872403, 1.14759467455604, -1.15179091908037], a = 0.2, v = 0.2, t = 0.2)
movej(p[0.443520214261419, -0.104073738274511, 0.379958181741435, -1.21489437423873, 1.15247263780929, -1.1723785757235], a = 0.2, v = 0.2, t = 0.2)
movej(p[0.445340305756329, -0.104096760175839, 0.379984550228568, -1.19474492001604, 1.16040794903625, -1.17253877950449], a = 0.2, v = 0.2, t = 0.2)
movej(p[0.4467838475153, -0.10411276982028, 0.379887744917282, -1.18894652963163, 1.16073088669757, -1.17260958031393], a = 0.2, v = 0.2, t = 0.2)
movej(p[0.447934835706468, -0.104011572590134, 0.379796207377437, -1.17631659372542, 1.13710642925489, -1.18590562898321], a = 0.2, v = 0.2, t = 0.2)
