def moving():
set_payload_mass(0.606)
set_tcp(p[0,0.005,0.058,0,0,0])
movej(p[0.45, -0.1185, 0.2984, -1.184, 1.195, -1.19], a = 0.2, v = 0.2, t = 0.2)
movej(p[0.450049755814988, -0.118550457019964, 0.29844978401361, -1.18312657615037, 1.19412396489884, -1.18913185617916], a = 0.2, v = 0.2, t = 0.2)
movej(p[0.45, -0.1185, 0.2984, -1.184, 1.195, -1.19], a = 0.2, v = 0.2, t = 0.2)
movej(p[0.450049755814988, -0.118550457019964, 0.29844978401361, -1.18312657615037, 1.19412396489884, -1.18913185617916], a = 0.2, v = 0.2, t = 0.2)
movej(p[0.45, -0.1185, 0.2984, -1.184, 1.195, -1.19], a = 0.2, v = 0.2, t = 0.2)
movej(p[0.45, -0.1185, 0.2984, -1.184, 1.195, -1.19], a = 0.2, v = 0.2, t = 0.2)
movej(p[0.449323489401431, -0.118327180266737, 0.298604489436937, -1.18121088076447, 1.18647550001341, -1.20144468603602], a = 0.2, v = 0.2, t = 0.2)
movej(p[0.448646880338052, -0.118154461950936, 0.298808974494435, -1.17844777809129, 1.17786594191764, -1.2128162085406], a = 0.2, v = 0.2, t = 0.2)
movej(p[0.447626116885988, -0.117915980120864, 0.29916816610299, -1.17679085920367, 1.16989196775999, -1.22206080913741], a = 0.2, v = 0.2, t = 0.2)
movej(p[0.445839108963223, -0.117531167848125, 0.299871615133642, -1.17701243051867, 1.1643511392179, -1.22756539617872], a = 0.2, v = 0.2, t = 0.2)
movej(p[0.443631155136035, -0.11696285752857, 0.300392038968313, -1.17630355578196, 1.15753620976676, -1.22954185955109], a = 0.2, v = 0.2, t = 0.2)
movej(p[0.441154046262161, -0.1162771637543, 0.300795454318666, -1.1748959035454, 1.15006266241578, -1.22938246134784], a = 0.2, v = 0.2, t = 0.2)
movej(p[0.438736619186786, -0.115698163903093, 0.301448689343403, -1.177306377004, 1.14363039566601, -1.22903374520488], a = 0.2, v = 0.2, t = 0.2)
movej(p[0.4364173113361, -0.115154348887408, 0.302108104586223, -1.17879411440661, 1.13648176751858, -1.2288628356356], a = 0.2, v = 0.2, t = 0.2)
movej(p[0.434251880950702, -0.114558865883904, 0.302468040439583, -1.17367924008771, 1.12617343289352, -1.22963407228457], a = 0.2, v = 0.2, t = 0.2)
movej(p[0.432376839323375, -0.113999044027953, 0.302748876914051, -1.16606495419033, 1.11099081477657, -1.22709723798771], a = 0.2, v = 0.2, t = 0.2)
movej(p[0.432376839323375, -0.113999044027953, 0.302748876914051, -1.1625894349252, 1.11099372125681, -1.21683797296227], a = 0.2, v = 0.2, t = 0.2)
movej(p[0.432767101687336, -0.114113591055592, 0.302735167219127, -1.16380829582463, 1.11283089518271, -1.21551514844127], a = 0.2, v = 0.2, t = 0.2)
movej(p[0.433693292909659, -0.114265391487146, 0.302415028376323, -1.16309708687082, 1.11730711205973, -1.21199461873488], a = 0.2, v = 0.2, t = 0.2)
movej(p[0.435518048637247, -0.114649059547647, 0.301914145591648, -1.16748807518369, 1.13346522225093, -1.21455039187407], a = 0.2, v = 0.2, t = 0.2)
movej(p[0.437489427784152, -0.115159393435536, 0.301531743653864, -1.16617327558516, 1.14902822250357, -1.22267365451007], a = 0.2, v = 0.2, t = 0.2)
movej(p[0.439837855897243, -0.115855433341029, 0.301157967962298, -1.17598520222023, 1.15969569992714, -1.23067206759529], a = 0.2, v = 0.2, t = 0.2)
movej(p[0.441955851708717, -0.116316681056725, 0.30062605438159, -1.17313941339453, 1.16612109091066, -1.2397759029101], a = 0.2, v = 0.2, t = 0.2)
movej(p[0.443975479815401, -0.116891971083089, 0.300359389205272, -1.17508107509537, 1.16714424226577, -1.24772060865836], a = 0.2, v = 0.2, t = 0.2)
movej(p[0.445722251700126, -0.117696271622229, 0.300328462267636, -1.17461870434198, 1.17403185799616, -1.25075950186359], a = 0.2, v = 0.2, t = 0.2)
movej(p[0.446500061465168, -0.117922159166823, 0.30021932741251, -1.18008262944197, 1.1803762672361, -1.24729350603998], a = 0.2, v = 0.2, t = 0.2)
movej(p[0.446859382746326, -0.117957584519714, 0.300144488510329, -1.1797467525598, 1.18093109877263, -1.24782890647206], a = 0.2, v = 0.2, t = 0.2)
movej(p[0.447199219562251, -0.118194488130531, 0.300145446489336, -1.18017999855819, 1.18085284158095, -1.24877887747629], a = 0.2, v = 0.2, t = 0.2)
movej(p[0.447198854555541, -0.118194936553075, 0.300164037500264, -1.17889915941627, 1.18490248141222, -1.25338323340735], a = 0.2, v = 0.2, t = 0.2)
movej(p[0.446526593880076, -0.118171080609298, 0.300354612283932, -1.17982272926418, 1.18585205709759, -1.25280336929222], a = 0.2, v = 0.2, t = 0.2)
movej(p[0.444722668771476, -0.117733466145845, 0.300724841285955, -1.17842604113711, 1.18694465300987, -1.2519260478652], a = 0.2, v = 0.2, t = 0.2)
movej(p[0.44311434598208, -0.117354962504976, 0.301045959969555, -1.17633953618533, 1.184562789669, -1.25315203161625], a = 0.2, v = 0.2, t = 0.2)
movej(p[0.4417430456121, -0.11730472349993, 0.30148887480072, -1.17819333483438, 1.18243115563004, -1.25589822182865], a = 0.2, v = 0.2, t = 0.2)
movej(p[0.44009139377291, -0.116928696217974, 0.301802579909577, -1.1816482257315, 1.17645061395329, -1.25494735990981], a = 0.2, v = 0.2, t = 0.2)
movej(p[0.43828317082069, -0.11621285277085, 0.302009753518602, -1.18051725134086, 1.16417944937087, -1.26030172161222], a = 0.2, v = 0.2, t = 0.2)
movej(p[0.436487664837612, -0.115647334729471, 0.302315900361807, -1.17729742083445, 1.15949514613188, -1.26207374144003], a = 0.2, v = 0.2, t = 0.2)
movej(p[0.435107082431203, -0.115534259800523, 0.302676908352799, -1.17495032463646, 1.15192277649947, -1.26160429479015], a = 0.2, v = 0.2, t = 0.2)
movej(p[0.433388403144864, -0.114987053715901, 0.302956208391578, -1.17735454081971, 1.14407894698256, -1.2585314749415], a = 0.2, v = 0.2, t = 0.2)
movej(p[0.431606091422984, -0.11445469960177, 0.303277021706784, -1.17361408512004, 1.12935240106602, -1.2562633799007], a = 0.2, v = 0.2, t = 0.2)
movej(p[0.429880622751902, -0.113789389495999, 0.303549632616831, -1.17038625576308, 1.11590693322134, -1.24941918795179], a = 0.2, v = 0.2, t = 0.2)
movej(p[0.428907508750611, -0.11352297684647, 0.303736549418273, -1.16468552027992, 1.10747662919648, -1.25057154355308], a = 0.2, v = 0.2, t = 0.2)
movej(p[0.428159745683088, -0.11342706733057, 0.303903568278313, -1.16244396679716, 1.09770441845244, -1.24730321959861], a = 0.2, v = 0.2, t = 0.2)
movej(p[0.427287435729075, -0.11309989032741, 0.304047507441614, -1.15990519379941, 1.09846160233025, -1.24190928631408], a = 0.2, v = 0.2, t = 0.2)
movej(p[0.427286799278755, -0.113057607114522, 0.304048514833699, -1.1624534368377, 1.10107080839514, -1.24037402464188], a = 0.2, v = 0.2, t = 0.2)
movej(p[0.427451738631819, -0.11305351632148, 0.30398101760988, -1.16727308726756, 1.10533049325885, -1.23731374477554], a = 0.2, v = 0.2, t = 0.2)
movej(p[0.428234195397907, -0.113043593357477, 0.30380272561907, -1.16896998552305, 1.11175746128636, -1.23184662953648], a = 0.2, v = 0.2, t = 0.2)
movej(p[0.429429599291105, -0.113082680573146, 0.30354901928943, -1.17229660764708, 1.12371930093899, -1.21892438900284], a = 0.2, v = 0.2, t = 0.2)
movej(p[0.431022933684541, -0.11310115005145, 0.303239792189933, -1.17243145654016, 1.12989778101799, -1.21307908485745], a = 0.2, v = 0.2, t = 0.2)
movej(p[0.432861439492249, -0.113525172762293, 0.302896182344737, -1.17354619687411, 1.13353503867744, -1.20996554124977], a = 0.2, v = 0.2, t = 0.2)
movej(p[0.434153069489867, -0.113881284386778, 0.302648624270419, -1.17919106236914, 1.14220671636436, -1.20071785170422], a = 0.2, v = 0.2, t = 0.2)
movej(p[0.435640373044684, -0.114026056862169, 0.302396398962018, -1.1800775273517, 1.1456828435208, -1.1952871463823], a = 0.2, v = 0.2, t = 0.2)
movej(p[0.437290857136189, -0.114288079036353, 0.302113034119589, -1.17975684806836, 1.14633306459083, -1.19453427552214], a = 0.2, v = 0.2, t = 0.2)
movej(p[0.439675277076766, -0.115104897168251, 0.301633101617688, -1.17868084501238, 1.15676598394848, -1.19973645634663], a = 0.2, v = 0.2, t = 0.2)
movej(p[0.442023710662585, -0.116248237959553, 0.301079755389776, -1.17681504246302, 1.16217662825771, -1.20788116901665], a = 0.2, v = 0.2, t = 0.2)
movej(p[0.443089854406863, -0.116642482781456, 0.300845859628937, -1.17882270915285, 1.1634900027893, -1.20809408085522], a = 0.2, v = 0.2, t = 0.2)
movej(p[0.444612913785997, -0.11706662869954, 0.300534872253302, -1.18006699069506, 1.16301785592074, -1.21032457213898], a = 0.2, v = 0.2, t = 0.2)
movej(p[0.445851822393273, -0.117808781432231, 0.300173717709957, -1.17735352585026, 1.16069397399794, -1.21856448526008], a = 0.2, v = 0.2, t = 0.2)
movej(p[0.445852019497272, -0.117821876233385, 0.300173405728012, -1.17816029726003, 1.15877191977919, -1.22166473540179], a = 0.2, v = 0.2, t = 0.2)
movej(p[0.445265638614545, -0.117831952702374, 0.300225881009279, -1.17824193190079, 1.15858334511426, -1.22200143726939], a = 0.2, v = 0.2, t = 0.2)
movej(p[0.444675866880024, -0.117681284273373, 0.300335792863337, -1.17836044010025, 1.1583380525952, -1.22228258501822], a = 0.2, v = 0.2, t = 0.2)
movej(p[0.443318306142161, -0.117320877765544, 0.300600769073829, -1.17860863907112, 1.1580816551164, -1.22247426320289], a = 0.2, v = 0.2, t = 0.2)
movej(p[0.441395640552118, -0.116708459712924, 0.301028910192729, -1.17962190557093, 1.15728353884928, -1.2232007207141], a = 0.2, v = 0.2, t = 0.2)
movej(p[0.439293485476716, -0.116016179127594, 0.301560704485793, -1.18021810066794, 1.15650311182203, -1.22279647905555], a = 0.2, v = 0.2, t = 0.2)
movej(p[0.437370224328863, -0.115395243627957, 0.302042465175813, -1.17685269648527, 1.14726431625493, -1.22246519215063], a = 0.2, v = 0.2, t = 0.2)
movej(p[0.435577378155757, -0.11495405124091, 0.302391287504787, -1.17084996790267, 1.13698119012721, -1.22394669344736], a = 0.2, v = 0.2, t = 0.2)
movej(p[0.43433627536591, -0.114481973152077, 0.302753888529438, -1.17040286854654, 1.1340286410132, -1.21467134892553], a = 0.2, v = 0.2, t = 0.2)
movej(p[0.43433627536591, -0.114481973152077, 0.302753888529438, -1.17415685913892, 1.13861096660993, -1.20588460428287], a = 0.2, v = 0.2, t = 0.2)
movej(p[0.435762755677144, -0.114533238713658, 0.302598870937345, -1.18149520960397, 1.14683137734303, -1.20040185854306], a = 0.2, v = 0.2, t = 0.2)
movej(p[0.43833034563488, -0.115514679963338, 0.301917966984969, -1.17367635081702, 1.15282396949769, -1.19247886775556], a = 0.2, v = 0.2, t = 0.2)
movej(p[0.440507564164834, -0.116014691899617, 0.301589279251088, -1.17046533674536, 1.15809113887178, -1.19770825409033], a = 0.2, v = 0.2, t = 0.2)
movej(p[0.442792213472065, -0.117035982753098, 0.300815017024473, -1.17330704835963, 1.15505782820275, -1.21111957863459], a = 0.2, v = 0.2, t = 0.2)
movej(p[0.444580032331938, -0.117620768538609, 0.300346976567519, -1.17330704835963, 1.15505782820275, -1.21111957863459], a = 0.2, v = 0.2, t = 0.2)
movej(p[0.445942394054263, -0.118226952989328, 0.299865864720593, -1.17330704835963, 1.15505782820275, -1.21111957863459], a = 0.2, v = 0.2, t = 0.2)
movej(p[0.446369978484533, -0.118251809089208, 0.299806227573705, -1.17212441247057, 1.15264664384712, -1.21341817034606], a = 0.2, v = 0.2, t = 0.2)
movej(p[0.446369978484533, -0.118251809089208, 0.299806227573705, -1.16938639172766, 1.14617570662474, -1.22148128430092], a = 0.2, v = 0.2, t = 0.2)
movej(p[0.438354256712393, -0.117437802915607, 0.300432354175106, -1.16896143433477, 1.14601346398222, -1.22446372073461], a = 0.2, v = 0.2, t = 0.2)
movej(p[0.434763306787918, -0.117044253236996, 0.300708506760416, -1.1688197018372, 1.14625036176063, -1.22469950227039], a = 0.2, v = 0.2, t = 0.2)
movej(p[0.434763306787918, -0.117044253236996, 0.300708506760416, -1.16932168866054, 1.14719527093058, -1.22396465436196], a = 0.2, v = 0.2, t = 0.2)
movej(p[0.435633680234814, -0.117111991416016, 0.300637419546086, -1.16975971301301, 1.14810574654082, -1.22233178965571], a = 0.2, v = 0.2, t = 0.2)
movej(p[0.43650405368171, -0.117179729595035, 0.300566332331755, -1.17019856736366, 1.14901695889954, -1.22069579394031], a = 0.2, v = 0.2, t = 0.2)
movej(p[0.437374323692173, -0.117247371681763, 0.30049534545274, -1.17063898386604, 1.14992548188313, -1.21905743347868], a = 0.2, v = 0.2, t = 0.2)
movej(p[0.438244697139069, -0.117315109860783, 0.300424258238409, -1.17108067514473, 1.15083303727375, -1.21742054031505], a = 0.2, v = 0.2, t = 0.2)
movej(p[0.439115070585965, -0.117382848039803, 0.300353171024078, -1.1715226673227, 1.15173875633766, -1.21578001578511], a = 0.2, v = 0.2, t = 0.2)
movej(p[0.43998534406344, -0.117450587675971, 0.30028208181185, -1.17196592959626, 1.15264350837583, -1.21414096241324], a = 0.2, v = 0.2, t = 0.2)
movej(p[0.440855717510336, -0.117518325854991, 0.300210994597519, -1.17240949402165, 1.15354641987686, -1.21249827943806], a = 0.2, v = 0.2, t = 0.2)
movej(p[0.441726090957232, -0.117586064034011, 0.300139907383188, -1.17285432386481, 1.15444836492692, -1.21085707147243], a = 0.2, v = 0.2, t = 0.2)
movej(p[0.442596364434707, -0.117653803670179, 0.30006881817096, -1.17329867645848, 1.15534975532106, -1.20921351196217], a = 0.2, v = 0.2, t = 0.2)
movej(p[0.443466737881603, -0.117721541849199, 0.29999773095663, -1.17374459250813, 1.15624844830996, -1.2075676010851], a = 0.2, v = 0.2, t = 0.2)
movej(p[0.443466737881603, -0.117721541849199, 0.29999773095663, -1.17353305344214, 1.15614315532164, -1.20668019423387], a = 0.2, v = 0.2, t = 0.2)
movej(p[0.442887736726036, -0.117484605730044, 0.300121440646194, -1.17419176696406, 1.157146175724, -1.20592317097932], a = 0.2, v = 0.2, t = 0.2)
movej(p[0.440823118106176, -0.116836539311311, 0.300664210911993, -1.17221198863438, 1.15936395832282, -1.20627974606739], a = 0.2, v = 0.2, t = 0.2)
movej(p[0.438577083348434, -0.11617546287138, 0.301205534020298, -1.17214895111881, 1.16673010386948, -1.20438070629665], a = 0.2, v = 0.2, t = 0.2)
movej(p[0.437083650859086, -0.115734645766851, 0.301553522597862, -1.17202940359692, 1.16692494289637, -1.20457283020682], a = 0.2, v = 0.2, t = 0.2)
movej(p[0.436440315050074, -0.115480614219492, 0.301775629486067, -1.17135125747514, 1.16221163658934, -1.2091142723949], a = 0.2, v = 0.2, t = 0.2)
movej(p[0.434529118268958, -0.115102424590372, 0.302010955532822, -1.17156875489733, 1.15207199705837, -1.21901687225483], a = 0.2, v = 0.2, t = 0.2)
movej(p[0.431912524449698, -0.114762475903532, 0.302083038022552, -1.17228321231004, 1.14886280595756, -1.22248272304805], a = 0.2, v = 0.2, t = 0.2)
movej(p[0.431086379001856, -0.114165426688048, 0.302673305100492, -1.17305114382071, 1.14810058670564, -1.22341485237258], a = 0.2, v = 0.2, t = 0.2)
movej(p[0.430497271588449, -0.114074781358818, 0.302678632365957, -1.17266281286138, 1.14860661975545, -1.22286868957163], a = 0.2, v = 0.2, t = 0.2)
movej(p[0.430494088746038, -0.113990932417825, 0.302776738811252, -1.17259835053916, 1.14848611063146, -1.2228841962088], a = 0.2, v = 0.2, t = 0.2)
movej(p[0.430643343091526, -0.113988756895681, 0.302779721671676, -1.17231685789421, 1.14830805038055, -1.22161002715377], a = 0.2, v = 0.2, t = 0.2)
movej(p[0.431281678209754, -0.114169196881821, 0.302619020525946, -1.17122156577626, 1.14587248273908, -1.21191193414615], a = 0.2, v = 0.2, t = 0.2)
movej(p[0.432212951574533, -0.114450796431798, 0.30235447899139, -1.16901786614602, 1.14203586630664, -1.19436895592972], a = 0.2, v = 0.2, t = 0.2)
movej(p[0.432987734478579, -0.114631139305126, 0.302288503619947, -1.1692079445767, 1.1422244796218, -1.19424867863273], a = 0.2, v = 0.2, t = 0.2)
movej(p[0.433870432830076, -0.114673226333446, 0.302227681647666, -1.16980759679723, 1.14601587444635, -1.19521953387238], a = 0.2, v = 0.2, t = 0.2)
movej(p[0.435439181302541, -0.115061855543496, 0.302067219885137, -1.16852800188528, 1.14978627847312, -1.20190041626397], a = 0.2, v = 0.2, t = 0.2)
movej(p[0.436625070269886, -0.115512480325116, 0.301558682026842, -1.16852800188528, 1.14978627847312, -1.20190041626397], a = 0.2, v = 0.2, t = 0.2)
movej(p[0.438048358979731, -0.115979448779573, 0.30107572124068, -1.16743012795755, 1.1503925950893, -1.20043118984469], a = 0.2, v = 0.2, t = 0.2)
movej(p[0.439538260692225, -0.11631874197925, 0.300835363004371, -1.16447248339642, 1.14845797287185, -1.20131286725139], a = 0.2, v = 0.2, t = 0.2)
movej(p[0.440933193786406, -0.11671721376185, 0.300444941858391, -1.16118032111443, 1.15069608209207, -1.19797556777097], a = 0.2, v = 0.2, t = 0.2)
movej(p[0.440933193786406, -0.11671721376185, 0.300444941858391, -1.16286910651831, 1.15491067462094, -1.19800325799091], a = 0.2, v = 0.2, t = 0.2)
movej(p[0.441040648607535, -0.116739842406289, 0.300400283422826, -1.16344673416904, 1.15531496652738, -1.19845411732329], a = 0.2, v = 0.2, t = 0.2)
movej(p[0.441582656370093, -0.117105163240322, 0.299813728895483, -1.16816441967621, 1.15330577040423, -1.20207463921544], a = 0.2, v = 0.2, t = 0.2)
movej(p[0.441597696421574, -0.117118677172918, 0.299806794886739, -1.16816441967621, 1.15330577040423, -1.20207463921544], a = 0.2, v = 0.2, t = 0.2)
movej(p[0.44159875219367, -0.117117380122764, 0.299753020887388, -1.16760351004959, 1.15282091425216, -1.20157474625694], a = 0.2, v = 0.2, t = 0.2)
movej(p[0.441741541784257, -0.117193480078733, 0.299611019691894, -1.1666702839842, 1.15208239254352, -1.20073174371303], a = 0.2, v = 0.2, t = 0.2)
movej(p[0.441758980993108, -0.117191715526689, 0.299547973991401, -1.16632998953694, 1.15178690035123, -1.20067997832966], a = 0.2, v = 0.2, t = 0.2)
movej(p[0.44176477204893, -0.117196636571627, 0.299502046799137, -1.16626980600657, 1.15173535840072, -1.20070994548985], a = 0.2, v = 0.2, t = 0.2)
movej(p[0.44227656002293, -0.117281464062123, 0.299447218553457, -1.16527689950408, 1.15331871369199, -1.20221361122009], a = 0.2, v = 0.2, t = 0.2)
movej(p[0.442903910091231, -0.117399515150776, 0.299390256089752, -1.16412694508508, 1.15520080394474, -1.20409445271257], a = 0.2, v = 0.2, t = 0.2)
movej(p[0.443868629656036, -0.117585717895112, 0.299404705632432, -1.1643531992461, 1.15562413059621, -1.20452159535661], a = 0.2, v = 0.2, t = 0.2)
movej(p[0.443867813296943, -0.117586720818651, 0.299446285527841, -1.16554285568832, 1.15743780500118, -1.20406747006142], a = 0.2, v = 0.2, t = 0.2)
movej(p[0.443728869639744, -0.11716582026834, 0.300360648173005, -1.16406271458203, 1.15985287137357, -1.20647498008064], a = 0.2, v = 0.2, t = 0.2)
movej(p[0.441841214800814, -0.116803882834892, 0.300360830746336, -1.16232823874303, 1.15867212276584, -1.20842625263764], a = 0.2, v = 0.2, t = 0.2)
movej(p[0.439248631414305, -0.116137774819801, 0.300820535038489, -1.16011083620778, 1.14936309103079, -1.21676037410949], a = 0.2, v = 0.2, t = 0.2)
movej(p[0.436814789936795, -0.115449436211555, 0.30148458919498, -1.16282476954673, 1.1475240126033, -1.21948110240741], a = 0.2, v = 0.2, t = 0.2)
movej(p[0.434896180779138, -0.115055350069516, 0.301568679936495, -1.16376521160231, 1.14721139396473, -1.22126125466669], a = 0.2, v = 0.2, t = 0.2)
movej(p[0.432574552571776, -0.114397423642515, 0.302160868237152, -1.16507035795244, 1.14632487274119, -1.22256896412688], a = 0.2, v = 0.2, t = 0.2)
movej(p[0.430471701730281, -0.113845246066672, 0.302614433362751, -1.1603985675979, 1.14052164018846, -1.2248366369168], a = 0.2, v = 0.2, t = 0.2)
movej(p[0.428935025709836, -0.11337897398185, 0.303130568278355, -1.16420344374524, 1.11570320015784, -1.21306921716017], a = 0.2, v = 0.2, t = 0.2)
movej(p[0.427647760691184, -0.112970927066408, 0.303657399073346, -1.16619347626393, 1.11277119377699, -1.21090551328031], a = 0.2, v = 0.2, t = 0.2)
movej(p[0.426633913821349, -0.112685134486954, 0.303786155650095, -1.1679422938768, 1.11211727082381, -1.21203050684213], a = 0.2, v = 0.2, t = 0.2)
movej(p[0.426078799624674, -0.112614068476191, 0.303916738500284, -1.17003106175977, 1.11400115087579, -1.21094788622567], a = 0.2, v = 0.2, t = 0.2)
movej(p[0.425254102145486, -0.112308709370208, 0.304427063077602, -1.17055632561567, 1.1268315161026, -1.21594970779309], a = 0.2, v = 0.2, t = 0.2)
movej(p[0.425254102145486, -0.112308709370208, 0.304427063077602, -1.16602459028643, 1.13000075921425, -1.21137676661132], a = 0.2, v = 0.2, t = 0.2)
movej(p[0.425741092461013, -0.112425042669604, 0.304364684988222, -1.1666379561612, 1.12379278318039, -1.19601230590555], a = 0.2, v = 0.2, t = 0.2)
movej(p[0.426134216581542, -0.112558128092538, 0.304081154115018, -1.16719618227892, 1.12347293202022, -1.18308419007856], a = 0.2, v = 0.2, t = 0.2)
movej(p[0.426495224206403, -0.112696898462708, 0.30372201939217, -1.17185691955702, 1.12889663456445, -1.16861473836353], a = 0.2, v = 0.2, t = 0.2)
movej(p[0.426856235298277, -0.112835766382319, 0.303362782336109, -1.17658495141309, 1.13422607378186, -1.15408942864703], a = 0.2, v = 0.2, t = 0.2)
movej(p[0.427361111808858, -0.112984382177747, 0.303104682366306, -1.17953875797497, 1.13857741464099, -1.1420065323363], a = 0.2, v = 0.2, t = 0.2)
movej(p[0.428568991475418, -0.11325958281879, 0.303069634138363, -1.17802884240055, 1.13855274894313, -1.13239838734411], a = 0.2, v = 0.2, t = 0.2)
movej(p[0.430720637074051, -0.113795705947477, 0.302850626972343, -1.17596645605171, 1.13862991625518, -1.12618149627965], a = 0.2, v = 0.2, t = 0.2)
movej(p[0.43232760960986, -0.114211620290196, 0.302394114432892, -1.17368060829471, 1.13903422876315, -1.1242020763014], a = 0.2, v = 0.2, t = 0.2)
movej(p[0.433758432656519, -0.114589041540172, 0.301999403020316, -1.1699825518159, 1.14071884389809, -1.11946825918404], a = 0.2, v = 0.2, t = 0.2)
movej(p[0.435842103274771, -0.115098956715533, 0.301573793905554, -1.1699825518159, 1.14071884389809, -1.11946825918404], a = 0.2, v = 0.2, t = 0.2)
movej(p[0.437701290499908, -0.115546208118241, 0.301013124997319, -1.17434856271408, 1.14391736050783, -1.12019047517938], a = 0.2, v = 0.2, t = 0.2)
movej(p[0.43900348796811, -0.115831124751552, 0.300425126191306, -1.17278343917028, 1.15026769533845, -1.12725172247551], a = 0.2, v = 0.2, t = 0.2)
movej(p[0.440434680656042, -0.116188191954121, 0.300037115981572, -1.16957187923326, 1.15732424310611, -1.13645653565413], a = 0.2, v = 0.2, t = 0.2)
movej(p[0.441816933480754, -0.116562817193649, 0.299788289338132, -1.17323481707605, 1.16262915671649, -1.14794289767684], a = 0.2, v = 0.2, t = 0.2)
movej(p[0.443022514329543, -0.116870576481501, 0.299476577343217, -1.17495039614759, 1.16528073157241, -1.14881703835973], a = 0.2, v = 0.2, t = 0.2)
movej(p[0.443022514329543, -0.116870576481501, 0.299476577343217, -1.17567621358402, 1.16510139065585, -1.15046087061806], a = 0.2, v = 0.2, t = 0.2)
movej(p[0.440764536639046, -0.116627478237773, 0.300539941449774, -1.16197644774052, 1.14393538775641, -1.19005864333123], a = 0.2, v = 0.2, t = 0.2)
movej(p[0.437434731665809, -0.11651362192929, 0.302328206472421, -1.16024776430474, 1.14757798691031, -1.19519046859697], a = 0.2, v = 0.2, t = 0.2)
movej(p[0.437434731665809, -0.11651362192929, 0.302328206472421, -1.15969899033392, 1.15168745641994, -1.19739277998561], a = 0.2, v = 0.2, t = 0.2)
movej(p[0.438849255182145, -0.116922898241454, 0.301891386862019, -1.16080541074853, 1.15311792528129, -1.20284709757958], a = 0.2, v = 0.2, t = 0.2)
movej(p[0.440724756534569, -0.117432441647737, 0.301490813692458, -1.16422031362079, 1.15210422581655, -1.20985854125441], a = 0.2, v = 0.2, t = 0.2)
movej(p[0.442328308750669, -0.117876009772554, 0.301130513832778, -1.16709465258806, 1.15067147064035, -1.21228244705353], a = 0.2, v = 0.2, t = 0.2)
movej(p[0.443224903231356, -0.118090209581352, 0.301105532457445, -1.16722433913562, 1.15063529901616, -1.2123628421987], a = 0.2, v = 0.2, t = 0.2)
movej(p[0.443827111054463, -0.118300686030013, 0.300717288240042, -1.16710226778139, 1.15097762219644, -1.21277156056616], a = 0.2, v = 0.2, t = 0.2)
movej(p[0.444210825542553, -0.118391949402682, 0.300708913967574, -1.16690280012038, 1.15138290998165, -1.21317886558671], a = 0.2, v = 0.2, t = 0.2)
movej(p[0.444609229639765, -0.118505138172431, 0.30059714940375, -1.16681655716725, 1.1515579499446, -1.21335385445762], a = 0.2, v = 0.2, t = 0.2)
movej(p[0.444902105743509, -0.118599008809365, 0.300456065523105, -1.16681655716725, 1.1515579499446, -1.21335385445762], a = 0.2, v = 0.2, t = 0.2)
movej(p[0.444902105743509, -0.118599008809365, 0.300456065523105, -1.16681655716725, 1.1515579499446, -1.21335385445762], a = 0.2, v = 0.2, t = 0.2)
movej(p[0.444902105743509, -0.118599008809365, 0.300456065523105, -1.16681655716725, 1.1515579499446, -1.21335385445762], a = 0.2, v = 0.2, t = 0.2)
movej(p[0.444175393707949, -0.118387654430314, 0.300686811517281, -1.16748046312175, 1.16137883309913, -1.21863842639542], a = 0.2, v = 0.2, t = 0.2)
movej(p[0.44298704457769, -0.118048719294759, 0.301044535514939, -1.16823329747083, 1.17299741825148, -1.22484301542374], a = 0.2, v = 0.2, t = 0.2)
movej(p[0.441635531639318, -0.117683222219708, 0.301393593770165, -1.16835940081212, 1.17291489369072, -1.2249693841733], a = 0.2, v = 0.2, t = 0.2)
movej(p[0.440058746224039, -0.117309332117117, 0.301596563017464, -1.16808259869517, 1.17078021600215, -1.22696619097936], a = 0.2, v = 0.2, t = 0.2)
movej(p[0.438495058725118, -0.116874271928071, 0.301965444214634, -1.16555550071292, 1.165842633387, -1.23548787647001], a = 0.2, v = 0.2, t = 0.2)
movej(p[0.437430008205, -0.116613745192581, 0.302232153512728, -1.1671907735326, 1.16351656417335, -1.23831952911379], a = 0.2, v = 0.2, t = 0.2)
movej(p[0.436129358103641, -0.116270085483974, 0.302274435169697, -1.16871079484801, 1.15682430610482, -1.23421352148089], a = 0.2, v = 0.2, t = 0.2)
movej(p[0.435554735834458, -0.1160701996609, 0.302356217291786, -1.16425322679196, 1.15362498292312, -1.21306586184464], a = 0.2, v = 0.2, t = 0.2)
movej(p[0.435553597641493, -0.116071597967758, 0.302414189261347, -1.16159491355325, 1.15541425423153, -1.21038932288852], a = 0.2, v = 0.2, t = 0.2)
movej(p[0.436199807424434, -0.116228749274395, 0.302423086072747, -1.1625767362433, 1.15282585215718, -1.20778150031501], a = 0.2, v = 0.2, t = 0.2)
movej(p[0.436201459078386, -0.116242429695111, 0.302410482576079, -1.16414150920428, 1.14991278493923, -1.2050712108949], a = 0.2, v = 0.2, t = 0.2)
movej(p[0.436209400403881, -0.116244708313606, 0.302385171249619, -1.16398156886858, 1.1497589177773, -1.2051668351032], a = 0.2, v = 0.2, t = 0.2)
movej(p[0.43621126868359, -0.11625025234741, 0.302295731028129, -1.16263574681721, 1.15201124186663, -1.20749749067529], a = 0.2, v = 0.2, t = 0.2)
movej(p[0.436184676817616, -0.11625063994881, 0.302295199587491, -1.16292279000541, 1.1539882347289, -1.20965119114819], a = 0.2, v = 0.2, t = 0.2)
movej(p[0.435292715896283, -0.115977251892526, 0.302580724762381, -1.1659971558918, 1.15510854397465, -1.21157046116673], a = 0.2, v = 0.2, t = 0.2)
movej(p[0.433878515233283, -0.115583661421924, 0.302907719466044, -1.16647168768821, 1.15478902384698, -1.21204908085208], a = 0.2, v = 0.2, t = 0.2)
movej(p[0.432080464713756, -0.115063814815675, 0.303189303423681, -1.16642319897391, 1.14881770914264, -1.21409312720641], a = 0.2, v = 0.2, t = 0.2)
movej(p[0.431121676781443, -0.114768300601168, 0.303499062329727, -1.15855888029536, 1.13238240779192, -1.22405823387341], a = 0.2, v = 0.2, t = 0.2)
movej(p[0.430626553831899, -0.114615545132866, 0.303996869352316, -1.15855888029536, 1.13238240779192, -1.22405823387341], a = 0.2, v = 0.2, t = 0.2)
movej(p[0.430626553831899, -0.114615545132866, 0.303996869352316, -1.15899447041408, 1.13314624030339, -1.2157515264387], a = 0.2, v = 0.2, t = 0.2)
movej(p[0.430754557590709, -0.114643340703108, 0.303858744430577, -1.15958104189801, 1.13644464059794, -1.18693882368388], a = 0.2, v = 0.2, t = 0.2)
movej(p[0.431992553228592, -0.114986128797452, 0.303572336272598, -1.16258613430881, 1.14130934738581, -1.18314933975869], a = 0.2, v = 0.2, t = 0.2)
movej(p[0.433679913633188, -0.115493411900439, 0.303239358182589, -1.1633987235316, 1.1464345554795, -1.18430159822015], a = 0.2, v = 0.2, t = 0.2)
movej(p[0.43549259172108, -0.116022707414568, 0.302658188690615, -1.16320422250852, 1.14967523382032, -1.18580944845497], a = 0.2, v = 0.2, t = 0.2)
movej(p[0.437782966826003, -0.116696605325558, 0.302044791776446, -1.16157846088154, 1.15380972714871, -1.19243715911643], a = 0.2, v = 0.2, t = 0.2)
movej(p[0.440131799238162, -0.11736104963995, 0.301667784186786, -1.16318771347001, 1.15585308508534, -1.20241203977248], a = 0.2, v = 0.2, t = 0.2)
movej(p[0.442015869805664, -0.117932213178892, 0.301473993530519, -1.16873818087268, 1.15626118720344, -1.20394206085069], a = 0.2, v = 0.2, t = 0.2)
movej(p[0.443399338002455, -0.11835428027687, 0.301163917373305, -1.16902760591192, 1.15594569622131, -1.20390613668037], a = 0.2, v = 0.2, t = 0.2)
movej(p[0.444492880609575, -0.118689593137275, 0.300787411142201, -1.16947366822045, 1.15513629655542, -1.20486009450825], a = 0.2, v = 0.2, t = 0.2)
movej(p[0.445142737730113, -0.118879619272774, 0.300687834534942, -1.16943215720957, 1.15538870373982, -1.20543110493921], a = 0.2, v = 0.2, t = 0.2)
movej(p[0.445142737730113, -0.118879619272774, 0.300687834534942, -1.16873312982301, 1.16491023054123, -1.21332898962251], a = 0.2, v = 0.2, t = 0.2)
movej(p[0.444708724260855, -0.118745201045714, 0.301074344895394, -1.1666294021637, 1.17042577563086, -1.222335407517], a = 0.2, v = 0.2, t = 0.2)
movej(p[0.442928770112833, -0.118224124855067, 0.301395532760168, -1.16813963873726, 1.16888204038175, -1.22439021454684], a = 0.2, v = 0.2, t = 0.2)
movej(p[0.440657646373, -0.11757493805448, 0.301924570940559, -1.16256651469059, 1.15596722141301, -1.23296461100448], a = 0.2, v = 0.2, t = 0.2)
movej(p[0.438356794842218, -0.116900361026322, 0.302616216454083, -1.16424623503335, 1.14858109505494, -1.23885192377236], a = 0.2, v = 0.2, t = 0.2)
movej(p[0.436335315239464, -0.116332216954373, 0.302950705794957, -1.16020607626507, 1.14046200809492, -1.23959277399392], a = 0.2, v = 0.2, t = 0.2)
movej(p[0.434366844341304, -0.115745826399702, 0.303107089203573, -1.15846153422323, 1.13535245311872, -1.23341457894973], a = 0.2, v = 0.2, t = 0.2)
movej(p[0.432235039619128, -0.115112762678458, 0.303493903941341, -1.15512595269257, 1.12839152465872, -1.23079704020316], a = 0.2, v = 0.2, t = 0.2)
movej(p[0.431966475229282, -0.115031404299337, 0.303764025622539, -1.15616576565624, 1.12277478059188, -1.21839136372548], a = 0.2, v = 0.2, t = 0.2)
movej(p[0.431966475229282, -0.115031404299337, 0.303764025622539, -1.1560886778261, 1.12445118780491, -1.20449117095029], a = 0.2, v = 0.2, t = 0.2)
movej(p[0.432443593924763, -0.115163322334537, 0.303606332019587, -1.14870476197628, 1.12906913383427, -1.19141935512829], a = 0.2, v = 0.2, t = 0.2)
movej(p[0.435612342987562, -0.116011664047177, 0.302824585349875, -1.14982784069467, 1.13012253648797, -1.19076476544447], a = 0.2, v = 0.2, t = 0.2)
movej(p[0.439956452652398, -0.11731166553192, 0.301986787940267, -1.15417778582341, 1.13592269555301, -1.20372368642064], a = 0.2, v = 0.2, t = 0.2)
movej(p[0.442189730907206, -0.117983581959688, 0.301375919549615, -1.16079920108011, 1.14830537784275, -1.21352639737926], a = 0.2, v = 0.2, t = 0.2)
movej(p[0.443392341089073, -0.118366923144258, 0.30117788201105, -1.16705711315494, 1.15376660837697, -1.21104049883371], a = 0.2, v = 0.2, t = 0.2)
movej(p[0.443995272590605, -0.118532586286864, 0.300996032134388, -1.16654879792155, 1.15464251850892, -1.211980625663], a = 0.2, v = 0.2, t = 0.2)
movej(p[0.444511697776746, -0.118700239168634, 0.300834646576316, -1.16653538143623, 1.15385463632644, -1.21278057435108], a = 0.2, v = 0.2, t = 0.2)
movej(p[0.444737856540746, -0.118748751251149, 0.300490148664398, -1.16565187107984, 1.15384556829756, -1.21364906520655], a = 0.2, v = 0.2, t = 0.2)
movej(p[0.444935403479887, -0.118801534232926, 0.300269045942409, -1.16512184305258, 1.15372634609899, -1.21412512294285], a = 0.2, v = 0.2, t = 0.2)
movej(p[0.445174023697073, -0.118873697605249, 0.300144128491086, -1.16493084568345, 1.15355706895178, -1.21423508040865], a = 0.2, v = 0.2, t = 0.2)
movej(p[0.445174023697073, -0.118873697605249, 0.300144128491086, -1.16497630899251, 1.15352642437734, -1.21428084125197], a = 0.2, v = 0.2, t = 0.2)
movej(p[0.444662078780516, -0.11874997272038, 0.300779071784046, -1.16412557718085, 1.15533322506395, -1.21604664587726], a = 0.2, v = 0.2, t = 0.2)
movej(p[0.442961206141949, -0.118224738002498, 0.301009267827686, -1.16351723553604, 1.15855527661203, -1.22005222426669], a = 0.2, v = 0.2, t = 0.2)
movej(p[0.44119208381263, -0.117713815558828, 0.301146234431131, -1.16647887001714, 1.15955910250492, -1.2267599910458], a = 0.2, v = 0.2, t = 0.2)
movej(p[0.439143433904826, -0.117097720748042, 0.301583996523341, -1.16650613938916, 1.15958603767082, -1.22674345256132], a = 0.2, v = 0.2, t = 0.2)
movej(p[0.43748481689129, -0.116622432354269, 0.301938577762488, -1.1670369852084, 1.15891707542362, -1.21973918652037], a = 0.2, v = 0.2, t = 0.2)
movej(p[0.435626143257177, -0.116021273940434, 0.30219111834007, -1.16742470843502, 1.15817022017769, -1.21881227929791], a = 0.2, v = 0.2, t = 0.2)
movej(p[0.434558699527657, -0.115685507820715, 0.30221237597773, -1.16658601101029, 1.15102520715799, -1.21547443759615], a = 0.2, v = 0.2, t = 0.2)
movej(p[0.434097476605661, -0.115527666466949, 0.30231658064781, -1.16680582831688, 1.1499594768965, -1.21473093683545], a = 0.2, v = 0.2, t = 0.2)
movej(p[0.433636252179053, -0.115369725152869, 0.30242078769943, -1.16702245015955, 1.14889363355547, -1.21398656639142], a = 0.2, v = 0.2, t = 0.2)
movej(p[0.433175029257057, -0.115211883799103, 0.302524992369509, -1.16724023854014, 1.14782979057538, -1.21324358656502], a = 0.2, v = 0.2, t = 0.2)
movej(p[0.432171628447974, -0.115062111812935, 0.303301387648018, -1.1661473304371, 1.13878056071557, -1.20787598083476], a = 0.2, v = 0.2, t = 0.2)
movej(p[0.431152501938365, -0.114705440392504, 0.303332302131037, -1.16311296629109, 1.14077087736363, -1.2045331898507], a = 0.2, v = 0.2, t = 0.2)
movej(p[0.43115333203427, -0.114704420592847, 0.303290022573926, -1.16103261901234, 1.13846866107628, -1.18966237666826], a = 0.2, v = 0.2, t = 0.2)
movej(p[0.431602647808634, -0.114761253983927, 0.303217434692256, -1.16198444770741, 1.14237186159621, -1.17312576095481], a = 0.2, v = 0.2, t = 0.2)
movej(p[0.434373573075493, -0.115601273019167, 0.302700009513203, -1.16419589712772, 1.14531309335713, -1.1696922591817], a = 0.2, v = 0.2, t = 0.2)
movej(p[0.436565214535783, -0.116211549480281, 0.302045388958569, -1.16486046768576, 1.14592885433814, -1.16929801658539], a = 0.2, v = 0.2, t = 0.2)
movej(p[0.439538319767663, -0.117155274532947, 0.301557645485895, -1.16455431107641, 1.14822984852215, -1.17492729560492], a = 0.2, v = 0.2, t = 0.2)
movej(p[0.442698131324899, -0.118075084355167, 0.30093987966966, -1.16661020127741, 1.15120455026985, -1.18682738825759], a = 0.2, v = 0.2, t = 0.2)
movej(p[0.443798661348576, -0.11843843087693, 0.300564535265004, -1.16770851519252, 1.15385466021493, -1.19737607436038], a = 0.2, v = 0.2, t = 0.2)
movej(p[0.444781994098863, -0.118849009267749, 0.300502003455451, -1.16701106596596, 1.15140792014807, -1.2035344036769], a = 0.2, v = 0.2, t = 0.2)
movej(p[0.44478646561668, -0.118856255949079, 0.300573851219077, -1.16693206233588, 1.15153710481783, -1.20367807989384], a = 0.2, v = 0.2, t = 0.2)
movej(p[0.444785619821562, -0.118857295035727, 0.30061693038956, -1.16483154173, 1.15387962572907, -1.2072459137541], a = 0.2, v = 0.2, t = 0.2)
movej(p[0.443225168569942, -0.118412399821544, 0.301036936912979, -1.1628997993056, 1.15552301355821, -1.21067749566564], a = 0.2, v = 0.2, t = 0.2)
movej(p[0.441084417247039, -0.117770938653169, 0.301514922595773, -1.16226628002594, 1.15299999046738, -1.2150206235159], a = 0.2, v = 0.2, t = 0.2)
movej(p[0.438861944371777, -0.117191101059321, 0.302142791342796, -1.16167737373935, 1.14184563100122, -1.22559667266985], a = 0.2, v = 0.2, t = 0.2)
movej(p[0.436818477710801, -0.116628485782825, 0.302460307714232, -1.16032275223641, 1.13600035582433, -1.23063742779362], a = 0.2, v = 0.2, t = 0.2)
movej(p[0.435272664972805, -0.116066191092848, 0.30262280740861, -1.15869371621657, 1.13399056680251, -1.23142200793507], a = 0.2, v = 0.2, t = 0.2)
movej(p[0.433217785276015, -0.115396533976806, 0.302882752631022, -1.15837272866044, 1.12796316944668, -1.22663864176319], a = 0.2, v = 0.2, t = 0.2)
movej(p[0.431155607529199, -0.114824467666894, 0.303513981280244, -1.16019209594187, 1.12365992777448, -1.22014936748148], a = 0.2, v = 0.2, t = 0.2)
movej(p[0.431155607529199, -0.114824467666894, 0.303513981280244, -1.15772836049701, 1.12870755324363, -1.19589318454452], a = 0.2, v = 0.2, t = 0.2)
movej(p[0.432781295442602, -0.115072991793028, 0.302954922019572, -1.15863206867093, 1.13421517003587, -1.18732311666965], a = 0.2, v = 0.2, t = 0.2)
movej(p[0.435494108429874, -0.115868064904492, 0.302374409544673, -1.16013994704057, 1.13562911948008, -1.1864399979411], a = 0.2, v = 0.2, t = 0.2)
movej(p[0.438539946890469, -0.116833417864076, 0.301706684986651, -1.16118100445304, 1.14477862534499, -1.20423557459108], a = 0.2, v = 0.2, t = 0.2)
movej(p[0.440446525596268, -0.117514213684143, 0.301312496085268, -1.16533185603429, 1.15417196528293, -1.20519168977953], a = 0.2, v = 0.2, t = 0.2)
movej(p[0.441060843808422, -0.117589254602946, 0.300945264857401, -1.16580056795845, 1.15462387070603, -1.20490978031781], a = 0.2, v = 0.2, t = 0.2)
movej(p[0.441453793771675, -0.117699567308673, 0.30089409188275, -1.16659102043467, 1.15587644037211, -1.20298635651762], a = 0.2, v = 0.2, t = 0.2)
movej(p[0.44276291164319, -0.118135089127825, 0.300820446560263, -1.16710501343607, 1.15503467110554, -1.20214731928118], a = 0.2, v = 0.2, t = 0.2)
movej(p[0.443918960470674, -0.118509169632261, 0.3004478341951, -1.16613144728037, 1.14983139932912, -1.20462910242799], a = 0.2, v = 0.2, t = 0.2)
movej(p[0.444546197292517, -0.118759488841323, 0.30035786473973, -1.16648947703394, 1.14636567782786, -1.20814319257609], a = 0.2, v = 0.2, t = 0.2)
movej(p[0.444975216816758, -0.118855356358327, 0.300143068773746, -1.16567715235708, 1.14726052201766, -1.20945163453062], a = 0.2, v = 0.2, t = 0.2)
movej(p[0.444975216816758, -0.118855356358327, 0.300143068773746, -1.16338446156041, 1.15124112590376, -1.21377592811941], a = 0.2, v = 0.2, t = 0.2)
movej(p[0.444259655596935, -0.118658281012496, 0.300446924675039, -1.16818583943242, 1.16138531056669, -1.21305793627471], a = 0.2, v = 0.2, t = 0.2)
movej(p[0.442943931253774, -0.118250423493175, 0.300741180017805, -1.16765001846283, 1.16432356292628, -1.21949583409829], a = 0.2, v = 0.2, t = 0.2)
movej(p[0.441106895631303, -0.117675470922517, 0.301116372705991, -1.16469411798588, 1.16129507031563, -1.22191670107152], a = 0.2, v = 0.2, t = 0.2)
movej(p[0.439518620810262, -0.117383727799241, 0.301934133143325, -1.16846156625753, 1.15787290895379, -1.2430565722548], a = 0.2, v = 0.2, t = 0.2)
movej(p[0.437859613910095, -0.116800387678671, 0.301994169373475, -1.17070037617167, 1.15622131922115, -1.24759009031185], a = 0.2, v = 0.2, t = 0.2)
movej(p[0.436156933272089, -0.116142834973653, 0.302023122699438, -1.16777268855411, 1.15327105591024, -1.24935520004229], a = 0.2, v = 0.2, t = 0.2)
movej(p[0.434257057865021, -0.115446460771573, 0.302275750307382, -1.16477306046623, 1.14174320893669, -1.24470940084753], a = 0.2, v = 0.2, t = 0.2)
movej(p[0.433505096718489, -0.11525536106735, 0.302488303705736, -1.16391664218458, 1.13644847686217, -1.22810284722997], a = 0.2, v = 0.2, t = 0.2)
movej(p[0.433505096718489, -0.11525536106735, 0.302488303705736, -1.16298064215056, 1.13684669617001, -1.21206202929453], a = 0.2, v = 0.2, t = 0.2)
movej(p[0.436112587371563, -0.115972154011365, 0.301990351519738, -1.16219016638373, 1.14150991666097, -1.20727722343405], a = 0.2, v = 0.2, t = 0.2)
movej(p[0.439105397896029, -0.11669799875805, 0.301053430483388, -1.16223585839631, 1.14259167398023, -1.20767640540783], a = 0.2, v = 0.2, t = 0.2)
movej(p[0.441208072977485, -0.11728811203736, 0.300701396394969, -1.16257238403539, 1.14945207914449, -1.21610015097095], a = 0.2, v = 0.2, t = 0.2)
movej(p[0.442385413000906, -0.117820134922465, 0.300454754936623, -1.17075737266146, 1.15534869364016, -1.21320359231838], a = 0.2, v = 0.2, t = 0.2)
movej(p[0.44313292115409, -0.117904173036219, 0.300091622500231, -1.1782453850588, 1.1608195530108, -1.2097433147384], a = 0.2, v = 0.2, t = 0.2)
movej(p[0.443356834598249, -0.118146855497163, 0.300056148669381, -1.18103991999681, 1.16084643599923, -1.21071044808959], a = 0.2, v = 0.2, t = 0.2)
movej(p[0.443984715712224, -0.11825474761392, 0.299825057393355, -1.18133205940716, 1.16036220129826, -1.21023638691264], a = 0.2, v = 0.2, t = 0.2)
movej(p[0.444395801886466, -0.118271809366014, 0.299734369389947, -1.18060281708805, 1.15697858747028, -1.20092861730847], a = 0.2, v = 0.2, t = 0.2)
movej(p[0.444470447428038, -0.118270141495321, 0.299656937023776, -1.17911856392831, 1.15647603957778, -1.20089975909272], a = 0.2, v = 0.2, t = 0.2)
movej(p[0.44457460530758, -0.118294452768593, 0.299563249628032, -1.17893667866684, 1.15659901618994, -1.20071388606868], a = 0.2, v = 0.2, t = 0.2)
movej(p[0.44499194239918, -0.118372925934922, 0.299559945972386, -1.17810905161555, 1.15776275962407, -1.20150849652882], a = 0.2, v = 0.2, t = 0.2)
movej(p[0.445131633969945, -0.118406383496264, 0.299561881597941, -1.17063963764939, 1.1506198423417, -1.20601345533698], a = 0.2, v = 0.2, t = 0.2)
movej(p[0.445517030743301, -0.118936118885524, 0.29971404691742, -1.16473687969417, 1.14494407527274, -1.2095365284241], a = 0.2, v = 0.2, t = 0.2)
movej(p[0.445777736960923, -0.11895131547436, 0.299718798946561, -1.16467022689841, 1.14498960731264, -1.20946926009354], a = 0.2, v = 0.2, t = 0.2)
movej(p[0.446003242603, -0.119019415841137, 0.299721583804949, -1.16495944719386, 1.14573395781355, -1.20887772437056], a = 0.2, v = 0.2, t = 0.2)
movej(p[0.446004421400828, -0.119195725774588, 0.299791189967048, -1.16573380120677, 1.14698458478582, -1.20798419739054], a = 0.2, v = 0.2, t = 0.2)
movej(p[0.445948888108766, -0.119199994280539, 0.299935266902501, -1.16559963845557, 1.14879017255351, -1.20884538333168], a = 0.2, v = 0.2, t = 0.2)
movej(p[0.445463323284774, -0.119038937544022, 0.300073888038421, -1.16453692501599, 1.15117197091757, -1.21096137450778], a = 0.2, v = 0.2, t = 0.2)
movej(p[0.444385158568457, -0.118706284485277, 0.300378597222723, -1.16542154505509, 1.15645957546589, -1.21328339564307], a = 0.2, v = 0.2, t = 0.2)
movej(p[0.443147085104219, -0.118363724791236, 0.30072912933704, -1.16512814788538, 1.16030873587821, -1.21656522427311], a = 0.2, v = 0.2, t = 0.2)
movej(p[0.441226458935069, -0.117865795018588, 0.301168755860223, -1.16596993211736, 1.16095649325246, -1.22068193747026], a = 0.2, v = 0.2, t = 0.2)
movej(p[0.439362828140053, -0.117173359097499, 0.301462619714845, -1.16788745905672, 1.15785385708719, -1.22438116317665], a = 0.2, v = 0.2, t = 0.2)
movej(p[0.437240819834449, -0.116392130704213, 0.30182178539872, -1.15876520819991, 1.14471262621783, -1.22818948544572], a = 0.2, v = 0.2, t = 0.2)
movej(p[0.43521120378544, -0.115832863373631, 0.302439738055925, -1.15993611815978, 1.138669882633, -1.226514365185], a = 0.2, v = 0.2, t = 0.2)
movej(p[0.43308752316393, -0.115063310028618, 0.302956165453536, -1.15823985786506, 1.13701194991483, -1.22751413948222], a = 0.2, v = 0.2, t = 0.2)
movej(p[0.431003769104034, -0.114376619728276, 0.303352120424819, -1.15471105859973, 1.13241724939519, -1.22910745004323], a = 0.2, v = 0.2, t = 0.2)
movej(p[0.429860100735205, -0.114168115956411, 0.303636441228241, -1.15213864393391, 1.11867048763381, -1.22123632784771], a = 0.2, v = 0.2, t = 0.2)
movej(p[0.429857775289232, -0.114170972841973, 0.303754883959153, -1.14914865820215, 1.11470987484798, -1.21385684456164], a = 0.2, v = 0.2, t = 0.2)
movej(p[0.430125479398722, -0.114245856812639, 0.303758333698159, -1.14779744497388, 1.11222473909519, -1.20276690698563], a = 0.2, v = 0.2, t = 0.2)
movej(p[0.431278167315713, -0.114486448507623, 0.303411486076963, -1.15082907295375, 1.11995249614121, -1.19636818029833], a = 0.2, v = 0.2, t = 0.2)
movej(p[0.432502158703869, -0.114725445672491, 0.303034361526045, -1.15353411967064, 1.12469415749973, -1.19576433716917], a = 0.2, v = 0.2, t = 0.2)
movej(p[0.434065787464536, -0.115303361148406, 0.302732567537516, -1.1550238887927, 1.1349264679261, -1.21055346674776], a = 0.2, v = 0.2, t = 0.2)
movej(p[0.437978042453124, -0.116389672351974, 0.301604907121758, -1.15727224173306, 1.14054161807571, -1.22139529972288], a = 0.2, v = 0.2, t = 0.2)
movej(p[0.44042068317504, -0.117265200383117, 0.301127602994056, -1.15848907104654, 1.14165383812446, -1.22791308746053], a = 0.2, v = 0.2, t = 0.2)
movej(p[0.441911758239696, -0.117733317537881, 0.30072728469448, -1.15832805805358, 1.14476014808155, -1.23586779878674], a = 0.2, v = 0.2, t = 0.2)
movej(p[0.443197194491074, -0.118426881519598, 0.300640347148445, -1.1631221627707, 1.1495013679582, -1.23300484369157], a = 0.2, v = 0.2, t = 0.2)
movej(p[0.443676069907797, -0.118493115998532, 0.300451956731868, -1.16541012487922, 1.15584753409578, -1.22743577364741], a = 0.2, v = 0.2, t = 0.2)
movej(p[0.444121602801878, -0.118519924648192, 0.30027146632604, -1.16518804735029, 1.15599626718232, -1.22721385810256], a = 0.2, v = 0.2, t = 0.2)
movej(p[0.444462341023075, -0.118714151142497, 0.300266267910416, -1.16617401630344, 1.15812494923099, -1.22653653486767], a = 0.2, v = 0.2, t = 0.2)
movej(p[0.44490183141284, -0.118981636733652, 0.300253337487801, -1.16456867545287, 1.15996632764448, -1.22700313885337], a = 0.2, v = 0.2, t = 0.2)
movej(p[0.445085152245755, -0.11899277265975, 0.300173127741702, -1.16468235712273, 1.16039797583833, -1.22705846818134], a = 0.2, v = 0.2, t = 0.2)
movej(p[0.445413884424493, -0.119049646345573, 0.300042844670958, -1.16479918860875, 1.16051341892003, -1.22698749320713], a = 0.2, v = 0.2, t = 0.2)
movej(p[0.445414438121226, -0.119086431741183, 0.30004196826366, -1.16207919728427, 1.16298215422131, -1.22605566894209], a = 0.2, v = 0.2, t = 0.2)
movej(p[0.444723056413364, -0.119108151432078, 0.300516806424575, -1.15902325842045, 1.16556472244742, -1.23008939554021], a = 0.2, v = 0.2, t = 0.2)
movej(p[0.443140163726281, -0.118751248766913, 0.300937651572792, -1.15621202810683, 1.16274391173018, -1.23572622250972], a = 0.2, v = 0.2, t = 0.2)
movej(p[0.440803905717779, -0.118017012919634, 0.301500478311922, -1.15734221284925, 1.15897598206466, -1.23975297342448], a = 0.2, v = 0.2, t = 0.2)
movej(p[0.438429938254638, -0.11724553797958, 0.302051056908328, -1.14887207798641, 1.14896138289331, -1.24474008165339], a = 0.2, v = 0.2, t = 0.2)
movej(p[0.43632906028374, -0.116580045859239, 0.302578528338035, -1.14736970396881, 1.14222478100817, -1.24924842693845], a = 0.2, v = 0.2, t = 0.2)
movej(p[0.434162703308755, -0.115716823470235, 0.302919691794541, -1.15078275673552, 1.1371454987528, -1.2536985675511], a = 0.2, v = 0.2, t = 0.2)
movej(p[0.43183130692161, -0.114840930032786, 0.30335116564339, -1.14836289012667, 1.13209439626258, -1.25402962112896], a = 0.2, v = 0.2, t = 0.2)
movej(p[0.429766673100397, -0.114232485903671, 0.303923594701045, -1.14376332585917, 1.12129373354562, -1.24801088346756], a = 0.2, v = 0.2, t = 0.2)
movej(p[0.429455776439506, -0.114192430008026, 0.304044617845407, -1.14239708716857, 1.11959208020548, -1.24412400084496], a = 0.2, v = 0.2, t = 0.2)
movej(p[0.429455058740209, -0.114144748938173, 0.304045753840736, -1.14179783969961, 1.11864886405935, -1.23979310624566], a = 0.2, v = 0.2, t = 0.2)
movej(p[0.429796674174512, -0.114137318216772, 0.303949690427173, -1.13894388628201, 1.12261053295146, -1.22224638099529], a = 0.2, v = 0.2, t = 0.2)
movej(p[0.431857349125031, -0.114437247101238, 0.303295281974777, -1.14154026271918, 1.12511145114975, -1.22073942290904], a = 0.2, v = 0.2, t = 0.2)
movej(p[0.436098726612953, -0.115929896155071, 0.302357775869709, -1.14207784610053, 1.13568575442823, -1.23062324536042], a = 0.2, v = 0.2, t = 0.2)
movej(p[0.440539800555411, -0.117293330605099, 0.301149072747311, -1.1485928726272, 1.14239876165425, -1.22902670906938], a = 0.2, v = 0.2, t = 0.2)
movej(p[0.442288447797336, -0.117817303677514, 0.300719748414559, -1.15082563247734, 1.14433580155572, -1.22793678939621], a = 0.2, v = 0.2, t = 0.2)
movej(p[0.442972593144465, -0.118153198322213, 0.300562500102444, -1.15650721613315, 1.14976587013123, -1.2244849287821], a = 0.2, v = 0.2, t = 0.2)
movej(p[0.443691327178245, -0.118372554607623, 0.300406440726763, -1.16092309785382, 1.1540983161185, -1.22180759311596], a = 0.2, v = 0.2, t = 0.2)
movej(p[0.443943074367103, -0.118366064548374, 0.300293082700877, -1.16161426208171, 1.1534548458548, -1.21639289962259], a = 0.2, v = 0.2, t = 0.2)
movej(p[0.444118156444367, -0.118367389333487, 0.300232557324666, -1.16078619000229, 1.15631148025159, -1.21310941083729], a = 0.2, v = 0.2, t = 0.2)
movej(p[0.44439514468847, -0.118362899338598, 0.300219094688426, -1.16111514460164, 1.15663122980188, -1.21291067506753], a = 0.2, v = 0.2, t = 0.2)
movej(p[0.44486341659035, -0.118522980200079, 0.300104169174732, -1.16342974501493, 1.16074208280464, -1.21223924006574], a = 0.2, v = 0.2, t = 0.2)
movej(p[0.445055609770055, -0.118592671105153, 0.299993106942518, -1.16776040316942, 1.16738914861913, -1.20719218369632], a = 0.2, v = 0.2, t = 0.2)
movej(p[0.445391219908192, -0.118586671516885, 0.299953318374809, -1.16816490650298, 1.16571791206265, -1.19822968673578], a = 0.2, v = 0.2, t = 0.2)
movej(p[0.445590422468897, -0.118771998786426, 0.29995125852693, -1.16746159362758, 1.16618564647024, -1.19751433697336], a = 0.2, v = 0.2, t = 0.2)
movej(p[0.446025218230247, -0.119066507806214, 0.299952691417615, -1.16673663017661, 1.16663035211255, -1.19667491004301], a = 0.2, v = 0.2, t = 0.2)
movej(p[0.446170545083426, -0.11906151174874, 0.299834806791159, -1.16742132989136, 1.16924644245598, -1.19481983233412], a = 0.2, v = 0.2, t = 0.2)
movej(p[0.446169496369778, -0.118991839409772, 0.299836466725634, -1.1660152071181, 1.17021539382584, -1.19349408253791], a = 0.2, v = 0.2, t = 0.2)
movej(p[0.445318317796436, -0.118872256581323, 0.300170607659108, -1.1544759553085, 1.17008852730732, -1.19931385226193], a = 0.2, v = 0.2, t = 0.2)
movej(p[0.444403717533803, -0.118828919774106, 0.300595509672202, -1.15268162789366, 1.17292923708039, -1.20217315313312], a = 0.2, v = 0.2, t = 0.2)
movej(p[0.443337340375093, -0.118648020560444, 0.300911597080806, -1.15345457000737, 1.17228195017801, -1.20705241613317], a = 0.2, v = 0.2, t = 0.2)
movej(p[0.442486030231956, -0.118240965964817, 0.30106267754404, -1.15054196086799, 1.17300257737552, -1.21155501629574], a = 0.2, v = 0.2, t = 0.2)
movej(p[0.439567518681575, -0.117079793410804, 0.30170831105471, -1.15130933069688, 1.17223669454229, -1.21258547245731], a = 0.2, v = 0.2, t = 0.2)
movej(p[0.436870701838959, -0.116407075078417, 0.302433557566357, -1.15124300892065, 1.16606416722872, -1.21625579093088], a = 0.2, v = 0.2, t = 0.2)
movej(p[0.4343555680716, -0.115560631015364, 0.302985674067115, -1.15326565794093, 1.15896150412621, -1.21738286185688], a = 0.2, v = 0.2, t = 0.2)
movej(p[0.431958068290629, -0.11457021108111, 0.303497950841991, -1.15070778707493, 1.15400729376802, -1.21795492482473], a = 0.2, v = 0.2, t = 0.2)
movej(p[0.430261403238078, -0.114255949800222, 0.303906729457857, -1.14667505714461, 1.14203290127969, -1.21505302308501], a = 0.2, v = 0.2, t = 0.2)
movej(p[0.429904379367383, -0.114065068845905, 0.304138637191734, -1.14282979752974, 1.12993829057151, -1.20340236730692], a = 0.2, v = 0.2, t = 0.2)
movej(p[0.429904379367383, -0.114065068845905, 0.304138637191734, -1.14317827237967, 1.12920963963781, -1.20236504496309], a = 0.2, v = 0.2, t = 0.2)
movej(p[0.429923000281228, -0.114061488455517, 0.304000121985449, -1.14014436765601, 1.12844157004302, -1.19026204228875], a = 0.2, v = 0.2, t = 0.2)
movej(p[0.431257639325379, -0.114047481435921, 0.303612963548593, -1.13970386979352, 1.13602758025671, -1.18268488728794], a = 0.2, v = 0.2, t = 0.2)
movej(p[0.433463138378954, -0.114722039065319, 0.30305761317333, -1.15153289326644, 1.15070737163417, -1.1771747588329], a = 0.2, v = 0.2, t = 0.2)
movej(p[0.435132208401909, -0.115034976782791, 0.302517061257735, -1.14962317696283, 1.15537510232635, -1.18304819375161], a = 0.2, v = 0.2, t = 0.2)
movej(p[0.437215293061863, -0.115526104391786, 0.30198694308115, -1.14947753493058, 1.15696604127679, -1.18715984775672], a = 0.2, v = 0.2, t = 0.2)
movej(p[0.439419451316214, -0.116339575888334, 0.301424814079868, -1.14917752794496, 1.16008060505748, -1.19511706449016], a = 0.2, v = 0.2, t = 0.2)
movej(p[0.441401809168997, -0.11735327276149, 0.301060400835233, -1.15438211420538, 1.16096241365379, -1.19604126392472], a = 0.2, v = 0.2, t = 0.2)
movej(p[0.442653684047293, -0.117674103696146, 0.300684150984126, -1.15886647747451, 1.16312354924185, -1.19591624862859], a = 0.2, v = 0.2, t = 0.2)
movej(p[0.443882307159577, -0.118001837152925, 0.300335191617912, -1.15947931067812, 1.16287006247215, -1.19696830970731], a = 0.2, v = 0.2, t = 0.2)
movej(p[0.444599515587276, -0.11828378557595, 0.300180994186054, -1.16092731548169, 1.16425866329791, -1.19608564988743], a = 0.2, v = 0.2, t = 0.2)
movej(p[0.445285544762176, -0.11887161743298, 0.300148269133759, -1.16205575658793, 1.16616726996355, -1.19600443976633], a = 0.2, v = 0.2, t = 0.2)
movej(p[0.44539150853665, -0.118869956180299, 0.300145487274915, -1.16310533975849, 1.16812211164376, -1.19275687111312], a = 0.2, v = 0.2, t = 0.2)
movej(p[0.445564104005767, -0.118726752967333, 0.299983848622865, -1.16304157779556, 1.16976604737027, -1.19273510611565], a = 0.2, v = 0.2, t = 0.2)
movej(p[0.445563745908424, -0.118702962412563, 0.299984415429759, -1.15962014090804, 1.17523662559282, -1.19818170624919], a = 0.2, v = 0.2, t = 0.2)
movej(p[0.44366124364565, -0.118608960791099, 0.300677681998477, -1.15355277495998, 1.17487925530586, -1.20871799648201], a = 0.2, v = 0.2, t = 0.2)
movej(p[0.441268845027991, -0.117803927809606, 0.301265125759983, -1.15341653948984, 1.17454965326456, -1.21299924674503], a = 0.2, v = 0.2, t = 0.2)
movej(p[0.439062088957683, -0.11684833976987, 0.301768501637906, -1.15053788865272, 1.17135373194137, -1.21515769919166], a = 0.2, v = 0.2, t = 0.2)
movej(p[0.436975475287494, -0.115974282565888, 0.302225947389387, -1.14696363225681, 1.16364450055707, -1.21730015491214], a = 0.2, v = 0.2, t = 0.2)
movej(p[0.435016345390715, -0.115471297565433, 0.302756584173698, -1.1481448012875, 1.16255346340097, -1.21761651788465], a = 0.2, v = 0.2, t = 0.2)
movej(p[0.433367425525484, -0.114854376346774, 0.303118273733976, -1.1505749992283, 1.15977540373376, -1.21411069493329], a = 0.2, v = 0.2, t = 0.2)
movej(p[0.431956396724685, -0.114235488589018, 0.303417548919408, -1.15148020168357, 1.15727827801336, -1.20976471287016], a = 0.2, v = 0.2, t = 0.2)
movej(p[0.430631266567417, -0.113801233544224, 0.303777787982211, -1.14915323494668, 1.15180562321609, -1.20381957146099], a = 0.2, v = 0.2, t = 0.2)
movej(p[0.430494150461108, -0.113751892463291, 0.303845619546567, -1.15089894324821, 1.14743104709419, -1.19658672782392], a = 0.2, v = 0.2, t = 0.2)
movej(p[0.430494150461108, -0.113751892463291, 0.303845619546567, -1.14849468153938, 1.14718855007568, -1.18139765183833], a = 0.2, v = 0.2, t = 0.2)
movej(p[0.431461805234669, -0.113729595360239, 0.303521089535013, -1.14716859570053, 1.15054227261497, -1.17385980824997], a = 0.2, v = 0.2, t = 0.2)
movej(p[0.433110811643345, -0.113925480742904, 0.303043196156731, -1.14584037832388, 1.15319597793326, -1.16603746440573], a = 0.2, v = 0.2, t = 0.2)
movej(p[0.435135828010475, -0.11486717110662, 0.302694063414442, -1.14753263650517, 1.15475874767681, -1.16501803585368], a = 0.2, v = 0.2, t = 0.2)
movej(p[0.437302097749945, -0.115412458167981, 0.302075329120443, -1.15134980461186, 1.1655337511522, -1.17421254775839], a = 0.2, v = 0.2, t = 0.2)
movej(p[0.439086354921072, -0.115942367645667, 0.301615345661242, -1.15364003417269, 1.17105837238534, -1.17623518544379], a = 0.2, v = 0.2, t = 0.2)
movej(p[0.440870373168215, -0.116606116845397, 0.301179842637465, -1.15477991323051, 1.17094408135226, -1.17921295823183], a = 0.2, v = 0.2, t = 0.2)
movej(p[0.442454112012664, -0.11731440767618, 0.30080776613779, -1.15930700495978, 1.17117803425896, -1.181495138994], a = 0.2, v = 0.2, t = 0.2)
movej(p[0.44350877179113, -0.117827655384749, 0.300539559423972, -1.16006687610208, 1.17197038106217, -1.18123931017403], a = 0.2, v = 0.2, t = 0.2)
movej(p[0.444006761840344, -0.117957115073408, 0.300396841906143, -1.1607598564406, 1.17253822222343, -1.18090299787199], a = 0.2, v = 0.2, t = 0.2)
movej(p[0.444721045480924, -0.118202462525414, 0.300237166834216, -1.16156906062634, 1.17125233131284, -1.17961882606086], a = 0.2, v = 0.2, t = 0.2)
movej(p[0.445619703169141, -0.118771200169247, 0.300062206004611, -1.16452101037513, 1.1691536131956, -1.18223856111548], a = 0.2, v = 0.2, t = 0.2)
movej(p[0.446039123716065, -0.118852865563939, 0.300022048463254, -1.16717023558255, 1.17205822962038, -1.1807616888185], a = 0.2, v = 0.2, t = 0.2)
movej(p[0.446218620569391, -0.11885089907691, 0.300023519032717, -1.16287259654596, 1.17600039981827, -1.17945833186917], a = 0.2, v = 0.2, t = 0.2)
movej(p[0.446218610037117, -0.118850199354711, 0.300023535703508, -1.16044701162094, 1.17883961513652, -1.18111726110319], a = 0.2, v = 0.2, t = 0.2)
movej(p[0.445274843457512, -0.118710155660248, 0.300355752043958, -1.15565410213111, 1.17834798746651, -1.18563166258762], a = 0.2, v = 0.2, t = 0.2)
movej(p[0.443968636497831, -0.118677285391109, 0.300762608104364, -1.15142461224729, 1.17976712198485, -1.19357867267641], a = 0.2, v = 0.2, t = 0.2)
movej(p[0.442060442324759, -0.117952734414042, 0.301250765598912, -1.15081436677677, 1.18118129041591, -1.1958449206436], a = 0.2, v = 0.2, t = 0.2)
movej(p[0.439936405477247, -0.11692639033356, 0.301712850643979, -1.1511956144759, 1.18035475791686, -1.19681701919588], a = 0.2, v = 0.2, t = 0.2)
movej(p[0.43776931061417, -0.116353877583139, 0.302212867748716, -1.1491648302769, 1.17333902483464, -1.20063650790608], a = 0.2, v = 0.2, t = 0.2)
movej(p[0.435931810109636, -0.115959987607133, 0.302713346671988, -1.14843482940358, 1.16707617308639, -1.20231789865651], a = 0.2, v = 0.2, t = 0.2)
movej(p[0.434139212467566, -0.115303460883809, 0.303072870489286, -1.14711424686249, 1.16039983973705, -1.20298176594778], a = 0.2, v = 0.2, t = 0.2)
movej(p[0.432421668205788, -0.114620181361215, 0.303486438250164, -1.14609089074759, 1.15327364868321, -1.20114564320334], a = 0.2, v = 0.2, t = 0.2)
movej(p[0.430699948713114, -0.114321432399719, 0.303883845719335, -1.14441551966674, 1.14563957539693, -1.19968891411301], a = 0.2, v = 0.2, t = 0.2)
movej(p[0.430505636682779, -0.114222334206234, 0.303964360580789, -1.14593666249511, 1.14208370514674, -1.19494857257492], a = 0.2, v = 0.2, t = 0.2)
movej(p[0.430504141099758, -0.114122973653962, 0.303966727833111, -1.14217109816237, 1.14104144395783, -1.18070838269317], a = 0.2, v = 0.2, t = 0.2)
movej(p[0.431490089219464, -0.114099440324315, 0.303601867123191, -1.14417638526349, 1.14691442136193, -1.16835179087217], a = 0.2, v = 0.2, t = 0.2)
movej(p[0.432515261096814, -0.114108300782116, 0.303370159518272, -1.1459793544179, 1.15155207783824, -1.16426517010863], a = 0.2, v = 0.2, t = 0.2)
movej(p[0.434773801099494, -0.114676525771719, 0.302836123866383, -1.14771126506858, 1.15919103851516, -1.16566699900023], a = 0.2, v = 0.2, t = 0.2)
movej(p[0.437972951734743, -0.11563688293841, 0.302051371793835, -1.15119241137297, 1.16563601617143, -1.17288703533261], a = 0.2, v = 0.2, t = 0.2)
movej(p[0.44046941789052, -0.116400388952204, 0.301436858335917, -1.14884669480015, 1.17214221174827, -1.18465033362651], a = 0.2, v = 0.2, t = 0.2)
movej(p[0.442037151926133, -0.117026165739139, 0.301059654589233, -1.15328998164019, 1.1700924785935, -1.19436313136347], a = 0.2, v = 0.2, t = 0.2)
movej(p[0.443674878715917, -0.118048669460026, 0.300737986634977, -1.15598407818755, 1.16831561313447, -1.19708710181301], a = 0.2, v = 0.2, t = 0.2)
movej(p[0.4442539512773, -0.118212806838288, 0.300552603626826, -1.16083914555334, 1.17030229937265, -1.19307478328788], a = 0.2, v = 0.2, t = 0.2)
movej(p[0.444787507017578, -0.118359597153933, 0.300399761338015, -1.15992642161957, 1.17043730456916, -1.19084590445577], a = 0.2, v = 0.2, t = 0.2)
movej(p[0.445196495970942, -0.118590470573538, 0.300304675323552, -1.15897354717265, 1.16952596277673, -1.19143178629198], a = 0.2, v = 0.2, t = 0.2)
movej(p[0.445199517229199, -0.118791190884366, 0.300299893188077, -1.15774769122266, 1.17215732586806, -1.19526946136488], a = 0.2, v = 0.2, t = 0.2)
movej(p[0.445187842772871, -0.118793033404094, 0.300369853478175, -1.1573417644717, 1.17713390153542, -1.20209804330953], a = 0.2, v = 0.2, t = 0.2)
movej(p[0.443359005848748, -0.118335666301804, 0.300861028272627, -1.1550042014892, 1.18235924675392, -1.20995852449689], a = 0.2, v = 0.2, t = 0.2)
movej(p[0.441183818311511, -0.117740929651024, 0.301464472341343, -1.14809356919461, 1.17967969283508, -1.21849637330375], a = 0.2, v = 0.2, t = 0.2)
movej(p[0.439218221572321, -0.117385960954891, 0.302031231190989, -1.15239927161663, 1.17650762138907, -1.22316511354835], a = 0.2, v = 0.2, t = 0.2)
movej(p[0.43702162627237, -0.116483264552896, 0.302485207439331, -1.15167630030426, 1.17522555892956, -1.2234015135264], a = 0.2, v = 0.2, t = 0.2)
movej(p[0.434984920198158, -0.115448862460611, 0.302916185499959, -1.14725390072767, 1.1686073569326, -1.22088968341782], a = 0.2, v = 0.2, t = 0.2)
movej(p[0.433233767880058, -0.114988543928231, 0.303387146164517, -1.14338215360239, 1.16152037990351, -1.21817458340396], a = 0.2, v = 0.2, t = 0.2)
movej(p[0.433011048796777, -0.114867348179653, 0.303391399453723, -1.13680222919903, 1.16474437038684, -1.20850326209294], a = 0.2, v = 0.2, t = 0.2)
movej(p[0.432956492142337, -0.114378330374509, 0.303402123618432, -1.13596725240027, 1.16786537833105, -1.20459009754026], a = 0.2, v = 0.2, t = 0.2)
movej(p[0.433004431271268, -0.114376716825022, 0.303364685183965, -1.14747459646327, 1.17019076894844, -1.19409816833365], a = 0.2, v = 0.2, t = 0.2)
movej(p[0.43316992132575, -0.114450675332016, 0.303281509519792, -1.15278788531338, 1.16895156303262, -1.18838431283354], a = 0.2, v = 0.2, t = 0.2)
movej(p[0.434488709957387, -0.115070097897365, 0.302963202120254, -1.15218442502017, 1.16935002447715, -1.1877723166677], a = 0.2, v = 0.2, t = 0.2)
movej(p[0.436839403292788, -0.115568183418372, 0.302356730854104, -1.14366096772111, 1.17789885566083, -1.18943194893592], a = 0.2, v = 0.2, t = 0.2)
movej(p[0.438997971655703, -0.116027984881595, 0.301810741534573, -1.14290546820354, 1.17907750008631, -1.19062458664031], a = 0.2, v = 0.2, t = 0.2)
movej(p[0.441438782580691, -0.117096674135983, 0.301180470699127, -1.14899896965285, 1.17787397539398, -1.19400001661556], a = 0.2, v = 0.2, t = 0.2)
movej(p[0.443016775676674, -0.118046311662173, 0.300861488539934, -1.14812266434431, 1.18113802759947, -1.19643786777809], a = 0.2, v = 0.2, t = 0.2)
movej(p[0.443888574356312, -0.118251382616964, 0.300614033138533, -1.15149371349921, 1.18386602183926, -1.19495615184893], a = 0.2, v = 0.2, t = 0.2)
movej(p[0.444246597050226, -0.118433450604833, 0.300520924554418, -1.15174674210518, 1.18387894328222, -1.19503250990743], a = 0.2, v = 0.2, t = 0.2)
movej(p[0.444377824038852, -0.118458486987361, 0.300474773855549, -1.15205112150441, 1.18368566937549, -1.19534821237781], a = 0.2, v = 0.2, t = 0.2)
movej(p[0.445032907689195, -0.11857581314691, 0.300320926290282, -1.15254212518394, 1.18382395393639, -1.19538137315768], a = 0.2, v = 0.2, t = 0.2)
movej(p[0.445503286669277, -0.118897667920377, 0.300203540772038, -1.15304028943806, 1.18306147777498, -1.19460712805266], a = 0.2, v = 0.2, t = 0.2)
movej(p[0.445995581209288, -0.119165295782418, 0.300066183015305, -1.15912558971992, 1.18641063939779, -1.18886281870293], a = 0.2, v = 0.2, t = 0.2)
movej(p[0.446351917650512, -0.11917402698356, 0.299880975761714, -1.15912558971992, 1.18641063939779, -1.18886281870293], a = 0.2, v = 0.2, t = 0.2)
movej(p[0.44635509689289, -0.119385243127375, 0.299875943564374, -1.15603313681339, 1.19136823453571, -1.19717912737234], a = 0.2, v = 0.2, t = 0.2)
movej(p[0.445810959983019, -0.11939888235248, 0.300104647116716, -1.1543627134566, 1.19378140356184, -1.2016589238468], a = 0.2, v = 0.2, t = 0.2)
movej(p[0.443639406801207, -0.118736323238653, 0.300676982585866, -1.15164160115906, 1.19640575290278, -1.20535728083068], a = 0.2, v = 0.2, t = 0.2)
movej(p[0.44144315326249, -0.117786370123795, 0.301234554906955, -1.14764312887087, 1.19010455524075, -1.21031590742637], a = 0.2, v = 0.2, t = 0.2)
movej(p[0.439073961262079, -0.117393736071891, 0.301867533663688, -1.14911772928752, 1.17966774621616, -1.21593570279838], a = 0.2, v = 0.2, t = 0.2)
movej(p[0.437153617120392, -0.116755080254899, 0.302350579432649, -1.15097571427271, 1.17616734417938, -1.21830393086073], a = 0.2, v = 0.2, t = 0.2)
movej(p[0.434939780462242, -0.115768816060612, 0.30290558087418, -1.14635930969925, 1.16606271182796, -1.22288345437652], a = 0.2, v = 0.2, t = 0.2)
movej(p[0.432691855938148, -0.115036492613432, 0.303499509996791, -1.14660869360153, 1.15930916095089, -1.21999004928597], a = 0.2, v = 0.2, t = 0.2)
movej(p[0.432575418560895, -0.114574972055133, 0.303508355981527, -1.14374587015409, 1.15505849663038, -1.19988348447794], a = 0.2, v = 0.2, t = 0.2)
movej(p[0.432575858138868, -0.114574432019381, 0.303485966807076, -1.14692435893431, 1.16138355214946, -1.18121111949465], a = 0.2, v = 0.2, t = 0.2)
movej(p[0.435413302823078, -0.114995562773433, 0.302703117599348, -1.14271956812545, 1.16768451948137, -1.17338102521084], a = 0.2, v = 0.2, t = 0.2)
movej(p[0.43864774457732, -0.115894462918284, 0.301859511288323, -1.13758826722395, 1.17687948280944, -1.18199560126537], a = 0.2, v = 0.2, t = 0.2)
movej(p[0.441114425765748, -0.116906599068697, 0.30121490462711, -1.14554409410981, 1.17664905920801, -1.19502782193149], a = 0.2, v = 0.2, t = 0.2)
movej(p[0.442620457403827, -0.117865868656783, 0.300834848562195, -1.14865293401805, 1.17914954119127, -1.19367096521029], a = 0.2, v = 0.2, t = 0.2)
movej(p[0.443333849639005, -0.118045799118411, 0.300612002589006, -1.15119541820442, 1.18174065911645, -1.19213705075713], a = 0.2, v = 0.2, t = 0.2)
movej(p[0.444133196730368, -0.118217780206092, 0.300386933970558, -1.15187332225876, 1.18582723110062, -1.19353282358899], a = 0.2, v = 0.2, t = 0.2)
movej(p[0.444693189111124, -0.118560050839959, 0.300255107847628, -1.15251899784302, 1.18583685435399, -1.19375193672103], a = 0.2, v = 0.2, t = 0.2)
movej(p[0.445462119587064, -0.119035114899651, 0.300051245633473, -1.15659580505484, 1.18572268928995, -1.18969736916793], a = 0.2, v = 0.2, t = 0.2)
movej(p[0.445795798980526, -0.119026997028487, 0.299921326687408, -1.15775406821091, 1.18954052213798, -1.18619050029218], a = 0.2, v = 0.2, t = 0.2)
movej(p[0.446133352275818, -0.119020309228077, 0.29985387947721, -1.157167514248, 1.19122076312751, -1.18610075703638], a = 0.2, v = 0.2, t = 0.2)
movej(p[0.446372222001447, -0.119138504554426, 0.29978008185525, -1.15692407244382, 1.19160042347174, -1.18647764001843], a = 0.2, v = 0.2, t = 0.2)
movej(p[0.446376507132679, -0.119423191529146, 0.299773299224856, -1.1557580673774, 1.19368811250482, -1.19083760014737], a = 0.2, v = 0.2, t = 0.2)
movej(p[0.445980366362072, -0.119432317506567, 0.299906069501646, -1.1529930005754, 1.19512361764286, -1.19455602911377], a = 0.2, v = 0.2, t = 0.2)
movej(p[0.445007641758918, -0.119264787775144, 0.300170647534574, -1.15193607704859, 1.19566508596705, -1.19586350149322], a = 0.2, v = 0.2, t = 0.2)
movej(p[0.442120148860295, -0.118083271422826, 0.300956147814398, -1.14904274898441, 1.19067830722894, -1.20967164686527], a = 0.2, v = 0.2, t = 0.2)
movej(p[0.439295599717936, -0.117406592554224, 0.301703193724089, -1.14999243968355, 1.1859713457615, -1.21474946550614], a = 0.2, v = 0.2, t = 0.2)
movej(p[0.437239233302594, -0.116536861433659, 0.302226960803787, -1.14841419664516, 1.17147172153414, -1.21281540130039], a = 0.2, v = 0.2, t = 0.2)
movej(p[0.435271043732617, -0.115680465844757, 0.302727925744619, -1.14582722399848, 1.16721964376538, -1.21385692416631], a = 0.2, v = 0.2, t = 0.2)
movej(p[0.432955172225327, -0.114860938699919, 0.303309617931773, -1.13906484403719, 1.14849210709661, -1.21312010151236], a = 0.2, v = 0.2, t = 0.2)
movej(p[0.43187879513756, -0.114702791169778, 0.303512005638021, -1.14247155978301, 1.14241937244818, -1.20587623006462], a = 0.2, v = 0.2, t = 0.2)
movej(p[0.431876924906478, -0.11457854049928, 0.303514965894194, -1.14735089303151, 1.14412022050522, -1.17473902165142], a = 0.2, v = 0.2, t = 0.2)
movej(p[0.434802800079868, -0.114515298398466, 0.302709018503588, -1.14596273018845, 1.15725518582127, -1.16099806762856], a = 0.2, v = 0.2, t = 0.2)
movej(p[0.438597360010917, -0.115699720382233, 0.301740960243955, -1.14232097063341, 1.16947919154952, -1.16942100808828], a = 0.2, v = 0.2, t = 0.2)
movej(p[0.441302951607812, -0.117018031260397, 0.30110256347914, -1.14802603772612, 1.17437883187322, -1.18751100033052], a = 0.2, v = 0.2, t = 0.2)
movej(p[0.443007996532889, -0.11789511830234, 0.300694980868709, -1.15273506480692, 1.1752263105996, -1.18829182284499], a = 0.2, v = 0.2, t = 0.2)
movej(p[0.443690361000599, -0.118256621644404, 0.30049035731952, -1.15880073190958, 1.17909230955947, -1.1851925570242], a = 0.2, v = 0.2, t = 0.2)
movej(p[0.44427303266988, -0.118302709185678, 0.300349112304183, -1.16343517835182, 1.17920941306684, -1.18069721836182], a = 0.2, v = 0.2, t = 0.2)
movej(p[0.444741683214822, -0.118790326582875, 0.300238900005979, -1.16497008854452, 1.17874384899724, -1.18171752308601], a = 0.2, v = 0.2, t = 0.2)
movej(p[0.445101559970719, -0.119017038461643, 0.300160658683198, -1.16418880094064, 1.18262545710628, -1.18392897208986], a = 0.2, v = 0.2, t = 0.2)
movej(p[0.445459943133311, -0.119009032199331, 0.300051031640302, -1.16194635865823, 1.18530752160655, -1.18037297553843], a = 0.2, v = 0.2, t = 0.2)
movej(p[0.445785164238766, -0.119003875819613, 0.299956092215851, -1.16155313969778, 1.1854807407869, -1.1797434881698], a = 0.2, v = 0.2, t = 0.2)
movej(p[0.445976127555835, -0.11915467662467, 0.299935694207908, -1.16155313969778, 1.1854807407869, -1.1797434881698], a = 0.2, v = 0.2, t = 0.2)
movej(p[0.445976127555835, -0.11915467662467, 0.299935694207908, -1.15621793720425, 1.19495666328164, -1.19164342809915], a = 0.2, v = 0.2, t = 0.2)
movej(p[0.444518808990215, -0.118970985647475, 0.300315908072985, -1.15715620759745, 1.19375191787954, -1.19529145376255], a = 0.2, v = 0.2, t = 0.2)
movej(p[0.442908221734891, -0.11844237411237, 0.30072594420303, -1.15342386069219, 1.19825555890548, -1.20222456124926], a = 0.2, v = 0.2, t = 0.2)
movej(p[0.441312212166799, -0.118003234313995, 0.301142512512004, -1.15261385292996, 1.18771785891568, -1.21442873996314], a = 0.2, v = 0.2, t = 0.2)
movej(p[0.43989617863771, -0.117711852998577, 0.301500622150968, -1.15253832656519, 1.18608501377486, -1.21603948111863], a = 0.2, v = 0.2, t = 0.2)
movej(p[0.438320692856493, -0.116927824178524, 0.301864982827375, -1.15177873021785, 1.1830552656585, -1.21567743248592], a = 0.2, v = 0.2, t = 0.2)
movej(p[0.437754817227491, -0.116663818413705, 0.302002909578381, -1.1509798391073, 1.18200339209772, -1.2160806233965], a = 0.2, v = 0.2, t = 0.2)
movej(p[0.437308193951196, -0.116489955296494, 0.302115691161743, -1.15016965767517, 1.18117682086475, -1.21655794440929], a = 0.2, v = 0.2, t = 0.2)
movej(p[0.435910987472147, -0.116189848713707, 0.302476381865629, -1.14721610318954, 1.17221072170806, -1.21595072562424], a = 0.2, v = 0.2, t = 0.2)
movej(p[0.435908340861951, -0.116014018521104, 0.302480570997253, -1.14984511412698, 1.16458036316875, -1.20216771414499], a = 0.2, v = 0.2, t = 0.2)
movej(p[0.436748472093381, -0.115995476480303, 0.302233085165945, -1.14236289770715, 1.17381799835562, -1.1903068549916], a = 0.2, v = 0.2, t = 0.2)
movej(p[0.441745307229765, -0.117014023189178, 0.300953468847807, -1.14476117999593, 1.17620688373959, -1.18885506428582], a = 0.2, v = 0.2, t = 0.2)
movej(p[0.443897139585916, -0.118445236639972, 0.300416932391184, -1.15223355238012, 1.18005641834194, -1.18754684725643], a = 0.2, v = 0.2, t = 0.2)
movej(p[0.444756392753728, -0.118673112795966, 0.300178185200342, -1.15518045211987, 1.18286575086604, -1.18571284158435], a = 0.2, v = 0.2, t = 0.2)
movej(p[0.445194175841024, -0.118745539481924, 0.300068377078427, -1.15738497581795, 1.18823581071722, -1.18553192888959], a = 0.2, v = 0.2, t = 0.2)
movej(p[0.445534770842129, -0.119010558869151, 0.299981829810323, -1.15787968652263, 1.18793859288299, -1.18601393574963], a = 0.2, v = 0.2, t = 0.2)
movej(p[0.445745903578089, -0.119006149722444, 0.29993015440775, -1.15877382819734, 1.18724818088652, -1.18492015319304], a = 0.2, v = 0.2, t = 0.2)
movej(p[0.445832804086794, -0.119135980645189, 0.299896013185071, -1.16022389092271, 1.18666066815946, -1.18604082934912], a = 0.2, v = 0.2, t = 0.2)
movej(p[0.446028723531907, -0.119151323209177, 0.299849165380887, -1.16036052647743, 1.1868617817291, -1.18598066342225], a = 0.2, v = 0.2, t = 0.2)
movej(p[0.446308513910706, -0.119329152619817, 0.299818453906759, -1.16251370837371, 1.19271411778594, -1.18246625254837], a = 0.2, v = 0.2, t = 0.2)
movej(p[0.446308513910706, -0.119329152619817, 0.299818453906759, -1.16001315829971, 1.19661462777599, -1.18631731436715], a = 0.2, v = 0.2, t = 0.2)
movej(p[0.445262539680186, -0.119136652232721, 0.300076193193746, -1.15547070887989, 1.19697705766197, -1.19375666394085], a = 0.2, v = 0.2, t = 0.2)
movej(p[0.443916191750496, -0.118743487082301, 0.300421918238709, -1.15121957074414, 1.19725846374096, -1.200599584056], a = 0.2, v = 0.2, t = 0.2)
movej(p[0.442342555991549, -0.118370228469191, 0.300838137130523, -1.15171455555822, 1.19816813822722, -1.2135672315643], a = 0.2, v = 0.2, t = 0.2)
movej(p[0.441132238857574, -0.118133780075597, 0.301133529077558, -1.15212028494399, 1.19791309397829, -1.21397271329279], a = 0.2, v = 0.2, t = 0.2)
movej(p[0.439635220108169, -0.117614681281436, 0.301468728370262, -1.15431641116905, 1.19714900284031, -1.21152475982939], a = 0.2, v = 0.2, t = 0.2)
movej(p[0.439214741242209, -0.117395694920507, 0.301576808604385, -1.15461793773154, 1.19667712998403, -1.21105839139778], a = 0.2, v = 0.2, t = 0.2)
movej(p[0.43761828430988, -0.116805009780197, 0.301985317806527, -1.15401414059979, 1.18868179492471, -1.2185333670852], a = 0.2, v = 0.2, t = 0.2)
movej(p[0.436030043932519, -0.116606742390724, 0.302389025232758, -1.15472096425442, 1.1844852546232, -1.21919837850805], a = 0.2, v = 0.2, t = 0.2)
movej(p[0.434454060797181, -0.115939907816211, 0.302788667794761, -1.1540718249355, 1.17645357372302, -1.21685618204933], a = 0.2, v = 0.2, t = 0.2)
movej(p[0.433166577618195, -0.115264054978278, 0.30307603504287, -1.15123081673486, 1.17038516845823, -1.2032422736339], a = 0.2, v = 0.2, t = 0.2)
movej(p[0.433166577618195, -0.115264054978278, 0.30307603504287, -1.15054723446229, 1.16792297213073, -1.19440227690693], a = 0.2, v = 0.2, t = 0.2)
movej(p[0.434250470607687, -0.115337530484561, 0.302801201152478, -1.1494824885497, 1.16880563425432, -1.18891130364822], a = 0.2, v = 0.2, t = 0.2)
movej(p[0.434636441828787, -0.115502260672091, 0.302703456782829, -1.14888586712519, 1.17393454141439, -1.18321393827081], a = 0.2, v = 0.2, t = 0.2)
movej(p[0.43690950838778, -0.115719660713089, 0.30208262219893, -1.14858709575337, 1.18017963202455, -1.17700748205583], a = 0.2, v = 0.2, t = 0.2)
movej(p[0.440105382971932, -0.116687599302779, 0.301257103356649, -1.14807125541219, 1.18367784357578, -1.17882830179121], a = 0.2, v = 0.2, t = 0.2)
movej(p[0.442506302035124, -0.117744634287533, 0.300637335728414, -1.15382770963859, 1.18892019892572, -1.19016850649547], a = 0.2, v = 0.2, t = 0.2)
movej(p[0.444018239135047, -0.118558840648382, 0.300231380327133, -1.15578985721651, 1.19003111325536, -1.19159826113321], a = 0.2, v = 0.2, t = 0.2)
movej(p[0.444756172785287, -0.118758508102756, 0.30004625835246, -1.15616802806902, 1.19045214201685, -1.1918302342188], a = 0.2, v = 0.2, t = 0.2)
movej(p[0.445266614391414, -0.118954165199357, 0.299914394493558, -1.15725168215042, 1.19295926376816, -1.19267572058128], a = 0.2, v = 0.2, t = 0.2)
movej(p[0.445875064966916, -0.119432124057885, 0.299764239184874, -1.15975780074907, 1.19538389883438, -1.19108294527911], a = 0.2, v = 0.2, t = 0.2)
movej(p[0.446138065939722, -0.119474938230042, 0.299699336758377, -1.16142518392535, 1.19497339357941, -1.18694732889493], a = 0.2, v = 0.2, t = 0.2)
movej(p[0.446376216608947, -0.119469375327459, 0.299616304217389, -1.16169564539252, 1.19556711105804, -1.18643077465499], a = 0.2, v = 0.2, t = 0.2)
movej(p[0.446376227141221, -0.119470075049658, 0.299616287546598, -1.15781454384953, 1.20160473448915, -1.19238459231382], a = 0.2, v = 0.2, t = 0.2)
movej(p[0.445712964984777, -0.119484311911936, 0.299794814725429, -1.1578890237187, 1.20370455369988, -1.19913873796796], a = 0.2, v = 0.2, t = 0.2)
movej(p[0.44391949548152, -0.119177811067557, 0.300233020776597, -1.15615264121963, 1.20318658912848, -1.2063789268407], a = 0.2, v = 0.2, t = 0.2)
movej(p[0.44175067998484, -0.118440065460968, 0.300783712161423, -1.15233058898321, 1.19819035566418, -1.21273966764215], a = 0.2, v = 0.2, t = 0.2)
movej(p[0.439461911194603, -0.117662204605054, 0.301351024741639, -1.15170169191032, 1.19219209862085, -1.21856850420025], a = 0.2, v = 0.2, t = 0.2)
movej(p[0.437530788478527, -0.117330227564098, 0.301821259161619, -1.14904227311586, 1.18353833158305, -1.22349407400265], a = 0.2, v = 0.2, t = 0.2)
movej(p[0.435714293038935, -0.116759997469434, 0.302273278206662, -1.14663373132897, 1.17486536657848, -1.2250167573976], a = 0.2, v = 0.2, t = 0.2)
movej(p[0.43299624262665, -0.115683071286788, 0.302945327262466, -1.14407986880587, 1.16658870241618, -1.22439176811166], a = 0.2, v = 0.2, t = 0.2)
movej(p[0.431016996359786, -0.115158991952736, 0.303426053719743, -1.14280398569788, 1.15641952461007, -1.2216147717656], a = 0.2, v = 0.2, t = 0.2)
movej(p[0.43101498619991, -0.115025444973022, 0.303429235459282, -1.13959272145471, 1.15620886853633, -1.21185825918646], a = 0.2, v = 0.2, t = 0.2)
movej(p[0.431738209844645, -0.115108635794143, 0.303254537957933, -1.1378737094305, 1.16347996180675, -1.20410128899661], a = 0.2, v = 0.2, t = 0.2)
movej(p[0.433241118067053, -0.115076938366597, 0.302873611143299, -1.1397388409198, 1.17152989179433, -1.2001188571377], a = 0.2, v = 0.2, t = 0.2)
movej(p[0.435533981798518, -0.115781147837841, 0.302307955364987, -1.14058492445147, 1.17613853649962, -1.20104867476395], a = 0.2, v = 0.2, t = 0.2)
movej(p[0.438479242116438, -0.116897155907619, 0.301572292121457, -1.14041472430171, 1.18729734348898, -1.21241935668622], a = 0.2, v = 0.2, t = 0.2)
movej(p[0.44094945852916, -0.117568722807345, 0.300957880123275, -1.14405223623737, 1.19096320391805, -1.21334831839741], a = 0.2, v = 0.2, t = 0.2)
movej(p[0.442621646036748, -0.118147408055509, 0.300530237114418, -1.14281643833633, 1.19404232776792, -1.21695484355011], a = 0.2, v = 0.2, t = 0.2)
movej(p[0.443716685212744, -0.118676268865451, 0.300250040599913, -1.14374298281393, 1.19441126763722, -1.21737944153837], a = 0.2, v = 0.2, t = 0.2)
movej(p[0.444440374378995, -0.119209182130883, 0.300039692763752, -1.14920953782079, 1.19851829060599, -1.21519931821235], a = 0.2, v = 0.2, t = 0.2)
movej(p[0.444674629222613, -0.119224053698972, 0.299976300613575, -1.15083753824033, 1.19621574982016, -1.21276452927978], a = 0.2, v = 0.2, t = 0.2)
movej(p[0.444907171388666, -0.119202475550291, 0.299901948313632, -1.15098109170627, 1.19694269834419, -1.20935920758327], a = 0.2, v = 0.2, t = 0.2)
movej(p[0.445032469930584, -0.119215500274525, 0.299843364852212, -1.15263671870358, 1.19894088927919, -1.20792383644028], a = 0.2, v = 0.2, t = 0.2)
movej(p[0.445032224679042, -0.119199206743317, 0.299843753043488, -1.15190524262722, 1.21105414771297, -1.21018271767468], a = 0.2, v = 0.2, t = 0.2)
movej(p[0.443529794731987, -0.119065554202858, 0.300175251735221, -1.15308150707792, 1.21036459017473, -1.21145881558624], a = 0.2, v = 0.2, t = 0.2)
movej(p[0.441413678238304, -0.118264691524713, 0.300700786801526, -1.15146690039319, 1.20290516671097, -1.22309802337346], a = 0.2, v = 0.2, t = 0.2)
movej(p[0.439143282588299, -0.117642865862617, 0.301253391016493, -1.14590718722861, 1.19296411313103, -1.23104588865192], a = 0.2, v = 0.2, t = 0.2)
movej(p[0.437405159263554, -0.117448470652183, 0.301636753951759, -1.1462640022103, 1.1862640581788, -1.23039203113292], a = 0.2, v = 0.2, t = 0.2)
movej(p[0.435378928647057, -0.116639624905181, 0.302148538756465, -1.14474965474796, 1.18207097659576, -1.23035890703897], a = 0.2, v = 0.2, t = 0.2)
movej(p[0.433511466946341, -0.115876165135158, 0.302612321847915, -1.14770991674642, 1.17524721520918, -1.22057814842375], a = 0.2, v = 0.2, t = 0.2)
movej(p[0.433504183126012, -0.115392257254323, 0.302623850890661, -1.14909802985524, 1.16635925097629, -1.19981701540238], a = 0.2, v = 0.2, t = 0.2)
movej(p[0.434103496291785, -0.115380977438133, 0.302529037942822, -1.14069917687472, 1.17157919366621, -1.18792642042737], a = 0.2, v = 0.2, t = 0.2)
movej(p[0.438194991978523, -0.116057694197659, 0.301588860362375, -1.14312739790625, 1.17388833279127, -1.18642219825791], a = 0.2, v = 0.2, t = 0.2)
movej(p[0.440086025956701, -0.116624280873274, 0.30112338539807, -1.14514947083151, 1.18215506547717, -1.19150904525918], a = 0.2, v = 0.2, t = 0.2)
movej(p[0.441299157811631, -0.1171374221263, 0.300803866311009, -1.1468624877782, 1.18727506717953, -1.19953654824921], a = 0.2, v = 0.2, t = 0.2)
movej(p[0.44303461249944, -0.118040219816828, 0.300339933377776, -1.15414596623041, 1.19019211769279, -1.20117407869252], a = 0.2, v = 0.2, t = 0.2)
movej(p[0.443806415284421, -0.11852318059421, 0.300108223691734, -1.15707055820756, 1.19304078217627, -1.19931941825105], a = 0.2, v = 0.2, t = 0.2)
movej(p[0.444365653745691, -0.11862378592599, 0.299973007381129, -1.15865386261282, 1.19423210525158, -1.19482583850891], a = 0.2, v = 0.2, t = 0.2)
movej(p[0.444680221712819, -0.118700449318296, 0.299900197022403, -1.15896018949106, 1.19364754740585, -1.19386391844923], a = 0.2, v = 0.2, t = 0.2)
movej(p[0.445206092555854, -0.119125494742578, 0.299719181929822, -1.16263702203017, 1.19721119785392, -1.19152418136919], a = 0.2, v = 0.2, t = 0.2)
movej(p[0.445473925728176, -0.1191201161976, 0.299662640236729, -1.16470840249683, 1.20030153967294, -1.18316791449414], a = 0.2, v = 0.2, t = 0.2)
movej(p[0.445790936119066, -0.119113908881823, 0.299602381782561, -1.16470840249683, 1.20030153967294, -1.18316791449414], a = 0.2, v = 0.2, t = 0.2)
movej(p[0.445792282745629, -0.119203373362994, 0.299600250302855, -1.16144039584603, 1.20288732070888, -1.1889972900344], a = 0.2, v = 0.2, t = 0.2)
movej(p[0.445445654271705, -0.119209681254588, 0.299646018103419, -1.16087328712423, 1.2020115126562, -1.19500248233589], a = 0.2, v = 0.2, t = 0.2)
movej(p[0.443561455440698, -0.118724240382586, 0.300128979328591, -1.15865922917528, 1.20312998006522, -1.19853866111136], a = 0.2, v = 0.2, t = 0.2)
movej(p[0.441683100748308, -0.117922623096467, 0.30063448875103, -1.15626903520469, 1.20374591584939, -1.20115027689964], a = 0.2, v = 0.2, t = 0.2)
movej(p[0.43992574526013, -0.117353394910123, 0.301086144028915, -1.15180311748659, 1.19360869213676, -1.21132556437013], a = 0.2, v = 0.2, t = 0.2)
movej(p[0.438522141183772, -0.117211678946587, 0.301401968905246, -1.15065995360348, 1.1883876579222, -1.21617638524338], a = 0.2, v = 0.2, t = 0.2)
movej(p[0.437247531592729, -0.116720237681662, 0.301745269886238, -1.1537081098575, 1.18460410952884, -1.21794195461648], a = 0.2, v = 0.2, t = 0.2)
movej(p[0.435734930110474, -0.116211464958194, 0.302121934474081, -1.14624241558189, 1.17832774970743, -1.22111139715675], a = 0.2, v = 0.2, t = 0.2)
movej(p[0.434583445508434, -0.11579932632399, 0.302453634168778, -1.14953998603682, 1.16251162525436, -1.21176337961167], a = 0.2, v = 0.2, t = 0.2)
movej(p[0.434582630009443, -0.115745147833716, 0.30245492496431, -1.14466407453297, 1.1591645440835, -1.18829602818042], a = 0.2, v = 0.2, t = 0.2)
movej(p[0.437124705753806, -0.115695044618971, 0.301957978460356, -1.14685033020809, 1.17415434121091, -1.17384693514692], a = 0.2, v = 0.2, t = 0.2)
movej(p[0.439873880879284, -0.11630487964706, 0.301359936941757, -1.14741408274147, 1.17611281808012, -1.17404508512765], a = 0.2, v = 0.2, t = 0.2)
movej(p[0.440800461443335, -0.116536802581159, 0.301148826778661, -1.15105101310762, 1.17464810986763, -1.17898038687454], a = 0.2, v = 0.2, t = 0.2)
movej(p[0.442880433278527, -0.117513215165182, 0.300582830567925, -1.15345816966445, 1.17904917595141, -1.18776962523178], a = 0.2, v = 0.2, t = 0.2)
movej(p[0.44436163922896, -0.118374472952826, 0.300167233087634, -1.16164509947092, 1.18497428445052, -1.18752767466674], a = 0.2, v = 0.2, t = 0.2)
movej(p[0.444935577774141, -0.118667979029409, 0.299987733256533, -1.16489516641996, 1.18809344110459, -1.18548621235822], a = 0.2, v = 0.2, t = 0.2)
movej(p[0.445250942899536, -0.118678669237153, 0.299947044595422, -1.16187383448984, 1.19188593656562, -1.17960705150121], a = 0.2, v = 0.2, t = 0.2)
movej(p[0.445472722155569, -0.118936500907488, 0.299874245616268, -1.16444786879859, 1.19434449632127, -1.17797658877759], a = 0.2, v = 0.2, t = 0.2)
movej(p[0.445566556431959, -0.118941862453123, 0.299847845002587, -1.16577415316429, 1.19375056518613, -1.18004238385637], a = 0.2, v = 0.2, t = 0.2)
movej(p[0.445567113137913, -0.118978847769361, 0.299846963832205, -1.16279658922727, 1.19314595253977, -1.18321012371875], a = 0.2, v = 0.2, t = 0.2)
movej(p[0.445278417641973, -0.118984613781734, 0.299906588271203, -1.15997381751985, 1.199308295128, -1.19419143115725], a = 0.2, v = 0.2, t = 0.2)
movej(p[0.443677421461789, -0.118665017427037, 0.300269450725995, -1.15836276839526, 1.20149553561007, -1.19665260694719], a = 0.2, v = 0.2, t = 0.2)
movej(p[0.442133634248316, -0.11833295293869, 0.300598620158201, -1.15715833181184, 1.19869993836293, -1.21076323354879], a = 0.2, v = 0.2, t = 0.2)
movej(p[0.440686695943014, -0.117676089892547, 0.300990250825107, -1.15447334802408, 1.19719651800297, -1.21490440487942], a = 0.2, v = 0.2, t = 0.2)
movej(p[0.439417816583089, -0.117417090016264, 0.301301444870746, -1.15447856319483, 1.19529301709387, -1.21682947046357], a = 0.2, v = 0.2, t = 0.2)
movej(p[0.438964951831216, -0.117278874869424, 0.301357116943595, -1.15398910469432, 1.19078883161794, -1.21795772150368], a = 0.2, v = 0.2, t = 0.2)
movej(p[0.438698843916714, -0.117286017351955, 0.30148878627481, -1.15683483107699, 1.18255897701062, -1.21212911963512], a = 0.2, v = 0.2, t = 0.2)
movej(p[0.438690919132233, -0.116759526377288, 0.301501329854266, -1.14910193001019, 1.1790465671581, -1.18123580299128], a = 0.2, v = 0.2, t = 0.2)
movej(p[0.440377928275027, -0.116728959520414, 0.301284167727289, -1.14767875378338, 1.17991605909711, -1.17963015952274], a = 0.2, v = 0.2, t = 0.2)
movej(p[0.441423256706, -0.116959053481269, 0.301046118949563, -1.14767875378338, 1.17991605909711, -1.17963015952274], a = 0.2, v = 0.2, t = 0.2)
movej(p[0.442898442499174, -0.11764209508718, 0.300641605253612, -1.15607451660472, 1.18837459102175, -1.17757775070295], a = 0.2, v = 0.2, t = 0.2)
movej(p[0.444192557590806, -0.118081507085985, 0.300335459365323, -1.15628619375213, 1.18998663907164, -1.18270489280013], a = 0.2, v = 0.2, t = 0.2)
movej(p[0.444778873415638, -0.118533823141661, 0.300127960186218, -1.15879740831668, 1.18840269651862, -1.18534281429335], a = 0.2, v = 0.2, t = 0.2)
movej(p[0.444999035866797, -0.118739240182715, 0.300062796819637, -1.15981838958757, 1.18938147232764, -1.18469895338935], a = 0.2, v = 0.2, t = 0.2)
movej(p[0.44547257646941, -0.119098857960008, 0.299894838485721, -1.16220026663873, 1.19107766634367, -1.17905965955967], a = 0.2, v = 0.2, t = 0.2)
movej(p[0.445972094181613, -0.119121705802361, 0.299813150718612, -1.16246423959001, 1.19066509035044, -1.17865163034115], a = 0.2, v = 0.2, t = 0.2)
movej(p[0.446108714509197, -0.119213542530401, 0.299786104619564, -1.1627778113498, 1.1904636404002, -1.17897277094955], a = 0.2, v = 0.2, t = 0.2)
movej(p[0.446108714509197, -0.119213542530401, 0.299786104619564, -1.16229547235536, 1.19901004969842, -1.18771223857825], a = 0.2, v = 0.2, t = 0.2)
movej(p[0.445031902760954, -0.119127783132105, 0.299952921418626, -1.16085567077492, 1.20129588102481, -1.19004212677517], a = 0.2, v = 0.2, t = 0.2)
movej(p[0.443337597343544, -0.118467548742494, 0.300361687309214, -1.15796190116349, 1.19902983692437, -1.19580952654369], a = 0.2, v = 0.2, t = 0.2)
movej(p[0.44121805521792, -0.118069706155901, 0.300812002492169, -1.15643755973166, 1.19353580645552, -1.20538650539541], a = 0.2, v = 0.2, t = 0.2)
movej(p[0.4395465492409, -0.117666685755992, 0.301168489428877, -1.15527174951425, 1.19226519692258, -1.20625738963305], a = 0.2, v = 0.2, t = 0.2)
movej(p[0.437448480327151, -0.116964658075033, 0.301633866800831, -1.15713192008323, 1.18723617396643, -1.20606838474523], a = 0.2, v = 0.2, t = 0.2)
movej(p[0.435664392484879, -0.116486318829956, 0.302007868736223, -1.15432813566109, 1.17950768691048, -1.21148642264754], a = 0.2, v = 0.2, t = 0.2)
movej(p[0.433939303441127, -0.116183616799072, 0.302375791135139, -1.14738000376588, 1.16944022915521, -1.21455913794112], a = 0.2, v = 0.2, t = 0.2)
movej(p[0.432335392489604, -0.115952879492129, 0.302679025293458, -1.14369229901453, 1.16412377539307, -1.21391119444824], a = 0.2, v = 0.2, t = 0.2)
movej(p[0.430804452905336, -0.115212443257147, 0.303028501989741, -1.14082762683701, 1.15509307684001, -1.20323217679412], a = 0.2, v = 0.2, t = 0.2)
movej(p[0.430799511763844, -0.114884173585454, 0.303036322972261, -1.13798276291853, 1.15560519859879, -1.19641731206476], a = 0.2, v = 0.2, t = 0.2)
movej(p[0.431655674071806, -0.114868873608667, 0.302935044232458, -1.1422747374513, 1.16493092640948, -1.18856076748575], a = 0.2, v = 0.2, t = 0.2)
movej(p[0.433190210120308, -0.115331818529437, 0.302588629558721, -1.14206695509196, 1.16658602102193, -1.18883449063437], a = 0.2, v = 0.2, t = 0.2)
movej(p[0.435081597029679, -0.115805688955497, 0.302183025726926, -1.1424713590719, 1.1812142623221, -1.19370401017281], a = 0.2, v = 0.2, t = 0.2)
movej(p[0.437435700891015, -0.116455875746905, 0.301677002964274, -1.13878402102174, 1.18756449165682, -1.19972252689421], a = 0.2, v = 0.2, t = 0.2)
movej(p[0.439014467051296, -0.117085583709324, 0.30129121678876, -1.14244757623109, 1.19245778314608, -1.21505355178867], a = 0.2, v = 0.2, t = 0.2)
movej(p[0.43963445970472, -0.11747728650482, 0.301101248265841, -1.14472469718742, 1.19107373583059, -1.21725982515959], a = 0.2, v = 0.2, t = 0.2)
movej(p[0.442508786708452, -0.11856700057425, 0.300397042143668, -1.14589172474323, 1.18924807682803, -1.21543467809407], a = 0.2, v = 0.2, t = 0.2)
movej(p[0.444144538720571, -0.119229576695598, 0.300011782103868, -1.15660939694178, 1.18837855586817, -1.19434913524689], a = 0.2, v = 0.2, t = 0.2)
movej(p[0.445215969433602, -0.119911526751814, 0.299638086321175, -1.15635242875265, 1.18889464695029, -1.19372974861624], a = 0.2, v = 0.2, t = 0.2)
movej(p[0.445548223928534, -0.119979311994276, 0.299539724735677, -1.15609614630572, 1.189296164046, -1.19412855847906], a = 0.2, v = 0.2, t = 0.2)
movej(p[0.445548223928534, -0.119979311994276, 0.299539724735677, -1.15545332086268, 1.18957582826607, -1.19780612705931], a = 0.2, v = 0.2, t = 0.2)
movej(p[0.444123644211902, -0.119667600379304, 0.299820119243563, -1.15345053772165, 1.19457096414892, -1.22819913623151], a = 0.2, v = 0.2, t = 0.2)
movej(p[0.441900683952815, -0.119047901058836, 0.300328181541645, -1.14988958317005, 1.19805723490478, -1.23417630579138], a = 0.2, v = 0.2, t = 0.2)
movej(p[0.439861046687123, -0.118423676008326, 0.300749508565124, -1.1492171229445, 1.1973782116289, -1.23460807605411], a = 0.2, v = 0.2, t = 0.2)
movej(p[0.437220068986378, -0.117547777437623, 0.301350489228713, -1.14592548625865, 1.18889254519105, -1.23809903589916], a = 0.2, v = 0.2, t = 0.2)
movej(p[0.434727672394683, -0.116751755042465, 0.301912841268024, -1.14070322159008, 1.18237305850234, -1.24124784096221], a = 0.2, v = 0.2, t = 0.2)
movej(p[0.432511358425628, -0.116303179105607, 0.302318258817526, -1.13757985991621, 1.17335014709657, -1.24500894584687], a = 0.2, v = 0.2, t = 0.2)
movej(p[0.430409868601213, -0.115491849517836, 0.302800012102815, -1.13694848354158, 1.16754404545516, -1.24341908816339], a = 0.2, v = 0.2, t = 0.2)
movej(p[0.429361336753985, -0.115067003484213, 0.303041294806427, -1.1402819906389, 1.15552403311447, -1.2316659600871], a = 0.2, v = 0.2, t = 0.2)
movej(p[0.429259148604294, -0.114583238301938, 0.303166813093865, -1.13141922893912, 1.15947953571367, -1.2175828706764], a = 0.2, v = 0.2, t = 0.2)
movej(p[0.429258238314829, -0.114522762311873, 0.303168253926516, -1.13198092412696, 1.15954800593453, -1.20952995016484], a = 0.2, v = 0.2, t = 0.2)
movej(p[0.429992370603468, -0.114571281153318, 0.303128171451495, -1.13482621162917, 1.16617713007519, -1.19781584649416], a = 0.2, v = 0.2, t = 0.2)
movej(p[0.431352203756779, -0.114569669148494, 0.30289088102481, -1.13757336654932, 1.1707314604585, -1.19418872730316], a = 0.2, v = 0.2, t = 0.2)
movej(p[0.433127469391981, -0.114884492985949, 0.302563770774526, -1.1357525198032, 1.17793926883366, -1.19876394900575], a = 0.2, v = 0.2, t = 0.2)
movej(p[0.434357969292349, -0.115421910231479, 0.302253811874993, -1.13950193537362, 1.1844067677196, -1.2010142832788], a = 0.2, v = 0.2, t = 0.2)
movej(p[0.434874252759551, -0.115643903549001, 0.302114123942551, -1.13958856812744, 1.18679067650995, -1.20262579250346], a = 0.2, v = 0.2, t = 0.2)
movej(p[0.439037106372075, -0.117002721057793, 0.301174102177647, -1.14525620088553, 1.19332528723466, -1.20278111087663], a = 0.2, v = 0.2, t = 0.2)
movej(p[0.441945118913882, -0.117810312866567, 0.300595719521358, -1.14616815681275, 1.19421494010688, -1.20219970919475], a = 0.2, v = 0.2, t = 0.2)
movej(p[0.443975577143407, -0.119040153385854, 0.299949202912698, -1.15390027723173, 1.18597785330898, -1.19067535878879], a = 0.2, v = 0.2, t = 0.2)
movej(p[0.44456903097305, -0.119180893505992, 0.299827997217015, -1.15415993448274, 1.18633757618708, -1.19038227063861], a = 0.2, v = 0.2, t = 0.2)
movej(p[0.445097076133985, -0.119318811735527, 0.299719181960847, -1.15426197485506, 1.18646571511488, -1.1886554761871], a = 0.2, v = 0.2, t = 0.2)
movej(p[0.445344613867669, -0.119463226148798, 0.299651225153669, -1.15427378069304, 1.18645687987311, -1.18819249227463], a = 0.2, v = 0.2, t = 0.2)
movej(p[0.445344613867669, -0.119463226148798, 0.299651225153669, -1.15427378069304, 1.18645687987311, -1.18819249227463], a = 0.2, v = 0.2, t = 0.2)
movej(p[0.445082392819902, -0.119212314610555, 0.299770586169432, -1.15223459997108, 1.19377146473885, -1.19673744096177], a = 0.2, v = 0.2, t = 0.2)
movej(p[0.443579127646843, -0.118588830766887, 0.300141996974544, -1.14907192869809, 1.20077555664104, -1.2073997234695], a = 0.2, v = 0.2, t = 0.2)
movej(p[0.441879595915859, -0.117926427536979, 0.300540407587338, -1.1514982529946, 1.19606262435763, -1.21361294103674], a = 0.2, v = 0.2, t = 0.2)
movej(p[0.439989037108636, -0.117794148096993, 0.300768306460058, -1.15371611239472, 1.18489904028252, -1.22560119370647], a = 0.2, v = 0.2, t = 0.2)
movej(p[0.437694120502718, -0.117085017928698, 0.301247898991586, -1.14976523318963, 1.17208368851748, -1.22474464067421], a = 0.2, v = 0.2, t = 0.2)
movej(p[0.435209780735039, -0.116237020518061, 0.301804659487924, -1.1454644962404, 1.16527262676962, -1.22436221716805], a = 0.2, v = 0.2, t = 0.2)
movej(p[0.432797173493642, -0.115565968368985, 0.302279722254278, -1.14045691723753, 1.16510375087007, -1.218148227189], a = 0.2, v = 0.2, t = 0.2)
movej(p[0.43129734188212, -0.114771685323109, 0.302740161218869, -1.14101140667129, 1.15613273937179, -1.20677834945534], a = 0.2, v = 0.2, t = 0.2)
movej(p[0.431297337368288, -0.114771385442167, 0.302740168363494, -1.14507145117703, 1.14860306898653, -1.19725112623663], a = 0.2, v = 0.2, t = 0.2)
movej(p[0.433925838198644, -0.114726697402073, 0.30251251745994, -1.13968147506392, 1.15747451956291, -1.18661871136331], a = 0.2, v = 0.2, t = 0.2)
movej(p[0.437408463932727, -0.11547644802005, 0.301910093882094, -1.14430889718122, 1.16633998316177, -1.18436222717967], a = 0.2, v = 0.2, t = 0.2)
movej(p[0.439967956691337, -0.116672726422177, 0.301230452187357, -1.14579099308026, 1.17231069773101, -1.18261094553401], a = 0.2, v = 0.2, t = 0.2)
movej(p[0.440760969426778, -0.117026917827734, 0.301019773356767, -1.14420172268381, 1.17718495543427, -1.17708030523104], a = 0.2, v = 0.2, t = 0.2)
movej(p[0.443214714506662, -0.117582158625426, 0.300614143501452, -1.14432801686943, 1.17748675608411, -1.17707135420597], a = 0.2, v = 0.2, t = 0.2)
movej(p[0.443899932003825, -0.117993543076582, 0.300443289689879, -1.15238083231199, 1.18149783030059, -1.1894843112123], a = 0.2, v = 0.2, t = 0.2)
movej(p[0.444879083478241, -0.11888656671093, 0.300010865917816, -1.15269788374024, 1.18247481262044, -1.18953724627446], a = 0.2, v = 0.2, t = 0.2)
movej(p[0.445165594276649, -0.119018398290598, 0.299930671360657, -1.1528844439787, 1.18345383865879, -1.18958772432209], a = 0.2, v = 0.2, t = 0.2)
movej(p[0.445254693536769, -0.119068453921227, 0.299883490266049, -1.1529479370373, 1.18380635522852, -1.18963358035597], a = 0.2, v = 0.2, t = 0.2)
movej(p[0.445640435923205, -0.11910937507938, 0.29986706558577, -1.15295466039891, 1.18428340924244, -1.18980408790038], a = 0.2, v = 0.2, t = 0.2)
movej(p[0.445839136242584, -0.119326399466139, 0.299738070358609, -1.15319103959335, 1.18435270779856, -1.19066439973986], a = 0.2, v = 0.2, t = 0.2)
movej(p[0.445839136242584, -0.119326399466139, 0.299738070358609, -1.15331190201435, 1.18435570275394, -1.1912050990867], a = 0.2, v = 0.2, t = 0.2)
movej(p[0.444962974290731, -0.119010189462707, 0.299932593976336, -1.1523298406137, 1.18580662126969, -1.1928254945811], a = 0.2, v = 0.2, t = 0.2)
movej(p[0.443159001298312, -0.118288072732942, 0.300383019787339, -1.15074644605813, 1.18873988132034, -1.19657582704848], a = 0.2, v = 0.2, t = 0.2)
movej(p[0.441450371775689, -0.117549735412362, 0.300825904033456, -1.15180002770013, 1.19623349355191, -1.19824965290641], a = 0.2, v = 0.2, t = 0.2)
movej(p[0.439824466215854, -0.117357702978527, 0.301026623900074, -1.1509666410343, 1.19752712534296, -1.19953495037036], a = 0.2, v = 0.2, t = 0.2)
movej(p[0.438025819246557, -0.116481449057914, 0.301548604863756, -1.14631501774783, 1.19151371893003, -1.20400703854651], a = 0.2, v = 0.2, t = 0.2)
movej(p[0.43590526295224, -0.11590543361526, 0.301989791255725, -1.15204881194124, 1.17309305590169, -1.21683394959046], a = 0.2, v = 0.2, t = 0.2)
movej(p[0.434535097937156, -0.115863015360912, 0.302056257887494, -1.1553365169573, 1.16248481657088, -1.20948558473957], a = 0.2, v = 0.2, t = 0.2)
movej(p[0.434524084098369, -0.115432456332545, 0.302293336563143, -1.14612943448446, 1.16166411415687, -1.18061443439333], a = 0.2, v = 0.2, t = 0.2)
movej(p[0.435154991114026, -0.115423260270756, 0.302305945291967, -1.14783013418521, 1.16326397729742, -1.17957718659976], a = 0.2, v = 0.2, t = 0.2)
movej(p[0.438207994032151, -0.115848986674382, 0.301852174445418, -1.14958540439194, 1.16956108077272, -1.17860281771161], a = 0.2, v = 0.2, t = 0.2)
movej(p[0.441500535606818, -0.117208284700811, 0.301024916574839, -1.14734087982597, 1.17200967456942, -1.17880488024685], a = 0.2, v = 0.2, t = 0.2)
movej(p[0.442447710903089, -0.117540015952944, 0.30081710590502, -1.14975905713098, 1.17624535771499, -1.17805633423096], a = 0.2, v = 0.2, t = 0.2)
movej(p[0.443679909655549, -0.117882530208393, 0.300595321822521, -1.15666171446972, 1.18814244672006, -1.18604626546132], a = 0.2, v = 0.2, t = 0.2)
movej(p[0.444959723227971, -0.118706374964716, 0.300123947239704, -1.15839087959453, 1.18709485132526, -1.18773844571991], a = 0.2, v = 0.2, t = 0.2)
movej(p[0.44553815328451, -0.119112566373956, 0.299907000751482, -1.15955245017118, 1.18576947259679, -1.18697235923588], a = 0.2, v = 0.2, t = 0.2)
