def moving():
set_payload_mass(0)
set_tcp(p[0,0,0,0,0,0])
movej(p[0.3913, 0.286, 0.3028, -1.496, 0.618, -0.599], a = 0.2, v = 0.2, t = 0.2)
movej(p[0.391306170277252, 0.286002584505458, 0.303199944056101, -1.496, 0.618, -0.599], a = 0.2, v = 0.2, t = 0.2)
movej(p[0.3913, 0.286, 0.3028, -1.496, 0.618, -0.599], a = 0.2, v = 0.2, t = 0.2)
movej(p[0.391306170277252, 0.286002584505458, 0.303199944056101, -1.496, 0.618, -0.599], a = 0.2, v = 0.2, t = 0.2)
movej(p[0.3913, 0.286, 0.3028, -1.496, 0.618, -0.599], a = 0.2, v = 0.2, t = 0.2)
movej(p[0.391306170277252, 0.286002584505458, 0.303199944056101, -1.496, 0.618, -0.599], a = 0.2, v = 0.2, t = 0.2)
movej(p[0.3913, 0.286, 0.3028, -1.496, 0.618, -0.599], a = 0.2, v = 0.2, t = 0.2)
movej(p[0.391306170277252, 0.286002584505458, 0.303199944056101, -1.496, 0.618, -0.599], a = 0.2, v = 0.2, t = 0.2)
movej(p[0.3913, 0.286, 0.3028, -1.496, 0.618, -0.599], a = 0.2, v = 0.2, t = 0.2)
movej(p[0.391306170277252, 0.286002584505458, 0.303199944056101, -1.496, 0.618, -0.599], a = 0.2, v = 0.2, t = 0.2)
movej(p[0.3913, 0.286, 0.3028, -1.496, 0.618, -0.599], a = 0.2, v = 0.2, t = 0.2)
movej(p[0.391301155230159, 0.286000483884034, 0.302874879525903, -1.496, 0.618, -0.599], a = 0.2, v = 0.2, t = 0.2)
movej(p[0.391305118090724, 0.286002143782665, 0.303131743595934, -1.496, 0.618, -0.599], a = 0.2, v = 0.2, t = 0.2)
movej(p[0.391305513451238, 0.286002309384852, 0.303157370011329, -1.496, 0.618, -0.599], a = 0.2, v = 0.2, t = 0.2)
movej(p[0.391305355800655, 0.286002243350738, 0.303147151440695, -1.496, 0.618, -0.599], a = 0.2, v = 0.2, t = 0.2)
movej(p[0.391304448307128, 0.286001863234597, 0.303088329668644, -1.496, 0.618, -0.599], a = 0.2, v = 0.2, t = 0.2)
movej(p[0.391302377099311, 0.286000995680728, 0.302954078447613, -1.496, 0.618, -0.599], a = 0.2, v = 0.2, t = 0.2)
movej(p[0.391294957032402, 0.285997887683689, 0.302473125722949, -1.496, 0.618, -0.599], a = 0.2, v = 0.2, t = 0.2)
movej(p[0.391281148260426, 0.285992103689699, 0.301578070922599, -1.496, 0.618, -0.599], a = 0.2, v = 0.2, t = 0.2)
movej(p[0.391266487681675, 0.285985962904731, 0.300627803845304, -1.496, 0.618, -0.599], a = 0.2, v = 0.2, t = 0.2)
movej(p[0.39125172683592, 0.285979780121548, 0.299671037677097, -1.496, 0.618, -0.599], a = 0.2, v = 0.2, t = 0.2)
movej(p[0.391238631965022, 0.28597429515484, 0.298822256404038, -1.496, 0.618, -0.599], a = 0.2, v = 0.2, t = 0.2)
movej(p[0.391230590551193, 0.285970926898102, 0.298301029312925, -1.496, 0.618, -0.599], a = 0.2, v = 0.2, t = 0.2)
movej(p[0.391233401112481, 0.285972104140338, 0.298483203830479, -1.496, 0.618, -0.599], a = 0.2, v = 0.2, t = 0.2)
movej(p[0.391247177799016, 0.285977874694899, 0.299376178921737, -1.496, 0.618, -0.599], a = 0.2, v = 0.2, t = 0.2)
movej(p[0.391264101326948, 0.285984963347245, 0.300473125481607, -1.496, 0.618, -0.599], a = 0.2, v = 0.2, t = 0.2)
movej(p[0.391282265080609, 0.285992571485187, 0.301650460796753, -1.496, 0.618, -0.599], a = 0.2, v = 0.2, t = 0.2)
movej(p[0.39129638020685, 0.285998483799873, 0.302565372819489, -1.496, 0.618, -0.599], a = 0.2, v = 0.2, t = 0.2)
movej(p[0.39130426273604, 0.286001785505596, 0.303076301351157, -1.496, 0.618, -0.599], a = 0.2, v = 0.2, t = 0.2)
movej(p[0.391305197378786, 0.28600217699356, 0.303136882877055, -1.496, 0.618, -0.599], a = 0.2, v = 0.2, t = 0.2)
movej(p[0.391304357912566, 0.286001825371592, 0.303082470488222, -1.496, 0.618, -0.599], a = 0.2, v = 0.2, t = 0.2)
movej(p[0.391299294351668, 0.285999704429495, 0.302754261397884, -1.496, 0.618, -0.599], a = 0.2, v = 0.2, t = 0.2)
movej(p[0.391288520816201, 0.285995191786046, 0.302055944078031, -1.496, 0.618, -0.599], a = 0.2, v = 0.2, t = 0.2)
movej(p[0.391274217496503, 0.285989200643943, 0.301128833761584, -1.496, 0.618, -0.599], a = 0.2, v = 0.2, t = 0.2)
movej(p[0.391258258074391, 0.285982515820576, 0.30009437846048, -1.496, 0.618, -0.599], a = 0.2, v = 0.2, t = 0.2)
movej(p[0.39124526038536, 0.285977071559828, 0.299251896306304, -1.496, 0.618, -0.599], a = 0.2, v = 0.2, t = 0.2)
movej(p[0.391233726594606, 0.285972240473001, 0.298504300879438, -1.496, 0.618, -0.599], a = 0.2, v = 0.2, t = 0.2)
movej(p[0.391231462102855, 0.285971291959497, 0.298357521410849, -1.496, 0.618, -0.599], a = 0.2, v = 0.2, t = 0.2)
movej(p[0.391238001054173, 0.285974030889157, 0.298781362124302, -1.496, 0.618, -0.599], a = 0.2, v = 0.2, t = 0.2)
movej(p[0.391253048817821, 0.285980333851843, 0.299756725691117, -1.496, 0.618, -0.599], a = 0.2, v = 0.2, t = 0.2)
movej(p[0.391271204858635, 0.285987938759153, 0.300933561076193, -1.496, 0.618, -0.599], a = 0.2, v = 0.2, t = 0.2)
movej(p[0.391288112498103, 0.285995020756397, 0.302029477780118, -1.496, 0.618, -0.599], a = 0.2, v = 0.2, t = 0.2)
movej(p[0.391298313663227, 0.285999293654658, 0.302690695289468, -1.496, 0.618, -0.599], a = 0.2, v = 0.2, t = 0.2)
movej(p[0.391301786295264, 0.28600074821433, 0.302915783804241, -1.496, 0.618, -0.599], a = 0.2, v = 0.2, t = 0.2)
movej(p[0.39130234300853, 0.286000981401335, 0.302951868756703, -1.496, 0.618, -0.599], a = 0.2, v = 0.2, t = 0.2)
movej(p[0.39130056550591, 0.286000236869925, 0.302836654872742, -1.496, 0.618, -0.599], a = 0.2, v = 0.2, t = 0.2)
movej(p[0.391293789461689, 0.285997398630644, 0.302397446308933, -1.496, 0.618, -0.599], a = 0.2, v = 0.2, t = 0.2)
movej(p[0.391282266623178, 0.285992572131313, 0.301650560782767, -1.496, 0.618, -0.599], a = 0.2, v = 0.2, t = 0.2)
movej(p[0.391267741790527, 0.285986488205465, 0.300709092474706, -1.496, 0.618, -0.599], a = 0.2, v = 0.2, t = 0.2)
movej(p[0.391252348491353, 0.285980040510473, 0.299711332040749, -1.496, 0.618, -0.599], a = 0.2, v = 0.2, t = 0.2)
movej(p[0.391238465367536, 0.285974225373192, 0.298811457914523, -1.496, 0.618, -0.599], a = 0.2, v = 0.2, t = 0.2)
movej(p[0.391232199450987, 0.2859716008079, 0.298405314725553, -1.496, 0.618, -0.599], a = 0.2, v = 0.2, t = 0.2)
movej(p[0.391233681860096, 0.285972221735336, 0.298501401285031, -1.496, 0.618, -0.599], a = 0.2, v = 0.2, t = 0.2)
movej(p[0.391241821998361, 0.285975631344162, 0.299029027481042, -1.496, 0.618, -0.599], a = 0.2, v = 0.2, t = 0.2)
movej(p[0.391257366469328, 0.285982142359537, 0.300036586544373, -1.496, 0.618, -0.599], a = 0.2, v = 0.2, t = 0.2)
movej(p[0.391276040813431, 0.285989964365306, 0.301247017230162, -1.496, 0.618, -0.599], a = 0.2, v = 0.2, t = 0.2)
movej(p[0.39129188022365, 0.285996598920042, 0.302273693619374, -1.496, 0.618, -0.599], a = 0.2, v = 0.2, t = 0.2)
movej(p[0.39129867994631, 0.285999447077364, 0.302714436968498, -1.496, 0.618, -0.599], a = 0.2, v = 0.2, t = 0.2)
movej(p[0.391301926823329, 0.286000807076442, 0.302924892530119, -1.496, 0.618, -0.599], a = 0.2, v = 0.2, t = 0.2)
movej(p[0.39130244049891, 0.286001022236521, 0.302958187872789, -1.496, 0.618, -0.599], a = 0.2, v = 0.2, t = 0.2)
movej(p[0.391298790286293, 0.285999493294782, 0.302721588968081, -1.496, 0.618, -0.599], a = 0.2, v = 0.2, t = 0.2)
movej(p[0.39128978556878, 0.285995721545052, 0.30213792261093, -1.496, 0.618, -0.599], a = 0.2, v = 0.2, t = 0.2)
movej(p[0.391275078250179, 0.285989561182455, 0.30118462595741, -1.496, 0.618, -0.599], a = 0.2, v = 0.2, t = 0.2)
movej(p[0.391259098774666, 0.285982867959444, 0.300148870838123, -1.496, 0.618, -0.599], a = 0.2, v = 0.2, t = 0.2)
movej(p[0.391243537335437, 0.285976349836679, 0.299140211928638, -1.496, 0.618, -0.599], a = 0.2, v = 0.2, t = 0.2)
movej(p[0.391233510634903, 0.28597215001531, 0.298490302837474, -1.496, 0.618, -0.599], a = 0.2, v = 0.2, t = 0.2)
movej(p[0.391231337154741, 0.285971239623262, 0.298349422543713, -1.496, 0.618, -0.599], a = 0.2, v = 0.2, t = 0.2)
movej(p[0.39123598645865, 0.285973187048125, 0.298650780389985, -1.496, 0.618, -0.599], a = 0.2, v = 0.2, t = 0.2)
movej(p[0.391250915444461, 0.285979440259081, 0.29961844503372, -1.496, 0.618, -0.599], a = 0.2, v = 0.2, t = 0.2)
movej(p[0.391270668044514, 0.285987713907178, 0.300898765943312, -1.496, 0.618, -0.599], a = 0.2, v = 0.2, t = 0.2)
movej(p[0.391288798632934, 0.285995308153404, 0.302073951559156, -1.496, 0.618, -0.599], a = 0.2, v = 0.2, t = 0.2)
movej(p[0.391297677507642, 0.285999027192146, 0.302649461057284, -1.496, 0.618, -0.599], a = 0.2, v = 0.2, t = 0.2)
movej(p[0.391301721044583, 0.286000720883185, 0.302911554395848, -1.496, 0.618, -0.599], a = 0.2, v = 0.2, t = 0.2)
movej(p[0.391302307992206, 0.286000966734267, 0.302949599074184, -1.496, 0.618, -0.599], a = 0.2, v = 0.2, t = 0.2)
movej(p[0.391298471977116, 0.285999359966607, 0.302700956854087, -1.496, 0.618, -0.599], a = 0.2, v = 0.2, t = 0.2)
movej(p[0.391291133311589, 0.285996286065657, 0.302225280391384, -1.496, 0.618, -0.599], a = 0.2, v = 0.2, t = 0.2)
movej(p[0.391277857960081, 0.285990725502163, 0.301364800754683, -1.496, 0.618, -0.599], a = 0.2, v = 0.2, t = 0.2)
movej(p[0.391262520193403, 0.285984301067721, 0.300370639817231, -1.496, 0.618, -0.599], a = 0.2, v = 0.2, t = 0.2)
movej(p[0.39124799844589, 0.285978218434125, 0.299429371481198, -1.496, 0.618, -0.599], a = 0.2, v = 0.2, t = 0.2)
movej(p[0.391238530155447, 0.2859742525105, 0.298815657327112, -1.496, 0.618, -0.599], a = 0.2, v = 0.2, t = 0.2)
movej(p[0.391233216004164, 0.285972026605174, 0.298471205508796, -1.496, 0.618, -0.599], a = 0.2, v = 0.2, t = 0.2)
movej(p[0.39123477399917, 0.285972679192802, 0.298572191382961, -1.496, 0.618, -0.599], a = 0.2, v = 0.2, t = 0.2)
movej(p[0.391246250714858, 0.285977486372954, 0.299316087327308, -1.496, 0.618, -0.599], a = 0.2, v = 0.2, t = 0.2)
movej(p[0.391265457245374, 0.285985531292319, 0.300561013187935, -1.496, 0.618, -0.599], a = 0.2, v = 0.2, t = 0.2)
movej(p[0.391283929512897, 0.285993268655534, 0.301758345705886, -1.496, 0.618, -0.599], a = 0.2, v = 0.2, t = 0.2)
movej(p[0.391295159108982, 0.285997972326243, 0.302486223890786, -1.496, 0.618, -0.599], a = 0.2, v = 0.2, t = 0.2)
movej(p[0.391301002392391, 0.286000419865834, 0.302864972911634, -1.496, 0.618, -0.599], a = 0.2, v = 0.2, t = 0.2)
movej(p[0.391301901525192, 0.28600079647997, 0.302923252759489, -1.496, 0.618, -0.599], a = 0.2, v = 0.2, t = 0.2)
movej(p[0.391298917147194, 0.285999546432215, 0.302729811817875, -1.496, 0.618, -0.599], a = 0.2, v = 0.2, t = 0.2)
movej(p[0.391290913649719, 0.285996194057262, 0.302211042382986, -1.496, 0.618, -0.599], a = 0.2, v = 0.2, t = 0.2)
movej(p[0.391277924290562, 0.285990753285597, 0.301369100153286, -1.496, 0.618, -0.599], a = 0.2, v = 0.2, t = 0.2)
movej(p[0.391262336627654, 0.285984224178684, 0.300358741481562, -1.496, 0.618, -0.599], a = 0.2, v = 0.2, t = 0.2)
movej(p[0.391248254512396, 0.285978325691102, 0.299445969159527, -1.496, 0.618, -0.599], a = 0.2, v = 0.2, t = 0.2)
movej(p[0.391238167651658, 0.285974100670804, 0.298792160613816, -1.496, 0.618, -0.599], a = 0.2, v = 0.2, t = 0.2)
movej(p[0.391232598976439, 0.285971768154628, 0.298431211103185, -1.496, 0.618, -0.599], a = 0.2, v = 0.2, t = 0.2)
movej(p[0.391230792627773, 0.285971011540655, 0.298314127480762, -1.496, 0.618, -0.599], a = 0.2, v = 0.2, t = 0.2)
movej(p[0.391241018319749, 0.285975294712326, 0.298976934767735, -1.496, 0.618, -0.599], a = 0.2, v = 0.2, t = 0.2)
movej(p[0.391258851963576, 0.285982764579226, 0.300132873075879, -1.496, 0.618, -0.599], a = 0.2, v = 0.2, t = 0.2)
movej(p[0.391279233931909, 0.285991301846881, 0.301453988279194, -1.496, 0.618, -0.599], a = 0.2, v = 0.2, t = 0.2)
movej(p[0.391293731923854, 0.28599737453013, 0.30239371683061, -1.496, 0.618, -0.599], a = 0.2, v = 0.2, t = 0.2)
movej(p[0.39130215851724, 0.286000904124622, 0.302939910429425, -1.496, 0.618, -0.599], a = 0.2, v = 0.2, t = 0.2)
movej(p[0.391304121745204, 0.286001726449646, 0.303067162629475, -1.496, 0.618, -0.599], a = 0.2, v = 0.2, t = 0.2)
movej(p[0.391302953557464, 0.28600123713815, 0.302991443221054, -1.496, 0.618, -0.599], a = 0.2, v = 0.2, t = 0.2)
movej(p[0.391298987334097, 0.285999575830964, 0.302734361181513, -1.496, 0.618, -0.599], a = 0.2, v = 0.2, t = 0.2)
movej(p[0.391289208339343, 0.285995479764566, 0.302100507844482, -1.496, 0.618, -0.599], a = 0.2, v = 0.2, t = 0.2)
movej(p[0.391273447754416, 0.285988878226887, 0.301078940740585, -1.496, 0.618, -0.599], a = 0.2, v = 0.2, t = 0.2)
movej(p[0.391257434342378, 0.285982170789097, 0.30004098592899, -1.496, 0.618, -0.599], a = 0.2, v = 0.2, t = 0.2)
movej(p[0.39124375483771, 0.285976440940496, 0.299154309956615, -1.496, 0.618, -0.599], a = 0.2, v = 0.2, t = 0.2)
movej(p[0.391232942969395, 0.285971912240807, 0.298453507984313, -1.496, 0.618, -0.599], a = 0.2, v = 0.2, t = 0.2)
movej(p[0.391228381591937, 0.285970001645147, 0.298157849340841, -1.496, 0.618, -0.599], a = 0.2, v = 0.2, t = 0.2)
movej(p[0.39123365100871, 0.285972208812809, 0.298499401564751, -1.496, 0.618, -0.599], a = 0.2, v = 0.2, t = 0.2)
movej(p[0.391250721080728, 0.285979358847159, 0.299605846795953, -1.496, 0.618, -0.599], a = 0.2, v = 0.2, t = 0.2)
movej(p[0.391270789907489, 0.285987764951161, 0.30090666483842, -1.496, 0.618, -0.599], a = 0.2, v = 0.2, t = 0.2)
movej(p[0.391288358692166, 0.285995123878165, 0.302045435547956, -1.496, 0.618, -0.599], a = 0.2, v = 0.2, t = 0.2)
movej(p[0.391300032122463, 0.286000013454935, 0.302802082108756, -1.496, 0.618, -0.599], a = 0.2, v = 0.2, t = 0.2)
movej(p[0.391305199538383, 0.286002177898137, 0.303137022857475, -1.496, 0.618, -0.599], a = 0.2, v = 0.2, t = 0.2)
movej(p[0.391304973706236, 0.286002083305237, 0.303122384905021, -1.496, 0.618, -0.599], a = 0.2, v = 0.2, t = 0.2)
movej(p[0.39130430947589, 0.286001805083225, 0.303079330927382, -1.496, 0.618, -0.599], a = 0.2, v = 0.2, t = 0.2)
movej(p[0.391300381785905, 0.286000159916275, 0.302824746538471, -1.496, 0.618, -0.599], a = 0.2, v = 0.2, t = 0.2)
movej(p[0.391291451697895, 0.285996419426138, 0.302245917504678, -1.496, 0.618, -0.599], a = 0.2, v = 0.2, t = 0.2)
movej(p[0.391279237017047, 0.285991303139133, 0.301454188251222, -1.496, 0.618, -0.599], a = 0.2, v = 0.2, t = 0.2)
movej(p[0.391263633928446, 0.285984767570956, 0.300442829719357, -1.496, 0.618, -0.599], a = 0.2, v = 0.2, t = 0.2)
movej(p[0.391250168840913, 0.28597912753392, 0.299570051802932, -1.496, 0.618, -0.599], a = 0.2, v = 0.2, t = 0.2)
movej(p[0.391239776551452, 0.285974774580602, 0.298896446026445, -1.496, 0.618, -0.599], a = 0.2, v = 0.2, t = 0.2)
movej(p[0.391239145640603, 0.285974510314919, 0.298855551746708, -1.496, 0.618, -0.599], a = 0.2, v = 0.2, t = 0.2)
movej(p[0.391246969552158, 0.28597778746784, 0.299362680809844, -1.496, 0.618, -0.599], a = 0.2, v = 0.2, t = 0.2)
movej(p[0.391261634758617, 0.285983930191188, 0.300313247845181, -1.496, 0.618, -0.599], a = 0.2, v = 0.2, t = 0.2)
movej(p[0.391279369678008, 0.285991358706001, 0.301462787048428, -1.496, 0.618, -0.599], a = 0.2, v = 0.2, t = 0.2)
movej(p[0.391293025581365, 0.285997078668868, 0.302347933234788, -1.496, 0.618, -0.599], a = 0.2, v = 0.2, t = 0.2)
movej(p[0.39130105132269, 0.286000440360962, 0.302868144467999, -1.496, 0.618, -0.599], a = 0.2, v = 0.2, t = 0.2)
movej(p[0.391302954483005, 0.286001237525826, 0.302991503212662, -1.496, 0.618, -0.599], a = 0.2, v = 0.2, t = 0.2)
movej(p[0.391303929849582, 0.286001646071526, 0.30305472436933, -1.496, 0.618, -0.599], a = 0.2, v = 0.2, t = 0.2)
movej(p[0.391302966052275, 0.286001242371774, 0.302992253107768, -1.496, 0.618, -0.599], a = 0.2, v = 0.2, t = 0.2)
movej(p[0.391299195858617, 0.285999663174326, 0.302747877290889, -1.496, 0.618, -0.599], a = 0.2, v = 0.2, t = 0.2)
movej(p[0.391291494427065, 0.285996437323839, 0.302248687117267, -1.496, 0.618, -0.599], a = 0.2, v = 0.2, t = 0.2)
movej(p[0.391279473030152, 0.285991401996467, 0.301469486111367, -1.496, 0.618, -0.599], a = 0.2, v = 0.2, t = 0.2)
movej(p[0.391264105954656, 0.285984965285624, 0.300473425439649, -1.496, 0.618, -0.599], a = 0.2, v = 0.2, t = 0.2)
movej(p[0.39125145534372, 0.285979666403308, 0.299653440138629, -1.496, 0.618, -0.599], a = 0.2, v = 0.2, t = 0.2)
movej(p[0.391243876700686, 0.285976491984479, 0.299162208851723, -1.496, 0.618, -0.599], a = 0.2, v = 0.2, t = 0.2)
movej(p[0.391241289811948, 0.285975408430566, 0.298994532306203, -1.496, 0.618, -0.599], a = 0.2, v = 0.2, t = 0.2)
movej(p[0.391243205683035, 0.285976210919511, 0.299118714935622, -1.496, 0.618, -0.599], a = 0.2, v = 0.2, t = 0.2)
movej(p[0.391254213457652, 0.285980821677248, 0.299832215131706, -1.496, 0.618, -0.599], a = 0.2, v = 0.2, t = 0.2)
movej(p[0.391270459797656, 0.285987626680119, 0.300885267831419, -1.496, 0.618, -0.599], a = 0.2, v = 0.2, t = 0.2)
movej(p[0.391286466576646, 0.285994331339566, 0.301922792703153, -1.496, 0.618, -0.599], a = 0.2, v = 0.2, t = 0.2)
movej(p[0.391295682348493, 0.285998191492306, 0.302520139146744, -1.496, 0.618, -0.599], a = 0.2, v = 0.2, t = 0.2)
movej(p[0.391301380383575, 0.286000578192639, 0.302889473484511, -1.496, 0.618, -0.599], a = 0.2, v = 0.2, t = 0.2)
movej(p[0.39130330510901, 0.286001384390349, 0.30301423003365, -1.496, 0.618, -0.599], a = 0.2, v = 0.2, t = 0.2)
movej(p[0.391302507292161, 0.286001050213793, 0.302962517267196, -1.496, 0.618, -0.599], a = 0.2, v = 0.2, t = 0.2)
movej(p[0.391301671682365, 0.286000700207141, 0.302908354843399, -1.496, 0.618, -0.599], a = 0.2, v = 0.2, t = 0.2)
movej(p[0.3913005541526, 0.286000232114435, 0.302835918975678, -1.496, 0.618, -0.599], a = 0.2, v = 0.2, t = 0.2)
movej(p[0.391297882823618, 0.285999113191565, 0.302662769195751, -1.496, 0.618, -0.599], a = 0.2, v = 0.2, t = 0.2)
movej(p[0.391288798632934, 0.285995308153404, 0.302073951559156, -1.496, 0.618, -0.599], a = 0.2, v = 0.2, t = 0.2)
movej(p[0.391279190739968, 0.285991283755342, 0.301451188670801, -1.496, 0.618, -0.599], a = 0.2, v = 0.2, t = 0.2)
movej(p[0.391268491479213, 0.285986802222878, 0.300757685677522, -1.496, 0.618, -0.599], a = 0.2, v = 0.2, t = 0.2)
movej(p[0.391259114200359, 0.285982874420708, 0.300149870698264, -1.496, 0.618, -0.599], a = 0.2, v = 0.2, t = 0.2)
movej(p[0.391250159585498, 0.285979123657162, 0.299569451886848, -1.496, 0.618, -0.599], a = 0.2, v = 0.2, t = 0.2)
movej(p[0.391246238374304, 0.285977481203943, 0.299315287439196, -1.496, 0.618, -0.599], a = 0.2, v = 0.2, t = 0.2)
movej(p[0.391247694559735, 0.285978091147231, 0.299409674236436, -1.496, 0.618, -0.599], a = 0.2, v = 0.2, t = 0.2)
movej(p[0.391254882932734, 0.28598110209609, 0.299875609061793, -1.496, 0.618, -0.599], a = 0.2, v = 0.2, t = 0.2)
movej(p[0.391269529628361, 0.285987237065921, 0.300824976264961, -1.496, 0.618, -0.599], a = 0.2, v = 0.2, t = 0.2)
movej(p[0.39128446324188, 0.285993492215256, 0.301792940866739, -1.496, 0.618, -0.599], a = 0.2, v = 0.2, t = 0.2)
movej(p[0.391295978213287, 0.285998315419342, 0.302539316464234, -1.496, 0.618, -0.599], a = 0.2, v = 0.2, t = 0.2)
movej(p[0.391300093883854, 0.286000039324543, 0.302806085348786, -1.496, 0.618, -0.599], a = 0.2, v = 0.2, t = 0.2)
movej(p[0.391301837045795, 0.286000769471888, 0.302919073344103, -1.496, 0.618, -0.599], a = 0.2, v = 0.2, t = 0.2)
movej(p[0.391302239964899, 0.286000938240094, 0.302945189690966, -1.496, 0.618, -0.599], a = 0.2, v = 0.2, t = 0.2)
movej(p[0.391301232574584, 0.28600051628081, 0.302879892824647, -1.496, 0.618, -0.599], a = 0.2, v = 0.2, t = 0.2)
movej(p[0.391300516452206, 0.286000216323107, 0.302833475317496, -1.496, 0.618, -0.599], a = 0.2, v = 0.2, t = 0.2)
movej(p[0.391298433212349, 0.285999343729452, 0.302698444205555, -1.496, 0.618, -0.599], a = 0.2, v = 0.2, t = 0.2)
movej(p[0.391291917708085, 0.285996614620913, 0.302276123279515, -1.496, 0.618, -0.599], a = 0.2, v = 0.2, t = 0.2)
movej(p[0.391280306017581, 0.285991750904704, 0.301523478558941, -1.496, 0.618, -0.599], a = 0.2, v = 0.2, t = 0.2)
movej(p[0.391268634938159, 0.28598686231263, 0.300766984376827, -1.496, 0.618, -0.599], a = 0.2, v = 0.2, t = 0.2)
movej(p[0.391257482162026, 0.285982190819014, 0.300044085495425, -1.496, 0.618, -0.599], a = 0.2, v = 0.2, t = 0.2)
movej(p[0.39124768530432, 0.285978087270473, 0.299409074320351, -1.496, 0.618, -0.599], a = 0.2, v = 0.2, t = 0.2)
movej(p[0.391241593698103, 0.28597553571746, 0.299014229550966, -1.496, 0.618, -0.599], a = 0.2, v = 0.2, t = 0.2)
movej(p[0.391245388418613, 0.285977125188316, 0.299260195145468, -1.496, 0.618, -0.599], a = 0.2, v = 0.2, t = 0.2)
movej(p[0.391255911826466, 0.285981533062375, 0.299942299733147, -1.496, 0.618, -0.599], a = 0.2, v = 0.2, t = 0.2)
movej(p[0.391269409307954, 0.285987186668065, 0.300817177355867, -1.496, 0.618, -0.599], a = 0.2, v = 0.2, t = 0.2)
movej(p[0.391284093025245, 0.285993337144929, 0.301768944223373, -1.496, 0.618, -0.599], a = 0.2, v = 0.2, t = 0.2)
movej(p[0.391294795062624, 0.285997819840421, 0.302462627191476, -1.496, 0.618, -0.599], a = 0.2, v = 0.2, t = 0.2)
movej(p[0.391301131320334, 0.286000473869076, 0.302873329742686, -1.496, 0.618, -0.599], a = 0.2, v = 0.2, t = 0.2)
movej(p[0.391302223922179, 0.28600093152038, 0.30294414983642, -1.496, 0.618, -0.599], a = 0.2, v = 0.2, t = 0.2)
movej(p[0.39130306030326, 0.286001281850095, 0.302998362253225, -1.496, 0.618, -0.599], a = 0.2, v = 0.2, t = 0.2)
movej(p[0.391302348716036, 0.286000983792003, 0.302952238704955, -1.496, 0.618, -0.599], a = 0.2, v = 0.2, t = 0.2)
movej(p[0.391300252333488, 0.286000105693351, 0.302816355712174, -1.496, 0.618, -0.599], a = 0.2, v = 0.2, t = 0.2)
movej(p[0.391294358052738, 0.285997636792822, 0.302434301153703, -1.496, 0.618, -0.599], a = 0.2, v = 0.2, t = 0.2)
movej(p[0.391284779160075, 0.285993624541936, 0.301813418002411, -1.496, 0.618, -0.599], a = 0.2, v = 0.2, t = 0.2)
movej(p[0.391270200646012, 0.28598751813089, 0.300868470181062, -1.496, 0.618, -0.599], a = 0.2, v = 0.2, t = 0.2)
movej(p[0.391256939177628, 0.285981963382534, 0.300008890418488, -1.496, 0.618, -0.599], a = 0.2, v = 0.2, t = 0.2)
movej(p[0.391247913604578, 0.285978182897175, 0.299423872250427, -1.496, 0.618, -0.599], a = 0.2, v = 0.2, t = 0.2)
movej(p[0.391240580230064, 0.285975111212438, 0.298948538739752, -1.496, 0.618, -0.599], a = 0.2, v = 0.2, t = 0.2)
movej(p[0.391235938639001, 0.285973167018207, 0.29864768082355, -1.496, 0.618, -0.599], a = 0.2, v = 0.2, t = 0.2)
movej(p[0.39124106151169, 0.285975312803864, 0.298979734376127, -1.496, 0.618, -0.599], a = 0.2, v = 0.2, t = 0.2)
movej(p[0.391255336448112, 0.285981292057241, 0.299905004949916, -1.496, 0.618, -0.599], a = 0.2, v = 0.2, t = 0.2)
movej(p[0.391273541851144, 0.285988917640596, 0.301085039887441, -1.496, 0.618, -0.599], a = 0.2, v = 0.2, t = 0.2)
movej(p[0.391288507858618, 0.285995186358584, 0.302055104195513, -1.496, 0.618, -0.599], a = 0.2, v = 0.2, t = 0.2)
movej(p[0.391299677664716, 0.285999864985435, 0.302779106922509, -1.496, 0.618, -0.599], a = 0.2, v = 0.2, t = 0.2)
movej(p[0.391304193937448, 0.28600175668836, 0.303071841974932, -1.496, 0.618, -0.599], a = 0.2, v = 0.2, t = 0.2)
movej(p[0.391304243762437, 0.286001777558241, 0.303075071523185, -1.496, 0.618, -0.599], a = 0.2, v = 0.2, t = 0.2)
movej(p[0.391304046622079, 0.286001694983292, 0.303062293310592, -1.496, 0.618, -0.599], a = 0.2, v = 0.2, t = 0.2)
movej(p[0.391303856114769, 0.286001615186686, 0.30304994503786, -1.496, 0.618, -0.599], a = 0.2, v = 0.2, t = 0.2)
movej(p[0.391302815188996, 0.286001179180615, 0.302982474475596, -1.496, 0.618, -0.599], a = 0.2, v = 0.2, t = 0.2)
movej(p[0.391296478777029, 0.285998525087348, 0.302571761925785, -1.496, 0.618, -0.599], a = 0.2, v = 0.2, t = 0.2)
movej(p[0.391286697345016, 0.28599442800007, 0.301937750610851, -1.496, 0.618, -0.599], a = 0.2, v = 0.2, t = 0.2)
movej(p[0.391273787119665, 0.285989020374687, 0.301100937663671, -1.496, 0.618, -0.599], a = 0.2, v = 0.2, t = 0.2)
movej(p[0.391261364808987, 0.285983817119074, 0.300295750292726, -1.496, 0.618, -0.599], a = 0.2, v = 0.2, t = 0.2)
movej(p[0.391252731048542, 0.285980200749812, 0.299736128572228, -1.496, 0.618, -0.599], a = 0.2, v = 0.2, t = 0.2)
movej(p[0.391246579282122, 0.28597762399787, 0.299337384348295, -1.496, 0.618, -0.599], a = 0.2, v = 0.2, t = 0.2)
movej(p[0.391244993520868, 0.285976959779967, 0.299234598725877, -1.496, 0.618, -0.599], a = 0.2, v = 0.2, t = 0.2)
movej(p[0.391247759347647, 0.285978118284539, 0.299413873649025, -1.496, 0.618, -0.599], a = 0.2, v = 0.2, t = 0.2)
movej(p[0.391260331287547, 0.28598338421441, 0.30022875966333, -1.496, 0.618, -0.599], a = 0.2, v = 0.2, t = 0.2)
movej(p[0.391275477775632, 0.285989728529183, 0.301210522335042, -1.496, 0.618, -0.599], a = 0.2, v = 0.2, t = 0.2)
movej(p[0.391288516497006, 0.285995189976892, 0.302055664117191, -1.496, 0.618, -0.599], a = 0.2, v = 0.2, t = 0.2)
movej(p[0.391297373467231, 0.285998899840639, 0.302629753813919, -1.496, 0.618, -0.599], a = 0.2, v = 0.2, t = 0.2)
movej(p[0.391300978837358, 0.286000409999485, 0.3028634461252, -1.496, 0.618, -0.599], a = 0.2, v = 0.2, t = 0.2)
movej(p[0.39130198358988, 0.286000830853892, 0.302928572015435, -1.496, 0.618, -0.599], a = 0.2, v = 0.2, t = 0.2)
movej(p[0.391300826169273, 0.286000346052358, 0.302853550509392, -1.496, 0.618, -0.599], a = 0.2, v = 0.2, t = 0.2)
movej(p[0.391301305137044, 0.286000546674594, 0.302884596166746, -1.496, 0.618, -0.599], a = 0.2, v = 0.2, t = 0.2)
movej(p[0.391300588227956, 0.286000246387367, 0.302838127666728, -1.496, 0.618, -0.599], a = 0.2, v = 0.2, t = 0.2)
movej(p[0.391296144348002, 0.285998385007152, 0.302550084957944, -1.496, 0.618, -0.599], a = 0.2, v = 0.2, t = 0.2)
movej(p[0.391288475773177, 0.285995172919156, 0.302053024486421, -1.496, 0.618, -0.599], a = 0.2, v = 0.2, t = 0.2)
movej(p[0.391277871843205, 0.285990731317301, 0.301365700628809, -1.496, 0.618, -0.599], a = 0.2, v = 0.2, t = 0.2)
movej(p[0.391266516990492, 0.285985975181131, 0.30062970357957, -1.496, 0.618, -0.599], a = 0.2, v = 0.2, t = 0.2)
movej(p[0.391256016721179, 0.285981576998968, 0.299949098782101, -1.496, 0.618, -0.599], a = 0.2, v = 0.2, t = 0.2)
movej(p[0.391248774358255, 0.285978543435687, 0.299479664446253, -1.496, 0.618, -0.599], a = 0.2, v = 0.2, t = 0.2)
movej(p[0.391245920605026, 0.285977348101912, 0.299294690320307, -1.496, 0.618, -0.599], a = 0.2, v = 0.2, t = 0.2)
movej(p[0.391248428822728, 0.285978398703381, 0.299457267579112, -1.496, 0.618, -0.599], a = 0.2, v = 0.2, t = 0.2)
movej(p[0.391258719302615, 0.285982709012359, 0.300124274278673, -1.496, 0.618, -0.599], a = 0.2, v = 0.2, t = 0.2)
movej(p[0.391273901269794, 0.285989068188038, 0.301108336628709, -1.496, 0.618, -0.599], a = 0.2, v = 0.2, t = 0.2)
movej(p[0.391288158158155, 0.285995039881737, 0.302032437366133, -1.496, 0.618, -0.599], a = 0.2, v = 0.2, t = 0.2)
movej(p[0.391295268939917, 0.28599801833044, 0.302493342894985, -1.496, 0.618, -0.599], a = 0.2, v = 0.2, t = 0.2)
movej(p[0.391300050256908, 0.286000021050797, 0.302803257544337, -1.496, 0.618, -0.599], a = 0.2, v = 0.2, t = 0.2)
movej(p[0.391301197650815, 0.286000501652509, 0.302877629141289, -1.496, 0.618, -0.599], a = 0.2, v = 0.2, t = 0.2)
movej(p[0.391302591670703, 0.286001085556905, 0.302967986502164, -1.496, 0.618, -0.599], a = 0.2, v = 0.2, t = 0.2)
movej(p[0.391300861679218, 0.286000360926187, 0.302855852187434, -1.496, 0.618, -0.599], a = 0.2, v = 0.2, t = 0.2)
movej(p[0.391296823387014, 0.285998669431977, 0.302594098801318, -1.496, 0.618, -0.599], a = 0.2, v = 0.2, t = 0.2)
movej(p[0.39128784023462, 0.285994906715094, 0.302011830248643, -1.496, 0.618, -0.599], a = 0.2, v = 0.2, t = 0.2)
movej(p[0.391274399519682, 0.285989276886854, 0.301140632111239, -1.496, 0.618, -0.599], a = 0.2, v = 0.2, t = 0.2)
movej(p[0.39126196486845, 0.28598406846223, 0.300334644852182, -1.496, 0.618, -0.599], a = 0.2, v = 0.2, t = 0.2)
movej(p[0.391251807049524, 0.285979813720119, 0.299676236949827, -1.496, 0.618, -0.599], a = 0.2, v = 0.2, t = 0.2)
movej(p[0.391243426270446, 0.285976303315581, 0.299133012935628, -1.496, 0.618, -0.599], a = 0.2, v = 0.2, t = 0.2)
movej(p[0.391238935851176, 0.285974422441734, 0.298841953648801, -1.496, 0.618, -0.599], a = 0.2, v = 0.2, t = 0.2)
movej(p[0.391244774476026, 0.285976868030023, 0.299220400711886, -1.496, 0.618, -0.599], a = 0.2, v = 0.2, t = 0.2)
movej(p[0.391258401533337, 0.285982575910328, 0.300103677159784, -1.496, 0.618, -0.599], a = 0.2, v = 0.2, t = 0.2)
movej(p[0.391275989908643, 0.285989943043136, 0.301243717691699, -1.496, 0.618, -0.599], a = 0.2, v = 0.2, t = 0.2)
movej(p[0.39129042295842, 0.285995988524466, 0.302179236831925, -1.496, 0.618, -0.599], a = 0.2, v = 0.2, t = 0.2)
movej(p[0.391300429590128, 0.286000179939731, 0.302827845105046, -1.496, 0.618, -0.599], a = 0.2, v = 0.2, t = 0.2)
movej(p[0.391303330407147, 0.286001394986821, 0.30301586980428, -1.496, 0.618, -0.599], a = 0.2, v = 0.2, t = 0.2)
movej(p[0.391302829843405, 0.286001185318816, 0.302983424342729, -1.496, 0.618, -0.599], a = 0.2, v = 0.2, t = 0.2)
movej(p[0.391303046265879, 0.286001275970345, 0.302997452380497, -1.496, 0.618, -0.599], a = 0.2, v = 0.2, t = 0.2)
movej(p[0.391302450371354, 0.28600102637173, 0.302958827783279, -1.496, 0.618, -0.599], a = 0.2, v = 0.2, t = 0.2)
movej(p[0.391298145985943, 0.285999223420722, 0.302679826809743, -1.496, 0.618, -0.599], a = 0.2, v = 0.2, t = 0.2)
movej(p[0.391289385272044, 0.28599555387526, 0.30211197624029, -1.496, 0.618, -0.599], a = 0.2, v = 0.2, t = 0.2)
movej(p[0.391276141080436, 0.28599000636352, 0.301253516321073, -1.496, 0.618, -0.599], a = 0.2, v = 0.2, t = 0.2)
movej(p[0.391261995719836, 0.285984081384757, 0.300336644572463, -1.496, 0.618, -0.599], a = 0.2, v = 0.2, t = 0.2)
movej(p[0.391248917817201, 0.285978603525438, 0.299488963145557, -1.496, 0.618, -0.599], a = 0.2, v = 0.2, t = 0.2)
movej(p[0.391240897999342, 0.285975244314469, 0.298969135858641, -1.496, 0.618, -0.599], a = 0.2, v = 0.2, t = 0.2)
movej(p[0.391238773881398, 0.285974354598465, 0.298831455117328, -1.496, 0.618, -0.599], a = 0.2, v = 0.2, t = 0.2)
movej(p[0.391243346056842, 0.28597626971701, 0.299127813662899, -1.496, 0.618, -0.599], a = 0.2, v = 0.2, t = 0.2)
movej(p[0.39125623885116, 0.285981670041165, 0.299963496768121, -1.496, 0.618, -0.599], a = 0.2, v = 0.2, t = 0.2)
movej(p[0.391273541851144, 0.285988917640596, 0.301085039887441, -1.496, 0.618, -0.599], a = 0.2, v = 0.2, t = 0.2)
movej(p[0.391289028630018, 0.285995404490845, 0.302088859473848, -1.496, 0.618, -0.599], a = 0.2, v = 0.2, t = 0.2)
movej(p[0.391297693087592, 0.285999033718022, 0.302650470916025, -1.496, 0.618, -0.599], a = 0.2, v = 0.2, t = 0.2)
movej(p[0.391302481068483, 0.286001039229645, 0.302960817504958, -1.496, 0.618, -0.599], a = 0.2, v = 0.2, t = 0.2)
movej(p[0.391303343673243, 0.286001400543508, 0.303016729684001, -1.496, 0.618, -0.599], a = 0.2, v = 0.2, t = 0.2)
movej(p[0.391303250193543, 0.28600136138825, 0.303010670531551, -1.496, 0.618, -0.599], a = 0.2, v = 0.2, t = 0.2)
movej(p[0.391302417514627, 0.286001012609238, 0.30295669808118, -1.496, 0.618, -0.599], a = 0.2, v = 0.2, t = 0.2)
movej(p[0.391300311645278, 0.286000130536909, 0.302820200174414, -1.496, 0.618, -0.599], a = 0.2, v = 0.2, t = 0.2)
movej(p[0.391293457038002, 0.285997259390412, 0.302375899322911, -1.496, 0.618, -0.599], a = 0.2, v = 0.2, t = 0.2)
movej(p[0.391282377688169, 0.285992618652412, 0.301657759775777, -1.496, 0.618, -0.599], a = 0.2, v = 0.2, t = 0.2)
movej(p[0.391270897887341, 0.285987810180007, 0.300913663859402, -1.496, 0.618, -0.599], a = 0.2, v = 0.2, t = 0.2)
movej(p[0.391259109572651, 0.285982872482329, 0.300149570740222, -1.496, 0.618, -0.599], a = 0.2, v = 0.2, t = 0.2)
movej(p[0.39124799844589, 0.285978218434125, 0.299429371481198, -1.496, 0.618, -0.599], a = 0.2, v = 0.2, t = 0.2)
movej(p[0.391240339589251, 0.285975010416725, 0.298932940921564, -1.496, 0.618, -0.599], a = 0.2, v = 0.2, t = 0.2)
movej(p[0.391239252077885, 0.285974554897638, 0.298862450781676, -1.496, 0.618, -0.599], a = 0.2, v = 0.2, t = 0.2)
movej(p[0.391246070234249, 0.28597741077617, 0.299304388963667, -1.496, 0.618, -0.599], a = 0.2, v = 0.2, t = 0.2)
movej(p[0.391258537279436, 0.285982632769448, 0.300112475929018, -1.496, 0.618, -0.599], a = 0.2, v = 0.2, t = 0.2)
movej(p[0.391276395604373, 0.28599011297437, 0.301270014013387, -1.496, 0.618, -0.599], a = 0.2, v = 0.2, t = 0.2)
movej(p[0.391290859659793, 0.28599617144284, 0.302207542872495, -1.496, 0.618, -0.599], a = 0.2, v = 0.2, t = 0.2)
movej(p[0.391298996604939, 0.285999579714184, 0.302734962097457, -1.496, 0.618, -0.599], a = 0.2, v = 0.2, t = 0.2)
movej(p[0.391302075681268, 0.286000869427636, 0.302934541180472, -1.496, 0.618, -0.599], a = 0.2, v = 0.2, t = 0.2)
movej(p[0.391303679799096, 0.286001541334443, 0.303038516636457, -1.496, 0.618, -0.599], a = 0.2, v = 0.2, t = 0.2)
movej(p[0.391303585702368, 0.286001501920734, 0.303032417489601, -1.496, 0.618, -0.599], a = 0.2, v = 0.2, t = 0.2)
movej(p[0.391301870211035, 0.286000783363604, 0.302921223043404, -1.496, 0.618, -0.599], a = 0.2, v = 0.2, t = 0.2)
movej(p[0.391297288008891, 0.285998864045239, 0.302624214588742, -1.496, 0.618, -0.599], a = 0.2, v = 0.2, t = 0.2)
movej(p[0.391287918442884, 0.2859949394737, 0.302016899539554, -1.496, 0.618, -0.599], a = 0.2, v = 0.2, t = 0.2)
movej(p[0.391274880801307, 0.28598947847828, 0.301171827747615, -1.496, 0.618, -0.599], a = 0.2, v = 0.2, t = 0.2)
movej(p[0.391263683290665, 0.285984788247, 0.300446029271806, -1.496, 0.618, -0.599], a = 0.2, v = 0.2, t = 0.2)
movej(p[0.391256513428498, 0.285981785051657, 0.299981294278617, -1.496, 0.618, -0.599], a = 0.2, v = 0.2, t = 0.2)
movej(p[0.391257167477886, 0.285982059009236, 0.300023688348564, -1.496, 0.618, -0.599], a = 0.2, v = 0.2, t = 0.2)
movej(p[0.391263627758169, 0.285984764986451, 0.300442429775301, -1.496, 0.618, -0.599], a = 0.2, v = 0.2, t = 0.2)
movej(p[0.39127813099485, 0.28599083986653, 0.301382498279166, -1.496, 0.618, -0.599], a = 0.2, v = 0.2, t = 0.2)
movej(p[0.391291134699901, 0.28599628664717, 0.302225370378796, -1.496, 0.618, -0.599], a = 0.2, v = 0.2, t = 0.2)
movej(p[0.391300709149965, 0.286000297037212, 0.302845965570368, -1.496, 0.618, -0.599], a = 0.2, v = 0.2, t = 0.2)
movej(p[0.391304372104204, 0.286001831315955, 0.303083390359551, -1.496, 0.618, -0.599], a = 0.2, v = 0.2, t = 0.2)
movej(p[0.391305816874622, 0.286002436477908, 0.303177037260287, -1.496, 0.618, -0.599], a = 0.2, v = 0.2, t = 0.2)
movej(p[0.391305093872385, 0.286002133638481, 0.303130173815514, -1.496, 0.618, -0.599], a = 0.2, v = 0.2, t = 0.2)
movej(p[0.391299277614791, 0.285999697419023, 0.302753176549632, -1.496, 0.618, -0.599], a = 0.2, v = 0.2, t = 0.2)
movej(p[0.391289819042534, 0.285995735565994, 0.302140092307434, -1.496, 0.618, -0.599], a = 0.2, v = 0.2, t = 0.2)
movej(p[0.391274206698518, 0.285989196121059, 0.301128133859486, -1.496, 0.618, -0.599], a = 0.2, v = 0.2, t = 0.2)
movej(p[0.39125765338722, 0.285982262539041, 0.300055183942982, -1.496, 0.618, -0.599], a = 0.2, v = 0.2, t = 0.2)
movej(p[0.391243892126379, 0.285976498445743, 0.299163208711864, -1.496, 0.618, -0.599], a = 0.2, v = 0.2, t = 0.2)
movej(p[0.391235704168466, 0.285973068807, 0.298632482949418, -1.496, 0.618, -0.599], a = 0.2, v = 0.2, t = 0.2)
movej(p[0.391232637540671, 0.285971784307787, 0.298433710753536, -1.496, 0.618, -0.599], a = 0.2, v = 0.2, t = 0.2)
movej(p[0.391235628582569, 0.285973037146808, 0.298627583634731, -1.496, 0.618, -0.599], a = 0.2, v = 0.2, t = 0.2)
movej(p[0.391247611260993, 0.285978056256408, 0.299404274991678, -1.496, 0.618, -0.599], a = 0.2, v = 0.2, t = 0.2)
movej(p[0.391263910048353, 0.285984883227575, 0.300460727215868, -1.496, 0.618, -0.599], a = 0.2, v = 0.2, t = 0.2)
movej(p[0.391280599105751, 0.285991873668713, 0.301542475901606, -1.496, 0.618, -0.599], a = 0.2, v = 0.2, t = 0.2)
movej(p[0.391293287355378, 0.285997188316512, 0.302364900861368, -1.496, 0.618, -0.599], a = 0.2, v = 0.2, t = 0.2)
movej(p[0.391302008733759, 0.286000841385752, 0.302930201787464, -1.496, 0.618, -0.599], a = 0.2, v = 0.2, t = 0.2)
movej(p[0.391304503685366, 0.286001886430534, 0.303091919166548, -1.496, 0.618, -0.599], a = 0.2, v = 0.2, t = 0.2)
movej(p[0.391302252613968, 0.28600094353833, 0.302946009576281, -1.496, 0.618, -0.599], a = 0.2, v = 0.2, t = 0.2)
movej(p[0.391295571283502, 0.285998144971207, 0.302512940153734, -1.496, 0.618, -0.599], a = 0.2, v = 0.2, t = 0.2)
movej(p[0.391282422422679, 0.285992637390076, 0.301660659370184, -1.496, 0.618, -0.599], a = 0.2, v = 0.2, t = 0.2)
movej(p[0.391264912718407, 0.285985303209712, 0.300525718124984, -1.496, 0.618, -0.599], a = 0.2, v = 0.2, t = 0.2)
movej(p[0.391246715028222, 0.28597768085699, 0.29934618311753, -1.496, 0.618, -0.599], a = 0.2, v = 0.2, t = 0.2)
movej(p[0.391231537688751, 0.285971323619689, 0.298362420725536, -1.496, 0.618, -0.599], a = 0.2, v = 0.2, t = 0.2)
movej(p[0.391223331220006, 0.28596788622743, 0.297830495130922, -1.496, 0.618, -0.599], a = 0.2, v = 0.2, t = 0.2)
movej(p[0.391222242166071, 0.285967430062217, 0.297759905005021, -1.496, 0.618, -0.599], a = 0.2, v = 0.2, t = 0.2)
movej(p[0.391234352877747, 0.285972502800305, 0.298544895201132, -1.496, 0.618, -0.599], a = 0.2, v = 0.2, t = 0.2)
movej(p[0.391252434875234, 0.28598007669355, 0.299716931257535, -1.496, 0.618, -0.599], a = 0.2, v = 0.2, t = 0.2)
movej(p[0.391271818801221, 0.285988195917446, 0.300973355509775, -1.496, 0.618, -0.599], a = 0.2, v = 0.2, t = 0.2)
movej(p[0.39128746724136, 0.285994750481739, 0.301987653630451, -1.496, 0.618, -0.599], a = 0.2, v = 0.2, t = 0.2)
movej(p[0.39129819288005, 0.285999243062964, 0.30268286638457, -1.496, 0.618, -0.599], a = 0.2, v = 0.2, t = 0.2)
movej(p[0.391303402907905, 0.28600142535476, 0.303020569146939, -1.496, 0.618, -0.599], a = 0.2, v = 0.2, t = 0.2)
movej(p[0.391303767262776, 0.286001577969807, 0.303044185843452, -1.496, 0.618, -0.599], a = 0.2, v = 0.2, t = 0.2)
movej(p[0.391303942035879, 0.286001651175925, 0.303055514258841, -1.496, 0.618, -0.599], a = 0.2, v = 0.2, t = 0.2)
movej(p[0.391299931869341, 0.285999971462537, 0.302795583917719, -1.496, 0.618, -0.599], a = 0.2, v = 0.2, t = 0.2)
movej(p[0.391290179540983, 0.285995886565725, 0.302163459038912, -1.496, 0.618, -0.599], a = 0.2, v = 0.2, t = 0.2)
movej(p[0.391275394476889, 0.285989693638359, 0.301205123090285, -1.496, 0.618, -0.599], a = 0.2, v = 0.2, t = 0.2)
movej(p[0.391258804143928, 0.285982744549309, 0.300129773509445, -1.496, 0.618, -0.599], a = 0.2, v = 0.2, t = 0.2)
movej(p[0.391243315205456, 0.285976256794483, 0.299125813942618, -1.496, 0.618, -0.599], a = 0.2, v = 0.2, t = 0.2)
movej(p[0.391230531933559, 0.2859709023453, 0.298297229844392, -1.496, 0.618, -0.599], a = 0.2, v = 0.2, t = 0.2)
movej(p[0.391227166047318, 0.285969492497572, 0.298079060361789, -1.496, 0.618, -0.599], a = 0.2, v = 0.2, t = 0.2)
movej(p[0.391232915203148, 0.285971900610533, 0.298451708236061, -1.496, 0.618, -0.599], a = 0.2, v = 0.2, t = 0.2)
movej(p[0.391246529919904, 0.285977603321826, 0.299334184795847, -1.496, 0.618, -0.599], a = 0.2, v = 0.2, t = 0.2)
movej(p[0.391264070475562, 0.285984950424717, 0.300471125761326, -1.496, 0.618, -0.599], a = 0.2, v = 0.2, t = 0.2)
movej(p[0.391282940725968, 0.285992854488535, 0.301694254670896, -1.496, 0.618, -0.599], a = 0.2, v = 0.2, t = 0.2)
movej(p[0.391297161980978, 0.285998811256715, 0.302616045731397, -1.496, 0.618, -0.599], a = 0.2, v = 0.2, t = 0.2)
movej(p[0.391302438339313, 0.286001021331944, 0.30295804789237, -1.496, 0.618, -0.599], a = 0.2, v = 0.2, t = 0.2)
movej(p[0.391304863104016, 0.286002036977977, 0.303115215907816, -1.496, 0.618, -0.599], a = 0.2, v = 0.2, t = 0.2)
movej(p[0.391303608069623, 0.286001511289567, 0.303033867286805, -1.496, 0.618, -0.599], a = 0.2, v = 0.2, t = 0.2)
movej(p[0.391298493048612, 0.285999368792693, 0.302702322663039, -1.496, 0.618, -0.599], a = 0.2, v = 0.2, t = 0.2)
movej(p[0.391288119439665, 0.285995023663966, 0.302029927717181, -1.496, 0.618, -0.599], a = 0.2, v = 0.2, t = 0.2)
movej(p[0.391273824141328, 0.28598903588172, 0.301103337328007, -1.496, 0.618, -0.599], a = 0.2, v = 0.2, t = 0.2)
movej(p[0.391258265787237, 0.285982519051208, 0.30009487839055, -1.496, 0.618, -0.599], a = 0.2, v = 0.2, t = 0.2)
movej(p[0.391243677709244, 0.285976408634178, 0.299149310655914, -1.496, 0.618, -0.599], a = 0.2, v = 0.2, t = 0.2)
movej(p[0.391235386399187, 0.285972935704969, 0.298611885830529, -1.496, 0.618, -0.599], a = 0.2, v = 0.2, t = 0.2)
movej(p[0.391233556911982, 0.2859721693991, 0.298493302417895, -1.496, 0.618, -0.599], a = 0.2, v = 0.2, t = 0.2)
movej(p[0.391238283344357, 0.285974149130281, 0.298799659564868, -1.496, 0.618, -0.599], a = 0.2, v = 0.2, t = 0.2)
movej(p[0.39124941298195, 0.285978810932002, 0.29952105865606, -1.496, 0.618, -0.599], a = 0.2, v = 0.2, t = 0.2)
movej(p[0.3912649281441, 0.285985309670976, 0.300526717985124, -1.496, 0.618, -0.599], a = 0.2, v = 0.2, t = 0.2)
movej(p[0.391281051078559, 0.285992062983738, 0.301571771803715, -1.496, 0.618, -0.599], a = 0.2, v = 0.2, t = 0.2)
movej(p[0.391291938378513, 0.285996623279006, 0.302277463092103, -1.496, 0.618, -0.599], a = 0.2, v = 0.2, t = 0.2)
movej(p[0.39129973116102, 0.285999887393097, 0.302782574437476, -1.496, 0.618, -0.599], a = 0.2, v = 0.2, t = 0.2)
movej(p[0.39130253197327, 0.286001060551815, 0.302964117043421, -1.496, 0.618, -0.599], a = 0.2, v = 0.2, t = 0.2)
movej(p[0.391301744337379, 0.286000730639693, 0.30291306418466, -1.496, 0.618, -0.599], a = 0.2, v = 0.2, t = 0.2)
movej(p[0.391296291046344, 0.285998446453769, 0.302559593627878, -1.496, 0.618, -0.599], a = 0.2, v = 0.2, t = 0.2)
movej(p[0.391286529204961, 0.285994357572296, 0.301926852135323, -1.496, 0.618, -0.599], a = 0.2, v = 0.2, t = 0.2)
movej(p[0.39127260705414, 0.285988526088019, 0.301024448362942, -1.496, 0.618, -0.599], a = 0.2, v = 0.2, t = 0.2)
movej(p[0.391257372639605, 0.285982144944043, 0.300036986488429, -1.496, 0.618, -0.599], a = 0.2, v = 0.2, t = 0.2)
movej(p[0.391247080617149, 0.285977833988938, 0.299369879802854, -1.496, 0.618, -0.599], a = 0.2, v = 0.2, t = 0.2)
movej(p[0.391239815115685, 0.285974790733761, 0.298898945676795, -1.496, 0.618, -0.599], a = 0.2, v = 0.2, t = 0.2)
movej(p[0.391237627752399, 0.285973874526576, 0.298757165508907, -1.496, 0.618, -0.599], a = 0.2, v = 0.2, t = 0.2)
movej(p[0.391243190257342, 0.285976204458247, 0.299117715075482, -1.496, 0.618, -0.599], a = 0.2, v = 0.2, t = 0.2)
movej(p[0.391257803016443, 0.285982325213298, 0.300064882586342, -1.496, 0.618, -0.599], a = 0.2, v = 0.2, t = 0.2)
movej(p[0.391277588010452, 0.28599061243005, 0.301347303202229, -1.496, 0.618, -0.599], a = 0.2, v = 0.2, t = 0.2)
movej(p[0.391291033198841, 0.285996244132056, 0.302218791299073, -1.496, 0.618, -0.599], a = 0.2, v = 0.2, t = 0.2)
movej(p[0.391301207754644, 0.286000505884637, 0.302878284049681, -1.496, 0.618, -0.599], a = 0.2, v = 0.2, t = 0.2)
movej(p[0.391304046313565, 0.286001694854067, 0.303062273313389, -1.496, 0.618, -0.599], a = 0.2, v = 0.2, t = 0.2)
movej(p[0.39130521480982, 0.286002184294788, 0.303138012719013, -1.496, 0.618, -0.599], a = 0.2, v = 0.2, t = 0.2)
movej(p[0.391302341774474, 0.286000980884434, 0.302951788767892, -1.496, 0.618, -0.599], a = 0.2, v = 0.2, t = 0.2)
movej(p[0.391295433994834, 0.285998087465961, 0.302504041398486, -1.496, 0.618, -0.599], a = 0.2, v = 0.2, t = 0.2)
movej(p[0.391282595190442, 0.285992709756229, 0.301671857803754, -1.496, 0.618, -0.599], a = 0.2, v = 0.2, t = 0.2)
movej(p[0.391267197263559, 0.285986260122858, 0.300673797411755, -1.496, 0.618, -0.599], a = 0.2, v = 0.2, t = 0.2)
movej(p[0.391253932710037, 0.28598070408225, 0.299814017677153, -1.496, 0.618, -0.599], a = 0.2, v = 0.2, t = 0.2)
movej(p[0.391243467919818, 0.285976320760993, 0.299135712558007, -1.496, 0.618, -0.599], a = 0.2, v = 0.2, t = 0.2)
movej(p[0.391235147300944, 0.285972835555382, 0.298596387998355, -1.496, 0.618, -0.599], a = 0.2, v = 0.2, t = 0.2)
movej(p[0.391231290877661, 0.285971220239471, 0.298346422963292, -1.496, 0.618, -0.599], a = 0.2, v = 0.2, t = 0.2)
movej(p[0.391237070884877, 0.285973641274959, 0.298721070557844, -1.496, 0.618, -0.599], a = 0.2, v = 0.2, t = 0.2)
movej(p[0.391251262522556, 0.285979585637513, 0.299640941886876, -1.496, 0.618, -0.599], a = 0.2, v = 0.2, t = 0.2)
movej(p[0.391268221529583, 0.285986689150764, 0.300740188125068, -1.496, 0.618, -0.599], a = 0.2, v = 0.2, t = 0.2)
movej(p[0.391285314123113, 0.285993848618559, 0.301848093152075, -1.496, 0.618, -0.599], a = 0.2, v = 0.2, t = 0.2)
movej(p[0.391296903754875, 0.285998703095161, 0.302599308072649, -1.496, 0.618, -0.599], a = 0.2, v = 0.2, t = 0.2)
movej(p[0.391302383578102, 0.286000998394458, 0.302954498388872, -1.496, 0.618, -0.599], a = 0.2, v = 0.2, t = 0.2)
movej(p[0.391303467387302, 0.286001452362842, 0.303024748562326, -1.496, 0.618, -0.599], a = 0.2, v = 0.2, t = 0.2)
movej(p[0.391303919205854, 0.286001641613254, 0.303054034465834, -1.496, 0.618, -0.599], a = 0.2, v = 0.2, t = 0.2)
movej(p[0.391302330513718, 0.286000976167712, 0.302951058869989, -1.496, 0.618, -0.599], a = 0.2, v = 0.2, t = 0.2)
movej(p[0.391294527118335, 0.285997707608271, 0.30244525962084, -1.496, 0.618, -0.599], a = 0.2, v = 0.2, t = 0.2)
movej(p[0.391283807649922, 0.285993217611552, 0.301750446810778, -1.496, 0.618, -0.599], a = 0.2, v = 0.2, t = 0.2)
movej(p[0.391268995899378, 0.285987013506199, 0.300790381104109, -1.496, 0.618, -0.599], a = 0.2, v = 0.2, t = 0.2)
movej(p[0.39125426281987, 0.285980842353292, 0.299835414684155, -1.496, 0.618, -0.599], a = 0.2, v = 0.2, t = 0.2)
movej(p[0.391242164448748, 0.285975774784215, 0.299051224376155, -1.496, 0.618, -0.599], a = 0.2, v = 0.2, t = 0.2)
movej(p[0.391234780169447, 0.285972681777308, 0.298572591327017, -1.496, 0.618, -0.599], a = 0.2, v = 0.2, t = 0.2)
movej(p[0.391235844542273, 0.285973127604499, 0.298641581676694, -1.496, 0.618, -0.599], a = 0.2, v = 0.2, t = 0.2)
movej(p[0.391243611378764, 0.285976380850745, 0.299145011257311, -1.496, 0.618, -0.599], a = 0.2, v = 0.2, t = 0.2)
movej(p[0.391260911293609, 0.285983627157923, 0.300266354404603, -1.496, 0.618, -0.599], a = 0.2, v = 0.2, t = 0.2)
movej(p[0.391280213463422, 0.285991712137122, 0.3015174793981, -1.496, 0.618, -0.599], a = 0.2, v = 0.2, t = 0.2)
movej(p[0.391296521814713, 0.285998543114273, 0.302574551535576, -1.496, 0.618, -0.599], a = 0.2, v = 0.2, t = 0.2)
movej(p[0.391302886301442, 0.286001208967041, 0.302987083830842, -1.496, 0.618, -0.599], a = 0.2, v = 0.2, t = 0.2)
movej(p[0.391306373896401, 0.286002669794138, 0.303213142209952, -1.496, 0.618, -0.599], a = 0.2, v = 0.2, t = 0.2)
movej(p[0.391305888758352, 0.286002466587397, 0.303181696608541, -1.496, 0.618, -0.599], a = 0.2, v = 0.2, t = 0.2)
movej(p[0.391302157591698, 0.286000903736946, 0.302939850437817, -1.496, 0.618, -0.599], a = 0.2, v = 0.2, t = 0.2)
movej(p[0.391293465830647, 0.285997263073332, 0.302376469243191, -1.496, 0.618, -0.599], a = 0.2, v = 0.2, t = 0.2)
movej(p[0.391278755735422, 0.285991101547708, 0.301422992614846, -1.496, 0.618, -0.599], a = 0.2, v = 0.2, t = 0.2)
movej(p[0.391261540661889, 0.285983890777479, 0.300307148698325, -1.496, 0.618, -0.599], a = 0.2, v = 0.2, t = 0.2)
movej(p[0.391244393461406, 0.285976708436811, 0.299195704166422, -1.496, 0.618, -0.599], a = 0.2, v = 0.2, t = 0.2)
movej(p[0.391232737807677, 0.285971826306001, 0.298440209844448, -1.496, 0.618, -0.599], a = 0.2, v = 0.2, t = 0.2)
movej(p[0.391226254388854, 0.285969110636891, 0.2980199686275, -1.496, 0.618, -0.599], a = 0.2, v = 0.2, t = 0.2)
movej(p[0.39122570214904, 0.285968879323652, 0.297984173634479, -1.496, 0.618, -0.599], a = 0.2, v = 0.2, t = 0.2)
movej(p[0.391236776254138, 0.285973517864823, 0.298701973229166, -1.496, 0.618, -0.599], a = 0.2, v = 0.2, t = 0.2)
movej(p[0.391255143626948, 0.285981211291446, 0.299892506698163, -1.496, 0.618, -0.599], a = 0.2, v = 0.2, t = 0.2)
movej(p[0.391276781246701, 0.285990274505961, 0.301295010516894, -1.496, 0.618, -0.599], a = 0.2, v = 0.2, t = 0.2)
movej(p[0.39129173846153, 0.285996539541029, 0.302264504904686, -1.496, 0.618, -0.599], a = 0.2, v = 0.2, t = 0.2)
movej(p[0.391300755365341, 0.286000316395158, 0.302848961151348, -1.496, 0.618, -0.599], a = 0.2, v = 0.2, t = 0.2)
movej(p[0.391304596393782, 0.286001925262728, 0.303097928325991, -1.496, 0.618, -0.599], a = 0.2, v = 0.2, t = 0.2)
movej(p[0.391304068372306, 0.286001704093674, 0.30306370311339, -1.496, 0.618, -0.599], a = 0.2, v = 0.2, t = 0.2)
movej(p[0.391299737593534, 0.285999890087444, 0.302782991379154, -1.496, 0.618, -0.599], a = 0.2, v = 0.2, t = 0.2)
movej(p[0.391290786387751, 0.285996140751837, 0.302202793536829, -1.496, 0.618, -0.599], a = 0.2, v = 0.2, t = 0.2)
movej(p[0.391277671309195, 0.285990647320873, 0.301352702446986, -1.496, 0.618, -0.599], a = 0.2, v = 0.2, t = 0.2)
movej(p[0.391262225562664, 0.285984177657585, 0.300351542488552, -1.496, 0.618, -0.599], a = 0.2, v = 0.2, t = 0.2)
movej(p[0.391250256767364, 0.285979164363123, 0.299575751005731, -1.496, 0.618, -0.599], a = 0.2, v = 0.2, t = 0.2)
movej(p[0.391240441398826, 0.285975053061065, 0.298939539998489, -1.496, 0.618, -0.599], a = 0.2, v = 0.2, t = 0.2)
movej(p[0.391234740062645, 0.285972664978022, 0.298569991690652, -1.496, 0.618, -0.599], a = 0.2, v = 0.2, t = 0.2)
movej(p[0.391232733179969, 0.285971824367622, 0.298439909886406, -1.496, 0.618, -0.599], a = 0.2, v = 0.2, t = 0.2)
movej(p[0.391239881446165, 0.285974818517195, 0.298903245075398, -1.496, 0.618, -0.599], a = 0.2, v = 0.2, t = 0.2)
movej(p[0.391252849826379, 0.285980250501542, 0.299743827495308, -1.496, 0.618, -0.599], a = 0.2, v = 0.2, t = 0.2)
movej(p[0.391267630725536, 0.285986441684367, 0.300701893481696, -1.496, 0.618, -0.599], a = 0.2, v = 0.2, t = 0.2)
movej(p[0.3912828234907, 0.285992805382931, 0.30168665573383, -1.496, 0.618, -0.599], a = 0.2, v = 0.2, t = 0.2)
movej(p[0.391294135922757, 0.285997543750625, 0.302419903167683, -1.496, 0.618, -0.599], a = 0.2, v = 0.2, t = 0.2)
movej(p[0.391300886668841, 0.286000371393434, 0.302857471960862, -1.496, 0.618, -0.599], a = 0.2, v = 0.2, t = 0.2)
movej(p[0.391302179496182, 0.28600091291194, 0.302941270239216, -1.496, 0.618, -0.599], a = 0.2, v = 0.2, t = 0.2)
movej(p[0.391300795672677, 0.28600033327844, 0.302851573785894, -1.496, 0.618, -0.599], a = 0.2, v = 0.2, t = 0.2)
movej(p[0.391294760200558, 0.285997805237965, 0.302460367507559, -1.496, 0.618, -0.599], a = 0.2, v = 0.2, t = 0.2)
movej(p[0.391282659978353, 0.285992736893536, 0.301676057216343, -1.496, 0.618, -0.599], a = 0.2, v = 0.2, t = 0.2)
movej(p[0.391269589788564, 0.28598726226485, 0.300828875719508, -1.496, 0.618, -0.599], a = 0.2, v = 0.2, t = 0.2)
movej(p[0.391257084179144, 0.285982024118412, 0.300018289103807, -1.496, 0.618, -0.599], a = 0.2, v = 0.2, t = 0.2)
movej(p[0.391246065606541, 0.28597740883779, 0.299304089005625, -1.496, 0.618, -0.599], a = 0.2, v = 0.2, t = 0.2)
movej(p[0.391236311940775, 0.285973323380788, 0.298671877438944, -1.496, 0.618, -0.599], a = 0.2, v = 0.2, t = 0.2)
movej(p[0.391234900489854, 0.285972732175164, 0.298580390236111, -1.496, 0.618, -0.599], a = 0.2, v = 0.2, t = 0.2)
movej(p[0.391241940776198, 0.285975681095892, 0.299036726404122, -1.496, 0.618, -0.599], a = 0.2, v = 0.2, t = 0.2)
movej(p[0.39125677720785, 0.285981895539266, 0.299998391887016, -1.496, 0.618, -0.599], a = 0.2, v = 0.2, t = 0.2)
movej(p[0.391273376796227, 0.285988848505075, 0.30107434138394, -1.496, 0.618, -0.599], a = 0.2, v = 0.2, t = 0.2)
movej(p[0.391290130950049, 0.285995866212745, 0.30216030947947, -1.496, 0.618, -0.599], a = 0.2, v = 0.2, t = 0.2)
movej(p[0.391300755673855, 0.286000316524383, 0.302848981148551, -1.496, 0.618, -0.599], a = 0.2, v = 0.2, t = 0.2)
movej(p[0.391304417301485, 0.286001850247457, 0.303086319949762, -1.496, 0.618, -0.599], a = 0.2, v = 0.2, t = 0.2)
movej(p[0.391305481520054, 0.286002296010036, 0.303155300300838, -1.496, 0.618, -0.599], a = 0.2, v = 0.2, t = 0.2)
movej(p[0.391302931807236, 0.286001228027768, 0.302990033418256, -1.496, 0.618, -0.599], a = 0.2, v = 0.2, t = 0.2)
movej(p[0.391296929053012, 0.285998713691633, 0.302600947843279, -1.496, 0.618, -0.599], a = 0.2, v = 0.2, t = 0.2)
movej(p[0.391284770830201, 0.285993621052853, 0.301812878077935, -1.496, 0.618, -0.599], a = 0.2, v = 0.2, t = 0.2)
movej(p[0.391271527255621, 0.285988073799563, 0.300954458153124, -1.496, 0.618, -0.599], a = 0.2, v = 0.2, t = 0.2)
movej(p[0.391257101147406, 0.285982031225802, 0.300019388949961, -1.496, 0.618, -0.599], a = 0.2, v = 0.2, t = 0.2)
movej(p[0.391243885956102, 0.285976495861237, 0.299162808767807, -1.496, 0.618, -0.599], a = 0.2, v = 0.2, t = 0.2)
movej(p[0.391234522560372, 0.285972573874205, 0.298555893662675, -1.496, 0.618, -0.599], a = 0.2, v = 0.2, t = 0.2)
movej(p[0.391234365218302, 0.285972507969316, 0.298545695089244, -1.496, 0.618, -0.599], a = 0.2, v = 0.2, t = 0.2)
movej(p[0.391243236534421, 0.285976223842038, 0.299120714655903, -1.496, 0.618, -0.599], a = 0.2, v = 0.2, t = 0.2)
movej(p[0.391257457480917, 0.285982180480993, 0.300042485719201, -1.496, 0.618, -0.599], a = 0.2, v = 0.2, t = 0.2)
movej(p[0.391276270656258, 0.285990060638134, 0.301261915146251, -1.496, 0.618, -0.599], a = 0.2, v = 0.2, t = 0.2)
movej(p[0.391291851840375, 0.285996587031317, 0.302271853876716, -1.496, 0.618, -0.599], a = 0.2, v = 0.2, t = 0.2)
movej(p[0.391301556760951, 0.286000652070727, 0.302900905885354, -1.496, 0.618, -0.599], a = 0.2, v = 0.2, t = 0.2)
movej(p[0.391305582404087, 0.286002338266701, 0.303161839386156, -1.496, 0.618, -0.599], a = 0.2, v = 0.2, t = 0.2)
movej(p[0.391307262416326, 0.286003041962924, 0.30327073415403, -1.496, 0.618, -0.599], a = 0.2, v = 0.2, t = 0.2)
movej(p[0.391307323347813, 0.286003067484916, 0.303274683601584, -1.496, 0.618, -0.599], a = 0.2, v = 0.2, t = 0.2)
movej(p[0.391302734512621, 0.286001145388206, 0.302977245207062, -1.496, 0.618, -0.599], a = 0.2, v = 0.2, t = 0.2)
movej(p[0.391294471585839, 0.285997684347722, 0.302441660124335, -1.496, 0.618, -0.599], a = 0.2, v = 0.2, t = 0.2)
movej(p[0.391280236601962, 0.285991721829018, 0.30151897918831, -1.496, 0.618, -0.599], a = 0.2, v = 0.2, t = 0.2)
movej(p[0.391263704886635, 0.285984797292769, 0.300447429076002, -1.496, 0.618, -0.599], a = 0.2, v = 0.2, t = 0.2)
movej(p[0.391249938998086, 0.285979031261092, 0.299555153886842, -1.496, 0.618, -0.599], a = 0.2, v = 0.2, t = 0.2)
movej(p[0.391239710220971, 0.285974746797169, 0.298892146627841, -1.496, 0.618, -0.599], a = 0.2, v = 0.2, t = 0.2)
movej(p[0.391231307845924, 0.285971227346861, 0.298347522809446, -1.496, 0.618, -0.599], a = 0.2, v = 0.2, t = 0.2)
movej(p[0.391223530211448, 0.285967969577731, 0.297843393326732, -1.496, 0.618, -0.599], a = 0.2, v = 0.2, t = 0.2)
movej(p[0.391223847980726, 0.285968102679762, 0.297863990445621, -1.496, 0.618, -0.599], a = 0.2, v = 0.2, t = 0.2)
movej(p[0.391235121077265, 0.285972824571234, 0.298594688236117, -1.496, 0.618, -0.599], a = 0.2, v = 0.2, t = 0.2)
movej(p[0.391252476524606, 0.285980094138961, 0.299719630879913, -1.496, 0.618, -0.599], a = 0.2, v = 0.2, t = 0.2)
movej(p[0.391268364988529, 0.285986749240516, 0.300749486824372, -1.496, 0.618, -0.599], a = 0.2, v = 0.2, t = 0.2)
movej(p[0.391283321740588, 0.285993014081747, 0.30171895121636, -1.496, 0.618, -0.599], a = 0.2, v = 0.2, t = 0.2)
movej(p[0.391294735827963, 0.285997795029168, 0.302458787728538, -1.496, 0.618, -0.599], a = 0.2, v = 0.2, t = 0.2)
movej(p[0.3913018850197, 0.286000789566417, 0.302922182909139, -1.496, 0.618, -0.599], a = 0.2, v = 0.2, t = 0.2)
movej(p[0.391304266592463, 0.286001787120912, 0.303076551316192, -1.496, 0.618, -0.599], a = 0.2, v = 0.2, t = 0.2)
movej(p[0.391305696399959, 0.286002386015439, 0.303169228352592, -1.496, 0.618, -0.599], a = 0.2, v = 0.2, t = 0.2)
movej(p[0.391305650431393, 0.286002366760873, 0.303166248769374, -1.496, 0.618, -0.599], a = 0.2, v = 0.2, t = 0.2)
movej(p[0.391304444296448, 0.286001861554669, 0.303088069705008, -1.496, 0.618, -0.599], a = 0.2, v = 0.2, t = 0.2)
movej(p[0.391300666713883, 0.286000279262276, 0.302843214955122, -1.496, 0.618, -0.599], a = 0.2, v = 0.2, t = 0.2)
movej(p[0.3912916253912, 0.285996492179967, 0.302257175929858, -1.496, 0.618, -0.599], a = 0.2, v = 0.2, t = 0.2)
movej(p[0.391276719543929, 0.285990248660906, 0.301291011076333, -1.496, 0.618, -0.599], a = 0.2, v = 0.2, t = 0.2)
movej(p[0.391261688748543, 0.28598395280561, 0.300316747355672, -1.496, 0.618, -0.599], a = 0.2, v = 0.2, t = 0.2)
movej(p[0.391250315384998, 0.285979188915925, 0.299579550474264, -1.496, 0.618, -0.599], a = 0.2, v = 0.2, t = 0.2)
movej(p[0.391241752582742, 0.285975602268475, 0.299024528110411, -1.496, 0.618, -0.599], a = 0.2, v = 0.2, t = 0.2)
movej(p[0.391236294972513, 0.285973316273398, 0.29867077759279, -1.496, 0.618, -0.599], a = 0.2, v = 0.2, t = 0.2)
movej(p[0.391239778094021, 0.285974775226729, 0.298896546012459, -1.496, 0.618, -0.599], a = 0.2, v = 0.2, t = 0.2)
movej(p[0.391251631196622, 0.285979740061714, 0.299664838544228, -1.496, 0.618, -0.599], a = 0.2, v = 0.2, t = 0.2)
movej(p[0.391269006697364, 0.285987018029084, 0.300791081006207, -1.496, 0.618, -0.599], a = 0.2, v = 0.2, t = 0.2)
movej(p[0.391282949981384, 0.285992858365293, 0.30169485458698, -1.496, 0.618, -0.599], a = 0.2, v = 0.2, t = 0.2)
movej(p[0.391296246928862, 0.285998427974555, 0.302556734027877, -1.496, 0.618, -0.599], a = 0.2, v = 0.2, t = 0.2)
movej(p[0.391303084675855, 0.286001292058891, 0.302999942032246, -1.496, 0.618, -0.599], a = 0.2, v = 0.2, t = 0.2)
movej(p[0.391305352098488, 0.286002241800034, 0.303146911474262, -1.496, 0.618, -0.599], a = 0.2, v = 0.2, t = 0.2)
movej(p[0.391300229811976, 0.286000096259906, 0.302814895916369, -1.496, 0.618, -0.599], a = 0.2, v = 0.2, t = 0.2)
movej(p[0.391289269579345, 0.285995505415783, 0.302104477289238, -1.496, 0.618, -0.599], a = 0.2, v = 0.2, t = 0.2)
movej(p[0.391272573117615, 0.285988511873239, 0.301022248670633, -1.496, 0.618, -0.599], a = 0.2, v = 0.2, t = 0.2)
movej(p[0.391254719420387, 0.285981033606696, 0.299865010544306, -1.496, 0.618, -0.599], a = 0.2, v = 0.2, t = 0.2)
movej(p[0.391241994766124, 0.285975703710314, 0.299040225914613, -1.496, 0.618, -0.599], a = 0.2, v = 0.2, t = 0.2)
movej(p[0.391234394527119, 0.285972520245716, 0.298547594823511, -1.496, 0.618, -0.599], a = 0.2, v = 0.2, t = 0.2)
movej(p[0.391233290047491, 0.285972057619239, 0.298476004837469, -1.496, 0.618, -0.599], a = 0.2, v = 0.2, t = 0.2)
movej(p[0.391236870350866, 0.285973557278532, 0.298708072376021, -1.496, 0.618, -0.599], a = 0.2, v = 0.2, t = 0.2)
movej(p[0.391248239086703, 0.285978319229838, 0.299444969299386, -1.496, 0.618, -0.599], a = 0.2, v = 0.2, t = 0.2)
movej(p[0.391260894325347, 0.285983620050533, 0.300265254558449, -1.496, 0.618, -0.599], a = 0.2, v = 0.2, t = 0.2)
movej(p[0.391270962675252, 0.285987837317314, 0.300917863271991, -1.496, 0.618, -0.599], a = 0.2, v = 0.2, t = 0.2)
movej(p[0.391277314975683, 0.285990498065683, 0.301329605677746, -1.496, 0.618, -0.599], a = 0.2, v = 0.2, t = 0.2)
movej(p[0.391278257485534, 0.285990892848892, 0.301390697132316, -1.496, 0.618, -0.599], a = 0.2, v = 0.2, t = 0.2)
movej(p[0.391269949207214, 0.285987412812293, 0.300852172460776, -1.496, 0.618, -0.599], a = 0.2, v = 0.2, t = 0.2)
movej(p[0.391254011381072, 0.285980737034694, 0.299819116963868, -1.496, 0.618, -0.599], a = 0.2, v = 0.2, t = 0.2)
movej(p[0.391237208173546, 0.285973698780205, 0.298729969313093, -1.496, 0.618, -0.599], a = 0.2, v = 0.2, t = 0.2)
movej(p[0.391222243708641, 0.285967430708343, 0.297760004991035, -1.496, 0.618, -0.599], a = 0.2, v = 0.2, t = 0.2)
movej(p[0.391206912112239, 0.285961008858406, 0.296766243997639, -1.496, 0.618, -0.599], a = 0.2, v = 0.2, t = 0.2)
movej(p[0.391194324746645, 0.285955736467271, 0.295950358123194, -1.496, 0.618, -0.599], a = 0.2, v = 0.2, t = 0.2)
movej(p[0.391186315726772, 0.285952381779187, 0.295431230738375, -1.496, 0.618, -0.599], a = 0.2, v = 0.2, t = 0.2)
movej(p[0.391189005967654, 0.285953508623566, 0.295605606346835, -1.496, 0.618, -0.599], a = 0.2, v = 0.2, t = 0.2)
movej(p[0.391196717271649, 0.285956738609263, 0.296105436430947, -1.496, 0.618, -0.599], a = 0.2, v = 0.2, t = 0.2)
movej(p[0.391211181944097, 0.285962797336183, 0.29704300528446, -1.496, 0.618, -0.599], a = 0.2, v = 0.2, t = 0.2)
movej(p[0.391224281442703, 0.285968284241271, 0.297892086515562, -1.496, 0.618, -0.599], a = 0.2, v = 0.2, t = 0.2)
movej(p[0.391236933596208, 0.285973583769712, 0.298712171802596, -1.496, 0.618, -0.599], a = 0.2, v = 0.2, t = 0.2)
movej(p[0.391247824135558, 0.285978145421846, 0.299418073061614, -1.496, 0.618, -0.599], a = 0.2, v = 0.2, t = 0.2)
movej(p[0.391259698834129, 0.2859831193026, 0.300187765397579, -1.496, 0.618, -0.599], a = 0.2, v = 0.2, t = 0.2)
movej(p[0.391270337934681, 0.285987575636136, 0.300877368936311, -1.496, 0.618, -0.599], a = 0.2, v = 0.2, t = 0.2)
movej(p[0.391278721798897, 0.285991087332928, 0.301420792922537, -1.496, 0.618, -0.599], a = 0.2, v = 0.2, t = 0.2)
movej(p[0.391284446273617, 0.285993485107866, 0.301791841020585, -1.496, 0.618, -0.599], a = 0.2, v = 0.2, t = 0.2)
movej(p[0.391285943337136, 0.285994112173503, 0.301888877447196, -1.496, 0.618, -0.599], a = 0.2, v = 0.2, t = 0.2)
movej(p[0.391280790384345, 0.285991953788382, 0.301554874167345, -1.496, 0.618, -0.599], a = 0.2, v = 0.2, t = 0.2)
movej(p[0.391271289699947, 0.285987974296103, 0.300939060306964, -1.496, 0.618, -0.599], a = 0.2, v = 0.2, t = 0.2)
movej(p[0.391259692663852, 0.285983116718095, 0.300187365453523, -1.496, 0.618, -0.599], a = 0.2, v = 0.2, t = 0.2)
movej(p[0.391250006871136, 0.285979059690652, 0.299559553271459, -1.496, 0.618, -0.599], a = 0.2, v = 0.2, t = 0.2)
movej(p[0.391241805030098, 0.285975624236772, 0.299027927634888, -1.496, 0.618, -0.599], a = 0.2, v = 0.2, t = 0.2)
movej(p[0.391244840806506, 0.285976895813457, 0.299224700110489, -1.496, 0.618, -0.599], a = 0.2, v = 0.2, t = 0.2)
movej(p[0.391255387352899, 0.285981313379411, 0.299908304488379, -1.496, 0.618, -0.599], a = 0.2, v = 0.2, t = 0.2)
movej(p[0.391272684182606, 0.285988558394337, 0.301029447663643, -1.496, 0.618, -0.599], a = 0.2, v = 0.2, t = 0.2)
movej(p[0.391286492646068, 0.285994342259102, 0.30192448246679, -1.496, 0.618, -0.599], a = 0.2, v = 0.2, t = 0.2)
movej(p[0.391296437436172, 0.285998507771161, 0.302569082300609, -1.496, 0.618, -0.599], a = 0.2, v = 0.2, t = 0.2)
movej(p[0.391301036884241, 0.28600043431322, 0.302867208598907, -1.496, 0.618, -0.599], a = 0.2, v = 0.2, t = 0.2)
movej(p[0.391300508878191, 0.286000213150626, 0.302832984386167, -1.496, 0.618, -0.599], a = 0.2, v = 0.2, t = 0.2)
movej(p[0.391295726157462, 0.285998209842294, 0.302522978749542, -1.496, 0.618, -0.599], a = 0.2, v = 0.2, t = 0.2)
movej(p[0.391285633434961, 0.285993982366717, 0.301868790256978, -1.496, 0.618, -0.599], a = 0.2, v = 0.2, t = 0.2)
movej(p[0.391272417318115, 0.285988446614476, 0.301012150083216, -1.496, 0.618, -0.599], a = 0.2, v = 0.2, t = 0.2)
movej(p[0.391258563503115, 0.285982643753596, 0.300114175691257, -1.496, 0.618, -0.599], a = 0.2, v = 0.2, t = 0.2)
movej(p[0.391248396428773, 0.285978385134727, 0.299455167872817, -1.496, 0.618, -0.599], a = 0.2, v = 0.2, t = 0.2)
movej(p[0.391242307907694, 0.285975834873966, 0.29906052307546, -1.496, 0.618, -0.599], a = 0.2, v = 0.2, t = 0.2)
movej(p[0.391241615294073, 0.285975544763229, 0.299015629355162, -1.496, 0.618, -0.599], a = 0.2, v = 0.2, t = 0.2)
movej(p[0.391247995360751, 0.285978217141872, 0.29942917150917, -1.496, 0.618, -0.599], a = 0.2, v = 0.2, t = 0.2)
movej(p[0.391263470416099, 0.285984699081561, 0.300432231201871, -1.496, 0.618, -0.599], a = 0.2, v = 0.2, t = 0.2)
movej(p[0.391280278251334, 0.285991739274429, 0.301521678810689, -1.496, 0.618, -0.599], a = 0.2, v = 0.2, t = 0.2)
movej(p[0.391291747716946, 0.285996543417788, 0.30226510482077, -1.496, 0.618, -0.599], a = 0.2, v = 0.2, t = 0.2)
movej(p[0.391298235146449, 0.285999260766826, 0.302685606001354, -1.496, 0.618, -0.599], a = 0.2, v = 0.2, t = 0.2)
movej(p[0.391300784658732, 0.286000328665098, 0.302850859885754, -1.496, 0.618, -0.599], a = 0.2, v = 0.2, t = 0.2)
movej(p[0.391299990984762, 0.285999996223844, 0.302799415651738, -1.496, 0.618, -0.599], a = 0.2, v = 0.2, t = 0.2)
movej(p[0.391294701120153, 0.285997780491325, 0.302456538043222, -1.496, 0.618, -0.599], a = 0.2, v = 0.2, t = 0.2)
movej(p[0.39128561384433, 0.285993974160912, 0.3018675204346, -1.496, 0.618, -0.599], a = 0.2, v = 0.2, t = 0.2)
movej(p[0.391273563447114, 0.285988926686365, 0.301086439691637, -1.496, 0.618, -0.599], a = 0.2, v = 0.2, t = 0.2)
movej(p[0.391259245318751, 0.285982929341449, 0.300158369509456, -1.496, 0.618, -0.599], a = 0.2, v = 0.2, t = 0.2)
movej(p[0.39124945771646, 0.285978829669666, 0.299523958250466, -1.496, 0.618, -0.599], a = 0.2, v = 0.2, t = 0.2)
movej(p[0.391245522622143, 0.28597718140131, 0.299268893928688, -1.496, 0.618, -0.599], a = 0.2, v = 0.2, t = 0.2)
movej(p[0.391249490110416, 0.28597884323832, 0.299526057956761, -1.496, 0.618, -0.599], a = 0.2, v = 0.2, t = 0.2)
movej(p[0.391258389192782, 0.285982570741317, 0.300102877271672, -1.496, 0.618, -0.599], a = 0.2, v = 0.2, t = 0.2)
movej(p[0.391272508329704, 0.285988484735931, 0.301018049258044, -1.496, 0.618, -0.599], a = 0.2, v = 0.2, t = 0.2)
movej(p[0.391287201456667, 0.285994639154166, 0.301970426040235, -1.496, 0.618, -0.599], a = 0.2, v = 0.2, t = 0.2)
movej(p[0.391298429818696, 0.285999342307974, 0.302698224236324, -1.496, 0.618, -0.599], a = 0.2, v = 0.2, t = 0.2)
movej(p[0.391301475128183, 0.28600061787772, 0.302895614625492, -1.496, 0.618, -0.599], a = 0.2, v = 0.2, t = 0.2)
movej(p[0.391304373955287, 0.286001832091307, 0.303083510342768, -1.496, 0.618, -0.599], a = 0.2, v = 0.2, t = 0.2)
movej(p[0.39130504435591, 0.286002112897825, 0.303126964264464, -1.496, 0.618, -0.599], a = 0.2, v = 0.2, t = 0.2)
movej(p[0.391305773065654, 0.286002418127919, 0.303174197657489, -1.496, 0.618, -0.599], a = 0.2, v = 0.2, t = 0.2)
movej(p[0.391304580042547, 0.286001918413789, 0.303096868474242, -1.496, 0.618, -0.599], a = 0.2, v = 0.2, t = 0.2)
movej(p[0.39130232989669, 0.286000975909261, 0.302951018875584, -1.496, 0.618, -0.599], a = 0.2, v = 0.2, t = 0.2)
movej(p[0.391294932659807, 0.285997877474892, 0.302471545943927, -1.496, 0.618, -0.599], a = 0.2, v = 0.2, t = 0.2)
movej(p[0.391282138589925, 0.285992518502825, 0.301642261943603, -1.496, 0.618, -0.599], a = 0.2, v = 0.2, t = 0.2)
movej(p[0.391268965047992, 0.285987000583672, 0.300788381383828, -1.496, 0.618, -0.599], a = 0.2, v = 0.2, t = 0.2)
movej(p[0.391257017848663, 0.285981996334979, 0.300013989705203, -1.496, 0.618, -0.599], a = 0.2, v = 0.2, t = 0.2)
movej(p[0.391247520249403, 0.285978018134952, 0.299398375816851, -1.496, 0.618, -0.599], a = 0.2, v = 0.2, t = 0.2)
movej(p[0.391238337334283, 0.285974171744704, 0.298803159075359, -1.496, 0.618, -0.599], a = 0.2, v = 0.2, t = 0.2)
movej(p[0.391238730689458, 0.285974336506927, 0.298828655508935, -1.496, 0.618, -0.599], a = 0.2, v = 0.2, t = 0.2)
movej(p[0.391247322800531, 0.285977935430778, 0.299385577607055, -1.496, 0.618, -0.599], a = 0.2, v = 0.2, t = 0.2)
movej(p[0.391263811323917, 0.285984841875488, 0.30045432811097, -1.496, 0.618, -0.599], a = 0.2, v = 0.2, t = 0.2)
movej(p[0.391279948141501, 0.285991601003387, 0.301500281803687, -1.496, 0.618, -0.599], a = 0.2, v = 0.2, t = 0.2)
movej(p[0.391294395537172, 0.285997652493692, 0.302436730813844, -1.496, 0.618, -0.599], a = 0.2, v = 0.2, t = 0.2)
movej(p[0.391302807013379, 0.286001175756146, 0.302981944549722, -1.496, 0.618, -0.599], a = 0.2, v = 0.2, t = 0.2)
movej(p[0.391305333124886, 0.28600223385268, 0.303145681646289, -1.496, 0.618, -0.599], a = 0.2, v = 0.2, t = 0.2)
movej(p[0.391305431078037, 0.286002274881704, 0.30315203075818, -1.496, 0.618, -0.599], a = 0.2, v = 0.2, t = 0.2)
movej(p[0.391305678197641, 0.286002378391148, 0.303168048517627, -1.496, 0.618, -0.599], a = 0.2, v = 0.2, t = 0.2)
movej(p[0.391305278363675, 0.286002210915194, 0.303142132142791, -1.496, 0.618, -0.599], a = 0.2, v = 0.2, t = 0.2)
movej(p[0.391301644995915, 0.286000689029155, 0.302906625085356, -1.496, 0.618, -0.599], a = 0.2, v = 0.2, t = 0.2)
movej(p[0.391294386436013, 0.285997648681547, 0.302436140896361, -1.496, 0.618, -0.599], a = 0.2, v = 0.2, t = 0.2)
movej(p[0.391282888278611, 0.285992832520238, 0.301690855146419, -1.496, 0.618, -0.599], a = 0.2, v = 0.2, t = 0.2)
movej(p[0.391269096166384, 0.285987055504413, 0.30079688019502, -1.496, 0.618, -0.599], a = 0.2, v = 0.2, t = 0.2)
movej(p[0.391256504173082, 0.285981781174899, 0.299980694362533, -1.496, 0.618, -0.599], a = 0.2, v = 0.2, t = 0.2)
movej(p[0.391248684889234, 0.285978505960357, 0.29947386525744, -1.496, 0.618, -0.599], a = 0.2, v = 0.2, t = 0.2)
movej(p[0.391246042468001, 0.285977399145895, 0.299302589215415, -1.496, 0.618, -0.599], a = 0.2, v = 0.2, t = 0.2)
movej(p[0.39124640342922, 0.285977550339464, 0.299325985942696, -1.496, 0.618, -0.599], a = 0.2, v = 0.2, t = 0.2)
movej(p[0.391255705122178, 0.285981446481442, 0.299928901607268, -1.496, 0.618, -0.599], a = 0.2, v = 0.2, t = 0.2)
movej(p[0.391270478308488, 0.285987634433636, 0.300886467663587, -1.496, 0.618, -0.599], a = 0.2, v = 0.2, t = 0.2)
movej(p[0.391287297095965, 0.285994679214001, 0.301976625173104, -1.496, 0.618, -0.599], a = 0.2, v = 0.2, t = 0.2)
movej(p[0.391296706768774, 0.285998620584824, 0.302586539858658, -1.496, 0.618, -0.599], a = 0.2, v = 0.2, t = 0.2)
movej(p[0.391303312513343, 0.286001387491755, 0.303014709966518, -1.496, 0.618, -0.599], a = 0.2, v = 0.2, t = 0.2)
movej(p[0.391305536744035, 0.28600231914136, 0.30315887980014, -1.496, 0.618, -0.599], a = 0.2, v = 0.2, t = 0.2)
movej(p[0.391306938939541, 0.286002906470226, 0.303249767086889, -1.496, 0.618, -0.599], a = 0.2, v = 0.2, t = 0.2)
movej(p[0.391306380066679, 0.286002672378644, 0.303213542154008, -1.496, 0.618, -0.599], a = 0.2, v = 0.2, t = 0.2)
movej(p[0.391306022807626, 0.286002522735778, 0.30319038539316, -1.496, 0.618, -0.599], a = 0.2, v = 0.2, t = 0.2)
movej(p[0.391301802646499, 0.28600075506327, 0.30291684365599, -1.496, 0.618, -0.599], a = 0.2, v = 0.2, t = 0.2)
movej(p[0.391292151098822, 0.285996712379832, 0.302291251163437, -1.496, 0.618, -0.599], a = 0.2, v = 0.2, t = 0.2)
movej(p[0.391281425922902, 0.285992219992445, 0.301596068405123, -1.496, 0.618, -0.599], a = 0.2, v = 0.2, t = 0.2)
movej(p[0.391269881334164, 0.285987384382732, 0.300847773076159, -1.496, 0.618, -0.599], a = 0.2, v = 0.2, t = 0.2)
movej(p[0.391258514140897, 0.285982623077552, 0.300110976138808, -1.496, 0.618, -0.599], a = 0.2, v = 0.2, t = 0.2)
movej(p[0.391248476642377, 0.285978418733298, 0.299460367145546, -1.496, 0.618, -0.599], a = 0.2, v = 0.2, t = 0.2)
movej(p[0.391244569314307, 0.285976782095217, 0.299207102572021, -1.496, 0.618, -0.599], a = 0.2, v = 0.2, t = 0.2)
movej(p[0.391247905891731, 0.285978179666543, 0.299423372320357, -1.496, 0.618, -0.599], a = 0.2, v = 0.2, t = 0.2)
movej(p[0.391256946890475, 0.285981966613166, 0.300009390348558, -1.496, 0.618, -0.599], a = 0.2, v = 0.2, t = 0.2)
movej(p[0.391272429658669, 0.285988451783487, 0.301012949971329, -1.496, 0.618, -0.599], a = 0.2, v = 0.2, t = 0.2)
movej(p[0.391288477778517, 0.28599517375912, 0.302053154468239, -1.496, 0.618, -0.599], a = 0.2, v = 0.2, t = 0.2)
movej(p[0.391299486802615, 0.28599978504022, 0.302766735652994, -1.496, 0.618, -0.599], a = 0.2, v = 0.2, t = 0.2)
movej(p[0.391303422498535, 0.286001433560565, 0.303021838969318, -1.496, 0.618, -0.599], a = 0.2, v = 0.2, t = 0.2)
movej(p[0.391305165910372, 0.286002163812582, 0.303134843162369, -1.496, 0.618, -0.599], a = 0.2, v = 0.2, t = 0.2)
movej(p[0.391304191469337, 0.286001755654558, 0.303071681997309, -1.496, 0.618, -0.599], a = 0.2, v = 0.2, t = 0.2)
movej(p[0.391299161706133, 0.285999648869088, 0.302745663600538, -1.496, 0.618, -0.599], a = 0.2, v = 0.2, t = 0.2)
movej(p[0.391289690855024, 0.285995681872893, 0.302131783469669, -1.496, 0.618, -0.599], a = 0.2, v = 0.2, t = 0.2)
movej(p[0.391277898066884, 0.285990742301449, 0.301367400391048, -1.496, 0.618, -0.599], a = 0.2, v = 0.2, t = 0.2)
movej(p[0.391265427936558, 0.285985519015918, 0.300559113453669, -1.496, 0.618, -0.599], a = 0.2, v = 0.2, t = 0.2)
movej(p[0.391252482694883, 0.285980096723467, 0.29972003082397, -1.496, 0.618, -0.599], a = 0.2, v = 0.2, t = 0.2)
movej(p[0.391246136564729, 0.285977438559603, 0.29930868836227, -1.496, 0.618, -0.599], a = 0.2, v = 0.2, t = 0.2)
movej(p[0.391247350566779, 0.285977947061052, 0.299387377355308, -1.496, 0.618, -0.599], a = 0.2, v = 0.2, t = 0.2)
movej(p[0.391257437427516, 0.28598217208135, 0.300041185901018, -1.496, 0.618, -0.599], a = 0.2, v = 0.2, t = 0.2)
movej(p[0.391271308210779, 0.28598798204962, 0.300940260139132, -1.496, 0.618, -0.599], a = 0.2, v = 0.2, t = 0.2)
movej(p[0.391287129110166, 0.28599460885084, 0.301965736696177, -1.496, 0.618, -0.599], a = 0.2, v = 0.2, t = 0.2)
movej(p[0.391298590400162, 0.285999409569728, 0.302708632780384, -1.496, 0.618, -0.599], a = 0.2, v = 0.2, t = 0.2)
movej(p[0.391302819662447, 0.286001181054382, 0.302982764435037, -1.496, 0.618, -0.599], a = 0.2, v = 0.2, t = 0.2)
movej(p[0.39130429235337, 0.286001797911222, 0.303078221082626, -1.496, 0.618, -0.599], a = 0.2, v = 0.2, t = 0.2)
movej(p[0.391304959977369, 0.286002077554713, 0.303121495029496, -1.496, 0.618, -0.599], a = 0.2, v = 0.2, t = 0.2)
movej(p[0.391303280890672, 0.286001374246165, 0.30301266025323, -1.496, 0.618, -0.599], a = 0.2, v = 0.2, t = 0.2)
movej(p[0.391296669438596, 0.285998604948566, 0.302584120197118, -1.496, 0.618, -0.599], a = 0.2, v = 0.2, t = 0.2)
movej(p[0.391286178116185, 0.285994210513936, 0.301904095318531, -1.496, 0.618, -0.599], a = 0.2, v = 0.2, t = 0.2)
movej(p[0.391272437371516, 0.285988455014119, 0.301013449901399, -1.496, 0.618, -0.599], a = 0.2, v = 0.2, t = 0.2)
movej(p[0.391258767122264, 0.285982729042276, 0.300127373845108, -1.496, 0.618, -0.599], a = 0.2, v = 0.2, t = 0.2)
movej(p[0.39124813264942, 0.285978274647119, 0.299438070264419, -1.496, 0.618, -0.599], a = 0.2, v = 0.2, t = 0.2)
movej(p[0.391243281268931, 0.285976242579703, 0.29912361425031, -1.496, 0.618, -0.599], a = 0.2, v = 0.2, t = 0.2)
movej(p[0.391246087202511, 0.28597741788356, 0.299305488809821, -1.496, 0.618, -0.599], a = 0.2, v = 0.2, t = 0.2)
movej(p[0.391254864421902, 0.285981094342574, 0.299874409229624, -1.496, 0.618, -0.599], a = 0.2, v = 0.2, t = 0.2)
movej(p[0.391271770981572, 0.285988175887529, 0.30097025594334, -1.496, 0.618, -0.599], a = 0.2, v = 0.2, t = 0.2)
movej(p[0.391287682738293, 0.285994840745592, 0.302001621676611, -1.496, 0.618, -0.599], a = 0.2, v = 0.2, t = 0.2)
movej(p[0.391298811512047, 0.285999502185481, 0.302722964775634, -1.496, 0.618, -0.599], a = 0.2, v = 0.2, t = 0.2)
movej(p[0.391302755337307, 0.286001154110912, 0.302978595018252, -1.496, 0.618, -0.599], a = 0.2, v = 0.2, t = 0.2)
movej(p[0.39130409027679, 0.286001713268668, 0.303065122914789, -1.496, 0.618, -0.599], a = 0.2, v = 0.2, t = 0.2)
movej(p[0.391304543020884, 0.286001902906756, 0.303094468809905, -1.496, 0.618, -0.599], a = 0.2, v = 0.2, t = 0.2)
movej(p[0.391303174607646, 0.286001329728058, 0.303005771216864, -1.496, 0.618, -0.599], a = 0.2, v = 0.2, t = 0.2)
movej(p[0.391303080973689, 0.286001290508188, 0.302999702065812, -1.496, 0.618, -0.599], a = 0.2, v = 0.2, t = 0.2)
movej(p[0.3912988978188, 0.285999538336251, 0.302728558993119, -1.496, 0.618, -0.599], a = 0.2, v = 0.2, t = 0.2)
movej(p[0.391290925681759, 0.285996199097048, 0.302211822273896, -1.496, 0.618, -0.599], a = 0.2, v = 0.2, t = 0.2)
movej(p[0.391279505424108, 0.285991415565121, 0.301471585817662, -1.496, 0.618, -0.599], a = 0.2, v = 0.2, t = 0.2)
movej(p[0.391268833929601, 0.285986945662931, 0.300779882572636, -1.496, 0.618, -0.599], a = 0.2, v = 0.2, t = 0.2)
movej(p[0.391258787175665, 0.285982737441919, 0.30012867366329, -1.496, 0.618, -0.599], a = 0.2, v = 0.2, t = 0.2)
movej(p[0.391249718410674, 0.285978938865022, 0.299540855886837, -1.496, 0.618, -0.599], a = 0.2, v = 0.2, t = 0.2)
movej(p[0.391246375662973, 0.28597753870919, 0.299324186194444, -1.496, 0.618, -0.599], a = 0.2, v = 0.2, t = 0.2)
movej(p[0.391249948253502, 0.28597903513785, 0.299555753802926, -1.496, 0.618, -0.599], a = 0.2, v = 0.2, t = 0.2)
movej(p[0.391261050124847, 0.285983685309296, 0.300275353145865, -1.496, 0.618, -0.599], a = 0.2, v = 0.2, t = 0.2)
movej(p[0.391274393349405, 0.285989274302349, 0.301140232167183, -1.496, 0.618, -0.599], a = 0.2, v = 0.2, t = 0.2)
movej(p[0.391289026933192, 0.285995403780106, 0.302088749489232, -1.496, 0.618, -0.599], a = 0.2, v = 0.2, t = 0.2)
movej(p[0.391298204912091, 0.28599924810275, 0.302683646275479, -1.496, 0.618, -0.599], a = 0.2, v = 0.2, t = 0.2)
movej(p[0.391302349178807, 0.286000983985841, 0.302952268700759, -1.496, 0.618, -0.599], a = 0.2, v = 0.2, t = 0.2)
movej(p[0.391304275847879, 0.28600179099767, 0.303077151232276, -1.496, 0.618, -0.599], a = 0.2, v = 0.2, t = 0.2)
movej(p[0.391305264172038, 0.286002204970832, 0.303141212271462, -1.496, 0.618, -0.599], a = 0.2, v = 0.2, t = 0.2)
movej(p[0.391304761602955, 0.286001994462862, 0.303108636828093, -1.496, 0.618, -0.599], a = 0.2, v = 0.2, t = 0.2)
movej(p[0.39130235303523, 0.286000985601156, 0.302952518665794, -1.496, 0.618, -0.599], a = 0.2, v = 0.2, t = 0.2)
movej(p[0.391296949569184, 0.285998722285114, 0.302602277657265, -1.496, 0.618, -0.599], a = 0.2, v = 0.2, t = 0.2)
movej(p[0.391287304037526, 0.285994682121569, 0.301977075110167, -1.496, 0.618, -0.599], a = 0.2, v = 0.2, t = 0.2)
movej(p[0.391274226751919, 0.285989204520701, 0.301129433677668, -1.496, 0.618, -0.599], a = 0.2, v = 0.2, t = 0.2)
movej(p[0.391264405213103, 0.285985090634138, 0.30049282272637, -1.496, 0.618, -0.599], a = 0.2, v = 0.2, t = 0.2)
movej(p[0.391255955018406, 0.285981551153913, 0.29994509934154, -1.496, 0.618, -0.599], a = 0.2, v = 0.2, t = 0.2)
movej(p[0.391249556440896, 0.285978871021753, 0.299530357355364, -1.496, 0.618, -0.599], a = 0.2, v = 0.2, t = 0.2)
movej(p[0.391247352109348, 0.285977947707178, 0.299387477341322, -1.496, 0.618, -0.599], a = 0.2, v = 0.2, t = 0.2)
movej(p[0.391254235053623, 0.285980830723017, 0.299833614935902, -1.496, 0.618, -0.599], a = 0.2, v = 0.2, t = 0.2)
movej(p[0.391268074985499, 0.28598662776876, 0.300730689453736, -1.496, 0.618, -0.599], a = 0.2, v = 0.2, t = 0.2)
movej(p[0.391282390028723, 0.285992623821422, 0.301658559663889, -1.496, 0.618, -0.599], a = 0.2, v = 0.2, t = 0.2)
movej(p[0.391293738402645, 0.285997377243861, 0.302394136771869, -1.496, 0.618, -0.599], a = 0.2, v = 0.2, t = 0.2)
movej(p[0.391300468540003, 0.286000196254422, 0.3028303697519, -1.496, 0.618, -0.599], a = 0.2, v = 0.2, t = 0.2)
movej(p[0.39130449797786, 0.286001884039866, 0.303091549218296, -1.496, 0.618, -0.599], a = 0.2, v = 0.2, t = 0.2)
movej(p[0.391304011451498, 0.286001680251611, 0.303060013629472, -1.496, 0.618, -0.599], a = 0.2, v = 0.2, t = 0.2)
movej(p[0.391301890110179, 0.286000791698634, 0.302922512862985, -1.496, 0.618, -0.599], a = 0.2, v = 0.2, t = 0.2)
movej(p[0.391293297844849, 0.285997192710171, 0.302365580766264, -1.496, 0.618, -0.599], a = 0.2, v = 0.2, t = 0.2)
movej(p[0.391280287506749, 0.285991743151188, 0.301522278726773, -1.496, 0.618, -0.599], a = 0.2, v = 0.2, t = 0.2)
movej(p[0.391267044549197, 0.285986196156348, 0.300663898796367, -1.496, 0.618, -0.599], a = 0.2, v = 0.2, t = 0.2)
movej(p[0.391255620280866, 0.285981410944492, 0.299923402376497, -1.496, 0.618, -0.599], a = 0.2, v = 0.2, t = 0.2)
movej(p[0.391245749379832, 0.285977276381886, 0.29928359187275, -1.496, 0.618, -0.599], a = 0.2, v = 0.2, t = 0.2)
movej(p[0.39123861345419, 0.285974287401323, 0.29882105657187, -1.496, 0.618, -0.599], a = 0.2, v = 0.2, t = 0.2)
movej(p[0.391239881446165, 0.285974818517195, 0.298903245075398, -1.496, 0.618, -0.599], a = 0.2, v = 0.2, t = 0.2)
movej(p[0.391249847986496, 0.285978993139636, 0.299549254712015, -1.496, 0.618, -0.599], a = 0.2, v = 0.2, t = 0.2)
movej(p[0.391265539001548, 0.285985565537016, 0.300566312446678, -1.496, 0.618, -0.599], a = 0.2, v = 0.2, t = 0.2)
movej(p[0.391281322570758, 0.285992176701978, 0.301589369342184, -1.496, 0.618, -0.599], a = 0.2, v = 0.2, t = 0.2)
movej(p[0.391294766525092, 0.285997807887083, 0.302460777450217, -1.496, 0.618, -0.599], a = 0.2, v = 0.2, t = 0.2)
movej(p[0.391301906461414, 0.286000798547574, 0.302923572714734, -1.496, 0.618, -0.599], a = 0.2, v = 0.2, t = 0.2)
movej(p[0.391304183756491, 0.286001752423926, 0.303071182067239, -1.496, 0.618, -0.599], a = 0.2, v = 0.2, t = 0.2)
movej(p[0.391304820220589, 0.286002019015664, 0.303112436296626, -1.496, 0.618, -0.599], a = 0.2, v = 0.2, t = 0.2)
movej(p[0.391305025382308, 0.28600210495047, 0.303125734436491, -1.496, 0.618, -0.599], a = 0.2, v = 0.2, t = 0.2)
movej(p[0.391303104574999, 0.286001300393921, 0.303001231851827, -1.496, 0.618, -0.599], a = 0.2, v = 0.2, t = 0.2)
movej(p[0.391295733099023, 0.285998212749863, 0.302523428686605, -1.496, 0.618, -0.599], a = 0.2, v = 0.2, t = 0.2)
movej(p[0.391286298128077, 0.285994260782567, 0.301911874230422, -1.496, 0.618, -0.599], a = 0.2, v = 0.2, t = 0.2)
movej(p[0.391273345944841, 0.285988835582547, 0.30107234166366, -1.496, 0.618, -0.599], a = 0.2, v = 0.2, t = 0.2)
movej(p[0.391260244903666, 0.285983348031333, 0.300223160446544, -1.496, 0.618, -0.599], a = 0.2, v = 0.2, t = 0.2)
movej(p[0.391249633569362, 0.285978903328072, 0.299535356656065, -1.496, 0.618, -0.599], a = 0.2, v = 0.2, t = 0.2)
movej(p[0.391242759880503, 0.285976024188991, 0.299089818977569, -1.496, 0.618, -0.599], a = 0.2, v = 0.2, t = 0.2)
movej(p[0.391241933063351, 0.28597567786526, 0.299036226474052, -1.496, 0.618, -0.599], a = 0.2, v = 0.2, t = 0.2)
movej(p[0.391248365577387, 0.2859783722122, 0.299453168152536, -1.496, 0.618, -0.599], a = 0.2, v = 0.2, t = 0.2)
movej(p[0.391264001059943, 0.285984921349031, 0.300466626390695, -1.496, 0.618, -0.599], a = 0.2, v = 0.2, t = 0.2)
movej(p[0.39128241933754, 0.285992636097823, 0.301660459398156, -1.496, 0.618, -0.599], a = 0.2, v = 0.2, t = 0.2)
movej(p[0.391296745795777, 0.285998636931821, 0.302589069504813, -1.496, 0.618, -0.599], a = 0.2, v = 0.2, t = 0.2)
movej(p[0.391302761353327, 0.286001156630805, 0.302978984963706, -1.496, 0.618, -0.599], a = 0.2, v = 0.2, t = 0.2)
movej(p[0.391305782012556, 0.286002421875452, 0.30317477757637, -1.496, 0.618, -0.599], a = 0.2, v = 0.2, t = 0.2)
movej(p[0.391304619686579, 0.286001935019236, 0.303099438114803, -1.496, 0.618, -0.599], a = 0.2, v = 0.2, t = 0.2)
movej(p[0.391299695481392, 0.285999872448194, 0.302780261760971, -1.496, 0.618, -0.599], a = 0.2, v = 0.2, t = 0.2)
movej(p[0.391290630125479, 0.285996075299237, 0.302192664953609, -1.496, 0.618, -0.599], a = 0.2, v = 0.2, t = 0.2)
movej(p[0.391277560244204, 0.285990600799775, 0.301345503453976, -1.496, 0.618, -0.599], a = 0.2, v = 0.2, t = 0.2)
movej(p[0.391263052379816, 0.285984523981317, 0.30040513499207, -1.496, 0.618, -0.599], a = 0.2, v = 0.2, t = 0.2)
movej(p[0.391249482397569, 0.285978840007688, 0.299525558026691, -1.496, 0.618, -0.599], a = 0.2, v = 0.2, t = 0.2)
movej(p[0.39124146566485, 0.285975482088971, 0.299005930711802, -1.496, 0.618, -0.599], a = 0.2, v = 0.2, t = 0.2)
movej(p[0.391239816658254, 0.285974791379888, 0.298899045662809, -1.496, 0.618, -0.599], a = 0.2, v = 0.2, t = 0.2)
movej(p[0.391243535792868, 0.285976349190553, 0.299140111942624, -1.496, 0.618, -0.599], a = 0.2, v = 0.2, t = 0.2)
movej(p[0.391257363384189, 0.285982141067284, 0.300036386572345, -1.496, 0.618, -0.599], a = 0.2, v = 0.2, t = 0.2)
movej(p[0.391274228294488, 0.285989205166828, 0.301129533663682, -1.496, 0.618, -0.599], a = 0.2, v = 0.2, t = 0.2)
movej(p[0.391289805467924, 0.285995729880082, 0.302139212430511, -1.496, 0.618, -0.599], a = 0.2, v = 0.2, t = 0.2)
movej(p[0.391298158326497, 0.285999228589733, 0.302680626697855, -1.496, 0.618, -0.599], a = 0.2, v = 0.2, t = 0.2)
movej(p[0.391302730810455, 0.286001143837503, 0.302977005240629, -1.496, 0.618, -0.599], a = 0.2, v = 0.2, t = 0.2)
movej(p[0.391303658357383, 0.286001532353286, 0.303037126830862, -1.496, 0.618, -0.599], a = 0.2, v = 0.2, t = 0.2)
movej(p[0.391300449597252, 0.28600018831999, 0.302829141923648, -1.496, 0.618, -0.599], a = 0.2, v = 0.2, t = 0.2)
movej(p[0.391292445112533, 0.285996835531517, 0.30231030849771, -1.496, 0.618, -0.599], a = 0.2, v = 0.2, t = 0.2)
movej(p[0.391280094685585, 0.285991662385392, 0.30150978047502, -1.496, 0.618, -0.599], a = 0.2, v = 0.2, t = 0.2)
movej(p[0.391265936984431, 0.285985732237618, 0.300592108838297, -1.496, 0.618, -0.599], a = 0.2, v = 0.2, t = 0.2)
movej(p[0.391252280618303, 0.285980012080913, 0.299706932656132, -1.496, 0.618, -0.599], a = 0.2, v = 0.2, t = 0.2)
movej(p[0.391243785689096, 0.285976453863024, 0.299156309676896, -1.496, 0.618, -0.599], a = 0.2, v = 0.2, t = 0.2)
movej(p[0.391239862935333, 0.285974810763679, 0.29890204524323, -1.496, 0.618, -0.599], a = 0.2, v = 0.2, t = 0.2)
movej(p[0.391242491473443, 0.285975911763004, 0.299072421411129, -1.496, 0.618, -0.599], a = 0.2, v = 0.2, t = 0.2)
movej(p[0.391251679016271, 0.285979760091631, 0.299667938110662, -1.496, 0.618, -0.599], a = 0.2, v = 0.2, t = 0.2)
movej(p[0.391268830844462, 0.285986944370678, 0.300779682600608, -1.496, 0.618, -0.599], a = 0.2, v = 0.2, t = 0.2)
movej(p[0.391286010438901, 0.28599414028, 0.301893226838806, -1.496, 0.618, -0.599], a = 0.2, v = 0.2, t = 0.2)
movej(p[0.391296789296232, 0.285998655152585, 0.302591889110408, -1.496, 0.618, -0.599], a = 0.2, v = 0.2, t = 0.2)
movej(p[0.39130295725963, 0.286001238688853, 0.302991683187488, -1.496, 0.618, -0.599], a = 0.2, v = 0.2, t = 0.2)
movej(p[0.391305315231082, 0.286002226357614, 0.303144521808526, -1.496, 0.618, -0.599], a = 0.2, v = 0.2, t = 0.2)
movej(p[0.391305597058495, 0.286002344404901, 0.303162789253289, -1.496, 0.618, -0.599], a = 0.2, v = 0.2, t = 0.2)
movej(p[0.391304539472974, 0.286001901420666, 0.303094238842073, -1.496, 0.618, -0.599], a = 0.2, v = 0.2, t = 0.2)
movej(p[0.391300639117318, 0.286000267703075, 0.302841426205331, -1.496, 0.618, -0.599], a = 0.2, v = 0.2, t = 0.2)
movej(p[0.391291651614878, 0.285996503164115, 0.302258875692096, -1.496, 0.618, -0.599], a = 0.2, v = 0.2, t = 0.2)
movej(p[0.391277953599379, 0.285990765561998, 0.301370999887553, -1.496, 0.618, -0.599], a = 0.2, v = 0.2, t = 0.2)
movej(p[0.39126582746201, 0.285985686362646, 0.300585009831301, -1.496, 0.618, -0.599], a = 0.2, v = 0.2, t = 0.2)
movej(p[0.391255433629979, 0.285981332763202, 0.2999113040688, -1.496, 0.618, -0.599], a = 0.2, v = 0.2, t = 0.2)
movej(p[0.391246682634266, 0.285977667288336, 0.299344083411235, -1.496, 0.618, -0.599], a = 0.2, v = 0.2, t = 0.2)
movej(p[0.39124061108145, 0.285975124134966, 0.298950538460032, -1.496, 0.618, -0.599], a = 0.2, v = 0.2, t = 0.2)
movej(p[0.391242577857324, 0.28597594794608, 0.299078020627914, -1.496, 0.618, -0.599], a = 0.2, v = 0.2, t = 0.2)
movej(p[0.391252021466658, 0.285979903531684, 0.299690135005776, -1.496, 0.618, -0.599], a = 0.2, v = 0.2, t = 0.2)
movej(p[0.391265673205078, 0.28598562175001, 0.300575011229899, -1.496, 0.618, -0.599], a = 0.2, v = 0.2, t = 0.2)
movej(p[0.391281129749594, 0.285992095936183, 0.30157687109043, -1.496, 0.618, -0.599], a = 0.2, v = 0.2, t = 0.2)
movej(p[0.391293911324665, 0.285997449674627, 0.302405345204041, -1.496, 0.618, -0.599], a = 0.2, v = 0.2, t = 0.2)
movej(p[0.391302991504669, 0.286001253032859, 0.302993902876999, -1.496, 0.618, -0.599], a = 0.2, v = 0.2, t = 0.2)
movej(p[0.391305106984225, 0.286002139130555, 0.303131023696633, -1.496, 0.618, -0.599], a = 0.2, v = 0.2, t = 0.2)
movej(p[0.39130646645056, 0.28600270856172, 0.303219141370793, -1.496, 0.618, -0.599], a = 0.2, v = 0.2, t = 0.2)
movej(p[0.391305787411548, 0.286002424136894, 0.30317512752742, -1.496, 0.618, -0.599], a = 0.2, v = 0.2, t = 0.2)
movej(p[0.391302175639759, 0.286000911296625, 0.302941020274181, -1.496, 0.618, -0.599], a = 0.2, v = 0.2, t = 0.2)
movej(p[0.391295147848226, 0.28599796760952, 0.302485493992884, -1.496, 0.618, -0.599], a = 0.2, v = 0.2, t = 0.2)
movej(p[0.391284566594024, 0.285993535505723, 0.301799639929678, -1.496, 0.618, -0.599], a = 0.2, v = 0.2, t = 0.2)
movej(p[0.391271544223883, 0.285988080906953, 0.300955557999278, -1.496, 0.618, -0.599], a = 0.2, v = 0.2, t = 0.2)
movej(p[0.391259146594315, 0.285982887989362, 0.300151970404558, -1.496, 0.618, -0.599], a = 0.2, v = 0.2, t = 0.2)
movej(p[0.391250181181468, 0.285979132702931, 0.299570851691044, -1.496, 0.618, -0.599], a = 0.2, v = 0.2, t = 0.2)
movej(p[0.391245442408538, 0.285977147802739, 0.299263694655959, -1.496, 0.618, -0.599], a = 0.2, v = 0.2, t = 0.2)
movej(p[0.391246483642825, 0.285977583938035, 0.299331185215426, -1.496, 0.618, -0.599], a = 0.2, v = 0.2, t = 0.2)
movej(p[0.391253894145804, 0.28598068792909, 0.299811518026803, -1.496, 0.618, -0.599], a = 0.2, v = 0.2, t = 0.2)
movej(p[0.391268580948233, 0.285986839698207, 0.300763484866336, -1.496, 0.618, -0.599], a = 0.2, v = 0.2, t = 0.2)
movej(p[0.391283506848906, 0.28599309161691, 0.301730949538043, -1.496, 0.618, -0.599], a = 0.2, v = 0.2, t = 0.2)
movej(p[0.391294659008011, 0.285997762852075, 0.302453808425039, -1.496, 0.618, -0.599], a = 0.2, v = 0.2, t = 0.2)
movej(p[0.391301068306378, 0.286000447474814, 0.302869245314013, -1.496, 0.618, -0.599], a = 0.2, v = 0.2, t = 0.2)
movej(p[0.391303926147415, 0.286001644520823, 0.303054484402897, -1.496, 0.618, -0.599], a = 0.2, v = 0.2, t = 0.2)
movej(p[0.391304262119012, 0.286001785247145, 0.303076261356751, -1.496, 0.618, -0.599], a = 0.2, v = 0.2, t = 0.2)
movej(p[0.391302371700319, 0.286000993419285, 0.302953728496564, -1.496, 0.618, -0.599], a = 0.2, v = 0.2, t = 0.2)
movej(p[0.39129772686986, 0.285999047868189, 0.302652660609733, -1.496, 0.618, -0.599], a = 0.2, v = 0.2, t = 0.2)
movej(p[0.391286914230261, 0.285994518845437, 0.301951808644423, -1.496, 0.618, -0.599], a = 0.2, v = 0.2, t = 0.2)
movej(p[0.391271460925141, 0.28598804601613, 0.300950158754521, -1.496, 0.618, -0.599], a = 0.2, v = 0.2, t = 0.2)
movej(p[0.391257320192248, 0.285982122975746, 0.300033586963952, -1.496, 0.618, -0.599], a = 0.2, v = 0.2, t = 0.2)
movej(p[0.391245840391421, 0.285977314503341, 0.299289491047577, -1.496, 0.618, -0.599], a = 0.2, v = 0.2, t = 0.2)
movej(p[0.391236986043565, 0.285973605738009, 0.298715571327073, -1.496, 0.618, -0.599], a = 0.2, v = 0.2, t = 0.2)
movej(p[0.391232227217234, 0.285971612438174, 0.298407114473805, -1.496, 0.618, -0.599], a = 0.2, v = 0.2, t = 0.2)
movej(p[0.391238048873821, 0.285974050919074, 0.298784461690736, -1.496, 0.618, -0.599], a = 0.2, v = 0.2, t = 0.2)
movej(p[0.391253491535214, 0.285980519290109, 0.299785421677142, -1.496, 0.618, -0.599], a = 0.2, v = 0.2, t = 0.2)
movej(p[0.391273564989683, 0.285988927332491, 0.301086539677651, -1.496, 0.618, -0.599], a = 0.2, v = 0.2, t = 0.2)
movej(p[0.391289940442739, 0.285995786416139, 0.302147961206738, -1.496, 0.618, -0.599], a = 0.2, v = 0.2, t = 0.2)
movej(p[0.391301254895562, 0.286000525630259, 0.30288133962227, -1.496, 0.618, -0.599], a = 0.2, v = 0.2, t = 0.2)
movej(p[0.391305818417192, 0.286002437124034, 0.303177137246301, -1.496, 0.618, -0.599], a = 0.2, v = 0.2, t = 0.2)
movej(p[0.391306023270396, 0.286002522929616, 0.303190415388964, -1.496, 0.618, -0.599], a = 0.2, v = 0.2, t = 0.2)
movej(p[0.391305801294672, 0.286002429952032, 0.303176027401546, -1.496, 0.618, -0.599], a = 0.2, v = 0.2, t = 0.2)
movej(p[0.391301259554121, 0.28600052758156, 0.302881641580032, -1.496, 0.618, -0.599], a = 0.2, v = 0.2, t = 0.2)
movej(p[0.39129257144896, 0.285996888449266, 0.302318497352259, -1.496, 0.618, -0.599], a = 0.2, v = 0.2, t = 0.2)
movej(p[0.391279721383812, 0.285991506022812, 0.301485583859625, -1.496, 0.618, -0.599], a = 0.2, v = 0.2, t = 0.2)
movej(p[0.391266080443377, 0.28598579232737, 0.300601407537601, -1.496, 0.618, -0.599], a = 0.2, v = 0.2, t = 0.2)
movej(p[0.391253152169965, 0.285980377142309, 0.299763424754056, -1.496, 0.618, -0.599], a = 0.2, v = 0.2, t = 0.2)
movej(p[0.391240479963059, 0.285975069214225, 0.29894203964884, -1.496, 0.618, -0.599], a = 0.2, v = 0.2, t = 0.2)
movej(p[0.391236407580072, 0.285973363440622, 0.298678076571814, -1.496, 0.618, -0.599], a = 0.2, v = 0.2, t = 0.2)
movej(p[0.391238871063265, 0.285974395304426, 0.298837754236212, -1.496, 0.618, -0.599], a = 0.2, v = 0.2, t = 0.2)
movej(p[0.391249349736608, 0.285978784440821, 0.299516959229485, -1.496, 0.618, -0.599], a = 0.2, v = 0.2, t = 0.2)
movej(p[0.391265033038813, 0.285985353607569, 0.300533517034078, -1.496, 0.618, -0.599], a = 0.2, v = 0.2, t = 0.2)
movej(p[0.391282340666505, 0.285992603145379, 0.30165536011144, -1.496, 0.618, -0.599], a = 0.2, v = 0.2, t = 0.2)
movej(p[0.391294747397232, 0.285997799875116, 0.302459537623643, -1.496, 0.618, -0.599], a = 0.2, v = 0.2, t = 0.2)
movej(p[0.391300845744477, 0.286000354251702, 0.30285481933191, -1.496, 0.618, -0.599], a = 0.2, v = 0.2, t = 0.2)
movej(p[0.391303951908323, 0.286001655311133, 0.303056154169331, -1.496, 0.618, -0.599], a = 0.2, v = 0.2, t = 0.2)
movej(p[0.391303997876888, 0.286001674565699, 0.303059133752549, -1.496, 0.618, -0.599], a = 0.2, v = 0.2, t = 0.2)
movej(p[0.391299417618382, 0.285999756061452, 0.302762251280265, -1.496, 0.618, -0.599], a = 0.2, v = 0.2, t = 0.2)
movej(p[0.391289906043444, 0.285995772007521, 0.302145731518625, -1.496, 0.618, -0.599], a = 0.2, v = 0.2, t = 0.2)
movej(p[0.391276673266849, 0.285990229277116, 0.301288011495912, -1.496, 0.618, -0.599], a = 0.2, v = 0.2, t = 0.2)
movej(p[0.391261127253313, 0.285983717615614, 0.300280352446566, -1.496, 0.618, -0.599], a = 0.2, v = 0.2, t = 0.2)
movej(p[0.391245442408538, 0.285977147802739, 0.299263694655959, -1.496, 0.618, -0.599], a = 0.2, v = 0.2, t = 0.2)
movej(p[0.391235519060148, 0.285972991271836, 0.298620484627735, -1.496, 0.618, -0.599], a = 0.2, v = 0.2, t = 0.2)
movej(p[0.391231133535591, 0.285971154334582, 0.298336224389862, -1.496, 0.618, -0.599], a = 0.2, v = 0.2, t = 0.2)
movej(p[0.391234470113015, 0.285972551905908, 0.298552494138198, -1.496, 0.618, -0.599], a = 0.2, v = 0.2, t = 0.2)
movej(p[0.391245863529961, 0.285977324195237, 0.299290990837788, -1.496, 0.618, -0.599], a = 0.2, v = 0.2, t = 0.2)
movej(p[0.391263171157653, 0.285984573733047, 0.30041283391515, -1.496, 0.618, -0.599], a = 0.2, v = 0.2, t = 0.2)
movej(p[0.391281160600981, 0.28599210885871, 0.301578870810711, -1.496, 0.618, -0.599], a = 0.2, v = 0.2, t = 0.2)
movej(p[0.39129211346013, 0.285996696614349, 0.302288811504695, -1.496, 0.618, -0.599], a = 0.2, v = 0.2, t = 0.2)
movej(p[0.391300289247172, 0.286000121155155, 0.30281874837749, -1.496, 0.618, -0.599], a = 0.2, v = 0.2, t = 0.2)
movej(p[0.391303165197973, 0.286001325786687, 0.303005161302178, -1.496, 0.618, -0.599], a = 0.2, v = 0.2, t = 0.2)
movej(p[0.391303753379652, 0.28600157215467, 0.303043285969326, -1.496, 0.618, -0.599], a = 0.2, v = 0.2, t = 0.2)
movej(p[0.391298923209491, 0.285999548971491, 0.30273020476291, -1.496, 0.618, -0.599], a = 0.2, v = 0.2, t = 0.2)
movej(p[0.391289398846653, 0.285995559561172, 0.302112856117214, -1.496, 0.618, -0.599], a = 0.2, v = 0.2, t = 0.2)
movej(p[0.391274182017409, 0.285989185783037, 0.301126534083261, -1.496, 0.618, -0.599], a = 0.2, v = 0.2, t = 0.2)
movej(p[0.391256879017425, 0.285981938183606, 0.300004990963941, -1.496, 0.618, -0.599], a = 0.2, v = 0.2, t = 0.2)
movej(p[0.391244314790371, 0.285976675484367, 0.299190604879706, -1.496, 0.618, -0.599], a = 0.2, v = 0.2, t = 0.2)
movej(p[0.391234612029392, 0.285972611349534, 0.298561692851488, -1.496, 0.618, -0.599], a = 0.2, v = 0.2, t = 0.2)
movej(p[0.391230073790473, 0.285970710445769, 0.298267533998226, -1.496, 0.618, -0.599], a = 0.2, v = 0.2, t = 0.2)
movej(p[0.391230505709881, 0.285970891361151, 0.298295530082153, -1.496, 0.618, -0.599], a = 0.2, v = 0.2, t = 0.2)
movej(p[0.391242762965642, 0.285976025481244, 0.299090018949597, -1.496, 0.618, -0.599], a = 0.2, v = 0.2, t = 0.2)
movej(p[0.39125962941851, 0.285983090226914, 0.300183266026948, -1.496, 0.618, -0.599], a = 0.2, v = 0.2, t = 0.2)
movej(p[0.391276344699585, 0.2859900916522, 0.301266714474924, -1.496, 0.618, -0.599], a = 0.2, v = 0.2, t = 0.2)
movej(p[0.391290006310449, 0.285995814005735, 0.302152230609537, -1.496, 0.618, -0.599], a = 0.2, v = 0.2, t = 0.2)
movej(p[0.391298806375291, 0.28599950003388, 0.302722631822207, -1.496, 0.618, -0.599], a = 0.2, v = 0.2, t = 0.2)
movej(p[0.391302728650858, 0.286001142932926, 0.302976865260209, -1.496, 0.618, -0.599], a = 0.2, v = 0.2, t = 0.2)
movej(p[0.391302015212551, 0.286000844099483, 0.302930621728722, -1.496, 0.618, -0.599], a = 0.2, v = 0.2, t = 0.2)
movej(p[0.391299982837374, 0.285999992811198, 0.302798887555608, -1.496, 0.618, -0.599], a = 0.2, v = 0.2, t = 0.2)
movej(p[0.391293768019976, 0.285997389649487, 0.302396056503338, -1.496, 0.618, -0.599], a = 0.2, v = 0.2, t = 0.2)
movej(p[0.391282124706801, 0.285992512687688, 0.301641362069477, -1.496, 0.618, -0.599], a = 0.2, v = 0.2, t = 0.2)
movej(p[0.391269779524589, 0.285987341738392, 0.300841173999233, -1.496, 0.618, -0.599], a = 0.2, v = 0.2, t = 0.2)
movej(p[0.391257773707626, 0.285982312936897, 0.300062982852076, -1.496, 0.618, -0.599], a = 0.2, v = 0.2, t = 0.2)
movej(p[0.391248647867571, 0.285978490453325, 0.299471465593103, -1.496, 0.618, -0.599], a = 0.2, v = 0.2, t = 0.2)
movej(p[0.391240419802855, 0.285975044015296, 0.298938140194293, -1.496, 0.618, -0.599], a = 0.2, v = 0.2, t = 0.2)
movej(p[0.391240550921247, 0.285975098936037, 0.298946639005485, -1.496, 0.618, -0.599], a = 0.2, v = 0.2, t = 0.2)
movej(p[0.391248962551711, 0.285978622263103, 0.299491862739964, -1.496, 0.618, -0.599], a = 0.2, v = 0.2, t = 0.2)
movej(p[0.391263283765212, 0.285984620900271, 0.300420132894174, -1.496, 0.618, -0.599], a = 0.2, v = 0.2, t = 0.2)
movej(p[0.391277683649749, 0.285990652489884, 0.301353502335098, -1.496, 0.618, -0.599], a = 0.2, v = 0.2, t = 0.2)
movej(p[0.391291607960167, 0.285996484878739, 0.302256046087899, -1.496, 0.618, -0.599], a = 0.2, v = 0.2, t = 0.2)
movej(p[0.391299972847695, 0.285999988626884, 0.302798240046181, -1.496, 0.618, -0.599], a = 0.2, v = 0.2, t = 0.2)
movej(p[0.391303546829621, 0.28600148563835, 0.303029897842048, -1.496, 0.618, -0.599], a = 0.2, v = 0.2, t = 0.2)
movej(p[0.391304447535843, 0.286001862911534, 0.303088279675637, -1.496, 0.618, -0.599], a = 0.2, v = 0.2, t = 0.2)
movej(p[0.391304868040238, 0.286002039045581, 0.303115535863061, -1.496, 0.618, -0.599], a = 0.2, v = 0.2, t = 0.2)
movej(p[0.391303426817729, 0.286001435369719, 0.303022118930157, -1.496, 0.618, -0.599], a = 0.2, v = 0.2, t = 0.2)
movej(p[0.391297935733745, 0.285999135353699, 0.302666198716032, -1.496, 0.618, -0.599], a = 0.2, v = 0.2, t = 0.2)
movej(p[0.391289150030223, 0.28599545534099, 0.302096728373151, -1.496, 0.618, -0.599], a = 0.2, v = 0.2, t = 0.2)
movej(p[0.391277612691561, 0.285990622768072, 0.301348902978453, -1.496, 0.618, -0.599], a = 0.2, v = 0.2, t = 0.2)
movej(p[0.391263439564713, 0.285984686159034, 0.30043023148159, -1.496, 0.618, -0.599], a = 0.2, v = 0.2, t = 0.2)
movej(p[0.39125293775283, 0.285980287330744, 0.299749526698107, -1.496, 0.618, -0.599], a = 0.2, v = 0.2, t = 0.2)
movej(p[0.391245255757652, 0.285977069621449, 0.299251596348262, -1.496, 0.618, -0.599], a = 0.2, v = 0.2, t = 0.2)
movej(p[0.391242440568655, 0.285975890440834, 0.299069121872666, -1.496, 0.618, -0.599], a = 0.2, v = 0.2, t = 0.2)
movej(p[0.391242130512224, 0.285975760569435, 0.299049024683847, -1.496, 0.618, -0.599], a = 0.2, v = 0.2, t = 0.2)
movej(p[0.39125195050847, 0.285979873809871, 0.299685535649131, -1.496, 0.618, -0.599], a = 0.2, v = 0.2, t = 0.2)
movej(p[0.391267700141156, 0.285986470760053, 0.300706392852328, -1.496, 0.618, -0.599], a = 0.2, v = 0.2, t = 0.2)
movej(p[0.391283722808609, 0.285993182074601, 0.301744947580007, -1.496, 0.618, -0.599], a = 0.2, v = 0.2, t = 0.2)
movej(p[0.391293810440632, 0.285997407417962, 0.302398806118724, -1.496, 0.618, -0.599], a = 0.2, v = 0.2, t = 0.2)
movej(p[0.391300218828883, 0.286000091659486, 0.30281418401595, -1.496, 0.618, -0.599], a = 0.2, v = 0.2, t = 0.2)
movej(p[0.391303603750429, 0.286001509480413, 0.303033587325966, -1.496, 0.618, -0.599], a = 0.2, v = 0.2, t = 0.2)
movej(p[0.391303022664569, 0.286001266084611, 0.302995922594482, -1.496, 0.618, -0.599], a = 0.2, v = 0.2, t = 0.2)
movej(p[0.391301234101728, 0.286000516920475, 0.302879991810801, -1.496, 0.618, -0.599], a = 0.2, v = 0.2, t = 0.2)
