def moving():
set_payload_mass(0.606)
set_tcp(p[0.0001,-0.0009,0.0582,0,0,0])
movej(p[0.4763, -0.0211, 0.2251, -1.21, 1.207, -1.216], a = 0.2, v = 0.2, t = 0.2)
movej(p[0.476399503559594, -0.0211997494971276, 0.225200742639686, -1.2082623738881, 1.20525469812697, -1.21424848537015], a = 0.2, v = 0.2, t = 0.2)
movej(p[0.4763, -0.0211, 0.2251, -1.21, 1.207, -1.216], a = 0.2, v = 0.2, t = 0.2)
movej(p[0.476399503559594, -0.0211997494971276, 0.225200742639686, -1.2082623738881, 1.20525469812697, -1.21424848537015], a = 0.2, v = 0.2, t = 0.2)
movej(p[0.4763, -0.0211, 0.2251, -1.21, 1.207, -1.216], a = 0.2, v = 0.2, t = 0.2)
movej(p[0.476399503559594, -0.0211997494971276, 0.225200742639686, -1.2082623738881, 1.20525469812697, -1.21424848537015], a = 0.2, v = 0.2, t = 0.2)
movej(p[0.4763, -0.0211, 0.2251, -1.21, 1.207, -1.216], a = 0.2, v = 0.2, t = 0.2)
movej(p[0.47574871511561, -0.0214125846501103, 0.224950625779135, -1.21394270433361, 1.22088594812152, -1.20039467383693], a = 0.2, v = 0.2, t = 0.2)
movej(p[0.474763263111392, -0.0217316493665727, 0.224573212968555, -1.21855984671478, 1.24606908166094, -1.18105174044497], a = 0.2, v = 0.2, t = 0.2)
movej(p[0.473213714008944, -0.0222572279776089, 0.224170815822536, -1.22133559621666, 1.27577773101946, -1.18306391411216], a = 0.2, v = 0.2, t = 0.2)
movej(p[0.471541291186505, -0.0227798005022144, 0.224274045968878, -1.23216270178357, 1.31036090919125, -1.16792660362818], a = 0.2, v = 0.2, t = 0.2)
movej(p[0.469763125043593, -0.0234819290001322, 0.224664783161261, -1.24344910054419, 1.33802083683802, -1.16702201353897], a = 0.2, v = 0.2, t = 0.2)
movej(p[0.468156015686298, -0.0239897869299188, 0.225078687628427, -1.24543760899851, 1.35635336223586, -1.17731373468313], a = 0.2, v = 0.2, t = 0.2)
movej(p[0.466877085563258, -0.0242945151454991, 0.225216785195593, -1.24089494584014, 1.3694027793694, -1.19654363754149], a = 0.2, v = 0.2, t = 0.2)
movej(p[0.466158171833112, -0.0243474991914375, 0.225632233345287, -1.23654471924403, 1.38061688559, -1.19770128190052], a = 0.2, v = 0.2, t = 0.2)
movej(p[0.465878860785746, -0.0242512458753191, 0.226301033205376, -1.23329702965646, 1.38061027750579, -1.20558285959066], a = 0.2, v = 0.2, t = 0.2)
movej(p[0.465928603792154, -0.0240710909270029, 0.227041839278455, -1.22891564352908, 1.37237863007503, -1.22466645054515], a = 0.2, v = 0.2, t = 0.2)
movej(p[0.466917610080345, -0.0236397025881432, 0.227098330985932, -1.22353006126124, 1.34887265799544, -1.23823869826946], a = 0.2, v = 0.2, t = 0.2)
movej(p[0.468242526934879, -0.023023479972755, 0.227530163554014, -1.2205179737064, 1.32678214583244, -1.23877986721898], a = 0.2, v = 0.2, t = 0.2)
movej(p[0.469806921717469, -0.0222235170797182, 0.228092914808094, -1.2102009445727, 1.29448764662516, -1.25144287164598], a = 0.2, v = 0.2, t = 0.2)
movej(p[0.471245984525611, -0.0213688755350117, 0.228559193958266, -1.20314022335874, 1.26642961133936, -1.26628145164652], a = 0.2, v = 0.2, t = 0.2)
movej(p[0.472572640488674, -0.0206721503563114, 0.22876501540184, -1.2021683906774, 1.24197173554196, -1.25593838116369], a = 0.2, v = 0.2, t = 0.2)
movej(p[0.473409547119263, -0.0201839408391858, 0.229013266441443, -1.20336838492559, 1.22647704219845, -1.24406850685713], a = 0.2, v = 0.2, t = 0.2)
movej(p[0.473798738550587, -0.0199505208455615, 0.229323081573353, -1.20515141851577, 1.20978256391239, -1.2429998425421], a = 0.2, v = 0.2, t = 0.2)
movej(p[0.47409632764828, -0.0197863822040471, 0.229170430941856, -1.20305202463692, 1.20215522600588, -1.25543448731097], a = 0.2, v = 0.2, t = 0.2)
movej(p[0.474460469962605, -0.0198645476244035, 0.22868006839029, -1.20516650147689, 1.1984674740539, -1.24603197059171], a = 0.2, v = 0.2, t = 0.2)
movej(p[0.474612088025935, -0.0200962428643365, 0.228241098150793, -1.20132422733848, 1.20527390967379, -1.23769968283214], a = 0.2, v = 0.2, t = 0.2)
movej(p[0.474607683887054, -0.020406977235196, 0.228107774567255, -1.19467984115181, 1.20390488565098, -1.24736990230648], a = 0.2, v = 0.2, t = 0.2)
movej(p[0.474776327357153, -0.0205318908180396, 0.227863600970783, -1.19234286408049, 1.2102799527694, -1.25161253458137], a = 0.2, v = 0.2, t = 0.2)
movej(p[0.474750263402044, -0.0207620384616385, 0.22767511419435, -1.19850381687497, 1.21520700904663, -1.24163869010233], a = 0.2, v = 0.2, t = 0.2)
movej(p[0.474670770781457, -0.0208704030797505, 0.227335878320048, -1.19385465489164, 1.21085966955587, -1.23416644025088], a = 0.2, v = 0.2, t = 0.2)
movej(p[0.474762491847693, -0.0208397915223095, 0.226976129109264, -1.18600200336279, 1.19976448291655, -1.24139490192931], a = 0.2, v = 0.2, t = 0.2)
movej(p[0.475297504596365, -0.0207088201747698, 0.226519794562049, -1.18291891219438, 1.19682431586557, -1.23343348642596], a = 0.2, v = 0.2, t = 0.2)
movej(p[0.475664036820015, -0.0206861014658273, 0.22602723171754, -1.18254077629974, 1.1983832890568, -1.22287740481447], a = 0.2, v = 0.2, t = 0.2)
movej(p[0.475665671482465, -0.0208599727210344, 0.225769910437442, -1.18906235912461, 1.20523945917429, -1.20792993305222], a = 0.2, v = 0.2, t = 0.2)
movej(p[0.475628225015605, -0.0211599435655076, 0.224788931733182, -1.20031287613521, 1.21181159951658, -1.20573320250203], a = 0.2, v = 0.2, t = 0.2)
movej(p[0.475315061696868, -0.0216194586262922, 0.22414898392669, -1.21722710891707, 1.23508636349633, -1.18145787337229], a = 0.2, v = 0.2, t = 0.2)
movej(p[0.474231487236035, -0.0223568870183944, 0.223901704369405, -1.2328336034158, 1.25813824373797, -1.17546833218244], a = 0.2, v = 0.2, t = 0.2)
movej(p[0.472479935592213, -0.022926957018295, 0.224434700404885, -1.23309002525328, 1.28624972623429, -1.17986098516395], a = 0.2, v = 0.2, t = 0.2)
movej(p[0.470868216926356, -0.0233287722209578, 0.224971740927972, -1.23525382772977, 1.30846666561492, -1.18736072317643], a = 0.2, v = 0.2, t = 0.2)
movej(p[0.469584389696937, -0.0234799609675603, 0.225623673198076, -1.23331562582351, 1.32918861706975, -1.19051905704869], a = 0.2, v = 0.2, t = 0.2)
movej(p[0.468892430718261, -0.0234696900603471, 0.226044010598738, -1.22097204308133, 1.33227506493057, -1.20996606263213], a = 0.2, v = 0.2, t = 0.2)
movej(p[0.469190900098702, -0.0230893919387838, 0.226313983478995, -1.20818392199935, 1.32117743426956, -1.24431267421078], a = 0.2, v = 0.2, t = 0.2)
movej(p[0.470553824018745, -0.0225200851170707, 0.226390438569913, -1.20501978404114, 1.29391187470582, -1.24987547417044], a = 0.2, v = 0.2, t = 0.2)
movej(p[0.471998598735872, -0.0218178986578217, 0.22689441106053, -1.20373216935853, 1.26961315251855, -1.24065698490696], a = 0.2, v = 0.2, t = 0.2)
movej(p[0.472920782497386, -0.0211583685071515, 0.227559290740157, -1.19691617853827, 1.24022716157959, -1.24719684741378], a = 0.2, v = 0.2, t = 0.2)
movej(p[0.473665204623759, -0.0206279899536429, 0.227762410716451, -1.18939369933162, 1.22223462027171, -1.25268504882585], a = 0.2, v = 0.2, t = 0.2)
movej(p[0.474228895108399, -0.0204081215369953, 0.227672494016187, -1.19201397807748, 1.20723109444359, -1.24961567779493], a = 0.2, v = 0.2, t = 0.2)
movej(p[0.474608030831256, -0.0204660085120568, 0.227635969753395, -1.194911985019, 1.19628068747456, -1.23841850941266], a = 0.2, v = 0.2, t = 0.2)
movej(p[0.474773772053643, -0.0205105946081141, 0.22739737880189, -1.19437317923591, 1.19178612977684, -1.24485660018291], a = 0.2, v = 0.2, t = 0.2)
movej(p[0.475027353089113, -0.0206985639821039, 0.226681117381393, -1.20564354751335, 1.20274901576604, -1.22992057154681], a = 0.2, v = 0.2, t = 0.2)
movej(p[0.474702325331867, -0.0211668954226332, 0.225951775693521, -1.22017847084384, 1.22291214286885, -1.21138790396833], a = 0.2, v = 0.2, t = 0.2)
movej(p[0.473608736831838, -0.0218707430557354, 0.225666860596384, -1.23580374544533, 1.24489326273036, -1.19135534832062], a = 0.2, v = 0.2, t = 0.2)
movej(p[0.472070623785632, -0.0223760444848322, 0.225614391847198, -1.23800009217119, 1.26734333176504, -1.19953660371386], a = 0.2, v = 0.2, t = 0.2)
movej(p[0.47065432443539, -0.0226890647547076, 0.225643994131781, -1.23974470830757, 1.29189698609922, -1.19992537947402], a = 0.2, v = 0.2, t = 0.2)
movej(p[0.469440052508171, -0.0230139310425543, 0.225905989750617, -1.23789271232984, 1.31503198503513, -1.20644782748961], a = 0.2, v = 0.2, t = 0.2)
movej(p[0.468884698980386, -0.0231321954069511, 0.226351191922321, -1.22512607810225, 1.3157209150142, -1.22922851868615], a = 0.2, v = 0.2, t = 0.2)
movej(p[0.469581304625903, -0.0228011857952378, 0.226594120845235, -1.212525226793, 1.30326465405086, -1.25364073792554], a = 0.2, v = 0.2, t = 0.2)
movej(p[0.470951716650771, -0.0222317786991975, 0.226889896268615, -1.20684533026458, 1.28246290240028, -1.24845141106494], a = 0.2, v = 0.2, t = 0.2)
movej(p[0.472203959026772, -0.0216058306509633, 0.227492813060768, -1.20480244990487, 1.25658923595429, -1.24650144677956], a = 0.2, v = 0.2, t = 0.2)
movej(p[0.472909197950206, -0.0209887926751004, 0.228214207147537, -1.20207106445904, 1.23439926643584, -1.24767130540825], a = 0.2, v = 0.2, t = 0.2)
movej(p[0.47363053388931, -0.0205500759699077, 0.228522443830803, -1.20220273680486, 1.21715493828112, -1.24842630979411], a = 0.2, v = 0.2, t = 0.2)
movej(p[0.474106558926566, -0.0203771875596883, 0.228493164732164, -1.20150303164674, 1.21089220079121, -1.23738589124339], a = 0.2, v = 0.2, t = 0.2)
movej(p[0.474438172281943, -0.0204094468217893, 0.22828079631986, -1.19609463363383, 1.19869721806475, -1.2365558239698], a = 0.2, v = 0.2, t = 0.2)
movej(p[0.474684303348253, -0.0204677571900243, 0.227603155279815, -1.19699683437356, 1.19392344275674, -1.24445608433199], a = 0.2, v = 0.2, t = 0.2)
movej(p[0.475044600195089, -0.0206973552653192, 0.22666235095288, -1.20640160756135, 1.2042588772771, -1.22887155197131], a = 0.2, v = 0.2, t = 0.2)
movej(p[0.474724455620147, -0.0210553584528339, 0.22589292587751, -1.21796815483829, 1.23407479729439, -1.20337209007241], a = 0.2, v = 0.2, t = 0.2)
movej(p[0.473806539596767, -0.0215442616156497, 0.225476427629789, -1.2193627071201, 1.25670362489734, -1.19226070985971], a = 0.2, v = 0.2, t = 0.2)
movej(p[0.472929686890363, -0.0217688202739073, 0.225287156753335, -1.21913399904815, 1.26841618732372, -1.19950885290683], a = 0.2, v = 0.2, t = 0.2)
movej(p[0.472259895754746, -0.0221129454313398, 0.22528026087264, -1.22119051601252, 1.2766213828586, -1.20572857056359], a = 0.2, v = 0.2, t = 0.2)
movej(p[0.472062080011147, -0.0223782322739956, 0.225416560075493, -1.21609702817106, 1.27155001304418, -1.22295958279709], a = 0.2, v = 0.2, t = 0.2)
movej(p[0.472205209756651, -0.0222492692076623, 0.226148584589477, -1.2085330411253, 1.26289981570142, -1.23473790387613], a = 0.2, v = 0.2, t = 0.2)
movej(p[0.473118222213252, -0.0217333740394384, 0.226468471921351, -1.19860028982664, 1.24495388883388, -1.2441613918797], a = 0.2, v = 0.2, t = 0.2)
movej(p[0.473884858269731, -0.0212714639269842, 0.226931297642891, -1.19967824640626, 1.2364111300528, -1.22905770922269], a = 0.2, v = 0.2, t = 0.2)
movej(p[0.474369169425565, -0.0209593556753947, 0.227064428531961, -1.18952892551509, 1.22096170500225, -1.23197350935378], a = 0.2, v = 0.2, t = 0.2)
movej(p[0.474591324650707, -0.0207389050460383, 0.227117818077365, -1.18141377931615, 1.20401632017341, -1.242305729833], a = 0.2, v = 0.2, t = 0.2)
movej(p[0.475255213213537, -0.0205451059100577, 0.226699962153109, -1.17712033879474, 1.19464411220688, -1.23792294517814], a = 0.2, v = 0.2, t = 0.2)
movej(p[0.475597635236391, -0.0206839380707212, 0.226244259895236, -1.18759063297903, 1.19861016044161, -1.22157399849049], a = 0.2, v = 0.2, t = 0.2)
movej(p[0.475466113489939, -0.0209775507943787, 0.225841929365426, -1.19584300578613, 1.20956770502342, -1.21034293291218], a = 0.2, v = 0.2, t = 0.2)
movej(p[0.475007683215862, -0.0213831621632296, 0.22538504153601, -1.20953268915771, 1.23102901631749, -1.20012891382849], a = 0.2, v = 0.2, t = 0.2)
movej(p[0.474503173003164, -0.0218315269922025, 0.224884244610677, -1.2216069805084, 1.25243316185359, -1.18631702811965], a = 0.2, v = 0.2, t = 0.2)
movej(p[0.473911608254239, -0.0222405256997765, 0.224707719385477, -1.2260013640054, 1.26826364475117, -1.18209147480516], a = 0.2, v = 0.2, t = 0.2)
movej(p[0.473219554125637, -0.022403625579131, 0.225016797233527, -1.21610516374377, 1.2720999213333, -1.19809081709198], a = 0.2, v = 0.2, t = 0.2)
movej(p[0.473309400443135, -0.0221296792506254, 0.225090946671384, -1.2007365067573, 1.26611143873295, -1.21859949926613], a = 0.2, v = 0.2, t = 0.2)
movej(p[0.473764829764391, -0.0220067604427875, 0.225217721398555, -1.19830071489146, 1.25619245251622, -1.22103123114539], a = 0.2, v = 0.2, t = 0.2)
movej(p[0.474335499085226, -0.0219400300547524, 0.225435808734202, -1.19536782968491, 1.23889555108305, -1.22833077630693], a = 0.2, v = 0.2, t = 0.2)
movej(p[0.474646696348658, -0.0217541988041246, 0.22590353857035, -1.18981848580535, 1.22039793879842, -1.23749852356637], a = 0.2, v = 0.2, t = 0.2)
movej(p[0.475201198320561, -0.0215220547640583, 0.225950929935775, -1.18872070075672, 1.20735439988288, -1.24003389930726], a = 0.2, v = 0.2, t = 0.2)
movej(p[0.475609220652182, -0.0213362108488756, 0.225723093566009, -1.18836519583764, 1.20380205329878, -1.22403271635971], a = 0.2, v = 0.2, t = 0.2)
movej(p[0.475872190142596, -0.0214210612229638, 0.225483074219854, -1.18431064240348, 1.19736114881268, -1.22429948837042], a = 0.2, v = 0.2, t = 0.2)
movej(p[0.476042486377169, -0.0213165957494602, 0.225195746995088, -1.17834000824106, 1.19803733005391, -1.23138475122776], a = 0.2, v = 0.2, t = 0.2)
movej(p[0.476399639018369, -0.0214396891208128, 0.224404677183349, -1.18839918575446, 1.21361769690903, -1.222473182546], a = 0.2, v = 0.2, t = 0.2)
movej(p[0.476348880693378, -0.0218020140263947, 0.223732481246015, -1.20683538787306, 1.23346721970612, -1.19177845032345], a = 0.2, v = 0.2, t = 0.2)
movej(p[0.475639793465753, -0.0222913568816282, 0.22351823333085, -1.21433220991854, 1.25018111249377, -1.18172208915745], a = 0.2, v = 0.2, t = 0.2)
movej(p[0.474740102927011, -0.0225314532749013, 0.223486071344993, -1.2091602842429, 1.26098385406035, -1.1926641173886], a = 0.2, v = 0.2, t = 0.2)
movej(p[0.474234670019914, -0.0226756924683661, 0.223550836238969, -1.21161793377206, 1.27059439643198, -1.1900622440292], a = 0.2, v = 0.2, t = 0.2)
movej(p[0.474131127448029, -0.022696007394195, 0.22363160095649, -1.20612965283652, 1.2720335510319, -1.19653775397169], a = 0.2, v = 0.2, t = 0.2)
movej(p[0.474269852010827, -0.0225385320118614, 0.224226597301466, -1.19742888464053, 1.25902478461869, -1.20647017131377], a = 0.2, v = 0.2, t = 0.2)
movej(p[0.474899948270103, -0.0221269571045121, 0.224349807983576, -1.18127507784588, 1.23866674776854, -1.23403814535031], a = 0.2, v = 0.2, t = 0.2)
movej(p[0.475477219659017, -0.021858358645008, 0.224468446955645, -1.18494123994267, 1.23170034103155, -1.22113031738041], a = 0.2, v = 0.2, t = 0.2)
movej(p[0.47580948531734, -0.0218524231090256, 0.224370806581763, -1.19002639247789, 1.22646258094683, -1.20649487922585], a = 0.2, v = 0.2, t = 0.2)
movej(p[0.47586102649528, -0.0217883265207235, 0.22452382095411, -1.18635151644003, 1.21998120356421, -1.21120985165461], a = 0.2, v = 0.2, t = 0.2)
movej(p[0.476234087484904, -0.0216352020898866, 0.224195899117412, -1.18364677673925, 1.21513022410911, -1.22186743302727], a = 0.2, v = 0.2, t = 0.2)
movej(p[0.476660262882125, -0.0215844807096828, 0.223634690506614, -1.19392006864051, 1.22358913696747, -1.19960287313228], a = 0.2, v = 0.2, t = 0.2)
movej(p[0.476528953872175, -0.0218405472201131, 0.22305928577302, -1.2010704961562, 1.23495532081369, -1.18245644798201], a = 0.2, v = 0.2, t = 0.2)
movej(p[0.475905451693295, -0.022190863387149, 0.222733423999033, -1.20152935651588, 1.25008292260164, -1.18123698255868], a = 0.2, v = 0.2, t = 0.2)
movej(p[0.475296966251419, -0.0225910244003103, 0.222408651961026, -1.20419639057467, 1.26345314359902, -1.18870163804911], a = 0.2, v = 0.2, t = 0.2)
movej(p[0.474680774679281, -0.022892236217171, 0.222578763917717, -1.21386742680773, 1.28392281058897, -1.17808910174673], a = 0.2, v = 0.2, t = 0.2)
movej(p[0.474286377692874, -0.023087213194378, 0.223085253014809, -1.21568006484157, 1.28410656454477, -1.1796902201345], a = 0.2, v = 0.2, t = 0.2)
movej(p[0.474213363517245, -0.0229521333256344, 0.223885205444155, -1.20711440448235, 1.27725503200771, -1.20011910872512], a = 0.2, v = 0.2, t = 0.2)
movej(p[0.47487969334103, -0.0225270678704235, 0.223966480623152, -1.19588810976781, 1.25800675492591, -1.21357818509666], a = 0.2, v = 0.2, t = 0.2)
movej(p[0.475324939985263, -0.022323739201609, 0.224103377040699, -1.19763900250479, 1.25478176471676, -1.19975700051045], a = 0.2, v = 0.2, t = 0.2)
movej(p[0.475619667856757, -0.0223045753930926, 0.224130883843636, -1.19304824557008, 1.23797325968361, -1.20426573330856], a = 0.2, v = 0.2, t = 0.2)
movej(p[0.4758061928458, -0.0223060088306027, 0.224161884768129, -1.18834366857994, 1.22322215025461, -1.21731458339577], a = 0.2, v = 0.2, t = 0.2)
movej(p[0.476344939422901, -0.0221688517573114, 0.223784948515802, -1.18829366323096, 1.217918490745, -1.21110808445856], a = 0.2, v = 0.2, t = 0.2)
movej(p[0.476650629714263, -0.0220926230587742, 0.223454663366613, -1.19116419001131, 1.22741554783348, -1.19105222175344], a = 0.2, v = 0.2, t = 0.2)
movej(p[0.476575858267636, -0.0222103206028985, 0.223048785122091, -1.19162512049788, 1.23684816065599, -1.18676250846244], a = 0.2, v = 0.2, t = 0.2)
movej(p[0.476265278195871, -0.0223779386663088, 0.222395910678258, -1.19164923624712, 1.25205924068135, -1.19348154008485], a = 0.2, v = 0.2, t = 0.2)
movej(p[0.475940106061423, -0.0227423619965342, 0.221735108466991, -1.20243971531413, 1.26876043451143, -1.18416231848869], a = 0.2, v = 0.2, t = 0.2)
movej(p[0.475215901118465, -0.0230682652392406, 0.221557490380669, -1.21164335765502, 1.28885654061144, -1.17337334949128], a = 0.2, v = 0.2, t = 0.2)
movej(p[0.47425683557715, -0.0233271792811879, 0.222019994538861, -1.21079084274193, 1.29638092713016, -1.17893107342669], a = 0.2, v = 0.2, t = 0.2)
movej(p[0.473858141318971, -0.0233629654556224, 0.222404457811767, -1.2052433208808, 1.29201238559311, -1.20240108218905], a = 0.2, v = 0.2, t = 0.2)
movej(p[0.474060067860993, -0.023316045742544, 0.222531988796832, -1.20429736180362, 1.28350682672084, -1.20390393022711], a = 0.2, v = 0.2, t = 0.2)
movej(p[0.474616407106555, -0.0232827055033907, 0.222768213863878, -1.19868988763947, 1.26448436996717, -1.20943691757368], a = 0.2, v = 0.2, t = 0.2)
movej(p[0.475043787131315, -0.0229513759157898, 0.223150218207854, -1.18710734402963, 1.24803388059667, -1.21906777741176], a = 0.2, v = 0.2, t = 0.2)
movej(p[0.475578246261033, -0.0226025050551483, 0.223321378176469, -1.18213118819292, 1.23693516146321, -1.22762703305647], a = 0.2, v = 0.2, t = 0.2)
movej(p[0.476083370416089, -0.0223153259436434, 0.223185480610654, -1.18327734626482, 1.23615235179888, -1.21118788622741], a = 0.2, v = 0.2, t = 0.2)
movej(p[0.476343426557452, -0.0222880808481851, 0.223034742777733, -1.18248832983175, 1.2335006248312, -1.20074100155807], a = 0.2, v = 0.2, t = 0.2)
movej(p[0.47647222569981, -0.0222373424298577, 0.223010682048019, -1.1706503652707, 1.22678667731233, -1.21209228634975], a = 0.2, v = 0.2, t = 0.2)
movej(p[0.476846572220339, -0.0221576129769655, 0.222563236570882, -1.17531396625716, 1.2267341500397, -1.21016237117305], a = 0.2, v = 0.2, t = 0.2)
movej(p[0.477039790559357, -0.0222919854187571, 0.221963862798305, -1.19091373092333, 1.23570259362039, -1.19152685671837], a = 0.2, v = 0.2, t = 0.2)
movej(p[0.476725047113622, -0.0226440534955522, 0.22153462528239, -1.20415047018042, 1.24498690305835, -1.17650437899546], a = 0.2, v = 0.2, t = 0.2)
movej(p[0.475983549397401, -0.0229371790797786, 0.2213435992433, -1.20149093714307, 1.25851291940887, -1.18741229194124], a = 0.2, v = 0.2, t = 0.2)
movej(p[0.475352640250873, -0.0231452457972833, 0.221240496479542, -1.20385304283698, 1.27507531838213, -1.18302348208881], a = 0.2, v = 0.2, t = 0.2)
movej(p[0.474617413907397, -0.023328591050889, 0.221557631721732, -1.21246911322888, 1.29661952743789, -1.17080111979365], a = 0.2, v = 0.2, t = 0.2)
movej(p[0.473902134594848, -0.0235240049211666, 0.22196957648058, -1.21291534017505, 1.30403749227184, -1.17465848470075], a = 0.2, v = 0.2, t = 0.2)
movej(p[0.473530352132395, -0.02340513474422, 0.222437212815402, -1.19990287001111, 1.29972419164225, -1.19782361459326], a = 0.2, v = 0.2, t = 0.2)
movej(p[0.473998434805019, -0.0231855286637615, 0.222307274826289, -1.19198420723064, 1.28479286223179, -1.20803653822032], a = 0.2, v = 0.2, t = 0.2)
movej(p[0.474658227766604, -0.0230198904944261, 0.222498162973386, -1.19376903864855, 1.27324496899105, -1.20062615215756], a = 0.2, v = 0.2, t = 0.2)
movej(p[0.475094202952506, -0.0228036230685032, 0.223009877618244, -1.18752036195569, 1.25965178587369, -1.20317480361504], a = 0.2, v = 0.2, t = 0.2)
movej(p[0.475453377413974, -0.0226682965827106, 0.223435026409342, -1.18649348892334, 1.24748847175102, -1.21232967626353], a = 0.2, v = 0.2, t = 0.2)
movej(p[0.475939270091561, -0.022496531489289, 0.223345575017796, -1.18628471367343, 1.24247952612247, -1.20493268450106], a = 0.2, v = 0.2, t = 0.2)
movej(p[0.476273846114286, -0.0225388743339619, 0.223157565424854, -1.18892433561186, 1.23949166272154, -1.19655415488891], a = 0.2, v = 0.2, t = 0.2)
movej(p[0.476445042798233, -0.0225124233758455, 0.222942524308794, -1.17960028456297, 1.23464824939313, -1.1999065342873], a = 0.2, v = 0.2, t = 0.2)
movej(p[0.476827055745741, -0.022450464210924, 0.222211183014036, -1.17413567184492, 1.22870834796946, -1.19365189109572], a = 0.2, v = 0.2, t = 0.2)
movej(p[0.477138435055955, -0.0224973950450802, 0.221504434837897, -1.18165767435676, 1.23154552719544, -1.17814883258644], a = 0.2, v = 0.2, t = 0.2)
movej(p[0.476915859877619, -0.022795471133338, 0.220905632607024, -1.19867507615875, 1.25443495829647, -1.14780825019151], a = 0.2, v = 0.2, t = 0.2)
movej(p[0.476069367027463, -0.0231600565848827, 0.221060133584553, -1.20291271702697, 1.27026833643918, -1.16671683101545], a = 0.2, v = 0.2, t = 0.2)
movej(p[0.475366405447382, -0.0233393168294771, 0.221234320604843, -1.20060058828541, 1.28807810897628, -1.18137362789248], a = 0.2, v = 0.2, t = 0.2)
movej(p[0.475122496822508, -0.0233881585506531, 0.221413706804381, -1.20322871954769, 1.30060220748351, -1.17306002008971], a = 0.2, v = 0.2, t = 0.2)
movej(p[0.475115100634265, -0.0234276065260017, 0.221753096674059, -1.20061875802023, 1.29926090408848, -1.1717114502496], a = 0.2, v = 0.2, t = 0.2)
movej(p[0.475277685060638, -0.0233262475773165, 0.222259463939808, -1.19182936153679, 1.2801443749667, -1.19336989567621], a = 0.2, v = 0.2, t = 0.2)
movej(p[0.475790812916426, -0.0231104303804951, 0.222174550626536, -1.18682676030385, 1.26384544429011, -1.21036052612141], a = 0.2, v = 0.2, t = 0.2)
movej(p[0.476215363647105, -0.0228660714284075, 0.222169486967858, -1.18892617291043, 1.25956490823244, -1.19948717710744], a = 0.2, v = 0.2, t = 0.2)
movej(p[0.476487646337398, -0.0228740069727419, 0.221931056016159, -1.18614768651626, 1.24758253046594, -1.19700339221563], a = 0.2, v = 0.2, t = 0.2)
movej(p[0.476570293016352, -0.0228069240036041, 0.221931004932454, -1.17880741011598, 1.24147466928447, -1.2047057878136], a = 0.2, v = 0.2, t = 0.2)
movej(p[0.477044416061301, -0.0227793825734352, 0.221028450789218, -1.17951376846815, 1.23481994116542, -1.21212559493944], a = 0.2, v = 0.2, t = 0.2)
movej(p[0.477162472286962, -0.0228480377234985, 0.22058926901358, -1.1946066992393, 1.25255780789028, -1.18273263947575], a = 0.2, v = 0.2, t = 0.2)
movej(p[0.476730411456686, -0.0231060625983938, 0.220264279902261, -1.20225839668108, 1.26519232858377, -1.17143786862755], a = 0.2, v = 0.2, t = 0.2)
movej(p[0.475832300071552, -0.0234590526102188, 0.220606604698099, -1.20660965167574, 1.27978071385795, -1.17216324206519], a = 0.2, v = 0.2, t = 0.2)
movej(p[0.47525352254146, -0.0236687599718537, 0.220659533831255, -1.21077096932666, 1.29531140568746, -1.16944768301335], a = 0.2, v = 0.2, t = 0.2)
movej(p[0.474937556986509, -0.023797579969536, 0.220884562354518, -1.21617081443948, 1.3071007474514, -1.16058866117438], a = 0.2, v = 0.2, t = 0.2)
movej(p[0.474842563054533, -0.0237399886668104, 0.221460256400638, -1.20366305243521, 1.30085394212395, -1.17394832359], a = 0.2, v = 0.2, t = 0.2)
movej(p[0.475126585235427, -0.0233541240831273, 0.221970751066446, -1.18448269981451, 1.2834501153711, -1.19800320244177], a = 0.2, v = 0.2, t = 0.2)
movej(p[0.475763744948946, -0.0230660017394819, 0.222146460174524, -1.18071748933211, 1.26998278810978, -1.2013069536293], a = 0.2, v = 0.2, t = 0.2)
movej(p[0.476204376421784, -0.0228975534847836, 0.222069520843345, -1.18183543810724, 1.26374850858622, -1.19123700108251], a = 0.2, v = 0.2, t = 0.2)
movej(p[0.476403445016211, -0.0228386866465106, 0.222185183921091, -1.17738585591748, 1.25777539967047, -1.19105306824987], a = 0.2, v = 0.2, t = 0.2)
movej(p[0.476705647328978, -0.0226502081203647, 0.221964318479158, -1.16941080070561, 1.25113551267046, -1.20950951776713], a = 0.2, v = 0.2, t = 0.2)
movej(p[0.477143943424468, -0.0225639736252386, 0.221511688150271, -1.1786406477728, 1.24932917173076, -1.19354061466736], a = 0.2, v = 0.2, t = 0.2)
movej(p[0.477235071650234, -0.0227303405967263, 0.221017442568231, -1.19186001181121, 1.2552713365431, -1.17286551330527], a = 0.2, v = 0.2, t = 0.2)
movej(p[0.476734393224545, -0.0229821265875949, 0.22062546117358, -1.19473387656445, 1.26487939146119, -1.16493671745303], a = 0.2, v = 0.2, t = 0.2)
movej(p[0.476178517141276, -0.0233177715509289, 0.220330781905498, -1.19480653743201, 1.28029679183793, -1.1761211006979], a = 0.2, v = 0.2, t = 0.2)
movej(p[0.475504311886058, -0.0236759571776642, 0.22037834852338, -1.2143032491038, 1.30403798930964, -1.15403810122525], a = 0.2, v = 0.2, t = 0.2)
movej(p[0.474467251161675, -0.0240433548576261, 0.220823725971397, -1.22952733899948, 1.32193636724745, -1.13806692689583], a = 0.2, v = 0.2, t = 0.2)
movej(p[0.472956743583609, -0.0242019345816486, 0.221458339411006, -1.23137441082281, 1.33825902875237, -1.140252291029], a = 0.2, v = 0.2, t = 0.2)
movej(p[0.471411837151366, -0.024323450617454, 0.222048382772681, -1.2304623677199, 1.35303125628093, -1.15403487181866], a = 0.2, v = 0.2, t = 0.2)
movej(p[0.469981487768224, -0.0244356569429979, 0.222581943643298, -1.23197614389767, 1.36705776931168, -1.15933903572571], a = 0.2, v = 0.2, t = 0.2)
movej(p[0.468986034020905, -0.0246590408626054, 0.223207684221661, -1.23176589656524, 1.36902969940717, -1.17355889539649], a = 0.2, v = 0.2, t = 0.2)
movej(p[0.468716134287489, -0.0244376098896807, 0.22379823468363, -1.21194414753311, 1.36310558260122, -1.20483001941341], a = 0.2, v = 0.2, t = 0.2)
movej(p[0.469803280885962, -0.023850087195126, 0.223970357798906, -1.1977746446632, 1.34288854329038, -1.2231090499603], a = 0.2, v = 0.2, t = 0.2)
movej(p[0.471296543589938, -0.0229977032382493, 0.224519925655927, -1.19189144921393, 1.32499286407243, -1.21529371515558], a = 0.2, v = 0.2, t = 0.2)
movej(p[0.472715444319384, -0.0221914099817179, 0.224915584075339, -1.18336762597813, 1.29036629576134, -1.22492220872992], a = 0.2, v = 0.2, t = 0.2)
movej(p[0.473505275110661, -0.0216810785307704, 0.225692051027517, -1.18016675332671, 1.26365672887993, -1.23873183837512], a = 0.2, v = 0.2, t = 0.2)
movej(p[0.474289505409706, -0.0213305576884089, 0.225860942487127, -1.17899114020493, 1.24448401145534, -1.24272910303825], a = 0.2, v = 0.2, t = 0.2)
movej(p[0.474812712636533, -0.0212404572049066, 0.225960478259435, -1.18446014486236, 1.23791068122882, -1.23054238571865], a = 0.2, v = 0.2, t = 0.2)
movej(p[0.475056776181379, -0.0212196196809808, 0.225743235004595, -1.18457565234543, 1.23355724491263, -1.22477052432782], a = 0.2, v = 0.2, t = 0.2)
movej(p[0.47507689057408, -0.0213656999278151, 0.225101964088561, -1.18901588306656, 1.23791938396679, -1.22326795750211], a = 0.2, v = 0.2, t = 0.2)
movej(p[0.475072913719671, -0.021762277759897, 0.224175392296877, -1.20411246214487, 1.25396008554857, -1.20127539908507], a = 0.2, v = 0.2, t = 0.2)
movej(p[0.474453244869051, -0.0223073844295187, 0.223761963981923, -1.2205404109264, 1.2779691263414, -1.1787856096187], a = 0.2, v = 0.2, t = 0.2)
movej(p[0.473446949553565, -0.0228624954626368, 0.223947068517092, -1.22731566965876, 1.29136192381462, -1.17423825651845], a = 0.2, v = 0.2, t = 0.2)
movej(p[0.472436828211726, -0.0229928885949542, 0.224406476965215, -1.22915213207689, 1.30379516368435, -1.18030577362453], a = 0.2, v = 0.2, t = 0.2)
movej(p[0.471567831340549, -0.023173714280302, 0.224756289228298, -1.23145699397288, 1.31640050753074, -1.17952926405503], a = 0.2, v = 0.2, t = 0.2)
movej(p[0.470959827547134, -0.0233006927839442, 0.224956169833674, -1.22719257951423, 1.32391123780752, -1.19125363917823], a = 0.2, v = 0.2, t = 0.2)
movej(p[0.47087628969976, -0.0233069777736238, 0.225307643536617, -1.21553751931527, 1.31404749965418, -1.21569542325865], a = 0.2, v = 0.2, t = 0.2)
movej(p[0.471709479659459, -0.0229338242102786, 0.225433732286388, -1.20122512352334, 1.29271877060989, -1.24293027888872], a = 0.2, v = 0.2, t = 0.2)
movej(p[0.472954445008522, -0.0223481926606893, 0.225767394069273, -1.19954690945455, 1.26973162633597, -1.22856562345713], a = 0.2, v = 0.2, t = 0.2)
movej(p[0.47384643719722, -0.021812139361413, 0.226032918669521, -1.19264707875052, 1.24697074783454, -1.22527437916579], a = 0.2, v = 0.2, t = 0.2)
movej(p[0.474274223601126, -0.0214723145633158, 0.226378919954535, -1.18548988150396, 1.22457682978168, -1.24037085087733], a = 0.2, v = 0.2, t = 0.2)
movej(p[0.474840480799352, -0.0212723942171422, 0.225938295676557, -1.18628240035096, 1.21707117293385, -1.25275286922745], a = 0.2, v = 0.2, t = 0.2)
movej(p[0.475123305410357, -0.0213843937016265, 0.225460097488162, -1.20157066312446, 1.22444961053483, -1.22895257466371], a = 0.2, v = 0.2, t = 0.2)
movej(p[0.474836399361884, -0.0216917072570282, 0.224816862411914, -1.2122222508132, 1.24303126086892, -1.20360424379472], a = 0.2, v = 0.2, t = 0.2)
movej(p[0.473932683723875, -0.0221578260549731, 0.224639934420854, -1.22090113605945, 1.26400120229732, -1.19498628549628], a = 0.2, v = 0.2, t = 0.2)
movej(p[0.473157192557716, -0.022548271832702, 0.224623539788727, -1.2288619261422, 1.28403116014489, -1.19181895772224], a = 0.2, v = 0.2, t = 0.2)
movej(p[0.472316655717612, -0.0229081592812636, 0.224917782778951, -1.24016026150399, 1.30192617797285, -1.1860011232568], a = 0.2, v = 0.2, t = 0.2)
movej(p[0.471227187490401, -0.0232681068900746, 0.225267558939387, -1.24466114849631, 1.31171959168847, -1.18561275589784], a = 0.2, v = 0.2, t = 0.2)
movej(p[0.470141909366673, -0.023454155035948, 0.225560084800935, -1.23901239588515, 1.32030394627586, -1.20527137595084], a = 0.2, v = 0.2, t = 0.2)
movej(p[0.469851805277335, -0.0234487098781114, 0.225438731432191, -1.23045193082807, 1.31824681274723, -1.21862876982303], a = 0.2, v = 0.2, t = 0.2)
movej(p[0.470359821082651, -0.0231460537014382, 0.225730588192728, -1.21915260542967, 1.31098579470785, -1.22267656545547], a = 0.2, v = 0.2, t = 0.2)
movej(p[0.471299756199838, -0.0226416488275609, 0.226156388456686, -1.20577061712608, 1.28589592767268, -1.23766791440691], a = 0.2, v = 0.2, t = 0.2)
movej(p[0.472434260657991, -0.0218722984377993, 0.226765098757736, -1.19637042186379, 1.26303388672283, -1.2448500957275], a = 0.2, v = 0.2, t = 0.2)
movej(p[0.473419248179965, -0.0213398207514249, 0.227071668219796, -1.20038954737611, 1.24239771937629, -1.23339684436222], a = 0.2, v = 0.2, t = 0.2)
movej(p[0.474013628830855, -0.0210637813961604, 0.227220439349918, -1.19990370882618, 1.22825757399751, -1.22593205442615], a = 0.2, v = 0.2, t = 0.2)
movej(p[0.474283257644664, -0.0210027308940182, 0.227363055527037, -1.19495090490867, 1.21250635655704, -1.23616862696815], a = 0.2, v = 0.2, t = 0.2)
movej(p[0.47487535508154, -0.0208517640307586, 0.226593346353791, -1.18995937067914, 1.2076785796272, -1.24134158956972], a = 0.2, v = 0.2, t = 0.2)
movej(p[0.475183993624886, -0.0210434824681732, 0.225891212166778, -1.20317607866192, 1.22124359347873, -1.21575838369197], a = 0.2, v = 0.2, t = 0.2)
movej(p[0.474825629106456, -0.021493038707267, 0.225284259006182, -1.21854293145366, 1.24345850883971, -1.18903095642528], a = 0.2, v = 0.2, t = 0.2)
movej(p[0.47376964739376, -0.0221144078197152, 0.225303314321672, -1.22731647903049, 1.26465344104063, -1.18360278618625], a = 0.2, v = 0.2, t = 0.2)
movej(p[0.472869227214607, -0.0224057481336347, 0.225281922814991, -1.23133061652514, 1.28305879027303, -1.18359162120127], a = 0.2, v = 0.2, t = 0.2)
movej(p[0.471929054765032, -0.0226794188780556, 0.225645214727383, -1.23770899470742, 1.30263433400613, -1.18021044977144], a = 0.2, v = 0.2, t = 0.2)
movej(p[0.471063908927031, -0.0228780876087846, 0.22591031582606, -1.23482050472368, 1.3108695419147, -1.19277804652532], a = 0.2, v = 0.2, t = 0.2)
movej(p[0.470719337340839, -0.0228465525322738, 0.22618958890718, -1.22285203033816, 1.30727771539117, -1.22077537737518], a = 0.2, v = 0.2, t = 0.2)
movej(p[0.47136911040012, -0.0225359596609588, 0.226209309954834, -1.21292657806129, 1.29521066959424, -1.22643278366446], a = 0.2, v = 0.2, t = 0.2)
movej(p[0.472387331551015, -0.0222063354484667, 0.22644489262909, -1.20941452059795, 1.28060151071551, -1.22000816933099], a = 0.2, v = 0.2, t = 0.2)
movej(p[0.473177629682562, -0.0217357847401503, 0.226933729525278, -1.20031631287556, 1.25504921635823, -1.22377363277707], a = 0.2, v = 0.2, t = 0.2)
movej(p[0.47376019365861, -0.0212876823651337, 0.227368597992077, -1.19614124337092, 1.23562002753204, -1.23291077815317], a = 0.2, v = 0.2, t = 0.2)
movej(p[0.474406589820082, -0.0209383341091829, 0.227293511552563, -1.19157657621604, 1.22095655750185, -1.22985080563972], a = 0.2, v = 0.2, t = 0.2)
movej(p[0.474918383249689, -0.0208950422289512, 0.227003774011128, -1.18647101669476, 1.21339335101793, -1.22601900561843], a = 0.2, v = 0.2, t = 0.2)
movej(p[0.475132223033046, -0.0209509310383211, 0.226581949643718, -1.18108989918598, 1.2080572849948, -1.22895505401965], a = 0.2, v = 0.2, t = 0.2)
movej(p[0.475366116721726, -0.0211217572512209, 0.225862354806322, -1.1914667595966, 1.21071894292471, -1.22142504519684], a = 0.2, v = 0.2, t = 0.2)
movej(p[0.475221236089263, -0.0215789473044684, 0.225228595958469, -1.21644519602795, 1.22644390084397, -1.19145630969437], a = 0.2, v = 0.2, t = 0.2)
movej(p[0.474615812049744, -0.0220953843252916, 0.224828234341433, -1.22558155866709, 1.24414043591176, -1.18105026475179], a = 0.2, v = 0.2, t = 0.2)
movej(p[0.473549028602712, -0.0224034140201002, 0.225071653048896, -1.22414177810385, 1.26692021075591, -1.18127921287356], a = 0.2, v = 0.2, t = 0.2)
movej(p[0.472942114815648, -0.022381365188916, 0.225100729634658, -1.21484606216393, 1.2819089853902, -1.19254310876352], a = 0.2, v = 0.2, t = 0.2)
movej(p[0.472817680991565, -0.0223754186528387, 0.225378479577492, -1.21348391346137, 1.28985422084772, -1.19080593667926], a = 0.2, v = 0.2, t = 0.2)
movej(p[0.473142275132591, -0.0223135075458711, 0.225665511259621, -1.20292001361821, 1.27555013783818, -1.20779686833111], a = 0.2, v = 0.2, t = 0.2)
movej(p[0.473709286778224, -0.0220290484046033, 0.226152951129929, -1.19533904634704, 1.25657957246428, -1.22595166716348], a = 0.2, v = 0.2, t = 0.2)
movej(p[0.474484073997653, -0.021674672404125, 0.226216139285412, -1.19510609845397, 1.24172932275414, -1.2173737308741], a = 0.2, v = 0.2, t = 0.2)
movej(p[0.475008433240428, -0.0214536371353, 0.226183626198006, -1.19446435690196, 1.23590436104642, -1.2074649435495], a = 0.2, v = 0.2, t = 0.2)
movej(p[0.475277855344296, -0.0214384030913563, 0.226149173357018, -1.1877767535103, 1.22358409049132, -1.21154102440227], a = 0.2, v = 0.2, t = 0.2)
movej(p[0.475651426020026, -0.0213889915740396, 0.225742951740051, -1.18239983078984, 1.21181921725714, -1.22796721399003], a = 0.2, v = 0.2, t = 0.2)
movej(p[0.476242547992713, -0.0214875945088761, 0.225080503011187, -1.1946996281135, 1.2117585272969, -1.21289147602949], a = 0.2, v = 0.2, t = 0.2)
movej(p[0.476321023060656, -0.0216317049179827, 0.224324415125494, -1.20113615354769, 1.22554903410343, -1.19532035110869], a = 0.2, v = 0.2, t = 0.2)
movej(p[0.47570181031545, -0.0219538213173288, 0.224194492218988, -1.20506663193273, 1.2449191466912, -1.18156532408989], a = 0.2, v = 0.2, t = 0.2)
movej(p[0.474890826693971, -0.0221878108799929, 0.224119364307684, -1.20755504382854, 1.26353545713675, -1.18789631390431], a = 0.2, v = 0.2, t = 0.2)
movej(p[0.474130415318602, -0.0224472165379825, 0.224216096482851, -1.21527082117885, 1.27953346880899, -1.18628964683614], a = 0.2, v = 0.2, t = 0.2)
movej(p[0.473621961921435, -0.0226661582621918, 0.224376957822861, -1.21695540898596, 1.28278759142208, -1.19753456847083], a = 0.2, v = 0.2, t = 0.2)
movej(p[0.473404551010952, -0.0225289626254479, 0.224792138082099, -1.20229333346074, 1.27658981721172, -1.21281351693122], a = 0.2, v = 0.2, t = 0.2)
movej(p[0.473920537661353, -0.0222069455053067, 0.224904161525376, -1.19152974134363, 1.26187578520471, -1.22565463897643], a = 0.2, v = 0.2, t = 0.2)
movej(p[0.474485022642282, -0.0219536400442451, 0.225025453040654, -1.18955644333683, 1.25640682785832, -1.21379893538056], a = 0.2, v = 0.2, t = 0.2)
movej(p[0.474854454942585, -0.021856570967768, 0.225121677069389, -1.18753718935313, 1.24225983989162, -1.21912779815083], a = 0.2, v = 0.2, t = 0.2)
movej(p[0.475135055405192, -0.0216983218539306, 0.22512877262173, -1.17726588995787, 1.22158084612818, -1.23355152363278], a = 0.2, v = 0.2, t = 0.2)
movej(p[0.475697090506196, -0.0215431001621929, 0.224737289853401, -1.17143639161891, 1.2087879830889, -1.23760621516187], a = 0.2, v = 0.2, t = 0.2)
movej(p[0.476022996253597, -0.0216168117077304, 0.224331717082169, -1.1750561013329, 1.20490249576459, -1.22585108283389], a = 0.2, v = 0.2, t = 0.2)
movej(p[0.476083700622787, -0.0217244429659892, 0.224179085934604, -1.17699910111504, 1.21111134259095, -1.21753972794174], a = 0.2, v = 0.2, t = 0.2)
movej(p[0.47605755944799, -0.0219969529436398, 0.223706301089605, -1.18880871160343, 1.22018360230267, -1.21752489898176], a = 0.2, v = 0.2, t = 0.2)
movej(p[0.476100229672406, -0.0222581107172549, 0.223040324934755, -1.19798835884397, 1.23605458946772, -1.2042831306816], a = 0.2, v = 0.2, t = 0.2)
movej(p[0.475582141763355, -0.0227348475989772, 0.222806355751953, -1.21564091513882, 1.25908196700569, -1.18609506995819], a = 0.2, v = 0.2, t = 0.2)
movej(p[0.47468915000263, -0.0229632328365102, 0.223151855397327, -1.21491087328744, 1.27654136968708, -1.18123446526001], a = 0.2, v = 0.2, t = 0.2)
movej(p[0.474066311772506, -0.0229434270387, 0.223360111200293, -1.20814253055212, 1.28528257423159, -1.19590812327253], a = 0.2, v = 0.2, t = 0.2)
movej(p[0.473923645949866, -0.0228504109450695, 0.22340680509043, -1.20141355607366, 1.28767691581806, -1.19499574026818], a = 0.2, v = 0.2, t = 0.2)
movej(p[0.474109210773122, -0.0227618738506174, 0.223607486452983, -1.19444504153889, 1.28120361873856, -1.19896980615435], a = 0.2, v = 0.2, t = 0.2)
movej(p[0.474519533701233, -0.0226345876466663, 0.224384070659525, -1.19222412184274, 1.26230862665379, -1.20879674101954], a = 0.2, v = 0.2, t = 0.2)
movej(p[0.475210791001745, -0.0224095052428457, 0.224443015855077, -1.18781412652207, 1.24398809090968, -1.22467862444522], a = 0.2, v = 0.2, t = 0.2)
movej(p[0.475764591881683, -0.0222465745006511, 0.224323176834603, -1.18898247097673, 1.23492832757925, -1.21458669223196], a = 0.2, v = 0.2, t = 0.2)
movej(p[0.475998360170724, -0.022199688708087, 0.224205938069707, -1.18428093530011, 1.22871065073301, -1.21063317546572], a = 0.2, v = 0.2, t = 0.2)
movej(p[0.476092358301811, -0.0220377940914227, 0.223896493705972, -1.17867530562941, 1.22651916714622, -1.21446393027042], a = 0.2, v = 0.2, t = 0.2)
movej(p[0.476406065985775, -0.0221473704037513, 0.223068669325563, -1.18509163456374, 1.23684932955222, -1.20664858823696], a = 0.2, v = 0.2, t = 0.2)
movej(p[0.47624530499378, -0.0223439085450144, 0.222175986841853, -1.19497784657591, 1.25429827435394, -1.18609622341775], a = 0.2, v = 0.2, t = 0.2)
movej(p[0.475461490558253, -0.022861355501211, 0.222116311541572, -1.20465738101469, 1.27057781157973, -1.17219004764613], a = 0.2, v = 0.2, t = 0.2)
movej(p[0.474520979793673, -0.0230670087858799, 0.222208480629193, -1.2024925257322, 1.28134805479217, -1.1856951576734], a = 0.2, v = 0.2, t = 0.2)
movej(p[0.473973527865938, -0.0233322874551025, 0.222616272223607, -1.21047751962665, 1.29183620838984, -1.18798153590902], a = 0.2, v = 0.2, t = 0.2)
movej(p[0.473747235578891, -0.0233154458981553, 0.223016666982293, -1.20920818666444, 1.29879677846051, -1.18837475903051], a = 0.2, v = 0.2, t = 0.2)
movej(p[0.473792276758561, -0.0231633480858122, 0.223469801054742, -1.19831400106722, 1.28156684788373, -1.20895242907079], a = 0.2, v = 0.2, t = 0.2)
movej(p[0.474296192843852, -0.0227603603492104, 0.223745815063686, -1.18721287556647, 1.26378877050378, -1.23269699778971], a = 0.2, v = 0.2, t = 0.2)
movej(p[0.47499787163427, -0.0224558954173688, 0.223884789846849, -1.18811635489721, 1.25012281097071, -1.22272475706369], a = 0.2, v = 0.2, t = 0.2)
movej(p[0.47547217880023, -0.0224259864263514, 0.224092141525589, -1.19479452105617, 1.24200617050948, -1.20973544537336], a = 0.2, v = 0.2, t = 0.2)
movej(p[0.475612779515425, -0.0223614512187387, 0.224288901139242, -1.18992714743196, 1.23198723278344, -1.21427486732688], a = 0.2, v = 0.2, t = 0.2)
movej(p[0.476005810946956, -0.0222520201797412, 0.223988389504305, -1.18613640593607, 1.22740953223522, -1.2243716768552], a = 0.2, v = 0.2, t = 0.2)
movej(p[0.476407105546556, -0.0221641036852862, 0.223473963684644, -1.19625820523193, 1.23659409198317, -1.19827467700464], a = 0.2, v = 0.2, t = 0.2)
movej(p[0.476320368404301, -0.0224073362301508, 0.222992798313325, -1.20517209014618, 1.24827066081195, -1.17171743330874], a = 0.2, v = 0.2, t = 0.2)
movej(p[0.475704950806219, -0.0226568525962216, 0.222633539408582, -1.20721511396577, 1.2610155052693, -1.1702770099945], a = 0.2, v = 0.2, t = 0.2)
movej(p[0.475180968840018, -0.0228332009046572, 0.222177917197086, -1.2018814039066, 1.27330307487982, -1.1764964797201], a = 0.2, v = 0.2, t = 0.2)
movej(p[0.474496351361464, -0.0230493175360476, 0.222154832143601, -1.20460844461354, 1.29122954498933, -1.18334938487637], a = 0.2, v = 0.2, t = 0.2)
movej(p[0.474033945909008, -0.023249338651614, 0.222402185030923, -1.20581447554855, 1.29411499952976, -1.19012305632914], a = 0.2, v = 0.2, t = 0.2)
movej(p[0.473659335886126, -0.0232853052378017, 0.223135810654409, -1.20051418197017, 1.28941063864155, -1.21575936573055], a = 0.2, v = 0.2, t = 0.2)
movej(p[0.474115976465458, -0.0230493523705144, 0.223341967817092, -1.19612605239556, 1.27591642027232, -1.2154779011766], a = 0.2, v = 0.2, t = 0.2)
movej(p[0.474620429052529, -0.0229277277921803, 0.223371817764209, -1.19380540627866, 1.26596019600997, -1.21032626466587], a = 0.2, v = 0.2, t = 0.2)
movej(p[0.474975080657233, -0.0227844716909281, 0.223682913712005, -1.18577488134617, 1.25381286508182, -1.20963820284071], a = 0.2, v = 0.2, t = 0.2)
movej(p[0.475307072812357, -0.022643174769428, 0.223931566077589, -1.18139439118702, 1.23811987784694, -1.22613356329032], a = 0.2, v = 0.2, t = 0.2)
movej(p[0.475870700138029, -0.0223582001885433, 0.223903317323531, -1.18394688100941, 1.23352474973285, -1.21255780969701], a = 0.2, v = 0.2, t = 0.2)
movej(p[0.47631608489478, -0.0224083905020695, 0.223587003126084, -1.19159038610714, 1.226735017179, -1.20756270978136], a = 0.2, v = 0.2, t = 0.2)
movej(p[0.476404188800037, -0.0224791697138235, 0.22322556388764, -1.19029820218207, 1.22690715483208, -1.21006239347928], a = 0.2, v = 0.2, t = 0.2)
movej(p[0.476480664991498, -0.0226122295787487, 0.22243130925883, -1.19251321247171, 1.23064356504085, -1.21382140774839], a = 0.2, v = 0.2, t = 0.2)
movej(p[0.476379844966049, -0.0228720915917213, 0.221682591993317, -1.20565599999721, 1.24829450818371, -1.18791973688115], a = 0.2, v = 0.2, t = 0.2)
movej(p[0.475802658588008, -0.023106534064328, 0.221298744402029, -1.20792565222376, 1.26913198229042, -1.16749742828467], a = 0.2, v = 0.2, t = 0.2)
movej(p[0.474912897765577, -0.0233715218123813, 0.221645538713904, -1.20422994727349, 1.28156135969243, -1.17263450091177], a = 0.2, v = 0.2, t = 0.2)
movej(p[0.474312141084775, -0.0232725969132219, 0.221907842116089, -1.19296764570557, 1.29235889532692, -1.19356322790589], a = 0.2, v = 0.2, t = 0.2)
movej(p[0.474134929273679, -0.0233768824899719, 0.222309070159089, -1.19848766369913, 1.29779479515108, -1.1908883540916], a = 0.2, v = 0.2, t = 0.2)
movej(p[0.474262059243705, -0.0232892276742669, 0.222737623941017, -1.19355833608126, 1.29634090021127, -1.19196629967251], a = 0.2, v = 0.2, t = 0.2)
movej(p[0.47453107621787, -0.0230920864752389, 0.22329514942497, -1.18474322179029, 1.27629351425808, -1.20756039682846], a = 0.2, v = 0.2, t = 0.2)
movej(p[0.475150269427686, -0.0226896100005565, 0.223452231843609, -1.17859888327525, 1.26478206305646, -1.21239564996736], a = 0.2, v = 0.2, t = 0.2)
movej(p[0.475588255327551, -0.022532683978328, 0.223545847970248, -1.18669969520825, 1.25810832229272, -1.19817694313484], a = 0.2, v = 0.2, t = 0.2)
movej(p[0.475885582458405, -0.0225655310966841, 0.223592307032592, -1.1857007786965, 1.2485751355755, -1.19577190916745], a = 0.2, v = 0.2, t = 0.2)
movej(p[0.476089001105854, -0.0225388325312062, 0.223383639569696, -1.1834339499123, 1.23614314504805, -1.20752897526474], a = 0.2, v = 0.2, t = 0.2)
movej(p[0.476650782525781, -0.0225667526464136, 0.22261237460492, -1.18550824250224, 1.2412019708595, -1.2098791339342], a = 0.2, v = 0.2, t = 0.2)
movej(p[0.476773070220495, -0.0226676857309428, 0.222003565013119, -1.19902402679971, 1.25832571094229, -1.18317114617211], a = 0.2, v = 0.2, t = 0.2)
movej(p[0.476278933864014, -0.0229739012189289, 0.221805180152382, -1.20581062325532, 1.27598765036651, -1.16648134927967], a = 0.2, v = 0.2, t = 0.2)
movej(p[0.475341602881349, -0.0231953528585579, 0.221821036195138, -1.20473052740843, 1.28653059239952, -1.17199603556982], a = 0.2, v = 0.2, t = 0.2)
movej(p[0.474778117801206, -0.0233205883450867, 0.221993570828965, -1.20795842108285, 1.29959231806803, -1.16320279907325], a = 0.2, v = 0.2, t = 0.2)
movej(p[0.474424073676199, -0.0234124613642891, 0.222208021862748, -1.20853916918284, 1.3050364667794, -1.16459666201467], a = 0.2, v = 0.2, t = 0.2)
movej(p[0.474383024042028, -0.0233819013057647, 0.222648877247605, -1.19901619539462, 1.29010681695479, -1.18737673144043], a = 0.2, v = 0.2, t = 0.2)
movej(p[0.474647731893173, -0.0231073138037109, 0.222997593460675, -1.18733370576581, 1.27560390075453, -1.21532593520605], a = 0.2, v = 0.2, t = 0.2)
movej(p[0.4752368465595, -0.0229480557756078, 0.223214650527834, -1.19416251760422, 1.26281795976271, -1.20820747283971], a = 0.2, v = 0.2, t = 0.2)
movej(p[0.47561775900623, -0.0228418398271998, 0.223492396308414, -1.19682855411823, 1.25860227693751, -1.19061434158719], a = 0.2, v = 0.2, t = 0.2)
movej(p[0.475733164709684, -0.0228957374384774, 0.22363094203375, -1.19461440532789, 1.2423670523859, -1.20397022737126], a = 0.2, v = 0.2, t = 0.2)
movej(p[0.475926014781151, -0.0228666755993382, 0.223390037439478, -1.19092941930195, 1.22872108298051, -1.21769226799398], a = 0.2, v = 0.2, t = 0.2)
movej(p[0.476349393992422, -0.0226801597086821, 0.222690755859203, -1.1909993460524, 1.22904552555142, -1.20766905394956], a = 0.2, v = 0.2, t = 0.2)
movej(p[0.476486303743041, -0.0226859590109195, 0.221997892487451, -1.19359562248755, 1.23982605616106, -1.19112418166543], a = 0.2, v = 0.2, t = 0.2)
movej(p[0.476214249626239, -0.0227862570456016, 0.221525266143265, -1.18685280947561, 1.25551251471955, -1.18571088717043], a = 0.2, v = 0.2, t = 0.2)
movej(p[0.475795818397424, -0.023098349396292, 0.221076783172527, -1.19422635074602, 1.27192575807094, -1.1834852700604], a = 0.2, v = 0.2, t = 0.2)
movej(p[0.475151462084041, -0.0234752906668438, 0.221031013522558, -1.20921979087984, 1.28971021687725, -1.16509463405465], a = 0.2, v = 0.2, t = 0.2)
movej(p[0.474454627789865, -0.023653407805341, 0.221314710652317, -1.21367995502623, 1.30297934857039, -1.16277206164123], a = 0.2, v = 0.2, t = 0.2)
movej(p[0.473796549749679, -0.0237434185589673, 0.222187256580768, -1.21357222138753, 1.30782824943701, -1.17360771017113], a = 0.2, v = 0.2, t = 0.2)
movej(p[0.473966470254468, -0.0235759076896548, 0.222452798857468, -1.20435314209768, 1.30062148316793, -1.19348180573425], a = 0.2, v = 0.2, t = 0.2)
movej(p[0.474408476071714, -0.0235465735359015, 0.222570077052132, -1.20718010668524, 1.29034533053731, -1.19497430344147], a = 0.2, v = 0.2, t = 0.2)
movej(p[0.474935780921646, -0.0233247652753871, 0.222647368583401, -1.19269744393552, 1.27271995592845, -1.20613667578335], a = 0.2, v = 0.2, t = 0.2)
movej(p[0.475293707442139, -0.0230341267078672, 0.22287791731794, -1.18258080257827, 1.25430268533686, -1.21975834325889], a = 0.2, v = 0.2, t = 0.2)
movej(p[0.47585672938101, -0.0227382128631001, 0.222641607946723, -1.17681587302793, 1.24760813992234, -1.21157131007696], a = 0.2, v = 0.2, t = 0.2)
movej(p[0.476158626943931, -0.0226895244521314, 0.222227153473783, -1.18033083749579, 1.24310471963724, -1.20044435931058], a = 0.2, v = 0.2, t = 0.2)
movej(p[0.476229861352462, -0.0227707530276584, 0.221788627275606, -1.17942247365156, 1.24103822589337, -1.1988010792116], a = 0.2, v = 0.2, t = 0.2)
movej(p[0.476180798743968, -0.0228619489581467, 0.221137769364569, -1.17943592545555, 1.24593323142671, -1.20840130961302], a = 0.2, v = 0.2, t = 0.2)
movej(p[0.476142591139647, -0.0230586698521356, 0.220585877754522, -1.19266689595907, 1.26469973330407, -1.18783350063502], a = 0.2, v = 0.2, t = 0.2)
movej(p[0.475440817860845, -0.0235032851765048, 0.220672422878566, -1.21515791893694, 1.29537318811478, -1.15359294131681], a = 0.2, v = 0.2, t = 0.2)
movej(p[0.474116899884837, -0.0239590010520175, 0.221025184349969, -1.22270074097326, 1.31605539717879, -1.14067907031683], a = 0.2, v = 0.2, t = 0.2)
movej(p[0.472428438836836, -0.0243705905457058, 0.221312272712797, -1.22647184182193, 1.33449627285721, -1.15253601252608], a = 0.2, v = 0.2, t = 0.2)
movej(p[0.470734288038615, -0.024575648245974, 0.221484490082554, -1.22469124207002, 1.35409212747845, -1.14814830935121], a = 0.2, v = 0.2, t = 0.2)
movej(p[0.46900330921788, -0.024839122960389, 0.222202429221361, -1.23130179397769, 1.37714308778233, -1.14779626244123], a = 0.2, v = 0.2, t = 0.2)
movej(p[0.467468647031366, -0.0250359909527552, 0.22315988742769, -1.22722978550159, 1.39113054479943, -1.16020581510823], a = 0.2, v = 0.2, t = 0.2)
movej(p[0.467021567775752, -0.024867715313845, 0.22398120189764, -1.22002959150019, 1.39477136163682, -1.18404172464064], a = 0.2, v = 0.2, t = 0.2)
movej(p[0.467566212974136, -0.0244057908883689, 0.224696456068285, -1.21315175932016, 1.38120391243585, -1.19605519478812], a = 0.2, v = 0.2, t = 0.2)
movej(p[0.469014741016652, -0.0236466826316927, 0.225541301614637, -1.20357908773302, 1.3509809288486, -1.21938890947282], a = 0.2, v = 0.2, t = 0.2)
movej(p[0.470484102461172, -0.0228056049758877, 0.226292734963886, -1.19722993692983, 1.3118276478385, -1.24348373230764], a = 0.2, v = 0.2, t = 0.2)
movej(p[0.47193261842942, -0.0220229172317024, 0.226612601646166, -1.19650422616662, 1.28090049591831, -1.24561787610018], a = 0.2, v = 0.2, t = 0.2)
movej(p[0.472884868970379, -0.0214544054405331, 0.226975411742696, -1.20124370995046, 1.25826376944488, -1.23312068475368], a = 0.2, v = 0.2, t = 0.2)
movej(p[0.473514476091015, -0.0211291554846687, 0.227339516455491, -1.19837439593976, 1.24113678974361, -1.22941940803628], a = 0.2, v = 0.2, t = 0.2)
movej(p[0.47382377876424, -0.0209033111336317, 0.227378880556724, -1.18949305747121, 1.22483046592239, -1.24590287891723], a = 0.2, v = 0.2, t = 0.2)
movej(p[0.474291672256932, -0.0207955787098608, 0.226690405317689, -1.19387837875046, 1.22820892553691, -1.2358378777221], a = 0.2, v = 0.2, t = 0.2)
movej(p[0.474006289304692, -0.0213083578979193, 0.225763579826097, -1.21311384031655, 1.23756195469808, -1.21311698925245], a = 0.2, v = 0.2, t = 0.2)
movej(p[0.472909690332804, -0.022091809520169, 0.225093955778095, -1.22493362176704, 1.26197241672138, -1.20204412420992], a = 0.2, v = 0.2, t = 0.2)
movej(p[0.471387312613001, -0.0229032553529051, 0.224810838106342, -1.22889947473912, 1.28149913283118, -1.20852093044293], a = 0.2, v = 0.2, t = 0.2)
movej(p[0.470229352030472, -0.0232262205283866, 0.2249846233679, -1.22811459241359, 1.31105959479602, -1.20864886092446], a = 0.2, v = 0.2, t = 0.2)
movej(p[0.469188565007833, -0.0234671511006883, 0.225519136958874, -1.23306850849707, 1.33239253193858, -1.20221246997505], a = 0.2, v = 0.2, t = 0.2)
movej(p[0.468032608289446, -0.0237254525193202, 0.226234944801769, -1.23615427484878, 1.34719760600906, -1.20456938201768], a = 0.2, v = 0.2, t = 0.2)
movej(p[0.467296155407325, -0.0236571817835242, 0.226632091977321, -1.2301312655208, 1.35335881269202, -1.21706761161198], a = 0.2, v = 0.2, t = 0.2)
movej(p[0.467225062754282, -0.0234475610028256, 0.226735856773773, -1.22762549121342, 1.35141427564227, -1.22388205847322], a = 0.2, v = 0.2, t = 0.2)
movej(p[0.467912627008998, -0.0231514567182588, 0.226914442154748, -1.21858531183786, 1.33560575393078, -1.23933949740575], a = 0.2, v = 0.2, t = 0.2)
movej(p[0.469144560569915, -0.0226605291775715, 0.22724089777391, -1.20962219733754, 1.30644367765818, -1.25998050969563], a = 0.2, v = 0.2, t = 0.2)
movej(p[0.470760034075805, -0.0220531165284025, 0.227425246150077, -1.20333481793511, 1.27787937020488, -1.26958714711149], a = 0.2, v = 0.2, t = 0.2)
movej(p[0.472210927794462, -0.0213770412655265, 0.227677662385863, -1.20229464638566, 1.25390569437046, -1.25083701081717], a = 0.2, v = 0.2, t = 0.2)
movej(p[0.473065950525506, -0.0209966949070084, 0.228140410362976, -1.20460157269431, 1.23721110442145, -1.23786526246049], a = 0.2, v = 0.2, t = 0.2)
movej(p[0.473526858019981, -0.0206791798198556, 0.228366760734587, -1.19706673308269, 1.21602585258583, -1.24837482946051], a = 0.2, v = 0.2, t = 0.2)
movej(p[0.474092461271243, -0.0204935446771772, 0.228018819437865, -1.19720702662349, 1.20497085144947, -1.2572469703704], a = 0.2, v = 0.2, t = 0.2)
movej(p[0.474464790839271, -0.020461994268055, 0.227400312913602, -1.19982919665499, 1.20463986333919, -1.24734808957878], a = 0.2, v = 0.2, t = 0.2)
movej(p[0.474574288633847, -0.0207482614507183, 0.226994224409562, -1.19950813484257, 1.20638359148165, -1.23739347592159], a = 0.2, v = 0.2, t = 0.2)
movej(p[0.474580910403864, -0.0209519412829135, 0.226841678768789, -1.19260001284691, 1.20947073714126, -1.24407425651993], a = 0.2, v = 0.2, t = 0.2)
movej(p[0.47490815349014, -0.021094795414358, 0.226663566206251, -1.19100140476583, 1.21650850141832, -1.23880044514283], a = 0.2, v = 0.2, t = 0.2)
movej(p[0.474828925730595, -0.0214506446994722, 0.226575100257991, -1.19654595563989, 1.22880402611304, -1.2297980819274], a = 0.2, v = 0.2, t = 0.2)
movej(p[0.474718790729469, -0.0217149256005502, 0.226464094011084, -1.19152237482159, 1.2273637812936, -1.23053067426987], a = 0.2, v = 0.2, t = 0.2)
movej(p[0.474760631905168, -0.0217860755063476, 0.226066888683047, -1.18273619709169, 1.2163486196142, -1.24501008220349], a = 0.2, v = 0.2, t = 0.2)
movej(p[0.475277389291378, -0.0216242248386461, 0.225583273435187, -1.18022222149766, 1.21012064519808, -1.23448300723739], a = 0.2, v = 0.2, t = 0.2)
movej(p[0.475525101440895, -0.0215713234323024, 0.225278493333658, -1.18106879539784, 1.21355342833037, -1.21987237946592], a = 0.2, v = 0.2, t = 0.2)
movej(p[0.475582075561568, -0.0215473423785743, 0.224871356595036, -1.17963022483321, 1.21208402745124, -1.21470140514554], a = 0.2, v = 0.2, t = 0.2)
movej(p[0.475782471376465, -0.0217088028091996, 0.223947192864946, -1.18808391961842, 1.21763551265602, -1.21912785932445], a = 0.2, v = 0.2, t = 0.2)
movej(p[0.475684367963348, -0.0220887121649714, 0.222999092550352, -1.20492388986965, 1.22834300740051, -1.19655063730189], a = 0.2, v = 0.2, t = 0.2)
movej(p[0.47498403177683, -0.022777622168286, 0.222855186425094, -1.2267626266605, 1.2538797189945, -1.17536501683064], a = 0.2, v = 0.2, t = 0.2)
movej(p[0.473648580597647, -0.0233271409040784, 0.223240901238178, -1.23190345796113, 1.27647658476779, -1.17032204650814], a = 0.2, v = 0.2, t = 0.2)
movej(p[0.472490199613757, -0.0235690002704282, 0.223728655790253, -1.2340535738169, 1.30120523323563, -1.17134256755549], a = 0.2, v = 0.2, t = 0.2)
movej(p[0.471270902036654, -0.0237639428960806, 0.223933524555987, -1.23115498591226, 1.31743257022211, -1.18157983919817], a = 0.2, v = 0.2, t = 0.2)
movej(p[0.470369665075518, -0.0238992785665577, 0.224479992474332, -1.2232513752702, 1.32265264527443, -1.20076212266832], a = 0.2, v = 0.2, t = 0.2)
movej(p[0.470264736737329, -0.0237535654790105, 0.224741227939693, -1.2079254390186, 1.31407351413856, -1.23117412507887], a = 0.2, v = 0.2, t = 0.2)
movej(p[0.471180855787813, -0.0232226410436023, 0.224903913163748, -1.19901589622238, 1.30202760142497, -1.22569719812849], a = 0.2, v = 0.2, t = 0.2)
movej(p[0.472329873924489, -0.0226587799003599, 0.225233073397725, -1.19269037685709, 1.28023802088079, -1.22428516050548], a = 0.2, v = 0.2, t = 0.2)
movej(p[0.473066189633422, -0.0220592792676907, 0.226030420507777, -1.18711652626733, 1.25770068328103, -1.2260335700341], a = 0.2, v = 0.2, t = 0.2)
movej(p[0.473742510372669, -0.0217311326085526, 0.226477710189595, -1.19063575105394, 1.23645139105865, -1.2326473285647], a = 0.2, v = 0.2, t = 0.2)
movej(p[0.474241007560018, -0.0215437602178304, 0.226519510336725, -1.19335128800521, 1.22480494788781, -1.22787883097744], a = 0.2, v = 0.2, t = 0.2)
movej(p[0.474674251683025, -0.0215704338352252, 0.226386150595742, -1.19363427924326, 1.21545069741059, -1.22990210686243], a = 0.2, v = 0.2, t = 0.2)
movej(p[0.474838319368791, -0.0215675106455133, 0.225889878786701, -1.18894727332903, 1.21230463728944, -1.23753127973578], a = 0.2, v = 0.2, t = 0.2)
movej(p[0.475090988632239, -0.0216871854993318, 0.22482721060633, -1.19689093449019, 1.21815295489999, -1.2227155103325], a = 0.2, v = 0.2, t = 0.2)
movej(p[0.474759604075209, -0.0220071917617338, 0.223817841375481, -1.20979492005574, 1.23889597585465, -1.19682496912222], a = 0.2, v = 0.2, t = 0.2)
movej(p[0.473798780947924, -0.0224998920430661, 0.223442823566638, -1.21860290952772, 1.26256160267389, -1.18415416418443], a = 0.2, v = 0.2, t = 0.2)
movej(p[0.472378104012455, -0.0229959606530493, 0.223813766970969, -1.22235049714647, 1.2867867783731, -1.19396230926614], a = 0.2, v = 0.2, t = 0.2)
movej(p[0.471096079107512, -0.0234551316693256, 0.224118622627496, -1.23281714109644, 1.30982056981506, -1.19182357424829], a = 0.2, v = 0.2, t = 0.2)
movej(p[0.469985063328989, -0.0238372088124031, 0.224549473178744, -1.23810074082024, 1.32883028033042, -1.19113908600947], a = 0.2, v = 0.2, t = 0.2)
movej(p[0.469221379001265, -0.0239194708952572, 0.225004950698104, -1.22828068629234, 1.33240119196385, -1.21014093436599], a = 0.2, v = 0.2, t = 0.2)
movej(p[0.469455419372992, -0.0236061511641539, 0.225383185134495, -1.21766802186158, 1.32538220574393, -1.23345550191472], a = 0.2, v = 0.2, t = 0.2)
movej(p[0.470442529654905, -0.0232452603120437, 0.225615655658658, -1.21620243511128, 1.30625321673123, -1.23335853078159], a = 0.2, v = 0.2, t = 0.2)
movej(p[0.471743448025958, -0.0227470385082188, 0.225956994398989, -1.20952677983137, 1.28063516785228, -1.23709985504213], a = 0.2, v = 0.2, t = 0.2)
movej(p[0.472586853949359, -0.0221548742324349, 0.226579294920006, -1.19890096816158, 1.25277545326367, -1.24194904977461], a = 0.2, v = 0.2, t = 0.2)
movej(p[0.473410704185803, -0.0215608957798376, 0.22688487576391, -1.19129576174465, 1.23314220202202, -1.24529626889661], a = 0.2, v = 0.2, t = 0.2)
movej(p[0.473928982653964, -0.0212517334285198, 0.227071601431316, -1.1941230491298, 1.22467090728327, -1.22720127320877], a = 0.2, v = 0.2, t = 0.2)
movej(p[0.474347233640718, -0.0212251589540938, 0.227080736872648, -1.19393810511624, 1.22000359023686, -1.21792284205167], a = 0.2, v = 0.2, t = 0.2)
movej(p[0.474501638516571, -0.0211685004926148, 0.226628898585824, -1.18923005408976, 1.2170339512617, -1.22222375161205], a = 0.2, v = 0.2, t = 0.2)
movej(p[0.474841567410081, -0.0213145450312317, 0.225725390354527, -1.2020859042109, 1.22522801580734, -1.21319906637008], a = 0.2, v = 0.2, t = 0.2)
movej(p[0.474720170743982, -0.0216454603591649, 0.225094872260584, -1.21731115404295, 1.2449508213069, -1.18577868665921], a = 0.2, v = 0.2, t = 0.2)
movej(p[0.474102480942698, -0.0221909251423595, 0.224904112082654, -1.22722186865317, 1.2628655800647, -1.18066319763726], a = 0.2, v = 0.2, t = 0.2)
movej(p[0.473231041941405, -0.022464561089219, 0.224996389141622, -1.22205093389445, 1.27594703527656, -1.18836181140684], a = 0.2, v = 0.2, t = 0.2)
movej(p[0.472759783168199, -0.0225978449654531, 0.224913355043731, -1.22172666109814, 1.28742217977141, -1.1907923304157], a = 0.2, v = 0.2, t = 0.2)
movej(p[0.472522711262601, -0.0227806433059413, 0.22490937912992, -1.21914081642675, 1.2907360682283, -1.19561423191961], a = 0.2, v = 0.2, t = 0.2)
movej(p[0.472544333577019, -0.022698665027837, 0.225248915545401, -1.20786315433086, 1.27841373901453, -1.21312257794414], a = 0.2, v = 0.2, t = 0.2)
movej(p[0.473131971625068, -0.0223824817955617, 0.225332564742125, -1.19342556750943, 1.25172086994882, -1.2410883352945], a = 0.2, v = 0.2, t = 0.2)
movej(p[0.473927544870857, -0.0219466268349159, 0.225364894084309, -1.19034116583003, 1.23540448140389, -1.23287981137704], a = 0.2, v = 0.2, t = 0.2)
movej(p[0.474486769771361, -0.0217711916825174, 0.225338755202183, -1.1834404739999, 1.22666523715063, -1.22702384208035], a = 0.2, v = 0.2, t = 0.2)
movej(p[0.474729298675399, -0.0216370315499266, 0.225563415947373, -1.17639037347684, 1.21866557257103, -1.22744537212361], a = 0.2, v = 0.2, t = 0.2)
movej(p[0.475154975621234, -0.0214473613403164, 0.225316540707685, -1.17414435710546, 1.21067780871811, -1.23248878520533], a = 0.2, v = 0.2, t = 0.2)
movej(p[0.475526529414306, -0.0215391631143567, 0.224913006455314, -1.19018632930183, 1.21025233262919, -1.21780305029335], a = 0.2, v = 0.2, t = 0.2)
movej(p[0.475527061426241, -0.0217469053977751, 0.224194848527248, -1.2009709947844, 1.22138498498746, -1.20657021360372], a = 0.2, v = 0.2, t = 0.2)
movej(p[0.475034466970609, -0.0221597193341208, 0.22366305701421, -1.2084358861883, 1.24096161590193, -1.20263142055956], a = 0.2, v = 0.2, t = 0.2)
movej(p[0.474594928684336, -0.0225008393063232, 0.22308087133982, -1.20895993910717, 1.26383047803979, -1.19620016333743], a = 0.2, v = 0.2, t = 0.2)
movej(p[0.474023159004973, -0.0228122743385007, 0.22323023838603, -1.21576190863378, 1.28857885246259, -1.17253712495727], a = 0.2, v = 0.2, t = 0.2)
movej(p[0.473520597912193, -0.0229524681633017, 0.223696995602912, -1.20826183704166, 1.29304152120994, -1.17398893658789], a = 0.2, v = 0.2, t = 0.2)
movej(p[0.47341533393034, -0.0227783702504549, 0.224562034680912, -1.20222099227325, 1.2858235467303, -1.19044548314135], a = 0.2, v = 0.2, t = 0.2)
movej(p[0.473921460230979, -0.0225455834929883, 0.224428327577697, -1.19368542209382, 1.26762550058252, -1.20922280727104], a = 0.2, v = 0.2, t = 0.2)
movej(p[0.474404061440725, -0.0223984866690519, 0.224637199372678, -1.19314944497234, 1.25732849451437, -1.20835306397139], a = 0.2, v = 0.2, t = 0.2)
movej(p[0.474659149479517, -0.022311346718183, 0.224698097106034, -1.18716043499356, 1.23848769887136, -1.21838757258921], a = 0.2, v = 0.2, t = 0.2)
movej(p[0.475019519621295, -0.0220483550498425, 0.224750450060094, -1.18283681797658, 1.22416133115399, -1.22508348218925], a = 0.2, v = 0.2, t = 0.2)
movej(p[0.475446124207932, -0.021968481877179, 0.224569609393625, -1.18565421511716, 1.21846890597522, -1.21342062065417], a = 0.2, v = 0.2, t = 0.2)
movej(p[0.475672436988465, -0.0220257460025667, 0.22414927104347, -1.18153678502814, 1.2181435088653, -1.20933853272742], a = 0.2, v = 0.2, t = 0.2)
movej(p[0.475711115002992, -0.0221073357245914, 0.224028566107564, -1.1740595446598, 1.21537701110058, -1.21241642611518], a = 0.2, v = 0.2, t = 0.2)
movej(p[0.476083953132294, -0.0219764920636097, 0.223522254859496, -1.17337179204601, 1.21151104508964, -1.21842997703805], a = 0.2, v = 0.2, t = 0.2)
movej(p[0.476390358770395, -0.0219171216309469, 0.223102656157294, -1.18460119573243, 1.22307352143143, -1.19744343614428], a = 0.2, v = 0.2, t = 0.2)
movej(p[0.476386785719709, -0.0221181362186199, 0.222575767315196, -1.1899106967544, 1.23332591832287, -1.18916563016147], a = 0.2, v = 0.2, t = 0.2)
movej(p[0.476095365992376, -0.022397267821459, 0.222341714119017, -1.1908489151499, 1.24762617122368, -1.19069955198718], a = 0.2, v = 0.2, t = 0.2)
movej(p[0.476030054986081, -0.0227428519879717, 0.22197932368204, -1.19750384688978, 1.2540851618781, -1.18387671132671], a = 0.2, v = 0.2, t = 0.2)
movej(p[0.475905213633013, -0.0230006149190582, 0.221942551132196, -1.20398926011125, 1.26301753106976, -1.1716569181344], a = 0.2, v = 0.2, t = 0.2)
movej(p[0.475742928183904, -0.0230631661659474, 0.222220998515771, -1.19708646267285, 1.25705903971751, -1.18026009184516], a = 0.2, v = 0.2, t = 0.2)
movej(p[0.475756499786783, -0.0228454236017342, 0.222255217278536, -1.18416899651009, 1.24382611320962, -1.20532762067529], a = 0.2, v = 0.2, t = 0.2)
movej(p[0.476144893674229, -0.0226660365046393, 0.222139300109443, -1.18667926984241, 1.23801088525528, -1.2028833552015], a = 0.2, v = 0.2, t = 0.2)
movej(p[0.476429198334888, -0.0226769044988389, 0.221920312372276, -1.18815991757361, 1.23655938190508, -1.19409474613405], a = 0.2, v = 0.2, t = 0.2)
movej(p[0.476488337315522, -0.0227876729913771, 0.221800714151008, -1.18243956675304, 1.22860303630052, -1.20031056609525], a = 0.2, v = 0.2, t = 0.2)
movej(p[0.476669014265102, -0.0228032723461431, 0.221091302251177, -1.18621803663601, 1.23050390636437, -1.20212374692815], a = 0.2, v = 0.2, t = 0.2)
movej(p[0.476664086923467, -0.0229738176532522, 0.220414652117706, -1.20234133916188, 1.24173375214062, -1.18310906466926], a = 0.2, v = 0.2, t = 0.2)
movej(p[0.476187302529801, -0.0233253218302985, 0.220384241751456, -1.21900536064216, 1.26443894752544, -1.16132134736813], a = 0.2, v = 0.2, t = 0.2)
movej(p[0.475283394519985, -0.0236201157600998, 0.220683454858863, -1.2185163299697, 1.28368806165597, -1.16229049135006], a = 0.2, v = 0.2, t = 0.2)
movej(p[0.474524736957842, -0.0237183159397897, 0.220938299376386, -1.21565734513582, 1.29767782643135, -1.16512309650351], a = 0.2, v = 0.2, t = 0.2)
movej(p[0.473956002665582, -0.0237786217022369, 0.221054988963854, -1.21317927729156, 1.30499787660157, -1.17258512110933], a = 0.2, v = 0.2, t = 0.2)
movej(p[0.473745259386132, -0.0238024126100924, 0.221731331926314, -1.2091573109545, 1.2979069962714, -1.18548133298081], a = 0.2, v = 0.2, t = 0.2)
movej(p[0.474055320350301, -0.0235329148290054, 0.222222981724939, -1.19470888665025, 1.27511608587242, -1.21426547984159], a = 0.2, v = 0.2, t = 0.2)
movej(p[0.474855302628222, -0.0231500266882906, 0.222534486518984, -1.19081367669044, 1.25990678053456, -1.20799132498658], a = 0.2, v = 0.2, t = 0.2)
movej(p[0.475492953605978, -0.0228639132853166, 0.222493303619564, -1.1854099657776, 1.25184816633632, -1.19505118144065], a = 0.2, v = 0.2, t = 0.2)
movej(p[0.475739471521828, -0.0228927438885654, 0.222869229362738, -1.18516687208169, 1.24137147325802, -1.19748030472098], a = 0.2, v = 0.2, t = 0.2)
movej(p[0.476039553242121, -0.0226878107419045, 0.222697075634502, -1.17944739935496, 1.23488661620223, -1.21072955300277], a = 0.2, v = 0.2, t = 0.2)
movej(p[0.476456328549846, -0.0226712821836856, 0.222389054012317, -1.19096148628719, 1.23148085708059, -1.20062003530286], a = 0.2, v = 0.2, t = 0.2)
movej(p[0.476651038434941, -0.0225927864397991, 0.22182269585599, -1.19375450379969, 1.24202299113219, -1.18307975131938], a = 0.2, v = 0.2, t = 0.2)
movej(p[0.476375023144916, -0.0229262431910328, 0.221474354384108, -1.1996143687643, 1.24739549673966, -1.18322875869552], a = 0.2, v = 0.2, t = 0.2)
movej(p[0.475977684523737, -0.0231285729196775, 0.220950758003477, -1.20055089801186, 1.26370387324266, -1.18061464491991], a = 0.2, v = 0.2, t = 0.2)
movej(p[0.475476994908758, -0.0234648805818247, 0.220652710212287, -1.21243815625761, 1.28163537960824, -1.1685531925934], a = 0.2, v = 0.2, t = 0.2)
movej(p[0.474762794604142, -0.0236543730259406, 0.22081482326207, -1.21448831333184, 1.29869595293222, -1.15609475303708], a = 0.2, v = 0.2, t = 0.2)
movej(p[0.474152599487016, -0.0236831127307263, 0.221549564929872, -1.20587453431847, 1.30539924458573, -1.17289190887529], a = 0.2, v = 0.2, t = 0.2)
movej(p[0.474194678140748, -0.0235468549123389, 0.221797569877057, -1.1964401466828, 1.29919226111747, -1.19730007349082], a = 0.2, v = 0.2, t = 0.2)
movej(p[0.47461268960741, -0.0234357623243515, 0.222089877096662, -1.19591283195207, 1.29087763155075, -1.19408987900227], a = 0.2, v = 0.2, t = 0.2)
movej(p[0.475094660455103, -0.0232973474209368, 0.22230199186863, -1.18711482528702, 1.27286345193626, -1.19906787165593], a = 0.2, v = 0.2, t = 0.2)
movej(p[0.475443276845565, -0.0230381563432546, 0.222792683873814, -1.17714825134832, 1.25747388998603, -1.20299476616849], a = 0.2, v = 0.2, t = 0.2)
movej(p[0.476030835577475, -0.0228182911135257, 0.222716422826669, -1.17523330135095, 1.24931158363296, -1.20405125966059], a = 0.2, v = 0.2, t = 0.2)
movej(p[0.476396252953183, -0.0227059426254754, 0.222267989823766, -1.18091716789401, 1.24839580037181, -1.19073928275426], a = 0.2, v = 0.2, t = 0.2)
movej(p[0.476464848565482, -0.0228192773392065, 0.221807421305382, -1.18487937685127, 1.24616176298334, -1.18617177845462], a = 0.2, v = 0.2, t = 0.2)
movej(p[0.476278751505385, -0.0230037848308929, 0.221338425160852, -1.19086185441141, 1.2541418984539, -1.18971013005614], a = 0.2, v = 0.2, t = 0.2)
movej(p[0.476157079374581, -0.023295351461028, 0.220813125101395, -1.20597628038202, 1.27475915848248, -1.17177656464922], a = 0.2, v = 0.2, t = 0.2)
movej(p[0.475527303233611, -0.023808110057227, 0.220713182868633, -1.2297825831218, 1.29724403004892, -1.14855512885193], a = 0.2, v = 0.2, t = 0.2)
movej(p[0.474307553835652, -0.0241148975942555, 0.220870221679765, -1.23468612178164, 1.31633609970112, -1.13884090949532], a = 0.2, v = 0.2, t = 0.2)
movej(p[0.472687771401882, -0.024440626317619, 0.221263132186148, -1.24435347149818, 1.33061188154521, -1.14755968268585], a = 0.2, v = 0.2, t = 0.2)
movej(p[0.471022776587423, -0.0246021322607011, 0.221460394975782, -1.24353989978112, 1.35271856036647, -1.14540266266909], a = 0.2, v = 0.2, t = 0.2)
movej(p[0.469214192723654, -0.0248946783813442, 0.22210480139646, -1.24857997146382, 1.37641204487588, -1.14689357562779], a = 0.2, v = 0.2, t = 0.2)
movej(p[0.467461226791183, -0.0251098013388315, 0.222743041008798, -1.23912900340186, 1.39671246652608, -1.15376113019789], a = 0.2, v = 0.2, t = 0.2)
movej(p[0.466120604592666, -0.0253066401851503, 0.223512646660689, -1.23844918394642, 1.41398674632258, -1.1576355908766], a = 0.2, v = 0.2, t = 0.2)
movej(p[0.465382200543015, -0.0252818909240912, 0.224139705450307, -1.23430491691413, 1.41854248251548, -1.15989196476198], a = 0.2, v = 0.2, t = 0.2)
movej(p[0.465528536829033, -0.0248137559632931, 0.22580671800919, -1.22667492322934, 1.40664502869788, -1.17576576742064], a = 0.2, v = 0.2, t = 0.2)
movej(p[0.46597796410134, -0.023974177208374, 0.227852971173413, -1.21440482116325, 1.3787461883279, -1.21607355284537], a = 0.2, v = 0.2, t = 0.2)
movej(p[0.466634826446414, -0.0228702350990821, 0.230096187446749, -1.21667503302579, 1.34913383208048, -1.24288110260596], a = 0.2, v = 0.2, t = 0.2)
movej(p[0.467049241658898, -0.0218982118921389, 0.231525602416877, -1.21820184074938, 1.32064122600452, -1.2696805815703], a = 0.2, v = 0.2, t = 0.2)
movej(p[0.467810477704442, -0.0211262689930952, 0.232165533234342, -1.21548385675481, 1.28954434823713, -1.29231656700581], a = 0.2, v = 0.2, t = 0.2)
movej(p[0.469132244100306, -0.0203674789415417, 0.232222523648182, -1.20618415365701, 1.25173034931804, -1.30988818587172], a = 0.2, v = 0.2, t = 0.2)
movej(p[0.470896181546794, -0.0197352741265402, 0.231808280557274, -1.20855363963128, 1.21768365592132, -1.29954252911461], a = 0.2, v = 0.2, t = 0.2)
movej(p[0.471887324204182, -0.0194562665449441, 0.231635152708218, -1.21382701663454, 1.2037730084796, -1.27880140701836], a = 0.2, v = 0.2, t = 0.2)
movej(p[0.472492229645482, -0.0194409890350825, 0.231394675381268, -1.21415696330469, 1.18842924452099, -1.27623978413537], a = 0.2, v = 0.2, t = 0.2)
movej(p[0.472926716088109, -0.0194614594012438, 0.23082197988165, -1.21213400781635, 1.18432505821606, -1.27845832396806], a = 0.2, v = 0.2, t = 0.2)
movej(p[0.47366883710333, -0.0195306727158428, 0.229538236708017, -1.21009347014943, 1.19068976526993, -1.26504929736637], a = 0.2, v = 0.2, t = 0.2)
movej(p[0.473663413954491, -0.0199171681565552, 0.228343081373441, -1.21783288927865, 1.21238830356928, -1.23663293867609], a = 0.2, v = 0.2, t = 0.2)
movej(p[0.47276430997798, -0.0205808776938372, 0.227810678741927, -1.22023308878731, 1.23751640086137, -1.22591565179408], a = 0.2, v = 0.2, t = 0.2)
movej(p[0.471457770560948, -0.0211946470668879, 0.227776682575262, -1.2314313165276, 1.26121208130946, -1.21937254941194], a = 0.2, v = 0.2, t = 0.2)
movej(p[0.470265186394295, -0.0217653925295853, 0.227896133453695, -1.24114894648739, 1.28687202232229, -1.21567061946738], a = 0.2, v = 0.2, t = 0.2)
movej(p[0.46891915513689, -0.0222572183778413, 0.228124026235451, -1.24410407181944, 1.31058379740238, -1.2161594347612], a = 0.2, v = 0.2, t = 0.2)
movej(p[0.467483416043803, -0.0226631045513282, 0.228365971540744, -1.24054181577841, 1.32423623067073, -1.22820647418359], a = 0.2, v = 0.2, t = 0.2)
movej(p[0.466650958241472, -0.0226896100285598, 0.228444375348147, -1.23227021807243, 1.33300010199838, -1.24050935797289], a = 0.2, v = 0.2, t = 0.2)
movej(p[0.46670447242589, -0.0225030007766658, 0.228434045334899, -1.22525465431399, 1.32838730106474, -1.25098576775018], a = 0.2, v = 0.2, t = 0.2)
movej(p[0.467397120590745, -0.0222059384729722, 0.228920342473949, -1.22046900650903, 1.31817570298995, -1.25677629752361], a = 0.2, v = 0.2, t = 0.2)
movej(p[0.468666449607519, -0.0216234293471992, 0.229266116984237, -1.20820912430443, 1.29054983029285, -1.27458461244066], a = 0.2, v = 0.2, t = 0.2)
movej(p[0.470274850387319, -0.0209986545312337, 0.22941545961525, -1.20511235677763, 1.2641450092768, -1.26948397771102], a = 0.2, v = 0.2, t = 0.2)
movej(p[0.471593283646025, -0.0203870473302486, 0.229449694457812, -1.20185064986782, 1.23911835374106, -1.25921394301113], a = 0.2, v = 0.2, t = 0.2)
movej(p[0.472361773908324, -0.0199729906711594, 0.229664265239176, -1.19764306965479, 1.21596897127107, -1.25840912540435], a = 0.2, v = 0.2, t = 0.2)
movej(p[0.472844765045294, -0.0196224580525295, 0.229977599445552, -1.19307359432498, 1.19703341157722, -1.26421895851613], a = 0.2, v = 0.2, t = 0.2)
movej(p[0.473587292593937, -0.0195735455842034, 0.229423264754278, -1.19700515800433, 1.18150379641745, -1.2656036630646], a = 0.2, v = 0.2, t = 0.2)
movej(p[0.473925394363422, -0.0197867498723955, 0.228755629378518, -1.20786785560363, 1.1884107587546, -1.24217253267803], a = 0.2, v = 0.2, t = 0.2)
movej(p[0.473599520938073, -0.0202942070714152, 0.227959054711952, -1.21463261127245, 1.20684950508522, -1.22028425325857], a = 0.2, v = 0.2, t = 0.2)
movej(p[0.472875131006366, -0.0207955631893039, 0.227346626408559, -1.21798348866048, 1.23474080541895, -1.21391341156265], a = 0.2, v = 0.2, t = 0.2)
movej(p[0.472072108379878, -0.0213188182884843, 0.227065932718871, -1.22591024114652, 1.25838383922089, -1.20736638097931], a = 0.2, v = 0.2, t = 0.2)
movej(p[0.470929045402899, -0.0217834003247074, 0.227338558199482, -1.23295084089374, 1.28298206506693, -1.20934131755417], a = 0.2, v = 0.2, t = 0.2)
movej(p[0.469372713984027, -0.0221539100739475, 0.22783074656256, -1.2361766421629, 1.30248065254383, -1.2117432067002], a = 0.2, v = 0.2, t = 0.2)
movej(p[0.468050516394757, -0.022282676603445, 0.227938436514791, -1.23316980763128, 1.31787438657813, -1.22123093880297], a = 0.2, v = 0.2, t = 0.2)
movej(p[0.467085789929272, -0.0224564512385329, 0.227837583339368, -1.22707251384912, 1.32515210111847, -1.23264791193027], a = 0.2, v = 0.2, t = 0.2)
movej(p[0.466817078119881, -0.0224557164191453, 0.227842755721246, -1.21812134606342, 1.32514012999067, -1.25033800921591], a = 0.2, v = 0.2, t = 0.2)
movej(p[0.467283954809507, -0.0223187456824251, 0.22813634411333, -1.20900302958034, 1.31642923323068, -1.26495169586967], a = 0.2, v = 0.2, t = 0.2)
movej(p[0.468716863279488, -0.0219488368574451, 0.228338083178358, -1.20733728741869, 1.3016579655641, -1.26615116666902], a = 0.2, v = 0.2, t = 0.2)
movej(p[0.470186676229138, -0.0214610274280864, 0.228713307859411, -1.20891820327129, 1.27926727962373, -1.25139819089538], a = 0.2, v = 0.2, t = 0.2)
movej(p[0.471366504412712, -0.0208693945722738, 0.229240730766352, -1.20103042899959, 1.247777168542, -1.25523644562837], a = 0.2, v = 0.2, t = 0.2)
movej(p[0.47216326509918, -0.0202267156547595, 0.22985340455156, -1.19744069278036, 1.21681685515313, -1.26707857784188], a = 0.2, v = 0.2, t = 0.2)
movej(p[0.472953710260271, -0.0199999592096675, 0.22966277756497, -1.20131638614393, 1.19645774450242, -1.26444604408865], a = 0.2, v = 0.2, t = 0.2)
movej(p[0.473224986051861, -0.0201165152067624, 0.229114694755498, -1.21404567393653, 1.19728306980383, -1.25046253831339], a = 0.2, v = 0.2, t = 0.2)
movej(p[0.47276500845858, -0.0206577693987469, 0.228067477550025, -1.22357964463265, 1.20901333532094, -1.23381146622582], a = 0.2, v = 0.2, t = 0.2)
movej(p[0.471807400433141, -0.0210969524614806, 0.227403589025405, -1.23068015705861, 1.24781076627337, -1.2136360412704], a = 0.2, v = 0.2, t = 0.2)
movej(p[0.470657613516989, -0.0217795042647548, 0.226970502217832, -1.23681482471554, 1.27601466540405, -1.20356973600313], a = 0.2, v = 0.2, t = 0.2)
movej(p[0.469432015449636, -0.0222289687676033, 0.227360560611384, -1.23934698380806, 1.30621183457774, -1.1984716979208], a = 0.2, v = 0.2, t = 0.2)
movej(p[0.468171844530078, -0.0226346070643808, 0.227702513891363, -1.23572760741591, 1.31534121011414, -1.2169160059683], a = 0.2, v = 0.2, t = 0.2)
movej(p[0.467581135536849, -0.0226322941419132, 0.228007135255858, -1.2346921126144, 1.32196771710977, -1.23331632994706], a = 0.2, v = 0.2, t = 0.2)
movej(p[0.467873324880273, -0.0224309343388751, 0.228110285812374, -1.23018811312972, 1.3140567439017, -1.24040399287514], a = 0.2, v = 0.2, t = 0.2)
movej(p[0.468698253879606, -0.022033737438755, 0.228289473287088, -1.21994462713354, 1.29752575498447, -1.25218982843834], a = 0.2, v = 0.2, t = 0.2)
movej(p[0.469875947901582, -0.0214141500580429, 0.228434742285385, -1.20364564153847, 1.27188422481052, -1.26662877501391], a = 0.2, v = 0.2, t = 0.2)
movej(p[0.471280187915285, -0.0208066328822958, 0.228418896491426, -1.19529925145278, 1.24995674570696, -1.26719775495944], a = 0.2, v = 0.2, t = 0.2)
movej(p[0.472297769349639, -0.020265553204526, 0.228909100550226, -1.19769068046306, 1.23977763323386, -1.2484682990416], a = 0.2, v = 0.2, t = 0.2)
movej(p[0.472943154750374, -0.0199060000592704, 0.229492369967523, -1.19424493420289, 1.22138194361247, -1.23804938503625], a = 0.2, v = 0.2, t = 0.2)
movej(p[0.473237411432213, -0.0196111991682952, 0.229800150798429, -1.18929722553727, 1.20439241326908, -1.24819703952509], a = 0.2, v = 0.2, t = 0.2)
movej(p[0.473998669112953, -0.0195705372039372, 0.229480605483696, -1.19148815541312, 1.18562033044037, -1.24755429200319], a = 0.2, v = 0.2, t = 0.2)
movej(p[0.474402411212982, -0.0197441808395258, 0.229054424061665, -1.19818253215742, 1.17993784475257, -1.24259553743174], a = 0.2, v = 0.2, t = 0.2)
movej(p[0.474464169377888, -0.0199428574050066, 0.228934881385619, -1.19806202933609, 1.1776108722602, -1.23869311840097], a = 0.2, v = 0.2, t = 0.2)
movej(p[0.474495318912326, -0.0201106597843461, 0.228297001608865, -1.18838580664865, 1.17511368098304, -1.25340991902912], a = 0.2, v = 0.2, t = 0.2)
movej(p[0.474764245002357, -0.0203377651668586, 0.227902880995683, -1.18837042266649, 1.18573018519079, -1.23735986651494], a = 0.2, v = 0.2, t = 0.2)
movej(p[0.474847836474968, -0.0208036482861867, 0.227426049575544, -1.18829163088054, 1.19631121079726, -1.23225026786422], a = 0.2, v = 0.2, t = 0.2)
movej(p[0.474783491537218, -0.0210942450751478, 0.227375485154821, -1.18515550362964, 1.20476879154283, -1.23059298586286], a = 0.2, v = 0.2, t = 0.2)
movej(p[0.474864491660687, -0.0213089272307448, 0.227048765726201, -1.18339574322795, 1.20203641985159, -1.24781729493513], a = 0.2, v = 0.2, t = 0.2)
movej(p[0.475122361129296, -0.0212049409996137, 0.226622726107745, -1.18434611744208, 1.2059923630111, -1.2318167718296], a = 0.2, v = 0.2, t = 0.2)
movej(p[0.475166054812357, -0.0212582150329921, 0.226137492296239, -1.18569389186439, 1.20985145795669, -1.2200212572465], a = 0.2, v = 0.2, t = 0.2)
movej(p[0.474855535929234, -0.0212833942111234, 0.225474179558224, -1.18856148662885, 1.2257207245286, -1.21030964329111], a = 0.2, v = 0.2, t = 0.2)
movej(p[0.4742872638675, -0.0217187469978528, 0.224543311269668, -1.2010719744279, 1.24991521951661, -1.20004675106372], a = 0.2, v = 0.2, t = 0.2)
movej(p[0.472975932984634, -0.0224112388448474, 0.22420309164709, -1.22385496165784, 1.28590823322891, -1.17753914721534], a = 0.2, v = 0.2, t = 0.2)
movej(p[0.470885782881262, -0.0232340413124285, 0.224536170501293, -1.23438709704645, 1.31851047885813, -1.17485050258563], a = 0.2, v = 0.2, t = 0.2)
movej(p[0.468939996465753, -0.0235587578245456, 0.225487707666293, -1.23571754428179, 1.34654002786859, -1.17533816295275], a = 0.2, v = 0.2, t = 0.2)
movej(p[0.467637571198242, -0.0236213294153623, 0.226152693869889, -1.23155276028102, 1.36478959881469, -1.18236721974133], a = 0.2, v = 0.2, t = 0.2)
movej(p[0.466886001734048, -0.0236011099899699, 0.226845456286109, -1.22888794121482, 1.37171416014468, -1.19268448385327], a = 0.2, v = 0.2, t = 0.2)
movej(p[0.466517464048094, -0.0236744779169236, 0.22724918203625, -1.22239672909603, 1.36189583388549, -1.22149083642991], a = 0.2, v = 0.2, t = 0.2)
movej(p[0.46714627728714, -0.0232777918028091, 0.227648120210995, -1.2171911298391, 1.34281692948134, -1.24472654607774], a = 0.2, v = 0.2, t = 0.2)
movej(p[0.468509985306409, -0.0225695218689652, 0.228187273917273, -1.21342056251865, 1.31792613961931, -1.24875819152666], a = 0.2, v = 0.2, t = 0.2)
movej(p[0.470135960570579, -0.0216351985575206, 0.229037985732461, -1.20812299657415, 1.28599107668344, -1.25062228079297], a = 0.2, v = 0.2, t = 0.2)
movej(p[0.471301886308502, -0.0208413963880654, 0.229665144265064, -1.20179445770748, 1.25384489653881, -1.25811487026257], a = 0.2, v = 0.2, t = 0.2)
movej(p[0.472484560926227, -0.0202613847314876, 0.229688625253586, -1.1980683884997, 1.2238540224496, -1.26060341031199], a = 0.2, v = 0.2, t = 0.2)
movej(p[0.473196152333309, -0.0199556319704931, 0.229695214381835, -1.19608831076254, 1.20628521714589, -1.25252178202095], a = 0.2, v = 0.2, t = 0.2)
movej(p[0.473656700158843, -0.0197852572637966, 0.229653311998682, -1.18937559357929, 1.19209701212481, -1.25634669449202], a = 0.2, v = 0.2, t = 0.2)
movej(p[0.473937472364151, -0.019646527813789, 0.229607753921163, -1.18064895971944, 1.17845485688135, -1.26055418690059], a = 0.2, v = 0.2, t = 0.2)
movej(p[0.474516682870423, -0.0195766919919668, 0.229169434862241, -1.18015906364095, 1.17316958409077, -1.25719578919316], a = 0.2, v = 0.2, t = 0.2)
movej(p[0.474847771052754, -0.0197713226168189, 0.228571289331963, -1.19086971708562, 1.17510260487131, -1.24167525227915], a = 0.2, v = 0.2, t = 0.2)
movej(p[0.474638928611508, -0.0201590870060155, 0.227939077026163, -1.20119239525137, 1.18797661425012, -1.22615404285692], a = 0.2, v = 0.2, t = 0.2)
movej(p[0.474100222048893, -0.020615326101104, 0.227128046066453, -1.21115980060384, 1.20968176631779, -1.21812603685204], a = 0.2, v = 0.2, t = 0.2)
movej(p[0.473596890882485, -0.0212865621785524, 0.226428598258783, -1.22126187431654, 1.23135936140847, -1.20712811165808], a = 0.2, v = 0.2, t = 0.2)
movej(p[0.472713801455672, -0.0219629344253499, 0.226389605334901, -1.23028867640736, 1.25660714499473, -1.20517823137963], a = 0.2, v = 0.2, t = 0.2)
movej(p[0.471746312777305, -0.0223403913314551, 0.226514690709206, -1.22583672869497, 1.26520985988586, -1.22049608433914], a = 0.2, v = 0.2, t = 0.2)
movej(p[0.471471241612867, -0.0222159983828383, 0.226684218668047, -1.21684554739232, 1.26928784757591, -1.23540345306755], a = 0.2, v = 0.2, t = 0.2)
movej(p[0.471904644802577, -0.0219878510588908, 0.226683458520395, -1.21035182256812, 1.26130071413947, -1.23617639066919], a = 0.2, v = 0.2, t = 0.2)
movej(p[0.472716616317473, -0.0216450079640316, 0.227168698637559, -1.19910472841149, 1.2501650197585, -1.23566642501673], a = 0.2, v = 0.2, t = 0.2)
movej(p[0.473329197679224, -0.0210476597440452, 0.227678274907135, -1.18078834181593, 1.23016330752962, -1.24293337780599], a = 0.2, v = 0.2, t = 0.2)
movej(p[0.474074043653247, -0.020522852512057, 0.227864924093354, -1.16834429528642, 1.21566839995324, -1.25341961623794], a = 0.2, v = 0.2, t = 0.2)
movej(p[0.474596974612982, -0.0203624204276306, 0.227776416662946, -1.17029529883918, 1.2066464516151, -1.24181029797168], a = 0.2, v = 0.2, t = 0.2)
movej(p[0.474825811313668, -0.0205930763133032, 0.227759027056172, -1.17813626629694, 1.19696692898539, -1.23615100506092], a = 0.2, v = 0.2, t = 0.2)
movej(p[0.474908913285364, -0.0206560872093674, 0.227559139032075, -1.18281259919807, 1.18912424780677, -1.24213971438113], a = 0.2, v = 0.2, t = 0.2)
movej(p[0.475325023649935, -0.0209251173602575, 0.226478463708674, -1.19453832537092, 1.19073834351533, -1.23446326291673], a = 0.2, v = 0.2, t = 0.2)
movej(p[0.475347106201124, -0.021332699575547, 0.225668306125785, -1.2103008941898, 1.20607222682921, -1.21585915303923], a = 0.2, v = 0.2, t = 0.2)
movej(p[0.474724641462781, -0.0217919464338113, 0.225114088108902, -1.21666060978747, 1.227568287134, -1.19891591596829], a = 0.2, v = 0.2, t = 0.2)
movej(p[0.473728786908111, -0.0220480826810768, 0.225275179889084, -1.21630675792202, 1.25198517079859, -1.19959574452594], a = 0.2, v = 0.2, t = 0.2)
movej(p[0.472969958077233, -0.0222178289812393, 0.225180410302789, -1.21580270459504, 1.27123297041703, -1.20155249845459], a = 0.2, v = 0.2, t = 0.2)
movej(p[0.472456970317143, -0.0225090436131332, 0.225403215612834, -1.21453699823143, 1.28385304778993, -1.20343264317108], a = 0.2, v = 0.2, t = 0.2)
movej(p[0.472391786252059, -0.0224671356550078, 0.225743045344913, -1.2013928968325, 1.2725233843391, -1.21989673883641], a = 0.2, v = 0.2, t = 0.2)
movej(p[0.472991491986817, -0.0219867182361001, 0.226025115982713, -1.18337411337529, 1.25501732591846, -1.24315727605061], a = 0.2, v = 0.2, t = 0.2)
movej(p[0.473934685611351, -0.0214917333784507, 0.226072736013549, -1.1774219681316, 1.23393203461702, -1.2380800773366], a = 0.2, v = 0.2, t = 0.2)
movej(p[0.474505078054911, -0.0213848242637113, 0.2264117091836, -1.18049825511987, 1.22119410677633, -1.2311241866622], a = 0.2, v = 0.2, t = 0.2)
movej(p[0.474762500828381, -0.0213036084916419, 0.22670799633902, -1.1773527265429, 1.20650533877908, -1.23712776998418], a = 0.2, v = 0.2, t = 0.2)
movej(p[0.475132950915835, -0.0211239020516323, 0.226589735835131, -1.17384451364471, 1.20138019832048, -1.24733867756242], a = 0.2, v = 0.2, t = 0.2)
movej(p[0.475565362658599, -0.0209931542927275, 0.226120463989945, -1.18070390783788, 1.20125009375641, -1.23263309435484], a = 0.2, v = 0.2, t = 0.2)
movej(p[0.475665994827783, -0.0211965496498753, 0.225638609992584, -1.19130803871803, 1.20490292179605, -1.21181620813007], a = 0.2, v = 0.2, t = 0.2)
movej(p[0.475396114850964, -0.0214555893240768, 0.22523975148534, -1.19656890046244, 1.21437576566905, -1.20672193085662], a = 0.2, v = 0.2, t = 0.2)
movej(p[0.475209248165821, -0.0217044344360204, 0.224440097290362, -1.20101227670891, 1.2319951627768, -1.19834504374372], a = 0.2, v = 0.2, t = 0.2)
movej(p[0.474749211869182, -0.0220597131558743, 0.224055189522327, -1.20954392576434, 1.25709262594544, -1.18583187539547], a = 0.2, v = 0.2, t = 0.2)
movej(p[0.4740517792723, -0.0223498457587229, 0.224169465312285, -1.2122516345613, 1.27064241968918, -1.18365276055497], a = 0.2, v = 0.2, t = 0.2)
movej(p[0.473606194837901, -0.0223808026395992, 0.224555025033013, -1.2012960253978, 1.27097190629178, -1.20996456291424], a = 0.2, v = 0.2, t = 0.2)
movej(p[0.473832081354929, -0.0221456428995003, 0.224525916735888, -1.1907256147488, 1.26038680781278, -1.21880386487327], a = 0.2, v = 0.2, t = 0.2)
movej(p[0.474250026491588, -0.0220916409882441, 0.224696833784841, -1.18784010958033, 1.25038235972719, -1.21943017812344], a = 0.2, v = 0.2, t = 0.2)
movej(p[0.474650901695786, -0.0219461173440988, 0.225086132702115, -1.18116999079421, 1.23464568154464, -1.22061200094735], a = 0.2, v = 0.2, t = 0.2)
movej(p[0.475048460025756, -0.0216956990875057, 0.225429244876822, -1.17440962797883, 1.22388050115173, -1.23867584945046], a = 0.2, v = 0.2, t = 0.2)
movej(p[0.475657533759761, -0.0214388729011116, 0.225084136571585, -1.17028782282117, 1.21355647646684, -1.2342868911891], a = 0.2, v = 0.2, t = 0.2)
movej(p[0.475979440057148, -0.0214872104653758, 0.224749649900611, -1.17194123486776, 1.20997306340836, -1.22648395715979], a = 0.2, v = 0.2, t = 0.2)
movej(p[0.476039312445911, -0.0215904528829856, 0.22450431291997, -1.16734447022039, 1.20014069506569, -1.22937922314624], a = 0.2, v = 0.2, t = 0.2)
movej(p[0.476312104014842, -0.0215827213826809, 0.224214602237784, -1.17345842183349, 1.20341236699532, -1.22651677033092], a = 0.2, v = 0.2, t = 0.2)
movej(p[0.476690226365902, -0.0216731332475728, 0.223473710812038, -1.18871351617917, 1.21698454949449, -1.20281965568797], a = 0.2, v = 0.2, t = 0.2)
movej(p[0.476448030993337, -0.0220374533735855, 0.223271507973803, -1.20853208502653, 1.24141478972982, -1.17095738386665], a = 0.2, v = 0.2, t = 0.2)
movej(p[0.475686081556984, -0.0224552576314338, 0.223150873022129, -1.21242408577923, 1.25714888666472, -1.16484029956997], a = 0.2, v = 0.2, t = 0.2)
movej(p[0.475022809978438, -0.022672395963628, 0.22315414317269, -1.2117708401318, 1.26867306919027, -1.16753236379008], a = 0.2, v = 0.2, t = 0.2)
movej(p[0.47459995608788, -0.0227801706639415, 0.223097811465697, -1.20788621351221, 1.27765588035106, -1.17223862823783], a = 0.2, v = 0.2, t = 0.2)
movej(p[0.474529858781064, -0.0227474551021422, 0.223475787390318, -1.19761978247087, 1.27724830654825, -1.18290778952949], a = 0.2, v = 0.2, t = 0.2)
movej(p[0.474702394582512, -0.0225804568340461, 0.224033942974068, -1.18540027519752, 1.26159603236005, -1.20771411427475], a = 0.2, v = 0.2, t = 0.2)
movej(p[0.475403849718498, -0.0223134173761251, 0.224089607276015, -1.17906905301151, 1.24442516928493, -1.21761073508539], a = 0.2, v = 0.2, t = 0.2)
movej(p[0.475911200246746, -0.0222324675844771, 0.224126022020537, -1.1860606353071, 1.24028657757223, -1.19857451094243], a = 0.2, v = 0.2, t = 0.2)
movej(p[0.47617532871197, -0.0221564753586358, 0.223947293964345, -1.17754239236163, 1.23051789810233, -1.20040797896999], a = 0.2, v = 0.2, t = 0.2)
movej(p[0.476337394623382, -0.0220145853912367, 0.223887543870465, -1.16910109830912, 1.22306248836179, -1.21301900146683], a = 0.2, v = 0.2, t = 0.2)
movej(p[0.476805553740113, -0.0219841167845255, 0.223224164683833, -1.17573078908622, 1.22384982059237, -1.21760128857781], a = 0.2, v = 0.2, t = 0.2)
movej(p[0.476959205775485, -0.0221835818926369, 0.222862535598067, -1.19591024291903, 1.23805472614888, -1.18842279100692], a = 0.2, v = 0.2, t = 0.2)
movej(p[0.476485868101171, -0.0225858199020081, 0.222455386690674, -1.20940869654987, 1.24962143662299, -1.17212877199417], a = 0.2, v = 0.2, t = 0.2)
movej(p[0.475736371474365, -0.0228486273382543, 0.22226368705489, -1.21058859146334, 1.26222050234499, -1.17426341515424], a = 0.2, v = 0.2, t = 0.2)
movej(p[0.475215474509448, -0.0229642325593083, 0.221857062207634, -1.20481350560647, 1.27159202883523, -1.18236983377351], a = 0.2, v = 0.2, t = 0.2)
movej(p[0.474959219104169, -0.0231076781975042, 0.222147105180566, -1.20211935233878, 1.28114982666681, -1.18537395113811], a = 0.2, v = 0.2, t = 0.2)
movej(p[0.474972351238166, -0.0230378946442543, 0.222639986649839, -1.18406479084986, 1.26681850985049, -1.20402615100285], a = 0.2, v = 0.2, t = 0.2)
movej(p[0.475304338902395, -0.0227803659029274, 0.223051147288873, -1.1723523122717, 1.25283426238991, -1.2263745672279], a = 0.2, v = 0.2, t = 0.2)
movej(p[0.475918977858321, -0.0225143814294642, 0.222855411435911, -1.1746375316508, 1.24280575633026, -1.21951157568853], a = 0.2, v = 0.2, t = 0.2)
movej(p[0.476239462181515, -0.0224953201375121, 0.222856558153281, -1.18227295437229, 1.24123469662274, -1.20094011429429], a = 0.2, v = 0.2, t = 0.2)
movej(p[0.476357976030599, -0.0224544468777709, 0.222853624313738, -1.1802154073572, 1.2347097479873, -1.2045711869099], a = 0.2, v = 0.2, t = 0.2)
movej(p[0.476632250260827, -0.0223085657271317, 0.222599411292559, -1.17611411245988, 1.22446954305885, -1.21298715336201], a = 0.2, v = 0.2, t = 0.2)
movej(p[0.477075489137578, -0.0222946850728527, 0.221884458240622, -1.18659227455924, 1.22308171704319, -1.2037267408698], a = 0.2, v = 0.2, t = 0.2)
movej(p[0.477063261850258, -0.0225195530665, 0.22163057556737, -1.20024531080387, 1.23517753552974, -1.1812971504276], a = 0.2, v = 0.2, t = 0.2)
movej(p[0.476580139010862, -0.0229008437102851, 0.22163880338696, -1.20781320555469, 1.25134692361044, -1.17846207498703], a = 0.2, v = 0.2, t = 0.2)
movej(p[0.476015518219254, -0.0231317245198472, 0.22152807106846, -1.20989179173964, 1.27167909542853, -1.17877845666791], a = 0.2, v = 0.2, t = 0.2)
movej(p[0.47566428263263, -0.0234686082908175, 0.221292274233142, -1.21577156970374, 1.28075410505514, -1.17112331373011], a = 0.2, v = 0.2, t = 0.2)
movej(p[0.475390083966811, -0.023688376309597, 0.221412263087561, -1.21275776819244, 1.28304509473611, -1.16830092658118], a = 0.2, v = 0.2, t = 0.2)
movej(p[0.475331223420575, -0.0236473574876047, 0.221933724912472, -1.20568893311804, 1.26984863826569, -1.18948690641151], a = 0.2, v = 0.2, t = 0.2)
movej(p[0.475896318640027, -0.0233082170860307, 0.221860201910138, -1.19343579388039, 1.25732357265714, -1.20854290350726], a = 0.2, v = 0.2, t = 0.2)
movej(p[0.476383632233481, -0.0231538008704517, 0.221683641147083, -1.19588920061604, 1.24927569199864, -1.20079459528872], a = 0.2, v = 0.2, t = 0.2)
movej(p[0.476753513610986, -0.0230290025913161, 0.221638861219563, -1.18687205823619, 1.2431632323058, -1.19429452595205], a = 0.2, v = 0.2, t = 0.2)
movej(p[0.476816189007462, -0.0228321109773701, 0.221708101160596, -1.17622986787825, 1.23619437037431, -1.20101854813211], a = 0.2, v = 0.2, t = 0.2)
movej(p[0.477161357746155, -0.0225924671206555, 0.221169568875428, -1.17127855236366, 1.23600831678742, -1.20352629833468], a = 0.2, v = 0.2, t = 0.2)
movej(p[0.477443490342176, -0.0225946865793316, 0.22043022367164, -1.1785171389413, 1.23949082778152, -1.19296614059996], a = 0.2, v = 0.2, t = 0.2)
movej(p[0.47744019109762, -0.0228049335687148, 0.220322089271745, -1.18575423517224, 1.24378424879386, -1.17595855726344], a = 0.2, v = 0.2, t = 0.2)
movej(p[0.477187822640742, -0.0230395755572104, 0.220125599874301, -1.1865978521426, 1.24382372397887, -1.18698589103244], a = 0.2, v = 0.2, t = 0.2)
movej(p[0.477077595983318, -0.0233063286797134, 0.21968710089126, -1.19606967926394, 1.25203226280219, -1.186382007849], a = 0.2, v = 0.2, t = 0.2)
movej(p[0.476791660844877, -0.0235898109555725, 0.21911307731441, -1.20630253793555, 1.26284926901666, -1.17202946664872], a = 0.2, v = 0.2, t = 0.2)
movej(p[0.476438442429663, -0.0238859778238764, 0.219271073903528, -1.20448578497346, 1.26489716121467, -1.17766222771895], a = 0.2, v = 0.2, t = 0.2)
movej(p[0.476207930108296, -0.0237421831375841, 0.21975761112656, -1.1872213464533, 1.26151477376989, -1.19877867609698], a = 0.2, v = 0.2, t = 0.2)
movej(p[0.476426451338659, -0.0234641759570539, 0.219792597664522, -1.1772979486799, 1.26212451257509, -1.21018723895902], a = 0.2, v = 0.2, t = 0.2)
movej(p[0.47672610756509, -0.0232682286007146, 0.219779691402285, -1.18099973441726, 1.26681537238351, -1.19207606963455], a = 0.2, v = 0.2, t = 0.2)
movej(p[0.476852972518271, -0.0233447222699405, 0.219944579681804, -1.17981947310393, 1.26294177030806, -1.1862674845429], a = 0.2, v = 0.2, t = 0.2)
movej(p[0.476984580606438, -0.0233136253757085, 0.220207630425764, -1.17622594637875, 1.25312044033444, -1.19977678926334], a = 0.2, v = 0.2, t = 0.2)
movej(p[0.477381582744466, -0.0232435860636369, 0.219832588240449, -1.17757289361001, 1.24829427032787, -1.19854173675823], a = 0.2, v = 0.2, t = 0.2)
movej(p[0.477617287599026, -0.0232119005113494, 0.219481367999983, -1.18494778892363, 1.25660912946543, -1.17740890911296], a = 0.2, v = 0.2, t = 0.2)
movej(p[0.477653140151331, -0.0232533600516991, 0.219155458087573, -1.17911012580032, 1.26161008228387, -1.17245552939216], a = 0.2, v = 0.2, t = 0.2)
movej(p[0.47753003945226, -0.0233798449232698, 0.21905611738518, -1.17720322615845, 1.26900174794327, -1.17718799772121], a = 0.2, v = 0.2, t = 0.2)
movej(p[0.477547983172229, -0.0235626140962332, 0.218660787292311, -1.18634537224146, 1.28452842845822, -1.16634505799373], a = 0.2, v = 0.2, t = 0.2)
movej(p[0.477306119812783, -0.0238753128062472, 0.218400120369566, -1.19918969009576, 1.29657422436643, -1.14362867339018], a = 0.2, v = 0.2, t = 0.2)
movej(p[0.476831336823943, -0.0242051043617671, 0.218843111100638, -1.20428627508937, 1.29639954346314, -1.14790807119106], a = 0.2, v = 0.2, t = 0.2)
movej(p[0.476589267509341, -0.0242493198444598, 0.219126479557101, -1.19057472349337, 1.28162855649883, -1.18047247652668], a = 0.2, v = 0.2, t = 0.2)
movej(p[0.476811220143137, -0.0241786162928232, 0.219124033389282, -1.19279852606263, 1.27877074102391, -1.17787301510526], a = 0.2, v = 0.2, t = 0.2)
movej(p[0.477088805079278, -0.0240119511381152, 0.218770420222342, -1.188206120104, 1.27828861656988, -1.16696009173144], a = 0.2, v = 0.2, t = 0.2)
movej(p[0.477217269653711, -0.0239193362561183, 0.218526041133121, -1.17712011015187, 1.26738488088981, -1.17660338749662], a = 0.2, v = 0.2, t = 0.2)
movej(p[0.477396036277855, -0.0238405753903149, 0.218453752391189, -1.17068898987489, 1.26071535252877, -1.19826847344131], a = 0.2, v = 0.2, t = 0.2)
movej(p[0.477746259960055, -0.0238128541783461, 0.218090318137392, -1.17856588372424, 1.2606345291432, -1.18715887287284], a = 0.2, v = 0.2, t = 0.2)
movej(p[0.477859940590099, -0.0239270230258477, 0.217842161919229, -1.1892038359186, 1.27122293229689, -1.1675474555535], a = 0.2, v = 0.2, t = 0.2)
movej(p[0.477737071544449, -0.0240485236965136, 0.217563593445333, -1.18934628957697, 1.27212193165098, -1.16907537714898], a = 0.2, v = 0.2, t = 0.2)
movej(p[0.477609223368785, -0.0241164673845037, 0.217293439712725, -1.18373639285651, 1.27708329801662, -1.18284841423253], a = 0.2, v = 0.2, t = 0.2)
movej(p[0.477676611577593, -0.024182704863502, 0.216753226332949, -1.19249973026005, 1.29031737532398, -1.16594988612004], a = 0.2, v = 0.2, t = 0.2)
movej(p[0.477483485094691, -0.0243246761496327, 0.216561700758896, -1.19919414899929, 1.30467384276988, -1.13961420364665], a = 0.2, v = 0.2, t = 0.2)
movej(p[0.476875137480389, -0.0245370410878777, 0.217253884897748, -1.20307377087949, 1.31225929607771, -1.13002931396998], a = 0.2, v = 0.2, t = 0.2)
movej(p[0.476428636039686, -0.0245422290111034, 0.217769882792416, -1.19510261380246, 1.31559845694043, -1.14865102633773], a = 0.2, v = 0.2, t = 0.2)
movej(p[0.476340571939551, -0.0245622614867998, 0.217874782386987, -1.19728928377305, 1.31420232038938, -1.14956601881751], a = 0.2, v = 0.2, t = 0.2)
movej(p[0.476582050752336, -0.0245874770241853, 0.217683168997929, -1.19393283729486, 1.30248519492301, -1.15879784657856], a = 0.2, v = 0.2, t = 0.2)
