def moving():
set_payload_mass(0)
set_tcp(p[0,0,0,0,0,0])
movej(p[0.4155, 0.0836, 0.3521, -1.218, 1.04, -1.028], a = 0.2, v = 0.2, t = 0.2)
movej(p[0.415482977271179, 0.0835745914990498, 0.35246271288202, -1.218, 1.04, -1.028], a = 0.2, v = 0.2, t = 0.2)
movej(p[0.415434387668856, 0.0835020655856232, 0.353498038938114, -1.218, 1.04, -1.028], a = 0.2, v = 0.2, t = 0.2)
movej(p[0.41536129281955, 0.0833929625994001, 0.355055512110083, -1.218, 1.04, -1.028], a = 0.2, v = 0.2, t = 0.2)
movej(p[0.415274308545902, 0.0832631279516875, 0.356908935078644, -1.218, 1.04, -1.028], a = 0.2, v = 0.2, t = 0.2)
movej(p[0.41518620189453, 0.0831316180181979, 0.358786273182284, -1.218, 1.04, -1.028], a = 0.2, v = 0.2, t = 0.2)
movej(p[0.415109693146312, 0.08301741937107, 0.360416488223449, -1.218, 1.04, -1.028], a = 0.2, v = 0.2, t = 0.2)
movej(p[0.415056006078491, 0.0829372848680732, 0.361560428851356, -1.218, 1.04, -1.028], a = 0.2, v = 0.2, t = 0.2)
movej(p[0.415032903803662, 0.0829028019024979, 0.362052682048383, -1.218, 1.04, -1.028], a = 0.2, v = 0.2, t = 0.2)
movej(p[0.415043800220737, 0.082919066135249, 0.361820505945332, -1.218, 1.04, -1.028], a = 0.2, v = 0.2, t = 0.2)
movej(p[0.415087058528868, 0.0829836344412351, 0.360898776780859, -1.218, 1.04, -1.028], a = 0.2, v = 0.2, t = 0.2)
movej(p[0.415156412119093, 0.083087153141535, 0.359421020725818, -1.218, 1.04, -1.028], a = 0.2, v = 0.2, t = 0.2)
movej(p[0.415241712826154, 0.0832144748605823, 0.357603470459874, -1.218, 1.04, -1.028], a = 0.2, v = 0.2, t = 0.2)
movej(p[0.41533061449508, 0.0833471714548305, 0.355709192468887, -1.218, 1.04, -1.028], a = 0.2, v = 0.2, t = 0.2)
movej(p[0.415410116250564, 0.0834658375306969, 0.35401520373418, -1.218, 1.04, -1.028], a = 0.2, v = 0.2, t = 0.2)
movej(p[0.415468666955192, 0.0835532316053938, 0.352767630854267, -1.218, 1.04, -1.028], a = 0.2, v = 0.2, t = 0.2)
movej(p[0.415497708478813, 0.0835965796248721, 0.352148826734118, -1.218, 1.04, -1.028], a = 0.2, v = 0.2, t = 0.2)
movej(p[0.415493031904961, 0.0835895992674682, 0.352248473130277, -1.218, 1.04, -1.028], a = 0.2, v = 0.2, t = 0.2)
movej(p[0.415455338719713, 0.0835333375867927, 0.353051623083321, -1.218, 1.04, -1.028], a = 0.2, v = 0.2, t = 0.2)
movej(p[0.415390100514478, 0.0834359616010082, 0.354441690309742, -1.218, 1.04, -1.028], a = 0.2, v = 0.2, t = 0.2)
movej(p[0.415306763968435, 0.0833115716320706, 0.356217389089299, -1.218, 1.04, -1.028], a = 0.2, v = 0.2, t = 0.2)
movej(p[0.415217534939339, 0.0831783864128041, 0.358118642328017, -1.218, 1.04, -1.028], a = 0.2, v = 0.2, t = 0.2)
movej(p[0.415135414302498, 0.0830558113367915, 0.359868433044573, -1.218, 1.04, -1.028], a = 0.2, v = 0.2, t = 0.2)
movej(p[0.415072327321234, 0.0829616463154128, 0.361212662928761, -1.218, 1.04, -1.028], a = 0.2, v = 0.2, t = 0.2)
movej(p[0.415037440080298, 0.0829095728491796, 0.361956025044109, -1.218, 1.04, -1.028], a = 0.2, v = 0.2, t = 0.2)
movej(p[0.415035896810927, 0.0829072693312364, 0.361988908354841, -1.218, 1.04, -1.028], a = 0.2, v = 0.2, t = 0.2)
movej(p[0.415067884576075, 0.0829550149758791, 0.361307327005112, -1.218, 1.04, -1.028], a = 0.2, v = 0.2, t = 0.2)
movej(p[0.415128726801889, 0.0830458294257039, 0.360010927391081, -1.218, 1.04, -1.028], a = 0.2, v = 0.2, t = 0.2)
movej(p[0.415209584763791, 0.0831665198052174, 0.358288041201488, -1.218, 1.04, -1.028], a = 0.2, v = 0.2, t = 0.2)
movej(p[0.41529872026141, 0.0832995654173359, 0.356388780890693, -1.218, 1.04, -1.028], a = 0.2, v = 0.2, t = 0.2)
movej(p[0.4153830856537, 0.0834254910649023, 0.354591159903981, -1.218, 1.04, -1.028], a = 0.2, v = 0.2, t = 0.2)
movej(p[0.415450428317169, 0.0835260082115186, 0.353156251799288, -1.218, 1.04, -1.028], a = 0.2, v = 0.2, t = 0.2)
movej(p[0.415490927446727, 0.0835864581066364, 0.352293314008549, -1.218, 1.04, -1.028], a = 0.2, v = 0.2, t = 0.2)
movej(p[0.41549873732506, 0.0835981153035009, 0.352126904526963, -1.218, 1.04, -1.028], a = 0.2, v = 0.2, t = 0.2)
movej(p[0.415472642042966, 0.0835591649091871, 0.352682931417531, -1.218, 1.04, -1.028], a = 0.2, v = 0.2, t = 0.2)
movej(p[0.415416476391003, 0.0834753308167662, 0.353879684635404, -1.218, 1.04, -1.028], a = 0.2, v = 0.2, t = 0.2)
movej(p[0.415338424373413, 0.083358828651695, 0.355542782987301, -1.218, 1.04, -1.028], a = 0.2, v = 0.2, t = 0.2)
movej(p[0.415249850064656, 0.0832266206824651, 0.357430085730557, -1.218, 1.04, -1.028], a = 0.2, v = 0.2, t = 0.2)
movej(p[0.415163660808564, 0.0830979726955111, 0.359266568811771, -1.218, 1.04, -1.028], a = 0.2, v = 0.2, t = 0.2)
movej(p[0.415092389823059, 0.0829915920486755, 0.360785179889238, -1.218, 1.04, -1.028], a = 0.2, v = 0.2, t = 0.2)
movej(p[0.415046465867833, 0.0829230449389692, 0.361763707499521, -1.218, 1.04, -1.028], a = 0.2, v = 0.2, t = 0.2)
movej(p[0.415032482912015, 0.0829021736703315, 0.362061650224037, -1.218, 1.04, -1.028], a = 0.2, v = 0.2, t = 0.2)
movej(p[0.41505254541384, 0.0829321194035943, 0.361634167184514, -1.218, 1.04, -1.028], a = 0.2, v = 0.2, t = 0.2)
movej(p[0.41510375389752, 0.083008554317167, 0.360543039146571, -1.218, 1.04, -1.028], a = 0.2, v = 0.2, t = 0.2)
movej(p[0.415178579079152, 0.0831202400356295, 0.358948696808023, -1.218, 1.04, -1.028], a = 0.2, v = 0.2, t = 0.2)
movej(p[0.4152661713074, 0.0832509821298047, 0.357082319807961, -1.218, 1.04, -1.028], a = 0.2, v = 0.2, t = 0.2)
movej(p[0.415353763535648, 0.0833817242239799, 0.355215942807899, -1.218, 1.04, -1.028], a = 0.2, v = 0.2, t = 0.2)
movej(p[0.41542858871728, 0.0834934099424424, 0.353621600469351, -1.218, 1.04, -1.028], a = 0.2, v = 0.2, t = 0.2)
movej(p[0.415479797200959, 0.0835698448560151, 0.352530472431408, -1.218, 1.04, -1.028], a = 0.2, v = 0.2, t = 0.2)
movej(p[0.415499859702784, 0.0835997905892779, 0.352102989391885, -1.218, 1.04, -1.028], a = 0.2, v = 0.2, t = 0.2)
movej(p[0.415485876746967, 0.0835789193206402, 0.352400932116401, -1.218, 1.04, -1.028], a = 0.2, v = 0.2, t = 0.2)
movej(p[0.41543995279174, 0.0835103722109338, 0.353379459726684, -1.218, 1.04, -1.028], a = 0.2, v = 0.2, t = 0.2)
movej(p[0.415368681806236, 0.0834039915640983, 0.354898070804151, -1.218, 1.04, -1.028], a = 0.2, v = 0.2, t = 0.2)
movej(p[0.415282492550143, 0.0832753435771443, 0.356734553885365, -1.218, 1.04, -1.028], a = 0.2, v = 0.2, t = 0.2)
movej(p[0.415193918241386, 0.0831431356079143, 0.358621856628621, -1.218, 1.04, -1.028], a = 0.2, v = 0.2, t = 0.2)
movej(p[0.415115866223796, 0.0830266334428432, 0.360284954980518, -1.218, 1.04, -1.028], a = 0.2, v = 0.2, t = 0.2)
movej(p[0.415059700571834, 0.0829427993504222, 0.361481708198391, -1.218, 1.04, -1.028], a = 0.2, v = 0.2, t = 0.2)
movej(p[0.41503360528974, 0.0829038489561084, 0.362037735088959, -1.218, 1.04, -1.028], a = 0.2, v = 0.2, t = 0.2)
movej(p[0.415041415168072, 0.082915506152973, 0.361871325607373, -1.218, 1.04, -1.028], a = 0.2, v = 0.2, t = 0.2)
movej(p[0.415081914297631, 0.0829759560480908, 0.361008387816634, -1.218, 1.04, -1.028], a = 0.2, v = 0.2, t = 0.2)
movej(p[0.4151492569611, 0.083076473194707, 0.359573479711942, -1.218, 1.04, -1.028], a = 0.2, v = 0.2, t = 0.2)
movej(p[0.41523362235339, 0.0832023988422735, 0.357775858725229, -1.218, 1.04, -1.028], a = 0.2, v = 0.2, t = 0.2)
movej(p[0.415322757851009, 0.0833354444543919, 0.355876598414435, -1.218, 1.04, -1.028], a = 0.2, v = 0.2, t = 0.2)
movej(p[0.41540361581291, 0.0834561348339055, 0.354153712224842, -1.218, 1.04, -1.028], a = 0.2, v = 0.2, t = 0.2)
movej(p[0.415464458038725, 0.0835469492837303, 0.35285731261081, -1.218, 1.04, -1.028], a = 0.2, v = 0.2, t = 0.2)
movej(p[0.415496445803872, 0.083594694928373, 0.352175731261081, -1.218, 1.04, -1.028], a = 0.2, v = 0.2, t = 0.2)
movej(p[0.415494902534501, 0.0835923914104297, 0.352208614571814, -1.218, 1.04, -1.028], a = 0.2, v = 0.2, t = 0.2)
movej(p[0.415460015293565, 0.0835403179441966, 0.352951976687161, -1.218, 1.04, -1.028], a = 0.2, v = 0.2, t = 0.2)
movej(p[0.415396928312302, 0.0834461529228179, 0.354296206571349, -1.218, 1.04, -1.028], a = 0.2, v = 0.2, t = 0.2)
movej(p[0.415314807675461, 0.0833235778468053, 0.356045997287905, -1.218, 1.04, -1.028], a = 0.2, v = 0.2, t = 0.2)
movej(p[0.415225578646364, 0.0831903926275388, 0.357947250526623, -1.218, 1.04, -1.028], a = 0.2, v = 0.2, t = 0.2)
movej(p[0.415142242100322, 0.0830660026586012, 0.35972294930618, -1.218, 1.04, -1.028], a = 0.2, v = 0.2, t = 0.2)
movej(p[0.415077003895086, 0.0829686266728167, 0.361113016532602, -1.218, 1.04, -1.028], a = 0.2, v = 0.2, t = 0.2)
movej(p[0.415039310709839, 0.0829123649921412, 0.361916166485645, -1.218, 1.04, -1.028], a = 0.2, v = 0.2, t = 0.2)
movej(p[0.415034634135987, 0.0829053846347373, 0.362015812881804, -1.218, 1.04, -1.028], a = 0.2, v = 0.2, t = 0.2)
movej(p[0.415063675659608, 0.0829487326542156, 0.361397008761655, -1.218, 1.04, -1.028], a = 0.2, v = 0.2, t = 0.2)
movej(p[0.415122226364235, 0.0830361267289125, 0.360149435881742, -1.218, 1.04, -1.028], a = 0.2, v = 0.2, t = 0.2)
movej(p[0.415201728119719, 0.0831547928047789, 0.358455447147035, -1.218, 1.04, -1.028], a = 0.2, v = 0.2, t = 0.2)
movej(p[0.415290629788646, 0.0832874893990271, 0.356561169156048, -1.218, 1.04, -1.028], a = 0.2, v = 0.2, t = 0.2)
movej(p[0.415375930495706, 0.0834148111180744, 0.354743618890104, -1.218, 1.04, -1.028], a = 0.2, v = 0.2, t = 0.2)
movej(p[0.415445284085932, 0.0835183298183743, 0.353265862835063, -1.218, 1.04, -1.028], a = 0.2, v = 0.2, t = 0.2)
movej(p[0.415488542394063, 0.0835828981243604, 0.35234413367059, -1.218, 1.04, -1.028], a = 0.2, v = 0.2, t = 0.2)
movej(p[0.415499438811138, 0.0835991623571115, 0.352111957567539, -1.218, 1.04, -1.028], a = 0.2, v = 0.2, t = 0.2)
movej(p[0.415476336536309, 0.0835646793915362, 0.352604210764566, -1.218, 1.04, -1.028], a = 0.2, v = 0.2, t = 0.2)
movej(p[0.415422649468488, 0.0834845448885394, 0.353748151392474, -1.218, 1.04, -1.028], a = 0.2, v = 0.2, t = 0.2)
movej(p[0.415346140720269, 0.0833703462414115, 0.355378366433638, -1.218, 1.04, -1.028], a = 0.2, v = 0.2, t = 0.2)
movej(p[0.415258034068897, 0.0832388363079219, 0.357255704537278, -1.218, 1.04, -1.028], a = 0.2, v = 0.2, t = 0.2)
movej(p[0.41517104979525, 0.0831090016602092, 0.35910912750584, -1.218, 1.04, -1.028], a = 0.2, v = 0.2, t = 0.2)
movej(p[0.415097954945943, 0.0829998986739862, 0.360666600677808, -1.218, 1.04, -1.028], a = 0.2, v = 0.2, t = 0.2)
movej(p[0.415049365343621, 0.0829273727605596, 0.361701926733903, -1.218, 1.04, -1.028], a = 0.2, v = 0.2, t = 0.2)
movej(p[0.415032342614799, 0.0829019642596094, 0.362064639615922, -1.218, 1.04, -1.028], a = 0.2, v = 0.2, t = 0.2)
movej(p[0.415049365343621, 0.0829273727605596, 0.361701926733903, -1.218, 1.04, -1.028], a = 0.2, v = 0.2, t = 0.2)
movej(p[0.415097954945943, 0.0829998986739862, 0.360666600677808, -1.218, 1.04, -1.028], a = 0.2, v = 0.2, t = 0.2)
movej(p[0.41517104979525, 0.0831090016602092, 0.35910912750584, -1.218, 1.04, -1.028], a = 0.2, v = 0.2, t = 0.2)
movej(p[0.415258034068897, 0.0832388363079219, 0.357255704537278, -1.218, 1.04, -1.028], a = 0.2, v = 0.2, t = 0.2)
movej(p[0.415346140720269, 0.0833703462414115, 0.355378366433638, -1.218, 1.04, -1.028], a = 0.2, v = 0.2, t = 0.2)
movej(p[0.415422649468488, 0.0834845448885394, 0.353748151392474, -1.218, 1.04, -1.028], a = 0.2, v = 0.2, t = 0.2)
movej(p[0.415476336536309, 0.0835646793915362, 0.352604210764566, -1.218, 1.04, -1.028], a = 0.2, v = 0.2, t = 0.2)
movej(p[0.415499438811138, 0.0835991623571115, 0.352111957567539, -1.218, 1.04, -1.028], a = 0.2, v = 0.2, t = 0.2)
movej(p[0.415488542394063, 0.0835828981243604, 0.35234413367059, -1.218, 1.04, -1.028], a = 0.2, v = 0.2, t = 0.2)
movej(p[0.415445284085932, 0.0835183298183743, 0.353265862835063, -1.218, 1.04, -1.028], a = 0.2, v = 0.2, t = 0.2)
movej(p[0.415375930495706, 0.0834148111180744, 0.354743618890104, -1.218, 1.04, -1.028], a = 0.2, v = 0.2, t = 0.2)
movej(p[0.415290629788646, 0.0832874893990271, 0.356561169156048, -1.218, 1.04, -1.028], a = 0.2, v = 0.2, t = 0.2)
movej(p[0.415201728119719, 0.0831547928047789, 0.358455447147035, -1.218, 1.04, -1.028], a = 0.2, v = 0.2, t = 0.2)
movej(p[0.415122226364235, 0.0830361267289125, 0.360149435881742, -1.218, 1.04, -1.028], a = 0.2, v = 0.2, t = 0.2)
movej(p[0.415063675659608, 0.0829487326542156, 0.361397008761655, -1.218, 1.04, -1.028], a = 0.2, v = 0.2, t = 0.2)
movej(p[0.415034634135987, 0.0829053846347373, 0.362015812881804, -1.218, 1.04, -1.028], a = 0.2, v = 0.2, t = 0.2)
movej(p[0.415039310709839, 0.0829123649921412, 0.361916166485645, -1.218, 1.04, -1.028], a = 0.2, v = 0.2, t = 0.2)
movej(p[0.415077003895086, 0.0829686266728167, 0.361113016532602, -1.218, 1.04, -1.028], a = 0.2, v = 0.2, t = 0.2)
movej(p[0.415142242100322, 0.0830660026586012, 0.35972294930618, -1.218, 1.04, -1.028], a = 0.2, v = 0.2, t = 0.2)
movej(p[0.415225578646364, 0.0831903926275388, 0.357947250526623, -1.218, 1.04, -1.028], a = 0.2, v = 0.2, t = 0.2)
movej(p[0.415314807675461, 0.0833235778468053, 0.356045997287905, -1.218, 1.04, -1.028], a = 0.2, v = 0.2, t = 0.2)
movej(p[0.415396928312302, 0.0834461529228179, 0.354296206571349, -1.218, 1.04, -1.028], a = 0.2, v = 0.2, t = 0.2)
movej(p[0.415460015293565, 0.0835403179441966, 0.352951976687161, -1.218, 1.04, -1.028], a = 0.2, v = 0.2, t = 0.2)
movej(p[0.415494902534501, 0.0835923914104297, 0.352208614571814, -1.218, 1.04, -1.028], a = 0.2, v = 0.2, t = 0.2)
movej(p[0.415496445803872, 0.083594694928373, 0.352175731261081, -1.218, 1.04, -1.028], a = 0.2, v = 0.2, t = 0.2)
movej(p[0.415464458038725, 0.0835469492837303, 0.35285731261081, -1.218, 1.04, -1.028], a = 0.2, v = 0.2, t = 0.2)
movej(p[0.41540361581291, 0.0834561348339055, 0.354153712224842, -1.218, 1.04, -1.028], a = 0.2, v = 0.2, t = 0.2)
movej(p[0.415322757851009, 0.0833354444543919, 0.355876598414435, -1.218, 1.04, -1.028], a = 0.2, v = 0.2, t = 0.2)
movej(p[0.41523362235339, 0.0832023988422735, 0.357775858725229, -1.218, 1.04, -1.028], a = 0.2, v = 0.2, t = 0.2)
movej(p[0.4151492569611, 0.083076473194707, 0.359573479711942, -1.218, 1.04, -1.028], a = 0.2, v = 0.2, t = 0.2)
movej(p[0.415081914297631, 0.0829759560480908, 0.361008387816634, -1.218, 1.04, -1.028], a = 0.2, v = 0.2, t = 0.2)
movej(p[0.415041415168072, 0.082915506152973, 0.361871325607373, -1.218, 1.04, -1.028], a = 0.2, v = 0.2, t = 0.2)
movej(p[0.41503360528974, 0.0829038489561084, 0.362037735088959, -1.218, 1.04, -1.028], a = 0.2, v = 0.2, t = 0.2)
movej(p[0.415059700571834, 0.0829427993504222, 0.361481708198391, -1.218, 1.04, -1.028], a = 0.2, v = 0.2, t = 0.2)
movej(p[0.415115866223796, 0.0830266334428432, 0.360284954980518, -1.218, 1.04, -1.028], a = 0.2, v = 0.2, t = 0.2)
movej(p[0.415193918241386, 0.0831431356079143, 0.358621856628621, -1.218, 1.04, -1.028], a = 0.2, v = 0.2, t = 0.2)
movej(p[0.415282492550143, 0.0832753435771443, 0.356734553885365, -1.218, 1.04, -1.028], a = 0.2, v = 0.2, t = 0.2)
movej(p[0.415368681806236, 0.0834039915640983, 0.354898070804151, -1.218, 1.04, -1.028], a = 0.2, v = 0.2, t = 0.2)
movej(p[0.41543995279174, 0.0835103722109338, 0.353379459726684, -1.218, 1.04, -1.028], a = 0.2, v = 0.2, t = 0.2)
movej(p[0.415485876746967, 0.0835789193206402, 0.352400932116401, -1.218, 1.04, -1.028], a = 0.2, v = 0.2, t = 0.2)
movej(p[0.415499859702784, 0.0835997905892779, 0.352102989391885, -1.218, 1.04, -1.028], a = 0.2, v = 0.2, t = 0.2)
movej(p[0.415479797200959, 0.0835698448560151, 0.352530472431408, -1.218, 1.04, -1.028], a = 0.2, v = 0.2, t = 0.2)
movej(p[0.41542858871728, 0.0834934099424424, 0.353621600469351, -1.218, 1.04, -1.028], a = 0.2, v = 0.2, t = 0.2)
movej(p[0.415353763535648, 0.0833817242239799, 0.355215942807899, -1.218, 1.04, -1.028], a = 0.2, v = 0.2, t = 0.2)
movej(p[0.4152661713074, 0.0832509821298047, 0.357082319807961, -1.218, 1.04, -1.028], a = 0.2, v = 0.2, t = 0.2)
movej(p[0.415178579079152, 0.0831202400356295, 0.358948696808023, -1.218, 1.04, -1.028], a = 0.2, v = 0.2, t = 0.2)
movej(p[0.41510375389752, 0.083008554317167, 0.360543039146571, -1.218, 1.04, -1.028], a = 0.2, v = 0.2, t = 0.2)
movej(p[0.41505254541384, 0.0829321194035943, 0.361634167184514, -1.218, 1.04, -1.028], a = 0.2, v = 0.2, t = 0.2)
movej(p[0.415032482912015, 0.0829021736703315, 0.362061650224037, -1.218, 1.04, -1.028], a = 0.2, v = 0.2, t = 0.2)
movej(p[0.415046465867833, 0.0829230449389692, 0.361763707499521, -1.218, 1.04, -1.028], a = 0.2, v = 0.2, t = 0.2)
movej(p[0.415092389823059, 0.0829915920486755, 0.360785179889238, -1.218, 1.04, -1.028], a = 0.2, v = 0.2, t = 0.2)
movej(p[0.415163660808564, 0.0830979726955111, 0.359266568811771, -1.218, 1.04, -1.028], a = 0.2, v = 0.2, t = 0.2)
movej(p[0.415249850064656, 0.0832266206824651, 0.357430085730557, -1.218, 1.04, -1.028], a = 0.2, v = 0.2, t = 0.2)
movej(p[0.415338424373413, 0.083358828651695, 0.355542782987301, -1.218, 1.04, -1.028], a = 0.2, v = 0.2, t = 0.2)
movej(p[0.415416476391003, 0.0834753308167662, 0.353879684635404, -1.218, 1.04, -1.028], a = 0.2, v = 0.2, t = 0.2)
movej(p[0.415472642042966, 0.0835591649091871, 0.352682931417531, -1.218, 1.04, -1.028], a = 0.2, v = 0.2, t = 0.2)
movej(p[0.41549873732506, 0.0835981153035009, 0.352126904526963, -1.218, 1.04, -1.028], a = 0.2, v = 0.2, t = 0.2)
movej(p[0.415490927446727, 0.0835864581066364, 0.352293314008549, -1.218, 1.04, -1.028], a = 0.2, v = 0.2, t = 0.2)
movej(p[0.415450428317169, 0.0835260082115186, 0.353156251799288, -1.218, 1.04, -1.028], a = 0.2, v = 0.2, t = 0.2)
movej(p[0.4153830856537, 0.0834254910649023, 0.354591159903981, -1.218, 1.04, -1.028], a = 0.2, v = 0.2, t = 0.2)
movej(p[0.41529872026141, 0.0832995654173359, 0.356388780890693, -1.218, 1.04, -1.028], a = 0.2, v = 0.2, t = 0.2)
movej(p[0.415209584763791, 0.0831665198052174, 0.358288041201488, -1.218, 1.04, -1.028], a = 0.2, v = 0.2, t = 0.2)
movej(p[0.415128726801889, 0.0830458294257039, 0.360010927391081, -1.218, 1.04, -1.028], a = 0.2, v = 0.2, t = 0.2)
movej(p[0.415067884576075, 0.0829550149758791, 0.361307327005112, -1.218, 1.04, -1.028], a = 0.2, v = 0.2, t = 0.2)
movej(p[0.415035896810927, 0.0829072693312364, 0.361988908354841, -1.218, 1.04, -1.028], a = 0.2, v = 0.2, t = 0.2)
movej(p[0.415037440080298, 0.0829095728491796, 0.361956025044109, -1.218, 1.04, -1.028], a = 0.2, v = 0.2, t = 0.2)
movej(p[0.415072327321234, 0.0829616463154128, 0.361212662928761, -1.218, 1.04, -1.028], a = 0.2, v = 0.2, t = 0.2)
movej(p[0.415135414302498, 0.0830558113367915, 0.359868433044573, -1.218, 1.04, -1.028], a = 0.2, v = 0.2, t = 0.2)
movej(p[0.415217534939339, 0.0831783864128041, 0.358118642328017, -1.218, 1.04, -1.028], a = 0.2, v = 0.2, t = 0.2)
movej(p[0.415306763968435, 0.0833115716320706, 0.356217389089299, -1.218, 1.04, -1.028], a = 0.2, v = 0.2, t = 0.2)
movej(p[0.415390100514478, 0.0834359616010082, 0.354441690309742, -1.218, 1.04, -1.028], a = 0.2, v = 0.2, t = 0.2)
movej(p[0.415455338719713, 0.0835333375867927, 0.353051623083321, -1.218, 1.04, -1.028], a = 0.2, v = 0.2, t = 0.2)
movej(p[0.415493031904961, 0.0835895992674682, 0.352248473130277, -1.218, 1.04, -1.028], a = 0.2, v = 0.2, t = 0.2)
movej(p[0.415497708478813, 0.0835965796248721, 0.352148826734118, -1.218, 1.04, -1.028], a = 0.2, v = 0.2, t = 0.2)
movej(p[0.415468666955192, 0.0835532316053938, 0.352767630854267, -1.218, 1.04, -1.028], a = 0.2, v = 0.2, t = 0.2)
movej(p[0.415410116250564, 0.0834658375306969, 0.35401520373418, -1.218, 1.04, -1.028], a = 0.2, v = 0.2, t = 0.2)
movej(p[0.41533061449508, 0.0833471714548305, 0.355709192468887, -1.218, 1.04, -1.028], a = 0.2, v = 0.2, t = 0.2)
movej(p[0.415241712826154, 0.0832144748605823, 0.357603470459874, -1.218, 1.04, -1.028], a = 0.2, v = 0.2, t = 0.2)
movej(p[0.415156412119093, 0.083087153141535, 0.359421020725818, -1.218, 1.04, -1.028], a = 0.2, v = 0.2, t = 0.2)
movej(p[0.415087058528868, 0.0829836344412351, 0.360898776780859, -1.218, 1.04, -1.028], a = 0.2, v = 0.2, t = 0.2)
movej(p[0.415043800220737, 0.082919066135249, 0.361820505945332, -1.218, 1.04, -1.028], a = 0.2, v = 0.2, t = 0.2)
movej(p[0.415032903803662, 0.0829028019024979, 0.362052682048383, -1.218, 1.04, -1.028], a = 0.2, v = 0.2, t = 0.2)
movej(p[0.415056006078491, 0.0829372848680732, 0.361560428851356, -1.218, 1.04, -1.028], a = 0.2, v = 0.2, t = 0.2)
movej(p[0.415109693146312, 0.08301741937107, 0.360416488223449, -1.218, 1.04, -1.028], a = 0.2, v = 0.2, t = 0.2)
movej(p[0.41518620189453, 0.0831316180181979, 0.358786273182284, -1.218, 1.04, -1.028], a = 0.2, v = 0.2, t = 0.2)
movej(p[0.415274308545902, 0.0832631279516875, 0.356908935078644, -1.218, 1.04, -1.028], a = 0.2, v = 0.2, t = 0.2)
movej(p[0.41536129281955, 0.0833929625994001, 0.355055512110083, -1.218, 1.04, -1.028], a = 0.2, v = 0.2, t = 0.2)
movej(p[0.415434387668856, 0.0835020655856232, 0.353498038938114, -1.218, 1.04, -1.028], a = 0.2, v = 0.2, t = 0.2)
movej(p[0.415482977271179, 0.0835745914990498, 0.35246271288202, -1.218, 1.04, -1.028], a = 0.2, v = 0.2, t = 0.2)
movej(p[0.4155, 0.0836, 0.3521, -1.218, 1.04, -1.028], a = 0.2, v = 0.2, t = 0.2)
movej(p[0.415482977271179, 0.0835745914990498, 0.35246271288202, -1.218, 1.04, -1.028], a = 0.2, v = 0.2, t = 0.2)
movej(p[0.415434387668856, 0.0835020655856232, 0.353498038938114, -1.218, 1.04, -1.028], a = 0.2, v = 0.2, t = 0.2)
movej(p[0.41536129281955, 0.0833929625994001, 0.355055512110083, -1.218, 1.04, -1.028], a = 0.2, v = 0.2, t = 0.2)
movej(p[0.415274308545902, 0.0832631279516875, 0.356908935078644, -1.218, 1.04, -1.028], a = 0.2, v = 0.2, t = 0.2)
movej(p[0.41518620189453, 0.0831316180181979, 0.358786273182284, -1.218, 1.04, -1.028], a = 0.2, v = 0.2, t = 0.2)
movej(p[0.415109693146312, 0.08301741937107, 0.360416488223449, -1.218, 1.04, -1.028], a = 0.2, v = 0.2, t = 0.2)
movej(p[0.415056006078491, 0.0829372848680732, 0.361560428851356, -1.218, 1.04, -1.028], a = 0.2, v = 0.2, t = 0.2)
movej(p[0.415032903803662, 0.0829028019024979, 0.362052682048383, -1.218, 1.04, -1.028], a = 0.2, v = 0.2, t = 0.2)
movej(p[0.415043800220737, 0.082919066135249, 0.361820505945332, -1.218, 1.04, -1.028], a = 0.2, v = 0.2, t = 0.2)
movej(p[0.415087058528868, 0.0829836344412351, 0.360898776780859, -1.218, 1.04, -1.028], a = 0.2, v = 0.2, t = 0.2)
movej(p[0.415156412119093, 0.083087153141535, 0.359421020725818, -1.218, 1.04, -1.028], a = 0.2, v = 0.2, t = 0.2)
movej(p[0.415241712826154, 0.0832144748605823, 0.357603470459874, -1.218, 1.04, -1.028], a = 0.2, v = 0.2, t = 0.2)
movej(p[0.41533061449508, 0.0833471714548305, 0.355709192468887, -1.218, 1.04, -1.028], a = 0.2, v = 0.2, t = 0.2)
movej(p[0.415410116250564, 0.0834658375306969, 0.35401520373418, -1.218, 1.04, -1.028], a = 0.2, v = 0.2, t = 0.2)
movej(p[0.415468666955192, 0.0835532316053938, 0.352767630854267, -1.218, 1.04, -1.028], a = 0.2, v = 0.2, t = 0.2)
movej(p[0.415497708478813, 0.0835965796248721, 0.352148826734118, -1.218, 1.04, -1.028], a = 0.2, v = 0.2, t = 0.2)
movej(p[0.415493031904961, 0.0835895992674682, 0.352248473130277, -1.218, 1.04, -1.028], a = 0.2, v = 0.2, t = 0.2)
movej(p[0.415455338719713, 0.0835333375867927, 0.353051623083321, -1.218, 1.04, -1.028], a = 0.2, v = 0.2, t = 0.2)
movej(p[0.415390100514478, 0.0834359616010082, 0.354441690309742, -1.218, 1.04, -1.028], a = 0.2, v = 0.2, t = 0.2)
movej(p[0.415306763968435, 0.0833115716320706, 0.356217389089299, -1.218, 1.04, -1.028], a = 0.2, v = 0.2, t = 0.2)
end
def moving():
set_payload_mass(0)
set_tcp(p[0,0,0,0,0,0])
movej(p[0.4155, 0.0836, 0.3521, -1.218, 1.04, -1.028], a = 0.2, v = 0.2, t = 0.2)
movej(p[0.415495323426148, 0.0835930196425961, 0.352199646396159, -1.218, 1.04, -1.028], a = 0.2, v = 0.2, t = 0.2)
movej(p[0.4155, 0.0836, 0.3521, -1.218, 1.04, -1.028], a = 0.2, v = 0.2, t = 0.2)
movej(p[0.415495323426148, 0.0835930196425961, 0.352199646396159, -1.218, 1.04, -1.028], a = 0.2, v = 0.2, t = 0.2)
movej(p[0.4155, 0.0836, 0.3521, -1.218, 1.04, -1.028], a = 0.2, v = 0.2, t = 0.2)
movej(p[0.415495323426148, 0.0835930196425961, 0.352199646396159, -1.218, 1.04, -1.028], a = 0.2, v = 0.2, t = 0.2)
movej(p[0.4155, 0.0836, 0.3521, -1.218, 1.04, -1.028], a = 0.2, v = 0.2, t = 0.2)
movej(p[0.415495323426148, 0.0835930196425961, 0.352199646396159, -1.218, 1.04, -1.028], a = 0.2, v = 0.2, t = 0.2)
movej(p[0.4155, 0.0836, 0.3521, -1.218, 1.04, -1.028], a = 0.2, v = 0.2, t = 0.2)
movej(p[0.415495323426148, 0.0835930196425961, 0.352199646396159, -1.218, 1.04, -1.028], a = 0.2, v = 0.2, t = 0.2)
movej(p[0.4155, 0.0836, 0.3521, -1.218, 1.04, -1.028], a = 0.2, v = 0.2, t = 0.2)
movej(p[0.415531319015087, 0.083646747453534, 0.351432668084922, -1.218, 1.04, -1.028], a = 0.2, v = 0.2, t = 0.2)
movej(p[0.415562642706748, 0.0836935018874253, 0.350765236523447, -1.218, 1.04, -1.028], a = 0.2, v = 0.2, t = 0.2)
movej(p[0.415609866749505, 0.08376398953649, 0.349759007215031, -1.218, 1.04, -1.028], a = 0.2, v = 0.2, t = 0.2)
movej(p[0.415692492456322, 0.0838873184911022, 0.34799845468769, -1.218, 1.04, -1.028], a = 0.2, v = 0.2, t = 0.2)
movej(p[0.415794843951647, 0.0840400905932441, 0.34581759366135, -1.218, 1.04, -1.028], a = 0.2, v = 0.2, t = 0.2)
movej(p[0.415909808166651, 0.0842116887193043, 0.343367986304567, -1.218, 1.04, -1.028], a = 0.2, v = 0.2, t = 0.2)
movej(p[0.416021821463554, 0.0843788822398426, 0.340981255823762, -1.218, 1.04, -1.028], a = 0.2, v = 0.2, t = 0.2)
movej(p[0.416129265747804, 0.0845392559511974, 0.338691879872004, -1.218, 1.04, -1.028], a = 0.2, v = 0.2, t = 0.2)
movej(p[0.41622976064331, 0.0846892568514499, 0.336550578464938, -1.218, 1.04, -1.028], a = 0.2, v = 0.2, t = 0.2)
movej(p[0.416316777652974, 0.0848191403616644, 0.334696457971604, -1.218, 1.04, -1.028], a = 0.2, v = 0.2, t = 0.2)
movej(p[0.416316777652974, 0.0848191403616644, 0.334696457971604, -1.218, 1.04, -1.028], a = 0.2, v = 0.2, t = 0.2)
movej(p[0.416298623193281, 0.0847920426142224, 0.335083285281494, -1.218, 1.04, -1.028], a = 0.2, v = 0.2, t = 0.2)
movej(p[0.416255724981336, 0.0847280117957564, 0.335997341673462, -1.218, 1.04, -1.028], a = 0.2, v = 0.2, t = 0.2)
movej(p[0.416171144466649, 0.0846017650517494, 0.337799546394398, -1.218, 1.04, -1.028], a = 0.2, v = 0.2, t = 0.2)
movej(p[0.416079684711825, 0.0844652502020012, 0.339748330964084, -1.218, 1.04, -1.028], a = 0.2, v = 0.2, t = 0.2)
movej(p[0.4159707158645, 0.0843026008941328, 0.34207019164099, -1.218, 1.04, -1.028], a = 0.2, v = 0.2, t = 0.2)
movej(p[0.415872507813608, 0.0841560133886507, 0.344162765960333, -1.218, 1.04, -1.028], a = 0.2, v = 0.2, t = 0.2)
movej(p[0.415778728478153, 0.0840160362816302, 0.346160975142514, -1.218, 1.04, -1.028], a = 0.2, v = 0.2, t = 0.2)
movej(p[0.415697641364133, 0.0838950038646039, 0.347888744005519, -1.218, 1.04, -1.028], a = 0.2, v = 0.2, t = 0.2)
movej(p[0.415661533537422, 0.0838411085250883, 0.348658113830264, -1.218, 1.04, -1.028], a = 0.2, v = 0.2, t = 0.2)
movej(p[0.415644828815623, 0.0838161746884416, 0.349014050757345, -1.218, 1.04, -1.028], a = 0.2, v = 0.2, t = 0.2)
movej(p[0.415629101497758, 0.0837926997464922, 0.349349161587629, -1.218, 1.04, -1.028], a = 0.2, v = 0.2, t = 0.2)
movej(p[0.415629101497758, 0.0837926997464922, 0.349349161587629, -1.218, 1.04, -1.028], a = 0.2, v = 0.2, t = 0.2)
movej(p[0.415660336334516, 0.0838393215535929, 0.348683623307681, -1.218, 1.04, -1.028], a = 0.2, v = 0.2, t = 0.2)
movej(p[0.415744028300171, 0.0839642420296932, 0.346900351402016, -1.218, 1.04, -1.028], a = 0.2, v = 0.2, t = 0.2)
movej(p[0.415818661742276, 0.0840756415535022, 0.345310094565711, -1.218, 1.04, -1.028], a = 0.2, v = 0.2, t = 0.2)
movej(p[0.415882323942123, 0.0841706651588415, 0.343953608174795, -1.218, 1.04, -1.028], a = 0.2, v = 0.2, t = 0.2)
movej(p[0.415958991693853, 0.0842851011381212, 0.342320005156161, -1.218, 1.04, -1.028], a = 0.2, v = 0.2, t = 0.2)
movej(p[0.416042847339593, 0.0844102659267306, 0.34053324562663, -1.218, 1.04, -1.028], a = 0.2, v = 0.2, t = 0.2)
movej(p[0.416126118413602, 0.0845345581706645, 0.338758941896619, -1.218, 1.04, -1.028], a = 0.2, v = 0.2, t = 0.2)
movej(p[0.416190248270834, 0.0846302798117443, 0.337392490866087, -1.218, 1.04, -1.028], a = 0.2, v = 0.2, t = 0.2)
movej(p[0.416269965148716, 0.0847492669840513, 0.335693918397157, -1.218, 1.04, -1.028], a = 0.2, v = 0.2, t = 0.2)
movej(p[0.416352628268124, 0.0848726517815227, 0.333932568698647, -1.218, 1.04, -1.028], a = 0.2, v = 0.2, t = 0.2)
movej(p[0.416432588327845, 0.0849920019324147, 0.332228814617117, -1.218, 1.04, -1.028], a = 0.2, v = 0.2, t = 0.2)
movej(p[0.416477726618665, 0.0850593763420772, 0.331267027601388, -1.218, 1.04, -1.028], a = 0.2, v = 0.2, t = 0.2)
movej(p[0.416512464209237, 0.0851112264368735, 0.330526854170717, -1.218, 1.04, -1.028], a = 0.2, v = 0.2, t = 0.2)
movej(p[0.416552888513614, 0.0851715646462728, 0.329665510722317, -1.218, 1.04, -1.028], a = 0.2, v = 0.2, t = 0.2)
movej(p[0.416552888513614, 0.0851715646462728, 0.329665510722317, -1.218, 1.04, -1.028], a = 0.2, v = 0.2, t = 0.2)
movej(p[0.416545237638792, 0.08516014478156, 0.329828532226433, -1.218, 1.04, -1.028], a = 0.2, v = 0.2, t = 0.2)
movej(p[0.416508816481633, 0.0851057817580984, 0.330604578359721, -1.218, 1.04, -1.028], a = 0.2, v = 0.2, t = 0.2)
movej(p[0.416453193312237, 0.0850227573871363, 0.331789772595639, -1.218, 1.04, -1.028], a = 0.2, v = 0.2, t = 0.2)
movej(p[0.416379004144649, 0.0849120209972808, 0.333370563024309, -1.218, 1.04, -1.028], a = 0.2, v = 0.2, t = 0.2)
movej(p[0.416293661348424, 0.0847846364550169, 0.335189010107819, -1.218, 1.04, -1.028], a = 0.2, v = 0.2, t = 0.2)
movej(p[0.416233749760806, 0.0846952110963154, 0.336465580089014, -1.218, 1.04, -1.028], a = 0.2, v = 0.2, t = 0.2)
movej(p[0.416164550497518, 0.0845919227478099, 0.337940047812982, -1.218, 1.04, -1.028], a = 0.2, v = 0.2, t = 0.2)
movej(p[0.416087831303475, 0.0844774099845988, 0.339574746941974, -1.218, 1.04, -1.028], a = 0.2, v = 0.2, t = 0.2)
movej(p[0.415977361275943, 0.0843125199820037, 0.341928594112048, -1.218, 1.04, -1.028], a = 0.2, v = 0.2, t = 0.2)
movej(p[0.415868864762577, 0.0841505756902331, 0.344240390502941, -1.218, 1.04, -1.028], a = 0.2, v = 0.2, t = 0.2)
movej(p[0.415819508202143, 0.0840769049981923, 0.345292058568006, -1.218, 1.04, -1.028], a = 0.2, v = 0.2, t = 0.2)
movej(p[0.41574888258383, 0.0839714876406785, 0.346796918442802, -1.218, 1.04, -1.028], a = 0.2, v = 0.2, t = 0.2)
movej(p[0.415691804999966, 0.0838862923785638, 0.348013102707926, -1.218, 1.04, -1.028], a = 0.2, v = 0.2, t = 0.2)
movej(p[0.415691804999966, 0.0838862923785638, 0.348013102707926, -1.218, 1.04, -1.028], a = 0.2, v = 0.2, t = 0.2)
movej(p[0.415719176986722, 0.0839271484104489, 0.347429872351206, -1.218, 1.04, -1.028], a = 0.2, v = 0.2, t = 0.2)
movej(p[0.415746544296904, 0.0839679974619765, 0.346846741640882, -1.218, 1.04, -1.028], a = 0.2, v = 0.2, t = 0.2)
movej(p[0.415809519040395, 0.0840619949547775, 0.345504903270202, -1.218, 1.04, -1.028], a = 0.2, v = 0.2, t = 0.2)
movej(p[0.41589858906598, 0.0841949428418923, 0.343607038008953, -1.218, 1.04, -1.028], a = 0.2, v = 0.2, t = 0.2)
movej(p[0.415995899214693, 0.0843401901187528, 0.341533595797672, -1.218, 1.04, -1.028], a = 0.2, v = 0.2, t = 0.2)
movej(p[0.416084941180835, 0.0844730961237232, 0.339636328414801, -1.218, 1.04, -1.028], a = 0.2, v = 0.2, t = 0.2)
movej(p[0.416168132753088, 0.0845972697015812, 0.337863718673524, -1.218, 1.04, -1.028], a = 0.2, v = 0.2, t = 0.2)
movej(p[0.416225495607957, 0.0846828907654976, 0.336641455978235, -1.218, 1.04, -1.028], a = 0.2, v = 0.2, t = 0.2)
movej(p[0.416225495607957, 0.0846828907654976, 0.336641455978235, -1.218, 1.04, -1.028], a = 0.2, v = 0.2, t = 0.2)
movej(p[0.416158985374634, 0.0845836161224992, 0.338058627024412, -1.218, 1.04, -1.028], a = 0.2, v = 0.2, t = 0.2)
movej(p[0.416040251841105, 0.0844063918283714, 0.340588549376498, -1.218, 1.04, -1.028], a = 0.2, v = 0.2, t = 0.2)
movej(p[0.415939111578408, 0.0842554276387972, 0.342743601986234, -1.218, 1.04, -1.028], a = 0.2, v = 0.2, t = 0.2)
movej(p[0.415833720310079, 0.0840981183043427, 0.344989233170078, -1.218, 1.04, -1.028], a = 0.2, v = 0.2, t = 0.2)
movej(p[0.415750973012342, 0.083974607860438, 0.346752376503719, -1.218, 1.04, -1.028], a = 0.2, v = 0.2, t = 0.2)
movej(p[0.41568814324264, 0.0838808267587165, 0.348091125836118, -1.218, 1.04, -1.028], a = 0.2, v = 0.2, t = 0.2)
movej(p[0.415668225714604, 0.0838510974165333, 0.348515519837361, -1.218, 1.04, -1.028], a = 0.2, v = 0.2, t = 0.2)
movej(p[0.415668225714604, 0.0838510974165333, 0.348515519837361, -1.218, 1.04, -1.028], a = 0.2, v = 0.2, t = 0.2)
movej(p[0.416041832523067, 0.084408751189174, 0.340554868894596, -1.218, 1.04, -1.028], a = 0.2, v = 0.2, t = 0.2)
movej(p[0.416209188394935, 0.0846585502592301, 0.336988922961643, -1.218, 1.04, -1.028], a = 0.2, v = 0.2, t = 0.2)
movej(p[0.416209188394935, 0.0846585502592301, 0.336988922961643, -1.218, 1.04, -1.028], a = 0.2, v = 0.2, t = 0.2)
movej(p[0.416168609763621, 0.0845979816980365, 0.337853554741116, -1.218, 1.04, -1.028], a = 0.2, v = 0.2, t = 0.2)
movej(p[0.416128031132307, 0.0845374131368428, 0.33871818652059, -1.218, 1.04, -1.028], a = 0.2, v = 0.2, t = 0.2)
movej(p[0.416087457177567, 0.0844768515560065, 0.339582718653667, -1.218, 1.04, -1.028], a = 0.2, v = 0.2, t = 0.2)
movej(p[0.416046878546253, 0.0844162829948128, 0.340447350433141, -1.218, 1.04, -1.028], a = 0.2, v = 0.2, t = 0.2)
movej(p[0.41600629991494, 0.0843557144336191, 0.341311982212614, -1.218, 1.04, -1.028], a = 0.2, v = 0.2, t = 0.2)
movej(p[0.4159657259602, 0.0842951528527828, 0.342176514345692, -1.218, 1.04, -1.028], a = 0.2, v = 0.2, t = 0.2)
movej(p[0.415925147328886, 0.0842345842915891, 0.343041146125165, -1.218, 1.04, -1.028], a = 0.2, v = 0.2, t = 0.2)
movej(p[0.415884568697572, 0.0841740157303954, 0.343905777904639, -1.218, 1.04, -1.028], a = 0.2, v = 0.2, t = 0.2)
movej(p[0.415843994742832, 0.0841134541495591, 0.344770310037716, -1.218, 1.04, -1.028], a = 0.2, v = 0.2, t = 0.2)
movej(p[0.415803416111518, 0.0840528855883654, 0.34563494181719, -1.218, 1.04, -1.028], a = 0.2, v = 0.2, t = 0.2)
movej(p[0.415803416111518, 0.0840528855883654, 0.34563494181719, -1.218, 1.04, -1.028], a = 0.2, v = 0.2, t = 0.2)
movej(p[0.415830208203116, 0.0840928760559324, 0.345064067613594, -1.218, 1.04, -1.028], a = 0.2, v = 0.2, t = 0.2)
movej(p[0.41592578334293, 0.084235533620196, 0.343027594215288, -1.218, 1.04, -1.028], a = 0.2, v = 0.2, t = 0.2)
movej(p[0.416029832434563, 0.0843908395920755, 0.340810561547141, -1.218, 1.04, -1.028], a = 0.2, v = 0.2, t = 0.2)
movej(p[0.416099027021277, 0.0844941209602237, 0.339336193469569, -1.218, 1.04, -1.028], a = 0.2, v = 0.2, t = 0.2)
movej(p[0.416128723265237, 0.0845384462297385, 0.338703438853958, -1.218, 1.04, -1.028], a = 0.2, v = 0.2, t = 0.2)
movej(p[0.416217596874721, 0.0846711009418424, 0.336809758741348, -1.218, 1.04, -1.028], a = 0.2, v = 0.2, t = 0.2)
movej(p[0.416339627392815, 0.0848532463879399, 0.33420958567997, -1.218, 1.04, -1.028], a = 0.2, v = 0.2, t = 0.2)
movej(p[0.416377292518619, 0.0849094661864709, 0.333407033605303, -1.218, 1.04, -1.028], a = 0.2, v = 0.2, t = 0.2)
movej(p[0.41640476739, 0.0849504757862189, 0.332821611027868, -1.218, 1.04, -1.028], a = 0.2, v = 0.2, t = 0.2)
movej(p[0.41640476739, 0.0849504757862189, 0.332821611027868, -1.218, 1.04, -1.028], a = 0.2, v = 0.2, t = 0.2)
movej(p[0.416397785265239, 0.0849400541126149, 0.332970383097334, -1.218, 1.04, -1.028], a = 0.2, v = 0.2, t = 0.2)
movej(p[0.416368215288772, 0.08489591731275, 0.333600447260248, -1.218, 1.04, -1.028], a = 0.2, v = 0.2, t = 0.2)
movej(p[0.416325115984152, 0.0848315863389156, 0.334518788447252, -1.218, 1.04, -1.028], a = 0.2, v = 0.2, t = 0.2)
movej(p[0.416289078306049, 0.0847777957047611, 0.335286663576055, -1.218, 1.04, -1.028], a = 0.2, v = 0.2, t = 0.2)
movej(p[0.416247896396708, 0.0847163266774623, 0.336164149740633, -1.218, 1.04, -1.028], a = 0.2, v = 0.2, t = 0.2)
movej(p[0.41617496990406, 0.0846074749841058, 0.33771803564234, -1.218, 1.04, -1.028], a = 0.2, v = 0.2, t = 0.2)
movej(p[0.416120310108878, 0.0845258885667689, 0.338882702720649, -1.218, 1.04, -1.028], a = 0.2, v = 0.2, t = 0.2)
movej(p[0.416054538774223, 0.0844277168202404, 0.340284129636232, -1.218, 1.04, -1.028], a = 0.2, v = 0.2, t = 0.2)
movej(p[0.415985339510935, 0.0843244284717348, 0.3417585973602, -1.218, 1.04, -1.028], a = 0.2, v = 0.2, t = 0.2)
movej(p[0.415920760702613, 0.0842280367163442, 0.343134614444763, -1.218, 1.04, -1.028], a = 0.2, v = 0.2, t = 0.2)
movej(p[0.415920760702613, 0.0842280367163442, 0.343134614444763, -1.218, 1.04, -1.028], a = 0.2, v = 0.2, t = 0.2)
movej(p[0.415915794181182, 0.0842206235767813, 0.343240438917484, -1.218, 1.04, -1.028], a = 0.2, v = 0.2, t = 0.2)
movej(p[0.415891251521606, 0.0841839906611256, 0.343763383204527, -1.218, 1.04, -1.028], a = 0.2, v = 0.2, t = 0.2)
movej(p[0.41589056406525, 0.0841829645485872, 0.343778031224763, -1.218, 1.04, -1.028], a = 0.2, v = 0.2, t = 0.2)
movej(p[0.41589056406525, 0.0841829645485872, 0.343778031224763, -1.218, 1.04, -1.028], a = 0.2, v = 0.2, t = 0.2)
movej(p[0.415884072980744, 0.0841732758125106, 0.343916340422632, -1.218, 1.04, -1.028], a = 0.2, v = 0.2, t = 0.2)
movej(p[0.41588331537578, 0.0841721449946111, 0.343932483138809, -1.218, 1.04, -1.028], a = 0.2, v = 0.2, t = 0.2)
movej(p[0.415883090900235, 0.0841718099374558, 0.343937266165825, -1.218, 1.04, -1.028], a = 0.2, v = 0.2, t = 0.2)
movej(p[0.415859273109606, 0.0841362589771977, 0.344444765261464, -1.218, 1.04, -1.028], a = 0.2, v = 0.2, t = 0.2)
movej(p[0.415830077259048, 0.0840926806059251, 0.345066857712686, -1.218, 1.04, -1.028], a = 0.2, v = 0.2, t = 0.2)
movej(p[0.415785088618592, 0.0840255295676995, 0.346025456043738, -1.218, 1.04, -1.028], a = 0.2, v = 0.2, t = 0.2)
movej(p[0.415785088618592, 0.0840255295676995, 0.346025456043738, -1.218, 1.04, -1.028], a = 0.2, v = 0.2, t = 0.2)
movej(p[0.415790443295653, 0.084033522076927, 0.345911360920135, -1.218, 1.04, -1.028], a = 0.2, v = 0.2, t = 0.2)
movej(p[0.4158784470624, 0.0841648784425537, 0.344036215037211, -1.218, 1.04, -1.028], a = 0.2, v = 0.2, t = 0.2)
movej(p[0.415998770631038, 0.0843444760581988, 0.341472412910431, -1.218, 1.04, -1.028], a = 0.2, v = 0.2, t = 0.2)
movej(p[0.416111466707723, 0.0845126887109181, 0.339071134055786, -1.218, 1.04, -1.028], a = 0.2, v = 0.2, t = 0.2)
movej(p[0.41620081732774, 0.0846460554194771, 0.337167290010768, -1.218, 1.04, -1.028], a = 0.2, v = 0.2, t = 0.2)
movej(p[0.416308355143467, 0.08480656873798, 0.334875921131086, -1.218, 1.04, -1.028], a = 0.2, v = 0.2, t = 0.2)
movej(p[0.416405866384855, 0.0849521161702088, 0.33279819412477, -1.218, 1.04, -1.028], a = 0.2, v = 0.2, t = 0.2)
movej(p[0.416476908218241, 0.0850581547795315, 0.331284465720716, -1.218, 1.04, -1.028], a = 0.2, v = 0.2, t = 0.2)
movej(p[0.416536319412457, 0.0851468332399908, 0.330018557903909, -1.218, 1.04, -1.028], a = 0.2, v = 0.2, t = 0.2)
movej(p[0.416583403157999, 0.0852171114783333, 0.329015317987378, -1.218, 1.04, -1.028], a = 0.2, v = 0.2, t = 0.2)
movej(p[0.416609185109645, 0.085255594188701, 0.328465967405352, -1.218, 1.04, -1.028], a = 0.2, v = 0.2, t = 0.2)
movej(p[0.416647056004698, 0.0853121211229579, 0.327659030889255, -1.218, 1.04, -1.028], a = 0.2, v = 0.2, t = 0.2)
movej(p[0.416647056004698, 0.0853121211229579, 0.327659030889255, -1.218, 1.04, -1.028], a = 0.2, v = 0.2, t = 0.2)
movej(p[0.416624426063828, 0.0852783431734804, 0.328141219800269, -1.218, 1.04, -1.028], a = 0.2, v = 0.2, t = 0.2)
movej(p[0.416606402548203, 0.0852514408760457, 0.328525257011067, -1.218, 1.04, -1.028], a = 0.2, v = 0.2, t = 0.2)
movej(p[0.416589955037965, 0.0852268909590562, 0.328875713386359, -1.218, 1.04, -1.028], a = 0.2, v = 0.2, t = 0.2)
movej(p[0.416573507527728, 0.0852023410420666, 0.329226169761651, -1.218, 1.04, -1.028], a = 0.2, v = 0.2, t = 0.2)
movej(p[0.416550246249388, 0.0851676207443396, 0.329721810936147, -1.218, 1.04, -1.028], a = 0.2, v = 0.2, t = 0.2)
movej(p[0.416493996419096, 0.0850836610054854, 0.33092035778915, -1.218, 1.04, -1.028], a = 0.2, v = 0.2, t = 0.2)
movej(p[0.416393973857549, 0.0849343651213307, 0.333051594910203, -1.218, 1.04, -1.028], a = 0.2, v = 0.2, t = 0.2)
movej(p[0.416319555537842, 0.0848232866939623, 0.334637268012285, -1.218, 1.04, -1.028], a = 0.2, v = 0.2, t = 0.2)
movej(p[0.416253288486359, 0.084724375029549, 0.336049257445861, -1.218, 1.04, -1.028], a = 0.2, v = 0.2, t = 0.2)
movej(p[0.416156619028265, 0.0845800840616528, 0.338109048100868, -1.218, 1.04, -1.028], a = 0.2, v = 0.2, t = 0.2)
movej(p[0.416070527980223, 0.0844515826622043, 0.339943438607763, -1.218, 1.04, -1.028], a = 0.2, v = 0.2, t = 0.2)
movej(p[0.41601039191706, 0.0843618222463475, 0.341224791615975, -1.218, 1.04, -1.028], a = 0.2, v = 0.2, t = 0.2)
movej(p[0.415944087452986, 0.0842628547390749, 0.34263757822072, -1.218, 1.04, -1.028], a = 0.2, v = 0.2, t = 0.2)
movej(p[0.41587995291918, 0.0841671261176377, 0.344004128897648, -1.218, 1.04, -1.028], a = 0.2, v = 0.2, t = 0.2)
movej(p[0.415824091244518, 0.0840837457484481, 0.34519440509977, -1.218, 1.04, -1.028], a = 0.2, v = 0.2, t = 0.2)
movej(p[0.415799684205584, 0.0840473152631571, 0.345714459641325, -1.218, 1.04, -1.028], a = 0.2, v = 0.2, t = 0.2)
movej(p[0.415790223496682, 0.084033194000129, 0.345916044300755, -1.218, 1.04, -1.028], a = 0.2, v = 0.2, t = 0.2)
movej(p[0.415790223496682, 0.084033194000129, 0.345916044300755, -1.218, 1.04, -1.028], a = 0.2, v = 0.2, t = 0.2)
movej(p[0.415808321837489, 0.0840602079832821, 0.345530412747619, -1.218, 1.04, -1.028], a = 0.2, v = 0.2, t = 0.2)
movej(p[0.415826420178296, 0.0840872219664352, 0.345144781194483, -1.218, 1.04, -1.028], a = 0.2, v = 0.2, t = 0.2)
movej(p[0.415844518519103, 0.0841142359495883, 0.344759149641346, -1.218, 1.04, -1.028], a = 0.2, v = 0.2, t = 0.2)
movej(p[0.415862616859911, 0.0841412499327415, 0.34437351808821, -1.218, 1.04, -1.028], a = 0.2, v = 0.2, t = 0.2)
movej(p[0.415880715200718, 0.0841682639158946, 0.343987886535074, -1.218, 1.04, -1.028], a = 0.2, v = 0.2, t = 0.2)
movej(p[0.415898813541525, 0.0841952778990477, 0.343602254981938, -1.218, 1.04, -1.028], a = 0.2, v = 0.2, t = 0.2)
movej(p[0.415916911882332, 0.0842222918822008, 0.343216623428802, -1.218, 1.04, -1.028], a = 0.2, v = 0.2, t = 0.2)
movej(p[0.41593501022314, 0.0842493058653539, 0.342830991875665, -1.218, 1.04, -1.028], a = 0.2, v = 0.2, t = 0.2)
movej(p[0.415953108563947, 0.084276319848507, 0.342445360322529, -1.218, 1.04, -1.028], a = 0.2, v = 0.2, t = 0.2)
movej(p[0.415971206904754, 0.0843033338316602, 0.342059728769393, -1.218, 1.04, -1.028], a = 0.2, v = 0.2, t = 0.2)
movej(p[0.415989305245561, 0.0843303478148133, 0.341674097216257, -1.218, 1.04, -1.028], a = 0.2, v = 0.2, t = 0.2)
movej(p[0.416007403586369, 0.0843573617979664, 0.341288465663121, -1.218, 1.04, -1.028], a = 0.2, v = 0.2, t = 0.2)
movej(p[0.416025501927176, 0.0843843757811195, 0.340902834109984, -1.218, 1.04, -1.028], a = 0.2, v = 0.2, t = 0.2)
movej(p[0.416043600267983, 0.0844113897642726, 0.340517202556848, -1.218, 1.04, -1.028], a = 0.2, v = 0.2, t = 0.2)
movej(p[0.41606169860879, 0.0844384037474257, 0.340131571003712, -1.218, 1.04, -1.028], a = 0.2, v = 0.2, t = 0.2)
movej(p[0.416079796949598, 0.0844654177305789, 0.339745939450576, -1.218, 1.04, -1.028], a = 0.2, v = 0.2, t = 0.2)
movej(p[0.416097895290405, 0.084492431713732, 0.33936030789744, -1.218, 1.04, -1.028], a = 0.2, v = 0.2, t = 0.2)
movej(p[0.416115993631212, 0.0845194456968851, 0.338974676344304, -1.218, 1.04, -1.028], a = 0.2, v = 0.2, t = 0.2)
movej(p[0.416134091972019, 0.0845464596800382, 0.338589044791167, -1.218, 1.04, -1.028], a = 0.2, v = 0.2, t = 0.2)
movej(p[0.416152190312827, 0.0845734736631913, 0.338203413238031, -1.218, 1.04, -1.028], a = 0.2, v = 0.2, t = 0.2)
movej(p[0.416170288653634, 0.0846004876463445, 0.337817781684895, -1.218, 1.04, -1.028], a = 0.2, v = 0.2, t = 0.2)
movej(p[0.416188386994441, 0.0846275016294976, 0.337432150131759, -1.218, 1.04, -1.028], a = 0.2, v = 0.2, t = 0.2)
movej(p[0.416188386994441, 0.0846275016294976, 0.337432150131759, -1.218, 1.04, -1.028], a = 0.2, v = 0.2, t = 0.2)
movej(p[0.416171378295342, 0.0846021140696196, 0.33779456407459, -1.218, 1.04, -1.028], a = 0.2, v = 0.2, t = 0.2)
movej(p[0.416082420507529, 0.0844693337110825, 0.339690037822331, -1.218, 1.04, -1.028], a = 0.2, v = 0.2, t = 0.2)
movej(p[0.416016976533044, 0.0843716505895722, 0.341084489490183, -1.218, 1.04, -1.028], a = 0.2, v = 0.2, t = 0.2)
movej(p[0.415930015642266, 0.0842418508436466, 0.342937414226763, -1.218, 1.04, -1.028], a = 0.2, v = 0.2, t = 0.2)
movej(p[0.415855686177462, 0.0841309050430689, 0.344521194047318, -1.218, 1.04, -1.028], a = 0.2, v = 0.2, t = 0.2)
movej(p[0.415813938402685, 0.0840685913925242, 0.345410737425832, -1.218, 1.04, -1.028], a = 0.2, v = 0.2, t = 0.2)
movej(p[0.415786290498072, 0.0840273235195523, 0.345999846919925, -1.218, 1.04, -1.028], a = 0.2, v = 0.2, t = 0.2)
movej(p[0.415768421309384, 0.084000651573912, 0.346380595799649, -1.218, 1.04, -1.028], a = 0.2, v = 0.2, t = 0.2)
movej(p[0.415749976902111, 0.083973121044311, 0.346773601186101, -1.218, 1.04, -1.028], a = 0.2, v = 0.2, t = 0.2)
movej(p[0.415736480309974, 0.0839529757328433, 0.347061180685417, -1.218, 1.04, -1.028], a = 0.2, v = 0.2, t = 0.2)
movej(p[0.415736480309974, 0.0839529757328433, 0.347061180685417, -1.218, 1.04, -1.028], a = 0.2, v = 0.2, t = 0.2)
movej(p[0.415736480309974, 0.0839529757328433, 0.347061180685417, -1.218, 1.04, -1.028], a = 0.2, v = 0.2, t = 0.2)
movej(p[0.415770095522823, 0.0840031505418626, 0.346344922389824, -1.218, 1.04, -1.028], a = 0.2, v = 0.2, t = 0.2)
movej(p[0.415825087354748, 0.0840852325645751, 0.345173180417388, -1.218, 1.04, -1.028], a = 0.2, v = 0.2, t = 0.2)
movej(p[0.415887697325479, 0.0841786855894986, 0.343839114465608, -1.218, 1.04, -1.028], a = 0.2, v = 0.2, t = 0.2)
movej(p[0.415960969884592, 0.084288053829303, 0.342277854730586, -1.218, 1.04, -1.028], a = 0.2, v = 0.2, t = 0.2)
movej(p[0.416033433396429, 0.0843962144672765, 0.340733833822098, -1.218, 1.04, -1.028], a = 0.2, v = 0.2, t = 0.2)
movej(p[0.416082799310011, 0.0844698991200322, 0.339681966464242, -1.218, 1.04, -1.028], a = 0.2, v = 0.2, t = 0.2)
movej(p[0.416143332881951, 0.0845602528662683, 0.338392143512357, -1.218, 1.04, -1.028], a = 0.2, v = 0.2, t = 0.2)
movej(p[0.416169984676334, 0.0846000339231132, 0.337824258700645, -1.218, 1.04, -1.028], a = 0.2, v = 0.2, t = 0.2)
movej(p[0.416169984676334, 0.0846000339231132, 0.337824258700645, -1.218, 1.04, -1.028], a = 0.2, v = 0.2, t = 0.2)
movej(p[0.416139872217301, 0.0845550874017894, 0.338465881845515, -1.218, 1.04, -1.028], a = 0.2, v = 0.2, t = 0.2)
movej(p[0.416139816098414, 0.0845550036375006, 0.338467077602268, -1.218, 1.04, -1.028], a = 0.2, v = 0.2, t = 0.2)
movej(p[0.416139470031949, 0.0845544870910527, 0.338474451435584, -1.218, 1.04, -1.028], a = 0.2, v = 0.2, t = 0.2)
movej(p[0.416139470031949, 0.0845544870910527, 0.338474451435584, -1.218, 1.04, -1.028], a = 0.2, v = 0.2, t = 0.2)
movej(p[0.416140714000594, 0.0845563438661221, 0.338447945494206, -1.218, 1.04, -1.028], a = 0.2, v = 0.2, t = 0.2)
movej(p[0.416181961381969, 0.0846179106184246, 0.337569064280082, -1.218, 1.04, -1.028], a = 0.2, v = 0.2, t = 0.2)
movej(p[0.416247503564504, 0.0847157403274403, 0.33617252003791, -1.218, 1.04, -1.028], a = 0.2, v = 0.2, t = 0.2)
movej(p[0.416330947671746, 0.0848402908445982, 0.334394529391241, -1.218, 1.04, -1.028], a = 0.2, v = 0.2, t = 0.2)
movej(p[0.416375281591863, 0.0849064646327873, 0.333449881555652, -1.218, 1.04, -1.028], a = 0.2, v = 0.2, t = 0.2)
movej(p[0.41639786009042, 0.0849401657983333, 0.332968788754995, -1.218, 1.04, -1.028], a = 0.2, v = 0.2, t = 0.2)
movej(p[0.41639786009042, 0.0849401657983333, 0.332968788754995, -1.218, 1.04, -1.028], a = 0.2, v = 0.2, t = 0.2)
movej(p[0.416392023726253, 0.0849314543122933, 0.333093147457402, -1.218, 1.04, -1.028], a = 0.2, v = 0.2, t = 0.2)
movej(p[0.416334646841663, 0.0848458123073047, 0.334315709091879, -1.218, 1.04, -1.028], a = 0.2, v = 0.2, t = 0.2)
movej(p[0.416256417114266, 0.0847290448886522, 0.335982594006831, -1.218, 1.04, -1.028], a = 0.2, v = 0.2, t = 0.2)
movej(p[0.416172575498248, 0.084603901041115, 0.337769054597173, -1.218, 1.04, -1.028], a = 0.2, v = 0.2, t = 0.2)
movej(p[0.41606652950958, 0.084445614456624, 0.34002863627648, -1.218, 1.04, -1.028], a = 0.2, v = 0.2, t = 0.2)
movej(p[0.415957523249663, 0.0842829093058963, 0.342351294124555, -1.218, 1.04, -1.028], a = 0.2, v = 0.2, t = 0.2)
movej(p[0.415870010523171, 0.084152285877797, 0.344215977135882, -1.218, 1.04, -1.028], a = 0.2, v = 0.2, t = 0.2)
movej(p[0.415805908725381, 0.0840566061188617, 0.345581830288037, -1.218, 1.04, -1.028], a = 0.2, v = 0.2, t = 0.2)
movej(p[0.415755364315189, 0.0839811624160403, 0.346658808537726, -1.218, 1.04, -1.028], a = 0.2, v = 0.2, t = 0.2)
movej(p[0.415725205090417, 0.0839361460911425, 0.347301428146557, -1.218, 1.04, -1.028], a = 0.2, v = 0.2, t = 0.2)
movej(p[0.415725205090417, 0.0839361460911425, 0.347301428146557, -1.218, 1.04, -1.028], a = 0.2, v = 0.2, t = 0.2)
movej(p[0.415745043116697, 0.0839657567672499, 0.346878728134049, -1.218, 1.04, -1.028], a = 0.2, v = 0.2, t = 0.2)
movej(p[0.415827603351481, 0.0840889879968584, 0.345119570656254, -1.218, 1.04, -1.028], a = 0.2, v = 0.2, t = 0.2)
movej(p[0.415932844969446, 0.0842460739598759, 0.342877128157087, -1.218, 1.04, -1.028], a = 0.2, v = 0.2, t = 0.2)
movej(p[0.416039307173187, 0.0844049817961759, 0.340608677948522, -1.218, 1.04, -1.028], a = 0.2, v = 0.2, t = 0.2)
movej(p[0.416133114568084, 0.0845450007853408, 0.338609870887965, -1.218, 1.04, -1.028], a = 0.2, v = 0.2, t = 0.2)
movej(p[0.416224597705777, 0.084681550536876, 0.336660588086298, -1.218, 1.04, -1.028], a = 0.2, v = 0.2, t = 0.2)
movej(p[0.416323469830156, 0.0848291292531094, 0.3345538639787, -1.218, 1.04, -1.028], a = 0.2, v = 0.2, t = 0.2)
movej(p[0.416335717777075, 0.0848474108091502, 0.334292890067159, -1.218, 1.04, -1.028], a = 0.2, v = 0.2, t = 0.2)
movej(p[0.416335717777075, 0.0848474108091502, 0.334292890067159, -1.218, 1.04, -1.028], a = 0.2, v = 0.2, t = 0.2)
movej(p[0.416313649025067, 0.0848144705025612, 0.334763121410634, -1.218, 1.04, -1.028], a = 0.2, v = 0.2, t = 0.2)
movej(p[0.416166813959262, 0.0845953012407933, 0.337891818957241, -1.218, 1.04, -1.028], a = 0.2, v = 0.2, t = 0.2)
movej(p[0.415965389246882, 0.0842946502670497, 0.342183688886215, -1.218, 1.04, -1.028], a = 0.2, v = 0.2, t = 0.2)
movej(p[0.41586200890531, 0.084140342486279, 0.344386472119711, -1.218, 1.04, -1.028], a = 0.2, v = 0.2, t = 0.2)
movej(p[0.415806231408977, 0.0840570877635226, 0.345574954686702, -1.218, 1.04, -1.028], a = 0.2, v = 0.2, t = 0.2)
movej(p[0.415778326292802, 0.0840154359708935, 0.346169544732584, -1.218, 1.04, -1.028], a = 0.2, v = 0.2, t = 0.2)
movej(p[0.415754447706714, 0.0839797942659891, 0.346678339231373, -1.218, 1.04, -1.028], a = 0.2, v = 0.2, t = 0.2)
movej(p[0.415744229392847, 0.0839645421850616, 0.346896066606981, -1.218, 1.04, -1.028], a = 0.2, v = 0.2, t = 0.2)
movej(p[0.41573523634133, 0.0839511189577739, 0.347087686626795, -1.218, 1.04, -1.028], a = 0.2, v = 0.2, t = 0.2)
movej(p[0.415724246392777, 0.0839347151178747, 0.347321855657769, -1.218, 1.04, -1.028], a = 0.2, v = 0.2, t = 0.2)
movej(p[0.415724246392777, 0.0839347151178747, 0.347321855657769, -1.218, 1.04, -1.028], a = 0.2, v = 0.2, t = 0.2)
movej(p[0.415747502994543, 0.0839694284352443, 0.346826314129669, -1.218, 1.04, -1.028], a = 0.2, v = 0.2, t = 0.2)
movej(p[0.415826448237739, 0.0840872638485797, 0.345144183316106, -1.218, 1.04, -1.028], a = 0.2, v = 0.2, t = 0.2)
movej(p[0.415908681112353, 0.0842100064531699, 0.343392001086042, -1.218, 1.04, -1.028], a = 0.2, v = 0.2, t = 0.2)
movej(p[0.41600362959127, 0.0843517286495414, 0.341368880304821, -1.218, 1.04, -1.028], a = 0.2, v = 0.2, t = 0.2)
movej(p[0.416080517141971, 0.0844664927056191, 0.339730593905567, -1.218, 1.04, -1.028], a = 0.2, v = 0.2, t = 0.2)
movej(p[0.416166767193523, 0.0845952314372193, 0.337892815421203, -1.218, 1.04, -1.028], a = 0.2, v = 0.2, t = 0.2)
movej(p[0.416216423054684, 0.084669348872134, 0.336834769986784, -1.218, 1.04, -1.028], a = 0.2, v = 0.2, t = 0.2)
movej(p[0.416237780967466, 0.0847012281643976, 0.336379684895525, -1.218, 1.04, -1.028], a = 0.2, v = 0.2, t = 0.2)
movej(p[0.416259138880248, 0.0847331074566613, 0.335924599804266, -1.218, 1.04, -1.028], a = 0.2, v = 0.2, t = 0.2)
movej(p[0.41628049679303, 0.0847649867489249, 0.335469514713007, -1.218, 1.04, -1.028], a = 0.2, v = 0.2, t = 0.2)
movej(p[0.416326579751768, 0.084833771190783, 0.334487599125254, -1.218, 1.04, -1.028], a = 0.2, v = 0.2, t = 0.2)
movej(p[0.416373953444889, 0.0849044822112846, 0.333478181132161, -1.218, 1.04, -1.028], a = 0.2, v = 0.2, t = 0.2)
movej(p[0.416373953444889, 0.0849044822112846, 0.333478181132161, -1.218, 1.04, -1.028], a = 0.2, v = 0.2, t = 0.2)
movej(p[0.416353053836344, 0.0848732869940465, 0.333923500876596, -1.218, 1.04, -1.028], a = 0.2, v = 0.2, t = 0.2)
movej(p[0.41622456496976, 0.0846815016743742, 0.336661285611071, -1.218, 1.04, -1.028], a = 0.2, v = 0.2, t = 0.2)
movej(p[0.41612313008291, 0.0845300977222835, 0.338822615943765, -1.218, 1.04, -1.028], a = 0.2, v = 0.2, t = 0.2)
movej(p[0.415985231949736, 0.0843242679235145, 0.341760889227312, -1.218, 1.04, -1.028], a = 0.2, v = 0.2, t = 0.2)
movej(p[0.415838710214379, 0.0841055663456927, 0.344882910465376, -1.218, 1.04, -1.028], a = 0.2, v = 0.2, t = 0.2)
movej(p[0.415787857150312, 0.0840296619392826, 0.345966465377211, -1.218, 1.04, -1.028], a = 0.2, v = 0.2, t = 0.2)
movej(p[0.415742223142665, 0.0839615476117353, 0.346938814910933, -1.218, 1.04, -1.028], a = 0.2, v = 0.2, t = 0.2)
movej(p[0.415741951901381, 0.0839611427510059, 0.34694459440191, -1.218, 1.04, -1.028], a = 0.2, v = 0.2, t = 0.2)
movej(p[0.415741951901381, 0.0839611427510059, 0.34694459440191, -1.218, 1.04, -1.028], a = 0.2, v = 0.2, t = 0.2)
movej(p[0.415814209643968, 0.0840689962532536, 0.345404957934854, -1.218, 1.04, -1.028], a = 0.2, v = 0.2, t = 0.2)
movej(p[0.415913409128517, 0.0842170635945053, 0.343291258579525, -1.218, 1.04, -1.028], a = 0.2, v = 0.2, t = 0.2)
movej(p[0.416016331165852, 0.0843706873002504, 0.341098240692853, -1.218, 1.04, -1.028], a = 0.2, v = 0.2, t = 0.2)
movej(p[0.416111186113292, 0.0845122698894739, 0.339077112839555, -1.218, 1.04, -1.028], a = 0.2, v = 0.2, t = 0.2)
movej(p[0.416182920079608, 0.0846193415916924, 0.337548636768869, -1.218, 1.04, -1.028], a = 0.2, v = 0.2, t = 0.2)
movej(p[0.416278289450172, 0.0847616920202302, 0.335516547811994, -1.218, 1.04, -1.028], a = 0.2, v = 0.2, t = 0.2)
movej(p[0.416373719616196, 0.0849041331934144, 0.333483163451969, -1.218, 1.04, -1.028], a = 0.2, v = 0.2, t = 0.2)
movej(p[0.416373719616196, 0.0849041331934144, 0.333483163451969, -1.218, 1.04, -1.028], a = 0.2, v = 0.2, t = 0.2)
movej(p[0.416298408070883, 0.0847917215177819, 0.335087869015717, -1.218, 1.04, -1.028], a = 0.2, v = 0.2, t = 0.2)
movej(p[0.416172664353151, 0.0846040336679056, 0.337767161315646, -1.218, 1.04, -1.028], a = 0.2, v = 0.2, t = 0.2)
movej(p[0.416031548737167, 0.0843934013832428, 0.340773991319751, -1.218, 1.04, -1.028], a = 0.2, v = 0.2, t = 0.2)
movej(p[0.415943245669693, 0.0842615982747422, 0.342655514572029, -1.218, 1.04, -1.028], a = 0.2, v = 0.2, t = 0.2)
movej(p[0.415914919661871, 0.0842193182499467, 0.343259072793565, -1.218, 1.04, -1.028], a = 0.2, v = 0.2, t = 0.2)
movej(p[0.415896671670701, 0.0841920808953567, 0.343647893031379, -1.218, 1.04, -1.028], a = 0.2, v = 0.2, t = 0.2)
movej(p[0.41583583412146, 0.0841012734258893, 0.344944192999014, -1.218, 1.04, -1.028], a = 0.2, v = 0.2, t = 0.2)
movej(p[0.415782390235479, 0.0840215019014775, 0.346082952014322, -1.218, 1.04, -1.028], a = 0.2, v = 0.2, t = 0.2)
movej(p[0.415753320652415, 0.0839781119998548, 0.346702354012847, -1.218, 1.04, -1.028], a = 0.2, v = 0.2, t = 0.2)
movej(p[0.415733529391874, 0.0839485711273214, 0.347124057561393, -1.218, 1.04, -1.028], a = 0.2, v = 0.2, t = 0.2)
movej(p[0.415733529391874, 0.0839485711273214, 0.347124057561393, -1.218, 1.04, -1.028], a = 0.2, v = 0.2, t = 0.2)
movej(p[0.415766564709564, 0.0839978803720226, 0.346420155418924, -1.218, 1.04, -1.028], a = 0.2, v = 0.2, t = 0.2)
movej(p[0.415827523849725, 0.0840888693307826, 0.345121264644989, -1.218, 1.04, -1.028], a = 0.2, v = 0.2, t = 0.2)
movej(p[0.415912665553275, 0.0842159537176781, 0.343307102356514, -1.218, 1.04, -1.028], a = 0.2, v = 0.2, t = 0.2)
movej(p[0.415985956818683, 0.0843253498789121, 0.341745444035907, -1.218, 1.04, -1.028], a = 0.2, v = 0.2, t = 0.2)
movej(p[0.416063064168355, 0.0844404420117877, 0.340102474256034, -1.218, 1.04, -1.028], a = 0.2, v = 0.2, t = 0.2)
movej(p[0.416142191797931, 0.0845585496590618, 0.33841645723302, -1.218, 1.04, -1.028], a = 0.2, v = 0.2, t = 0.2)
movej(p[0.416230303125877, 0.0846900665729088, 0.336539019482984, -1.218, 1.04, -1.028], a = 0.2, v = 0.2, t = 0.2)
movej(p[0.416265129571353, 0.0847420492944957, 0.335796952770786, -1.218, 1.04, -1.028], a = 0.2, v = 0.2, t = 0.2)
movej(p[0.416265129571353, 0.0847420492944957, 0.335796952770786, -1.218, 1.04, -1.028], a = 0.2, v = 0.2, t = 0.2)
movej(p[0.416144179341818, 0.0845615163109584, 0.338374107514652, -1.218, 1.04, -1.028], a = 0.2, v = 0.2, t = 0.2)
movej(p[0.416005631164879, 0.0843547162425103, 0.341326231647265, -1.218, 1.04, -1.028], a = 0.2, v = 0.2, t = 0.2)
movej(p[0.415908059128031, 0.0842090780656352, 0.343405254056731, -1.218, 1.04, -1.028], a = 0.2, v = 0.2, t = 0.2)
movej(p[0.415853609778672, 0.0841278057643815, 0.344565437047213, -1.218, 1.04, -1.028], a = 0.2, v = 0.2, t = 0.2)
movej(p[0.415819059251053, 0.0840762348838815, 0.345301624622037, -1.218, 1.04, -1.028], a = 0.2, v = 0.2, t = 0.2)
movej(p[0.415808789494874, 0.0840609060190225, 0.345520448108003, -1.218, 1.04, -1.028], a = 0.2, v = 0.2, t = 0.2)
movej(p[0.415779724588384, 0.0840175230977572, 0.346139750460132, -1.218, 1.04, -1.028], a = 0.2, v = 0.2, t = 0.2)
movej(p[0.415760602077903, 0.0839889804163327, 0.346547204574027, -1.218, 1.04, -1.028], a = 0.2, v = 0.2, t = 0.2)
movej(p[0.415757183502417, 0.0839838777750704, 0.34662004608962, -1.218, 1.04, -1.028], a = 0.2, v = 0.2, t = 0.2)
movej(p[0.415752418073662, 0.0839767647908758, 0.346721585767306, -1.218, 1.04, -1.028], a = 0.2, v = 0.2, t = 0.2)
movej(p[0.415732963526438, 0.0839477265040756, 0.347136114775328, -1.218, 1.04, -1.028], a = 0.2, v = 0.2, t = 0.2)
movej(p[0.415726453735636, 0.0839380098465693, 0.347274822558782, -1.218, 1.04, -1.028], a = 0.2, v = 0.2, t = 0.2)
movej(p[0.415708654695555, 0.0839114426062901, 0.347654076742564, -1.218, 1.04, -1.028], a = 0.2, v = 0.2, t = 0.2)
movej(p[0.41569647222067, 0.0838932587752529, 0.347913655604559, -1.218, 1.04, -1.028], a = 0.2, v = 0.2, t = 0.2)
movej(p[0.415685973312373, 0.0838775878728811, 0.348137361763936, -1.218, 1.04, -1.028], a = 0.2, v = 0.2, t = 0.2)
movej(p[0.415685973312373, 0.0838775878728811, 0.348137361763936, -1.218, 1.04, -1.028], a = 0.2, v = 0.2, t = 0.2)
movej(p[0.415688437866793, 0.083881266521233, 0.34808484811316, -1.218, 1.04, -1.028], a = 0.2, v = 0.2, t = 0.2)
movej(p[0.415710899451004, 0.0839147931778439, 0.347606246472408, -1.218, 1.04, -1.028], a = 0.2, v = 0.2, t = 0.2)
movej(p[0.415760793817431, 0.0839892666109862, 0.346543119071785, -1.218, 1.04, -1.028], a = 0.2, v = 0.2, t = 0.2)
movej(p[0.415818114583135, 0.0840748248516859, 0.345321753194061, -1.218, 1.04, -1.028], a = 0.2, v = 0.2, t = 0.2)
movej(p[0.415907156549277, 0.0842077308566563, 0.34342448581119, -1.218, 1.04, -1.028], a = 0.2, v = 0.2, t = 0.2)
movej(p[0.415993537544897, 0.0843366650382638, 0.341583917227733, -1.218, 1.04, -1.028], a = 0.2, v = 0.2, t = 0.2)
movej(p[0.416091876539857, 0.0844834479937532, 0.339488552809297, -1.218, 1.04, -1.028], a = 0.2, v = 0.2, t = 0.2)
movej(p[0.416185805525675, 0.0846236484722106, 0.337487154942439, -1.218, 1.04, -1.028], a = 0.2, v = 0.2, t = 0.2)
movej(p[0.416284083725175, 0.0847703406830537, 0.335393085927153, -1.218, 1.04, -1.028], a = 0.2, v = 0.2, t = 0.2)
movej(p[0.416380664328366, 0.0849144990241592, 0.333335188553672, -1.218, 1.04, -1.028], a = 0.2, v = 0.2, t = 0.2)
movej(p[0.416433724735291, 0.0849936981592639, 0.33220460054285, -1.218, 1.04, -1.028], a = 0.2, v = 0.2, t = 0.2)
movej(p[0.416433724735291, 0.0849936981592639, 0.33220460054285, -1.218, 1.04, -1.028], a = 0.2, v = 0.2, t = 0.2)
movej(p[0.416421256989402, 0.0849750885264251, 0.33247025783501, -1.218, 1.04, -1.028], a = 0.2, v = 0.2, t = 0.2)
movej(p[0.416367855192586, 0.0848953798252299, 0.333608120032753, -1.218, 1.04, -1.028], a = 0.2, v = 0.2, t = 0.2)
movej(p[0.416311147058056, 0.0848107360113501, 0.334816432232579, -1.218, 1.04, -1.028], a = 0.2, v = 0.2, t = 0.2)
movej(p[0.41623872095881, 0.0847026312162358, 0.336359655969897, -1.218, 1.04, -1.028], a = 0.2, v = 0.2, t = 0.2)
movej(p[0.416057611283244, 0.0844323029150547, 0.340218661953955, -1.218, 1.04, -1.028], a = 0.2, v = 0.2, t = 0.2)
movej(p[0.415944456902321, 0.0842634061873098, 0.342629706155424, -1.218, 1.04, -1.028], a = 0.2, v = 0.2, t = 0.2)
movej(p[0.415875440025413, 0.084160390072743, 0.344100287669942, -1.218, 1.04, -1.028], a = 0.2, v = 0.2, t = 0.2)
movej(p[0.415815897887129, 0.0840715161622764, 0.345368985585841, -1.218, 1.04, -1.028], a = 0.2, v = 0.2, t = 0.2)
movej(p[0.415793730927071, 0.0840384292681819, 0.345841309503636, -1.218, 1.04, -1.028], a = 0.2, v = 0.2, t = 0.2)
movej(p[0.415773088530088, 0.0840076179706011, 0.346281148696282, -1.218, 1.04, -1.028], a = 0.2, v = 0.2, t = 0.2)
movej(p[0.41575729574019, 0.0839840453036481, 0.346617654576112, -1.218, 1.04, -1.028], a = 0.2, v = 0.2, t = 0.2)
movej(p[0.415736943290786, 0.0839536667882263, 0.347051315692197, -1.218, 1.04, -1.028], a = 0.2, v = 0.2, t = 0.2)
movej(p[0.415728455309244, 0.0839409974395382, 0.347232173901226, -1.218, 1.04, -1.028], a = 0.2, v = 0.2, t = 0.2)
movej(p[0.415713247091078, 0.0839182973172607, 0.347556223981536, -1.218, 1.04, -1.028], a = 0.2, v = 0.2, t = 0.2)
movej(p[0.415713247091078, 0.0839182973172607, 0.347556223981536, -1.218, 1.04, -1.028], a = 0.2, v = 0.2, t = 0.2)
movej(p[0.415745141324748, 0.0839659033547553, 0.34687663555973, -1.218, 1.04, -1.028], a = 0.2, v = 0.2, t = 0.2)
movej(p[0.415818507415338, 0.0840754112017078, 0.345313382896784, -1.218, 1.04, -1.028], a = 0.2, v = 0.2, t = 0.2)
movej(p[0.415926704627978, 0.0842369087506046, 0.343007963875244, -1.218, 1.04, -1.028], a = 0.2, v = 0.2, t = 0.2)
movej(p[0.416036650879239, 0.0844010169531704, 0.340665277101541, -1.218, 1.04, -1.028], a = 0.2, v = 0.2, t = 0.2)
movej(p[0.416133923615361, 0.0845462083871717, 0.338592632061429, -1.218, 1.04, -1.028], a = 0.2, v = 0.2, t = 0.2)
movej(p[0.416234296919946, 0.0846960277981317, 0.336453921460664, -1.218, 1.04, -1.028], a = 0.2, v = 0.2, t = 0.2)
movej(p[0.416342293039911, 0.0848572251916601, 0.334152787234159, -1.218, 1.04, -1.028], a = 0.2, v = 0.2, t = 0.2)
movej(p[0.416437868179724, 0.0849998827559237, 0.332116313835853, -1.218, 1.04, -1.028], a = 0.2, v = 0.2, t = 0.2)
movej(p[0.416452262674041, 0.085021368296013, 0.331809602228475, -1.218, 1.04, -1.028], a = 0.2, v = 0.2, t = 0.2)
movej(p[0.416452262674041, 0.085021368296013, 0.331809602228475, -1.218, 1.04, -1.028], a = 0.2, v = 0.2, t = 0.2)
movej(p[0.416436376352665, 0.0849976560219119, 0.332148101036228, -1.218, 1.04, -1.028], a = 0.2, v = 0.2, t = 0.2)
movej(p[0.416340852655164, 0.0848550752415797, 0.334183478324176, -1.218, 1.04, -1.028], a = 0.2, v = 0.2, t = 0.2)
movej(p[0.416144455259675, 0.0845619281520453, 0.338368228377279, -1.218, 1.04, -1.028], a = 0.2, v = 0.2, t = 0.2)
movej(p[0.415938887102863, 0.0842550925816418, 0.342748385013249, -1.218, 1.04, -1.028], a = 0.2, v = 0.2, t = 0.2)
movej(p[0.41585789352032, 0.0841341997717635, 0.344474160948331, -1.218, 1.04, -1.028], a = 0.2, v = 0.2, t = 0.2)
movej(p[0.415826284557654, 0.0840870195360705, 0.345147670939971, -1.218, 1.04, -1.028], a = 0.2, v = 0.2, t = 0.2)
movej(p[0.41579297799868, 0.0840373054306399, 0.345857352573417, -1.218, 1.04, -1.028], a = 0.2, v = 0.2, t = 0.2)
movej(p[0.41578130994692, 0.0840198894389172, 0.346105970331834, -1.218, 1.04, -1.028], a = 0.2, v = 0.2, t = 0.2)
movej(p[0.415773182061565, 0.0840077575777492, 0.346279155768359, -1.218, 1.04, -1.028], a = 0.2, v = 0.2, t = 0.2)
movej(p[0.415760241981716, 0.0839884429288126, 0.346554877346532, -1.218, 1.04, -1.028], a = 0.2, v = 0.2, t = 0.2)
movej(p[0.415738566061912, 0.0839560889722454, 0.34701673839273, -1.218, 1.04, -1.028], a = 0.2, v = 0.2, t = 0.2)
movej(p[0.415729732013906, 0.0839429030771095, 0.347204970435074, -1.218, 1.04, -1.028], a = 0.2, v = 0.2, t = 0.2)
movej(p[0.415714074844649, 0.0839195328405212, 0.347538586569416, -1.218, 1.04, -1.028], a = 0.2, v = 0.2, t = 0.2)
movej(p[0.415704890053604, 0.0839058234185799, 0.347734292091472, -1.218, 1.04, -1.028], a = 0.2, v = 0.2, t = 0.2)
movej(p[0.415684762079745, 0.0838757799603135, 0.348163170180541, -1.218, 1.04, -1.028], a = 0.2, v = 0.2, t = 0.2)
movej(p[0.415678074579137, 0.0838657980492259, 0.348305664527049, -1.218, 1.04, -1.028], a = 0.2, v = 0.2, t = 0.2)
movej(p[0.415678074579137, 0.0838657980492259, 0.348305664527049, -1.218, 1.04, -1.028], a = 0.2, v = 0.2, t = 0.2)
movej(p[0.41571747471384, 0.0839246075603538, 0.347466143639408, -1.218, 1.04, -1.028], a = 0.2, v = 0.2, t = 0.2)
movej(p[0.415759807060348, 0.083987793755574, 0.346564144461374, -1.218, 1.04, -1.028], a = 0.2, v = 0.2, t = 0.2)
movej(p[0.415809243122538, 0.0840615831136907, 0.345510782407575, -1.218, 1.04, -1.028], a = 0.2, v = 0.2, t = 0.2)
movej(p[0.415848624550945, 0.084120364703389, 0.344671660105519, -1.218, 1.04, -1.028], a = 0.2, v = 0.2, t = 0.2)
movej(p[0.415983674650644, 0.084321943464499, 0.341794071477233, -1.218, 1.04, -1.028], a = 0.2, v = 0.2, t = 0.2)
movej(p[0.416108618674248, 0.0845084376732591, 0.339131818711047, -1.218, 1.04, -1.028], a = 0.2, v = 0.2, t = 0.2)
movej(p[0.416225112128901, 0.0846823183761904, 0.33664962698272, -1.218, 1.04, -1.028], a = 0.2, v = 0.2, t = 0.2)
movej(p[0.416336045137244, 0.0848478994341685, 0.334285914819428, -1.218, 1.04, -1.028], a = 0.2, v = 0.2, t = 0.2)
movej(p[0.416414770581469, 0.0849654067707059, 0.332608467386483, -1.218, 1.04, -1.028], a = 0.2, v = 0.2, t = 0.2)
movej(p[0.416431115207082, 0.0849898031198325, 0.332260203231907, -1.218, 1.04, -1.028], a = 0.2, v = 0.2, t = 0.2)
movej(p[0.416431115207082, 0.0849898031198325, 0.332260203231907, -1.218, 1.04, -1.028], a = 0.2, v = 0.2, t = 0.2)
movej(p[0.416430371631839, 0.0849886932430053, 0.332276047008896, -1.218, 1.04, -1.028], a = 0.2, v = 0.2, t = 0.2)
movej(p[0.416368327526545, 0.0848960848413277, 0.33359805574674, -1.218, 1.04, -1.028], a = 0.2, v = 0.2, t = 0.2)
movej(p[0.416266195830191, 0.0847436408159837, 0.335774233392462, -1.218, 1.04, -1.028], a = 0.2, v = 0.2, t = 0.2)
movej(p[0.41618888271127, 0.0846282415473824, 0.337421587613766, -1.218, 1.04, -1.028], a = 0.2, v = 0.2, t = 0.2)
movej(p[0.416092325490947, 0.0844841181080639, 0.339478986755265, -1.218, 1.04, -1.028], a = 0.2, v = 0.2, t = 0.2)
movej(p[0.415990357474678, 0.0843319183952292, 0.341651676777121, -1.218, 1.04, -1.028], a = 0.2, v = 0.2, t = 0.2)
movej(p[0.4158987106569, 0.0841951243311848, 0.343604447202653, -1.218, 1.04, -1.028], a = 0.2, v = 0.2, t = 0.2)
movej(p[0.415840753877152, 0.0841086167618782, 0.344839364990255, -1.218, 1.04, -1.028], a = 0.2, v = 0.2, t = 0.2)
movej(p[0.415783863356243, 0.0840237007140597, 0.346051563399531, -1.218, 1.04, -1.028], a = 0.2, v = 0.2, t = 0.2)
movej(p[0.415750669035041, 0.0839741541372068, 0.34675885351947, -1.218, 1.04, -1.028], a = 0.2, v = 0.2, t = 0.2)
movej(p[0.415719027336359, 0.0839269250390119, 0.347433061035883, -1.218, 1.04, -1.028], a = 0.2, v = 0.2, t = 0.2)
movej(p[0.415714074844649, 0.0839195328405212, 0.347538586569416, -1.218, 1.04, -1.028], a = 0.2, v = 0.2, t = 0.2)
movej(p[0.415706059197067, 0.0839075685079309, 0.347709380492432, -1.218, 1.04, -1.028], a = 0.2, v = 0.2, t = 0.2)
movej(p[0.415706059197067, 0.0839075685079309, 0.347709380492432, -1.218, 1.04, -1.028], a = 0.2, v = 0.2, t = 0.2)
movej(p[0.415794292115933, 0.0840392669110704, 0.345829351936096, -1.218, 1.04, -1.028], a = 0.2, v = 0.2, t = 0.2)
movej(p[0.415905042737896, 0.0842045757351097, 0.343469525982254, -1.218, 1.04, -1.028], a = 0.2, v = 0.2, t = 0.2)
movej(p[0.416007090255921, 0.0843568941140203, 0.341295141971663, -1.218, 1.04, -1.028], a = 0.2, v = 0.2, t = 0.2)
movej(p[0.4161036194168, 0.0845009756711944, 0.339238340708541, -1.218, 1.04, -1.028], a = 0.2, v = 0.2, t = 0.2)
movej(p[0.416194373008972, 0.0846364364869746, 0.337304602744675, -1.218, 1.04, -1.028], a = 0.2, v = 0.2, t = 0.2)
movej(p[0.416270704047384, 0.0847503698805211, 0.335678174266564, -1.218, 1.04, -1.028], a = 0.2, v = 0.2, t = 0.2)
movej(p[0.416335970312063, 0.08484778774845, 0.334287509161766, -1.218, 1.04, -1.028], a = 0.2, v = 0.2, t = 0.2)
movej(p[0.41639728954841, 0.0849393141947301, 0.332980945615326, -1.218, 1.04, -1.028], a = 0.2, v = 0.2, t = 0.2)
movej(p[0.416403602923111, 0.0849487376772253, 0.332846422980511, -1.218, 1.04, -1.028], a = 0.2, v = 0.2, t = 0.2)
movej(p[0.416403602923111, 0.0849487376772253, 0.332846422980511, -1.218, 1.04, -1.028], a = 0.2, v = 0.2, t = 0.2)
movej(p[0.416358651695245, 0.084881642481859, 0.333804224140394, -1.218, 1.04, -1.028], a = 0.2, v = 0.2, t = 0.2)
movej(p[0.416282138270452, 0.0847674368543737, 0.335434538827955, -1.218, 1.04, -1.028], a = 0.2, v = 0.2, t = 0.2)
movej(p[0.41618843376018, 0.0846275714330716, 0.337431153667797, -1.218, 1.04, -1.028], a = 0.2, v = 0.2, t = 0.2)
movej(p[0.416088107221333, 0.0844778218256856, 0.339568867804601, -1.218, 1.04, -1.028], a = 0.2, v = 0.2, t = 0.2)
movej(p[0.416005481514516, 0.0843544928710734, 0.341329420331942, -1.218, 1.04, -1.028], a = 0.2, v = 0.2, t = 0.2)
movej(p[0.415922935309454, 0.0842312825825371, 0.343088278870549, -1.218, 1.04, -1.028], a = 0.2, v = 0.2, t = 0.2)
movej(p[0.415849723545801, 0.0841220050873789, 0.344648243202421, -1.218, 1.04, -1.028], a = 0.2, v = 0.2, t = 0.2)
movej(p[0.415801017029132, 0.0840493046650172, 0.345686060418419, -1.218, 1.04, -1.028], a = 0.2, v = 0.2, t = 0.2)
movej(p[0.415777956843468, 0.0840148845226586, 0.346177416797881, -1.218, 1.04, -1.028], a = 0.2, v = 0.2, t = 0.2)
movej(p[0.415744879436612, 0.0839655124547407, 0.346882215757915, -1.218, 1.04, -1.028], a = 0.2, v = 0.2, t = 0.2)
movej(p[0.415703416932841, 0.0839036246059977, 0.347765680706262, -1.218, 1.04, -1.028], a = 0.2, v = 0.2, t = 0.2)
movej(p[0.415683901590156, 0.0838744955745512, 0.348181505117435, -1.218, 1.04, -1.028], a = 0.2, v = 0.2, t = 0.2)
movej(p[0.415675507140092, 0.0838619658330112, 0.348360370398541, -1.218, 1.04, -1.028], a = 0.2, v = 0.2, t = 0.2)
movej(p[0.415675507140092, 0.0838619658330112, 0.348360370398541, -1.218, 1.04, -1.028], a = 0.2, v = 0.2, t = 0.2)
movej(p[0.41571922375246, 0.0839272182140229, 0.347428875887244, -1.218, 1.04, -1.028], a = 0.2, v = 0.2, t = 0.2)
movej(p[0.415779888268469, 0.0840177674102664, 0.346136262836267, -1.218, 1.04, -1.028], a = 0.2, v = 0.2, t = 0.2)
movej(p[0.415868149246778, 0.0841495076955503, 0.344255636401554, -1.218, 1.04, -1.028], a = 0.2, v = 0.2, t = 0.2)
movej(p[0.415966319885079, 0.0842960393581731, 0.342163859253379, -1.218, 1.04, -1.028], a = 0.2, v = 0.2, t = 0.2)
movej(p[0.416066777367994, 0.0844459844155664, 0.340023355017483, -1.218, 1.04, -1.028], a = 0.2, v = 0.2, t = 0.2)
movej(p[0.416151947130986, 0.0845731106846063, 0.338208594850631, -1.218, 1.04, -1.028], a = 0.2, v = 0.2, t = 0.2)
movej(p[0.416234970346581, 0.0846970329695979, 0.336439572379617, -1.218, 1.04, -1.028], a = 0.2, v = 0.2, t = 0.2)
movej(p[0.416314415983179, 0.0848156152811754, 0.334746779401664, -1.218, 1.04, -1.028], a = 0.2, v = 0.2, t = 0.2)
movej(p[0.416394333953736, 0.0849349026088508, 0.333043922137699, -1.218, 1.04, -1.028], a = 0.2, v = 0.2, t = 0.2)
movej(p[0.416403275562941, 0.084948249052207, 0.332853398228243, -1.218, 1.04, -1.028], a = 0.2, v = 0.2, t = 0.2)
movej(p[0.416403275562941, 0.084948249052207, 0.332853398228243, -1.218, 1.04, -1.028], a = 0.2, v = 0.2, t = 0.2)
movej(p[0.416357505934651, 0.084879932294295, 0.333828637507453, -1.218, 1.04, -1.028], a = 0.2, v = 0.2, t = 0.2)
movej(p[0.416309800204787, 0.0848087256684178, 0.334845130394673, -1.218, 1.04, -1.028], a = 0.2, v = 0.2, t = 0.2)
movej(p[0.416205096392814, 0.0846524424465017, 0.337076113558282, -1.218, 1.04, -1.028], a = 0.2, v = 0.2, t = 0.2)
movej(p[0.416056919150314, 0.084431269822159, 0.340233409620587, -1.218, 1.04, -1.028], a = 0.2, v = 0.2, t = 0.2)
movej(p[0.415941300214971, 0.0842586944460622, 0.342696967472831, -1.218, 1.04, -1.028], a = 0.2, v = 0.2, t = 0.2)
movej(p[0.415868785260821, 0.0841504570241572, 0.344242084491676, -1.218, 1.04, -1.028], a = 0.2, v = 0.2, t = 0.2)
movej(p[0.415793216503947, 0.0840376614288675, 0.345852270607213, -1.218, 1.04, -1.028], a = 0.2, v = 0.2, t = 0.2)
movej(p[0.415766429088923, 0.0839976779416579, 0.346423045164413, -1.218, 1.04, -1.028], a = 0.2, v = 0.2, t = 0.2)
movej(p[0.415741727425836, 0.0839608076938505, 0.346949377428926, -1.218, 1.04, -1.028], a = 0.2, v = 0.2, t = 0.2)
movej(p[0.41572285277377, 0.0839326349713683, 0.347351550283825, -1.218, 1.04, -1.028], a = 0.2, v = 0.2, t = 0.2)
movej(p[0.41572285277377, 0.0839326349713683, 0.347351550283825, -1.218, 1.04, -1.028], a = 0.2, v = 0.2, t = 0.2)
movej(p[0.415723334460876, 0.0839333539481809, 0.34734128670502, -1.218, 1.04, -1.028], a = 0.2, v = 0.2, t = 0.2)
movej(p[0.415808064625927, 0.0840598240636249, 0.345535893299407, -1.218, 1.04, -1.028], a = 0.2, v = 0.2, t = 0.2)
movej(p[0.415908788673551, 0.0842101670013902, 0.34338970921893, -1.218, 1.04, -1.028], a = 0.2, v = 0.2, t = 0.2)
movej(p[0.415999911715058, 0.0843461792654053, 0.341448099189768, -1.218, 1.04, -1.028], a = 0.2, v = 0.2, t = 0.2)
movej(p[0.416101566400879, 0.084497911294294, 0.339282085476455, -1.218, 1.04, -1.028], a = 0.2, v = 0.2, t = 0.2)
movej(p[0.416195677773077, 0.0846383840066903, 0.337276801400147, -1.218, 1.04, -1.028], a = 0.2, v = 0.2, t = 0.2)
movej(p[0.41627679294654, 0.084759458305861, 0.335548434658765, -1.218, 1.04, -1.028], a = 0.2, v = 0.2, t = 0.2)
movej(p[0.416287118821605, 0.0847748709350088, 0.335328415416045, -1.218, 1.04, -1.028], a = 0.2, v = 0.2, t = 0.2)
movej(p[0.416289326164463, 0.0847781656637035, 0.335281382317058, -1.218, 1.04, -1.028], a = 0.2, v = 0.2, t = 0.2)
movej(p[0.416287118821605, 0.0847748709350088, 0.335328415416045, -1.218, 1.04, -1.028], a = 0.2, v = 0.2, t = 0.2)
movej(p[0.416279510035948, 0.0847635138935127, 0.335490540102596, -1.218, 1.04, -1.028], a = 0.2, v = 0.2, t = 0.2)
movej(p[0.416218574278656, 0.0846725598365398, 0.336788932644551, -1.218, 1.04, -1.028], a = 0.2, v = 0.2, t = 0.2)
movej(p[0.416109582048461, 0.0845098756268843, 0.339111291553438, -1.218, 1.04, -1.028], a = 0.2, v = 0.2, t = 0.2)
movej(p[0.416009489338307, 0.0843604750373685, 0.341244023370434, -1.218, 1.04, -1.028], a = 0.2, v = 0.2, t = 0.2)
movej(p[0.41589669505357, 0.0841921157971437, 0.343647394799398, -1.218, 1.04, -1.028], a = 0.2, v = 0.2, t = 0.2)
movej(p[0.415823866768973, 0.0840834106912927, 0.345199188126785, -1.218, 1.04, -1.028], a = 0.2, v = 0.2, t = 0.2)
movej(p[0.415783479877187, 0.0840231283247526, 0.346059734404016, -1.218, 1.04, -1.028], a = 0.2, v = 0.2, t = 0.2)
movej(p[0.415766952865194, 0.0839984597416872, 0.346411884768043, -1.218, 1.04, -1.028], a = 0.2, v = 0.2, t = 0.2)
movej(p[0.41576087799576, 0.0839893922574195, 0.346541325436654, -1.218, 1.04, -1.028], a = 0.2, v = 0.2, t = 0.2)
movej(p[0.415730475589148, 0.0839440129539367, 0.347189126658085, -1.218, 1.04, -1.028], a = 0.2, v = 0.2, t = 0.2)
movej(p[0.415708813699066, 0.0839116799384418, 0.347650688765095, -1.218, 1.04, -1.028], a = 0.2, v = 0.2, t = 0.2)
movej(p[0.415686108933014, 0.0838777903032458, 0.348134472018448, -1.218, 1.04, -1.028], a = 0.2, v = 0.2, t = 0.2)
movej(p[0.41566962868676, 0.0838531915237545, 0.348485625918513, -1.218, 1.04, -1.028], a = 0.2, v = 0.2, t = 0.2)
movej(p[0.41566962868676, 0.0838531915237545, 0.348485625918513, -1.218, 1.04, -1.028], a = 0.2, v = 0.2, t = 0.2)
movej(p[0.415694863479265, 0.0838908575323059, 0.347947933964838, -1.218, 1.04, -1.028], a = 0.2, v = 0.2, t = 0.2)
movej(p[0.415795400463936, 0.0840409212557751, 0.345805735740207, -1.218, 1.04, -1.028], a = 0.2, v = 0.2, t = 0.2)
movej(p[0.415896910175967, 0.0841924368935843, 0.343642811065175, -1.218, 1.04, -1.028], a = 0.2, v = 0.2, t = 0.2)
movej(p[0.416006814338063, 0.0843564822729335, 0.341301021109037, -1.218, 1.04, -1.028], a = 0.2, v = 0.2, t = 0.2)
movej(p[0.416095706653842, 0.0844891649064669, 0.339406942410842, -1.218, 1.04, -1.028], a = 0.2, v = 0.2, t = 0.2)
movej(p[0.416198016060003, 0.0846418741853922, 0.337226978202067, -1.218, 1.04, -1.028], a = 0.2, v = 0.2, t = 0.2)
movej(p[0.416302055798488, 0.0847971661965569, 0.335010144826713, -1.218, 1.04, -1.028], a = 0.2, v = 0.2, t = 0.2)
movej(p[0.416307176646856, 0.0848048096879142, 0.334901032022918, -1.218, 1.04, -1.028], a = 0.2, v = 0.2, t = 0.2)
movej(p[0.416307176646856, 0.0848048096879142, 0.334901032022918, -1.218, 1.04, -1.028], a = 0.2, v = 0.2, t = 0.2)
movej(p[0.41617554044607, 0.084608326587709, 0.337705878782008, -1.218, 1.04, -1.028], a = 0.2, v = 0.2, t = 0.2)
movej(p[0.416025726402721, 0.0843847108382749, 0.340898051082969, -1.218, 1.04, -1.028], a = 0.2, v = 0.2, t = 0.2)
movej(p[0.415911697502487, 0.0842145087836955, 0.343327729160519, -1.218, 1.04, -1.028], a = 0.2, v = 0.2, t = 0.2)
movej(p[0.415842297146524, 0.0841109202798215, 0.344806481679522, -1.218, 1.04, -1.028], a = 0.2, v = 0.2, t = 0.2)
movej(p[0.415809275858555, 0.0840616319761925, 0.345510084882802, -1.218, 1.04, -1.028], a = 0.2, v = 0.2, t = 0.2)
movej(p[0.415772232717073, 0.0840063405651962, 0.346299383986779, -1.218, 1.04, -1.028], a = 0.2, v = 0.2, t = 0.2)
movej(p[0.415746408676262, 0.0839677950316118, 0.346849631386371, -1.218, 1.04, -1.028], a = 0.2, v = 0.2, t = 0.2)
movej(p[0.415710974276185, 0.0839149048635624, 0.347604652130069, -1.218, 1.04, -1.028], a = 0.2, v = 0.2, t = 0.2)
movej(p[0.415695490140161, 0.0838917929001981, 0.347934581347752, -1.218, 1.04, -1.028], a = 0.2, v = 0.2, t = 0.2)
movej(p[0.415679767498871, 0.0838683249386061, 0.34826959253164, -1.218, 1.04, -1.028], a = 0.2, v = 0.2, t = 0.2)
movej(p[0.415668749490876, 0.0838518792165625, 0.348504359440991, -1.218, 1.04, -1.028], a = 0.2, v = 0.2, t = 0.2)
movej(p[0.415668749490876, 0.0838518792165625, 0.348504359440991, -1.218, 1.04, -1.028], a = 0.2, v = 0.2, t = 0.2)
movej(p[0.415687151808983, 0.0838793469229469, 0.348112250872104, -1.218, 1.04, -1.028], a = 0.2, v = 0.2, t = 0.2)
movej(p[0.415732266716934, 0.0839466864308224, 0.347150962088356, -1.218, 1.04, -1.028], a = 0.2, v = 0.2, t = 0.2)
movej(p[0.415865722104948, 0.0841458848900577, 0.34430735288116, -1.218, 1.04, -1.028], a = 0.2, v = 0.2, t = 0.2)
movej(p[0.415996614730492, 0.0843412581134356, 0.34151834989906, -1.218, 1.04, -1.028], a = 0.2, v = 0.2, t = 0.2)
movej(p[0.416091670770608, 0.0844831408580274, 0.339492937250728, -1.218, 1.04, -1.028], a = 0.2, v = 0.2, t = 0.2)
movej(p[0.416182634808603, 0.0846189157898908, 0.337554715199035, -1.218, 1.04, -1.028], a = 0.2, v = 0.2, t = 0.2)
movej(p[0.416289803174996, 0.0847788776601587, 0.33527121838465, -1.218, 1.04, -1.028], a = 0.2, v = 0.2, t = 0.2)
movej(p[0.416339828485491, 0.0848535465433082, 0.334205300884935, -1.218, 1.04, -1.028], a = 0.2, v = 0.2, t = 0.2)
movej(p[0.416339828485491, 0.0848535465433082, 0.334205300884935, -1.218, 1.04, -1.028], a = 0.2, v = 0.2, t = 0.2)
movej(p[0.416203749539545, 0.0846504321035694, 0.337104811720376, -1.218, 1.04, -1.028], a = 0.2, v = 0.2, t = 0.2)
movej(p[0.416028060013073, 0.0843881940366195, 0.340848327531285, -1.218, 1.04, -1.028], a = 0.2, v = 0.2, t = 0.2)
movej(p[0.415903064547157, 0.0842016230439279, 0.343511676407829, -1.218, 1.04, -1.028], a = 0.2, v = 0.2, t = 0.2)
movej(p[0.415824329749784, 0.0840841017466757, 0.345189323133566, -1.218, 1.04, -1.028], a = 0.2, v = 0.2, t = 0.2)
movej(p[0.415792865760908, 0.0840371379020622, 0.345859744086925, -1.218, 1.04, -1.028], a = 0.2, v = 0.2, t = 0.2)
movej(p[0.415765788398305, 0.0839967216326936, 0.346436696720687, -1.218, 1.04, -1.028], a = 0.2, v = 0.2, t = 0.2)
movej(p[0.415744313571176, 0.0839646678314949, 0.34689427297185, -1.218, 1.04, -1.028], a = 0.2, v = 0.2, t = 0.2)
movej(p[0.415727716410576, 0.0839398945430684, 0.347247918031819, -1.218, 1.04, -1.028], a = 0.2, v = 0.2, t = 0.2)
movej(p[0.415711058454515, 0.0839150305099957, 0.347602858494938, -1.218, 1.04, -1.028], a = 0.2, v = 0.2, t = 0.2)
movej(p[0.415695939091251, 0.0838924630145089, 0.347925015293721, -1.218, 1.04, -1.028], a = 0.2, v = 0.2, t = 0.2)
movej(p[0.415687133102688, 0.0838793190015173, 0.348112649457689, -1.218, 1.04, -1.028], a = 0.2, v = 0.2, t = 0.2)
movej(p[0.415687133102688, 0.0838793190015173, 0.348112649457689, -1.218, 1.04, -1.028], a = 0.2, v = 0.2, t = 0.2)
movej(p[0.415754784420031, 0.0839802968517222, 0.346671164690849, -1.218, 1.04, -1.028], a = 0.2, v = 0.2, t = 0.2)
movej(p[0.41582933836038, 0.0840915777094553, 0.345082601843279, -1.218, 1.04, -1.028], a = 0.2, v = 0.2, t = 0.2)
movej(p[0.415903265639832, 0.0842019231992962, 0.343507391612794, -1.218, 1.04, -1.028], a = 0.2, v = 0.2, t = 0.2)
movej(p[0.415968934089862, 0.0842999413779619, 0.342108156917926, -1.218, 1.04, -1.028], a = 0.2, v = 0.2, t = 0.2)
movej(p[0.416041715608721, 0.0844085766802389, 0.3405573600545, -1.218, 1.04, -1.028], a = 0.2, v = 0.2, t = 0.2)
movej(p[0.416067862333127, 0.0844476038584841, 0.340000237053574, -1.218, 1.04, -1.028], a = 0.2, v = 0.2, t = 0.2)
movej(p[0.416088518759832, 0.0844784360971372, 0.339560098921739, -1.218, 1.04, -1.028], a = 0.2, v = 0.2, t = 0.2)
movej(p[0.41615329866083, 0.0845751280078961, 0.338179797042141, -1.218, 1.04, -1.028], a = 0.2, v = 0.2, t = 0.2)
movej(p[0.41615329866083, 0.0845751280078961, 0.338179797042141, -1.218, 1.04, -1.028], a = 0.2, v = 0.2, t = 0.2)
movej(p[0.416114239916018, 0.0845168280628586, 0.339012043742863, -1.218, 1.04, -1.028], a = 0.2, v = 0.2, t = 0.2)
movej(p[0.415882520358225, 0.0841709583338525, 0.343949423026157, -1.218, 1.04, -1.028], a = 0.2, v = 0.2, t = 0.2)
movej(p[0.415783395698858, 0.0840230026783193, 0.346061528039147, -1.218, 1.04, -1.028], a = 0.2, v = 0.2, t = 0.2)
movej(p[0.415743602731951, 0.0839636068171695, 0.346909419224066, -1.218, 1.04, -1.028], a = 0.2, v = 0.2, t = 0.2)
movej(p[0.415723287695138, 0.0839332841446069, 0.347342283168982, -1.218, 1.04, -1.028], a = 0.2, v = 0.2, t = 0.2)
movej(p[0.415707625849307, 0.0839099069276612, 0.347675998949719, -1.218, 1.04, -1.028], a = 0.2, v = 0.2, t = 0.2)
movej(p[0.415697800367644, 0.0838952411967556, 0.34788535602805, -1.218, 1.04, -1.028], a = 0.2, v = 0.2, t = 0.2)
movej(p[0.415693858015887, 0.0838893567554641, 0.347969357940012, -1.218, 1.04, -1.028], a = 0.2, v = 0.2, t = 0.2)
movej(p[0.415684752726597, 0.0838757659995987, 0.348163369473334, -1.218, 1.04, -1.028], a = 0.2, v = 0.2, t = 0.2)
movej(p[0.415671821999897, 0.0838564653113769, 0.348438891758714, -1.218, 1.04, -1.028], a = 0.2, v = 0.2, t = 0.2)
movej(p[0.415671821999897, 0.0838564653113769, 0.348438891758714, -1.218, 1.04, -1.028], a = 0.2, v = 0.2, t = 0.2)
movej(p[0.415720350806759, 0.0839289004801572, 0.34740486110577, -1.218, 1.04, -1.028], a = 0.2, v = 0.2, t = 0.2)
movej(p[0.415782703565928, 0.0840219695854235, 0.346076275705779, -1.218, 1.04, -1.028], a = 0.2, v = 0.2, t = 0.2)
movej(p[0.415855630058576, 0.08413082127878, 0.344522389804072, -1.218, 1.04, -1.028], a = 0.2, v = 0.2, t = 0.2)
movej(p[0.415911777004243, 0.0842146274497713, 0.343326035171784, -1.218, 1.04, -1.028], a = 0.2, v = 0.2, t = 0.2)
movej(p[0.415981097858451, 0.0843180972875694, 0.341848976641516, -1.218, 1.04, -1.028], a = 0.2, v = 0.2, t = 0.2)
movej(p[0.416000505639937, 0.0843470657707956, 0.341435444097456, -1.218, 1.04, -1.028], a = 0.2, v = 0.2, t = 0.2)
movej(p[0.416074358094208, 0.0844572995749181, 0.339861828209309, -1.218, 1.04, -1.028], a = 0.2, v = 0.2, t = 0.2)
movej(p[0.416148098310706, 0.0845673658504629, 0.338290603834671, -1.218, 1.04, -1.028], a = 0.2, v = 0.2, t = 0.2)
movej(p[0.416220949978173, 0.084676105858101, 0.336738312275302, -1.218, 1.04, -1.028], a = 0.2, v = 0.2, t = 0.2)
movej(p[0.416280412614701, 0.0847648611024916, 0.335471308348138, -1.218, 1.04, -1.028], a = 0.2, v = 0.2, t = 0.2)
movej(p[0.416280412614701, 0.0847648611024916, 0.335471308348138, -1.218, 1.04, -1.028], a = 0.2, v = 0.2, t = 0.2)
movej(p[0.416230045914315, 0.0846896826532516, 0.336544500034772, -1.218, 1.04, -1.028], a = 0.2, v = 0.2, t = 0.2)
movej(p[0.416212204785069, 0.0846630525897557, 0.33692465103612, -1.218, 1.04, -1.028], a = 0.2, v = 0.2, t = 0.2)
movej(p[0.416106663866377, 0.0845055198838643, 0.339173470904641, -1.218, 1.04, -1.028], a = 0.2, v = 0.2, t = 0.2)
movej(p[0.415958683039978, 0.0842846404345325, 0.342326581818307, -1.218, 1.04, -1.028], a = 0.2, v = 0.2, t = 0.2)
movej(p[0.415847736001913, 0.0841190384354822, 0.344690592920789, -1.218, 1.04, -1.028], a = 0.2, v = 0.2, t = 0.2)
movej(p[0.415777984902911, 0.084014926404803, 0.346176818919504, -1.218, 1.04, -1.028], a = 0.2, v = 0.2, t = 0.2)
movej(p[0.415743794471479, 0.083963893011823, 0.346905333721824, -1.218, 1.04, -1.028], a = 0.2, v = 0.2, t = 0.2)
movej(p[0.415720187126674, 0.0839286561676481, 0.347408348729635, -1.218, 1.04, -1.028], a = 0.2, v = 0.2, t = 0.2)
movej(p[0.415692207185317, 0.0838868926893005, 0.348004533117856, -1.218, 1.04, -1.028], a = 0.2, v = 0.2, t = 0.2)
movej(p[0.415680001327564, 0.0838686739564763, 0.348264610211832, -1.218, 1.04, -1.028], a = 0.2, v = 0.2, t = 0.2)
movej(p[0.415668941230404, 0.0838521654112161, 0.348500273938748, -1.218, 1.04, -1.028], a = 0.2, v = 0.2, t = 0.2)
movej(p[0.415668941230404, 0.0838521654112161, 0.348500273938748, -1.218, 1.04, -1.028], a = 0.2, v = 0.2, t = 0.2)
movej(p[0.415699792588105, 0.0838982148290097, 0.347842906663286, -1.218, 1.04, -1.028], a = 0.2, v = 0.2, t = 0.2)
movej(p[0.415783021572949, 0.084022444249727, 0.34606949975084, -1.218, 1.04, -1.028], a = 0.2, v = 0.2, t = 0.2)
movej(p[0.415883399554109, 0.0841722706410444, 0.343930689503679, -1.218, 1.04, -1.028], a = 0.2, v = 0.2, t = 0.2)
movej(p[0.415989342658152, 0.0843304036576725, 0.341673300045088, -1.218, 1.04, -1.028], a = 0.2, v = 0.2, t = 0.2)
movej(p[0.416078959842878, 0.0844641682466036, 0.339763776155488, -1.218, 1.04, -1.028], a = 0.2, v = 0.2, t = 0.2)
movej(p[0.41616307270018, 0.0845897169548702, 0.337971536074169, -1.218, 1.04, -1.028], a = 0.2, v = 0.2, t = 0.2)
movej(p[0.416288783681896, 0.0847773559422446, 0.335292941299013, -1.218, 1.04, -1.028], a = 0.2, v = 0.2, t = 0.2)
movej(p[0.416380510001429, 0.0849142686723648, 0.333338476884746, -1.218, 1.04, -1.028], a = 0.2, v = 0.2, t = 0.2)
movej(p[0.416380510001429, 0.0849142686723648, 0.333338476884746, -1.218, 1.04, -1.028], a = 0.2, v = 0.2, t = 0.2)
movej(p[0.41634691817145, 0.0848641287651326, 0.334054236948357, -1.218, 1.04, -1.028], a = 0.2, v = 0.2, t = 0.2)
movej(p[0.416276989362641, 0.084759751480872, 0.335544249510126, -1.218, 1.04, -1.028], a = 0.2, v = 0.2, t = 0.2)
movej(p[0.416170803076758, 0.0846012554856589, 0.337806820581318, -1.218, 1.04, -1.028], a = 0.2, v = 0.2, t = 0.2)
movej(p[0.416034555774153, 0.0843978897530535, 0.34070991868702, -1.218, 1.04, -1.028], a = 0.2, v = 0.2, t = 0.2)
movej(p[0.415920101305699, 0.0842270524859503, 0.343148664586621, -1.218, 1.04, -1.028], a = 0.2, v = 0.2, t = 0.2)
movej(p[0.41584271803817, 0.0841115485119878, 0.344797513503868, -1.218, 1.04, -1.028], a = 0.2, v = 0.2, t = 0.2)
movej(p[0.415792145568535, 0.084036062927022, 0.345875089631933, -1.218, 1.04, -1.028], a = 0.2, v = 0.2, t = 0.2)
movej(p[0.415758871745578, 0.0839863976840932, 0.346584073740606, -1.218, 1.04, -1.028], a = 0.2, v = 0.2, t = 0.2)
movej(p[0.415747989358224, 0.0839701543924143, 0.346815950904469, -1.218, 1.04, -1.028], a = 0.2, v = 0.2, t = 0.2)
movej(p[0.415737172442904, 0.0839540088257391, 0.347046433018785, -1.218, 1.04, -1.028], a = 0.2, v = 0.2, t = 0.2)
movej(p[0.415731378167902, 0.0839453601629157, 0.347169894903626, -1.218, 1.04, -1.028], a = 0.2, v = 0.2, t = 0.2)
movej(p[0.415731378167902, 0.0839453601629157, 0.347169894903626, -1.218, 1.04, -1.028], a = 0.2, v = 0.2, t = 0.2)
movej(p[0.415801218121808, 0.0840496048203856, 0.345681775623385, -1.218, 1.04, -1.028], a = 0.2, v = 0.2, t = 0.2)
movej(p[0.415899112842252, 0.0841957246419215, 0.343595877612584, -1.218, 1.04, -1.028], a = 0.2, v = 0.2, t = 0.2)
movej(p[0.416004317047626, 0.0843527547620798, 0.341354232284586, -1.218, 1.04, -1.028], a = 0.2, v = 0.2, t = 0.2)
movej(p[0.416085086154624, 0.0844733125148027, 0.33963323937652, -1.218, 1.04, -1.028], a = 0.2, v = 0.2, t = 0.2)
movej(p[0.416178785988323, 0.0846131709557473, 0.337636724183074, -1.218, 1.04, -1.028], a = 0.2, v = 0.2, t = 0.2)
movej(p[0.4162651389245, 0.0847420632552105, 0.335796753477994, -1.218, 1.04, -1.028], a = 0.2, v = 0.2, t = 0.2)
movej(p[0.4162651389245, 0.0847420632552105, 0.335796753477994, -1.218, 1.04, -1.028], a = 0.2, v = 0.2, t = 0.2)
movej(p[0.416237201072308, 0.0847003626000795, 0.336392041048649, -1.218, 1.04, -1.028], a = 0.2, v = 0.2, t = 0.2)
movej(p[0.416047257348735, 0.0844168484037625, 0.340439279075052, -1.218, 1.04, -1.028], a = 0.2, v = 0.2, t = 0.2)
movej(p[0.415959669797061, 0.0842861132899447, 0.342305556428718, -1.218, 1.04, -1.028], a = 0.2, v = 0.2, t = 0.2)
movej(p[0.41590360235315, 0.0842024257850293, 0.343500217072271, -1.218, 1.04, -1.028], a = 0.2, v = 0.2, t = 0.2)
movej(p[0.415823516025934, 0.0840828871644874, 0.345206661606497, -1.218, 1.04, -1.028], a = 0.2, v = 0.2, t = 0.2)
movej(p[0.415787978741233, 0.0840298434285751, 0.345963874570911, -1.218, 1.04, -1.028], a = 0.2, v = 0.2, t = 0.2)
movej(p[0.415762028432928, 0.0839911094253409, 0.346516812423199, -1.218, 1.04, -1.028], a = 0.2, v = 0.2, t = 0.2)
movej(p[0.415747442199083, 0.0839693376905981, 0.346827609532819, -1.218, 1.04, -1.028], a = 0.2, v = 0.2, t = 0.2)
movej(p[0.415723315754581, 0.0839333260267513, 0.347341685290605, -1.218, 1.04, -1.028], a = 0.2, v = 0.2, t = 0.2)
movej(p[0.415710843332118, 0.0839147094135551, 0.347607442229162, -1.218, 1.04, -1.028], a = 0.2, v = 0.2, t = 0.2)
movej(p[0.415696074711893, 0.0838926654448736, 0.347922125548232, -1.218, 1.04, -1.028], a = 0.2, v = 0.2, t = 0.2)
movej(p[0.415696074711893, 0.0838926654448736, 0.347922125548232, -1.218, 1.04, -1.028], a = 0.2, v = 0.2, t = 0.2)
movej(p[0.415712241627699, 0.0839167965404189, 0.34757764795671, -1.218, 1.04, -1.028], a = 0.2, v = 0.2, t = 0.2)
movej(p[0.415799548584942, 0.0840471128327924, 0.345717349386813, -1.218, 1.04, -1.028], a = 0.2, v = 0.2, t = 0.2)
movej(p[0.415886345795636, 0.0841766682662089, 0.343867912274098, -1.218, 1.04, -1.028], a = 0.2, v = 0.2, t = 0.2)
movej(p[0.415967694797791, 0.0842980915832498, 0.342134563212909, -1.218, 1.04, -1.028], a = 0.2, v = 0.2, t = 0.2)
movej(p[0.416032923649879, 0.0843954536083195, 0.34074469527928, -1.218, 1.04, -1.028], a = 0.2, v = 0.2, t = 0.2)
movej(p[0.416091857833562, 0.0844834200723235, 0.339488951394881, -1.218, 1.04, -1.028], a = 0.2, v = 0.2, t = 0.2)
movej(p[0.416161875497274, 0.0845879299833748, 0.337997045551585, -1.218, 1.04, -1.028], a = 0.2, v = 0.2, t = 0.2)
movej(p[0.416215118290579, 0.0846674013524183, 0.336862571331313, -1.218, 1.04, -1.028], a = 0.2, v = 0.2, t = 0.2)
movej(p[0.416215118290579, 0.0846674013524183, 0.336862571331313, -1.218, 1.04, -1.028], a = 0.2, v = 0.2, t = 0.2)
movej(p[0.416096702764073, 0.084490651722594, 0.33938571772846, -1.218, 1.04, -1.028], a = 0.2, v = 0.2, t = 0.2)
movej(p[0.415969149212259, 0.0843002624744024, 0.342103573183703, -1.218, 1.04, -1.028], a = 0.2, v = 0.2, t = 0.2)
movej(p[0.415926185528281, 0.0842361339309328, 0.343019024625218, -1.218, 1.04, -1.028], a = 0.2, v = 0.2, t = 0.2)
movej(p[0.415830138054508, 0.0840927713505713, 0.345065562309536, -1.218, 1.04, -1.028], a = 0.2, v = 0.2, t = 0.2)
movej(p[0.415761864752843, 0.0839908651128317, 0.346520300047064, -1.218, 1.04, -1.028], a = 0.2, v = 0.2, t = 0.2)
movej(p[0.415735400021415, 0.083951363270283, 0.347084199002929, -1.218, 1.04, -1.028], a = 0.2, v = 0.2, t = 0.2)
movej(p[0.415720701549798, 0.0839294240069625, 0.347397387626058, -1.218, 1.04, -1.028], a = 0.2, v = 0.2, t = 0.2)
movej(p[0.415710576767408, 0.0839143115331831, 0.347613122073743, -1.218, 1.04, -1.028], a = 0.2, v = 0.2, t = 0.2)
movej(p[0.415706218200578, 0.0839078058400826, 0.347705992514963, -1.218, 1.04, -1.028], a = 0.2, v = 0.2, t = 0.2)
movej(p[0.415706218200578, 0.0839078058400826, 0.347705992514963, -1.218, 1.04, -1.028], a = 0.2, v = 0.2, t = 0.2)
movej(p[0.415719663350403, 0.0839278743676189, 0.347419509126005, -1.218, 1.04, -1.028], a = 0.2, v = 0.2, t = 0.2)
movej(p[0.415793955402615, 0.0840387643253373, 0.34583652647662, -1.218, 1.04, -1.028], a = 0.2, v = 0.2, t = 0.2)
movej(p[0.415865595837454, 0.0841456964204078, 0.344310043333857, -1.218, 1.04, -1.028], a = 0.2, v = 0.2, t = 0.2)
movej(p[0.415932428754373, 0.084245452708067, 0.342885996686345, -1.218, 1.04, -1.028], a = 0.2, v = 0.2, t = 0.2)
movej(p[0.415991283436301, 0.0843333005059951, 0.341631946790681, -1.218, 1.04, -1.028], a = 0.2, v = 0.2, t = 0.2)
movej(p[0.416012309312339, 0.0843646841928831, 0.34118393659355, -1.218, 1.04, -1.028], a = 0.2, v = 0.2, t = 0.2)
movej(p[0.416024632084439, 0.0843830774346424, 0.34092136833967, -1.218, 1.04, -1.028], a = 0.2, v = 0.2, t = 0.2)
movej(p[0.416024632084439, 0.0843830774346424, 0.34092136833967, -1.218, 1.04, -1.028], a = 0.2, v = 0.2, t = 0.2)
movej(p[0.415945944052806, 0.0842656259409643, 0.342598018601445, -1.218, 1.04, -1.028], a = 0.2, v = 0.2, t = 0.2)
movej(p[0.415897452658534, 0.0841932466150432, 0.34363125208322, -1.218, 1.04, -1.028], a = 0.2, v = 0.2, t = 0.2)
movej(p[0.415829329007232, 0.0840915637487405, 0.345082801136071, -1.218, 1.04, -1.028], a = 0.2, v = 0.2, t = 0.2)
movej(p[0.41576941274304, 0.0840021314096816, 0.346359470763663, -1.218, 1.04, -1.028], a = 0.2, v = 0.2, t = 0.2)
movej(p[0.415742503737096, 0.0839619664331795, 0.346932836127164, -1.218, 1.04, -1.028], a = 0.2, v = 0.2, t = 0.2)
movej(p[0.415732411690723, 0.0839469028219019, 0.347147873050075, -1.218, 1.04, -1.028], a = 0.2, v = 0.2, t = 0.2)
movej(p[0.415710674975459, 0.0839144581206886, 0.347611029499423, -1.218, 1.04, -1.028], a = 0.2, v = 0.2, t = 0.2)
movej(p[0.415687413697119, 0.0838797378229615, 0.348106670673919, -1.218, 1.04, -1.028], a = 0.2, v = 0.2, t = 0.2)
movej(p[0.41568111435214, 0.0838703352815385, 0.348240894369546, -1.218, 1.04, -1.028], a = 0.2, v = 0.2, t = 0.2)
movej(p[0.41568111435214, 0.0838703352815385, 0.348240894369546, -1.218, 1.04, -1.028], a = 0.2, v = 0.2, t = 0.2)
movej(p[0.41573124254726, 0.0839451577325509, 0.347172784649115, -1.218, 1.04, -1.028], a = 0.2, v = 0.2, t = 0.2)
movej(p[0.41580962192502, 0.0840621485226404, 0.345502711049486, -1.218, 1.04, -1.028], a = 0.2, v = 0.2, t = 0.2)
movej(p[0.41590802171544, 0.084209022222776, 0.3434060512279, -1.218, 1.04, -1.028], a = 0.2, v = 0.2, t = 0.2)
movej(p[0.415985559309906, 0.0843247565485327, 0.34175391397958, -1.218, 1.04, -1.028], a = 0.2, v = 0.2, t = 0.2)
movej(p[0.416082733837977, 0.0844698013950285, 0.339683361513788, -1.218, 1.04, -1.028], a = 0.2, v = 0.2, t = 0.2)
movej(p[0.416165467105993, 0.084593290897861, 0.337920517119335, -1.218, 1.04, -1.028], a = 0.2, v = 0.2, t = 0.2)
movej(p[0.41624556746293, 0.0847128504594751, 0.33621377364592, -1.218, 1.04, -1.028], a = 0.2, v = 0.2, t = 0.2)
movej(p[0.416320112050131, 0.0848241173564934, 0.334625410091142, -1.218, 1.04, -1.028], a = 0.2, v = 0.2, t = 0.2)
movej(p[0.41639085458279, 0.0849297092229423, 0.333118059056441, -1.218, 1.04, -1.028], a = 0.2, v = 0.2, t = 0.2)
movej(p[0.41639085458279, 0.0849297092229423, 0.333118059056441, -1.218, 1.04, -1.028], a = 0.2, v = 0.2, t = 0.2)
movej(p[0.41635091196552, 0.0848700899903555, 0.333969138926037, -1.218, 1.04, -1.028], a = 0.2, v = 0.2, t = 0.2)
movej(p[0.416279809336674, 0.0847639606363865, 0.335484162733242, -1.218, 1.04, -1.028], a = 0.2, v = 0.2, t = 0.2)
movej(p[0.416192086164358, 0.0846330230922041, 0.337353329832397, -1.218, 1.04, -1.028], a = 0.2, v = 0.2, t = 0.2)
movej(p[0.4160829442838, 0.0844701155111117, 0.339678877425961, -1.218, 1.04, -1.028], a = 0.2, v = 0.2, t = 0.2)
movej(p[0.416009924259675, 0.0843611242106071, 0.341234756255591, -1.218, 1.04, -1.028], a = 0.2, v = 0.2, t = 0.2)
movej(p[0.415981383129456, 0.0843185230893711, 0.341842898211351, -1.218, 1.04, -1.028], a = 0.2, v = 0.2, t = 0.2)
movej(p[0.415848404751974, 0.084120036626591, 0.344676343486138, -1.218, 1.04, -1.028], a = 0.2, v = 0.2, t = 0.2)
movej(p[0.415772742463623, 0.0840071014241532, 0.346288522529598, -1.218, 1.04, -1.028], a = 0.2, v = 0.2, t = 0.2)
movej(p[0.415723465404944, 0.0839335493981882, 0.347338496605928, -1.218, 1.04, -1.028], a = 0.2, v = 0.2, t = 0.2)
movej(p[0.415708070123823, 0.0839105700616146, 0.347666532542084, -1.218, 1.04, -1.028], a = 0.2, v = 0.2, t = 0.2)
movej(p[0.415708070123823, 0.0839105700616146, 0.347666532542084, -1.218, 1.04, -1.028], a = 0.2, v = 0.2, t = 0.2)
movej(p[0.415774196878091, 0.0840092723153058, 0.346257532500393, -1.218, 1.04, -1.028], a = 0.2, v = 0.2, t = 0.2)
movej(p[0.415877226476624, 0.0841630565692713, 0.344062222746609, -1.218, 1.04, -1.028], a = 0.2, v = 0.2, t = 0.2)
movej(p[0.415971763417043, 0.0843041644941912, 0.34204787084825, -1.218, 1.04, -1.028], a = 0.2, v = 0.2, t = 0.2)
movej(p[0.416094074529568, 0.084486728761733, 0.339441719003102, -1.218, 1.04, -1.028], a = 0.2, v = 0.2, t = 0.2)
movej(p[0.416209529784826, 0.0846590598253206, 0.336981648774723, -1.218, 1.04, -1.028], a = 0.2, v = 0.2, t = 0.2)
movej(p[0.416312461175309, 0.0848126974917806, 0.334788431595259, -1.218, 1.04, -1.028], a = 0.2, v = 0.2, t = 0.2)
movej(p[0.416409705851987, 0.0849578470436374, 0.332716384433524, -1.218, 1.04, -1.028], a = 0.2, v = 0.2, t = 0.2)
movej(p[0.41645821127598, 0.0850302473106307, 0.33168285201256, -1.218, 1.04, -1.028], a = 0.2, v = 0.2, t = 0.2)
movej(p[0.416462541783367, 0.0850367111215868, 0.331590579449717, -1.218, 1.04, -1.028], a = 0.2, v = 0.2, t = 0.2)
movej(p[0.416462541783367, 0.0850367111215868, 0.331590579449717, -1.218, 1.04, -1.028], a = 0.2, v = 0.2, t = 0.2)
movej(p[0.416428290556475, 0.0849855869839605, 0.332320389655187, -1.218, 1.04, -1.028], a = 0.2, v = 0.2, t = 0.2)
movej(p[0.416364937010502, 0.0848910240822098, 0.333670299383956, -1.218, 1.04, -1.028], a = 0.2, v = 0.2, t = 0.2)
movej(p[0.416282460954048, 0.0847679184990345, 0.33542766322662, -1.218, 1.04, -1.028], a = 0.2, v = 0.2, t = 0.2)
movej(p[0.416225589139434, 0.0846830303726456, 0.336639463050312, -1.218, 1.04, -1.028], a = 0.2, v = 0.2, t = 0.2)
movej(p[0.416201733936215, 0.0846474235695283, 0.33714775931712, -1.218, 1.04, -1.028], a = 0.2, v = 0.2, t = 0.2)
movej(p[0.416008918796297, 0.0843596234337653, 0.341256180230765, -1.218, 1.04, -1.028], a = 0.2, v = 0.2, t = 0.2)
movej(p[0.415874055759553, 0.0841583238869514, 0.344129783003205, -1.218, 1.04, -1.028], a = 0.2, v = 0.2, t = 0.2)
movej(p[0.415780571048251, 0.0840187865424473, 0.346121714462428, -1.218, 1.04, -1.028], a = 0.2, v = 0.2, t = 0.2)
movej(p[0.41575303538141, 0.0839776861980531, 0.346708432443013, -1.218, 1.04, -1.028], a = 0.2, v = 0.2, t = 0.2)
movej(p[0.415728544164147, 0.0839411300663289, 0.347230280619699, -1.218, 1.04, -1.028], a = 0.2, v = 0.2, t = 0.2)
movej(p[0.415717133323949, 0.0839240979942634, 0.347473417826327, -1.218, 1.04, -1.028], a = 0.2, v = 0.2, t = 0.2)
movej(p[0.415717133323949, 0.0839240979942634, 0.347473417826327, -1.218, 1.04, -1.028], a = 0.2, v = 0.2, t = 0.2)
movej(p[0.415729110029584, 0.0839419746895748, 0.347218223405764, -1.218, 1.04, -1.028], a = 0.2, v = 0.2, t = 0.2)
