def moving():
set_payload_mass(0)
set_tcp(p[0,0,0,0,0,0])
movej(p[-0.5409, -0.2445, 0.4138, -0.866, -1.573, 1.671], a = 0.2, v = 0.2, t = 0.2)
movej(p[-0.540893021266937, -0.244490487381658, 0.414019443341038, -0.866, -1.573, 1.671], a = 0.2, v = 0.2, t = 0.2)
movej(p[-0.540886042533873, -0.244480974763317, 0.414238886682077, -0.866, -1.573, 1.671], a = 0.2, v = 0.2, t = 0.2)
movej(p[-0.54087906380081, -0.244471462144976, 0.414458330023115, -0.866, -1.573, 1.671], a = 0.2, v = 0.2, t = 0.2)
movej(p[-0.540872085067747, -0.244461949526634, 0.414677773364154, -0.866, -1.573, 1.671], a = 0.2, v = 0.2, t = 0.2)
movej(p[-0.540865106334683, -0.244452436908292, 0.414897216705192, -0.866, -1.573, 1.671], a = 0.2, v = 0.2, t = 0.2)
movej(p[-0.54085812760162, -0.244442924289951, 0.415116660046231, -0.866, -1.573, 1.671], a = 0.2, v = 0.2, t = 0.2)
movej(p[-0.540851148868556, -0.24443341167161, 0.415336103387269, -0.866, -1.573, 1.671], a = 0.2, v = 0.2, t = 0.2)
movej(p[-0.540844170135493, -0.244423899053268, 0.415555546728308, -0.866, -1.573, 1.671], a = 0.2, v = 0.2, t = 0.2)
movej(p[-0.54083719140243, -0.244414386434927, 0.415774990069346, -0.866, -1.573, 1.671], a = 0.2, v = 0.2, t = 0.2)
movej(p[-0.540830212669366, -0.244404873816585, 0.415994433410384, -0.866, -1.573, 1.671], a = 0.2, v = 0.2, t = 0.2)
movej(p[-0.540848530401771, -0.244429842474314, 0.415418439979692, -0.866, -1.573, 1.671], a = 0.2, v = 0.2, t = 0.2)
movej(p[-0.540858744729254, -0.244443765488432, 0.41509725472599, -0.866, -1.573, 1.671], a = 0.2, v = 0.2, t = 0.2)
movej(p[-0.540867684428633, -0.244455951073911, 0.414816149619701, -0.866, -1.573, 1.671], a = 0.2, v = 0.2, t = 0.2)
movej(p[-0.540870833509834, -0.244460243544667, 0.414717128079034, -0.866, -1.573, 1.671], a = 0.2, v = 0.2, t = 0.2)
movej(p[-0.540871813992991, -0.244461580028236, 0.414686297196409, -0.866, -1.573, 1.671], a = 0.2, v = 0.2, t = 0.2)
movej(p[-0.540872765638409, -0.244462877203464, 0.414656373104449, -0.866, -1.573, 1.671], a = 0.2, v = 0.2, t = 0.2)
movej(p[-0.540876289610228, -0.244467680682643, 0.414545563285131, -0.866, -1.573, 1.671], a = 0.2, v = 0.2, t = 0.2)
movej(p[-0.540873013642972, -0.24446321525519, 0.414648574704726, -0.866, -1.573, 1.671], a = 0.2, v = 0.2, t = 0.2)
movej(p[-0.540851477618792, -0.244433859786688, 0.415325765973683, -0.866, -1.573, 1.671], a = 0.2, v = 0.2, t = 0.2)
movej(p[-0.54082307244496, -0.244395141071538, 0.416218954779149, -0.866, -1.573, 1.671], a = 0.2, v = 0.2, t = 0.2)
movej(p[-0.540792158387753, -0.244353002530786, 0.41719103437251, -0.866, -1.573, 1.671], a = 0.2, v = 0.2, t = 0.2)
movej(p[-0.540750764695856, -0.244296579339185, 0.418492641693694, -0.866, -1.573, 1.671], a = 0.2, v = 0.2, t = 0.2)
movej(p[-0.540716378574762, -0.244249708074266, 0.419573898883174, -0.866, -1.573, 1.671], a = 0.2, v = 0.2, t = 0.2)
movej(p[-0.540709036486176, -0.244239700170837, 0.419804767786598, -0.866, -1.573, 1.671], a = 0.2, v = 0.2, t = 0.2)
movej(p[-0.540744449230811, -0.244287970812669, 0.418691228849427, -0.866, -1.573, 1.671], a = 0.2, v = 0.2, t = 0.2)
movej(p[-0.540793052357691, -0.244354221089334, 0.417162923861881, -0.866, -1.573, 1.671], a = 0.2, v = 0.2, t = 0.2)
movej(p[-0.540828609291026, -0.244402688272867, 0.416044850971383, -0.866, -1.573, 1.671], a = 0.2, v = 0.2, t = 0.2)
movej(p[-0.540855036195899, -0.244438710435876, 0.415213868005567, -0.866, -1.573, 1.671], a = 0.2, v = 0.2, t = 0.2)
movej(p[-0.540864016268114, -0.244450951053031, 0.414931493392346, -0.866, -1.573, 1.671], a = 0.2, v = 0.2, t = 0.2)
movej(p[-0.540868001643772, -0.244456383465654, 0.414806174922381, -0.866, -1.573, 1.671], a = 0.2, v = 0.2, t = 0.2)
movej(p[-0.540872759870861, -0.244462869341796, 0.414656554462582, -0.866, -1.573, 1.671], a = 0.2, v = 0.2, t = 0.2)
movej(p[-0.540873284717728, -0.244463584753589, 0.414640050872471, -0.866, -1.573, 1.671], a = 0.2, v = 0.2, t = 0.2)
movej(p[-0.540864454601761, -0.244451548539803, 0.414917710174231, -0.866, -1.573, 1.671], a = 0.2, v = 0.2, t = 0.2)
movej(p[-0.540838483333179, -0.24441614744857, 0.415734365847534, -0.866, -1.573, 1.671], a = 0.2, v = 0.2, t = 0.2)
movej(p[-0.540805769801001, -0.244371556067386, 0.416763029178418, -0.866, -1.573, 1.671], a = 0.2, v = 0.2, t = 0.2)
movej(p[-0.540767127229493, -0.244318882891445, 0.417978128670119, -0.866, -1.573, 1.671], a = 0.2, v = 0.2, t = 0.2)
movej(p[-0.540730739769248, -0.244269283627712, 0.419122317131781, -0.866, -1.573, 1.671], a = 0.2, v = 0.2, t = 0.2)
movej(p[-0.540711112803451, -0.244242530371335, 0.419739478858685, -0.866, -1.573, 1.671], a = 0.2, v = 0.2, t = 0.2)
movej(p[-0.540727550315211, -0.24426493612528, 0.41922260817938, -0.866, -1.573, 1.671], a = 0.2, v = 0.2, t = 0.2)
movej(p[-0.540771787408266, -0.24432523511923, 0.417831591298582, -0.866, -1.573, 1.671], a = 0.2, v = 0.2, t = 0.2)
movej(p[-0.540815217044602, -0.244384433479653, 0.416465964556417, -0.866, -1.573, 1.671], a = 0.2, v = 0.2, t = 0.2)
movej(p[-0.540848207419083, -0.244429402220904, 0.415428596035145, -0.866, -1.573, 1.671], a = 0.2, v = 0.2, t = 0.2)
movej(p[-0.540860636484994, -0.244446344115553, 0.415037769258337, -0.866, -1.573, 1.671], a = 0.2, v = 0.2, t = 0.2)
movej(p[-0.540867107673834, -0.244455164907106, 0.41483428543301, -0.866, -1.573, 1.671], a = 0.2, v = 0.2, t = 0.2)
movej(p[-0.540870908487957, -0.244460345746352, 0.414714770423304, -0.866, -1.573, 1.671], a = 0.2, v = 0.2, t = 0.2)
movej(p[-0.540873982591034, -0.244464536015423, 0.414618106538367, -0.866, -1.573, 1.671], a = 0.2, v = 0.2, t = 0.2)
movej(p[-0.540871364124248, -0.244460966818128, 0.41470044313079, -0.866, -1.573, 1.671], a = 0.2, v = 0.2, t = 0.2)
movej(p[-0.540852838760116, -0.244435715140348, 0.415282965454274, -0.866, -1.573, 1.671], a = 0.2, v = 0.2, t = 0.2)
movej(p[-0.540825091086755, -0.244397892655356, 0.416155479432568, -0.866, -1.573, 1.671], a = 0.2, v = 0.2, t = 0.2)
movej(p[-0.54078328789895, -0.244340911285324, 0.417469963181202, -0.866, -1.573, 1.671], a = 0.2, v = 0.2, t = 0.2)
movej(p[-0.540746588991114, -0.244290887491516, 0.418623944982051, -0.866, -1.573, 1.671], a = 0.2, v = 0.2, t = 0.2)
movej(p[-0.540720173621337, -0.244254881051843, 0.419454565231601, -0.866, -1.573, 1.671], a = 0.2, v = 0.2, t = 0.2)
movej(p[-0.540710115017649, -0.244241170302763, 0.41977085381571, -0.866, -1.573, 1.671], a = 0.2, v = 0.2, t = 0.2)
movej(p[-0.540733761964393, -0.244273403141771, 0.419027285470042, -0.866, -1.573, 1.671], a = 0.2, v = 0.2, t = 0.2)
movej(p[-0.540784591364795, -0.244342688022303, 0.417428976243123, -0.866, -1.573, 1.671], a = 0.2, v = 0.2, t = 0.2)
movej(p[-0.540829203348469, -0.244403498024676, 0.416026171083675, -0.866, -1.573, 1.671], a = 0.2, v = 0.2, t = 0.2)
movej(p[-0.540849608933244, -0.24443131260624, 0.415384526008804, -0.866, -1.573, 1.671], a = 0.2, v = 0.2, t = 0.2)
movej(p[-0.540861409336424, -0.244447397579072, 0.415013467268503, -0.866, -1.573, 1.671], a = 0.2, v = 0.2, t = 0.2)
movej(p[-0.540868549560831, -0.244457130324119, 0.414788945899738, -0.866, -1.573, 1.671], a = 0.2, v = 0.2, t = 0.2)
movej(p[-0.540872546471585, -0.244462578460078, 0.414663264713507, -0.866, -1.573, 1.671], a = 0.2, v = 0.2, t = 0.2)
movej(p[-0.540873203972056, -0.244463474690236, 0.414642589886334, -0.866, -1.573, 1.671], a = 0.2, v = 0.2, t = 0.2)
movej(p[-0.540865187080355, -0.244452546971645, 0.414894677691329, -0.866, -1.573, 1.671], a = 0.2, v = 0.2, t = 0.2)
movej(p[-0.540839360000473, -0.244417342422114, 0.415706799411304, -0.866, -1.573, 1.671], a = 0.2, v = 0.2, t = 0.2)
movej(p[-0.540797735606656, -0.244360604763791, 0.417015661057812, -0.866, -1.573, 1.671], a = 0.2, v = 0.2, t = 0.2)
movej(p[-0.54075733970056, -0.244305541640763, 0.418285893421972, -0.866, -1.573, 1.671], a = 0.2, v = 0.2, t = 0.2)
movej(p[-0.540731218475731, -0.244269936146161, 0.419107264406735, -0.866, -1.573, 1.671], a = 0.2, v = 0.2, t = 0.2)
movej(p[-0.540706937098709, -0.244236838523667, 0.419870782147042, -0.866, -1.573, 1.671], a = 0.2, v = 0.2, t = 0.2)
movej(p[-0.540714648310366, -0.244247349573851, 0.419628306323101, -0.866, -1.573, 1.671], a = 0.2, v = 0.2, t = 0.2)
movej(p[-0.540766556242242, -0.244318104586308, 0.417996083125295, -0.866, -1.573, 1.671], a = 0.2, v = 0.2, t = 0.2)
movej(p[-0.5408193754467, -0.244390101742318, 0.41633520534246, -0.866, -1.573, 1.671], a = 0.2, v = 0.2, t = 0.2)
movej(p[-0.540845623557586, -0.244425880193617, 0.415509844478769, -0.866, -1.573, 1.671], a = 0.2, v = 0.2, t = 0.2)
movej(p[-0.540858819707378, -0.244443867690117, 0.41509489707026, -0.866, -1.573, 1.671], a = 0.2, v = 0.2, t = 0.2)
movej(p[-0.540868976359382, -0.244457712087555, 0.414775525397889, -0.866, -1.573, 1.671], a = 0.2, v = 0.2, t = 0.2)
movej(p[-0.540871687106935, -0.244461407071538, 0.414690287075337, -0.866, -1.573, 1.671], a = 0.2, v = 0.2, t = 0.2)
movej(p[-0.540872367677598, -0.244462334748368, 0.414668886815632, -0.866, -1.573, 1.671], a = 0.2, v = 0.2, t = 0.2)
movej(p[-0.540865856115921, -0.244453458925139, 0.414873640147891, -0.866, -1.573, 1.671], a = 0.2, v = 0.2, t = 0.2)
movej(p[-0.540844510420824, -0.244424362891683, 0.415544846598455, -0.866, -1.573, 1.671], a = 0.2, v = 0.2, t = 0.2)
movej(p[-0.540806542652431, -0.244372609530904, 0.416738727188584, -0.866, -1.573, 1.671], a = 0.2, v = 0.2, t = 0.2)
movej(p[-0.540769872582334, -0.244322625045437, 0.417891802198768, -0.866, -1.573, 1.671], a = 0.2, v = 0.2, t = 0.2)
movej(p[-0.540740590741208, -0.244282711356743, 0.418812557440464, -0.866, -1.573, 1.671], a = 0.2, v = 0.2, t = 0.2)
movej(p[-0.540712502782515, -0.244244425033336, 0.419695771548611, -0.866, -1.573, 1.671], a = 0.2, v = 0.2, t = 0.2)
movej(p[-0.540711176246478, -0.244242616849684, 0.419737483919221, -0.866, -1.573, 1.671], a = 0.2, v = 0.2, t = 0.2)
movej(p[-0.540753354324902, -0.24430010922814, 0.418411211891937, -0.866, -1.573, 1.671], a = 0.2, v = 0.2, t = 0.2)
movej(p[-0.540807511600493, -0.244373930291137, 0.416708259022225, -0.866, -1.573, 1.671], a = 0.2, v = 0.2, t = 0.2)
movej(p[-0.540839377303117, -0.244417366007118, 0.415706255336905, -0.866, -1.573, 1.671], a = 0.2, v = 0.2, t = 0.2)
movej(p[-0.540857245166778, -0.244441721454739, 0.415144407840593, -0.866, -1.573, 1.671], a = 0.2, v = 0.2, t = 0.2)
movej(p[-0.540869316644713, -0.24445817592597, 0.414764825268037, -0.866, -1.573, 1.671], a = 0.2, v = 0.2, t = 0.2)
movej(p[-0.540871692874483, -0.244461414933207, 0.414690105717204, -0.866, -1.573, 1.671], a = 0.2, v = 0.2, t = 0.2)
movej(p[-0.540871865900923, -0.244461650783248, 0.414684664973211, -0.866, -1.573, 1.671], a = 0.2, v = 0.2, t = 0.2)
movej(p[-0.540868047784156, -0.244456446358998, 0.414804724057317, -0.866, -1.573, 1.671], a = 0.2, v = 0.2, t = 0.2)
movej(p[-0.54084612533426, -0.244426564158737, 0.41549406632119, -0.866, -1.573, 1.671], a = 0.2, v = 0.2, t = 0.2)
movej(p[-0.540808774693502, -0.24437565199644, 0.416668541591079, -0.866, -1.573, 1.671], a = 0.2, v = 0.2, t = 0.2)
movej(p[-0.540774400107504, -0.244328796454857, 0.417749436064293, -0.866, -1.573, 1.671], a = 0.2, v = 0.2, t = 0.2)
movej(p[-0.54074488179691, -0.244288560437773, 0.418677626989445, -0.866, -1.573, 1.671], a = 0.2, v = 0.2, t = 0.2)
movej(p[-0.540715865262991, -0.244249008385809, 0.419590039757019, -0.866, -1.573, 1.671], a = 0.2, v = 0.2, t = 0.2)
movej(p[-0.5407086788982, -0.244239212747418, 0.419816011990849, -0.866, -1.573, 1.671], a = 0.2, v = 0.2, t = 0.2)
movej(p[-0.540750014914618, -0.244295557322338, 0.418516218250996, -0.866, -1.573, 1.671], a = 0.2, v = 0.2, t = 0.2)
movej(p[-0.540796985825418, -0.244359582746944, 0.417039237615114, -0.866, -1.573, 1.671], a = 0.2, v = 0.2, t = 0.2)
movej(p[-0.54083217940323, -0.24440755464539, 0.415932590287001, -0.866, -1.573, 1.671], a = 0.2, v = 0.2, t = 0.2)
movej(p[-0.540854292182209, -0.244437696280697, 0.415237263204735, -0.866, -1.573, 1.671], a = 0.2, v = 0.2, t = 0.2)
movej(p[-0.540868786030298, -0.244457452652509, 0.414781510216281, -0.866, -1.573, 1.671], a = 0.2, v = 0.2, t = 0.2)
movej(p[-0.540871715944675, -0.244461446379879, 0.414689380284672, -0.866, -1.573, 1.671], a = 0.2, v = 0.2, t = 0.2)
movej(p[-0.540873042480712, -0.24446325456353, 0.414647667914061, -0.866, -1.573, 1.671], a = 0.2, v = 0.2, t = 0.2)
movej(p[-0.540875084192699, -0.24446603759402, 0.414583467134947, -0.866, -1.573, 1.671], a = 0.2, v = 0.2, t = 0.2)
movej(p[-0.540867701731277, -0.244455974658915, 0.414815605545302, -0.866, -1.573, 1.671], a = 0.2, v = 0.2, t = 0.2)
movej(p[-0.540836205151724, -0.24441304208969, 0.415806002310104, -0.866, -1.573, 1.671], a = 0.2, v = 0.2, t = 0.2)
movej(p[-0.540800688591225, -0.244364629937833, 0.41692280569367, -0.866, -1.573, 1.671], a = 0.2, v = 0.2, t = 0.2)
movej(p[-0.54077011481935, -0.244322955235495, 0.417884185157178, -0.866, -1.573, 1.671], a = 0.2, v = 0.2, t = 0.2)
movej(p[-0.540732100910573, -0.244271138981372, 0.419079516612372, -0.866, -1.573, 1.671], a = 0.2, v = 0.2, t = 0.2)
movej(p[-0.540705368325656, -0.244234700149957, 0.419920111559243, -0.866, -1.573, 1.671], a = 0.2, v = 0.2, t = 0.2)
movej(p[-0.540719775660526, -0.244254338596748, 0.419467078942785, -0.866, -1.573, 1.671], a = 0.2, v = 0.2, t = 0.2)
movej(p[-0.540766383215803, -0.244317868736267, 0.418001523869287, -0.866, -1.573, 1.671], a = 0.2, v = 0.2, t = 0.2)
movej(p[-0.540809789781947, -0.244377035650017, 0.416636622559655, -0.866, -1.573, 1.671], a = 0.2, v = 0.2, t = 0.2)
movej(p[-0.540841309431692, -0.244419999665915, 0.41564550036232, -0.866, -1.573, 1.671], a = 0.2, v = 0.2, t = 0.2)
movej(p[-0.540862435959966, -0.244448796955985, 0.414981185520813, -0.866, -1.573, 1.671], a = 0.2, v = 0.2, t = 0.2)
movej(p[-0.540868572631023, -0.244457161770791, 0.414788220467205, -0.866, -1.573, 1.671], a = 0.2, v = 0.2, t = 0.2)
movej(p[-0.540871283378576, -0.244460856754775, 0.414702982144653, -0.866, -1.573, 1.671], a = 0.2, v = 0.2, t = 0.2)
movej(p[-0.540875522526346, -0.244466635080792, 0.414569683916832, -0.866, -1.573, 1.671], a = 0.2, v = 0.2, t = 0.2)
movej(p[-0.540875551364086, -0.244466674389133, 0.414568777126167, -0.866, -1.573, 1.671], a = 0.2, v = 0.2, t = 0.2)
movej(p[-0.540868099692088, -0.244456517114011, 0.414803091834119, -0.866, -1.573, 1.671], a = 0.2, v = 0.2, t = 0.2)
movej(p[-0.540843016625896, -0.244422326719658, 0.415591818354925, -0.866, -1.573, 1.671], a = 0.2, v = 0.2, t = 0.2)
movej(p[-0.540816145619828, -0.244385699208209, 0.41643676589699, -0.866, -1.573, 1.671], a = 0.2, v = 0.2, t = 0.2)
movej(p[-0.54078002346679, -0.244336461581207, 0.41757261188453, -0.866, -1.573, 1.671], a = 0.2, v = 0.2, t = 0.2)
movej(p[-0.540748134693974, -0.244292994418554, 0.418575341002383, -0.866, -1.573, 1.671], a = 0.2, v = 0.2, t = 0.2)
movej(p[-0.540732891064647, -0.244272216029895, 0.419054670548139, -0.866, -1.573, 1.671], a = 0.2, v = 0.2, t = 0.2)
movej(p[-0.540751895135261, -0.244298120226123, 0.418457095499609, -0.866, -1.573, 1.671], a = 0.2, v = 0.2, t = 0.2)
movej(p[-0.540795249793474, -0.244357216384861, 0.417093826413174, -0.866, -1.573, 1.671], a = 0.2, v = 0.2, t = 0.2)
movej(p[-0.540830178064079, -0.244404826646577, 0.415995521559183, -0.866, -1.573, 1.671], a = 0.2, v = 0.2, t = 0.2)
movej(p[-0.54085709521053, -0.24444151705137, 0.415149123152054, -0.866, -1.573, 1.671], a = 0.2, v = 0.2, t = 0.2)
movej(p[-0.540865636949098, -0.244453160181753, 0.414880531756948, -0.866, -1.573, 1.671], a = 0.2, v = 0.2, t = 0.2)
movej(p[-0.540870268290131, -0.244459473101198, 0.414734901176077, -0.866, -1.573, 1.671], a = 0.2, v = 0.2, t = 0.2)
movej(p[-0.540875066890055, -0.244466014009016, 0.414584011209346, -0.866, -1.573, 1.671], a = 0.2, v = 0.2, t = 0.2)
movej(p[-0.540875603272018, -0.244466745144145, 0.414567144902969, -0.866, -1.573, 1.671], a = 0.2, v = 0.2, t = 0.2)
movej(p[-0.540875562899182, -0.244466690112469, 0.414568414409901, -0.866, -1.573, 1.671], a = 0.2, v = 0.2, t = 0.2)
movej(p[-0.540868607236311, -0.244457208940799, 0.414787132318407, -0.866, -1.573, 1.671], a = 0.2, v = 0.2, t = 0.2)
movej(p[-0.540847284611406, -0.244428144354015, 0.415457613336439, -0.866, -1.573, 1.671], a = 0.2, v = 0.2, t = 0.2)
movej(p[-0.540815384303494, -0.244384661468026, 0.416460705170558, -0.866, -1.573, 1.671], a = 0.2, v = 0.2, t = 0.2)
movej(p[-0.540784712483303, -0.244342853117332, 0.417425167722329, -0.866, -1.573, 1.671], a = 0.2, v = 0.2, t = 0.2)
movej(p[-0.540761388519247, -0.244311060531735, 0.418158580012543, -0.866, -1.573, 1.671], a = 0.2, v = 0.2, t = 0.2)
movej(p[-0.540735296132157, -0.244275494345473, 0.41897904420664, -0.866, -1.573, 1.671], a = 0.2, v = 0.2, t = 0.2)
movej(p[-0.540734932776634, -0.244274999060385, 0.418990469769025, -0.866, -1.573, 1.671], a = 0.2, v = 0.2, t = 0.2)
movej(p[-0.540773079339015, -0.244326996132874, 0.41779096707677, -0.866, -1.573, 1.671], a = 0.2, v = 0.2, t = 0.2)
movej(p[-0.540816555115735, -0.244386257386641, 0.416423889469541, -0.866, -1.573, 1.671], a = 0.2, v = 0.2, t = 0.2)
movej(p[-0.540843420354255, -0.244422877036421, 0.415579123285609, -0.866, -1.573, 1.671], a = 0.2, v = 0.2, t = 0.2)
movej(p[-0.540858779334542, -0.244443812658441, 0.415096166577192, -0.866, -1.573, 1.671], a = 0.2, v = 0.2, t = 0.2)
movej(p[-0.540870222149747, -0.244459410207854, 0.414736352041142, -0.866, -1.573, 1.671], a = 0.2, v = 0.2, t = 0.2)
movej(p[-0.540873699981183, -0.244464150793688, 0.414626993086889, -0.866, -1.573, 1.671], a = 0.2, v = 0.2, t = 0.2)
movej(p[-0.540875395640291, -0.244466462124095, 0.41457367379576, -0.866, -1.573, 1.671], a = 0.2, v = 0.2, t = 0.2)
movej(p[-0.540876145421529, -0.244467484140942, 0.414550097238459, -0.866, -1.573, 1.671], a = 0.2, v = 0.2, t = 0.2)
movej(p[-0.540880055819064, -0.24447281435188, 0.414427136424224, -0.866, -1.573, 1.671], a = 0.2, v = 0.2, t = 0.2)
movej(p[-0.540879986608488, -0.244472720011864, 0.414429312721821, -0.866, -1.573, 1.671], a = 0.2, v = 0.2, t = 0.2)
movej(p[-0.540871018071369, -0.244460495118045, 0.414711324618775, -0.866, -1.573, 1.671], a = 0.2, v = 0.2, t = 0.2)
movej(p[-0.540851327662544, -0.244433655383319, 0.415330481285143, -0.866, -1.573, 1.671], a = 0.2, v = 0.2, t = 0.2)
movej(p[-0.540826942469658, -0.2444004162508, 0.416097263471846, -0.866, -1.573, 1.671], a = 0.2, v = 0.2, t = 0.2)
movej(p[-0.540796466746099, -0.24435887519682, 0.417055559847092, -0.866, -1.573, 1.671], a = 0.2, v = 0.2, t = 0.2)
movej(p[-0.540770870368136, -0.24432398511401, 0.417860427241744, -0.866, -1.573, 1.671], a = 0.2, v = 0.2, t = 0.2)
movej(p[-0.540749432392271, -0.244294763293865, 0.418534535422438, -0.866, -1.573, 1.671], a = 0.2, v = 0.2, t = 0.2)
movej(p[-0.540735203851389, -0.244275368558784, 0.41898194593677, -0.866, -1.573, 1.671], a = 0.2, v = 0.2, t = 0.2)
movej(p[-0.540762859243983, -0.244313065257087, 0.418112333688605, -0.866, -1.573, 1.671], a = 0.2, v = 0.2, t = 0.2)
movej(p[-0.540805983200276, -0.244371846949103, 0.416756318927494, -0.866, -1.573, 1.671], a = 0.2, v = 0.2, t = 0.2)
movej(p[-0.540843668358818, -0.244423215088148, 0.415571324885886, -0.866, -1.573, 1.671], a = 0.2, v = 0.2, t = 0.2)
movej(p[-0.54085970214222, -0.244445070525329, 0.415067149275897, -0.866, -1.573, 1.671], a = 0.2, v = 0.2, t = 0.2)
movej(p[-0.540868687981983, -0.244457319004152, 0.414784593304544, -0.866, -1.573, 1.671], a = 0.2, v = 0.2, t = 0.2)
movej(p[-0.540875262986687, -0.24446628130573, 0.414577845032821, -0.866, -1.573, 1.671], a = 0.2, v = 0.2, t = 0.2)
movej(p[-0.540876993251083, -0.244468639806145, 0.414523437592895, -0.866, -1.573, 1.671], a = 0.2, v = 0.2, t = 0.2)
movej(p[-0.540877967966693, -0.244469968428046, 0.414492788068402, -0.866, -1.573, 1.671], a = 0.2, v = 0.2, t = 0.2)
movej(p[-0.540877927593857, -0.244469913396369, 0.414494057575334, -0.866, -1.573, 1.671], a = 0.2, v = 0.2, t = 0.2)
movej(p[-0.540880626806314, -0.244473592657017, 0.414409181969048, -0.866, -1.573, 1.671], a = 0.2, v = 0.2, t = 0.2)
movej(p[-0.540875845509034, -0.244467075334203, 0.414559527861379, -0.866, -1.573, 1.671], a = 0.2, v = 0.2, t = 0.2)
movej(p[-0.540853207883188, -0.244436218287104, 0.415271358533756, -0.866, -1.573, 1.671], a = 0.2, v = 0.2, t = 0.2)
movej(p[-0.540828522777806, -0.244402570347846, 0.41604757134338, -0.866, -1.573, 1.671], a = 0.2, v = 0.2, t = 0.2)
movej(p[-0.54079950047634, -0.244363010434214, 0.416960165469087, -0.866, -1.573, 1.671], a = 0.2, v = 0.2, t = 0.2)
movej(p[-0.540766948435505, -0.244318639179736, 0.417983750772245, -0.866, -1.573, 1.671], a = 0.2, v = 0.2, t = 0.2)
movej(p[-0.540742251795028, -0.244284975517142, 0.418760326298134, -0.866, -1.573, 1.671], a = 0.2, v = 0.2, t = 0.2)
movej(p[-0.540740573438564, -0.244282687771739, 0.418813101514863, -0.866, -1.573, 1.671], a = 0.2, v = 0.2, t = 0.2)
movej(p[-0.540775351752921, -0.244330093630086, 0.417719511972333, -0.866, -1.573, 1.671], a = 0.2, v = 0.2, t = 0.2)
movej(p[-0.540812627415556, -0.244380903590698, 0.416547394358175, -0.866, -1.573, 1.671], a = 0.2, v = 0.2, t = 0.2)
movej(p[-0.54084200153745, -0.244420943066081, 0.415623737386349, -0.866, -1.573, 1.671], a = 0.2, v = 0.2, t = 0.2)
movej(p[-0.540862234095786, -0.244448521797603, 0.414987533055471, -0.866, -1.573, 1.671], a = 0.2, v = 0.2, t = 0.2)
movej(p[-0.54087001451802, -0.244459127187804, 0.414742880933933, -0.866, -1.573, 1.671], a = 0.2, v = 0.2, t = 0.2)
movej(p[-0.540873769191759, -0.244464245133705, 0.414624816789292, -0.866, -1.573, 1.671], a = 0.2, v = 0.2, t = 0.2)
movej(p[-0.540879023427974, -0.244471407113299, 0.414459599530047, -0.866, -1.573, 1.671], a = 0.2, v = 0.2, t = 0.2)
movej(p[-0.540878786958507, -0.244471084784909, 0.414467035213504, -0.866, -1.573, 1.671], a = 0.2, v = 0.2, t = 0.2)
movej(p[-0.54087920798951, -0.244471658686677, 0.414453796069788, -0.866, -1.573, 1.671], a = 0.2, v = 0.2, t = 0.2)
movej(p[-0.540877737264773, -0.244469653961324, 0.414500042393726, -0.866, -1.573, 1.671], a = 0.2, v = 0.2, t = 0.2)
movej(p[-0.540862741640009, -0.244449213624392, 0.414971573539759, -0.866, -1.573, 1.671], a = 0.2, v = 0.2, t = 0.2)
movej(p[-0.540833823154406, -0.244409795220785, 0.41588090321907, -0.866, -1.573, 1.671], a = 0.2, v = 0.2, t = 0.2)
movej(p[-0.540805469888506, -0.244371147260647, 0.416772459801339, -0.866, -1.573, 1.671], a = 0.2, v = 0.2, t = 0.2)
movej(p[-0.540783945399421, -0.244341807515481, 0.417449288354029, -0.866, -1.573, 1.671], a = 0.2, v = 0.2, t = 0.2)
movej(p[-0.540752022021317, -0.24429829318282, 0.418453105620681, -0.866, -1.573, 1.671], a = 0.2, v = 0.2, t = 0.2)
movej(p[-0.540723997505652, -0.244260093337761, 0.419334324789363, -0.866, -1.573, 1.671], a = 0.2, v = 0.2, t = 0.2)
movej(p[-0.540738664380181, -0.244280085559614, 0.418873131056916, -0.866, -1.573, 1.671], a = 0.2, v = 0.2, t = 0.2)
movej(p[-0.540786350466931, -0.244345085831058, 0.417373662012531, -0.866, -1.573, 1.671], a = 0.2, v = 0.2, t = 0.2)
movej(p[-0.540820240578898, -0.244391280992525, 0.416308001622496, -0.866, -1.573, 1.671], a = 0.2, v = 0.2, t = 0.2)
movej(p[-0.540847942111876, -0.244429040584173, 0.415436938509267, -0.866, -1.573, 1.671], a = 0.2, v = 0.2, t = 0.2)
movej(p[-0.540867903595457, -0.244456249817297, 0.414809258010644, -0.866, -1.573, 1.671], a = 0.2, v = 0.2, t = 0.2)
movej(p[-0.540872817546341, -0.244462947958476, 0.414654740881251, -0.866, -1.573, 1.671], a = 0.2, v = 0.2, t = 0.2)
movej(p[-0.54087553982899, -0.244466658665796, 0.414569139842433, -0.866, -1.573, 1.671], a = 0.2, v = 0.2, t = 0.2)
movej(p[-0.540876987483535, -0.244468631944477, 0.414523618951028, -0.866, -1.573, 1.671], a = 0.2, v = 0.2, t = 0.2)
movej(p[-0.540880332661367, -0.244473191711947, 0.414418431233836, -0.866, -1.573, 1.671], a = 0.2, v = 0.2, t = 0.2)
movej(p[-0.540879986608488, -0.244472720011864, 0.414429312721821, -0.866, -1.573, 1.671], a = 0.2, v = 0.2, t = 0.2)
movej(p[-0.540877852615733, -0.244469811194685, 0.414496415231064, -0.866, -1.573, 1.671], a = 0.2, v = 0.2, t = 0.2)
movej(p[-0.540863433745767, -0.244450157024558, 0.414949810563788, -0.866, -1.573, 1.671], a = 0.2, v = 0.2, t = 0.2)
movej(p[-0.540836003287545, -0.244412766931308, 0.415812349844763, -0.866, -1.573, 1.671], a = 0.2, v = 0.2, t = 0.2)
movej(p[-0.540806750284158, -0.244372892550954, 0.416732198295793, -0.866, -1.573, 1.671], a = 0.2, v = 0.2, t = 0.2)
movej(p[-0.540782030573489, -0.244339197441688, 0.417509499254215, -0.866, -1.573, 1.671], a = 0.2, v = 0.2, t = 0.2)
movej(p[-0.540760644505556, -0.244310046376556, 0.418181975211712, -0.866, -1.573, 1.671], a = 0.2, v = 0.2, t = 0.2)
movej(p[-0.540739431464063, -0.244281131161465, 0.418849010425215, -0.866, -1.573, 1.671], a = 0.2, v = 0.2, t = 0.2)
movej(p[-0.540751179959311, -0.244297145379285, 0.418479583908112, -0.866, -1.573, 1.671], a = 0.2, v = 0.2, t = 0.2)
movej(p[-0.540797187689597, -0.244359857905326, 0.417032890080456, -0.866, -1.573, 1.671], a = 0.2, v = 0.2, t = 0.2)
movej(p[-0.540830131923695, -0.244404763753232, 0.415996972424248, -0.866, -1.573, 1.671], a = 0.2, v = 0.2, t = 0.2)
movej(p[-0.540853726962506, -0.244436925837228, 0.415255036301778, -0.866, -1.573, 1.671], a = 0.2, v = 0.2, t = 0.2)
movej(p[-0.540865198615451, -0.244452562694981, 0.414894314975063, -0.866, -1.573, 1.671], a = 0.2, v = 0.2, t = 0.2)
movej(p[-0.540876116583789, -0.244467444832602, 0.414551004029124, -0.866, -1.573, 1.671], a = 0.2, v = 0.2, t = 0.2)
movej(p[-0.540878140993132, -0.244470204278087, 0.41448734732441, -0.866, -1.573, 1.671], a = 0.2, v = 0.2, t = 0.2)
movej(p[-0.540878723515479, -0.24447099830656, 0.414469030152968, -0.866, -1.573, 1.671], a = 0.2, v = 0.2, t = 0.2)
movej(p[-0.540882593540177, -0.244476273485823, 0.414347338845664, -0.866, -1.573, 1.671], a = 0.2, v = 0.2, t = 0.2)
movej(p[-0.54088229939523, -0.244475872540752, 0.414356588110452, -0.866, -1.573, 1.671], a = 0.2, v = 0.2, t = 0.2)
movej(p[-0.540881538078896, -0.244474834800569, 0.41438052738402, -0.866, -1.573, 1.671], a = 0.2, v = 0.2, t = 0.2)
movej(p[-0.540866536686584, -0.244454386601969, 0.414852239888186, -0.866, -1.573, 1.671], a = 0.2, v = 0.2, t = 0.2)
movej(p[-0.540845127548459, -0.244425204090164, 0.415525441278215, -0.866, -1.573, 1.671], a = 0.2, v = 0.2, t = 0.2)
movej(p[-0.540815943755648, -0.244385424049827, 0.416443113431648, -0.866, -1.573, 1.671], a = 0.2, v = 0.2, t = 0.2)
movej(p[-0.540786344699383, -0.24434507796939, 0.417373843370664, -0.866, -1.573, 1.671], a = 0.2, v = 0.2, t = 0.2)
movej(p[-0.54076687922493, -0.244318544839719, 0.417985927069842, -0.866, -1.573, 1.671], a = 0.2, v = 0.2, t = 0.2)
movej(p[-0.540746940811541, -0.244291367053267, 0.418612882135933, -0.866, -1.573, 1.671], a = 0.2, v = 0.2, t = 0.2)
movej(p[-0.540744235831536, -0.244287679930951, 0.418697939100352, -0.866, -1.573, 1.671], a = 0.2, v = 0.2, t = 0.2)
movej(p[-0.540786102462368, -0.244344747779332, 0.417381460412254, -0.866, -1.573, 1.671], a = 0.2, v = 0.2, t = 0.2)
movej(p[-0.540827444246333, -0.244401100215921, 0.416081485314267, -0.866, -1.573, 1.671], a = 0.2, v = 0.2, t = 0.2)
movej(p[-0.540850387552222, -0.244432373931427, 0.415360042660837, -0.866, -1.573, 1.671], a = 0.2, v = 0.2, t = 0.2)
movej(p[-0.540864327715705, -0.244451375583106, 0.414921700053159, -0.866, -1.573, 1.671], a = 0.2, v = 0.2, t = 0.2)
movej(p[-0.540871289146124, -0.244460864616443, 0.41470280078652, -0.866, -1.573, 1.671], a = 0.2, v = 0.2, t = 0.2)
movej(p[-0.540878781190959, -0.244471076923241, 0.414467216571637, -0.866, -1.573, 1.671], a = 0.2, v = 0.2, t = 0.2)
movej(p[-0.540879427156333, -0.244471957430063, 0.414446904460731, -0.866, -1.573, 1.671], a = 0.2, v = 0.2, t = 0.2)
movej(p[-0.540879317572921, -0.24447180805837, 0.414450350265259, -0.866, -1.573, 1.671], a = 0.2, v = 0.2, t = 0.2)
movej(p[-0.540881543846444, -0.244474842662237, 0.414380346025887, -0.866, -1.573, 1.671], a = 0.2, v = 0.2, t = 0.2)
movej(p[-0.540865342804151, -0.244452759236683, 0.414889781021736, -0.866, -1.573, 1.671], a = 0.2, v = 0.2, t = 0.2)
movej(p[-0.540837064516374, -0.244414213478229, 0.415778979948274, -0.866, -1.573, 1.671], a = 0.2, v = 0.2, t = 0.2)
movej(p[-0.540807182850257, -0.244373482176058, 0.416718596435811, -0.866, -1.573, 1.671], a = 0.2, v = 0.2, t = 0.2)
movej(p[-0.540782313183341, -0.244339582663423, 0.417500612705694, -0.866, -1.573, 1.671], a = 0.2, v = 0.2, t = 0.2)
movej(p[-0.540750562831676, -0.244296304180803, 0.418498989228352, -0.866, -1.573, 1.671], a = 0.2, v = 0.2, t = 0.2)
movej(p[-0.540727584920499, -0.244264983295289, 0.419221520030581, -0.866, -1.573, 1.671], a = 0.2, v = 0.2, t = 0.2)
movej(p[-0.540748826799733, -0.24429393781872, 0.418553578026412, -0.866, -1.573, 1.671], a = 0.2, v = 0.2, t = 0.2)
movej(p[-0.540792787050484, -0.244353859452603, 0.417171266336003, -0.866, -1.573, 1.671], a = 0.2, v = 0.2, t = 0.2)
movej(p[-0.5408293994451, -0.24440376532139, 0.41602000490715, -0.866, -1.573, 1.671], a = 0.2, v = 0.2, t = 0.2)
movej(p[-0.540853709659862, -0.244436902252224, 0.415255580376177, -0.866, -1.573, 1.671], a = 0.2, v = 0.2, t = 0.2)
movej(p[-0.540870712391326, -0.244460078449638, 0.414720936599829, -0.866, -1.573, 1.671], a = 0.2, v = 0.2, t = 0.2)
movej(p[-0.540874940004, -0.244465841052319, 0.414588001088274, -0.866, -1.573, 1.671], a = 0.2, v = 0.2, t = 0.2)
movej(p[-0.540876854829931, -0.244468451126112, 0.414527790188089, -0.866, -1.573, 1.671], a = 0.2, v = 0.2, t = 0.2)
movej(p[-0.540879404086141, -0.24447192598339, 0.414447629893263, -0.866, -1.573, 1.671], a = 0.2, v = 0.2, t = 0.2)
movej(p[-0.540882114833695, -0.244475620967374, 0.414362391570711, -0.866, -1.573, 1.671], a = 0.2, v = 0.2, t = 0.2)
movej(p[-0.54088135351736, -0.244474583227192, 0.414386330844279, -0.866, -1.573, 1.671], a = 0.2, v = 0.2, t = 0.2)
movej(p[-0.540867707498825, -0.244455982520583, 0.414815424187169, -0.866, -1.573, 1.671], a = 0.2, v = 0.2, t = 0.2)
movej(p[-0.540842710945853, -0.244421910051251, 0.415601430335979, -0.866, -1.573, 1.671], a = 0.2, v = 0.2, t = 0.2)
movej(p[-0.540810631843953, -0.244378183453552, 0.416610144272224, -0.866, -1.573, 1.671], a = 0.2, v = 0.2, t = 0.2)
movej(p[-0.540777975987255, -0.244333670689049, 0.417636994021777, -0.866, -1.573, 1.671], a = 0.2, v = 0.2, t = 0.2)
movej(p[-0.54075484811983, -0.244302145400165, 0.418364240135467, -0.866, -1.573, 1.671], a = 0.2, v = 0.2, t = 0.2)
movej(p[-0.540735642185036, -0.244275966045556, 0.418968162718655, -0.866, -1.573, 1.671], a = 0.2, v = 0.2, t = 0.2)
movej(p[-0.540739708306366, -0.244281508521531, 0.418840305234827, -0.866, -1.573, 1.671], a = 0.2, v = 0.2, t = 0.2)
movej(p[-0.540786529260919, -0.244345329542768, 0.417368039910405, -0.866, -1.573, 1.671], a = 0.2, v = 0.2, t = 0.2)
movej(p[-0.540832848438796, -0.244408466598884, 0.415911552743563, -0.866, -1.573, 1.671], a = 0.2, v = 0.2, t = 0.2)
movej(p[-0.540855082336283, -0.24443877332922, 0.415212417140502, -0.866, -1.573, 1.671], a = 0.2, v = 0.2, t = 0.2)
movej(p[-0.540867401818782, -0.244455565852177, 0.414825036168223, -0.866, -1.573, 1.671], a = 0.2, v = 0.2, t = 0.2)
movej(p[-0.540874963074192, -0.244465872498991, 0.414587275655742, -0.866, -1.573, 1.671], a = 0.2, v = 0.2, t = 0.2)
movej(p[-0.540879231059701, -0.244471690133349, 0.414453070637256, -0.866, -1.573, 1.671], a = 0.2, v = 0.2, t = 0.2)
movej(p[-0.540880044283968, -0.244472798628544, 0.41442749914049, -0.866, -1.573, 1.671], a = 0.2, v = 0.2, t = 0.2)
movej(p[-0.540879946235652, -0.244472664980187, 0.414430582228753, -0.866, -1.573, 1.671], a = 0.2, v = 0.2, t = 0.2)
movej(p[-0.540883372159156, -0.244477334811009, 0.414322855497697, -0.866, -1.573, 1.671], a = 0.2, v = 0.2, t = 0.2)
movej(p[-0.540877927593857, -0.244469913396369, 0.414494057575334, -0.866, -1.573, 1.671], a = 0.2, v = 0.2, t = 0.2)
movej(p[-0.540855589880506, -0.244439465156009, 0.41519645762479, -0.866, -1.573, 1.671], a = 0.2, v = 0.2, t = 0.2)
movej(p[-0.540833413658499, -0.244409237042353, 0.41589377964652, -0.866, -1.573, 1.671], a = 0.2, v = 0.2, t = 0.2)
movej(p[-0.540805210348846, -0.244370793485585, 0.416780620917328, -0.866, -1.573, 1.671], a = 0.2, v = 0.2, t = 0.2)
movej(p[-0.54077406558972, -0.24432834047811, 0.417759954836012, -0.866, -1.573, 1.671], a = 0.2, v = 0.2, t = 0.2)
movej(p[-0.54074983612063, -0.244295313610629, 0.418521840353122, -0.866, -1.573, 1.671], a = 0.2, v = 0.2, t = 0.2)
movej(p[-0.540736391966274, -0.244276988062402, 0.418944586161353, -0.866, -1.573, 1.671], a = 0.2, v = 0.2, t = 0.2)
movej(p[-0.540757316630368, -0.244305510194091, 0.418286618854504, -0.866, -1.573, 1.671], a = 0.2, v = 0.2, t = 0.2)
movej(p[-0.540796016877356, -0.244358261986712, 0.417069705781473, -0.866, -1.573, 1.671], a = 0.2, v = 0.2, t = 0.2)
movej(p[-0.540835714910145, -0.244412373847906, 0.415821417751417, -0.866, -1.573, 1.671], a = 0.2, v = 0.2, t = 0.2)
movej(p[-0.540859465672753, -0.244444748196939, 0.415074584959354, -0.866, -1.573, 1.671], a = 0.2, v = 0.2, t = 0.2)
movej(p[-0.540868739889915, -0.244457389759165, 0.414782961081346, -0.866, -1.573, 1.671], a = 0.2, v = 0.2, t = 0.2)
movej(p[-0.540874559345833, -0.244465322182228, 0.414599970725058, -0.866, -1.573, 1.671], a = 0.2, v = 0.2, t = 0.2)
movej(p[-0.540880794065206, -0.244473820645391, 0.414403922583188, -0.866, -1.573, 1.671], a = 0.2, v = 0.2, t = 0.2)
movej(p[-0.540880938253905, -0.244474017187092, 0.414399388629861, -0.866, -1.573, 1.671], a = 0.2, v = 0.2, t = 0.2)
movej(p[-0.540880453779875, -0.244473356806976, 0.414414622713041, -0.866, -1.573, 1.671], a = 0.2, v = 0.2, t = 0.2)
movej(p[-0.540881445798128, -0.24447470901388, 0.414383429114149, -0.866, -1.573, 1.671], a = 0.2, v = 0.2, t = 0.2)
movej(p[-0.5408679208981, -0.244456273402301, 0.414808713936245, -0.866, -1.573, 1.671], a = 0.2, v = 0.2, t = 0.2)
movej(p[-0.540841753532887, -0.244420605014355, 0.415631535786072, -0.866, -1.573, 1.671], a = 0.2, v = 0.2, t = 0.2)
movej(p[-0.540815488119358, -0.244384802978051, 0.416457440724162, -0.866, -1.573, 1.671], a = 0.2, v = 0.2, t = 0.2)
movej(p[-0.540794061678589, -0.244355596881242, 0.41713118618859, -0.866, -1.573, 1.671], a = 0.2, v = 0.2, t = 0.2)
movej(p[-0.540773598418334, -0.244327703682998, 0.417774644844792, -0.866, -1.573, 1.671], a = 0.2, v = 0.2, t = 0.2)
movej(p[-0.540791235580075, -0.244351744663898, 0.417220051673804, -0.866, -1.573, 1.671], a = 0.2, v = 0.2, t = 0.2)
movej(p[-0.54083037416071, -0.24440509394329, 0.415989355382658, -0.866, -1.573, 1.671], a = 0.2, v = 0.2, t = 0.2)
movej(p[-0.54085649538554, -0.244440699437893, 0.415167984397895, -0.866, -1.573, 1.671], a = 0.2, v = 0.2, t = 0.2)
movej(p[-0.540867903595457, -0.244456249817297, 0.414809258010644, -0.866, -1.573, 1.671], a = 0.2, v = 0.2, t = 0.2)
movej(p[-0.540873988358582, -0.244464543877091, 0.414617925180234, -0.866, -1.573, 1.671], a = 0.2, v = 0.2, t = 0.2)
movej(p[-0.54088084020559, -0.244473883538735, 0.414402471718124, -0.866, -1.573, 1.671], a = 0.2, v = 0.2, t = 0.2)
movej(p[-0.540881088210153, -0.244474221590461, 0.414394673318401, -0.866, -1.573, 1.671], a = 0.2, v = 0.2, t = 0.2)
movej(p[-0.540880338428915, -0.244473199573615, 0.414418249875703, -0.866, -1.573, 1.671], a = 0.2, v = 0.2, t = 0.2)
movej(p[-0.540869270504329, -0.244458113032625, 0.414766276133102, -0.866, -1.573, 1.671], a = 0.2, v = 0.2, t = 0.2)
movej(p[-0.54084552550927, -0.24442574654526, 0.415512927567032, -0.866, -1.573, 1.671], a = 0.2, v = 0.2, t = 0.2)
movej(p[-0.540809461031712, -0.244376587534938, 0.416646959973241, -0.866, -1.573, 1.671], a = 0.2, v = 0.2, t = 0.2)
movej(p[-0.540775807389212, -0.244330714701862, 0.417705184679819, -0.866, -1.573, 1.671], a = 0.2, v = 0.2, t = 0.2)
movej(p[-0.540750141800673, -0.244295730279035, 0.418512228372068, -0.866, -1.573, 1.671], a = 0.2, v = 0.2, t = 0.2)
movej(p[-0.540728732662549, -0.244266547767231, 0.419185429762096, -0.866, -1.573, 1.671], a = 0.2, v = 0.2, t = 0.2)
movej(p[-0.540742938133239, -0.24428591105564, 0.418738744680297, -0.866, -1.573, 1.671], a = 0.2, v = 0.2, t = 0.2)
movej(p[-0.540785369983773, -0.24434374934749, 0.417404492895156, -0.866, -1.573, 1.671], a = 0.2, v = 0.2, t = 0.2)
movej(p[-0.540823101282699, -0.244395180379878, 0.416218047988484, -0.866, -1.573, 1.671], a = 0.2, v = 0.2, t = 0.2)
movej(p[-0.54084632719844, -0.244426839317119, 0.415487718786532, -0.866, -1.573, 1.671], a = 0.2, v = 0.2, t = 0.2)
movej(p[-0.54086213604747, -0.244448388149246, 0.414990616143733, -0.866, -1.573, 1.671], a = 0.2, v = 0.2, t = 0.2)
movej(p[-0.54087496884174, -0.244465880360659, 0.414587094297609, -0.866, -1.573, 1.671], a = 0.2, v = 0.2, t = 0.2)
movej(p[-0.540877189347714, -0.244468907102859, 0.414517271416369, -0.866, -1.573, 1.671], a = 0.2, v = 0.2, t = 0.2)
movej(p[-0.540878169830872, -0.244470243586428, 0.414486440533744, -0.866, -1.573, 1.671], a = 0.2, v = 0.2, t = 0.2)
movej(p[-0.54087634151816, -0.244467751437656, 0.414543931061934, -0.866, -1.573, 1.671], a = 0.2, v = 0.2, t = 0.2)
movej(p[-0.54086228023617, -0.244448584690948, 0.414986082190406, -0.866, -1.573, 1.671], a = 0.2, v = 0.2, t = 0.2)
movej(p[-0.540832323591929, -0.244407751187092, 0.415928056333674, -0.866, -1.573, 1.671], a = 0.2, v = 0.2, t = 0.2)
movej(p[-0.540796587864607, -0.244359040291849, 0.417051751326297, -0.866, -1.573, 1.671], a = 0.2, v = 0.2, t = 0.2)
movej(p[-0.540757876082523, -0.244306272775892, 0.418269027115595, -0.866, -1.573, 1.671], a = 0.2, v = 0.2, t = 0.2)
movej(p[-0.540723513031621, -0.244259432957645, 0.419349558872543, -0.866, -1.573, 1.671], a = 0.2, v = 0.2, t = 0.2)
movej(p[-0.540714209976719, -0.244246752087079, 0.419642089541216, -0.866, -1.573, 1.671], a = 0.2, v = 0.2, t = 0.2)
movej(p[-0.54075427713258, -0.244301367095028, 0.418382194590643, -0.866, -1.573, 1.671], a = 0.2, v = 0.2, t = 0.2)
movej(p[-0.540794863367759, -0.244356689653102, 0.417105977408091, -0.866, -1.573, 1.671], a = 0.2, v = 0.2, t = 0.2)
movej(p[-0.54082871310689, -0.244402829782892, 0.416041586524988, -0.866, -1.573, 1.671], a = 0.2, v = 0.2, t = 0.2)
movej(p[-0.540852746479349, -0.24443558935366, 0.415285867184403, -0.866, -1.573, 1.671], a = 0.2, v = 0.2, t = 0.2)
movej(p[-0.54087049899205, -0.24445978756792, 0.414727646850753, -0.866, -1.573, 1.671], a = 0.2, v = 0.2, t = 0.2)
movej(p[-0.54087476697756, -0.244465605202278, 0.414593441832267, -0.866, -1.573, 1.671], a = 0.2, v = 0.2, t = 0.2)
movej(p[-0.540877218185454, -0.244468946411199, 0.414516364625704, -0.866, -1.573, 1.671], a = 0.2, v = 0.2, t = 0.2)
movej(p[-0.540880188472667, -0.244472995170245, 0.414422965187163, -0.866, -1.573, 1.671], a = 0.2, v = 0.2, t = 0.2)
movej(p[-0.540881947574803, -0.244475392979001, 0.414367650956571, -0.866, -1.573, 1.671], a = 0.2, v = 0.2, t = 0.2)
movej(p[-0.540874288271077, -0.244464952683829, 0.414608494557314, -0.866, -1.573, 1.671], a = 0.2, v = 0.2, t = 0.2)
movej(p[-0.54084878994143, -0.244430196249377, 0.415410278863703, -0.866, -1.573, 1.671], a = 0.2, v = 0.2, t = 0.2)
movej(p[-0.540819508100304, -0.244390282560683, 0.416331034105399, -0.866, -1.573, 1.671], a = 0.2, v = 0.2, t = 0.2)
movej(p[-0.540780565616301, -0.244337200578004, 0.41755556422002, -0.866, -1.573, 1.671], a = 0.2, v = 0.2, t = 0.2)
movej(p[-0.540743059251746, -0.244286076150669, 0.418734936159502, -0.866, -1.573, 1.671], a = 0.2, v = 0.2, t = 0.2)
movej(p[-0.540721517460018, -0.244256712820499, 0.419412308786592, -0.866, -1.573, 1.671], a = 0.2, v = 0.2, t = 0.2)
movej(p[-0.540732654595179, -0.244271893701505, 0.419062106231596, -0.866, -1.573, 1.671], a = 0.2, v = 0.2, t = 0.2)
movej(p[-0.540770708876792, -0.244323764987305, 0.41786550526947, -0.866, -1.573, 1.671], a = 0.2, v = 0.2, t = 0.2)
movej(p[-0.540814761408311, -0.244383812407877, 0.416480291848932, -0.866, -1.573, 1.671], a = 0.2, v = 0.2, t = 0.2)
movej(p[-0.540851327662544, -0.244433655383319, 0.415330481285143, -0.866, -1.573, 1.671], a = 0.2, v = 0.2, t = 0.2)
movej(p[-0.540865510063042, -0.244452987225056, 0.414884521635876, -0.866, -1.573, 1.671], a = 0.2, v = 0.2, t = 0.2)
movej(p[-0.540872529168941, -0.244462554875074, 0.414663808787906, -0.866, -1.573, 1.671], a = 0.2, v = 0.2, t = 0.2)
movej(p[-0.540877120137139, -0.244468812762842, 0.414519447713967, -0.866, -1.573, 1.671], a = 0.2, v = 0.2, t = 0.2)
movej(p[-0.540882264789942, -0.244475825370744, 0.414357676259251, -0.866, -1.573, 1.671], a = 0.2, v = 0.2, t = 0.2)
movej(p[-0.540881486170964, -0.244474764045557, 0.414382159607218, -0.866, -1.573, 1.671], a = 0.2, v = 0.2, t = 0.2)
movej(p[-0.540871000768725, -0.24446047153304, 0.414711868693175, -0.866, -1.573, 1.671], a = 0.2, v = 0.2, t = 0.2)
movej(p[-0.540849280183009, -0.244430864491161, 0.41539486342239, -0.866, -1.573, 1.671], a = 0.2, v = 0.2, t = 0.2)
movej(p[-0.540811762283358, -0.24437972434049, 0.416574598078138, -0.866, -1.573, 1.671], a = 0.2, v = 0.2, t = 0.2)
movej(p[-0.540774653879615, -0.244329142368251, 0.417741456306437, -0.866, -1.573, 1.671], a = 0.2, v = 0.2, t = 0.2)
movej(p[-0.540747794408643, -0.244292530580139, 0.418586041132235, -0.866, -1.573, 1.671], a = 0.2, v = 0.2, t = 0.2)
movej(p[-0.540723985970556, -0.244260077614425, 0.419334687505629, -0.866, -1.573, 1.671], a = 0.2, v = 0.2, t = 0.2)
movej(p[-0.540737637756639, -0.244278686182701, 0.418905412804606, -0.866, -1.573, 1.671], a = 0.2, v = 0.2, t = 0.2)
movej(p[-0.540778639255273, -0.244334574780875, 0.417616137836472, -0.866, -1.573, 1.671], a = 0.2, v = 0.2, t = 0.2)
movej(p[-0.540825921613665, -0.244399024735555, 0.416129363861403, -0.866, -1.573, 1.671], a = 0.2, v = 0.2, t = 0.2)
movej(p[-0.540848570774607, -0.244429897505991, 0.41541717047276, -0.866, -1.573, 1.671], a = 0.2, v = 0.2, t = 0.2)
movej(p[-0.540863745193358, -0.244450581554633, 0.414940017224601, -0.866, -1.573, 1.671], a = 0.2, v = 0.2, t = 0.2)
movej(p[-0.540872067765103, -0.24446192594163, 0.414678317438553, -0.866, -1.573, 1.671], a = 0.2, v = 0.2, t = 0.2)
movej(p[-0.540879727068828, -0.244472366236801, 0.41443747383781, -0.866, -1.573, 1.671], a = 0.2, v = 0.2, t = 0.2)
movej(p[-0.540880770995014, -0.244473789198719, 0.414404648015721, -0.866, -1.573, 1.671], a = 0.2, v = 0.2, t = 0.2)
movej(p[-0.540879415621237, -0.244471941706727, 0.414447267176997, -0.866, -1.573, 1.671], a = 0.2, v = 0.2, t = 0.2)
movej(p[-0.540868855240874, -0.244457546992526, 0.414779333918684, -0.866, -1.573, 1.671], a = 0.2, v = 0.2, t = 0.2)
movej(p[-0.540836412783452, -0.24441332510974, 0.415799473417313, -0.866, -1.573, 1.671], a = 0.2, v = 0.2, t = 0.2)
movej(p[-0.540802124710673, -0.244366587493177, 0.416877647518531, -0.866, -1.573, 1.671], a = 0.2, v = 0.2, t = 0.2)
movej(p[-0.540772018110185, -0.244325549585952, 0.417824336973259, -0.866, -1.573, 1.671], a = 0.2, v = 0.2, t = 0.2)
movej(p[-0.540747465658408, -0.24429208246506, 0.418596378545821, -0.866, -1.573, 1.671], a = 0.2, v = 0.2, t = 0.2)
movej(p[-0.540726154568599, -0.244263033601612, 0.419266496847587, -0.866, -1.573, 1.671], a = 0.2, v = 0.2, t = 0.2)
movej(p[-0.540751341450655, -0.24429736550599, 0.418474505880385, -0.866, -1.573, 1.671], a = 0.2, v = 0.2, t = 0.2)
movej(p[-0.540798848743417, -0.244362122065725, 0.416980658938126, -0.866, -1.573, 1.671], a = 0.2, v = 0.2, t = 0.2)
movej(p[-0.540833967343106, -0.244409991762486, 0.415876369265743, -0.866, -1.573, 1.671], a = 0.2, v = 0.2, t = 0.2)
movej(p[-0.540857002929763, -0.244441391264681, 0.415152024882183, -0.866, -1.573, 1.671], a = 0.2, v = 0.2, t = 0.2)
movej(p[-0.540870193312007, -0.244459370899513, 0.414737258831807, -0.866, -1.573, 1.671], a = 0.2, v = 0.2, t = 0.2)
movej(p[-0.54087909263855, -0.244471501453316, 0.41445742323245, -0.866, -1.573, 1.671], a = 0.2, v = 0.2, t = 0.2)
movej(p[-0.540880649876506, -0.244473624103689, 0.414408456536516, -0.866, -1.573, 1.671], a = 0.2, v = 0.2, t = 0.2)
movej(p[-0.540881117047893, -0.244474260898802, 0.414393766527735, -0.866, -1.573, 1.671], a = 0.2, v = 0.2, t = 0.2)
movej(p[-0.540882085995955, -0.244475581659034, 0.414363298361376, -0.866, -1.573, 1.671], a = 0.2, v = 0.2, t = 0.2)
movej(p[-0.54085993284414, -0.244445384992051, 0.415059894950574, -0.866, -1.573, 1.671], a = 0.2, v = 0.2, t = 0.2)
movej(p[-0.540825783192513, -0.244398836055522, 0.416133716456597, -0.866, -1.573, 1.671], a = 0.2, v = 0.2, t = 0.2)
movej(p[-0.54079514597761, -0.244357074874836, 0.417097090859569, -0.866, -1.573, 1.671], a = 0.2, v = 0.2, t = 0.2)
movej(p[-0.540766688895846, -0.244318285404673, 0.417991911888234, -0.866, -1.573, 1.671], a = 0.2, v = 0.2, t = 0.2)
movej(p[-0.540736732251605, -0.244277451900817, 0.418933886031501, -0.866, -1.573, 1.671], a = 0.2, v = 0.2, t = 0.2)
movej(p[-0.54071790120743, -0.244251783554631, 0.419526020336039, -0.866, -1.573, 1.671], a = 0.2, v = 0.2, t = 0.2)
movej(p[-0.54073898159532, -0.244280517951357, 0.418863156359596, -0.866, -1.573, 1.671], a = 0.2, v = 0.2, t = 0.2)
movej(p[-0.540780634826877, -0.24433729491802, 0.417553387922423, -0.866, -1.573, 1.671], a = 0.2, v = 0.2, t = 0.2)
movej(p[-0.540819611916168, -0.244390424070708, 0.416327769659003, -0.866, -1.573, 1.671], a = 0.2, v = 0.2, t = 0.2)
movej(p[-0.540849476279641, -0.244431131787875, 0.415388697245865, -0.866, -1.573, 1.671], a = 0.2, v = 0.2, t = 0.2)
movej(p[-0.54086915515337, -0.244457955799264, 0.414769903295763, -0.866, -1.573, 1.671], a = 0.2, v = 0.2, t = 0.2)
movej(p[-0.540874893863616, -0.244465778158975, 0.414589451953339, -0.866, -1.573, 1.671], a = 0.2, v = 0.2, t = 0.2)
movej(p[-0.540877823777993, -0.244469771886345, 0.41449732202173, -0.866, -1.573, 1.671], a = 0.2, v = 0.2, t = 0.2)
movej(p[-0.540881912969515, -0.244475345808993, 0.414368739105369, -0.866, -1.573, 1.671], a = 0.2, v = 0.2, t = 0.2)
movej(p[-0.540882143671435, -0.244475660275715, 0.414361484780045, -0.866, -1.573, 1.671], a = 0.2, v = 0.2, t = 0.2)
movej(p[-0.540879127243838, -0.244471548623324, 0.414456335083651, -0.866, -1.573, 1.671], a = 0.2, v = 0.2, t = 0.2)
movej(p[-0.54085652422328, -0.244440738746233, 0.41516707760723, -0.866, -1.573, 1.671], a = 0.2, v = 0.2, t = 0.2)
movej(p[-0.540831700696747, -0.244406902126942, 0.415947643012047, -0.866, -1.573, 1.671], a = 0.2, v = 0.2, t = 0.2)
movej(p[-0.540795215188186, -0.244357169214853, 0.417094914561972, -0.866, -1.573, 1.671], a = 0.2, v = 0.2, t = 0.2)
movej(p[-0.540760696413488, -0.244310117131568, 0.418180342988514, -0.866, -1.573, 1.671], a = 0.2, v = 0.2, t = 0.2)
movej(p[-0.540739102713828, -0.244280683046386, 0.418859347838801, -0.866, -1.573, 1.671], a = 0.2, v = 0.2, t = 0.2)
movej(p[-0.540720369717969, -0.244255148348557, 0.419448399055076, -0.866, -1.573, 1.671], a = 0.2, v = 0.2, t = 0.2)
movej(p[-0.540747679057683, -0.244292373346778, 0.418589668294897, -0.866, -1.573, 1.671], a = 0.2, v = 0.2, t = 0.2)
movej(p[-0.540796316789851, -0.24435867079345, 0.417060275158552, -0.866, -1.573, 1.671], a = 0.2, v = 0.2, t = 0.2)
movej(p[-0.540839388838213, -0.244417381730454, 0.415705892620639, -0.866, -1.573, 1.671], a = 0.2, v = 0.2, t = 0.2)
movej(p[-0.540858525562431, -0.244443466745047, 0.415104146335048, -0.866, -1.573, 1.671], a = 0.2, v = 0.2, t = 0.2)
movej(p[-0.540868832170682, -0.244457515545853, 0.414780059351216, -0.866, -1.573, 1.671], a = 0.2, v = 0.2, t = 0.2)
movej(p[-0.540877679589293, -0.244469575344643, 0.414501855975057, -0.866, -1.573, 1.671], a = 0.2, v = 0.2, t = 0.2)
movej(p[-0.540880055819064, -0.24447281435188, 0.414427136424224, -0.866, -1.573, 1.671], a = 0.2, v = 0.2, t = 0.2)
movej(p[-0.540879888560172, -0.244472586363507, 0.414432395810084, -0.866, -1.573, 1.671], a = 0.2, v = 0.2, t = 0.2)
movej(p[-0.540872788708601, -0.244462908650136, 0.414655647671917, -0.866, -1.573, 1.671], a = 0.2, v = 0.2, t = 0.2)
movej(p[-0.540852296610606, -0.244434976143552, 0.415300013118784, -0.866, -1.573, 1.671], a = 0.2, v = 0.2, t = 0.2)
movej(p[-0.540817818208744, -0.244387979091944, 0.416384172038394, -0.866, -1.573, 1.671], a = 0.2, v = 0.2, t = 0.2)
movej(p[-0.540779262150456, -0.244335423841024, 0.417596551158098, -0.866, -1.573, 1.671], a = 0.2, v = 0.2, t = 0.2)
movej(p[-0.540749697699479, -0.244295124930595, 0.418526192948316, -0.866, -1.573, 1.671], a = 0.2, v = 0.2, t = 0.2)
movej(p[-0.540721061823727, -0.244256091748723, 0.419426636079106, -0.866, -1.573, 1.671], a = 0.2, v = 0.2, t = 0.2)
movej(p[-0.540717318685084, -0.244250989526158, 0.419544337507481, -0.866, -1.573, 1.671], a = 0.2, v = 0.2, t = 0.2)
movej(p[-0.540761325076219, -0.244310974053386, 0.418160574952007, -0.866, -1.573, 1.671], a = 0.2, v = 0.2, t = 0.2)
movej(p[-0.540811081712696, -0.24437879666366, 0.416595998337843, -0.866, -1.573, 1.671], a = 0.2, v = 0.2, t = 0.2)
movej(p[-0.540839233114417, -0.244417169465417, 0.415710789290232, -0.866, -1.573, 1.671], a = 0.2, v = 0.2, t = 0.2)
movej(p[-0.540858283325416, -0.244443136554988, 0.415111763376637, -0.866, -1.573, 1.671], a = 0.2, v = 0.2, t = 0.2)
movej(p[-0.540870372105995, -0.244459614611223, 0.414731636729681, -0.866, -1.573, 1.671], a = 0.2, v = 0.2, t = 0.2)
movej(p[-0.540878354392408, -0.244470495159805, 0.414480637073485, -0.866, -1.573, 1.671], a = 0.2, v = 0.2, t = 0.2)
movej(p[-0.540879686695992, -0.244472311205125, 0.414438743344742, -0.866, -1.573, 1.671], a = 0.2, v = 0.2, t = 0.2)
movej(p[-0.540879375248401, -0.24447188667505, 0.414448536683929, -0.866, -1.573, 1.671], a = 0.2, v = 0.2, t = 0.2)
movej(p[-0.540875551364086, -0.244466674389133, 0.414568777126167, -0.866, -1.573, 1.671], a = 0.2, v = 0.2, t = 0.2)
movej(p[-0.540847498010681, -0.244428435235733, 0.415450903085515, -0.866, -1.573, 1.671], a = 0.2, v = 0.2, t = 0.2)
movej(p[-0.54081602450132, -0.24438553411318, 0.416440574417785, -0.866, -1.573, 1.671], a = 0.2, v = 0.2, t = 0.2)
movej(p[-0.54078520849243, -0.244343529220784, 0.417409570922883, -0.866, -1.573, 1.671], a = 0.2, v = 0.2, t = 0.2)
movej(p[-0.540759121872888, -0.244307970896191, 0.418229853758847, -0.866, -1.573, 1.671], a = 0.2, v = 0.2, t = 0.2)
movej(p[-0.540728905688988, -0.244266783617272, 0.419179989018104, -0.866, -1.573, 1.671], a = 0.2, v = 0.2, t = 0.2)
movej(p[-0.540720317810037, -0.244255077593545, 0.419450031278274, -0.866, -1.573, 1.671], a = 0.2, v = 0.2, t = 0.2)
movej(p[-0.540752183512661, -0.244298513309525, 0.418448027592954, -0.866, -1.573, 1.671], a = 0.2, v = 0.2, t = 0.2)
movej(p[-0.54078755588446, -0.244346728919681, 0.417335758162715, -0.866, -1.573, 1.671], a = 0.2, v = 0.2, t = 0.2)
movej(p[-0.5408212383647, -0.244392641061098, 0.416276626665472, -0.866, -1.573, 1.671], a = 0.2, v = 0.2, t = 0.2)
movej(p[-0.540846742461895, -0.244427405357219, 0.41547466100095, -0.866, -1.573, 1.671], a = 0.2, v = 0.2, t = 0.2)
movej(p[-0.540867886292813, -0.244456226232293, 0.414809802085043, -0.866, -1.573, 1.671], a = 0.2, v = 0.2, t = 0.2)
movej(p[-0.540874322876365, -0.244464999853838, 0.414607406408515, -0.866, -1.573, 1.671], a = 0.2, v = 0.2, t = 0.2)
movej(p[-0.540876866365027, -0.244468466849448, 0.414527427471822, -0.866, -1.573, 1.671], a = 0.2, v = 0.2, t = 0.2)
movej(p[-0.540879634788061, -0.244472240450113, 0.414440375567939, -0.866, -1.573, 1.671], a = 0.2, v = 0.2, t = 0.2)
movej(p[-0.540879577112581, -0.244472161833432, 0.41444218914927, -0.866, -1.573, 1.671], a = 0.2, v = 0.2, t = 0.2)
movej(p[-0.540861461244356, -0.244447468334084, 0.415011835045305, -0.866, -1.573, 1.671], a = 0.2, v = 0.2, t = 0.2)
movej(p[-0.540834780567372, -0.244411100257681, 0.415850797768977, -0.866, -1.573, 1.671], a = 0.2, v = 0.2, t = 0.2)
movej(p[-0.540808278684375, -0.244374975892988, 0.416684138390524, -0.866, -1.573, 1.671], a = 0.2, v = 0.2, t = 0.2)
movej(p[-0.540772912080123, -0.2443267681445, 0.41779622646263, -0.866, -1.573, 1.671], a = 0.2, v = 0.2, t = 0.2)
movej(p[-0.540740025521506, -0.244281940913274, 0.418830330537507, -0.866, -1.573, 1.671], a = 0.2, v = 0.2, t = 0.2)
movej(p[-0.540722013469145, -0.244257388923952, 0.419396711987146, -0.866, -1.573, 1.671], a = 0.2, v = 0.2, t = 0.2)
movej(p[-0.540746185262755, -0.244290337174753, 0.418636640051367, -0.866, -1.573, 1.671], a = 0.2, v = 0.2, t = 0.2)
movej(p[-0.540786979129662, -0.244345942752876, 0.417353893976024, -0.866, -1.573, 1.671], a = 0.2, v = 0.2, t = 0.2)
movej(p[-0.540825367929058, -0.244398270015422, 0.41614677424218, -0.866, -1.573, 1.671], a = 0.2, v = 0.2, t = 0.2)
movej(p[-0.540855728301658, -0.244439653836042, 0.415192105029596, -0.866, -1.573, 1.671], a = 0.2, v = 0.2, t = 0.2)
movej(p[-0.540868134297376, -0.244456564284019, 0.41480200368532, -0.866, -1.573, 1.671], a = 0.2, v = 0.2, t = 0.2)
movej(p[-0.540874305573721, -0.244464976268834, 0.414607950482914, -0.866, -1.573, 1.671], a = 0.2, v = 0.2, t = 0.2)
movej(p[-0.540876981715987, -0.244468624082809, 0.414523800309161, -0.866, -1.573, 1.671], a = 0.2, v = 0.2, t = 0.2)
movej(p[-0.540881930272159, -0.244475369393997, 0.41436819503097, -0.866, -1.573, 1.671], a = 0.2, v = 0.2, t = 0.2)
movej(p[-0.540879703998636, -0.244472334790129, 0.414438199270342, -0.866, -1.573, 1.671], a = 0.2, v = 0.2, t = 0.2)
movej(p[-0.540860048195099, -0.244445542225412, 0.415056267787912, -0.866, -1.573, 1.671], a = 0.2, v = 0.2, t = 0.2)
movej(p[-0.540837750854584, -0.244415149016727, 0.415757398330436, -0.866, -1.573, 1.671], a = 0.2, v = 0.2, t = 0.2)
movej(p[-0.540803843439973, -0.244368930270257, 0.41682360279487, -0.866, -1.573, 1.671], a = 0.2, v = 0.2, t = 0.2)
movej(p[-0.540765679574948, -0.244316909612764, 0.418023649561524, -0.866, -1.573, 1.671], a = 0.2, v = 0.2, t = 0.2)
movej(p[-0.54073468477207, -0.244274661008659, 0.418998268168748, -0.866, -1.573, 1.671], a = 0.2, v = 0.2, t = 0.2)
movej(p[-0.540722820925863, -0.244258489557479, 0.419371321848513, -0.866, -1.573, 1.671], a = 0.2, v = 0.2, t = 0.2)
movej(p[-0.540746577456018, -0.24429087176818, 0.418624307698317, -0.866, -1.573, 1.671], a = 0.2, v = 0.2, t = 0.2)
movej(p[-0.540788542135166, -0.244348073264918, 0.417304745921957, -0.866, -1.573, 1.671], a = 0.2, v = 0.2, t = 0.2)
movej(p[-0.540828286308339, -0.244402248019456, 0.416055007026836, -0.866, -1.573, 1.671], a = 0.2, v = 0.2, t = 0.2)
movej(p[-0.540856876043707, -0.244441218307984, 0.415156014761111, -0.866, -1.573, 1.671], a = 0.2, v = 0.2, t = 0.2)
movej(p[-0.540868013178868, -0.24445639918899, 0.414805812206115, -0.866, -1.573, 1.671], a = 0.2, v = 0.2, t = 0.2)
movej(p[-0.540874069104254, -0.244464653940443, 0.414615386166371, -0.866, -1.573, 1.671], a = 0.2, v = 0.2, t = 0.2)
movej(p[-0.540880448012327, -0.244473348945308, 0.414414804071174, -0.866, -1.573, 1.671], a = 0.2, v = 0.2, t = 0.2)
movej(p[-0.540881572684184, -0.244474881970578, 0.414379439235221, -0.866, -1.573, 1.671], a = 0.2, v = 0.2, t = 0.2)
movej(p[-0.540881370820004, -0.244474606812196, 0.414385786769879, -0.866, -1.573, 1.671], a = 0.2, v = 0.2, t = 0.2)
movej(p[-0.540871865900923, -0.244461650783248, 0.414684664973211, -0.866, -1.573, 1.671], a = 0.2, v = 0.2, t = 0.2)
movej(p[-0.540854667072828, -0.244438207289121, 0.415225474926084, -0.866, -1.573, 1.671], a = 0.2, v = 0.2, t = 0.2)
movej(p[-0.540817708625332, -0.244387829720251, 0.416387617842923, -0.866, -1.573, 1.671], a = 0.2, v = 0.2, t = 0.2)
movej(p[-0.540783830048461, -0.24434165028212, 0.417452915516691, -0.866, -1.573, 1.671], a = 0.2, v = 0.2, t = 0.2)
movej(p[-0.540762397840144, -0.244312436323643, 0.418126842339252, -0.866, -1.573, 1.671], a = 0.2, v = 0.2, t = 0.2)
movej(p[-0.540735221154033, -0.244275392143788, 0.418981401862371, -0.866, -1.573, 1.671], a = 0.2, v = 0.2, t = 0.2)
movej(p[-0.540705108785997, -0.244234346374895, 0.419928272675232, -0.866, -1.573, 1.671], a = 0.2, v = 0.2, t = 0.2)
movej(p[-0.540690211209549, -0.244214039686319, 0.420396720733002, -0.866, -1.573, 1.671], a = 0.2, v = 0.2, t = 0.2)
movej(p[-0.540738249116726, -0.244279519519515, 0.418886188842499, -0.866, -1.573, 1.671], a = 0.2, v = 0.2, t = 0.2)
movej(p[-0.540785485334733, -0.244343906580851, 0.417400865732495, -0.866, -1.573, 1.671], a = 0.2, v = 0.2, t = 0.2)
movej(p[-0.540819917596211, -0.244390840739114, 0.416318157677949, -0.866, -1.573, 1.671], a = 0.2, v = 0.2, t = 0.2)
movej(p[-0.540850168385399, -0.244432075188041, 0.415366934269894, -0.866, -1.573, 1.671], a = 0.2, v = 0.2, t = 0.2)
movej(p[-0.540866934647395, -0.244454929057065, 0.414839726177003, -0.866, -1.573, 1.671], a = 0.2, v = 0.2, t = 0.2)
movej(p[-0.540874242130693, -0.244464889790485, 0.414609945422378, -0.866, -1.573, 1.671], a = 0.2, v = 0.2, t = 0.2)
movej(p[-0.540877806475349, -0.24446974830134, 0.414497866096129, -0.866, -1.573, 1.671], a = 0.2, v = 0.2, t = 0.2)
movej(p[-0.540882755031521, -0.244476493612528, 0.414342260817938, -0.866, -1.573, 1.671], a = 0.2, v = 0.2, t = 0.2)
movej(p[-0.540882368605806, -0.244475966880769, 0.414354411812855, -0.866, -1.573, 1.671], a = 0.2, v = 0.2, t = 0.2)
movej(p[-0.540882760799069, -0.244476501474196, 0.414342079459805, -0.866, -1.573, 1.671], a = 0.2, v = 0.2, t = 0.2)
movej(p[-0.540882495491862, -0.244476139837466, 0.414350421933927, -0.866, -1.573, 1.671], a = 0.2, v = 0.2, t = 0.2)
movej(p[-0.540875758995814, -0.244466957409182, 0.414562248233376, -0.866, -1.573, 1.671], a = 0.2, v = 0.2, t = 0.2)
movej(p[-0.540847036606842, -0.244427806302289, 0.415465411736162, -0.866, -1.573, 1.671], a = 0.2, v = 0.2, t = 0.2)
movej(p[-0.540812344805705, -0.244380518368964, 0.416556280906696, -0.866, -1.573, 1.671], a = 0.2, v = 0.2, t = 0.2)
movej(p[-0.540787417463309, -0.244346540239648, 0.41734011075791, -0.866, -1.573, 1.671], a = 0.2, v = 0.2, t = 0.2)
movej(p[-0.540753734983069, -0.244300628098231, 0.418399242255153, -0.866, -1.573, 1.671], a = 0.2, v = 0.2, t = 0.2)
movej(p[-0.540726068055379, -0.244262915676591, 0.419269217219584, -0.866, -1.573, 1.671], a = 0.2, v = 0.2, t = 0.2)
movej(p[-0.540737908831395, -0.2442790556811, 0.418896888972351, -0.866, -1.573, 1.671], a = 0.2, v = 0.2, t = 0.2)
movej(p[-0.540786310094095, -0.244345030799382, 0.417374931519463, -0.866, -1.573, 1.671], a = 0.2, v = 0.2, t = 0.2)
movej(p[-0.540820973057493, -0.244392279424368, 0.416284969139594, -0.866, -1.573, 1.671], a = 0.2, v = 0.2, t = 0.2)
movej(p[-0.540845537044366, -0.244425762268596, 0.415512564850765, -0.866, -1.573, 1.671], a = 0.2, v = 0.2, t = 0.2)
movej(p[-0.540864160456813, -0.244451147594732, 0.414926959439019, -0.866, -1.573, 1.671], a = 0.2, v = 0.2, t = 0.2)
movej(p[-0.54087565517995, -0.244466815899157, 0.414565512679771, -0.866, -1.573, 1.671], a = 0.2, v = 0.2, t = 0.2)
movej(p[-0.540878971520042, -0.244471336358287, 0.414461231753245, -0.866, -1.573, 1.671], a = 0.2, v = 0.2, t = 0.2)
movej(p[-0.540878769655863, -0.244471061199905, 0.414467579287903, -0.866, -1.573, 1.671], a = 0.2, v = 0.2, t = 0.2)
movej(p[-0.540869299342069, -0.244458152340965, 0.414765369342436, -0.866, -1.573, 1.671], a = 0.2, v = 0.2, t = 0.2)
movej(p[-0.540834780567372, -0.244411100257681, 0.415850797768977, -0.866, -1.573, 1.671], a = 0.2, v = 0.2, t = 0.2)
movej(p[-0.540792302576453, -0.244353199072487, 0.417186500419183, -0.866, -1.573, 1.671], a = 0.2, v = 0.2, t = 0.2)
movej(p[-0.540755943953948, -0.244303639117095, 0.41832978209018, -0.866, -1.573, 1.671], a = 0.2, v = 0.2, t = 0.2)
movej(p[-0.540730261062765, -0.244268631109264, 0.419137369856828, -0.866, -1.573, 1.671], a = 0.2, v = 0.2, t = 0.2)
movej(p[-0.540705743216275, -0.24423521115838, 0.419908323280592, -0.866, -1.573, 1.671], a = 0.2, v = 0.2, t = 0.2)
movej(p[-0.540733952293476, -0.244273662576817, 0.41902130065165, -0.866, -1.573, 1.671], a = 0.2, v = 0.2, t = 0.2)
movej(p[-0.540782763052084, -0.244340195873531, 0.417486466771313, -0.866, -1.573, 1.671], a = 0.2, v = 0.2, t = 0.2)
movej(p[-0.540814697965283, -0.244383725929528, 0.416482286788396, -0.866, -1.573, 1.671], a = 0.2, v = 0.2, t = 0.2)
movej(p[-0.54083701837599, -0.244414150584885, 0.415780430813339, -0.866, -1.573, 1.671], a = 0.2, v = 0.2, t = 0.2)
movej(p[-0.540849510884928, -0.244431178957883, 0.415387609097067, -0.866, -1.573, 1.671], a = 0.2, v = 0.2, t = 0.2)
movej(p[-0.540856483850444, -0.244440683714557, 0.415168347114161, -0.866, -1.573, 1.671], a = 0.2, v = 0.2, t = 0.2)
movej(p[-0.540850698999814, -0.244432798461502, 0.41535024932165, -0.866, -1.573, 1.671], a = 0.2, v = 0.2, t = 0.2)
movej(p[-0.540810724124721, -0.244378309240241, 0.416607242542094, -0.866, -1.573, 1.671], a = 0.2, v = 0.2, t = 0.2)
movej(p[-0.540767207975165, -0.244318992954798, 0.417975589656256, -0.866, -1.573, 1.671], a = 0.2, v = 0.2, t = 0.2)
movej(p[-0.540726765928685, -0.244263866938425, 0.41924727288548, -0.866, -1.573, 1.671], a = 0.2, v = 0.2, t = 0.2)
movej(p[-0.540689772875902, -0.244213442199547, 0.420410503951117, -0.866, -1.573, 1.671], a = 0.2, v = 0.2, t = 0.2)
movej(p[-0.540640794858402, -0.24414668091446, 0.421950597217314, -0.866, -1.573, 1.671], a = 0.2, v = 0.2, t = 0.2)
movej(p[-0.540593062631268, -0.244081617749671, 0.423451517126764, -0.866, -1.573, 1.671], a = 0.2, v = 0.2, t = 0.2)
movej(p[-0.540582438807878, -0.244067136557122, 0.423785578807915, -0.866, -1.573, 1.671], a = 0.2, v = 0.2, t = 0.2)
movej(p[-0.540653304669985, -0.244163732872462, 0.421557231426643, -0.866, -1.573, 1.671], a = 0.2, v = 0.2, t = 0.2)
movej(p[-0.540713494800769, -0.24424577724024, 0.419664577949719, -0.866, -1.573, 1.671], a = 0.2, v = 0.2, t = 0.2)
movej(p[-0.540755984326784, -0.244303694148771, 0.418328512583248, -0.866, -1.573, 1.671], a = 0.2, v = 0.2, t = 0.2)
movej(p[-0.540785577615501, -0.24434403236754, 0.417397964002365, -0.866, -1.573, 1.671], a = 0.2, v = 0.2, t = 0.2)
movej(p[-0.540810908686256, -0.244378560813619, 0.416601439081835, -0.866, -1.573, 1.671], a = 0.2, v = 0.2, t = 0.2)
movej(p[-0.540835057409675, -0.244411477617748, 0.415842092578589, -0.866, -1.573, 1.671], a = 0.2, v = 0.2, t = 0.2)
movej(p[-0.54084881877917, -0.244430235557717, 0.415409372073037, -0.866, -1.573, 1.671], a = 0.2, v = 0.2, t = 0.2)
movej(p[-0.540860180848703, -0.244445723043777, 0.415052096550851, -0.866, -1.573, 1.671], a = 0.2, v = 0.2, t = 0.2)
movej(p[-0.540867690196181, -0.244455958935579, 0.414815968261568, -0.866, -1.573, 1.671], a = 0.2, v = 0.2, t = 0.2)
movej(p[-0.540874547810737, -0.244465306458892, 0.414600333441325, -0.866, -1.573, 1.671], a = 0.2, v = 0.2, t = 0.2)
movej(p[-0.540870579737722, -0.244459897631273, 0.41472510783689, -0.866, -1.573, 1.671], a = 0.2, v = 0.2, t = 0.2)
movej(p[-0.540839336930281, -0.244417310975441, 0.415707524843837, -0.866, -1.573, 1.671], a = 0.2, v = 0.2, t = 0.2)
movej(p[-0.540808947719941, -0.244375887846482, 0.416663100847086, -0.866, -1.573, 1.671], a = 0.2, v = 0.2, t = 0.2)
movej(p[-0.540768148085487, -0.24432027440669, 0.417946028280562, -0.866, -1.573, 1.671], a = 0.2, v = 0.2, t = 0.2)
movej(p[-0.540738081857834, -0.244279291531141, 0.418891448228358, -0.866, -1.573, 1.671], a = 0.2, v = 0.2, t = 0.2)
movej(p[-0.540742315238056, -0.24428506199549, 0.41875833135867, -0.866, -1.573, 1.671], a = 0.2, v = 0.2, t = 0.2)
movej(p[-0.54079531900405, -0.244357310724878, 0.417091650115577, -0.866, -1.573, 1.671], a = 0.2, v = 0.2, t = 0.2)
movej(p[-0.540832692715001, -0.244408254333847, 0.415916449413156, -0.866, -1.573, 1.671], a = 0.2, v = 0.2, t = 0.2)
movej(p[-0.540856426174964, -0.244440605097876, 0.415170160695492, -0.866, -1.573, 1.671], a = 0.2, v = 0.2, t = 0.2)
movej(p[-0.540870683553586, -0.244460039141298, 0.414721843390495, -0.866, -1.573, 1.671], a = 0.2, v = 0.2, t = 0.2)
movej(p[-0.540876929808055, -0.244468553327797, 0.414525432532359, -0.866, -1.573, 1.671], a = 0.2, v = 0.2, t = 0.2)
movej(p[-0.540879011892878, -0.244471391389963, 0.414459962246313, -0.866, -1.573, 1.671], a = 0.2, v = 0.2, t = 0.2)
movej(p[-0.540878215971256, -0.244470306479772, 0.41448498966868, -0.866, -1.573, 1.671], a = 0.2, v = 0.2, t = 0.2)
movej(p[-0.540867603682961, -0.244455841010559, 0.414818688633564, -0.866, -1.573, 1.671], a = 0.2, v = 0.2, t = 0.2)
movej(p[-0.540832767693124, -0.244408356535532, 0.415914091757426, -0.866, -1.573, 1.671], a = 0.2, v = 0.2, t = 0.2)
movej(p[-0.540799886902055, -0.244363537165974, 0.41694801447417, -0.866, -1.573, 1.671], a = 0.2, v = 0.2, t = 0.2)
movej(p[-0.540769895652526, -0.244322656492109, 0.417891076766236, -0.866, -1.573, 1.671], a = 0.2, v = 0.2, t = 0.2)
movej(p[-0.540740648416688, -0.244282789973424, 0.418810743859133, -0.866, -1.573, 1.671], a = 0.2, v = 0.2, t = 0.2)
movej(p[-0.540726754393589, -0.244263851215089, 0.419247635601746, -0.866, -1.573, 1.671], a = 0.2, v = 0.2, t = 0.2)
movej(p[-0.540762732357927, -0.24431289230039, 0.418116323567533, -0.866, -1.573, 1.671], a = 0.2, v = 0.2, t = 0.2)
movej(p[-0.540814801781147, -0.244383867439553, 0.416479022342, -0.866, -1.573, 1.671], a = 0.2, v = 0.2, t = 0.2)
movej(p[-0.540843414586707, -0.244422869174753, 0.415579304643742, -0.866, -1.573, 1.671], a = 0.2, v = 0.2, t = 0.2)
movej(p[-0.540861588130412, -0.244447641290782, 0.415007845166377, -0.866, -1.573, 1.671], a = 0.2, v = 0.2, t = 0.2)
movej(p[-0.540870297127871, -0.244459512409538, 0.414733994385412, -0.866, -1.573, 1.671], a = 0.2, v = 0.2, t = 0.2)
movej(p[-0.540878688910191, -0.244470951136552, 0.414470118301766, -0.866, -1.573, 1.671], a = 0.2, v = 0.2, t = 0.2)
movej(p[-0.54087975013902, -0.244472397683474, 0.414436748405278, -0.866, -1.573, 1.671], a = 0.2, v = 0.2, t = 0.2)
movej(p[-0.540877725729677, -0.244469638237988, 0.414500405109992, -0.866, -1.573, 1.671], a = 0.2, v = 0.2, t = 0.2)
movej(p[-0.540864264272677, -0.244451289104757, 0.414923694992623, -0.866, -1.573, 1.671], a = 0.2, v = 0.2, t = 0.2)
movej(p[-0.540834826707755, -0.244411163151026, 0.415849346903913, -0.866, -1.573, 1.671], a = 0.2, v = 0.2, t = 0.2)
movej(p[-0.540800878920308, -0.244364889372879, 0.416916820875278, -0.866, -1.573, 1.671], a = 0.2, v = 0.2, t = 0.2)
movej(p[-0.540773673396457, -0.244327805884683, 0.417772287189062, -0.866, -1.573, 1.671], a = 0.2, v = 0.2, t = 0.2)
movej(p[-0.540753089017694, -0.244299747591409, 0.418419554366059, -0.866, -1.573, 1.671], a = 0.2, v = 0.2, t = 0.2)
movej(p[-0.540747557939176, -0.244292208251749, 0.418593476815692, -0.866, -1.573, 1.671], a = 0.2, v = 0.2, t = 0.2)
movej(p[-0.540784741321043, -0.244342892425672, 0.417424260931663, -0.866, -1.573, 1.671], a = 0.2, v = 0.2, t = 0.2)
movej(p[-0.540822063124062, -0.244393765279629, 0.41625069245244, -0.866, -1.573, 1.671], a = 0.2, v = 0.2, t = 0.2)
movej(p[-0.540853069462036, -0.24443602960707, 0.41527571112895, -0.866, -1.573, 1.671], a = 0.2, v = 0.2, t = 0.2)
movej(p[-0.540865169777711, -0.244452523386641, 0.414895221765728, -0.866, -1.573, 1.671], a = 0.2, v = 0.2, t = 0.2)
movej(p[-0.540871681339387, -0.24446139920987, 0.41469046843347, -0.866, -1.573, 1.671], a = 0.2, v = 0.2, t = 0.2)
movej(p[-0.540877333536414, -0.24446910364456, 0.414512737463042, -0.866, -1.573, 1.671], a = 0.2, v = 0.2, t = 0.2)
movej(p[-0.540880730622178, -0.244473734167042, 0.414405917522652, -0.866, -1.573, 1.671], a = 0.2, v = 0.2, t = 0.2)
movej(p[-0.540881018999577, -0.244474127250445, 0.414396849615998, -0.866, -1.573, 1.671], a = 0.2, v = 0.2, t = 0.2)
movej(p[-0.540881047837317, -0.244474166558785, 0.414395942825332, -0.866, -1.573, 1.671], a = 0.2, v = 0.2, t = 0.2)
movej(p[-0.540884594879329, -0.244479001484636, 0.414284407573482, -0.866, -1.573, 1.671], a = 0.2, v = 0.2, t = 0.2)
movej(p[-0.540878412067887, -0.244470573776486, 0.414478823492154, -0.866, -1.573, 1.671], a = 0.2, v = 0.2, t = 0.2)
movej(p[-0.540859033106654, -0.244444158571835, 0.415088186819336, -0.866, -1.573, 1.671], a = 0.2, v = 0.2, t = 0.2)
movej(p[-0.540834590238288, -0.244410840822636, 0.415856782587369, -0.866, -1.573, 1.671], a = 0.2, v = 0.2, t = 0.2)
movej(p[-0.540808019144715, -0.244374622117925, 0.416692299506513, -0.866, -1.573, 1.671], a = 0.2, v = 0.2, t = 0.2)
movej(p[-0.540773506137566, -0.244327577896309, 0.417777546574922, -0.866, -1.573, 1.671], a = 0.2, v = 0.2, t = 0.2)
movej(p[-0.54074078683784, -0.244282978653457, 0.418806391263939, -0.866, -1.573, 1.671], a = 0.2, v = 0.2, t = 0.2)
movej(p[-0.540725162550345, -0.244261681394707, 0.419297690446479, -0.866, -1.573, 1.671], a = 0.2, v = 0.2, t = 0.2)
movej(p[-0.540760465711569, -0.244309802664846, 0.418187597313837, -0.866, -1.573, 1.671], a = 0.2, v = 0.2, t = 0.2)
movej(p[-0.540801444140011, -0.244365659816348, 0.416899047778236, -0.866, -1.573, 1.671], a = 0.2, v = 0.2, t = 0.2)
movej(p[-0.54083535732217, -0.244411886424486, 0.415832661955669, -0.866, -1.573, 1.671], a = 0.2, v = 0.2, t = 0.2)
movej(p[-0.540860953700133, -0.244446776507296, 0.415027794561017, -0.866, -1.573, 1.671], a = 0.2, v = 0.2, t = 0.2)
movej(p[-0.540871254540837, -0.244460817446435, 0.414703888935319, -0.866, -1.573, 1.671], a = 0.2, v = 0.2, t = 0.2)
movej(p[-0.540875666715046, -0.244466831622494, 0.414565149963505, -0.866, -1.573, 1.671], a = 0.2, v = 0.2, t = 0.2)
movej(p[-0.540877789172705, -0.244469724716336, 0.414498410170528, -0.866, -1.573, 1.671], a = 0.2, v = 0.2, t = 0.2)
movej(p[-0.54088221288201, -0.244475754615731, 0.414359308482448, -0.866, -1.573, 1.671], a = 0.2, v = 0.2, t = 0.2)
movej(p[-0.540881676500048, -0.244475023480603, 0.414376174788826, -0.866, -1.573, 1.671], a = 0.2, v = 0.2, t = 0.2)
movej(p[-0.540881630359664, -0.244474960587258, 0.41437762565389, -0.866, -1.573, 1.671], a = 0.2, v = 0.2, t = 0.2)
movej(p[-0.540874259433337, -0.244464913375489, 0.414609401347979, -0.866, -1.573, 1.671], a = 0.2, v = 0.2, t = 0.2)
movej(p[-0.540854788191336, -0.24443837238415, 0.41522166640529, -0.866, -1.573, 1.671], a = 0.2, v = 0.2, t = 0.2)
movej(p[-0.540824520099504, -0.244397114350219, 0.416173433887744, -0.866, -1.573, 1.671], a = 0.2, v = 0.2, t = 0.2)
movej(p[-0.540794182797096, -0.244355761976272, 0.417127377667795, -0.866, -1.573, 1.671], a = 0.2, v = 0.2, t = 0.2)
movej(p[-0.540771302934235, -0.244324574739114, 0.417846825381762, -0.866, -1.573, 1.671], a = 0.2, v = 0.2, t = 0.2)
movej(p[-0.54074826158003, -0.244293167375251, 0.418571351123455, -0.866, -1.573, 1.671], a = 0.2, v = 0.2, t = 0.2)
movej(p[-0.540739160389308, -0.244280761663067, 0.41885753425747, -0.866, -1.573, 1.671], a = 0.2, v = 0.2, t = 0.2)
movej(p[-0.540774988397398, -0.244329598344998, 0.417730937534718, -0.866, -1.573, 1.671], a = 0.2, v = 0.2, t = 0.2)
movej(p[-0.540822714856984, -0.244394653648119, 0.416230198983401, -0.866, -1.573, 1.671], a = 0.2, v = 0.2, t = 0.2)
movej(p[-0.540847630664285, -0.244428616054099, 0.415446731848454, -0.866, -1.573, 1.671], a = 0.2, v = 0.2, t = 0.2)
movej(p[-0.540861184402053, -0.244447090974018, 0.415020540235693, -0.866, -1.573, 1.671], a = 0.2, v = 0.2, t = 0.2)
movej(p[-0.540871035374013, -0.244460518703049, 0.414710780544376, -0.866, -1.573, 1.671], a = 0.2, v = 0.2, t = 0.2)
movej(p[-0.540877806475349, -0.24446974830134, 0.414497866096129, -0.866, -1.573, 1.671], a = 0.2, v = 0.2, t = 0.2)
movej(p[-0.540879311805373, -0.244471800196702, 0.414450531623393, -0.866, -1.573, 1.671], a = 0.2, v = 0.2, t = 0.2)
movej(p[-0.540880136564735, -0.244472924415233, 0.414424597410361, -0.866, -1.573, 1.671], a = 0.2, v = 0.2, t = 0.2)
movej(p[-0.540883862400734, -0.244478003052794, 0.414307440056385, -0.866, -1.573, 1.671], a = 0.2, v = 0.2, t = 0.2)
movej(p[-0.540882668518301, -0.244476375687507, 0.414344981189934, -0.866, -1.573, 1.671], a = 0.2, v = 0.2, t = 0.2)
movej(p[-0.540870314430515, -0.244459535994542, 0.414733450311012, -0.866, -1.573, 1.671], a = 0.2, v = 0.2, t = 0.2)
movej(p[-0.54084635603618, -0.244426878625459, 0.415486811995867, -0.866, -1.573, 1.671], a = 0.2, v = 0.2, t = 0.2)
movej(p[-0.540825287183386, -0.24439815995207, 0.416149313256043, -0.866, -1.573, 1.671], a = 0.2, v = 0.2, t = 0.2)
movej(p[-0.540794407731468, -0.244356068581325, 0.417120304700605, -0.866, -1.573, 1.671], a = 0.2, v = 0.2, t = 0.2)
movej(p[-0.540768499905914, -0.244320753968441, 0.417934965434443, -0.866, -1.573, 1.671], a = 0.2, v = 0.2, t = 0.2)
movej(p[-0.540751041538159, -0.244296956699251, 0.418483936503306, -0.866, -1.573, 1.671], a = 0.2, v = 0.2, t = 0.2)
movej(p[-0.540741161728459, -0.24428348966188, 0.418794602985288, -0.866, -1.573, 1.671], a = 0.2, v = 0.2, t = 0.2)
movej(p[-0.54077690322333, -0.244332208418791, 0.417670726634532, -0.866, -1.573, 1.671], a = 0.2, v = 0.2, t = 0.2)
movej(p[-0.540816647396503, -0.244386383173329, 0.416420987739411, -0.866, -1.573, 1.671], a = 0.2, v = 0.2, t = 0.2)
movej(p[-0.540850502903182, -0.244432531164788, 0.415356415498175, -0.866, -1.573, 1.671], a = 0.2, v = 0.2, t = 0.2)
movej(p[-0.540864212364745, -0.244451218349745, 0.414925327215821, -0.866, -1.573, 1.671], a = 0.2, v = 0.2, t = 0.2)
movej(p[-0.54087224655909, -0.244462169653339, 0.414672695336427, -0.866, -1.573, 1.671], a = 0.2, v = 0.2, t = 0.2)
movej(p[-0.540877529633046, -0.244469370941274, 0.414506571286517, -0.866, -1.573, 1.671], a = 0.2, v = 0.2, t = 0.2)
movej(p[-0.540881751478172, -0.244475125682287, 0.414373817133096, -0.866, -1.573, 1.671], a = 0.2, v = 0.2, t = 0.2)
movej(p[-0.540881272771689, -0.244474473163839, 0.414388869858142, -0.866, -1.573, 1.671], a = 0.2, v = 0.2, t = 0.2)
movej(p[-0.540866859669271, -0.24445482685538, 0.414842083832733, -0.866, -1.573, 1.671], a = 0.2, v = 0.2, t = 0.2)
movej(p[-0.540844308556645, -0.244424087733301, 0.415551194133113, -0.866, -1.573, 1.671], a = 0.2, v = 0.2, t = 0.2)
movej(p[-0.540811941077346, -0.2443799680522, 0.416568975976012, -0.866, -1.573, 1.671], a = 0.2, v = 0.2, t = 0.2)
movej(p[-0.540779256382908, -0.244335415979356, 0.417596732516231, -0.866, -1.573, 1.671], a = 0.2, v = 0.2, t = 0.2)
movej(p[-0.540753152460722, -0.244299834069758, 0.418417559426595, -0.866, -1.573, 1.671], a = 0.2, v = 0.2, t = 0.2)
movej(p[-0.540741842299121, -0.24428441733871, 0.418773202725584, -0.866, -1.573, 1.671], a = 0.2, v = 0.2, t = 0.2)
movej(p[-0.54077192006187, -0.244325415937595, 0.417827420061521, -0.866, -1.573, 1.671], a = 0.2, v = 0.2, t = 0.2)
movej(p[-0.540814617219612, -0.244383615866176, 0.416484825802259, -0.866, -1.573, 1.671], a = 0.2, v = 0.2, t = 0.2)
movej(p[-0.540849072551281, -0.244430581471111, 0.415401392315181, -0.866, -1.573, 1.671], a = 0.2, v = 0.2, t = 0.2)
movej(p[-0.540864950610888, -0.244452224643255, 0.414902113374786, -0.866, -1.573, 1.671], a = 0.2, v = 0.2, t = 0.2)
movej(p[-0.540872644519901, -0.244462712108435, 0.414660181625244, -0.866, -1.573, 1.671], a = 0.2, v = 0.2, t = 0.2)
movej(p[-0.540876595290272, -0.24446809735105, 0.414535951304078, -0.866, -1.573, 1.671], a = 0.2, v = 0.2, t = 0.2)
movej(p[-0.540882016785379, -0.244475487319018, 0.414365474658973, -0.866, -1.573, 1.671], a = 0.2, v = 0.2, t = 0.2)
movej(p[-0.54088229939523, -0.244475872540752, 0.414356588110452, -0.866, -1.573, 1.671], a = 0.2, v = 0.2, t = 0.2)
movej(p[-0.540878729283027, -0.244471006168229, 0.414468848794835, -0.866, -1.573, 1.671], a = 0.2, v = 0.2, t = 0.2)
movej(p[-0.54086225139843, -0.244448545382607, 0.414986988981072, -0.866, -1.573, 1.671], a = 0.2, v = 0.2, t = 0.2)
movej(p[-0.540831608415979, -0.244406776340253, 0.415950544742177, -0.866, -1.573, 1.671], a = 0.2, v = 0.2, t = 0.2)
movej(p[-0.540797055035994, -0.244359677086961, 0.417037061317517, -0.866, -1.573, 1.671], a = 0.2, v = 0.2, t = 0.2)
movej(p[-0.540768344182118, -0.244320541703404, 0.417939862104037, -0.866, -1.573, 1.671], a = 0.2, v = 0.2, t = 0.2)
movej(p[-0.540748538422333, -0.244293544735317, 0.418562645933067, -0.866, -1.573, 1.671], a = 0.2, v = 0.2, t = 0.2)
movej(p[-0.540739027735704, -0.244280580844701, 0.418861705494531, -0.866, -1.573, 1.671], a = 0.2, v = 0.2, t = 0.2)
movej(p[-0.540774746160383, -0.24432926815494, 0.417738554576307, -0.866, -1.573, 1.671], a = 0.2, v = 0.2, t = 0.2)
movej(p[-0.54082263987886, -0.244394551446434, 0.416232556639131, -0.866, -1.573, 1.671], a = 0.2, v = 0.2, t = 0.2)
movej(p[-0.540851800601479, -0.244434300040099, 0.41531560991823, -0.866, -1.573, 1.671], a = 0.2, v = 0.2, t = 0.2)
movej(p[-0.54086631751976, -0.244454087858583, 0.414859131497243, -0.866, -1.573, 1.671], a = 0.2, v = 0.2, t = 0.2)
movej(p[-0.540874276735981, -0.244464936960493, 0.41460885727358, -0.866, -1.573, 1.671], a = 0.2, v = 0.2, t = 0.2)
movej(p[-0.540881618824568, -0.244474944863922, 0.414377988370157, -0.866, -1.573, 1.671], a = 0.2, v = 0.2, t = 0.2)
movej(p[-0.540882074460859, -0.244475565935698, 0.414363661077643, -0.866, -1.573, 1.671], a = 0.2, v = 0.2, t = 0.2)
movej(p[-0.54088221288201, -0.244475754615731, 0.414359308482448, -0.866, -1.573, 1.671], a = 0.2, v = 0.2, t = 0.2)
movej(p[-0.540882956895701, -0.24447676877091, 0.41433591328328, -0.866, -1.573, 1.671], a = 0.2, v = 0.2, t = 0.2)
movej(p[-0.540885188936771, -0.244479811236445, 0.414265727685774, -0.866, -1.573, 1.671], a = 0.2, v = 0.2, t = 0.2)
movej(p[-0.540873117458836, -0.244463356765215, 0.414645310258331, -0.866, -1.573, 1.671], a = 0.2, v = 0.2, t = 0.2)
movej(p[-0.540848680358018, -0.244430046877684, 0.415413724668232, -0.866, -1.573, 1.671], a = 0.2, v = 0.2, t = 0.2)
movej(p[-0.5408279690932, -0.244401815627713, 0.416064981724156, -0.866, -1.573, 1.671], a = 0.2, v = 0.2, t = 0.2)
movej(p[-0.540801795960438, -0.244366139378099, 0.416887984932117, -0.866, -1.573, 1.671], a = 0.2, v = 0.2, t = 0.2)
movej(p[-0.540773777212321, -0.244327947394708, 0.417769022742666, -0.866, -1.573, 1.671], a = 0.2, v = 0.2, t = 0.2)
movej(p[-0.540753117855434, -0.24429978689975, 0.418418647575393, -0.866, -1.573, 1.671], a = 0.2, v = 0.2, t = 0.2)
movej(p[-0.54075811255199, -0.244306595104282, 0.418261591432138, -0.866, -1.573, 1.671], a = 0.2, v = 0.2, t = 0.2)
movej(p[-0.540792896633896, -0.244354008824296, 0.417167820531474, -0.866, -1.573, 1.671], a = 0.2, v = 0.2, t = 0.2)
movej(p[-0.540829422515292, -0.244403796768062, 0.416019279474618, -0.866, -1.573, 1.671], a = 0.2, v = 0.2, t = 0.2)
movej(p[-0.54085809876388, -0.244442884981611, 0.415117566836896, -0.866, -1.573, 1.671], a = 0.2, v = 0.2, t = 0.2)
movej(p[-0.540869051337506, -0.244457814289239, 0.414773167742159, -0.866, -1.573, 1.671], a = 0.2, v = 0.2, t = 0.2)
movej(p[-0.540875620574662, -0.244466768729149, 0.41456660082857, -0.866, -1.573, 1.671], a = 0.2, v = 0.2, t = 0.2)
movej(p[-0.540878838866438, -0.244471155539922, 0.414465402990306, -0.866, -1.573, 1.671], a = 0.2, v = 0.2, t = 0.2)
movej(p[-0.540884364177409, -0.244478687017914, 0.414291661898806, -0.866, -1.573, 1.671], a = 0.2, v = 0.2, t = 0.2)
movej(p[-0.540884675625001, -0.244479111547989, 0.414281868559619, -0.866, -1.573, 1.671], a = 0.2, v = 0.2, t = 0.2)
movej(p[-0.540884139243038, -0.24447838041286, 0.414298734865997, -0.866, -1.573, 1.671], a = 0.2, v = 0.2, t = 0.2)
movej(p[-0.540883568255787, -0.244477602107723, 0.414316689321172, -0.866, -1.573, 1.671], a = 0.2, v = 0.2, t = 0.2)
movej(p[-0.540862170652758, -0.244448435319255, 0.414989527994935, -0.866, -1.573, 1.671], a = 0.2, v = 0.2, t = 0.2)
movej(p[-0.540837566293049, -0.24441489744335, 0.415763201790695, -0.866, -1.573, 1.671], a = 0.2, v = 0.2, t = 0.2)
movej(p[-0.540811877634318, -0.244379881573851, 0.416570970915476, -0.866, -1.573, 1.671], a = 0.2, v = 0.2, t = 0.2)
movej(p[-0.540791454746899, -0.244352043407283, 0.417213160064747, -0.866, -1.573, 1.671], a = 0.2, v = 0.2, t = 0.2)
movej(p[-0.540766302470131, -0.244317758672914, 0.418004062883151, -0.866, -1.573, 1.671], a = 0.2, v = 0.2, t = 0.2)
movej(p[-0.540748226974742, -0.244293120205243, 0.418572439272254, -0.866, -1.573, 1.671], a = 0.2, v = 0.2, t = 0.2)
movej(p[-0.540778760373781, -0.244334739875904, 0.417612329315677, -0.866, -1.573, 1.671], a = 0.2, v = 0.2, t = 0.2)
movej(p[-0.540816658931599, -0.244386398896666, 0.416420625023145, -0.866, -1.573, 1.671], a = 0.2, v = 0.2, t = 0.2)
movej(p[-0.54084386445545, -0.244423482384861, 0.415565158709361, -0.866, -1.573, 1.671], a = 0.2, v = 0.2, t = 0.2)
movej(p[-0.540861668876083, -0.244447751354134, 0.415005306152514, -0.866, -1.573, 1.671], a = 0.2, v = 0.2, t = 0.2)
movej(p[-0.540875660947498, -0.244466823760826, 0.414565331321638, -0.866, -1.573, 1.671], a = 0.2, v = 0.2, t = 0.2)
movej(p[-0.540879254129893, -0.244471721580021, 0.414452345204723, -0.866, -1.573, 1.671], a = 0.2, v = 0.2, t = 0.2)
movej(p[-0.540880857508234, -0.244473907123739, 0.414401927643724, -0.866, -1.573, 1.671], a = 0.2, v = 0.2, t = 0.2)
movej(p[-0.540882991500989, -0.244476815940918, 0.414334825134481, -0.866, -1.573, 1.671], a = 0.2, v = 0.2, t = 0.2)
movej(p[-0.54087720088281, -0.244468922826195, 0.414516908700103, -0.866, -1.573, 1.671], a = 0.2, v = 0.2, t = 0.2)
movej(p[-0.540851708320711, -0.24443417425341, 0.415318511648359, -0.866, -1.573, 1.671], a = 0.2, v = 0.2, t = 0.2)
movej(p[-0.54082544867473, -0.244398380078775, 0.416144235228317, -0.866, -1.573, 1.671], a = 0.2, v = 0.2, t = 0.2)
movej(p[-0.540801911311398, -0.24436629661146, 0.416884357769455, -0.866, -1.573, 1.671], a = 0.2, v = 0.2, t = 0.2)
movej(p[-0.540770224402762, -0.244323104607188, 0.41788073935265, -0.866, -1.573, 1.671], a = 0.2, v = 0.2, t = 0.2)
movej(p[-0.540741934579889, -0.244284543125399, 0.418770300995454, -0.866, -1.573, 1.671], a = 0.2, v = 0.2, t = 0.2)
movej(p[-0.540735180781197, -0.244275337112112, 0.418982671369302, -0.866, -1.573, 1.671], a = 0.2, v = 0.2, t = 0.2)
movej(p[-0.540779296755744, -0.244335471011032, 0.4175954630093, -0.866, -1.573, 1.671], a = 0.2, v = 0.2, t = 0.2)
movej(p[-0.540815430443878, -0.244384724361371, 0.416459254305493, -0.866, -1.573, 1.671], a = 0.2, v = 0.2, t = 0.2)
movej(p[-0.540845052570335, -0.24442510188848, 0.415527798933945, -0.866, -1.573, 1.671], a = 0.2, v = 0.2, t = 0.2)
movej(p[-0.540867355678398, -0.244455502958832, 0.414826487033287, -0.866, -1.573, 1.671], a = 0.2, v = 0.2, t = 0.2)
movej(p[-0.540875758995814, -0.244466957409182, 0.414562248233376, -0.866, -1.573, 1.671], a = 0.2, v = 0.2, t = 0.2)
movej(p[-0.540879761674116, -0.24447241340681, 0.414436385689011, -0.866, -1.573, 1.671], a = 0.2, v = 0.2, t = 0.2)
movej(p[-0.540881474635868, -0.244474748322221, 0.414382522323484, -0.866, -1.573, 1.671], a = 0.2, v = 0.2, t = 0.2)
movej(p[-0.540886180955025, -0.24448116344335, 0.414234534086883, -0.866, -1.573, 1.671], a = 0.2, v = 0.2, t = 0.2)
movej(p[-0.540886065604065, -0.244481006209989, 0.414238161249545, -0.866, -1.573, 1.671], a = 0.2, v = 0.2, t = 0.2)
movej(p[-0.540880961324097, -0.244474048633764, 0.414398663197329, -0.866, -1.573, 1.671], a = 0.2, v = 0.2, t = 0.2)
movej(p[-0.540863981662826, -0.244450903883023, 0.414932581541145, -0.866, -1.573, 1.671], a = 0.2, v = 0.2, t = 0.2)
movej(p[-0.540838437192795, -0.244416084555225, 0.415735816712599, -0.866, -1.573, 1.671], a = 0.2, v = 0.2, t = 0.2)
movej(p[-0.540805821708933, -0.244371626822398, 0.416761396955221, -0.866, -1.573, 1.671], a = 0.2, v = 0.2, t = 0.2)
movej(p[-0.540775876599788, -0.244330809041878, 0.417703008382222, -0.866, -1.573, 1.671], a = 0.2, v = 0.2, t = 0.2)
movej(p[-0.540752887153515, -0.244299472433028, 0.418425901900717, -0.866, -1.573, 1.671], a = 0.2, v = 0.2, t = 0.2)
movej(p[-0.540732049002641, -0.24427106822636, 0.41908114883557, -0.866, -1.573, 1.671], a = 0.2, v = 0.2, t = 0.2)
movej(p[-0.540756290006827, -0.244304110817178, 0.418318900602194, -0.866, -1.573, 1.671], a = 0.2, v = 0.2, t = 0.2)
movej(p[-0.540806502279595, -0.244372554499228, 0.416739996695516, -0.866, -1.573, 1.671], a = 0.2, v = 0.2, t = 0.2)
movej(p[-0.54084647138714, -0.24442703585882, 0.415483184833205, -0.866, -1.573, 1.671], a = 0.2, v = 0.2, t = 0.2)
movej(p[-0.540864494974597, -0.244451603571479, 0.4149164406673, -0.866, -1.573, 1.671], a = 0.2, v = 0.2, t = 0.2)
movej(p[-0.540873642305703, -0.244464072177008, 0.41462880666822, -0.866, -1.573, 1.671], a = 0.2, v = 0.2, t = 0.2)
movej(p[-0.540882132136339, -0.244475644552379, 0.414361847496312, -0.866, -1.573, 1.671], a = 0.2, v = 0.2, t = 0.2)
movej(p[-0.540883672071651, -0.244477743617748, 0.414313424874777, -0.866, -1.573, 1.671], a = 0.2, v = 0.2, t = 0.2)
movej(p[-0.540882922290413, -0.244476721600902, 0.414337001432078, -0.866, -1.573, 1.671], a = 0.2, v = 0.2, t = 0.2)
movej(p[-0.540865781137798, -0.244453356723454, 0.414875997803621, -0.866, -1.573, 1.671], a = 0.2, v = 0.2, t = 0.2)
movej(p[-0.540842128423506, -0.244421116022778, 0.415619747507421, -0.866, -1.573, 1.671], a = 0.2, v = 0.2, t = 0.2)
movej(p[-0.5408096398257, -0.244376831246648, 0.416641337871115, -0.866, -1.573, 1.671], a = 0.2, v = 0.2, t = 0.2)
movej(p[-0.540775692038252, -0.244330557468501, 0.417708811842481, -0.866, -1.573, 1.671], a = 0.2, v = 0.2, t = 0.2)
movej(p[-0.540751427963874, -0.244297483431011, 0.418471785508389, -0.866, -1.573, 1.671], a = 0.2, v = 0.2, t = 0.2)
movej(p[-0.540730203387285, -0.244268552492584, 0.419139183438159, -0.866, -1.573, 1.671], a = 0.2, v = 0.2, t = 0.2)
movej(p[-0.540747073465145, -0.244291547871632, 0.418608710898871, -0.866, -1.573, 1.671], a = 0.2, v = 0.2, t = 0.2)
movej(p[-0.540792066106985, -0.244352876744097, 0.417193936102639, -0.866, -1.573, 1.671], a = 0.2, v = 0.2, t = 0.2)
movej(p[-0.540837099121662, -0.244414260648238, 0.415777891799475, -0.866, -1.573, 1.671], a = 0.2, v = 0.2, t = 0.2)
movej(p[-0.540858456351855, -0.24444337240503, 0.415106322632645, -0.866, -1.573, 1.671], a = 0.2, v = 0.2, t = 0.2)
movej(p[-0.540871093049493, -0.244460597319729, 0.414708966963045, -0.866, -1.573, 1.671], a = 0.2, v = 0.2, t = 0.2)
movej(p[-0.540878487046011, -0.24447067597817, 0.414476465836424, -0.866, -1.573, 1.671], a = 0.2, v = 0.2, t = 0.2)
movej(p[-0.540883735514679, -0.244477830096097, 0.414311429935313, -0.866, -1.573, 1.671], a = 0.2, v = 0.2, t = 0.2)
movej(p[-0.540883954681502, -0.244478128839483, 0.414304538326255, -0.866, -1.573, 1.671], a = 0.2, v = 0.2, t = 0.2)
movej(p[-0.540876745246519, -0.244468301754419, 0.414531235992617, -0.866, -1.573, 1.671], a = 0.2, v = 0.2, t = 0.2)
movej(p[-0.540854159528605, -0.244437515462332, 0.415241434441796, -0.866, -1.573, 1.671], a = 0.2, v = 0.2, t = 0.2)
movej(p[-0.540819317771221, -0.244390023125637, 0.416337018923791, -0.866, -1.573, 1.671], a = 0.2, v = 0.2, t = 0.2)
movej(p[-0.540784729785947, -0.244342876702336, 0.417424623647929, -0.866, -1.573, 1.671], a = 0.2, v = 0.2, t = 0.2)
movej(p[-0.540755845905632, -0.244303505468738, 0.418332865178442, -0.866, -1.573, 1.671], a = 0.2, v = 0.2, t = 0.2)
movej(p[-0.540732942972579, -0.244272286784908, 0.419053038324941, -0.866, -1.573, 1.671], a = 0.2, v = 0.2, t = 0.2)
movej(p[-0.540732960275222, -0.244272310369912, 0.419052494250542, -0.866, -1.573, 1.671], a = 0.2, v = 0.2, t = 0.2)
movej(p[-0.540776159209639, -0.244331194263613, 0.4176941218337, -0.866, -1.573, 1.671], a = 0.2, v = 0.2, t = 0.2)
movej(p[-0.540822882115876, -0.244394881636492, 0.416224939597541, -0.866, -1.573, 1.671], a = 0.2, v = 0.2, t = 0.2)
movej(p[-0.54085036448203, -0.244432342484755, 0.415360768093369, -0.866, -1.573, 1.671], a = 0.2, v = 0.2, t = 0.2)
movej(p[-0.540867707498825, -0.244455982520583, 0.414815424187169, -0.866, -1.573, 1.671], a = 0.2, v = 0.2, t = 0.2)
movej(p[-0.540875707087882, -0.24446688665417, 0.414563880456574, -0.866, -1.573, 1.671], a = 0.2, v = 0.2, t = 0.2)
movej(p[-0.540883723979583, -0.244477814372761, 0.414311792651579, -0.866, -1.573, 1.671], a = 0.2, v = 0.2, t = 0.2)
movej(p[-0.540884773673316, -0.244479245196346, 0.414278785471357, -0.866, -1.573, 1.671], a = 0.2, v = 0.2, t = 0.2)
movej(p[-0.540884987072592, -0.244479536078064, 0.414272075220432, -0.866, -1.573, 1.671], a = 0.2, v = 0.2, t = 0.2)
movej(p[-0.540887743960529, -0.244483293955392, 0.414185386032815, -0.866, -1.573, 1.671], a = 0.2, v = 0.2, t = 0.2)
movej(p[-0.540875326429715, -0.244466367784079, 0.414575850093357, -0.866, -1.573, 1.671], a = 0.2, v = 0.2, t = 0.2)
movej(p[-0.540849545490216, -0.244431226127891, 0.415386520948268, -0.866, -1.573, 1.671], a = 0.2, v = 0.2, t = 0.2)
movej(p[-0.540822455317325, -0.244394299873057, 0.41623836009939, -0.866, -1.573, 1.671], a = 0.2, v = 0.2, t = 0.2)
movej(p[-0.540798329664099, -0.2443614145156, 0.416996981170104, -0.866, -1.573, 1.671], a = 0.2, v = 0.2, t = 0.2)
movej(p[-0.540765996790088, -0.244317342004507, 0.418013674864204, -0.866, -1.573, 1.671], a = 0.2, v = 0.2, t = 0.2)
movej(p[-0.54073989863545, -0.244281767956577, 0.418834320416435, -0.866, -1.573, 1.671], a = 0.2, v = 0.2, t = 0.2)
movej(p[-0.540745671950984, -0.244289637486296, 0.418652780925212, -0.866, -1.573, 1.671], a = 0.2, v = 0.2, t = 0.2)
movej(p[-0.540777295416593, -0.244332743012219, 0.417658394281482, -0.866, -1.573, 1.671], a = 0.2, v = 0.2, t = 0.2)
movej(p[-0.540812379410993, -0.244380565538972, 0.416555192757898, -0.866, -1.573, 1.671], a = 0.2, v = 0.2, t = 0.2)
movej(p[-0.5408430050908, -0.244422310996322, 0.415592181071192, -0.866, -1.573, 1.671], a = 0.2, v = 0.2, t = 0.2)
movej(p[-0.540866652037543, -0.24445454383533, 0.414848612725524, -0.866, -1.573, 1.671], a = 0.2, v = 0.2, t = 0.2)
movej(p[-0.54087413831483, -0.24446474828046, 0.414613209868774, -0.866, -1.573, 1.671], a = 0.2, v = 0.2, t = 0.2)
movej(p[-0.540878856169082, -0.244471179124926, 0.414464858915907, -0.866, -1.573, 1.671], a = 0.2, v = 0.2, t = 0.2)
movej(p[-0.540882582005082, -0.244476257762486, 0.414347701561931, -0.866, -1.573, 1.671], a = 0.2, v = 0.2, t = 0.2)
movej(p[-0.540886273235793, -0.244481289230039, 0.414231632356753, -0.866, -1.573, 1.671], a = 0.2, v = 0.2, t = 0.2)
movej(p[-0.540886209792765, -0.24448120275169, 0.414233627296217, -0.866, -1.573, 1.671], a = 0.2, v = 0.2, t = 0.2)
movej(p[-0.540876237702297, -0.244467609927631, 0.414547195508329, -0.866, -1.573, 1.671], a = 0.2, v = 0.2, t = 0.2)
movej(p[-0.540857372052834, -0.244441894411436, 0.415140417961665, -0.866, -1.573, 1.671], a = 0.2, v = 0.2, t = 0.2)
movej(p[-0.540828845760494, -0.244403010601257, 0.416037415287927, -0.866, -1.573, 1.671], a = 0.2, v = 0.2, t = 0.2)
movej(p[-0.540797401088873, -0.244360148787044, 0.417026179829531, -0.866, -1.573, 1.671], a = 0.2, v = 0.2, t = 0.2)
movej(p[-0.540771539403702, -0.244324897067504, 0.417839389698305, -0.866, -1.573, 1.671], a = 0.2, v = 0.2, t = 0.2)
movej(p[-0.540751600990314, -0.244297719281052, 0.418466344764396, -0.866, -1.573, 1.671], a = 0.2, v = 0.2, t = 0.2)
movej(p[-0.540744679932731, -0.244288285279391, 0.418683974524104, -0.866, -1.573, 1.671], a = 0.2, v = 0.2, t = 0.2)
movej(p[-0.54077670135915, -0.244331933260409, 0.41767707416919, -0.866, -1.573, 1.671], a = 0.2, v = 0.2, t = 0.2)
movej(p[-0.540823989485089, -0.244396391076758, 0.416190118835988, -0.866, -1.573, 1.671], a = 0.2, v = 0.2, t = 0.2)
movej(p[-0.540849574327956, -0.244431265436232, 0.415385614157603, -0.866, -1.573, 1.671], a = 0.2, v = 0.2, t = 0.2)
movej(p[-0.540865636949098, -0.244453160181753, 0.414880531756948, -0.866, -1.573, 1.671], a = 0.2, v = 0.2, t = 0.2)
movej(p[-0.540874928468904, -0.244465825328983, 0.414588363804541, -0.866, -1.573, 1.671], a = 0.2, v = 0.2, t = 0.2)
movej(p[-0.540883850865639, -0.244477987329458, 0.414307802772651, -0.866, -1.573, 1.671], a = 0.2, v = 0.2, t = 0.2)
movej(p[-0.540885217774511, -0.244479850544786, 0.414264820895109, -0.866, -1.573, 1.671], a = 0.2, v = 0.2, t = 0.2)
movej(p[-0.540885413871143, -0.244480117841499, 0.414258654718584, -0.866, -1.573, 1.671], a = 0.2, v = 0.2, t = 0.2)
movej(p[-0.540887663214857, -0.244483183892039, 0.414187925046679, -0.866, -1.573, 1.671], a = 0.2, v = 0.2, t = 0.2)
movej(p[-0.540873169366768, -0.244463427520228, 0.414643678035133, -0.866, -1.573, 1.671], a = 0.2, v = 0.2, t = 0.2)
movej(p[-0.540843841385258, -0.244423450938189, 0.415565884141894, -0.866, -1.573, 1.671], a = 0.2, v = 0.2, t = 0.2)
movej(p[-0.540811641164851, -0.244379559245461, 0.416578406598933, -0.866, -1.573, 1.671], a = 0.2, v = 0.2, t = 0.2)
movej(p[-0.540779325593484, -0.244335510319373, 0.417594556218634, -0.866, -1.573, 1.671], a = 0.2, v = 0.2, t = 0.2)
movej(p[-0.540744754910854, -0.244288387481076, 0.418681616868373, -0.866, -1.573, 1.671], a = 0.2, v = 0.2, t = 0.2)
movej(p[-0.540720190923981, -0.244254904636847, 0.419454021157202, -0.866, -1.573, 1.671], a = 0.2, v = 0.2, t = 0.2)
movej(p[-0.540737418589816, -0.244278387439315, 0.418912304413663, -0.866, -1.573, 1.671], a = 0.2, v = 0.2, t = 0.2)
movej(p[-0.540789378429624, -0.244349213206785, 0.417278448992659, -0.866, -1.573, 1.671], a = 0.2, v = 0.2, t = 0.2)
movej(p[-0.540831187384976, -0.244406202438486, 0.415963783885892, -0.866, -1.573, 1.671], a = 0.2, v = 0.2, t = 0.2)
movej(p[-0.54085638003458, -0.244440542204532, 0.415171611560557, -0.866, -1.573, 1.671], a = 0.2, v = 0.2, t = 0.2)
movej(p[-0.540875920487157, -0.244467177535888, 0.414557170205649, -0.866, -1.573, 1.671], a = 0.2, v = 0.2, t = 0.2)
movej(p[-0.540880217310407, -0.244473034478586, 0.414422058396497, -0.866, -1.573, 1.671], a = 0.2, v = 0.2, t = 0.2)
movej(p[-0.540882899220221, -0.244476690154229, 0.414337726864611, -0.866, -1.573, 1.671], a = 0.2, v = 0.2, t = 0.2)
movej(p[-0.540885396568499, -0.244480094256495, 0.414259198792983, -0.866, -1.573, 1.671], a = 0.2, v = 0.2, t = 0.2)
movej(p[-0.540888326482876, -0.244484087983865, 0.414167068861373, -0.866, -1.573, 1.671], a = 0.2, v = 0.2, t = 0.2)
movej(p[-0.540877864150829, -0.244469826918021, 0.414496052514798, -0.866, -1.573, 1.671], a = 0.2, v = 0.2, t = 0.2)
movej(p[-0.540850266433715, -0.244432208836398, 0.415363851181632, -0.866, -1.573, 1.671], a = 0.2, v = 0.2, t = 0.2)
movej(p[-0.540823695340142, -0.244395990131688, 0.416199368100776, -0.866, -1.573, 1.671], a = 0.2, v = 0.2, t = 0.2)
movej(p[-0.540787659700324, -0.244346870429706, 0.41733249371632, -0.866, -1.573, 1.671], a = 0.2, v = 0.2, t = 0.2)
movej(p[-0.540752569938376, -0.244299040041285, 0.418435876598037, -0.866, -1.573, 1.671], a = 0.2, v = 0.2, t = 0.2)
movej(p[-0.540732291239656, -0.244271398416418, 0.41907353179398, -0.866, -1.573, 1.671], a = 0.2, v = 0.2, t = 0.2)
movej(p[-0.540732896832195, -0.244272223891563, 0.419054489190006, -0.866, -1.573, 1.671], a = 0.2, v = 0.2, t = 0.2)
movej(p[-0.540768920936917, -0.244321327870209, 0.417921726290728, -0.866, -1.573, 1.671], a = 0.2, v = 0.2, t = 0.2)
movej(p[-0.54081376362251, -0.244382452339304, 0.416511666805956, -0.866, -1.573, 1.671], a = 0.2, v = 0.2, t = 0.2)
movej(p[-0.540850975842117, -0.244433175821568, 0.415341544131262, -0.866, -1.573, 1.671], a = 0.2, v = 0.2, t = 0.2)
movej(p[-0.540867107673834, -0.244455164907106, 0.41483428543301, -0.866, -1.573, 1.671], a = 0.2, v = 0.2, t = 0.2)
movej(p[-0.540875124565535, -0.244466092625697, 0.414582197628016, -0.866, -1.573, 1.671], a = 0.2, v = 0.2, t = 0.2)
movej(p[-0.540881128582989, -0.244474276622138, 0.414393403811469, -0.866, -1.573, 1.671], a = 0.2, v = 0.2, t = 0.2)
movej(p[-0.540886111744449, -0.244481069103334, 0.41423671038448, -0.866, -1.573, 1.671], a = 0.2, v = 0.2, t = 0.2)
movej(p[-0.540886100209353, -0.244481053379998, 0.414237073100746, -0.866, -1.573, 1.671], a = 0.2, v = 0.2, t = 0.2)
movej(p[-0.540875084192699, -0.24446603759402, 0.414583467134947, -0.866, -1.573, 1.671], a = 0.2, v = 0.2, t = 0.2)
movej(p[-0.540852907970692, -0.244435809480365, 0.415280789156677, -0.866, -1.573, 1.671], a = 0.2, v = 0.2, t = 0.2)
movej(p[-0.540816601256119, -0.244386320279985, 0.416422438604476, -0.866, -1.573, 1.671], a = 0.2, v = 0.2, t = 0.2)
movej(p[-0.540779296755744, -0.244335471011032, 0.4175954630093, -0.866, -1.573, 1.671], a = 0.2, v = 0.2, t = 0.2)
movej(p[-0.540749818817986, -0.244295290025625, 0.418522384427521, -0.866, -1.573, 1.671], a = 0.2, v = 0.2, t = 0.2)
movej(p[-0.540726258384463, -0.244263175111637, 0.419263232401192, -0.866, -1.573, 1.671], a = 0.2, v = 0.2, t = 0.2)
movej(p[-0.540727567617855, -0.244264959710285, 0.419222064104981, -0.866, -1.573, 1.671], a = 0.2, v = 0.2, t = 0.2)
movej(p[-0.54077103185948, -0.244324205240715, 0.417855349214017, -0.866, -1.573, 1.671], a = 0.2, v = 0.2, t = 0.2)
movej(p[-0.540821820887046, -0.244393435089571, 0.41625830949403, -0.866, -1.573, 1.671], a = 0.2, v = 0.2, t = 0.2)
movej(p[-0.540847699874861, -0.244428710394115, 0.415444555550857, -0.866, -1.573, 1.671], a = 0.2, v = 0.2, t = 0.2)
movej(p[-0.540865054426751, -0.24445236615328, 0.41489884892839, -0.866, -1.573, 1.671], a = 0.2, v = 0.2, t = 0.2)
movej(p[-0.540875274521783, -0.244466297029066, 0.414577482316555, -0.866, -1.573, 1.671], a = 0.2, v = 0.2, t = 0.2)
movej(p[-0.540883850865639, -0.244477987329458, 0.414307802772651, -0.866, -1.573, 1.671], a = 0.2, v = 0.2, t = 0.2)
movej(p[-0.54088502167788, -0.244479583248072, 0.414270987071634, -0.866, -1.573, 1.671], a = 0.2, v = 0.2, t = 0.2)
movej(p[-0.540885396568499, -0.244480094256495, 0.414259198792983, -0.866, -1.573, 1.671], a = 0.2, v = 0.2, t = 0.2)
movej(p[-0.540879236827249, -0.244471697995017, 0.414452889279123, -0.866, -1.573, 1.671], a = 0.2, v = 0.2, t = 0.2)
movej(p[-0.540847324984242, -0.244428199385692, 0.415456343829508, -0.866, -1.573, 1.671], a = 0.2, v = 0.2, t = 0.2)
movej(p[-0.540809795549495, -0.244377043511685, 0.416636441201522, -0.866, -1.573, 1.671], a = 0.2, v = 0.2, t = 0.2)
movej(p[-0.540775692038252, -0.244330557468501, 0.417708811842481, -0.866, -1.573, 1.671], a = 0.2, v = 0.2, t = 0.2)
movej(p[-0.54074808855359, -0.244292931525209, 0.418576791867448, -0.866, -1.573, 1.671], a = 0.2, v = 0.2, t = 0.2)
movej(p[-0.540719245046111, -0.244253615323287, 0.419483763891029, -0.866, -1.573, 1.671], a = 0.2, v = 0.2, t = 0.2)
movej(p[-0.540721788534773, -0.244257082318898, 0.419403784954336, -0.866, -1.573, 1.671], a = 0.2, v = 0.2, t = 0.2)
movej(p[-0.540767409839344, -0.24431926811318, 0.417969242121597, -0.866, -1.573, 1.671], a = 0.2, v = 0.2, t = 0.2)
movej(p[-0.540811323949712, -0.244379126853719, 0.416588381296253, -0.866, -1.573, 1.671], a = 0.2, v = 0.2, t = 0.2)
movej(p[-0.540843351143679, -0.244422782696405, 0.415581299583206, -0.866, -1.573, 1.671], a = 0.2, v = 0.2, t = 0.2)
movej(p[-0.540863208811396, -0.244449850419504, 0.414956883530979, -0.866, -1.573, 1.671], a = 0.2, v = 0.2, t = 0.2)
movej(p[-0.540878244808996, -0.244470345788112, 0.414484082878014, -0.866, -1.573, 1.671], a = 0.2, v = 0.2, t = 0.2)
movej(p[-0.540882893452673, -0.244476682292561, 0.414337908222744, -0.866, -1.573, 1.671], a = 0.2, v = 0.2, t = 0.2)
movej(p[-0.540884756370672, -0.244479221611342, 0.414279329545756, -0.866, -1.573, 1.671], a = 0.2, v = 0.2, t = 0.2)
movej(p[-0.540887645912213, -0.244483160307035, 0.414188469121078, -0.866, -1.573, 1.671], a = 0.2, v = 0.2, t = 0.2)
movej(p[-0.540885523454554, -0.244480267213192, 0.414255208914055, -0.866, -1.573, 1.671], a = 0.2, v = 0.2, t = 0.2)
movej(p[-0.540866836599079, -0.244454795408708, 0.414842809265265, -0.866, -1.573, 1.671], a = 0.2, v = 0.2, t = 0.2)
movej(p[-0.540835432300294, -0.244411988626171, 0.415830304299938, -0.866, -1.573, 1.671], a = 0.2, v = 0.2, t = 0.2)
movej(p[-0.540805983200276, -0.244371846949103, 0.416756318927494, -0.866, -1.573, 1.671], a = 0.2, v = 0.2, t = 0.2)
movej(p[-0.540769791836663, -0.244322514982085, 0.417894341212631, -0.866, -1.573, 1.671], a = 0.2, v = 0.2, t = 0.2)
movej(p[-0.540738491353741, -0.244279849709573, 0.418878571800909, -0.866, -1.573, 1.671], a = 0.2, v = 0.2, t = 0.2)
movej(p[-0.540725935401775, -0.244262734858226, 0.419273388456645, -0.866, -1.573, 1.671], a = 0.2, v = 0.2, t = 0.2)
movej(p[-0.540755009611174, -0.24430236552687, 0.41835916210774, -0.866, -1.573, 1.671], a = 0.2, v = 0.2, t = 0.2)
movej(p[-0.540797770211944, -0.244360651933799, 0.417014572909014, -0.866, -1.573, 1.671], a = 0.2, v = 0.2, t = 0.2)
movej(p[-0.540834388374108, -0.244410565664254, 0.415863130122028, -0.866, -1.573, 1.671], a = 0.2, v = 0.2, t = 0.2)
movej(p[-0.540863404908027, -0.244450117716218, 0.414950717354454, -0.866, -1.573, 1.671], a = 0.2, v = 0.2, t = 0.2)
movej(p[-0.540873659608347, -0.244464095762012, 0.41462826259382, -0.866, -1.573, 1.671], a = 0.2, v = 0.2, t = 0.2)
movej(p[-0.540880044283968, -0.244472798628544, 0.41442749914049, -0.866, -1.573, 1.671], a = 0.2, v = 0.2, t = 0.2)
movej(p[-0.540883222202908, -0.24447713040764, 0.414327570809158, -0.866, -1.573, 1.671], a = 0.2, v = 0.2, t = 0.2)
movej(p[-0.540888384158356, -0.244484166600546, 0.414165255280043, -0.866, -1.573, 1.671], a = 0.2, v = 0.2, t = 0.2)
