def moving():
set_payload_mass(0)
set_tcp(p[0,0,0,0,0,0])
movej(p[0.4172, 0.0833, 0.3515, -1.235, 1.01, -1.044], a = 0.2, v = 0.2, t = 0.2)
movej(p[0.417233469831857, 0.0833239766324471, 0.350950730896962, -1.235, 1.01, -1.044], a = 0.2, v = 0.2, t = 0.2)
movej(p[0.417293352885172, 0.0833668747851863, 0.349967997815949, -1.235, 1.01, -1.044], a = 0.2, v = 0.2, t = 0.2)
movej(p[0.417387483559142, 0.0834343067514248, 0.348423231440038, -1.235, 1.01, -1.044], a = 0.2, v = 0.2, t = 0.2)
movej(p[0.417489009303166, 0.0835070362906355, 0.346757105521199, -1.235, 1.01, -1.044], a = 0.2, v = 0.2, t = 0.2)
movej(p[0.417596891040024, 0.0835843190437565, 0.344986672221997, -1.235, 1.01, -1.044], a = 0.2, v = 0.2, t = 0.2)
movej(p[0.417694406310559, 0.0836541756181671, 0.343386361667441, -1.235, 1.01, -1.044], a = 0.2, v = 0.2, t = 0.2)
movej(p[0.417772051507899, 0.0837097979578866, 0.34211213632683, -1.235, 1.01, -1.044], a = 0.2, v = 0.2, t = 0.2)
movej(p[0.41781566844533, 0.0837410436265755, 0.341396344380132, -1.235, 1.01, -1.044], a = 0.2, v = 0.2, t = 0.2)
movej(p[0.417832561045785, 0.0837531449025514, 0.341119122088154, -1.235, 1.01, -1.044], a = 0.2, v = 0.2, t = 0.2)
movej(p[0.417829462043543, 0.0837509248842968, 0.3411699794151, -1.235, 1.01, -1.044], a = 0.2, v = 0.2, t = 0.2)
movej(p[0.417769426470706, 0.0837079174718357, 0.342155215474361, -1.235, 1.01, -1.044], a = 0.2, v = 0.2, t = 0.2)
movej(p[0.417688955712499, 0.0836502709978252, 0.343475810730716, -1.235, 1.01, -1.044], a = 0.2, v = 0.2, t = 0.2)
movej(p[0.417593943949657, 0.0835822078499261, 0.34503503654272, -1.235, 1.01, -1.044], a = 0.2, v = 0.2, t = 0.2)
movej(p[0.417506570315869, 0.083519616394078, 0.34646891400184, -1.235, 1.01, -1.044], a = 0.2, v = 0.2, t = 0.2)
movej(p[0.417426038792912, 0.0834619263902979, 0.347790506460684, -1.235, 1.01, -1.044], a = 0.2, v = 0.2, t = 0.2)
movej(p[0.4173752273091, 0.0834255267968768, 0.348624367182095, -1.235, 1.01, -1.044], a = 0.2, v = 0.2, t = 0.2)
movej(p[0.417351571591989, 0.0834085806575336, 0.349012578111114, -1.235, 1.01, -1.044], a = 0.2, v = 0.2, t = 0.2)
movej(p[0.417333536614238, 0.0833956610218873, 0.349308547809887, -1.235, 1.01, -1.044], a = 0.2, v = 0.2, t = 0.2)
movej(p[0.417311466857098, 0.0833798510095332, 0.349670731753939, -1.235, 1.01, -1.044], a = 0.2, v = 0.2, t = 0.2)
movej(p[0.417302279226923, 0.0833732693083549, 0.349821508770296, -1.235, 1.01, -1.044], a = 0.2, v = 0.2, t = 0.2)
movej(p[0.417302516209447, 0.0833734390744567, 0.349817619680588, -1.235, 1.01, -1.044], a = 0.2, v = 0.2, t = 0.2)
movej(p[0.417292283425575, 0.0833661086612397, 0.349985548579758, -1.235, 1.01, -1.044], a = 0.2, v = 0.2, t = 0.2)
movej(p[0.417293857232595, 0.0833672360822748, 0.349959721035289, -1.235, 1.01, -1.044], a = 0.2, v = 0.2, t = 0.2)
movej(p[0.417298718412582, 0.0833707184638506, 0.349879944836159, -1.235, 1.01, -1.044], a = 0.2, v = 0.2, t = 0.2)
movej(p[0.417293200973297, 0.0833667659607621, 0.349970490822172, -1.235, 1.01, -1.044], a = 0.2, v = 0.2, t = 0.2)
movej(p[0.417260776902785, 0.0833435384756515, 0.350502598070372, -1.235, 1.01, -1.044], a = 0.2, v = 0.2, t = 0.2)
movej(p[0.417238578324375, 0.0833276361801856, 0.350866896083701, -1.235, 1.01, -1.044], a = 0.2, v = 0.2, t = 0.2)
movej(p[0.417238487784898, 0.0833275713208287, 0.35086838191541, -1.235, 1.01, -1.044], a = 0.2, v = 0.2, t = 0.2)
movej(p[0.417240854571904, 0.0833292668053584, 0.350829540878458, -1.235, 1.01, -1.044], a = 0.2, v = 0.2, t = 0.2)
movej(p[0.41725990128274, 0.0833429112116701, 0.35051696775824, -1.235, 1.01, -1.044], a = 0.2, v = 0.2, t = 0.2)
movej(p[0.417325661502659, 0.0833900195637345, 0.349437785252479, -1.235, 1.01, -1.044], a = 0.2, v = 0.2, t = 0.2)
movej(p[0.417431926897171, 0.0834661444249816, 0.347693877539488, -1.235, 1.01, -1.044], a = 0.2, v = 0.2, t = 0.2)
movej(p[0.417529721685556, 0.0835362012363328, 0.346088979853481, -1.235, 1.01, -1.044], a = 0.2, v = 0.2, t = 0.2)
movej(p[0.41760761601837, 0.0835920020481081, 0.344810665982665, -1.235, 1.01, -1.044], a = 0.2, v = 0.2, t = 0.2)
movej(p[0.417649604460506, 0.0836220811189691, 0.344121599062676, -1.235, 1.01, -1.044], a = 0.2, v = 0.2, t = 0.2)
movej(p[0.41763149048858, 0.0836091048946222, 0.344418865124686, -1.235, 1.01, -1.044], a = 0.2, v = 0.2, t = 0.2)
movej(p[0.417548753205204, 0.0835498347602021, 0.345776656033886, -1.235, 1.01, -1.044], a = 0.2, v = 0.2, t = 0.2)
movej(p[0.417461002829967, 0.0834869734197819, 0.347216716148439, -1.235, 1.01, -1.044], a = 0.2, v = 0.2, t = 0.2)
movej(p[0.417404977730619, 0.0834468389721207, 0.348136136843417, -1.235, 1.01, -1.044], a = 0.2, v = 0.2, t = 0.2)
movej(p[0.417359799139117, 0.0834144745883506, 0.348877556894085, -1.235, 1.01, -1.044], a = 0.2, v = 0.2, t = 0.2)
movej(p[0.417325594661434, 0.0833899716809878, 0.349438882175217, -1.235, 1.01, -1.044], a = 0.2, v = 0.2, t = 0.2)
movej(p[0.417302552668297, 0.0833734651923185, 0.349817021359095, -1.235, 1.01, -1.044], a = 0.2, v = 0.2, t = 0.2)
movej(p[0.417292508255149, 0.0833662697213875, 0.349981858930548, -1.235, 1.01, -1.044], a = 0.2, v = 0.2, t = 0.2)
movej(p[0.417277171232291, 0.0833552828075159, 0.350233552838805, -1.235, 1.01, -1.044], a = 0.2, v = 0.2, t = 0.2)
movej(p[0.417296950158362, 0.0833694517475524, 0.349908963428593, -1.235, 1.01, -1.044], a = 0.2, v = 0.2, t = 0.2)
movej(p[0.417363329571082, 0.08341700366797, 0.348819619429467, -1.235, 1.01, -1.044], a = 0.2, v = 0.2, t = 0.2)
movej(p[0.417456718915104, 0.0834839045710182, 0.347287018923923, -1.235, 1.01, -1.044], a = 0.2, v = 0.2, t = 0.2)
movej(p[0.417542725342021, 0.0835455166070481, 0.345875578520808, -1.235, 1.01, -1.044], a = 0.2, v = 0.2, t = 0.2)
movej(p[0.417616420830621, 0.0835983095117373, 0.34466617134199, -1.235, 1.01, -1.044], a = 0.2, v = 0.2, t = 0.2)
movej(p[0.417650084502029, 0.0836224250041497, 0.344113721163012, -1.235, 1.01, -1.044], a = 0.2, v = 0.2, t = 0.2)
movej(p[0.417607774006719, 0.0835921152255093, 0.344808073256194, -1.235, 1.01, -1.044], a = 0.2, v = 0.2, t = 0.2)
movej(p[0.417524550605345, 0.0835324968529315, 0.346173841785306, -1.235, 1.01, -1.044], a = 0.2, v = 0.2, t = 0.2)
movej(p[0.417448473138551, 0.0834779975812702, 0.347422339301698, -1.235, 1.01, -1.044], a = 0.2, v = 0.2, t = 0.2)
movej(p[0.417405615760492, 0.0834472960347025, 0.348125666217281, -1.235, 1.01, -1.044], a = 0.2, v = 0.2, t = 0.2)
movej(p[0.417361810452336, 0.0834159154237276, 0.348844549491695, -1.235, 1.01, -1.044], a = 0.2, v = 0.2, t = 0.2)
movej(p[0.41733291681379, 0.0833952170182364, 0.349318719275276, -1.235, 1.01, -1.044], a = 0.2, v = 0.2, t = 0.2)
movej(p[0.417312791528644, 0.0833807999585126, 0.349648992739676, -1.235, 1.01, -1.044], a = 0.2, v = 0.2, t = 0.2)
movej(p[0.417297922394359, 0.0833701482238676, 0.349893008188767, -1.235, 1.01, -1.044], a = 0.2, v = 0.2, t = 0.2)
movej(p[0.417276126078594, 0.0833545340954771, 0.350250704721618, -1.235, 1.01, -1.044], a = 0.2, v = 0.2, t = 0.2)
movej(p[0.417295631563291, 0.08336850715155, 0.349930602722607, -1.235, 1.01, -1.044], a = 0.2, v = 0.2, t = 0.2)
movej(p[0.417351389297739, 0.0834084500682245, 0.349015569718581, -1.235, 1.01, -1.044], a = 0.2, v = 0.2, t = 0.2)
movej(p[0.41740466175392, 0.0834466126173183, 0.34814132229636, -1.235, 1.01, -1.044], a = 0.2, v = 0.2, t = 0.2)
movej(p[0.417445307295085, 0.083475729680269, 0.347474293551381, -1.235, 1.01, -1.044], a = 0.2, v = 0.2, t = 0.2)
movej(p[0.417457265797852, 0.0834842963389455, 0.34727804410152, -1.235, 1.01, -1.044], a = 0.2, v = 0.2, t = 0.2)
movej(p[0.417448485291501, 0.0834780062872242, 0.3474221398612, -1.235, 1.01, -1.044], a = 0.2, v = 0.2, t = 0.2)
movej(p[0.417393043533752, 0.0834382897253521, 0.348331987412282, -1.235, 1.01, -1.044], a = 0.2, v = 0.2, t = 0.2)
movej(p[0.417346467353003, 0.083404924156879, 0.3490963431202, -1.235, 1.01, -1.044], a = 0.2, v = 0.2, t = 0.2)
movej(p[0.417317069367033, 0.0833838644542993, 0.349578789684442, -1.235, 1.01, -1.044], a = 0.2, v = 0.2, t = 0.2)
movej(p[0.417303597821994, 0.0833742139043573, 0.349799869476282, -1.235, 1.01, -1.044], a = 0.2, v = 0.2, t = 0.2)
movej(p[0.417263347251703, 0.0833453797849097, 0.350460416405082, -1.235, 1.01, -1.044], a = 0.2, v = 0.2, t = 0.2)
movej(p[0.41724258272139, 0.0833305047920086, 0.350801180439667, -1.235, 1.01, -1.044], a = 0.2, v = 0.2, t = 0.2)
movej(p[0.417250584831295, 0.0833362372273801, 0.350669858843874, -1.235, 1.01, -1.044], a = 0.2, v = 0.2, t = 0.2)
movej(p[0.417278441215562, 0.0833561925797026, 0.350212711306782, -1.235, 1.01, -1.044], a = 0.2, v = 0.2, t = 0.2)
movej(p[0.417309097031854, 0.083378153348515, 0.349709622651016, -1.235, 1.01, -1.044], a = 0.2, v = 0.2, t = 0.2)
movej(p[0.417345002922532, 0.0834038750894292, 0.349120375700189, -1.235, 1.01, -1.044], a = 0.2, v = 0.2, t = 0.2)
movej(p[0.417386985288193, 0.0834339498073133, 0.348431408500448, -1.235, 1.01, -1.044], a = 0.2, v = 0.2, t = 0.2)
movej(p[0.417381558996033, 0.0834300625988793, 0.348520458682728, -1.235, 1.01, -1.044], a = 0.2, v = 0.2, t = 0.2)
movej(p[0.417353886728958, 0.083410239141759, 0.348974584696278, -1.235, 1.01, -1.044], a = 0.2, v = 0.2, t = 0.2)
movej(p[0.417319190056802, 0.0833853836432617, 0.349543987317571, -1.235, 1.01, -1.044], a = 0.2, v = 0.2, t = 0.2)
movej(p[0.417300243607803, 0.08337181106107, 0.349854915053682, -1.235, 1.01, -1.044], a = 0.2, v = 0.2, t = 0.2)
movej(p[0.417266579936394, 0.0833476955686576, 0.35040736523266, -1.235, 1.01, -1.044], a = 0.2, v = 0.2, t = 0.2)
movej(p[0.417241848683212, 0.0833299789523907, 0.350813226645736, -1.235, 1.01, -1.044], a = 0.2, v = 0.2, t = 0.2)
movej(p[0.417225890036962, 0.083318546728975, 0.351075121935456, -1.235, 1.01, -1.044], a = 0.2, v = 0.2, t = 0.2)
movej(p[0.417215599526578, 0.0833111749624768, 0.35124399817699, -1.235, 1.01, -1.044], a = 0.2, v = 0.2, t = 0.2)
movej(p[0.417193990001653, 0.0832956946445983, 0.35159862930939, -1.235, 1.01, -1.044], a = 0.2, v = 0.2, t = 0.2)
movej(p[0.417197111912205, 0.083297931073576, 0.351547396037106, -1.235, 1.01, -1.044], a = 0.2, v = 0.2, t = 0.2)
movej(p[0.417240151523749, 0.083328763165923, 0.350841078511257, -1.235, 1.01, -1.044], a = 0.2, v = 0.2, t = 0.2)
movej(p[0.417294786933268, 0.0833679020877512, 0.349944463837206, -1.235, 1.01, -1.044], a = 0.2, v = 0.2, t = 0.2)
movej(p[0.41732546705546, 0.0833898802684715, 0.349440976300444, -1.235, 1.01, -1.044], a = 0.2, v = 0.2, t = 0.2)
movej(p[0.417331744054118, 0.0833943768936812, 0.349337965283317, -1.235, 1.01, -1.044], a = 0.2, v = 0.2, t = 0.2)
movej(p[0.417323255218566, 0.0833882957848545, 0.349477274471048, -1.235, 1.01, -1.044], a = 0.2, v = 0.2, t = 0.2)
movej(p[0.417285015961494, 0.0833609025007838, 0.350104813997458, -1.235, 1.01, -1.044], a = 0.2, v = 0.2, t = 0.2)
movej(p[0.4172499644232, 0.0833357927884315, 0.350680040281288, -1.235, 1.01, -1.044], a = 0.2, v = 0.2, t = 0.2)
movej(p[0.417229789310959, 0.0833213400342965, 0.351011131451729, -1.235, 1.01, -1.044], a = 0.2, v = 0.2, t = 0.2)
movej(p[0.41722664595045, 0.0833190882393101, 0.351062716736491, -1.235, 1.01, -1.044], a = 0.2, v = 0.2, t = 0.2)
movej(p[0.417204048086869, 0.0833028999097275, 0.351433567367377, -1.235, 1.01, -1.044], a = 0.2, v = 0.2, t = 0.2)
movej(p[0.417178239535437, 0.0832844115541736, 0.351857108183382, -1.235, 1.01, -1.044], a = 0.2, v = 0.2, t = 0.2)
movej(p[0.41718625926712, 0.0832901566131783, 0.351725497398867, -1.235, 1.01, -1.044], a = 0.2, v = 0.2, t = 0.2)
movej(p[0.417224136366282, 0.0833172904598216, 0.351103901199293, -1.235, 1.01, -1.044], a = 0.2, v = 0.2, t = 0.2)
movej(p[0.417261092879484, 0.0833437648304539, 0.350497412617428, -1.235, 1.01, -1.044], a = 0.2, v = 0.2, t = 0.2)
movej(p[0.417298463200633, 0.0833705356388179, 0.349884133086613, -1.235, 1.01, -1.044], a = 0.2, v = 0.2, t = 0.2)
movej(p[0.417322325517893, 0.0833876297793781, 0.349492531669132, -1.235, 1.01, -1.044], a = 0.2, v = 0.2, t = 0.2)
movej(p[0.417326670197507, 0.0833907421579115, 0.349421231691159, -1.235, 1.01, -1.044], a = 0.2, v = 0.2, t = 0.2)
movej(p[0.417286237332966, 0.0833617774491548, 0.350084770227426, -1.235, 1.01, -1.044], a = 0.2, v = 0.2, t = 0.2)
movej(p[0.417259195196347, 0.0833424053957463, 0.350528555251164, -1.235, 1.01, -1.044], a = 0.2, v = 0.2, t = 0.2)
movej(p[0.417241285393981, 0.0833295754314256, 0.35082247071281, -1.235, 1.01, -1.044], a = 0.2, v = 0.2, t = 0.2)
movej(p[0.417229946691661, 0.0833214527764, 0.351008548697282, -1.235, 1.01, -1.044], a = 0.2, v = 0.2, t = 0.2)
movej(p[0.417197285456331, 0.0832980553945983, 0.351544548026797, -1.235, 1.01, -1.044], a = 0.2, v = 0.2, t = 0.2)
movej(p[0.417178769404055, 0.0832847911337654, 0.351848412577677, -1.235, 1.01, -1.044], a = 0.2, v = 0.2, t = 0.2)
movej(p[0.41718335167384, 0.0832880737136983, 0.351773213537972, -1.235, 1.01, -1.044], a = 0.2, v = 0.2, t = 0.2)
movej(p[0.417202289798068, 0.0833016403323115, 0.351462422418602, -1.235, 1.01, -1.044], a = 0.2, v = 0.2, t = 0.2)
movej(p[0.41722208434068, 0.0833158204594989, 0.35113757672735, -1.235, 1.01, -1.044], a = 0.2, v = 0.2, t = 0.2)
movej(p[0.417266063436021, 0.0833473255656152, 0.350415841453818, -1.235, 1.01, -1.044], a = 0.2, v = 0.2, t = 0.2)
movej(p[0.417324233531038, 0.0833889966141466, 0.349461219510973, -1.235, 1.01, -1.044], a = 0.2, v = 0.2, t = 0.2)
movej(p[0.417348399672048, 0.0834063084035553, 0.349064632081046, -1.235, 1.01, -1.044], a = 0.2, v = 0.2, t = 0.2)
movej(p[0.417336119116106, 0.0833975110370995, 0.349266166704099, -1.235, 1.01, -1.044], a = 0.2, v = 0.2, t = 0.2)
movej(p[0.417302285303398, 0.0833732736613319, 0.349821409050047, -1.235, 1.01, -1.044], a = 0.2, v = 0.2, t = 0.2)
movej(p[0.417276314449318, 0.0833546690377631, 0.350247613393901, -1.235, 1.01, -1.044], a = 0.2, v = 0.2, t = 0.2)
movej(p[0.417243869718791, 0.0833314267525308, 0.350780059690948, -1.235, 1.01, -1.044], a = 0.2, v = 0.2, t = 0.2)
movej(p[0.417213241246637, 0.0833094855721148, 0.351282699605594, -1.235, 1.01, -1.044], a = 0.2, v = 0.2, t = 0.2)
movej(p[0.417197464833872, 0.0832981838944784, 0.351541604285049, -1.235, 1.01, -1.044], a = 0.2, v = 0.2, t = 0.2)
movej(p[0.417189649940161, 0.0832925855743274, 0.351669853499974, -1.235, 1.01, -1.044], a = 0.2, v = 0.2, t = 0.2)
movej(p[0.417166979219645, 0.083276345052551, 0.352041899776643, -1.235, 1.01, -1.044], a = 0.2, v = 0.2, t = 0.2)
movej(p[0.417155302057669, 0.0832679799367082, 0.352233532178979, -1.235, 1.01, -1.044], a = 0.2, v = 0.2, t = 0.2)
movej(p[0.417174432016212, 0.0832816839788044, 0.351919592891351, -1.235, 1.01, -1.044], a = 0.2, v = 0.2, t = 0.2)
movej(p[0.417219469025847, 0.0833139469382111, 0.351180496322483, -1.235, 1.01, -1.044], a = 0.2, v = 0.2, t = 0.2)
movej(p[0.417257787277093, 0.0833413968109824, 0.350551660432837, -1.235, 1.01, -1.044], a = 0.2, v = 0.2, t = 0.2)
movej(p[0.417302388603472, 0.0833733476619404, 0.349819713805816, -1.235, 1.01, -1.044], a = 0.2, v = 0.2, t = 0.2)
movej(p[0.417345762481905, 0.0834044192115505, 0.349107910669074, -1.235, 1.01, -1.044], a = 0.2, v = 0.2, t = 0.2)
movej(p[0.417368306204094, 0.0834205687561082, 0.348737948545607, -1.235, 1.01, -1.044], a = 0.2, v = 0.2, t = 0.2)
movej(p[0.417339916912971, 0.0834002316477056, 0.349203841548529, -1.235, 1.01, -1.044], a = 0.2, v = 0.2, t = 0.2)
movej(p[0.417299824331029, 0.0833715107056591, 0.349861795750857, -1.235, 1.01, -1.044], a = 0.2, v = 0.2, t = 0.2)
movej(p[0.417273294441251, 0.0833525056082092, 0.350297174357611, -1.235, 1.01, -1.044], a = 0.2, v = 0.2, t = 0.2)
movej(p[0.417251430676613, 0.0833368431617743, 0.350655977785225, -1.235, 1.01, -1.044], a = 0.2, v = 0.2, t = 0.2)
movej(p[0.417221945797051, 0.083315721211624, 0.351139850349026, -1.235, 1.01, -1.044], a = 0.2, v = 0.2, t = 0.2)
movej(p[0.417201635422477, 0.0833011715602216, 0.351473161292208, -1.235, 1.01, -1.044], a = 0.2, v = 0.2, t = 0.2)
movej(p[0.417191267497801, 0.0832937443367968, 0.351643307969713, -1.235, 1.01, -1.044], a = 0.2, v = 0.2, t = 0.2)
movej(p[0.417168168385799, 0.0832771969301439, 0.352022384523931, -1.235, 1.01, -1.044], a = 0.2, v = 0.2, t = 0.2)
movej(p[0.417149340428062, 0.0832637092310032, 0.352331367715188, -1.235, 1.01, -1.044], a = 0.2, v = 0.2, t = 0.2)
movej(p[0.417162902512578, 0.0832734246403019, 0.352108802091639, -1.235, 1.01, -1.044], a = 0.2, v = 0.2, t = 0.2)
movej(p[0.417214259056196, 0.0833102146957572, 0.351265996463901, -1.235, 1.01, -1.044], a = 0.2, v = 0.2, t = 0.2)
movej(p[0.417256920771761, 0.0833407760764665, 0.350565880540332, -1.235, 1.01, -1.044], a = 0.2, v = 0.2, t = 0.2)
movej(p[0.417271708481281, 0.0833513694812201, 0.350323201342577, -1.235, 1.01, -1.044], a = 0.2, v = 0.2, t = 0.2)
movej(p[0.417272103452154, 0.0833516524247231, 0.350316719526398, -1.235, 1.01, -1.044], a = 0.2, v = 0.2, t = 0.2)
movej(p[0.417262168415556, 0.0833445353073776, 0.350479762133371, -1.235, 1.01, -1.044], a = 0.2, v = 0.2, t = 0.2)
movej(p[0.417231034988331, 0.0833222323945753, 0.350990688800702, -1.235, 1.01, -1.044], a = 0.2, v = 0.2, t = 0.2)
movej(p[0.417205277114699, 0.0833037803428494, 0.351413397949831, -1.235, 1.01, -1.044], a = 0.2, v = 0.2, t = 0.2)
movej(p[0.417188764597756, 0.0832919513455829, 0.35168438274024, -1.235, 1.01, -1.044], a = 0.2, v = 0.2, t = 0.2)
movej(p[0.417183753328837, 0.083288361445476, 0.351766622029519, -1.235, 1.01, -1.044], a = 0.2, v = 0.2, t = 0.2)
movej(p[0.417155076012799, 0.0832678180059649, 0.352237241772239, -1.235, 1.01, -1.044], a = 0.2, v = 0.2, t = 0.2)
movej(p[0.417147953776471, 0.0832627158816587, 0.35235412387599, -1.235, 1.01, -1.044], a = 0.2, v = 0.2, t = 0.2)
movej(p[0.417174212655465, 0.0832815268363358, 0.351923192792337, -1.235, 1.01, -1.044], a = 0.2, v = 0.2, t = 0.2)
movej(p[0.417228680961922, 0.0833205460512972, 0.351029320425131, -1.235, 1.01, -1.044], a = 0.2, v = 0.2, t = 0.2)
movej(p[0.417263809063802, 0.0833457106111594, 0.350452837666164, -1.235, 1.01, -1.044], a = 0.2, v = 0.2, t = 0.2)
movej(p[0.417282956036475, 0.0833594268415911, 0.350138619161839, -1.235, 1.01, -1.044], a = 0.2, v = 0.2, t = 0.2)
movej(p[0.41728865577001, 0.0833635099339887, 0.350045081568359, -1.235, 1.01, -1.044], a = 0.2, v = 0.2, t = 0.2)
movej(p[0.417271386428106, 0.0833511387734407, 0.35032848651577, -1.235, 1.01, -1.044], a = 0.2, v = 0.2, t = 0.2)
movej(p[0.417232690827764, 0.0833234185807996, 0.350963515032873, -1.235, 1.01, -1.044], a = 0.2, v = 0.2, t = 0.2)
movej(p[0.417205953912483, 0.0833042651774243, 0.351402291108508, -1.235, 1.01, -1.044], a = 0.2, v = 0.2, t = 0.2)
movej(p[0.417193850607317, 0.0832955947873066, 0.3516009168919, -1.235, 1.01, -1.044], a = 0.2, v = 0.2, t = 0.2)
movej(p[0.417175548872314, 0.0832824840559714, 0.351901264309601, -1.235, 1.01, -1.044], a = 0.2, v = 0.2, t = 0.2)
movej(p[0.417148994068988, 0.0832634611113159, 0.352337051769376, -1.235, 1.01, -1.044], a = 0.2, v = 0.2, t = 0.2)
movej(p[0.417143500327956, 0.0832595255848375, 0.352427208846418, -1.235, 1.01, -1.044], a = 0.2, v = 0.2, t = 0.2)
movej(p[0.417173939214091, 0.0832813309523721, 0.351927680203538, -1.235, 1.01, -1.044], a = 0.2, v = 0.2, t = 0.2)
movej(p[0.417207704970279, 0.0833055195747976, 0.351373554724378, -1.235, 1.01, -1.044], a = 0.2, v = 0.2, t = 0.2)
movej(p[0.417248608761631, 0.0833348216392695, 0.35070228786882, -1.235, 1.01, -1.044], a = 0.2, v = 0.2, t = 0.2)
movej(p[0.417311503315948, 0.083379877127395, 0.349670133432446, -1.235, 1.01, -1.044], a = 0.2, v = 0.2, t = 0.2)
movej(p[0.417403173017549, 0.0834455461379607, 0.348165753757344, -1.235, 1.01, -1.044], a = 0.2, v = 0.2, t = 0.2)
movej(p[0.417496945179495, 0.083512721278558, 0.346626870876118, -1.235, 1.01, -1.044], a = 0.2, v = 0.2, t = 0.2)
movej(p[0.417583765854059, 0.0835749166135018, 0.345202067959649, -1.235, 1.01, -1.044], a = 0.2, v = 0.2, t = 0.2)
movej(p[0.417644129556546, 0.0836181590867193, 0.344211447006947, -1.235, 1.01, -1.044], a = 0.2, v = 0.2, t = 0.2)
movej(p[0.417660481350726, 0.0836298729477449, 0.343943099817122, -1.235, 1.01, -1.044], a = 0.2, v = 0.2, t = 0.2)
movej(p[0.417594490832405, 0.0835825996178534, 0.345026061720318, -1.235, 1.01, -1.044], a = 0.2, v = 0.2, t = 0.2)
movej(p[0.417503811596226, 0.0835176401425338, 0.346514186994847, -1.235, 1.01, -1.044], a = 0.2, v = 0.2, t = 0.2)
movej(p[0.417417665410385, 0.0834559279880336, 0.347927920963687, -1.235, 1.01, -1.044], a = 0.2, v = 0.2, t = 0.2)
movej(p[0.41736964302859, 0.0834215264110416, 0.348716010090846, -1.235, 1.01, -1.044], a = 0.2, v = 0.2, t = 0.2)
movej(p[0.417322021694144, 0.0833874121305296, 0.349497517681578, -1.235, 1.01, -1.044], a = 0.2, v = 0.2, t = 0.2)
movej(p[0.41729022957703, 0.0833646373550239, 0.350019254023891, -1.235, 1.01, -1.044], a = 0.2, v = 0.2, t = 0.2)
movej(p[0.417275433360445, 0.0833540378561025, 0.350262072829994, -1.235, 1.01, -1.044], a = 0.2, v = 0.2, t = 0.2)
movej(p[0.417274278830199, 0.0833532107904783, 0.350281019677287, -1.235, 1.01, -1.044], a = 0.2, v = 0.2, t = 0.2)
movej(p[0.417274588730423, 0.0833534327923037, 0.350275933944593, -1.235, 1.01, -1.044], a = 0.2, v = 0.2, t = 0.2)
movej(p[0.417312214263521, 0.0833803864257004, 0.349658466163323, -1.235, 1.01, -1.044], a = 0.2, v = 0.2, t = 0.2)
movej(p[0.417373246378255, 0.0834241077263847, 0.348656875983241, -1.235, 1.01, -1.044], a = 0.2, v = 0.2, t = 0.2)
movej(p[0.417434539781414, 0.0834680162050786, 0.347650997832455, -1.235, 1.01, -1.044], a = 0.2, v = 0.2, t = 0.2)
movej(p[0.417487265354846, 0.0835057869862451, 0.346785725232637, -1.235, 1.01, -1.044], a = 0.2, v = 0.2, t = 0.2)
movej(p[0.417524161710946, 0.0835322182624055, 0.346180223881237, -1.235, 1.01, -1.044], a = 0.2, v = 0.2, t = 0.2)
movej(p[0.417529186955757, 0.0835358181743595, 0.346097755235386, -1.235, 1.01, -1.044], a = 0.2, v = 0.2, t = 0.2)
movej(p[0.417478600301519, 0.0834995796410863, 0.346927926307587, -1.235, 1.01, -1.044], a = 0.2, v = 0.2, t = 0.2)
movej(p[0.417402996799775, 0.0834454199016286, 0.348168645644563, -1.235, 1.01, -1.044], a = 0.2, v = 0.2, t = 0.2)
movej(p[0.417348843254721, 0.0834066261708741, 0.349057352502875, -1.235, 1.01, -1.044], a = 0.2, v = 0.2, t = 0.2)
movej(p[0.417322854171217, 0.0833880084883745, 0.349483856007476, -1.235, 1.01, -1.044], a = 0.2, v = 0.2, t = 0.2)
movej(p[0.417288540316985, 0.0833634272274263, 0.350046976253088, -1.235, 1.01, -1.044], a = 0.2, v = 0.2, t = 0.2)
movej(p[0.417271404657531, 0.0833511518323716, 0.350328187355023, -1.235, 1.01, -1.044], a = 0.2, v = 0.2, t = 0.2)
movej(p[0.417288880599584, 0.0833636709941366, 0.350041391919149, -1.235, 1.01, -1.044], a = 0.2, v = 0.2, t = 0.2)
movej(p[0.41734374509221, 0.0834029740231965, 0.349141017791713, -1.235, 1.01, -1.044], a = 0.2, v = 0.2, t = 0.2)
movej(p[0.417390807390958, 0.0834366878298273, 0.348368684463882, -1.235, 1.01, -1.044], a = 0.2, v = 0.2, t = 0.2)
movej(p[0.417441782939594, 0.0834732049536265, 0.347532131295751, -1.235, 1.01, -1.044], a = 0.2, v = 0.2, t = 0.2)
movej(p[0.41750787675799, 0.0835205522841265, 0.346447474148324, -1.235, 1.01, -1.044], a = 0.2, v = 0.2, t = 0.2)
movej(p[0.417573751823286, 0.0835677429074556, 0.345366406929858, -1.235, 1.01, -1.044], a = 0.2, v = 0.2, t = 0.2)
movej(p[0.417591397906639, 0.0835803839525758, 0.345076819327014, -1.235, 1.01, -1.044], a = 0.2, v = 0.2, t = 0.2)
movej(p[0.417560535490197, 0.0835582751825464, 0.345583298471244, -1.235, 1.01, -1.044], a = 0.2, v = 0.2, t = 0.2)
movej(p[0.417503440931252, 0.0835173746109386, 0.34652026993003, -1.235, 1.01, -1.044], a = 0.2, v = 0.2, t = 0.2)
movej(p[0.417434539781414, 0.0834680162050786, 0.347650997832455, -1.235, 1.01, -1.044], a = 0.2, v = 0.2, t = 0.2)
movej(p[0.417374729038151, 0.0834251698527653, 0.348632544242506, -1.235, 1.01, -1.044], a = 0.2, v = 0.2, t = 0.2)
movej(p[0.417338634776749, 0.0833993131695649, 0.349224882521049, -1.235, 1.01, -1.044], a = 0.2, v = 0.2, t = 0.2)
movej(p[0.417322240447244, 0.0833875688377005, 0.349493927752617, -1.235, 1.01, -1.044], a = 0.2, v = 0.2, t = 0.2)
movej(p[0.417286395321316, 0.083361890626556, 0.350082177500955, -1.235, 1.01, -1.044], a = 0.2, v = 0.2, t = 0.2)
movej(p[0.417267710160741, 0.083348505222374, 0.350388817266362, -1.235, 1.01, -1.044], a = 0.2, v = 0.2, t = 0.2)
movej(p[0.417289500400032, 0.0833641149977875, 0.35003122045376, -1.235, 1.01, -1.044], a = 0.2, v = 0.2, t = 0.2)
movej(p[0.417353564675784, 0.0834100084339796, 0.34897986986947, -1.235, 1.01, -1.044], a = 0.2, v = 0.2, t = 0.2)
movej(p[0.41740823472121, 0.0834491721677765, 0.34808268679, -1.235, 1.01, -1.044], a = 0.2, v = 0.2, t = 0.2)
movej(p[0.417465268515406, 0.0834900292096146, 0.347146712533702, -1.235, 1.01, -1.044], a = 0.2, v = 0.2, t = 0.2)
movej(p[0.417517769259263, 0.0835276389306333, 0.346285129583093, -1.235, 1.01, -1.044], a = 0.2, v = 0.2, t = 0.2)
movej(p[0.417538672333207, 0.0835426131714093, 0.345942091926833, -1.235, 1.01, -1.044], a = 0.2, v = 0.2, t = 0.2)
movej(p[0.417499236010563, 0.0835143623508755, 0.346589276342278, -1.235, 1.01, -1.044], a = 0.2, v = 0.2, t = 0.2)
movej(p[0.417437383571706, 0.0834700533983004, 0.347604328755964, -1.235, 1.01, -1.044], a = 0.2, v = 0.2, t = 0.2)
movej(p[0.417389367266386, 0.0834356561742854, 0.348392318162875, -1.235, 1.01, -1.044], a = 0.2, v = 0.2, t = 0.2)
movej(p[0.417353977876082, 0.0834103044364136, 0.348973088892544, -1.235, 1.01, -1.044], a = 0.2, v = 0.2, t = 0.2)
movej(p[0.417314766383014, 0.0833822146760277, 0.34961658365878, -1.235, 1.01, -1.044], a = 0.2, v = 0.2, t = 0.2)
movej(p[0.417283715595848, 0.0833599709637123, 0.350126154130725, -1.235, 1.01, -1.044], a = 0.2, v = 0.2, t = 0.2)
movej(p[0.417270772704133, 0.0833506991227667, 0.35033855826091, -1.235, 1.01, -1.044], a = 0.2, v = 0.2, t = 0.2)
movej(p[0.417256635177436, 0.0833405714865489, 0.350570567392031, -1.235, 1.01, -1.044], a = 0.2, v = 0.2, t = 0.2)
movej(p[0.417265455788523, 0.0833468902679182, 0.350425813478709, -1.235, 1.01, -1.044], a = 0.2, v = 0.2, t = 0.2)
movej(p[0.417302218462173, 0.0833732257785852, 0.349822505972785, -1.235, 1.01, -1.044], a = 0.2, v = 0.2, t = 0.2)
movej(p[0.417366957226647, 0.083419602395221, 0.348760086440866, -1.235, 1.01, -1.044], a = 0.2, v = 0.2, t = 0.2)
movej(p[0.417403835353322, 0.0834460206124504, 0.348154884250213, -1.235, 1.01, -1.044], a = 0.2, v = 0.2, t = 0.2)
movej(p[0.417411358029352, 0.083451409597939, 0.348031430582058, -1.235, 1.01, -1.044], a = 0.2, v = 0.2, t = 0.2)
movej(p[0.41739160340918, 0.0834372580698103, 0.348355621111274, -1.235, 1.01, -1.044], a = 0.2, v = 0.2, t = 0.2)
movej(p[0.417357125490124, 0.0834125592784839, 0.348921433803607, -1.235, 1.01, -1.044], a = 0.2, v = 0.2, t = 0.2)
movej(p[0.417310093573751, 0.083378867236738, 0.349693268530194, -1.235, 1.01, -1.044], a = 0.2, v = 0.2, t = 0.2)
movej(p[0.417278271074263, 0.0833560706963474, 0.350215503473751, -1.235, 1.01, -1.044], a = 0.2, v = 0.2, t = 0.2)
movej(p[0.417261907127132, 0.0833443481293678, 0.350484050104074, -1.235, 1.01, -1.044], a = 0.2, v = 0.2, t = 0.2)
movej(p[0.417239272865466, 0.0833281337254532, 0.35085549805925, -1.235, 1.01, -1.044], a = 0.2, v = 0.2, t = 0.2)
movej(p[0.417203431993071, 0.0833024585613925, 0.351443678003414, -1.235, 1.01, -1.044], a = 0.2, v = 0.2, t = 0.2)
movej(p[0.4171987478208, 0.0832991029820358, 0.351520549351693, -1.235, 1.01, -1.044], a = 0.2, v = 0.2, t = 0.2)
movej(p[0.417236340966286, 0.0833260334140653, 0.350903613079351, -1.235, 1.01, -1.044], a = 0.2, v = 0.2, t = 0.2)
movej(p[0.417285593226618, 0.083361316033596, 0.350095340573811, -1.235, 1.01, -1.044], a = 0.2, v = 0.2, t = 0.2)
movej(p[0.417331744054118, 0.0833943768936812, 0.349337965283317, -1.235, 1.01, -1.044], a = 0.2, v = 0.2, t = 0.2)
movej(p[0.417362582164659, 0.0834164682518027, 0.348831885020083, -1.235, 1.01, -1.044], a = 0.2, v = 0.2, t = 0.2)
movej(p[0.417375755962423, 0.0834259055058732, 0.34861569152044, -1.235, 1.01, -1.044], a = 0.2, v = 0.2, t = 0.2)
movej(p[0.417344437810358, 0.0834034702625711, 0.349129649683337, -1.235, 1.01, -1.044], a = 0.2, v = 0.2, t = 0.2)
movej(p[0.417310160414976, 0.0833789151194847, 0.349692171607456, -1.235, 1.01, -1.044], a = 0.2, v = 0.2, t = 0.2)
movej(p[0.417287713916387, 0.0833628352225584, 0.350060538206941, -1.235, 1.01, -1.044], a = 0.2, v = 0.2, t = 0.2)
movej(p[0.417270687633483, 0.0833506381810891, 0.350339954344395, -1.235, 1.01, -1.044], a = 0.2, v = 0.2, t = 0.2)
movej(p[0.417236616230603, 0.083326230603922, 0.350899095752075, -1.235, 1.01, -1.044], a = 0.2, v = 0.2, t = 0.2)
movej(p[0.417216858572194, 0.0833120768993049, 0.351223336141416, -1.235, 1.01, -1.044], a = 0.2, v = 0.2, t = 0.2)
movej(p[0.417213174405412, 0.0833094376893681, 0.351283796528332, -1.235, 1.01, -1.044], a = 0.2, v = 0.2, t = 0.2)
movej(p[0.417214786494225, 0.0833105925341582, 0.351257340746295, -1.235, 1.01, -1.044], a = 0.2, v = 0.2, t = 0.2)
movej(p[0.417212246527682, 0.0833087729897848, 0.351299023810341, -1.235, 1.01, -1.044], a = 0.2, v = 0.2, t = 0.2)
movej(p[0.417243684993952, 0.083331294422031, 0.350783091186514, -1.235, 1.01, -1.044], a = 0.2, v = 0.2, t = 0.2)
movej(p[0.41729786162961, 0.0833701046940979, 0.349894005391256, -1.235, 1.01, -1.044], a = 0.2, v = 0.2, t = 0.2)
movej(p[0.417335681609907, 0.0833971976227576, 0.349273346562021, -1.235, 1.01, -1.044], a = 0.2, v = 0.2, t = 0.2)
movej(p[0.417344358816184, 0.0834034136738705, 0.349130946046573, -1.235, 1.01, -1.044], a = 0.2, v = 0.2, t = 0.2)
movej(p[0.417333068725664, 0.0833953258426606, 0.349316226269054, -1.235, 1.01, -1.044], a = 0.2, v = 0.2, t = 0.2)
movej(p[0.417308045801682, 0.0833774002834992, 0.349726874254078, -1.235, 1.01, -1.044], a = 0.2, v = 0.2, t = 0.2)
movej(p[0.417266069512496, 0.0833473299185921, 0.350415741733569, -1.235, 1.01, -1.044], a = 0.2, v = 0.2, t = 0.2)
movej(p[0.417232461137009, 0.0833232540382701, 0.350967284458282, -1.235, 1.01, -1.044], a = 0.2, v = 0.2, t = 0.2)
movej(p[0.41721828046734, 0.0833130954959158, 0.35120000160317, -1.235, 1.01, -1.044], a = 0.2, v = 0.2, t = 0.2)
movej(p[0.417212638460318, 0.0833090537567994, 0.351292591854286, -1.235, 1.01, -1.044], a = 0.2, v = 0.2, t = 0.2)
movej(p[0.417193676212485, 0.0832954698568676, 0.351603778863044, -1.235, 1.01, -1.044], a = 0.2, v = 0.2, t = 0.2)
movej(p[0.417203540093561, 0.0833025360008528, 0.351441903980186, -1.235, 1.01, -1.044], a = 0.2, v = 0.2, t = 0.2)
movej(p[0.417251094039899, 0.0833366020068502, 0.350661502287015, -1.235, 1.01, -1.044], a = 0.2, v = 0.2, t = 0.2)
movej(p[0.417308197713557, 0.0833775091079234, 0.349724381247855, -1.235, 1.01, -1.044], a = 0.2, v = 0.2, t = 0.2)
movej(p[0.417341363114017, 0.0834012676562244, 0.349180108129287, -1.235, 1.01, -1.044], a = 0.2, v = 0.2, t = 0.2)
movej(p[0.41735505948863, 0.0834110792663142, 0.348955338688237, -1.235, 1.01, -1.044], a = 0.2, v = 0.2, t = 0.2)
movej(p[0.417352282539562, 0.083409089955839, 0.349000910841991, -1.235, 1.01, -1.044], a = 0.2, v = 0.2, t = 0.2)
movej(p[0.41732168748802, 0.0833871727167963, 0.349503002295268, -1.235, 1.01, -1.044], a = 0.2, v = 0.2, t = 0.2)
movej(p[0.417279079245436, 0.0833566496422844, 0.350202240680646, -1.235, 1.01, -1.044], a = 0.2, v = 0.2, t = 0.2)
movej(p[0.417250233611041, 0.0833359856253113, 0.350675622674261, -1.235, 1.01, -1.044], a = 0.2, v = 0.2, t = 0.2)
movej(p[0.417241672465437, 0.0833298527160586, 0.350816118532954, -1.235, 1.01, -1.044], a = 0.2, v = 0.2, t = 0.2)
movej(p[0.417217850252912, 0.0833127873051464, 0.351207061796793, -1.235, 1.01, -1.044], a = 0.2, v = 0.2, t = 0.2)
movej(p[0.417193552860043, 0.0832953814914351, 0.351605803184097, -1.235, 1.01, -1.044], a = 0.2, v = 0.2, t = 0.2)
movej(p[0.417198852883053, 0.0832991782450077, 0.35151882518859, -1.235, 1.01, -1.044], a = 0.2, v = 0.2, t = 0.2)
movej(p[0.417236259541522, 0.0833259750841739, 0.350904949330686, -1.235, 1.01, -1.044], a = 0.2, v = 0.2, t = 0.2)
movej(p[0.41726813551399, 0.0833488099307619, 0.350381836848938, -1.235, 1.01, -1.044], a = 0.2, v = 0.2, t = 0.2)
movej(p[0.417309704679353, 0.0833785886462119, 0.349699650626124, -1.235, 1.01, -1.044], a = 0.2, v = 0.2, t = 0.2)
movej(p[0.417337735458451, 0.0833986689289734, 0.349239641117888, -1.235, 1.01, -1.044], a = 0.2, v = 0.2, t = 0.2)
movej(p[0.41736038855719, 0.0834148968271167, 0.348867884029941, -1.235, 1.01, -1.044], a = 0.2, v = 0.2, t = 0.2)
movej(p[0.41733264944889, 0.0833950254872497, 0.349323106966229, -1.235, 1.01, -1.044], a = 0.2, v = 0.2, t = 0.2)
movej(p[0.417302011862023, 0.0833730777773682, 0.349825896461248, -1.235, 1.01, -1.044], a = 0.2, v = 0.2, t = 0.2)
movej(p[0.417280440375832, 0.0833576247091256, 0.350179903344889, -1.235, 1.01, -1.044], a = 0.2, v = 0.2, t = 0.2)
movej(p[0.417260254325937, 0.0833431641196321, 0.350511174011778, -1.235, 1.01, -1.044], a = 0.2, v = 0.2, t = 0.2)
movej(p[0.417226055317082, 0.0833186651299486, 0.351072409544686, -1.235, 1.01, -1.044], a = 0.2, v = 0.2, t = 0.2)
movej(p[0.417199028675474, 0.0832993041766314, 0.351515940281789, -1.235, 1.01, -1.044], a = 0.2, v = 0.2, t = 0.2)
movej(p[0.417193715101925, 0.0832954977159202, 0.351603140653451, -1.235, 1.01, -1.044], a = 0.2, v = 0.2, t = 0.2)
movej(p[0.417189159568629, 0.083292234289086, 0.351677900924061, -1.235, 1.01, -1.044], a = 0.2, v = 0.2, t = 0.2)
movej(p[0.417195350645931, 0.0832966693632014, 0.351576299951253, -1.235, 1.01, -1.044], a = 0.2, v = 0.2, t = 0.2)
movej(p[0.41723044010143, 0.08332180623813, 0.35100045141307, -1.235, 1.01, -1.044], a = 0.2, v = 0.2, t = 0.2)
movej(p[0.417284414390471, 0.0833604715560638, 0.3501146863021, -1.235, 1.01, -1.044], a = 0.2, v = 0.2, t = 0.2)
movej(p[0.417320897546272, 0.0833866068297902, 0.349515965927626, -1.235, 1.01, -1.044], a = 0.2, v = 0.2, t = 0.2)
movej(p[0.417331592142243, 0.083394268069257, 0.34934045828954, -1.235, 1.01, -1.044], a = 0.2, v = 0.2, t = 0.2)
movej(p[0.417323820330739, 0.0833887006117127, 0.349468000487899, -1.235, 1.01, -1.044], a = 0.2, v = 0.2, t = 0.2)
movej(p[0.417307426001234, 0.0833769562798483, 0.349737045719467, -1.235, 1.01, -1.044], a = 0.2, v = 0.2, t = 0.2)
movej(p[0.417269843003461, 0.0833500331172903, 0.350353815458994, -1.235, 1.01, -1.044], a = 0.2, v = 0.2, t = 0.2)
movej(p[0.41724324080363, 0.0833309762194145, 0.35079038073671, -1.235, 1.01, -1.044], a = 0.2, v = 0.2, t = 0.2)
movej(p[0.417225162075259, 0.0833180252423341, 0.351087068421276, -1.235, 1.01, -1.044], a = 0.2, v = 0.2, t = 0.2)
movej(p[0.417212835338108, 0.0833091947932532, 0.351289360918221, -1.235, 1.01, -1.044], a = 0.2, v = 0.2, t = 0.2)
movej(p[0.417178804039962, 0.0832848159457341, 0.351847844172258, -1.235, 1.01, -1.044], a = 0.2, v = 0.2, t = 0.2)
movej(p[0.417171443605815, 0.0832795431847306, 0.351968635309767, -1.235, 1.01, -1.044], a = 0.2, v = 0.2, t = 0.2)
movej(p[0.41720144881393, 0.0833010378802989, 0.351476223701052, -1.235, 1.01, -1.044], a = 0.2, v = 0.2, t = 0.2)
movej(p[0.417258367580454, 0.083341812520283, 0.350542137149066, -1.235, 1.01, -1.044], a = 0.2, v = 0.2, t = 0.2)
movej(p[0.417292562943424, 0.0833663088981803, 0.349980961448308, -1.235, 1.01, -1.044], a = 0.2, v = 0.2, t = 0.2)
movej(p[0.417314031129541, 0.0833816879658144, 0.349628649808898, -1.235, 1.01, -1.044], a = 0.2, v = 0.2, t = 0.2)
movej(p[0.417316467796009, 0.0833834335095793, 0.349588661989084, -1.235, 1.01, -1.044], a = 0.2, v = 0.2, t = 0.2)
movej(p[0.417300377290253, 0.0833719068265634, 0.349852721208206, -1.235, 1.01, -1.044], a = 0.2, v = 0.2, t = 0.2)
movej(p[0.41726457469965, 0.0833462590862576, 0.350440272914801, -1.235, 1.01, -1.044], a = 0.2, v = 0.2, t = 0.2)
movej(p[0.417241406315833, 0.0833296620556673, 0.350820486279857, -1.235, 1.01, -1.044], a = 0.2, v = 0.2, t = 0.2)
movej(p[0.417234365504269, 0.0833246182612524, 0.350936032132272, -1.235, 1.01, -1.044], a = 0.2, v = 0.2, t = 0.2)
movej(p[0.417222685911703, 0.0833162514042189, 0.351127704422708, -1.235, 1.01, -1.044], a = 0.2, v = 0.2, t = 0.2)
movej(p[0.417197088517776, 0.0832979143146147, 0.351547779960064, -1.235, 1.01, -1.044], a = 0.2, v = 0.2, t = 0.2)
movej(p[0.417188866682535, 0.083292024475596, 0.351682707440058, -1.235, 1.01, -1.044], a = 0.2, v = 0.2, t = 0.2)
movej(p[0.417205448957412, 0.0833039034450381, 0.351410577861192, -1.235, 1.01, -1.044], a = 0.2, v = 0.2, t = 0.2)
movej(p[0.417230888545284, 0.0833221274878304, 0.3509930920587, -1.235, 1.01, -1.044], a = 0.2, v = 0.2, t = 0.2)
movej(p[0.41726998883886, 0.0833501375887376, 0.35035142217302, -1.235, 1.01, -1.044], a = 0.2, v = 0.2, t = 0.2)
movej(p[0.417312262875321, 0.0833804212495162, 0.349657668401332, -1.235, 1.01, -1.044], a = 0.2, v = 0.2, t = 0.2)
movej(p[0.417352112398262, 0.0834089680724839, 0.34900370300896, -1.235, 1.01, -1.044], a = 0.2, v = 0.2, t = 0.2)
movej(p[0.417341776314316, 0.0834015636586583, 0.349173327152361, -1.235, 1.01, -1.044], a = 0.2, v = 0.2, t = 0.2)
movej(p[0.417314906141938, 0.0833823147944981, 0.349614290093055, -1.235, 1.01, -1.044], a = 0.2, v = 0.2, t = 0.2)
movej(p[0.41728288919525, 0.0833593789588444, 0.350139716084577, -1.235, 1.01, -1.044], a = 0.2, v = 0.2, t = 0.2)
movej(p[0.417261153644234, 0.0833438083602236, 0.350496415414939, -1.235, 1.01, -1.044], a = 0.2, v = 0.2, t = 0.2)
movej(p[0.417227022691899, 0.0833193581238822, 0.351056534081059, -1.235, 1.01, -1.044], a = 0.2, v = 0.2, t = 0.2)
movej(p[0.417208744655149, 0.0833062643691572, 0.351356492589789, -1.235, 1.01, -1.044], a = 0.2, v = 0.2, t = 0.2)
movej(p[0.417204465419171, 0.0833031988721858, 0.351426718580681, -1.235, 1.01, -1.044], a = 0.2, v = 0.2, t = 0.2)
movej(p[0.417207524498972, 0.0833053902913816, 0.351376516415771, -1.235, 1.01, -1.044], a = 0.2, v = 0.2, t = 0.2)
movej(p[0.417209893108921, 0.0833070870818045, 0.351337645462745, -1.235, 1.01, -1.044], a = 0.2, v = 0.2, t = 0.2)
movej(p[0.417252452739705, 0.0833375753325006, 0.350639204839358, -1.235, 1.01, -1.044], a = 0.2, v = 0.2, t = 0.2)
movej(p[0.417332777054865, 0.0833951168997661, 0.349321012841001, -1.235, 1.01, -1.044], a = 0.2, v = 0.2, t = 0.2)
movej(p[0.417435268958412, 0.0834685385623149, 0.347639031402586, -1.235, 1.01, -1.044], a = 0.2, v = 0.2, t = 0.2)
movej(p[0.417538155832833, 0.0835422431683668, 0.34595056814799, -1.235, 1.01, -1.044], a = 0.2, v = 0.2, t = 0.2)
movej(p[0.417643193779398, 0.083617488728266, 0.34422680392528, -1.235, 1.01, -1.044], a = 0.2, v = 0.2, t = 0.2)
movej(p[0.417736279299671, 0.0836841719824657, 0.342699189432181, -1.235, 1.01, -1.044], a = 0.2, v = 0.2, t = 0.2)
movej(p[0.417763356072197, 0.0837035688478429, 0.342254836003025, -1.235, 1.01, -1.044], a = 0.2, v = 0.2, t = 0.2)
movej(p[0.417730233207062, 0.0836798407703808, 0.34279841107985, -1.235, 1.01, -1.044], a = 0.2, v = 0.2, t = 0.2)
movej(p[0.417642215466926, 0.0836167878989739, 0.344242858885355, -1.235, 1.01, -1.044], a = 0.2, v = 0.2, t = 0.2)
movej(p[0.417552958125893, 0.0835528470202652, 0.345707649621638, -1.235, 1.01, -1.044], a = 0.2, v = 0.2, t = 0.2)
movej(p[0.417465019379931, 0.0834898507375589, 0.347150801063907, -1.235, 1.01, -1.044], a = 0.2, v = 0.2, t = 0.2)
movej(p[0.417407195643988, 0.0834484278087147, 0.348099738952564, -1.235, 1.01, -1.044], a = 0.2, v = 0.2, t = 0.2)
movej(p[0.417368938157492, 0.0834210214657131, 0.34872757763972, -1.235, 1.01, -1.044], a = 0.2, v = 0.2, t = 0.2)
movej(p[0.417350174002743, 0.0834075794728305, 0.349035513768364, -1.235, 1.01, -1.044], a = 0.2, v = 0.2, t = 0.2)
movej(p[0.41732185762932, 0.0833872946001515, 0.349500210128298, -1.235, 1.01, -1.044], a = 0.2, v = 0.2, t = 0.2)
movej(p[0.417339248500722, 0.0833997528202389, 0.349214810775909, -1.235, 1.01, -1.044], a = 0.2, v = 0.2, t = 0.2)
movej(p[0.417405852743017, 0.0834474658008044, 0.348121777127573, -1.235, 1.01, -1.044], a = 0.2, v = 0.2, t = 0.2)
movej(p[0.417498269851041, 0.0835136702275374, 0.346605131861855, -1.235, 1.01, -1.044], a = 0.2, v = 0.2, t = 0.2)
movej(p[0.417568556437176, 0.0835640211121465, 0.345451667742678, -1.235, 1.01, -1.044], a = 0.2, v = 0.2, t = 0.2)
movej(p[0.417631684935779, 0.0836092441898853, 0.344415674076721, -1.235, 1.01, -1.044], a = 0.2, v = 0.2, t = 0.2)
movej(p[0.417701783151189, 0.0836594601322084, 0.34326530128526, -1.235, 1.01, -1.044], a = 0.2, v = 0.2, t = 0.2)
movej(p[0.417746487777643, 0.0836914849837749, 0.342531659414007, -1.235, 1.01, -1.044], a = 0.2, v = 0.2, t = 0.2)
movej(p[0.417750826380781, 0.0836945930093313, 0.342460459156283, -1.235, 1.01, -1.044], a = 0.2, v = 0.2, t = 0.2)
movej(p[0.417709068844694, 0.0836646793515951, 0.343145736706814, -1.235, 1.01, -1.044], a = 0.2, v = 0.2, t = 0.2)
movej(p[0.417634243131747, 0.0836110767931895, 0.344373691851929, -1.235, 1.01, -1.044], a = 0.2, v = 0.2, t = 0.2)
movej(p[0.417536150596088, 0.0835408066859668, 0.345983475830132, -1.235, 1.01, -1.044], a = 0.2, v = 0.2, t = 0.2)
movej(p[0.417448059938252, 0.0834777015788363, 0.347429120278624, -1.235, 1.01, -1.044], a = 0.2, v = 0.2, t = 0.2)
movej(p[0.417396100000668, 0.0834404792727679, 0.348281828127079, -1.235, 1.01, -1.044], a = 0.2, v = 0.2, t = 0.2)
movej(p[0.417368111756894, 0.0834204294608452, 0.348741139593572, -1.235, 1.01, -1.044], a = 0.2, v = 0.2, t = 0.2)
movej(p[0.417333822208562, 0.0833958656118049, 0.349303860958188, -1.235, 1.01, -1.044], a = 0.2, v = 0.2, t = 0.2)
movej(p[0.417311290639323, 0.083379724773201, 0.349673623641158, -1.235, 1.01, -1.044], a = 0.2, v = 0.2, t = 0.2)
movej(p[0.417304649052166, 0.0833749669693731, 0.34978261787322, -1.235, 1.01, -1.044], a = 0.2, v = 0.2, t = 0.2)
movej(p[0.417304235851867, 0.0833746709669392, 0.349789398850146, -1.235, 1.01, -1.044], a = 0.2, v = 0.2, t = 0.2)
movej(p[0.417284353625721, 0.0833604280262941, 0.350115683504589, -1.235, 1.01, -1.044], a = 0.2, v = 0.2, t = 0.2)
movej(p[0.417289123658583, 0.0833638451132154, 0.350037403109193, -1.235, 1.01, -1.044], a = 0.2, v = 0.2, t = 0.2)
movej(p[0.41729578955164, 0.0833686203289512, 0.349928009996135, -1.235, 1.01, -1.044], a = 0.2, v = 0.2, t = 0.2)
movej(p[0.417293292120422, 0.0833668312554166, 0.349968995018438, -1.235, 1.01, -1.044], a = 0.2, v = 0.2, t = 0.2)
movej(p[0.417261986121307, 0.0833444047180685, 0.350482753740838, -1.235, 1.01, -1.044], a = 0.2, v = 0.2, t = 0.2)
movej(p[0.417246985735163, 0.0833336589591209, 0.350728923147305, -1.235, 1.01, -1.044], a = 0.2, v = 0.2, t = 0.2)
movej(p[0.417243585339762, 0.0833312230332087, 0.350784726598597, -1.235, 1.01, -1.044], a = 0.2, v = 0.2, t = 0.2)
movej(p[0.41723151381456, 0.0833225754091605, 0.350982830845087, -1.235, 1.01, -1.044], a = 0.2, v = 0.2, t = 0.2)
movej(p[0.417237548969513, 0.0833268987858869, 0.350883788693867, -1.235, 1.01, -1.044], a = 0.2, v = 0.2, t = 0.2)
movej(p[0.417280015022583, 0.0833573200007377, 0.350186883762313, -1.235, 1.01, -1.044], a = 0.2, v = 0.2, t = 0.2)
movej(p[0.417361020510588, 0.0834153495367215, 0.348857513124054, -1.235, 1.01, -1.044], a = 0.2, v = 0.2, t = 0.2)
movej(p[0.417431301020248, 0.0834656960683537, 0.347704148725126, -1.235, 1.01, -1.044], a = 0.2, v = 0.2, t = 0.2)
movej(p[0.417505330714972, 0.0835187283867762, 0.346489256932618, -1.235, 1.01, -1.044], a = 0.2, v = 0.2, t = 0.2)
movej(p[0.417559994683924, 0.0835578877675961, 0.345592173573397, -1.235, 1.01, -1.044], a = 0.2, v = 0.2, t = 0.2)
movej(p[0.417566356753232, 0.0835624453344835, 0.345487766472785, -1.235, 1.01, -1.044], a = 0.2, v = 0.2, t = 0.2)
movej(p[0.417510750930657, 0.0835226112422332, 0.346400306470588, -1.235, 1.01, -1.044], a = 0.2, v = 0.2, t = 0.2)
movej(p[0.417440974768422, 0.0834726260076895, 0.347545394088856, -1.235, 1.01, -1.044], a = 0.2, v = 0.2, t = 0.2)
movej(p[0.417396215453693, 0.0834405619793303, 0.34827993344235, -1.235, 1.01, -1.044], a = 0.2, v = 0.2, t = 0.2)
movej(p[0.417355108100429, 0.0834111140901299, 0.348954540926246, -1.235, 1.01, -1.044], a = 0.2, v = 0.2, t = 0.2)
movej(p[0.417324841178536, 0.0833894319118436, 0.349451247486082, -1.235, 1.01, -1.044], a = 0.2, v = 0.2, t = 0.2)
movej(p[0.417298530041858, 0.0833705835215646, 0.349883036163875, -1.235, 1.01, -1.044], a = 0.2, v = 0.2, t = 0.2)
movej(p[0.41728863146411, 0.0833634925220808, 0.350045480449355, -1.235, 1.01, -1.044], a = 0.2, v = 0.2, t = 0.2)
movej(p[0.417273409894276, 0.0833525883147716, 0.350295279672882, -1.235, 1.01, -1.044], a = 0.2, v = 0.2, t = 0.2)
movej(p[0.417293638479496, 0.0833670793751039, 0.34996331096425, -1.235, 1.01, -1.044], a = 0.2, v = 0.2, t = 0.2)
movej(p[0.417351996945238, 0.0834088853659214, 0.34900559769369, -1.235, 1.01, -1.044], a = 0.2, v = 0.2, t = 0.2)
movej(p[0.417438191742879, 0.0834706323442374, 0.347591065962858, -1.235, 1.01, -1.044], a = 0.2, v = 0.2, t = 0.2)
movej(p[0.417515976699143, 0.0835263548024272, 0.346314547056523, -1.235, 1.01, -1.044], a = 0.2, v = 0.2, t = 0.2)
movej(p[0.41758336480671, 0.0835746293170218, 0.345208649496077, -1.235, 1.01, -1.044], a = 0.2, v = 0.2, t = 0.2)
movej(p[0.417629691851985, 0.0836078164134392, 0.344448382318364, -1.235, 1.01, -1.044], a = 0.2, v = 0.2, t = 0.2)
movej(p[0.417615466824048, 0.083597626094353, 0.34468182742107, -1.235, 1.01, -1.044], a = 0.2, v = 0.2, t = 0.2)
movej(p[0.417555510245386, 0.0835546752705924, 0.345665767117095, -1.235, 1.01, -1.044], a = 0.2, v = 0.2, t = 0.2)
movej(p[0.4174764917647, 0.0834980691580778, 0.34696252923396, -1.235, 1.01, -1.044], a = 0.2, v = 0.2, t = 0.2)
movej(p[0.417425248851164, 0.0834613605032918, 0.347803470093043, -1.235, 1.01, -1.044], a = 0.2, v = 0.2, t = 0.2)
movej(p[0.41737523946205, 0.0834255355028307, 0.348624167741597, -1.235, 1.01, -1.044], a = 0.2, v = 0.2, t = 0.2)
movej(p[0.41734376939811, 0.0834029914351044, 0.349140618910718, -1.235, 1.01, -1.044], a = 0.2, v = 0.2, t = 0.2)
movej(p[0.417318357579729, 0.0833847872854169, 0.349557648991672, -1.235, 1.01, -1.044], a = 0.2, v = 0.2, t = 0.2)
movej(p[0.417309048420054, 0.0833781185246992, 0.349710420413007, -1.235, 1.01, -1.044], a = 0.2, v = 0.2, t = 0.2)
movej(p[0.41728849778166, 0.0833633967565875, 0.350047674294831, -1.235, 1.01, -1.044], a = 0.2, v = 0.2, t = 0.2)
movej(p[0.41729591108114, 0.0833687073884906, 0.349926015591157, -1.235, 1.01, -1.044], a = 0.2, v = 0.2, t = 0.2)
movej(p[0.417333384702363, 0.0833955521974631, 0.34931104081611, -1.235, 1.01, -1.044], a = 0.2, v = 0.2, t = 0.2)
movej(p[0.417386280417095, 0.0834334448619848, 0.348442976049322, -1.235, 1.01, -1.044], a = 0.2, v = 0.2, t = 0.2)
movej(p[0.417414906690742, 0.0834539517364893, 0.347973193956693, -1.235, 1.01, -1.044], a = 0.2, v = 0.2, t = 0.2)
movej(p[0.417429283630553, 0.0834642508799997, 0.347737255847765, -1.235, 1.01, -1.044], a = 0.2, v = 0.2, t = 0.2)
movej(p[0.417427934653107, 0.0834632845191124, 0.347759393743024, -1.235, 1.01, -1.044], a = 0.2, v = 0.2, t = 0.2)
movej(p[0.417392265744954, 0.0834377325443, 0.348344751604143, -1.235, 1.01, -1.044], a = 0.2, v = 0.2, t = 0.2)
movej(p[0.41734398815121, 0.0834031481422753, 0.349137028981757, -1.235, 1.01, -1.044], a = 0.2, v = 0.2, t = 0.2)
movej(p[0.417310038885477, 0.0833788280599453, 0.349694166012434, -1.235, 1.01, -1.044], a = 0.2, v = 0.2, t = 0.2)
movej(p[0.417295291280692, 0.0833682633848397, 0.349936187056546, -1.235, 1.01, -1.044], a = 0.2, v = 0.2, t = 0.2)
movej(p[0.417269490567912, 0.0833497806446261, 0.350359599233431, -1.235, 1.01, -1.044], a = 0.2, v = 0.2, t = 0.2)
movej(p[0.417246955960435, 0.0833336376295338, 0.350729411776525, -1.235, 1.01, -1.044], a = 0.2, v = 0.2, t = 0.2)
movej(p[0.417246992419285, 0.0833336637473956, 0.350728813455031, -1.235, 1.01, -1.044], a = 0.2, v = 0.2, t = 0.2)
movej(p[0.417276934249766, 0.0833551130414141, 0.350237441928512, -1.235, 1.01, -1.044], a = 0.2, v = 0.2, t = 0.2)
movej(p[0.417303670739694, 0.083374266140081, 0.349798672833295, -1.235, 1.01, -1.044], a = 0.2, v = 0.2, t = 0.2)
movej(p[0.41733834310595, 0.0833991042266704, 0.349229669092997, -1.235, 1.01, -1.044], a = 0.2, v = 0.2, t = 0.2)
movej(p[0.417368792322092, 0.0834209169942658, 0.348729970925694, -1.235, 1.01, -1.044], a = 0.2, v = 0.2, t = 0.2)
movej(p[0.41737509362665, 0.0834254310313835, 0.348626561027571, -1.235, 1.01, -1.044], a = 0.2, v = 0.2, t = 0.2)
movej(p[0.417344395275033, 0.0834034397917323, 0.34913034772508, -1.235, 1.01, -1.044], a = 0.2, v = 0.2, t = 0.2)
movej(p[0.417315064130288, 0.0833824279718993, 0.349611697366583, -1.235, 1.01, -1.044], a = 0.2, v = 0.2, t = 0.2)
movej(p[0.41729956911908, 0.0833713278806264, 0.349865984001311, -1.235, 1.01, -1.044], a = 0.2, v = 0.2, t = 0.2)
movej(p[0.417277705962089, 0.0833556658694892, 0.3502247774569, -1.235, 1.01, -1.044], a = 0.2, v = 0.2, t = 0.2)
movej(p[0.417251822001602, 0.0833371234934912, 0.350649555801195, -1.235, 1.01, -1.044], a = 0.2, v = 0.2, t = 0.2)
movej(p[0.417238120765809, 0.0833273084010197, 0.350874405018444, -1.235, 1.01, -1.044], a = 0.2, v = 0.2, t = 0.2)
movej(p[0.417235774638818, 0.0833256277166117, 0.350912907006549, -1.235, 1.01, -1.044], a = 0.2, v = 0.2, t = 0.2)
movej(p[0.417213212079557, 0.0833094646778253, 0.351283178262788, -1.235, 1.01, -1.044], a = 0.2, v = 0.2, t = 0.2)
movej(p[0.417194662545904, 0.0832961764320893, 0.35158759227224, -1.235, 1.01, -1.044], a = 0.2, v = 0.2, t = 0.2)
movej(p[0.417194922375974, 0.0832963625653845, 0.351583328234397, -1.235, 1.01, -1.044], a = 0.2, v = 0.2, t = 0.2)
movej(p[0.417212619015598, 0.0833090398272731, 0.351292910959082, -1.235, 1.01, -1.044], a = 0.2, v = 0.2, t = 0.2)
movej(p[0.417216583915525, 0.0833118801447459, 0.351227843496667, -1.235, 1.01, -1.044], a = 0.2, v = 0.2, t = 0.2)
movej(p[0.417224133935692, 0.0833172887186308, 0.351103941087392, -1.235, 1.01, -1.044], a = 0.2, v = 0.2, t = 0.2)
movej(p[0.417233945619848, 0.0833243174705438, 0.350942922801472, -1.235, 1.01, -1.044], a = 0.2, v = 0.2, t = 0.2)
movej(p[0.41723315081692, 0.0833237481011562, 0.35095596621003, -1.235, 1.01, -1.044], a = 0.2, v = 0.2, t = 0.2)
movej(p[0.417209595361646, 0.0833068737859329, 0.351342531754941, -1.235, 1.01, -1.044], a = 0.2, v = 0.2, t = 0.2)
movej(p[0.417192349110348, 0.0832945191666974, 0.351625557765406, -1.235, 1.01, -1.044], a = 0.2, v = 0.2, t = 0.2)
movej(p[0.417188754875396, 0.0832919443808198, 0.351684542292638, -1.235, 1.01, -1.044], a = 0.2, v = 0.2, t = 0.2)
movej(p[0.41717787433929, 0.0832841499402577, 0.351863101370342, -1.235, 1.01, -1.044], a = 0.2, v = 0.2, t = 0.2)
movej(p[0.417178242573674, 0.0832844137306621, 0.351857058323258, -1.235, 1.01, -1.044], a = 0.2, v = 0.2, t = 0.2)
movej(p[0.417207162341063, 0.0833051308539542, 0.351382459742606, -1.235, 1.01, -1.044], a = 0.2, v = 0.2, t = 0.2)
movej(p[0.417261998274257, 0.0833444134240224, 0.35048255430034, -1.235, 1.01, -1.044], a = 0.2, v = 0.2, t = 0.2)
movej(p[0.417308045801682, 0.0833774002834992, 0.349726874254078, -1.235, 1.01, -1.044], a = 0.2, v = 0.2, t = 0.2)
movej(p[0.417342578409013, 0.0834021382516183, 0.349160164079505, -1.235, 1.01, -1.044], a = 0.2, v = 0.2, t = 0.2)
movej(p[0.417355284318204, 0.0834112403264621, 0.348951649039028, -1.235, 1.01, -1.044], a = 0.2, v = 0.2, t = 0.2)
movej(p[0.41733641686338, 0.083397724332971, 0.349261280411903, -1.235, 1.01, -1.044], a = 0.2, v = 0.2, t = 0.2)
movej(p[0.417287823292937, 0.0833629135761439, 0.35005874324246, -1.235, 1.01, -1.044], a = 0.2, v = 0.2, t = 0.2)
movej(p[0.417249128300242, 0.0833351938188005, 0.350693761787538, -1.235, 1.01, -1.044], a = 0.2, v = 0.2, t = 0.2)
movej(p[0.4172340908476, 0.0833244215066934, 0.350940539487523, -1.235, 1.01, -1.044], a = 0.2, v = 0.2, t = 0.2)
movej(p[0.417215913680334, 0.0833114000113861, 0.351238842640122, -1.235, 1.01, -1.044], a = 0.2, v = 0.2, t = 0.2)
movej(p[0.417190634936755, 0.0832932911918942, 0.351653688847625, -1.235, 1.01, -1.044], a = 0.2, v = 0.2, t = 0.2)
movej(p[0.417178896402382, 0.083284882110984, 0.351846328424475, -1.235, 1.01, -1.044], a = 0.2, v = 0.2, t = 0.2)
movej(p[0.417195664556629, 0.0832968942379916, 0.351571148403194, -1.235, 1.01, -1.044], a = 0.2, v = 0.2, t = 0.2)
movej(p[0.417219850628476, 0.0833142203051648, 0.351174233890851, -1.235, 1.01, -1.044], a = 0.2, v = 0.2, t = 0.2)
movej(p[0.417250263385769, 0.0833360069548984, 0.350675134045041, -1.235, 1.01, -1.044], a = 0.2, v = 0.2, t = 0.2)
movej(p[0.417293608097121, 0.0833670576102191, 0.349963809565495, -1.235, 1.01, -1.044], a = 0.2, v = 0.2, t = 0.2)
movej(p[0.417330577370921, 0.0833935411221031, 0.349357111571108, -1.235, 1.01, -1.044], a = 0.2, v = 0.2, t = 0.2)
movej(p[0.417328007022003, 0.0833916998128448, 0.349399293236398, -1.235, 1.01, -1.044], a = 0.2, v = 0.2, t = 0.2)
movej(p[0.417302583050672, 0.0833734869572034, 0.34981652275785, -1.235, 1.01, -1.044], a = 0.2, v = 0.2, t = 0.2)
movej(p[0.417273288364776, 0.0833525012552322, 0.35029727407786, -1.235, 1.01, -1.044], a = 0.2, v = 0.2, t = 0.2)
movej(p[0.417252076605904, 0.0833373058832262, 0.350645377522766, -1.235, 1.01, -1.044], a = 0.2, v = 0.2, t = 0.2)
movej(p[0.4172164198507, 0.0833117626143677, 0.351230535943387, -1.235, 1.01, -1.044], a = 0.2, v = 0.2, t = 0.2)
movej(p[0.417194297045934, 0.0832959146005246, 0.351593590445212, -1.235, 1.01, -1.044], a = 0.2, v = 0.2, t = 0.2)
movej(p[0.417190176162894, 0.083292962542133, 0.351661217726418, -1.235, 1.01, -1.044], a = 0.2, v = 0.2, t = 0.2)
movej(p[0.417201521367042, 0.0833010898548439, 0.35147503304128, -1.235, 1.01, -1.044], a = 0.2, v = 0.2, t = 0.2)
movej(p[0.417208942748233, 0.0833064062762064, 0.351353241709675, -1.235, 1.01, -1.044], a = 0.2, v = 0.2, t = 0.2)
movej(p[0.417247143115865, 0.0833337717012244, 0.350726340392858, -1.235, 1.01, -1.044], a = 0.2, v = 0.2, t = 0.2)
movej(p[0.417321189217071, 0.0833868157726848, 0.349511179355679, -1.235, 1.01, -1.044], a = 0.2, v = 0.2, t = 0.2)
movej(p[0.417419506582305, 0.0834572469400554, 0.347897705728266, -1.235, 1.01, -1.044], a = 0.2, v = 0.2, t = 0.2)
movej(p[0.417520625202505, 0.0835296848298091, 0.346238261066104, -1.235, 1.01, -1.044], a = 0.2, v = 0.2, t = 0.2)
movej(p[0.417630384570133, 0.0836083126528138, 0.344437014209988, -1.235, 1.01, -1.044], a = 0.2, v = 0.2, t = 0.2)
movej(p[0.417736777570619, 0.0836845289265772, 0.34269101237177, -1.235, 1.01, -1.044], a = 0.2, v = 0.2, t = 0.2)
movej(p[0.417818099035324, 0.0837427848173634, 0.341356456280567, -1.235, 1.01, -1.044], a = 0.2, v = 0.2, t = 0.2)
movej(p[0.417862882655952, 0.0837748662576305, 0.340621518046078, -1.235, 1.01, -1.044], a = 0.2, v = 0.2, t = 0.2)
movej(p[0.417853828708227, 0.0837683803219456, 0.340770101216959, -1.235, 1.01, -1.044], a = 0.2, v = 0.2, t = 0.2)
movej(p[0.417826363041301, 0.0837487048660423, 0.341220836742046, -1.235, 1.01, -1.044], a = 0.2, v = 0.2, t = 0.2)
movej(p[0.41778630691821, 0.0837200100418576, 0.34187819262288, -1.235, 1.01, -1.044], a = 0.2, v = 0.2, t = 0.2)
movej(p[0.417761077394078, 0.0837019364814792, 0.342292231096367, -1.235, 1.01, -1.044], a = 0.2, v = 0.2, t = 0.2)
movej(p[0.417714853648879, 0.0836688233856703, 0.343050803029848, -1.235, 1.01, -1.044], a = 0.2, v = 0.2, t = 0.2)
movej(p[0.417634650255571, 0.0836113684426465, 0.344367010595251, -1.235, 1.01, -1.044], a = 0.2, v = 0.2, t = 0.2)
movej(p[0.417527625301687, 0.0835346994592782, 0.346123383339356, -1.235, 1.01, -1.044], a = 0.2, v = 0.2, t = 0.2)
movej(p[0.41746746819935, 0.0834916049872777, 0.347110613803595, -1.235, 1.01, -1.044], a = 0.2, v = 0.2, t = 0.2)
movej(p[0.417430748061024, 0.0834652999474494, 0.347713223267777, -1.235, 1.01, -1.044], a = 0.2, v = 0.2, t = 0.2)
movej(p[0.417404424771396, 0.0834464428512165, 0.348145211386068, -1.235, 1.01, -1.044], a = 0.2, v = 0.2, t = 0.2)
movej(p[0.417359501391842, 0.0834142612924791, 0.348882443186282, -1.235, 1.01, -1.044], a = 0.2, v = 0.2, t = 0.2)
movej(p[0.417359938898041, 0.0834145747068209, 0.34887526332836, -1.235, 1.01, -1.044], a = 0.2, v = 0.2, t = 0.2)
movej(p[0.417414542102243, 0.0834536905578711, 0.347979177171628, -1.235, 1.01, -1.044], a = 0.2, v = 0.2, t = 0.2)
movej(p[0.417493840100778, 0.0835104969073264, 0.346677827923313, -1.235, 1.01, -1.044], a = 0.2, v = 0.2, t = 0.2)
movej(p[0.417566198764882, 0.0835623321570822, 0.345490359199257, -1.235, 1.01, -1.044], a = 0.2, v = 0.2, t = 0.2)
movej(p[0.41764787874161, 0.0836208448735097, 0.344149919613368, -1.235, 1.01, -1.044], a = 0.2, v = 0.2, t = 0.2)
movej(p[0.417735021469349, 0.0836832709162329, 0.342719831523706, -1.235, 1.01, -1.044], a = 0.2, v = 0.2, t = 0.2)
movej(p[0.417785589894162, 0.0837194963905752, 0.341889959612252, -1.235, 1.01, -1.044], a = 0.2, v = 0.2, t = 0.2)
movej(p[0.417782369362421, 0.0837171893127812, 0.341942811344176, -1.235, 1.01, -1.044], a = 0.2, v = 0.2, t = 0.2)
movej(p[0.417740259390785, 0.0836870231823808, 0.342633872669143, -1.235, 1.01, -1.044], a = 0.2, v = 0.2, t = 0.2)
movej(p[0.417663173229144, 0.0836318013165425, 0.343898923746854, -1.235, 1.01, -1.044], a = 0.2, v = 0.2, t = 0.2)
movej(p[0.417565518199684, 0.0835618446236616, 0.345501527867135, -1.235, 1.01, -1.044], a = 0.2, v = 0.2, t = 0.2)
movej(p[0.417485497100626, 0.0835045202699469, 0.34681474382507, -1.235, 1.01, -1.044], a = 0.2, v = 0.2, t = 0.2)
movej(p[0.417438835849227, 0.0834710937597962, 0.347580495616474, -1.235, 1.01, -1.044], a = 0.2, v = 0.2, t = 0.2)
movej(p[0.417409498628007, 0.0834500775869862, 0.348061944978226, -1.235, 1.01, -1.044], a = 0.2, v = 0.2, t = 0.2)
movej(p[0.417364465871904, 0.0834178176746634, 0.34880097174292, -1.235, 1.01, -1.044], a = 0.2, v = 0.2, t = 0.2)
movej(p[0.417343982074735, 0.0834031437892983, 0.349137128702006, -1.235, 1.01, -1.044], a = 0.2, v = 0.2, t = 0.2)
movej(p[0.417363815689081, 0.0834173519061276, 0.348811641809554, -1.235, 1.01, -1.044], a = 0.2, v = 0.2, t = 0.2)
movej(p[0.417407839750336, 0.0834488892242735, 0.348089168606179, -1.235, 1.01, -1.044], a = 0.2, v = 0.2, t = 0.2)
movej(p[0.417456591309129, 0.0834838131585018, 0.34728911304915, -1.235, 1.01, -1.044], a = 0.2, v = 0.2, t = 0.2)
movej(p[0.417525936041641, 0.0835334893316806, 0.346151105568554, -1.235, 1.01, -1.044], a = 0.2, v = 0.2, t = 0.2)
movej(p[0.417620376615835, 0.0836011432997446, 0.344601253459948, -1.235, 1.01, -1.044], a = 0.2, v = 0.2, t = 0.2)
movej(p[0.417700683309217, 0.0836586722433768, 0.343283350650314, -1.235, 1.01, -1.044], a = 0.2, v = 0.2, t = 0.2)
movej(p[0.417759290910433, 0.0837006567062501, 0.342321548849547, -1.235, 1.01, -1.044], a = 0.2, v = 0.2, t = 0.2)
movej(p[0.417775618398714, 0.0837123531553678, 0.342053600540718, -1.235, 1.01, -1.044], a = 0.2, v = 0.2, t = 0.2)
movej(p[0.417747229107591, 0.0836920160469652, 0.34251949354364, -1.235, 1.01, -1.044], a = 0.2, v = 0.2, t = 0.2)
movej(p[0.417660189679927, 0.0836296640048504, 0.34394788638907, -1.235, 1.01, -1.044], a = 0.2, v = 0.2, t = 0.2)
movej(p[0.417570901956519, 0.0835657013612568, 0.345413175726598, -1.235, 1.01, -1.044], a = 0.2, v = 0.2, t = 0.2)
movej(p[0.417499229934089, 0.0835143579978986, 0.346589376062527, -1.235, 1.01, -1.044], a = 0.2, v = 0.2, t = 0.2)
movej(p[0.417450830810845, 0.0834796865363345, 0.347383647845119, -1.235, 1.01, -1.044], a = 0.2, v = 0.2, t = 0.2)
movej(p[0.417402863117325, 0.0834453241361352, 0.348170839490039, -1.235, 1.01, -1.044], a = 0.2, v = 0.2, t = 0.2)
movej(p[0.417386438405444, 0.083433558039386, 0.348440383322851, -1.235, 1.01, -1.044], a = 0.2, v = 0.2, t = 0.2)
movej(p[0.417414450955118, 0.0834536252632166, 0.347980672975362, -1.235, 1.01, -1.044], a = 0.2, v = 0.2, t = 0.2)
movej(p[0.417472663585461, 0.0834953267825868, 0.347025352990775, -1.235, 1.01, -1.044], a = 0.2, v = 0.2, t = 0.2)
movej(p[0.417542482283021, 0.0835453424879693, 0.345879567330764, -1.235, 1.01, -1.044], a = 0.2, v = 0.2, t = 0.2)
movej(p[0.417616827954445, 0.0835986011611942, 0.344659490085313, -1.235, 1.01, -1.044], a = 0.2, v = 0.2, t = 0.2)
movej(p[0.417693288239162, 0.0836533746704047, 0.343404710193241, -1.235, 1.01, -1.044], a = 0.2, v = 0.2, t = 0.2)
movej(p[0.417729139441565, 0.0836790572345262, 0.342816360724654, -1.235, 1.01, -1.044], a = 0.2, v = 0.2, t = 0.2)
movej(p[0.417711402211088, 0.0836663508947515, 0.343107444131231, -1.235, 1.01, -1.044], a = 0.2, v = 0.2, t = 0.2)
movej(p[0.417661313827799, 0.0836304693055898, 0.343929438143021, -1.235, 1.01, -1.044], a = 0.2, v = 0.2, t = 0.2)
movej(p[0.417589830176093, 0.0835792608845176, 0.345102547151234, -1.235, 1.01, -1.044], a = 0.2, v = 0.2, t = 0.2)
movej(p[0.417504601537974, 0.0835182060295398, 0.346501223362488, -1.235, 1.01, -1.044], a = 0.2, v = 0.2, t = 0.2)
movej(p[0.417442785557967, 0.0834739231948265, 0.34751567745468, -1.235, 1.01, -1.044], a = 0.2, v = 0.2, t = 0.2)
movej(p[0.417403543682523, 0.0834458116695559, 0.34815967082216, -1.235, 1.01, -1.044], a = 0.2, v = 0.2, t = 0.2)
movej(p[0.417385666693121, 0.0834330052113108, 0.348453047794463, -1.235, 1.01, -1.044], a = 0.2, v = 0.2, t = 0.2)
movej(p[0.417339461177347, 0.0833999051744328, 0.349211320567197, -1.235, 1.01, -1.044], a = 0.2, v = 0.2, t = 0.2)
movej(p[0.417314960830213, 0.0833823539712908, 0.349613392610814, -1.235, 1.01, -1.044], a = 0.2, v = 0.2, t = 0.2)
movej(p[0.417311193415723, 0.0833796551255695, 0.349675219165141, -1.235, 1.01, -1.044], a = 0.2, v = 0.2, t = 0.2)
movej(p[0.417309364396753, 0.0833783448795016, 0.349705234960063, -1.235, 1.01, -1.044], a = 0.2, v = 0.2, t = 0.2)
movej(p[0.417293042984948, 0.0833666527833609, 0.349973083548644, -1.235, 1.01, -1.044], a = 0.2, v = 0.2, t = 0.2)
movej(p[0.417287956975387, 0.0833630093416372, 0.350056549396984, -1.235, 1.01, -1.044], a = 0.2, v = 0.2, t = 0.2)
movej(p[0.417291827689951, 0.0833657821879669, 0.349993027598426, -1.235, 1.01, -1.044], a = 0.2, v = 0.2, t = 0.2)
movej(p[0.417286917898164, 0.0833622649825754, 0.350073601559548, -1.235, 1.01, -1.044], a = 0.2, v = 0.2, t = 0.2)
movej(p[0.417271325663357, 0.083351095243671, 0.350329483718259, -1.235, 1.01, -1.044], a = 0.2, v = 0.2, t = 0.2)
movej(p[0.417268731008539, 0.0833492365225049, 0.350372064264545, -1.235, 1.01, -1.044], a = 0.2, v = 0.2, t = 0.2)
movej(p[0.417287689610487, 0.0833628178106505, 0.350060937087936, -1.235, 1.01, -1.044], a = 0.2, v = 0.2, t = 0.2)
movej(p[0.417322282982568, 0.0833875993085393, 0.349493229710874, -1.235, 1.01, -1.044], a = 0.2, v = 0.2, t = 0.2)
movej(p[0.417401903034277, 0.083444636365774, 0.348186595289367, -1.235, 1.01, -1.044], a = 0.2, v = 0.2, t = 0.2)
movej(p[0.417528731220134, 0.0835354917010867, 0.346105234254054, -1.235, 1.01, -1.044], a = 0.2, v = 0.2, t = 0.2)
movej(p[0.417646778899638, 0.0836200569846781, 0.344167968978421, -1.235, 1.01, -1.044], a = 0.2, v = 0.2, t = 0.2)
movej(p[0.417725815609749, 0.0836766761561237, 0.342870907700809, -1.235, 1.01, -1.044], a = 0.2, v = 0.2, t = 0.2)
movej(p[0.417771389172125, 0.0837093234833969, 0.342123005833962, -1.235, 1.01, -1.044], a = 0.2, v = 0.2, t = 0.2)
movej(p[0.417793714141215, 0.0837253163207838, 0.341756633639455, -1.235, 1.01, -1.044], a = 0.2, v = 0.2, t = 0.2)
movej(p[0.417755511342994, 0.0836979491545749, 0.342383574844371, -1.235, 1.01, -1.044], a = 0.2, v = 0.2, t = 0.2)
movej(p[0.417672682912493, 0.0836386137255002, 0.343742861557305, -1.235, 1.01, -1.044], a = 0.2, v = 0.2, t = 0.2)
movej(p[0.417573909811636, 0.0835678560848569, 0.345363814203386, -1.235, 1.01, -1.044], a = 0.2, v = 0.2, t = 0.2)
movej(p[0.417503100648653, 0.0835171308442283, 0.346525854263969, -1.235, 1.01, -1.044], a = 0.2, v = 0.2, t = 0.2)
movej(p[0.417431325326148, 0.0834657134802616, 0.34770374984413, -1.235, 1.01, -1.044], a = 0.2, v = 0.2, t = 0.2)
movej(p[0.417388133741965, 0.0834347725199606, 0.348412561373404, -1.235, 1.01, -1.044], a = 0.2, v = 0.2, t = 0.2)
movej(p[0.417360181957041, 0.0834147488258997, 0.348871274518404, -1.235, 1.01, -1.044], a = 0.2, v = 0.2, t = 0.2)
movej(p[0.417343149597662, 0.0834025474314535, 0.349150790376107, -1.235, 1.01, -1.044], a = 0.2, v = 0.2, t = 0.2)
movej(p[0.417308027572257, 0.0833773872245683, 0.349727173414824, -1.235, 1.01, -1.044], a = 0.2, v = 0.2, t = 0.2)
movej(p[0.417287963051861, 0.0833630136946142, 0.350056449676735, -1.235, 1.01, -1.044], a = 0.2, v = 0.2, t = 0.2)
movej(p[0.417300681114002, 0.0833721244754119, 0.34984773519576, -1.235, 1.01, -1.044], a = 0.2, v = 0.2, t = 0.2)
movej(p[0.417333457620063, 0.0833956044331867, 0.349309844173123, -1.235, 1.01, -1.044], a = 0.2, v = 0.2, t = 0.2)
movej(p[0.41736403444218, 0.0834175086132985, 0.348808051880593, -1.235, 1.01, -1.044], a = 0.2, v = 0.2, t = 0.2)
movej(p[0.417417592492685, 0.0834558757523099, 0.347929117606674, -1.235, 1.01, -1.044], a = 0.2, v = 0.2, t = 0.2)
movej(p[0.417476303393976, 0.0834979342157917, 0.346965620561676, -1.235, 1.01, -1.044], a = 0.2, v = 0.2, t = 0.2)
movej(p[0.41749301370018, 0.0835099049024585, 0.346691389877165, -1.235, 1.01, -1.044], a = 0.2, v = 0.2, t = 0.2)
movej(p[0.417466714716452, 0.0834910652181334, 0.347122979114461, -1.235, 1.01, -1.044], a = 0.2, v = 0.2, t = 0.2)
movej(p[0.417417361586636, 0.0834557103391851, 0.347932906976132, -1.235, 1.01, -1.044], a = 0.2, v = 0.2, t = 0.2)
movej(p[0.417380161406786, 0.0834290614141762, 0.348543394339978, -1.235, 1.01, -1.044], a = 0.2, v = 0.2, t = 0.2)
movej(p[0.417334958509384, 0.0833966796184982, 0.349285213271642, -1.235, 1.01, -1.044], a = 0.2, v = 0.2, t = 0.2)
movej(p[0.417303221080545, 0.0833739440197852, 0.349806052131714, -1.235, 1.01, -1.044], a = 0.2, v = 0.2, t = 0.2)
movej(p[0.417289281646933, 0.0833639582906166, 0.350034810382721, -1.235, 1.01, -1.044], a = 0.2, v = 0.2, t = 0.2)
movej(p[0.417284250325647, 0.0833603540256856, 0.350117378748821, -1.235, 1.01, -1.044], a = 0.2, v = 0.2, t = 0.2)
movej(p[0.417259076097437, 0.0833423200773976, 0.350530509768043, -1.235, 1.01, -1.044], a = 0.2, v = 0.2, t = 0.2)
movej(p[0.417257784238856, 0.0833413946344939, 0.350551710292962, -1.235, 1.01, -1.044], a = 0.2, v = 0.2, t = 0.2)
movej(p[0.417295613333866, 0.0833684940926191, 0.349930901883354, -1.235, 1.01, -1.044], a = 0.2, v = 0.2, t = 0.2)
movej(p[0.417356062107002, 0.0834117975075142, 0.348938884847167, -1.235, 1.01, -1.044], a = 0.2, v = 0.2, t = 0.2)
movej(p[0.417402158246227, 0.0834448191908067, 0.348182407038913, -1.235, 1.01, -1.044], a = 0.2, v = 0.2, t = 0.2)
movej(p[0.417433251568717, 0.083467093373961, 0.347672138525225, -1.235, 1.01, -1.044], a = 0.2, v = 0.2, t = 0.2)
movej(p[0.417437170895082, 0.0834699010441065, 0.347607818964676, -1.235, 1.01, -1.044], a = 0.2, v = 0.2, t = 0.2)
movej(p[0.417400766733456, 0.0834438223590807, 0.348205242975914, -1.235, 1.01, -1.044], a = 0.2, v = 0.2, t = 0.2)
movej(p[0.417343526339111, 0.0834028173160256, 0.349144607720674, -1.235, 1.01, -1.044], a = 0.2, v = 0.2, t = 0.2)
movej(p[0.41730883574343, 0.0833779661705053, 0.349713910621719, -1.235, 1.01, -1.044], a = 0.2, v = 0.2, t = 0.2)
movej(p[0.417293164514447, 0.0833667398429003, 0.349971089143665, -1.235, 1.01, -1.044], a = 0.2, v = 0.2, t = 0.2)
movej(p[0.417270699786433, 0.0833506468870431, 0.350339754903897, -1.235, 1.01, -1.044], a = 0.2, v = 0.2, t = 0.2)
movej(p[0.417244512002197, 0.0833318868621965, 0.350769519260637, -1.235, 1.01, -1.044], a = 0.2, v = 0.2, t = 0.2)
movej(p[0.417238433096623, 0.083327532144036, 0.35086927939765, -1.235, 1.01, -1.044], a = 0.2, v = 0.2, t = 0.2)
movej(p[0.417254847478496, 0.0833392908407244, 0.350599905089261, -1.235, 1.01, -1.044], a = 0.2, v = 0.2, t = 0.2)
movej(p[0.417266276112645, 0.0833474779198091, 0.350412351245106, -1.235, 1.01, -1.044], a = 0.2, v = 0.2, t = 0.2)
movej(p[0.417294227897569, 0.08336750161387, 0.349953638100106, -1.235, 1.01, -1.044], a = 0.2, v = 0.2, t = 0.2)
movej(p[0.417336544469355, 0.0833978157454874, 0.349259186286675, -1.235, 1.01, -1.044], a = 0.2, v = 0.2, t = 0.2)
movej(p[0.417363560477131, 0.0834171690810949, 0.348815830060008, -1.235, 1.01, -1.044], a = 0.2, v = 0.2, t = 0.2)
movej(p[0.417349876255469, 0.083407366176959, 0.34904040006056, -1.235, 1.01, -1.044], a = 0.2, v = 0.2, t = 0.2)
movej(p[0.417324464437087, 0.0833891620272715, 0.349457430141515, -1.235, 1.01, -1.044], a = 0.2, v = 0.2, t = 0.2)
movej(p[0.417300073466504, 0.0833716891777149, 0.349857707220651, -1.235, 1.01, -1.044], a = 0.2, v = 0.2, t = 0.2)
movej(p[0.417275907325494, 0.0833543773883062, 0.350254294650579, -1.235, 1.01, -1.044], a = 0.2, v = 0.2, t = 0.2)
movej(p[0.417238987271142, 0.0833279291355356, 0.350860184910949, -1.235, 1.01, -1.044], a = 0.2, v = 0.2, t = 0.2)
movej(p[0.417219466595257, 0.0833139451970203, 0.351180536210582, -1.235, 1.01, -1.044], a = 0.2, v = 0.2, t = 0.2)
movej(p[0.41721584683911, 0.0833113521286394, 0.35123993956286, -1.235, 1.01, -1.044], a = 0.2, v = 0.2, t = 0.2)
movej(p[0.417199313176033, 0.0832995079830131, 0.351511271379735, -1.235, 1.01, -1.044], a = 0.2, v = 0.2, t = 0.2)
movej(p[0.417176427530596, 0.0832831134964412, 0.351886844761608, -1.235, 1.01, -1.044], a = 0.2, v = 0.2, t = 0.2)
movej(p[0.417191114978279, 0.0832936350770748, 0.351645810947961, -1.235, 1.01, -1.044], a = 0.2, v = 0.2, t = 0.2)
movej(p[0.417237364852321, 0.0833267668906847, 0.350886810217409, -1.235, 1.01, -1.044], a = 0.2, v = 0.2, t = 0.2)
movej(p[0.417277633044389, 0.0833556136337656, 0.350225974099887, -1.235, 1.01, -1.044], a = 0.2, v = 0.2, t = 0.2)
movej(p[0.417303318304145, 0.0833740136674167, 0.349804456607732, -1.235, 1.01, -1.044], a = 0.2, v = 0.2, t = 0.2)
movej(p[0.417307529301308, 0.0833770302804568, 0.349735350475235, -1.235, 1.01, -1.044], a = 0.2, v = 0.2, t = 0.2)
movej(p[0.417296992693687, 0.0833694822183912, 0.34990826538685, -1.235, 1.01, -1.044], a = 0.2, v = 0.2, t = 0.2)
movej(p[0.417254403895822, 0.0833389730734056, 0.350607184667432, -1.235, 1.01, -1.044], a = 0.2, v = 0.2, t = 0.2)
movej(p[0.417223582799411, 0.0833168939036196, 0.351112985713969, -1.235, 1.01, -1.044], a = 0.2, v = 0.2, t = 0.2)
movej(p[0.417207570680182, 0.0833054233740066, 0.351375758541879, -1.235, 1.01, -1.044], a = 0.2, v = 0.2, t = 0.2)
movej(p[0.417197753952552, 0.0832983910091227, 0.351536859595606, -1.235, 1.01, -1.044], a = 0.2, v = 0.2, t = 0.2)
movej(p[0.417169405556105, 0.083278083196255, 0.352002081481252, -1.235, 1.01, -1.044], a = 0.2, v = 0.2, t = 0.2)
movej(p[0.417160088497013, 0.0832714087766673, 0.35215498253891, -1.235, 1.01, -1.044], a = 0.2, v = 0.2, t = 0.2)
movej(p[0.417188844199578, 0.0832920083695812, 0.351683076404979, -1.235, 1.01, -1.044], a = 0.2, v = 0.2, t = 0.2)
movej(p[0.417234372188392, 0.0833246230495271, 0.350935922439999, -1.235, 1.01, -1.044], a = 0.2, v = 0.2, t = 0.2)
movej(p[0.417266063436021, 0.0833473255656152, 0.350415841453818, -1.235, 1.01, -1.044], a = 0.2, v = 0.2, t = 0.2)
movej(p[0.417281570600179, 0.083358434362842, 0.350161355378592, -1.235, 1.01, -1.044], a = 0.2, v = 0.2, t = 0.2)
movej(p[0.417280713817206, 0.0833578205930892, 0.350175415933688, -1.235, 1.01, -1.044], a = 0.2, v = 0.2, t = 0.2)
movej(p[0.417260523513778, 0.0833433569565118, 0.350506756404752, -1.235, 1.01, -1.044], a = 0.2, v = 0.2, t = 0.2)
movej(p[0.417223245555049, 0.0833166523133978, 0.351118520187783, -1.235, 1.01, -1.044], a = 0.2, v = 0.2, t = 0.2)
movej(p[0.417203774402436, 0.0833027038516448, 0.351438058767388, -1.235, 1.01, -1.044], a = 0.2, v = 0.2, t = 0.2)
movej(p[0.41719657991682, 0.0832975499704423, 0.351556126544898, -1.235, 1.01, -1.044], a = 0.2, v = 0.2, t = 0.2)
movej(p[0.417179973153749, 0.0832856534585031, 0.351828657996368, -1.235, 1.01, -1.044], a = 0.2, v = 0.2, t = 0.2)
movej(p[0.417153143693755, 0.0832664337592885, 0.352268952811393, -1.235, 1.01, -1.044], a = 0.2, v = 0.2, t = 0.2)
movej(p[0.417153886846645, 0.0832669661283719, 0.352256757024951, -1.235, 1.01, -1.044], a = 0.2, v = 0.2, t = 0.2)
movej(p[0.417183181532541, 0.0832879518303431, 0.351776005704941, -1.235, 1.01, -1.044], a = 0.2, v = 0.2, t = 0.2)
movej(p[0.41721746925793, 0.0833125143734903, 0.3512133142564, -1.235, 1.01, -1.044], a = 0.2, v = 0.2, t = 0.2)
movej(p[0.417238791608647, 0.0833277889696772, 0.350863395902964, -1.235, 1.01, -1.044], a = 0.2, v = 0.2, t = 0.2)
movej(p[0.417255401045367, 0.0833396873969263, 0.350590820574585, -1.235, 1.01, -1.044], a = 0.2, v = 0.2, t = 0.2)
movej(p[0.41725891020967, 0.0833422012411264, 0.350533232130838, -1.235, 1.01, -1.044], a = 0.2, v = 0.2, t = 0.2)
movej(p[0.417224637067821, 0.0833176491451239, 0.351095684250782, -1.235, 1.01, -1.044], a = 0.2, v = 0.2, t = 0.2)
movej(p[0.417195075442379, 0.0832964722168744, 0.351580816281327, -1.235, 1.01, -1.044], a = 0.2, v = 0.2, t = 0.2)
movej(p[0.417172626087847, 0.083280390274049, 0.351949229749328, -1.235, 1.01, -1.044], a = 0.2, v = 0.2, t = 0.2)
movej(p[0.417168839228637, 0.0832776774988014, 0.352011375408451, -1.235, 1.01, -1.044], a = 0.2, v = 0.2, t = 0.2)
movej(p[0.417147979905314, 0.0832627345994596, 0.35235369507892, -1.235, 1.01, -1.044], a = 0.2, v = 0.2, t = 0.2)
movej(p[0.417130940861812, 0.0832505284167387, 0.352633320628897, -1.235, 1.01, -1.044], a = 0.2, v = 0.2, t = 0.2)
movej(p[0.417131123156062, 0.0832506590060478, 0.352630329021429, -1.235, 1.01, -1.044], a = 0.2, v = 0.2, t = 0.2)
movej(p[0.417146448633618, 0.0832616376492633, 0.352378824581646, -1.235, 1.01, -1.044], a = 0.2, v = 0.2, t = 0.2)
movej(p[0.417153166176712, 0.0832664498653033, 0.352268583846472, -1.235, 1.01, -1.044], a = 0.2, v = 0.2, t = 0.2)
movej(p[0.417170577100482, 0.0832789224502147, 0.351982855417262, -1.235, 1.01, -1.044], a = 0.2, v = 0.2, t = 0.2)
movej(p[0.417191970545957, 0.0832942479762322, 0.351631770336914, -1.235, 1.01, -1.044], a = 0.2, v = 0.2, t = 0.2)
movej(p[0.417205931368761, 0.0833042490278797, 0.351402661070631, -1.235, 1.01, -1.044], a = 0.2, v = 0.2, t = 0.2)
movej(p[0.417192692431185, 0.0832947651098962, 0.351619923571343, -1.235, 1.01, -1.044], a = 0.2, v = 0.2, t = 0.2)
movej(p[0.417174517086862, 0.0832817449204819, 0.351918196807867, -1.235, 1.01, -1.044], a = 0.2, v = 0.2, t = 0.2)
movej(p[0.417166772619495, 0.083276197051334, 0.352045290265106, -1.235, 1.01, -1.044], a = 0.2, v = 0.2, t = 0.2)
movej(p[0.417158743165452, 0.0832704450275662, 0.35217706060202, -1.235, 1.01, -1.044], a = 0.2, v = 0.2, t = 0.2)
movej(p[0.417134683970402, 0.0832532098505521, 0.352571892955566, -1.235, 1.01, -1.044], a = 0.2, v = 0.2, t = 0.2)
movej(p[0.417120416407141, 0.0832429890606271, 0.352806036100014, -1.235, 1.01, -1.044], a = 0.2, v = 0.2, t = 0.2)
movej(p[0.417118277487947, 0.0832414568127338, 0.352841137627631, -1.235, 1.01, -1.044], a = 0.2, v = 0.2, t = 0.2)
movej(p[0.417125751552176, 0.0832468109744066, 0.352718481721468, -1.235, 1.01, -1.044], a = 0.2, v = 0.2, t = 0.2)
movej(p[0.417124688169054, 0.0832460492034369, 0.352735932765028, -1.235, 1.01, -1.044], a = 0.2, v = 0.2, t = 0.2)
movej(p[0.417139371970852, 0.0832565681722843, 0.35249495878353, -1.235, 1.01, -1.044], a = 0.2, v = 0.2, t = 0.2)
movej(p[0.417168106405754, 0.0832771525297789, 0.35202340167047, -1.235, 1.01, -1.044], a = 0.2, v = 0.2, t = 0.2)
movej(p[0.417182768332242, 0.0832876558279092, 0.351782786681868, -1.235, 1.01, -1.044], a = 0.2, v = 0.2, t = 0.2)
movej(p[0.417169293141318, 0.083278002666181, 0.352003926305857, -1.235, 1.01, -1.044], a = 0.2, v = 0.2, t = 0.2)
movej(p[0.417152502625644, 0.0832659745202182, 0.352279473297654, -1.235, 1.01, -1.044], a = 0.2, v = 0.2, t = 0.2)
movej(p[0.417144746005327, 0.0832604179451163, 0.352406766195391, -1.235, 1.01, -1.044], a = 0.2, v = 0.2, t = 0.2)
movej(p[0.417133906181604, 0.0832526526695, 0.352584657147427, -1.235, 1.01, -1.044], a = 0.2, v = 0.2, t = 0.2)
movej(p[0.417112681054487, 0.0832374477209446, 0.35293297997688, -1.235, 1.01, -1.044], a = 0.2, v = 0.2, t = 0.2)
movej(p[0.417105790331856, 0.0832325114450609, 0.353046062739148, -1.235, 1.01, -1.044], a = 0.2, v = 0.2, t = 0.2)
movej(p[0.417113276549035, 0.0832378743126877, 0.352923207392487, -1.235, 1.01, -1.044], a = 0.2, v = 0.2, t = 0.2)
movej(p[0.417121072666439, 0.0832434591821399, 0.352795266313131, -1.235, 1.01, -1.044], a = 0.2, v = 0.2, t = 0.2)
movej(p[0.417117043963525, 0.0832405731584089, 0.352861380838161, -1.235, 1.01, -1.044], a = 0.2, v = 0.2, t = 0.2)
movej(p[0.417128783713193, 0.0832489831099145, 0.352668721317261, -1.235, 1.01, -1.044], a = 0.2, v = 0.2, t = 0.2)
movej(p[0.417165617481601, 0.083275369550412, 0.352064247084425, -1.235, 1.01, -1.044], a = 0.2, v = 0.2, t = 0.2)
movej(p[0.417192674809407, 0.083294752486263, 0.351620212760065, -1.235, 1.01, -1.044], a = 0.2, v = 0.2, t = 0.2)
movej(p[0.417198007888441, 0.0832985729200302, 0.351532692286404, -1.235, 1.01, -1.044], a = 0.2, v = 0.2, t = 0.2)
movej(p[0.417183357750315, 0.0832880780666752, 0.351773113817723, -1.235, 1.01, -1.044], a = 0.2, v = 0.2, t = 0.2)
movej(p[0.417171200546816, 0.0832793690656519, 0.351972624119723, -1.235, 1.01, -1.044], a = 0.2, v = 0.2, t = 0.2)
movej(p[0.417153918444315, 0.0832669887638522, 0.352256238479657, -1.235, 1.01, -1.044], a = 0.2, v = 0.2, t = 0.2)
movej(p[0.41712818214217, 0.0832485521651945, 0.352678593621903, -1.235, 1.01, -1.044], a = 0.2, v = 0.2, t = 0.2)
movej(p[0.417112018718714, 0.0832369732464549, 0.352943849484012, -1.235, 1.01, -1.044], a = 0.2, v = 0.2, t = 0.2)
movej(p[0.417112122018788, 0.0832370472470634, 0.35294215423978, -1.235, 1.01, -1.044], a = 0.2, v = 0.2, t = 0.2)
movej(p[0.41711878183537, 0.0832418181098223, 0.352832860846971, -1.235, 1.01, -1.044], a = 0.2, v = 0.2, t = 0.2)
movej(p[0.41712829151872, 0.0832486305187799, 0.352676798657423, -1.235, 1.01, -1.044], a = 0.2, v = 0.2, t = 0.2)
movej(p[0.417161064986543, 0.0832721083000663, 0.35213895749491, -1.235, 1.01, -1.044], a = 0.2, v = 0.2, t = 0.2)
movej(p[0.417227029983669, 0.0833193633474546, 0.35105641441676, -1.235, 1.01, -1.044], a = 0.2, v = 0.2, t = 0.2)
movej(p[0.417289044664409, 0.0833637885245148, 0.350038699472429, -1.235, 1.01, -1.044], a = 0.2, v = 0.2, t = 0.2)
movej(p[0.417354208782132, 0.0834104698495384, 0.348969299523085, -1.235, 1.01, -1.044], a = 0.2, v = 0.2, t = 0.2)
movej(p[0.417422137695973, 0.0834591317790833, 0.347854526860487, -1.235, 1.01, -1.044], a = 0.2, v = 0.2, t = 0.2)
movej(p[0.417499485146038, 0.0835145408229313, 0.346585187812073, -1.235, 1.01, -1.044], a = 0.2, v = 0.2, t = 0.2)
movej(p[0.417547398151283, 0.0835488640463378, 0.345798893649393, -1.235, 1.01, -1.044], a = 0.2, v = 0.2, t = 0.2)
movej(p[0.41752442299937, 0.0835324054404152, 0.346175935910534, -1.235, 1.01, -1.044], a = 0.2, v = 0.2, t = 0.2)
movej(p[0.417464405655958, 0.0834894110868849, 0.347160872809048, -1.235, 1.01, -1.044], a = 0.2, v = 0.2, t = 0.2)
movej(p[0.417399168620535, 0.0834426775261376, 0.348231469401378, -1.235, 1.01, -1.044], a = 0.2, v = 0.2, t = 0.2)
movej(p[0.417332716290115, 0.0833950733699964, 0.349322010043491, -1.235, 1.01, -1.044], a = 0.2, v = 0.2, t = 0.2)
movej(p[0.417280908264406, 0.0833579598883523, 0.350172224885723, -1.235, 1.01, -1.044], a = 0.2, v = 0.2, t = 0.2)
movej(p[0.417255303821768, 0.0833396177492948, 0.350592416098568, -1.235, 1.01, -1.044], a = 0.2, v = 0.2, t = 0.2)
movej(p[0.417277262379415, 0.0833553481021704, 0.350232057035071, -1.235, 1.01, -1.044], a = 0.2, v = 0.2, t = 0.2)
movej(p[0.417326117238283, 0.0833903460370072, 0.34943030623381, -1.235, 1.01, -1.044], a = 0.2, v = 0.2, t = 0.2)
movej(p[0.417389713625461, 0.0834359042939727, 0.348386634108686, -1.235, 1.01, -1.044], a = 0.2, v = 0.2, t = 0.2)
movej(p[0.417466781557677, 0.0834911131008801, 0.347121882191723, -1.235, 1.01, -1.044], a = 0.2, v = 0.2, t = 0.2)
movej(p[0.417556962522907, 0.0835557156320882, 0.345641933977604, -1.235, 1.01, -1.044], a = 0.2, v = 0.2, t = 0.2)
movej(p[0.417625602384321, 0.0836048868599386, 0.344515494045883, -1.235, 1.01, -1.044], a = 0.2, v = 0.2, t = 0.2)
movej(p[0.417684532038711, 0.0836471020305912, 0.343548407071924, -1.235, 1.01, -1.044], a = 0.2, v = 0.2, t = 0.2)
movej(p[0.417732329590931, 0.0836813425474353, 0.342764007593975, -1.235, 1.01, -1.044], a = 0.2, v = 0.2, t = 0.2)
movej(p[0.417775788540014, 0.083712475038723, 0.342050808373749, -1.235, 1.01, -1.044], a = 0.2, v = 0.2, t = 0.2)
movej(p[0.417781713103122, 0.0837167191912685, 0.341953581131058, -1.235, 1.01, -1.044], a = 0.2, v = 0.2, t = 0.2)
movej(p[0.417749064203036, 0.08369333064601, 0.342489378028468, -1.235, 1.01, -1.044], a = 0.2, v = 0.2, t = 0.2)
movej(p[0.417692291697265, 0.0836526607821816, 0.343421064314062, -1.235, 1.01, -1.044], a = 0.2, v = 0.2, t = 0.2)
movej(p[0.417612939010455, 0.0835958152559336, 0.344723311044618, -1.235, 1.01, -1.044], a = 0.2, v = 0.2, t = 0.2)
movej(p[0.417509292576661, 0.0835215665277605, 0.346424239330327, -1.235, 1.01, -1.044], a = 0.2, v = 0.2, t = 0.2)
movej(p[0.417435208193662, 0.0834684950325452, 0.347640028605075, -1.235, 1.01, -1.044], a = 0.2, v = 0.2, t = 0.2)
movej(p[0.417389519178261, 0.0834357649987097, 0.348389825156652, -1.235, 1.01, -1.044], a = 0.2, v = 0.2, t = 0.2)
movej(p[0.417380720442485, 0.0834294618880575, 0.348534220077078, -1.235, 1.01, -1.044], a = 0.2, v = 0.2, t = 0.2)
movej(p[0.417386760458619, 0.0834337887471654, 0.348435098149658, -1.235, 1.01, -1.044], a = 0.2, v = 0.2, t = 0.2)
movej(p[0.417437760313155, 0.0834703232828725, 0.347598146100531, -1.235, 1.01, -1.044], a = 0.2, v = 0.2, t = 0.2)
movej(p[0.417538569033132, 0.0835425391708008, 0.345943787171064, -1.235, 1.01, -1.044], a = 0.2, v = 0.2, t = 0.2)
movej(p[0.417640799648255, 0.0836157736553399, 0.344266093703351, -1.235, 1.01, -1.044], a = 0.2, v = 0.2, t = 0.2)
movej(p[0.417713559359707, 0.0836678962015757, 0.343072043442867, -1.235, 1.01, -1.044], a = 0.2, v = 0.2, t = 0.2)
movej(p[0.417772252031573, 0.0837099416061266, 0.342108845558616, -1.235, 1.01, -1.044], a = 0.2, v = 0.2, t = 0.2)
movej(p[0.417821198037565, 0.083745004835618, 0.341305598953622, -1.235, 1.01, -1.044], a = 0.2, v = 0.2, t = 0.2)
movej(p[0.417843924054004, 0.0837612849694849, 0.340932645222687, -1.235, 1.01, -1.044], a = 0.2, v = 0.2, t = 0.2)
movej(p[0.417815364621581, 0.083740825977727, 0.341401330392578, -1.235, 1.01, -1.044], a = 0.2, v = 0.2, t = 0.2)
movej(p[0.417769487235456, 0.0837079610016054, 0.342154218271871, -1.235, 1.01, -1.044], a = 0.2, v = 0.2, t = 0.2)
movej(p[0.417721398012436, 0.0836735115418667, 0.342943404321769, -1.235, 1.01, -1.044], a = 0.2, v = 0.2, t = 0.2)
movej(p[0.417652533321448, 0.0836241792538685, 0.3440735339027, -1.235, 1.01, -1.044], a = 0.2, v = 0.2, t = 0.2)
movej(p[0.417565408823134, 0.0835617662700762, 0.345503322831615, -1.235, 1.01, -1.044], a = 0.2, v = 0.2, t = 0.2)
movej(p[0.417488997150216, 0.0835070275846815, 0.346757304961697, -1.235, 1.01, -1.044], a = 0.2, v = 0.2, t = 0.2)
movej(p[0.417438720396203, 0.0834710110532338, 0.347582390301203, -1.235, 1.01, -1.044], a = 0.2, v = 0.2, t = 0.2)
movej(p[0.417386857682218, 0.0834338583947969, 0.348433502625676, -1.235, 1.01, -1.044], a = 0.2, v = 0.2, t = 0.2)
movej(p[0.417355229629929, 0.0834112011496693, 0.348952546521268, -1.235, 1.01, -1.044], a = 0.2, v = 0.2, t = 0.2)
movej(p[0.417366616944048, 0.0834193586285107, 0.348765670774805, -1.235, 1.01, -1.044], a = 0.2, v = 0.2, t = 0.2)
movej(p[0.417430419931375, 0.0834650648866931, 0.347718608161218, -1.235, 1.01, -1.044], a = 0.2, v = 0.2, t = 0.2)
movej(p[0.417496531979196, 0.083512425276124, 0.346633651853044, -1.235, 1.01, -1.044], a = 0.2, v = 0.2, t = 0.2)
movej(p[0.417566052929482, 0.083562227685635, 0.34549275248523, -1.235, 1.01, -1.044], a = 0.2, v = 0.2, t = 0.2)
movej(p[0.417620893116209, 0.083601513302787, 0.34459277723879, -1.235, 1.01, -1.044], a = 0.2, v = 0.2, t = 0.2)
movej(p[0.417652272033024, 0.0836239920758588, 0.344077821873404, -1.235, 1.01, -1.044], a = 0.2, v = 0.2, t = 0.2)
movej(p[0.417644627827494, 0.0836185160308309, 0.344203269946536, -1.235, 1.01, -1.044], a = 0.2, v = 0.2, t = 0.2)
movej(p[0.417636983621965, 0.0836130399858029, 0.344328718019669, -1.235, 1.01, -1.044], a = 0.2, v = 0.2, t = 0.2)
movej(p[0.417636096456617, 0.0836124044511653, 0.34434327717601, -1.235, 1.01, -1.044], a = 0.2, v = 0.2, t = 0.2)
movej(p[0.417628190962664, 0.0836067412281277, 0.344473013219846, -1.235, 1.01, -1.044], a = 0.2, v = 0.2, t = 0.2)
movej(p[0.417615855718447, 0.0835979046848791, 0.344675445325139, -1.235, 1.01, -1.044], a = 0.2, v = 0.2, t = 0.2)
movej(p[0.417624727371923, 0.0836042600312549, 0.344529853761726, -1.235, 1.01, -1.044], a = 0.2, v = 0.2, t = 0.2)
movej(p[0.417638612117261, 0.0836142065836308, 0.34430199299296, -1.235, 1.01, -1.044], a = 0.2, v = 0.2, t = 0.2)
movej(p[0.417624326324574, 0.0836039727347749, 0.344536435298155, -1.235, 1.01, -1.044], a = 0.2, v = 0.2, t = 0.2)
movej(p[0.417584482878107, 0.0835754302647842, 0.345190300970277, -1.235, 1.01, -1.044], a = 0.2, v = 0.2, t = 0.2)
movej(p[0.417528712990709, 0.0835354786421558, 0.346105533414801, -1.235, 1.01, -1.044], a = 0.2, v = 0.2, t = 0.2)
movej(p[0.417477409312423, 0.0834987264576002, 0.346947471476374, -1.235, 1.01, -1.044], a = 0.2, v = 0.2, t = 0.2)
movej(p[0.417418443199183, 0.0834564851690857, 0.347915156771826, -1.235, 1.01, -1.044], a = 0.2, v = 0.2, t = 0.2)
movej(p[0.417384797757199, 0.0834323827356042, 0.348467307790057, -1.235, 1.01, -1.044], a = 0.2, v = 0.2, t = 0.2)
movej(p[0.417367072679672, 0.0834196851017834, 0.348758191756136, -1.235, 1.01, -1.044], a = 0.2, v = 0.2, t = 0.2)
movej(p[0.417361354716712, 0.0834155889504549, 0.348852028510364, -1.235, 1.01, -1.044], a = 0.2, v = 0.2, t = 0.2)
movej(p[0.417368913851592, 0.0834210040538052, 0.348727976520716, -1.235, 1.01, -1.044], a = 0.2, v = 0.2, t = 0.2)
movej(p[0.41741555079709, 0.0834544131520481, 0.347962623610308, -1.235, 1.01, -1.044], a = 0.2, v = 0.2, t = 0.2)
movej(p[0.41750053637621, 0.0835152938879471, 0.346567936209011, -1.235, 1.01, -1.044], a = 0.2, v = 0.2, t = 0.2)
movej(p[0.417578892521123, 0.083571425525972, 0.345282043599277, -1.235, 1.01, -1.044], a = 0.2, v = 0.2, t = 0.2)
movej(p[0.417650582772978, 0.0836227819482612, 0.344105544102601, -1.235, 1.01, -1.044], a = 0.2, v = 0.2, t = 0.2)
movej(p[0.417679482488, 0.0836434847067294, 0.343631274598771, -1.235, 1.01, -1.044], a = 0.2, v = 0.2, t = 0.2)
movej(p[0.417655176588066, 0.0836260727988503, 0.344030155594423, -1.235, 1.01, -1.044], a = 0.2, v = 0.2, t = 0.2)
movej(p[0.417573411540687, 0.0835674991407453, 0.345371991263797, -1.235, 1.01, -1.044], a = 0.2, v = 0.2, t = 0.2)
movej(p[0.417502335012805, 0.0835165823691301, 0.346538419015333, -1.235, 1.01, -1.044], a = 0.2, v = 0.2, t = 0.2)
movej(p[0.417448691891651, 0.0834781542884411, 0.347418749372737, -1.235, 1.01, -1.044], a = 0.2, v = 0.2, t = 0.2)
movej(p[0.417407864056236, 0.0834489066361813, 0.348088769725183, -1.235, 1.01, -1.044], a = 0.2, v = 0.2, t = 0.2)
movej(p[0.41736419243053, 0.0834176217906997, 0.348805459154121, -1.235, 1.01, -1.044], a = 0.2, v = 0.2, t = 0.2)
movej(p[0.417341557561216, 0.0834014069514874, 0.349176917081322, -1.235, 1.01, -1.044], a = 0.2, v = 0.2, t = 0.2)
movej(p[0.417326214461883, 0.0833904156846388, 0.349428710709828, -1.235, 1.01, -1.044], a = 0.2, v = 0.2, t = 0.2)
movej(p[0.41730320285112, 0.0833739309608543, 0.349806351292461, -1.235, 1.01, -1.044], a = 0.2, v = 0.2, t = 0.2)
movej(p[0.417289646235432, 0.0833642194692348, 0.350028827167786, -1.235, 1.01, -1.044], a = 0.2, v = 0.2, t = 0.2)
movej(p[0.417319493880551, 0.0833856012921102, 0.349539001305125, -1.235, 1.01, -1.044], a = 0.2, v = 0.2, t = 0.2)
movej(p[0.417381534690133, 0.0834300451869714, 0.348520857563723, -1.235, 1.01, -1.044], a = 0.2, v = 0.2, t = 0.2)
movej(p[0.417441910545569, 0.0834732963661429, 0.347530037170524, -1.235, 1.01, -1.044], a = 0.2, v = 0.2, t = 0.2)
movej(p[0.417493536277029, 0.0835102792584779, 0.346682813935759, -1.235, 1.01, -1.044], a = 0.2, v = 0.2, t = 0.2)
movej(p[0.417503726525576, 0.0835175792008562, 0.346515583078331, -1.235, 1.01, -1.044], a = 0.2, v = 0.2, t = 0.2)
movej(p[0.417477403235948, 0.0834987221046232, 0.346947571196623, -1.235, 1.01, -1.044], a = 0.2, v = 0.2, t = 0.2)
movej(p[0.41740850208611, 0.0834493636987632, 0.348078299099047, -1.235, 1.01, -1.044], a = 0.2, v = 0.2, t = 0.2)
movej(p[0.417369181216491, 0.0834211955847919, 0.348723588829764, -1.235, 1.01, -1.044], a = 0.2, v = 0.2, t = 0.2)
movej(p[0.417342335350014, 0.0834019641325395, 0.349164152889461, -1.235, 1.01, -1.044], a = 0.2, v = 0.2, t = 0.2)
movej(p[0.417323595501165, 0.0833885395515648, 0.349471690137109, -1.235, 1.01, -1.044], a = 0.2, v = 0.2, t = 0.2)
movej(p[0.417280446452307, 0.0833576290621026, 0.35017980362464, -1.235, 1.01, -1.044], a = 0.2, v = 0.2, t = 0.2)
movej(p[0.417263110269179, 0.0833452100188079, 0.350464305494789, -1.235, 1.01, -1.044], a = 0.2, v = 0.2, t = 0.2)
movej(p[0.417278842262911, 0.0833564798761826, 0.350206129770353, -1.235, 1.01, -1.044], a = 0.2, v = 0.2, t = 0.2)
movej(p[0.417313721229317, 0.0833814659639889, 0.349633735541593, -1.235, 1.01, -1.044], a = 0.2, v = 0.2, t = 0.2)
movej(p[0.417341460337616, 0.0834013373038559, 0.349178512605305, -1.235, 1.01, -1.044], a = 0.2, v = 0.2, t = 0.2)
movej(p[0.417379966959587, 0.0834289221189132, 0.348546585387943, -1.235, 1.01, -1.044], a = 0.2, v = 0.2, t = 0.2)
movej(p[0.417426512757961, 0.0834622659225015, 0.347782728281269, -1.235, 1.01, -1.044], a = 0.2, v = 0.2, t = 0.2)
movej(p[0.41743610751196, 0.0834691392731368, 0.347625270008236, -1.235, 1.01, -1.044], a = 0.2, v = 0.2, t = 0.2)
movej(p[0.417409024662958, 0.0834497380547826, 0.348069723157641, -1.235, 1.01, -1.044], a = 0.2, v = 0.2, t = 0.2)
movej(p[0.417369393893116, 0.0834213479389858, 0.348720098621052, -1.235, 1.01, -1.044], a = 0.2, v = 0.2, t = 0.2)
movej(p[0.417343131368237, 0.0834025343725226, 0.349151089536854, -1.235, 1.01, -1.044], a = 0.2, v = 0.2, t = 0.2)
movej(p[0.417305694205863, 0.0833757156814119, 0.349765465990407, -1.235, 1.01, -1.044], a = 0.2, v = 0.2, t = 0.2)
movej(p[0.417274722412872, 0.0833535285577971, 0.350273740099117, -1.235, 1.01, -1.044], a = 0.2, v = 0.2, t = 0.2)
movej(p[0.41725617275769, 0.0833402402250015, 0.350578156102973, -1.235, 1.01, -1.044], a = 0.2, v = 0.2, t = 0.2)
movej(p[0.417258754651911, 0.0833420898049159, 0.35053578496921, -1.235, 1.01, -1.044], a = 0.2, v = 0.2, t = 0.2)
movej(p[0.417250984663349, 0.0833365236532647, 0.350663297251495, -1.235, 1.01, -1.044], a = 0.2, v = 0.2, t = 0.2)
movej(p[0.417260519867893, 0.0833433543447257, 0.350506816236901, -1.235, 1.01, -1.044], a = 0.2, v = 0.2, t = 0.2)
movej(p[0.41730523847024, 0.0833753892081392, 0.349772945009075, -1.235, 1.01, -1.044], a = 0.2, v = 0.2, t = 0.2)
movej(p[0.4173753245327, 0.0834255964445083, 0.348622771658113, -1.235, 1.01, -1.044], a = 0.2, v = 0.2, t = 0.2)
movej(p[0.417444450512112, 0.0834751159105162, 0.347488354106478, -1.235, 1.01, -1.044], a = 0.2, v = 0.2, t = 0.2)
movej(p[0.417518729342311, 0.0835283267009945, 0.346269373783765, -1.235, 1.01, -1.044], a = 0.2, v = 0.2, t = 0.2)
movej(p[0.417594958720979, 0.0835829347970801, 0.345018383261151, -1.235, 1.01, -1.044], a = 0.2, v = 0.2, t = 0.2)
movej(p[0.417632140671403, 0.083609570663158, 0.344408195058052, -1.235, 1.01, -1.044], a = 0.2, v = 0.2, t = 0.2)
movej(p[0.417591167000589, 0.083580218539451, 0.345080608696473, -1.235, 1.01, -1.044], a = 0.2, v = 0.2, t = 0.2)
movej(p[0.417520473290631, 0.0835295760053848, 0.346240754072327, -1.235, 1.01, -1.044], a = 0.2, v = 0.2, t = 0.2)
movej(p[0.417452848200539, 0.0834811317246884, 0.34735054072248, -1.235, 1.01, -1.044], a = 0.2, v = 0.2, t = 0.2)
movej(p[0.417411746923751, 0.083451688188465, 0.348025048486128, -1.235, 1.01, -1.044], a = 0.2, v = 0.2, t = 0.2)
movej(p[0.417357465772723, 0.0834128030451942, 0.348915849469668, -1.235, 1.01, -1.044], a = 0.2, v = 0.2, t = 0.2)
movej(p[0.41732718669788, 0.0833911121609539, 0.349412755470002, -1.235, 1.01, -1.044], a = 0.2, v = 0.2, t = 0.2)
movej(p[0.417306393000487, 0.0833762162737634, 0.349753998161782, -1.235, 1.01, -1.044], a = 0.2, v = 0.2, t = 0.2)
movej(p[0.417297126376137, 0.0833695779838846, 0.349906071541374, -1.235, 1.01, -1.044], a = 0.2, v = 0.2, t = 0.2)
movej(p[0.417286279868291, 0.0833618079199935, 0.350084072185684, -1.235, 1.01, -1.044], a = 0.2, v = 0.2, t = 0.2)
movej(p[0.417306386924012, 0.0833762119207865, 0.349754097882031, -1.235, 1.01, -1.044], a = 0.2, v = 0.2, t = 0.2)
movej(p[0.417369162987066, 0.083421182525861, 0.34872388799051, -1.235, 1.01, -1.044], a = 0.2, v = 0.2, t = 0.2)
movej(p[0.417450077327947, 0.0834791467671902, 0.347396013155985, -1.235, 1.01, -1.044], a = 0.2, v = 0.2, t = 0.2)
movej(p[0.417524501993545, 0.0835324620291158, 0.346174639547298, -1.235, 1.01, -1.044], a = 0.2, v = 0.2, t = 0.2)
movej(p[0.417601733990586, 0.0835877883664014, 0.344907195183613, -1.235, 1.01, -1.044], a = 0.2, v = 0.2, t = 0.2)
movej(p[0.41767559354401, 0.0836406988014687, 0.343695095558075, -1.235, 1.01, -1.044], a = 0.2, v = 0.2, t = 0.2)
movej(p[0.417708303208847, 0.0836641308764969, 0.343158301458177, -1.235, 1.01, -1.044], a = 0.2, v = 0.2, t = 0.2)
movej(p[0.417674724608088, 0.0836400763257621, 0.34370935555367, -1.235, 1.01, -1.044], a = 0.2, v = 0.2, t = 0.2)
movej(p[0.417601260025537, 0.0835874488341977, 0.344914973363028, -1.235, 1.01, -1.044], a = 0.2, v = 0.2, t = 0.2)
movej(p[0.417520169466882, 0.0835293583565364, 0.346245740084773, -1.235, 1.01, -1.044], a = 0.2, v = 0.2, t = 0.2)
movej(p[0.417453832589487, 0.0834818369069575, 0.347334386042156, -1.235, 1.01, -1.044], a = 0.2, v = 0.2, t = 0.2)
movej(p[0.417392751862952, 0.0834380807824576, 0.34833677398423, -1.235, 1.01, -1.044], a = 0.2, v = 0.2, t = 0.2)
movej(p[0.417358036961371, 0.0834132122250294, 0.34890647576627, -1.235, 1.01, -1.044], a = 0.2, v = 0.2, t = 0.2)
movej(p[0.417344541110433, 0.0834035442631795, 0.349127954439106, -1.235, 1.01, -1.044], a = 0.2, v = 0.2, t = 0.2)
movej(p[0.417317069367033, 0.0833838644542993, 0.349578789684442, -1.235, 1.01, -1.044], a = 0.2, v = 0.2, t = 0.2)
movej(p[0.417291481330877, 0.0833655340682797, 0.349998711652614, -1.235, 1.01, -1.044], a = 0.2, v = 0.2, t = 0.2)
movej(p[0.417300334754928, 0.0833718763557246, 0.349853419249948, -1.235, 1.01, -1.044], a = 0.2, v = 0.2, t = 0.2)
movej(p[0.417347075000501, 0.0834053594545759, 0.349086371095309, -1.235, 1.01, -1.044], a = 0.2, v = 0.2, t = 0.2)
movej(p[0.417396780565866, 0.0834409668061885, 0.348270659459201, -1.235, 1.01, -1.044], a = 0.2, v = 0.2, t = 0.2)
movej(p[0.417437201277457, 0.0834699228089913, 0.347607320363431, -1.235, 1.01, -1.044], a = 0.2, v = 0.2, t = 0.2)
movej(p[0.417468823253271, 0.0834925757011419, 0.347088376188088, -1.235, 1.01, -1.044], a = 0.2, v = 0.2, t = 0.2)
movej(p[0.417479985737816, 0.0835005721198354, 0.346905190090835, -1.235, 1.01, -1.044], a = 0.2, v = 0.2, t = 0.2)
movej(p[0.417444098076563, 0.083474863437852, 0.347494137880915, -1.235, 1.01, -1.044], a = 0.2, v = 0.2, t = 0.2)
movej(p[0.417394799635022, 0.0834395477356964, 0.348303168260346, -1.235, 1.01, -1.044], a = 0.2, v = 0.2, t = 0.2)
movej(p[0.417358863361969, 0.0834138042298972, 0.348892913812418, -1.235, 1.01, -1.044], a = 0.2, v = 0.2, t = 0.2)
movej(p[0.417331422000944, 0.0833941461859018, 0.349343250456509, -1.235, 1.01, -1.044], a = 0.2, v = 0.2, t = 0.2)
movej(p[0.41729041187128, 0.083364767944333, 0.350016262416423, -1.235, 1.01, -1.044], a = 0.2, v = 0.2, t = 0.2)
movej(p[0.417262836827805, 0.0833450141348442, 0.35046879290599, -1.235, 1.01, -1.044], a = 0.2, v = 0.2, t = 0.2)
movej(p[0.417251768528622, 0.0833370851872938, 0.350650433339385, -1.235, 1.01, -1.044], a = 0.2, v = 0.2, t = 0.2)
movej(p[0.41725427082102, 0.08333887774321, 0.350609368540883, -1.235, 1.01, -1.044], a = 0.2, v = 0.2, t = 0.2)
movej(p[0.417250271892834, 0.0833360130490662, 0.350674994436693, -1.235, 1.01, -1.044], a = 0.2, v = 0.2, t = 0.2)
movej(p[0.417285338014669, 0.0833611332085632, 0.350099528824265, -1.235, 1.01, -1.044], a = 0.2, v = 0.2, t = 0.2)
movej(p[0.417341709473091, 0.0834015157759116, 0.349174424075099, -1.235, 1.01, -1.044], a = 0.2, v = 0.2, t = 0.2)
movej(p[0.417396993242491, 0.0834411191603825, 0.348267169250489, -1.235, 1.01, -1.044], a = 0.2, v = 0.2, t = 0.2)
movej(p[0.417422727114046, 0.0834595540178494, 0.347844853996342, -1.235, 1.01, -1.044], a = 0.2, v = 0.2, t = 0.2)
movej(p[0.41743214565027, 0.0834663011321525, 0.347690287610527, -1.235, 1.01, -1.044], a = 0.2, v = 0.2, t = 0.2)
movej(p[0.417417331204261, 0.0834556885743002, 0.347933405577377, -1.235, 1.01, -1.044], a = 0.2, v = 0.2, t = 0.2)
movej(p[0.417372790642631, 0.0834237812531119, 0.348664355001909, -1.235, 1.01, -1.044], a = 0.2, v = 0.2, t = 0.2)
movej(p[0.41732529691416, 0.0833897583851163, 0.349443768467413, -1.235, 1.01, -1.044], a = 0.2, v = 0.2, t = 0.2)
movej(p[0.417294756550893, 0.0833678803228664, 0.34994496243845, -1.235, 1.01, -1.044], a = 0.2, v = 0.2, t = 0.2)
movej(p[0.417280580134757, 0.0833577248275959, 0.350177609779164, -1.235, 1.01, -1.044], a = 0.2, v = 0.2, t = 0.2)
movej(p[0.417249550615253, 0.0833354963506999, 0.350686831230239, -1.235, 1.01, -1.044], a = 0.2, v = 0.2, t = 0.2)
movej(p[0.417229258227046, 0.0833209595841094, 0.351019847001484, -1.235, 1.01, -1.044], a = 0.2, v = 0.2, t = 0.2)
movej(p[0.417230559807987, 0.0833218919917763, 0.350998486924167, -1.235, 1.01, -1.044], a = 0.2, v = 0.2, t = 0.2)
movej(p[0.417257607413434, 0.0833412679628641, 0.350554612152205, -1.235, 1.01, -1.044], a = 0.2, v = 0.2, t = 0.2)
movej(p[0.417278951639461, 0.083356558229768, 0.350204334805873, -1.235, 1.01, -1.044], a = 0.2, v = 0.2, t = 0.2)
movej(p[0.417318084138355, 0.0833845914014532, 0.349562136402873, -1.235, 1.01, -1.044], a = 0.2, v = 0.2, t = 0.2)
movej(p[0.417361865140611, 0.0834159546005203, 0.348843652009455, -1.235, 1.01, -1.044], a = 0.2, v = 0.2, t = 0.2)
movej(p[0.417388467948089, 0.0834350119336939, 0.348407076759714, -1.235, 1.01, -1.044], a = 0.2, v = 0.2, t = 0.2)
movej(p[0.417367856544945, 0.0834202466358125, 0.348745327844027, -1.235, 1.01, -1.044], a = 0.2, v = 0.2, t = 0.2)
movej(p[0.417332096489667, 0.0833946293663455, 0.34933218150888, -1.235, 1.01, -1.044], a = 0.2, v = 0.2, t = 0.2)
movej(p[0.417308817514005, 0.0833779531115744, 0.349714209782466, -1.235, 1.01, -1.044], a = 0.2, v = 0.2, t = 0.2)
movej(p[0.41727925546321, 0.0833567758786165, 0.350199348793427, -1.235, 1.01, -1.044], a = 0.2, v = 0.2, t = 0.2)
movej(p[0.417250007566172, 0.083335823694568, 0.35067933226752, -1.235, 1.01, -1.044], a = 0.2, v = 0.2, t = 0.2)
movej(p[0.417226983802459, 0.0833193302648296, 0.351057172290652, -1.235, 1.01, -1.044], a = 0.2, v = 0.2, t = 0.2)
movej(p[0.417221591538559, 0.0833154674330666, 0.351145664039537, -1.235, 1.01, -1.044], a = 0.2, v = 0.2, t = 0.2)
movej(p[0.417202852115063, 0.0833020431568003, 0.351453194306768, -1.235, 1.01, -1.044], a = 0.2, v = 0.2, t = 0.2)
movej(p[0.417191378089646, 0.0832938235609776, 0.351641493061183, -1.235, 1.01, -1.044], a = 0.2, v = 0.2, t = 0.2)
movej(p[0.417211005103843, 0.0833078836765899, 0.351319396657194, -1.235, 1.01, -1.044], a = 0.2, v = 0.2, t = 0.2)
movej(p[0.417265613776872, 0.0833470034453194, 0.350423220752237, -1.235, 1.01, -1.044], a = 0.2, v = 0.2, t = 0.2)
movej(p[0.417316516407809, 0.083383468333395, 0.349587864227093, -1.235, 1.01, -1.044], a = 0.2, v = 0.2, t = 0.2)
movej(p[0.417370530193938, 0.0834221619456792, 0.348701450934505, -1.235, 1.01, -1.044], a = 0.2, v = 0.2, t = 0.2)
movej(p[0.417437085824432, 0.0834698401024289, 0.347609215048161, -1.235, 1.01, -1.044], a = 0.2, v = 0.2, t = 0.2)
movej(p[0.417496088396522, 0.0835121075088052, 0.346640931431215, -1.235, 1.01, -1.044], a = 0.2, v = 0.2, t = 0.2)
movej(p[0.417499005104514, 0.0835141969377507, 0.346593065711737, -1.235, 1.01, -1.044], a = 0.2, v = 0.2, t = 0.2)
movej(p[0.417463111366786, 0.0834884839027904, 0.347182113222066, -1.235, 1.01, -1.044], a = 0.2, v = 0.2, t = 0.2)
movej(p[0.417410525552279, 0.0834508132400941, 0.348045092256159, -1.235, 1.01, -1.044], a = 0.2, v = 0.2, t = 0.2)
movej(p[0.417360358174815, 0.0834148750622318, 0.348868382631185, -1.235, 1.01, -1.044], a = 0.2, v = 0.2, t = 0.2)
movej(p[0.417305852194213, 0.0833758288588131, 0.349762873263935, -1.235, 1.01, -1.044], a = 0.2, v = 0.2, t = 0.2)
movej(p[0.417279826651859, 0.0833571850584517, 0.35018997509003, -1.235, 1.01, -1.044], a = 0.2, v = 0.2, t = 0.2)
movej(p[0.417265729229897, 0.0833470861518818, 0.350421326067508, -1.235, 1.01, -1.044], a = 0.2, v = 0.2, t = 0.2)
