def moving():
set_payload_mass(0)
set_tcp(p[0,0,0,0,0,0])
movej(p[0.4182, 0.2183, 0.3111, -1.405, 0.76, -0.761], a = 0.2, v = 0.2, t = 0.2)
movej(p[0.418197081867971, 0.218294813761932, 0.311319679675867, -1.405, 0.76, -0.761], a = 0.2, v = 0.2, t = 0.2)
movej(p[0.418194163735941, 0.218289627523865, 0.311539359351735, -1.405, 0.76, -0.761], a = 0.2, v = 0.2, t = 0.2)
movej(p[0.418191245603911, 0.218284441285797, 0.311759039027602, -1.405, 0.76, -0.761], a = 0.2, v = 0.2, t = 0.2)
movej(p[0.418188327471882, 0.218279255047729, 0.311978718703469, -1.405, 0.76, -0.761], a = 0.2, v = 0.2, t = 0.2)
movej(p[0.418185409339852, 0.218274068809662, 0.312198398379337, -1.405, 0.76, -0.761], a = 0.2, v = 0.2, t = 0.2)
movej(p[0.418182491207823, 0.218268882571594, 0.312418078055204, -1.405, 0.76, -0.761], a = 0.2, v = 0.2, t = 0.2)
movej(p[0.418179573075793, 0.218263696333526, 0.312637757731071, -1.405, 0.76, -0.761], a = 0.2, v = 0.2, t = 0.2)
movej(p[0.418176654943764, 0.218258510095459, 0.312857437406938, -1.405, 0.76, -0.761], a = 0.2, v = 0.2, t = 0.2)
movej(p[0.418173736811734, 0.218253323857391, 0.313077117082806, -1.405, 0.76, -0.761], a = 0.2, v = 0.2, t = 0.2)
movej(p[0.418170818679705, 0.218248137619323, 0.313296796758673, -1.405, 0.76, -0.761], a = 0.2, v = 0.2, t = 0.2)
movej(p[0.418178478173363, 0.218261750422714, 0.312720182997884, -1.405, 0.76, -0.761], a = 0.2, v = 0.2, t = 0.2)
movej(p[0.418182749257515, 0.21826934118934, 0.312398651835933, -1.405, 0.76, -0.761], a = 0.2, v = 0.2, t = 0.2)
movej(p[0.418186487360528, 0.218275984717444, 0.312117243986681, -1.405, 0.76, -0.761], a = 0.2, v = 0.2, t = 0.2)
movej(p[0.41818780413746, 0.218278324953795, 0.312018115802364, -1.405, 0.76, -0.761], a = 0.2, v = 0.2, t = 0.2)
movej(p[0.418188214122952, 0.218279053598813, 0.311987251715672, -1.405, 0.76, -0.761], a = 0.2, v = 0.2, t = 0.2)
movej(p[0.418188612050047, 0.218279760813095, 0.311957295396236, -1.405, 0.76, -0.761], a = 0.2, v = 0.2, t = 0.2)
movej(p[0.418190085586138, 0.218282379649011, 0.311846366237595, -1.405, 0.76, -0.761], a = 0.2, v = 0.2, t = 0.2)
movej(p[0.418188715752259, 0.218279945117423, 0.311949488597837, -1.405, 0.76, -0.761], a = 0.2, v = 0.2, t = 0.2)
movej(p[0.418179710541517, 0.218263940643915, 0.312627409184357, -1.405, 0.76, -0.761], a = 0.2, v = 0.2, t = 0.2)
movej(p[0.418167833020653, 0.218242831369135, 0.313521559931172, -1.405, 0.76, -0.761], a = 0.2, v = 0.2, t = 0.2)
movej(p[0.418154906419266, 0.218219857620339, 0.314494686429229, -1.405, 0.76, -0.761], a = 0.2, v = 0.2, t = 0.2)
movej(p[0.418137597796476, 0.218189095942148, 0.315797695547989, -1.405, 0.76, -0.761], a = 0.2, v = 0.2, t = 0.2)
movej(p[0.418123219364113, 0.21816354193276, 0.316880117223626, -1.405, 0.76, -0.761], a = 0.2, v = 0.2, t = 0.2)
movej(p[0.418120149296283, 0.218158085667421, 0.317111234766914, -1.405, 0.76, -0.761], a = 0.2, v = 0.2, t = 0.2)
movej(p[0.418134957007574, 0.218184402611004, 0.315996496576976, -1.405, 0.76, -0.761], a = 0.2, v = 0.2, t = 0.2)
movej(p[0.418155280229567, 0.21822052197315, 0.314466545644304, -1.405, 0.76, -0.761], a = 0.2, v = 0.2, t = 0.2)
movej(p[0.418170148232842, 0.218246946070412, 0.313347268618087, -1.405, 0.76, -0.761], a = 0.2, v = 0.2, t = 0.2)
movej(p[0.418181198547684, 0.218266585196714, 0.31251539070501, -1.405, 0.76, -0.761], a = 0.2, v = 0.2, t = 0.2)
movej(p[0.418184953532453, 0.218273258727848, 0.3122327119816, -1.405, 0.76, -0.761], a = 0.2, v = 0.2, t = 0.2)
movej(p[0.418186620002893, 0.218276220455538, 0.312107258546869, -1.405, 0.76, -0.761], a = 0.2, v = 0.2, t = 0.2)
movej(p[0.418188609638367, 0.218279756526947, 0.311957476949687, -1.405, 0.76, -0.761], a = 0.2, v = 0.2, t = 0.2)
movej(p[0.418188829101189, 0.218280146566339, 0.311940955585634, -1.405, 0.76, -0.761], a = 0.2, v = 0.2, t = 0.2)
movej(p[0.418185136820084, 0.218273584475032, 0.312218913919314, -1.405, 0.76, -0.761], a = 0.2, v = 0.2, t = 0.2)
movej(p[0.418174277027912, 0.218254283954355, 0.313036449109753, -1.405, 0.76, -0.761], a = 0.2, v = 0.2, t = 0.2)
movej(p[0.418160597982563, 0.218229972927645, 0.314066220284562, -1.405, 0.76, -0.761], a = 0.2, v = 0.2, t = 0.2)
movej(p[0.41814443973083, 0.21820125574165, 0.315282628407133, -1.405, 0.76, -0.761], a = 0.2, v = 0.2, t = 0.2)
movej(p[0.418129224445727, 0.218174214439196, 0.316428049130312, -1.405, 0.76, -0.761], a = 0.2, v = 0.2, t = 0.2)
movej(p[0.418121017500854, 0.218159628680399, 0.317045875524507, -1.405, 0.76, -0.761], a = 0.2, v = 0.2, t = 0.2)
movej(p[0.418127890787039, 0.218171844199815, 0.316528448188787, -1.405, 0.76, -0.761], a = 0.2, v = 0.2, t = 0.2)
movej(p[0.418146388367755, 0.218204718948558, 0.31513593321862, -1.405, 0.76, -0.761], a = 0.2, v = 0.2, t = 0.2)
movej(p[0.41816454831336, 0.218236993636698, 0.313768835731611, -1.405, 0.76, -0.761], a = 0.2, v = 0.2, t = 0.2)
movej(p[0.418178343119318, 0.218261510398473, 0.312730349991147, -1.405, 0.76, -0.761], a = 0.2, v = 0.2, t = 0.2)
movej(p[0.418183540288346, 0.21827074704561, 0.312339102303962, -1.405, 0.76, -0.761], a = 0.2, v = 0.2, t = 0.2)
movej(p[0.418186246192591, 0.218275556102727, 0.312135399331794, -1.405, 0.76, -0.761], a = 0.2, v = 0.2, t = 0.2)
movej(p[0.418187835489292, 0.218278380673708, 0.3120157556075, -1.405, 0.76, -0.761], a = 0.2, v = 0.2, t = 0.2)
movej(p[0.418189120914392, 0.218280665190146, 0.311918987618047, -1.405, 0.76, -0.761], a = 0.2, v = 0.2, t = 0.2)
movej(p[0.418188026011962, 0.218278719279334, 0.312001412884861, -1.405, 0.76, -0.761], a = 0.2, v = 0.2, t = 0.2)
movej(p[0.418180279697847, 0.218264952174645, 0.31258456256989, -1.405, 0.76, -0.761], a = 0.2, v = 0.2, t = 0.2)
movej(p[0.41816867710843, 0.218244331520642, 0.313458016223276, -1.405, 0.76, -0.761], a = 0.2, v = 0.2, t = 0.2)
movej(p[0.418151197256406, 0.218213265526002, 0.314773915637067, -1.405, 0.76, -0.761], a = 0.2, v = 0.2, t = 0.2)
movej(p[0.418135851740617, 0.218185992771601, 0.315929140246607, -1.405, 0.76, -0.761], a = 0.2, v = 0.2, t = 0.2)
movej(p[0.418124806249134, 0.218166362217593, 0.316760655052782, -1.405, 0.76, -0.761], a = 0.2, v = 0.2, t = 0.2)
movej(p[0.418120600280324, 0.21815888717694, 0.317077284271553, -1.405, 0.76, -0.761], a = 0.2, v = 0.2, t = 0.2)
movej(p[0.418130488165713, 0.21817646038031, 0.31633291512192, -1.405, 0.76, -0.761], a = 0.2, v = 0.2, t = 0.2)
movej(p[0.418151742295942, 0.218214234195261, 0.314732884557111, -1.405, 0.76, -0.761], a = 0.2, v = 0.2, t = 0.2)
movej(p[0.418170396635816, 0.21824738754357, 0.313328568612621, -1.405, 0.76, -0.761], a = 0.2, v = 0.2, t = 0.2)
movej(p[0.418178929157403, 0.218262551932234, 0.312686232502523, -1.405, 0.76, -0.761], a = 0.2, v = 0.2, t = 0.2)
movej(p[0.418183863453381, 0.21827132138933, 0.312314774141511, -1.405, 0.76, -0.761], a = 0.2, v = 0.2, t = 0.2)
movej(p[0.418186849112432, 0.218276627639518, 0.312090010969012, -1.405, 0.76, -0.761], a = 0.2, v = 0.2, t = 0.2)
movej(p[0.418188520406231, 0.218279597939502, 0.311964194427379, -1.405, 0.76, -0.761], a = 0.2, v = 0.2, t = 0.2)
movej(p[0.418188795337678, 0.218280086560279, 0.31194349733395, -1.405, 0.76, -0.761], a = 0.2, v = 0.2, t = 0.2)
movej(p[0.418185443103364, 0.218274128815722, 0.312195856631021, -1.405, 0.76, -0.761], a = 0.2, v = 0.2, t = 0.2)
movej(p[0.418174643603175, 0.218254935448724, 0.313008852985181, -1.405, 0.76, -0.761], a = 0.2, v = 0.2, t = 0.2)
movej(p[0.41815723851321, 0.218224002324646, 0.314319124241986, -1.405, 0.76, -0.761], a = 0.2, v = 0.2, t = 0.2)
movej(p[0.41814034711095, 0.218193982149914, 0.315590724613701, -1.405, 0.76, -0.761], a = 0.2, v = 0.2, t = 0.2)
movej(p[0.418129424615114, 0.218174570189411, 0.316412980193868, -1.405, 0.76, -0.761], a = 0.2, v = 0.2, t = 0.2)
movej(p[0.418119271444995, 0.218156525509853, 0.317177320223126, -1.405, 0.76, -0.761], a = 0.2, v = 0.2, t = 0.2)
movej(p[0.418122495860304, 0.218162256088611, 0.316934583258965, -1.405, 0.76, -0.761], a = 0.2, v = 0.2, t = 0.2)
movej(p[0.418144200974573, 0.218200831413081, 0.315300602198795, -1.405, 0.76, -0.761], a = 0.2, v = 0.2, t = 0.2)
movej(p[0.418166287134181, 0.218240083948803, 0.313637935693346, -1.405, 0.76, -0.761], a = 0.2, v = 0.2, t = 0.2)
movej(p[0.418177262686963, 0.218259590204544, 0.312811685937254, -1.405, 0.76, -0.761], a = 0.2, v = 0.2, t = 0.2)
movej(p[0.418182780609346, 0.218269396909254, 0.312396291641068, -1.405, 0.76, -0.761], a = 0.2, v = 0.2, t = 0.2)
movej(p[0.418187027576705, 0.218276944814408, 0.312076576013628, -1.405, 0.76, -0.761], a = 0.2, v = 0.2, t = 0.2)
movej(p[0.418188161066006, 0.218278959303575, 0.311991245891597, -1.405, 0.76, -0.761], a = 0.2, v = 0.2, t = 0.2)
movej(p[0.418188445644171, 0.21827946506894, 0.311969822584364, -1.405, 0.76, -0.761], a = 0.2, v = 0.2, t = 0.2)
movej(p[0.41818572285817, 0.218274626008793, 0.31217479643069, -1.405, 0.76, -0.761], a = 0.2, v = 0.2, t = 0.2)
movej(p[0.418176797232846, 0.218258762978141, 0.312846725753322, -1.405, 0.76, -0.761], a = 0.2, v = 0.2, t = 0.2)
movej(p[0.418160921147598, 0.218230547271365, 0.314041892122111, -1.405, 0.76, -0.761], a = 0.2, v = 0.2, t = 0.2)
movej(p[0.418145587690207, 0.2182032959477, 0.315196208964395, -1.405, 0.76, -0.761], a = 0.2, v = 0.2, t = 0.2)
movej(p[0.41813334359408, 0.218181535178551, 0.316117955835782, -1.405, 0.76, -0.761], a = 0.2, v = 0.2, t = 0.2)
movej(p[0.418121598715581, 0.218160661641866, 0.317002121142785, -1.405, 0.76, -0.761], a = 0.2, v = 0.2, t = 0.2)
movej(p[0.418121044029327, 0.218159675828018, 0.317043878436545, -1.405, 0.76, -0.761], a = 0.2, v = 0.2, t = 0.2)
movej(p[0.41813868064051, 0.218191020422224, 0.315716178048431, -1.405, 0.76, -0.761], a = 0.2, v = 0.2, t = 0.2)
movej(p[0.418161326309731, 0.218231267344088, 0.314011391142321, -1.405, 0.76, -0.761], a = 0.2, v = 0.2, t = 0.2)
movej(p[0.418174650838213, 0.218254948307166, 0.313008308324827, -1.405, 0.76, -0.761], a = 0.2, v = 0.2, t = 0.2)
movej(p[0.41818212222088, 0.218268226791078, 0.312445855733227, -1.405, 0.76, -0.761], a = 0.2, v = 0.2, t = 0.2)
movej(p[0.418187169865788, 0.218277197697091, 0.312065864360012, -1.405, 0.76, -0.761], a = 0.2, v = 0.2, t = 0.2)
movej(p[0.418188163477685, 0.218278963589722, 0.311991064338146, -1.405, 0.76, -0.761], a = 0.2, v = 0.2, t = 0.2)
movej(p[0.418188235828066, 0.218279092174137, 0.311985617734612, -1.405, 0.76, -0.761], a = 0.2, v = 0.2, t = 0.2)
movej(p[0.418186639296328, 0.218276254744715, 0.31210580611926, -1.405, 0.76, -0.761], a = 0.2, v = 0.2, t = 0.2)
movej(p[0.418177472503068, 0.218259963099347, 0.312795890787005, -1.405, 0.76, -0.761], a = 0.2, v = 0.2, t = 0.2)
movej(p[0.418161854467512, 0.218232206010317, 0.313971630936523, -1.405, 0.76, -0.761], a = 0.2, v = 0.2, t = 0.2)
movej(p[0.418147480858507, 0.218206660573223, 0.315053689505258, -1.405, 0.76, -0.761], a = 0.2, v = 0.2, t = 0.2)
movej(p[0.418135137883526, 0.218184724072041, 0.315982880068141, -1.405, 0.76, -0.761], a = 0.2, v = 0.2, t = 0.2)
movej(p[0.418123004724649, 0.218163160465662, 0.316896275480776, -1.405, 0.76, -0.761], a = 0.2, v = 0.2, t = 0.2)
movej(p[0.418119999772163, 0.218157819926296, 0.317122491080884, -1.405, 0.76, -0.761], a = 0.2, v = 0.2, t = 0.2)
movej(p[0.418137284278159, 0.218188538743016, 0.315821297496636, -1.405, 0.76, -0.761], a = 0.2, v = 0.2, t = 0.2)
movej(p[0.418156924994893, 0.218223445125515, 0.314342726190633, -1.405, 0.76, -0.761], a = 0.2, v = 0.2, t = 0.2)
movej(p[0.418171641062368, 0.218249599195506, 0.313234887031838, -1.405, 0.76, -0.761], a = 0.2, v = 0.2, t = 0.2)
movej(p[0.418180887441046, 0.21826603228373, 0.312538811100205, -1.405, 0.76, -0.761], a = 0.2, v = 0.2, t = 0.2)
movej(p[0.418186947991286, 0.218276803371552, 0.312082567277516, -1.405, 0.76, -0.761], a = 0.2, v = 0.2, t = 0.2)
movej(p[0.418188173124403, 0.218278980734311, 0.311990338124342, -1.405, 0.76, -0.761], a = 0.2, v = 0.2, t = 0.2)
movej(p[0.418188727810656, 0.218279966548158, 0.311948580830582, -1.405, 0.76, -0.761], a = 0.2, v = 0.2, t = 0.2)
movej(p[0.418189581545151, 0.218281483844254, 0.311884310908882, -1.405, 0.76, -0.761], a = 0.2, v = 0.2, t = 0.2)
movej(p[0.418186494595566, 0.218275997575885, 0.312116699326328, -1.405, 0.76, -0.761], a = 0.2, v = 0.2, t = 0.2)
movej(p[0.418173324414563, 0.218252590926226, 0.313108162722949, -1.405, 0.76, -0.761], a = 0.2, v = 0.2, t = 0.2)
movej(p[0.418158473293044, 0.218226196831994, 0.314226168875007, -1.405, 0.76, -0.761], a = 0.2, v = 0.2, t = 0.2)
movej(p[0.41814568898074, 0.218203475965881, 0.315188583719448, -1.405, 0.76, -0.761], a = 0.2, v = 0.2, t = 0.2)
movej(p[0.418129793602057, 0.218175225969927, 0.316385202515845, -1.405, 0.76, -0.761], a = 0.2, v = 0.2, t = 0.2)
movej(p[0.418118615468208, 0.218155359677825, 0.317226702761833, -1.405, 0.76, -0.761], a = 0.2, v = 0.2, t = 0.2)
movej(p[0.418124639843258, 0.218166066473439, 0.31677318224091, -1.405, 0.76, -0.761], a = 0.2, v = 0.2, t = 0.2)
movej(p[0.418144128624192, 0.218200702828666, 0.315306048802329, -1.405, 0.76, -0.761], a = 0.2, v = 0.2, t = 0.2)
movej(p[0.41816227892308, 0.218232960372218, 0.313939677529124, -1.405, 0.76, -0.761], a = 0.2, v = 0.2, t = 0.2)
movej(p[0.4181754587508, 0.218256384166466, 0.312947487918699, -1.405, 0.76, -0.761], a = 0.2, v = 0.2, t = 0.2)
movej(p[0.418184292732307, 0.218272084323525, 0.31228245762721, -1.405, 0.76, -0.761], a = 0.2, v = 0.2, t = 0.2)
movej(p[0.41818685875915, 0.218276644784107, 0.312089284755207, -1.405, 0.76, -0.761], a = 0.2, v = 0.2, t = 0.2)
movej(p[0.41818799224845, 0.218278659273274, 0.312003954633176, -1.405, 0.76, -0.761], a = 0.2, v = 0.2, t = 0.2)
movej(p[0.418189764832782, 0.218281809591439, 0.311870512846596, -1.405, 0.76, -0.761], a = 0.2, v = 0.2, t = 0.2)
movej(p[0.418189776891179, 0.218281831022174, 0.31186960507934, -1.405, 0.76, -0.761], a = 0.2, v = 0.2, t = 0.2)
movej(p[0.418186661001442, 0.218276293320039, 0.3121041721382, -1.405, 0.76, -0.761], a = 0.2, v = 0.2, t = 0.2)
movej(p[0.418176172607891, 0.218257652866026, 0.312893748097164, -1.405, 0.76, -0.761], a = 0.2, v = 0.2, t = 0.2)
movej(p[0.418164936593738, 0.218237683706392, 0.313739605625979, -1.405, 0.76, -0.761], a = 0.2, v = 0.2, t = 0.2)
movej(p[0.418149832245886, 0.218210839566707, 0.314876674890406, -1.405, 0.76, -0.761], a = 0.2, v = 0.2, t = 0.2)
movej(p[0.418136498070687, 0.218187141459041, 0.315880483921704, -1.405, 0.76, -0.761], a = 0.2, v = 0.2, t = 0.2)
movej(p[0.41813012400213, 0.218175813172088, 0.316360329693041, -1.405, 0.76, -0.761], a = 0.2, v = 0.2, t = 0.2)
movej(p[0.418138070485631, 0.218189936026992, 0.315762111071567, -1.405, 0.76, -0.761], a = 0.2, v = 0.2, t = 0.2)
movej(p[0.418156199079405, 0.218222154995219, 0.314397373779423, -1.405, 0.76, -0.761], a = 0.2, v = 0.2, t = 0.2)
movej(p[0.418170804209629, 0.21824811190244, 0.31329788607938, -1.405, 0.76, -0.761], a = 0.2, v = 0.2, t = 0.2)
movej(p[0.418182059517217, 0.218268115351252, 0.312450576122956, -1.405, 0.76, -0.761], a = 0.2, v = 0.2, t = 0.2)
movej(p[0.418185631214354, 0.218274463135201, 0.312181695461833, -1.405, 0.76, -0.761], a = 0.2, v = 0.2, t = 0.2)
movej(p[0.418187567792883, 0.218277904911373, 0.312035908040575, -1.405, 0.76, -0.761], a = 0.2, v = 0.2, t = 0.2)
movej(p[0.418189574310113, 0.218281470985813, 0.311884855569235, -1.405, 0.76, -0.761], a = 0.2, v = 0.2, t = 0.2)
movej(p[0.418189798596294, 0.218281869597499, 0.31186797109828, -1.405, 0.76, -0.761], a = 0.2, v = 0.2, t = 0.2)
movej(p[0.418189781714538, 0.218281839594469, 0.311869241972438, -1.405, 0.76, -0.761], a = 0.2, v = 0.2, t = 0.2)
movej(p[0.418186873229226, 0.21827667050099, 0.312088195434501, -1.405, 0.76, -0.761], a = 0.2, v = 0.2, t = 0.2)
movej(p[0.41817795725062, 0.218260824614927, 0.312759398543328, -1.405, 0.76, -0.761], a = 0.2, v = 0.2, t = 0.2)
movej(p[0.418164618252062, 0.218237117934966, 0.313763570681528, -1.405, 0.76, -0.761], a = 0.2, v = 0.2, t = 0.2)
movej(p[0.418151792941208, 0.218214324204351, 0.314729071934638, -1.405, 0.76, -0.761], a = 0.2, v = 0.2, t = 0.2)
movej(p[0.418142040109863, 0.218196991025223, 0.315463274091007, -1.405, 0.76, -0.761], a = 0.2, v = 0.2, t = 0.2)
movej(p[0.418131129672424, 0.218177600495455, 0.316284621903919, -1.405, 0.76, -0.761], a = 0.2, v = 0.2, t = 0.2)
movej(p[0.418130977736624, 0.218177330468184, 0.316296059771341, -1.405, 0.76, -0.761], a = 0.2, v = 0.2, t = 0.2)
movej(p[0.418146928583933, 0.218205679045523, 0.315095265245567, -1.405, 0.76, -0.761], a = 0.2, v = 0.2, t = 0.2)
movej(p[0.418165107822973, 0.21823798802284, 0.313726715330949, -1.405, 0.76, -0.761], a = 0.2, v = 0.2, t = 0.2)
movej(p[0.418176341425447, 0.218257952896327, 0.312881039355585, -1.405, 0.76, -0.761], a = 0.2, v = 0.2, t = 0.2)
movej(p[0.418182763727591, 0.218269366906223, 0.312397562515226, -1.405, 0.76, -0.761], a = 0.2, v = 0.2, t = 0.2)
movej(p[0.418187548499448, 0.218277870622196, 0.312037360468184, -1.405, 0.76, -0.761], a = 0.2, v = 0.2, t = 0.2)
movej(p[0.418189002742104, 0.218280455168935, 0.311927883737153, -1.405, 0.76, -0.761], a = 0.2, v = 0.2, t = 0.2)
movej(p[0.418189711775836, 0.218281715296201, 0.311874507022521, -1.405, 0.76, -0.761], a = 0.2, v = 0.2, t = 0.2)
movej(p[0.418190025294154, 0.218282272495332, 0.311850905073874, -1.405, 0.76, -0.761], a = 0.2, v = 0.2, t = 0.2)
movej(p[0.418191660412762, 0.218285178503109, 0.311727811834008, -1.405, 0.76, -0.761], a = 0.2, v = 0.2, t = 0.2)
movej(p[0.41819163147261, 0.218285127069343, 0.311729990475421, -1.405, 0.76, -0.761], a = 0.2, v = 0.2, t = 0.2)
movej(p[0.4181878813112, 0.218278462110504, 0.312012306091928, -1.405, 0.76, -0.761], a = 0.2, v = 0.2, t = 0.2)
movej(p[0.418179647837854, 0.218263829204088, 0.312632129574086, -1.405, 0.76, -0.761], a = 0.2, v = 0.2, t = 0.2)
movej(p[0.418169451257506, 0.218245707373882, 0.313399737565464, -1.405, 0.76, -0.761], a = 0.2, v = 0.2, t = 0.2)
movej(p[0.418156707943751, 0.21822305937227, 0.314359066001235, -1.405, 0.76, -0.761], a = 0.2, v = 0.2, t = 0.2)
movej(p[0.418146004910737, 0.218204037451159, 0.31516480021735, -1.405, 0.76, -0.761], a = 0.2, v = 0.2, t = 0.2)
movej(p[0.418137040698543, 0.218188105842153, 0.3158396343952, -1.405, 0.76, -0.761], a = 0.2, v = 0.2, t = 0.2)
movej(p[0.418131091085554, 0.218177531917101, 0.316287526759137, -1.405, 0.76, -0.761], a = 0.2, v = 0.2, t = 0.2)
movej(p[0.418142655088101, 0.218198083992749, 0.315416977960969, -1.405, 0.76, -0.761], a = 0.2, v = 0.2, t = 0.2)
movej(p[0.4181606872147, 0.21823013151509, 0.31405950280687, -1.405, 0.76, -0.761], a = 0.2, v = 0.2, t = 0.2)
movej(p[0.418176445127659, 0.218258137200655, 0.312873232557187, -1.405, 0.76, -0.761], a = 0.2, v = 0.2, t = 0.2)
movej(p[0.418183149596289, 0.21827005268977, 0.312368513963045, -1.405, 0.76, -0.761], a = 0.2, v = 0.2, t = 0.2)
movej(p[0.418186906992737, 0.21827673050705, 0.312085653686185, -1.405, 0.76, -0.761], a = 0.2, v = 0.2, t = 0.2)
movej(p[0.418189656307211, 0.218281616714816, 0.311878682751897, -1.405, 0.76, -0.761], a = 0.2, v = 0.2, t = 0.2)
movej(p[0.41819037981102, 0.218282902558965, 0.311824216716558, -1.405, 0.76, -0.761], a = 0.2, v = 0.2, t = 0.2)
movej(p[0.418190787384832, 0.218283626917836, 0.311793534183317, -1.405, 0.76, -0.761], a = 0.2, v = 0.2, t = 0.2)
movej(p[0.418190770503077, 0.218283596914806, 0.311794805057475, -1.405, 0.76, -0.761], a = 0.2, v = 0.2, t = 0.2)
movej(p[0.418191899169019, 0.218285602831678, 0.311709838042346, -1.405, 0.76, -0.761], a = 0.2, v = 0.2, t = 0.2)
movej(p[0.418189899886827, 0.21828204961568, 0.311860345853332, -1.405, 0.76, -0.761], a = 0.2, v = 0.2, t = 0.2)
movej(p[0.418180434045326, 0.218265226488064, 0.312572943149018, -1.405, 0.76, -0.761], a = 0.2, v = 0.2, t = 0.2)
movej(p[0.418170112057651, 0.218246881778204, 0.313349991919854, -1.405, 0.76, -0.761], a = 0.2, v = 0.2, t = 0.2)
movej(p[0.418157976487096, 0.218225313885678, 0.31426356888594, -1.405, 0.76, -0.761], a = 0.2, v = 0.2, t = 0.2)
movej(p[0.41814436496877, 0.218201122871088, 0.315288256564118, -1.405, 0.76, -0.761], a = 0.2, v = 0.2, t = 0.2)
movej(p[0.418134038157736, 0.218182769588934, 0.316065668441857, -1.405, 0.76, -0.761], a = 0.2, v = 0.2, t = 0.2)
movej(p[0.418133336359041, 0.21818152232011, 0.316118500496135, -1.405, 0.76, -0.761], a = 0.2, v = 0.2, t = 0.2)
movej(p[0.418147878785602, 0.218207367787505, 0.315023733185822, -1.405, 0.76, -0.761], a = 0.2, v = 0.2, t = 0.2)
movej(p[0.418163465469326, 0.218235069156622, 0.313850353231168, -1.405, 0.76, -0.761], a = 0.2, v = 0.2, t = 0.2)
movej(p[0.418175748152323, 0.218256898504125, 0.312925701504563, -1.405, 0.76, -0.761], a = 0.2, v = 0.2, t = 0.2)
movej(p[0.41818420832353, 0.218271934308374, 0.312288811997999, -1.405, 0.76, -0.761], a = 0.2, v = 0.2, t = 0.2)
movej(p[0.418187461678991, 0.218277716320898, 0.312043896392425, -1.405, 0.76, -0.761], a = 0.2, v = 0.2, t = 0.2)
movej(p[0.418189031682256, 0.218280506602701, 0.311925705095739, -1.405, 0.76, -0.761], a = 0.2, v = 0.2, t = 0.2)
movej(p[0.418191228722156, 0.218284411282767, 0.31176030990176, -1.405, 0.76, -0.761], a = 0.2, v = 0.2, t = 0.2)
movej(p[0.418191129843302, 0.218284235550733, 0.311767753593256, -1.405, 0.76, -0.761], a = 0.2, v = 0.2, t = 0.2)
movej(p[0.418191305895896, 0.218284548439476, 0.311754500191324, -1.405, 0.76, -0.761], a = 0.2, v = 0.2, t = 0.2)
movej(p[0.418190690917658, 0.218283455471949, 0.311800796321362, -1.405, 0.76, -0.761], a = 0.2, v = 0.2, t = 0.2)
movej(p[0.418184420551314, 0.218272311489325, 0.3122728352943, -1.405, 0.76, -0.761], a = 0.2, v = 0.2, t = 0.2)
movej(p[0.418172328390986, 0.218250820747447, 0.313183144298266, -1.405, 0.76, -0.761], a = 0.2, v = 0.2, t = 0.2)
movej(p[0.418160472575237, 0.218229750047992, 0.314075661064021, -1.405, 0.76, -0.761], a = 0.2, v = 0.2, t = 0.2)
movej(p[0.418151472187853, 0.218213754146779, 0.314753218543638, -1.405, 0.76, -0.761], a = 0.2, v = 0.2, t = 0.2)
movej(p[0.418138123542577, 0.218190030322229, 0.315758116895642, -1.405, 0.76, -0.761], a = 0.2, v = 0.2, t = 0.2)
movej(p[0.418126405192551, 0.218169203933162, 0.316640285114683, -1.405, 0.76, -0.761], a = 0.2, v = 0.2, t = 0.2)
movej(p[0.418132538093172, 0.218180103605399, 0.316178594688459, -1.405, 0.76, -0.761], a = 0.2, v = 0.2, t = 0.2)
movej(p[0.418152477858147, 0.218215541470146, 0.314677510754517, -1.405, 0.76, -0.761], a = 0.2, v = 0.2, t = 0.2)
movej(p[0.418166648886086, 0.218240726870878, 0.313610702675677, -1.405, 0.76, -0.761], a = 0.2, v = 0.2, t = 0.2)
movej(p[0.418178232182067, 0.218261313235703, 0.312738701449899, -1.405, 0.76, -0.761], a = 0.2, v = 0.2, t = 0.2)
movej(p[0.418186579004344, 0.218276147591036, 0.312110344955538, -1.405, 0.76, -0.761], a = 0.2, v = 0.2, t = 0.2)
movej(p[0.418188633755161, 0.218279799388419, 0.311955661415176, -1.405, 0.76, -0.761], a = 0.2, v = 0.2, t = 0.2)
movej(p[0.418189772067821, 0.21828182244988, 0.311869968186242, -1.405, 0.76, -0.761], a = 0.2, v = 0.2, t = 0.2)
movej(p[0.418190377399341, 0.218282898272818, 0.311824398270009, -1.405, 0.76, -0.761], a = 0.2, v = 0.2, t = 0.2)
movej(p[0.418191776173371, 0.218285384238173, 0.311719097268353, -1.405, 0.76, -0.761], a = 0.2, v = 0.2, t = 0.2)
movej(p[0.41819163147261, 0.218285127069343, 0.311729990475421, -1.405, 0.76, -0.761], a = 0.2, v = 0.2, t = 0.2)
movej(p[0.418190739151245, 0.218283541194893, 0.311797165252339, -1.405, 0.76, -0.761], a = 0.2, v = 0.2, t = 0.2)
movej(p[0.418184709952837, 0.218272825826984, 0.312251048880164, -1.405, 0.76, -0.761], a = 0.2, v = 0.2, t = 0.2)
movej(p[0.418173240005786, 0.218252440911075, 0.313114517093739, -1.405, 0.76, -0.761], a = 0.2, v = 0.2, t = 0.2)
movej(p[0.418161007968055, 0.218230701572663, 0.31403535619787, -1.405, 0.76, -0.761], a = 0.2, v = 0.2, t = 0.2)
movej(p[0.418150671510304, 0.21821233114592, 0.314813494289413, -1.405, 0.76, -0.761], a = 0.2, v = 0.2, t = 0.2)
movej(p[0.418141729003225, 0.218196438112238, 0.315486694486203, -1.405, 0.76, -0.761], a = 0.2, v = 0.2, t = 0.2)
movej(p[0.418132858846528, 0.218180673662972, 0.316154448079459, -1.405, 0.76, -0.761], a = 0.2, v = 0.2, t = 0.2)
movej(p[0.41813777143739, 0.218189404544743, 0.315784623699507, -1.405, 0.76, -0.761], a = 0.2, v = 0.2, t = 0.2)
movej(p[0.418157009403671, 0.218223595140666, 0.314336371819843, -1.405, 0.76, -0.761], a = 0.2, v = 0.2, t = 0.2)
movej(p[0.418170784916194, 0.218248077613263, 0.313299338506989, -1.405, 0.76, -0.761], a = 0.2, v = 0.2, t = 0.2)
movej(p[0.418180651096469, 0.218265612241308, 0.312556603338416, -1.405, 0.76, -0.761], a = 0.2, v = 0.2, t = 0.2)
movej(p[0.418185447926722, 0.218274137388016, 0.312195493524118, -1.405, 0.76, -0.761], a = 0.2, v = 0.2, t = 0.2)
movej(p[0.418190013235757, 0.218282251064596, 0.311851812841129, -1.405, 0.76, -0.761], a = 0.2, v = 0.2, t = 0.2)
movej(p[0.418190859735213, 0.218283755502251, 0.311788087579783, -1.405, 0.76, -0.761], a = 0.2, v = 0.2, t = 0.2)
movej(p[0.418191103314829, 0.218284188403114, 0.311769750681219, -1.405, 0.76, -0.761], a = 0.2, v = 0.2, t = 0.2)
movej(p[0.418192721551682, 0.218287064407861, 0.31164792831551, -1.405, 0.76, -0.761], a = 0.2, v = 0.2, t = 0.2)
movej(p[0.418192598556034, 0.218286845814356, 0.311657187541518, -1.405, 0.76, -0.761], a = 0.2, v = 0.2, t = 0.2)
movej(p[0.418192280214358, 0.21828628004293, 0.311681152597067, -1.405, 0.76, -0.761], a = 0.2, v = 0.2, t = 0.2)
movej(p[0.418186007436334, 0.218275131774158, 0.312153373123456, -1.405, 0.76, -0.761], a = 0.2, v = 0.2, t = 0.2)
movej(p[0.418177055282538, 0.218259221595888, 0.312827299534051, -1.405, 0.76, -0.761], a = 0.2, v = 0.2, t = 0.2)
movej(p[0.41816485218496, 0.218237533691241, 0.313745959996769, -1.405, 0.76, -0.761], a = 0.2, v = 0.2, t = 0.2)
movej(p[0.418152475446468, 0.218215537183998, 0.314677692307968, -1.405, 0.76, -0.761], a = 0.2, v = 0.2, t = 0.2)
movej(p[0.418144336028617, 0.218201071437322, 0.315290435205532, -1.405, 0.76, -0.761], a = 0.2, v = 0.2, t = 0.2)
movej(p[0.418135998853058, 0.218186254226578, 0.315918065486088, -1.405, 0.76, -0.761], a = 0.2, v = 0.2, t = 0.2)
movej(p[0.418134867775437, 0.218184244023559, 0.316003214054668, -1.405, 0.76, -0.761], a = 0.2, v = 0.2, t = 0.2)
movej(p[0.418152374155935, 0.218215357165818, 0.314685317552915, -1.405, 0.76, -0.761], a = 0.2, v = 0.2, t = 0.2)
movej(p[0.41816966107361, 0.218246080268685, 0.313383942415215, -1.405, 0.76, -0.761], a = 0.2, v = 0.2, t = 0.2)
movej(p[0.418179254734117, 0.218263130562101, 0.31266172278662, -1.405, 0.76, -0.761], a = 0.2, v = 0.2, t = 0.2)
movej(p[0.418185083763138, 0.218273490179795, 0.312222908095239, -1.405, 0.76, -0.761], a = 0.2, v = 0.2, t = 0.2)
movej(p[0.41818799466013, 0.218278663559421, 0.312003773079725, -1.405, 0.76, -0.761], a = 0.2, v = 0.2, t = 0.2)
movej(p[0.418191127431623, 0.218284231264586, 0.311767935146707, -1.405, 0.76, -0.761], a = 0.2, v = 0.2, t = 0.2)
movej(p[0.418191397539711, 0.218284711313068, 0.311747601160181, -1.405, 0.76, -0.761], a = 0.2, v = 0.2, t = 0.2)
movej(p[0.418191351717803, 0.218284629876272, 0.311751050675752, -1.405, 0.76, -0.761], a = 0.2, v = 0.2, t = 0.2)
movej(p[0.418192282626038, 0.218286284329077, 0.311680971043616, -1.405, 0.76, -0.761], a = 0.2, v = 0.2, t = 0.2)
movej(p[0.418185508218706, 0.218274244541695, 0.31219095468784, -1.405, 0.76, -0.761], a = 0.2, v = 0.2, t = 0.2)
movej(p[0.418173683754788, 0.218253229562153, 0.313081111258731, -1.405, 0.76, -0.761], a = 0.2, v = 0.2, t = 0.2)
movej(p[0.418161188844007, 0.2182310230337, 0.314021739689035, -1.405, 0.76, -0.761], a = 0.2, v = 0.2, t = 0.2)
movej(p[0.418150789682593, 0.218212541167131, 0.314804598170308, -1.405, 0.76, -0.761], a = 0.2, v = 0.2, t = 0.2)
movej(p[0.418137513387699, 0.218188945926997, 0.315804049918778, -1.405, 0.76, -0.761], a = 0.2, v = 0.2, t = 0.2)
movej(p[0.418127905257115, 0.218171869916698, 0.31652735886808, -1.405, 0.76, -0.761], a = 0.2, v = 0.2, t = 0.2)
movej(p[0.41813678747221, 0.218187655796701, 0.315858697507568, -1.405, 0.76, -0.761], a = 0.2, v = 0.2, t = 0.2)
movej(p[0.418155169292317, 0.21822032481038, 0.314474897103056, -1.405, 0.76, -0.761], a = 0.2, v = 0.2, t = 0.2)
movej(p[0.418170478632915, 0.218247533272573, 0.313322395795282, -1.405, 0.76, -0.761], a = 0.2, v = 0.2, t = 0.2)
movej(p[0.418180643861431, 0.218265599382867, 0.312557147998769, -1.405, 0.76, -0.761], a = 0.2, v = 0.2, t = 0.2)
movej(p[0.418187753492194, 0.218278234944704, 0.312021928424838, -1.405, 0.76, -0.761], a = 0.2, v = 0.2, t = 0.2)
movej(p[0.418189521253167, 0.218281376690575, 0.31188884974516, -1.405, 0.76, -0.761], a = 0.2, v = 0.2, t = 0.2)
movej(p[0.418190321930715, 0.218282799691433, 0.311828573999385, -1.405, 0.76, -0.761], a = 0.2, v = 0.2, t = 0.2)
movej(p[0.418191387892994, 0.21828469416848, 0.311748327373985, -1.405, 0.76, -0.761], a = 0.2, v = 0.2, t = 0.2)
movej(p[0.418192521382295, 0.218286708657646, 0.311662997251954, -1.405, 0.76, -0.761], a = 0.2, v = 0.2, t = 0.2)
movej(p[0.418192203040619, 0.218286142886221, 0.311686962307503, -1.405, 0.76, -0.761], a = 0.2, v = 0.2, t = 0.2)
movej(p[0.418186497007245, 0.218276001862032, 0.312116517772877, -1.405, 0.76, -0.761], a = 0.2, v = 0.2, t = 0.2)
movej(p[0.418176044788885, 0.218257425700226, 0.312903370430074, -1.405, 0.76, -0.761], a = 0.2, v = 0.2, t = 0.2)
movej(p[0.418162631028267, 0.218233586149703, 0.313913170725259, -1.405, 0.76, -0.761], a = 0.2, v = 0.2, t = 0.2)
movej(p[0.418148976099712, 0.218209317984464, 0.314941126365557, -1.405, 0.76, -0.761], a = 0.2, v = 0.2, t = 0.2)
movej(p[0.418139305265465, 0.218192130534339, 0.315669155704589, -1.405, 0.76, -0.761], a = 0.2, v = 0.2, t = 0.2)
movej(p[0.418131274373186, 0.218177857664285, 0.316273728696852, -1.405, 0.76, -0.761], a = 0.2, v = 0.2, t = 0.2)
movej(p[0.418132974607137, 0.218180879398035, 0.316145733513805, -1.405, 0.76, -0.761], a = 0.2, v = 0.2, t = 0.2)
movej(p[0.418152552620208, 0.218215674340708, 0.314671882597532, -1.405, 0.76, -0.761], a = 0.2, v = 0.2, t = 0.2)
movej(p[0.418171920817174, 0.218250096388577, 0.313213826831507, -1.405, 0.76, -0.761], a = 0.2, v = 0.2, t = 0.2)
movej(p[0.418181217841119, 0.218266619485892, 0.3125139382774, -1.405, 0.76, -0.761], a = 0.2, v = 0.2, t = 0.2)
movej(p[0.418186369188239, 0.218275774696233, 0.312126140105787, -1.405, 0.76, -0.761], a = 0.2, v = 0.2, t = 0.2)
movej(p[0.418189530899884, 0.218281393835164, 0.311888123531355, -1.405, 0.76, -0.761], a = 0.2, v = 0.2, t = 0.2)
movej(p[0.418191315542613, 0.218284565584065, 0.311753773977519, -1.405, 0.76, -0.761], a = 0.2, v = 0.2, t = 0.2)
movej(p[0.418191655589403, 0.218285169930815, 0.31172817494091, -1.405, 0.76, -0.761], a = 0.2, v = 0.2, t = 0.2)
movej(p[0.418191614590854, 0.218285097066313, 0.311731261349579, -1.405, 0.76, -0.761], a = 0.2, v = 0.2, t = 0.2)
movej(p[0.418193047128396, 0.218287643037728, 0.311623418599608, -1.405, 0.76, -0.761], a = 0.2, v = 0.2, t = 0.2)
movej(p[0.418190770503077, 0.218283596914806, 0.311794805057475, -1.405, 0.76, -0.761], a = 0.2, v = 0.2, t = 0.2)
movej(p[0.418181430068903, 0.218266996666842, 0.312497961573701, -1.405, 0.76, -0.761], a = 0.2, v = 0.2, t = 0.2)
movej(p[0.418172157161751, 0.218250516430999, 0.313196034593296, -1.405, 0.76, -0.761], a = 0.2, v = 0.2, t = 0.2)
movej(p[0.418160364049665, 0.21822955717137, 0.314083830969322, -1.405, 0.76, -0.761], a = 0.2, v = 0.2, t = 0.2)
movej(p[0.418147340981104, 0.218206411976688, 0.315064219605424, -1.405, 0.76, -0.761], a = 0.2, v = 0.2, t = 0.2)
movej(p[0.418137209516099, 0.218188405872454, 0.315826925653621, -1.405, 0.76, -0.761], a = 0.2, v = 0.2, t = 0.2)
movej(p[0.418131587891503, 0.218178414863416, 0.316250126748205, -1.405, 0.76, -0.761], a = 0.2, v = 0.2, t = 0.2)
movej(p[0.418140337464233, 0.218193965005325, 0.315591450827505, -1.405, 0.76, -0.761], a = 0.2, v = 0.2, t = 0.2)
movej(p[0.41815651983276, 0.218222725052792, 0.314373227170423, -1.405, 0.76, -0.761], a = 0.2, v = 0.2, t = 0.2)
movej(p[0.418173119421817, 0.218252226603717, 0.313123594766295, -1.405, 0.76, -0.761], a = 0.2, v = 0.2, t = 0.2)
movej(p[0.418183050717435, 0.218269876957736, 0.312375957654542, -1.405, 0.76, -0.761], a = 0.2, v = 0.2, t = 0.2)
movej(p[0.418186928697851, 0.218276769082375, 0.312084019705125, -1.405, 0.76, -0.761], a = 0.2, v = 0.2, t = 0.2)
movej(p[0.418189362082329, 0.218281093804862, 0.311900832272934, -1.405, 0.76, -0.761], a = 0.2, v = 0.2, t = 0.2)
movej(p[0.41819196910772, 0.218285727129946, 0.311704572992263, -1.405, 0.76, -0.761], a = 0.2, v = 0.2, t = 0.2)
movej(p[0.418192029399705, 0.218285834283625, 0.311700034155985, -1.405, 0.76, -0.761], a = 0.2, v = 0.2, t = 0.2)
movej(p[0.418191826818638, 0.218285474247263, 0.31171528464588, -1.405, 0.76, -0.761], a = 0.2, v = 0.2, t = 0.2)
movej(p[0.418192241627488, 0.218286211464575, 0.311684057452285, -1.405, 0.76, -0.761], a = 0.2, v = 0.2, t = 0.2)
movej(p[0.418186586239382, 0.218276160449477, 0.312109800295185, -1.405, 0.76, -0.761], a = 0.2, v = 0.2, t = 0.2)
movej(p[0.418175644450111, 0.218256714199797, 0.312933508302962, -1.405, 0.76, -0.761], a = 0.2, v = 0.2, t = 0.2)
movej(p[0.41816466166229, 0.218237195085615, 0.313760302719408, -1.405, 0.76, -0.761], a = 0.2, v = 0.2, t = 0.2)
movej(p[0.418155702273456, 0.218221272048903, 0.314434773790356, -1.405, 0.76, -0.761], a = 0.2, v = 0.2, t = 0.2)
movej(p[0.418147145635075, 0.218206064798767, 0.315078925434965, -1.405, 0.76, -0.761], a = 0.2, v = 0.2, t = 0.2)
movej(p[0.418154520550568, 0.218219171836793, 0.31452373498141, -1.405, 0.76, -0.761], a = 0.2, v = 0.2, t = 0.2)
movej(p[0.418170886206727, 0.218248257631444, 0.313291713262041, -1.405, 0.76, -0.761], a = 0.2, v = 0.2, t = 0.2)
movej(p[0.418181808702563, 0.218267669591947, 0.312469457681874, -1.405, 0.76, -0.761], a = 0.2, v = 0.2, t = 0.2)
movej(p[0.418186579004344, 0.218276147591036, 0.312110344955538, -1.405, 0.76, -0.761], a = 0.2, v = 0.2, t = 0.2)
movej(p[0.418189123326072, 0.218280669476293, 0.311918806064596, -1.405, 0.76, -0.761], a = 0.2, v = 0.2, t = 0.2)
movej(p[0.418191988401155, 0.218285761419123, 0.311703120564654, -1.405, 0.76, -0.761], a = 0.2, v = 0.2, t = 0.2)
movej(p[0.418192092103368, 0.218285945723451, 0.311695313766255, -1.405, 0.76, -0.761], a = 0.2, v = 0.2, t = 0.2)
movej(p[0.418191778585051, 0.21828538852432, 0.311718915714902, -1.405, 0.76, -0.761], a = 0.2, v = 0.2, t = 0.2)
movej(p[0.418187150572353, 0.218277163407914, 0.312067316787621, -1.405, 0.76, -0.761], a = 0.2, v = 0.2, t = 0.2)
movej(p[0.418177221688414, 0.218259517340042, 0.312814772345923, -1.405, 0.76, -0.761], a = 0.2, v = 0.2, t = 0.2)
movej(p[0.418162141457356, 0.218232716061829, 0.313950026075839, -1.405, 0.76, -0.761], a = 0.2, v = 0.2, t = 0.2)
movej(p[0.418148069308271, 0.218207706393131, 0.315009390463182, -1.405, 0.76, -0.761], a = 0.2, v = 0.2, t = 0.2)
movej(p[0.418137337335105, 0.218188633038254, 0.315817303320711, -1.405, 0.76, -0.761], a = 0.2, v = 0.2, t = 0.2)
movej(p[0.418128385181309, 0.218172722859984, 0.316491229731305, -1.405, 0.76, -0.761], a = 0.2, v = 0.2, t = 0.2)
movej(p[0.41813432514758, 0.218183279640447, 0.316044063581172, -1.405, 0.76, -0.761], a = 0.2, v = 0.2, t = 0.2)
movej(p[0.418152067872656, 0.218214812825128, 0.314708374841209, -1.405, 0.76, -0.761], a = 0.2, v = 0.2, t = 0.2)
movej(p[0.41816784507905, 0.218242852799871, 0.313520652163916, -1.405, 0.76, -0.761], a = 0.2, v = 0.2, t = 0.2)
movej(p[0.418177556911846, 0.218260113114498, 0.312789536416216, -1.405, 0.76, -0.761], a = 0.2, v = 0.2, t = 0.2)
movej(p[0.41818416732498, 0.218271861443872, 0.312291898406668, -1.405, 0.76, -0.761], a = 0.2, v = 0.2, t = 0.2)
movej(p[0.418189533311564, 0.218281398121311, 0.311887941977904, -1.405, 0.76, -0.761], a = 0.2, v = 0.2, t = 0.2)
movej(p[0.418190461808118, 0.218283048287969, 0.311818043899219, -1.405, 0.76, -0.761], a = 0.2, v = 0.2, t = 0.2)
movej(p[0.41819087179361, 0.218283776932987, 0.311787179812527, -1.405, 0.76, -0.761], a = 0.2, v = 0.2, t = 0.2)
movej(p[0.418190107291252, 0.218282418224336, 0.311844732256535, -1.405, 0.76, -0.761], a = 0.2, v = 0.2, t = 0.2)
movej(p[0.418184227616964, 0.218271968597552, 0.31228735957039, -1.405, 0.76, -0.761], a = 0.2, v = 0.2, t = 0.2)
movej(p[0.418171701354352, 0.218249706349185, 0.313230348195559, -1.405, 0.76, -0.761], a = 0.2, v = 0.2, t = 0.2)
movej(p[0.418156758589017, 0.218223149381361, 0.314355253378761, -1.405, 0.76, -0.761], a = 0.2, v = 0.2, t = 0.2)
movej(p[0.418140571397131, 0.2181943807616, 0.315573840142745, -1.405, 0.76, -0.761], a = 0.2, v = 0.2, t = 0.2)
movej(p[0.418126202611485, 0.218168843896801, 0.316655535604578, -1.405, 0.76, -0.761], a = 0.2, v = 0.2, t = 0.2)
movej(p[0.418122312572672, 0.218161930341426, 0.316948381321251, -1.405, 0.76, -0.761], a = 0.2, v = 0.2, t = 0.2)
movej(p[0.418139066509208, 0.21819170620577, 0.315687129496251, -1.405, 0.76, -0.761], a = 0.2, v = 0.2, t = 0.2)
movej(p[0.418156037496888, 0.218221867823359, 0.314409537860649, -1.405, 0.76, -0.761], a = 0.2, v = 0.2, t = 0.2)
movej(p[0.41817019164307, 0.218247023221061, 0.313344000655967, -1.405, 0.76, -0.761], a = 0.2, v = 0.2, t = 0.2)
movej(p[0.418180241110977, 0.21826488359629, 0.312587467425108, -1.405, 0.76, -0.761], a = 0.2, v = 0.2, t = 0.2)
movej(p[0.418187664260057, 0.218278076357259, 0.31202864590253, -1.405, 0.76, -0.761], a = 0.2, v = 0.2, t = 0.2)
movej(p[0.418189448902786, 0.21828124810616, 0.311894296348694, -1.405, 0.76, -0.761], a = 0.2, v = 0.2, t = 0.2)
movej(p[0.418190473866515, 0.218283069718705, 0.311817136131964, -1.405, 0.76, -0.761], a = 0.2, v = 0.2, t = 0.2)
movej(p[0.418191715881387, 0.218285277084494, 0.311723636104632, -1.405, 0.76, -0.761], a = 0.2, v = 0.2, t = 0.2)
movej(p[0.418192451443593, 0.218286584359379, 0.311668262302037, -1.405, 0.76, -0.761], a = 0.2, v = 0.2, t = 0.2)
movej(p[0.418189248733399, 0.218280892355946, 0.311909365285138, -1.405, 0.76, -0.761], a = 0.2, v = 0.2, t = 0.2)
movej(p[0.418178586698934, 0.218261943299336, 0.312712013092583, -1.405, 0.76, -0.761], a = 0.2, v = 0.2, t = 0.2)
movej(p[0.418166342602807, 0.218240182530188, 0.31363375996397, -1.405, 0.76, -0.761], a = 0.2, v = 0.2, t = 0.2)
movej(p[0.418150058943746, 0.218211242464541, 0.314859608866, -1.405, 0.76, -0.761], a = 0.2, v = 0.2, t = 0.2)
movej(p[0.418134375792847, 0.218183369649537, 0.316040250958698, -1.405, 0.76, -0.761], a = 0.2, v = 0.2, t = 0.2)
movej(p[0.418125368170425, 0.218167360889882, 0.316718353098669, -1.405, 0.76, -0.761], a = 0.2, v = 0.2, t = 0.2)
movej(p[0.418130025123276, 0.218175637440055, 0.316367773384537, -1.405, 0.76, -0.761], a = 0.2, v = 0.2, t = 0.2)
movej(p[0.418145937383714, 0.218203917439039, 0.315169883713981, -1.405, 0.76, -0.761], a = 0.2, v = 0.2, t = 0.2)
movej(p[0.418164357790691, 0.218236655031072, 0.31378317845425, -1.405, 0.76, -0.761], a = 0.2, v = 0.2, t = 0.2)
movej(p[0.418179647837854, 0.218263829204088, 0.312632129574086, -1.405, 0.76, -0.761], a = 0.2, v = 0.2, t = 0.2)
movej(p[0.418185578157408, 0.218274368839963, 0.312185689637757, -1.405, 0.76, -0.761], a = 0.2, v = 0.2, t = 0.2)
movej(p[0.418188513171193, 0.218279585081061, 0.311964739087732, -1.405, 0.76, -0.761], a = 0.2, v = 0.2, t = 0.2)
movej(p[0.418190432867966, 0.218282996854203, 0.311820222540633, -1.405, 0.76, -0.761], a = 0.2, v = 0.2, t = 0.2)
movej(p[0.418192584085958, 0.218286820097473, 0.311658276862225, -1.405, 0.76, -0.761], a = 0.2, v = 0.2, t = 0.2)
movej(p[0.418192258509244, 0.218286241467606, 0.311682786578127, -1.405, 0.76, -0.761], a = 0.2, v = 0.2, t = 0.2)
movej(p[0.418187874076162, 0.218278449252063, 0.312012850752282, -1.405, 0.76, -0.761], a = 0.2, v = 0.2, t = 0.2)
movej(p[0.41817879169168, 0.218262307621845, 0.312696581049237, -1.405, 0.76, -0.761], a = 0.2, v = 0.2, t = 0.2)
movej(p[0.418163103717422, 0.218234426234548, 0.313877586248838, -1.405, 0.76, -0.761], a = 0.2, v = 0.2, t = 0.2)
movej(p[0.418147586972399, 0.218206849163698, 0.315045701153408, -1.405, 0.76, -0.761], a = 0.2, v = 0.2, t = 0.2)
movej(p[0.418136355781604, 0.218186888576358, 0.315891195575321, -1.405, 0.76, -0.761], a = 0.2, v = 0.2, t = 0.2)
movej(p[0.418126400369193, 0.218169195360868, 0.316640648221585, -1.405, 0.76, -0.761], a = 0.2, v = 0.2, t = 0.2)
movej(p[0.418132108814246, 0.218179340671204, 0.316210911202761, -1.405, 0.76, -0.761], a = 0.2, v = 0.2, t = 0.2)
movej(p[0.418149253442839, 0.218209810891388, 0.314920247718677, -1.405, 0.76, -0.761], a = 0.2, v = 0.2, t = 0.2)
movej(p[0.418169024390259, 0.218244948725834, 0.313431872526314, -1.405, 0.76, -0.761], a = 0.2, v = 0.2, t = 0.2)
movej(p[0.418178495055118, 0.218261780425744, 0.312718912123726, -1.405, 0.76, -0.761], a = 0.2, v = 0.2, t = 0.2)
movej(p[0.418184840183523, 0.218273057278931, 0.312241244993803, -1.405, 0.76, -0.761], a = 0.2, v = 0.2, t = 0.2)
movej(p[0.418188320236844, 0.218279242189288, 0.311979263363823, -1.405, 0.76, -0.761], a = 0.2, v = 0.2, t = 0.2)
movej(p[0.418191522947038, 0.218284934192721, 0.311738160380722, -1.405, 0.76, -0.761], a = 0.2, v = 0.2, t = 0.2)
movej(p[0.418191959461003, 0.218285709985357, 0.311705299206067, -1.405, 0.76, -0.761], a = 0.2, v = 0.2, t = 0.2)
movej(p[0.418191392716353, 0.218284702740774, 0.311747964267083, -1.405, 0.76, -0.761], a = 0.2, v = 0.2, t = 0.2)
movej(p[0.418186976931439, 0.218276854805318, 0.312080388636102, -1.405, 0.76, -0.761], a = 0.2, v = 0.2, t = 0.2)
movej(p[0.41817341123502, 0.218252745227524, 0.313101626798708, -1.405, 0.76, -0.761], a = 0.2, v = 0.2, t = 0.2)
movej(p[0.418159073801206, 0.218227264082638, 0.314180962065676, -1.405, 0.76, -0.761], a = 0.2, v = 0.2, t = 0.2)
movej(p[0.41814648483493, 0.218204890394445, 0.315128671080575, -1.405, 0.76, -0.761], a = 0.2, v = 0.2, t = 0.2)
movej(p[0.41813621831588, 0.21818664426597, 0.315901544122035, -1.405, 0.76, -0.761], a = 0.2, v = 0.2, t = 0.2)
movej(p[0.418127307160633, 0.218170806952202, 0.31657238412396, -1.405, 0.76, -0.761], a = 0.2, v = 0.2, t = 0.2)
movej(p[0.418137838964413, 0.218189524556864, 0.315779540202876, -1.405, 0.76, -0.761], a = 0.2, v = 0.2, t = 0.2)
movej(p[0.418157703967328, 0.218224829551049, 0.314284084425918, -1.405, 0.76, -0.761], a = 0.2, v = 0.2, t = 0.2)
movej(p[0.41817238868297, 0.218250927901127, 0.313178605461987, -1.405, 0.76, -0.761], a = 0.2, v = 0.2, t = 0.2)
movej(p[0.418182020930347, 0.218268046772897, 0.312453480978174, -1.405, 0.76, -0.761], a = 0.2, v = 0.2, t = 0.2)
movej(p[0.418187536441051, 0.21827784919146, 0.31203826823544, -1.405, 0.76, -0.761], a = 0.2, v = 0.2, t = 0.2)
movej(p[0.418191257662308, 0.218284462716533, 0.311758131260346, -1.405, 0.76, -0.761], a = 0.2, v = 0.2, t = 0.2)
movej(p[0.418191908815736, 0.218285619976267, 0.311709111828541, -1.405, 0.76, -0.761], a = 0.2, v = 0.2, t = 0.2)
movej(p[0.418192104161765, 0.218285967154187, 0.311694405999, -1.405, 0.76, -0.761], a = 0.2, v = 0.2, t = 0.2)
movej(p[0.418192509323898, 0.218286687226911, 0.31166390501921, -1.405, 0.76, -0.761], a = 0.2, v = 0.2, t = 0.2)
movej(p[0.418183246063464, 0.218270224135656, 0.312361251825, -1.405, 0.76, -0.761], a = 0.2, v = 0.2, t = 0.2)
movej(p[0.418168966509954, 0.218244845858302, 0.313436229809141, -1.405, 0.76, -0.761], a = 0.2, v = 0.2, t = 0.2)
movej(p[0.418156155669176, 0.21822207784457, 0.314400641741543, -1.405, 0.76, -0.761], a = 0.2, v = 0.2, t = 0.2)
movej(p[0.418144256443198, 0.218200929994466, 0.315296426469419, -1.405, 0.76, -0.761], a = 0.2, v = 0.2, t = 0.2)
movej(p[0.418131730180586, 0.218178667746099, 0.316239415094588, -1.405, 0.76, -0.761], a = 0.2, v = 0.2, t = 0.2)
movej(p[0.418123856047465, 0.218164673475611, 0.316832187112527, -1.405, 0.76, -0.761], a = 0.2, v = 0.2, t = 0.2)
movej(p[0.418132670735537, 0.218180339343493, 0.316168609248647, -1.405, 0.76, -0.761], a = 0.2, v = 0.2, t = 0.2)
movej(p[0.418150087883898, 0.218211293898307, 0.314857430224586, -1.405, 0.76, -0.761], a = 0.2, v = 0.2, t = 0.2)
movej(p[0.418166386013035, 0.218240259680837, 0.31363049200185, -1.405, 0.76, -0.761], a = 0.2, v = 0.2, t = 0.2)
movej(p[0.418178873688778, 0.218262453350849, 0.312690408231899, -1.405, 0.76, -0.761], a = 0.2, v = 0.2, t = 0.2)
movej(p[0.418187102338765, 0.21827707768497, 0.312070947856643, -1.405, 0.76, -0.761], a = 0.2, v = 0.2, t = 0.2)
movej(p[0.418189501959732, 0.218281342401398, 0.311890302172769, -1.405, 0.76, -0.761], a = 0.2, v = 0.2, t = 0.2)
movej(p[0.418190727092848, 0.218283519764157, 0.311798073019595, -1.405, 0.76, -0.761], a = 0.2, v = 0.2, t = 0.2)
movej(p[0.418192436973517, 0.218286558642496, 0.311669351622744, -1.405, 0.76, -0.761], a = 0.2, v = 0.2, t = 0.2)
movej(p[0.418192533440691, 0.218286730088382, 0.311662089484699, -1.405, 0.76, -0.761], a = 0.2, v = 0.2, t = 0.2)
movej(p[0.418191272132384, 0.218284488433416, 0.311757041939639, -1.405, 0.76, -0.761], a = 0.2, v = 0.2, t = 0.2)
movej(p[0.41818182076096, 0.218267691022682, 0.312468549914618, -1.405, 0.76, -0.761], a = 0.2, v = 0.2, t = 0.2)
movej(p[0.418171440892981, 0.218249243445291, 0.313249955968281, -1.405, 0.76, -0.761], a = 0.2, v = 0.2, t = 0.2)
movej(p[0.418156184609329, 0.218222129278336, 0.31439846310013, -1.405, 0.76, -0.761], a = 0.2, v = 0.2, t = 0.2)
movej(p[0.41814175070834, 0.218196476687563, 0.315485060505143, -1.405, 0.76, -0.761], a = 0.2, v = 0.2, t = 0.2)
movej(p[0.418132721380804, 0.218180429352583, 0.316164796626174, -1.405, 0.76, -0.761], a = 0.2, v = 0.2, t = 0.2)
movej(p[0.418124888246232, 0.218166507946597, 0.316754482235444, -1.405, 0.76, -0.761], a = 0.2, v = 0.2, t = 0.2)
movej(p[0.418136307548017, 0.218186802853415, 0.315894826644343, -1.405, 0.76, -0.761], a = 0.2, v = 0.2, t = 0.2)
movej(p[0.418156645240087, 0.218222947932444, 0.314363786390964, -1.405, 0.76, -0.761], a = 0.2, v = 0.2, t = 0.2)
movej(p[0.418174655661572, 0.21825495687946, 0.313007945217925, -1.405, 0.76, -0.761], a = 0.2, v = 0.2, t = 0.2)
movej(p[0.418182657613699, 0.218269178315748, 0.312405550867076, -1.405, 0.76, -0.761], a = 0.2, v = 0.2, t = 0.2)
movej(p[0.418186967284721, 0.218276837660729, 0.312081114849907, -1.405, 0.76, -0.761], a = 0.2, v = 0.2, t = 0.2)
movej(p[0.418190666800864, 0.218283412610478, 0.311802611855873, -1.405, 0.76, -0.761], a = 0.2, v = 0.2, t = 0.2)
movej(p[0.418191660412762, 0.218285178503109, 0.311727811834008, -1.405, 0.76, -0.761], a = 0.2, v = 0.2, t = 0.2)
movej(p[0.41819159047406, 0.218285054204841, 0.31173307688409, -1.405, 0.76, -0.761], a = 0.2, v = 0.2, t = 0.2)
movej(p[0.418188621696764, 0.218279777957683, 0.311956569182431, -1.405, 0.76, -0.761], a = 0.2, v = 0.2, t = 0.2)
movej(p[0.418180052999987, 0.218264549276812, 0.312601628594296, -1.405, 0.76, -0.761], a = 0.2, v = 0.2, t = 0.2)
movej(p[0.418165635980753, 0.218238926689069, 0.313686955125151, -1.405, 0.76, -0.761], a = 0.2, v = 0.2, t = 0.2)
movej(p[0.41814951390421, 0.218210273795282, 0.314900639945955, -1.405, 0.76, -0.761], a = 0.2, v = 0.2, t = 0.2)
movej(p[0.418137151635794, 0.218188303004922, 0.315831282936448, -1.405, 0.76, -0.761], a = 0.2, v = 0.2, t = 0.2)
movej(p[0.418125177647756, 0.218167022284256, 0.316732695821308, -1.405, 0.76, -0.761], a = 0.2, v = 0.2, t = 0.2)
movej(p[0.418123612467849, 0.218164240574747, 0.316850524011092, -1.405, 0.76, -0.761], a = 0.2, v = 0.2, t = 0.2)
movej(p[0.41814201358139, 0.218196943877604, 0.31546527117897, -1.405, 0.76, -0.761], a = 0.2, v = 0.2, t = 0.2)
movej(p[0.418162819139257, 0.218233920469182, 0.313899009556071, -1.405, 0.76, -0.761], a = 0.2, v = 0.2, t = 0.2)
movej(p[0.418174590546229, 0.218254841153487, 0.313012847161106, -1.405, 0.76, -0.761], a = 0.2, v = 0.2, t = 0.2)
movej(p[0.418182556323166, 0.218268998297567, 0.312413176112023, -1.405, 0.76, -0.761], a = 0.2, v = 0.2, t = 0.2)
movej(p[0.418187611203111, 0.218277982062022, 0.312032640078455, -1.405, 0.76, -0.761], a = 0.2, v = 0.2, t = 0.2)
movej(p[0.41819094896735, 0.218283914089696, 0.311781370102091, -1.405, 0.76, -0.761], a = 0.2, v = 0.2, t = 0.2)
movej(p[0.418191506065283, 0.218284904189691, 0.31173943125488, -1.405, 0.76, -0.761], a = 0.2, v = 0.2, t = 0.2)
movej(p[0.418191375834597, 0.218284672737744, 0.311749235141241, -1.405, 0.76, -0.761], a = 0.2, v = 0.2, t = 0.2)
movej(p[0.418189776891179, 0.218281831022174, 0.31186960507934, -1.405, 0.76, -0.761], a = 0.2, v = 0.2, t = 0.2)
movej(p[0.418178046482756, 0.218260983202372, 0.312752681065636, -1.405, 0.76, -0.761], a = 0.2, v = 0.2, t = 0.2)
movej(p[0.418164885948471, 0.218237593697301, 0.313743418248453, -1.405, 0.76, -0.761], a = 0.2, v = 0.2, t = 0.2)
movej(p[0.418152000345633, 0.218214692813007, 0.31471345833784, -1.405, 0.76, -0.761], a = 0.2, v = 0.2, t = 0.2)
movej(p[0.418141092319874, 0.218195306569387, 0.315534624597301, -1.405, 0.76, -0.761], a = 0.2, v = 0.2, t = 0.2)
movej(p[0.41812845753169, 0.218172851444398, 0.316485783127771, -1.405, 0.76, -0.761], a = 0.2, v = 0.2, t = 0.2)
movej(p[0.418124866541118, 0.218166469371272, 0.316756116216504, -1.405, 0.76, -0.761], a = 0.2, v = 0.2, t = 0.2)
movej(p[0.4181381910696, 0.21819015033435, 0.315753033399011, -1.405, 0.76, -0.761], a = 0.2, v = 0.2, t = 0.2)
movej(p[0.418152981899134, 0.218216437274903, 0.31463956608323, -1.405, 0.76, -0.761], a = 0.2, v = 0.2, t = 0.2)
movej(p[0.418167066106616, 0.218241468374337, 0.313579293928631, -1.405, 0.76, -0.761], a = 0.2, v = 0.2, t = 0.2)
movej(p[0.41817773055276, 0.218260421717093, 0.312776464567734, -1.405, 0.76, -0.761], a = 0.2, v = 0.2, t = 0.2)
movej(p[0.418186571769306, 0.218276134732594, 0.312110889615892, -1.405, 0.76, -0.761], a = 0.2, v = 0.2, t = 0.2)
movej(p[0.418189263203475, 0.218280918072829, 0.311908275964431, -1.405, 0.76, -0.761], a = 0.2, v = 0.2, t = 0.2)
movej(p[0.418190326754074, 0.218282808263728, 0.311828210892482, -1.405, 0.76, -0.761], a = 0.2, v = 0.2, t = 0.2)
movej(p[0.418191484360168, 0.218284865614366, 0.31174106523594, -1.405, 0.76, -0.761], a = 0.2, v = 0.2, t = 0.2)
movej(p[0.418191460243375, 0.218284822752895, 0.311742880770451, -1.405, 0.76, -0.761], a = 0.2, v = 0.2, t = 0.2)
movej(p[0.418183885158495, 0.218271359964654, 0.312313140160451, -1.405, 0.76, -0.761], a = 0.2, v = 0.2, t = 0.2)
movej(p[0.418172728729761, 0.218251532247877, 0.313153006425378, -1.405, 0.76, -0.761], a = 0.2, v = 0.2, t = 0.2)
movej(p[0.418161647063086, 0.218231837401661, 0.31398724453332, -1.405, 0.76, -0.761], a = 0.2, v = 0.2, t = 0.2)
movej(p[0.418146858645231, 0.218205554747255, 0.31510053029565, -1.405, 0.76, -0.761], a = 0.2, v = 0.2, t = 0.2)
movej(p[0.418133107249502, 0.218181115136129, 0.316135748073993, -1.405, 0.76, -0.761], a = 0.2, v = 0.2, t = 0.2)
movej(p[0.418125575574851, 0.218167729498538, 0.316702739501872, -1.405, 0.76, -0.761], a = 0.2, v = 0.2, t = 0.2)
movej(p[0.418135682923062, 0.2181856927413, 0.315941848988186, -1.405, 0.76, -0.761], a = 0.2, v = 0.2, t = 0.2)
movej(p[0.418152740731198, 0.218216008660186, 0.314657721428343, -1.405, 0.76, -0.761], a = 0.2, v = 0.2, t = 0.2)
movej(p[0.41816879286904, 0.218244537255706, 0.313449301657622, -1.405, 0.76, -0.761], a = 0.2, v = 0.2, t = 0.2)
movej(p[0.418181487949208, 0.218267099534374, 0.312493604290874, -1.405, 0.76, -0.761], a = 0.2, v = 0.2, t = 0.2)
movej(p[0.418186675471518, 0.218276319036922, 0.312103082817493, -1.405, 0.76, -0.761], a = 0.2, v = 0.2, t = 0.2)
movej(p[0.418189255968437, 0.218280905214387, 0.311908820624784, -1.405, 0.76, -0.761], a = 0.2, v = 0.2, t = 0.2)
movej(p[0.418190374987661, 0.218282893986671, 0.31182457982346, -1.405, 0.76, -0.761], a = 0.2, v = 0.2, t = 0.2)
movej(p[0.418192444208555, 0.218286571500937, 0.31166880696239, -1.405, 0.76, -0.761], a = 0.2, v = 0.2, t = 0.2)
movej(p[0.418191513300321, 0.218284917048132, 0.311738886594526, -1.405, 0.76, -0.761], a = 0.2, v = 0.2, t = 0.2)
movej(p[0.418183294297051, 0.218270309858599, 0.312357620755978, -1.405, 0.76, -0.761], a = 0.2, v = 0.2, t = 0.2)
movej(p[0.418173970744633, 0.218253739613666, 0.313059506398046, -1.405, 0.76, -0.761], a = 0.2, v = 0.2, t = 0.2)
movej(p[0.418159792481656, 0.218228541354492, 0.314126859137239, -1.405, 0.76, -0.761], a = 0.2, v = 0.2, t = 0.2)
movej(p[0.41814383439931, 0.218200179918712, 0.315328198323367, -1.405, 0.76, -0.761], a = 0.2, v = 0.2, t = 0.2)
movej(p[0.418130874034412, 0.218177146163856, 0.316303866569739, -1.405, 0.76, -0.761], a = 0.2, v = 0.2, t = 0.2)
movej(p[0.418125913209961, 0.218168329559141, 0.316677322018714, -1.405, 0.76, -0.761], a = 0.2, v = 0.2, t = 0.2)
movej(p[0.418135846917259, 0.218185984199307, 0.315929503353509, -1.405, 0.76, -0.761], a = 0.2, v = 0.2, t = 0.2)
movej(p[0.418153394296305, 0.218217170206068, 0.314608520443087, -1.405, 0.76, -0.761], a = 0.2, v = 0.2, t = 0.2)
movej(p[0.418170013178798, 0.218246706046171, 0.31335743561135, -1.405, 0.76, -0.761], a = 0.2, v = 0.2, t = 0.2)
movej(p[0.418181967873401, 0.218267952477659, 0.312457475154099, -1.405, 0.76, -0.761], a = 0.2, v = 0.2, t = 0.2)
movej(p[0.418186624826252, 0.218276229027832, 0.312106895439967, -1.405, 0.76, -0.761], a = 0.2, v = 0.2, t = 0.2)
movej(p[0.418189157089583, 0.218280729482353, 0.311916264316281, -1.405, 0.76, -0.761], a = 0.2, v = 0.2, t = 0.2)
movej(p[0.418191824406959, 0.218285469961116, 0.311715466199331, -1.405, 0.76, -0.761], a = 0.2, v = 0.2, t = 0.2)
movej(p[0.418192294684434, 0.218286305759813, 0.31168006327636, -1.405, 0.76, -0.761], a = 0.2, v = 0.2, t = 0.2)
movej(p[0.418192210275657, 0.218286155744662, 0.31168641764715, -1.405, 0.76, -0.761], a = 0.2, v = 0.2, t = 0.2)
movej(p[0.418188235828066, 0.218279092174137, 0.311985617734612, -1.405, 0.76, -0.761], a = 0.2, v = 0.2, t = 0.2)
movej(p[0.418181044200205, 0.218266310883296, 0.312527010125882, -1.405, 0.76, -0.761], a = 0.2, v = 0.2, t = 0.2)
movej(p[0.418165590158845, 0.218238845252273, 0.313690404640723, -1.405, 0.76, -0.761], a = 0.2, v = 0.2, t = 0.2)
movej(p[0.418151423954266, 0.218213668423835, 0.31475684961266, -1.405, 0.76, -0.761], a = 0.2, v = 0.2, t = 0.2)
movej(p[0.418142462153752, 0.218197741100976, 0.31543150223706, -1.405, 0.76, -0.761], a = 0.2, v = 0.2, t = 0.2)
movej(p[0.418131098320592, 0.218177544775542, 0.316286982098784, -1.405, 0.76, -0.761], a = 0.2, v = 0.2, t = 0.2)
movej(p[0.418118506942637, 0.218155166801202, 0.317234872667134, -1.405, 0.76, -0.761], a = 0.2, v = 0.2, t = 0.2)
movej(p[0.418112277574842, 0.218144095683079, 0.317703825231403, -1.405, 0.76, -0.761], a = 0.2, v = 0.2, t = 0.2)
movej(p[0.418132364452258, 0.218179795002803, 0.316191666536941, -1.405, 0.76, -0.761], a = 0.2, v = 0.2, t = 0.2)
movej(p[0.418152116106243, 0.218214898548071, 0.314704743772186, -1.405, 0.76, -0.761], a = 0.2, v = 0.2, t = 0.2)
movej(p[0.418166513832041, 0.218240486846637, 0.31362086966894, -1.405, 0.76, -0.761], a = 0.2, v = 0.2, t = 0.2)
movej(p[0.418179163090302, 0.218262967688508, 0.312668621817763, -1.405, 0.76, -0.761], a = 0.2, v = 0.2, t = 0.2)
movej(p[0.418186173842211, 0.218275427518312, 0.312140845935328, -1.405, 0.76, -0.761], a = 0.2, v = 0.2, t = 0.2)
movej(p[0.418189229439964, 0.218280858066768, 0.311910817712747, -1.405, 0.76, -0.761], a = 0.2, v = 0.2, t = 0.2)
movej(p[0.41819071985781, 0.218283506905715, 0.311798617679948, -1.405, 0.76, -0.761], a = 0.2, v = 0.2, t = 0.2)
movej(p[0.418192789078704, 0.218287184419982, 0.311642844818879, -1.405, 0.76, -0.761], a = 0.2, v = 0.2, t = 0.2)
movej(p[0.418192627496187, 0.218286897248122, 0.311655008900104, -1.405, 0.76, -0.761], a = 0.2, v = 0.2, t = 0.2)
movej(p[0.418192791490383, 0.218287188706129, 0.311642663265428, -1.405, 0.76, -0.761], a = 0.2, v = 0.2, t = 0.2)
movej(p[0.418192680553133, 0.218286991543359, 0.31165101472418, -1.405, 0.76, -0.761], a = 0.2, v = 0.2, t = 0.2)
movej(p[0.418189863711636, 0.218281985323472, 0.311863069155099, -1.405, 0.76, -0.761], a = 0.2, v = 0.2, t = 0.2)
movej(p[0.418177853548407, 0.218260640310599, 0.312767205341727, -1.405, 0.76, -0.761], a = 0.2, v = 0.2, t = 0.2)
movej(p[0.418163347297038, 0.218234859135411, 0.313859249350274, -1.405, 0.76, -0.761], a = 0.2, v = 0.2, t = 0.2)
movej(p[0.41815292401883, 0.218216334407371, 0.314643923366058, -1.405, 0.76, -0.761], a = 0.2, v = 0.2, t = 0.2)
movej(p[0.418138839811348, 0.218191303307937, 0.315704195520657, -1.405, 0.76, -0.761], a = 0.2, v = 0.2, t = 0.2)
movej(p[0.418127270985443, 0.218170742659994, 0.316575107425727, -1.405, 0.76, -0.761], a = 0.2, v = 0.2, t = 0.2)
movej(p[0.418132222163176, 0.21817954212012, 0.316202378190557, -1.405, 0.76, -0.761], a = 0.2, v = 0.2, t = 0.2)
movej(p[0.418152460976392, 0.218215511467116, 0.314678781628675, -1.405, 0.76, -0.761], a = 0.2, v = 0.2, t = 0.2)
movej(p[0.418166955169365, 0.218241271211567, 0.313587645387383, -1.405, 0.76, -0.761], a = 0.2, v = 0.2, t = 0.2)
movej(p[0.418177226511773, 0.218259525912336, 0.312814409239021, -1.405, 0.76, -0.761], a = 0.2, v = 0.2, t = 0.2)
movej(p[0.418185013824437, 0.218273365881527, 0.312228173145322, -1.405, 0.76, -0.761], a = 0.2, v = 0.2, t = 0.2)
movej(p[0.418189820301408, 0.218281908172823, 0.31186633711722, -1.405, 0.76, -0.761], a = 0.2, v = 0.2, t = 0.2)
movej(p[0.418191207017042, 0.218284372707442, 0.31176194388282, -1.405, 0.76, -0.761], a = 0.2, v = 0.2, t = 0.2)
movej(p[0.418191122608264, 0.218284222692292, 0.31176829825361, -1.405, 0.76, -0.761], a = 0.2, v = 0.2, t = 0.2)
movej(p[0.41818716263075, 0.218277184838649, 0.312066409020365, -1.405, 0.76, -0.761], a = 0.2, v = 0.2, t = 0.2)
movej(p[0.418172728729761, 0.218251532247877, 0.313153006425378, -1.405, 0.76, -0.761], a = 0.2, v = 0.2, t = 0.2)
movej(p[0.41815496671125, 0.218219964774018, 0.31449014759295, -1.405, 0.76, -0.761], a = 0.2, v = 0.2, t = 0.2)
movej(p[0.418139763484544, 0.2181929449023, 0.315634660548874, -1.405, 0.76, -0.761], a = 0.2, v = 0.2, t = 0.2)
movej(p[0.41812902427634, 0.218173858688982, 0.316443118066756, -1.405, 0.76, -0.761], a = 0.2, v = 0.2, t = 0.2)
movej(p[0.418118772227367, 0.21815563827739, 0.31721490178751, -1.405, 0.76, -0.761], a = 0.2, v = 0.2, t = 0.2)
movej(p[0.418130567751132, 0.218176601823166, 0.316326923858033, -1.405, 0.76, -0.761], a = 0.2, v = 0.2, t = 0.2)
movej(p[0.418150977793584, 0.21821287548661, 0.314790437001119, -1.405, 0.76, -0.761], a = 0.2, v = 0.2, t = 0.2)
movej(p[0.418164331262218, 0.218236607883454, 0.313785175542213, -1.405, 0.76, -0.761], a = 0.2, v = 0.2, t = 0.2)
movej(p[0.418173664461353, 0.218253195272976, 0.31308256368634, -1.405, 0.76, -0.761], a = 0.2, v = 0.2, t = 0.2)
movej(p[0.418178888158854, 0.218262479067732, 0.312689318911192, -1.405, 0.76, -0.761], a = 0.2, v = 0.2, t = 0.2)
movej(p[0.418181803879204, 0.218267661019652, 0.312469820788776, -1.405, 0.76, -0.761], a = 0.2, v = 0.2, t = 0.2)
movej(p[0.418179384964803, 0.218263362014047, 0.312651918900259, -1.405, 0.76, -0.761], a = 0.2, v = 0.2, t = 0.2)
movej(p[0.418162669615136, 0.218233654728058, 0.313910265870041, -1.405, 0.76, -0.761], a = 0.2, v = 0.2, t = 0.2)
movej(p[0.418144473494341, 0.21820131574771, 0.315280086658817, -1.405, 0.76, -0.761], a = 0.2, v = 0.2, t = 0.2)
movej(p[0.418127562798646, 0.218171261283801, 0.316553139458141, -1.405, 0.76, -0.761], a = 0.2, v = 0.2, t = 0.2)
movej(p[0.41811209428721, 0.218143769935895, 0.317717623293688, -1.405, 0.76, -0.761], a = 0.2, v = 0.2, t = 0.2)
movej(p[0.418091614306057, 0.218107371974184, 0.319259375200684, -1.405, 0.76, -0.761], a = 0.2, v = 0.2, t = 0.2)
movej(p[0.418071655247647, 0.218071899820259, 0.320761911562236, -1.405, 0.76, -0.761], a = 0.2, v = 0.2, t = 0.2)
movej(p[0.41806721293426, 0.218064004737184, 0.321096333019218, -1.405, 0.76, -0.761], a = 0.2, v = 0.2, t = 0.2)
movej(p[0.418096845238596, 0.218116668627381, 0.318865585765183, -1.405, 0.76, -0.761], a = 0.2, v = 0.2, t = 0.2)
movej(p[0.418122013524431, 0.218161398859178, 0.316970893949191, -1.405, 0.76, -0.761], a = 0.2, v = 0.2, t = 0.2)
movej(p[0.4181397803663, 0.21819297490533, 0.315633389674716, -1.405, 0.76, -0.761], a = 0.2, v = 0.2, t = 0.2)
movej(p[0.418152154693113, 0.218214967126426, 0.314701838916968, -1.405, 0.76, -0.761], a = 0.2, v = 0.2, t = 0.2)
movej(p[0.418162746788876, 0.218233791884767, 0.313904456159605, -1.405, 0.76, -0.761], a = 0.2, v = 0.2, t = 0.2)
movej(p[0.41817284449037, 0.21825173798294, 0.313144291859724, -1.405, 0.76, -0.761], a = 0.2, v = 0.2, t = 0.2)
movej(p[0.418178598757331, 0.218261964730072, 0.312711105325328, -1.405, 0.76, -0.761], a = 0.2, v = 0.2, t = 0.2)
movej(p[0.418183349765676, 0.218270408439984, 0.312353445026602, -1.405, 0.76, -0.761], a = 0.2, v = 0.2, t = 0.2)
movej(p[0.418186489772207, 0.218275989003591, 0.31211706243323, -1.405, 0.76, -0.761], a = 0.2, v = 0.2, t = 0.2)
movej(p[0.41818935725897, 0.218281085232568, 0.311901195379837, -1.405, 0.76, -0.761], a = 0.2, v = 0.2, t = 0.2)
movej(p[0.418187698023568, 0.21827813636332, 0.312026104154214, -1.405, 0.76, -0.761], a = 0.2, v = 0.2, t = 0.2)
movej(p[0.418174633956457, 0.218254918304136, 0.313009579198985, -1.405, 0.76, -0.761], a = 0.2, v = 0.2, t = 0.2)
movej(p[0.418161926817893, 0.218232334594732, 0.313966184332989, -1.405, 0.76, -0.761], a = 0.2, v = 0.2, t = 0.2)
movej(p[0.418144866598077, 0.218202014389698, 0.315250493446283, -1.405, 0.76, -0.761], a = 0.2, v = 0.2, t = 0.2)
movej(p[0.418132294513556, 0.218179670704535, 0.316196931587024, -1.405, 0.76, -0.761], a = 0.2, v = 0.2, t = 0.2)
movej(p[0.418134064686209, 0.218182816736553, 0.316063671353894, -1.405, 0.76, -0.761], a = 0.2, v = 0.2, t = 0.2)
movej(p[0.418156228019557, 0.218222206428985, 0.31439519513801, -1.405, 0.76, -0.761], a = 0.2, v = 0.2, t = 0.2)
movej(p[0.418171855701831, 0.218249980662603, 0.313218728774687, -1.405, 0.76, -0.761], a = 0.2, v = 0.2, t = 0.2)
movej(p[0.418181779762411, 0.218267618158181, 0.312471636323287, -1.405, 0.76, -0.761], a = 0.2, v = 0.2, t = 0.2)
movej(p[0.418187741433797, 0.218278213513969, 0.312022836192094, -1.405, 0.76, -0.761], a = 0.2, v = 0.2, t = 0.2)
movej(p[0.418190353282547, 0.218282855411347, 0.31182621380452, -1.405, 0.76, -0.761], a = 0.2, v = 0.2, t = 0.2)
movej(p[0.418191223898797, 0.218284402710473, 0.311760673008662, -1.405, 0.76, -0.761], a = 0.2, v = 0.2, t = 0.2)
movej(p[0.418190891087045, 0.218283811222164, 0.311785727384918, -1.405, 0.76, -0.761], a = 0.2, v = 0.2, t = 0.2)
movej(p[0.418186453597017, 0.218275924711383, 0.312119785734997, -1.405, 0.76, -0.761], a = 0.2, v = 0.2, t = 0.2)
movej(p[0.418171887053663, 0.218250036382517, 0.313216368579822, -1.405, 0.76, -0.761], a = 0.2, v = 0.2, t = 0.2)
movej(p[0.418158138069613, 0.218225601057538, 0.314251404804715, -1.405, 0.76, -0.761], a = 0.2, v = 0.2, t = 0.2)
movej(p[0.418145597336924, 0.218203313092289, 0.315195482750591, -1.405, 0.76, -0.761], a = 0.2, v = 0.2, t = 0.2)
movej(p[0.418133367710873, 0.218181578040023, 0.316116140301271, -1.405, 0.76, -0.761], a = 0.2, v = 0.2, t = 0.2)
movej(p[0.418127557975287, 0.218171252711507, 0.316553502565043, -1.405, 0.76, -0.761], a = 0.2, v = 0.2, t = 0.2)
movej(p[0.418142602031155, 0.218197989697512, 0.315420972136894, -1.405, 0.76, -0.761], a = 0.2, v = 0.2, t = 0.2)
movej(p[0.418164374672446, 0.218236685034103, 0.313781907580092, -1.405, 0.76, -0.761], a = 0.2, v = 0.2, t = 0.2)
movej(p[0.418176339013767, 0.21825794861018, 0.312881220909036, -1.405, 0.76, -0.761], a = 0.2, v = 0.2, t = 0.2)
movej(p[0.418183938215441, 0.218271454259892, 0.312309145984526, -1.405, 0.76, -0.761], a = 0.2, v = 0.2, t = 0.2)
movej(p[0.418187579851279, 0.218277926342109, 0.31203500027332, -1.405, 0.76, -0.761], a = 0.2, v = 0.2, t = 0.2)
movej(p[0.418191088844753, 0.218284162686231, 0.311770840001925, -1.405, 0.76, -0.761], a = 0.2, v = 0.2, t = 0.2)
movej(p[0.418191532593756, 0.218284951337309, 0.311737434166917, -1.405, 0.76, -0.761], a = 0.2, v = 0.2, t = 0.2)
movej(p[0.418190686094299, 0.218283446899655, 0.311801159428264, -1.405, 0.76, -0.761], a = 0.2, v = 0.2, t = 0.2)
movej(p[0.418185057234665, 0.218273443032176, 0.312224905183202, -1.405, 0.76, -0.761], a = 0.2, v = 0.2, t = 0.2)
movej(p[0.418172748023195, 0.218251566537054, 0.313151553997769, -1.405, 0.76, -0.761], a = 0.2, v = 0.2, t = 0.2)
movej(p[0.418158552878463, 0.21822633827485, 0.31422017761112, -1.405, 0.76, -0.761], a = 0.2, v = 0.2, t = 0.2)
movej(p[0.418147176986907, 0.218206120518681, 0.3150765652401, -1.405, 0.76, -0.761], a = 0.2, v = 0.2, t = 0.2)
movej(p[0.41813856970326, 0.218190823259454, 0.315724529507183, -1.405, 0.76, -0.761], a = 0.2, v = 0.2, t = 0.2)
movej(p[0.41813625690275, 0.218186712844325, 0.315898639266817, -1.405, 0.76, -0.761], a = 0.2, v = 0.2, t = 0.2)
movej(p[0.418151804999605, 0.218214345635087, 0.314728164167382, -1.405, 0.76, -0.761], a = 0.2, v = 0.2, t = 0.2)
movej(p[0.418167410976765, 0.218242081293381, 0.31355333178512, -1.405, 0.76, -0.761], a = 0.2, v = 0.2, t = 0.2)
movej(p[0.418180376165021, 0.218265123620532, 0.312577300431845, -1.405, 0.76, -0.761], a = 0.2, v = 0.2, t = 0.2)
movej(p[0.418185435868325, 0.21827411595728, 0.312196401291374, -1.405, 0.76, -0.761], a = 0.2, v = 0.2, t = 0.2)
movej(p[0.418188158654327, 0.218278955017428, 0.311991427445048, -1.405, 0.76, -0.761], a = 0.2, v = 0.2, t = 0.2)
movej(p[0.418190522100102, 0.218283155441648, 0.311813505062941, -1.405, 0.76, -0.761], a = 0.2, v = 0.2, t = 0.2)
movej(p[0.418191942579247, 0.218285679982327, 0.311706570080225, -1.405, 0.76, -0.761], a = 0.2, v = 0.2, t = 0.2)
movej(p[0.418192063163216, 0.218285894289685, 0.311697492407669, -1.405, 0.76, -0.761], a = 0.2, v = 0.2, t = 0.2)
movej(p[0.418192075221612, 0.218285915720421, 0.311696584640413, -1.405, 0.76, -0.761], a = 0.2, v = 0.2, t = 0.2)
movej(p[0.418193558404421, 0.218288551700927, 0.311584929267968, -1.405, 0.76, -0.761], a = 0.2, v = 0.2, t = 0.2)
movej(p[0.418190973084143, 0.218283956951168, 0.31177955456758, -1.405, 0.76, -0.761], a = 0.2, v = 0.2, t = 0.2)
movej(p[0.418182869841483, 0.218269555496699, 0.312389574163376, -1.405, 0.76, -0.761], a = 0.2, v = 0.2, t = 0.2)
movej(p[0.418172649144342, 0.21825139080502, 0.313158997689265, -1.405, 0.76, -0.761], a = 0.2, v = 0.2, t = 0.2)
movej(p[0.418161538537515, 0.218231644525038, 0.313995414438621, -1.405, 0.76, -0.761], a = 0.2, v = 0.2, t = 0.2)
movej(p[0.418147107048206, 0.218205996220413, 0.315081830290183, -1.405, 0.76, -0.761], a = 0.2, v = 0.2, t = 0.2)
movej(p[0.418133425591178, 0.218181680907555, 0.316111783018444, -1.405, 0.76, -0.761], a = 0.2, v = 0.2, t = 0.2)
movej(p[0.418126892351783, 0.218170069734889, 0.316603611317555, -1.405, 0.76, -0.761], a = 0.2, v = 0.2, t = 0.2)
movej(p[0.418141654241165, 0.218196305241676, 0.315492322643188, -1.405, 0.76, -0.761], a = 0.2, v = 0.2, t = 0.2)
movej(p[0.418158789223041, 0.218226758317272, 0.314202385372909, -1.405, 0.76, -0.761], a = 0.2, v = 0.2, t = 0.2)
movej(p[0.418172969897697, 0.218251960862593, 0.313134851080265, -1.405, 0.76, -0.761], a = 0.2, v = 0.2, t = 0.2)
movej(p[0.418183672930711, 0.218270982783704, 0.31232911686415, -1.405, 0.76, -0.761], a = 0.2, v = 0.2, t = 0.2)
movej(p[0.418187980190054, 0.218278637842538, 0.312004862400432, -1.405, 0.76, -0.761], a = 0.2, v = 0.2, t = 0.2)
movej(p[0.418189825124767, 0.218281916745118, 0.311865974010318, -1.405, 0.76, -0.761], a = 0.2, v = 0.2, t = 0.2)
movej(p[0.418190712622772, 0.218283494047274, 0.311799162340302, -1.405, 0.76, -0.761], a = 0.2, v = 0.2, t = 0.2)
movej(p[0.418192562380844, 0.218286781522148, 0.311659910843285, -1.405, 0.76, -0.761], a = 0.2, v = 0.2, t = 0.2)
movej(p[0.418192338094663, 0.218286382910462, 0.31167679531424, -1.405, 0.76, -0.761], a = 0.2, v = 0.2, t = 0.2)
movej(p[0.418192318801228, 0.218286348621285, 0.311678247741849, -1.405, 0.76, -0.761], a = 0.2, v = 0.2, t = 0.2)
movej(p[0.418189236675002, 0.21828087092521, 0.311910273052393, -1.405, 0.76, -0.761], a = 0.2, v = 0.2, t = 0.2)
movej(p[0.418181094845472, 0.218266400892386, 0.312523197503408, -1.405, 0.76, -0.761], a = 0.2, v = 0.2, t = 0.2)
movej(p[0.418168438352173, 0.218243907192073, 0.313475990014938, -1.405, 0.76, -0.761], a = 0.2, v = 0.2, t = 0.2)
movej(p[0.418155752918723, 0.218221362057994, 0.314430961167882, -1.405, 0.76, -0.761], a = 0.2, v = 0.2, t = 0.2)
movej(p[0.418146185786689, 0.218204358912196, 0.315151183708515, -1.405, 0.76, -0.761], a = 0.2, v = 0.2, t = 0.2)
movej(p[0.418136551127633, 0.218187235754279, 0.315876489745779, -1.405, 0.76, -0.761], a = 0.2, v = 0.2, t = 0.2)
movej(p[0.418132745497597, 0.218180472214055, 0.316162981091662, -1.405, 0.76, -0.761], a = 0.2, v = 0.2, t = 0.2)
movej(p[0.418147726849802, 0.218207097760234, 0.315035171053243, -1.405, 0.76, -0.761], a = 0.2, v = 0.2, t = 0.2)
movej(p[0.418167683496533, 0.218242565628011, 0.313532816245142, -1.405, 0.76, -0.761], a = 0.2, v = 0.2, t = 0.2)
movej(p[0.418178101951382, 0.218261081783757, 0.31274850533626, -1.405, 0.76, -0.761], a = 0.2, v = 0.2, t = 0.2)
movej(p[0.418183769397885, 0.21827115422959, 0.312321854726105, -1.405, 0.76, -0.761], a = 0.2, v = 0.2, t = 0.2)
movej(p[0.418187888546238, 0.218278474968946, 0.312011761431575, -1.405, 0.76, -0.761], a = 0.2, v = 0.2, t = 0.2)
movej(p[0.41819071985781, 0.218283506905715, 0.311798617679948, -1.405, 0.76, -0.761], a = 0.2, v = 0.2, t = 0.2)
movej(p[0.418191349306124, 0.218284625590125, 0.311751232229203, -1.405, 0.76, -0.761], a = 0.2, v = 0.2, t = 0.2)
movej(p[0.418191694176273, 0.218285238509169, 0.311725270085692, -1.405, 0.76, -0.761], a = 0.2, v = 0.2, t = 0.2)
movej(p[0.418193252121142, 0.218288007360237, 0.311607986556262, -1.405, 0.76, -0.761], a = 0.2, v = 0.2, t = 0.2)
movej(p[0.418192752903513, 0.218287120127774, 0.311645568120646, -1.405, 0.76, -0.761], a = 0.2, v = 0.2, t = 0.2)
movej(p[0.418187587086317, 0.21827793920055, 0.312034455612966, -1.405, 0.76, -0.761], a = 0.2, v = 0.2, t = 0.2)
movej(p[0.418177568970243, 0.218260134545233, 0.31278862864896, -1.405, 0.76, -0.761], a = 0.2, v = 0.2, t = 0.2)
movej(p[0.418168759105529, 0.218244477249646, 0.313451843405938, -1.405, 0.76, -0.761], a = 0.2, v = 0.2, t = 0.2)
movej(p[0.418155846974218, 0.218221529217733, 0.314423880583288, -1.405, 0.76, -0.761], a = 0.2, v = 0.2, t = 0.2)
movej(p[0.418145013710518, 0.218202275844675, 0.315239418685764, -1.405, 0.76, -0.761], a = 0.2, v = 0.2, t = 0.2)
movej(p[0.418137713557086, 0.218189301677211, 0.315788980982334, -1.405, 0.76, -0.761], a = 0.2, v = 0.2, t = 0.2)
movej(p[0.418133582350336, 0.218181959507121, 0.31609998204412, -1.405, 0.76, -0.761], a = 0.2, v = 0.2, t = 0.2)
movej(p[0.41814852752735, 0.218208520761092, 0.314974895307468, -1.405, 0.76, -0.761], a = 0.2, v = 0.2, t = 0.2)
movej(p[0.418165146409843, 0.218238056601195, 0.313723810475731, -1.405, 0.76, -0.761], a = 0.2, v = 0.2, t = 0.2)
movej(p[0.418179302967705, 0.218263216285044, 0.312658091717598, -1.405, 0.76, -0.761], a = 0.2, v = 0.2, t = 0.2)
movej(p[0.418185035529551, 0.218273404456851, 0.312226539164262, -1.405, 0.76, -0.761], a = 0.2, v = 0.2, t = 0.2)
movej(p[0.418188394998904, 0.21827937505985, 0.311973635206838, -1.405, 0.76, -0.761], a = 0.2, v = 0.2, t = 0.2)
movej(p[0.418190604097201, 0.218283301170652, 0.311807332245603, -1.405, 0.76, -0.761], a = 0.2, v = 0.2, t = 0.2)
movej(p[0.418192369446495, 0.218286438630375, 0.311674435119375, -1.405, 0.76, -0.761], a = 0.2, v = 0.2, t = 0.2)
movej(p[0.418192169277108, 0.218286082880161, 0.311689504055819, -1.405, 0.76, -0.761], a = 0.2, v = 0.2, t = 0.2)
movej(p[0.418186142490379, 0.218275371798399, 0.312143206130193, -1.405, 0.76, -0.761], a = 0.2, v = 0.2, t = 0.2)
movej(p[0.418176712824069, 0.21825861296299, 0.312853080124111, -1.405, 0.76, -0.761], a = 0.2, v = 0.2, t = 0.2)
movej(p[0.418163178479482, 0.21823455910511, 0.313871958091853, -1.405, 0.76, -0.761], a = 0.2, v = 0.2, t = 0.2)
movej(p[0.418149511492531, 0.218210269509135, 0.314900821499407, -1.405, 0.76, -0.761], a = 0.2, v = 0.2, t = 0.2)
movej(p[0.418138596231733, 0.218190870407073, 0.315722532419221, -1.405, 0.76, -0.761], a = 0.2, v = 0.2, t = 0.2)
movej(p[0.418133866928501, 0.218182465272486, 0.316078558736887, -1.405, 0.76, -0.761], a = 0.2, v = 0.2, t = 0.2)
movej(p[0.418146443836381, 0.218204817529943, 0.315131757489244, -1.405, 0.76, -0.761], a = 0.2, v = 0.2, t = 0.2)
movej(p[0.418164297498707, 0.218236547877393, 0.313787717290529, -1.405, 0.76, -0.761], a = 0.2, v = 0.2, t = 0.2)
movej(p[0.418178704871223, 0.218262153320547, 0.312703116973478, -1.405, 0.76, -0.761], a = 0.2, v = 0.2, t = 0.2)
movej(p[0.41818534422451, 0.218273953083688, 0.312203300322517, -1.405, 0.76, -0.761], a = 0.2, v = 0.2, t = 0.2)
movej(p[0.41818856140478, 0.218279670804004, 0.31196110801871, -1.405, 0.76, -0.761], a = 0.2, v = 0.2, t = 0.2)
movej(p[0.418190213405144, 0.218282606814811, 0.311836743904686, -1.405, 0.76, -0.761], a = 0.2, v = 0.2, t = 0.2)
movej(p[0.418192480383745, 0.218286635793145, 0.311666083660623, -1.405, 0.76, -0.761], a = 0.2, v = 0.2, t = 0.2)
movej(p[0.418192598556034, 0.218286845814356, 0.311657187541518, -1.405, 0.76, -0.761], a = 0.2, v = 0.2, t = 0.2)
movej(p[0.418191105726508, 0.218284192689261, 0.311769569127767, -1.405, 0.76, -0.761], a = 0.2, v = 0.2, t = 0.2)
movej(p[0.418184215558568, 0.218271947166816, 0.312288267337646, -1.405, 0.76, -0.761], a = 0.2, v = 0.2, t = 0.2)
movej(p[0.418171402306111, 0.218249174866937, 0.3132528608235, -1.405, 0.76, -0.761], a = 0.2, v = 0.2, t = 0.2)
movej(p[0.418156953935046, 0.218223496559281, 0.314340547549219, -1.405, 0.76, -0.761], a = 0.2, v = 0.2, t = 0.2)
movej(p[0.418144948595175, 0.218202160118702, 0.315244320628944, -1.405, 0.76, -0.761], a = 0.2, v = 0.2, t = 0.2)
movej(p[0.418136666888242, 0.218187441489343, 0.315867775180125, -1.405, 0.76, -0.761], a = 0.2, v = 0.2, t = 0.2)
movej(p[0.418132690028972, 0.21818037363267, 0.316167156821038, -1.405, 0.76, -0.761], a = 0.2, v = 0.2, t = 0.2)
movej(p[0.418147625559269, 0.218206917742053, 0.31504279629819, -1.405, 0.76, -0.761], a = 0.2, v = 0.2, t = 0.2)
movej(p[0.418167652144701, 0.218242509908098, 0.313535176440007, -1.405, 0.76, -0.761], a = 0.2, v = 0.2, t = 0.2)
movej(p[0.418179845595561, 0.218264180668156, 0.312617242191093, -1.405, 0.76, -0.761], a = 0.2, v = 0.2, t = 0.2)
movej(p[0.418185915792519, 0.218274968900566, 0.312160272154599, -1.405, 0.76, -0.761], a = 0.2, v = 0.2, t = 0.2)
movej(p[0.41818924391004, 0.218280883783651, 0.31190972839204, -1.405, 0.76, -0.761], a = 0.2, v = 0.2, t = 0.2)
movej(p[0.418192313977869, 0.21828634004899, 0.311678610848751, -1.405, 0.76, -0.761], a = 0.2, v = 0.2, t = 0.2)
movej(p[0.418192504500539, 0.218286678654616, 0.311664268126112, -1.405, 0.76, -0.761], a = 0.2, v = 0.2, t = 0.2)
movej(p[0.418192562380844, 0.218286781522148, 0.311659910843285, -1.405, 0.76, -0.761], a = 0.2, v = 0.2, t = 0.2)
movej(p[0.418192873487482, 0.218287334435132, 0.311636490448089, -1.405, 0.76, -0.761], a = 0.2, v = 0.2, t = 0.2)
movej(p[0.418193806807395, 0.218288993174084, 0.311566229262502, -1.405, 0.76, -0.761], a = 0.2, v = 0.2, t = 0.2)
movej(p[0.418188759162488, 0.218280022268072, 0.311946220635717, -1.405, 0.76, -0.761], a = 0.2, v = 0.2, t = 0.2)
movej(p[0.418178540877026, 0.21826186186254, 0.312715462608155, -1.405, 0.76, -0.761], a = 0.2, v = 0.2, t = 0.2)
movej(p[0.418169880536433, 0.218246470308077, 0.313367421051163, -1.405, 0.76, -0.761], a = 0.2, v = 0.2, t = 0.2)
movej(p[0.418158936335482, 0.218227019772249, 0.314191310612391, -1.405, 0.76, -0.761], a = 0.2, v = 0.2, t = 0.2)
movej(p[0.418147220397136, 0.218206197669329, 0.31507329727798, -1.405, 0.76, -0.761], a = 0.2, v = 0.2, t = 0.2)
movej(p[0.418138581761656, 0.21819084469019, 0.315723621739928, -1.405, 0.76, -0.761], a = 0.2, v = 0.2, t = 0.2)
movej(p[0.418140670275985, 0.218194556493634, 0.315566396451249, -1.405, 0.76, -0.761], a = 0.2, v = 0.2, t = 0.2)
movej(p[0.418155215114225, 0.218220406247176, 0.314471447587484, -1.405, 0.76, -0.761], a = 0.2, v = 0.2, t = 0.2)
movej(p[0.418170488279632, 0.218247550417162, 0.313321669581478, -1.405, 0.76, -0.761], a = 0.2, v = 0.2, t = 0.2)
movej(p[0.418182479149426, 0.218268861140858, 0.312418985822459, -1.405, 0.76, -0.761], a = 0.2, v = 0.2, t = 0.2)
movej(p[0.418187058928537, 0.218277000534321, 0.312074215818764, -1.405, 0.76, -0.761], a = 0.2, v = 0.2, t = 0.2)
movej(p[0.418189805831332, 0.21828188245594, 0.311867426437927, -1.405, 0.76, -0.761], a = 0.2, v = 0.2, t = 0.2)
movej(p[0.418191151548416, 0.218284274126058, 0.311766119612196, -1.405, 0.76, -0.761], a = 0.2, v = 0.2, t = 0.2)
movej(p[0.418193461937246, 0.21828838025504, 0.311592191406013, -1.405, 0.76, -0.761], a = 0.2, v = 0.2, t = 0.2)
movej(p[0.418193592167932, 0.218288611706987, 0.311582387519652, -1.405, 0.76, -0.761], a = 0.2, v = 0.2, t = 0.2)
movej(p[0.418193367881751, 0.218288213095301, 0.311599271990608, -1.405, 0.76, -0.761], a = 0.2, v = 0.2, t = 0.2)
movej(p[0.418193129125494, 0.218287788766732, 0.311617245782269, -1.405, 0.76, -0.761], a = 0.2, v = 0.2, t = 0.2)
movej(p[0.418184181795057, 0.218271887160755, 0.312290809085962, -1.405, 0.76, -0.761], a = 0.2, v = 0.2, t = 0.2)
movej(p[0.418173893570893, 0.218253602456956, 0.313065316108482, -1.405, 0.76, -0.761], a = 0.2, v = 0.2, t = 0.2)
movej(p[0.418163151951009, 0.218234511957491, 0.313873955179815, -1.405, 0.76, -0.761], a = 0.2, v = 0.2, t = 0.2)
movej(p[0.418154612194384, 0.218219334710385, 0.314516835950267, -1.405, 0.76, -0.761], a = 0.2, v = 0.2, t = 0.2)
movej(p[0.418144094860681, 0.218200642822606, 0.315308590550645, -1.405, 0.76, -0.761], a = 0.2, v = 0.2, t = 0.2)
movej(p[0.418136536657556, 0.218187210037396, 0.315877579066486, -1.405, 0.76, -0.761], a = 0.2, v = 0.2, t = 0.2)
movej(p[0.418149304088105, 0.218209900900479, 0.314916435096204, -1.405, 0.76, -0.761], a = 0.2, v = 0.2, t = 0.2)
movej(p[0.418165151233201, 0.218238065173489, 0.313723447368829, -1.405, 0.76, -0.761], a = 0.2, v = 0.2, t = 0.2)
movej(p[0.418176527124758, 0.218258282929659, 0.312867059739848, -1.405, 0.76, -0.761], a = 0.2, v = 0.2, t = 0.2)
movej(p[0.418183971978952, 0.218271514265952, 0.31230660423621, -1.405, 0.76, -0.761], a = 0.2, v = 0.2, t = 0.2)
movej(p[0.418189822713087, 0.218281912458971, 0.311866155563769, -1.405, 0.76, -0.761], a = 0.2, v = 0.2, t = 0.2)
movej(p[0.41819132518933, 0.218284582728653, 0.311753047763715, -1.405, 0.76, -0.761], a = 0.2, v = 0.2, t = 0.2)
movej(p[0.418191995636193, 0.218285774277565, 0.311702575904301, -1.405, 0.76, -0.761], a = 0.2, v = 0.2, t = 0.2)
movej(p[0.418192887957558, 0.218287360152015, 0.311635401127382, -1.405, 0.76, -0.761], a = 0.2, v = 0.2, t = 0.2)
movej(p[0.418190466631477, 0.218283056860263, 0.311817680792317, -1.405, 0.76, -0.761], a = 0.2, v = 0.2, t = 0.2)
movej(p[0.418179807008692, 0.218264112089801, 0.312620147046312, -1.405, 0.76, -0.761], a = 0.2, v = 0.2, t = 0.2)
movej(p[0.418168826632551, 0.218244597261766, 0.313446759909306, -1.405, 0.76, -0.761], a = 0.2, v = 0.2, t = 0.2)
movej(p[0.418158984569069, 0.218227105495192, 0.314187679543368, -1.405, 0.76, -0.761], a = 0.2, v = 0.2, t = 0.2)
movej(p[0.418145734802648, 0.218203557402677, 0.315185134203876, -1.405, 0.76, -0.761], a = 0.2, v = 0.2, t = 0.2)
movej(p[0.418133905515371, 0.21818253385084, 0.316075653881669, -1.405, 0.76, -0.761], a = 0.2, v = 0.2, t = 0.2)
movej(p[0.418131081438837, 0.218177514772512, 0.316288252972942, -1.405, 0.76, -0.761], a = 0.2, v = 0.2, t = 0.2)
movej(p[0.418149528374286, 0.218210299512165, 0.314899550625249, -1.405, 0.76, -0.761], a = 0.2, v = 0.2, t = 0.2)
movej(p[0.418164637545497, 0.218237152224143, 0.313762118253919, -1.405, 0.76, -0.761], a = 0.2, v = 0.2, t = 0.2)
movej(p[0.418177023930706, 0.218259165875975, 0.312829659728916, -1.405, 0.76, -0.761], a = 0.2, v = 0.2, t = 0.2)
movej(p[0.418186349894804, 0.218275740407055, 0.312127592533396, -1.405, 0.76, -0.761], a = 0.2, v = 0.2, t = 0.2)
movej(p[0.418189863711636, 0.218281985323472, 0.311863069155099, -1.405, 0.76, -0.761], a = 0.2, v = 0.2, t = 0.2)
movej(p[0.418191537417114, 0.218284959909604, 0.311737071060015, -1.405, 0.76, -0.761], a = 0.2, v = 0.2, t = 0.2)
movej(p[0.418192253685885, 0.218286232895311, 0.31168314968503, -1.405, 0.76, -0.761], a = 0.2, v = 0.2, t = 0.2)
movej(p[0.418194221616246, 0.218289730391397, 0.311535002068908, -1.405, 0.76, -0.761], a = 0.2, v = 0.2, t = 0.2)
movej(p[0.418194173382658, 0.218289644668453, 0.31153863313793, -1.405, 0.76, -0.761], a = 0.2, v = 0.2, t = 0.2)
movej(p[0.418192039046422, 0.218285851428214, 0.31169930794218, -1.405, 0.76, -0.761], a = 0.2, v = 0.2, t = 0.2)
movej(p[0.418184939062377, 0.218273233010965, 0.312233801302307, -1.405, 0.76, -0.761], a = 0.2, v = 0.2, t = 0.2)
movej(p[0.418174257734477, 0.218254249665178, 0.313037901537362, -1.405, 0.76, -0.761], a = 0.2, v = 0.2, t = 0.2)
movej(p[0.418160619687678, 0.218230011502969, 0.314064586303502, -1.405, 0.76, -0.761], a = 0.2, v = 0.2, t = 0.2)
movej(p[0.418148098248424, 0.218207757826897, 0.315007211821769, -1.405, 0.76, -0.761], a = 0.2, v = 0.2, t = 0.2)
movej(p[0.418138485294482, 0.218190673244304, 0.315730883877973, -1.405, 0.76, -0.761], a = 0.2, v = 0.2, t = 0.2)
movej(p[0.418129771896943, 0.218175187394602, 0.316386836496906, -1.405, 0.76, -0.761], a = 0.2, v = 0.2, t = 0.2)
movej(p[0.418139908185306, 0.21819320207113, 0.315623767341806, -1.405, 0.76, -0.761], a = 0.2, v = 0.2, t = 0.2)
movej(p[0.418160904265843, 0.218230517268335, 0.314043162996268, -1.405, 0.76, -0.761], a = 0.2, v = 0.2, t = 0.2)
movej(p[0.41817761720383, 0.218260220268177, 0.312784997579938, -1.405, 0.76, -0.761], a = 0.2, v = 0.2, t = 0.2)
movej(p[0.41818515370184, 0.218273614478062, 0.312217643045156, -1.405, 0.76, -0.761], a = 0.2, v = 0.2, t = 0.2)
movej(p[0.41818897862531, 0.218280412307463, 0.311929699271664, -1.405, 0.76, -0.761], a = 0.2, v = 0.2, t = 0.2)
movej(p[0.418192528617333, 0.218286721516088, 0.311662452591601, -1.405, 0.76, -0.761], a = 0.2, v = 0.2, t = 0.2)
movej(p[0.418193172535723, 0.218287865917381, 0.311613977820149, -1.405, 0.76, -0.761], a = 0.2, v = 0.2, t = 0.2)
movej(p[0.418192859017405, 0.218287308718249, 0.311637579768796, -1.405, 0.76, -0.761], a = 0.2, v = 0.2, t = 0.2)
movej(p[0.418185691506338, 0.21827457028888, 0.312177156625554, -1.405, 0.76, -0.761], a = 0.2, v = 0.2, t = 0.2)
movej(p[0.418175801209269, 0.218256992799363, 0.312921707328638, -1.405, 0.76, -0.761], a = 0.2, v = 0.2, t = 0.2)
movej(p[0.418162216219416, 0.218232848932391, 0.313944397918854, -1.405, 0.76, -0.761], a = 0.2, v = 0.2, t = 0.2)
movej(p[0.418148021074684, 0.218207620670188, 0.315013021532205, -1.405, 0.76, -0.761], a = 0.2, v = 0.2, t = 0.2)
movej(p[0.418137875139603, 0.218189588849071, 0.315776816901109, -1.405, 0.76, -0.761], a = 0.2, v = 0.2, t = 0.2)
movej(p[0.418129000159546, 0.21817381582751, 0.316444933601267, -1.405, 0.76, -0.761], a = 0.2, v = 0.2, t = 0.2)
movej(p[0.418136054321684, 0.218186352807963, 0.315913889756712, -1.405, 0.76, -0.761], a = 0.2, v = 0.2, t = 0.2)
movej(p[0.418154867832396, 0.218219789041985, 0.314497591284447, -1.405, 0.76, -0.761], a = 0.2, v = 0.2, t = 0.2)
movej(p[0.418173698224865, 0.218253255279036, 0.313080021938024, -1.405, 0.76, -0.761], a = 0.2, v = 0.2, t = 0.2)
movej(p[0.418182628673547, 0.218269126881982, 0.312407729508489, -1.405, 0.76, -0.761], a = 0.2, v = 0.2, t = 0.2)
movej(p[0.418187912663031, 0.218278517830417, 0.312009945897064, -1.405, 0.76, -0.761], a = 0.2, v = 0.2, t = 0.2)
movej(p[0.418191004435975, 0.218284012671081, 0.311777194372715, -1.405, 0.76, -0.761], a = 0.2, v = 0.2, t = 0.2)
movej(p[0.418193199064196, 0.218287913064999, 0.311611980732187, -1.405, 0.76, -0.761], a = 0.2, v = 0.2, t = 0.2)
movej(p[0.418193290708011, 0.218288075938592, 0.311605081701044, -1.405, 0.76, -0.761], a = 0.2, v = 0.2, t = 0.2)
movej(p[0.418190276108807, 0.218282718254637, 0.311832023514956, -1.405, 0.76, -0.761], a = 0.2, v = 0.2, t = 0.2)
movej(p[0.418180831972421, 0.218265933702346, 0.312542986829581, -1.405, 0.76, -0.761], a = 0.2, v = 0.2, t = 0.2)
movej(p[0.418166263017388, 0.218240041087332, 0.313639751227858, -1.405, 0.76, -0.761], a = 0.2, v = 0.2, t = 0.2)
movej(p[0.418151800176246, 0.218214337062793, 0.314728527274284, -1.405, 0.76, -0.761], a = 0.2, v = 0.2, t = 0.2)
movej(p[0.418139722485995, 0.218192872037799, 0.315637746957543, -1.405, 0.76, -0.761], a = 0.2, v = 0.2, t = 0.2)
movej(p[0.418130145707244, 0.218175851747413, 0.31635869571198, -1.405, 0.76, -0.761], a = 0.2, v = 0.2, t = 0.2)
movej(p[0.418130152942282, 0.218175864605854, 0.316358151051627, -1.405, 0.76, -0.761], a = 0.2, v = 0.2, t = 0.2)
movej(p[0.418148216420713, 0.218207967848108, 0.314998315702663, -1.405, 0.76, -0.761], a = 0.2, v = 0.2, t = 0.2)
movej(p[0.418167753435234, 0.218242689926279, 0.313527551195059, -1.405, 0.76, -0.761], a = 0.2, v = 0.2, t = 0.2)
movej(p[0.4181792450874, 0.218263113417512, 0.312662449000425, -1.405, 0.76, -0.761], a = 0.2, v = 0.2, t = 0.2)
movej(p[0.418186497007245, 0.218276001862032, 0.312116517772877, -1.405, 0.76, -0.761], a = 0.2, v = 0.2, t = 0.2)
movej(p[0.418189842006522, 0.218281946748148, 0.31186470313616, -1.405, 0.76, -0.761], a = 0.2, v = 0.2, t = 0.2)
movej(p[0.418193194240837, 0.218287904492705, 0.311612343839089, -1.405, 0.76, -0.761], a = 0.2, v = 0.2, t = 0.2)
movej(p[0.418193633166481, 0.218288684571489, 0.311579301110983, -1.405, 0.76, -0.761], a = 0.2, v = 0.2, t = 0.2)
movej(p[0.418193722398618, 0.218288843158934, 0.311572583633291, -1.405, 0.76, -0.761], a = 0.2, v = 0.2, t = 0.2)
movej(p[0.418194875181353, 0.218290891937278, 0.311485801083651, -1.405, 0.76, -0.761], a = 0.2, v = 0.2, t = 0.2)
movej(p[0.418189682835684, 0.218281663862435, 0.311876685663934, -1.405, 0.76, -0.761], a = 0.2, v = 0.2, t = 0.2)
movej(p[0.41817890262893, 0.218262504784615, 0.312688229590485, -1.405, 0.76, -0.761], a = 0.2, v = 0.2, t = 0.2)
movej(p[0.418167574970961, 0.218242372751388, 0.313540986150443, -1.405, 0.76, -0.761], a = 0.2, v = 0.2, t = 0.2)
movej(p[0.418157486916185, 0.218224443797804, 0.31430042423652, -1.405, 0.76, -0.761], a = 0.2, v = 0.2, t = 0.2)
movej(p[0.418143967041675, 0.218200415656806, 0.315318212883554, -1.405, 0.76, -0.761], a = 0.2, v = 0.2, t = 0.2)
movej(p[0.418133054192556, 0.218181020840892, 0.316139742249918, -1.405, 0.76, -0.761], a = 0.2, v = 0.2, t = 0.2)
movej(p[0.418135468283599, 0.218185311274202, 0.315958007245337, -1.405, 0.76, -0.761], a = 0.2, v = 0.2, t = 0.2)
movej(p[0.418148691521547, 0.218208812219099, 0.314962549672791, -1.405, 0.76, -0.761], a = 0.2, v = 0.2, t = 0.2)
movej(p[0.418163361767114, 0.218234884852294, 0.313858160029567, -1.405, 0.76, -0.761], a = 0.2, v = 0.2, t = 0.2)
movej(p[0.418176167784532, 0.218257644293732, 0.312894111204067, -1.405, 0.76, -0.761], a = 0.2, v = 0.2, t = 0.2)
movej(p[0.418186055669922, 0.218275217497101, 0.312149742054434, -1.405, 0.76, -0.761], a = 0.2, v = 0.2, t = 0.2)
movej(p[0.418189186029735, 0.218280780916119, 0.311914085674867, -1.405, 0.76, -0.761], a = 0.2, v = 0.2, t = 0.2)
movej(p[0.418191158783454, 0.218284286984499, 0.311765574951843, -1.405, 0.76, -0.761], a = 0.2, v = 0.2, t = 0.2)
movej(p[0.418192716728323, 0.218287055835567, 0.311648291422413, -1.405, 0.76, -0.761], a = 0.2, v = 0.2, t = 0.2)
movej(p[0.418194260203116, 0.218289798969751, 0.311532097213689, -1.405, 0.76, -0.761], a = 0.2, v = 0.2, t = 0.2)
movej(p[0.418194233674643, 0.218289751822132, 0.311534094301652, -1.405, 0.76, -0.761], a = 0.2, v = 0.2, t = 0.2)
movej(p[0.418190063881023, 0.218282341073687, 0.311848000218656, -1.405, 0.76, -0.761], a = 0.2, v = 0.2, t = 0.2)
movej(p[0.418182175277826, 0.218268321086315, 0.312441861557302, -1.405, 0.76, -0.761], a = 0.2, v = 0.2, t = 0.2)
movej(p[0.418170247111696, 0.218247121802445, 0.313339824926591, -1.405, 0.76, -0.761], a = 0.2, v = 0.2, t = 0.2)
movej(p[0.418157098635807, 0.218223753728111, 0.314329654342152, -1.405, 0.76, -0.761], a = 0.2, v = 0.2, t = 0.2)
movej(p[0.418146284665543, 0.21820453464423, 0.315143740017018, -1.405, 0.76, -0.761], a = 0.2, v = 0.2, t = 0.2)
movej(p[0.418137947489984, 0.218189717433486, 0.315771370297575, -1.405, 0.76, -0.761], a = 0.2, v = 0.2, t = 0.2)
movej(p[0.418135053474748, 0.21818457405689, 0.315989234438931, -1.405, 0.76, -0.761], a = 0.2, v = 0.2, t = 0.2)
movej(p[0.418148443118573, 0.218208370745941, 0.314981249678257, -1.405, 0.76, -0.761], a = 0.2, v = 0.2, t = 0.2)
movej(p[0.418168216477672, 0.218243512866534, 0.313492692932442, -1.405, 0.76, -0.761], a = 0.2, v = 0.2, t = 0.2)
movej(p[0.418178914687327, 0.218262526215351, 0.31268732182323, -1.405, 0.76, -0.761], a = 0.2, v = 0.2, t = 0.2)
movej(p[0.418185631214354, 0.218274463135201, 0.312181695461833, -1.405, 0.76, -0.761], a = 0.2, v = 0.2, t = 0.2)
movej(p[0.418189516429808, 0.218281368118281, 0.311889212852062, -1.405, 0.76, -0.761], a = 0.2, v = 0.2, t = 0.2)
movej(p[0.418193247297783, 0.218287998787943, 0.311608349663164, -1.405, 0.76, -0.761], a = 0.2, v = 0.2, t = 0.2)
movej(p[0.418193818865792, 0.21828901460482, 0.311565321495246, -1.405, 0.76, -0.761], a = 0.2, v = 0.2, t = 0.2)
movej(p[0.41819390086289, 0.218289160333824, 0.311559148677908, -1.405, 0.76, -0.761], a = 0.2, v = 0.2, t = 0.2)
movej(p[0.418194841417842, 0.218290831931218, 0.311488342831967, -1.405, 0.76, -0.761], a = 0.2, v = 0.2, t = 0.2)
movej(p[0.418188780867602, 0.218280060843396, 0.311944586654657, -1.405, 0.76, -0.761], a = 0.2, v = 0.2, t = 0.2)
movej(p[0.41817651747804, 0.21825826578507, 0.312867785953653, -1.405, 0.76, -0.761], a = 0.2, v = 0.2, t = 0.2)
movej(p[0.418163053072155, 0.218234336225457, 0.313881398871312, -1.405, 0.76, -0.761], a = 0.2, v = 0.2, t = 0.2)
movej(p[0.418149540432683, 0.218210320942901, 0.314898642857993, -1.405, 0.76, -0.761], a = 0.2, v = 0.2, t = 0.2)
movej(p[0.41813508482658, 0.218184629776803, 0.315986874244066, -1.405, 0.76, -0.761], a = 0.2, v = 0.2, t = 0.2)
movej(p[0.418124813484172, 0.218166375076035, 0.316760110392429, -1.405, 0.76, -0.761], a = 0.2, v = 0.2, t = 0.2)
movej(p[0.41813201717043, 0.218179177797612, 0.316217810233904, -1.405, 0.76, -0.761], a = 0.2, v = 0.2, t = 0.2)
movej(p[0.418153743989813, 0.218217791697406, 0.314582195192673, -1.405, 0.76, -0.761], a = 0.2, v = 0.2, t = 0.2)
movej(p[0.418171226253517, 0.218248861978194, 0.313266114225432, -1.405, 0.76, -0.761], a = 0.2, v = 0.2, t = 0.2)
movej(p[0.418181760468976, 0.218267583869003, 0.312473088750896, -1.405, 0.76, -0.761], a = 0.2, v = 0.2, t = 0.2)
movej(p[0.418189931238659, 0.218282105335593, 0.311857985658468, -1.405, 0.76, -0.761], a = 0.2, v = 0.2, t = 0.2)
movej(p[0.418191727939784, 0.21828529851523, 0.311722728337376, -1.405, 0.76, -0.761], a = 0.2, v = 0.2, t = 0.2)
movej(p[0.418192849370688, 0.218287291573661, 0.311638305982601, -1.405, 0.76, -0.761], a = 0.2, v = 0.2, t = 0.2)
movej(p[0.418193893627852, 0.218289147475382, 0.311559693338261, -1.405, 0.76, -0.761], a = 0.2, v = 0.2, t = 0.2)
movej(p[0.418195118760969, 0.218291324838141, 0.311467464185087, -1.405, 0.76, -0.761], a = 0.2, v = 0.2, t = 0.2)
movej(p[0.418190743974604, 0.218283549767187, 0.311796802145437, -1.405, 0.76, -0.761], a = 0.2, v = 0.2, t = 0.2)
movej(p[0.418179204088851, 0.21826304055301, 0.312665535409094, -1.405, 0.76, -0.761], a = 0.2, v = 0.2, t = 0.2)
movej(p[0.418168093482024, 0.218243294273029, 0.31350195215845, -1.405, 0.76, -0.761], a = 0.2, v = 0.2, t = 0.2)
movej(p[0.418153025309363, 0.218216514425552, 0.31463629812111, -1.405, 0.76, -0.761], a = 0.2, v = 0.2, t = 0.2)
movej(p[0.418138352652117, 0.21819043750621, 0.315740869317785, -1.405, 0.76, -0.761], a = 0.2, v = 0.2, t = 0.2)
movej(p[0.418129873187476, 0.218175367412783, 0.316379211251958, -1.405, 0.76, -0.761], a = 0.2, v = 0.2, t = 0.2)
movej(p[0.418130126413809, 0.218175817458235, 0.316360148139589, -1.405, 0.76, -0.761], a = 0.2, v = 0.2, t = 0.2)
movej(p[0.418145189763112, 0.218202588733418, 0.315226165283831, -1.405, 0.76, -0.761], a = 0.2, v = 0.2, t = 0.2)
movej(p[0.418163940570161, 0.218235913527613, 0.313814587201296, -1.405, 0.76, -0.761], a = 0.2, v = 0.2, t = 0.2)
movej(p[0.418179500725412, 0.218263567749111, 0.312643204334605, -1.405, 0.76, -0.761], a = 0.2, v = 0.2, t = 0.2)
movej(p[0.418186246192591, 0.218275556102727, 0.312135399331794, -1.405, 0.76, -0.761], a = 0.2, v = 0.2, t = 0.2)
movej(p[0.418189598426906, 0.218281513847284, 0.311883040034724, -1.405, 0.76, -0.761], a = 0.2, v = 0.2, t = 0.2)
movej(p[0.418192108985123, 0.218285975726481, 0.311694042892097, -1.405, 0.76, -0.761], a = 0.2, v = 0.2, t = 0.2)
movej(p[0.418194192676093, 0.218289678957631, 0.311537180710321, -1.405, 0.76, -0.761], a = 0.2, v = 0.2, t = 0.2)
movej(p[0.418194187852735, 0.218289670385336, 0.311537543817223, -1.405, 0.76, -0.761], a = 0.2, v = 0.2, t = 0.2)
movej(p[0.418189581545151, 0.218281483844254, 0.311884310908882, -1.405, 0.76, -0.761], a = 0.2, v = 0.2, t = 0.2)
movej(p[0.418180308637999, 0.218265003608411, 0.312582383928476, -1.405, 0.76, -0.761], a = 0.2, v = 0.2, t = 0.2)
movej(p[0.418165127116408, 0.218238022312018, 0.31372526290334, -1.405, 0.76, -0.761], a = 0.2, v = 0.2, t = 0.2)
movej(p[0.418149528374286, 0.218210299512165, 0.314899550625249, -1.405, 0.76, -0.761], a = 0.2, v = 0.2, t = 0.2)
movej(p[0.418137202281061, 0.218188393014013, 0.315827470313974, -1.405, 0.76, -0.761], a = 0.2, v = 0.2, t = 0.2)
movej(p[0.418127350570862, 0.21817088410285, 0.31656911616184, -1.405, 0.76, -0.761], a = 0.2, v = 0.2, t = 0.2)
movej(p[0.418127898022077, 0.218171857058257, 0.316527903528434, -1.405, 0.76, -0.761], a = 0.2, v = 0.2, t = 0.2)
movej(p[0.418146072437759, 0.21820415746328, 0.315159716720718, -1.405, 0.76, -0.761], a = 0.2, v = 0.2, t = 0.2)
movej(p[0.418167309686231, 0.2182419012752, 0.313560957030067, -1.405, 0.76, -0.761], a = 0.2, v = 0.2, t = 0.2)
movej(p[0.418178130891534, 0.218261133217523, 0.312746326694847, -1.405, 0.76, -0.761], a = 0.2, v = 0.2, t = 0.2)
movej(p[0.418185387634738, 0.218274030234337, 0.312200032360397, -1.405, 0.76, -0.761], a = 0.2, v = 0.2, t = 0.2)
movej(p[0.41818966113057, 0.218281625287111, 0.311878319644994, -1.405, 0.76, -0.761], a = 0.2, v = 0.2, t = 0.2)
movej(p[0.418193247297783, 0.218287998787943, 0.311608349663164, -1.405, 0.76, -0.761], a = 0.2, v = 0.2, t = 0.2)
movej(p[0.418193736868694, 0.218288868875817, 0.311571494312585, -1.405, 0.76, -0.761], a = 0.2, v = 0.2, t = 0.2)
movej(p[0.418193893627852, 0.218289147475382, 0.311559693338261, -1.405, 0.76, -0.761], a = 0.2, v = 0.2, t = 0.2)
movej(p[0.418191317954292, 0.218284569870212, 0.311753592424068, -1.405, 0.76, -0.761], a = 0.2, v = 0.2, t = 0.2)
movej(p[0.418177974132376, 0.218260854617957, 0.31275812766917, -1.405, 0.76, -0.761], a = 0.2, v = 0.2, t = 0.2)
movej(p[0.418162281334759, 0.218232964658365, 0.313939495975673, -1.405, 0.76, -0.761], a = 0.2, v = 0.2, t = 0.2)
movej(p[0.418148021074684, 0.218207620670188, 0.315013021532205, -1.405, 0.76, -0.761], a = 0.2, v = 0.2, t = 0.2)
movej(p[0.418136478777252, 0.218187107169864, 0.315881936349313, -1.405, 0.76, -0.761], a = 0.2, v = 0.2, t = 0.2)
movej(p[0.418124417968756, 0.2181656721479, 0.316789885158414, -1.405, 0.76, -0.761], a = 0.2, v = 0.2, t = 0.2)
movej(p[0.418125481519355, 0.218167562338799, 0.316709820086466, -1.405, 0.76, -0.761], a = 0.2, v = 0.2, t = 0.2)
movej(p[0.418144557903119, 0.218201465762861, 0.315273732288028, -1.405, 0.76, -0.761], a = 0.2, v = 0.2, t = 0.2)
movej(p[0.41816292042979, 0.218234100487363, 0.313891384311124, -1.405, 0.76, -0.761], a = 0.2, v = 0.2, t = 0.2)
movej(p[0.418176312485294, 0.218257901462561, 0.312883217996999, -1.405, 0.76, -0.761], a = 0.2, v = 0.2, t = 0.2)
movej(p[0.418184615897342, 0.218272658667245, 0.312258129464758, -1.405, 0.76, -0.761], a = 0.2, v = 0.2, t = 0.2)
movej(p[0.418190903145442, 0.2182838326529, 0.311784819617662, -1.405, 0.76, -0.761], a = 0.2, v = 0.2, t = 0.2)
movej(p[0.418192846959009, 0.218287287287513, 0.311638487536052, -1.405, 0.76, -0.761], a = 0.2, v = 0.2, t = 0.2)
movej(p[0.418193625931443, 0.218288671713047, 0.311579845771337, -1.405, 0.76, -0.761], a = 0.2, v = 0.2, t = 0.2)
movej(p[0.418194834182804, 0.218290819072776, 0.311488887492321, -1.405, 0.76, -0.761], a = 0.2, v = 0.2, t = 0.2)
movej(p[0.418193946684798, 0.21828924177062, 0.311555699162336, -1.405, 0.76, -0.761], a = 0.2, v = 0.2, t = 0.2)
movej(p[0.418186132843661, 0.218275354653811, 0.312143932343998, -1.405, 0.76, -0.761], a = 0.2, v = 0.2, t = 0.2)
movej(p[0.418173001249529, 0.218252016582506, 0.3131324908854, -1.405, 0.76, -0.761], a = 0.2, v = 0.2, t = 0.2)
movej(p[0.4181606872147, 0.21823013151509, 0.31405950280687, -1.405, 0.76, -0.761], a = 0.2, v = 0.2, t = 0.2)
movej(p[0.418145553926696, 0.21820323594164, 0.315198750712711, -1.405, 0.76, -0.761], a = 0.2, v = 0.2, t = 0.2)
movej(p[0.418132465742791, 0.218179975020984, 0.316184041291993, -1.405, 0.76, -0.761], a = 0.2, v = 0.2, t = 0.2)
movej(p[0.418127215516818, 0.218170644078609, 0.316579283155103, -1.405, 0.76, -0.761], a = 0.2, v = 0.2, t = 0.2)
movej(p[0.418139372792488, 0.21819225054646, 0.315664072207957, -1.405, 0.76, -0.761], a = 0.2, v = 0.2, t = 0.2)
movej(p[0.418157252983287, 0.218224028041529, 0.314318034921279, -1.405, 0.76, -0.761], a = 0.2, v = 0.2, t = 0.2)
movej(p[0.418172564735564, 0.218251240789869, 0.313165352060055, -1.405, 0.76, -0.761], a = 0.2, v = 0.2, t = 0.2)
movej(p[0.41818469789444, 0.218272804396248, 0.31225195664742, -1.405, 0.76, -0.761], a = 0.2, v = 0.2, t = 0.2)
movej(p[0.418188985860348, 0.218280425165905, 0.311929154611311, -1.405, 0.76, -0.761], a = 0.2, v = 0.2, t = 0.2)
movej(p[0.418191655589403, 0.218285169930815, 0.31172817494091, -1.405, 0.76, -0.761], a = 0.2, v = 0.2, t = 0.2)
movej(p[0.418192984424732, 0.218287531597902, 0.311628138989337, -1.405, 0.76, -0.761], a = 0.2, v = 0.2, t = 0.2)
movej(p[0.418195142877762, 0.218291367699613, 0.311465648650576, -1.405, 0.76, -0.761], a = 0.2, v = 0.2, t = 0.2)
movej(p[0.418195220051502, 0.218291504856322, 0.31145983894014, -1.405, 0.76, -0.761], a = 0.2, v = 0.2, t = 0.2)
movej(p[0.418194416962274, 0.218290077569317, 0.311520296239366, -1.405, 0.76, -0.761], a = 0.2, v = 0.2, t = 0.2)
movej(p[0.418189369317367, 0.218281106663304, 0.311900287612581, -1.405, 0.76, -0.761], a = 0.2, v = 0.2, t = 0.2)
movej(p[0.418177684730852, 0.218260340280297, 0.312779914083306, -1.405, 0.76, -0.761], a = 0.2, v = 0.2, t = 0.2)
movej(p[0.418163369002152, 0.218234897710735, 0.313857615369214, -1.405, 0.76, -0.761], a = 0.2, v = 0.2, t = 0.2)
movej(p[0.41815103085053, 0.218212969781848, 0.314786442825195, -1.405, 0.76, -0.761], a = 0.2, v = 0.2, t = 0.2)
movej(p[0.418141162258575, 0.218195430867655, 0.315529359547219, -1.405, 0.76, -0.761], a = 0.2, v = 0.2, t = 0.2)
movej(p[0.418129950361215, 0.218175504569493, 0.316373401541522, -1.405, 0.76, -0.761], a = 0.2, v = 0.2, t = 0.2)
movej(p[0.418131720533868, 0.21817865060151, 0.316240141308393, -1.405, 0.76, -0.761], a = 0.2, v = 0.2, t = 0.2)
movej(p[0.418150203644508, 0.218211499633371, 0.314848715658932, -1.405, 0.76, -0.761], a = 0.2, v = 0.2, t = 0.2)
movej(p[0.418168773575605, 0.218244502966529, 0.313450754085231, -1.405, 0.76, -0.761], a = 0.2, v = 0.2, t = 0.2)
movej(p[0.418179401846559, 0.218263392017078, 0.312650648026101, -1.405, 0.76, -0.761], a = 0.2, v = 0.2, t = 0.2)
movej(p[0.41818674541022, 0.21827644333519, 0.312097817767411, -1.405, 0.76, -0.761], a = 0.2, v = 0.2, t = 0.2)
movej(p[0.418192441796876, 0.21828656721479, 0.311668988515841, -1.405, 0.76, -0.761], a = 0.2, v = 0.2, t = 0.2)
movej(p[0.418193575286176, 0.218288581703957, 0.31158365839381, -1.405, 0.76, -0.761], a = 0.2, v = 0.2, t = 0.2)
movej(p[0.418194238498001, 0.218289760394427, 0.31153373119475, -1.405, 0.76, -0.761], a = 0.2, v = 0.2, t = 0.2)
movej(p[0.418194778714179, 0.218290720491391, 0.311493063221697, -1.405, 0.76, -0.761], a = 0.2, v = 0.2, t = 0.2)
movej(p[0.418194031093576, 0.218289391785771, 0.311549344791547, -1.405, 0.76, -0.761], a = 0.2, v = 0.2, t = 0.2)
movej(p[0.418184722011234, 0.21827284725772, 0.312250141112909, -1.405, 0.76, -0.761], a = 0.2, v = 0.2, t = 0.2)
movej(p[0.418170973027184, 0.218248411932742, 0.313285177337801, -1.405, 0.76, -0.761], a = 0.2, v = 0.2, t = 0.2)
movej(p[0.418158391295946, 0.21822605110299, 0.314232341692346, -1.405, 0.76, -0.761], a = 0.2, v = 0.2, t = 0.2)
movej(p[0.41814311330718, 0.21819889836071, 0.315382482805254, -1.405, 0.76, -0.761], a = 0.2, v = 0.2, t = 0.2)
movej(p[0.418129378793206, 0.218174488752615, 0.31641642970944, -1.405, 0.76, -0.761], a = 0.2, v = 0.2, t = 0.2)
