def moving():
set_payload_mass(0)
set_tcp(p[0,0,0,0,0,0])
movej(p[0.4838, 0.0488, 0.4305, -1.278, 1.001, -1.031], a = 0.2, v = 0.2, t = 0.2)
movej(p[0.483820888215996, 0.0488106754040538, 0.429949689747251, -1.278, 1.001, -1.031], a = 0.2, v = 0.2, t = 0.2)
movej(p[0.483858260681966, 0.0488297754638585, 0.428965093877565, -1.278, 1.001, -1.031], a = 0.2, v = 0.2, t = 0.2)
movej(p[0.483917006774809, 0.0488597990081293, 0.427417399368508, -1.278, 1.001, -1.031], a = 0.2, v = 0.2, t = 0.2)
movej(p[0.483980368063248, 0.048892181254445, 0.425748115277273, -1.278, 1.001, -1.031], a = 0.2, v = 0.2, t = 0.2)
movej(p[0.484047696068692, 0.0489265907828797, 0.423974326089112, -1.278, 1.001, -1.031], a = 0.2, v = 0.2, t = 0.2)
movej(p[0.484108554457301, 0.0489576938645696, 0.422370982116396, -1.278, 1.001, -1.031], a = 0.2, v = 0.2, t = 0.2)
movej(p[0.48415701211493, 0.0489824592669769, 0.42109434145816, -1.278, 1.001, -1.031], a = 0.2, v = 0.2, t = 0.2)
movej(p[0.484184233046724, 0.0489963711513469, 0.420377192714631, -1.278, 1.001, -1.031], a = 0.2, v = 0.2, t = 0.2)
movej(p[0.484194775564193, 0.0490017591478012, 0.420099444942687, -1.278, 1.001, -1.031], a = 0.2, v = 0.2, t = 0.2)
movej(p[0.484192841505233, 0.0490007707024085, 0.420150398670634, -1.278, 1.001, -1.031], a = 0.2, v = 0.2, t = 0.2)
movej(p[0.484155373853223, 0.0489816219955855, 0.421137502263009, -1.278, 1.001, -1.031], a = 0.2, v = 0.2, t = 0.2)
movej(p[0.484105152788894, 0.0489559553635554, 0.422460600732019, -1.278, 1.001, -1.031], a = 0.2, v = 0.2, t = 0.2)
movej(p[0.484045856816544, 0.0489256507906926, 0.424022782085296, -1.278, 1.001, -1.031], a = 0.2, v = 0.2, t = 0.2)
movej(p[0.483991327730688, 0.0488977824450035, 0.425459377485576, -1.278, 1.001, -1.031], a = 0.2, v = 0.2, t = 0.2)
movej(p[0.483941068743635, 0.0488720964316912, 0.426783475047291, -1.278, 1.001, -1.031], a = 0.2, v = 0.2, t = 0.2)
movej(p[0.483909357761236, 0.0488558898035076, 0.427618916367073, -1.278, 1.001, -1.031], a = 0.2, v = 0.2, t = 0.2)
movej(p[0.483894594444507, 0.0488483446703434, 0.428007863157064, -1.278, 1.001, -1.031], a = 0.2, v = 0.2, t = 0.2)
movej(p[0.483883338979815, 0.0488425923057837, 0.428304393871859, -1.278, 1.001, -1.031], a = 0.2, v = 0.2, t = 0.2)
movej(p[0.483869565446201, 0.0488355530240852, 0.428667264342254, -1.278, 1.001, -1.031], a = 0.2, v = 0.2, t = 0.2)
movej(p[0.483863831530226, 0.0488326225742151, 0.428818327159225, -1.278, 1.001, -1.031], a = 0.2, v = 0.2, t = 0.2)
movej(p[0.483863979428852, 0.0488326981612157, 0.428814430697676, -1.278, 1.001, -1.031], a = 0.2, v = 0.2, t = 0.2)
movej(p[0.483857593242012, 0.0488294343532916, 0.42898267790917, -1.278, 1.001, -1.031], a = 0.2, v = 0.2, t = 0.2)
movej(p[0.483858575440581, 0.0488299363285008, 0.428956801408115, -1.278, 1.001, -1.031], a = 0.2, v = 0.2, t = 0.2)
movej(p[0.483861609258558, 0.0488314868310776, 0.428876873991728, -1.278, 1.001, -1.031], a = 0.2, v = 0.2, t = 0.2)
movej(p[0.483858165875155, 0.048829727010653, 0.428967591609327, -1.278, 1.001, -1.031], a = 0.2, v = 0.2, t = 0.2)
movej(p[0.483837930309251, 0.048819385158466, 0.429500707476626, -1.278, 1.001, -1.031], a = 0.2, v = 0.2, t = 0.2)
movej(p[0.483824076379462, 0.0488123047884492, 0.429865696023556, -1.278, 1.001, -1.031], a = 0.2, v = 0.2, t = 0.2)
movej(p[0.483824019874602, 0.0488122759103387, 0.429867184671686, -1.278, 1.001, -1.031], a = 0.2, v = 0.2, t = 0.2)
movej(p[0.483825496964729, 0.0488130308112808, 0.429828270010833, -1.278, 1.001, -1.031], a = 0.2, v = 0.2, t = 0.2)
movej(p[0.483837383842788, 0.0488191058741893, 0.429515104402503, -1.278, 1.001, -1.031], a = 0.2, v = 0.2, t = 0.2)
movej(p[0.483878424194693, 0.0488400804916093, 0.428433876286405, -1.278, 1.001, -1.031], a = 0.2, v = 0.2, t = 0.2)
movej(p[0.483944743455659, 0.0488739744779373, 0.426686662964193, -1.278, 1.001, -1.031], a = 0.2, v = 0.2, t = 0.2)
movej(p[0.484005776288801, 0.0489051667135253, 0.425078723165035, -1.278, 1.001, -1.031], a = 0.2, v = 0.2, t = 0.2)
movej(p[0.484054389429602, 0.0489300115791897, 0.423797986226709, -1.278, 1.001, -1.031], a = 0.2, v = 0.2, t = 0.2)
movej(p[0.484080594032375, 0.0489434040451965, 0.423107613167669, -1.278, 1.001, -1.031], a = 0.2, v = 0.2, t = 0.2)
movej(p[0.48406928926814, 0.0489376264849698, 0.42340544270298, -1.278, 1.001, -1.031], a = 0.2, v = 0.2, t = 0.2)
movej(p[0.484017653686179, 0.0489112369311134, 0.424765807329881, -1.278, 1.001, -1.031], a = 0.2, v = 0.2, t = 0.2)
movej(p[0.483962889479431, 0.0488832484214746, 0.42620859710493, -1.278, 1.001, -1.031], a = 0.2, v = 0.2, t = 0.2)
movej(p[0.483927924727252, 0.0488653788792774, 0.427129760578786, -1.278, 1.001, -1.031], a = 0.2, v = 0.2, t = 0.2)
movej(p[0.483899729181433, 0.0488509688959546, 0.42787258600483, -1.278, 1.001, -1.031], a = 0.2, v = 0.2, t = 0.2)
movej(p[0.483878382479696, 0.0488400591721989, 0.42843497528838, -1.278, 1.001, -1.031], a = 0.2, v = 0.2, t = 0.2)
movej(p[0.483864002182487, 0.048832709789985, 0.428813831242053, -1.278, 1.001, -1.031], a = 0.2, v = 0.2, t = 0.2)
movej(p[0.483857733556093, 0.0488295060640358, 0.428978981266162, -1.278, 1.001, -1.031], a = 0.2, v = 0.2, t = 0.2)
movej(p[0.483848161860377, 0.0488246142284061, 0.429231152264862, -1.278, 1.001, -1.031], a = 0.2, v = 0.2, t = 0.2)
movej(p[0.483860505707269, 0.0488309228357653, 0.428905947589439, -1.278, 1.001, -1.031], a = 0.2, v = 0.2, t = 0.2)
movej(p[0.483901932491738, 0.048852094948451, 0.427814538718679, -1.278, 1.001, -1.031], a = 0.2, v = 0.2, t = 0.2)
movej(p[0.483960215927339, 0.0488818820410788, 0.426279033140621, -1.278, 1.001, -1.031], a = 0.2, v = 0.2, t = 0.2)
movej(p[0.484013891751889, 0.0489093143079182, 0.4248649173262, -1.278, 1.001, -1.031], a = 0.2, v = 0.2, t = 0.2)
movej(p[0.484059884432412, 0.0489328199269819, 0.423653217693779, -1.278, 1.001, -1.031], a = 0.2, v = 0.2, t = 0.2)
movej(p[0.4840808936219, 0.048943557157326, 0.423099720335301, -1.278, 1.001, -1.031], a = 0.2, v = 0.2, t = 0.2)
movej(p[0.484054488028687, 0.0489300619705235, 0.423795388585676, -1.278, 1.001, -1.031], a = 0.2, v = 0.2, t = 0.2)
movej(p[0.484002549064929, 0.0489035173664093, 0.425163745954216, -1.278, 1.001, -1.031], a = 0.2, v = 0.2, t = 0.2)
movej(p[0.483955069813597, 0.048879252001083, 0.426414610020667, -1.278, 1.001, -1.031], a = 0.2, v = 0.2, t = 0.2)
movej(p[0.483928322915861, 0.0488655823827406, 0.427119270105386, -1.278, 1.001, -1.031], a = 0.2, v = 0.2, t = 0.2)
movej(p[0.483900984423621, 0.0488516104163957, 0.4278395160363, -1.278, 1.001, -1.031], a = 0.2, v = 0.2, t = 0.2)
movej(p[0.483882952168023, 0.0488423946167051, 0.428314584617448, -1.278, 1.001, -1.031], a = 0.2, v = 0.2, t = 0.2)
movej(p[0.4838703921616, 0.0488359755360373, 0.428645484121289, -1.278, 1.001, -1.031], a = 0.2, v = 0.2, t = 0.2)
movej(p[0.483861112470864, 0.0488312329362806, 0.428889962106161, -1.278, 1.001, -1.031], a = 0.2, v = 0.2, t = 0.2)
movej(p[0.483847509589512, 0.0488242808703521, 0.429248336659385, -1.278, 1.001, -1.031], a = 0.2, v = 0.2, t = 0.2)
movej(p[0.483859682784143, 0.0488305022619413, 0.428927627901134, -1.278, 1.001, -1.031], a = 0.2, v = 0.2, t = 0.2)
movej(p[0.483894480676333, 0.0488482865264968, 0.428010860435179, -1.278, 1.001, -1.031], a = 0.2, v = 0.2, t = 0.2)
movej(p[0.483927727529083, 0.0488652780966099, 0.427134955860852, -1.278, 1.001, -1.031], a = 0.2, v = 0.2, t = 0.2)
movej(p[0.483953094039639, 0.0488782422362799, 0.426466662750589, -1.278, 1.001, -1.031], a = 0.2, v = 0.2, t = 0.2)
movej(p[0.483960557231862, 0.0488820564726187, 0.426270041306278, -1.278, 1.001, -1.031], a = 0.2, v = 0.2, t = 0.2)
movej(p[0.483955077398142, 0.0488792558773394, 0.426414410202126, -1.278, 1.001, -1.031], a = 0.2, v = 0.2, t = 0.2)
movej(p[0.48392047670412, 0.0488615723954514, 0.427325982386016, -1.278, 1.001, -1.031], a = 0.2, v = 0.2, t = 0.2)
movej(p[0.483891408935632, 0.0488467166426378, 0.42809178694427, -1.278, 1.001, -1.031], a = 0.2, v = 0.2, t = 0.2)
movej(p[0.483873061921419, 0.0488373399783049, 0.428575147994869, -1.278, 1.001, -1.031], a = 0.2, v = 0.2, t = 0.2)
movej(p[0.483864654453352, 0.048833043148039, 0.42879664684753, -1.278, 1.001, -1.031], a = 0.2, v = 0.2, t = 0.2)
movej(p[0.483839534440506, 0.0488202049867034, 0.429458445855211, -1.278, 1.001, -1.031], a = 0.2, v = 0.2, t = 0.2)
movej(p[0.48382657548702, 0.0488135820149468, 0.429799855814307, -1.278, 1.001, -1.031], a = 0.2, v = 0.2, t = 0.2)
movej(p[0.483831569530636, 0.048816134336001, 0.429668285296008, -1.278, 1.001, -1.031], a = 0.2, v = 0.2, t = 0.2)
movej(p[0.483848954445323, 0.0488250192972043, 0.429210271227331, -1.278, 1.001, -1.031], a = 0.2, v = 0.2, t = 0.2)
movej(p[0.483868086459938, 0.048834797154079, 0.428706228957743, -1.278, 1.001, -1.031], a = 0.2, v = 0.2, t = 0.2)
movej(p[0.483890494997967, 0.0488462495537366, 0.428115865078457, -1.278, 1.001, -1.031], a = 0.2, v = 0.2, t = 0.2)
movej(p[0.483916695808466, 0.0488596400816152, 0.427425591928688, -1.278, 1.001, -1.031], a = 0.2, v = 0.2, t = 0.2)
movej(p[0.48391330930915, 0.0488579093331138, 0.427514810907229, -1.278, 1.001, -1.031], a = 0.2, v = 0.2, t = 0.2)
movej(p[0.483896039300319, 0.0488490830971956, 0.42796979772501, -1.278, 1.001, -1.031], a = 0.2, v = 0.2, t = 0.2)
movej(p[0.483874385424511, 0.048838016385054, 0.42854027965947, -1.278, 1.001, -1.031], a = 0.2, v = 0.2, t = 0.2)
movej(p[0.483862561118948, 0.0488319733012611, 0.428851796764837, -1.278, 1.001, -1.031], a = 0.2, v = 0.2, t = 0.2)
movej(p[0.483841551929461, 0.048821236070917, 0.429405294123314, -1.278, 1.001, -1.031], a = 0.2, v = 0.2, t = 0.2)
movej(p[0.483826117380505, 0.0488133478890577, 0.429811924854181, -1.278, 1.001, -1.031], a = 0.2, v = 0.2, t = 0.2)
movej(p[0.483816157735316, 0.048808257782911, 0.430074316571252, -1.278, 1.001, -1.031], a = 0.2, v = 0.2, t = 0.2)
movej(p[0.483809735521887, 0.0488049755627688, 0.430243512920815, -1.278, 1.001, -1.031], a = 0.2, v = 0.2, t = 0.2)
movej(p[0.48379624921499, 0.0487980830749018, 0.430598816263064, -1.278, 1.001, -1.031], a = 0.2, v = 0.2, t = 0.2)
movej(p[0.483798197570817, 0.0487990788270379, 0.430547485877168, -1.278, 1.001, -1.031], a = 0.2, v = 0.2, t = 0.2)
movej(p[0.483825058198804, 0.0488128065698456, 0.429839829513427, -1.278, 1.001, -1.031], a = 0.2, v = 0.2, t = 0.2)
movej(p[0.483859155658269, 0.0488302328621186, 0.428941515289731, -1.278, 1.001, -1.031], a = 0.2, v = 0.2, t = 0.2)
movej(p[0.483878302841974, 0.0488400184715062, 0.428437073383061, -1.278, 1.001, -1.031], a = 0.2, v = 0.2, t = 0.2)
movej(p[0.483882220259436, 0.0488420205579585, 0.428333867106651, -1.278, 1.001, -1.031], a = 0.2, v = 0.2, t = 0.2)
movej(p[0.483876922454794, 0.0488393129928338, 0.428473440357517, -1.278, 1.001, -1.031], a = 0.2, v = 0.2, t = 0.2)
movej(p[0.483853057684137, 0.0488271163519393, 0.429102169396668, -1.278, 1.001, -1.031], a = 0.2, v = 0.2, t = 0.2)
movej(p[0.483831182339617, 0.0488159364531096, 0.429678486032524, -1.278, 1.001, -1.031], a = 0.2, v = 0.2, t = 0.2)
movej(p[0.48381859123656, 0.0488095014797904, 0.430010204792383, -1.278, 1.001, -1.031], a = 0.2, v = 0.2, t = 0.2)
movej(p[0.483816629494011, 0.0488084988860617, 0.430061887858004, -1.278, 1.001, -1.031], a = 0.2, v = 0.2, t = 0.2)
movej(p[0.483802526373997, 0.0488012911616395, 0.430433441443097, -1.278, 1.001, -1.031], a = 0.2, v = 0.2, t = 0.2)
movej(p[0.483786419493055, 0.0487930593690279, 0.430857785088528, -1.278, 1.001, -1.031], a = 0.2, v = 0.2, t = 0.2)
movej(p[0.483791424534262, 0.048795617310654, 0.430725924833344, -1.278, 1.001, -1.031], a = 0.2, v = 0.2, t = 0.2)
movej(p[0.483815063285481, 0.0488076984391064, 0.430103150386713, -1.278, 1.001, -1.031], a = 0.2, v = 0.2, t = 0.2)
movej(p[0.48383812750742, 0.0488194859411335, 0.429495512194561, -1.278, 1.001, -1.031], a = 0.2, v = 0.2, t = 0.2)
movej(p[0.483861449983114, 0.0488314054296923, 0.428881070181088, -1.278, 1.001, -1.031], a = 0.2, v = 0.2, t = 0.2)
movej(p[0.483876342237106, 0.048839016459216, 0.4284887264759, -1.278, 1.001, -1.031], a = 0.2, v = 0.2, t = 0.2)
movej(p[0.483879053711923, 0.048840402220894, 0.428417291347505, -1.278, 1.001, -1.031], a = 0.2, v = 0.2, t = 0.2)
movej(p[0.483853819930903, 0.0488275059157118, 0.429082087633301, -1.278, 1.001, -1.031], a = 0.2, v = 0.2, t = 0.2)
movej(p[0.483836943180727, 0.04881888066369, 0.429526713859733, -1.278, 1.001, -1.031], a = 0.2, v = 0.2, t = 0.2)
movej(p[0.483825765836847, 0.0488131682245716, 0.429821186443555, -1.278, 1.001, -1.031], a = 0.2, v = 0.2, t = 0.2)
movej(p[0.483818689456417, 0.0488095516773113, 0.430007617142277, -1.278, 1.001, -1.031], a = 0.2, v = 0.2, t = 0.2)
movej(p[0.483798305878119, 0.0487991341799799, 0.430544632468403, -1.278, 1.001, -1.031], a = 0.2, v = 0.2, t = 0.2)
movej(p[0.483786750179215, 0.0487932283738088, 0.430849073000142, -1.278, 1.001, -1.031], a = 0.2, v = 0.2, t = 0.2)
movej(p[0.483789609931885, 0.0487946899163002, 0.43077373141927, -1.278, 1.001, -1.031], a = 0.2, v = 0.2, t = 0.2)
movej(p[0.483801429042035, 0.0488007303448575, 0.430462351189604, -1.278, 1.001, -1.031], a = 0.2, v = 0.2, t = 0.2)
movej(p[0.483813782635067, 0.0488070439332062, 0.430136889747355, -1.278, 1.001, -1.031], a = 0.2, v = 0.2, t = 0.2)
movej(p[0.483841229586301, 0.0488210713300182, 0.429413786411305, -1.278, 1.001, -1.031], a = 0.2, v = 0.2, t = 0.2)
movej(p[0.483877533010662, 0.0488396250314774, 0.428457354964969, -1.278, 1.001, -1.031], a = 0.2, v = 0.2, t = 0.2)
movej(p[0.483892614878278, 0.0488473329674121, 0.428060015796257, -1.278, 1.001, -1.031], a = 0.2, v = 0.2, t = 0.2)
movej(p[0.483884950695615, 0.0488434160102776, 0.428261932431903, -1.278, 1.001, -1.031], a = 0.2, v = 0.2, t = 0.2)
movej(p[0.483863835322498, 0.0488326245123433, 0.428818227249954, -1.278, 1.001, -1.031], a = 0.2, v = 0.2, t = 0.2)
movej(p[0.483847627149959, 0.0488243409523269, 0.429245239472, -1.278, 1.001, -1.031], a = 0.2, v = 0.2, t = 0.2)
movej(p[0.483827378690329, 0.048813992510504, 0.429778695030819, -1.278, 1.001, -1.031], a = 0.2, v = 0.2, t = 0.2)
movej(p[0.483808263740941, 0.0488042233752063, 0.43028228770869, -1.278, 1.001, -1.031], a = 0.2, v = 0.2, t = 0.2)
movej(p[0.483798417826003, 0.0487991913935249, 0.430541683146738, -1.278, 1.001, -1.031], a = 0.2, v = 0.2, t = 0.2)
movej(p[0.483793540622301, 0.0487966987862012, 0.430670175460414, -1.278, 1.001, -1.031], a = 0.2, v = 0.2, t = 0.2)
movej(p[0.48377939203294, 0.0487894678236217, 0.43104292695766, -1.278, 1.001, -1.031], a = 0.2, v = 0.2, t = 0.2)
movej(p[0.483772104422933, 0.0487857433226195, 0.431234922602748, -1.278, 1.001, -1.031], a = 0.2, v = 0.2, t = 0.2)
movej(p[0.483784043255125, 0.0487918449378847, 0.430920388237413, -1.278, 1.001, -1.031], a = 0.2, v = 0.2, t = 0.2)
movej(p[0.483812150440996, 0.0488062097628199, 0.430179890697371, -1.278, 1.001, -1.031], a = 0.2, v = 0.2, t = 0.2)
movej(p[0.483836064511196, 0.0488184315993813, 0.429549862837704, -1.278, 1.001, -1.031], a = 0.2, v = 0.2, t = 0.2)
movej(p[0.48386389979113, 0.0488326574605231, 0.428816528792356, -1.278, 1.001, -1.031], a = 0.2, v = 0.2, t = 0.2)
movej(p[0.483890969032026, 0.0488464918197642, 0.428103376419646, -1.278, 1.001, -1.031], a = 0.2, v = 0.2, t = 0.2)
movej(p[0.483905038362892, 0.0488536822754639, 0.427732713026153, -1.278, 1.001, -1.031], a = 0.2, v = 0.2, t = 0.2)
movej(p[0.483887320865909, 0.0488446273404157, 0.428199489137851, -1.278, 1.001, -1.031], a = 0.2, v = 0.2, t = 0.2)
movej(p[0.483862299452148, 0.0488318395704138, 0.4288586905045, -1.278, 1.001, -1.031], a = 0.2, v = 0.2, t = 0.2)
movej(p[0.483845742390541, 0.0488233777026011, 0.42929489437943, -1.278, 1.001, -1.031], a = 0.2, v = 0.2, t = 0.2)
movej(p[0.483832097414964, 0.0488164041234493, 0.429654377925556, -1.278, 1.001, -1.031], a = 0.2, v = 0.2, t = 0.2)
movej(p[0.483813696171255, 0.0488069997438828, 0.430139167678722, -1.278, 1.001, -1.031], a = 0.2, v = 0.2, t = 0.2)
movej(p[0.483801020652213, 0.0488005216278294, 0.430473110418942, -1.278, 1.001, -1.031], a = 0.2, v = 0.2, t = 0.2)
movej(p[0.483794550125232, 0.0487972147159337, 0.430643579612612, -1.278, 1.001, -1.031], a = 0.2, v = 0.2, t = 0.2)
movej(p[0.483780134180663, 0.0487898471153145, 0.431023374713427, -1.278, 1.001, -1.031], a = 0.2, v = 0.2, t = 0.2)
movej(p[0.483768383824412, 0.0487838418250219, 0.431332943588019, -1.278, 1.001, -1.031], a = 0.2, v = 0.2, t = 0.2)
movej(p[0.48377684779734, 0.0487881675333983, 0.431109956087228, -1.278, 1.001, -1.031], a = 0.2, v = 0.2, t = 0.2)
movej(p[0.48380889894658, 0.0488045480116833, 0.430265552905884, -1.278, 1.001, -1.031], a = 0.2, v = 0.2, t = 0.2)
movej(p[0.483835523733141, 0.0488181552222969, 0.429564109899675, -1.278, 1.001, -1.031], a = 0.2, v = 0.2, t = 0.2)
movej(p[0.483844752607426, 0.0488228718511355, 0.429320970699026, -1.278, 1.001, -1.031], a = 0.2, v = 0.2, t = 0.2)
movej(p[0.483844999105137, 0.0488229978294698, 0.429314476596445, -1.278, 1.001, -1.031], a = 0.2, v = 0.2, t = 0.2)
movej(p[0.483838798739647, 0.0488198289898286, 0.429477828253685, -1.278, 1.001, -1.031], a = 0.2, v = 0.2, t = 0.2)
movej(p[0.483819368652417, 0.0488098987960757, 0.429989723391934, -1.278, 1.001, -1.031], a = 0.2, v = 0.2, t = 0.2)
movej(p[0.483803293399027, 0.0488016831674535, 0.430413233794049, -1.278, 1.001, -1.031], a = 0.2, v = 0.2, t = 0.2)
movej(p[0.483792988088202, 0.0487964164009195, 0.430684732241124, -1.278, 1.001, -1.031], a = 0.2, v = 0.2, t = 0.2)
movej(p[0.483789860601095, 0.0487948180265756, 0.430767127416491, -1.278, 1.001, -1.031], a = 0.2, v = 0.2, t = 0.2)
movej(p[0.483771963350397, 0.0487856712242497, 0.43123863922761, -1.278, 1.001, -1.031], a = 0.2, v = 0.2, t = 0.2)
movej(p[0.483767518427835, 0.0487833995441619, 0.431355742883544, -1.278, 1.001, -1.031], a = 0.2, v = 0.2, t = 0.2)
movej(p[0.483783906354089, 0.0487917749714559, 0.430923994962077, -1.278, 1.001, -1.031], a = 0.2, v = 0.2, t = 0.2)
movej(p[0.483817899526061, 0.0488091479652029, 0.430028428243319, -1.278, 1.001, -1.031], a = 0.2, v = 0.2, t = 0.2)
movej(p[0.483839822653214, 0.0488203522844482, 0.429450852750655, -1.278, 1.001, -1.031], a = 0.2, v = 0.2, t = 0.2)
movej(p[0.483851772103769, 0.0488264593264724, 0.429136038639362, -1.278, 1.001, -1.031], a = 0.2, v = 0.2, t = 0.2)
movej(p[0.483855329255347, 0.0488282772907437, 0.429042323743648, -1.278, 1.001, -1.031], a = 0.2, v = 0.2, t = 0.2)
movej(p[0.483844551616985, 0.0488227691303397, 0.429326265890362, -1.278, 1.001, -1.031], a = 0.2, v = 0.2, t = 0.2)
movej(p[0.483820402046665, 0.0488104269360159, 0.429962498115727, -1.278, 1.001, -1.031], a = 0.2, v = 0.2, t = 0.2)
movej(p[0.483803715782335, 0.0488018990361747, 0.430402105899502, -1.278, 1.001, -1.031], a = 0.2, v = 0.2, t = 0.2)
movej(p[0.48379616222026, 0.0487980386142404, 0.430601108181729, -1.278, 1.001, -1.031], a = 0.2, v = 0.2, t = 0.2)
movej(p[0.483784740274805, 0.0487922011658517, 0.430902024913498, -1.278, 1.001, -1.031], a = 0.2, v = 0.2, t = 0.2)
movej(p[0.483768167664882, 0.0487837313517133, 0.431338638416437, -1.278, 1.001, -1.031], a = 0.2, v = 0.2, t = 0.2)
movej(p[0.483764739071341, 0.0487819790899888, 0.431428966387881, -1.278, 1.001, -1.031], a = 0.2, v = 0.2, t = 0.2)
movej(p[0.483783735701828, 0.048791687755686, 0.430928490879249, -1.278, 1.001, -1.031], a = 0.2, v = 0.2, t = 0.2)
movej(p[0.483804808601493, 0.0488024575465842, 0.430373315045027, -1.278, 1.001, -1.031], a = 0.2, v = 0.2, t = 0.2)
movej(p[0.483830336283629, 0.0488155040567035, 0.429700775790769, -1.278, 1.001, -1.031], a = 0.2, v = 0.2, t = 0.2)
movej(p[0.483869588199836, 0.0488355646528545, 0.428666664886631, -1.278, 1.001, -1.031], a = 0.2, v = 0.2, t = 0.2)
movej(p[0.483926798422328, 0.0488648032551958, 0.42715943363212, -1.278, 1.001, -1.031], a = 0.2, v = 0.2, t = 0.2)
movej(p[0.483985320771095, 0.0488947124499015, 0.425617633770021, -1.278, 1.001, -1.031], a = 0.2, v = 0.2, t = 0.2)
movej(p[0.484039504760155, 0.0489224044259225, 0.424190130113356, -1.278, 1.001, -1.031], a = 0.2, v = 0.2, t = 0.2)
movej(p[0.484077177194879, 0.0489416577916694, 0.423197631420375, -1.278, 1.001, -1.031], a = 0.2, v = 0.2, t = 0.2)
movej(p[0.484087382200097, 0.048946873294712, 0.422928775573504, -1.278, 1.001, -1.031], a = 0.2, v = 0.2, t = 0.2)
movej(p[0.484046198121066, 0.0489258252222325, 0.424013790250953, -1.278, 1.001, -1.031], a = 0.2, v = 0.2, t = 0.2)
movej(p[0.483989606038987, 0.0488969025347912, 0.425504736294375, -1.278, 1.001, -1.031], a = 0.2, v = 0.2, t = 0.2)
movej(p[0.483935842992171, 0.0488694256910027, 0.426921150022017, -1.278, 1.001, -1.031], a = 0.2, v = 0.2, t = 0.2)
movej(p[0.483905872662835, 0.0488541086636726, 0.427710732986647, -1.278, 1.001, -1.031], a = 0.2, v = 0.2, t = 0.2)
movej(p[0.483876152623483, 0.0488389195528049, 0.428493721939425, -1.278, 1.001, -1.031], a = 0.2, v = 0.2, t = 0.2)
movej(p[0.483856311453916, 0.0488287792659529, 0.429016447242593, -1.278, 1.001, -1.031], a = 0.2, v = 0.2, t = 0.2)
movej(p[0.48384707727045, 0.0488240599237349, 0.42925972631622, -1.278, 1.001, -1.031], a = 0.2, v = 0.2, t = 0.2)
movej(p[0.483846356738681, 0.0488236916793729, 0.429278709077612, -1.278, 1.001, -1.031], a = 0.2, v = 0.2, t = 0.2)
movej(p[0.483846550144577, 0.0488237905239122, 0.429273613704817, -1.278, 1.001, -1.031], a = 0.2, v = 0.2, t = 0.2)
movej(p[0.483870031895715, 0.0488357914138563, 0.428654975501985, -1.278, 1.001, -1.031], a = 0.2, v = 0.2, t = 0.2)
movej(p[0.48390812148041, 0.0488552579737076, 0.42765148678925, -1.278, 1.001, -1.031], a = 0.2, v = 0.2, t = 0.2)
movej(p[0.483946374132821, 0.0488748078730723, 0.426643701977885, -1.278, 1.001, -1.031], a = 0.2, v = 0.2, t = 0.2)
movej(p[0.483979279681049, 0.0488916250116455, 0.425776789237901, -1.278, 1.001, -1.031], a = 0.2, v = 0.2, t = 0.2)
movej(p[0.484002306359491, 0.0489033933262032, 0.425170140147527, -1.278, 1.001, -1.031], a = 0.2, v = 0.2, t = 0.2)
movej(p[0.484005442568824, 0.0489049961582419, 0.425087515180837, -1.278, 1.001, -1.031], a = 0.2, v = 0.2, t = 0.2)
movej(p[0.483973871900506, 0.0488888612408025, 0.425919259857611, -1.278, 1.001, -1.031], a = 0.2, v = 0.2, t = 0.2)
movej(p[0.483926688446426, 0.0488647470494774, 0.427162331000964, -1.278, 1.001, -1.031], a = 0.2, v = 0.2, t = 0.2)
movej(p[0.483892891714168, 0.0488474744507722, 0.428052722419511, -1.278, 1.001, -1.031], a = 0.2, v = 0.2, t = 0.2)
movej(p[0.483876672164811, 0.0488391850763712, 0.428480034369368, -1.278, 1.001, -1.031], a = 0.2, v = 0.2, t = 0.2)
movej(p[0.48385525720217, 0.0488282404663075, 0.429044222019788, -1.278, 1.001, -1.031], a = 0.2, v = 0.2, t = 0.2)
movej(p[0.483844562993802, 0.0488227749447244, 0.429325966162551, -1.278, 1.001, -1.031], a = 0.2, v = 0.2, t = 0.2)
movej(p[0.483855469569428, 0.0488283490014879, 0.429038627100641, -1.278, 1.001, -1.031], a = 0.2, v = 0.2, t = 0.2)
movej(p[0.483889709997565, 0.0488458483611949, 0.428136546297447, -1.278, 1.001, -1.031], a = 0.2, v = 0.2, t = 0.2)
movej(p[0.48391908114785, 0.0488608591642661, 0.427362748997554, -1.278, 1.001, -1.031], a = 0.2, v = 0.2, t = 0.2)
movej(p[0.483950894521607, 0.0488771181219117, 0.426524610127469, -1.278, 1.001, -1.031], a = 0.2, v = 0.2, t = 0.2)
movej(p[0.48399214306927, 0.048898199142571, 0.425437896992422, -1.278, 1.001, -1.031], a = 0.2, v = 0.2, t = 0.2)
movej(p[0.484033255095124, 0.0489192103906144, 0.424354780591112, -1.278, 1.001, -1.031], a = 0.2, v = 0.2, t = 0.2)
movej(p[0.484044267854378, 0.048924838714968, 0.424064644069629, -1.278, 1.001, -1.031], a = 0.2, v = 0.2, t = 0.2)
movej(p[0.4840250069025, 0.0489149949617338, 0.424572083254414, -1.278, 1.001, -1.031], a = 0.2, v = 0.2, t = 0.2)
movej(p[0.483989374710366, 0.0488967843089697, 0.425510830759875, -1.278, 1.001, -1.031], a = 0.2, v = 0.2, t = 0.2)
movej(p[0.483946374132821, 0.0488748078730723, 0.426643701977885, -1.278, 1.001, -1.031], a = 0.2, v = 0.2, t = 0.2)
movej(p[0.483909046794893, 0.0488557308769935, 0.427627108927252, -1.278, 1.001, -1.031], a = 0.2, v = 0.2, t = 0.2)
movej(p[0.483886520696417, 0.048844218395361, 0.428220569993923, -1.278, 1.001, -1.031], a = 0.2, v = 0.2, t = 0.2)
movej(p[0.483876289145292, 0.0488389893254209, 0.428490125205687, -1.278, 1.001, -1.031], a = 0.2, v = 0.2, t = 0.2)
movej(p[0.483853918529987, 0.0488275563070455, 0.429079489992268, -1.278, 1.001, -1.031], a = 0.2, v = 0.2, t = 0.2)
movej(p[0.48384225729214, 0.0488215965627661, 0.429386710999004, -1.278, 1.001, -1.031], a = 0.2, v = 0.2, t = 0.2)
movej(p[0.48385585638122, 0.0488285466905664, 0.429028436355051, -1.278, 1.001, -1.031], a = 0.2, v = 0.2, t = 0.2)
movej(p[0.483895838309878, 0.0488489803763999, 0.427975092916346, -1.278, 1.001, -1.031], a = 0.2, v = 0.2, t = 0.2)
movej(p[0.483929957385296, 0.0488664177160038, 0.427076209209807, -1.278, 1.001, -1.031], a = 0.2, v = 0.2, t = 0.2)
movej(p[0.483965551654705, 0.0488846089874857, 0.426138460797051, -1.278, 1.001, -1.031], a = 0.2, v = 0.2, t = 0.2)
movej(p[0.483998316888852, 0.0489013544153147, 0.425275244700075, -1.278, 1.001, -1.031], a = 0.2, v = 0.2, t = 0.2)
movej(p[0.484011362306151, 0.0489080215763948, 0.424931556809613, -1.278, 1.001, -1.031], a = 0.2, v = 0.2, t = 0.2)
movej(p[0.483986750457816, 0.0488954431242408, 0.425579967975049, -1.278, 1.001, -1.031], a = 0.2, v = 0.2, t = 0.2)
movej(p[0.483948148916338, 0.0488757149170797, 0.426596944439299, -1.278, 1.001, -1.031], a = 0.2, v = 0.2, t = 0.2)
movej(p[0.483918182379275, 0.0488603998278778, 0.427386427494658, -1.278, 1.001, -1.031], a = 0.2, v = 0.2, t = 0.2)
movej(p[0.483896096184406, 0.0488491121691189, 0.427968299085953, -1.278, 1.001, -1.031], a = 0.2, v = 0.2, t = 0.2)
movej(p[0.483871624650153, 0.0488366054277091, 0.428613013608382, -1.278, 1.001, -1.031], a = 0.2, v = 0.2, t = 0.2)
movej(p[0.483852246137828, 0.0488267015925001, 0.429123549980551, -1.278, 1.001, -1.031], a = 0.2, v = 0.2, t = 0.2)
movej(p[0.483844168597465, 0.0488225733793894, 0.429336356726681, -1.278, 1.001, -1.031], a = 0.2, v = 0.2, t = 0.2)
movej(p[0.483835345496335, 0.0488180641302706, 0.429568805635387, -1.278, 1.001, -1.031], a = 0.2, v = 0.2, t = 0.2)
movej(p[0.483840850359054, 0.0488208775171961, 0.429423777338354, -1.278, 1.001, -1.031], a = 0.2, v = 0.2, t = 0.2)
movej(p[0.483863793607501, 0.0488326031929329, 0.42881932625193, -1.278, 1.001, -1.031], a = 0.2, v = 0.2, t = 0.2)
movej(p[0.483904196478403, 0.0488532520109989, 0.4277548928842, -1.278, 1.001, -1.031], a = 0.2, v = 0.2, t = 0.2)
movej(p[0.483927211780027, 0.0488650145111719, 0.427148543521637, -1.278, 1.001, -1.031], a = 0.2, v = 0.2, t = 0.2)
movej(p[0.483931906613346, 0.0488674139139094, 0.427024855844779, -1.278, 1.001, -1.031], a = 0.2, v = 0.2, t = 0.2)
movej(p[0.483919577935544, 0.0488611130590631, 0.42734966088312, -1.278, 1.001, -1.031], a = 0.2, v = 0.2, t = 0.2)
movej(p[0.483898060581546, 0.0488501161195374, 0.427916546083843, -1.278, 1.001, -1.031], a = 0.2, v = 0.2, t = 0.2)
movej(p[0.483868708392623, 0.0488351150071072, 0.428689843837383, -1.278, 1.001, -1.031], a = 0.2, v = 0.2, t = 0.2)
movej(p[0.483848848261694, 0.0488249650296141, 0.429213068686904, -1.278, 1.001, -1.031], a = 0.2, v = 0.2, t = 0.2)
movej(p[0.483838635671931, 0.0488197456503151, 0.429482124352316, -1.278, 1.001, -1.031], a = 0.2, v = 0.2, t = 0.2)
movej(p[0.483824509836205, 0.0488125263165048, 0.429854276393939, -1.278, 1.001, -1.031], a = 0.2, v = 0.2, t = 0.2)
movej(p[0.483802141875491, 0.0488010946548192, 0.430443571244031, -1.278, 1.001, -1.031], a = 0.2, v = 0.2, t = 0.2)
movej(p[0.483799218526412, 0.0487996006099175, 0.430520588303368, -1.278, 1.001, -1.031], a = 0.2, v = 0.2, t = 0.2)
movej(p[0.483822680064738, 0.0488115911696382, 0.429902482616948, -1.278, 1.001, -1.031], a = 0.2, v = 0.2, t = 0.2)
movej(p[0.483853417950021, 0.0488273004741203, 0.429092678015972, -1.278, 1.001, -1.031], a = 0.2, v = 0.2, t = 0.2)
movej(p[0.483882220259436, 0.0488420205579585, 0.428333867106651, -1.278, 1.001, -1.031], a = 0.2, v = 0.2, t = 0.2)
movej(p[0.483901466042224, 0.0488518565586798, 0.427826827558949, -1.278, 1.001, -1.031], a = 0.2, v = 0.2, t = 0.2)
movej(p[0.483909687688941, 0.0488560584206628, 0.427610224260541, -1.278, 1.001, -1.031], a = 0.2, v = 0.2, t = 0.2)
movej(p[0.483890142316627, 0.048846069307812, 0.428125156640612, -1.278, 1.001, -1.031], a = 0.2, v = 0.2, t = 0.2)
movej(p[0.48386875010762, 0.0488351363265176, 0.428688744835408, -1.278, 1.001, -1.031], a = 0.2, v = 0.2, t = 0.2)
movej(p[0.483854741453114, 0.0488279768808694, 0.429057809680573, -1.278, 1.001, -1.031], a = 0.2, v = 0.2, t = 0.2)
movej(p[0.483844115505651, 0.0488225462455943, 0.429337755456468, -1.278, 1.001, -1.031], a = 0.2, v = 0.2, t = 0.2)
movej(p[0.483822851854681, 0.0488116789668466, 0.429897956726995, -1.278, 1.001, -1.031], a = 0.2, v = 0.2, t = 0.2)
movej(p[0.483810521280743, 0.0488053771429362, 0.430222811719971, -1.278, 1.001, -1.031], a = 0.2, v = 0.2, t = 0.2)
movej(p[0.483808222025944, 0.0488042020557958, 0.430283386710665, -1.278, 1.001, -1.031], a = 0.2, v = 0.2, t = 0.2)
movej(p[0.48380922811583, 0.0488047162412129, 0.430256880781206, -1.278, 1.001, -1.031], a = 0.2, v = 0.2, t = 0.2)
movej(p[0.483807642945937, 0.0488039061036165, 0.430298642856268, -1.278, 1.001, -1.031], a = 0.2, v = 0.2, t = 0.2)
movej(p[0.483827263405246, 0.0488139335914061, 0.429781732272641, -1.278, 1.001, -1.031], a = 0.2, v = 0.2, t = 0.2)
movej(p[0.48386107454814, 0.0488312135549984, 0.428890961198866, -1.278, 1.001, -1.031], a = 0.2, v = 0.2, t = 0.2)
movej(p[0.483884677651997, 0.0488432764650456, 0.428269125899378, -1.278, 1.001, -1.031], a = 0.2, v = 0.2, t = 0.2)
movej(p[0.483890093017085, 0.0488460441121452, 0.428126455461128, -1.278, 1.001, -1.031], a = 0.2, v = 0.2, t = 0.2)
movej(p[0.483883046974834, 0.0488424430699106, 0.428312086885686, -1.278, 1.001, -1.031], a = 0.2, v = 0.2, t = 0.2)
movej(p[0.4838674303968, 0.0488344618578968, 0.428723513261536, -1.278, 1.001, -1.031], a = 0.2, v = 0.2, t = 0.2)
movej(p[0.483841233378573, 0.0488210732681464, 0.429413686502035, -1.278, 1.001, -1.031], a = 0.2, v = 0.2, t = 0.2)
movej(p[0.483820258698765, 0.0488103536747692, 0.429966274686151, -1.278, 1.001, -1.031], a = 0.2, v = 0.2, t = 0.2)
movej(p[0.483811408672501, 0.0488058306649399, 0.430199432950678, -1.278, 1.001, -1.031], a = 0.2, v = 0.2, t = 0.2)
movej(p[0.483807887547512, 0.0488040311128868, 0.430292198708322, -1.278, 1.001, -1.031], a = 0.2, v = 0.2, t = 0.2)
movej(p[0.48379605338204, 0.0487979829899605, 0.430603975577792, -1.278, 1.001, -1.031], a = 0.2, v = 0.2, t = 0.2)
movej(p[0.483802209340019, 0.0488011291341202, 0.430441793858109, -1.278, 1.001, -1.031], a = 0.2, v = 0.2, t = 0.2)
movej(p[0.483831887323069, 0.0488162967511459, 0.429659912899141, -1.278, 1.001, -1.031], a = 0.2, v = 0.2, t = 0.2)
movej(p[0.483867525203612, 0.0488345103111023, 0.428721015529774, -1.278, 1.001, -1.031], a = 0.2, v = 0.2, t = 0.2)
movej(p[0.483888223426757, 0.0488450886149322, 0.428175710731476, -1.278, 1.001, -1.031], a = 0.2, v = 0.2, t = 0.2)
movej(p[0.483896771208906, 0.0488494571559423, 0.427950515235807, -1.278, 1.001, -1.031], a = 0.2, v = 0.2, t = 0.2)
movej(p[0.483895038140387, 0.0488485714313453, 0.427996173772418, -1.278, 1.001, -1.031], a = 0.2, v = 0.2, t = 0.2)
movej(p[0.483875944048497, 0.0488388129557528, 0.428499216949301, -1.278, 1.001, -1.031], a = 0.2, v = 0.2, t = 0.2)
movej(p[0.483849352633933, 0.0488252228006675, 0.42919978075393, -1.278, 1.001, -1.031], a = 0.2, v = 0.2, t = 0.2)
movej(p[0.483831350337287, 0.0488160223121898, 0.429674060051842, -1.278, 1.001, -1.031], a = 0.2, v = 0.2, t = 0.2)
movej(p[0.483826007404604, 0.0488132916833393, 0.429814822223025, -1.278, 1.001, -1.031], a = 0.2, v = 0.2, t = 0.2)
movej(p[0.48381114017961, 0.0488056934454619, 0.430206506527028, -1.278, 1.001, -1.031], a = 0.2, v = 0.2, t = 0.2)
movej(p[0.483795976398909, 0.0487979436459576, 0.430606003735983, -1.278, 1.001, -1.031], a = 0.2, v = 0.2, t = 0.2)
movej(p[0.483799284094803, 0.0487996341201544, 0.430518860872082, -1.278, 1.001, -1.031], a = 0.2, v = 0.2, t = 0.2)
movej(p[0.483822629248287, 0.0488115651987201, 0.429903821401172, -1.278, 1.001, -1.031], a = 0.2, v = 0.2, t = 0.2)
movej(p[0.483842522751213, 0.0488217322317415, 0.429379717350071, -1.278, 1.001, -1.031], a = 0.2, v = 0.2, t = 0.2)
movej(p[0.483868465687185, 0.0488349909669011, 0.428696238030694, -1.278, 1.001, -1.031], a = 0.2, v = 0.2, t = 0.2)
movej(p[0.483885959440092, 0.0488439315523843, 0.428235356565955, -1.278, 1.001, -1.031], a = 0.2, v = 0.2, t = 0.2)
movej(p[0.483900097031862, 0.048851156894392, 0.427862894805593, -1.278, 1.001, -1.031], a = 0.2, v = 0.2, t = 0.2)
movej(p[0.483882785308034, 0.0488423093390634, 0.428318980625349, -1.278, 1.001, -1.031], a = 0.2, v = 0.2, t = 0.2)
movej(p[0.483863664670237, 0.0488325372965734, 0.428822723167126, -1.278, 1.001, -1.031], a = 0.2, v = 0.2, t = 0.2)
movej(p[0.483850202102966, 0.048825656941389, 0.429177401077342, -1.278, 1.001, -1.031], a = 0.2, v = 0.2, t = 0.2)
movej(p[0.483837604173819, 0.048819218479439, 0.429509299673887, -1.278, 1.001, -1.031], a = 0.2, v = 0.2, t = 0.2)
movej(p[0.483816260885127, 0.0488083104999986, 0.430071599039095, -1.278, 1.001, -1.031], a = 0.2, v = 0.2, t = 0.2)
movej(p[0.483799393805246, 0.0487996901902039, 0.430515970496887, -1.278, 1.001, -1.031], a = 0.2, v = 0.2, t = 0.2)
movej(p[0.483796077652584, 0.0487979953939811, 0.430603336158461, -1.278, 1.001, -1.031], a = 0.2, v = 0.2, t = 0.2)
movej(p[0.483793234585912, 0.0487965423792538, 0.430678238138542, -1.278, 1.001, -1.031], a = 0.2, v = 0.2, t = 0.2)
movej(p[0.483797098380642, 0.048798517060573, 0.430576444579218, -1.278, 1.001, -1.031], a = 0.2, v = 0.2, t = 0.2)
movej(p[0.483818997388942, 0.0488097090533229, 0.429999504509514, -1.278, 1.001, -1.031], a = 0.2, v = 0.2, t = 0.2)
movej(p[0.483852682249162, 0.0488269244772455, 0.429112060414446, -1.278, 1.001, -1.031], a = 0.2, v = 0.2, t = 0.2)
movej(p[0.483875451053076, 0.0488385609990841, 0.428512205154464, -1.278, 1.001, -1.031], a = 0.2, v = 0.2, t = 0.2)
movej(p[0.483882125452624, 0.0488419721047529, 0.428336364838413, -1.278, 1.001, -1.031], a = 0.2, v = 0.2, t = 0.2)
movej(p[0.483877275136134, 0.0488394932387584, 0.428464148795362, -1.278, 1.001, -1.031], a = 0.2, v = 0.2, t = 0.2)
movej(p[0.483867043585008, 0.0488342641688182, 0.428733704007126, -1.278, 1.001, -1.031], a = 0.2, v = 0.2, t = 0.2)
movej(p[0.483843588379777, 0.0488222768457716, 0.429351642845065, -1.278, 1.001, -1.031], a = 0.2, v = 0.2, t = 0.2)
movej(p[0.483826986190128, 0.0488137919142331, 0.429789035640314, -1.278, 1.001, -1.031], a = 0.2, v = 0.2, t = 0.2)
movej(p[0.483815703421074, 0.0488080255951501, 0.430086285701856, -1.278, 1.001, -1.031], a = 0.2, v = 0.2, t = 0.2)
movej(p[0.48380801041714, 0.0488040939082411, 0.430288961647958, -1.278, 1.001, -1.031], a = 0.2, v = 0.2, t = 0.2)
movej(p[0.483786771795168, 0.0487932394211397, 0.4308485035173, -1.278, 1.001, -1.031], a = 0.2, v = 0.2, t = 0.2)
movej(p[0.483782178215524, 0.0487908917664256, 0.430969523616636, -1.278, 1.001, -1.031], a = 0.2, v = 0.2, t = 0.2)
movej(p[0.483800904191525, 0.0488004621079117, 0.430476178632639, -1.278, 1.001, -1.031], a = 0.2, v = 0.2, t = 0.2)
movej(p[0.483836426673217, 0.0488186166906264, 0.429540321502373, -1.278, 1.001, -1.031], a = 0.2, v = 0.2, t = 0.2)
movej(p[0.483857767686545, 0.0488295235071898, 0.428978082082728, -1.278, 1.001, -1.031], a = 0.2, v = 0.2, t = 0.2)
movej(p[0.483871165785184, 0.0488363709141944, 0.42862510263011, -1.278, 1.001, -1.031], a = 0.2, v = 0.2, t = 0.2)
movej(p[0.483872686486445, 0.048837148103611, 0.428585039012646, -1.278, 1.001, -1.031], a = 0.2, v = 0.2, t = 0.2)
movej(p[0.483862644548942, 0.0488320159400819, 0.428849598760886, -1.278, 1.001, -1.031], a = 0.2, v = 0.2, t = 0.2)
movej(p[0.483840300479545, 0.0488205964886041, 0.429438264182574, -1.278, 1.001, -1.031], a = 0.2, v = 0.2, t = 0.2)
movej(p[0.483825841303069, 0.0488132067933232, 0.429819198249073, -1.278, 1.001, -1.031], a = 0.2, v = 0.2, t = 0.2)
movej(p[0.483821447196958, 0.0488109610841536, 0.429934963120782, -1.278, 1.001, -1.031], a = 0.2, v = 0.2, t = 0.2)
movej(p[0.483814158070042, 0.0488072358079001, 0.430126998729578, -1.278, 1.001, -1.031], a = 0.2, v = 0.2, t = 0.2)
movej(p[0.483798182970568, 0.0487990713652442, 0.430547870527859, -1.278, 1.001, -1.031], a = 0.2, v = 0.2, t = 0.2)
movej(p[0.483793051798379, 0.0487964489614736, 0.43068305376538, -1.278, 1.001, -1.031], a = 0.2, v = 0.2, t = 0.2)
movej(p[0.483803400644493, 0.0488017379777196, 0.430410408359879, -1.278, 1.001, -1.031], a = 0.2, v = 0.2, t = 0.2)
movej(p[0.48381927725865, 0.0488098520871856, 0.429992131205352, -1.278, 1.001, -1.031], a = 0.2, v = 0.2, t = 0.2)
movej(p[0.483843679394317, 0.0488223233608489, 0.429349245022573, -1.278, 1.001, -1.031], a = 0.2, v = 0.2, t = 0.2)
movej(p[0.483870062233895, 0.0488358069188821, 0.428654176227821, -1.278, 1.001, -1.031], a = 0.2, v = 0.2, t = 0.2)
movej(p[0.483894931956757, 0.0488485171637551, 0.427998971231991, -1.278, 1.001, -1.031], a = 0.2, v = 0.2, t = 0.2)
movej(p[0.483888481301285, 0.0488452204076513, 0.428168916901083, -1.278, 1.001, -1.031], a = 0.2, v = 0.2, t = 0.2)
movej(p[0.48387171187242, 0.0488366500046582, 0.428610715695161, -1.278, 1.001, -1.031], a = 0.2, v = 0.2, t = 0.2)
movej(p[0.483851730388772, 0.048826438007062, 0.429137137641337, -1.278, 1.001, -1.031], a = 0.2, v = 0.2, t = 0.2)
movej(p[0.483838165430144, 0.0488195053224157, 0.429494513101856, -1.278, 1.001, -1.031], a = 0.2, v = 0.2, t = 0.2)
movej(p[0.483816864614904, 0.0488086190500114, 0.430055693483234, -1.278, 1.001, -1.031], a = 0.2, v = 0.2, t = 0.2)
movej(p[0.483805457459312, 0.0488027891603228, 0.430356220568847, -1.278, 1.001, -1.031], a = 0.2, v = 0.2, t = 0.2)
movej(p[0.483802786827271, 0.0488014242722857, 0.4304265796744, -1.278, 1.001, -1.031], a = 0.2, v = 0.2, t = 0.2)
movej(p[0.483804695971, 0.048802399984176, 0.430376282350361, -1.278, 1.001, -1.031], a = 0.2, v = 0.2, t = 0.2)
movej(p[0.483806174198809, 0.0488031554665565, 0.430337337716726, -1.278, 1.001, -1.031], a = 0.2, v = 0.2, t = 0.2)
movej(p[0.483832735275194, 0.0488167301166161, 0.429637573186261, -1.278, 1.001, -1.031], a = 0.2, v = 0.2, t = 0.2)
movej(p[0.483882864945756, 0.048842350039756, 0.428316882530669, -1.278, 1.001, -1.031], a = 0.2, v = 0.2, t = 0.2)
movej(p[0.483946829205518, 0.0488750404484588, 0.426631712865427, -1.278, 1.001, -1.031], a = 0.2, v = 0.2, t = 0.2)
movej(p[0.484011039962991, 0.048907856835496, 0.424940049097604, -1.278, 1.001, -1.031], a = 0.2, v = 0.2, t = 0.2)
movej(p[0.484076593184918, 0.0489413593199234, 0.423213017448029, -1.278, 1.001, -1.031], a = 0.2, v = 0.2, t = 0.2)
movej(p[0.484134687006896, 0.0489710495061402, 0.421682507333495, -1.278, 1.001, -1.031], a = 0.2, v = 0.2, t = 0.2)
movej(p[0.484151585373025, 0.0489796858054927, 0.421237311624222, -1.278, 1.001, -1.031], a = 0.2, v = 0.2, t = 0.2)
movej(p[0.484130913695787, 0.0489691210685603, 0.421781917057626, -1.278, 1.001, -1.031], a = 0.2, v = 0.2, t = 0.2)
movej(p[0.48407598262905, 0.0489410472812798, 0.423229102840577, -1.278, 1.001, -1.031], a = 0.2, v = 0.2, t = 0.2)
movej(p[0.484020277938729, 0.0489125781158423, 0.424696670114706, -1.278, 1.001, -1.031], a = 0.2, v = 0.2, t = 0.2)
movej(p[0.483965396171534, 0.0488845295242286, 0.426142557077141, -1.278, 1.001, -1.031], a = 0.2, v = 0.2, t = 0.2)
movej(p[0.483929308906704, 0.048866086296078, 0.42709329369506, -1.278, 1.001, -1.031], a = 0.2, v = 0.2, t = 0.2)
movej(p[0.483905432759229, 0.0488538838407989, 0.427722322462023, -1.278, 1.001, -1.031], a = 0.2, v = 0.2, t = 0.2)
movej(p[0.483893722221839, 0.0488478989008526, 0.428030842289275, -1.278, 1.001, -1.031], a = 0.2, v = 0.2, t = 0.2)
movej(p[0.483876050232126, 0.048838867223343, 0.428496419489728, -1.278, 1.001, -1.031], a = 0.2, v = 0.2, t = 0.2)
movej(p[0.483886903715937, 0.0488444141463113, 0.428210479157604, -1.278, 1.001, -1.031], a = 0.2, v = 0.2, t = 0.2)
movej(p[0.483928470814488, 0.0488656579697412, 0.427115373643837, -1.278, 1.001, -1.031], a = 0.2, v = 0.2, t = 0.2)
movej(p[0.483986147486493, 0.0488951349618537, 0.425595853549056, -1.278, 1.001, -1.031], a = 0.2, v = 0.2, t = 0.2)
movej(p[0.484030012702161, 0.0489175532909854, 0.424440203017376, -1.278, 1.001, -1.031], a = 0.2, v = 0.2, t = 0.2)
movej(p[0.484069410620859, 0.0489376885050729, 0.423402245606325, -1.278, 1.001, -1.031], a = 0.2, v = 0.2, t = 0.2)
movej(p[0.48411315827608, 0.0489600467522298, 0.422249692262029, -1.278, 1.001, -1.031], a = 0.2, v = 0.2, t = 0.2)
movej(p[0.484141058024646, 0.0489743055615514, 0.421514659759083, -1.278, 1.001, -1.031], a = 0.2, v = 0.2, t = 0.2)
movej(p[0.48414376570719, 0.0489756893851011, 0.421443324539958, -1.278, 1.001, -1.031], a = 0.2, v = 0.2, t = 0.2)
movej(p[0.484117705210772, 0.0489623705679667, 0.42212990104672, -1.278, 1.001, -1.031], a = 0.2, v = 0.2, t = 0.2)
movej(p[0.484071007167569, 0.0489385044570539, 0.423360183803451, -1.278, 1.001, -1.031], a = 0.2, v = 0.2, t = 0.2)
movej(p[0.484009788513075, 0.0489072172531831, 0.424973019156863, -1.278, 1.001, -1.031], a = 0.2, v = 0.2, t = 0.2)
movej(p[0.483954811939069, 0.0488791202083639, 0.42642140385106, -1.278, 1.001, -1.031], a = 0.2, v = 0.2, t = 0.2)
movej(p[0.483922384217172, 0.0488625472739466, 0.427275728022963, -1.278, 1.001, -1.031], a = 0.2, v = 0.2, t = 0.2)
movej(p[0.483904917010173, 0.0488536202553609, 0.427735910122809, -1.278, 1.001, -1.031], a = 0.2, v = 0.2, t = 0.2)
movej(p[0.483883517216621, 0.04884268339781, 0.428299698136146, -1.278, 1.001, -1.031], a = 0.2, v = 0.2, t = 0.2)
movej(p[0.4838694554703, 0.0488354968183667, 0.428670161711098, -1.278, 1.001, -1.031], a = 0.2, v = 0.2, t = 0.2)
movej(p[0.483865310516489, 0.0488333784442212, 0.428779362543736, -1.278, 1.001, -1.031], a = 0.2, v = 0.2, t = 0.2)
movej(p[0.483865052641961, 0.0488332466515022, 0.428786156374129, -1.278, 1.001, -1.031], a = 0.2, v = 0.2, t = 0.2)
movej(p[0.483852644326437, 0.0488269050959633, 0.429113059507151, -1.278, 1.001, -1.031], a = 0.2, v = 0.2, t = 0.2)
movej(p[0.483855621260327, 0.0488284265266167, 0.429034630729821, -1.278, 1.001, -1.031], a = 0.2, v = 0.2, t = 0.2)
movej(p[0.483859781383227, 0.0488305526532751, 0.428925030260101, -1.278, 1.001, -1.031], a = 0.2, v = 0.2, t = 0.2)
movej(p[0.483858222759242, 0.0488297560825763, 0.42896609297027, -1.278, 1.001, -1.031], a = 0.2, v = 0.2, t = 0.2)
movej(p[0.483838684971473, 0.0488197708459819, 0.4294808255318, -1.278, 1.001, -1.031], a = 0.2, v = 0.2, t = 0.2)
movej(p[0.483829323367652, 0.0488149863826557, 0.429727461556915, -1.278, 1.001, -1.031], a = 0.2, v = 0.2, t = 0.2)
movej(p[0.483827201211977, 0.0488139018061032, 0.429783370784677, -1.278, 1.001, -1.031], a = 0.2, v = 0.2, t = 0.2)
movej(p[0.483819667483487, 0.0488100515205795, 0.429981850541419, -1.278, 1.001, -1.031], a = 0.2, v = 0.2, t = 0.2)
movej(p[0.483823433968505, 0.0488119764695285, 0.429882620653975, -1.278, 1.001, -1.031], a = 0.2, v = 0.2, t = 0.2)
movej(p[0.483849936643893, 0.0488255212724135, 0.429184394726276, -1.278, 1.001, -1.031], a = 0.2, v = 0.2, t = 0.2)
movej(p[0.483900491428199, 0.048851358459727, 0.427852504241463, -1.278, 1.001, -1.031], a = 0.2, v = 0.2, t = 0.2)
movej(p[0.483944352851595, 0.0488737748507306, 0.426696953619053, -1.278, 1.001, -1.031], a = 0.2, v = 0.2, t = 0.2)
movej(p[0.483990554107104, 0.0488973870668464, 0.425479758976755, -1.278, 1.001, -1.031], a = 0.2, v = 0.2, t = 0.2)
movej(p[0.48402466939025, 0.0489148224683221, 0.424580975179487, -1.278, 1.001, -1.031], a = 0.2, v = 0.2, t = 0.2)
movej(p[0.484028639899527, 0.0489168516885695, 0.424476370173291, -1.278, 1.001, -1.031], a = 0.2, v = 0.2, t = 0.2)
movej(p[0.483993936814148, 0.0488991158772195, 0.425390639907483, -1.278, 1.001, -1.031], a = 0.2, v = 0.2, t = 0.2)
movej(p[0.483950390149368, 0.0488768603508583, 0.426537898060443, -1.278, 1.001, -1.031], a = 0.2, v = 0.2, t = 0.2)
movej(p[0.483922456270349, 0.0488625840983828, 0.427273829746823, -1.278, 1.001, -1.031], a = 0.2, v = 0.2, t = 0.2)
movej(p[0.483896801547085, 0.048849472660968, 0.427949715961643, -1.278, 1.001, -1.031], a = 0.2, v = 0.2, t = 0.2)
movej(p[0.483877912237909, 0.0488398188442995, 0.42844736403792, -1.278, 1.001, -1.031], a = 0.2, v = 0.2, t = 0.2)
movej(p[0.483861491698111, 0.0488314267491027, 0.428879971179113, -1.278, 1.001, -1.031], a = 0.2, v = 0.2, t = 0.2)
movej(p[0.483855314086257, 0.0488282695382308, 0.42904272338073, -1.278, 1.001, -1.031], a = 0.2, v = 0.2, t = 0.2)
movej(p[0.483845814443718, 0.0488234145270373, 0.429292996103291, -1.278, 1.001, -1.031], a = 0.2, v = 0.2, t = 0.2)
movej(p[0.483858438918772, 0.0488298665558849, 0.428960398141852, -1.278, 1.001, -1.031], a = 0.2, v = 0.2, t = 0.2)
movej(p[0.48389485990358, 0.0488484803393189, 0.42800086950813, -1.278, 1.001, -1.031], a = 0.2, v = 0.2, t = 0.2)
movej(p[0.483948653288576, 0.0488759726881331, 0.426583656506325, -1.278, 1.001, -1.031], a = 0.2, v = 0.2, t = 0.2)
movej(p[0.483997198168473, 0.0489007826674895, 0.425304717934868, -1.278, 1.001, -1.031], a = 0.2, v = 0.2, t = 0.2)
movej(p[0.484039254470172, 0.0489222765094599, 0.424196724125208, -1.278, 1.001, -1.031], a = 0.2, v = 0.2, t = 0.2)
movej(p[0.484068166755488, 0.0489370527990164, 0.423435015847043, -1.278, 1.001, -1.031], a = 0.2, v = 0.2, t = 0.2)
movej(p[0.484059289045635, 0.0489325156408512, 0.423668903449245, -1.278, 1.001, -1.031], a = 0.2, v = 0.2, t = 0.2)
movej(p[0.484021870693167, 0.0489133921296951, 0.424654708221103, -1.278, 1.001, -1.031], a = 0.2, v = 0.2, t = 0.2)
movej(p[0.483972555981959, 0.0488881887103098, 0.425953928374468, -1.278, 1.001, -1.031], a = 0.2, v = 0.2, t = 0.2)
movej(p[0.483940575748214, 0.0488718444750225, 0.426796463252454, -1.278, 1.001, -1.031], a = 0.2, v = 0.2, t = 0.2)
movej(p[0.483909365345781, 0.048855893679764, 0.427618716548532, -1.278, 1.001, -1.031], a = 0.2, v = 0.2, t = 0.2)
movej(p[0.483889725166655, 0.0488458561137077, 0.428136146660365, -1.278, 1.001, -1.031], a = 0.2, v = 0.2, t = 0.2)
movej(p[0.483873865883183, 0.0488377508614877, 0.428553967229526, -1.278, 1.001, -1.031], a = 0.2, v = 0.2, t = 0.2)
movej(p[0.483868056121758, 0.0488347816490532, 0.428707028231906, -1.278, 1.001, -1.031], a = 0.2, v = 0.2, t = 0.2)
movej(p[0.483855230656262, 0.04882822689941, 0.429044921384681, -1.278, 1.001, -1.031], a = 0.2, v = 0.2, t = 0.2)
movej(p[0.483859857228676, 0.0488305914158395, 0.428923032074691, -1.278, 1.001, -1.031], a = 0.2, v = 0.2, t = 0.2)
movej(p[0.483883244173003, 0.0488425438525781, 0.428306891603621, -1.278, 1.001, -1.031], a = 0.2, v = 0.2, t = 0.2)
movej(p[0.48391625590486, 0.0488594152587415, 0.427437181404064, -1.278, 1.001, -1.031], a = 0.2, v = 0.2, t = 0.2)
movej(p[0.483934121300469, 0.0488685457807904, 0.426966508830817, -1.278, 1.001, -1.031], a = 0.2, v = 0.2, t = 0.2)
movej(p[0.483943093817134, 0.0488731313921612, 0.426730123496853, -1.278, 1.001, -1.031], a = 0.2, v = 0.2, t = 0.2)
movej(p[0.483942251932646, 0.0488727011276962, 0.426752303354901, -1.278, 1.001, -1.031], a = 0.2, v = 0.2, t = 0.2)
movej(p[0.483919991293243, 0.0488613243150392, 0.427338770772637, -1.278, 1.001, -1.031], a = 0.2, v = 0.2, t = 0.2)
movej(p[0.483889861688464, 0.0488459258863237, 0.428132549926627, -1.278, 1.001, -1.031], a = 0.2, v = 0.2, t = 0.2)
movej(p[0.483868674262171, 0.0488350975639532, 0.428690743020818, -1.278, 1.001, -1.031], a = 0.2, v = 0.2, t = 0.2)
movej(p[0.483859470416884, 0.048830393726761, 0.428933222820281, -1.278, 1.001, -1.031], a = 0.2, v = 0.2, t = 0.2)
movej(p[0.483843368427974, 0.0488221644343348, 0.429357437582753, -1.278, 1.001, -1.031], a = 0.2, v = 0.2, t = 0.2)
movej(p[0.483829304785517, 0.0488149768858274, 0.42972795111234, -1.278, 1.001, -1.031], a = 0.2, v = 0.2, t = 0.2)
movej(p[0.483829327539152, 0.0488149885145967, 0.429727351656717, -1.278, 1.001, -1.031], a = 0.2, v = 0.2, t = 0.2)
movej(p[0.483848013961751, 0.0488245386414055, 0.429235048726411, -1.278, 1.001, -1.031], a = 0.2, v = 0.2, t = 0.2)
movej(p[0.483864699960621, 0.0488330664055777, 0.428795447936284, -1.278, 1.001, -1.031], a = 0.2, v = 0.2, t = 0.2)
movej(p[0.483886338667339, 0.0488441253652064, 0.428225365638906, -1.278, 1.001, -1.031], a = 0.2, v = 0.2, t = 0.2)
movej(p[0.483905341744689, 0.0488538373257216, 0.427724720284515, -1.278, 1.001, -1.031], a = 0.2, v = 0.2, t = 0.2)
movej(p[0.483909274331241, 0.0488558471646868, 0.427621114371023, -1.278, 1.001, -1.031], a = 0.2, v = 0.2, t = 0.2)
movej(p[0.48389011577072, 0.0488460557409145, 0.428125856005505, -1.278, 1.001, -1.031], a = 0.2, v = 0.2, t = 0.2)
movej(p[0.483871810471504, 0.048836700395992, 0.428608118054128, -1.278, 1.001, -1.031], a = 0.2, v = 0.2, t = 0.2)
movej(p[0.483862140176704, 0.0488317581690285, 0.42886288669386, -1.278, 1.001, -1.031], a = 0.2, v = 0.2, t = 0.2)
movej(p[0.483848495580354, 0.0488247847836895, 0.429222360249059, -1.278, 1.001, -1.031], a = 0.2, v = 0.2, t = 0.2)
movej(p[0.483832341637311, 0.0488165289389067, 0.429647943768537, -1.278, 1.001, -1.031], a = 0.2, v = 0.2, t = 0.2)
movej(p[0.483823790821345, 0.0488121588473941, 0.429873219191623, -1.278, 1.001, -1.031], a = 0.2, v = 0.2, t = 0.2)
movej(p[0.483822326624944, 0.048811410536088, 0.429911794160957, -1.278, 1.001, -1.031], a = 0.2, v = 0.2, t = 0.2)
movej(p[0.483808245538033, 0.0488042140721908, 0.430282767273188, -1.278, 1.001, -1.031], a = 0.2, v = 0.2, t = 0.2)
movej(p[0.483796668943707, 0.0487982975869333, 0.430587758305007, -1.278, 1.001, -1.031], a = 0.2, v = 0.2, t = 0.2)
movej(p[0.483796831101278, 0.048798380461296, 0.430583486184601, -1.278, 1.001, -1.031], a = 0.2, v = 0.2, t = 0.2)
movej(p[0.48380787541224, 0.0488040249108765, 0.430292518417987, -1.278, 1.001, -1.031], a = 0.2, v = 0.2, t = 0.2)
movej(p[0.483810349870027, 0.0488052895395406, 0.430227327618997, -1.278, 1.001, -1.031], a = 0.2, v = 0.2, t = 0.2)
movej(p[0.483815061768572, 0.0488076976638552, 0.430103190350421, -1.278, 1.001, -1.031], a = 0.2, v = 0.2, t = 0.2)
movej(p[0.48382118515093, 0.0488108271594935, 0.429941866851372, -1.278, 1.001, -1.031], a = 0.2, v = 0.2, t = 0.2)
movej(p[0.483820689121691, 0.0488105736523222, 0.429954934983951, -1.278, 1.001, -1.031], a = 0.2, v = 0.2, t = 0.2)
movej(p[0.483805988377458, 0.0488030604982737, 0.43034223327098, -1.278, 1.001, -1.031], a = 0.2, v = 0.2, t = 0.2)
movej(p[0.483795225149732, 0.048797559702757, 0.430625795762466, -1.278, 1.001, -1.031], a = 0.2, v = 0.2, t = 0.2)
movej(p[0.483792982020566, 0.0487964132999143, 0.430684892095956, -1.278, 1.001, -1.031], a = 0.2, v = 0.2, t = 0.2)
movej(p[0.48378619157748, 0.0487929428875219, 0.430863789635684, -1.278, 1.001, -1.031], a = 0.2, v = 0.2, t = 0.2)
movej(p[0.483786421389192, 0.0487930603380921, 0.430857735133893, -1.278, 1.001, -1.031], a = 0.2, v = 0.2, t = 0.2)
movej(p[0.483804469951561, 0.048802284471734, 0.430382236942881, -1.278, 1.001, -1.031], a = 0.2, v = 0.2, t = 0.2)
movej(p[0.483838692556018, 0.0488197747222384, 0.429480625713259, -1.278, 1.001, -1.031], a = 0.2, v = 0.2, t = 0.2)
movej(p[0.4838674303968, 0.0488344618578968, 0.428723513261536, -1.278, 1.001, -1.031], a = 0.2, v = 0.2, t = 0.2)
movej(p[0.483888981881251, 0.0488454762405764, 0.42815572887738, -1.278, 1.001, -1.031], a = 0.2, v = 0.2, t = 0.2)
movej(p[0.483896911522987, 0.0488495288666864, 0.427946818592799, -1.278, 1.001, -1.031], a = 0.2, v = 0.2, t = 0.2)
movej(p[0.483885136516966, 0.0488435109785604, 0.42825703687765, -1.278, 1.001, -1.031], a = 0.2, v = 0.2, t = 0.2)
movej(p[0.483854809714018, 0.0488280117671774, 0.429056011313705, -1.278, 1.001, -1.031], a = 0.2, v = 0.2, t = 0.2)
movej(p[0.483830660522925, 0.0488156697666664, 0.429692233548142, -1.278, 1.001, -1.031], a = 0.2, v = 0.2, t = 0.2)
movej(p[0.483821275786242, 0.048810873480758, 0.429939479019807, -1.278, 1.001, -1.031], a = 0.2, v = 0.2, t = 0.2)
movej(p[0.483809931582373, 0.0488050757639978, 0.430238347611531, -1.278, 1.001, -1.031], a = 0.2, v = 0.2, t = 0.2)
movej(p[0.483794155349668, 0.0487970129567859, 0.430653980167669, -1.278, 1.001, -1.031], a = 0.2, v = 0.2, t = 0.2)
movej(p[0.48378682943771, 0.0487932688806886, 0.430846984896389, -1.278, 1.001, -1.031], a = 0.2, v = 0.2, t = 0.2)
movej(p[0.483797294289438, 0.0487986171842769, 0.430571283266304, -1.278, 1.001, -1.031], a = 0.2, v = 0.2, t = 0.2)
movej(p[0.483812388595707, 0.0488063314772722, 0.430173616395185, -1.278, 1.001, -1.031], a = 0.2, v = 0.2, t = 0.2)
movej(p[0.483831368919423, 0.0488160318090181, 0.429673570496416, -1.278, 1.001, -1.031], a = 0.2, v = 0.2, t = 0.2)
movej(p[0.48385841995741, 0.0488298568652438, 0.428960897688205, -1.278, 1.001, -1.031], a = 0.2, v = 0.2, t = 0.2)
movej(p[0.483881492143121, 0.04884164843734, 0.428353049686584, -1.278, 1.001, -1.031], a = 0.2, v = 0.2, t = 0.2)
movej(p[0.483879888011866, 0.0488408286091026, 0.428395311307999, -1.278, 1.001, -1.031], a = 0.2, v = 0.2, t = 0.2)
movej(p[0.483864021143849, 0.0488327194806261, 0.428813331695701, -1.278, 1.001, -1.031], a = 0.2, v = 0.2, t = 0.2)
movej(p[0.483845738598268, 0.0488233757644729, 0.429294994288701, -1.278, 1.001, -1.031], a = 0.2, v = 0.2, t = 0.2)
movej(p[0.483832500533528, 0.0488166101464792, 0.429643757570104, -1.278, 1.001, -1.031], a = 0.2, v = 0.2, t = 0.2)
movej(p[0.48381024747867, 0.0488052372100787, 0.4302300251693, -1.278, 1.001, -1.031], a = 0.2, v = 0.2, t = 0.2)
movej(p[0.483796440838518, 0.0487981810085208, 0.430593767847627, -1.278, 1.001, -1.031], a = 0.2, v = 0.2, t = 0.2)
movej(p[0.483793869033097, 0.0487968666281052, 0.43066152331759, -1.278, 1.001, -1.031], a = 0.2, v = 0.2, t = 0.2)
movej(p[0.483800949471258, 0.0488004852491627, 0.430474985715949, -1.278, 1.001, -1.031], a = 0.2, v = 0.2, t = 0.2)
movej(p[0.483805581087395, 0.0488028523433028, 0.43035296352663, -1.278, 1.001, -1.031], a = 0.2, v = 0.2, t = 0.2)
movej(p[0.483829421587509, 0.0488150365801766, 0.429724873906809, -1.278, 1.001, -1.031], a = 0.2, v = 0.2, t = 0.2)
movej(p[0.483875633082154, 0.0488386540292387, 0.428507409509481, -1.278, 1.001, -1.031], a = 0.2, v = 0.2, t = 0.2)
movej(p[0.483936992050729, 0.0488700129438537, 0.426890877513061, -1.278, 1.001, -1.031], a = 0.2, v = 0.2, t = 0.2)
movej(p[0.484000099256913, 0.0489022653355786, 0.425228287342948, -1.278, 1.001, -1.031], a = 0.2, v = 0.2, t = 0.2)
movej(p[0.48406859907455, 0.0489372737456336, 0.423423626190208, -1.278, 1.001, -1.031], a = 0.2, v = 0.2, t = 0.2)
movej(p[0.484134997973238, 0.0489712084326543, 0.421674314773316, -1.278, 1.001, -1.031], a = 0.2, v = 0.2, t = 0.2)
movej(p[0.484185749955713, 0.0489971464026353, 0.420337229006438, -1.278, 1.001, -1.031], a = 0.2, v = 0.2, t = 0.2)
movej(p[0.484213699003821, 0.0490114304076237, 0.419600897682975, -1.278, 1.001, -1.031], a = 0.2, v = 0.2, t = 0.2)
movej(p[0.48420804851784, 0.0490085425965745, 0.419749762495996, -1.278, 1.001, -1.031], a = 0.2, v = 0.2, t = 0.2)
movej(p[0.484190907446273, 0.0489997822570158, 0.42020135239858, -1.278, 1.001, -1.031], a = 0.2, v = 0.2, t = 0.2)
movej(p[0.484165908786146, 0.0489870061157833, 0.420859954309606, -1.278, 1.001, -1.031], a = 0.2, v = 0.2, t = 0.2)
movej(p[0.484150163270848, 0.0489789590074099, 0.421274777600653, -1.278, 1.001, -1.031], a = 0.2, v = 0.2, t = 0.2)
movej(p[0.484121315454164, 0.0489642156660331, 0.422034787421219, -1.278, 1.001, -1.031], a = 0.2, v = 0.2, t = 0.2)
movej(p[0.484071261249824, 0.0489386343116447, 0.423353489882329, -1.278, 1.001, -1.031], a = 0.2, v = 0.2, t = 0.2)
movej(p[0.484004467954799, 0.0489044980592891, 0.425113191863351, -1.278, 1.001, -1.031], a = 0.2, v = 0.2, t = 0.2)
movej(p[0.48396692445734, 0.0488853105899017, 0.426102293641136, -1.278, 1.001, -1.031], a = 0.2, v = 0.2, t = 0.2)
movej(p[0.4839440077548, 0.0488735984810625, 0.426706045362667, -1.278, 1.001, -1.031], a = 0.2, v = 0.2, t = 0.2)
movej(p[0.483927579630457, 0.0488652025096093, 0.4271388523224, -1.278, 1.001, -1.031], a = 0.2, v = 0.2, t = 0.2)
movej(p[0.483899543360082, 0.0488508739276718, 0.427877481559084, -1.278, 1.001, -1.031], a = 0.2, v = 0.2, t = 0.2)
movej(p[0.4838998164037, 0.0488510134729037, 0.427870288091609, -1.278, 1.001, -1.031], a = 0.2, v = 0.2, t = 0.2)
movej(p[0.483933893764121, 0.0488684294930972, 0.426972503387046, -1.278, 1.001, -1.031], a = 0.2, v = 0.2, t = 0.2)
movej(p[0.483983382919862, 0.0488937220663806, 0.425668687407238, -1.278, 1.001, -1.031], a = 0.2, v = 0.2, t = 0.2)
movej(p[0.484028541300443, 0.0489168012972357, 0.424478967814323, -1.278, 1.001, -1.031], a = 0.2, v = 0.2, t = 0.2)
movej(p[0.484079517026993, 0.0489428536167818, 0.423135987400487, -1.278, 1.001, -1.031], a = 0.2, v = 0.2, t = 0.2)
movej(p[0.484133902006494, 0.0489706483135984, 0.421703188552485, -1.278, 1.001, -1.031], a = 0.2, v = 0.2, t = 0.2)
movej(p[0.484165461297995, 0.0489867774166532, 0.420871743603523, -1.278, 1.001, -1.031], a = 0.2, v = 0.2, t = 0.2)
movej(p[0.484163451393585, 0.0489857502086961, 0.420924695516879, -1.278, 1.001, -1.031], a = 0.2, v = 0.2, t = 0.2)
movej(p[0.484137170945364, 0.0489723189801249, 0.421617066761329, -1.278, 1.001, -1.031], a = 0.2, v = 0.2, t = 0.2)
movej(p[0.484089062176802, 0.0489477318855139, 0.42288451576668, -1.278, 1.001, -1.031], a = 0.2, v = 0.2, t = 0.2)
movej(p[0.484028116565926, 0.048916584226875, 0.424490157652617, -1.278, 1.001, -1.031], a = 0.2, v = 0.2, t = 0.2)
movej(p[0.48397817612976, 0.0488910610163332, 0.425805862835612, -1.278, 1.001, -1.031], a = 0.2, v = 0.2, t = 0.2)
movej(p[0.483949055269458, 0.0488761781297245, 0.426573066123653, -1.278, 1.001, -1.031], a = 0.2, v = 0.2, t = 0.2)
movej(p[0.48393074617797, 0.0488668208466738, 0.427055428081547, -1.278, 1.001, -1.031], a = 0.2, v = 0.2, t = 0.2)
movej(p[0.48390264164669, 0.0488524573784283, 0.427795855685099, -1.278, 1.001, -1.031], a = 0.2, v = 0.2, t = 0.2)
movej(p[0.483889857896192, 0.0488459239481955, 0.428132649835898, -1.278, 1.001, -1.031], a = 0.2, v = 0.2, t = 0.2)
movej(p[0.483902235873536, 0.0488522499987087, 0.42780654597704, -1.278, 1.001, -1.031], a = 0.2, v = 0.2, t = 0.2)
movej(p[0.483929710887586, 0.0488662917376695, 0.427082703312389, -1.278, 1.001, -1.031], a = 0.2, v = 0.2, t = 0.2)
movej(p[0.483960136289617, 0.0488818413403862, 0.426281131235301, -1.278, 1.001, -1.031], a = 0.2, v = 0.2, t = 0.2)
movej(p[0.484003413703052, 0.0489039592596437, 0.425140966640546, -1.278, 1.001, -1.031], a = 0.2, v = 0.2, t = 0.2)
movej(p[0.484062353201791, 0.0489340816484537, 0.423588176758694, -1.278, 1.001, -1.031], a = 0.2, v = 0.2, t = 0.2)
movej(p[0.484112471874763, 0.0489596959510218, 0.422267775839987, -1.278, 1.001, -1.031], a = 0.2, v = 0.2, t = 0.2)
movej(p[0.484149048342742, 0.0489783891977129, 0.421304150926175, -1.278, 1.001, -1.031], a = 0.2, v = 0.2, t = 0.2)
movej(p[0.484159238178871, 0.0489835969482426, 0.421035694716386, -1.278, 1.001, -1.031], a = 0.2, v = 0.2, t = 0.2)
movej(p[0.484141520681888, 0.0489745420131943, 0.421502470828084, -1.278, 1.001, -1.031], a = 0.2, v = 0.2, t = 0.2)
movej(p[0.484087200171018, 0.0489467802645574, 0.422933571218487, -1.278, 1.001, -1.031], a = 0.2, v = 0.2, t = 0.2)
movej(p[0.484031476519335, 0.0489183014084787, 0.424401638038969, -1.278, 1.001, -1.031], a = 0.2, v = 0.2, t = 0.2)
movej(p[0.483986746665544, 0.0488954411861126, 0.42558006788432, -1.278, 1.001, -1.031], a = 0.2, v = 0.2, t = 0.2)
movej(p[0.483956541215315, 0.0488800039948327, 0.426375845223719, -1.278, 1.001, -1.031], a = 0.2, v = 0.2, t = 0.2)
movej(p[0.483926605016432, 0.0488647044106565, 0.427164529004915, -1.278, 1.001, -1.031], a = 0.2, v = 0.2, t = 0.2)
movej(p[0.483916354503944, 0.0488594656500753, 0.427434583763031, -1.278, 1.001, -1.031], a = 0.2, v = 0.2, t = 0.2)
movej(p[0.483933836880034, 0.0488684004211739, 0.426974002026103, -1.278, 1.001, -1.031], a = 0.2, v = 0.2, t = 0.2)
movej(p[0.483970166850302, 0.0488869676895306, 0.426016871214873, -1.278, 1.001, -1.031], a = 0.2, v = 0.2, t = 0.2)
movej(p[0.48401374006099, 0.0489092367827893, 0.42486891369702, -1.278, 1.001, -1.031], a = 0.2, v = 0.2, t = 0.2)
movej(p[0.484060138514668, 0.0489329497815727, 0.423646523772656, -1.278, 1.001, -1.031], a = 0.2, v = 0.2, t = 0.2)
movej(p[0.484107856679166, 0.0489573372489769, 0.422389365422165, -1.278, 1.001, -1.031], a = 0.2, v = 0.2, t = 0.2)
movej(p[0.484130231086743, 0.0489687722054806, 0.421799900726313, -1.278, 1.001, -1.031], a = 0.2, v = 0.2, t = 0.2)
movej(p[0.484119161443401, 0.0489631148092036, 0.422091535886854, -1.278, 1.001, -1.031], a = 0.2, v = 0.2, t = 0.2)
movej(p[0.484087901741426, 0.0489471388182783, 0.422915088003448, -1.278, 1.001, -1.031], a = 0.2, v = 0.2, t = 0.2)
movej(p[0.484043289448081, 0.048924338677887, 0.424090420661414, -1.278, 1.001, -1.031], a = 0.2, v = 0.2, t = 0.2)
movej(p[0.483990099034408, 0.0488971544914599, 0.425491748089213, -1.278, 1.001, -1.031], a = 0.2, v = 0.2, t = 0.2)
movej(p[0.483951520246564, 0.0488774379130682, 0.426508125097839, -1.278, 1.001, -1.031], a = 0.2, v = 0.2, t = 0.2)
movej(p[0.483927029750949, 0.0488649214810172, 0.42715333916662, -1.278, 1.001, -1.031], a = 0.2, v = 0.2, t = 0.2)
movej(p[0.48391587288534, 0.0488592195077912, 0.427447272240382, -1.278, 1.001, -1.031], a = 0.2, v = 0.2, t = 0.2)
movej(p[0.483887036445473, 0.0488444819807991, 0.428206982333137, -1.278, 1.001, -1.031], a = 0.2, v = 0.2, t = 0.2)
movej(p[0.483871746002872, 0.0488366674478122, 0.428609816511726, -1.278, 1.001, -1.031], a = 0.2, v = 0.2, t = 0.2)
movej(p[0.48386939479394, 0.0488354658083152, 0.428671760259426, -1.278, 1.001, -1.031], a = 0.2, v = 0.2, t = 0.2)
movej(p[0.483868253319926, 0.0488348824317207, 0.428701832949841, -1.278, 1.001, -1.031], a = 0.2, v = 0.2, t = 0.2)
movej(p[0.48385806727607, 0.0488296766193192, 0.42897018925036, -1.278, 1.001, -1.031], a = 0.2, v = 0.2, t = 0.2)
movej(p[0.483854893144012, 0.0488280544059983, 0.429053813309754, -1.278, 1.001, -1.031], a = 0.2, v = 0.2, t = 0.2)
movej(p[0.483857308821576, 0.048829288993675, 0.428990171104456, -1.278, 1.001, -1.031], a = 0.2, v = 0.2, t = 0.2)
movej(p[0.48385424466542, 0.0488277229860725, 0.429070897795007, -1.278, 1.001, -1.031], a = 0.2, v = 0.2, t = 0.2)
movej(p[0.48384451369426, 0.0488227497490575, 0.429327264983067, -1.278, 1.001, -1.031], a = 0.2, v = 0.2, t = 0.2)
movej(p[0.483842894393915, 0.0488219221683072, 0.429369926241563, -1.278, 1.001, -1.031], a = 0.2, v = 0.2, t = 0.2)
movej(p[0.483854726284024, 0.0488279691283566, 0.429058209317655, -1.278, 1.001, -1.031], a = 0.2, v = 0.2, t = 0.2)
movej(p[0.483876315691199, 0.0488390028923184, 0.428489425840794, -1.278, 1.001, -1.031], a = 0.2, v = 0.2, t = 0.2)
movej(p[0.483926005837382, 0.0488643981863976, 0.427180314669651, -1.278, 1.001, -1.031], a = 0.2, v = 0.2, t = 0.2)
movej(p[0.484005158148389, 0.0489048507986253, 0.425095008376123, -1.278, 1.001, -1.031], a = 0.2, v = 0.2, t = 0.2)
movej(p[0.484078830625676, 0.0489425028155738, 0.423154070978444, -1.278, 1.001, -1.031], a = 0.2, v = 0.2, t = 0.2)
movej(p[0.484128156713701, 0.0489677120493437, 0.421854551097268, -1.278, 1.001, -1.031], a = 0.2, v = 0.2, t = 0.2)
movej(p[0.484156598757231, 0.0489822480110008, 0.421105231568643, -1.278, 1.001, -1.031], a = 0.2, v = 0.2, t = 0.2)
movej(p[0.484170531566288, 0.0489893686940846, 0.420738164908887, -1.278, 1.001, -1.031], a = 0.2, v = 0.2, t = 0.2)
movej(p[0.484146689549265, 0.0489771836819595, 0.421366294492416, -1.278, 1.001, -1.031], a = 0.2, v = 0.2, t = 0.2)
movej(p[0.484094997083218, 0.0489507650561797, 0.422728157758374, -1.278, 1.001, -1.031], a = 0.2, v = 0.2, t = 0.2)
movej(p[0.484033353694208, 0.0489192607819481, 0.42435218295008, -1.278, 1.001, -1.031], a = 0.2, v = 0.2, t = 0.2)
movej(p[0.483989162343108, 0.0488966757737893, 0.425516425679022, -1.278, 1.001, -1.031], a = 0.2, v = 0.2, t = 0.2)
movej(p[0.483944368020685, 0.0488737826032434, 0.426696553981971, -1.278, 1.001, -1.031], a = 0.2, v = 0.2, t = 0.2)
movej(p[0.483917412547963, 0.0488600063878489, 0.427406709076566, -1.278, 1.001, -1.031], a = 0.2, v = 0.2, t = 0.2)
movej(p[0.483899968094598, 0.0488510909980325, 0.427866291720789, -1.278, 1.001, -1.031], a = 0.2, v = 0.2, t = 0.2)
movej(p[0.483889338354863, 0.0488456584246292, 0.428146337405954, -1.278, 1.001, -1.031], a = 0.2, v = 0.2, t = 0.2)
movej(p[0.483867419019983, 0.0488344560435121, 0.428723812989348, -1.278, 1.001, -1.031], a = 0.2, v = 0.2, t = 0.2)
movej(p[0.483854896936285, 0.0488280563441265, 0.429053713400484, -1.278, 1.001, -1.031], a = 0.2, v = 0.2, t = 0.2)
movej(p[0.483862834162566, 0.048832112846493, 0.428844603297362, -1.278, 1.001, -1.031], a = 0.2, v = 0.2, t = 0.2)
movej(p[0.483883289680273, 0.0488425671101168, 0.428305692692375, -1.278, 1.001, -1.031], a = 0.2, v = 0.2, t = 0.2)
movej(p[0.483902372395345, 0.0488523197713246, 0.427802949243303, -1.278, 1.001, -1.031], a = 0.2, v = 0.2, t = 0.2)
movej(p[0.483935797484901, 0.0488694024334641, 0.426922348933263, -1.278, 1.001, -1.031], a = 0.2, v = 0.2, t = 0.2)
movej(p[0.483972438421512, 0.0488881286283349, 0.425957025561853, -1.278, 1.001, -1.031], a = 0.2, v = 0.2, t = 0.2)
movej(p[0.483982867170806, 0.0488934584809426, 0.425682275068024, -1.278, 1.001, -1.031], a = 0.2, v = 0.2, t = 0.2)
movej(p[0.483966454215554, 0.0488850702620023, 0.426114682390676, -1.278, 1.001, -1.031], a = 0.2, v = 0.2, t = 0.2)
movej(p[0.483935653378547, 0.0488693287845917, 0.426926145485541, -1.278, 1.001, -1.031], a = 0.2, v = 0.2, t = 0.2)
movej(p[0.483912437086482, 0.048857463563623, 0.42753779003944, -1.278, 1.001, -1.031], a = 0.2, v = 0.2, t = 0.2)
movej(p[0.483884226371573, 0.0488430458277874, 0.428281015102566, -1.278, 1.001, -1.031], a = 0.2, v = 0.2, t = 0.2)
movej(p[0.483864419332459, 0.0488329229840893, 0.4288028412223, -1.278, 1.001, -1.031], a = 0.2, v = 0.2, t = 0.2)
movej(p[0.483855719859411, 0.0488284769179505, 0.429032033088789, -1.278, 1.001, -1.031], a = 0.2, v = 0.2, t = 0.2)
movej(p[0.483852579857805, 0.0488268721477835, 0.429114757964749, -1.278, 1.001, -1.031], a = 0.2, v = 0.2, t = 0.2)
movej(p[0.483836868852187, 0.0488188426763769, 0.429528672081434, -1.278, 1.001, -1.031], a = 0.2, v = 0.2, t = 0.2)
movej(p[0.48383606261506, 0.0488184306303171, 0.429549912792339, -1.278, 1.001, -1.031], a = 0.2, v = 0.2, t = 0.2)
movej(p[0.483859671407325, 0.0488304964475567, 0.428927927628945, -1.278, 1.001, -1.031], a = 0.2, v = 0.2, t = 0.2)
movej(p[0.483897396933863, 0.0488497769470987, 0.427934030206177, -1.278, 1.001, -1.031], a = 0.2, v = 0.2, t = 0.2)
movej(p[0.483926165112825, 0.0488644795877829, 0.427176118480291, -1.278, 1.001, -1.031], a = 0.2, v = 0.2, t = 0.2)
movej(p[0.483945570171058, 0.0488743969898895, 0.426664882743228, -1.278, 1.001, -1.031], a = 0.2, v = 0.2, t = 0.2)
movej(p[0.483948016186801, 0.048875647082592, 0.426600441263766, -1.278, 1.001, -1.031], a = 0.2, v = 0.2, t = 0.2)
movej(p[0.48392529668243, 0.0488640357564203, 0.427198997703231, -1.278, 1.001, -1.031], a = 0.2, v = 0.2, t = 0.2)
movej(p[0.483889573475756, 0.0488457785885789, 0.428140143031184, -1.278, 1.001, -1.031], a = 0.2, v = 0.2, t = 0.2)
movej(p[0.483867923392222, 0.0488347138145655, 0.428710525056373, -1.278, 1.001, -1.031], a = 0.2, v = 0.2, t = 0.2)
movej(p[0.48385814312152, 0.0488297153818836, 0.42896819106495, -1.278, 1.001, -1.031], a = 0.2, v = 0.2, t = 0.2)
movej(p[0.483844123090196, 0.0488225501218508, 0.429337555637927, -1.278, 1.001, -1.031], a = 0.2, v = 0.2, t = 0.2)
movej(p[0.483827779533529, 0.0488141973706569, 0.429768134620929, -1.278, 1.001, -1.031], a = 0.2, v = 0.2, t = 0.2)
movej(p[0.48382398574415, 0.0488122584671847, 0.42986808385512, -1.278, 1.001, -1.031], a = 0.2, v = 0.2, t = 0.2)
movej(p[0.483834229809774, 0.048817493932948, 0.429598198942764, -1.278, 1.001, -1.031], a = 0.2, v = 0.2, t = 0.2)
movej(p[0.483841362315837, 0.0488211391645059, 0.429410289586839, -1.278, 1.001, -1.031], a = 0.2, v = 0.2, t = 0.2)
movej(p[0.483858806769202, 0.0488300545543223, 0.428950706942615, -1.278, 1.001, -1.031], a = 0.2, v = 0.2, t = 0.2)
movej(p[0.483885216154688, 0.048843551679253, 0.42825493878297, -1.278, 1.001, -1.031], a = 0.2, v = 0.2, t = 0.2)
movej(p[0.483902076598092, 0.0488521685973234, 0.427810742166401, -1.278, 1.001, -1.031], a = 0.2, v = 0.2, t = 0.2)
movej(p[0.483893536400488, 0.0488478039325698, 0.428035737843529, -1.278, 1.001, -1.031], a = 0.2, v = 0.2, t = 0.2)
movej(p[0.483877677117016, 0.0488396986803498, 0.42845355841269, -1.278, 1.001, -1.031], a = 0.2, v = 0.2, t = 0.2)
movej(p[0.483862454935319, 0.0488319190336709, 0.42885459422441, -1.278, 1.001, -1.031], a = 0.2, v = 0.2, t = 0.2)
movej(p[0.483847373067703, 0.0488242110977361, 0.429251933393122, -1.278, 1.001, -1.031], a = 0.2, v = 0.2, t = 0.2)
movej(p[0.483824331599399, 0.0488124352244785, 0.429858972129652, -1.278, 1.001, -1.031], a = 0.2, v = 0.2, t = 0.2)
movej(p[0.483812148924087, 0.0488062089875686, 0.43017993066108, -1.278, 1.001, -1.031], a = 0.2, v = 0.2, t = 0.2)
movej(p[0.483809889867376, 0.0488050544445874, 0.430239446613507, -1.278, 1.001, -1.031], a = 0.2, v = 0.2, t = 0.2)
movej(p[0.483799571359443, 0.0487997809333672, 0.430511292744843, -1.278, 1.001, -1.031], a = 0.2, v = 0.2, t = 0.2)
movej(p[0.483785288637405, 0.0487924814191925, 0.430887578032986, -1.278, 1.001, -1.031], a = 0.2, v = 0.2, t = 0.2)
movej(p[0.483794454939193, 0.0487971660689153, 0.430646087335301, -1.278, 1.001, -1.031], a = 0.2, v = 0.2, t = 0.2)
movej(p[0.483823319062649, 0.0488119177442435, 0.429885647904871, -1.278, 1.001, -1.031], a = 0.2, v = 0.2, t = 0.2)
movej(p[0.483848450073085, 0.0488247615261509, 0.429223559160305, -1.278, 1.001, -1.031], a = 0.2, v = 0.2, t = 0.2)
movej(p[0.483864480008818, 0.0488329539941409, 0.428801242673972, -1.278, 1.001, -1.031], a = 0.2, v = 0.2, t = 0.2)
movej(p[0.48386710805364, 0.048834297116998, 0.428732005549527, -1.278, 1.001, -1.031], a = 0.2, v = 0.2, t = 0.2)
movej(p[0.483860532253176, 0.0488309364026628, 0.428905248224545, -1.278, 1.001, -1.031], a = 0.2, v = 0.2, t = 0.2)
movej(p[0.483833952973884, 0.0488173524495878, 0.429605492319509, -1.278, 1.001, -1.031], a = 0.2, v = 0.2, t = 0.2)
movej(p[0.483814717809459, 0.0488075218756255, 0.430112252121254, -1.278, 1.001, -1.031], a = 0.2, v = 0.2, t = 0.2)
movej(p[0.483804724792271, 0.0488024147139505, 0.430375523039905, -1.278, 1.001, -1.031], a = 0.2, v = 0.2, t = 0.2)
movej(p[0.483798598262327, 0.0487992836096657, 0.430536929463649, -1.278, 1.001, -1.031], a = 0.2, v = 0.2, t = 0.2)
movej(p[0.483780906287338, 0.0487902417182203, 0.431003033185956, -1.278, 1.001, -1.031], a = 0.2, v = 0.2, t = 0.2)
movej(p[0.483775091595958, 0.0487872699862191, 0.431156224070389, -1.278, 1.001, -1.031], a = 0.2, v = 0.2, t = 0.2)
movej(p[0.483793037766971, 0.0487964417903992, 0.43068342342968, -1.278, 1.001, -1.031], a = 0.2, v = 0.2, t = 0.2)
movej(p[0.483821451368457, 0.0488109632160946, 0.429934853220584, -1.278, 1.001, -1.031], a = 0.2, v = 0.2, t = 0.2)
movej(p[0.483841229586301, 0.0488210713300182, 0.429413786411305, -1.278, 1.001, -1.031], a = 0.2, v = 0.2, t = 0.2)
movej(p[0.483850907465646, 0.0488260174332381, 0.429158817953032, -1.278, 1.001, -1.031], a = 0.2, v = 0.2, t = 0.2)
movej(p[0.483850372755227, 0.0488257441571589, 0.42917290516017, -1.278, 1.001, -1.031], a = 0.2, v = 0.2, t = 0.2)
movej(p[0.483837772171489, 0.0488193043385192, 0.429504873693205, -1.278, 1.001, -1.031], a = 0.2, v = 0.2, t = 0.2)
movej(p[0.483814507338336, 0.0488074143095093, 0.430117797085766, -1.278, 1.001, -1.031], a = 0.2, v = 0.2, t = 0.2)
movej(p[0.483802355570045, 0.0488012038683444, 0.430437941356639, -1.278, 1.001, -1.031], a = 0.2, v = 0.2, t = 0.2)
movej(p[0.483797865557363, 0.0487989091439121, 0.430556232933799, -1.278, 1.001, -1.031], a = 0.2, v = 0.2, t = 0.2)
movej(p[0.483787501428391, 0.0487936123170094, 0.430829280973659, -1.278, 1.001, -1.031], a = 0.2, v = 0.2, t = 0.2)
movej(p[0.483770757407752, 0.0487850548994754, 0.431270410375624, -1.278, 1.001, -1.031], a = 0.2, v = 0.2, t = 0.2)
movej(p[0.483771221202675, 0.0487852919325568, 0.431258191471844, -1.278, 1.001, -1.031], a = 0.2, v = 0.2, t = 0.2)
movej(p[0.483789503748256, 0.04879463564871, 0.430776528878844, -1.278, 1.001, -1.031], a = 0.2, v = 0.2, t = 0.2)
movej(p[0.483810902404126, 0.0488055719248224, 0.430212770838288, -1.278, 1.001, -1.031], a = 0.2, v = 0.2, t = 0.2)
movej(p[0.483824209488225, 0.0488123728167497, 0.429862189208162, -1.278, 1.001, -1.031], a = 0.2, v = 0.2, t = 0.2)
movej(p[0.483834575285796, 0.0488176704964289, 0.429589097208222, -1.278, 1.001, -1.031], a = 0.2, v = 0.2, t = 0.2)
movej(p[0.483836765323148, 0.0488187897654765, 0.429531399604518, -1.278, 1.001, -1.031], a = 0.2, v = 0.2, t = 0.2)
movej(p[0.483815375768732, 0.0488078581408719, 0.430094917862825, -1.278, 1.001, -1.031], a = 0.2, v = 0.2, t = 0.2)
movej(p[0.483796926628622, 0.0487984292827459, 0.430580969470078, -1.278, 1.001, -1.031], a = 0.2, v = 0.2, t = 0.2)
movej(p[0.483782916191747, 0.0487912689261774, 0.4309500812726, -1.278, 1.001, -1.031], a = 0.2, v = 0.2, t = 0.2)
movej(p[0.483780552847543, 0.0487900610846701, 0.431012344729965, -1.278, 1.001, -1.031], a = 0.2, v = 0.2, t = 0.2)
movej(p[0.483767534734606, 0.0487834078781132, 0.431355313273681, -1.278, 1.001, -1.031], a = 0.2, v = 0.2, t = 0.2)
movej(p[0.483756900823371, 0.0487779731727689, 0.431635468859043, -1.278, 1.001, -1.031], a = 0.2, v = 0.2, t = 0.2)
movej(p[0.483757014591545, 0.0487780313166155, 0.431632471580928, -1.278, 1.001, -1.031], a = 0.2, v = 0.2, t = 0.2)
movej(p[0.483766579081944, 0.0487829194698016, 0.431380490409842, -1.278, 1.001, -1.031], a = 0.2, v = 0.2, t = 0.2)
movej(p[0.48377077143916, 0.0487850620705498, 0.431270040711323, -1.278, 1.001, -1.031], a = 0.2, v = 0.2, t = 0.2)
movej(p[0.48378163743747, 0.0487906153893413, 0.430983770678607, -1.278, 1.001, -1.031], a = 0.2, v = 0.2, t = 0.2)
movej(p[0.483794988891157, 0.0487974389573688, 0.430632020110017, -1.278, 1.001, -1.031], a = 0.2, v = 0.2, t = 0.2)
movej(p[0.483803701713004, 0.048801891845719, 0.430402476562896, -1.278, 1.001, -1.031], a = 0.2, v = 0.2, t = 0.2)
movej(p[0.483795439413127, 0.0487976692070015, 0.430620150888683, -1.278, 1.001, -1.031], a = 0.2, v = 0.2, t = 0.2)
movej(p[0.48378409634694, 0.0487918720716798, 0.430918989507626, -1.278, 1.001, -1.031], a = 0.2, v = 0.2, t = 0.2)
movej(p[0.483779263095676, 0.0487894019272622, 0.431046323872857, -1.278, 1.001, -1.031], a = 0.2, v = 0.2, t = 0.2)
movej(p[0.483774251986833, 0.048786840884631, 0.431178343982873, -1.278, 1.001, -1.031], a = 0.2, v = 0.2, t = 0.2)
movej(p[0.483759236863213, 0.048779167059753, 0.431573924748425, -1.278, 1.001, -1.031], a = 0.2, v = 0.2, t = 0.2)
movej(p[0.483750332607452, 0.0487746163346902, 0.43180851171552, -1.278, 1.001, -1.031], a = 0.2, v = 0.2, t = 0.2)
movej(p[0.483748997727542, 0.0487739341135564, 0.43184367977873, -1.278, 1.001, -1.031], a = 0.2, v = 0.2, t = 0.2)
movej(p[0.483753662222681, 0.0487763180112682, 0.431720791376036, -1.278, 1.001, -1.031], a = 0.2, v = 0.2, t = 0.2)
movej(p[0.483752998574999, 0.0487759788388295, 0.43173827549837, -1.278, 1.001, -1.031], a = 0.2, v = 0.2, t = 0.2)
movej(p[0.483762162601424, 0.0487806623256754, 0.431496844746247, -1.278, 1.001, -1.031], a = 0.2, v = 0.2, t = 0.2)
movej(p[0.483780095499483, 0.0487898273464067, 0.431024393787986, -1.278, 1.001, -1.031], a = 0.2, v = 0.2, t = 0.2)
movej(p[0.483789245873728, 0.048794503855991, 0.430783322709237, -1.278, 1.001, -1.031], a = 0.2, v = 0.2, t = 0.2)
movej(p[0.483780836130297, 0.0487902058628482, 0.43100488150746, -1.278, 1.001, -1.031], a = 0.2, v = 0.2, t = 0.2)
movej(p[0.483770357323006, 0.0487848504269481, 0.43128095080366, -1.278, 1.001, -1.031], a = 0.2, v = 0.2, t = 0.2)
movej(p[0.483765516487197, 0.0487823764062741, 0.431408484987432, -1.278, 1.001, -1.031], a = 0.2, v = 0.2, t = 0.2)
movej(p[0.483758751452337, 0.0487789189793407, 0.431586713135047, -1.278, 1.001, -1.031], a = 0.2, v = 0.2, t = 0.2)
movej(p[0.483745505044597, 0.0487721490974649, 0.431935696216845, -1.278, 1.001, -1.031], a = 0.2, v = 0.2, t = 0.2)
movej(p[0.483741204607615, 0.0487699512600623, 0.432048993329573, -1.278, 1.001, -1.031], a = 0.2, v = 0.2, t = 0.2)
movej(p[0.483745876687299, 0.0487723390340306, 0.431925905108338, -1.278, 1.001, -1.031], a = 0.2, v = 0.2, t = 0.2)
movej(p[0.483750742172879, 0.048774825652538, 0.431797721514308, -1.278, 1.001, -1.031], a = 0.2, v = 0.2, t = 0.2)
movej(p[0.483748227896231, 0.0487735406735276, 0.431863961360638, -1.278, 1.001, -1.031], a = 0.2, v = 0.2, t = 0.2)
movej(p[0.483755554566644, 0.0487772851372504, 0.431670936650064, -1.278, 1.001, -1.031], a = 0.2, v = 0.2, t = 0.2)
movej(p[0.483778542184679, 0.0487890334890874, 0.431065316625176, -1.278, 1.001, -1.031], a = 0.2, v = 0.2, t = 0.2)
movej(p[0.483795428415537, 0.0487976635864296, 0.430620440625568, -1.278, 1.001, -1.031], a = 0.2, v = 0.2, t = 0.2)
movej(p[0.483798756741393, 0.048799364604044, 0.430532754255235, -1.278, 1.001, -1.031], a = 0.2, v = 0.2, t = 0.2)
movej(p[0.483789613724157, 0.0487946918544285, 0.43077363151, -1.278, 1.001, -1.031], a = 0.2, v = 0.2, t = 0.2)
movej(p[0.483782026524625, 0.0487908142412968, 0.430973519987456, -1.278, 1.001, -1.031], a = 0.2, v = 0.2, t = 0.2)
movej(p[0.483771240922492, 0.0487853020108236, 0.431257671943637, -1.278, 1.001, -1.031], a = 0.2, v = 0.2, t = 0.2)
movej(p[0.48375517913167, 0.0487770932625566, 0.431680827667842, -1.278, 1.001, -1.031], a = 0.2, v = 0.2, t = 0.2)
movej(p[0.483745091686898, 0.0487719378414888, 0.431946586327328, -1.278, 1.001, -1.031], a = 0.2, v = 0.2, t = 0.2)
movej(p[0.48374515615553, 0.0487719707896686, 0.43194488786973, -1.278, 1.001, -1.031], a = 0.2, v = 0.2, t = 0.2)
movej(p[0.483749312486158, 0.0487740949781987, 0.43183538730928, -1.278, 1.001, -1.031], a = 0.2, v = 0.2, t = 0.2)
movej(p[0.483755247392574, 0.0487771281488645, 0.431679029300974, -1.278, 1.001, -1.031], a = 0.2, v = 0.2, t = 0.2)
movej(p[0.483775701014144, 0.0487875814434242, 0.431140168650622, -1.278, 1.001, -1.031], a = 0.2, v = 0.2, t = 0.2)
movej(p[0.483816869165631, 0.0488086213757653, 0.430055573592109, -1.278, 1.001, -1.031], a = 0.2, v = 0.2, t = 0.2)
movej(p[0.483855571960785, 0.0488284013309498, 0.429035929550338, -1.278, 1.001, -1.031], a = 0.2, v = 0.2, t = 0.2)
movej(p[0.48389624029076, 0.0488491858179913, 0.427964502533675, -1.278, 1.001, -1.031], a = 0.2, v = 0.2, t = 0.2)
movej(p[0.483938634104709, 0.0488708521533734, 0.426847616798942, -1.278, 1.001, -1.031], a = 0.2, v = 0.2, t = 0.2)
movej(p[0.483986905940988, 0.0488955225874979, 0.425575871694959, -1.278, 1.001, -1.031], a = 0.2, v = 0.2, t = 0.2)
movej(p[0.484016808009419, 0.0489108047285201, 0.424788087097199, -1.278, 1.001, -1.031], a = 0.2, v = 0.2, t = 0.2)
movej(p[0.484002469427207, 0.0489034766657167, 0.425165844048896, -1.278, 1.001, -1.031], a = 0.2, v = 0.2, t = 0.2)
movej(p[0.483965013152015, 0.0488843337732783, 0.42615264791346, -1.278, 1.001, -1.031], a = 0.2, v = 0.2, t = 0.2)
movej(p[0.48392429931477, 0.0488635260286982, 0.427225273841368, -1.278, 1.001, -1.031], a = 0.2, v = 0.2, t = 0.2)
movej(p[0.483882827023031, 0.0488423306584738, 0.428317881623374, -1.278, 1.001, -1.031], a = 0.2, v = 0.2, t = 0.2)
movej(p[0.483850494107947, 0.048825806177262, 0.429169708063515, -1.278, 1.001, -1.031], a = 0.2, v = 0.2, t = 0.2)
movej(p[0.483834514609437, 0.0488176394863774, 0.42959069575655, -1.278, 1.001, -1.031], a = 0.2, v = 0.2, t = 0.2)
movej(p[0.483848218744464, 0.0488246433003294, 0.429229653625805, -1.278, 1.001, -1.031], a = 0.2, v = 0.2, t = 0.2)
movej(p[0.483878708615128, 0.0488402258512259, 0.428426383091119, -1.278, 1.001, -1.031], a = 0.2, v = 0.2, t = 0.2)
movej(p[0.483918398538806, 0.0488605103011864, 0.42738073266624, -1.278, 1.001, -1.031], a = 0.2, v = 0.2, t = 0.2)
movej(p[0.483966495930551, 0.0488850915814127, 0.426113583388701, -1.278, 1.001, -1.031], a = 0.2, v = 0.2, t = 0.2)
movej(p[0.484022777046287, 0.0489138553423399, 0.424630829905458, -1.278, 1.001, -1.031], a = 0.2, v = 0.2, t = 0.2)
movej(p[0.484065614556116, 0.0489357484387237, 0.423502254786078, -1.278, 1.001, -1.031], a = 0.2, v = 0.2, t = 0.2)
movej(p[0.484102392014536, 0.0489545444062105, 0.422533334680931, -1.278, 1.001, -1.031], a = 0.2, v = 0.2, t = 0.2)
movej(p[0.48413222202979, 0.0489697897227966, 0.421747448359309, -1.278, 1.001, -1.031], a = 0.2, v = 0.2, t = 0.2)
movej(p[0.4841593443625, 0.0489836512158328, 0.421032897256813, -1.278, 1.001, -1.031], a = 0.2, v = 0.2, t = 0.2)
movej(p[0.484163041828159, 0.0489855408908482, 0.420935485718092, -1.278, 1.001, -1.031], a = 0.2, v = 0.2, t = 0.2)
movej(p[0.484142665948174, 0.0489751273279171, 0.421472298228398, -1.278, 1.001, -1.031], a = 0.2, v = 0.2, t = 0.2)
movej(p[0.484107234746481, 0.0489570193959487, 0.422405750542524, -1.278, 1.001, -1.031], a = 0.2, v = 0.2, t = 0.2)
movej(p[0.484057711460287, 0.0489317093795113, 0.423710465705766, -1.278, 1.001, -1.031], a = 0.2, v = 0.2, t = 0.2)
movej(p[0.483993026668755, 0.0488986507264465, 0.425414618132399, -1.278, 1.001, -1.031], a = 0.2, v = 0.2, t = 0.2)
movej(p[0.483946791282793, 0.0488750210671766, 0.426632711958132, -1.278, 1.001, -1.031], a = 0.2, v = 0.2, t = 0.2)
movej(p[0.483918277186087, 0.0488604482810833, 0.427383929762896, -1.278, 1.001, -1.031], a = 0.2, v = 0.2, t = 0.2)
movej(p[0.483912785975549, 0.0488576418714194, 0.427528598386556, -1.278, 1.001, -1.031], a = 0.2, v = 0.2, t = 0.2)
movej(p[0.483916555494385, 0.048859568370871, 0.427429288571695, -1.278, 1.001, -1.031], a = 0.2, v = 0.2, t = 0.2)
movej(p[0.483948384037231, 0.0488758350810294, 0.426590750064529, -1.278, 1.001, -1.031], a = 0.2, v = 0.2, t = 0.2)
movej(p[0.484011297837519, 0.048907988628215, 0.424933255267211, -1.278, 1.001, -1.031], a = 0.2, v = 0.2, t = 0.2)
movej(p[0.484075099029565, 0.0489405956974043, 0.4232523817006, -1.278, 1.001, -1.031], a = 0.2, v = 0.2, t = 0.2)
movej(p[0.484120507700128, 0.048963802844722, 0.422056068095832, -1.278, 1.001, -1.031], a = 0.2, v = 0.2, t = 0.2)
movej(p[0.484157137259922, 0.0489825232252082, 0.421091044452234, -1.278, 1.001, -1.031], a = 0.2, v = 0.2, t = 0.2)
movej(p[0.484187684014673, 0.048998134848028, 0.420286275278491, -1.278, 1.001, -1.031], a = 0.2, v = 0.2, t = 0.2)
movej(p[0.484201867113713, 0.0490053834475744, 0.419912614606883, -1.278, 1.001, -1.031], a = 0.2, v = 0.2, t = 0.2)
movej(p[0.484184043433101, 0.0489962742449359, 0.420382188178155, -1.278, 1.001, -1.031], a = 0.2, v = 0.2, t = 0.2)
movej(p[0.484155411775948, 0.0489816413768677, 0.421136503170304, -1.278, 1.001, -1.031], a = 0.2, v = 0.2, t = 0.2)
movej(p[0.484125399731615, 0.0489663030301271, 0.421927185136909, -1.278, 1.001, -1.031], a = 0.2, v = 0.2, t = 0.2)
movej(p[0.484082421907705, 0.048944338222999, 0.423059456899296, -1.278, 1.001, -1.031], a = 0.2, v = 0.2, t = 0.2)
movej(p[0.484028048305022, 0.048916549340567, 0.424491956019486, -1.278, 1.001, -1.031], a = 0.2, v = 0.2, t = 0.2)
movej(p[0.483980360478703, 0.0488921773781885, 0.425748315095814, -1.278, 1.001, -1.031], a = 0.2, v = 0.2, t = 0.2)
movej(p[0.483948983216281, 0.0488761413052883, 0.426574964399793, -1.278, 1.001, -1.031], a = 0.2, v = 0.2, t = 0.2)
movej(p[0.483916616170744, 0.0488595993809225, 0.427427690023368, -1.278, 1.001, -1.031], a = 0.2, v = 0.2, t = 0.2)
movej(p[0.483896877392535, 0.0488495114235325, 0.427947717776233, -1.278, 1.001, -1.031], a = 0.2, v = 0.2, t = 0.2)
movej(p[0.483903984111145, 0.0488531434758185, 0.427760487803348, -1.278, 1.001, -1.031], a = 0.2, v = 0.2, t = 0.2)
movej(p[0.483943802972086, 0.0488734938221385, 0.426711440463273, -1.278, 1.001, -1.031], a = 0.2, v = 0.2, t = 0.2)
movej(p[0.483985062896567, 0.0488945806571825, 0.425624427600414, -1.278, 1.001, -1.031], a = 0.2, v = 0.2, t = 0.2)
movej(p[0.484028450285903, 0.0489167547821584, 0.424481365636815, -1.278, 1.001, -1.031], a = 0.2, v = 0.2, t = 0.2)
movej(p[0.484062675544951, 0.0489342463893525, 0.423579684470703, -1.278, 1.001, -1.031], a = 0.2, v = 0.2, t = 0.2)
movej(p[0.484082258839989, 0.0489442548834855, 0.423063752997927, -1.278, 1.001, -1.031], a = 0.2, v = 0.2, t = 0.2)
movej(p[0.484077488161221, 0.0489418167181835, 0.423189438860195, -1.278, 1.001, -1.031], a = 0.2, v = 0.2, t = 0.2)
movej(p[0.484072717482453, 0.0489393785528816, 0.423315124722463, -1.278, 1.001, -1.031], a = 0.2, v = 0.2, t = 0.2)
movej(p[0.484072163810672, 0.0489390955861613, 0.423329711475954, -1.278, 1.001, -1.031], a = 0.2, v = 0.2, t = 0.2)
movej(p[0.484067230064188, 0.0489365740813459, 0.423459693436852, -1.278, 1.001, -1.031], a = 0.2, v = 0.2, t = 0.2)
movej(p[0.484059531751073, 0.0489326396810573, 0.423662509255934, -1.278, 1.001, -1.031], a = 0.2, v = 0.2, t = 0.2)
movej(p[0.48406506846888, 0.0489354693482599, 0.423516641721028, -1.278, 1.001, -1.031], a = 0.2, v = 0.2, t = 0.2)
movej(p[0.484073733811475, 0.0489398979712448, 0.423288349037974, -1.278, 1.001, -1.031], a = 0.2, v = 0.2, t = 0.2)
movej(p[0.484064818178897, 0.0489353414317973, 0.42352323573288, -1.278, 1.001, -1.031], a = 0.2, v = 0.2, t = 0.2)
movej(p[0.484039952248307, 0.0489226331250526, 0.424178340819439, -1.278, 1.001, -1.031], a = 0.2, v = 0.2, t = 0.2)
movej(p[0.484005146771571, 0.0489048449842407, 0.425095308103935, -1.278, 1.001, -1.031], a = 0.2, v = 0.2, t = 0.2)
movej(p[0.483973128615102, 0.0488884813676711, 0.425938842074625, -1.278, 1.001, -1.031], a = 0.2, v = 0.2, t = 0.2)
movej(p[0.483936328403047, 0.048869673771415, 0.426908361635395, -1.278, 1.001, -1.031], a = 0.2, v = 0.2, t = 0.2)
movej(p[0.483915330590377, 0.0488589423554556, 0.427461559266062, -1.278, 1.001, -1.031], a = 0.2, v = 0.2, t = 0.2)
movej(p[0.48390426853158, 0.0488532888354351, 0.427752994608061, -1.278, 1.001, -1.031], a = 0.2, v = 0.2, t = 0.2)
movej(p[0.483900700003185, 0.0488514650567792, 0.427847009231586, -1.278, 1.001, -1.031], a = 0.2, v = 0.2, t = 0.2)
movej(p[0.483905417590139, 0.048853876088286, 0.427722722099105, -1.278, 1.001, -1.031], a = 0.2, v = 0.2, t = 0.2)
movej(p[0.483934523281351, 0.0488687512223819, 0.426955918448145, -1.278, 1.001, -1.031], a = 0.2, v = 0.2, t = 0.2)
movej(p[0.483987562004125, 0.0488958578836801, 0.425558587391166, -1.278, 1.001, -1.031], a = 0.2, v = 0.2, t = 0.2)
movej(p[0.484036463357634, 0.0489208500470893, 0.424270257348284, -1.278, 1.001, -1.031], a = 0.2, v = 0.2, t = 0.2)
movej(p[0.484081204588242, 0.0489437160838401, 0.423091527775121, -1.278, 1.001, -1.031], a = 0.2, v = 0.2, t = 0.2)
movej(p[0.484099240636113, 0.0489529338216589, 0.422616359284703, -1.278, 1.001, -1.031], a = 0.2, v = 0.2, t = 0.2)
movej(p[0.48408407154623, 0.0489451813087751, 0.423015996366636, -1.278, 1.001, -1.031], a = 0.2, v = 0.2, t = 0.2)
movej(p[0.484033042727865, 0.048919101855434, 0.42436037551026, -1.278, 1.001, -1.031], a = 0.2, v = 0.2, t = 0.2)
movej(p[0.483988684516776, 0.0488964315696335, 0.425529014247103, -1.278, 1.001, -1.031], a = 0.2, v = 0.2, t = 0.2)
movej(p[0.483955206335406, 0.0488793217736989, 0.426411013286929, -1.278, 1.001, -1.031], a = 0.2, v = 0.2, t = 0.2)
movej(p[0.483929726056675, 0.0488662994901823, 0.427082303675307, -1.278, 1.001, -1.031], a = 0.2, v = 0.2, t = 0.2)
movej(p[0.483902470994429, 0.0488523701626584, 0.42780035160227, -1.278, 1.001, -1.031], a = 0.2, v = 0.2, t = 0.2)
movej(p[0.483888344779476, 0.0488451506350353, 0.428172513634821, -1.278, 1.001, -1.031], a = 0.2, v = 0.2, t = 0.2)
movej(p[0.483878769291488, 0.0488402568612774, 0.428424784542791, -1.278, 1.001, -1.031], a = 0.2, v = 0.2, t = 0.2)
movej(p[0.483864407955641, 0.0488329171697047, 0.428803140950111, -1.278, 1.001, -1.031], a = 0.2, v = 0.2, t = 0.2)
movej(p[0.483855947395759, 0.0488285932056437, 0.42902603853256, -1.278, 1.001, -1.031], a = 0.2, v = 0.2, t = 0.2)
movej(p[0.483874575038135, 0.048838113291465, 0.428535284195946, -1.278, 1.001, -1.031], a = 0.2, v = 0.2, t = 0.2)
movej(p[0.48391329414006, 0.048857901580601, 0.427515210544311, -1.278, 1.001, -1.031], a = 0.2, v = 0.2, t = 0.2)
movej(p[0.483950974159328, 0.0488771588226043, 0.426522512032789, -1.278, 1.001, -1.031], a = 0.2, v = 0.2, t = 0.2)
movej(p[0.483983193306239, 0.0488936251599696, 0.425673682870763, -1.278, 1.001, -1.031], a = 0.2, v = 0.2, t = 0.2)
movej(p[0.483989552947172, 0.0488968754009961, 0.425506135024162, -1.278, 1.001, -1.031], a = 0.2, v = 0.2, t = 0.2)
movej(p[0.483973124822829, 0.0488884794295429, 0.425938941983896, -1.278, 1.001, -1.031], a = 0.2, v = 0.2, t = 0.2)
movej(p[0.483930124245285, 0.0488665029936455, 0.427071813201906, -1.278, 1.001, -1.031], a = 0.2, v = 0.2, t = 0.2)
movej(p[0.483905584450127, 0.0488539613659278, 0.427718326091204, -1.278, 1.001, -1.031], a = 0.2, v = 0.2, t = 0.2)
movej(p[0.483888830190352, 0.0488453987154476, 0.428159725248199, -1.278, 1.001, -1.031], a = 0.2, v = 0.2, t = 0.2)
movej(p[0.483877134822053, 0.0488394215280142, 0.428467845438369, -1.278, 1.001, -1.031], a = 0.2, v = 0.2, t = 0.2)
movej(p[0.483850205895239, 0.0488256588795172, 0.429177301168071, -1.278, 1.001, -1.031], a = 0.2, v = 0.2, t = 0.2)
movej(p[0.48383938654188, 0.0488201293997028, 0.42946234231676, -1.278, 1.001, -1.031], a = 0.2, v = 0.2, t = 0.2)
movej(p[0.483849204735306, 0.0488251472136669, 0.429203677215479, -1.278, 1.001, -1.031], a = 0.2, v = 0.2, t = 0.2)
movej(p[0.483870972379288, 0.0488362720696551, 0.428630198002905, -1.278, 1.001, -1.031], a = 0.2, v = 0.2, t = 0.2)
movej(p[0.483888284103116, 0.0488451196249838, 0.428174112183148, -1.278, 1.001, -1.031], a = 0.2, v = 0.2, t = 0.2)
movej(p[0.483912315733763, 0.04885740154352, 0.427540987136096, -1.278, 1.001, -1.031], a = 0.2, v = 0.2, t = 0.2)
movej(p[0.483941364540888, 0.0488722476056924, 0.426775682124194, -1.278, 1.001, -1.031], a = 0.2, v = 0.2, t = 0.2)
movej(p[0.483947352539119, 0.0488753079101533, 0.4266179253861, -1.278, 1.001, -1.031], a = 0.2, v = 0.2, t = 0.2)
movej(p[0.483930450380717, 0.0488666696726726, 0.427063221004645, -1.278, 1.001, -1.031], a = 0.2, v = 0.2, t = 0.2)
movej(p[0.483905717179664, 0.0488540292004155, 0.427714829266737, -1.278, 1.001, -1.031], a = 0.2, v = 0.2, t = 0.2)
movej(p[0.483889326978046, 0.0488456526102445, 0.428146637133766, -1.278, 1.001, -1.031], a = 0.2, v = 0.2, t = 0.2)
movej(p[0.483865962787354, 0.0488337118022752, 0.428762178149213, -1.278, 1.001, -1.031], a = 0.2, v = 0.2, t = 0.2)
movej(p[0.483846633574571, 0.0488238331627331, 0.429271415700867, -1.278, 1.001, -1.031], a = 0.2, v = 0.2, t = 0.2)
movej(p[0.4838350569044, 0.0488179166387129, 0.429576408730871, -1.278, 1.001, -1.031], a = 0.2, v = 0.2, t = 0.2)
movej(p[0.483836668240973, 0.048818740149394, 0.429533957281843, -1.278, 1.001, -1.031], a = 0.2, v = 0.2, t = 0.2)
movej(p[0.483831819062165, 0.0488162618648379, 0.42966171126601, -1.278, 1.001, -1.031], a = 0.2, v = 0.2, t = 0.2)
movej(p[0.483837769896126, 0.0488193031756422, 0.429504933638767, -1.278, 1.001, -1.031], a = 0.2, v = 0.2, t = 0.2)
movej(p[0.483865678366919, 0.0488335664426587, 0.4287696713445, -1.278, 1.001, -1.031], a = 0.2, v = 0.2, t = 0.2)
movej(p[0.483909418437595, 0.0488559208135591, 0.427617317818745, -1.278, 1.001, -1.031], a = 0.2, v = 0.2, t = 0.2)
movej(p[0.483952559329221, 0.0488779689602007, 0.426480749957727, -1.278, 1.001, -1.031], a = 0.2, v = 0.2, t = 0.2)
movej(p[0.483998916067902, 0.0489016606395736, 0.425259459035339, -1.278, 1.001, -1.031], a = 0.2, v = 0.2, t = 0.2)
movej(p[0.484046490126046, 0.0489259744581055, 0.424006097237126, -1.278, 1.001, -1.031], a = 0.2, v = 0.2, t = 0.2)
movej(p[0.484069695041294, 0.0489378338646895, 0.423394752411038, -1.278, 1.001, -1.031], a = 0.2, v = 0.2, t = 0.2)
movej(p[0.484044123748025, 0.0489247650660956, 0.424068440621907, -1.278, 1.001, -1.031], a = 0.2, v = 0.2, t = 0.2)
movej(p[0.484000004450101, 0.048902216882373, 0.42523078507471, -1.278, 1.001, -1.031], a = 0.2, v = 0.2, t = 0.2)
movej(p[0.483957800249776, 0.0488806474534021, 0.426342675345919, -1.278, 1.001, -1.031], a = 0.2, v = 0.2, t = 0.2)
movej(p[0.483932149318784, 0.0488675379541155, 0.427018461651468, -1.278, 1.001, -1.031], a = 0.2, v = 0.2, t = 0.2)
movej(p[0.483898272948804, 0.0488502246547178, 0.427910951164695, -1.278, 1.001, -1.031], a = 0.2, v = 0.2, t = 0.2)
movej(p[0.483879376055083, 0.0488405669617928, 0.428408799059514, -1.278, 1.001, -1.031], a = 0.2, v = 0.2, t = 0.2)
movej(p[0.483866398898688, 0.0488339346870207, 0.428750688583108, -1.278, 1.001, -1.031], a = 0.2, v = 0.2, t = 0.2)
movej(p[0.483860615683171, 0.0488309790414837, 0.428903050220595, -1.278, 1.001, -1.031], a = 0.2, v = 0.2, t = 0.2)
movej(p[0.483853846476811, 0.0488275194826093, 0.429081388268407, -1.278, 1.001, -1.031], a = 0.2, v = 0.2, t = 0.2)
movej(p[0.483866395106416, 0.0488339327488924, 0.428750788492378, -1.278, 1.001, -1.031], a = 0.2, v = 0.2, t = 0.2)
movej(p[0.48390557307331, 0.0488539555515431, 0.427718625819015, -1.278, 1.001, -1.031], a = 0.2, v = 0.2, t = 0.2)
movej(p[0.483956070973529, 0.0488797636669333, 0.426388233973259, -1.278, 1.001, -1.031], a = 0.2, v = 0.2, t = 0.2)
movej(p[0.484002518726749, 0.0489035018613835, 0.42516454522838, -1.278, 1.001, -1.031], a = 0.2, v = 0.2, t = 0.2)
movej(p[0.484050718509851, 0.0489281354710718, 0.423894698400537, -1.278, 1.001, -1.031], a = 0.2, v = 0.2, t = 0.2)
movej(p[0.484096813581731, 0.0489516934195975, 0.422680301217812, -1.278, 1.001, -1.031], a = 0.2, v = 0.2, t = 0.2)
movej(p[0.484117227384441, 0.0489621263638109, 0.4221424896148, -1.278, 1.001, -1.031], a = 0.2, v = 0.2, t = 0.2)
movej(p[0.484096271286768, 0.0489514162672619, 0.422694588243491, -1.278, 1.001, -1.031], a = 0.2, v = 0.2, t = 0.2)
movej(p[0.484050422712598, 0.0489279842970706, 0.423902491323635, -1.278, 1.001, -1.031], a = 0.2, v = 0.2, t = 0.2)
movej(p[0.483999814836478, 0.048902119975962, 0.425235780538234, -1.278, 1.001, -1.031], a = 0.2, v = 0.2, t = 0.2)
movej(p[0.483958414597916, 0.0488809614301739, 0.426326490044101, -1.278, 1.001, -1.031], a = 0.2, v = 0.2, t = 0.2)
movej(p[0.483920294675041, 0.0488614793652968, 0.427330778030999, -1.278, 1.001, -1.031], a = 0.2, v = 0.2, t = 0.2)
movej(p[0.483898629422416, 0.0488504068387705, 0.42790155969327, -1.278, 1.001, -1.031], a = 0.2, v = 0.2, t = 0.2)
movej(p[0.483890206785259, 0.0488461022559918, 0.428123458183013, -1.278, 1.001, -1.031], a = 0.2, v = 0.2, t = 0.2)
movej(p[0.483873061921419, 0.0488373399783049, 0.428575147994869, -1.278, 1.001, -1.031], a = 0.2, v = 0.2, t = 0.2)
movej(p[0.483857092662045, 0.0488291785203664, 0.428995865932874, -1.278, 1.001, -1.031], a = 0.2, v = 0.2, t = 0.2)
movej(p[0.483862618003035, 0.0488320023731844, 0.42885029812578, -1.278, 1.001, -1.031], a = 0.2, v = 0.2, t = 0.2)
movej(p[0.483891788162879, 0.0488469104554599, 0.428081796017222, -1.278, 1.001, -1.031], a = 0.2, v = 0.2, t = 0.2)
movej(p[0.483922808951689, 0.0488627643443073, 0.427264538184668, -1.278, 1.001, -1.031], a = 0.2, v = 0.2, t = 0.2)
movej(p[0.483948035148164, 0.0488756567732331, 0.426599941717413, -1.278, 1.001, -1.031], a = 0.2, v = 0.2, t = 0.2)
movej(p[0.483967770134101, 0.0488857427924949, 0.426080013873818, -1.278, 1.001, -1.031], a = 0.2, v = 0.2, t = 0.2)
movej(p[0.483974736538629, 0.0488893031340368, 0.42589648054394, -1.278, 1.001, -1.031], a = 0.2, v = 0.2, t = 0.2)
movej(p[0.483952339377418, 0.0488778565487639, 0.426486544695415, -1.278, 1.001, -1.031], a = 0.2, v = 0.2, t = 0.2)
movej(p[0.483921572670864, 0.0488621325145073, 0.427297108606846, -1.278, 1.001, -1.031], a = 0.2, v = 0.2, t = 0.2)
movej(p[0.483899145171472, 0.0488506704242086, 0.427887972032484, -1.278, 1.001, -1.031], a = 0.2, v = 0.2, t = 0.2)
movej(p[0.483882019268995, 0.0488419178371628, 0.428339162297987, -1.278, 1.001, -1.031], a = 0.2, v = 0.2, t = 0.2)
movej(p[0.483856425222091, 0.0488288374097995, 0.429013449964479, -1.278, 1.001, -1.031], a = 0.2, v = 0.2, t = 0.2)
movej(p[0.483839215889619, 0.0488200421839329, 0.429466838233932, -1.278, 1.001, -1.031], a = 0.2, v = 0.2, t = 0.2)
movej(p[0.483832308265314, 0.0488165118833784, 0.429648822970117, -1.278, 1.001, -1.031], a = 0.2, v = 0.2, t = 0.2)
movej(p[0.483833869923117, 0.0488173100045798, 0.429607680332532, -1.278, 1.001, -1.031], a = 0.2, v = 0.2, t = 0.2)
movej(p[0.483831374228604, 0.0488160345223976, 0.429673430623437, -1.278, 1.001, -1.031], a = 0.2, v = 0.2, t = 0.2)
movej(p[0.483853258674578, 0.0488272190727351, 0.429096874205332, -1.278, 1.001, -1.031], a = 0.2, v = 0.2, t = 0.2)
movej(p[0.483888439586288, 0.0488451990882408, 0.428170015903059, -1.278, 1.001, -1.031], a = 0.2, v = 0.2, t = 0.2)
movej(p[0.483922941681225, 0.0488628321787951, 0.427261041360201, -1.278, 1.001, -1.031], a = 0.2, v = 0.2, t = 0.2)
movej(p[0.483939001955139, 0.0488710401518108, 0.426837925599705, -1.278, 1.001, -1.031], a = 0.2, v = 0.2, t = 0.2)
movej(p[0.483944879977468, 0.0488740442505533, 0.426683066230456, -1.278, 1.001, -1.031], a = 0.2, v = 0.2, t = 0.2)
movej(p[0.483935634417185, 0.0488693190939506, 0.426926645031894, -1.278, 1.001, -1.031], a = 0.2, v = 0.2, t = 0.2)
movej(p[0.483907837059975, 0.048855112614091, 0.427658979984537, -1.278, 1.001, -1.031], a = 0.2, v = 0.2, t = 0.2)
movej(p[0.483878196658344, 0.048839964203916, 0.428439870842634, -1.278, 1.001, -1.031], a = 0.2, v = 0.2, t = 0.2)
movej(p[0.483859136696907, 0.0488302231714775, 0.428942014836083, -1.278, 1.001, -1.031], a = 0.2, v = 0.2, t = 0.2)
movej(p[0.483850289325233, 0.0488257015183381, 0.429175103164121, -1.278, 1.001, -1.031], a = 0.2, v = 0.2, t = 0.2)
movej(p[0.483830924085862, 0.0488158044665778, 0.429685289853844, -1.278, 1.001, -1.031], a = 0.2, v = 0.2, t = 0.2)
movej(p[0.483818259791946, 0.0488093320873839, 0.430018936862623, -1.278, 1.001, -1.031], a = 0.2, v = 0.2, t = 0.2)
movej(p[0.483819072096709, 0.0488097472344488, 0.429997536296885, -1.278, 1.001, -1.031], a = 0.2, v = 0.2, t = 0.2)
movej(p[0.483835952259931, 0.0488183742307859, 0.42955282015211, -1.278, 1.001, -1.031], a = 0.2, v = 0.2, t = 0.2)
movej(p[0.483849272996211, 0.0488251820999748, 0.42920187884861, -1.278, 1.001, -1.031], a = 0.2, v = 0.2, t = 0.2)
movej(p[0.483873695230922, 0.0488376636457178, 0.428558463146698, -1.278, 1.001, -1.031], a = 0.2, v = 0.2, t = 0.2)
movej(p[0.483901018554073, 0.0488516278595497, 0.427838616852866, -1.278, 1.001, -1.031], a = 0.2, v = 0.2, t = 0.2)
movej(p[0.483917621122949, 0.0488601129849011, 0.42740121406669, -1.278, 1.001, -1.031], a = 0.2, v = 0.2, t = 0.2)
movej(p[0.483904757734729, 0.0488535388539756, 0.427740106312169, -1.278, 1.001, -1.031], a = 0.2, v = 0.2, t = 0.2)
movej(p[0.483882440211239, 0.0488421329693953, 0.428328072368963, -1.278, 1.001, -1.031], a = 0.2, v = 0.2, t = 0.2)
movej(p[0.483867912015404, 0.0488347080001808, 0.428710824784185, -1.278, 1.001, -1.031], a = 0.2, v = 0.2, t = 0.2)
movej(p[0.483849462609834, 0.0488252790063859, 0.429196883385086, -1.278, 1.001, -1.031], a = 0.2, v = 0.2, t = 0.2)
movej(p[0.483831209264752, 0.04881595021382, 0.429677776676703, -1.278, 1.001, -1.031], a = 0.2, v = 0.2, t = 0.2)
movej(p[0.48381684034436, 0.0488086066459908, 0.430056332902565, -1.278, 1.001, -1.031], a = 0.2, v = 0.2, t = 0.2)
movej(p[0.48381347508177, 0.0488068867510075, 0.430144992389192, -1.278, 1.001, -1.031], a = 0.2, v = 0.2, t = 0.2)
movej(p[0.48380177997893, 0.0488009096992431, 0.430453105585713, -1.278, 1.001, -1.031], a = 0.2, v = 0.2, t = 0.2)
movej(p[0.483794619144591, 0.0487972499898673, 0.430641761263889, -1.278, 1.001, -1.031], a = 0.2, v = 0.2, t = 0.2)
movej(p[0.483806868184672, 0.048803510144021, 0.430319054320228, -1.278, 1.001, -1.031], a = 0.2, v = 0.2, t = 0.2)
movej(p[0.483840948958138, 0.0488209279085298, 0.429421179697321, -1.278, 1.001, -1.031], a = 0.2, v = 0.2, t = 0.2)
movej(p[0.483872716824624, 0.0488371636086368, 0.428584239738482, -1.278, 1.001, -1.031], a = 0.2, v = 0.2, t = 0.2)
movej(p[0.483906426334616, 0.0488543916303928, 0.427696146233156, -1.278, 1.001, -1.031], a = 0.2, v = 0.2, t = 0.2)
movej(p[0.483947963094987, 0.0488756199487969, 0.426601839993553, -1.278, 1.001, -1.031], a = 0.2, v = 0.2, t = 0.2)
movej(p[0.483984786060677, 0.0488944391738224, 0.42563172097716, -1.278, 1.001, -1.031], a = 0.2, v = 0.2, t = 0.2)
