def moving():
set_payload_mass(0.62)
set_tcp(p[0,0.005,0.058,0,0,0])
movej(p[0.4431, -0.1037, 0.3786, -1.201, 1.094, -1.2], a = 0.2, v = 0.2, t = 0.2)
movej(p[0.444342861276817, -0.104837080408716, 0.379960089699507, -1.201, 1.094, -1.2], a = 0.2, v = 0.2, t = 0.2)
movej(p[0.445585722553633, -0.105974160817432, 0.381320179399014, -1.201, 1.094, -1.2], a = 0.2, v = 0.2, t = 0.2)
movej(p[0.446828583830449, -0.107111241226148, 0.38268026909852, -1.201, 1.094, -1.2], a = 0.2, v = 0.2, t = 0.2)
movej(p[0.448071445107266, -0.108248321634864, 0.384040358798027, -1.201, 1.094, -1.2], a = 0.2, v = 0.2, t = 0.2)
movej(p[0.446828583830449, -0.107111241226148, 0.38268026909852, -1.201, 1.094, -1.2], a = 0.2, v = 0.2, t = 0.2)
movej(p[0.445585722553633, -0.105974160817432, 0.381320179399014, -1.201, 1.094, -1.2], a = 0.2, v = 0.2, t = 0.2)
movej(p[0.444342861276817, -0.104837080408716, 0.379960089699507, -1.201, 1.094, -1.2], a = 0.2, v = 0.2, t = 0.2)
movej(p[0.440268769280835, -0.103120892479114, 0.378922915351305, -1.20133071316675, 1.09349124083858, -1.19950739558995], a = 0.2, v = 0.2, t = 0.2)
movej(p[0.440268769280835, -0.103120892479114, 0.378922915351305, -1.22696790646122, 1.07455051238345, -1.20290989319298], a = 0.2, v = 0.2, t = 0.2)
movej(p[0.441041067603568, -0.103282128613194, 0.378734914421067, -1.22696790646122, 1.07455051238345, -1.20290989319298], a = 0.2, v = 0.2, t = 0.2)
movej(p[0.442190950320377, -0.103446993121694, 0.378702207825078, -1.2180432507363, 1.07913930916032, -1.20483508461843], a = 0.2, v = 0.2, t = 0.2)
movej(p[0.442417285412039, -0.103473213962839, 0.37871921528733, -1.21539062991531, 1.08193897976369, -1.20477641981738], a = 0.2, v = 0.2, t = 0.2)
movej(p[0.44245209715383, -0.103472993306794, 0.378782343283848, -1.20973067385564, 1.08338153879093, -1.20379988121749], a = 0.2, v = 0.2, t = 0.2)
movej(p[0.442450101916366, -0.103469188987708, 0.378805912038243, -1.20663459938291, 1.08617915332523, -1.20371770514838], a = 0.2, v = 0.2, t = 0.2)
movej(p[0.442232722386974, -0.10344699831543, 0.378967412546803, -1.20422349683867, 1.08834649411117, -1.20234108545206], a = 0.2, v = 0.2, t = 0.2)
movej(p[0.440988805338919, -0.102993176865628, 0.379617404830801, -1.18761896188366, 1.10892226772999, -1.18602375351249], a = 0.2, v = 0.2, t = 0.2)
movej(p[0.438891949034771, -0.102646789173668, 0.379896685794373, -1.19519815406961, 1.11597615790524, -1.18175692670423], a = 0.2, v = 0.2, t = 0.2)
movej(p[0.436623357672321, -0.102176175168712, 0.380343380834144, -1.20531464260553, 1.11897087545879, -1.17489674776936], a = 0.2, v = 0.2, t = 0.2)
movej(p[0.434666906683822, -0.10179166694734, 0.38049139602695, -1.21589265643768, 1.1207320243998, -1.1665626376218], a = 0.2, v = 0.2, t = 0.2)
movej(p[0.432754019942601, -0.10139726092732, 0.380944527328707, -1.22090500915617, 1.12535152907123, -1.16371820902052], a = 0.2, v = 0.2, t = 0.2)
movej(p[0.431375725514916, -0.101142998601122, 0.381440373655798, -1.21780565615409, 1.12727408152538, -1.15943537374047], a = 0.2, v = 0.2, t = 0.2)
movej(p[0.431375725514916, -0.101142998601122, 0.381440373655798, -1.21734065226846, 1.12684721939129, -1.1597007766822], a = 0.2, v = 0.2, t = 0.2)
movej(p[0.432734678772981, -0.101530542409208, 0.380993411331647, -1.22604975859343, 1.10432453105053, -1.17234060117457], a = 0.2, v = 0.2, t = 0.2)
movej(p[0.435054018980378, -0.10188920055106, 0.380290743501422, -1.22726054713224, 1.09527688811543, -1.18224717495774], a = 0.2, v = 0.2, t = 0.2)
movej(p[0.437201949235099, -0.102360569845384, 0.37979376221483, -1.21871718847273, 1.093096536528, -1.18906527510284], a = 0.2, v = 0.2, t = 0.2)
movej(p[0.43916748699, -0.102694265598253, 0.379484992383767, -1.2060371267326, 1.09245308747718, -1.19811306857394], a = 0.2, v = 0.2, t = 0.2)
movej(p[0.440151198490533, -0.102812559080558, 0.37927949039895, -1.20144035279766, 1.09551558187495, -1.19756368685977], a = 0.2, v = 0.2, t = 0.2)
movej(p[0.440996522972788, -0.102961180392751, 0.379324531216676, -1.18504804598488, 1.10541933556409, -1.19997784357663], a = 0.2, v = 0.2, t = 0.2)
movej(p[0.441499768045153, -0.103056337516439, 0.37926255727899, -1.17928907231551, 1.10879358466939, -1.2000645177786], a = 0.2, v = 0.2, t = 0.2)
movej(p[0.442058078265467, -0.103088763836464, 0.379304081388402, -1.16799224449179, 1.11507147161664, -1.19711061894401], a = 0.2, v = 0.2, t = 0.2)
movej(p[0.442449922412236, -0.103135726393999, 0.379354605173225, -1.16392777167301, 1.11893107326507, -1.19617911394026], a = 0.2, v = 0.2, t = 0.2)
movej(p[0.442447903987266, -0.103135361719482, 0.37938202857515, -1.16244905204004, 1.12020865478268, -1.19425954526502], a = 0.2, v = 0.2, t = 0.2)
movej(p[0.442016477251338, -0.103112832707821, 0.379515435865655, -1.16460385480577, 1.12181502290872, -1.19287167759301], a = 0.2, v = 0.2, t = 0.2)
movej(p[0.440533517545461, -0.102855686710534, 0.379669108722148, -1.1806825848287, 1.11922059580245, -1.18660540070415], a = 0.2, v = 0.2, t = 0.2)
movej(p[0.439700203600267, -0.102750037549662, 0.379772833663958, -1.18682834415294, 1.11757100304478, -1.18179917049258], a = 0.2, v = 0.2, t = 0.2)
movej(p[0.438445775523258, -0.102572122158618, 0.379931745379199, -1.20027148210428, 1.11178019348417, -1.18629123050523], a = 0.2, v = 0.2, t = 0.2)
movej(p[0.43549593479344, -0.102139057674972, 0.380315761930549, -1.22332026705782, 1.10719549451198, -1.17299439617146], a = 0.2, v = 0.2, t = 0.2)
movej(p[0.433185571647146, -0.101620132735953, 0.380608220782204, -1.23286108036121, 1.10418426891365, -1.1659943935617], a = 0.2, v = 0.2, t = 0.2)
movej(p[0.431689762180258, -0.101346794637285, 0.380787908240267, -1.25115994684676, 1.09637306654081, -1.16227008497581], a = 0.2, v = 0.2, t = 0.2)
movej(p[0.431312183307686, -0.101227701831739, 0.380940340286289, -1.25115994684676, 1.09637306654081, -1.16227008497581], a = 0.2, v = 0.2, t = 0.2)
movej(p[0.431312183307686, -0.101227701831739, 0.380940340286289, -1.22802859732012, 1.10788643914486, -1.1634954085533], a = 0.2, v = 0.2, t = 0.2)
movej(p[0.433084899498049, -0.101437973569783, 0.380683124764584, -1.21856512770004, 1.10723476228058, -1.17168084099338], a = 0.2, v = 0.2, t = 0.2)
movej(p[0.435180682451021, -0.101717969527786, 0.380397466844105, -1.21279870562703, 1.10397353050992, -1.183813248851], a = 0.2, v = 0.2, t = 0.2)
movej(p[0.437062293866678, -0.102116240865382, 0.380042564882826, -1.21511581143867, 1.09954613736906, -1.18933674605751], a = 0.2, v = 0.2, t = 0.2)
movej(p[0.439137419281763, -0.102681529808132, 0.379667224193755, -1.21784045700558, 1.09406654320449, -1.19381200776415], a = 0.2, v = 0.2, t = 0.2)
movej(p[0.440198273641746, -0.102921255709379, 0.379514140591835, -1.21755475180545, 1.09103935149793, -1.19615080467493], a = 0.2, v = 0.2, t = 0.2)
movej(p[0.441041847570637, -0.103357963867085, 0.379224440830895, -1.21751640608127, 1.09020455377877, -1.19586793172499], a = 0.2, v = 0.2, t = 0.2)
movej(p[0.441597836288553, -0.103317332840145, 0.379218694075275, -1.2146563451733, 1.08857032499043, -1.19635700663005], a = 0.2, v = 0.2, t = 0.2)
movej(p[0.442028078177248, -0.103198799609677, 0.379248784613449, -1.19237606102223, 1.10059804638108, -1.18602314109915], a = 0.2, v = 0.2, t = 0.2)
movej(p[0.442244741186202, -0.103101532626683, 0.379316385534817, -1.17645413879449, 1.10900823646259, -1.17873940665], a = 0.2, v = 0.2, t = 0.2)
movej(p[0.442244741186202, -0.103101532626683, 0.379316385534817, -1.17378239541956, 1.1113877586516, -1.17904304465515], a = 0.2, v = 0.2, t = 0.2)
movej(p[0.442169964668156, -0.103172982544058, 0.379354851775287, -1.17378239541956, 1.1113877586516, -1.17904304465515], a = 0.2, v = 0.2, t = 0.2)
movej(p[0.441786849489464, -0.103200663435979, 0.379375757470161, -1.18210170396535, 1.10835467286633, -1.18259804691262], a = 0.2, v = 0.2, t = 0.2)
movej(p[0.440290443143189, -0.102772076657171, 0.379611799351738, -1.19010980766875, 1.10863894760103, -1.18296575437959], a = 0.2, v = 0.2, t = 0.2)
movej(p[0.439517134348788, -0.102625036445399, 0.3796344538132, -1.21070559953401, 1.10483492685773, -1.18844724538273], a = 0.2, v = 0.2, t = 0.2)
movej(p[0.438188318429142, -0.102355368452078, 0.379891361900022, -1.21449101765731, 1.10665374240956, -1.18571630845279], a = 0.2, v = 0.2, t = 0.2)
movej(p[0.434761932351731, -0.101597907117174, 0.380602209882819, -1.21583206717454, 1.11593679547306, -1.17586931704009], a = 0.2, v = 0.2, t = 0.2)
movej(p[0.43141107969919, -0.100838888518763, 0.381304156368121, -1.20958100973528, 1.12573782063448, -1.16112744176005], a = 0.2, v = 0.2, t = 0.2)
movej(p[0.430155156996007, -0.100602034087507, 0.381510308380053, -1.21167729023046, 1.12295421994548, -1.15599192893715], a = 0.2, v = 0.2, t = 0.2)
movej(p[0.430149776975998, -0.100601062064158, 0.381583404211366, -1.21068421792193, 1.12364104647556, -1.15484077201094], a = 0.2, v = 0.2, t = 0.2)
movej(p[0.430597702941189, -0.100622877284492, 0.381616662681998, -1.20221951127065, 1.12255929769978, -1.16201930790797], a = 0.2, v = 0.2, t = 0.2)
movej(p[0.43222237175258, -0.100984033872719, 0.381271536890331, -1.20160353047122, 1.11945024851222, -1.16508588572353], a = 0.2, v = 0.2, t = 0.2)
movej(p[0.434141077759482, -0.101433684844792, 0.380790888658883, -1.21406496985712, 1.10637573073295, -1.17508950756479], a = 0.2, v = 0.2, t = 0.2)
movej(p[0.436556664308252, -0.102024487131336, 0.380232264703423, -1.22223687356939, 1.09460131222142, -1.18534715567312], a = 0.2, v = 0.2, t = 0.2)
movej(p[0.437799731971475, -0.102347098771365, 0.379963130955321, -1.22535191139078, 1.09013550066452, -1.19120031757758], a = 0.2, v = 0.2, t = 0.2)
movej(p[0.438881781698307, -0.102755901025732, 0.379619915548486, -1.22309288434559, 1.08885411476223, -1.19273557783374], a = 0.2, v = 0.2, t = 0.2)
movej(p[0.439956162002248, -0.102870969235614, 0.379580287659615, -1.19839198868526, 1.10011858903687, -1.18755949636326], a = 0.2, v = 0.2, t = 0.2)
movej(p[0.440971650470487, -0.103175844827125, 0.379317231953393, -1.19515908979216, 1.09848329824784, -1.18944579403836], a = 0.2, v = 0.2, t = 0.2)
movej(p[0.441655528654055, -0.103137373706338, 0.379290141126455, -1.19506965311057, 1.09853362564396, -1.18935812506899], a = 0.2, v = 0.2, t = 0.2)
movej(p[0.441810275936983, -0.103168673705968, 0.379257021971129, -1.19448044267214, 1.09654680813284, -1.18913674431478], a = 0.2, v = 0.2, t = 0.2)
movej(p[0.442095911495916, -0.103292954705423, 0.37912306178806, -1.19725989042666, 1.09372375529145, -1.18956493603947], a = 0.2, v = 0.2, t = 0.2)
movej(p[0.442108662442021, -0.10336342413134, 0.379058652756206, -1.19969573582572, 1.09267759769653, -1.19161232601586], a = 0.2, v = 0.2, t = 0.2)
movej(p[0.442098696439835, -0.103292746867269, 0.379123264002471, -1.20150711206809, 1.09330210347847, -1.19231774792375], a = 0.2, v = 0.2, t = 0.2)
movej(p[0.441906021586131, -0.103097250956066, 0.379269035774268, -1.20323229744102, 1.09385762481581, -1.19244896497899], a = 0.2, v = 0.2, t = 0.2)
movej(p[0.440839657538704, -0.103063220102744, 0.379346632419678, -1.203685318461, 1.0935233147068, -1.1920028340606], a = 0.2, v = 0.2, t = 0.2)
movej(p[0.43971237335178, -0.102723771494885, 0.379585155824257, -1.21789335400507, 1.09603643393319, -1.1902966778362], a = 0.2, v = 0.2, t = 0.2)
movej(p[0.437995251870381, -0.10233196185041, 0.379931392449437, -1.22443991171095, 1.10215153269471, -1.18670766178045], a = 0.2, v = 0.2, t = 0.2)
movej(p[0.435839001366736, -0.101687024507735, 0.380529342622573, -1.22654466438821, 1.10982028583973, -1.18134327070112], a = 0.2, v = 0.2, t = 0.2)
movej(p[0.433691649818817, -0.101222333212016, 0.38101552486138, -1.21951616824697, 1.11969759857411, -1.17190997377815], a = 0.2, v = 0.2, t = 0.2)
movej(p[0.431959043139095, -0.10090383308436, 0.381352671746381, -1.21374424332839, 1.12369678597764, -1.16523774337249], a = 0.2, v = 0.2, t = 0.2)
movej(p[0.431959043139095, -0.10090383308436, 0.381352671746381, -1.21439151066926, 1.11820567424949, -1.16271166109931], a = 0.2, v = 0.2, t = 0.2)
movej(p[0.433889732457435, -0.101345777751088, 0.380926151632441, -1.2158214169748, 1.10690180400786, -1.16736439723581], a = 0.2, v = 0.2, t = 0.2)
movej(p[0.436389487758307, -0.102002120554138, 0.380254660180039, -1.22122994412162, 1.09489492452675, -1.18209293861885], a = 0.2, v = 0.2, t = 0.2)
movej(p[0.437745397867914, -0.10245317940679, 0.379855349491339, -1.22251266991627, 1.09126967670818, -1.18704448528599], a = 0.2, v = 0.2, t = 0.2)
movej(p[0.438838505454792, -0.102623751987703, 0.379750550645207, -1.21730474992624, 1.09573187979702, -1.19339603579562], a = 0.2, v = 0.2, t = 0.2)
movej(p[0.440115034034831, -0.103063386173359, 0.379334716042095, -1.20841688626773, 1.09650138577594, -1.19395624833673], a = 0.2, v = 0.2, t = 0.2)
movej(p[0.441024338156084, -0.103206883810048, 0.379188451988626, -1.20590948111382, 1.09415387070803, -1.19532844584235], a = 0.2, v = 0.2, t = 0.2)
movej(p[0.441771155173897, -0.103371829124164, 0.379014569311929, -1.20794214287623, 1.09193800690293, -1.19709007047893], a = 0.2, v = 0.2, t = 0.2)
movej(p[0.441932943309678, -0.103378983437343, 0.37900090092052, -1.20854195820534, 1.09088840600139, -1.19792086651651], a = 0.2, v = 0.2, t = 0.2)
movej(p[0.441938074212356, -0.103408930699292, 0.378972094404946, -1.20862612338134, 1.09035517252423, -1.19848929610084], a = 0.2, v = 0.2, t = 0.2)
movej(p[0.442255536774575, -0.103563824059878, 0.378830053676858, -1.20894418850084, 1.08995815692276, -1.19836604213202], a = 0.2, v = 0.2, t = 0.2)
movej(p[0.442574519655348, -0.103540020494563, 0.378853114727396, -1.21108951725674, 1.08804977224911, -1.19966715268006], a = 0.2, v = 0.2, t = 0.2)
movej(p[0.442571991659468, -0.103505518996245, 0.378852469862572, -1.21507918069519, 1.08509952221752, -1.20243354436399], a = 0.2, v = 0.2, t = 0.2)
movej(p[0.442488594768845, -0.103379338198894, 0.37897130649419, -1.21599086075491, 1.08595707339672, -1.20194270223866], a = 0.2, v = 0.2, t = 0.2)
movej(p[0.44169557681406, -0.103109218533176, 0.379255209892516, -1.2150782820779, 1.09042113654141, -1.19799275623773], a = 0.2, v = 0.2, t = 0.2)
movej(p[0.440253954127688, -0.102711947721458, 0.379639902071143, -1.21872939647114, 1.09384811495718, -1.1960088044973], a = 0.2, v = 0.2, t = 0.2)
movej(p[0.438879628669143, -0.102325346684017, 0.379989377080038, -1.22586068561834, 1.09833764225122, -1.19123255419215], a = 0.2, v = 0.2, t = 0.2)
movej(p[0.437425237896729, -0.10204413235036, 0.380251028412279, -1.22858859946604, 1.1031599009014, -1.18739868695324], a = 0.2, v = 0.2, t = 0.2)
movej(p[0.435400843560532, -0.101617249453976, 0.380673659734293, -1.22528679589455, 1.11353487109682, -1.1762222757143], a = 0.2, v = 0.2, t = 0.2)
movej(p[0.433200661833716, -0.101103325267792, 0.381168034328952, -1.22445796425748, 1.12072548386135, -1.1682596955773], a = 0.2, v = 0.2, t = 0.2)
movej(p[0.432342911857627, -0.100858729492658, 0.381423947078352, -1.22108600089279, 1.12265846155519, -1.16304378695214], a = 0.2, v = 0.2, t = 0.2)
movej(p[0.432342911857627, -0.100858729492658, 0.381423947078352, -1.21798577830976, 1.1172261864319, -1.16387873035987], a = 0.2, v = 0.2, t = 0.2)
movej(p[0.433838133630608, -0.101331069177774, 0.380976409357629, -1.21582863529057, 1.10903736038083, -1.16939879273495], a = 0.2, v = 0.2, t = 0.2)
movej(p[0.435747945767521, -0.101828593469478, 0.380474985314665, -1.22132621514647, 1.09717461504633, -1.18019330632039], a = 0.2, v = 0.2, t = 0.2)
movej(p[0.436332092607735, -0.101996436017986, 0.380290171062028, -1.223676625814, 1.09384713344515, -1.18459059155903], a = 0.2, v = 0.2, t = 0.2)
movej(p[0.439316295821518, -0.102854863310114, 0.379457467547576, -1.21276255828049, 1.09926629656046, -1.19652711921759], a = 0.2, v = 0.2, t = 0.2)
movej(p[0.441087276834814, -0.103195738116339, 0.379140991518428, -1.21314495624326, 1.0980934249715, -1.20006906541805], a = 0.2, v = 0.2, t = 0.2)
movej(p[0.441365432685726, -0.103276948147833, 0.379065774808928, -1.21132432643305, 1.09577464371843, -1.20167744941321], a = 0.2, v = 0.2, t = 0.2)
movej(p[0.441821937150506, -0.103365682659813, 0.378988743127006, -1.2131643410082, 1.09312891884101, -1.20405940202736], a = 0.2, v = 0.2, t = 0.2)
movej(p[0.442234365107016, -0.103430796453245, 0.37891567415552, -1.21522576265646, 1.09084044332468, -1.20668128617516], a = 0.2, v = 0.2, t = 0.2)
movej(p[0.442560600738958, -0.103516385741327, 0.378830817592916, -1.21510118803541, 1.08895654241466, -1.20767577792178], a = 0.2, v = 0.2, t = 0.2)
movej(p[0.442660367629247, -0.103510074939288, 0.378836371994745, -1.21510118803541, 1.08895654241466, -1.20767577792178], a = 0.2, v = 0.2, t = 0.2)
movej(p[0.442660623351374, -0.103513564975245, 0.378836437226736, -1.2153423057416, 1.09189514345284, -1.20799448979572], a = 0.2, v = 0.2, t = 0.2)
movej(p[0.442658335718869, -0.103513735699442, 0.378836271122041, -1.21621459178843, 1.0929913446323, -1.20724929816943], a = 0.2, v = 0.2, t = 0.2)
movej(p[0.442112320803911, -0.103361193555365, 0.378986590970778, -1.21689643006308, 1.09199624243597, -1.20622119476056], a = 0.2, v = 0.2, t = 0.2)
movej(p[0.441522029201783, -0.103010603026661, 0.379411599847909, -1.21978538525796, 1.08991586180191, -1.20263717868764], a = 0.2, v = 0.2, t = 0.2)
movej(p[0.440317563740342, -0.102788256995591, 0.379616317078894, -1.21640956453802, 1.09256046025177, -1.1985733452844], a = 0.2, v = 0.2, t = 0.2)
movej(p[0.4380770786013, -0.102322378077652, 0.38002142198574, -1.22438648819248, 1.10362892363806, -1.18946621980914], a = 0.2, v = 0.2, t = 0.2)
movej(p[0.436383533494894, -0.102022333114953, 0.380253588204061, -1.22333605518933, 1.11024428198877, -1.18164788850514], a = 0.2, v = 0.2, t = 0.2)
movej(p[0.434407773561485, -0.101540225921409, 0.380730608328863, -1.21867053353672, 1.11362741743338, -1.17194493110705], a = 0.2, v = 0.2, t = 0.2)
movej(p[0.433579860458243, -0.10134518749202, 0.380949164144484, -1.21667946327739, 1.11461933638022, -1.16835516219097], a = 0.2, v = 0.2, t = 0.2)
movej(p[0.433579860458243, -0.10134518749202, 0.380949164144484, -1.21436840084776, 1.11215165277673, -1.16952705681898], a = 0.2, v = 0.2, t = 0.2)
movej(p[0.435607806995331, -0.1019116178348, 0.380327489656114, -1.21789434285391, 1.10058828570181, -1.1794596922333], a = 0.2, v = 0.2, t = 0.2)
movej(p[0.437447878834179, -0.102443432517563, 0.379740362871614, -1.21696702805206, 1.09317622910878, -1.1867239766524], a = 0.2, v = 0.2, t = 0.2)
movej(p[0.439347115905527, -0.102925931099765, 0.379247286645266, -1.21701819730175, 1.09641655741277, -1.19709018919609], a = 0.2, v = 0.2, t = 0.2)
movej(p[0.440729558292341, -0.103292650014527, 0.378845899145839, -1.21848994812756, 1.09900394214612, -1.20162492594125], a = 0.2, v = 0.2, t = 0.2)
movej(p[0.441156918443976, -0.103525038923624, 0.378505098638617, -1.22000077805385, 1.09829401275722, -1.20448369644554], a = 0.2, v = 0.2, t = 0.2)
movej(p[0.441674332397167, -0.103695489130819, 0.378292142568239, -1.22002630006934, 1.09745154059609, -1.20561218161369], a = 0.2, v = 0.2, t = 0.2)
movej(p[0.442040420200367, -0.103700071726391, 0.378296585558907, -1.22187062362963, 1.09615163655698, -1.2077700412752], a = 0.2, v = 0.2, t = 0.2)
movej(p[0.442362468292236, -0.103762873413498, 0.378272288138882, -1.22283774658695, 1.09781023493053, -1.20835093304768], a = 0.2, v = 0.2, t = 0.2)
movej(p[0.442490866300481, -0.103760024509845, 0.378254023549461, -1.2231549676556, 1.09786919589338, -1.20842349162531], a = 0.2, v = 0.2, t = 0.2)
movej(p[0.442629347243818, -0.103774292960331, 0.378251570051311, -1.22486221759455, 1.09689727532189, -1.2098756732124], a = 0.2, v = 0.2, t = 0.2)
movej(p[0.44263223165002, -0.103774077699386, 0.378251779487665, -1.22652941258892, 1.09848763721204, -1.20896423363249], a = 0.2, v = 0.2, t = 0.2)
movej(p[0.442621638055147, -0.103729399869041, 0.378371141949199, -1.22653163731813, 1.09915830105002, -1.20878674554631], a = 0.2, v = 0.2, t = 0.2)
movej(p[0.442619993760003, -0.103708046205066, 0.378371840038246, -1.22636460193415, 1.09927746230172, -1.20859605534227], a = 0.2, v = 0.2, t = 0.2)
movej(p[0.442230068722513, -0.103500252375655, 0.378655755887746, -1.22724313312735, 1.0967926091435, -1.20590205383711], a = 0.2, v = 0.2, t = 0.2)
movej(p[0.441149319333969, -0.103225378889662, 0.378948401895511, -1.22436317930758, 1.09851499832563, -1.2015681380731], a = 0.2, v = 0.2, t = 0.2)
movej(p[0.439287728481196, -0.102668007207681, 0.379629772840734, -1.22555144940613, 1.09655428276219, -1.19559564287778], a = 0.2, v = 0.2, t = 0.2)
movej(p[0.437690965098267, -0.102331136455401, 0.379902166278977, -1.22348923056878, 1.10395885523098, -1.18673315009095], a = 0.2, v = 0.2, t = 0.2)
movej(p[0.436147088041392, -0.10191182081634, 0.380391652824343, -1.22142443991843, 1.10849359754014, -1.18058681437732], a = 0.2, v = 0.2, t = 0.2)
movej(p[0.433942648533363, -0.10143161974046, 0.38079932059614, -1.21974696060131, 1.11547586514829, -1.16866188281088], a = 0.2, v = 0.2, t = 0.2)
movej(p[0.431674249404579, -0.100965509546982, 0.381175994433919, -1.21598091673841, 1.11964426788458, -1.16019765875413], a = 0.2, v = 0.2, t = 0.2)
movej(p[0.431674058571672, -0.100965475068664, 0.381178587191919, -1.21731341131395, 1.11764516162245, -1.15829731163011], a = 0.2, v = 0.2, t = 0.2)
movej(p[0.432118642604846, -0.101024936891033, 0.381212100310658, -1.21463757727923, 1.10595979531754, -1.16581673963663], a = 0.2, v = 0.2, t = 0.2)
movej(p[0.435049647788156, -0.101778271508902, 0.380426630146405, -1.21511844204691, 1.08911388344013, -1.18287949036361], a = 0.2, v = 0.2, t = 0.2)
movej(p[0.436464942165165, -0.102225274599192, 0.379678853706767, -1.22180484730957, 1.08402938126936, -1.19078055051217], a = 0.2, v = 0.2, t = 0.2)
movej(p[0.438435151177513, -0.102701595678967, 0.379120021552515, -1.22800282556017, 1.07950736454328, -1.1979833969191], a = 0.2, v = 0.2, t = 0.2)
movej(p[0.439889637466301, -0.10302033493907, 0.378819466483025, -1.23057920244001, 1.08433737596464, -1.20136037254244], a = 0.2, v = 0.2, t = 0.2)
movej(p[0.441150099040981, -0.103252661155027, 0.378564150623485, -1.23700045016394, 1.09330791181998, -1.20131727173309], a = 0.2, v = 0.2, t = 0.2)
movej(p[0.441797310648818, -0.103379671702422, 0.378460249056933, -1.23884976515631, 1.09483624565322, -1.2005842343588], a = 0.2, v = 0.2, t = 0.2)
movej(p[0.441866015382332, -0.103426976663161, 0.378358836630268, -1.23881219738005, 1.09489599700466, -1.2006399325405], a = 0.2, v = 0.2, t = 0.2)
movej(p[0.442201035390605, -0.103459724479925, 0.378383930345705, -1.23741209669595, 1.0946662448735, -1.20086733134308], a = 0.2, v = 0.2, t = 0.2)
movej(p[0.442611889168257, -0.103472343913553, 0.378641370306247, -1.22970535877925, 1.09782957099414, -1.20093038080291], a = 0.2, v = 0.2, t = 0.2)
movej(p[0.443073203231526, -0.103469779326772, 0.379041209196207, -1.21928893332055, 1.10298377366469, -1.20089017418678], a = 0.2, v = 0.2, t = 0.2)
movej(p[0.443073203231526, -0.103469779326772, 0.379041209196207, -1.21832450156404, 1.10366705303105, -1.19978990098453], a = 0.2, v = 0.2, t = 0.2)
movej(p[0.442952576228132, -0.103474971722237, 0.379032399821572, -1.21844226747595, 1.10385678775927, -1.19895728598065], a = 0.2, v = 0.2, t = 0.2)
movej(p[0.442453661266912, -0.103369684569382, 0.379050635416279, -1.21815143894025, 1.1040626707342, -1.19862535151747], a = 0.2, v = 0.2, t = 0.2)
movej(p[0.441780304619617, -0.103197360730369, 0.379384958927347, -1.21299173425749, 1.10607940236257, -1.1960703292269], a = 0.2, v = 0.2, t = 0.2)
movej(p[0.440791802539633, -0.102952744482996, 0.379789689071253, -1.20921962703603, 1.10873235779513, -1.1917739366051], a = 0.2, v = 0.2, t = 0.2)
movej(p[0.438696694516462, -0.10251380655879, 0.38000238559201, -1.21378901962466, 1.10712674122716, -1.18707945744128], a = 0.2, v = 0.2, t = 0.2)
movej(p[0.437608797947657, -0.102283170353547, 0.380102457248403, -1.21797417442761, 1.10654912468312, -1.18311573347249], a = 0.2, v = 0.2, t = 0.2)
movej(p[0.43610973576891, -0.101925249915756, 0.380307855944751, -1.22224787903421, 1.10869630666906, -1.17606805967665], a = 0.2, v = 0.2, t = 0.2)
movej(p[0.432807337989338, -0.101162009994062, 0.381088622451084, -1.21708198464465, 1.11300082006433, -1.16563270270398], a = 0.2, v = 0.2, t = 0.2)
movej(p[0.432786938669984, -0.100883604840004, 0.381083418801988, -1.21708198464465, 1.11300082006433, -1.16563270270398], a = 0.2, v = 0.2, t = 0.2)
movej(p[0.434316223311688, -0.100814307334648, 0.378795873482132, -1.21527664651435, 1.11053824354595, -1.17962761294712], a = 0.2, v = 0.2, t = 0.2)
movej(p[0.441942159302914, -0.103169590379995, 0.379388480167904, -1.21971586648509, 1.10447496039913, -1.20153726564581], a = 0.2, v = 0.2, t = 0.2)
movej(p[0.441936375597911, -0.103168545421743, 0.379467060679602, -1.22099043091224, 1.10357278422996, -1.20299131299878], a = 0.2, v = 0.2, t = 0.2)
movej(p[0.440260974584278, -0.10286132641569, 0.379609513604597, -1.22850989993108, 1.10755549421627, -1.19768841629987], a = 0.2, v = 0.2, t = 0.2)
movej(p[0.438291516877956, -0.102440893235614, 0.379895582274845, -1.23263903120168, 1.11125679459648, -1.1891324796288], a = 0.2, v = 0.2, t = 0.2)
movej(p[0.436599872338336, -0.102062522985037, 0.38019553814669, -1.23146704478812, 1.11596043482876, -1.18135211061771], a = 0.2, v = 0.2, t = 0.2)
movej(p[0.435094584823787, -0.101640298404194, 0.38069474556037, -1.22845953668723, 1.11849938714752, -1.17403949123486], a = 0.2, v = 0.2, t = 0.2)
movej(p[0.433490538601618, -0.101337588206085, 0.380836694118333, -1.22941353585735, 1.1160972261424, -1.16944413229695], a = 0.2, v = 0.2, t = 0.2)
movej(p[0.433490538601618, -0.101337588206085, 0.380836694118333, -1.22941353585735, 1.1160972261424, -1.16944413229695], a = 0.2, v = 0.2, t = 0.2)
movej(p[0.434157482831597, -0.101523071556363, 0.380687289530492, -1.22411330909974, 1.11100363893699, -1.17431501006493], a = 0.2, v = 0.2, t = 0.2)
movej(p[0.435923712608108, -0.102007338730153, 0.380191767572396, -1.22388709471278, 1.10237774721664, -1.18368542904707], a = 0.2, v = 0.2, t = 0.2)
movej(p[0.438270202564979, -0.102568844628843, 0.379673997412922, -1.22704293025535, 1.09776098671252, -1.19317975595856], a = 0.2, v = 0.2, t = 0.2)
movej(p[0.44009064253703, -0.102974749889412, 0.379327530361675, -1.22615573886631, 1.09859094602606, -1.19894245889861], a = 0.2, v = 0.2, t = 0.2)
movej(p[0.441181690679043, -0.103178207999311, 0.379241970036019, -1.22682092902657, 1.09894664711177, -1.2022622093674], a = 0.2, v = 0.2, t = 0.2)
movej(p[0.441805077081627, -0.103351622662183, 0.379023716610447, -1.228946191543, 1.10132423036556, -1.20506507240257], a = 0.2, v = 0.2, t = 0.2)
movej(p[0.442468268280939, -0.103466957622813, 0.379074062712695, -1.23036199795254, 1.10456085333901, -1.20760338634595], a = 0.2, v = 0.2, t = 0.2)
movej(p[0.44301901631032, -0.103489533470652, 0.37916253191201, -1.2299792899967, 1.10559289412887, -1.20947047376441], a = 0.2, v = 0.2, t = 0.2)
movej(p[0.443179900901192, -0.103581998305607, 0.379175602976112, -1.22982175437291, 1.10453936594178, -1.21047575264201], a = 0.2, v = 0.2, t = 0.2)
movej(p[0.443236871918887, -0.103602314788995, 0.378992042621881, -1.23033355795277, 1.10390748651091, -1.21024688539239], a = 0.2, v = 0.2, t = 0.2)
movej(p[0.443198125773517, -0.103605954048083, 0.378949227764503, -1.23096867479692, 1.10381310404524, -1.2096853858242], a = 0.2, v = 0.2, t = 0.2)
movej(p[0.443233817883902, -0.103613478451692, 0.378905726079402, -1.2322365670779, 1.10502712646981, -1.20898648252385], a = 0.2, v = 0.2, t = 0.2)
movej(p[0.443233817883902, -0.103613478451692, 0.378905726079402, -1.23203659311103, 1.10658836868, -1.20881223407313], a = 0.2, v = 0.2, t = 0.2)
movej(p[0.443202187347807, -0.103510352371421, 0.379235355084124, -1.23069098437623, 1.10753901141238, -1.20727133495687], a = 0.2, v = 0.2, t = 0.2)
movej(p[0.442073020693364, -0.10321655233554, 0.379523182993491, -1.22685330693754, 1.1081358623467, -1.20469884580746], a = 0.2, v = 0.2, t = 0.2)
movej(p[0.440614004263952, -0.102944513305687, 0.379601806685477, -1.2274442812435, 1.10598757780608, -1.20008488137393], a = 0.2, v = 0.2, t = 0.2)
movej(p[0.439000160284348, -0.102662460777091, 0.3796963780903, -1.22846170188438, 1.10375764672531, -1.19485033954561], a = 0.2, v = 0.2, t = 0.2)
movej(p[0.437148563839844, -0.1022399031664, 0.379945265720255, -1.22841738460884, 1.10973469911567, -1.18496011152386], a = 0.2, v = 0.2, t = 0.2)
movej(p[0.435975070616524, -0.101892699575226, 0.380377434045215, -1.22642585782795, 1.11052063383951, -1.17947688242625], a = 0.2, v = 0.2, t = 0.2)
movej(p[0.435498955915592, -0.101789287591945, 0.380479601766489, -1.22606983348012, 1.11046769389388, -1.17811159539454], a = 0.2, v = 0.2, t = 0.2)
movej(p[0.435022848521006, -0.101685975323978, 0.380581771351533, -1.22589799799041, 1.11058355300938, -1.17664303709193], a = 0.2, v = 0.2, t = 0.2)
movej(p[0.433993990677968, -0.101488852217019, 0.380685530975285, -1.22458721213116, 1.11111743354066, -1.1738931552166], a = 0.2, v = 0.2, t = 0.2)
movej(p[0.433993990677968, -0.101488852217019, 0.380685530975285, -1.2236442391747, 1.11006558231169, -1.17435355897211], a = 0.2, v = 0.2, t = 0.2)
movej(p[0.436191244419447, -0.102084782067306, 0.38009145122551, -1.22493431846348, 1.10046387844147, -1.18489656234839], a = 0.2, v = 0.2, t = 0.2)
movej(p[0.438853101047981, -0.102704705358735, 0.3794721198991, -1.22608009085453, 1.10193300877361, -1.19334049443933], a = 0.2, v = 0.2, t = 0.2)
movej(p[0.440935321408971, -0.103232279935662, 0.378886915281843, -1.23064177015634, 1.10119602879994, -1.20022124636286], a = 0.2, v = 0.2, t = 0.2)
movej(p[0.442028315999016, -0.103497729671, 0.378631948020923, -1.23434551409179, 1.09970042735546, -1.20453994193407], a = 0.2, v = 0.2, t = 0.2)
movej(p[0.442277816524259, -0.103591702276094, 0.378651561470265, -1.23627600575571, 1.09966145104363, -1.20552031783669], a = 0.2, v = 0.2, t = 0.2)
movej(p[0.443074014247795, -0.103628697883419, 0.378787669919948, -1.23459997891007, 1.10231246481631, -1.20798916480288], a = 0.2, v = 0.2, t = 0.2)
movej(p[0.44314929423916, -0.103653699630304, 0.378828941769347, -1.23127392747817, 1.10415481584232, -1.20964336086889], a = 0.2, v = 0.2, t = 0.2)
movej(p[0.443803074171499, -0.103700022328686, 0.378997511243706, -1.23054435381705, 1.10346203682652, -1.21003926073373], a = 0.2, v = 0.2, t = 0.2)
movej(p[0.443801327316434, -0.103699706719468, 0.379021244951554, -1.23113688045978, 1.10242541757534, -1.20885404968508], a = 0.2, v = 0.2, t = 0.2)
movej(p[0.443541215632823, -0.103639712268644, 0.379001302335903, -1.23148693566207, 1.10357528731428, -1.2078322442188], a = 0.2, v = 0.2, t = 0.2)
movej(p[0.442847531165139, -0.103579089279711, 0.378949439415554, -1.23171839702865, 1.1048106004775, -1.20667116709907], a = 0.2, v = 0.2, t = 0.2)
movej(p[0.442362523462558, -0.103442041403251, 0.378970582688593, -1.23177363918722, 1.10491341829175, -1.20367624874893], a = 0.2, v = 0.2, t = 0.2)
movej(p[0.440847762977974, -0.103043773862721, 0.379432408381364, -1.23174261119777, 1.10595923931212, -1.19748040997102], a = 0.2, v = 0.2, t = 0.2)
movej(p[0.437960455921742, -0.102359221819921, 0.379934608972496, -1.23262862495875, 1.11619965494589, -1.18390482055249], a = 0.2, v = 0.2, t = 0.2)
movej(p[0.434925555651012, -0.101638180867936, 0.380515612244677, -1.22791586316022, 1.11748139229139, -1.17215861694921], a = 0.2, v = 0.2, t = 0.2)
movej(p[0.432259475185967, -0.101078372685758, 0.380918427652862, -1.22936938462392, 1.1125113923052, -1.16352232038311], a = 0.2, v = 0.2, t = 0.2)
movej(p[0.432259475185967, -0.101078372685758, 0.380918427652862, -1.21547393117891, 1.09921493293775, -1.17100792015069], a = 0.2, v = 0.2, t = 0.2)
movej(p[0.432740027912082, -0.101282892594937, 0.380701205982274, -1.21705150031722, 1.0980837239784, -1.17283005302822], a = 0.2, v = 0.2, t = 0.2)
movej(p[0.434930296246872, -0.101773356528132, 0.380315094221443, -1.21961072160883, 1.09854565855519, -1.18064649532864], a = 0.2, v = 0.2, t = 0.2)
movej(p[0.437404880248946, -0.102389446901212, 0.379669192759241, -1.22710739114378, 1.09737063529326, -1.18940103401122], a = 0.2, v = 0.2, t = 0.2)
movej(p[0.438553130003141, -0.102950908377053, 0.37901148466811, -1.23471435297943, 1.0970801764781, -1.19382242873913], a = 0.2, v = 0.2, t = 0.2)
movej(p[0.440682547864274, -0.103083262133904, 0.378884880617097, -1.23320126747076, 1.10142429436743, -1.20078714121499], a = 0.2, v = 0.2, t = 0.2)
movej(p[0.441856549251975, -0.103352383835332, 0.378963637277103, -1.2325829161369, 1.10288268675142, -1.2025731713538], a = 0.2, v = 0.2, t = 0.2)
movej(p[0.442474688287754, -0.10350162916153, 0.378792810303078, -1.23391069595917, 1.10196355543634, -1.20417183951287], a = 0.2, v = 0.2, t = 0.2)
movej(p[0.442503653813967, -0.103548089945239, 0.378699191641112, -1.23524504048988, 1.10228716237436, -1.2046086002237], a = 0.2, v = 0.2, t = 0.2)
movej(p[0.442899956812725, -0.103604583546537, 0.378667640473338, -1.23523831347285, 1.10229777860429, -1.20461848724018], a = 0.2, v = 0.2, t = 0.2)
movej(p[0.442960804279796, -0.103598893880063, 0.37873351454598, -1.23196111998615, 1.10441297215849, -1.20606059591375], a = 0.2, v = 0.2, t = 0.2)
movej(p[0.443044081660475, -0.10359934195546, 0.378678178688747, -1.23195067174772, 1.10442838036337, -1.20607284680306], a = 0.2, v = 0.2, t = 0.2)
movej(p[0.443199153046137, -0.103650068476166, 0.378731180815554, -1.23172977346076, 1.10460328438571, -1.2058746126981], a = 0.2, v = 0.2, t = 0.2)
movej(p[0.443199153046137, -0.103650068476166, 0.378731180815554, -1.23131587642727, 1.10451413101468, -1.20590259190462], a = 0.2, v = 0.2, t = 0.2)
movej(p[0.443152995005209, -0.103609893547312, 0.37886172379832, -1.23028705440722, 1.10453995461989, -1.206380759085], a = 0.2, v = 0.2, t = 0.2)
movej(p[0.44288463327827, -0.103526304490757, 0.378999000683258, -1.2287143591542, 1.10565412573827, -1.20457948247922], a = 0.2, v = 0.2, t = 0.2)
movej(p[0.441998413930973, -0.103303395418358, 0.379252504734348, -1.22707504747427, 1.10656251177955, -1.20074873777464], a = 0.2, v = 0.2, t = 0.2)
movej(p[0.440111922063748, -0.102888670546781, 0.379487396019385, -1.22951827729502, 1.1089548682244, -1.1940916117434], a = 0.2, v = 0.2, t = 0.2)
movej(p[0.438248700946972, -0.102443425886152, 0.379783059869364, -1.23502568519027, 1.11467649004416, -1.18307161020949], a = 0.2, v = 0.2, t = 0.2)
movej(p[0.436001009933103, -0.101918033207356, 0.38011684803458, -1.23788278015196, 1.1184775568248, -1.17255135909155], a = 0.2, v = 0.2, t = 0.2)
movej(p[0.434175792042452, -0.101482457095069, 0.380545700412508, -1.23553305359259, 1.12085745603908, -1.16734387737948], a = 0.2, v = 0.2, t = 0.2)
movej(p[0.433938019321736, -0.101397281427294, 0.38069623834428, -1.23374135741128, 1.12198797388365, -1.16467443279411], a = 0.2, v = 0.2, t = 0.2)
movej(p[0.433700239261292, -0.10131210443343, 0.380846875997513, -1.23192070735849, 1.12308992373012, -1.16202353050815], a = 0.2, v = 0.2, t = 0.2)
movej(p[0.432611884093509, -0.101074611907264, 0.381090222147625, -1.23084391412069, 1.12109716320097, -1.1603339572148], a = 0.2, v = 0.2, t = 0.2)
movej(p[0.432611884093509, -0.101074611907264, 0.381090222147625, -1.22983643979243, 1.12017200853593, -1.16090205358389], a = 0.2, v = 0.2, t = 0.2)
movej(p[0.435332897215412, -0.101805868586402, 0.380307855008972, -1.22930710800805, 1.10955260425414, -1.17588804999487], a = 0.2, v = 0.2, t = 0.2)
movej(p[0.43898620993678, -0.102824997188106, 0.37911398736845, -1.23529283620493, 1.09584717221896, -1.19457882866714], a = 0.2, v = 0.2, t = 0.2)
movej(p[0.43908557275733, -0.102817581819689, 0.379121202089756, -1.23204021583677, 1.10045993268496, -1.19918859614239], a = 0.2, v = 0.2, t = 0.2)
movej(p[0.439019643358498, -0.102622654995652, 0.379828849217667, -1.23037107887815, 1.09989866790749, -1.19906240406073], a = 0.2, v = 0.2, t = 0.2)
movej(p[0.437824920026704, -0.102326298255171, 0.380177801797309, -1.23037107887815, 1.09989866790749, -1.19906240406073], a = 0.2, v = 0.2, t = 0.2)
movej(p[0.437824920026704, -0.102326298255171, 0.380177801797309, -1.23003095465404, 1.10111333524373, -1.19997001380807], a = 0.2, v = 0.2, t = 0.2)
movej(p[0.442348309244937, -0.103419111871265, 0.379002925424723, -1.23280231639272, 1.10443696482236, -1.20342512923588], a = 0.2, v = 0.2, t = 0.2)
movej(p[0.443002253131573, -0.103558479601637, 0.378909009670658, -1.23299519557982, 1.10443723365428, -1.20406338657345], a = 0.2, v = 0.2, t = 0.2)
movej(p[0.443002253131573, -0.103558479601637, 0.378909009670658, -1.23214338342199, 1.10455993521749, -1.20487141807998], a = 0.2, v = 0.2, t = 0.2)
movej(p[0.442460662726853, -0.103362373088196, 0.379403635588803, -1.23155468425308, 1.10514237217919, -1.20469629163935], a = 0.2, v = 0.2, t = 0.2)
movej(p[0.442460662726853, -0.103362373088196, 0.379403635588803, -1.23157640573756, 1.10591520854824, -1.20398292999156], a = 0.2, v = 0.2, t = 0.2)
movej(p[0.442477070680887, -0.103397807993519, 0.379214081806121, -1.23176197518015, 1.10648443226822, -1.20347868907524], a = 0.2, v = 0.2, t = 0.2)
movej(p[0.442457476611169, -0.103399270283387, 0.379212659083301, -1.22941360994803, 1.10807783422521, -1.20057977535245], a = 0.2, v = 0.2, t = 0.2)
movej(p[0.441118939139919, -0.103093407567843, 0.379480403844781, -1.2269533522484, 1.10926054969307, -1.19606096373574], a = 0.2, v = 0.2, t = 0.2)
movej(p[0.439158835367961, -0.102667627540461, 0.379634921744845, -1.22982445649926, 1.11359413159736, -1.19207896959137], a = 0.2, v = 0.2, t = 0.2)
movej(p[0.437190025790772, -0.102148957368702, 0.380039565553269, -1.23345820153262, 1.11461076151835, -1.18034635725901], a = 0.2, v = 0.2, t = 0.2)
movej(p[0.435331524953983, -0.101814416006529, 0.380140300932603, -1.23375328961236, 1.11220523407549, -1.17385864683722], a = 0.2, v = 0.2, t = 0.2)
movej(p[0.434007599446201, -0.101405529218064, 0.380679708667126, -1.23011804045302, 1.11081114888221, -1.16985904131399], a = 0.2, v = 0.2, t = 0.2)
movej(p[0.433962443569795, -0.101408899165272, 0.380676429904891, -1.23022412660341, 1.11022054045744, -1.16955167926688], a = 0.2, v = 0.2, t = 0.2)
movej(p[0.433965150723389, -0.101434577459578, 0.380665538783693, -1.23128060028313, 1.10931575970743, -1.17029192963806], a = 0.2, v = 0.2, t = 0.2)
movej(p[0.434114265230701, -0.101463456861834, 0.380665967542567, -1.23148691193692, 1.10930267424398, -1.17039200071383], a = 0.2, v = 0.2, t = 0.2)
movej(p[0.434263486540024, -0.101492330167388, 0.380666303801924, -1.23153363745787, 1.10953629241187, -1.17072572285714], a = 0.2, v = 0.2, t = 0.2)
movej(p[0.434412601047337, -0.101521209569644, 0.380666732560798, -1.23158034847299, 1.10976998479539, -1.17105941530315], a = 0.2, v = 0.2, t = 0.2)
movej(p[0.43456171555465, -0.1015500889719, 0.380667161319672, -1.23162790031023, 1.11000243446551, -1.17139184278162], a = 0.2, v = 0.2, t = 0.2)
movej(p[0.434710929524246, -0.101578960951364, 0.38066759730049, -1.23167458238217, 1.11023627513648, -1.17172547591435], a = 0.2, v = 0.2, t = 0.2)
movej(p[0.443184592371953, -0.103588260971997, 0.378811415964933, -1.23317118922944, 1.10841365174016, -1.19649857178591], a = 0.2, v = 0.2, t = 0.2)
movej(p[0.443185748944441, -0.103597620691907, 0.378805107400651, -1.23299670574541, 1.10844962539085, -1.19647048298811], a = 0.2, v = 0.2, t = 0.2)
movej(p[0.443185936450069, -0.103597727571409, 0.378804019550288, -1.23293997803027, 1.10850711700765, -1.19645818783778], a = 0.2, v = 0.2, t = 0.2)
movej(p[0.443188721393988, -0.103597519733255, 0.378804221764699, -1.23305277224966, 1.10959155193764, -1.19538595471998], a = 0.2, v = 0.2, t = 0.2)
movej(p[0.443188202075917, -0.103592112562835, 0.378805816385902, -1.23319242799771, 1.10913085110006, -1.19444012055697], a = 0.2, v = 0.2, t = 0.2)
movej(p[0.442681031120214, -0.103480642586845, 0.378833089195512, -1.23291194320948, 1.10819426537402, -1.19433005365185], a = 0.2, v = 0.2, t = 0.2)
movej(p[0.441663686714339, -0.103240566178697, 0.379150920547154, -1.23274802139964, 1.10783417848448, -1.19268161333045], a = 0.2, v = 0.2, t = 0.2)
movej(p[0.440312882022963, -0.102913823849999, 0.379339066332102, -1.23177573793171, 1.10791334427016, -1.18819246337424], a = 0.2, v = 0.2, t = 0.2)
movej(p[0.43878055045197, -0.102535317426733, 0.379789031368615, -1.23077140242205, 1.11391760445617, -1.18121465260321], a = 0.2, v = 0.2, t = 0.2)
movej(p[0.43756126003752, -0.102223127458128, 0.380040499296455, -1.23042411843909, 1.11465160686604, -1.17816254393744], a = 0.2, v = 0.2, t = 0.2)
movej(p[0.435517251172027, -0.101706522518159, 0.380312882672942, -1.23780325710265, 1.11539055510724, -1.16676347014494], a = 0.2, v = 0.2, t = 0.2)
movej(p[0.434282550020851, -0.101488232870621, 0.380467394637082, -1.23944170331062, 1.11286759759222, -1.16441506441178], a = 0.2, v = 0.2, t = 0.2)
movej(p[0.434282550020851, -0.101488232870621, 0.380467394637082, -1.23950807893572, 1.11165126095652, -1.16573509014379], a = 0.2, v = 0.2, t = 0.2)
movej(p[0.435755509663056, -0.101887216717063, 0.380104285338503, -1.23720236693715, 1.10592706408947, -1.17554233024569], a = 0.2, v = 0.2, t = 0.2)
movej(p[0.438119252307676, -0.102417702758545, 0.379649345133862, -1.23436839306275, 1.10116242488059, -1.18647178448606], a = 0.2, v = 0.2, t = 0.2)
movej(p[0.439737223492899, -0.102808132849426, 0.379202231873131, -1.2397558702161, 1.09729017663684, -1.1927207018524], a = 0.2, v = 0.2, t = 0.2)
movej(p[0.440524989884358, -0.103009972906449, 0.378626925907693, -1.24457640698178, 1.09615823511584, -1.19443014729059], a = 0.2, v = 0.2, t = 0.2)
movej(p[0.441768119512265, -0.103270343105938, 0.378709751673228, -1.24457640698178, 1.09615823511584, -1.19443014729059], a = 0.2, v = 0.2, t = 0.2)
movej(p[0.442285200357648, -0.103403825268542, 0.378737551522234, -1.24230175542613, 1.09554533115818, -1.19612146709415], a = 0.2, v = 0.2, t = 0.2)
movej(p[0.442922246897278, -0.103552512572487, 0.378758539185057, -1.23320333335621, 1.10453932092329, -1.19369584024011], a = 0.2, v = 0.2, t = 0.2)
movej(p[0.442922545284127, -0.103552490304114, 0.378758560850886, -1.23320333335621, 1.10453932092329, -1.19369584024011], a = 0.2, v = 0.2, t = 0.2)
movej(p[0.442927196963699, -0.10355079467601, 0.378696908059202, -1.23816244852595, 1.10150679698388, -1.19483816890855], a = 0.2, v = 0.2, t = 0.2)
movej(p[0.443010401529897, -0.103534416675888, 0.378688975765977, -1.23821038352014, 1.10155202682052, -1.19481190823772], a = 0.2, v = 0.2, t = 0.2)
movej(p[0.443024172689462, -0.103543557454582, 0.37870394945387, -1.23227064352187, 1.10721085742939, -1.19231653320841], a = 0.2, v = 0.2, t = 0.2)
movej(p[0.443305057351047, -0.103619204361028, 0.378765440042024, -1.22767992586835, 1.10946176372107, -1.19352963762626], a = 0.2, v = 0.2, t = 0.2)
movej(p[0.443301468224464, -0.103618555903432, 0.37881420383672, -1.22703362131835, 1.10903181644412, -1.19370235543344], a = 0.2, v = 0.2, t = 0.2)
movej(p[0.442640546242077, -0.103453636517172, 0.378912881844566, -1.22644845939272, 1.10931884797288, -1.19264165883327], a = 0.2, v = 0.2, t = 0.2)
movej(p[0.441367738969756, -0.103174459109418, 0.37928730202635, -1.23106466006516, 1.10952963536175, -1.18858946622931], a = 0.2, v = 0.2, t = 0.2)
movej(p[0.439654930775184, -0.102759261661616, 0.379440707984331, -1.2346304800936, 1.10670356502792, -1.18438949422685], a = 0.2, v = 0.2, t = 0.2)
movej(p[0.438255107194282, -0.102426989554713, 0.37981640498901, -1.23467948966453, 1.10692669378785, -1.18377412267057], a = 0.2, v = 0.2, t = 0.2)
movej(p[0.436791368845878, -0.102082376809486, 0.379825927238769, -1.23769177839907, 1.10548032869474, -1.17393857281341], a = 0.2, v = 0.2, t = 0.2)
movej(p[0.435393540227788, -0.101719038953168, 0.380165758809718, -1.24122209463972, 1.10712273145971, -1.17180479729818], a = 0.2, v = 0.2, t = 0.2)
movej(p[0.435393540227788, -0.101719038953168, 0.380165758809718, -1.24122209463972, 1.10712273145971, -1.17180479729818], a = 0.2, v = 0.2, t = 0.2)
movej(p[0.436336392878888, -0.101995029354127, 0.379919335115867, -1.23551411413137, 1.10148210607616, -1.1785824817522], a = 0.2, v = 0.2, t = 0.2)
movej(p[0.438397348295257, -0.102470865698114, 0.379492123686383, -1.23773641030316, 1.09666610546435, -1.18832720963727], a = 0.2, v = 0.2, t = 0.2)
movej(p[0.440023721148369, -0.102813581099649, 0.379112883398161, -1.23963372899583, 1.0952950540305, -1.19053061754208], a = 0.2, v = 0.2, t = 0.2)
movej(p[0.441198057123083, -0.103091380963051, 0.378752857517999, -1.24359530245509, 1.09537493310547, -1.19135400420163], a = 0.2, v = 0.2, t = 0.2)
movej(p[0.441863066077222, -0.103247833995952, 0.378683348458072, -1.24359530245509, 1.09537493310547, -1.19135400420163], a = 0.2, v = 0.2, t = 0.2)
movej(p[0.442256878388708, -0.103345847975694, 0.378634617224794, -1.24174665860918, 1.09690612450658, -1.19138113596234], a = 0.2, v = 0.2, t = 0.2)
movej(p[0.442776937230033, -0.103475875213768, 0.378674623835723, -1.23958585437372, 1.09864600068162, -1.19183538633738], a = 0.2, v = 0.2, t = 0.2)
movej(p[0.443125681592325, -0.103577801869672, 0.378732734218497, -1.23276242965364, 1.10570270616645, -1.19088347214244], a = 0.2, v = 0.2, t = 0.2)
movej(p[0.443182524047037, -0.103576968622119, 0.378736906872425, -1.23229766672682, 1.1052654840011, -1.19113990777028], a = 0.2, v = 0.2, t = 0.2)
movej(p[0.443201982865616, -0.103582366498647, 0.378495233524063, -1.23790990299915, 1.09923664513869, -1.1919911178552], a = 0.2, v = 0.2, t = 0.2)
movej(p[0.443201982865616, -0.103582366498647, 0.378495233524063, -1.23702976642774, 1.09840939067466, -1.1924714657386], a = 0.2, v = 0.2, t = 0.2)
movej(p[0.443309416152593, -0.103627152570676, 0.378580650657014, -1.23170026657343, 1.10146724985057, -1.19273454341255], a = 0.2, v = 0.2, t = 0.2)
movej(p[0.443302844760135, -0.103632852966557, 0.378677012331387, -1.22631156745067, 1.10644243133415, -1.19218835899219], a = 0.2, v = 0.2, t = 0.2)
movej(p[0.443294401638506, -0.103631987739985, 0.378756402287175, -1.22447859777997, 1.10773907644176, -1.19007970246338], a = 0.2, v = 0.2, t = 0.2)
movej(p[0.442855294295499, -0.103567998734182, 0.379083134529926, -1.22081115078107, 1.10948327369482, -1.18648003297363], a = 0.2, v = 0.2, t = 0.2)
movej(p[0.441545782652206, -0.103234766786024, 0.379258088308991, -1.222542353372, 1.11112124778024, -1.18549204857083], a = 0.2, v = 0.2, t = 0.2)
movej(p[0.440109745974655, -0.102911568548293, 0.379419049577173, -1.22192252794837, 1.11169787347812, -1.18454543835363], a = 0.2, v = 0.2, t = 0.2)
movej(p[0.438924074183854, -0.10260126257067, 0.379781318627398, -1.22412947343515, 1.11261297154132, -1.18288427205558], a = 0.2, v = 0.2, t = 0.2)
movej(p[0.436850591203096, -0.102075698354601, 0.380053017970958, -1.23301707293452, 1.11176206436893, -1.17301918785151], a = 0.2, v = 0.2, t = 0.2)
movej(p[0.435046722431656, -0.101623506752136, 0.380482318227287, -1.23326486557998, 1.11191270582616, -1.16844254810039], a = 0.2, v = 0.2, t = 0.2)
movej(p[0.43348729223209, -0.101234311914421, 0.380843104162403, -1.23047542043717, 1.11367370773174, -1.16452612063432], a = 0.2, v = 0.2, t = 0.2)
movej(p[0.43348729223209, -0.101234311914421, 0.380843104162403, -1.22992641168203, 1.11316910955435, -1.16483256392545], a = 0.2, v = 0.2, t = 0.2)
movej(p[0.435902095227473, -0.101898559634695, 0.380264139992874, -1.2276719386221, 1.10534205456588, -1.17592717943643], a = 0.2, v = 0.2, t = 0.2)
movej(p[0.438162215384398, -0.102407556841171, 0.379605241115914, -1.23985556820072, 1.09576383365932, -1.1909389409527], a = 0.2, v = 0.2, t = 0.2)
movej(p[0.439940504642613, -0.10275684616593, 0.378879673598912, -1.24587324281893, 1.08972661081487, -1.19285422795119], a = 0.2, v = 0.2, t = 0.2)
movej(p[0.440879019331614, -0.102976522876443, 0.37886773787992, -1.25022264263672, 1.09233545609014, -1.19150841079122], a = 0.2, v = 0.2, t = 0.2)
movej(p[0.442148886954144, -0.10336899979211, 0.378629483662921, -1.25023867358477, 1.09235050136873, -1.1914997727869], a = 0.2, v = 0.2, t = 0.2)
movej(p[0.442731939456627, -0.103545366823416, 0.378615277339811, -1.2498264565559, 1.09301132153741, -1.19211078970795], a = 0.2, v = 0.2, t = 0.2)
movej(p[0.443248707540337, -0.103796866839948, 0.378639910434294, -1.2500202714587, 1.09303331813214, -1.19220854658924], a = 0.2, v = 0.2, t = 0.2)
movej(p[0.443314023381561, -0.103794298363907, 0.378644683673859, -1.25024037756111, 1.09339683320619, -1.1921478511264], a = 0.2, v = 0.2, t = 0.2)
movej(p[0.443379952689685, -0.103824669836104, 0.378649940099159, -1.24915338672851, 1.09420273737337, -1.19092431533938], a = 0.2, v = 0.2, t = 0.2)
movej(p[0.443380933672168, -0.103853972068416, 0.378666546930733, -1.24409610796488, 1.097351495377, -1.19027010708393], a = 0.2, v = 0.2, t = 0.2)
movej(p[0.443381204006988, -0.103857661534999, 0.378666615890266, -1.24326359623449, 1.09788864401723, -1.19021802102873], a = 0.2, v = 0.2, t = 0.2)
movej(p[0.443459652622221, -0.103879782421387, 0.37863497902643, -1.24299595806948, 1.09808680695664, -1.18992195184928], a = 0.2, v = 0.2, t = 0.2)
movej(p[0.443459652622221, -0.103879782421387, 0.37863497902643, -1.24234198656099, 1.0990500939888, -1.19045553498486], a = 0.2, v = 0.2, t = 0.2)
movej(p[0.442603365978494, -0.103737797940806, 0.37903435951049, -1.24247161188946, 1.09931088180841, -1.19024161828382], a = 0.2, v = 0.2, t = 0.2)
movej(p[0.440571726818721, -0.103003895221262, 0.379235671265547, -1.24321397296213, 1.10026247828317, -1.18839532209591], a = 0.2, v = 0.2, t = 0.2)
movej(p[0.439596148313074, -0.102754551744682, 0.379290011306097, -1.24227597404364, 1.10093681122694, -1.1873026475548], a = 0.2, v = 0.2, t = 0.2)
movej(p[0.438142543965795, -0.102423977061505, 0.379721338409828, -1.23886990297785, 1.10340943668888, -1.18342895312665], a = 0.2, v = 0.2, t = 0.2)
movej(p[0.435883238620786, -0.101788209914843, 0.380173640557999, -1.23139953761388, 1.11317806302922, -1.17004675359697], a = 0.2, v = 0.2, t = 0.2)
movej(p[0.433402969393409, -0.101117613022461, 0.380715813009952, -1.22891584481392, 1.11895329993445, -1.15784659363904], a = 0.2, v = 0.2, t = 0.2)
movej(p[0.431892830423215, -0.100802251617276, 0.381225510660349, -1.22361563145239, 1.12265130864869, -1.15164474566695], a = 0.2, v = 0.2, t = 0.2)
movej(p[0.431892830423215, -0.100802251617276, 0.381225510660349, -1.21989952063761, 1.12166454152957, -1.15459530537589], a = 0.2, v = 0.2, t = 0.2)
movej(p[0.434534621168387, -0.101522629660547, 0.380638227940107, -1.22304183226465, 1.11179858797064, -1.1719961745212], a = 0.2, v = 0.2, t = 0.2)
movej(p[0.436199219776928, -0.101885252129431, 0.380117162265259, -1.22602373885447, 1.10688320612302, -1.17865488219775], a = 0.2, v = 0.2, t = 0.2)
movej(p[0.438167441536952, -0.102310410487963, 0.379502650700242, -1.2328059649785, 1.10198972006539, -1.18631647714886], a = 0.2, v = 0.2, t = 0.2)
movej(p[0.439914879842689, -0.102697927747595, 0.378998943710884, -1.24496057947666, 1.09068270125785, -1.19092352492495], a = 0.2, v = 0.2, t = 0.2)
movej(p[0.441068726322836, -0.10301491659234, 0.378806299861878, -1.24980000314176, 1.09521516807173, -1.1883116648132], a = 0.2, v = 0.2, t = 0.2)
movej(p[0.442413842566482, -0.103422086654731, 0.378592230897817, -1.24946885547619, 1.09610240649939, -1.18729646699], a = 0.2, v = 0.2, t = 0.2)
movej(p[0.442582121577916, -0.103494300763918, 0.378592039207664, -1.24947820901382, 1.09611116133921, -1.18729139828889], a = 0.2, v = 0.2, t = 0.2)
movej(p[0.442812069249817, -0.103536393837351, 0.378545144310756, -1.25485971815396, 1.09331493365107, -1.18886117467393], a = 0.2, v = 0.2, t = 0.2)
movej(p[0.443087649526852, -0.103648698016565, 0.378538742573441, -1.25506286499421, 1.09350530916655, -1.18875167728694], a = 0.2, v = 0.2, t = 0.2)
movej(p[0.443159327381551, -0.103675632661898, 0.378544376402201, -1.25319596234156, 1.09498505531776, -1.18692326107299], a = 0.2, v = 0.2, t = 0.2)
movej(p[0.443160187515521, -0.103758243288318, 0.378617438530366, -1.2506602138594, 1.09771257284884, -1.18664349558271], a = 0.2, v = 0.2, t = 0.2)
movej(p[0.443149886045628, -0.103757880275151, 0.378677244198488, -1.25079647168359, 1.09784013970183, -1.18656950116589], a = 0.2, v = 0.2, t = 0.2)
movej(p[0.442586628994077, -0.103690791473536, 0.378916078255054, -1.25148758400026, 1.09722437465053, -1.1870295871145], a = 0.2, v = 0.2, t = 0.2)
movej(p[0.440791209381684, -0.103045351390606, 0.379076085926062, -1.25125914562661, 1.09701044238639, -1.18715350047065], a = 0.2, v = 0.2, t = 0.2)
movej(p[0.439683159479302, -0.102835666505284, 0.379443400590482, -1.24070584808621, 1.1019511979766, -1.18126814571519], a = 0.2, v = 0.2, t = 0.2)
movej(p[0.438070895697575, -0.102406176266796, 0.379806380442782, -1.23791909341452, 1.10394847615367, -1.17801636429211], a = 0.2, v = 0.2, t = 0.2)
movej(p[0.435860356422299, -0.101809480832152, 0.380305711005371, -1.23177316217569, 1.1116806881209, -1.16672108137825], a = 0.2, v = 0.2, t = 0.2)
movej(p[0.433954513405835, -0.101278641600141, 0.380696075240866, -1.22855554880549, 1.11667352458288, -1.16005996245175], a = 0.2, v = 0.2, t = 0.2)
movej(p[0.432929232099374, -0.101058895675351, 0.380982105066515, -1.22083073085715, 1.12305459759679, -1.15419961721831], a = 0.2, v = 0.2, t = 0.2)
movej(p[0.432929232099374, -0.101058895675351, 0.380982105066515, -1.21957238068407, 1.12213376721602, -1.15499282374193], a = 0.2, v = 0.2, t = 0.2)
movej(p[0.435494550770177, -0.101764175405311, 0.380450765109673, -1.22257408920244, 1.11137967441091, -1.1696687326459], a = 0.2, v = 0.2, t = 0.2)
movej(p[0.43715759876339, -0.102086800940873, 0.379934869629878, -1.22514640211246, 1.10699277751311, -1.17649335899106], a = 0.2, v = 0.2, t = 0.2)
movej(p[0.439019396833724, -0.102497731124437, 0.379431066543803, -1.23566407539657, 1.09948449685882, -1.18868180768838], a = 0.2, v = 0.2, t = 0.2)
movej(p[0.440449176085611, -0.102746913454243, 0.3789783518352, -1.24714876442657, 1.09122175940664, -1.18782166957237], a = 0.2, v = 0.2, t = 0.2)
movej(p[0.441821020206167, -0.103230931324272, 0.378872565303034, -1.25156725791653, 1.09342084964357, -1.18472393718464], a = 0.2, v = 0.2, t = 0.2)
movej(p[0.44253991209091, -0.103506410995102, 0.378828560541813, -1.25051630220118, 1.0943520487568, -1.18286061889929], a = 0.2, v = 0.2, t = 0.2)
movej(p[0.442746917933429, -0.103549640849917, 0.378767858393452, -1.24814176236037, 1.09607870659757, -1.18007382847678], a = 0.2, v = 0.2, t = 0.2)
movej(p[0.44290577242581, -0.103541985171401, 0.378672751449242, -1.24814176236037, 1.09607870659757, -1.18007382847678], a = 0.2, v = 0.2, t = 0.2)
movej(p[0.443019153334452, -0.103611993929494, 0.378673102655381, -1.25351282407713, 1.09183949302798, -1.18259869153613], a = 0.2, v = 0.2, t = 0.2)
movej(p[0.443261522188814, -0.103667932191027, 0.378700610278543, -1.25351282407713, 1.09183949302798, -1.18259869153613], a = 0.2, v = 0.2, t = 0.2)
movej(p[0.443257690851235, -0.103667239972489, 0.37875266488147, -1.24799599130033, 1.09503588021664, -1.1809916308588], a = 0.2, v = 0.2, t = 0.2)
movej(p[0.442811391450106, -0.103595813138178, 0.378765095162714, -1.24760620508319, 1.09532092875851, -1.18099513024695], a = 0.2, v = 0.2, t = 0.2)
movej(p[0.441366246826898, -0.103157687797492, 0.379026142675367, -1.24712763225899, 1.09563574135546, -1.18065180730509], a = 0.2, v = 0.2, t = 0.2)
movej(p[0.440059622582554, -0.102853372421812, 0.379348903540742, -1.24434927391804, 1.09557587595477, -1.18309246469271], a = 0.2, v = 0.2, t = 0.2)
movej(p[0.43863414180897, -0.102345488875208, 0.379536063464958, -1.24004493856587, 1.09828598291673, -1.17848154668534], a = 0.2, v = 0.2, t = 0.2)
movej(p[0.438376525437794, -0.102356935792093, 0.379686726577217, -1.2386470080456, 1.09930166361758, -1.17687066012377], a = 0.2, v = 0.2, t = 0.2)
movej(p[0.436801038941546, -0.101946033911338, 0.380053863860167, -1.23174597921998, 1.10926636206948, -1.16940563191799], a = 0.2, v = 0.2, t = 0.2)
movej(p[0.434072227905818, -0.101258039936613, 0.380687618412049, -1.22266695828054, 1.11682446287369, -1.1580087036444], a = 0.2, v = 0.2, t = 0.2)
movej(p[0.434072227905818, -0.101258039936613, 0.380687618412049, -1.2218847739891, 1.11748850317074, -1.15746960462882], a = 0.2, v = 0.2, t = 0.2)
movej(p[0.434896154959905, -0.101536225893201, 0.380548493888327, -1.21358000659364, 1.1150016147459, -1.16397184195309], a = 0.2, v = 0.2, t = 0.2)
movej(p[0.4372861963892, -0.102081937647429, 0.379969941541904, -1.21815787022283, 1.10858403146724, -1.17264315549778], a = 0.2, v = 0.2, t = 0.2)
movej(p[0.438869951217756, -0.102455130748921, 0.379608025623463, -1.237757964592, 1.0913791440943, -1.18547922461128], a = 0.2, v = 0.2, t = 0.2)
movej(p[0.440190749120767, -0.102631537895174, 0.379167681373865, -1.24073380162036, 1.09149312901341, -1.18287718294154], a = 0.2, v = 0.2, t = 0.2)
movej(p[0.441587130062627, -0.10323452086723, 0.37910379005503, -1.24120165622925, 1.09343641596522, -1.17686094682209], a = 0.2, v = 0.2, t = 0.2)
movej(p[0.442467915923487, -0.103425809251964, 0.378873231795203, -1.24304842508484, 1.09259432826819, -1.17490972827531], a = 0.2, v = 0.2, t = 0.2)
movej(p[0.44294841478786, -0.103573957914672, 0.378780204567608, -1.25040135478463, 1.08744232399583, -1.17685175645803], a = 0.2, v = 0.2, t = 0.2)
movej(p[0.443013255173079, -0.103569726054679, 0.378752430194427, -1.25040135478463, 1.08744232399583, -1.17685175645803], a = 0.2, v = 0.2, t = 0.2)
movej(p[0.443013963236162, -0.103465577228737, 0.378639787304276, -1.24568390899011, 1.08899853467833, -1.17736426111256], a = 0.2, v = 0.2, t = 0.2)
movej(p[0.443014224172442, -0.103465598979907, 0.378637600654066, -1.24550261939209, 1.08913150794222, -1.17715149624046], a = 0.2, v = 0.2, t = 0.2)
movej(p[0.443093962685625, -0.103515192519232, 0.378644129082104, -1.24694454741526, 1.08841994722901, -1.1756075166838], a = 0.2, v = 0.2, t = 0.2)
movej(p[0.443284043390449, -0.103541414644763, 0.378588573472251, -1.25348425416436, 1.08430476436011, -1.17804357908002], a = 0.2, v = 0.2, t = 0.2)
movej(p[0.443284350257001, -0.103545602687911, 0.37858865175064, -1.25352591707316, 1.08434323024746, -1.17802141245814], a = 0.2, v = 0.2, t = 0.2)
movej(p[0.443110601360091, -0.103555550662372, 0.37873754570158, -1.25287926178408, 1.08553529076547, -1.17891209478144], a = 0.2, v = 0.2, t = 0.2)
movej(p[0.442342210449439, -0.103537480956876, 0.379003649486167, -1.25287926178408, 1.08553529076547, -1.17891209478144], a = 0.2, v = 0.2, t = 0.2)
movej(p[0.440950177813174, -0.103114172494611, 0.379267098447728, -1.25920252811887, 1.08084602699287, -1.18636552438194], a = 0.2, v = 0.2, t = 0.2)
movej(p[0.440507508612202, -0.103049032210666, 0.379411847098563, -1.2592520062694, 1.08097835675734, -1.18637221648417], a = 0.2, v = 0.2, t = 0.2)
movej(p[0.439260909581621, -0.102678819461159, 0.379644689334971, -1.25754549087764, 1.08552540743465, -1.18267927911011], a = 0.2, v = 0.2, t = 0.2)
movej(p[0.437141214599785, -0.102057985069463, 0.380049203416389, -1.25461817547889, 1.09160336261233, -1.17586178987019], a = 0.2, v = 0.2, t = 0.2)
movej(p[0.434137933468843, -0.101281562652977, 0.380722149134636, -1.24411229192949, 1.10596905297117, -1.15909755844887], a = 0.2, v = 0.2, t = 0.2)
movej(p[0.434131423514135, -0.101192716309042, 0.380720488514527, -1.24144775109156, 1.108182654507, -1.15691414389779], a = 0.2, v = 0.2, t = 0.2)
movej(p[0.434159217276789, -0.101192405372781, 0.380628167227295, -1.23240360532601, 1.10499715295081, -1.16375236617757], a = 0.2, v = 0.2, t = 0.2)
movej(p[0.43620483420964, -0.101687714279993, 0.380120664576592, -1.23437226555802, 1.09838322239572, -1.174240963121], a = 0.2, v = 0.2, t = 0.2)
movej(p[0.438046941528414, -0.102148204546755, 0.379709130458521, -1.2396738108677, 1.08756194754227, -1.1872522577389], a = 0.2, v = 0.2, t = 0.2)
movej(p[0.4397274327096, -0.102518681477506, 0.379295735316149, -1.24056203832947, 1.08691126033822, -1.18828595613816], a = 0.2, v = 0.2, t = 0.2)
movej(p[0.440526992124126, -0.102562175645881, 0.378985132418609, -1.24265554475714, 1.08642391298624, -1.18624078277729], a = 0.2, v = 0.2, t = 0.2)
movej(p[0.442217448262378, -0.103355895676705, 0.37897059222214, -1.23925878220989, 1.0901846520658, -1.18087099331849], a = 0.2, v = 0.2, t = 0.2)
movej(p[0.442520138015869, -0.103416444258306, 0.378756415186962, -1.24161523331031, 1.08757682085742, -1.17552463201496], a = 0.2, v = 0.2, t = 0.2)
movej(p[0.442743777435717, -0.103348515311483, 0.378697163874118, -1.24137037648323, 1.0877566170194, -1.17523772113451], a = 0.2, v = 0.2, t = 0.2)
movej(p[0.442855736501523, -0.103393763604864, 0.378654261898291, -1.23641909519937, 1.09061177016867, -1.17298742311749], a = 0.2, v = 0.2, t = 0.2)
movej(p[0.443023489078653, -0.103531226617288, 0.378625918414354, -1.23620136594645, 1.09041176545976, -1.17310483530242], a = 0.2, v = 0.2, t = 0.2)
movej(p[0.443210069798619, -0.103599091446626, 0.378636442191041, -1.23725408307022, 1.08942747204529, -1.17366069577527], a = 0.2, v = 0.2, t = 0.2)
movej(p[0.443289495944644, -0.103593660505901, 0.378615641897523, -1.23855061090992, 1.08859361211564, -1.17219524722716], a = 0.2, v = 0.2, t = 0.2)
movej(p[0.443286934843717, -0.103444716168534, 0.3785033660536, -1.2383726913685, 1.08872402408327, -1.17198684714161], a = 0.2, v = 0.2, t = 0.2)
movej(p[0.44328665116467, -0.103437088480817, 0.378499433127682, -1.23132134226184, 1.09187189450141, -1.17360503235051], a = 0.2, v = 0.2, t = 0.2)
movej(p[0.44328665116467, -0.103437088480817, 0.378499433127682, -1.23130622671802, 1.09189554672809, -1.17362740758701], a = 0.2, v = 0.2, t = 0.2)
movej(p[0.44328665116467, -0.103437088480817, 0.378499433127682, -1.23130622671802, 1.09189554672809, -1.17362740758701], a = 0.2, v = 0.2, t = 0.2)
movej(p[0.443384239586224, -0.10350505343703, 0.378504711830695, -1.23605607975585, 1.08946479220518, -1.17215144628344], a = 0.2, v = 0.2, t = 0.2)
movej(p[0.443382845038063, -0.103504801480091, 0.378523658908389, -1.23807004749378, 1.08890505268189, -1.17116075794506], a = 0.2, v = 0.2, t = 0.2)
movej(p[0.44285172718875, -0.103302112504768, 0.378588970388413, -1.2386534504349, 1.08861281761312, -1.17170402209036], a = 0.2, v = 0.2, t = 0.2)
movej(p[0.441214957637934, -0.102805964635696, 0.378912156804492, -1.23864924288797, 1.09050961973683, -1.17763127848112], a = 0.2, v = 0.2, t = 0.2)
movej(p[0.440325568448916, -0.102715948155378, 0.379188052842391, -1.23226062136542, 1.09363657218753, -1.18448810192364], a = 0.2, v = 0.2, t = 0.2)
movej(p[0.439240418365495, -0.102441761902212, 0.37944508576835, -1.2308352049745, 1.09535929961223, -1.18499291124028], a = 0.2, v = 0.2, t = 0.2)
movej(p[0.437466626377584, -0.101903233144492, 0.379788208633706, -1.23336552093031, 1.09878114019259, -1.18251165250976], a = 0.2, v = 0.2, t = 0.2)
movej(p[0.435664957497012, -0.101394696667682, 0.38015976232637, -1.22662133950281, 1.10707070289367, -1.16942953681216], a = 0.2, v = 0.2, t = 0.2)
movej(p[0.435664495094201, -0.101394613124066, 0.380166044778448, -1.22674349139907, 1.10688314730736, -1.16925241086346], a = 0.2, v = 0.2, t = 0.2)
movej(p[0.435781446847651, -0.101466193832046, 0.380175604569761, -1.22744292481995, 1.1060663562242, -1.1704018366606], a = 0.2, v = 0.2, t = 0.2)
movej(p[0.438005333806543, -0.102011351550015, 0.379703947335522, -1.22312666940671, 1.10000143607322, -1.18012910344864], a = 0.2, v = 0.2, t = 0.2)
movej(p[0.440039277735732, -0.102460917968987, 0.379216035901095, -1.23486138107202, 1.09154208206669, -1.19369227001717], a = 0.2, v = 0.2, t = 0.2)
movej(p[0.440694106858721, -0.102519107683926, 0.379008492130384, -1.2438460754189, 1.08605083311103, -1.18362465780945], a = 0.2, v = 0.2, t = 0.2)
movej(p[0.441943004262867, -0.103190593491344, 0.378985799083973, -1.23689493676353, 1.09114180501831, -1.17550211664521], a = 0.2, v = 0.2, t = 0.2)
movej(p[0.442256391344004, -0.103269309932152, 0.378814668025064, -1.22869481065001, 1.09469143115594, -1.17489163247164], a = 0.2, v = 0.2, t = 0.2)
movej(p[0.442691567853874, -0.103249603352098, 0.378694211950251, -1.22856661201761, 1.09459843903641, -1.17497073876409], a = 0.2, v = 0.2, t = 0.2)
movej(p[0.443010837336611, -0.103350140731175, 0.378641732499021, -1.22889280835072, 1.09370199623544, -1.17603399440778], a = 0.2, v = 0.2, t = 0.2)
movej(p[0.443170390813777, -0.10353005433783, 0.378643935239223, -1.22891996882705, 1.09366543575401, -1.17601225846444], a = 0.2, v = 0.2, t = 0.2)
movej(p[0.443237427835064, -0.103633711420104, 0.378662180980412, -1.2406853530891, 1.08744631016455, -1.17967049422091], a = 0.2, v = 0.2, t = 0.2)
movej(p[0.443237945947406, -0.103664307557933, 0.378686492457322, -1.2410192643588, 1.08691581460937, -1.17917286960982], a = 0.2, v = 0.2, t = 0.2)
movej(p[0.44323855968051, -0.10367268364423, 0.3786866490141, -1.2405160572081, 1.08683490508604, -1.17827889087412], a = 0.2, v = 0.2, t = 0.2)
movej(p[0.443301376064284, -0.103674767468772, 0.378666932279966, -1.23874345607887, 1.08764450190998, -1.17656515141126], a = 0.2, v = 0.2, t = 0.2)
movej(p[0.443472865909723, -0.103698722701198, 0.37863384467276, -1.23792538728398, 1.08819353474575, -1.17556091065863], a = 0.2, v = 0.2, t = 0.2)
movej(p[0.443473158196963, -0.103702612924496, 0.378633817638374, -1.23792538728398, 1.08819353474575, -1.17556091065863], a = 0.2, v = 0.2, t = 0.2)
movej(p[0.443473158196963, -0.103702612924496, 0.378633817638374, -1.2385552323056, 1.08779688227751, -1.17630673914955], a = 0.2, v = 0.2, t = 0.2)
movej(p[0.443473253179467, -0.103703909223566, 0.3786338418674, -1.23889594833872, 1.08755587485491, -1.17669590107713], a = 0.2, v = 0.2, t = 0.2)
movej(p[0.443505694010126, -0.103711271536126, 0.378622488944431, -1.23908703855152, 1.08739054017467, -1.17680375044558], a = 0.2, v = 0.2, t = 0.2)
movej(p[0.443505694010126, -0.103711271536126, 0.378622488944431, -1.23917832973902, 1.08730237308542, -1.17683505409375], a = 0.2, v = 0.2, t = 0.2)
movej(p[0.443473736566658, -0.103707046811391, 0.378630409393152, -1.23917967337823, 1.08730361089211, -1.17683433342749], a = 0.2, v = 0.2, t = 0.2)
movej(p[0.443334098996649, -0.103634947832131, 0.378651663480561, -1.23918453799028, 1.08730600345217, -1.1768309297389], a = 0.2, v = 0.2, t = 0.2)
movej(p[0.442633284429528, -0.103292902012726, 0.378757685081845, -1.24210034211695, 1.08696387112523, -1.17835692399628], a = 0.2, v = 0.2, t = 0.2)
movej(p[0.441469447605781, -0.102777977853624, 0.37893432629466, -1.24239267811829, 1.08674903922919, -1.17869912685527], a = 0.2, v = 0.2, t = 0.2)
movej(p[0.440785271781696, -0.10270740487251, 0.379141450716381, -1.2347289940403, 1.09270365557197, -1.1877572745518], a = 0.2, v = 0.2, t = 0.2)
movej(p[0.439290570311722, -0.102353141548133, 0.37947748183497, -1.22910350744301, 1.09677115465492, -1.18123564318067], a = 0.2, v = 0.2, t = 0.2)
movej(p[0.437842181090127, -0.101908154916906, 0.379780316609718, -1.23497172127928, 1.10184010478552, -1.17603102308491], a = 0.2, v = 0.2, t = 0.2)
movej(p[0.436856069420966, -0.101610208699558, 0.379992077506752, -1.23508265023899, 1.1016672399863, -1.1758689430603], a = 0.2, v = 0.2, t = 0.2)
movej(p[0.436856069420966, -0.101610208699558, 0.379992077506752, -1.23476932873174, 1.10156293737312, -1.17623568311085], a = 0.2, v = 0.2, t = 0.2)
movej(p[0.438811521239498, -0.102198233819605, 0.379604520577263, -1.23640920408166, 1.09319051464812, -1.18644853823544], a = 0.2, v = 0.2, t = 0.2)
movej(p[0.440257991174434, -0.10256163726896, 0.379306576689386, -1.24391883877371, 1.08740131883836, -1.19549628824962], a = 0.2, v = 0.2, t = 0.2)
movej(p[0.440688221684065, -0.102532692561586, 0.379168586245886, -1.24741025871949, 1.08419946764743, -1.19761569569901], a = 0.2, v = 0.2, t = 0.2)
movej(p[0.440992729948948, -0.102545825709519, 0.379048175087583, -1.24990660931303, 1.08367344611151, -1.19519776637036], a = 0.2, v = 0.2, t = 0.2)
movej(p[0.442024472431822, -0.103055484651874, 0.37891990341686, -1.23983263447364, 1.0910611598263, -1.18344787028301], a = 0.2, v = 0.2, t = 0.2)
movej(p[0.442658570698254, -0.103243203797425, 0.378790373030845, -1.23589449000425, 1.09311415055796, -1.18174093074321], a = 0.2, v = 0.2, t = 0.2)
movej(p[0.443063305268755, -0.103329180870522, 0.378688235083228, -1.23124076121245, 1.09450757508788, -1.1820105547313], a = 0.2, v = 0.2, t = 0.2)
movej(p[0.443085733388862, -0.103329884277254, 0.378686084583885, -1.23124076121245, 1.09450757508788, -1.1820105547313], a = 0.2, v = 0.2, t = 0.2)
movej(p[0.44319657274046, -0.103475585475101, 0.378681539357456, -1.23528595699497, 1.09154026522822, -1.18222272115527], a = 0.2, v = 0.2, t = 0.2)
movej(p[0.443197452469619, -0.103475566667791, 0.378679096874521, -1.23729703475426, 1.08987326934523, -1.18034902817327], a = 0.2, v = 0.2, t = 0.2)
movej(p[0.443361299871509, -0.103474120026119, 0.378618534954787, -1.23842417944911, 1.08894806200576, -1.17899812104003], a = 0.2, v = 0.2, t = 0.2)
movej(p[0.443467825524522, -0.103548082994976, 0.378627359040455, -1.23781050524437, 1.08939688761547, -1.17828174047481], a = 0.2, v = 0.2, t = 0.2)
movej(p[0.443470520370424, -0.103571099217303, 0.378619439992826, -1.23221777441832, 1.09348632422669, -1.18366191202607], a = 0.2, v = 0.2, t = 0.2)
movej(p[0.44347146454233, -0.103581255333653, 0.378619644541372, -1.22892508465955, 1.09542164059206, -1.1803038776952], a = 0.2, v = 0.2, t = 0.2)
movej(p[0.44347146454233, -0.103581255333653, 0.378619644541372, -1.22939040037039, 1.09469484906775, -1.17961685108911], a = 0.2, v = 0.2, t = 0.2)
movej(p[0.443372272218965, -0.103588092076156, 0.378642719028091, -1.23238356551781, 1.09239287995273, -1.17859933982138], a = 0.2, v = 0.2, t = 0.2)
movej(p[0.443206828274607, -0.103543179070233, 0.378673465949469, -1.23603504142698, 1.0913478936512, -1.18118703271554], a = 0.2, v = 0.2, t = 0.2)
movej(p[0.442163315671105, -0.103002528892239, 0.378864136559078, -1.23761410638234, 1.09041687118706, -1.18358911457138], a = 0.2, v = 0.2, t = 0.2)
movej(p[0.440899724689664, -0.102647842936472, 0.379175255562678, -1.23604643008751, 1.09652593080668, -1.18726919300066], a = 0.2, v = 0.2, t = 0.2)
movej(p[0.439445575030361, -0.102205662513528, 0.379500767915615, -1.23525493649641, 1.10044677284269, -1.18555124054406], a = 0.2, v = 0.2, t = 0.2)
movej(p[0.43770137276357, -0.101766932757535, 0.379893423978508, -1.23396532315037, 1.10611444415776, -1.17958689940242], a = 0.2, v = 0.2, t = 0.2)
movej(p[0.436708168894672, -0.101567649432681, 0.380133952815121, -1.22334840314097, 1.11575870286183, -1.17399270885515], a = 0.2, v = 0.2, t = 0.2)
movej(p[0.436706670838399, -0.101567429560484, 0.380151589069928, -1.22334306417076, 1.11575375026205, -1.1739957043862], a = 0.2, v = 0.2, t = 0.2)
movej(p[0.436711295755717, -0.101630549353649, 0.380152768837077, -1.23257555624718, 1.10673267211613, -1.17737173058312], a = 0.2, v = 0.2, t = 0.2)
movej(p[0.439259376031284, -0.102170232299709, 0.379615250458789, -1.23454821324402, 1.09739390972357, -1.187791746655], a = 0.2, v = 0.2, t = 0.2)
movej(p[0.440630679073018, -0.1025798481675, 0.379339363781717, -1.24382709999404, 1.08980578449273, -1.1994333363941], a = 0.2, v = 0.2, t = 0.2)
movej(p[0.441816452008668, -0.102912333512493, 0.379131426145769, -1.2448288627459, 1.08819786434946, -1.19793777478067], a = 0.2, v = 0.2, t = 0.2)
movej(p[0.442458245594626, -0.103180486109998, 0.379009047113764, -1.24037598413962, 1.0915359911901, -1.18377254144958], a = 0.2, v = 0.2, t = 0.2)
movej(p[0.442786415484944, -0.103341417932365, 0.378947295987146, -1.2404004209069, 1.09145035421099, -1.18357291889146], a = 0.2, v = 0.2, t = 0.2)
movej(p[0.44309835512819, -0.103382238208125, 0.378883154159463, -1.24039578235248, 1.09145373450957, -1.18356750979833], a = 0.2, v = 0.2, t = 0.2)
movej(p[0.443199672968233, -0.103476520050277, 0.378844733858458, -1.23887744116933, 1.09161278803677, -1.18291356041112], a = 0.2, v = 0.2, t = 0.2)
movej(p[0.44346742839908, -0.103472605465087, 0.378787876094917, -1.22663573553053, 1.09908195034899, -1.18398355040966], a = 0.2, v = 0.2, t = 0.2)
movej(p[0.443468228429341, -0.103472750008804, 0.378777006455608, -1.22663573553053, 1.09908195034899, -1.18398355040966], a = 0.2, v = 0.2, t = 0.2)
movej(p[0.443622518345802, -0.103462104939909, 0.37874169138536, -1.23004176880233, 1.09674803725626, -1.18327329534694], a = 0.2, v = 0.2, t = 0.2)
movej(p[0.443633879714568, -0.103617162251714, 0.378744589549524, -1.23577202573617, 1.09296500178783, -1.18492148077142], a = 0.2, v = 0.2, t = 0.2)
movej(p[0.44372729004994, -0.103610652078943, 0.378726709479716, -1.23577202573617, 1.09296500178783, -1.18492148077142], a = 0.2, v = 0.2, t = 0.2)
movej(p[0.443721298845831, -0.103528885522236, 0.378725181187359, -1.23260069203357, 1.09509188161644, -1.18365185310739], a = 0.2, v = 0.2, t = 0.2)
movej(p[0.443117390521316, -0.103411269589056, 0.378848840711228, -1.23241509180612, 1.09534966315621, -1.18391348915676], a = 0.2, v = 0.2, t = 0.2)
movej(p[0.44192950738362, -0.102913121102076, 0.379091423122168, -1.23490690351646, 1.09476988230533, -1.19058724756372], a = 0.2, v = 0.2, t = 0.2)
movej(p[0.440579573126021, -0.102534894336313, 0.379358670393102, -1.23420141860947, 1.09687211068851, -1.19199796999625], a = 0.2, v = 0.2, t = 0.2)
movej(p[0.438729871381801, -0.102067534590391, 0.379716807273808, -1.22828360271226, 1.10873947399647, -1.18117581695299], a = 0.2, v = 0.2, t = 0.2)
movej(p[0.436961193813884, -0.101545911138627, 0.380063640036556, -1.22516456367574, 1.11573255713088, -1.17440856660274], a = 0.2, v = 0.2, t = 0.2)
movej(p[0.436052909797396, -0.101368400654351, 0.380255053681223, -1.22557818590638, 1.117051270355, -1.17371972172249], a = 0.2, v = 0.2, t = 0.2)
movej(p[0.435676662385985, -0.101229942377525, 0.380327704427849, -1.22557818590638, 1.117051270355, -1.17371972172249], a = 0.2, v = 0.2, t = 0.2)
movej(p[0.435184329938708, -0.101253894794175, 0.380450428032321, -1.22790733930082, 1.11589917597229, -1.1709826399977], a = 0.2, v = 0.2, t = 0.2)
movej(p[0.435184329938708, -0.101253894794175, 0.380450428032321, -1.22787313378509, 1.11576329485499, -1.17043983630567], a = 0.2, v = 0.2, t = 0.2)
movej(p[0.43546173475746, -0.101240392198976, 0.380407289575509, -1.22396712571659, 1.11215019706679, -1.17262427242186], a = 0.2, v = 0.2, t = 0.2)
movej(p[0.436840624091824, -0.101615943650517, 0.380142839843379, -1.22390997711729, 1.10914951634453, -1.17889331619452], a = 0.2, v = 0.2, t = 0.2)
movej(p[0.438019908271647, -0.102039265820482, 0.379929314965121, -1.23565178369939, 1.10079591454892, -1.19247399245815], a = 0.2, v = 0.2, t = 0.2)
movej(p[0.438456726730956, -0.102061892886379, 0.379833910565352, -1.24178052790271, 1.095998817456, -1.19838230741351], a = 0.2, v = 0.2, t = 0.2)
movej(p[0.439826636893511, -0.10250956461724, 0.379560934416361, -1.24156111040867, 1.09378100573078, -1.19861090108413], a = 0.2, v = 0.2, t = 0.2)
movej(p[0.440571900757447, -0.102686316071399, 0.37940534525683, -1.24217620839417, 1.09279979088763, -1.19769780848683], a = 0.2, v = 0.2, t = 0.2)
movej(p[0.441691563367608, -0.102915143541698, 0.379159475050738, -1.24182772717885, 1.09266863025716, -1.19374459667753], a = 0.2, v = 0.2, t = 0.2)
movej(p[0.442117324232855, -0.10319593004021, 0.379052450110293, -1.23799189757578, 1.09677586983095, -1.18680948469881], a = 0.2, v = 0.2, t = 0.2)
movej(p[0.442119651486514, -0.103213096745065, 0.379047735437997, -1.2394559721497, 1.09539200680458, -1.18499364243021], a = 0.2, v = 0.2, t = 0.2)
movej(p[0.442126165789936, -0.103280484179833, 0.379043896494624, -1.23869887758404, 1.0952202046654, -1.18426965969945], a = 0.2, v = 0.2, t = 0.2)
movej(p[0.442126202488572, -0.103280490810279, 0.379043397887316, -1.23869887758404, 1.0952202046654, -1.18426965969945], a = 0.2, v = 0.2, t = 0.2)
movej(p[0.442121511947659, -0.1032160800224, 0.379041795005297, -1.23505099386892, 1.09737222650489, -1.18341526916082], a = 0.2, v = 0.2, t = 0.2)
movej(p[0.442329310316487, -0.103201593441804, 0.379002244570471, -1.22935297070739, 1.10210230274618, -1.18852140080128], a = 0.2, v = 0.2, t = 0.2)
movej(p[0.442322471576188, -0.103108259908781, 0.37900050008066, -1.22935297070739, 1.10210230274618, -1.18852140080128], a = 0.2, v = 0.2, t = 0.2)
movej(p[0.441248859255963, -0.102834948847741, 0.379235229328466, -1.23073042896241, 1.10261124885511, -1.18747804937177], a = 0.2, v = 0.2, t = 0.2)
movej(p[0.438731857114385, -0.102164238194976, 0.3797611589336, -1.22824599130662, 1.10766110365933, -1.18119368673918], a = 0.2, v = 0.2, t = 0.2)
movej(p[0.436437176536503, -0.101449162635529, 0.380243897713659, -1.22711237374296, 1.11453437009706, -1.17415495315012], a = 0.2, v = 0.2, t = 0.2)
movej(p[0.434008556613732, -0.101003474833581, 0.380746232615808, -1.21946929383273, 1.12340730722052, -1.16619464378121], a = 0.2, v = 0.2, t = 0.2)
movej(p[0.431926282889263, -0.100567017419734, 0.381189044994005, -1.22197875935159, 1.12572331653703, -1.16476827570626], a = 0.2, v = 0.2, t = 0.2)
movej(p[0.431926282889263, -0.100567017419734, 0.381189044994005, -1.22745548794223, 1.12421806736582, -1.16639889796653], a = 0.2, v = 0.2, t = 0.2)
movej(p[0.432282885879492, -0.100563414571259, 0.38114815701481, -1.22958368012525, 1.12274161081037, -1.16887744895707], a = 0.2, v = 0.2, t = 0.2)
movej(p[0.434739923537518, -0.101157858742637, 0.380639964222497, -1.22184693159083, 1.11390137467409, -1.17499949575074], a = 0.2, v = 0.2, t = 0.2)
movej(p[0.43681936478296, -0.101702083692013, 0.380183535113836, -1.22494254399725, 1.10931712898647, -1.17565635465426], a = 0.2, v = 0.2, t = 0.2)
movej(p[0.437947814827456, -0.101993291179624, 0.379951375284764, -1.23730248408826, 1.09878788820688, -1.18574847085808], a = 0.2, v = 0.2, t = 0.2)
movej(p[0.439608183337838, -0.102432599137566, 0.379588155712299, -1.24419064308945, 1.09256378813866, -1.19502955538795], a = 0.2, v = 0.2, t = 0.2)
movej(p[0.440669352557855, -0.102775043172652, 0.379346610955945, -1.24307494849605, 1.09234031047246, -1.19593970140674], a = 0.2, v = 0.2, t = 0.2)
movej(p[0.441682608837681, -0.102931957434162, 0.379115919460809, -1.24050197784058, 1.09417858770972, -1.19351812668108], a = 0.2, v = 0.2, t = 0.2)
movej(p[0.442320245312349, -0.103353493662964, 0.378910738677155, -1.23607770502725, 1.09737523573369, -1.1883851057942], a = 0.2, v = 0.2, t = 0.2)
movej(p[0.442415527171574, -0.103346585228945, 0.378906829605395, -1.23442533414838, 1.09856488754914, -1.18646855458789], a = 0.2, v = 0.2, t = 0.2)
movej(p[0.442469452771534, -0.103366925940451, 0.378878779202111, -1.23116279489543, 1.10084825166312, -1.18924289947074], a = 0.2, v = 0.2, t = 0.2)
movej(p[0.442453134257623, -0.103176042691804, 0.378907329709801, -1.23051894253488, 1.10130885996983, -1.1884987522529], a = 0.2, v = 0.2, t = 0.2)
movej(p[0.442379439600243, -0.103125585857942, 0.378923296092933, -1.23082825059762, 1.1013157824642, -1.18822514262166], a = 0.2, v = 0.2, t = 0.2)
movej(p[0.442277739827237, -0.103118476735351, 0.378945800015846, -1.23585868234846, 1.09892543445164, -1.1893688922747], a = 0.2, v = 0.2, t = 0.2)
movej(p[0.442030571009993, -0.103086971537255, 0.378987356462702, -1.23585868234846, 1.09892543445164, -1.1893688922747], a = 0.2, v = 0.2, t = 0.2)
movej(p[0.442030571009993, -0.103086971537255, 0.378987356462702, -1.23370776520866, 1.10111636708195, -1.19032694452694], a = 0.2, v = 0.2, t = 0.2)
movej(p[0.442177528117721, -0.103251253053325, 0.378930964158566, -1.23306593607057, 1.10103209405134, -1.19081216906273], a = 0.2, v = 0.2, t = 0.2)
movej(p[0.442684867898434, -0.103230808633967, 0.378846094007017, -1.23127453306773, 1.10172657787998, -1.19266700867643], a = 0.2, v = 0.2, t = 0.2)
movej(p[0.442812490974798, -0.103359231422868, 0.378793417468876, -1.23201461779394, 1.10116022235307, -1.19355959669237], a = 0.2, v = 0.2, t = 0.2)
movej(p[0.442925847114454, -0.103350865436513, 0.378796635523329, -1.23364250269955, 1.09925562202696, -1.19316689096372], a = 0.2, v = 0.2, t = 0.2)
movej(p[0.442916275800573, -0.103220238376407, 0.378794193983101, -1.23423014785211, 1.0996983101655, -1.19280511760945], a = 0.2, v = 0.2, t = 0.2)
movej(p[0.441512544248681, -0.102854558095616, 0.379121526417275, -1.23087601625461, 1.10307647075666, -1.18791805568105], a = 0.2, v = 0.2, t = 0.2)
movej(p[0.44013093496183, -0.102497549939782, 0.379450802980601, -1.2298350023018, 1.10472341408572, -1.18651959504971], a = 0.2, v = 0.2, t = 0.2)
movej(p[0.437692324204416, -0.101771128641859, 0.380020970746919, -1.23090180566452, 1.11148324837966, -1.17992135605235], a = 0.2, v = 0.2, t = 0.2)
movej(p[0.434849608342774, -0.101137983769973, 0.380634836946649, -1.23014727451856, 1.12097773152771, -1.16957095244678], a = 0.2, v = 0.2, t = 0.2)
movej(p[0.431833456711633, -0.100442091272679, 0.381299181947515, -1.23289027603535, 1.1244043669937, -1.16617709139378], a = 0.2, v = 0.2, t = 0.2)
movej(p[0.429488159903164, -0.100015685029887, 0.381795371111337, -1.22263084672337, 1.13487700018749, -1.14727234925277], a = 0.2, v = 0.2, t = 0.2)
movej(p[0.428020935201695, -0.0997170499263503, 0.382084325502781, -1.22058320528098, 1.1332188506723, -1.13496771896015], a = 0.2, v = 0.2, t = 0.2)
movej(p[0.428020935201695, -0.0997170499263503, 0.382084325502781, -1.21998162686485, 1.13282066759325, -1.13515633015922], a = 0.2, v = 0.2, t = 0.2)
movej(p[0.429783080834178, -0.0999789453346789, 0.381757123768345, -1.21311957569773, 1.13271859389412, -1.14140922588591], a = 0.2, v = 0.2, t = 0.2)
movej(p[0.432054778352526, -0.100492328944005, 0.381274223028229, -1.21614342561516, 1.12469016639449, -1.15347791733655], a = 0.2, v = 0.2, t = 0.2)
movej(p[0.434764283210589, -0.101107866152084, 0.380692034244752, -1.22307279439339, 1.11458556715998, -1.16718396302887], a = 0.2, v = 0.2, t = 0.2)
movej(p[0.436743423151929, -0.101569930491343, 0.380260021780837, -1.22859865933331, 1.10804380602689, -1.17564920033338], a = 0.2, v = 0.2, t = 0.2)
movej(p[0.437972318768761, -0.10193561174442, 0.379974172425269, -1.23389305218698, 1.09981720348983, -1.18162868296954], a = 0.2, v = 0.2, t = 0.2)
movej(p[0.439270962054424, -0.10233276061188, 0.379662888802701, -1.24105531098034, 1.09405241584456, -1.19056677272921], a = 0.2, v = 0.2, t = 0.2)
movej(p[0.440484901348166, -0.102726324817294, 0.379381824775611, -1.23804198775706, 1.09651424355097, -1.19416448132155], a = 0.2, v = 0.2, t = 0.2)
movej(p[0.441948494251733, -0.103018022376596, 0.379022215019728, -1.22620837961572, 1.10622993768591, -1.18772451366534], a = 0.2, v = 0.2, t = 0.2)
movej(p[0.442138848984329, -0.103004650216007, 0.378991423444591, -1.22525582671443, 1.10639626984068, -1.18715406275343], a = 0.2, v = 0.2, t = 0.2)
movej(p[0.442144043042218, -0.103004268209131, 0.378991499821255, -1.22533573288826, 1.10627268805143, -1.18703761216036], a = 0.2, v = 0.2, t = 0.2)
movej(p[0.44266535972893, -0.103226801702317, 0.378836482252683, -1.2305591239578, 1.10148549376812, -1.18938138071167], a = 0.2, v = 0.2, t = 0.2)
movej(p[0.442718327583453, -0.103222938698047, 0.378835516030508, -1.23083268338416, 1.1010581313144, -1.18898002835555], a = 0.2, v = 0.2, t = 0.2)
movej(p[0.442715974939888, -0.103190830367243, 0.378834915896192, -1.23055221457342, 1.10127417100639, -1.18863997500974], a = 0.2, v = 0.2, t = 0.2)
movej(p[0.441398111193943, -0.102804914322305, 0.379173212989561, -1.23195914430845, 1.10340932150909, -1.18816641802803], a = 0.2, v = 0.2, t = 0.2)
movej(p[0.439710384787794, -0.102310094839417, 0.379587530762948, -1.23608050273676, 1.10740106605315, -1.18594056638021], a = 0.2, v = 0.2, t = 0.2)
movej(p[0.437868765391961, -0.101861008181378, 0.380004065844857, -1.23426914647217, 1.11292749686994, -1.18260454149222], a = 0.2, v = 0.2, t = 0.2)
movej(p[0.436008273055094, -0.101260068197115, 0.380463521544324, -1.23178649788326, 1.11929330779607, -1.17699087394465], a = 0.2, v = 0.2, t = 0.2)
movej(p[0.434068215561022, -0.100845848034631, 0.380881397634438, -1.22451116233301, 1.1277113784592, -1.16620820792605], a = 0.2, v = 0.2, t = 0.2)
movej(p[0.431214874550816, -0.100317056826597, 0.381480225913478, -1.21801561352485, 1.13728903324011, -1.15308439448993], a = 0.2, v = 0.2, t = 0.2)
movej(p[0.428886034808261, -0.0997718739274317, 0.381989083182224, -1.21979347574302, 1.13317846426691, -1.14227434461251], a = 0.2, v = 0.2, t = 0.2)
movej(p[0.428886034808261, -0.0997718739274317, 0.381989083182224, -1.21979347574302, 1.13317846426691, -1.14227434461251], a = 0.2, v = 0.2, t = 0.2)
movej(p[0.430908904495838, -0.100076906027173, 0.381604831005643, -1.21600520337981, 1.12956310782859, -1.14835979315547], a = 0.2, v = 0.2, t = 0.2)
movej(p[0.433358836430967, -0.100649828747948, 0.381074068413462, -1.22097351504589, 1.12035193745399, -1.16104139817211], a = 0.2, v = 0.2, t = 0.2)
movej(p[0.434368052797101, -0.100839873798827, 0.380867988295638, -1.22717435052061, 1.11582106282467, -1.16833685655894], a = 0.2, v = 0.2, t = 0.2)
movej(p[0.436498954422532, -0.101580620008059, 0.380329914874769, -1.23036375261171, 1.10796049733614, -1.17808519161229], a = 0.2, v = 0.2, t = 0.2)
movej(p[0.438351659785708, -0.102085731733305, 0.379898595234274, -1.23469458437593, 1.10568044975563, -1.1862511701144], a = 0.2, v = 0.2, t = 0.2)
movej(p[0.440188931062383, -0.102596847131285, 0.37945338369371, -1.2329134873697, 1.10513936073992, -1.18764291830025], a = 0.2, v = 0.2, t = 0.2)
movej(p[0.441457351324239, -0.10292727034669, 0.379128358666925, -1.22760891229685, 1.10570616215514, -1.18798054515959], a = 0.2, v = 0.2, t = 0.2)
movej(p[0.441874642290325, -0.103105468303593, 0.379000694154323, -1.2270117538804, 1.10514648063435, -1.18831042245342], a = 0.2, v = 0.2, t = 0.2)
movej(p[0.442179951012998, -0.103251541623532, 0.378900661414372, -1.23015052294337, 1.10149352855601, -1.18905770648128], a = 0.2, v = 0.2, t = 0.2)
movej(p[0.442635673192394, -0.103218721332017, 0.378870089798924, -1.22812554637442, 1.09896234091038, -1.18993343526859], a = 0.2, v = 0.2, t = 0.2)
movej(p[0.442708421019549, -0.103293831310046, 0.378799729335276, -1.22460562621098, 1.09983197135419, -1.18757607252267], a = 0.2, v = 0.2, t = 0.2)
movej(p[0.442692906028798, -0.103157702602651, 0.378873490843428, -1.22372084249002, 1.10069618039042, -1.18728132390749], a = 0.2, v = 0.2, t = 0.2)
movej(p[0.442365128773006, -0.102944054197041, 0.379001656710047, -1.22308253726025, 1.10341352474028, -1.18885401902225], a = 0.2, v = 0.2, t = 0.2)
movej(p[0.441044300557179, -0.102582277582541, 0.379315588462941, -1.22973424484589, 1.10573451763064, -1.18923196965433], a = 0.2, v = 0.2, t = 0.2)
movej(p[0.439378882105726, -0.102126440961366, 0.379724445316075, -1.23364388654772, 1.10940481865784, -1.18706793460564], a = 0.2, v = 0.2, t = 0.2)
movej(p[0.437778410413206, -0.10173677926556, 0.380072577481014, -1.23581026368393, 1.11522054086593, -1.18336225429263], a = 0.2, v = 0.2, t = 0.2)
movej(p[0.436314191642282, -0.101348128621111, 0.380417314188436, -1.23325864648295, 1.12239288490263, -1.17495153490475], a = 0.2, v = 0.2, t = 0.2)
movej(p[0.43364597441401, -0.100757231795295, 0.381037766703935, -1.2267209281547, 1.13260425683047, -1.16499375935062], a = 0.2, v = 0.2, t = 0.2)
movej(p[0.430945121277455, -0.100153030538502, 0.381628765363879, -1.22191308049462, 1.13805236505212, -1.15703512115765], a = 0.2, v = 0.2, t = 0.2)
movej(p[0.430871171190831, -0.100154419972026, 0.381635073625346, -1.22638720341499, 1.13139971662946, -1.15079984071038], a = 0.2, v = 0.2, t = 0.2)
movej(p[0.430871171190831, -0.100154419972026, 0.381635073625346, -1.22515940056489, 1.12907358796899, -1.15217872634046], a = 0.2, v = 0.2, t = 0.2)
movej(p[0.433506159597538, -0.100661327202321, 0.381099304303348, -1.22390707894459, 1.12163109269651, -1.15967802179432], a = 0.2, v = 0.2, t = 0.2)
movej(p[0.435348978414096, -0.101180561057011, 0.38065942244025, -1.22734396110978, 1.11423457287423, -1.16895170079146], a = 0.2, v = 0.2, t = 0.2)
movej(p[0.437054201925919, -0.101654066654466, 0.380238387555821, -1.23621146009122, 1.10635676386234, -1.18018829009288], a = 0.2, v = 0.2, t = 0.2)
movej(p[0.438377186189682, -0.102091876579794, 0.379882906589915, -1.2419112212309, 1.10047454747066, -1.18869568297313], a = 0.2, v = 0.2, t = 0.2)
movej(p[0.440184000921554, -0.10259817826025, 0.379422954730417, -1.23844057169206, 1.0983605758341, -1.19100953334051], a = 0.2, v = 0.2, t = 0.2)
movej(p[0.44129327566572, -0.103010705738045, 0.379074171456708, -1.23158068568625, 1.10013618454233, -1.18965854852312], a = 0.2, v = 0.2, t = 0.2)
movej(p[0.441621243495463, -0.103006893657083, 0.379049423917584, -1.23047592403063, 1.09986217222219, -1.18947953063625], a = 0.2, v = 0.2, t = 0.2)
movej(p[0.441992201042418, -0.103126281998617, 0.378917867951308, -1.22626511191788, 1.09958310364961, -1.18804679908814], a = 0.2, v = 0.2, t = 0.2)
movej(p[0.442470972582496, -0.103125827328249, 0.378884208692765, -1.22529459246776, 1.09913379067443, -1.18850745441609], a = 0.2, v = 0.2, t = 0.2)
movej(p[0.442738291468713, -0.103072715562002, 0.378858954517705, -1.22371254017942, 1.10159412740226, -1.19083302462259], a = 0.2, v = 0.2, t = 0.2)
movej(p[0.442941239328134, -0.103219574766941, 0.378806952976564, -1.22396076677458, 1.10149418959879, -1.19103909282365], a = 0.2, v = 0.2, t = 0.2)
movej(p[0.442920020684481, -0.102997894040583, 0.378871335231284, -1.22993307647633, 1.09504410686998, -1.18954058413928], a = 0.2, v = 0.2, t = 0.2)
movej(p[0.442318050141375, -0.102960331581774, 0.378959198858123, -1.23044844049332, 1.0955065211568, -1.18928007888196], a = 0.2, v = 0.2, t = 0.2)
movej(p[0.441209950668766, -0.10266850309555, 0.3792413834669, -1.23430823875902, 1.09761694840069, -1.18889860911773], a = 0.2, v = 0.2, t = 0.2)
movej(p[0.439667662931543, -0.102227015110838, 0.379644652489967, -1.23827536542666, 1.10386938230546, -1.18765718915206], a = 0.2, v = 0.2, t = 0.2)
movej(p[0.438491379795446, -0.101893463761909, 0.379936807091784, -1.23595592646332, 1.10909582535529, -1.18329018110208], a = 0.2, v = 0.2, t = 0.2)
movej(p[0.436545559538755, -0.101416492717919, 0.380397246633793, -1.23133157028938, 1.11728718907631, -1.17725196768387], a = 0.2, v = 0.2, t = 0.2)
movej(p[0.434420367939049, -0.100973766909854, 0.380850053671518, -1.2284612924486, 1.12492367329438, -1.1679211328642], a = 0.2, v = 0.2, t = 0.2)
movej(p[0.432592628900656, -0.100582952716044, 0.381265477182467, -1.22333903358896, 1.1284062879941, -1.16130946957832], a = 0.2, v = 0.2, t = 0.2)
movej(p[0.432592628900656, -0.100582952716044, 0.381265477182467, -1.22556756786046, 1.12506140005707, -1.15816714695225], a = 0.2, v = 0.2, t = 0.2)
movej(p[0.434788876059501, -0.101037011425987, 0.380796992043758, -1.22648914086557, 1.11737540123417, -1.16567319510255], a = 0.2, v = 0.2, t = 0.2)
movej(p[0.436818304449527, -0.101625540503102, 0.380285626621437, -1.23394478025603, 1.10885530852845, -1.17780280557174], a = 0.2, v = 0.2, t = 0.2)
movej(p[0.438391109153299, -0.102108964033688, 0.379863801878362, -1.23561651292875, 1.10207735834697, -1.18608091635224], a = 0.2, v = 0.2, t = 0.2)
movej(p[0.440049836599644, -0.102548721419997, 0.379466873925293, -1.23267197851578, 1.10014397248756, -1.18799601630785], a = 0.2, v = 0.2, t = 0.2)
movej(p[0.441117595289207, -0.103074263556168, 0.379023679189346, -1.22826900611602, 1.09904644879077, -1.18729274253828], a = 0.2, v = 0.2, t = 0.2)
movej(p[0.442146445293299, -0.103044777705747, 0.378907278743884, -1.22732070348081, 1.0981607365762, -1.1878113760137], a = 0.2, v = 0.2, t = 0.2)
movej(p[0.442462328503379, -0.103130861310795, 0.37883119332786, -1.22684466969894, 1.09864802126717, -1.18865835122081], a = 0.2, v = 0.2, t = 0.2)
movej(p[0.442462813677304, -0.103130898182689, 0.378827318634746, -1.22551031112762, 1.10019035483445, -1.19060138778364], a = 0.2, v = 0.2, t = 0.2)
movej(p[0.442636872672262, -0.103117908298076, 0.378839957035432, -1.22685401931708, 1.09905478967154, -1.19232716028912], a = 0.2, v = 0.2, t = 0.2)
movej(p[0.442881107928082, -0.103205721090612, 0.378742977587704, -1.22944014419325, 1.09584580625944, -1.19249261434752], a = 0.2, v = 0.2, t = 0.2)
movej(p[0.443269378161153, -0.103360526796951, 0.37859631992716, -1.23070935852955, 1.09475039112842, -1.19339754109376], a = 0.2, v = 0.2, t = 0.2)
movej(p[0.443277832455193, -0.103359895859698, 0.378596933792336, -1.23161414906329, 1.0946536679094, -1.19387286144467], a = 0.2, v = 0.2, t = 0.2)
movej(p[0.443261668363906, -0.103233095821952, 0.378689222971444, -1.23145924156251, 1.09646400074897, -1.19468527271373], a = 0.2, v = 0.2, t = 0.2)
movej(p[0.44281983280738, -0.10306694309008, 0.378826672964824, -1.22993007610366, 1.09769824423634, -1.19278375938411], a = 0.2, v = 0.2, t = 0.2)
movej(p[0.442027186595507, -0.102799058478771, 0.379059290435851, -1.22870861133813, 1.09940478037979, -1.18953817532605], a = 0.2, v = 0.2, t = 0.2)
movej(p[0.440681544272441, -0.102427037872376, 0.37941227383035, -1.23081744931001, 1.10141601476857, -1.18834454664843], a = 0.2, v = 0.2, t = 0.2)
movej(p[0.439508406496877, -0.101976573935489, 0.379792955509854, -1.23729108274808, 1.10847538497533, -1.18437356120181], a = 0.2, v = 0.2, t = 0.2)
movej(p[0.437420054314418, -0.101620197645379, 0.380224552453616, -1.23494613507362, 1.11784082176753, -1.1817796327075], a = 0.2, v = 0.2, t = 0.2)
movej(p[0.435474252853019, -0.101189463098321, 0.380668560744967, -1.2264128696328, 1.12670086535342, -1.17188184874253], a = 0.2, v = 0.2, t = 0.2)
movej(p[0.433006051054146, -0.100566095532647, 0.381292472892713, -1.21789962213435, 1.13253957594691, -1.16200426412259], a = 0.2, v = 0.2, t = 0.2)
movej(p[0.433006051054146, -0.100566095532647, 0.381292472892713, -1.21806841350481, 1.13142746207255, -1.16147195318648], a = 0.2, v = 0.2, t = 0.2)
movej(p[0.434722858691031, -0.10097745773609, 0.380877882123991, -1.22003063888801, 1.12459374410726, -1.16586236936375], a = 0.2, v = 0.2, t = 0.2)
movej(p[0.436365311604702, -0.101452357026595, 0.380435198229715, -1.23426082200825, 1.11029410569669, -1.17470324976771], a = 0.2, v = 0.2, t = 0.2)
movej(p[0.437806893212697, -0.101937084324462, 0.380028802333825, -1.24157106441775, 1.10233424441355, -1.18448753071687], a = 0.2, v = 0.2, t = 0.2)
movej(p[0.43927776305681, -0.10239128397581, 0.379622451416029, -1.24734763164761, 1.09414863176811, -1.19161492085682], a = 0.2, v = 0.2, t = 0.2)
movej(p[0.440242893915706, -0.102658765017499, 0.379384473565078, -1.24489039555202, 1.09184155835525, -1.1929416534894], a = 0.2, v = 0.2, t = 0.2)
movej(p[0.441046936845317, -0.102946232534932, 0.379127183546299, -1.23459365237922, 1.09784526222454, -1.19248365619922], a = 0.2, v = 0.2, t = 0.2)
movej(p[0.441773228521719, -0.10309259286552, 0.378949637708781, -1.22756035559184, 1.10160118268239, -1.19119620196653], a = 0.2, v = 0.2, t = 0.2)
movej(p[0.44227223217673, -0.103158188811469, 0.378854768830001, -1.22709774697713, 1.10116698737121, -1.19145027442435], a = 0.2, v = 0.2, t = 0.2)
movej(p[0.442479537950162, -0.103169849861646, 0.378823953311013, -1.23155156651256, 1.09749693693321, -1.19509937585214], a = 0.2, v = 0.2, t = 0.2)
movej(p[0.442632493586616, -0.103258130333524, 0.378764685431333, -1.23213390939385, 1.09719128655053, -1.19565536542307], a = 0.2, v = 0.2, t = 0.2)
movej(p[0.44299009233199, -0.103266232341481, 0.378699959356417, -1.23213390939385, 1.09719128655053, -1.19565536542307], a = 0.2, v = 0.2, t = 0.2)
movej(p[0.443042508955043, -0.103262320530514, 0.378703765320509, -1.23061186463424, 1.0968138016839, -1.19488854851522], a = 0.2, v = 0.2, t = 0.2)
movej(p[0.443040157943108, -0.103247038083086, 0.378720436539525, -1.22853680991945, 1.09794831655087, -1.19286214016767], a = 0.2, v = 0.2, t = 0.2)
movej(p[0.443012040258882, -0.103226316461139, 0.378737445367164, -1.22772121385174, 1.09891424558457, -1.19310304528012], a = 0.2, v = 0.2, t = 0.2)
movej(p[0.442933940998174, -0.103152451966638, 0.378799707008075, -1.22775354452773, 1.1023386781666, -1.19433537739474], a = 0.2, v = 0.2, t = 0.2)
movej(p[0.442638852534184, -0.102950917763503, 0.378945682394311, -1.22846998517935, 1.10304641788587, -1.19390731956128], a = 0.2, v = 0.2, t = 0.2)
movej(p[0.442040412635955, -0.102760994798029, 0.379117719179312, -1.2294132351091, 1.10452061404046, -1.19144015382891], a = 0.2, v = 0.2, t = 0.2)
movej(p[0.440872505554022, -0.10241838715142, 0.379443060904972, -1.23060220094991, 1.10520040808885, -1.19062488158527], a = 0.2, v = 0.2, t = 0.2)
movej(p[0.439107714673245, -0.102000431787947, 0.379851224501182, -1.2365015329542, 1.11147948119427, -1.18645158171355], a = 0.2, v = 0.2, t = 0.2)
movej(p[0.437184665356683, -0.101540289908415, 0.380319981705682, -1.23388919538441, 1.11939721528787, -1.17702521738133], a = 0.2, v = 0.2, t = 0.2)
movej(p[0.43540383281664, -0.101214203737674, 0.380677946331833, -1.23172890991199, 1.12507125982127, -1.17018223506578], a = 0.2, v = 0.2, t = 0.2)
movej(p[0.435401140476024, -0.10118813453865, 0.380688231669177, -1.23172890991199, 1.12507125982127, -1.17018223506578], a = 0.2, v = 0.2, t = 0.2)
movej(p[0.435539790898293, -0.101177787167706, 0.380698299058066, -1.23016956188742, 1.11668065303733, -1.16970555892382], a = 0.2, v = 0.2, t = 0.2)
movej(p[0.436616699546086, -0.10154012895877, 0.380376750553548, -1.23576004236383, 1.10780521143567, -1.17495625114389], a = 0.2, v = 0.2, t = 0.2)
movej(p[0.438128721836892, -0.101977148801633, 0.379971695904089, -1.2377623646145, 1.10242594957542, -1.18132418409261], a = 0.2, v = 0.2, t = 0.2)
movej(p[0.439168888771178, -0.102378263603219, 0.379635223253244, -1.24039063044821, 1.09950377420155, -1.18554973529408], a = 0.2, v = 0.2, t = 0.2)
movej(p[0.440164363007778, -0.10265416585345, 0.379396482069987, -1.24106867914365, 1.09579131862228, -1.18995023519629], a = 0.2, v = 0.2, t = 0.2)
movej(p[0.441611047291175, -0.103027155601495, 0.378971126146053, -1.23718814751927, 1.09602099998651, -1.19349250080633], a = 0.2, v = 0.2, t = 0.2)
movej(p[0.44214287408415, -0.102991360864408, 0.378956946616061, -1.23350627201666, 1.09897216623258, -1.19466502946012], a = 0.2, v = 0.2, t = 0.2)
movej(p[0.442466871683055, -0.103128815953197, 0.378831600796545, -1.2330082062694, 1.09939383244419, -1.19494918616349], a = 0.2, v = 0.2, t = 0.2)
movej(p[0.442489815105486, -0.103131624799126, 0.378832825440057, -1.2312584932658, 1.09978337872703, -1.19409694263599], a = 0.2, v = 0.2, t = 0.2)
movej(p[0.442769944451571, -0.103268759350698, 0.37870344432, -1.23017297140205, 1.09937176505965, -1.19431573321211], a = 0.2, v = 0.2, t = 0.2)
movej(p[0.442928594554682, -0.103284859319159, 0.378711725370556, -1.23017297140205, 1.09937176505965, -1.19431573321211], a = 0.2, v = 0.2, t = 0.2)
movej(p[0.443297005118008, -0.10332195432812, 0.378646977265258, -1.23377183130102, 1.09810363916451, -1.19670235157775], a = 0.2, v = 0.2, t = 0.2)
movej(p[0.443313592147066, -0.103440775055517, 0.378561432100532, -1.23505045600257, 1.09700583845107, -1.19763050481149], a = 0.2, v = 0.2, t = 0.2)
movej(p[0.443313592147066, -0.103440775055517, 0.378561432100532, -1.23472852592488, 1.09651589796989, -1.19773695272827], a = 0.2, v = 0.2, t = 0.2)
movej(p[0.443094770655886, -0.103273654228845, 0.378686603679937, -1.23367286872642, 1.09702216161314, -1.19574219283976], a = 0.2, v = 0.2, t = 0.2)
movej(p[0.442309929078704, -0.102902664772369, 0.378996542096254, -1.23245901092191, 1.0986171904681, -1.19169140808925], a = 0.2, v = 0.2, t = 0.2)
movej(p[0.441650469602692, -0.102545583239591, 0.379288818452545, -1.23291737365654, 1.09993945562825, -1.18884687178055], a = 0.2, v = 0.2, t = 0.2)
movej(p[0.440127424050549, -0.102130507307079, 0.379695158601122, -1.23788021829039, 1.10501279039697, -1.1856819859823], a = 0.2, v = 0.2, t = 0.2)
movej(p[0.438358146004971, -0.101703126904001, 0.380120816595878, -1.23769930517089, 1.11494326253819, -1.18320284708494], a = 0.2, v = 0.2, t = 0.2)
