def moving():
set_payload_mass(0.606)
set_tcp(p[0,0,0,0,0,0])
movej(p[0.3919, -0.1194, 0.3022, -1.184, 1.195, -1.19], a = 0.2, v = 0.2, t = 0.2)
movej(p[0.391949755814988, -0.119450457019964, 0.30224978401361, -1.18312657615037, 1.19412396489884, -1.18913185617916], a = 0.2, v = 0.2, t = 0.2)
movej(p[0.3919, -0.1194, 0.3022, -1.184, 1.195, -1.19], a = 0.2, v = 0.2, t = 0.2)
movej(p[0.391949755814988, -0.119450457019964, 0.30224978401361, -1.18312657615037, 1.19412396489884, -1.18913185617916], a = 0.2, v = 0.2, t = 0.2)
movej(p[0.3919, -0.1194, 0.3022, -1.184, 1.195, -1.19], a = 0.2, v = 0.2, t = 0.2)
movej(p[0.3919, -0.1194, 0.3022, -1.184, 1.195, -1.19], a = 0.2, v = 0.2, t = 0.2)
movej(p[0.391223489401431, -0.119227180266737, 0.302404489436937, -1.18121088076447, 1.18647550001341, -1.20144468603602], a = 0.2, v = 0.2, t = 0.2)
movej(p[0.390546880338052, -0.119054461950936, 0.302608974494435, -1.17844777809129, 1.17786594191764, -1.2128162085406], a = 0.2, v = 0.2, t = 0.2)
movej(p[0.389526116885988, -0.118815980120864, 0.30296816610299, -1.17679085920367, 1.16989196775999, -1.22206080913741], a = 0.2, v = 0.2, t = 0.2)
movej(p[0.387739108963223, -0.118431167848125, 0.303671615133642, -1.17701243051867, 1.1643511392179, -1.22756539617872], a = 0.2, v = 0.2, t = 0.2)
movej(p[0.385531155136035, -0.11786285752857, 0.304192038968313, -1.17630355578196, 1.15753620976676, -1.22954185955109], a = 0.2, v = 0.2, t = 0.2)
movej(p[0.383054046262161, -0.1171771637543, 0.304595454318666, -1.1748959035454, 1.15006266241578, -1.22938246134784], a = 0.2, v = 0.2, t = 0.2)
movej(p[0.380636619186785, -0.116598163903093, 0.305248689343403, -1.177306377004, 1.14363039566601, -1.22903374520488], a = 0.2, v = 0.2, t = 0.2)
movej(p[0.3783173113361, -0.116054348887408, 0.305908104586223, -1.17879411440661, 1.13648176751858, -1.2288628356356], a = 0.2, v = 0.2, t = 0.2)
movej(p[0.376151880950702, -0.115458865883904, 0.306268040439583, -1.17367924008771, 1.12617343289352, -1.22963407228457], a = 0.2, v = 0.2, t = 0.2)
movej(p[0.374276839323375, -0.114899044027953, 0.30654887691405, -1.16606495419033, 1.11099081477657, -1.22709723798771], a = 0.2, v = 0.2, t = 0.2)
movej(p[0.374276839323375, -0.114899044027953, 0.30654887691405, -1.1625894349252, 1.11099372125681, -1.21683797296227], a = 0.2, v = 0.2, t = 0.2)
movej(p[0.374667101687336, -0.115013591055592, 0.306535167219127, -1.16380829582463, 1.11283089518271, -1.21551514844127], a = 0.2, v = 0.2, t = 0.2)
movej(p[0.375593292909659, -0.115165391487146, 0.306215028376323, -1.16309708687082, 1.11730711205973, -1.21199461873488], a = 0.2, v = 0.2, t = 0.2)
movej(p[0.377418048637247, -0.115549059547647, 0.305714145591648, -1.16748807518369, 1.13346522225093, -1.21455039187407], a = 0.2, v = 0.2, t = 0.2)
movej(p[0.379389427784152, -0.116059393435536, 0.305331743653864, -1.16617327558516, 1.14902822250357, -1.22267365451007], a = 0.2, v = 0.2, t = 0.2)
movej(p[0.381737855897243, -0.116755433341029, 0.304957967962298, -1.17598520222023, 1.15969569992714, -1.23067206759529], a = 0.2, v = 0.2, t = 0.2)
movej(p[0.383855851708717, -0.117216681056725, 0.30442605438159, -1.17313941339453, 1.16612109091066, -1.2397759029101], a = 0.2, v = 0.2, t = 0.2)
movej(p[0.385875479815401, -0.117791971083089, 0.304159389205272, -1.17508107509537, 1.16714424226577, -1.24772060865836], a = 0.2, v = 0.2, t = 0.2)
movej(p[0.387622251700126, -0.118596271622229, 0.304128462267636, -1.17461870434198, 1.17403185799616, -1.25075950186359], a = 0.2, v = 0.2, t = 0.2)
movej(p[0.388400061465168, -0.118822159166823, 0.30401932741251, -1.18008262944197, 1.1803762672361, -1.24729350603998], a = 0.2, v = 0.2, t = 0.2)
movej(p[0.388759382746326, -0.118857584519714, 0.303944488510329, -1.1797467525598, 1.18093109877263, -1.24782890647206], a = 0.2, v = 0.2, t = 0.2)
movej(p[0.389099219562251, -0.119094488130531, 0.303945446489336, -1.18017999855819, 1.18085284158095, -1.24877887747629], a = 0.2, v = 0.2, t = 0.2)
movej(p[0.389098854555541, -0.119094936553075, 0.303964037500264, -1.17889915941627, 1.18490248141222, -1.25338323340735], a = 0.2, v = 0.2, t = 0.2)
movej(p[0.388426593880076, -0.119071080609298, 0.304154612283932, -1.17982272926418, 1.18585205709759, -1.25280336929222], a = 0.2, v = 0.2, t = 0.2)
movej(p[0.386622668771476, -0.118633466145845, 0.304524841285955, -1.17842604113711, 1.18694465300987, -1.2519260478652], a = 0.2, v = 0.2, t = 0.2)
movej(p[0.38501434598208, -0.118254962504976, 0.304845959969555, -1.17633953618533, 1.184562789669, -1.25315203161625], a = 0.2, v = 0.2, t = 0.2)
movej(p[0.3836430456121, -0.11820472349993, 0.30528887480072, -1.17819333483438, 1.18243115563004, -1.25589822182865], a = 0.2, v = 0.2, t = 0.2)
movej(p[0.38199139377291, -0.117828696217974, 0.305602579909577, -1.1816482257315, 1.17645061395329, -1.25494735990981], a = 0.2, v = 0.2, t = 0.2)
movej(p[0.38018317082069, -0.11711285277085, 0.305809753518602, -1.18051725134086, 1.16417944937087, -1.26030172161222], a = 0.2, v = 0.2, t = 0.2)
movej(p[0.378387664837612, -0.116547334729471, 0.306115900361807, -1.17729742083445, 1.15949514613188, -1.26207374144003], a = 0.2, v = 0.2, t = 0.2)
movej(p[0.377007082431203, -0.116434259800523, 0.306476908352799, -1.17495032463646, 1.15192277649947, -1.26160429479015], a = 0.2, v = 0.2, t = 0.2)
movej(p[0.375288403144864, -0.115887053715901, 0.306756208391578, -1.17735454081971, 1.14407894698256, -1.2585314749415], a = 0.2, v = 0.2, t = 0.2)
movej(p[0.373506091422984, -0.11535469960177, 0.307077021706784, -1.17361408512004, 1.12935240106602, -1.2562633799007], a = 0.2, v = 0.2, t = 0.2)
movej(p[0.371780622751902, -0.114689389495999, 0.307349632616831, -1.17038625576308, 1.11590693322134, -1.24941918795179], a = 0.2, v = 0.2, t = 0.2)
movej(p[0.370807508750611, -0.11442297684647, 0.307536549418273, -1.16468552027992, 1.10747662919648, -1.25057154355308], a = 0.2, v = 0.2, t = 0.2)
movej(p[0.370059745683088, -0.11432706733057, 0.307703568278313, -1.16244396679716, 1.09770441845244, -1.24730321959861], a = 0.2, v = 0.2, t = 0.2)
movej(p[0.369187435729075, -0.11399989032741, 0.307847507441614, -1.15990519379941, 1.09846160233025, -1.24190928631408], a = 0.2, v = 0.2, t = 0.2)
movej(p[0.369186799278755, -0.113957607114522, 0.307848514833699, -1.1624534368377, 1.10107080839514, -1.24037402464188], a = 0.2, v = 0.2, t = 0.2)
movej(p[0.369351738631819, -0.11395351632148, 0.30778101760988, -1.16727308726756, 1.10533049325885, -1.23731374477554], a = 0.2, v = 0.2, t = 0.2)
movej(p[0.370134195397907, -0.113943593357477, 0.30760272561907, -1.16896998552305, 1.11175746128636, -1.23184662953648], a = 0.2, v = 0.2, t = 0.2)
movej(p[0.371329599291105, -0.113982680573146, 0.30734901928943, -1.17229660764708, 1.12371930093899, -1.21892438900284], a = 0.2, v = 0.2, t = 0.2)
movej(p[0.372922933684541, -0.11400115005145, 0.307039792189933, -1.17243145654016, 1.12989778101799, -1.21307908485745], a = 0.2, v = 0.2, t = 0.2)
movej(p[0.374761439492249, -0.114425172762293, 0.306696182344737, -1.17354619687411, 1.13353503867744, -1.20996554124977], a = 0.2, v = 0.2, t = 0.2)
movej(p[0.376053069489867, -0.114781284386778, 0.306448624270419, -1.17919106236914, 1.14220671636436, -1.20071785170422], a = 0.2, v = 0.2, t = 0.2)
movej(p[0.377540373044684, -0.114926056862169, 0.306196398962018, -1.1800775273517, 1.1456828435208, -1.1952871463823], a = 0.2, v = 0.2, t = 0.2)
movej(p[0.379190857136189, -0.115188079036353, 0.305913034119589, -1.17975684806836, 1.14633306459083, -1.19453427552214], a = 0.2, v = 0.2, t = 0.2)
movej(p[0.381575277076766, -0.116004897168251, 0.305433101617688, -1.17868084501238, 1.15676598394848, -1.19973645634663], a = 0.2, v = 0.2, t = 0.2)
movej(p[0.383923710662585, -0.117148237959553, 0.304879755389776, -1.17681504246302, 1.16217662825771, -1.20788116901665], a = 0.2, v = 0.2, t = 0.2)
movej(p[0.384989854406863, -0.117542482781456, 0.304645859628937, -1.17882270915285, 1.1634900027893, -1.20809408085522], a = 0.2, v = 0.2, t = 0.2)
movej(p[0.386512913785997, -0.11796662869954, 0.304334872253302, -1.18006699069506, 1.16301785592074, -1.21032457213898], a = 0.2, v = 0.2, t = 0.2)
movej(p[0.387751822393273, -0.118708781432231, 0.303973717709957, -1.17735352585026, 1.16069397399794, -1.21856448526008], a = 0.2, v = 0.2, t = 0.2)
movej(p[0.387752019497272, -0.118721876233385, 0.303973405728012, -1.17816029726003, 1.15877191977919, -1.22166473540179], a = 0.2, v = 0.2, t = 0.2)
movej(p[0.387165638614545, -0.118731952702375, 0.304025881009279, -1.17824193190079, 1.15858334511426, -1.22200143726939], a = 0.2, v = 0.2, t = 0.2)
movej(p[0.386575866880024, -0.118581284273373, 0.304135792863337, -1.17836044010025, 1.1583380525952, -1.22228258501822], a = 0.2, v = 0.2, t = 0.2)
movej(p[0.38521830614216, -0.118220877765544, 0.304400769073829, -1.17860863907112, 1.1580816551164, -1.22247426320289], a = 0.2, v = 0.2, t = 0.2)
movej(p[0.383295640552118, -0.117608459712924, 0.304828910192729, -1.17962190557093, 1.15728353884928, -1.2232007207141], a = 0.2, v = 0.2, t = 0.2)
movej(p[0.381193485476716, -0.116916179127594, 0.305360704485793, -1.18021810066794, 1.15650311182203, -1.22279647905555], a = 0.2, v = 0.2, t = 0.2)
movej(p[0.379270224328863, -0.116295243627957, 0.305842465175813, -1.17685269648527, 1.14726431625493, -1.22246519215063], a = 0.2, v = 0.2, t = 0.2)
movej(p[0.377477378155757, -0.11585405124091, 0.306191287504787, -1.17084996790267, 1.13698119012721, -1.22394669344736], a = 0.2, v = 0.2, t = 0.2)
movej(p[0.37623627536591, -0.115381973152077, 0.306553888529438, -1.17040286854654, 1.1340286410132, -1.21467134892553], a = 0.2, v = 0.2, t = 0.2)
movej(p[0.37623627536591, -0.115381973152077, 0.306553888529438, -1.17415685913892, 1.13861096660993, -1.20588460428287], a = 0.2, v = 0.2, t = 0.2)
movej(p[0.377662755677144, -0.115433238713658, 0.306398870937345, -1.18149520960397, 1.14683137734303, -1.20040185854306], a = 0.2, v = 0.2, t = 0.2)
movej(p[0.38023034563488, -0.116414679963338, 0.305717966984969, -1.17367635081702, 1.15282396949769, -1.19247886775556], a = 0.2, v = 0.2, t = 0.2)
movej(p[0.382407564164834, -0.116914691899617, 0.305389279251088, -1.17046533674536, 1.15809113887178, -1.19770825409033], a = 0.2, v = 0.2, t = 0.2)
movej(p[0.384692213472065, -0.117935982753098, 0.304615017024473, -1.17330704835963, 1.15505782820275, -1.21111957863459], a = 0.2, v = 0.2, t = 0.2)
movej(p[0.386480032331938, -0.118520768538609, 0.304146976567519, -1.17330704835963, 1.15505782820275, -1.21111957863459], a = 0.2, v = 0.2, t = 0.2)
movej(p[0.387842394054263, -0.119126952989328, 0.303665864720593, -1.17330704835963, 1.15505782820275, -1.21111957863459], a = 0.2, v = 0.2, t = 0.2)
movej(p[0.388269978484533, -0.119151809089208, 0.303606227573705, -1.17212441247057, 1.15264664384712, -1.21341817034606], a = 0.2, v = 0.2, t = 0.2)
movej(p[0.388269978484533, -0.119151809089208, 0.303606227573705, -1.16938639172766, 1.14617570662474, -1.22148128430092], a = 0.2, v = 0.2, t = 0.2)
movej(p[0.380254256712393, -0.118337802915607, 0.304232354175106, -1.16896143433477, 1.14601346398222, -1.22446372073461], a = 0.2, v = 0.2, t = 0.2)
movej(p[0.376663306787918, -0.117944253236996, 0.304508506760416, -1.1688197018372, 1.14625036176063, -1.22469950227039], a = 0.2, v = 0.2, t = 0.2)
movej(p[0.376663306787918, -0.117944253236996, 0.304508506760416, -1.16932168866054, 1.14719527093058, -1.22396465436196], a = 0.2, v = 0.2, t = 0.2)
movej(p[0.377533680234814, -0.118011991416016, 0.304437419546086, -1.16975971301301, 1.14810574654082, -1.22233178965571], a = 0.2, v = 0.2, t = 0.2)
movej(p[0.37840405368171, -0.118079729595035, 0.304366332331755, -1.17019856736366, 1.14901695889954, -1.22069579394031], a = 0.2, v = 0.2, t = 0.2)
movej(p[0.379274323692173, -0.118147371681763, 0.30429534545274, -1.17063898386604, 1.14992548188313, -1.21905743347868], a = 0.2, v = 0.2, t = 0.2)
movej(p[0.380144697139069, -0.118215109860783, 0.304224258238409, -1.17108067514473, 1.15083303727375, -1.21742054031505], a = 0.2, v = 0.2, t = 0.2)
movej(p[0.381015070585965, -0.118282848039803, 0.304153171024078, -1.1715226673227, 1.15173875633766, -1.21578001578511], a = 0.2, v = 0.2, t = 0.2)
movej(p[0.38188534406344, -0.118350587675971, 0.30408208181185, -1.17196592959626, 1.15264350837583, -1.21414096241324], a = 0.2, v = 0.2, t = 0.2)
movej(p[0.382755717510336, -0.118418325854991, 0.304010994597519, -1.17240949402165, 1.15354641987686, -1.21249827943806], a = 0.2, v = 0.2, t = 0.2)
movej(p[0.383626090957232, -0.118486064034011, 0.303939907383188, -1.17285432386481, 1.15444836492692, -1.21085707147243], a = 0.2, v = 0.2, t = 0.2)
movej(p[0.384496364434707, -0.118553803670179, 0.30386881817096, -1.17329867645848, 1.15534975532106, -1.20921351196217], a = 0.2, v = 0.2, t = 0.2)
movej(p[0.385366737881603, -0.118621541849199, 0.30379773095663, -1.17374459250813, 1.15624844830996, -1.2075676010851], a = 0.2, v = 0.2, t = 0.2)
movej(p[0.385366737881603, -0.118621541849199, 0.30379773095663, -1.17353305344214, 1.15614315532164, -1.20668019423387], a = 0.2, v = 0.2, t = 0.2)
movej(p[0.384787736726036, -0.118384605730044, 0.303921440646194, -1.17419176696406, 1.157146175724, -1.20592317097932], a = 0.2, v = 0.2, t = 0.2)
movej(p[0.382723118106176, -0.117736539311311, 0.304464210911993, -1.17221198863438, 1.15936395832282, -1.20627974606739], a = 0.2, v = 0.2, t = 0.2)
movej(p[0.380477083348434, -0.11707546287138, 0.305005534020298, -1.17214895111881, 1.16673010386948, -1.20438070629665], a = 0.2, v = 0.2, t = 0.2)
movej(p[0.378983650859086, -0.116634645766851, 0.305353522597861, -1.17202940359692, 1.16692494289637, -1.20457283020682], a = 0.2, v = 0.2, t = 0.2)
movej(p[0.378340315050074, -0.116380614219492, 0.305575629486067, -1.17135125747514, 1.16221163658934, -1.2091142723949], a = 0.2, v = 0.2, t = 0.2)
movej(p[0.376429118268958, -0.116002424590372, 0.305810955532822, -1.17156875489733, 1.15207199705837, -1.21901687225483], a = 0.2, v = 0.2, t = 0.2)
movej(p[0.373812524449698, -0.115662475903532, 0.305883038022552, -1.17228321231004, 1.14886280595756, -1.22248272304805], a = 0.2, v = 0.2, t = 0.2)
movej(p[0.372986379001856, -0.115065426688048, 0.306473305100492, -1.17305114382071, 1.14810058670564, -1.22341485237258], a = 0.2, v = 0.2, t = 0.2)
movej(p[0.372397271588449, -0.114974781358818, 0.306478632365957, -1.17266281286138, 1.14860661975545, -1.22286868957163], a = 0.2, v = 0.2, t = 0.2)
movej(p[0.372394088746038, -0.114890932417825, 0.306576738811252, -1.17259835053916, 1.14848611063146, -1.2228841962088], a = 0.2, v = 0.2, t = 0.2)
movej(p[0.372543343091526, -0.114888756895681, 0.306579721671676, -1.17231685789421, 1.14830805038055, -1.22161002715377], a = 0.2, v = 0.2, t = 0.2)
movej(p[0.373181678209754, -0.115069196881821, 0.306419020525946, -1.17122156577626, 1.14587248273908, -1.21191193414615], a = 0.2, v = 0.2, t = 0.2)
movej(p[0.374112951574533, -0.115350796431798, 0.30615447899139, -1.16901786614602, 1.14203586630664, -1.19436895592972], a = 0.2, v = 0.2, t = 0.2)
movej(p[0.374887734478579, -0.115531139305126, 0.306088503619947, -1.1692079445767, 1.1422244796218, -1.19424867863273], a = 0.2, v = 0.2, t = 0.2)
movej(p[0.375770432830076, -0.115573226333446, 0.306027681647666, -1.16980759679723, 1.14601587444635, -1.19521953387238], a = 0.2, v = 0.2, t = 0.2)
movej(p[0.377339181302541, -0.115961855543496, 0.305867219885137, -1.16852800188528, 1.14978627847312, -1.20190041626397], a = 0.2, v = 0.2, t = 0.2)
movej(p[0.378525070269886, -0.116412480325116, 0.305358682026842, -1.16852800188528, 1.14978627847312, -1.20190041626397], a = 0.2, v = 0.2, t = 0.2)
movej(p[0.379948358979731, -0.116879448779573, 0.30487572124068, -1.16743012795755, 1.1503925950893, -1.20043118984469], a = 0.2, v = 0.2, t = 0.2)
movej(p[0.381438260692224, -0.11721874197925, 0.304635363004371, -1.16447248339642, 1.14845797287185, -1.20131286725139], a = 0.2, v = 0.2, t = 0.2)
movej(p[0.382833193786406, -0.11761721376185, 0.304244941858391, -1.16118032111443, 1.15069608209207, -1.19797556777097], a = 0.2, v = 0.2, t = 0.2)
movej(p[0.382833193786406, -0.11761721376185, 0.304244941858391, -1.16286910651831, 1.15491067462094, -1.19800325799091], a = 0.2, v = 0.2, t = 0.2)
movej(p[0.382940648607535, -0.117639842406289, 0.304200283422826, -1.16344673416904, 1.15531496652738, -1.19845411732329], a = 0.2, v = 0.2, t = 0.2)
movej(p[0.383482656370093, -0.118005163240322, 0.303613728895482, -1.16816441967621, 1.15330577040423, -1.20207463921544], a = 0.2, v = 0.2, t = 0.2)
movej(p[0.383497696421574, -0.118018677172918, 0.303606794886739, -1.16816441967621, 1.15330577040423, -1.20207463921544], a = 0.2, v = 0.2, t = 0.2)
movej(p[0.38349875219367, -0.118017380122764, 0.303553020887388, -1.16760351004959, 1.15282091425216, -1.20157474625694], a = 0.2, v = 0.2, t = 0.2)
movej(p[0.383641541784257, -0.118093480078733, 0.303411019691894, -1.1666702839842, 1.15208239254352, -1.20073174371303], a = 0.2, v = 0.2, t = 0.2)
movej(p[0.383658980993108, -0.118091715526689, 0.303347973991401, -1.16632998953694, 1.15178690035123, -1.20067997832966], a = 0.2, v = 0.2, t = 0.2)
movej(p[0.38366477204893, -0.118096636571627, 0.303302046799137, -1.16626980600657, 1.15173535840072, -1.20070994548985], a = 0.2, v = 0.2, t = 0.2)
movej(p[0.38417656002293, -0.118181464062123, 0.303247218553457, -1.16527689950408, 1.15331871369199, -1.20221361122009], a = 0.2, v = 0.2, t = 0.2)
movej(p[0.384803910091231, -0.118299515150776, 0.303190256089752, -1.16412694508508, 1.15520080394474, -1.20409445271257], a = 0.2, v = 0.2, t = 0.2)
movej(p[0.385768629656036, -0.118485717895112, 0.303204705632432, -1.1643531992461, 1.15562413059621, -1.20452159535661], a = 0.2, v = 0.2, t = 0.2)
movej(p[0.385767813296943, -0.118486720818652, 0.303246285527841, -1.16554285568832, 1.15743780500118, -1.20406747006142], a = 0.2, v = 0.2, t = 0.2)
movej(p[0.385628869639744, -0.11806582026834, 0.304160648173005, -1.16406271458203, 1.15985287137357, -1.20647498008064], a = 0.2, v = 0.2, t = 0.2)
movej(p[0.383741214800814, -0.117703882834892, 0.304160830746336, -1.16232823874303, 1.15867212276584, -1.20842625263764], a = 0.2, v = 0.2, t = 0.2)
movej(p[0.381148631414304, -0.117037774819801, 0.304620535038489, -1.16011083620778, 1.14936309103079, -1.21676037410949], a = 0.2, v = 0.2, t = 0.2)
movej(p[0.378714789936795, -0.116349436211555, 0.30528458919498, -1.16282476954673, 1.1475240126033, -1.21948110240741], a = 0.2, v = 0.2, t = 0.2)
movej(p[0.376796180779138, -0.115955350069516, 0.305368679936495, -1.16376521160231, 1.14721139396473, -1.22126125466669], a = 0.2, v = 0.2, t = 0.2)
movej(p[0.374474552571776, -0.115297423642515, 0.305960868237152, -1.16507035795244, 1.14632487274119, -1.22256896412688], a = 0.2, v = 0.2, t = 0.2)
movej(p[0.372371701730281, -0.114745246066672, 0.306414433362751, -1.1603985675979, 1.14052164018846, -1.2248366369168], a = 0.2, v = 0.2, t = 0.2)
movej(p[0.370835025709836, -0.11427897398185, 0.306930568278355, -1.16420344374524, 1.11570320015784, -1.21306921716017], a = 0.2, v = 0.2, t = 0.2)
movej(p[0.369547760691184, -0.113870927066408, 0.307457399073346, -1.16619347626393, 1.11277119377699, -1.21090551328031], a = 0.2, v = 0.2, t = 0.2)
movej(p[0.368533913821349, -0.113585134486954, 0.307586155650095, -1.1679422938768, 1.11211727082381, -1.21203050684213], a = 0.2, v = 0.2, t = 0.2)
movej(p[0.367978799624674, -0.113514068476191, 0.307716738500284, -1.17003106175977, 1.11400115087579, -1.21094788622567], a = 0.2, v = 0.2, t = 0.2)
movej(p[0.367154102145485, -0.113208709370208, 0.308227063077602, -1.17055632561567, 1.1268315161026, -1.21594970779309], a = 0.2, v = 0.2, t = 0.2)
movej(p[0.367154102145485, -0.113208709370208, 0.308227063077602, -1.16602459028643, 1.13000075921425, -1.21137676661132], a = 0.2, v = 0.2, t = 0.2)
movej(p[0.367641092461013, -0.113325042669604, 0.308164684988222, -1.1666379561612, 1.12379278318039, -1.19601230590555], a = 0.2, v = 0.2, t = 0.2)
movej(p[0.368034216581542, -0.113458128092538, 0.307881154115018, -1.16719618227892, 1.12347293202022, -1.18308419007856], a = 0.2, v = 0.2, t = 0.2)
movej(p[0.368395224206403, -0.113596898462708, 0.30752201939217, -1.17185691955702, 1.12889663456445, -1.16861473836353], a = 0.2, v = 0.2, t = 0.2)
movej(p[0.368756235298277, -0.113735766382319, 0.307162782336109, -1.17658495141309, 1.13422607378186, -1.15408942864703], a = 0.2, v = 0.2, t = 0.2)
movej(p[0.369261111808858, -0.113884382177747, 0.306904682366306, -1.17953875797497, 1.13857741464099, -1.1420065323363], a = 0.2, v = 0.2, t = 0.2)
movej(p[0.370468991475418, -0.11415958281879, 0.306869634138362, -1.17802884240055, 1.13855274894313, -1.13239838734411], a = 0.2, v = 0.2, t = 0.2)
movej(p[0.372620637074051, -0.114695705947477, 0.306650626972343, -1.17596645605171, 1.13862991625518, -1.12618149627965], a = 0.2, v = 0.2, t = 0.2)
movej(p[0.37422760960986, -0.115111620290196, 0.306194114432892, -1.17368060829471, 1.13903422876315, -1.1242020763014], a = 0.2, v = 0.2, t = 0.2)
movej(p[0.375658432656519, -0.115489041540172, 0.305799403020316, -1.1699825518159, 1.14071884389809, -1.11946825918404], a = 0.2, v = 0.2, t = 0.2)
movej(p[0.377742103274771, -0.115998956715533, 0.305373793905554, -1.1699825518159, 1.14071884389809, -1.11946825918404], a = 0.2, v = 0.2, t = 0.2)
movej(p[0.379601290499908, -0.116446208118241, 0.304813124997319, -1.17434856271408, 1.14391736050783, -1.12019047517938], a = 0.2, v = 0.2, t = 0.2)
movej(p[0.38090348796811, -0.116731124751552, 0.304225126191306, -1.17278343917028, 1.15026769533845, -1.12725172247551], a = 0.2, v = 0.2, t = 0.2)
movej(p[0.382334680656042, -0.117088191954121, 0.303837115981572, -1.16957187923326, 1.15732424310611, -1.13645653565413], a = 0.2, v = 0.2, t = 0.2)
movej(p[0.383716933480754, -0.117462817193649, 0.303588289338132, -1.17323481707605, 1.16262915671649, -1.14794289767684], a = 0.2, v = 0.2, t = 0.2)
movej(p[0.384922514329543, -0.117770576481501, 0.303276577343217, -1.17495039614759, 1.16528073157241, -1.14881703835973], a = 0.2, v = 0.2, t = 0.2)
movej(p[0.384922514329543, -0.117770576481501, 0.303276577343217, -1.17567621358402, 1.16510139065585, -1.15046087061806], a = 0.2, v = 0.2, t = 0.2)
movej(p[0.382664536639046, -0.117527478237773, 0.304339941449774, -1.16197644774052, 1.14393538775641, -1.19005864333123], a = 0.2, v = 0.2, t = 0.2)
movej(p[0.379334731665809, -0.11741362192929, 0.306128206472421, -1.16024776430474, 1.14757798691031, -1.19519046859697], a = 0.2, v = 0.2, t = 0.2)
movej(p[0.379334731665809, -0.11741362192929, 0.306128206472421, -1.15969899033392, 1.15168745641994, -1.19739277998561], a = 0.2, v = 0.2, t = 0.2)
movej(p[0.380749255182145, -0.117822898241454, 0.305691386862019, -1.16080541074853, 1.15311792528129, -1.20284709757958], a = 0.2, v = 0.2, t = 0.2)
movej(p[0.382624756534569, -0.118332441647737, 0.305290813692458, -1.16422031362079, 1.15210422581655, -1.20985854125441], a = 0.2, v = 0.2, t = 0.2)
movej(p[0.384228308750669, -0.118776009772554, 0.304930513832778, -1.16709465258806, 1.15067147064035, -1.21228244705353], a = 0.2, v = 0.2, t = 0.2)
movej(p[0.385124903231356, -0.118990209581352, 0.304905532457445, -1.16722433913562, 1.15063529901616, -1.2123628421987], a = 0.2, v = 0.2, t = 0.2)
movej(p[0.385727111054463, -0.119200686030013, 0.304517288240042, -1.16710226778139, 1.15097762219644, -1.21277156056616], a = 0.2, v = 0.2, t = 0.2)
movej(p[0.386110825542552, -0.119291949402682, 0.304508913967574, -1.16690280012038, 1.15138290998165, -1.21317886558671], a = 0.2, v = 0.2, t = 0.2)
movej(p[0.386509229639765, -0.119405138172431, 0.30439714940375, -1.16681655716725, 1.1515579499446, -1.21335385445762], a = 0.2, v = 0.2, t = 0.2)
movej(p[0.386802105743509, -0.119499008809365, 0.304256065523105, -1.16681655716725, 1.1515579499446, -1.21335385445762], a = 0.2, v = 0.2, t = 0.2)
movej(p[0.386802105743509, -0.119499008809365, 0.304256065523105, -1.16681655716725, 1.1515579499446, -1.21335385445762], a = 0.2, v = 0.2, t = 0.2)
movej(p[0.386802105743509, -0.119499008809365, 0.304256065523105, -1.16681655716725, 1.1515579499446, -1.21335385445762], a = 0.2, v = 0.2, t = 0.2)
movej(p[0.386075393707949, -0.119287654430314, 0.304486811517281, -1.16748046312175, 1.16137883309913, -1.21863842639542], a = 0.2, v = 0.2, t = 0.2)
movej(p[0.38488704457769, -0.118948719294759, 0.304844535514939, -1.16823329747083, 1.17299741825148, -1.22484301542374], a = 0.2, v = 0.2, t = 0.2)
movej(p[0.383535531639318, -0.118583222219708, 0.305193593770165, -1.16835940081212, 1.17291489369072, -1.2249693841733], a = 0.2, v = 0.2, t = 0.2)
movej(p[0.381958746224039, -0.118209332117117, 0.305396563017464, -1.16808259869517, 1.17078021600215, -1.22696619097936], a = 0.2, v = 0.2, t = 0.2)
movej(p[0.380395058725118, -0.117774271928071, 0.305765444214634, -1.16555550071292, 1.165842633387, -1.23548787647001], a = 0.2, v = 0.2, t = 0.2)
movej(p[0.379330008205, -0.117513745192581, 0.306032153512728, -1.1671907735326, 1.16351656417335, -1.23831952911379], a = 0.2, v = 0.2, t = 0.2)
movej(p[0.378029358103641, -0.117170085483974, 0.306074435169697, -1.16871079484801, 1.15682430610482, -1.23421352148089], a = 0.2, v = 0.2, t = 0.2)
movej(p[0.377454735834458, -0.1169701996609, 0.306156217291786, -1.16425322679196, 1.15362498292312, -1.21306586184464], a = 0.2, v = 0.2, t = 0.2)
movej(p[0.377453597641492, -0.116971597967758, 0.306214189261347, -1.16159491355325, 1.15541425423153, -1.21038932288852], a = 0.2, v = 0.2, t = 0.2)
movej(p[0.378099807424434, -0.117128749274395, 0.306223086072747, -1.1625767362433, 1.15282585215718, -1.20778150031501], a = 0.2, v = 0.2, t = 0.2)
movej(p[0.378101459078386, -0.117142429695111, 0.306210482576079, -1.16414150920428, 1.14991278493923, -1.2050712108949], a = 0.2, v = 0.2, t = 0.2)
movej(p[0.37810940040388, -0.117144708313606, 0.306185171249619, -1.16398156886858, 1.1497589177773, -1.2051668351032], a = 0.2, v = 0.2, t = 0.2)
movej(p[0.37811126868359, -0.11715025234741, 0.306095731028129, -1.16263574681721, 1.15201124186663, -1.20749749067529], a = 0.2, v = 0.2, t = 0.2)
movej(p[0.378084676817616, -0.11715063994881, 0.306095199587491, -1.16292279000541, 1.1539882347289, -1.20965119114819], a = 0.2, v = 0.2, t = 0.2)
movej(p[0.377192715896283, -0.116877251892526, 0.306380724762381, -1.1659971558918, 1.15510854397465, -1.21157046116673], a = 0.2, v = 0.2, t = 0.2)
movej(p[0.375778515233283, -0.116483661421924, 0.306707719466044, -1.16647168768821, 1.15478902384698, -1.21204908085208], a = 0.2, v = 0.2, t = 0.2)
movej(p[0.373980464713756, -0.115963814815675, 0.306989303423681, -1.16642319897391, 1.14881770914264, -1.21409312720641], a = 0.2, v = 0.2, t = 0.2)
movej(p[0.373021676781443, -0.115668300601168, 0.307299062329727, -1.15855888029536, 1.13238240779192, -1.22405823387341], a = 0.2, v = 0.2, t = 0.2)
movej(p[0.372526553831899, -0.115515545132866, 0.307796869352316, -1.15855888029536, 1.13238240779192, -1.22405823387341], a = 0.2, v = 0.2, t = 0.2)
movej(p[0.372526553831899, -0.115515545132866, 0.307796869352316, -1.15899447041408, 1.13314624030339, -1.2157515264387], a = 0.2, v = 0.2, t = 0.2)
movej(p[0.372654557590709, -0.115543340703108, 0.307658744430577, -1.15958104189801, 1.13644464059794, -1.18693882368388], a = 0.2, v = 0.2, t = 0.2)
movej(p[0.373892553228592, -0.115886128797452, 0.307372336272598, -1.16258613430881, 1.14130934738581, -1.18314933975869], a = 0.2, v = 0.2, t = 0.2)
movej(p[0.375579913633188, -0.116393411900439, 0.307039358182589, -1.1633987235316, 1.1464345554795, -1.18430159822015], a = 0.2, v = 0.2, t = 0.2)
movej(p[0.37739259172108, -0.116922707414568, 0.306458188690615, -1.16320422250852, 1.14967523382032, -1.18580944845497], a = 0.2, v = 0.2, t = 0.2)
movej(p[0.379682966826003, -0.117596605325558, 0.305844791776446, -1.16157846088154, 1.15380972714871, -1.19243715911643], a = 0.2, v = 0.2, t = 0.2)
movej(p[0.382031799238162, -0.11826104963995, 0.305467784186786, -1.16318771347001, 1.15585308508534, -1.20241203977248], a = 0.2, v = 0.2, t = 0.2)
movej(p[0.383915869805664, -0.118832213178892, 0.305273993530519, -1.16873818087268, 1.15626118720344, -1.20394206085069], a = 0.2, v = 0.2, t = 0.2)
movej(p[0.385299338002455, -0.11925428027687, 0.304963917373305, -1.16902760591192, 1.15594569622131, -1.20390613668037], a = 0.2, v = 0.2, t = 0.2)
movej(p[0.386392880609575, -0.119589593137275, 0.304587411142201, -1.16947366822045, 1.15513629655542, -1.20486009450825], a = 0.2, v = 0.2, t = 0.2)
movej(p[0.387042737730113, -0.119779619272774, 0.304487834534942, -1.16943215720957, 1.15538870373982, -1.20543110493921], a = 0.2, v = 0.2, t = 0.2)
movej(p[0.387042737730113, -0.119779619272774, 0.304487834534942, -1.16873312982301, 1.16491023054123, -1.21332898962251], a = 0.2, v = 0.2, t = 0.2)
movej(p[0.386608724260855, -0.119645201045714, 0.304874344895394, -1.1666294021637, 1.17042577563086, -1.222335407517], a = 0.2, v = 0.2, t = 0.2)
movej(p[0.384828770112833, -0.119124124855067, 0.305195532760168, -1.16813963873726, 1.16888204038175, -1.22439021454684], a = 0.2, v = 0.2, t = 0.2)
movej(p[0.382557646373, -0.11847493805448, 0.305724570940558, -1.16256651469059, 1.15596722141301, -1.23296461100448], a = 0.2, v = 0.2, t = 0.2)
movej(p[0.380256794842218, -0.117800361026322, 0.306416216454083, -1.16424623503335, 1.14858109505494, -1.23885192377236], a = 0.2, v = 0.2, t = 0.2)
movej(p[0.378235315239464, -0.117232216954373, 0.306750705794957, -1.16020607626507, 1.14046200809492, -1.23959277399392], a = 0.2, v = 0.2, t = 0.2)
movej(p[0.376266844341304, -0.116645826399702, 0.306907089203573, -1.15846153422323, 1.13535245311872, -1.23341457894973], a = 0.2, v = 0.2, t = 0.2)
movej(p[0.374135039619128, -0.116012762678458, 0.30729390394134, -1.15512595269257, 1.12839152465872, -1.23079704020316], a = 0.2, v = 0.2, t = 0.2)
movej(p[0.373866475229282, -0.115931404299337, 0.307564025622539, -1.15616576565624, 1.12277478059188, -1.21839136372548], a = 0.2, v = 0.2, t = 0.2)
movej(p[0.373866475229282, -0.115931404299337, 0.307564025622539, -1.1560886778261, 1.12445118780491, -1.20449117095029], a = 0.2, v = 0.2, t = 0.2)
movej(p[0.374343593924763, -0.116063322334537, 0.307406332019587, -1.14870476197628, 1.12906913383427, -1.19141935512829], a = 0.2, v = 0.2, t = 0.2)
movej(p[0.377512342987562, -0.116911664047177, 0.306624585349875, -1.14982784069467, 1.13012253648797, -1.19076476544447], a = 0.2, v = 0.2, t = 0.2)
movej(p[0.381856452652398, -0.11821166553192, 0.305786787940266, -1.15417778582341, 1.13592269555301, -1.20372368642064], a = 0.2, v = 0.2, t = 0.2)
movej(p[0.384089730907205, -0.118883581959688, 0.305175919549615, -1.16079920108011, 1.14830537784275, -1.21352639737926], a = 0.2, v = 0.2, t = 0.2)
movej(p[0.385292341089073, -0.119266923144258, 0.30497788201105, -1.16705711315494, 1.15376660837697, -1.21104049883371], a = 0.2, v = 0.2, t = 0.2)
movej(p[0.385895272590605, -0.119432586286864, 0.304796032134388, -1.16654879792155, 1.15464251850892, -1.211980625663], a = 0.2, v = 0.2, t = 0.2)
movej(p[0.386411697776746, -0.119600239168634, 0.304634646576316, -1.16653538143623, 1.15385463632644, -1.21278057435108], a = 0.2, v = 0.2, t = 0.2)
movej(p[0.386637856540746, -0.119648751251149, 0.304290148664398, -1.16565187107984, 1.15384556829756, -1.21364906520655], a = 0.2, v = 0.2, t = 0.2)
movej(p[0.386835403479887, -0.119701534232926, 0.304069045942409, -1.16512184305258, 1.15372634609899, -1.21412512294285], a = 0.2, v = 0.2, t = 0.2)
movej(p[0.387074023697073, -0.119773697605249, 0.303944128491086, -1.16493084568345, 1.15355706895178, -1.21423508040865], a = 0.2, v = 0.2, t = 0.2)
movej(p[0.387074023697073, -0.119773697605249, 0.303944128491086, -1.16497630899251, 1.15352642437734, -1.21428084125197], a = 0.2, v = 0.2, t = 0.2)
movej(p[0.386562078780516, -0.11964997272038, 0.304579071784046, -1.16412557718085, 1.15533322506395, -1.21604664587726], a = 0.2, v = 0.2, t = 0.2)
movej(p[0.384861206141949, -0.119124738002498, 0.304809267827686, -1.16351723553604, 1.15855527661203, -1.22005222426669], a = 0.2, v = 0.2, t = 0.2)
movej(p[0.38309208381263, -0.118613815558828, 0.304946234431131, -1.16647887001714, 1.15955910250492, -1.2267599910458], a = 0.2, v = 0.2, t = 0.2)
movej(p[0.381043433904826, -0.117997720748042, 0.305383996523341, -1.16650613938916, 1.15958603767082, -1.22674345256132], a = 0.2, v = 0.2, t = 0.2)
movej(p[0.37938481689129, -0.117522432354269, 0.305738577762488, -1.1670369852084, 1.15891707542362, -1.21973918652037], a = 0.2, v = 0.2, t = 0.2)
movej(p[0.377526143257176, -0.116921273940434, 0.30599111834007, -1.16742470843502, 1.15817022017769, -1.21881227929791], a = 0.2, v = 0.2, t = 0.2)
movej(p[0.376458699527657, -0.116585507820715, 0.30601237597773, -1.16658601101029, 1.15102520715799, -1.21547443759615], a = 0.2, v = 0.2, t = 0.2)
movej(p[0.375997476605661, -0.116427666466949, 0.306116580647809, -1.16680582831688, 1.1499594768965, -1.21473093683545], a = 0.2, v = 0.2, t = 0.2)
movej(p[0.375536252179053, -0.116269725152869, 0.30622078769943, -1.16702245015955, 1.14889363355547, -1.21398656639142], a = 0.2, v = 0.2, t = 0.2)
movej(p[0.375075029257057, -0.116111883799104, 0.306324992369509, -1.16724023854014, 1.14782979057538, -1.21324358656502], a = 0.2, v = 0.2, t = 0.2)
movej(p[0.374071628447974, -0.115962111812935, 0.307101387648018, -1.1661473304371, 1.13878056071557, -1.20787598083476], a = 0.2, v = 0.2, t = 0.2)
movej(p[0.373052501938365, -0.115605440392504, 0.307132302131037, -1.16311296629109, 1.14077087736363, -1.2045331898507], a = 0.2, v = 0.2, t = 0.2)
movej(p[0.373053332034269, -0.115604420592847, 0.307090022573926, -1.16103261901234, 1.13846866107628, -1.18966237666826], a = 0.2, v = 0.2, t = 0.2)
movej(p[0.373502647808634, -0.115661253983927, 0.307017434692256, -1.16198444770741, 1.14237186159621, -1.17312576095481], a = 0.2, v = 0.2, t = 0.2)
movej(p[0.376273573075493, -0.116501273019167, 0.306500009513203, -1.16419589712772, 1.14531309335713, -1.1696922591817], a = 0.2, v = 0.2, t = 0.2)
movej(p[0.378465214535783, -0.117111549480281, 0.305845388958569, -1.16486046768576, 1.14592885433814, -1.16929801658539], a = 0.2, v = 0.2, t = 0.2)
movej(p[0.381438319767663, -0.118055274532947, 0.305357645485895, -1.16455431107641, 1.14822984852215, -1.17492729560492], a = 0.2, v = 0.2, t = 0.2)
movej(p[0.384598131324899, -0.118975084355167, 0.30473987966966, -1.16661020127741, 1.15120455026985, -1.18682738825759], a = 0.2, v = 0.2, t = 0.2)
movej(p[0.385698661348576, -0.11933843087693, 0.304364535265004, -1.16770851519252, 1.15385466021493, -1.19737607436038], a = 0.2, v = 0.2, t = 0.2)
movej(p[0.386681994098863, -0.119749009267749, 0.30430200345545, -1.16701106596596, 1.15140792014807, -1.2035344036769], a = 0.2, v = 0.2, t = 0.2)
movej(p[0.38668646561668, -0.119756255949079, 0.304373851219077, -1.16693206233588, 1.15153710481783, -1.20367807989384], a = 0.2, v = 0.2, t = 0.2)
movej(p[0.386685619821562, -0.119757295035727, 0.30441693038956, -1.16483154173, 1.15387962572907, -1.2072459137541], a = 0.2, v = 0.2, t = 0.2)
movej(p[0.385125168569942, -0.119312399821544, 0.304836936912978, -1.1628997993056, 1.15552301355821, -1.21067749566564], a = 0.2, v = 0.2, t = 0.2)
movej(p[0.382984417247039, -0.118670938653169, 0.305314922595773, -1.16226628002594, 1.15299999046738, -1.2150206235159], a = 0.2, v = 0.2, t = 0.2)
movej(p[0.380761944371777, -0.118091101059321, 0.305942791342796, -1.16167737373935, 1.14184563100122, -1.22559667266985], a = 0.2, v = 0.2, t = 0.2)
movej(p[0.378718477710801, -0.117528485782825, 0.306260307714232, -1.16032275223641, 1.13600035582433, -1.23063742779362], a = 0.2, v = 0.2, t = 0.2)
movej(p[0.377172664972805, -0.116966191092848, 0.30642280740861, -1.15869371621657, 1.13399056680251, -1.23142200793507], a = 0.2, v = 0.2, t = 0.2)
movej(p[0.375117785276015, -0.116296533976806, 0.306682752631022, -1.15837272866044, 1.12796316944668, -1.22663864176319], a = 0.2, v = 0.2, t = 0.2)
movej(p[0.373055607529198, -0.115724467666894, 0.307313981280244, -1.16019209594187, 1.12365992777448, -1.22014936748148], a = 0.2, v = 0.2, t = 0.2)
movej(p[0.373055607529198, -0.115724467666894, 0.307313981280244, -1.15772836049701, 1.12870755324363, -1.19589318454452], a = 0.2, v = 0.2, t = 0.2)
movej(p[0.374681295442602, -0.115972991793028, 0.306754922019572, -1.15863206867093, 1.13421517003587, -1.18732311666965], a = 0.2, v = 0.2, t = 0.2)
movej(p[0.377394108429874, -0.116768064904492, 0.306174409544673, -1.16013994704057, 1.13562911948008, -1.1864399979411], a = 0.2, v = 0.2, t = 0.2)
movej(p[0.380439946890469, -0.117733417864076, 0.305506684986651, -1.16118100445304, 1.14477862534499, -1.20423557459108], a = 0.2, v = 0.2, t = 0.2)
movej(p[0.382346525596268, -0.118414213684143, 0.305112496085268, -1.16533185603429, 1.15417196528293, -1.20519168977953], a = 0.2, v = 0.2, t = 0.2)
movej(p[0.382960843808422, -0.118489254602946, 0.304745264857401, -1.16580056795845, 1.15462387070603, -1.20490978031781], a = 0.2, v = 0.2, t = 0.2)
movej(p[0.383353793771675, -0.118599567308673, 0.30469409188275, -1.16659102043467, 1.15587644037211, -1.20298635651762], a = 0.2, v = 0.2, t = 0.2)
movej(p[0.38466291164319, -0.119035089127825, 0.304620446560263, -1.16710501343607, 1.15503467110554, -1.20214731928118], a = 0.2, v = 0.2, t = 0.2)
movej(p[0.385818960470674, -0.119409169632261, 0.3042478341951, -1.16613144728037, 1.14983139932912, -1.20462910242799], a = 0.2, v = 0.2, t = 0.2)
movej(p[0.386446197292517, -0.119659488841323, 0.30415786473973, -1.16648947703394, 1.14636567782786, -1.20814319257609], a = 0.2, v = 0.2, t = 0.2)
movej(p[0.386875216816758, -0.119755356358327, 0.303943068773746, -1.16567715235708, 1.14726052201766, -1.20945163453062], a = 0.2, v = 0.2, t = 0.2)
movej(p[0.386875216816758, -0.119755356358327, 0.303943068773746, -1.16338446156041, 1.15124112590376, -1.21377592811941], a = 0.2, v = 0.2, t = 0.2)
movej(p[0.386159655596935, -0.119558281012496, 0.304246924675039, -1.16818583943242, 1.16138531056669, -1.21305793627471], a = 0.2, v = 0.2, t = 0.2)
movej(p[0.384843931253774, -0.119150423493175, 0.304541180017805, -1.16765001846283, 1.16432356292628, -1.21949583409829], a = 0.2, v = 0.2, t = 0.2)
movej(p[0.383006895631303, -0.118575470922517, 0.304916372705991, -1.16469411798588, 1.16129507031563, -1.22191670107152], a = 0.2, v = 0.2, t = 0.2)
movej(p[0.381418620810262, -0.118283727799241, 0.305734133143325, -1.16846156625753, 1.15787290895379, -1.2430565722548], a = 0.2, v = 0.2, t = 0.2)
movej(p[0.379759613910095, -0.117700387678671, 0.305794169373475, -1.17070037617167, 1.15622131922115, -1.24759009031185], a = 0.2, v = 0.2, t = 0.2)
movej(p[0.378056933272089, -0.117042834973653, 0.305823122699438, -1.16777268855411, 1.15327105591024, -1.24935520004229], a = 0.2, v = 0.2, t = 0.2)
movej(p[0.376157057865021, -0.116346460771573, 0.306075750307382, -1.16477306046623, 1.14174320893669, -1.24470940084753], a = 0.2, v = 0.2, t = 0.2)
movej(p[0.375405096718489, -0.11615536106735, 0.306288303705736, -1.16391664218458, 1.13644847686217, -1.22810284722997], a = 0.2, v = 0.2, t = 0.2)
movej(p[0.375405096718489, -0.11615536106735, 0.306288303705736, -1.16298064215056, 1.13684669617001, -1.21206202929453], a = 0.2, v = 0.2, t = 0.2)
movej(p[0.378012587371563, -0.116872154011365, 0.305790351519738, -1.16219016638373, 1.14150991666097, -1.20727722343405], a = 0.2, v = 0.2, t = 0.2)
movej(p[0.381005397896029, -0.11759799875805, 0.304853430483387, -1.16223585839631, 1.14259167398023, -1.20767640540783], a = 0.2, v = 0.2, t = 0.2)
movej(p[0.383108072977485, -0.11818811203736, 0.304501396394969, -1.16257238403539, 1.14945207914449, -1.21610015097095], a = 0.2, v = 0.2, t = 0.2)
movej(p[0.384285413000906, -0.118720134922465, 0.304254754936623, -1.17075737266146, 1.15534869364016, -1.21320359231838], a = 0.2, v = 0.2, t = 0.2)
movej(p[0.38503292115409, -0.118804173036219, 0.303891622500231, -1.1782453850588, 1.1608195530108, -1.2097433147384], a = 0.2, v = 0.2, t = 0.2)
movej(p[0.385256834598249, -0.119046855497163, 0.303856148669381, -1.18103991999681, 1.16084643599923, -1.21071044808959], a = 0.2, v = 0.2, t = 0.2)
movej(p[0.385884715712224, -0.11915474761392, 0.303625057393355, -1.18133205940716, 1.16036220129826, -1.21023638691264], a = 0.2, v = 0.2, t = 0.2)
movej(p[0.386295801886466, -0.119171809366014, 0.303534369389947, -1.18060281708805, 1.15697858747028, -1.20092861730847], a = 0.2, v = 0.2, t = 0.2)
movej(p[0.386370447428038, -0.119170141495321, 0.303456937023776, -1.17911856392831, 1.15647603957778, -1.20089975909272], a = 0.2, v = 0.2, t = 0.2)
movej(p[0.386474605307579, -0.119194452768593, 0.303363249628032, -1.17893667866684, 1.15659901618994, -1.20071388606868], a = 0.2, v = 0.2, t = 0.2)
movej(p[0.38689194239918, -0.119272925934922, 0.303359945972386, -1.17810905161555, 1.15776275962407, -1.20150849652882], a = 0.2, v = 0.2, t = 0.2)
movej(p[0.387031633969945, -0.119306383496264, 0.303361881597941, -1.17063963764939, 1.1506198423417, -1.20601345533698], a = 0.2, v = 0.2, t = 0.2)
movej(p[0.387417030743301, -0.119836118885524, 0.30351404691742, -1.16473687969417, 1.14494407527274, -1.2095365284241], a = 0.2, v = 0.2, t = 0.2)
movej(p[0.387677736960923, -0.11985131547436, 0.303518798946561, -1.16467022689841, 1.14498960731264, -1.20946926009354], a = 0.2, v = 0.2, t = 0.2)
movej(p[0.387903242603, -0.119919415841137, 0.303521583804949, -1.16495944719386, 1.14573395781355, -1.20887772437056], a = 0.2, v = 0.2, t = 0.2)
movej(p[0.387904421400828, -0.120095725774588, 0.303591189967047, -1.16573380120677, 1.14698458478582, -1.20798419739054], a = 0.2, v = 0.2, t = 0.2)
movej(p[0.387848888108766, -0.120099994280539, 0.303735266902501, -1.16559963845557, 1.14879017255351, -1.20884538333168], a = 0.2, v = 0.2, t = 0.2)
movej(p[0.387363323284774, -0.119938937544022, 0.303873888038421, -1.16453692501599, 1.15117197091757, -1.21096137450778], a = 0.2, v = 0.2, t = 0.2)
movej(p[0.386285158568457, -0.119606284485277, 0.304178597222723, -1.16542154505509, 1.15645957546589, -1.21328339564307], a = 0.2, v = 0.2, t = 0.2)
movej(p[0.385047085104219, -0.119263724791236, 0.30452912933704, -1.16512814788538, 1.16030873587821, -1.21656522427311], a = 0.2, v = 0.2, t = 0.2)
movej(p[0.383126458935069, -0.118765795018588, 0.304968755860223, -1.16596993211736, 1.16095649325246, -1.22068193747026], a = 0.2, v = 0.2, t = 0.2)
movej(p[0.381262828140053, -0.118073359097499, 0.305262619714845, -1.16788745905672, 1.15785385708719, -1.22438116317665], a = 0.2, v = 0.2, t = 0.2)
movej(p[0.379140819834449, -0.117292130704213, 0.30562178539872, -1.15876520819991, 1.14471262621783, -1.22818948544572], a = 0.2, v = 0.2, t = 0.2)
movej(p[0.37711120378544, -0.116732863373631, 0.306239738055925, -1.15993611815978, 1.138669882633, -1.226514365185], a = 0.2, v = 0.2, t = 0.2)
movej(p[0.37498752316393, -0.115963310028618, 0.306756165453536, -1.15823985786506, 1.13701194991483, -1.22751413948222], a = 0.2, v = 0.2, t = 0.2)
movej(p[0.372903769104034, -0.115276619728276, 0.307152120424819, -1.15471105859973, 1.13241724939519, -1.22910745004323], a = 0.2, v = 0.2, t = 0.2)
movej(p[0.371760100735205, -0.115068115956411, 0.307436441228241, -1.15213864393391, 1.11867048763381, -1.22123632784771], a = 0.2, v = 0.2, t = 0.2)
movej(p[0.371757775289232, -0.115070972841973, 0.307554883959153, -1.14914865820215, 1.11470987484798, -1.21385684456164], a = 0.2, v = 0.2, t = 0.2)
movej(p[0.372025479398722, -0.115145856812639, 0.307558333698159, -1.14779744497388, 1.11222473909519, -1.20276690698563], a = 0.2, v = 0.2, t = 0.2)
movej(p[0.373178167315713, -0.115386448507623, 0.307211486076963, -1.15082907295375, 1.11995249614121, -1.19636818029833], a = 0.2, v = 0.2, t = 0.2)
movej(p[0.374402158703869, -0.115625445672491, 0.306834361526045, -1.15353411967064, 1.12469415749973, -1.19576433716917], a = 0.2, v = 0.2, t = 0.2)
movej(p[0.375965787464536, -0.116203361148406, 0.306532567537516, -1.1550238887927, 1.1349264679261, -1.21055346674776], a = 0.2, v = 0.2, t = 0.2)
movej(p[0.379878042453124, -0.117289672351974, 0.305404907121758, -1.15727224173306, 1.14054161807571, -1.22139529972288], a = 0.2, v = 0.2, t = 0.2)
movej(p[0.38232068317504, -0.118165200383117, 0.304927602994056, -1.15848907104654, 1.14165383812446, -1.22791308746053], a = 0.2, v = 0.2, t = 0.2)
movej(p[0.383811758239696, -0.118633317537881, 0.30452728469448, -1.15832805805358, 1.14476014808155, -1.23586779878674], a = 0.2, v = 0.2, t = 0.2)
movej(p[0.385097194491074, -0.119326881519598, 0.304440347148445, -1.1631221627707, 1.1495013679582, -1.23300484369157], a = 0.2, v = 0.2, t = 0.2)
movej(p[0.385576069907797, -0.119393115998532, 0.304251956731868, -1.16541012487922, 1.15584753409578, -1.22743577364741], a = 0.2, v = 0.2, t = 0.2)
movej(p[0.386021602801878, -0.119419924648192, 0.30407146632604, -1.16518804735029, 1.15599626718232, -1.22721385810256], a = 0.2, v = 0.2, t = 0.2)
movej(p[0.386362341023075, -0.119614151142498, 0.304066267910416, -1.16617401630344, 1.15812494923099, -1.22653653486767], a = 0.2, v = 0.2, t = 0.2)
movej(p[0.38680183141284, -0.119881636733652, 0.304053337487801, -1.16456867545287, 1.15996632764448, -1.22700313885337], a = 0.2, v = 0.2, t = 0.2)
movej(p[0.386985152245755, -0.11989277265975, 0.303973127741702, -1.16468235712273, 1.16039797583833, -1.22705846818134], a = 0.2, v = 0.2, t = 0.2)
movej(p[0.387313884424493, -0.119949646345573, 0.303842844670958, -1.16479918860875, 1.16051341892003, -1.22698749320713], a = 0.2, v = 0.2, t = 0.2)
movej(p[0.387314438121226, -0.119986431741183, 0.30384196826366, -1.16207919728427, 1.16298215422131, -1.22605566894209], a = 0.2, v = 0.2, t = 0.2)
movej(p[0.386623056413364, -0.120008151432078, 0.304316806424575, -1.15902325842045, 1.16556472244742, -1.23008939554021], a = 0.2, v = 0.2, t = 0.2)
movej(p[0.385040163726281, -0.119651248766913, 0.304737651572792, -1.15621202810683, 1.16274391173018, -1.23572622250972], a = 0.2, v = 0.2, t = 0.2)
movej(p[0.382703905717779, -0.118917012919634, 0.305300478311922, -1.15734221284925, 1.15897598206466, -1.23975297342448], a = 0.2, v = 0.2, t = 0.2)
movej(p[0.380329938254638, -0.11814553797958, 0.305851056908327, -1.14887207798641, 1.14896138289331, -1.24474008165339], a = 0.2, v = 0.2, t = 0.2)
movej(p[0.37822906028374, -0.117480045859239, 0.306378528338034, -1.14736970396881, 1.14222478100817, -1.24924842693845], a = 0.2, v = 0.2, t = 0.2)
movej(p[0.376062703308755, -0.116616823470235, 0.306719691794541, -1.15078275673552, 1.1371454987528, -1.2536985675511], a = 0.2, v = 0.2, t = 0.2)
movej(p[0.37373130692161, -0.115740930032786, 0.30715116564339, -1.14836289012667, 1.13209439626258, -1.25402962112896], a = 0.2, v = 0.2, t = 0.2)
movej(p[0.371666673100396, -0.115132485903671, 0.307723594701045, -1.14376332585917, 1.12129373354562, -1.24801088346756], a = 0.2, v = 0.2, t = 0.2)
movej(p[0.371355776439506, -0.115092430008026, 0.307844617845407, -1.14239708716857, 1.11959208020548, -1.24412400084496], a = 0.2, v = 0.2, t = 0.2)
movej(p[0.371355058740209, -0.115044748938173, 0.307845753840736, -1.14179783969961, 1.11864886405935, -1.23979310624566], a = 0.2, v = 0.2, t = 0.2)
movej(p[0.371696674174512, -0.115037318216772, 0.307749690427173, -1.13894388628201, 1.12261053295146, -1.22224638099529], a = 0.2, v = 0.2, t = 0.2)
movej(p[0.373757349125031, -0.115337247101238, 0.307095281974777, -1.14154026271918, 1.12511145114975, -1.22073942290904], a = 0.2, v = 0.2, t = 0.2)
movej(p[0.377998726612953, -0.116829896155071, 0.306157775869709, -1.14207784610053, 1.13568575442823, -1.23062324536042], a = 0.2, v = 0.2, t = 0.2)
movej(p[0.382439800555411, -0.118193330605099, 0.304949072747311, -1.1485928726272, 1.14239876165425, -1.22902670906938], a = 0.2, v = 0.2, t = 0.2)
movej(p[0.384188447797336, -0.118717303677514, 0.304519748414559, -1.15082563247734, 1.14433580155572, -1.22793678939621], a = 0.2, v = 0.2, t = 0.2)
movej(p[0.384872593144465, -0.119053198322213, 0.304362500102444, -1.15650721613315, 1.14976587013123, -1.2244849287821], a = 0.2, v = 0.2, t = 0.2)
movej(p[0.385591327178245, -0.119272554607623, 0.304206440726763, -1.16092309785382, 1.1540983161185, -1.22180759311596], a = 0.2, v = 0.2, t = 0.2)
movej(p[0.385843074367103, -0.119266064548374, 0.304093082700876, -1.16161426208171, 1.1534548458548, -1.21639289962259], a = 0.2, v = 0.2, t = 0.2)
movej(p[0.386018156444367, -0.119267389333487, 0.304032557324666, -1.16078619000229, 1.15631148025159, -1.21310941083729], a = 0.2, v = 0.2, t = 0.2)
movej(p[0.38629514468847, -0.119262899338598, 0.304019094688426, -1.16111514460164, 1.15663122980188, -1.21291067506753], a = 0.2, v = 0.2, t = 0.2)
movej(p[0.38676341659035, -0.119422980200079, 0.303904169174732, -1.16342974501493, 1.16074208280464, -1.21223924006574], a = 0.2, v = 0.2, t = 0.2)
movej(p[0.386955609770055, -0.119492671105153, 0.303793106942518, -1.16776040316942, 1.16738914861913, -1.20719218369632], a = 0.2, v = 0.2, t = 0.2)
movej(p[0.387291219908192, -0.119486671516885, 0.303753318374809, -1.16816490650298, 1.16571791206265, -1.19822968673578], a = 0.2, v = 0.2, t = 0.2)
movej(p[0.387490422468897, -0.119671998786426, 0.30375125852693, -1.16746159362758, 1.16618564647024, -1.19751433697336], a = 0.2, v = 0.2, t = 0.2)
movej(p[0.387925218230247, -0.119966507806214, 0.303752691417615, -1.16673663017661, 1.16663035211255, -1.19667491004301], a = 0.2, v = 0.2, t = 0.2)
movej(p[0.388070545083426, -0.11996151174874, 0.303634806791159, -1.16742132989136, 1.16924644245598, -1.19481983233412], a = 0.2, v = 0.2, t = 0.2)
movej(p[0.388069496369778, -0.119891839409772, 0.303636466725634, -1.1660152071181, 1.17021539382584, -1.19349408253791], a = 0.2, v = 0.2, t = 0.2)
movej(p[0.387218317796436, -0.119772256581323, 0.303970607659108, -1.1544759553085, 1.17008852730732, -1.19931385226193], a = 0.2, v = 0.2, t = 0.2)
movej(p[0.386303717533803, -0.119728919774107, 0.304395509672202, -1.15268162789366, 1.17292923708039, -1.20217315313312], a = 0.2, v = 0.2, t = 0.2)
movej(p[0.385237340375092, -0.119548020560444, 0.304711597080806, -1.15345457000737, 1.17228195017801, -1.20705241613317], a = 0.2, v = 0.2, t = 0.2)
movej(p[0.384386030231956, -0.119140965964817, 0.30486267754404, -1.15054196086799, 1.17300257737552, -1.21155501629574], a = 0.2, v = 0.2, t = 0.2)
movej(p[0.381467518681575, -0.117979793410804, 0.30550831105471, -1.15130933069688, 1.17223669454229, -1.21258547245731], a = 0.2, v = 0.2, t = 0.2)
movej(p[0.378770701838959, -0.117307075078417, 0.306233557566357, -1.15124300892065, 1.16606416722872, -1.21625579093088], a = 0.2, v = 0.2, t = 0.2)
movej(p[0.3762555680716, -0.116460631015364, 0.306785674067115, -1.15326565794093, 1.15896150412621, -1.21738286185688], a = 0.2, v = 0.2, t = 0.2)
movej(p[0.373858068290629, -0.11547021108111, 0.307297950841991, -1.15070778707493, 1.15400729376802, -1.21795492482473], a = 0.2, v = 0.2, t = 0.2)
movej(p[0.372161403238078, -0.115155949800222, 0.307706729457857, -1.14667505714461, 1.14203290127969, -1.21505302308501], a = 0.2, v = 0.2, t = 0.2)
movej(p[0.371804379367382, -0.114965068845905, 0.307938637191734, -1.14282979752974, 1.12993829057151, -1.20340236730692], a = 0.2, v = 0.2, t = 0.2)
movej(p[0.371804379367382, -0.114965068845905, 0.307938637191734, -1.14317827237967, 1.12920963963781, -1.20236504496309], a = 0.2, v = 0.2, t = 0.2)
movej(p[0.371823000281228, -0.114961488455517, 0.307800121985449, -1.14014436765601, 1.12844157004302, -1.19026204228875], a = 0.2, v = 0.2, t = 0.2)
movej(p[0.373157639325379, -0.114947481435921, 0.307412963548593, -1.13970386979352, 1.13602758025671, -1.18268488728794], a = 0.2, v = 0.2, t = 0.2)
movej(p[0.375363138378953, -0.115622039065319, 0.30685761317333, -1.15153289326644, 1.15070737163417, -1.1771747588329], a = 0.2, v = 0.2, t = 0.2)
movej(p[0.377032208401909, -0.115934976782791, 0.306317061257735, -1.14962317696283, 1.15537510232635, -1.18304819375161], a = 0.2, v = 0.2, t = 0.2)
movej(p[0.379115293061863, -0.116426104391786, 0.30578694308115, -1.14947753493058, 1.15696604127679, -1.18715984775672], a = 0.2, v = 0.2, t = 0.2)
movej(p[0.381319451316214, -0.117239575888334, 0.305224814079868, -1.14917752794496, 1.16008060505748, -1.19511706449016], a = 0.2, v = 0.2, t = 0.2)
movej(p[0.383301809168997, -0.11825327276149, 0.304860400835233, -1.15438211420538, 1.16096241365379, -1.19604126392472], a = 0.2, v = 0.2, t = 0.2)
movej(p[0.384553684047293, -0.118574103696146, 0.304484150984126, -1.15886647747451, 1.16312354924185, -1.19591624862859], a = 0.2, v = 0.2, t = 0.2)
movej(p[0.385782307159577, -0.118901837152925, 0.304135191617912, -1.15947931067812, 1.16287006247215, -1.19696830970731], a = 0.2, v = 0.2, t = 0.2)
movej(p[0.386499515587276, -0.11918378557595, 0.303980994186054, -1.16092731548169, 1.16425866329791, -1.19608564988743], a = 0.2, v = 0.2, t = 0.2)
movej(p[0.387185544762175, -0.11977161743298, 0.303948269133759, -1.16205575658793, 1.16616726996355, -1.19600443976633], a = 0.2, v = 0.2, t = 0.2)
movej(p[0.38729150853665, -0.119769956180299, 0.303945487274915, -1.16310533975849, 1.16812211164376, -1.19275687111312], a = 0.2, v = 0.2, t = 0.2)
movej(p[0.387464104005767, -0.119626752967333, 0.303783848622865, -1.16304157779556, 1.16976604737027, -1.19273510611565], a = 0.2, v = 0.2, t = 0.2)
movej(p[0.387463745908424, -0.119602962412563, 0.303784415429759, -1.15962014090804, 1.17523662559282, -1.19818170624919], a = 0.2, v = 0.2, t = 0.2)
movej(p[0.38556124364565, -0.119508960791099, 0.304477681998477, -1.15355277495998, 1.17487925530586, -1.20871799648201], a = 0.2, v = 0.2, t = 0.2)
movej(p[0.383168845027991, -0.118703927809606, 0.305065125759983, -1.15341653948984, 1.17454965326456, -1.21299924674503], a = 0.2, v = 0.2, t = 0.2)
movej(p[0.380962088957683, -0.11774833976987, 0.305568501637906, -1.15053788865272, 1.17135373194137, -1.21515769919166], a = 0.2, v = 0.2, t = 0.2)
movej(p[0.378875475287494, -0.116874282565888, 0.306025947389387, -1.14696363225681, 1.16364450055707, -1.21730015491214], a = 0.2, v = 0.2, t = 0.2)
movej(p[0.376916345390715, -0.116371297565433, 0.306556584173698, -1.1481448012875, 1.16255346340097, -1.21761651788465], a = 0.2, v = 0.2, t = 0.2)
movej(p[0.375267425525484, -0.115754376346774, 0.306918273733976, -1.1505749992283, 1.15977540373376, -1.21411069493329], a = 0.2, v = 0.2, t = 0.2)
movej(p[0.373856396724685, -0.115135488589018, 0.307217548919408, -1.15148020168357, 1.15727827801336, -1.20976471287016], a = 0.2, v = 0.2, t = 0.2)
movej(p[0.372531266567417, -0.114701233544224, 0.307577787982211, -1.14915323494668, 1.15180562321609, -1.20381957146099], a = 0.2, v = 0.2, t = 0.2)
movej(p[0.372394150461108, -0.114651892463291, 0.307645619546567, -1.15089894324821, 1.14743104709419, -1.19658672782392], a = 0.2, v = 0.2, t = 0.2)
movej(p[0.372394150461108, -0.114651892463291, 0.307645619546567, -1.14849468153938, 1.14718855007568, -1.18139765183833], a = 0.2, v = 0.2, t = 0.2)
movej(p[0.373361805234669, -0.114629595360239, 0.307321089535013, -1.14716859570053, 1.15054227261497, -1.17385980824997], a = 0.2, v = 0.2, t = 0.2)
movej(p[0.375010811643345, -0.114825480742904, 0.306843196156731, -1.14584037832388, 1.15319597793326, -1.16603746440573], a = 0.2, v = 0.2, t = 0.2)
movej(p[0.377035828010475, -0.11576717110662, 0.306494063414442, -1.14753263650517, 1.15475874767681, -1.16501803585368], a = 0.2, v = 0.2, t = 0.2)
movej(p[0.379202097749945, -0.116312458167981, 0.305875329120443, -1.15134980461186, 1.1655337511522, -1.17421254775839], a = 0.2, v = 0.2, t = 0.2)
movej(p[0.380986354921072, -0.116842367645667, 0.305415345661242, -1.15364003417269, 1.17105837238534, -1.17623518544379], a = 0.2, v = 0.2, t = 0.2)
movej(p[0.382770373168215, -0.117506116845397, 0.304979842637465, -1.15477991323051, 1.17094408135226, -1.17921295823183], a = 0.2, v = 0.2, t = 0.2)
movej(p[0.384354112012664, -0.11821440767618, 0.30460776613779, -1.15930700495978, 1.17117803425896, -1.181495138994], a = 0.2, v = 0.2, t = 0.2)
movej(p[0.38540877179113, -0.118727655384749, 0.304339559423972, -1.16006687610208, 1.17197038106217, -1.18123931017403], a = 0.2, v = 0.2, t = 0.2)
movej(p[0.385906761840344, -0.118857115073408, 0.304196841906143, -1.1607598564406, 1.17253822222343, -1.18090299787199], a = 0.2, v = 0.2, t = 0.2)
movej(p[0.386621045480924, -0.119102462525414, 0.304037166834216, -1.16156906062634, 1.17125233131284, -1.17961882606086], a = 0.2, v = 0.2, t = 0.2)
movej(p[0.387519703169141, -0.119671200169247, 0.303862206004611, -1.16452101037513, 1.1691536131956, -1.18223856111548], a = 0.2, v = 0.2, t = 0.2)
movej(p[0.387939123716065, -0.119752865563939, 0.303822048463254, -1.16717023558255, 1.17205822962038, -1.1807616888185], a = 0.2, v = 0.2, t = 0.2)
movej(p[0.388118620569391, -0.11975089907691, 0.303823519032717, -1.16287259654596, 1.17600039981827, -1.17945833186917], a = 0.2, v = 0.2, t = 0.2)
movej(p[0.388118610037117, -0.119750199354711, 0.303823535703508, -1.16044701162094, 1.17883961513652, -1.18111726110319], a = 0.2, v = 0.2, t = 0.2)
movej(p[0.387174843457512, -0.119610155660248, 0.304155752043958, -1.15565410213111, 1.17834798746651, -1.18563166258762], a = 0.2, v = 0.2, t = 0.2)
movej(p[0.385868636497831, -0.119577285391109, 0.304562608104364, -1.15142461224729, 1.17976712198485, -1.19357867267641], a = 0.2, v = 0.2, t = 0.2)
movej(p[0.383960442324759, -0.118852734414042, 0.305050765598912, -1.15081436677677, 1.18118129041591, -1.1958449206436], a = 0.2, v = 0.2, t = 0.2)
movej(p[0.381836405477247, -0.11782639033356, 0.305512850643979, -1.1511956144759, 1.18035475791686, -1.19681701919588], a = 0.2, v = 0.2, t = 0.2)
movej(p[0.37966931061417, -0.117253877583139, 0.306012867748716, -1.1491648302769, 1.17333902483464, -1.20063650790608], a = 0.2, v = 0.2, t = 0.2)
movej(p[0.377831810109636, -0.116859987607133, 0.306513346671988, -1.14843482940358, 1.16707617308639, -1.20231789865651], a = 0.2, v = 0.2, t = 0.2)
movej(p[0.376039212467566, -0.116203460883809, 0.306872870489286, -1.14711424686249, 1.16039983973705, -1.20298176594778], a = 0.2, v = 0.2, t = 0.2)
movej(p[0.374321668205788, -0.115520181361215, 0.307286438250164, -1.14609089074759, 1.15327364868321, -1.20114564320334], a = 0.2, v = 0.2, t = 0.2)
movej(p[0.372599948713114, -0.115221432399719, 0.307683845719334, -1.14441551966674, 1.14563957539693, -1.19968891411301], a = 0.2, v = 0.2, t = 0.2)
movej(p[0.372405636682779, -0.115122334206234, 0.307764360580789, -1.14593666249511, 1.14208370514674, -1.19494857257492], a = 0.2, v = 0.2, t = 0.2)
movej(p[0.372404141099758, -0.115022973653962, 0.307766727833111, -1.14217109816237, 1.14104144395783, -1.18070838269317], a = 0.2, v = 0.2, t = 0.2)
movej(p[0.373390089219464, -0.114999440324315, 0.307401867123191, -1.14417638526349, 1.14691442136193, -1.16835179087217], a = 0.2, v = 0.2, t = 0.2)
movej(p[0.374415261096814, -0.115008300782116, 0.307170159518272, -1.1459793544179, 1.15155207783824, -1.16426517010863], a = 0.2, v = 0.2, t = 0.2)
movej(p[0.376673801099494, -0.115576525771719, 0.306636123866383, -1.14771126506858, 1.15919103851516, -1.16566699900023], a = 0.2, v = 0.2, t = 0.2)
movej(p[0.379872951734743, -0.11653688293841, 0.305851371793835, -1.15119241137297, 1.16563601617143, -1.17288703533261], a = 0.2, v = 0.2, t = 0.2)
movej(p[0.38236941789052, -0.117300388952204, 0.305236858335917, -1.14884669480015, 1.17214221174827, -1.18465033362651], a = 0.2, v = 0.2, t = 0.2)
movej(p[0.383937151926133, -0.117926165739139, 0.304859654589233, -1.15328998164019, 1.1700924785935, -1.19436313136347], a = 0.2, v = 0.2, t = 0.2)
movej(p[0.385574878715917, -0.118948669460026, 0.304537986634977, -1.15598407818755, 1.16831561313447, -1.19708710181301], a = 0.2, v = 0.2, t = 0.2)
movej(p[0.3861539512773, -0.119112806838288, 0.304352603626826, -1.16083914555334, 1.17030229937265, -1.19307478328788], a = 0.2, v = 0.2, t = 0.2)
movej(p[0.386687507017578, -0.119259597153933, 0.304199761338015, -1.15992642161957, 1.17043730456916, -1.19084590445577], a = 0.2, v = 0.2, t = 0.2)
movej(p[0.387096495970942, -0.119490470573538, 0.304104675323552, -1.15897354717265, 1.16952596277673, -1.19143178629198], a = 0.2, v = 0.2, t = 0.2)
movej(p[0.387099517229199, -0.119691190884366, 0.304099893188077, -1.15774769122266, 1.17215732586806, -1.19526946136488], a = 0.2, v = 0.2, t = 0.2)
movej(p[0.387087842772871, -0.119693033404094, 0.304169853478175, -1.1573417644717, 1.17713390153542, -1.20209804330953], a = 0.2, v = 0.2, t = 0.2)
movej(p[0.385259005848748, -0.119235666301804, 0.304661028272627, -1.1550042014892, 1.18235924675392, -1.20995852449689], a = 0.2, v = 0.2, t = 0.2)
movej(p[0.383083818311511, -0.118640929651024, 0.305264472341343, -1.14809356919461, 1.17967969283508, -1.21849637330375], a = 0.2, v = 0.2, t = 0.2)
movej(p[0.381118221572321, -0.118285960954891, 0.305831231190989, -1.15239927161663, 1.17650762138907, -1.22316511354835], a = 0.2, v = 0.2, t = 0.2)
movej(p[0.37892162627237, -0.117383264552896, 0.306285207439331, -1.15167630030426, 1.17522555892956, -1.2234015135264], a = 0.2, v = 0.2, t = 0.2)
movej(p[0.376884920198158, -0.116348862460611, 0.306716185499959, -1.14725390072767, 1.1686073569326, -1.22088968341782], a = 0.2, v = 0.2, t = 0.2)
movej(p[0.375133767880058, -0.115888543928231, 0.307187146164517, -1.14338215360239, 1.16152037990351, -1.21817458340396], a = 0.2, v = 0.2, t = 0.2)
movej(p[0.374911048796777, -0.115767348179653, 0.307191399453723, -1.13680222919903, 1.16474437038684, -1.20850326209294], a = 0.2, v = 0.2, t = 0.2)
movej(p[0.374856492142337, -0.11527833037451, 0.307202123618432, -1.13596725240027, 1.16786537833105, -1.20459009754026], a = 0.2, v = 0.2, t = 0.2)
movej(p[0.374904431271268, -0.115276716825022, 0.307164685183965, -1.14747459646327, 1.17019076894844, -1.19409816833365], a = 0.2, v = 0.2, t = 0.2)
movej(p[0.37506992132575, -0.115350675332016, 0.307081509519792, -1.15278788531338, 1.16895156303262, -1.18838431283354], a = 0.2, v = 0.2, t = 0.2)
movej(p[0.376388709957387, -0.115970097897365, 0.306763202120254, -1.15218442502017, 1.16935002447715, -1.1877723166677], a = 0.2, v = 0.2, t = 0.2)
movej(p[0.378739403292788, -0.116468183418372, 0.306156730854104, -1.14366096772111, 1.17789885566083, -1.18943194893592], a = 0.2, v = 0.2, t = 0.2)
movej(p[0.380897971655703, -0.116927984881595, 0.305610741534573, -1.14290546820354, 1.17907750008631, -1.19062458664031], a = 0.2, v = 0.2, t = 0.2)
movej(p[0.383338782580691, -0.117996674135983, 0.304980470699127, -1.14899896965285, 1.17787397539398, -1.19400001661556], a = 0.2, v = 0.2, t = 0.2)
movej(p[0.384916775676674, -0.118946311662173, 0.304661488539934, -1.14812266434431, 1.18113802759947, -1.19643786777809], a = 0.2, v = 0.2, t = 0.2)
movej(p[0.385788574356312, -0.119151382616964, 0.304414033138533, -1.15149371349921, 1.18386602183926, -1.19495615184893], a = 0.2, v = 0.2, t = 0.2)
movej(p[0.386146597050226, -0.119333450604833, 0.304320924554418, -1.15174674210518, 1.18387894328222, -1.19503250990743], a = 0.2, v = 0.2, t = 0.2)
movej(p[0.386277824038852, -0.119358486987361, 0.304274773855549, -1.15205112150441, 1.18368566937549, -1.19534821237781], a = 0.2, v = 0.2, t = 0.2)
movej(p[0.386932907689195, -0.11947581314691, 0.304120926290282, -1.15254212518394, 1.18382395393639, -1.19538137315768], a = 0.2, v = 0.2, t = 0.2)
movej(p[0.387403286669277, -0.119797667920377, 0.304003540772038, -1.15304028943806, 1.18306147777498, -1.19460712805266], a = 0.2, v = 0.2, t = 0.2)
movej(p[0.387895581209288, -0.120065295782418, 0.303866183015305, -1.15912558971992, 1.18641063939779, -1.18886281870293], a = 0.2, v = 0.2, t = 0.2)
movej(p[0.388251917650512, -0.12007402698356, 0.303680975761714, -1.15912558971992, 1.18641063939779, -1.18886281870293], a = 0.2, v = 0.2, t = 0.2)
movej(p[0.38825509689289, -0.120285243127375, 0.303675943564374, -1.15603313681339, 1.19136823453571, -1.19717912737234], a = 0.2, v = 0.2, t = 0.2)
movej(p[0.387710959983019, -0.12029888235248, 0.303904647116716, -1.1543627134566, 1.19378140356184, -1.2016589238468], a = 0.2, v = 0.2, t = 0.2)
movej(p[0.385539406801207, -0.119636323238653, 0.304476982585866, -1.15164160115906, 1.19640575290278, -1.20535728083068], a = 0.2, v = 0.2, t = 0.2)
movej(p[0.38334315326249, -0.118686370123795, 0.305034554906955, -1.14764312887087, 1.19010455524075, -1.21031590742637], a = 0.2, v = 0.2, t = 0.2)
movej(p[0.380973961262079, -0.118293736071891, 0.305667533663688, -1.14911772928752, 1.17966774621616, -1.21593570279838], a = 0.2, v = 0.2, t = 0.2)
movej(p[0.379053617120392, -0.117655080254899, 0.306150579432649, -1.15097571427271, 1.17616734417938, -1.21830393086073], a = 0.2, v = 0.2, t = 0.2)
movej(p[0.376839780462242, -0.116668816060612, 0.30670558087418, -1.14635930969925, 1.16606271182796, -1.22288345437652], a = 0.2, v = 0.2, t = 0.2)
movej(p[0.374591855938148, -0.115936492613432, 0.307299509996791, -1.14660869360153, 1.15930916095089, -1.21999004928597], a = 0.2, v = 0.2, t = 0.2)
movej(p[0.374475418560895, -0.115474972055133, 0.307308355981527, -1.14374587015409, 1.15505849663038, -1.19988348447794], a = 0.2, v = 0.2, t = 0.2)
movej(p[0.374475858138868, -0.115474432019381, 0.307285966807076, -1.14692435893431, 1.16138355214946, -1.18121111949465], a = 0.2, v = 0.2, t = 0.2)
movej(p[0.377313302823078, -0.115895562773433, 0.306503117599348, -1.14271956812545, 1.16768451948137, -1.17338102521084], a = 0.2, v = 0.2, t = 0.2)
movej(p[0.38054774457732, -0.116794462918284, 0.305659511288323, -1.13758826722395, 1.17687948280944, -1.18199560126537], a = 0.2, v = 0.2, t = 0.2)
movej(p[0.383014425765748, -0.117806599068697, 0.30501490462711, -1.14554409410981, 1.17664905920801, -1.19502782193149], a = 0.2, v = 0.2, t = 0.2)
movej(p[0.384520457403827, -0.118765868656783, 0.304634848562195, -1.14865293401805, 1.17914954119127, -1.19367096521029], a = 0.2, v = 0.2, t = 0.2)
movej(p[0.385233849639005, -0.118945799118411, 0.304412002589006, -1.15119541820442, 1.18174065911645, -1.19213705075713], a = 0.2, v = 0.2, t = 0.2)
movej(p[0.386033196730368, -0.119117780206092, 0.304186933970558, -1.15187332225876, 1.18582723110062, -1.19353282358899], a = 0.2, v = 0.2, t = 0.2)
movej(p[0.386593189111124, -0.119460050839959, 0.304055107847628, -1.15251899784302, 1.18583685435399, -1.19375193672103], a = 0.2, v = 0.2, t = 0.2)
movej(p[0.387362119587064, -0.119935114899651, 0.303851245633473, -1.15659580505484, 1.18572268928995, -1.18969736916793], a = 0.2, v = 0.2, t = 0.2)
movej(p[0.387695798980526, -0.119926997028487, 0.303721326687408, -1.15775406821091, 1.18954052213798, -1.18619050029218], a = 0.2, v = 0.2, t = 0.2)
movej(p[0.388033352275818, -0.119920309228077, 0.30365387947721, -1.157167514248, 1.19122076312751, -1.18610075703638], a = 0.2, v = 0.2, t = 0.2)
movej(p[0.388272222001447, -0.120038504554426, 0.30358008185525, -1.15692407244382, 1.19160042347174, -1.18647764001843], a = 0.2, v = 0.2, t = 0.2)
movej(p[0.388276507132679, -0.120323191529146, 0.303573299224855, -1.1557580673774, 1.19368811250482, -1.19083760014737], a = 0.2, v = 0.2, t = 0.2)
movej(p[0.387880366362072, -0.120332317506568, 0.303706069501646, -1.1529930005754, 1.19512361764286, -1.19455602911377], a = 0.2, v = 0.2, t = 0.2)
movej(p[0.386907641758918, -0.120164787775144, 0.303970647534574, -1.15193607704859, 1.19566508596705, -1.19586350149322], a = 0.2, v = 0.2, t = 0.2)
movej(p[0.384020148860295, -0.118983271422826, 0.304756147814398, -1.14904274898441, 1.19067830722894, -1.20967164686527], a = 0.2, v = 0.2, t = 0.2)
movej(p[0.381195599717936, -0.118306592554224, 0.305503193724089, -1.14999243968355, 1.1859713457615, -1.21474946550614], a = 0.2, v = 0.2, t = 0.2)
movej(p[0.379139233302594, -0.117436861433659, 0.306026960803787, -1.14841419664516, 1.17147172153414, -1.21281540130039], a = 0.2, v = 0.2, t = 0.2)
movej(p[0.377171043732617, -0.116580465844757, 0.306527925744619, -1.14582722399848, 1.16721964376538, -1.21385692416631], a = 0.2, v = 0.2, t = 0.2)
movej(p[0.374855172225327, -0.115760938699919, 0.307109617931773, -1.13906484403719, 1.14849210709661, -1.21312010151236], a = 0.2, v = 0.2, t = 0.2)
movej(p[0.37377879513756, -0.115602791169778, 0.307312005638021, -1.14247155978301, 1.14241937244818, -1.20587623006462], a = 0.2, v = 0.2, t = 0.2)
movej(p[0.373776924906478, -0.11547854049928, 0.307314965894194, -1.14735089303151, 1.14412022050522, -1.17473902165142], a = 0.2, v = 0.2, t = 0.2)
movej(p[0.376702800079868, -0.115415298398466, 0.306509018503588, -1.14596273018845, 1.15725518582127, -1.16099806762856], a = 0.2, v = 0.2, t = 0.2)
movej(p[0.380497360010917, -0.116599720382233, 0.305540960243955, -1.14232097063341, 1.16947919154952, -1.16942100808828], a = 0.2, v = 0.2, t = 0.2)
movej(p[0.383202951607812, -0.117918031260397, 0.30490256347914, -1.14802603772612, 1.17437883187322, -1.18751100033052], a = 0.2, v = 0.2, t = 0.2)
movej(p[0.384907996532889, -0.11879511830234, 0.304494980868709, -1.15273506480692, 1.1752263105996, -1.18829182284499], a = 0.2, v = 0.2, t = 0.2)
movej(p[0.385590361000599, -0.119156621644404, 0.304290357319519, -1.15880073190958, 1.17909230955947, -1.1851925570242], a = 0.2, v = 0.2, t = 0.2)
movej(p[0.38617303266988, -0.119202709185678, 0.304149112304183, -1.16343517835182, 1.17920941306684, -1.18069721836182], a = 0.2, v = 0.2, t = 0.2)
movej(p[0.386641683214822, -0.119690326582875, 0.304038900005979, -1.16497008854452, 1.17874384899724, -1.18171752308601], a = 0.2, v = 0.2, t = 0.2)
movej(p[0.387001559970719, -0.119917038461643, 0.303960658683198, -1.16418880094064, 1.18262545710628, -1.18392897208986], a = 0.2, v = 0.2, t = 0.2)
movej(p[0.387359943133311, -0.119909032199331, 0.303851031640302, -1.16194635865823, 1.18530752160655, -1.18037297553843], a = 0.2, v = 0.2, t = 0.2)
movej(p[0.387685164238766, -0.119903875819613, 0.303756092215851, -1.16155313969778, 1.1854807407869, -1.1797434881698], a = 0.2, v = 0.2, t = 0.2)
movej(p[0.387876127555835, -0.12005467662467, 0.303735694207908, -1.16155313969778, 1.1854807407869, -1.1797434881698], a = 0.2, v = 0.2, t = 0.2)
movej(p[0.387876127555835, -0.12005467662467, 0.303735694207908, -1.15621793720425, 1.19495666328164, -1.19164342809915], a = 0.2, v = 0.2, t = 0.2)
movej(p[0.386418808990215, -0.119870985647475, 0.304115908072985, -1.15715620759745, 1.19375191787954, -1.19529145376255], a = 0.2, v = 0.2, t = 0.2)
movej(p[0.384808221734891, -0.11934237411237, 0.30452594420303, -1.15342386069219, 1.19825555890548, -1.20222456124926], a = 0.2, v = 0.2, t = 0.2)
movej(p[0.383212212166799, -0.118903234313995, 0.304942512512004, -1.15261385292996, 1.18771785891568, -1.21442873996314], a = 0.2, v = 0.2, t = 0.2)
movej(p[0.38179617863771, -0.118611852998577, 0.305300622150968, -1.15253832656519, 1.18608501377486, -1.21603948111863], a = 0.2, v = 0.2, t = 0.2)
movej(p[0.380220692856493, -0.117827824178524, 0.305664982827375, -1.15177873021785, 1.1830552656585, -1.21567743248592], a = 0.2, v = 0.2, t = 0.2)
movej(p[0.379654817227491, -0.117563818413705, 0.305802909578381, -1.1509798391073, 1.18200339209772, -1.2160806233965], a = 0.2, v = 0.2, t = 0.2)
movej(p[0.379208193951196, -0.117389955296494, 0.305915691161743, -1.15016965767517, 1.18117682086475, -1.21655794440929], a = 0.2, v = 0.2, t = 0.2)
movej(p[0.377810987472147, -0.117089848713707, 0.306276381865629, -1.14721610318954, 1.17221072170806, -1.21595072562424], a = 0.2, v = 0.2, t = 0.2)
movej(p[0.377808340861951, -0.116914018521104, 0.306280570997253, -1.14984511412698, 1.16458036316875, -1.20216771414499], a = 0.2, v = 0.2, t = 0.2)
movej(p[0.378648472093381, -0.116895476480303, 0.306033085165945, -1.14236289770715, 1.17381799835562, -1.1903068549916], a = 0.2, v = 0.2, t = 0.2)
movej(p[0.383645307229765, -0.117914023189178, 0.304753468847807, -1.14476117999593, 1.17620688373959, -1.18885506428582], a = 0.2, v = 0.2, t = 0.2)
movej(p[0.385797139585916, -0.119345236639972, 0.304216932391184, -1.15223355238012, 1.18005641834194, -1.18754684725643], a = 0.2, v = 0.2, t = 0.2)
movej(p[0.386656392753728, -0.119573112795966, 0.303978185200342, -1.15518045211987, 1.18286575086604, -1.18571284158435], a = 0.2, v = 0.2, t = 0.2)
movej(p[0.387094175841024, -0.119645539481924, 0.303868377078427, -1.15738497581795, 1.18823581071722, -1.18553192888959], a = 0.2, v = 0.2, t = 0.2)
movej(p[0.387434770842129, -0.119910558869151, 0.303781829810323, -1.15787968652263, 1.18793859288299, -1.18601393574963], a = 0.2, v = 0.2, t = 0.2)
movej(p[0.387645903578089, -0.119906149722444, 0.30373015440775, -1.15877382819734, 1.18724818088652, -1.18492015319304], a = 0.2, v = 0.2, t = 0.2)
movej(p[0.387732804086794, -0.120035980645189, 0.303696013185071, -1.16022389092271, 1.18666066815946, -1.18604082934912], a = 0.2, v = 0.2, t = 0.2)
movej(p[0.387928723531907, -0.120051323209177, 0.303649165380887, -1.16036052647743, 1.1868617817291, -1.18598066342225], a = 0.2, v = 0.2, t = 0.2)
movej(p[0.388208513910706, -0.120229152619817, 0.303618453906759, -1.16251370837371, 1.19271411778594, -1.18246625254837], a = 0.2, v = 0.2, t = 0.2)
movej(p[0.388208513910706, -0.120229152619817, 0.303618453906759, -1.16001315829971, 1.19661462777599, -1.18631731436715], a = 0.2, v = 0.2, t = 0.2)
movej(p[0.387162539680186, -0.120036652232721, 0.303876193193746, -1.15547070887989, 1.19697705766197, -1.19375666394085], a = 0.2, v = 0.2, t = 0.2)
movej(p[0.385816191750496, -0.119643487082301, 0.304221918238709, -1.15121957074414, 1.19725846374096, -1.200599584056], a = 0.2, v = 0.2, t = 0.2)
movej(p[0.384242555991549, -0.119270228469191, 0.304638137130523, -1.15171455555822, 1.19816813822722, -1.2135672315643], a = 0.2, v = 0.2, t = 0.2)
movej(p[0.383032238857574, -0.119033780075597, 0.304933529077558, -1.15212028494399, 1.19791309397829, -1.21397271329279], a = 0.2, v = 0.2, t = 0.2)
movej(p[0.381535220108169, -0.118514681281436, 0.305268728370262, -1.15431641116905, 1.19714900284031, -1.21152475982939], a = 0.2, v = 0.2, t = 0.2)
movej(p[0.381114741242209, -0.118295694920507, 0.305376808604385, -1.15461793773154, 1.19667712998403, -1.21105839139778], a = 0.2, v = 0.2, t = 0.2)
movej(p[0.37951828430988, -0.117705009780197, 0.305785317806527, -1.15401414059979, 1.18868179492471, -1.2185333670852], a = 0.2, v = 0.2, t = 0.2)
movej(p[0.377930043932519, -0.117506742390724, 0.306189025232758, -1.15472096425442, 1.1844852546232, -1.21919837850805], a = 0.2, v = 0.2, t = 0.2)
movej(p[0.376354060797181, -0.116839907816211, 0.306588667794761, -1.1540718249355, 1.17645357372302, -1.21685618204933], a = 0.2, v = 0.2, t = 0.2)
movej(p[0.375066577618195, -0.116164054978278, 0.30687603504287, -1.15123081673486, 1.17038516845823, -1.2032422736339], a = 0.2, v = 0.2, t = 0.2)
movej(p[0.375066577618195, -0.116164054978278, 0.30687603504287, -1.15054723446229, 1.16792297213073, -1.19440227690693], a = 0.2, v = 0.2, t = 0.2)
movej(p[0.376150470607687, -0.116237530484561, 0.306601201152478, -1.1494824885497, 1.16880563425432, -1.18891130364822], a = 0.2, v = 0.2, t = 0.2)
movej(p[0.376536441828787, -0.116402260672091, 0.306503456782829, -1.14888586712519, 1.17393454141439, -1.18321393827081], a = 0.2, v = 0.2, t = 0.2)
movej(p[0.37880950838778, -0.11661966071309, 0.30588262219893, -1.14858709575337, 1.18017963202455, -1.17700748205583], a = 0.2, v = 0.2, t = 0.2)
movej(p[0.382005382971932, -0.117587599302779, 0.305057103356649, -1.14807125541219, 1.18367784357578, -1.17882830179121], a = 0.2, v = 0.2, t = 0.2)
movej(p[0.384406302035124, -0.118644634287533, 0.304437335728413, -1.15382770963859, 1.18892019892572, -1.19016850649547], a = 0.2, v = 0.2, t = 0.2)
movej(p[0.385918239135047, -0.119458840648382, 0.304031380327133, -1.15578985721651, 1.19003111325536, -1.19159826113321], a = 0.2, v = 0.2, t = 0.2)
movej(p[0.386656172785287, -0.119658508102756, 0.30384625835246, -1.15616802806902, 1.19045214201685, -1.1918302342188], a = 0.2, v = 0.2, t = 0.2)
movej(p[0.387166614391414, -0.119854165199357, 0.303714394493558, -1.15725168215042, 1.19295926376816, -1.19267572058128], a = 0.2, v = 0.2, t = 0.2)
movej(p[0.387775064966915, -0.120332124057885, 0.303564239184874, -1.15975780074907, 1.19538389883438, -1.19108294527911], a = 0.2, v = 0.2, t = 0.2)
movej(p[0.388038065939722, -0.120374938230042, 0.303499336758377, -1.16142518392535, 1.19497339357941, -1.18694732889493], a = 0.2, v = 0.2, t = 0.2)
movej(p[0.388276216608947, -0.120369375327459, 0.303416304217389, -1.16169564539252, 1.19556711105804, -1.18643077465499], a = 0.2, v = 0.2, t = 0.2)
movej(p[0.388276227141221, -0.120370075049658, 0.303416287546598, -1.15781454384953, 1.20160473448915, -1.19238459231382], a = 0.2, v = 0.2, t = 0.2)
movej(p[0.387612964984777, -0.120384311911936, 0.303594814725429, -1.1578890237187, 1.20370455369988, -1.19913873796796], a = 0.2, v = 0.2, t = 0.2)
movej(p[0.38581949548152, -0.120077811067557, 0.304033020776597, -1.15615264121963, 1.20318658912848, -1.2063789268407], a = 0.2, v = 0.2, t = 0.2)
movej(p[0.38365067998484, -0.119340065460968, 0.304583712161423, -1.15233058898321, 1.19819035566418, -1.21273966764215], a = 0.2, v = 0.2, t = 0.2)
movej(p[0.381361911194603, -0.118562204605054, 0.305151024741639, -1.15170169191032, 1.19219209862085, -1.21856850420025], a = 0.2, v = 0.2, t = 0.2)
movej(p[0.379430788478527, -0.118230227564098, 0.305621259161619, -1.14904227311586, 1.18353833158305, -1.22349407400265], a = 0.2, v = 0.2, t = 0.2)
movej(p[0.377614293038935, -0.117659997469434, 0.306073278206662, -1.14663373132897, 1.17486536657848, -1.2250167573976], a = 0.2, v = 0.2, t = 0.2)
movej(p[0.37489624262665, -0.116583071286788, 0.306745327262466, -1.14407986880587, 1.16658870241618, -1.22439176811166], a = 0.2, v = 0.2, t = 0.2)
movej(p[0.372916996359786, -0.116058991952736, 0.307226053719743, -1.14280398569788, 1.15641952461007, -1.2216147717656], a = 0.2, v = 0.2, t = 0.2)
movej(p[0.37291498619991, -0.115925444973022, 0.307229235459282, -1.13959272145471, 1.15620886853633, -1.21185825918646], a = 0.2, v = 0.2, t = 0.2)
movej(p[0.373638209844645, -0.116008635794143, 0.307054537957933, -1.1378737094305, 1.16347996180675, -1.20410128899661], a = 0.2, v = 0.2, t = 0.2)
movej(p[0.375141118067053, -0.115976938366597, 0.306673611143299, -1.1397388409198, 1.17152989179433, -1.2001188571377], a = 0.2, v = 0.2, t = 0.2)
movej(p[0.377433981798518, -0.116681147837841, 0.306107955364987, -1.14058492445147, 1.17613853649962, -1.20104867476395], a = 0.2, v = 0.2, t = 0.2)
movej(p[0.380379242116438, -0.117797155907619, 0.305372292121457, -1.14041472430171, 1.18729734348898, -1.21241935668622], a = 0.2, v = 0.2, t = 0.2)
movej(p[0.38284945852916, -0.118468722807345, 0.304757880123275, -1.14405223623737, 1.19096320391805, -1.21334831839741], a = 0.2, v = 0.2, t = 0.2)
movej(p[0.384521646036748, -0.119047408055509, 0.304330237114418, -1.14281643833633, 1.19404232776792, -1.21695484355011], a = 0.2, v = 0.2, t = 0.2)
movej(p[0.385616685212744, -0.119576268865451, 0.304050040599913, -1.14374298281393, 1.19441126763722, -1.21737944153837], a = 0.2, v = 0.2, t = 0.2)
movej(p[0.386340374378995, -0.120109182130883, 0.303839692763752, -1.14920953782079, 1.19851829060599, -1.21519931821235], a = 0.2, v = 0.2, t = 0.2)
movej(p[0.386574629222613, -0.120124053698972, 0.303776300613575, -1.15083753824033, 1.19621574982016, -1.21276452927978], a = 0.2, v = 0.2, t = 0.2)
movej(p[0.386807171388666, -0.120102475550291, 0.303701948313632, -1.15098109170627, 1.19694269834419, -1.20935920758327], a = 0.2, v = 0.2, t = 0.2)
movej(p[0.386932469930584, -0.120115500274525, 0.303643364852212, -1.15263671870358, 1.19894088927919, -1.20792383644028], a = 0.2, v = 0.2, t = 0.2)
movej(p[0.386932224679042, -0.120099206743317, 0.303643753043488, -1.15190524262722, 1.21105414771297, -1.21018271767468], a = 0.2, v = 0.2, t = 0.2)
movej(p[0.385429794731987, -0.119965554202858, 0.303975251735221, -1.15308150707792, 1.21036459017473, -1.21145881558624], a = 0.2, v = 0.2, t = 0.2)
movej(p[0.383313678238304, -0.119164691524713, 0.304500786801526, -1.15146690039319, 1.20290516671097, -1.22309802337346], a = 0.2, v = 0.2, t = 0.2)
movej(p[0.381043282588299, -0.118542865862617, 0.305053391016493, -1.14590718722861, 1.19296411313103, -1.23104588865192], a = 0.2, v = 0.2, t = 0.2)
movej(p[0.379305159263554, -0.118348470652183, 0.305436753951759, -1.1462640022103, 1.1862640581788, -1.23039203113292], a = 0.2, v = 0.2, t = 0.2)
movej(p[0.377278928647057, -0.117539624905181, 0.305948538756465, -1.14474965474796, 1.18207097659576, -1.23035890703897], a = 0.2, v = 0.2, t = 0.2)
movej(p[0.37541146694634, -0.116776165135158, 0.306412321847915, -1.14770991674642, 1.17524721520918, -1.22057814842375], a = 0.2, v = 0.2, t = 0.2)
movej(p[0.375404183126012, -0.116292257254323, 0.306423850890661, -1.14909802985524, 1.16635925097629, -1.19981701540238], a = 0.2, v = 0.2, t = 0.2)
movej(p[0.376003496291785, -0.116280977438133, 0.306329037942822, -1.14069917687472, 1.17157919366621, -1.18792642042737], a = 0.2, v = 0.2, t = 0.2)
movej(p[0.380094991978523, -0.116957694197659, 0.305388860362375, -1.14312739790625, 1.17388833279127, -1.18642219825791], a = 0.2, v = 0.2, t = 0.2)
movej(p[0.381986025956701, -0.117524280873274, 0.30492338539807, -1.14514947083151, 1.18215506547717, -1.19150904525918], a = 0.2, v = 0.2, t = 0.2)
movej(p[0.383199157811631, -0.1180374221263, 0.304603866311009, -1.1468624877782, 1.18727506717953, -1.19953654824921], a = 0.2, v = 0.2, t = 0.2)
movej(p[0.38493461249944, -0.118940219816828, 0.304139933377776, -1.15414596623041, 1.19019211769279, -1.20117407869252], a = 0.2, v = 0.2, t = 0.2)
movej(p[0.385706415284421, -0.11942318059421, 0.303908223691734, -1.15707055820756, 1.19304078217627, -1.19931941825105], a = 0.2, v = 0.2, t = 0.2)
movej(p[0.386265653745691, -0.11952378592599, 0.303773007381129, -1.15865386261282, 1.19423210525158, -1.19482583850891], a = 0.2, v = 0.2, t = 0.2)
movej(p[0.386580221712818, -0.119600449318296, 0.303700197022403, -1.15896018949106, 1.19364754740585, -1.19386391844923], a = 0.2, v = 0.2, t = 0.2)
movej(p[0.387106092555854, -0.120025494742578, 0.303519181929822, -1.16263702203017, 1.19721119785392, -1.19152418136919], a = 0.2, v = 0.2, t = 0.2)
movej(p[0.387373925728176, -0.1200201161976, 0.303462640236729, -1.16470840249683, 1.20030153967294, -1.18316791449414], a = 0.2, v = 0.2, t = 0.2)
movej(p[0.387690936119066, -0.120013908881823, 0.303402381782561, -1.16470840249683, 1.20030153967294, -1.18316791449414], a = 0.2, v = 0.2, t = 0.2)
movej(p[0.387692282745629, -0.120103373362994, 0.303400250302855, -1.16144039584603, 1.20288732070888, -1.1889972900344], a = 0.2, v = 0.2, t = 0.2)
movej(p[0.387345654271705, -0.120109681254588, 0.303446018103419, -1.16087328712423, 1.2020115126562, -1.19500248233589], a = 0.2, v = 0.2, t = 0.2)
movej(p[0.385461455440698, -0.119624240382586, 0.303928979328591, -1.15865922917528, 1.20312998006522, -1.19853866111136], a = 0.2, v = 0.2, t = 0.2)
movej(p[0.383583100748308, -0.118822623096467, 0.30443448875103, -1.15626903520469, 1.20374591584939, -1.20115027689964], a = 0.2, v = 0.2, t = 0.2)
movej(p[0.38182574526013, -0.118253394910123, 0.304886144028915, -1.15180311748659, 1.19360869213676, -1.21132556437013], a = 0.2, v = 0.2, t = 0.2)
movej(p[0.380422141183772, -0.118111678946587, 0.305201968905246, -1.15065995360348, 1.1883876579222, -1.21617638524338], a = 0.2, v = 0.2, t = 0.2)
movej(p[0.379147531592729, -0.117620237681662, 0.305545269886238, -1.1537081098575, 1.18460410952884, -1.21794195461648], a = 0.2, v = 0.2, t = 0.2)
movej(p[0.377634930110474, -0.117111464958194, 0.305921934474081, -1.14624241558189, 1.17832774970743, -1.22111139715675], a = 0.2, v = 0.2, t = 0.2)
movej(p[0.376483445508434, -0.11669932632399, 0.306253634168778, -1.14953998603682, 1.16251162525436, -1.21176337961167], a = 0.2, v = 0.2, t = 0.2)
movej(p[0.376482630009443, -0.116645147833716, 0.30625492496431, -1.14466407453297, 1.1591645440835, -1.18829602818042], a = 0.2, v = 0.2, t = 0.2)
movej(p[0.379024705753806, -0.116595044618971, 0.305757978460356, -1.14685033020809, 1.17415434121091, -1.17384693514692], a = 0.2, v = 0.2, t = 0.2)
movej(p[0.381773880879284, -0.11720487964706, 0.305159936941757, -1.14741408274147, 1.17611281808012, -1.17404508512765], a = 0.2, v = 0.2, t = 0.2)
movej(p[0.382700461443335, -0.117436802581159, 0.304948826778661, -1.15105101310762, 1.17464810986763, -1.17898038687454], a = 0.2, v = 0.2, t = 0.2)
movej(p[0.384780433278527, -0.118413215165182, 0.304382830567925, -1.15345816966445, 1.17904917595141, -1.18776962523178], a = 0.2, v = 0.2, t = 0.2)
movej(p[0.38626163922896, -0.119274472952826, 0.303967233087634, -1.16164509947092, 1.18497428445052, -1.18752767466674], a = 0.2, v = 0.2, t = 0.2)
movej(p[0.386835577774141, -0.119567979029409, 0.303787733256533, -1.16489516641996, 1.18809344110459, -1.18548621235822], a = 0.2, v = 0.2, t = 0.2)
movej(p[0.387150942899536, -0.119578669237153, 0.303747044595422, -1.16187383448984, 1.19188593656562, -1.17960705150121], a = 0.2, v = 0.2, t = 0.2)
movej(p[0.387372722155569, -0.119836500907488, 0.303674245616268, -1.16444786879859, 1.19434449632127, -1.17797658877759], a = 0.2, v = 0.2, t = 0.2)
movej(p[0.387466556431959, -0.119841862453123, 0.303647845002587, -1.16577415316429, 1.19375056518613, -1.18004238385637], a = 0.2, v = 0.2, t = 0.2)
movej(p[0.387467113137913, -0.119878847769361, 0.303646963832205, -1.16279658922727, 1.19314595253977, -1.18321012371875], a = 0.2, v = 0.2, t = 0.2)
movej(p[0.387178417641973, -0.119884613781734, 0.303706588271203, -1.15997381751985, 1.199308295128, -1.19419143115725], a = 0.2, v = 0.2, t = 0.2)
movej(p[0.385577421461788, -0.119565017427037, 0.304069450725995, -1.15836276839526, 1.20149553561007, -1.19665260694719], a = 0.2, v = 0.2, t = 0.2)
movej(p[0.384033634248316, -0.11923295293869, 0.304398620158201, -1.15715833181184, 1.19869993836293, -1.21076323354879], a = 0.2, v = 0.2, t = 0.2)
movej(p[0.382586695943014, -0.118576089892547, 0.304790250825107, -1.15447334802408, 1.19719651800297, -1.21490440487942], a = 0.2, v = 0.2, t = 0.2)
movej(p[0.381317816583089, -0.118317090016264, 0.305101444870746, -1.15447856319483, 1.19529301709387, -1.21682947046357], a = 0.2, v = 0.2, t = 0.2)
movej(p[0.380864951831216, -0.118178874869424, 0.305157116943595, -1.15398910469432, 1.19078883161794, -1.21795772150368], a = 0.2, v = 0.2, t = 0.2)
movej(p[0.380598843916714, -0.118186017351955, 0.30528878627481, -1.15683483107699, 1.18255897701062, -1.21212911963512], a = 0.2, v = 0.2, t = 0.2)
movej(p[0.380590919132233, -0.117659526377288, 0.305301329854266, -1.14910193001019, 1.1790465671581, -1.18123580299128], a = 0.2, v = 0.2, t = 0.2)
movej(p[0.382277928275026, -0.117628959520414, 0.305084167727289, -1.14767875378338, 1.17991605909711, -1.17963015952274], a = 0.2, v = 0.2, t = 0.2)
movej(p[0.383323256706, -0.117859053481269, 0.304846118949563, -1.14767875378338, 1.17991605909711, -1.17963015952274], a = 0.2, v = 0.2, t = 0.2)
movej(p[0.384798442499174, -0.11854209508718, 0.304441605253612, -1.15607451660472, 1.18837459102175, -1.17757775070295], a = 0.2, v = 0.2, t = 0.2)
movej(p[0.386092557590806, -0.118981507085985, 0.304135459365323, -1.15628619375213, 1.18998663907164, -1.18270489280013], a = 0.2, v = 0.2, t = 0.2)
movej(p[0.386678873415638, -0.119433823141661, 0.303927960186218, -1.15879740831668, 1.18840269651862, -1.18534281429335], a = 0.2, v = 0.2, t = 0.2)
movej(p[0.386899035866797, -0.119639240182715, 0.303862796819637, -1.15981838958757, 1.18938147232764, -1.18469895338935], a = 0.2, v = 0.2, t = 0.2)
movej(p[0.38737257646941, -0.119998857960008, 0.303694838485721, -1.16220026663873, 1.19107766634367, -1.17905965955967], a = 0.2, v = 0.2, t = 0.2)
movej(p[0.387872094181613, -0.120021705802361, 0.303613150718612, -1.16246423959001, 1.19066509035044, -1.17865163034115], a = 0.2, v = 0.2, t = 0.2)
movej(p[0.388008714509197, -0.120113542530401, 0.303586104619564, -1.1627778113498, 1.1904636404002, -1.17897277094955], a = 0.2, v = 0.2, t = 0.2)
movej(p[0.388008714509197, -0.120113542530401, 0.303586104619564, -1.16229547235536, 1.19901004969842, -1.18771223857825], a = 0.2, v = 0.2, t = 0.2)
movej(p[0.386931902760954, -0.120027783132105, 0.303752921418626, -1.16085567077492, 1.20129588102481, -1.19004212677517], a = 0.2, v = 0.2, t = 0.2)
movej(p[0.385237597343544, -0.119367548742494, 0.304161687309214, -1.15796190116349, 1.19902983692437, -1.19580952654369], a = 0.2, v = 0.2, t = 0.2)
movej(p[0.38311805521792, -0.118969706155901, 0.304612002492169, -1.15643755973166, 1.19353580645552, -1.20538650539541], a = 0.2, v = 0.2, t = 0.2)
movej(p[0.3814465492409, -0.118566685755992, 0.304968489428877, -1.15527174951425, 1.19226519692258, -1.20625738963305], a = 0.2, v = 0.2, t = 0.2)
movej(p[0.379348480327151, -0.117864658075033, 0.305433866800831, -1.15713192008323, 1.18723617396643, -1.20606838474523], a = 0.2, v = 0.2, t = 0.2)
movej(p[0.377564392484879, -0.117386318829956, 0.305807868736223, -1.15432813566109, 1.17950768691048, -1.21148642264754], a = 0.2, v = 0.2, t = 0.2)
movej(p[0.375839303441127, -0.117083616799072, 0.306175791135139, -1.14738000376588, 1.16944022915521, -1.21455913794112], a = 0.2, v = 0.2, t = 0.2)
movej(p[0.374235392489604, -0.116852879492129, 0.306479025293458, -1.14369229901453, 1.16412377539307, -1.21391119444824], a = 0.2, v = 0.2, t = 0.2)
movej(p[0.372704452905335, -0.116112443257147, 0.306828501989741, -1.14082762683701, 1.15509307684001, -1.20323217679412], a = 0.2, v = 0.2, t = 0.2)
movej(p[0.372699511763844, -0.115784173585454, 0.306836322972261, -1.13798276291853, 1.15560519859879, -1.19641731206476], a = 0.2, v = 0.2, t = 0.2)
movej(p[0.373555674071806, -0.115768873608667, 0.306735044232458, -1.1422747374513, 1.16493092640948, -1.18856076748575], a = 0.2, v = 0.2, t = 0.2)
movej(p[0.375090210120308, -0.116231818529437, 0.306388629558721, -1.14206695509196, 1.16658602102193, -1.18883449063437], a = 0.2, v = 0.2, t = 0.2)
movej(p[0.376981597029679, -0.116705688955497, 0.305983025726926, -1.1424713590719, 1.1812142623221, -1.19370401017281], a = 0.2, v = 0.2, t = 0.2)
movej(p[0.379335700891015, -0.117355875746905, 0.305477002964274, -1.13878402102174, 1.18756449165682, -1.19972252689421], a = 0.2, v = 0.2, t = 0.2)
movej(p[0.380914467051296, -0.117985583709324, 0.30509121678876, -1.14244757623109, 1.19245778314608, -1.21505355178867], a = 0.2, v = 0.2, t = 0.2)
movej(p[0.38153445970472, -0.11837728650482, 0.304901248265841, -1.14472469718742, 1.19107373583059, -1.21725982515959], a = 0.2, v = 0.2, t = 0.2)
movej(p[0.384408786708452, -0.11946700057425, 0.304197042143668, -1.14589172474323, 1.18924807682803, -1.21543467809407], a = 0.2, v = 0.2, t = 0.2)
movej(p[0.386044538720571, -0.120129576695598, 0.303811782103868, -1.15660939694178, 1.18837855586817, -1.19434913524689], a = 0.2, v = 0.2, t = 0.2)
movej(p[0.387115969433602, -0.120811526751814, 0.303438086321175, -1.15635242875265, 1.18889464695029, -1.19372974861624], a = 0.2, v = 0.2, t = 0.2)
movej(p[0.387448223928534, -0.120879311994276, 0.303339724735677, -1.15609614630572, 1.189296164046, -1.19412855847906], a = 0.2, v = 0.2, t = 0.2)
movej(p[0.387448223928534, -0.120879311994276, 0.303339724735677, -1.15545332086268, 1.18957582826607, -1.19780612705931], a = 0.2, v = 0.2, t = 0.2)
movej(p[0.386023644211902, -0.120567600379304, 0.303620119243563, -1.15345053772165, 1.19457096414892, -1.22819913623151], a = 0.2, v = 0.2, t = 0.2)
movej(p[0.383800683952815, -0.119947901058836, 0.304128181541645, -1.14988958317005, 1.19805723490478, -1.23417630579138], a = 0.2, v = 0.2, t = 0.2)
movej(p[0.381761046687123, -0.119323676008326, 0.304549508565124, -1.1492171229445, 1.1973782116289, -1.23460807605411], a = 0.2, v = 0.2, t = 0.2)
movej(p[0.379120068986378, -0.118447777437623, 0.305150489228713, -1.14592548625865, 1.18889254519105, -1.23809903589916], a = 0.2, v = 0.2, t = 0.2)
movej(p[0.376627672394683, -0.117651755042465, 0.305712841268024, -1.14070322159008, 1.18237305850234, -1.24124784096221], a = 0.2, v = 0.2, t = 0.2)
movej(p[0.374411358425628, -0.117203179105607, 0.306118258817526, -1.13757985991621, 1.17335014709657, -1.24500894584687], a = 0.2, v = 0.2, t = 0.2)
movej(p[0.372309868601213, -0.116391849517836, 0.306600012102815, -1.13694848354158, 1.16754404545516, -1.24341908816339], a = 0.2, v = 0.2, t = 0.2)
movej(p[0.371261336753984, -0.115967003484213, 0.306841294806427, -1.1402819906389, 1.15552403311447, -1.2316659600871], a = 0.2, v = 0.2, t = 0.2)
movej(p[0.371159148604294, -0.115483238301938, 0.306966813093865, -1.13141922893912, 1.15947953571367, -1.2175828706764], a = 0.2, v = 0.2, t = 0.2)
movej(p[0.371158238314829, -0.115422762311873, 0.306968253926516, -1.13198092412696, 1.15954800593453, -1.20952995016484], a = 0.2, v = 0.2, t = 0.2)
movej(p[0.371892370603468, -0.115471281153318, 0.306928171451495, -1.13482621162917, 1.16617713007519, -1.19781584649416], a = 0.2, v = 0.2, t = 0.2)
movej(p[0.373252203756779, -0.115469669148494, 0.30669088102481, -1.13757336654932, 1.1707314604585, -1.19418872730316], a = 0.2, v = 0.2, t = 0.2)
movej(p[0.375027469391981, -0.115784492985949, 0.306363770774526, -1.1357525198032, 1.17793926883366, -1.19876394900575], a = 0.2, v = 0.2, t = 0.2)
movej(p[0.376257969292349, -0.116321910231479, 0.306053811874993, -1.13950193537362, 1.1844067677196, -1.2010142832788], a = 0.2, v = 0.2, t = 0.2)
movej(p[0.376774252759551, -0.116543903549001, 0.305914123942551, -1.13958856812744, 1.18679067650995, -1.20262579250346], a = 0.2, v = 0.2, t = 0.2)
movej(p[0.380937106372075, -0.117902721057793, 0.304974102177647, -1.14525620088553, 1.19332528723466, -1.20278111087663], a = 0.2, v = 0.2, t = 0.2)
movej(p[0.383845118913882, -0.118710312866567, 0.304395719521358, -1.14616815681275, 1.19421494010688, -1.20219970919475], a = 0.2, v = 0.2, t = 0.2)
movej(p[0.385875577143407, -0.119940153385854, 0.303749202912698, -1.15390027723173, 1.18597785330898, -1.19067535878879], a = 0.2, v = 0.2, t = 0.2)
movej(p[0.38646903097305, -0.120080893505992, 0.303627997217015, -1.15415993448274, 1.18633757618708, -1.19038227063861], a = 0.2, v = 0.2, t = 0.2)
movej(p[0.386997076133985, -0.120218811735527, 0.303519181960847, -1.15426197485506, 1.18646571511488, -1.1886554761871], a = 0.2, v = 0.2, t = 0.2)
movej(p[0.387244613867669, -0.120363226148798, 0.303451225153669, -1.15427378069304, 1.18645687987311, -1.18819249227463], a = 0.2, v = 0.2, t = 0.2)
movej(p[0.387244613867669, -0.120363226148798, 0.303451225153669, -1.15427378069304, 1.18645687987311, -1.18819249227463], a = 0.2, v = 0.2, t = 0.2)
movej(p[0.386982392819902, -0.120112314610555, 0.303570586169432, -1.15223459997108, 1.19377146473885, -1.19673744096177], a = 0.2, v = 0.2, t = 0.2)
movej(p[0.385479127646843, -0.119488830766887, 0.303941996974544, -1.14907192869809, 1.20077555664104, -1.2073997234695], a = 0.2, v = 0.2, t = 0.2)
movej(p[0.383779595915859, -0.118826427536979, 0.304340407587338, -1.1514982529946, 1.19606262435763, -1.21361294103674], a = 0.2, v = 0.2, t = 0.2)
movej(p[0.381889037108636, -0.118694148096993, 0.304568306460058, -1.15371611239472, 1.18489904028252, -1.22560119370647], a = 0.2, v = 0.2, t = 0.2)
movej(p[0.379594120502718, -0.117985017928698, 0.305047898991586, -1.14976523318963, 1.17208368851748, -1.22474464067421], a = 0.2, v = 0.2, t = 0.2)
movej(p[0.377109780735039, -0.117137020518061, 0.305604659487924, -1.1454644962404, 1.16527262676962, -1.22436221716805], a = 0.2, v = 0.2, t = 0.2)
movej(p[0.374697173493642, -0.116465968368985, 0.306079722254278, -1.14045691723753, 1.16510375087007, -1.218148227189], a = 0.2, v = 0.2, t = 0.2)
movej(p[0.37319734188212, -0.115671685323109, 0.306540161218869, -1.14101140667129, 1.15613273937179, -1.20677834945534], a = 0.2, v = 0.2, t = 0.2)
movej(p[0.373197337368288, -0.115671385442167, 0.306540168363494, -1.14507145117703, 1.14860306898653, -1.19725112623663], a = 0.2, v = 0.2, t = 0.2)
movej(p[0.375825838198644, -0.115626697402073, 0.30631251745994, -1.13968147506392, 1.15747451956291, -1.18661871136331], a = 0.2, v = 0.2, t = 0.2)
movej(p[0.379308463932727, -0.11637644802005, 0.305710093882094, -1.14430889718122, 1.16633998316177, -1.18436222717967], a = 0.2, v = 0.2, t = 0.2)
movej(p[0.381867956691337, -0.117572726422178, 0.305030452187357, -1.14579099308026, 1.17231069773101, -1.18261094553401], a = 0.2, v = 0.2, t = 0.2)
movej(p[0.382660969426778, -0.117926917827734, 0.304819773356767, -1.14420172268381, 1.17718495543427, -1.17708030523104], a = 0.2, v = 0.2, t = 0.2)
movej(p[0.385114714506662, -0.118482158625426, 0.304414143501452, -1.14432801686943, 1.17748675608411, -1.17707135420597], a = 0.2, v = 0.2, t = 0.2)
movej(p[0.385799932003825, -0.118893543076582, 0.304243289689879, -1.15238083231199, 1.18149783030059, -1.1894843112123], a = 0.2, v = 0.2, t = 0.2)
movej(p[0.386779083478241, -0.11978656671093, 0.303810865917816, -1.15269788374024, 1.18247481262044, -1.18953724627446], a = 0.2, v = 0.2, t = 0.2)
movej(p[0.387065594276649, -0.119918398290598, 0.303730671360657, -1.1528844439787, 1.18345383865879, -1.18958772432209], a = 0.2, v = 0.2, t = 0.2)
movej(p[0.387154693536769, -0.119968453921227, 0.303683490266049, -1.1529479370373, 1.18380635522852, -1.18963358035597], a = 0.2, v = 0.2, t = 0.2)
movej(p[0.387540435923205, -0.12000937507938, 0.30366706558577, -1.15295466039891, 1.18428340924244, -1.18980408790038], a = 0.2, v = 0.2, t = 0.2)
movej(p[0.387739136242584, -0.120226399466139, 0.303538070358609, -1.15319103959335, 1.18435270779856, -1.19066439973986], a = 0.2, v = 0.2, t = 0.2)
movej(p[0.387739136242584, -0.120226399466139, 0.303538070358609, -1.15331190201435, 1.18435570275394, -1.1912050990867], a = 0.2, v = 0.2, t = 0.2)
movej(p[0.386862974290731, -0.119910189462707, 0.303732593976336, -1.1523298406137, 1.18580662126969, -1.1928254945811], a = 0.2, v = 0.2, t = 0.2)
movej(p[0.385059001298312, -0.119188072732942, 0.304183019787339, -1.15074644605813, 1.18873988132034, -1.19657582704848], a = 0.2, v = 0.2, t = 0.2)
movej(p[0.383350371775688, -0.118449735412362, 0.304625904033456, -1.15180002770013, 1.19623349355191, -1.19824965290641], a = 0.2, v = 0.2, t = 0.2)
movej(p[0.381724466215854, -0.118257702978528, 0.304826623900074, -1.1509666410343, 1.19752712534296, -1.19953495037036], a = 0.2, v = 0.2, t = 0.2)
movej(p[0.379925819246556, -0.117381449057914, 0.305348604863756, -1.14631501774783, 1.19151371893003, -1.20400703854651], a = 0.2, v = 0.2, t = 0.2)
movej(p[0.37780526295224, -0.11680543361526, 0.305789791255724, -1.15204881194124, 1.17309305590169, -1.21683394959046], a = 0.2, v = 0.2, t = 0.2)
movej(p[0.376435097937156, -0.116763015360912, 0.305856257887494, -1.1553365169573, 1.16248481657088, -1.20948558473957], a = 0.2, v = 0.2, t = 0.2)
movej(p[0.376424084098369, -0.116332456332545, 0.306093336563143, -1.14612943448446, 1.16166411415687, -1.18061443439333], a = 0.2, v = 0.2, t = 0.2)
movej(p[0.377054991114026, -0.116323260270756, 0.306105945291967, -1.14783013418521, 1.16326397729742, -1.17957718659976], a = 0.2, v = 0.2, t = 0.2)
movej(p[0.380107994032151, -0.116748986674382, 0.305652174445418, -1.14958540439194, 1.16956108077272, -1.17860281771161], a = 0.2, v = 0.2, t = 0.2)
movej(p[0.383400535606818, -0.118108284700811, 0.304824916574839, -1.14734087982597, 1.17200967456942, -1.17880488024685], a = 0.2, v = 0.2, t = 0.2)
movej(p[0.384347710903089, -0.118440015952944, 0.30461710590502, -1.14975905713098, 1.17624535771499, -1.17805633423096], a = 0.2, v = 0.2, t = 0.2)
movej(p[0.385579909655549, -0.118782530208393, 0.304395321822521, -1.15666171446972, 1.18814244672006, -1.18604626546132], a = 0.2, v = 0.2, t = 0.2)
movej(p[0.386859723227971, -0.119606374964716, 0.303923947239704, -1.15839087959453, 1.18709485132526, -1.18773844571991], a = 0.2, v = 0.2, t = 0.2)
movej(p[0.38743815328451, -0.120012566373956, 0.303707000751482, -1.15955245017118, 1.18576947259679, -1.18697235923588], a = 0.2, v = 0.2, t = 0.2)
