def moving():
set_payload_mass(0)
set_tcp(p[0,0,0,0,0,0])
movej(p[-0.516, -0.227, 0.4099, -0.87, -1.578, 1.668], a = 0.2, v = 0.2, t = 0.2)
movej(p[-0.515994174096897, -0.226990956623919, 0.410119496808066, -0.87, -1.578, 1.668], a = 0.2, v = 0.2, t = 0.2)
movej(p[-0.515988348193794, -0.226981913247839, 0.410338993616132, -0.87, -1.578, 1.668], a = 0.2, v = 0.2, t = 0.2)
movej(p[-0.515982522290691, -0.226972869871758, 0.410558490424198, -0.87, -1.578, 1.668], a = 0.2, v = 0.2, t = 0.2)
movej(p[-0.515976696387588, -0.226963826495677, 0.410777987232263, -0.87, -1.578, 1.668], a = 0.2, v = 0.2, t = 0.2)
movej(p[-0.515970870484485, -0.226954783119596, 0.410997484040329, -0.87, -1.578, 1.668], a = 0.2, v = 0.2, t = 0.2)
movej(p[-0.515965044581382, -0.226945739743516, 0.411216980848395, -0.87, -1.578, 1.668], a = 0.2, v = 0.2, t = 0.2)
movej(p[-0.515959218678279, -0.226936696367435, 0.411436477656461, -0.87, -1.578, 1.668], a = 0.2, v = 0.2, t = 0.2)
movej(p[-0.515953392775176, -0.226927652991354, 0.411655974464527, -0.87, -1.578, 1.668], a = 0.2, v = 0.2, t = 0.2)
movej(p[-0.515947566872073, -0.226918609615273, 0.411875471272593, -0.87, -1.578, 1.668], a = 0.2, v = 0.2, t = 0.2)
movej(p[-0.515941740968971, -0.226909566239193, 0.412094968080658, -0.87, -1.578, 1.668], a = 0.2, v = 0.2, t = 0.2)
movej(p[-0.515957032760917, -0.226933303232939, 0.411518834310066, -0.87, -1.578, 1.668], a = 0.2, v = 0.2, t = 0.2)
movej(p[-0.515965559764549, -0.22694653944702, 0.411197570800078, -0.87, -1.578, 1.668], a = 0.2, v = 0.2, t = 0.2)
movej(p[-0.515973022698276, -0.226958123937041, 0.410916397202969, -0.87, -1.578, 1.668], a = 0.2, v = 0.2, t = 0.2)
movej(p[-0.515975651576866, -0.226962204667074, 0.410817351535859, -0.87, -1.578, 1.668], a = 0.2, v = 0.2, t = 0.2)
movej(p[-0.515976470092178, -0.226963475224044, 0.410786513141337, -0.87, -1.578, 1.668], a = 0.2, v = 0.2, t = 0.2)
movej(p[-0.515977264533511, -0.226964708411692, 0.410756581758419, -0.87, -1.578, 1.668], a = 0.2, v = 0.2, t = 0.2)
movej(p[-0.515980206373838, -0.226969274942919, 0.410645744940462, -0.87, -1.578, 1.668], a = 0.2, v = 0.2, t = 0.2)
movej(p[-0.515977471569737, -0.226965029787866, 0.410748781458628, -0.87, -1.578, 1.668], a = 0.2, v = 0.2, t = 0.2)
movej(p[-0.515959493121649, -0.226937122377713, 0.41142613772418, -0.87, -1.578, 1.668], a = 0.2, v = 0.2, t = 0.2)
movej(p[-0.515935780251581, -0.226900313594905, 0.412319544153704, -0.87, -1.578, 1.668], a = 0.2, v = 0.2, t = 0.2)
movej(p[-0.515909972945274, -0.226860253681027, 0.41329186059274, -0.87, -1.578, 1.668], a = 0.2, v = 0.2, t = 0.2)
movej(p[-0.51587541715472, -0.226806613755298, 0.414593785048515, -0.87, -1.578, 1.668], a = 0.2, v = 0.2, t = 0.2)
movej(p[-0.515846711341249, -0.226762054574973, 0.415675305684622, -0.87, -1.578, 1.668], a = 0.2, v = 0.2, t = 0.2)
movej(p[-0.515840582106001, -0.226752540345427, 0.415906230838893, -0.87, -1.578, 1.668], a = 0.2, v = 0.2, t = 0.2)
movej(p[-0.515870144953152, -0.226798429873639, 0.414792420589699, -0.87, -1.578, 1.668], a = 0.2, v = 0.2, t = 0.2)
movej(p[-0.515910719238646, -0.226861412130029, 0.413263743233029, -0.87, -1.578, 1.668], a = 0.2, v = 0.2, t = 0.2)
movej(p[-0.515940402455696, -0.226907488504854, 0.412145397925817, -0.87, -1.578, 1.668], a = 0.2, v = 0.2, t = 0.2)
movej(p[-0.515962463850752, -0.226941733752128, 0.411314212492299, -0.87, -1.578, 1.668], a = 0.2, v = 0.2, t = 0.2)
movej(p[-0.51596996048805, -0.2269533705592, 0.411031769078944, -0.87, -1.578, 1.668], a = 0.2, v = 0.2, t = 0.2)
movej(p[-0.515973287512054, -0.22695853499959, 0.41090642007533, -0.87, -1.578, 1.668], a = 0.2, v = 0.2, t = 0.2)
movej(p[-0.515977259718715, -0.226964700937827, 0.41075676316074, -0.87, -1.578, 1.668], a = 0.2, v = 0.2, t = 0.2)
movej(p[-0.515977697865146, -0.226965381059499, 0.410740255549555, -0.87, -1.578, 1.668], a = 0.2, v = 0.2, t = 0.2)
movej(p[-0.515970326412543, -0.226953938572905, 0.41101798250257, -0.87, -1.578, 1.668], a = 0.2, v = 0.2, t = 0.2)
movej(p[-0.515948645386367, -0.226920283760928, 0.411834837152752, -0.87, -1.578, 1.668], a = 0.2, v = 0.2, t = 0.2)
movej(p[-0.515921335863722, -0.226877892001317, 0.412863751115851, -0.87, -1.578, 1.668], a = 0.2, v = 0.2, t = 0.2)
movej(p[-0.515889076730838, -0.226827817108969, 0.414079146664645, -0.87, -1.578, 1.668], a = 0.2, v = 0.2, t = 0.2)
movej(p[-0.515858700183172, -0.226780664497652, 0.41522361390604, -0.87, -1.578, 1.668], a = 0.2, v = 0.2, t = 0.2)
movej(p[-0.515842315432544, -0.226755230936658, 0.415840926003435, -0.87, -1.578, 1.668], a = 0.2, v = 0.2, t = 0.2)
movej(p[-0.51585603760101, -0.226776531450567, 0.415323929389396, -0.87, -1.578, 1.668], a = 0.2, v = 0.2, t = 0.2)
movej(p[-0.515892967085968, -0.226833855991509, 0.413932573589507, -0.87, -1.578, 1.668], a = 0.2, v = 0.2, t = 0.2)
movej(p[-0.515929222499493, -0.226890134191416, 0.412566614114519, -0.87, -1.578, 1.668], a = 0.2, v = 0.2, t = 0.2)
movej(p[-0.515956763132343, -0.226932884696525, 0.411528992840026, -0.87, -1.578, 1.668], a = 0.2, v = 0.2, t = 0.2)
movej(p[-0.515967139017622, -0.226948990874586, 0.411138070838884, -0.87, -1.578, 1.668], a = 0.2, v = 0.2, t = 0.2)
movej(p[-0.515972541218681, -0.226957376550588, 0.410934537435041, -0.87, -1.578, 1.668], a = 0.2, v = 0.2, t = 0.2)
movej(p[-0.515975714169214, -0.226962301827313, 0.410814993305689, -0.87, -1.578, 1.668], a = 0.2, v = 0.2, t = 0.2)
movej(p[-0.515978280455457, -0.226966285397107, 0.410718305868748, -0.87, -1.578, 1.668], a = 0.2, v = 0.2, t = 0.2)
movej(p[-0.515976094538094, -0.226962892262611, 0.410800662522353, -0.87, -1.578, 1.668], a = 0.2, v = 0.2, t = 0.2)
movej(p[-0.515960629413494, -0.226938886209742, 0.411383326776491, -0.87, -1.578, 1.668], a = 0.2, v = 0.2, t = 0.2)
movej(p[-0.515937465430164, -0.22690292944749, 0.412256053341454, -0.87, -1.578, 1.668], a = 0.2, v = 0.2, t = 0.2)
movej(p[-0.515902567789098, -0.22684875887738, 0.413570857362, -0.87, -1.578, 1.668], a = 0.2, v = 0.2, t = 0.2)
movej(p[-0.51587193124245, -0.226801202677379, 0.414725120328714, -0.87, -1.578, 1.668], a = 0.2, v = 0.2, t = 0.2)
movej(p[-0.515849879476986, -0.226766972377834, 0.415555942957591, -0.87, -1.578, 1.668], a = 0.2, v = 0.2, t = 0.2)
movej(p[-0.515841482472844, -0.226753937958094, 0.415872308604919, -0.87, -1.578, 1.668], a = 0.2, v = 0.2, t = 0.2)
movej(p[-0.515861223136251, -0.226784580802665, 0.415128559089985, -0.87, -1.578, 1.668], a = 0.2, v = 0.2, t = 0.2)
movej(p[-0.515903655932983, -0.226850447970764, 0.413529860437519, -0.87, -1.578, 1.668], a = 0.2, v = 0.2, t = 0.2)
movej(p[-0.515940898379679, -0.2269082583129, 0.412126713486784, -0.87, -1.578, 1.668], a = 0.2, v = 0.2, t = 0.2)
movej(p[-0.51595793312776, -0.226934700845606, 0.411484912076092, -0.87, -1.578, 1.668], a = 0.2, v = 0.2, t = 0.2)
movej(p[-0.515967784200279, -0.226949992372433, 0.411113762927908, -0.87, -1.578, 1.668], a = 0.2, v = 0.2, t = 0.2)
movej(p[-0.515973744917669, -0.22695924501672, 0.410889186854862, -0.87, -1.578, 1.668], a = 0.2, v = 0.2, t = 0.2)
movej(p[-0.515977081571264, -0.226964424404839, 0.410763475046606, -0.87, -1.578, 1.668], a = 0.2, v = 0.2, t = 0.2)
movej(p[-0.515977630458003, -0.226965276425396, 0.410742795182045, -0.87, -1.578, 1.668], a = 0.2, v = 0.2, t = 0.2)
movej(p[-0.515970937891629, -0.2269548877537, 0.410994944407839, -0.87, -1.578, 1.668], a = 0.2, v = 0.2, t = 0.2)
movej(p[-0.515949377235352, -0.226921419788337, 0.411807264000004, -0.87, -1.578, 1.668], a = 0.2, v = 0.2, t = 0.2)
movej(p[-0.51591462885296, -0.226867480908027, 0.413116444548608, -0.87, -1.578, 1.668], a = 0.2, v = 0.2, t = 0.2)
movej(p[-0.515880906022106, -0.226815133960862, 0.4143869864029, -0.87, -1.578, 1.668], a = 0.2, v = 0.2, t = 0.2)
movej(p[-0.515859099811236, -0.226781284828408, 0.415208557513421, -0.87, -1.578, 1.668], a = 0.2, v = 0.2, t = 0.2)
movej(p[-0.515838829520274, -0.226749819858739, 0.415972261283633, -0.87, -1.578, 1.668], a = 0.2, v = 0.2, t = 0.2)
movej(p[-0.515845266902463, -0.226759812415615, 0.415729726380836, -0.87, -1.578, 1.668], a = 0.2, v = 0.2, t = 0.2)
movej(p[-0.515888600066039, -0.22682707719638, 0.414097105494396, -0.87, -1.578, 1.668], a = 0.2, v = 0.2, t = 0.2)
movej(p[-0.515932693967375, -0.226895522847742, 0.412435823041283, -0.87, -1.578, 1.668], a = 0.2, v = 0.2, t = 0.2)
movej(p[-0.515954606103757, -0.226929536405216, 0.411610261079706, -0.87, -1.578, 1.668], a = 0.2, v = 0.2, t = 0.2)
movej(p[-0.515965622356897, -0.226946636607259, 0.411195212569909, -0.87, -1.578, 1.668], a = 0.2, v = 0.2, t = 0.2)
movej(p[-0.51597410121257, -0.226959798082696, 0.410875763083129, -0.87, -1.578, 1.668], a = 0.2, v = 0.2, t = 0.2)
movej(p[-0.515976364166667, -0.226963310799025, 0.410790503992393, -0.87, -1.578, 1.668], a = 0.2, v = 0.2, t = 0.2)
movej(p[-0.51597693231259, -0.226964192715039, 0.410769098518548, -0.87, -1.578, 1.668], a = 0.2, v = 0.2, t = 0.2)
movej(p[-0.515971496407959, -0.226955754721985, 0.410973901738636, -0.87, -1.578, 1.668], a = 0.2, v = 0.2, t = 0.2)
movej(p[-0.515953676848138, -0.226928093949361, 0.411645271727605, -0.87, -1.578, 1.668], a = 0.2, v = 0.2, t = 0.2)
movej(p[-0.51592198104638, -0.226878893499164, 0.412839443204875, -0.87, -1.578, 1.668], a = 0.2, v = 0.2, t = 0.2)
movej(p[-0.515891368573712, -0.226831374668485, 0.413992799159985, -0.87, -1.578, 1.668], a = 0.2, v = 0.2, t = 0.2)
movej(p[-0.515866923854659, -0.226793429858268, 0.414913778742258, -0.87, -1.578, 1.668], a = 0.2, v = 0.2, t = 0.2)
movej(p[-0.515843475798369, -0.22675703213801, 0.415797208044143, -0.87, -1.578, 1.668], a = 0.2, v = 0.2, t = 0.2)
movej(p[-0.5158423683953, -0.226755313149168, 0.415838930577907, -0.87, -1.578, 1.668], a = 0.2, v = 0.2, t = 0.2)
movej(p[-0.515877578998103, -0.226809969520472, 0.414512335406514, -0.87, -1.578, 1.668], a = 0.2, v = 0.2, t = 0.2)
movej(p[-0.5159227899321, -0.226880149108405, 0.412808967614995, -0.87, -1.578, 1.668], a = 0.2, v = 0.2, t = 0.2)
movej(p[-0.51594939167974, -0.22692144220993, 0.411806719793041, -0.87, -1.578, 1.668], a = 0.2, v = 0.2, t = 0.2)
movej(p[-0.515964307917602, -0.226944596242243, 0.411244735403465, -0.87, -1.578, 1.668], a = 0.2, v = 0.2, t = 0.2)
movej(p[-0.515974385285531, -0.226960239040703, 0.410865060346207, -0.87, -1.578, 1.668], a = 0.2, v = 0.2, t = 0.2)
movej(p[-0.515976368981463, -0.226963318272889, 0.410790322590072, -0.87, -1.578, 1.668], a = 0.2, v = 0.2, t = 0.2)
movej(p[-0.515976513425342, -0.226963542488825, 0.410784880520451, -0.87, -1.578, 1.668], a = 0.2, v = 0.2, t = 0.2)
movej(p[-0.515973326030421, -0.226958594790506, 0.410904968856764, -0.87, -1.578, 1.668], a = 0.2, v = 0.2, t = 0.2)
movej(p[-0.515955024991004, -0.22693018663143, 0.411594479077804, -0.87, -1.578, 1.668], a = 0.2, v = 0.2, t = 0.2)
movej(p[-0.515923844372414, -0.226881785884736, 0.412769240506758, -0.87, -1.578, 1.668], a = 0.2, v = 0.2, t = 0.2)
movej(p[-0.515895148188535, -0.22683724165214, 0.413850398338223, -0.87, -1.578, 1.668], a = 0.2, v = 0.2, t = 0.2)
movej(p[-0.515870506062848, -0.226798990413478, 0.414778815415645, -0.87, -1.578, 1.668], a = 0.2, v = 0.2, t = 0.2)
movej(p[-0.515846282824409, -0.22676138940103, 0.415691450491165, -0.87, -1.578, 1.668], a = 0.2, v = 0.2, t = 0.2)
movej(p[-0.515840283588652, -0.226752076965826, 0.415917477782777, -0.87, -1.578, 1.668], a = 0.2, v = 0.2, t = 0.2)
movej(p[-0.515874791231246, -0.22680564215291, 0.414617367350208, -0.87, -1.578, 1.668], a = 0.2, v = 0.2, t = 0.2)
movej(p[-0.515914002929486, -0.226866509305638, 0.413140026850301, -0.87, -1.578, 1.668], a = 0.2, v = 0.2, t = 0.2)
movej(p[-0.51594338281439, -0.226912114826997, 0.412033109889294, -0.87, -1.578, 1.668], a = 0.2, v = 0.2, t = 0.2)
movej(p[-0.515961842742074, -0.226940769623603, 0.411337613391671, -0.87, -1.578, 1.668], a = 0.2, v = 0.2, t = 0.2)
movej(p[-0.515973942324303, -0.226959551445166, 0.410881749359713, -0.87, -1.578, 1.668], a = 0.2, v = 0.2, t = 0.2)
movej(p[-0.515976388240647, -0.226963348168347, 0.410789596980789, -0.87, -1.578, 1.668], a = 0.2, v = 0.2, t = 0.2)
movej(p[-0.515977495643716, -0.226965067157189, 0.410747874447025, -0.87, -1.578, 1.668], a = 0.2, v = 0.2, t = 0.2)
movej(p[-0.515979200081484, -0.226967712905232, 0.410683658025491, -0.87, -1.578, 1.668], a = 0.2, v = 0.2, t = 0.2)
movej(p[-0.515973037142664, -0.226958146358635, 0.410915852996007, -0.87, -1.578, 1.668], a = 0.2, v = 0.2, t = 0.2)
movej(p[-0.515946743541966, -0.226917331584439, 0.411906491069435, -0.87, -1.578, 1.668], a = 0.2, v = 0.2, t = 0.2)
movej(p[-0.515917094028488, -0.226871307526666, 0.413023566560401, -0.87, -1.578, 1.668], a = 0.2, v = 0.2, t = 0.2)
movej(p[-0.515891570795142, -0.226831688570795, 0.413985180262515, -0.87, -1.578, 1.668], a = 0.2, v = 0.2, t = 0.2)
movej(p[-0.515859836475017, -0.226782428329681, 0.415180802958351, -0.87, -1.578, 1.668], a = 0.2, v = 0.2, t = 0.2)
movej(p[-0.515837519895775, -0.226747786967587, 0.416021602714868, -0.87, -1.578, 1.668], a = 0.2, v = 0.2, t = 0.2)
movej(p[-0.515849547256065, -0.226766456681181, 0.41556845971772, -0.87, -1.578, 1.668], a = 0.2, v = 0.2, t = 0.2)
movej(p[-0.51588845562216, -0.226826852980444, 0.414102547564018, -0.87, -1.578, 1.668], a = 0.2, v = 0.2, t = 0.2)
movej(p[-0.515924691776501, -0.226883101284894, 0.412737313698312, -0.87, -1.578, 1.668], a = 0.2, v = 0.2, t = 0.2)
movej(p[-0.515951004636384, -0.226923945954548, 0.411745950015602, -0.87, -1.578, 1.668], a = 0.2, v = 0.2, t = 0.2)
movej(p[-0.515968641233959, -0.226951322720319, 0.411081473314821, -0.87, -1.578, 1.668], a = 0.2, v = 0.2, t = 0.2)
movej(p[-0.515973764176853, -0.226959274912179, 0.410888461245579, -0.87, -1.578, 1.668], a = 0.2, v = 0.2, t = 0.2)
movej(p[-0.515976027130951, -0.226962787628507, 0.410803202154843, -0.87, -1.578, 1.668], a = 0.2, v = 0.2, t = 0.2)
movej(p[-0.515979566005976, -0.226968280918937, 0.410669871449117, -0.87, -1.578, 1.668], a = 0.2, v = 0.2, t = 0.2)
movej(p[-0.515979590079956, -0.226968318288259, 0.410668964437513, -0.87, -1.578, 1.668], a = 0.2, v = 0.2, t = 0.2)
movej(p[-0.515973369363585, -0.226958662055287, 0.410903336235878, -0.87, -1.578, 1.668], a = 0.2, v = 0.2, t = 0.2)
movej(p[-0.515952429815986, -0.226926158218448, 0.41169225492867, -0.87, -1.578, 1.668], a = 0.2, v = 0.2, t = 0.2)
movej(p[-0.515929997681641, -0.226891337483605, 0.412537408340884, -0.87, -1.578, 1.668], a = 0.2, v = 0.2, t = 0.2)
movej(p[-0.515899842614589, -0.226844528670057, 0.413673531075525, -0.87, -1.578, 1.668], a = 0.2, v = 0.2, t = 0.2)
movej(p[-0.515873221607766, -0.226803205673073, 0.414676504506762, -0.87, -1.578, 1.668], a = 0.2, v = 0.2, t = 0.2)
movej(p[-0.515860496102062, -0.226783452249121, 0.415155950840413, -0.87, -1.578, 1.668], a = 0.2, v = 0.2, t = 0.2)
movej(p[-0.515876360854727, -0.226808078632746, 0.414558230193655, -0.87, -1.578, 1.668], a = 0.2, v = 0.2, t = 0.2)
movej(p[-0.515912553675904, -0.226864259672415, 0.413194628948836, -0.87, -1.578, 1.668], a = 0.2, v = 0.2, t = 0.2)
movej(p[-0.515941712080195, -0.226909521396006, 0.412096056494583, -0.87, -1.578, 1.668], a = 0.2, v = 0.2, t = 0.2)
movej(p[-0.515964182732907, -0.226944401921765, 0.411249451863803, -0.87, -1.578, 1.668], a = 0.2, v = 0.2, t = 0.2)
movej(p[-0.515971313445713, -0.226955470715133, 0.410980795026823, -0.87, -1.578, 1.668], a = 0.2, v = 0.2, t = 0.2)
movej(p[-0.515975179726863, -0.22696147222835, 0.410835128963289, -0.87, -1.578, 1.668], a = 0.2, v = 0.2, t = 0.2)
movej(p[-0.515979185637096, -0.226967690483639, 0.410684202232453, -0.87, -1.578, 1.668], a = 0.2, v = 0.2, t = 0.2)
movej(p[-0.515979633413119, -0.22696838555304, 0.410667331816627, -0.87, -1.578, 1.668], a = 0.2, v = 0.2, t = 0.2)
movej(p[-0.515979599709548, -0.226968333235988, 0.410668601632872, -0.87, -1.578, 1.668], a = 0.2, v = 0.2, t = 0.2)
movej(p[-0.515973793065629, -0.226959319755366, 0.410887372831655, -0.87, -1.578, 1.668], a = 0.2, v = 0.2, t = 0.2)
movej(p[-0.515955992764991, -0.2269316888782, 0.41155801721134, -0.87, -1.578, 1.668], a = 0.2, v = 0.2, t = 0.2)
movej(p[-0.515929362128576, -0.226890350933487, 0.412561353447218, -0.87, -1.578, 1.668], a = 0.2, v = 0.2, t = 0.2)
movej(p[-0.515903757043699, -0.226850604921919, 0.413526050988784, -0.87, -1.578, 1.668], a = 0.2, v = 0.2, t = 0.2)
movej(p[-0.515884286008865, -0.226820380613762, 0.414259641973757, -0.87, -1.578, 1.668], a = 0.2, v = 0.2, t = 0.2)
movej(p[-0.515862503871974, -0.22678656885063, 0.415080306072675, -0.87, -1.578, 1.668], a = 0.2, v = 0.2, t = 0.2)
movej(p[-0.515862200539829, -0.226786097997165, 0.41509173441888, -0.87, -1.578, 1.668], a = 0.2, v = 0.2, t = 0.2)
movej(p[-0.515894045600262, -0.226835530137163, 0.413891939469667, -0.87, -1.578, 1.668], a = 0.2, v = 0.2, t = 0.2)
movej(p[-0.515930339532154, -0.226891868127987, 0.412524528776113, -0.87, -1.578, 1.668], a = 0.2, v = 0.2, t = 0.2)
movej(p[-0.515952766851703, -0.226926681388965, 0.41167955676622, -0.87, -1.578, 1.668], a = 0.2, v = 0.2, t = 0.2)
movej(p[-0.515965588653325, -0.226946584290207, 0.411196482386154, -0.87, -1.578, 1.668], a = 0.2, v = 0.2, t = 0.2)
movej(p[-0.515975141208495, -0.226961412437434, 0.410836580181854, -0.87, -1.578, 1.668], a = 0.2, v = 0.2, t = 0.2)
movej(p[-0.515978044530455, -0.226965919177745, 0.410727194582463, -0.87, -1.578, 1.668], a = 0.2, v = 0.2, t = 0.2)
movej(p[-0.515979460080465, -0.226968116493917, 0.410673862300173, -0.87, -1.578, 1.668], a = 0.2, v = 0.2, t = 0.2)
movej(p[-0.515980086003939, -0.226969088096306, 0.41065027999848, -0.87, -1.578, 1.668], a = 0.2, v = 0.2, t = 0.2)
movej(p[-0.515983350435595, -0.226974155376457, 0.410527289225034, -0.87, -1.578, 1.668], a = 0.2, v = 0.2, t = 0.2)
movej(p[-0.515983292658044, -0.226974065690083, 0.410529466052883, -0.87, -1.578, 1.668], a = 0.2, v = 0.2, t = 0.2)
movej(p[-0.515975805650337, -0.226962443830739, 0.410811546661596, -0.87, -1.578, 1.668], a = 0.2, v = 0.2, t = 0.2)
movej(p[-0.515959367936954, -0.226936928057235, 0.411430854184519, -0.87, -1.578, 1.668], a = 0.2, v = 0.2, t = 0.2)
movej(p[-0.515939010979665, -0.226905328558004, 0.412197823196504, -0.87, -1.578, 1.668], a = 0.2, v = 0.2, t = 0.2)
movej(p[-0.51591356959785, -0.22686583665783, 0.413156353059165, -0.87, -1.578, 1.668], a = 0.2, v = 0.2, t = 0.2)
movej(p[-0.515892201533412, -0.226832667647048, 0.413961416558501, -0.87, -1.578, 1.668], a = 0.2, v = 0.2, t = 0.2)
movej(p[-0.515874304936855, -0.226804887292592, 0.414635688984601, -0.87, -1.578, 1.668], a = 0.2, v = 0.2, t = 0.2)
movej(p[-0.515862426835239, -0.226786449268798, 0.415083208509806, -0.87, -1.578, 1.668], a = 0.2, v = 0.2, t = 0.2)
movej(p[-0.515885513781833, -0.226822286449217, 0.414213384381975, -0.87, -1.578, 1.668], a = 0.2, v = 0.2, t = 0.2)
movej(p[-0.515921514011173, -0.226878168534304, 0.412857039229985, -0.87, -1.578, 1.668], a = 0.2, v = 0.2, t = 0.2)
movej(p[-0.515952973887928, -0.22692700276514, 0.411671756466429, -0.87, -1.578, 1.668], a = 0.2, v = 0.2, t = 0.2)
movej(p[-0.515966359020677, -0.226947780108532, 0.41116745801484, -0.87, -1.578, 1.668], a = 0.2, v = 0.2, t = 0.2)
movej(p[-0.515973860472772, -0.226959424389469, 0.410884833199165, -0.87, -1.578, 1.668], a = 0.2, v = 0.2, t = 0.2)
movej(p[-0.515979349340158, -0.226967944595033, 0.410678034553549, -0.87, -1.578, 1.668], a = 0.2, v = 0.2, t = 0.2)
movej(p[-0.515980793778944, -0.226970186754392, 0.410623613857334, -0.87, -1.578, 1.668], a = 0.2, v = 0.2, t = 0.2)
movej(p[-0.51598160747946, -0.226971449837497, 0.410592956865133, -0.87, -1.578, 1.668], a = 0.2, v = 0.2, t = 0.2)
movej(p[-0.515981573775888, -0.226971397520446, 0.410594226681379, -0.87, -1.578, 1.668], a = 0.2, v = 0.2, t = 0.2)
movej(p[-0.515983827100394, -0.226974895289045, 0.410509330395284, -0.87, -1.578, 1.668], a = 0.2, v = 0.2, t = 0.2)
movej(p[-0.51597983563455, -0.22696869945535, 0.410659712919157, -0.87, -1.578, 1.668], a = 0.2, v = 0.2, t = 0.2)
movej(p[-0.515960937560434, -0.226939364537072, 0.411371717027965, -0.87, -1.578, 1.668], a = 0.2, v = 0.2, t = 0.2)
movej(p[-0.515940330233756, -0.226907376396886, 0.412148118960628, -0.87, -1.578, 1.668], a = 0.2, v = 0.2, t = 0.2)
movej(p[-0.515916102180522, -0.226869767910573, 0.413060935438469, -0.87, -1.578, 1.668], a = 0.2, v = 0.2, t = 0.2)
movej(p[-0.515888927472164, -0.226827585419168, 0.414084770136588, -0.87, -1.578, 1.668], a = 0.2, v = 0.2, t = 0.2)
movej(p[-0.515868310515894, -0.226795582331253, 0.414861534873892, -0.87, -1.578, 1.668], a = 0.2, v = 0.2, t = 0.2)
movej(p[-0.515866909410271, -0.226793407436675, 0.41491432294922, -0.87, -1.578, 1.668], a = 0.2, v = 0.2, t = 0.2)
movej(p[-0.515895942629867, -0.226838474839788, 0.413820466955305, -0.87, -1.578, 1.668], a = 0.2, v = 0.2, t = 0.2)
movej(p[-0.51592706065611, -0.226886778426242, 0.41264806375652, -0.87, -1.578, 1.668], a = 0.2, v = 0.2, t = 0.2)
movej(p[-0.515951582411898, -0.226924842818291, 0.411724181737116, -0.87, -1.578, 1.668], a = 0.2, v = 0.2, t = 0.2)
movej(p[-0.515968472716101, -0.226951061135061, 0.411087822396046, -0.87, -1.578, 1.668], a = 0.2, v = 0.2, t = 0.2)
movej(p[-0.515974967875841, -0.226961143378311, 0.4108431106654, -0.87, -1.578, 1.668], a = 0.2, v = 0.2, t = 0.2)
movej(p[-0.515978102308006, -0.22696600886412, 0.410725017754614, -0.87, -1.578, 1.668], a = 0.2, v = 0.2, t = 0.2)
movej(p[-0.515982488587119, -0.226972817554706, 0.410559760240443, -0.87, -1.578, 1.668], a = 0.2, v = 0.2, t = 0.2)
movej(p[-0.515982291180485, -0.22697251112626, 0.410567197735592, -0.87, -1.578, 1.668], a = 0.2, v = 0.2, t = 0.2)
movej(p[-0.51598264266059, -0.226973056718371, 0.41055395536618, -0.87, -1.578, 1.668], a = 0.2, v = 0.2, t = 0.2)
movej(p[-0.515981414887622, -0.226971150882916, 0.410600212957962, -0.87, -1.578, 1.668], a = 0.2, v = 0.2, t = 0.2)
movej(p[-0.515968896418145, -0.226951718835139, 0.411071858991823, -0.87, -1.578, 1.668], a = 0.2, v = 0.2, t = 0.2)
movej(p[-0.515944755031237, -0.226914244878388, 0.41198141022789, -0.87, -1.578, 1.668], a = 0.2, v = 0.2, t = 0.2)
movej(p[-0.515921085494333, -0.226877503360361, 0.412873184036528, -0.87, -1.578, 1.668], a = 0.2, v = 0.2, t = 0.2)
movej(p[-0.515903116675837, -0.226849610897937, 0.413550177497439, -0.87, -1.578, 1.668], a = 0.2, v = 0.2, t = 0.2)
movej(p[-0.515876466780238, -0.226808243057766, 0.4145542393426, -0.87, -1.578, 1.668], a = 0.2, v = 0.2, t = 0.2)
movej(p[-0.515853071686703, -0.226771927550017, 0.415435673218956, -0.87, -1.578, 1.668], a = 0.2, v = 0.2, t = 0.2)
movej(p[-0.515865315712811, -0.226790933587516, 0.414974367117377, -0.87, -1.578, 1.668], a = 0.2, v = 0.2, t = 0.2)
movej(p[-0.515905124445749, -0.226852727499446, 0.4134745327297, -0.87, -1.578, 1.668], a = 0.2, v = 0.2, t = 0.2)
movej(p[-0.515933416186768, -0.226896643927421, 0.412408612693176, -0.87, -1.578, 1.668], a = 0.2, v = 0.2, t = 0.2)
movej(p[-0.51595654165173, -0.226932540898757, 0.411537337346779, -0.87, -1.578, 1.668], a = 0.2, v = 0.2, t = 0.2)
movej(p[-0.515973205660522, -0.226958407943893, 0.410909503914782, -0.87, -1.578, 1.668], a = 0.2, v = 0.2, t = 0.2)
movej(p[-0.515977307866674, -0.226964775676472, 0.410754949137532, -0.87, -1.578, 1.668], a = 0.2, v = 0.2, t = 0.2)
movej(p[-0.515979580450364, -0.22696830334053, 0.410669327242155, -0.87, -1.578, 1.668], a = 0.2, v = 0.2, t = 0.2)
movej(p[-0.515980788964148, -0.226970179280527, 0.410623795259655, -0.87, -1.578, 1.668], a = 0.2, v = 0.2, t = 0.2)
movej(p[-0.515983581545801, -0.226974514121954, 0.41051858191364, -0.87, -1.578, 1.668], a = 0.2, v = 0.2, t = 0.2)
movej(p[-0.515983292658044, -0.226974065690083, 0.410529466052883, -0.87, -1.578, 1.668], a = 0.2, v = 0.2, t = 0.2)
movej(p[-0.515981511183541, -0.226971300360207, 0.410596584911548, -0.87, -1.578, 1.668], a = 0.2, v = 0.2, t = 0.2)
movej(p[-0.515969474193659, -0.226952615698883, 0.411050090713337, -0.87, -1.578, 1.668], a = 0.2, v = 0.2, t = 0.2)
movej(p[-0.515946575024107, -0.22691706999918, 0.41191284015066, -0.87, -1.578, 1.668], a = 0.2, v = 0.2, t = 0.2)
movej(p[-0.515922154379034, -0.226879162558287, 0.412832912721329, -0.87, -1.578, 1.668], a = 0.2, v = 0.2, t = 0.2)
movej(p[-0.51590151816358, -0.226847129574913, 0.413610403067916, -0.87, -1.578, 1.668], a = 0.2, v = 0.2, t = 0.2)
movej(p[-0.515883664900187, -0.226819416485238, 0.41428304287313, -0.87, -1.578, 1.668], a = 0.2, v = 0.2, t = 0.2)
movej(p[-0.515865956080673, -0.226791927611498, 0.414950240608722, -0.87, -1.578, 1.668], a = 0.2, v = 0.2, t = 0.2)
movej(p[-0.515875763820029, -0.226807151873545, 0.414580724081424, -0.87, -1.578, 1.668], a = 0.2, v = 0.2, t = 0.2)
movej(p[-0.515914171447345, -0.226866770890897, 0.413133677769076, -0.87, -1.578, 1.668], a = 0.2, v = 0.2, t = 0.2)
movej(p[-0.515941673561827, -0.226909461605089, 0.412097507713148, -0.87, -1.578, 1.668], a = 0.2, v = 0.2, t = 0.2)
movej(p[-0.51596137089207, -0.22694003718488, 0.411355390819101, -0.87, -1.578, 1.668], a = 0.2, v = 0.2, t = 0.2)
movej(p[-0.515970947521221, -0.226954902701429, 0.410994581603198, -0.87, -1.578, 1.668], a = 0.2, v = 0.2, t = 0.2)
movej(p[-0.515980061929959, -0.226969050726983, 0.410651187010083, -0.87, -1.578, 1.668], a = 0.2, v = 0.2, t = 0.2)
movej(p[-0.515981751923339, -0.226971674053433, 0.410587514795512, -0.87, -1.578, 1.668], a = 0.2, v = 0.2, t = 0.2)
movej(p[-0.51598223821773, -0.226972428913751, 0.41056919316112, -0.87, -1.578, 1.668], a = 0.2, v = 0.2, t = 0.2)
movej(p[-0.515985468945814, -0.22697744387685, 0.41044747220392, -0.87, -1.578, 1.668], a = 0.2, v = 0.2, t = 0.2)
movej(p[-0.515985223391221, -0.226977062709759, 0.410456723722276, -0.87, -1.578, 1.668], a = 0.2, v = 0.2, t = 0.2)
movej(p[-0.515984587838155, -0.226976076159641, 0.410480668828611, -0.87, -1.578, 1.668], a = 0.2, v = 0.2, t = 0.2)
movej(p[-0.515972064553882, -0.226956636638, 0.410952496264792, -0.87, -1.578, 1.668], a = 0.2, v = 0.2, t = 0.2)
movej(p[-0.515954192031305, -0.226928893652866, 0.411625861679288, -0.87, -1.578, 1.668], a = 0.2, v = 0.2, t = 0.2)
movej(p[-0.515929829163783, -0.226891075898347, 0.412543757422109, -0.87, -1.578, 1.668], a = 0.2, v = 0.2, t = 0.2)
movej(p[-0.515905119630953, -0.226852720025581, 0.413474714132021, -0.87, -1.578, 1.668], a = 0.2, v = 0.2, t = 0.2)
movej(p[-0.515888869694612, -0.226827495732794, 0.414086946964436, -0.87, -1.578, 1.668], a = 0.2, v = 0.2, t = 0.2)
movej(p[-0.515872224945003, -0.226801658583115, 0.41471405478715, -0.87, -1.578, 1.668], a = 0.2, v = 0.2, t = 0.2)
movej(p[-0.515869966805701, -0.226798153340651, 0.414799132475565, -0.87, -1.578, 1.668], a = 0.2, v = 0.2, t = 0.2)
movej(p[-0.515904917409523, -0.226852406123271, 0.413482333029491, -0.87, -1.578, 1.668], a = 0.2, v = 0.2, t = 0.2)
movej(p[-0.515939429866913, -0.226905978784219, 0.412182041194602, -0.87, -1.578, 1.668], a = 0.2, v = 0.2, t = 0.2)
movej(p[-0.515958583125214, -0.226935709817317, 0.411460422762795, -0.87, -1.578, 1.668], a = 0.2, v = 0.2, t = 0.2)
movej(p[-0.515970220487032, -0.226953774147885, 0.411021973353626, -0.87, -1.578, 1.668], a = 0.2, v = 0.2, t = 0.2)
movej(p[-0.515976031945747, -0.226962795102372, 0.410803020752522, -0.87, -1.578, 1.668], a = 0.2, v = 0.2, t = 0.2)
movej(p[-0.515982286365689, -0.226972503652396, 0.410567379137913, -0.87, -1.578, 1.668], a = 0.2, v = 0.2, t = 0.2)
movej(p[-0.515982825622836, -0.226973340725223, 0.410547062077992, -0.87, -1.578, 1.668], a = 0.2, v = 0.2, t = 0.2)
movej(p[-0.515982734141713, -0.226973198721797, 0.410550508722086, -0.87, -1.578, 1.668], a = 0.2, v = 0.2, t = 0.2)
movej(p[-0.515984592652951, -0.226976083633506, 0.41048048742629, -0.87, -1.578, 1.668], a = 0.2, v = 0.2, t = 0.2)
movej(p[-0.515971067891119, -0.226955089548042, 0.41099004654518, -0.87, -1.578, 1.668], a = 0.2, v = 0.2, t = 0.2)
movej(p[-0.515947460946563, -0.226918445190254, 0.411879462123648, -0.87, -1.578, 1.668], a = 0.2, v = 0.2, t = 0.2)
movej(p[-0.515922515488731, -0.226879723098126, 0.412819307547276, -0.87, -1.578, 1.668], a = 0.2, v = 0.2, t = 0.2)
movej(p[-0.515901754088582, -0.226847495794275, 0.413601514354201, -0.87, -1.578, 1.668], a = 0.2, v = 0.2, t = 0.2)
movej(p[-0.515875248636862, -0.22680635217004, 0.414600134129741, -0.87, -1.578, 1.668], a = 0.2, v = 0.2, t = 0.2)
movej(p[-0.515856066489786, -0.226776576293754, 0.415322840975471, -0.87, -1.578, 1.668], a = 0.2, v = 0.2, t = 0.2)
movej(p[-0.51587379938328, -0.226804102536817, 0.414654736228276, -0.87, -1.578, 1.668], a = 0.2, v = 0.2, t = 0.2)
movej(p[-0.515910497758032, -0.226861068332261, 0.413272087739782, -0.87, -1.578, 1.668], a = 0.2, v = 0.2, t = 0.2)
movej(p[-0.515941062082741, -0.226908512424294, 0.412120545807879, -0.87, -1.578, 1.668], a = 0.2, v = 0.2, t = 0.2)
movej(p[-0.515961356447682, -0.226940014763286, 0.411355935026063, -0.87, -1.578, 1.668], a = 0.2, v = 0.2, t = 0.2)
movej(p[-0.515975550466151, -0.226962047715919, 0.410821160984594, -0.87, -1.578, 1.668], a = 0.2, v = 0.2, t = 0.2)
movej(p[-0.515979079711585, -0.226967526058619, 0.410688193083509, -0.87, -1.578, 1.668], a = 0.2, v = 0.2, t = 0.2)
movej(p[-0.515980678223841, -0.226970007381643, 0.410627967513032, -0.87, -1.578, 1.668], a = 0.2, v = 0.2, t = 0.2)
movej(p[-0.515982806363652, -0.226973310829765, 0.410547787687275, -0.87, -1.578, 1.668], a = 0.2, v = 0.2, t = 0.2)
movej(p[-0.51598506931775, -0.226976823546094, 0.410462528596539, -0.87, -1.578, 1.668], a = 0.2, v = 0.2, t = 0.2)
movej(p[-0.515984433764685, -0.226975836995976, 0.410486473702873, -0.87, -1.578, 1.668], a = 0.2, v = 0.2, t = 0.2)
movej(p[-0.51597304195746, -0.226958153832499, 0.410915671593686, -0.87, -1.578, 1.668], a = 0.2, v = 0.2, t = 0.2)
movej(p[-0.5159521746318, -0.226925762103628, 0.411701869251668, -0.87, -1.578, 1.668], a = 0.2, v = 0.2, t = 0.2)
movej(p[-0.515925394736711, -0.226884192469115, 0.412710828959488, -0.87, -1.578, 1.668], a = 0.2, v = 0.2, t = 0.2)
movej(p[-0.515898133362026, -0.226841875448149, 0.413737928899379, -0.87, -1.578, 1.668], a = 0.2, v = 0.2, t = 0.2)
movej(p[-0.515878826030255, -0.226811905251385, 0.414465352205449, -0.87, -1.578, 1.668], a = 0.2, v = 0.2, t = 0.2)
movej(p[-0.515862792759732, -0.226787017282502, 0.415069421933432, -0.87, -1.578, 1.668], a = 0.2, v = 0.2, t = 0.2)
movej(p[-0.515866187190878, -0.226792286356995, 0.414941533297327, -0.87, -1.578, 1.668], a = 0.2, v = 0.2, t = 0.2)
movej(p[-0.515905273704424, -0.226852959189246, 0.413468909257758, -0.87, -1.578, 1.668], a = 0.2, v = 0.2, t = 0.2)
movej(p[-0.515943941330721, -0.226912981795283, 0.412012067220091, -0.87, -1.578, 1.668], a = 0.2, v = 0.2, t = 0.2)
movej(p[-0.515962502369119, -0.226941793543044, 0.411312761273733, -0.87, -1.578, 1.668], a = 0.2, v = 0.2, t = 0.2)
movej(p[-0.515972786773275, -0.226957757717679, 0.410925285916684, -0.87, -1.578, 1.668], a = 0.2, v = 0.2, t = 0.2)
movej(p[-0.515979098970769, -0.226967555954077, 0.410687467474226, -0.87, -1.578, 1.668], a = 0.2, v = 0.2, t = 0.2)
movej(p[-0.515982661919774, -0.226973086613829, 0.410553229756897, -0.87, -1.578, 1.668], a = 0.2, v = 0.2, t = 0.2)
movej(p[-0.515983340806003, -0.226974140428728, 0.410527652029676, -0.87, -1.578, 1.668], a = 0.2, v = 0.2, t = 0.2)
movej(p[-0.515983258954472, -0.226974013373031, 0.410530735869128, -0.87, -1.578, 1.668], a = 0.2, v = 0.2, t = 0.2)
movej(p[-0.515986118943268, -0.226978452848561, 0.410422982890623, -0.87, -1.578, 1.668], a = 0.2, v = 0.2, t = 0.2)
movej(p[-0.515981573775888, -0.226971397520446, 0.410594226681379, -0.87, -1.578, 1.668], a = 0.2, v = 0.2, t = 0.2)
movej(p[-0.515962926071163, -0.226942451243123, 0.41129679786951, -0.87, -1.578, 1.668], a = 0.2, v = 0.2, t = 0.2)
movej(p[-0.515944413180724, -0.226913714234007, 0.411994289792661, -0.87, -1.578, 1.668], a = 0.2, v = 0.2, t = 0.2)
movej(p[-0.515920868828515, -0.226877167036457, 0.41288134714096, -0.87, -1.578, 1.668], a = 0.2, v = 0.2, t = 0.2)
movej(p[-0.51589486893037, -0.226836808167998, 0.413860919672825, -0.87, -1.578, 1.668], a = 0.2, v = 0.2, t = 0.2)
movej(p[-0.515874641972572, -0.226805410463109, 0.414622990822151, -0.87, -1.578, 1.668], a = 0.2, v = 0.2, t = 0.2)
movej(p[-0.515863418683206, -0.226787988884891, 0.415045839631739, -0.87, -1.578, 1.668], a = 0.2, v = 0.2, t = 0.2)
movej(p[-0.515880886762922, -0.226815104065404, 0.414387712012183, -0.87, -1.578, 1.668], a = 0.2, v = 0.2, t = 0.2)
movej(p[-0.515913194043766, -0.226865253696397, 0.413170502440181, -0.87, -1.578, 1.668], a = 0.2, v = 0.2, t = 0.2)
movej(p[-0.51594633428431, -0.226916696305954, 0.411921910266696, -0.87, -1.578, 1.668], a = 0.2, v = 0.2, t = 0.2)
movej(p[-0.515966161614043, -0.226947473680086, 0.411174895509989, -0.87, -1.578, 1.668], a = 0.2, v = 0.2, t = 0.2)
movej(p[-0.515973903805936, -0.22695949165425, 0.410883200578278, -0.87, -1.578, 1.668], a = 0.2, v = 0.2, t = 0.2)
movej(p[-0.515978761935052, -0.22696703278356, 0.410700165636676, -0.87, -1.578, 1.668], a = 0.2, v = 0.2, t = 0.2)
movej(p[-0.515983966729477, -0.226975112031117, 0.410504069727983, -0.87, -1.578, 1.668], a = 0.2, v = 0.2, t = 0.2)
movej(p[-0.515984087099376, -0.22697529887773, 0.410499534669965, -0.87, -1.578, 1.668], a = 0.2, v = 0.2, t = 0.2)
movej(p[-0.515983682656516, -0.226974671073109, 0.410514772464905, -0.87, -1.578, 1.668], a = 0.2, v = 0.2, t = 0.2)
movej(p[-0.51598451080142, -0.226975956577809, 0.410483571265742, -0.87, -1.578, 1.668], a = 0.2, v = 0.2, t = 0.2)
movej(p[-0.51597322010491, -0.226958430365487, 0.41090895970782, -0.87, -1.578, 1.668], a = 0.2, v = 0.2, t = 0.2)
movej(p[-0.515951375375672, -0.226924521442116, 0.411731982036907, -0.87, -1.578, 1.668], a = 0.2, v = 0.2, t = 0.2)
movej(p[-0.515929448794903, -0.226890485463049, 0.412558088205445, -0.87, -1.578, 1.668], a = 0.2, v = 0.2, t = 0.2)
movej(p[-0.515911561827938, -0.226862720056322, 0.413231997826904, -0.87, -1.578, 1.668], a = 0.2, v = 0.2, t = 0.2)
movej(p[-0.515894478931897, -0.226836202784971, 0.413875613260803, -0.87, -1.578, 1.668], a = 0.2, v = 0.2, t = 0.2)
movej(p[-0.515909202577921, -0.226859057862702, 0.413320884964054, -0.87, -1.578, 1.668], a = 0.2, v = 0.2, t = 0.2)
movej(p[-0.515941875783257, -0.2269097755074, 0.412089888815678, -0.87, -1.578, 1.668], a = 0.2, v = 0.2, t = 0.2)
movej(p[-0.515963681994128, -0.226943624639854, 0.411268317705158, -0.87, -1.578, 1.668], a = 0.2, v = 0.2, t = 0.2)
movej(p[-0.515973205660522, -0.226958407943893, 0.410909503914782, -0.87, -1.578, 1.668], a = 0.2, v = 0.2, t = 0.2)
movej(p[-0.515978285270253, -0.226966292870972, 0.410718124466427, -0.87, -1.578, 1.668], a = 0.2, v = 0.2, t = 0.2)
movej(p[-0.515984005247845, -0.226975171822033, 0.410502618509417, -0.87, -1.578, 1.668], a = 0.2, v = 0.2, t = 0.2)
movej(p[-0.515984212284071, -0.226975493198208, 0.410494818209626, -0.87, -1.578, 1.668], a = 0.2, v = 0.2, t = 0.2)
movej(p[-0.515983586360597, -0.226974521595819, 0.410518400511319, -0.87, -1.578, 1.668], a = 0.2, v = 0.2, t = 0.2)
movej(p[-0.515974346767163, -0.226960179249787, 0.410866511564773, -0.87, -1.578, 1.668], a = 0.2, v = 0.2, t = 0.2)
movej(p[-0.515954524252225, -0.226929409349519, 0.411613344919159, -0.87, -1.578, 1.668], a = 0.2, v = 0.2, t = 0.2)
movej(p[-0.515924417333132, -0.226882675274615, 0.412747653630593, -0.87, -1.578, 1.668], a = 0.2, v = 0.2, t = 0.2)
movej(p[-0.515896322998747, -0.226839065275086, 0.413806136171968, -0.87, -1.578, 1.668], a = 0.2, v = 0.2, t = 0.2)
movej(p[-0.515874897156757, -0.226805806577929, 0.414613376499153, -0.87, -1.578, 1.668], a = 0.2, v = 0.2, t = 0.2)
movej(p[-0.51585702463418, -0.226778063592796, 0.415286741913649, -0.87, -1.578, 1.668], a = 0.2, v = 0.2, t = 0.2)
movej(p[-0.515868883476612, -0.226796471721132, 0.414839947997727, -0.87, -1.578, 1.668], a = 0.2, v = 0.2, t = 0.2)
movej(p[-0.515904305930437, -0.226851456942476, 0.413505371124222, -0.87, -1.578, 1.668], a = 0.2, v = 0.2, t = 0.2)
movej(p[-0.515935804325561, -0.226900350964228, 0.412318637142101, -0.87, -1.578, 1.668], a = 0.2, v = 0.2, t = 0.2)
movej(p[-0.515955193508863, -0.226930448216688, 0.411588129996579, -0.87, -1.578, 1.668], a = 0.2, v = 0.2, t = 0.2)
movej(p[-0.51596839086457, -0.226950934079364, 0.411090906235498, -0.87, -1.578, 1.668], a = 0.2, v = 0.2, t = 0.2)
movej(p[-0.515979103785565, -0.226967563427942, 0.410687286071906, -0.87, -1.578, 1.668], a = 0.2, v = 0.2, t = 0.2)
movej(p[-0.515980957482006, -0.226970440865786, 0.41061744617843, -0.87, -1.578, 1.668], a = 0.2, v = 0.2, t = 0.2)
movej(p[-0.515981775997318, -0.226971711422756, 0.410586607783908, -0.87, -1.578, 1.668], a = 0.2, v = 0.2, t = 0.2)
movej(p[-0.515980249707001, -0.2269693422077, 0.410644112319575, -0.87, -1.578, 1.668], a = 0.2, v = 0.2, t = 0.2)
movej(p[-0.515968511234468, -0.226951120925977, 0.41108637117748, -0.87, -1.578, 1.668], a = 0.2, v = 0.2, t = 0.2)
movej(p[-0.515943503184289, -0.226912301673611, 0.412028574831277, -0.87, -1.578, 1.668], a = 0.2, v = 0.2, t = 0.2)
movej(p[-0.515913670708565, -0.226865993608986, 0.41315254361043, -0.87, -1.578, 1.668], a = 0.2, v = 0.2, t = 0.2)
movej(p[-0.51588135379813, -0.226815829030263, 0.414370115987073, -0.87, -1.578, 1.668], a = 0.2, v = 0.2, t = 0.2)
movej(p[-0.515852667243843, -0.226771299745396, 0.415450911013897, -0.87, -1.578, 1.668], a = 0.2, v = 0.2, t = 0.2)
movej(p[-0.515844900977971, -0.22675924440191, 0.415743512957211, -0.87, -1.578, 1.668], a = 0.2, v = 0.2, t = 0.2)
movej(p[-0.515878349365455, -0.226811165338797, 0.4144833110352, -0.87, -1.578, 1.668], a = 0.2, v = 0.2, t = 0.2)
movej(p[-0.515912231084576, -0.226863758923491, 0.413206782904324, -0.87, -1.578, 1.668], a = 0.2, v = 0.2, t = 0.2)
movej(p[-0.515940489122023, -0.226907623034415, 0.412142132684044, -0.87, -1.578, 1.668], a = 0.2, v = 0.2, t = 0.2)
movej(p[-0.515960552376758, -0.22693876662791, 0.411386229213623, -0.87, -1.578, 1.668], a = 0.2, v = 0.2, t = 0.2)
movej(p[-0.515975372318701, -0.226961771182931, 0.41082787287046, -0.87, -1.578, 1.668], a = 0.2, v = 0.2, t = 0.2)
movej(p[-0.515978935267706, -0.226967301842683, 0.410693635153131, -0.87, -1.578, 1.668], a = 0.2, v = 0.2, t = 0.2)
movej(p[-0.515980981555986, -0.226970478235108, 0.410616539166827, -0.87, -1.578, 1.668], a = 0.2, v = 0.2, t = 0.2)
movej(p[-0.515983461175902, -0.226974327275341, 0.410523116971658, -0.87, -1.578, 1.668], a = 0.2, v = 0.2, t = 0.2)
movej(p[-0.515984929688668, -0.226976606804023, 0.41046778926384, -0.87, -1.578, 1.668], a = 0.2, v = 0.2, t = 0.2)
movej(p[-0.515978535639642, -0.226966681511927, 0.41070869154575, -0.87, -1.578, 1.668], a = 0.2, v = 0.2, t = 0.2)
movej(p[-0.515957249426735, -0.226933639556842, 0.411510671205634, -0.87, -1.578, 1.668], a = 0.2, v = 0.2, t = 0.2)
movej(p[-0.515932804707682, -0.226895694746626, 0.412431650787907, -0.87, -1.578, 1.668], a = 0.2, v = 0.2, t = 0.2)
movej(p[-0.515900295205408, -0.226845231213323, 0.413656479257378, -0.87, -1.578, 1.668], a = 0.2, v = 0.2, t = 0.2)
movej(p[-0.515868984587327, -0.226796628672287, 0.414836138548991, -0.87, -1.578, 1.668], a = 0.2, v = 0.2, t = 0.2)
movej(p[-0.515851001324443, -0.226768713788269, 0.415513676216864, -0.87, -1.578, 1.668], a = 0.2, v = 0.2, t = 0.2)
movej(p[-0.515860298695428, -0.226783145820676, 0.415163388335562, -0.87, -1.578, 1.668], a = 0.2, v = 0.2, t = 0.2)
movej(p[-0.515892066719125, -0.226832458378842, 0.413966495823481, -0.87, -1.578, 1.668], a = 0.2, v = 0.2, t = 0.2)
movej(p[-0.515928842130613, -0.226889543756118, 0.412580944897855, -0.87, -1.578, 1.668], a = 0.2, v = 0.2, t = 0.2)
movej(p[-0.515959367936954, -0.226936928057235, 0.411430854184519, -0.87, -1.578, 1.668], a = 0.2, v = 0.2, t = 0.2)
movej(p[-0.515971207520202, -0.226955306290113, 0.410984785877879, -0.87, -1.578, 1.668], a = 0.2, v = 0.2, t = 0.2)
movej(p[-0.515977067126877, -0.226964401983246, 0.410764019253568, -0.87, -1.578, 1.668], a = 0.2, v = 0.2, t = 0.2)
movej(p[-0.515980899704455, -0.226970351179411, 0.410619623006279, -0.87, -1.578, 1.668], a = 0.2, v = 0.2, t = 0.2)
movej(p[-0.515985194502445, -0.226977017866572, 0.4104578121362, -0.87, -1.578, 1.668], a = 0.2, v = 0.2, t = 0.2)
movej(p[-0.515984544504991, -0.22697600889486, 0.410482301449497, -0.87, -1.578, 1.668], a = 0.2, v = 0.2, t = 0.2)
movej(p[-0.515975791205949, -0.226962421409146, 0.410812090868558, -0.87, -1.578, 1.668], a = 0.2, v = 0.2, t = 0.2)
movej(p[-0.515957658684391, -0.226934274835327, 0.411495252008373, -0.87, -1.578, 1.668], a = 0.2, v = 0.2, t = 0.2)
movej(p[-0.515926338436717, -0.226885657346563, 0.412675274104628, -0.87, -1.578, 1.668], a = 0.2, v = 0.2, t = 0.2)
movej(p[-0.515895360039557, -0.22683757050218, 0.413842416636112, -0.87, -1.578, 1.668], a = 0.2, v = 0.2, t = 0.2)
movej(p[-0.515872937534804, -0.226802764715066, 0.414687207243684, -0.87, -1.578, 1.668], a = 0.2, v = 0.2, t = 0.2)
movej(p[-0.515853062057111, -0.226771912602288, 0.415436036023598, -0.87, -1.578, 1.668], a = 0.2, v = 0.2, t = 0.2)
movej(p[-0.515864458679131, -0.226789603239629, 0.415006656730464, -0.87, -1.578, 1.668], a = 0.2, v = 0.2, t = 0.2)
movej(p[-0.51589868706356, -0.22684273494257, 0.413717067632497, -0.87, -1.578, 1.668], a = 0.2, v = 0.2, t = 0.2)
movej(p[-0.515938158760782, -0.226904005683983, 0.412229931407271, -0.87, -1.578, 1.668], a = 0.2, v = 0.2, t = 0.2)
movej(p[-0.515957066464488, -0.22693335554999, 0.411517564493821, -0.87, -1.578, 1.668], a = 0.2, v = 0.2, t = 0.2)
movej(p[-0.51596973419264, -0.226953019287567, 0.411040294988018, -0.87, -1.578, 1.668], a = 0.2, v = 0.2, t = 0.2)
movej(p[-0.5159766819432, -0.226963804074084, 0.410778531439225, -0.87, -1.578, 1.668], a = 0.2, v = 0.2, t = 0.2)
movej(p[-0.515983075992226, -0.226973729366179, 0.410537629157315, -0.87, -1.578, 1.668], a = 0.2, v = 0.2, t = 0.2)
movej(p[-0.515983947470293, -0.226975082135659, 0.410504795337266, -0.87, -1.578, 1.668], a = 0.2, v = 0.2, t = 0.2)
movej(p[-0.515982815993244, -0.226973325777494, 0.410547424882634, -0.87, -1.578, 1.668], a = 0.2, v = 0.2, t = 0.2)
movej(p[-0.515974000101855, -0.226959641131541, 0.410879572531864, -0.87, -1.578, 1.668], a = 0.2, v = 0.2, t = 0.2)
movej(p[-0.51594691687462, -0.226917600643562, 0.411899960585889, -0.87, -1.578, 1.668], a = 0.2, v = 0.2, t = 0.2)
movej(p[-0.51591829291268, -0.226873168518934, 0.412978397382543, -0.87, -1.578, 1.668], a = 0.2, v = 0.2, t = 0.2)
movej(p[-0.515893159677806, -0.22683415494609, 0.413925317496679, -0.87, -1.578, 1.668], a = 0.2, v = 0.2, t = 0.2)
movej(p[-0.515872663091435, -0.226802338704788, 0.414697547175965, -0.87, -1.578, 1.668], a = 0.2, v = 0.2, t = 0.2)
movej(p[-0.515854872420389, -0.226774722775351, 0.415367828751009, -0.87, -1.578, 1.668], a = 0.2, v = 0.2, t = 0.2)
movej(p[-0.515875898634315, -0.226807361141751, 0.414575644816444, -0.87, -1.578, 1.668], a = 0.2, v = 0.2, t = 0.2)
movej(p[-0.515915558108579, -0.226868923363881, 0.41308143390071, -0.87, -1.578, 1.668], a = 0.2, v = 0.2, t = 0.2)
movej(p[-0.515944875401136, -0.226914431725001, 0.411976875169873, -0.87, -1.578, 1.668], a = 0.2, v = 0.2, t = 0.2)
movej(p[-0.515964105696171, -0.226944282339932, 0.411252354300935, -0.87, -1.578, 1.668], a = 0.2, v = 0.2, t = 0.2)
movej(p[-0.515975117134516, -0.226961375068111, 0.410837487193458, -0.87, -1.578, 1.668], a = 0.2, v = 0.2, t = 0.2)
movej(p[-0.515982546364671, -0.22697290724108, 0.410557583412594, -0.87, -1.578, 1.668], a = 0.2, v = 0.2, t = 0.2)
movej(p[-0.515983846359578, -0.226974925184503, 0.410508604786001, -0.87, -1.578, 1.668], a = 0.2, v = 0.2, t = 0.2)
movej(p[-0.51598423635805, -0.22697553056753, 0.410493911198023, -0.87, -1.578, 1.668], a = 0.2, v = 0.2, t = 0.2)
movej(p[-0.51598504524377, -0.226976786176771, 0.410463435608143, -0.87, -1.578, 1.668], a = 0.2, v = 0.2, t = 0.2)
movej(p[-0.515966551612516, -0.226948079063113, 0.411160201922011, -0.87, -1.578, 1.668], a = 0.2, v = 0.2, t = 0.2)
movej(p[-0.515938043205679, -0.226903826311234, 0.412234285062968, -0.87, -1.578, 1.668], a = 0.2, v = 0.2, t = 0.2)
movej(p[-0.515912467009577, -0.226864125142853, 0.413197894190609, -0.87, -1.578, 1.668], a = 0.2, v = 0.2, t = 0.2)
movej(p[-0.515888710806346, -0.226827249095264, 0.41409293324102, -0.87, -1.578, 1.668], a = 0.2, v = 0.2, t = 0.2)
movej(p[-0.515863702756167, -0.226788429842898, 0.415035136894816, -0.87, -1.578, 1.668], a = 0.2, v = 0.2, t = 0.2)
movej(p[-0.515847982447381, -0.226764027675209, 0.415627415471953, -0.87, -1.578, 1.668], a = 0.2, v = 0.2, t = 0.2)
movej(p[-0.515865580526588, -0.226791344650065, 0.414964389989737, -0.87, -1.578, 1.668], a = 0.2, v = 0.2, t = 0.2)
movej(p[-0.51590035298296, -0.226845320899697, 0.41365430242953, -0.87, -1.578, 1.668], a = 0.2, v = 0.2, t = 0.2)
movej(p[-0.515932891374009, -0.226895829276187, 0.412428385546134, -0.87, -1.578, 1.668], a = 0.2, v = 0.2, t = 0.2)
movej(p[-0.515957822387453, -0.226934528946721, 0.411489084329468, -0.87, -1.578, 1.668], a = 0.2, v = 0.2, t = 0.2)
movej(p[-0.515974250471244, -0.226960029772496, 0.410870139611187, -0.87, -1.578, 1.668], a = 0.2, v = 0.2, t = 0.2)
movej(p[-0.515979041193217, -0.226967466267703, 0.410689644302075, -0.87, -1.578, 1.668], a = 0.2, v = 0.2, t = 0.2)
movej(p[-0.515981487109561, -0.226971262990884, 0.410597491923151, -0.87, -1.578, 1.668], a = 0.2, v = 0.2, t = 0.2)
movej(p[-0.515984900799892, -0.226976561960835, 0.410468877677764, -0.87, -1.578, 1.668], a = 0.2, v = 0.2, t = 0.2)
movej(p[-0.51598509339173, -0.226976860915417, 0.410461621584935, -0.87, -1.578, 1.668], a = 0.2, v = 0.2, t = 0.2)
movej(p[-0.515982575253447, -0.226972952084268, 0.41055649499867, -0.87, -1.578, 1.668], a = 0.2, v = 0.2, t = 0.2)
movej(p[-0.515963706068107, -0.226943662009176, 0.411267410693554, -0.87, -1.578, 1.668], a = 0.2, v = 0.2, t = 0.2)
movej(p[-0.515942983186326, -0.226911494496241, 0.412048166281914, -0.87, -1.578, 1.668], a = 0.2, v = 0.2, t = 0.2)
movej(p[-0.515912524787129, -0.226864214829228, 0.413195717362761, -0.87, -1.578, 1.668], a = 0.2, v = 0.2, t = 0.2)
movej(p[-0.515883708233351, -0.226819483750018, 0.414281410252243, -0.87, -1.578, 1.668], a = 0.2, v = 0.2, t = 0.2)
movej(p[-0.515865681637303, -0.22679150160122, 0.414960580541002, -0.87, -1.578, 1.668], a = 0.2, v = 0.2, t = 0.2)
movej(p[-0.515850043180048, -0.226767226489228, 0.415549775278687, -0.87, -1.578, 1.668], a = 0.2, v = 0.2, t = 0.2)
movej(p[-0.515872841238885, -0.226802615237775, 0.414690835290098, -0.87, -1.578, 1.668], a = 0.2, v = 0.2, t = 0.2)
movej(p[-0.515913444413156, -0.226865642337353, 0.413161069519504, -0.87, -1.578, 1.668], a = 0.2, v = 0.2, t = 0.2)
movej(p[-0.515949401309332, -0.226921457157659, 0.4118063569884, -0.87, -1.578, 1.668], a = 0.2, v = 0.2, t = 0.2)
movej(p[-0.515965376802303, -0.226946255440168, 0.411204464088266, -0.87, -1.578, 1.668], a = 0.2, v = 0.2, t = 0.2)
movej(p[-0.515973980842671, -0.226959611236082, 0.410880298141147, -0.87, -1.578, 1.668], a = 0.2, v = 0.2, t = 0.2)
movej(p[-0.515981366739662, -0.226971076144271, 0.410602026981169, -0.87, -1.578, 1.668], a = 0.2, v = 0.2, t = 0.2)
movej(p[-0.515983350435595, -0.226974155376457, 0.410527289225034, -0.87, -1.578, 1.668], a = 0.2, v = 0.2, t = 0.2)
movej(p[-0.515983210806512, -0.226973938634386, 0.410532549892335, -0.87, -1.578, 1.668], a = 0.2, v = 0.2, t = 0.2)
movej(p[-0.515977283792694, -0.22696473830715, 0.410755856149136, -0.87, -1.578, 1.668], a = 0.2, v = 0.2, t = 0.2)
movej(p[-0.515960176822674, -0.226938183666476, 0.411400378594639, -0.87, -1.578, 1.668], a = 0.2, v = 0.2, t = 0.2)
movej(p[-0.515931393972468, -0.226893504904319, 0.412484801667876, -0.87, -1.578, 1.668], a = 0.2, v = 0.2, t = 0.2)
movej(p[-0.515899207061523, -0.226843542119939, 0.41369747618186, -0.87, -1.578, 1.668], a = 0.2, v = 0.2, t = 0.2)
movej(p[-0.515874526417469, -0.226805231090361, 0.414627344477848, -0.87, -1.578, 1.668], a = 0.2, v = 0.2, t = 0.2)
movej(p[-0.515850620955563, -0.226768123352971, 0.415528007000201, -0.87, -1.578, 1.668], a = 0.2, v = 0.2, t = 0.2)
movej(p[-0.515847496152989, -0.226763272814892, 0.415645737106345, -0.87, -1.578, 1.668], a = 0.2, v = 0.2, t = 0.2)
movej(p[-0.51588423304611, -0.226820298401252, 0.414261637399285, -0.87, -1.578, 1.668], a = 0.2, v = 0.2, t = 0.2)
movej(p[-0.515925770290795, -0.226884775430548, 0.412696679578472, -0.87, -1.578, 1.668], a = 0.2, v = 0.2, t = 0.2)
movej(p[-0.515949271309841, -0.226921255363317, 0.411811254851059, -0.87, -1.578, 1.668], a = 0.2, v = 0.2, t = 0.2)
movej(p[-0.515965174580873, -0.226945941537858, 0.411212082985736, -0.87, -1.578, 1.668], a = 0.2, v = 0.2, t = 0.2)
movej(p[-0.51597526639319, -0.226961606757912, 0.410831863721516, -0.87, -1.578, 1.668], a = 0.2, v = 0.2, t = 0.2)
movej(p[-0.515981930070789, -0.226971950586421, 0.410580802909646, -0.87, -1.578, 1.668], a = 0.2, v = 0.2, t = 0.2)
movej(p[-0.515983042288654, -0.226973677049127, 0.41053889897356, -0.87, -1.578, 1.668], a = 0.2, v = 0.2, t = 0.2)
movej(p[-0.515982782289673, -0.226973273460442, 0.410548694698879, -0.87, -1.578, 1.668], a = 0.2, v = 0.2, t = 0.2)
movej(p[-0.515979590079956, -0.226968318288259, 0.410668964437513, -0.87, -1.578, 1.668], a = 0.2, v = 0.2, t = 0.2)
movej(p[-0.515956170912441, -0.226931965411188, 0.411551305325474, -0.87, -1.578, 1.668], a = 0.2, v = 0.2, t = 0.2)
movej(p[-0.515929896570926, -0.22689118053245, 0.412541217789619, -0.87, -1.578, 1.668], a = 0.2, v = 0.2, t = 0.2)
movej(p[-0.51590417111615, -0.226851247674269, 0.413510450389202, -0.87, -1.578, 1.668], a = 0.2, v = 0.2, t = 0.2)
movej(p[-0.515882393794056, -0.226817443385002, 0.414330933085799, -0.87, -1.578, 1.668], a = 0.2, v = 0.2, t = 0.2)
movej(p[-0.515857169078059, -0.226778287808732, 0.415281299844028, -0.87, -1.578, 1.668], a = 0.2, v = 0.2, t = 0.2)
movej(p[-0.515849999846885, -0.226767159224447, 0.415551407899573, -0.87, -1.578, 1.668], a = 0.2, v = 0.2, t = 0.2)
movej(p[-0.515876601594524, -0.226808452325973, 0.414549160077619, -0.87, -1.578, 1.668], a = 0.2, v = 0.2, t = 0.2)
movej(p[-0.515906130738103, -0.226854289537132, 0.413436619644671, -0.87, -1.578, 1.668], a = 0.2, v = 0.2, t = 0.2)
movej(p[-0.515934249146468, -0.226897936905985, 0.412377230091692, -0.87, -1.578, 1.668], a = 0.2, v = 0.2, t = 0.2)
movej(p[-0.515955540174171, -0.226930986334934, 0.411575069029488, -0.87, -1.578, 1.668], a = 0.2, v = 0.2, t = 0.2)
movej(p[-0.515973191216135, -0.2269583855223, 0.410910048121744, -0.87, -1.578, 1.668], a = 0.2, v = 0.2, t = 0.2)
movej(p[-0.515978564528418, -0.226966726355115, 0.410707603131826, -0.87, -1.578, 1.668], a = 0.2, v = 0.2, t = 0.2)
movej(p[-0.515980687853433, -0.226970022329372, 0.41062760470839, -0.87, -1.578, 1.668], a = 0.2, v = 0.2, t = 0.2)
movej(p[-0.51598299895549, -0.226973609784346, 0.410540531594447, -0.87, -1.578, 1.668], a = 0.2, v = 0.2, t = 0.2)
movej(p[-0.515982950807531, -0.226973535045701, 0.410542345617654, -0.87, -1.578, 1.668], a = 0.2, v = 0.2, t = 0.2)
movej(p[-0.515967827533443, -0.226950059637214, 0.411112130307021, -0.87, -1.578, 1.668], a = 0.2, v = 0.2, t = 0.2)
movej(p[-0.515945554287365, -0.2269154855399, 0.411951297442652, -0.87, -1.578, 1.668], a = 0.2, v = 0.2, t = 0.2)
movej(p[-0.515923430299962, -0.226881143132387, 0.41278484110634, -0.87, -1.578, 1.668], a = 0.2, v = 0.2, t = 0.2)
movej(p[-0.515893905971179, -0.226835313395092, 0.413897200136968, -0.87, -1.578, 1.668], a = 0.2, v = 0.2, t = 0.2)
movej(p[-0.515866452004656, -0.226792697419544, 0.414931556169688, -0.87, -1.578, 1.668], a = 0.2, v = 0.2, t = 0.2)
movej(p[-0.515851415396895, -0.226769356540619, 0.415498075617283, -0.87, -1.578, 1.668], a = 0.2, v = 0.2, t = 0.2)
movej(p[-0.515871594206733, -0.226800679506862, 0.414737818491164, -0.87, -1.578, 1.668], a = 0.2, v = 0.2, t = 0.2)
movej(p[-0.515905649258508, -0.226853542150679, 0.413454759876742, -0.87, -1.578, 1.668], a = 0.2, v = 0.2, t = 0.2)
movej(p[-0.51593769654037, -0.226903288192988, 0.41224734603006, -0.87, -1.578, 1.668], a = 0.2, v = 0.2, t = 0.2)
movej(p[-0.515963041626266, -0.226942630615871, 0.411292444213813, -0.87, -1.578, 1.668], a = 0.2, v = 0.2, t = 0.2)
movej(p[-0.515973398252361, -0.226958706898474, 0.410902247821954, -0.87, -1.578, 1.668], a = 0.2, v = 0.2, t = 0.2)
movej(p[-0.51597855008403, -0.226966703933521, 0.410708147338788, -0.87, -1.578, 1.668], a = 0.2, v = 0.2, t = 0.2)
movej(p[-0.515980784149352, -0.226970171806663, 0.410623976661976, -0.87, -1.578, 1.668], a = 0.2, v = 0.2, t = 0.2)
movej(p[-0.51598491524428, -0.226976584382429, 0.410468333470802, -0.87, -1.578, 1.668], a = 0.2, v = 0.2, t = 0.2)
movej(p[-0.515983056733042, -0.226973699470721, 0.410538354766598, -0.87, -1.578, 1.668], a = 0.2, v = 0.2, t = 0.2)
movej(p[-0.515966647908435, -0.226948228540404, 0.411156573875597, -0.87, -1.578, 1.668], a = 0.2, v = 0.2, t = 0.2)
movej(p[-0.515948033907281, -0.226919334580133, 0.411857875247483, -0.87, -1.578, 1.668], a = 0.2, v = 0.2, t = 0.2)
movej(p[-0.515919727721874, -0.226875395730564, 0.41292433949097, -0.87, -1.578, 1.668], a = 0.2, v = 0.2, t = 0.2)
movej(p[-0.515887868217054, -0.226825941168972, 0.414124678647145, -0.87, -1.578, 1.668], a = 0.2, v = 0.2, t = 0.2)
movej(p[-0.515861993503604, -0.22678577662099, 0.415099534718671, -0.87, -1.578, 1.668], a = 0.2, v = 0.2, t = 0.2)
movej(p[-0.515852089468329, -0.226770402881653, 0.415472679292382, -0.87, -1.578, 1.668], a = 0.2, v = 0.2, t = 0.2)
movej(p[-0.515871921612858, -0.22680118772965, 0.414725483133355, -0.87, -1.578, 1.668], a = 0.2, v = 0.2, t = 0.2)
movej(p[-0.515906954068211, -0.226855567567967, 0.413405599847828, -0.87, -1.578, 1.668], a = 0.2, v = 0.2, t = 0.2)
movej(p[-0.515940132827122, -0.22690706996844, 0.412155556455777, -0.87, -1.578, 1.668], a = 0.2, v = 0.2, t = 0.2)
movej(p[-0.515963999770661, -0.226944117914913, 0.41125634515199, -0.87, -1.578, 1.668], a = 0.2, v = 0.2, t = 0.2)
movej(p[-0.515973297141646, -0.226958549947319, 0.410906057270689, -0.87, -1.578, 1.668], a = 0.2, v = 0.2, t = 0.2)
movej(p[-0.515978352677396, -0.226966397505075, 0.410715584833937, -0.87, -1.578, 1.668], a = 0.2, v = 0.2, t = 0.2)
movej(p[-0.51598367784172, -0.226974663599245, 0.410514953867226, -0.87, -1.578, 1.668], a = 0.2, v = 0.2, t = 0.2)
movej(p[-0.515984616726931, -0.226976121002828, 0.410479580414686, -0.87, -1.578, 1.668], a = 0.2, v = 0.2, t = 0.2)
movej(p[-0.515984448209072, -0.22697585941757, 0.410485929495911, -0.87, -1.578, 1.668], a = 0.2, v = 0.2, t = 0.2)
movej(p[-0.515976513425342, -0.226963542488825, 0.410784880520451, -0.87, -1.578, 1.668], a = 0.2, v = 0.2, t = 0.2)
movej(p[-0.515962155703811, -0.226941255424798, 0.411325822240824, -0.87, -1.578, 1.668], a = 0.2, v = 0.2, t = 0.2)
movej(p[-0.515931302491345, -0.226893362900893, 0.41248824831197, -0.87, -1.578, 1.668], a = 0.2, v = 0.2, t = 0.2)
movej(p[-0.515903020379918, -0.226849461420646, 0.413553805543853, -0.87, -1.578, 1.668], a = 0.2, v = 0.2, t = 0.2)
movej(p[-0.515885128598157, -0.226821688540055, 0.414227896567632, -0.87, -1.578, 1.668], a = 0.2, v = 0.2, t = 0.2)
movej(p[-0.515862441279627, -0.226786471690391, 0.415082664302844, -0.87, -1.578, 1.668], a = 0.2, v = 0.2, t = 0.2)
movej(p[-0.515837303229957, -0.226747450643683, 0.4160297658193, -0.87, -1.578, 1.668], a = 0.2, v = 0.2, t = 0.2)
movej(p[-0.515824866612011, -0.226728145651603, 0.416498328013708, -0.87, -1.578, 1.668], a = 0.2, v = 0.2, t = 0.2)
movej(p[-0.515864969047502, -0.226790395469269, 0.414987428084468, -0.87, -1.578, 1.668], a = 0.2, v = 0.2, t = 0.2)
movej(p[-0.515904402226356, -0.226851606419766, 0.413501743077808, -0.87, -1.578, 1.668], a = 0.2, v = 0.2, t = 0.2)
movej(p[-0.515933146558195, -0.226896225391008, 0.412418771223136, -0.87, -1.578, 1.668], a = 0.2, v = 0.2, t = 0.2)
movej(p[-0.515958400162967, -0.226935425810465, 0.411467316050983, -0.87, -1.578, 1.668], a = 0.2, v = 0.2, t = 0.2)
movej(p[-0.515972396774802, -0.226957152334652, 0.410939979504662, -0.87, -1.578, 1.668], a = 0.2, v = 0.2, t = 0.2)
movej(p[-0.515978497121275, -0.226966621721011, 0.410710142764316, -0.87, -1.578, 1.668], a = 0.2, v = 0.2, t = 0.2)
movej(p[-0.515981472665173, -0.22697124056929, 0.410598036130114, -0.87, -1.578, 1.668], a = 0.2, v = 0.2, t = 0.2)
movej(p[-0.515985603760101, -0.226977653145057, 0.41044239293894, -0.87, -1.578, 1.668], a = 0.2, v = 0.2, t = 0.2)
movej(p[-0.515985281168772, -0.226977152396133, 0.410454546894428, -0.87, -1.578, 1.668], a = 0.2, v = 0.2, t = 0.2)
movej(p[-0.515985608574897, -0.226977660618921, 0.410442211536619, -0.87, -1.578, 1.668], a = 0.2, v = 0.2, t = 0.2)
movej(p[-0.515985387094283, -0.226977316821153, 0.410450556043372, -0.87, -1.578, 1.668], a = 0.2, v = 0.2, t = 0.2)
movej(p[-0.51597976341261, -0.226968587347382, 0.410662433953968, -0.87, -1.578, 1.668], a = 0.2, v = 0.2, t = 0.2)
movej(p[-0.515955785728765, -0.226931367502025, 0.411565817511131, -0.87, -1.578, 1.668], a = 0.2, v = 0.2, t = 0.2)
movej(p[-0.515926824731109, -0.22688641220688, 0.412656952470235, -0.87, -1.578, 1.668], a = 0.2, v = 0.2, t = 0.2)
movej(p[-0.515906015183, -0.226854110164384, 0.413440973300368, -0.87, -1.578, 1.668], a = 0.2, v = 0.2, t = 0.2)
movej(p[-0.515877896774636, -0.226810462795531, 0.414500362853347, -0.87, -1.578, 1.668], a = 0.2, v = 0.2, t = 0.2)
movej(p[-0.51585480019845, -0.226774610667383, 0.41537054978582, -0.87, -1.578, 1.668], a = 0.2, v = 0.2, t = 0.2)
movej(p[-0.515864684974541, -0.226789954511262, 0.41499813082139, -0.87, -1.578, 1.668], a = 0.2, v = 0.2, t = 0.2)
movej(p[-0.515905090742177, -0.226852675182394, 0.413475802545945, -0.87, -1.578, 1.668], a = 0.2, v = 0.2, t = 0.2)
movej(p[-0.515934027665854, -0.226897593108216, 0.412385574598445, -0.87, -1.578, 1.668], a = 0.2, v = 0.2, t = 0.2)
movej(p[-0.515954533881817, -0.226929424297248, 0.411612982114517, -0.87, -1.578, 1.668], a = 0.2, v = 0.2, t = 0.2)
movej(p[-0.515970080857949, -0.226953557405814, 0.411027234020927, -0.87, -1.578, 1.668], a = 0.2, v = 0.2, t = 0.2)
movej(p[-0.515979676746283, -0.226968452817821, 0.41066569919574, -0.87, -1.578, 1.668], a = 0.2, v = 0.2, t = 0.2)
movej(p[-0.515982445253956, -0.226972750289925, 0.410561392861329, -0.87, -1.578, 1.668], a = 0.2, v = 0.2, t = 0.2)
movej(p[-0.515982276736098, -0.226972488704667, 0.410567741942554, -0.87, -1.578, 1.668], a = 0.2, v = 0.2, t = 0.2)
movej(p[-0.515974370841143, -0.226960216619109, 0.410865604553169, -0.87, -1.578, 1.668], a = 0.2, v = 0.2, t = 0.2)
movej(p[-0.515945554287365, -0.2269154855399, 0.411951297442652, -0.87, -1.578, 1.668], a = 0.2, v = 0.2, t = 0.2)
movej(p[-0.515910093315172, -0.22686044052764, 0.413287325534722, -0.87, -1.578, 1.668], a = 0.2, v = 0.2, t = 0.2)
movej(p[-0.515879740841486, -0.226813325285646, 0.414430885764513, -0.87, -1.578, 1.668], a = 0.2, v = 0.2, t = 0.2)
movej(p[-0.515858300555108, -0.226780044166896, 0.415238670298659, -0.87, -1.578, 1.668], a = 0.2, v = 0.2, t = 0.2)
movej(p[-0.515837832857512, -0.226748272768781, 0.416009811564021, -0.87, -1.578, 1.668], a = 0.2, v = 0.2, t = 0.2)
movej(p[-0.515861382024517, -0.226784827440195, 0.415122572813401, -0.87, -1.578, 1.668], a = 0.2, v = 0.2, t = 0.2)
movej(p[-0.515902129642666, -0.226848078755708, 0.413587364973185, -0.87, -1.578, 1.668], a = 0.2, v = 0.2, t = 0.2)
movej(p[-0.515928789167857, -0.226889461543608, 0.412582940323383, -0.87, -1.578, 1.668], a = 0.2, v = 0.2, t = 0.2)
movej(p[-0.515947422428195, -0.226918385399338, 0.411880913342214, -0.87, -1.578, 1.668], a = 0.2, v = 0.2, t = 0.2)
movej(p[-0.515957851276229, -0.226934573789909, 0.411487995915544, -0.87, -1.578, 1.668], a = 0.2, v = 0.2, t = 0.2)
movej(p[-0.515963672364536, -0.226943609692125, 0.411268680509799, -0.87, -1.578, 1.668], a = 0.2, v = 0.2, t = 0.2)
movej(p[-0.515958843124195, -0.226936113406002, 0.411450627037477, -0.87, -1.578, 1.668], a = 0.2, v = 0.2, t = 0.2)
movej(p[-0.515925471773446, -0.226884312050947, 0.412707926522356, -0.87, -1.578, 1.668], a = 0.2, v = 0.2, t = 0.2)
movej(p[-0.515889144137982, -0.226827921743072, 0.414076607032155, -0.87, -1.578, 1.668], a = 0.2, v = 0.2, t = 0.2)
movej(p[-0.51585538278876, -0.226775515004991, 0.415348600105013, -0.87, -1.578, 1.668], a = 0.2, v = 0.2, t = 0.2)
movej(p[-0.515824500687519, -0.226727577637899, 0.416512114590083, -0.87, -1.578, 1.668], a = 0.2, v = 0.2, t = 0.2)
movej(p[-0.515783613440287, -0.226664109580314, 0.418052583097599, -0.87, -1.578, 1.668], a = 0.2, v = 0.2, t = 0.2)
movej(p[-0.515743766188981, -0.226602255877468, 0.419553868703841, -0.87, -1.578, 1.668], a = 0.2, v = 0.2, t = 0.2)
movej(p[-0.515734897334836, -0.226588489019004, 0.4198880117786, -0.87, -1.578, 1.668], a = 0.2, v = 0.2, t = 0.2)
movej(p[-0.515794056732709, -0.226680320392479, 0.417659121463967, -0.87, -1.578, 1.668], a = 0.2, v = 0.2, t = 0.2)
movej(p[-0.515844303943273, -0.226758317642709, 0.41576600684498, -0.87, -1.578, 1.668], a = 0.2, v = 0.2, t = 0.2)
movej(p[-0.515879774545057, -0.226813377602698, 0.414429615948268, -0.87, -1.578, 1.668], a = 0.2, v = 0.2, t = 0.2)
movej(p[-0.515904479263091, -0.226851726001599, 0.413498840640676, -0.87, -1.578, 1.668], a = 0.2, v = 0.2, t = 0.2)
movej(p[-0.515925625846916, -0.226884551214612, 0.412702121648093, -0.87, -1.578, 1.668], a = 0.2, v = 0.2, t = 0.2)
movej(p[-0.515945785397571, -0.226915844285398, 0.411942590131257, -0.87, -1.578, 1.668], a = 0.2, v = 0.2, t = 0.2)
movej(p[-0.515957273500714, -0.226933676926165, 0.41150976419403, -0.87, -1.578, 1.668], a = 0.2, v = 0.2, t = 0.2)
movej(p[-0.515966758648742, -0.226948400439288, 0.41115240162222, -0.87, -1.578, 1.668], a = 0.2, v = 0.2, t = 0.2)
movej(p[-0.515973027513072, -0.226958131410906, 0.410916215800649, -0.87, -1.578, 1.668], a = 0.2, v = 0.2, t = 0.2)
movej(p[-0.51597875230546, -0.226967017835831, 0.410700528441318, -0.87, -1.578, 1.668], a = 0.2, v = 0.2, t = 0.2)
movej(p[-0.515975439725844, -0.226961875817035, 0.41082533323797, -0.87, -1.578, 1.668], a = 0.2, v = 0.2, t = 0.2)
movej(p[-0.515949357976168, -0.226921389892878, 0.411807989609286, -0.87, -1.578, 1.668], a = 0.2, v = 0.2, t = 0.2)
movej(p[-0.515923988816292, -0.226882010100672, 0.412763798437137, -0.87, -1.578, 1.668], a = 0.2, v = 0.2, t = 0.2)
movej(p[-0.515889928949722, -0.22682913998299, 0.414047038453879, -0.87, -1.578, 1.668], a = 0.2, v = 0.2, t = 0.2)
movej(p[-0.51586482941842, -0.226790178727198, 0.414992688751769, -0.87, -1.578, 1.668], a = 0.2, v = 0.2, t = 0.2)
movej(p[-0.515868363478649, -0.226795664543763, 0.414859539448364, -0.87, -1.578, 1.668], a = 0.2, v = 0.2, t = 0.2)
movej(p[-0.515912611453456, -0.226864349358789, 0.413192452120988, -0.87, -1.578, 1.668], a = 0.2, v = 0.2, t = 0.2)
movej(p[-0.51594381133123, -0.22691278000094, 0.412016965082751, -0.87, -1.578, 1.668], a = 0.2, v = 0.2, t = 0.2)
movej(p[-0.515963624216576, -0.226943534953479, 0.411270494533006, -0.87, -1.578, 1.668], a = 0.2, v = 0.2, t = 0.2)
movej(p[-0.515975526392172, -0.226962010346596, 0.410822067996197, -0.87, -1.578, 1.668], a = 0.2, v = 0.2, t = 0.2)
movej(p[-0.515980740816189, -0.226970104541882, 0.410625609282862, -0.87, -1.578, 1.668], a = 0.2, v = 0.2, t = 0.2)
movej(p[-0.515982478957528, -0.226972802606977, 0.410560123045084, -0.87, -1.578, 1.668], a = 0.2, v = 0.2, t = 0.2)
movej(p[-0.515981814515686, -0.226971771213672, 0.410585156565343, -0.87, -1.578, 1.668], a = 0.2, v = 0.2, t = 0.2)
movej(p[-0.515972955291133, -0.226958019302938, 0.410918936835459, -0.87, -1.578, 1.668], a = 0.2, v = 0.2, t = 0.2)
movej(p[-0.515943873923578, -0.226912877161179, 0.412014606852581, -0.87, -1.578, 1.668], a = 0.2, v = 0.2, t = 0.2)
movej(p[-0.51591642477185, -0.226870268659496, 0.413048781482981, -0.87, -1.578, 1.668], a = 0.2, v = 0.2, t = 0.2)
movej(p[-0.515891387832896, -0.226831404563943, 0.413992073550702, -0.87, -1.578, 1.668], a = 0.2, v = 0.2, t = 0.2)
movej(p[-0.515866972002619, -0.226793504596914, 0.414911964719051, -0.87, -1.578, 1.668], a = 0.2, v = 0.2, t = 0.2)
movej(p[-0.515855373159168, -0.226775500057262, 0.415348962909654, -0.87, -1.578, 1.668], a = 0.2, v = 0.2, t = 0.2)
movej(p[-0.515885407856322, -0.226822122024197, 0.414217375233031, -0.87, -1.578, 1.668], a = 0.2, v = 0.2, t = 0.2)
movej(p[-0.515928875834184, -0.22688959607317, 0.41257967508161, -0.87, -1.578, 1.668], a = 0.2, v = 0.2, t = 0.2)
movej(p[-0.515952762036907, -0.226926673915101, 0.41167973816854, -0.87, -1.578, 1.668], a = 0.2, v = 0.2, t = 0.2)
movej(p[-0.515967933458954, -0.226950224062233, 0.411108139455966, -0.87, -1.578, 1.668], a = 0.2, v = 0.2, t = 0.2)
movej(p[-0.515975203800843, -0.226961509597673, 0.410834221951685, -0.87, -1.578, 1.668], a = 0.2, v = 0.2, t = 0.2)
movej(p[-0.515982209328954, -0.226972384070563, 0.410570281575044, -0.87, -1.578, 1.668], a = 0.2, v = 0.2, t = 0.2)
movej(p[-0.51598309525141, -0.226973759261637, 0.410536903548032, -0.87, -1.578, 1.668], a = 0.2, v = 0.2, t = 0.2)
movej(p[-0.51598140525803, -0.226971135935187, 0.410600575762604, -0.87, -1.578, 1.668], a = 0.2, v = 0.2, t = 0.2)
movej(p[-0.515970167524276, -0.226953691935375, 0.411023968779154, -0.87, -1.578, 1.668], a = 0.2, v = 0.2, t = 0.2)
movej(p[-0.515945592805733, -0.226915545330816, 0.411949846224086, -0.87, -1.578, 1.668], a = 0.2, v = 0.2, t = 0.2)
movej(p[-0.515917252916754, -0.226871554164196, 0.413017580283818, -0.87, -1.578, 1.668], a = 0.2, v = 0.2, t = 0.2)
movej(p[-0.515894541524245, -0.22683629994521, 0.413873255030633, -0.87, -1.578, 1.668], a = 0.2, v = 0.2, t = 0.2)
movej(p[-0.515877357517489, -0.226809625722704, 0.414520679913267, -0.87, -1.578, 1.668], a = 0.2, v = 0.2, t = 0.2)
movej(p[-0.51587274012817, -0.22680245828662, 0.414694644738833, -0.87, -1.578, 1.668], a = 0.2, v = 0.2, t = 0.2)
movej(p[-0.515903781117678, -0.226850642291242, 0.41352514397718, -0.87, -1.578, 1.668], a = 0.2, v = 0.2, t = 0.2)
movej(p[-0.515934937662289, -0.226899005668612, 0.41235128955983, -0.87, -1.578, 1.668], a = 0.2, v = 0.2, t = 0.2)
movej(p[-0.515960822005332, -0.226939185164323, 0.411376070683663, -0.87, -1.578, 1.668], a = 0.2, v = 0.2, t = 0.2)
movej(p[-0.515970923447241, -0.226954865332106, 0.410995488614801, -0.87, -1.578, 1.668], a = 0.2, v = 0.2, t = 0.2)
movej(p[-0.515976359351871, -0.22696330332516, 0.410790685394713, -0.87, -1.578, 1.668], a = 0.2, v = 0.2, t = 0.2)
movej(p[-0.515981077851905, -0.226970627712399, 0.410612911120412, -0.87, -1.578, 1.668], a = 0.2, v = 0.2, t = 0.2)
movej(p[-0.515983913766722, -0.226975029818607, 0.410506065153511, -0.87, -1.578, 1.668], a = 0.2, v = 0.2, t = 0.2)
movej(p[-0.515984154506519, -0.226975403511833, 0.410496995037475, -0.87, -1.578, 1.668], a = 0.2, v = 0.2, t = 0.2)
movej(p[-0.515984178580499, -0.226975440881156, 0.410496088025871, -0.87, -1.578, 1.668], a = 0.2, v = 0.2, t = 0.2)
movej(p[-0.51598713968001, -0.226980037307842, 0.410384525598631, -0.87, -1.578, 1.668], a = 0.2, v = 0.2, t = 0.2)
movej(p[-0.515981978218748, -0.226972025325066, 0.410578988886438, -0.87, -1.578, 1.668], a = 0.2, v = 0.2, t = 0.2)
movej(p[-0.515965800504347, -0.226946913140247, 0.411188500684043, -0.87, -1.578, 1.668], a = 0.2, v = 0.2, t = 0.2)
movej(p[-0.515945395399099, -0.226915238902371, 0.411957283719235, -0.87, -1.578, 1.668], a = 0.2, v = 0.2, t = 0.2)
movej(p[-0.515923213634144, -0.226880806808483, 0.412793004210772, -0.87, -1.578, 1.668], a = 0.2, v = 0.2, t = 0.2)
movej(p[-0.515894401895162, -0.226836083203138, 0.413878515697934, -0.87, -1.578, 1.668], a = 0.2, v = 0.2, t = 0.2)
movej(p[-0.515867087557722, -0.226793683969662, 0.414907611063353, -0.87, -1.578, 1.668], a = 0.2, v = 0.2, t = 0.2)
movej(p[-0.515854044275485, -0.226773437270652, 0.415399029950172, -0.87, -1.578, 1.668], a = 0.2, v = 0.2, t = 0.2)
movej(p[-0.515883515641513, -0.226819184795437, 0.414288666345072, -0.87, -1.578, 1.668], a = 0.2, v = 0.2, t = 0.2)
movej(p[-0.515917724766758, -0.226872286602919, 0.412999802856388, -0.87, -1.578, 1.668], a = 0.2, v = 0.2, t = 0.2)
movej(p[-0.515946035766961, -0.226916232926353, 0.41193315721058, -0.87, -1.578, 1.668], a = 0.2, v = 0.2, t = 0.2)
movej(p[-0.515967403831399, -0.226949401937135, 0.411128093711244, -0.87, -1.578, 1.668], a = 0.2, v = 0.2, t = 0.2)
movej(p[-0.515976003056971, -0.226962750259185, 0.410804109166446, -0.87, -1.578, 1.668], a = 0.2, v = 0.2, t = 0.2)
movej(p[-0.515979686375875, -0.22696846776555, 0.410665336391099, -0.87, -1.578, 1.668], a = 0.2, v = 0.2, t = 0.2)
movej(p[-0.515981458220786, -0.226971218147697, 0.410598580337076, -0.87, -1.578, 1.668], a = 0.2, v = 0.2, t = 0.2)
movej(p[-0.515985151169281, -0.226976950601791, 0.410459444757087, -0.87, -1.578, 1.668], a = 0.2, v = 0.2, t = 0.2)
movej(p[-0.515984703393258, -0.22697625553239, 0.410476315172913, -0.87, -1.578, 1.668], a = 0.2, v = 0.2, t = 0.2)
movej(p[-0.51598466487489, -0.226976195741473, 0.410477766391479, -0.87, -1.578, 1.668], a = 0.2, v = 0.2, t = 0.2)
movej(p[-0.515978511565662, -0.226966644142605, 0.410709598557354, -0.87, -1.578, 1.668], a = 0.2, v = 0.2, t = 0.2)
movej(p[-0.515962256814526, -0.226941412375953, 0.411322012792089, -0.87, -1.578, 1.668], a = 0.2, v = 0.2, t = 0.2)
movej(p[-0.515936988765365, -0.226902189534902, 0.412274012171205, -0.87, -1.578, 1.668], a = 0.2, v = 0.2, t = 0.2)
movej(p[-0.515911662938653, -0.226862877007477, 0.413228188378169, -0.87, -1.578, 1.668], a = 0.2, v = 0.2, t = 0.2)
movej(p[-0.515892562643108, -0.226833228186888, 0.413947811384447, -0.87, -1.578, 1.668], a = 0.2, v = 0.2, t = 0.2)
movej(p[-0.515873327533276, -0.226803370098093, 0.414672513655706, -0.87, -1.578, 1.668], a = 0.2, v = 0.2, t = 0.2)
movej(p[-0.515865729785263, -0.226791576339865, 0.414958766517795, -0.87, -1.578, 1.668], a = 0.2, v = 0.2, t = 0.2)
movej(p[-0.515895639297722, -0.226838003986322, 0.41383189530151, -0.87, -1.578, 1.668], a = 0.2, v = 0.2, t = 0.2)
movej(p[-0.515935481734232, -0.226899850215304, 0.412330791097589, -0.87, -1.578, 1.668], a = 0.2, v = 0.2, t = 0.2)
movej(p[-0.515956281652748, -0.226932137310072, 0.411547133072097, -0.87, -1.578, 1.668], a = 0.2, v = 0.2, t = 0.2)
movej(p[-0.515967596423237, -0.226949700891716, 0.411120837618416, -0.87, -1.578, 1.668], a = 0.2, v = 0.2, t = 0.2)
movej(p[-0.515975820094725, -0.226962466252333, 0.410811002454634, -0.87, -1.578, 1.668], a = 0.2, v = 0.2, t = 0.2)
movej(p[-0.515981472665173, -0.22697124056929, 0.410598036130114, -0.87, -1.578, 1.668], a = 0.2, v = 0.2, t = 0.2)
movej(p[-0.515982729326917, -0.226973191247933, 0.410550690124407, -0.87, -1.578, 1.668], a = 0.2, v = 0.2, t = 0.2)
movej(p[-0.515983417842738, -0.22697426001056, 0.410524749592544, -0.87, -1.578, 1.668], a = 0.2, v = 0.2, t = 0.2)
movej(p[-0.515986528200924, -0.226979088127046, 0.410407563693362, -0.87, -1.578, 1.668], a = 0.2, v = 0.2, t = 0.2)
movej(p[-0.515985531538162, -0.226977541037089, 0.41044511397375, -0.87, -1.578, 1.668], a = 0.2, v = 0.2, t = 0.2)
movej(p[-0.515975218245231, -0.226961532019267, 0.410833677744723, -0.87, -1.578, 1.668], a = 0.2, v = 0.2, t = 0.2)
movej(p[-0.515955217582843, -0.226930485586011, 0.411587222984976, -0.87, -1.578, 1.668], a = 0.2, v = 0.2, t = 0.2)
movej(p[-0.515937629133227, -0.226903183558885, 0.41224988566255, -0.87, -1.578, 1.668], a = 0.2, v = 0.2, t = 0.2)
movej(p[-0.515911850715695, -0.226863168488193, 0.413221113687661, -0.87, -1.578, 1.668], a = 0.2, v = 0.2, t = 0.2)
movej(p[-0.515890222652275, -0.226829595888727, 0.414035972912315, -0.87, -1.578, 1.668], a = 0.2, v = 0.2, t = 0.2)
movej(p[-0.515875648264926, -0.226806972500796, 0.414585077737121, -0.87, -1.578, 1.668], a = 0.2, v = 0.2, t = 0.2)
movej(p[-0.515867400519459, -0.226794169770857, 0.414895819912507, -0.87, -1.578, 1.668], a = 0.2, v = 0.2, t = 0.2)
movej(p[-0.515897237809978, -0.226840485309346, 0.413771669731032, -0.87, -1.578, 1.668], a = 0.2, v = 0.2, t = 0.2)
movej(p[-0.515930416568889, -0.226891987709819, 0.412521626338981, -0.87, -1.578, 1.668], a = 0.2, v = 0.2, t = 0.2)
movej(p[-0.515958679421133, -0.226935859294608, 0.411456794716381, -0.87, -1.578, 1.668], a = 0.2, v = 0.2, t = 0.2)
movej(p[-0.515970124191113, -0.226953624670594, 0.41102560140004, -0.87, -1.578, 1.668], a = 0.2, v = 0.2, t = 0.2)
movej(p[-0.515976831201875, -0.226964035763884, 0.410772907967283, -0.87, -1.578, 1.668], a = 0.2, v = 0.2, t = 0.2)
movej(p[-0.515981241554968, -0.226970881823793, 0.410606743441508, -0.87, -1.578, 1.668], a = 0.2, v = 0.2, t = 0.2)
movej(p[-0.515984765985605, -0.226976352692629, 0.410473956942744, -0.87, -1.578, 1.668], a = 0.2, v = 0.2, t = 0.2)
movej(p[-0.515984366357541, -0.226975732361873, 0.410489013335363, -0.87, -1.578, 1.668], a = 0.2, v = 0.2, t = 0.2)
movej(p[-0.515972334182455, -0.226957055174413, 0.410942337734832, -0.87, -1.578, 1.668], a = 0.2, v = 0.2, t = 0.2)
movej(p[-0.515953508330279, -0.226927832364103, 0.41165162080883, -0.87, -1.578, 1.668], a = 0.2, v = 0.2, t = 0.2)
movej(p[-0.515926487695392, -0.226885889036363, 0.412669650632685, -0.87, -1.578, 1.668], a = 0.2, v = 0.2, t = 0.2)
movej(p[-0.515899202246727, -0.226843534646074, 0.413697657584181, -0.87, -1.578, 1.668], a = 0.2, v = 0.2, t = 0.2)
movej(p[-0.515877410480244, -0.226809707935214, 0.414518684487739, -0.87, -1.578, 1.668], a = 0.2, v = 0.2, t = 0.2)
movej(p[-0.515867968665381, -0.226795051686871, 0.414874414438662, -0.87, -1.578, 1.668], a = 0.2, v = 0.2, t = 0.2)
movej(p[-0.515893077826275, -0.226834027890393, 0.413928401336131, -0.87, -1.578, 1.668], a = 0.2, v = 0.2, t = 0.2)
movej(p[-0.515928721760714, -0.226889356909505, 0.412585479955873, -0.87, -1.578, 1.668], a = 0.2, v = 0.2, t = 0.2)
movej(p[-0.515957485351736, -0.226934005776204, 0.411501782491918, -0.87, -1.578, 1.668], a = 0.2, v = 0.2, t = 0.2)
movej(p[-0.515970740484995, -0.226954581325254, 0.411002381902989, -0.87, -1.578, 1.668], a = 0.2, v = 0.2, t = 0.2)
movej(p[-0.515977163422796, -0.226964551460536, 0.410760391207154, -0.87, -1.578, 1.668], a = 0.2, v = 0.2, t = 0.2)
movej(p[-0.515980461558023, -0.226969671057739, 0.410636130617464, -0.87, -1.578, 1.668], a = 0.2, v = 0.2, t = 0.2)
movej(p[-0.515984987466219, -0.226976696490397, 0.410465612435991, -0.87, -1.578, 1.668], a = 0.2, v = 0.2, t = 0.2)
movej(p[-0.515985223391221, -0.226977062709759, 0.410456723722276, -0.87, -1.578, 1.668], a = 0.2, v = 0.2, t = 0.2)
movej(p[-0.515982243032526, -0.226972436387615, 0.410569011758799, -0.87, -1.578, 1.668], a = 0.2, v = 0.2, t = 0.2)
movej(p[-0.515968487160489, -0.226951083556654, 0.411087278189083, -0.87, -1.578, 1.668], a = 0.2, v = 0.2, t = 0.2)
movej(p[-0.515942906149591, -0.226911374914409, 0.412051068719045, -0.87, -1.578, 1.668], a = 0.2, v = 0.2, t = 0.2)
movej(p[-0.515914060707038, -0.226866598992012, 0.413137850022452, -0.87, -1.578, 1.668], a = 0.2, v = 0.2, t = 0.2)
movej(p[-0.515890092652784, -0.226829394094384, 0.414040870774974, -0.87, -1.578, 1.668], a = 0.2, v = 0.2, t = 0.2)
movej(p[-0.515873558643482, -0.22680372884359, 0.414663806344312, -0.87, -1.578, 1.668], a = 0.2, v = 0.2, t = 0.2)
movej(p[-0.515865619044956, -0.226791404440981, 0.414962938771172, -0.87, -1.578, 1.668], a = 0.2, v = 0.2, t = 0.2)
movej(p[-0.515895437076292, -0.226837690084012, 0.41383951419898, -0.87, -1.578, 1.668], a = 0.2, v = 0.2, t = 0.2)
movej(p[-0.515935419141884, -0.226899753055065, 0.412333149327758, -0.87, -1.578, 1.668], a = 0.2, v = 0.2, t = 0.2)
movej(p[-0.515959762750222, -0.226937540914127, 0.41141597919422, -0.87, -1.578, 1.668], a = 0.2, v = 0.2, t = 0.2)
movej(p[-0.515971881591635, -0.226956352631148, 0.410959389552979, -0.87, -1.578, 1.668], a = 0.2, v = 0.2, t = 0.2)
movej(p[-0.51597852601005, -0.226966666564198, 0.410709054350391, -0.87, -1.578, 1.668], a = 0.2, v = 0.2, t = 0.2)
movej(p[-0.515984655245298, -0.226976180793744, 0.410478129196121, -0.87, -1.578, 1.668], a = 0.2, v = 0.2, t = 0.2)
movej(p[-0.515985035614179, -0.226976771229042, 0.410463798412784, -0.87, -1.578, 1.668], a = 0.2, v = 0.2, t = 0.2)
movej(p[-0.515985151169281, -0.226976950601791, 0.410459444757087, -0.87, -1.578, 1.668], a = 0.2, v = 0.2, t = 0.2)
movej(p[-0.515985772277959, -0.226977914730315, 0.410436043857714, -0.87, -1.578, 1.668], a = 0.2, v = 0.2, t = 0.2)
movej(p[-0.515987635603993, -0.226980807115888, 0.410365841159598, -0.87, -1.578, 1.668], a = 0.2, v = 0.2, t = 0.2)
movej(p[-0.515977558236064, -0.226965164317428, 0.410745516216855, -0.87, -1.578, 1.668], a = 0.2, v = 0.2, t = 0.2)
movej(p[-0.515957157945612, -0.226933497553416, 0.411514117849727, -0.87, -1.578, 1.668], a = 0.2, v = 0.2, t = 0.2)
movej(p[-0.515939868013345, -0.226906658905891, 0.412165533583417, -0.87, -1.578, 1.668], a = 0.2, v = 0.2, t = 0.2)
movej(p[-0.515918018469311, -0.226872742508656, 0.412988737314824, -0.87, -1.578, 1.668], a = 0.2, v = 0.2, t = 0.2)
movej(p[-0.515894628190572, -0.226836434474771, 0.41386998978886, -0.87, -1.578, 1.668], a = 0.2, v = 0.2, t = 0.2)
movej(p[-0.515877381591469, -0.226809663092027, 0.414519772901664, -0.87, -1.578, 1.668], a = 0.2, v = 0.2, t = 0.2)
movej(p[-0.515881551204764, -0.226816135458709, 0.414362678491924, -0.87, -1.578, 1.668], a = 0.2, v = 0.2, t = 0.2)
movej(p[-0.515910589239156, -0.226861210335687, 0.413268641095688, -0.87, -1.578, 1.668], a = 0.2, v = 0.2, t = 0.2)
movej(p[-0.515941081341925, -0.226908542319752, 0.412119820198597, -0.87, -1.578, 1.668], a = 0.2, v = 0.2, t = 0.2)
movej(p[-0.515965020507403, -0.226945702374193, 0.411217887859999, -0.87, -1.578, 1.668], a = 0.2, v = 0.2, t = 0.2)
movej(p[-0.515974163804917, -0.226959895242935, 0.41087340485296, -0.87, -1.578, 1.668], a = 0.2, v = 0.2, t = 0.2)
movej(p[-0.515979647857507, -0.226968407974634, 0.410666787609665, -0.87, -1.578, 1.668], a = 0.2, v = 0.2, t = 0.2)
movej(p[-0.515982334513649, -0.226972578391041, 0.410565565114705, -0.87, -1.578, 1.668], a = 0.2, v = 0.2, t = 0.2)
movej(p[-0.515986947088172, -0.22697973835326, 0.41039178169146, -0.87, -1.578, 1.668], a = 0.2, v = 0.2, t = 0.2)
movej(p[-0.515987207087153, -0.226980141941945, 0.410381985966141, -0.87, -1.578, 1.668], a = 0.2, v = 0.2, t = 0.2)
movej(p[-0.51598675931113, -0.226979446872544, 0.410398856381968, -0.87, -1.578, 1.668], a = 0.2, v = 0.2, t = 0.2)
movej(p[-0.51598628264633, -0.226978706959955, 0.410416815211719, -0.87, -1.578, 1.668], a = 0.2, v = 0.2, t = 0.2)
movej(p[-0.515968419753345, -0.226950978922551, 0.411089817821573, -0.87, -1.578, 1.668], a = 0.2, v = 0.2, t = 0.2)
movej(p[-0.51594787983381, -0.226919095416468, 0.411863680121746, -0.87, -1.578, 1.668], a = 0.2, v = 0.2, t = 0.2)
movej(p[-0.515926434732636, -0.226885806823853, 0.412671646058213, -0.87, -1.578, 1.668], a = 0.2, v = 0.2, t = 0.2)
movej(p[-0.515909385540167, -0.226859341869554, 0.413313991675867, -0.87, -1.578, 1.668], a = 0.2, v = 0.2, t = 0.2)
movej(p[-0.515888388215017, -0.226826748346341, 0.414105087196508, -0.87, -1.578, 1.668], a = 0.2, v = 0.2, t = 0.2)
movej(p[-0.515873298644501, -0.226803325254905, 0.41467360206963, -0.87, -1.578, 1.668], a = 0.2, v = 0.2, t = 0.2)
movej(p[-0.515898788174275, -0.226842891893725, 0.413713258183762, -0.87, -1.578, 1.668], a = 0.2, v = 0.2, t = 0.2)
movej(p[-0.515930426198481, -0.226892002657548, 0.41252126353434, -0.87, -1.578, 1.668], a = 0.2, v = 0.2, t = 0.2)
movej(p[-0.515953137590991, -0.226927256876534, 0.411665588787525, -0.87, -1.578, 1.668], a = 0.2, v = 0.2, t = 0.2)
movej(p[-0.515968000866097, -0.226950328696337, 0.411105599823476, -0.87, -1.578, 1.668], a = 0.2, v = 0.2, t = 0.2)
movej(p[-0.515979681561079, -0.226968460291685, 0.41066551779342, -0.87, -1.578, 1.668], a = 0.2, v = 0.2, t = 0.2)
movej(p[-0.515982681178958, -0.226973116509287, 0.410552504147614, -0.87, -1.578, 1.668], a = 0.2, v = 0.2, t = 0.2)
movej(p[-0.515984019692233, -0.226975194243626, 0.410502074302455, -0.87, -1.578, 1.668], a = 0.2, v = 0.2, t = 0.2)
movej(p[-0.515985801166735, -0.226977959573502, 0.41043495544379, -0.87, -1.578, 1.668], a = 0.2, v = 0.2, t = 0.2)
movej(p[-0.515980967111598, -0.226970455813515, 0.410617083373789, -0.87, -1.578, 1.668], a = 0.2, v = 0.2, t = 0.2)
movej(p[-0.515959685713487, -0.226937421332294, 0.411418881631351, -0.87, -1.578, 1.668], a = 0.2, v = 0.2, t = 0.2)
movej(p[-0.515937763947513, -0.226903392827091, 0.41224480639757, -0.87, -1.578, 1.668], a = 0.2, v = 0.2, t = 0.2)
movej(p[-0.51591811476523, -0.226872891985946, 0.41298510926841, -0.87, -1.578, 1.668], a = 0.2, v = 0.2, t = 0.2)
movej(p[-0.515891662276265, -0.226831830574221, 0.413981733618421, -0.87, -1.578, 1.668], a = 0.2, v = 0.2, t = 0.2)
movej(p[-0.515868045702116, -0.226795171268704, 0.414871512001531, -0.87, -1.578, 1.668], a = 0.2, v = 0.2, t = 0.2)
movej(p[-0.515862407576055, -0.22678641937334, 0.415083934119089, -0.87, -1.578, 1.668], a = 0.2, v = 0.2, t = 0.2)
movej(p[-0.515899235950299, -0.226843586963126, 0.413696387767936, -0.87, -1.578, 1.668], a = 0.2, v = 0.2, t = 0.2)
movej(p[-0.515929400646943, -0.226890410724404, 0.412559902228652, -0.87, -1.578, 1.668], a = 0.2, v = 0.2, t = 0.2)
movej(p[-0.515954129438957, -0.226928796492627, 0.411628219909457, -0.87, -1.578, 1.668], a = 0.2, v = 0.2, t = 0.2)
movej(p[-0.515972748254907, -0.226957697926763, 0.41092673713525, -0.87, -1.578, 1.668], a = 0.2, v = 0.2, t = 0.2)
movej(p[-0.51597976341261, -0.226968587347382, 0.410662433953968, -0.87, -1.578, 1.668], a = 0.2, v = 0.2, t = 0.2)
movej(p[-0.515983104881001, -0.226973774209366, 0.410536540743391, -0.87, -1.578, 1.668], a = 0.2, v = 0.2, t = 0.2)
movej(p[-0.515984534875399, -0.226975993947131, 0.410482664254138, -0.87, -1.578, 1.668], a = 0.2, v = 0.2, t = 0.2)
movej(p[-0.515988463748897, -0.226982092620587, 0.410334639960435, -0.87, -1.578, 1.668], a = 0.2, v = 0.2, t = 0.2)
movej(p[-0.515988367452978, -0.226981943143297, 0.410338268006849, -0.87, -1.578, 1.668], a = 0.2, v = 0.2, t = 0.2)
movej(p[-0.51598410635856, -0.226975328773188, 0.410498809060682, -0.87, -1.578, 1.668], a = 0.2, v = 0.2, t = 0.2)
movej(p[-0.515969931599275, -0.226953325716013, 0.411032857492869, -0.87, -1.578, 1.668], a = 0.2, v = 0.2, t = 0.2)
movej(p[-0.515948606867999, -0.226920223970012, 0.411836288371318, -0.87, -1.578, 1.668], a = 0.2, v = 0.2, t = 0.2)
movej(p[-0.515921379196886, -0.226877959266097, 0.412862118494965, -0.87, -1.578, 1.668], a = 0.2, v = 0.2, t = 0.2)
movej(p[-0.515896380776299, -0.22683915496146, 0.41380395934412, -0.87, -1.578, 1.668], a = 0.2, v = 0.2, t = 0.2)
movej(p[-0.515877188999631, -0.226809364137445, 0.414527028994492, -0.87, -1.578, 1.668], a = 0.2, v = 0.2, t = 0.2)
movej(p[-0.515859793141853, -0.2267823610649, 0.415182435579238, -0.87, -1.578, 1.668], a = 0.2, v = 0.2, t = 0.2)
movej(p[-0.515880029729243, -0.226813773717518, 0.41442000162527, -0.87, -1.578, 1.668], a = 0.2, v = 0.2, t = 0.2)
movej(p[-0.515921947342808, -0.226878841182112, 0.41284071302112, -0.87, -1.578, 1.668], a = 0.2, v = 0.2, t = 0.2)
movej(p[-0.515955313878762, -0.226930635063301, 0.411583594938561, -0.87, -1.578, 1.668], a = 0.2, v = 0.2, t = 0.2)
movej(p[-0.515970360116114, -0.226953990889956, 0.411016712686325, -0.87, -1.578, 1.668], a = 0.2, v = 0.2, t = 0.2)
movej(p[-0.515977996382496, -0.2269658444391, 0.41072900860567, -0.87, -1.578, 1.668], a = 0.2, v = 0.2, t = 0.2)
movej(p[-0.515985083762138, -0.226976845967688, 0.410461984389577, -0.87, -1.578, 1.668], a = 0.2, v = 0.2, t = 0.2)
movej(p[-0.515986369312658, -0.226978841489517, 0.410413549969946, -0.87, -1.578, 1.668], a = 0.2, v = 0.2, t = 0.2)
movej(p[-0.515985743389184, -0.226977869887128, 0.410437132271639, -0.87, -1.578, 1.668], a = 0.2, v = 0.2, t = 0.2)
movej(p[-0.515971433815612, -0.226955657561746, 0.410976259968805, -0.87, -1.578, 1.668], a = 0.2, v = 0.2, t = 0.2)
movej(p[-0.515951688337409, -0.226925007243311, 0.41172019088606, -0.87, -1.578, 1.668], a = 0.2, v = 0.2, t = 0.2)
movej(p[-0.515924566591807, -0.226882906964416, 0.412742030158651, -0.87, -1.578, 1.668], a = 0.2, v = 0.2, t = 0.2)
movej(p[-0.515896226702828, -0.226838915797795, 0.413809764218383, -0.87, -1.578, 1.668], a = 0.2, v = 0.2, t = 0.2)
movej(p[-0.515875970856255, -0.226807473249719, 0.414572923781633, -0.87, -1.578, 1.668], a = 0.2, v = 0.2, t = 0.2)
movej(p[-0.515858252407148, -0.226779969428251, 0.415240484321867, -0.87, -1.578, 1.668], a = 0.2, v = 0.2, t = 0.2)
movej(p[-0.51587233568531, -0.226801830482, 0.414709882533773, -0.87, -1.578, 1.668], a = 0.2, v = 0.2, t = 0.2)
movej(p[-0.515909895908538, -0.226860134099194, 0.413294763029871, -0.87, -1.578, 1.668], a = 0.2, v = 0.2, t = 0.2)
movej(p[-0.515947489835338, -0.226918490033441, 0.411878373709724, -0.87, -1.578, 1.668], a = 0.2, v = 0.2, t = 0.2)
movej(p[-0.515965319024752, -0.226946165753794, 0.411206640916114, -0.87, -1.578, 1.668], a = 0.2, v = 0.2, t = 0.2)
movej(p[-0.515975868242684, -0.226962540990978, 0.410809188431426, -0.87, -1.578, 1.668], a = 0.2, v = 0.2, t = 0.2)
movej(p[-0.515982040811096, -0.226972122485305, 0.410576630656269, -0.87, -1.578, 1.668], a = 0.2, v = 0.2, t = 0.2)
movej(p[-0.515986422275413, -0.226978923702027, 0.410411554544418, -0.87, -1.578, 1.668], a = 0.2, v = 0.2, t = 0.2)
movej(p[-0.515986605237659, -0.226979207708879, 0.410404661256231, -0.87, -1.578, 1.668], a = 0.2, v = 0.2, t = 0.2)
movej(p[-0.515980586742718, -0.226969865378217, 0.410631414157125, -0.87, -1.578, 1.668], a = 0.2, v = 0.2, t = 0.2)
movej(p[-0.515961732001767, -0.226940597724719, 0.411341785645047, -0.87, -1.578, 1.668], a = 0.2, v = 0.2, t = 0.2)
movej(p[-0.515932645819416, -0.226895448109096, 0.41243763706449, -0.87, -1.578, 1.668], a = 0.2, v = 0.2, t = 0.2)
movej(p[-0.515903771488086, -0.226850627343513, 0.413525506781821, -0.87, -1.578, 1.668], a = 0.2, v = 0.2, t = 0.2)
movej(p[-0.515879658989954, -0.226813198229949, 0.414433969603965, -0.87, -1.578, 1.668], a = 0.2, v = 0.2, t = 0.2)
movej(p[-0.515860539435226, -0.226783519513902, 0.415154318219527, -0.87, -1.578, 1.668], a = 0.2, v = 0.2, t = 0.2)
movej(p[-0.515860553879614, -0.226783541935496, 0.415153774012564, -0.87, -1.578, 1.668], a = 0.2, v = 0.2, t = 0.2)
movej(p[-0.5158966167013, -0.226839521180822, 0.413795070630405, -0.87, -1.578, 1.668], a = 0.2, v = 0.2, t = 0.2)
movej(p[-0.515935621363315, -0.226900066957376, 0.412325530430288, -0.87, -1.578, 1.668], a = 0.2, v = 0.2, t = 0.2)
movej(p[-0.51595856386603, -0.226935679921859, 0.411461148372078, -0.87, -1.578, 1.668], a = 0.2, v = 0.2, t = 0.2)
movej(p[-0.51597304195746, -0.226958153832499, 0.410915671593686, -0.87, -1.578, 1.668], a = 0.2, v = 0.2, t = 0.2)
movej(p[-0.515979720079447, -0.226968520082602, 0.410664066574854, -0.87, -1.578, 1.668], a = 0.2, v = 0.2, t = 0.2)
movej(p[-0.515986412645821, -0.226978908754298, 0.410411917349059, -0.87, -1.578, 1.668], a = 0.2, v = 0.2, t = 0.2)
movej(p[-0.515987288938685, -0.226980268997642, 0.410378902126689, -0.87, -1.578, 1.668], a = 0.2, v = 0.2, t = 0.2)
movej(p[-0.515987467086135, -0.22698054553063, 0.410372190240823, -0.87, -1.578, 1.668], a = 0.2, v = 0.2, t = 0.2)
movej(p[-0.5159897685586, -0.226984118037875, 0.410285479931521, -0.87, -1.578, 1.668], a = 0.2, v = 0.2, t = 0.2)
movej(p[-0.515979402302914, -0.226968026807543, 0.410676039128021, -0.87, -1.578, 1.668], a = 0.2, v = 0.2, t = 0.2)
movej(p[-0.515957880165004, -0.226934618633096, 0.41148690750162, -0.87, -1.578, 1.668], a = 0.2, v = 0.2, t = 0.2)
movej(p[-0.515935265068414, -0.226899513891401, 0.412338954202021, -0.87, -1.578, 1.668], a = 0.2, v = 0.2, t = 0.2)
movej(p[-0.515915124776943, -0.226868250716074, 0.413097760109574, -0.87, -1.578, 1.668], a = 0.2, v = 0.2, t = 0.2)
movej(p[-0.515888133030831, -0.226826352231521, 0.414114701519506, -0.87, -1.578, 1.668], a = 0.2, v = 0.2, t = 0.2)
movej(p[-0.515866346079145, -0.226792532994525, 0.414935547020744, -0.87, -1.578, 1.668], a = 0.2, v = 0.2, t = 0.2)
movej(p[-0.515871165689894, -0.226800014332919, 0.414753963297707, -0.87, -1.578, 1.668], a = 0.2, v = 0.2, t = 0.2)
movej(p[-0.515897565216103, -0.226840993532134, 0.413759334373224, -0.87, -1.578, 1.668], a = 0.2, v = 0.2, t = 0.2)
movej(p[-0.515926853619884, -0.226886457050067, 0.412655864056311, -0.87, -1.578, 1.668], a = 0.2, v = 0.2, t = 0.2)
movej(p[-0.515952420186394, -0.226926143270719, 0.411692617733311, -0.87, -1.578, 1.668], a = 0.2, v = 0.2, t = 0.2)
movej(p[-0.515972160849801, -0.22695678611529, 0.410948868218377, -0.87, -1.578, 1.668], a = 0.2, v = 0.2, t = 0.2)
movej(p[-0.515978410454947, -0.22696648719145, 0.410713408006089, -0.87, -1.578, 1.668], a = 0.2, v = 0.2, t = 0.2)
movej(p[-0.515982348958037, -0.226972600812635, 0.410565020907743, -0.87, -1.578, 1.668], a = 0.2, v = 0.2, t = 0.2)
movej(p[-0.515985459316222, -0.226977428929121, 0.410447835008561, -0.87, -1.578, 1.668], a = 0.2, v = 0.2, t = 0.2)
movej(p[-0.515988540785632, -0.22698221220242, 0.410331737523303, -0.87, -1.578, 1.668], a = 0.2, v = 0.2, t = 0.2)
movej(p[-0.515988487822877, -0.22698212998991, 0.410333732948831, -0.87, -1.578, 1.668], a = 0.2, v = 0.2, t = 0.2)
movej(p[-0.515980163040674, -0.226969207678138, 0.410647377561348, -0.87, -1.578, 1.668], a = 0.2, v = 0.2, t = 0.2)
movej(p[-0.515964413843113, -0.226944760667262, 0.411240744552409, -0.87, -1.578, 1.668], a = 0.2, v = 0.2, t = 0.2)
movej(p[-0.51594059986233, -0.226907794933299, 0.412137960430668, -0.87, -1.578, 1.668], a = 0.2, v = 0.2, t = 0.2)
movej(p[-0.515914349594795, -0.226867047423884, 0.413126965883209, -0.87, -1.578, 1.668], a = 0.2, v = 0.2, t = 0.2)
movej(p[-0.515892760049742, -0.226833534615334, 0.413940373889298, -0.87, -1.578, 1.668], a = 0.2, v = 0.2, t = 0.2)
movej(p[-0.515876115300133, -0.226807697465655, 0.414567481712012, -0.87, -1.578, 1.668], a = 0.2, v = 0.2, t = 0.2)
movej(p[-0.51587033754499, -0.22679872882822, 0.41478516449687, -0.87, -1.578, 1.668], a = 0.2, v = 0.2, t = 0.2)
movej(p[-0.51589706929212, -0.226840223724088, 0.413778018812258, -0.87, -1.578, 1.668], a = 0.2, v = 0.2, t = 0.2)
movej(p[-0.515936545804137, -0.226901501939365, 0.412290701184711, -0.87, -1.578, 1.668], a = 0.2, v = 0.2, t = 0.2)
movej(p[-0.515957904238984, -0.226934656002418, 0.411486000490016, -0.87, -1.578, 1.668], a = 0.2, v = 0.2, t = 0.2)
movej(p[-0.515971313445713, -0.226955470715133, 0.410980795026823, -0.87, -1.578, 1.668], a = 0.2, v = 0.2, t = 0.2)
movej(p[-0.515979070081993, -0.22696751111089, 0.410688555888151, -0.87, -1.578, 1.668], a = 0.2, v = 0.2, t = 0.2)
movej(p[-0.515986518571332, -0.226979073179317, 0.410407926498004, -0.87, -1.578, 1.668], a = 0.2, v = 0.2, t = 0.2)
movej(p[-0.515987659677973, -0.226980844485211, 0.410364934147994, -0.87, -1.578, 1.668], a = 0.2, v = 0.2, t = 0.2)
movej(p[-0.515987823381035, -0.226981098596605, 0.41035876646909, -0.87, -1.578, 1.668], a = 0.2, v = 0.2, t = 0.2)
movej(p[-0.515989701151457, -0.226984013403771, 0.410288019564011, -0.87, -1.578, 1.668], a = 0.2, v = 0.2, t = 0.2)
movej(p[-0.515977601569227, -0.226965231582209, 0.410743883595969, -0.87, -1.578, 1.668], a = 0.2, v = 0.2, t = 0.2)
movej(p[-0.515953118331807, -0.226927226981076, 0.411666314396808, -0.87, -1.578, 1.668], a = 0.2, v = 0.2, t = 0.2)
movej(p[-0.515926237326002, -0.226885500395408, 0.412679083553363, -0.87, -1.578, 1.668], a = 0.2, v = 0.2, t = 0.2)
movej(p[-0.515899260024279, -0.226843624332449, 0.413695480756332, -0.87, -1.578, 1.668], a = 0.2, v = 0.2, t = 0.2)
movej(p[-0.515870400137337, -0.226798825988459, 0.414782806266701, -0.87, -1.578, 1.668], a = 0.2, v = 0.2, t = 0.2)
movej(p[-0.515849893921374, -0.226766994799427, 0.415555398750629, -0.87, -1.578, 1.668], a = 0.2, v = 0.2, t = 0.2)
movej(p[-0.515864275716885, -0.226789319232777, 0.415013550018651, -0.87, -1.578, 1.668], a = 0.2, v = 0.2, t = 0.2)
movej(p[-0.515907652213624, -0.226856651278324, 0.413379296511325, -0.87, -1.578, 1.668], a = 0.2, v = 0.2, t = 0.2)
movej(p[-0.515942554669487, -0.226910829322298, 0.412064311088457, -0.87, -1.578, 1.668], a = 0.2, v = 0.2, t = 0.2)
movej(p[-0.515963585698209, -0.226943475162563, 0.411271945751572, -0.87, -1.578, 1.668], a = 0.2, v = 0.2, t = 0.2)
movej(p[-0.515979898226897, -0.226968796615589, 0.410657354688988, -0.87, -1.578, 1.668], a = 0.2, v = 0.2, t = 0.2)
movej(p[-0.515983485249882, -0.226974364644664, 0.410522209960054, -0.87, -1.578, 1.668], a = 0.2, v = 0.2, t = 0.2)
movej(p[-0.51598572413, -0.22697783999167, 0.410437857880922, -0.87, -1.578, 1.668], a = 0.2, v = 0.2, t = 0.2)
movej(p[-0.515987808936647, -0.226981076175011, 0.410359310676052, -0.87, -1.578, 1.668], a = 0.2, v = 0.2, t = 0.2)
movej(p[-0.515990254852991, -0.226984872898192, 0.410267158297128, -0.87, -1.578, 1.668], a = 0.2, v = 0.2, t = 0.2)
movej(p[-0.515981520813133, -0.226971315307936, 0.410596222106906, -0.87, -1.578, 1.668], a = 0.2, v = 0.2, t = 0.2)
movej(p[-0.515958482014499, -0.226935552866162, 0.41146423221153, -0.87, -1.578, 1.668], a = 0.2, v = 0.2, t = 0.2)
movej(p[-0.515936300249544, -0.226901120772274, 0.412299952703067, -0.87, -1.578, 1.668], a = 0.2, v = 0.2, t = 0.2)
movej(p[-0.51590621740443, -0.226854424066694, 0.413433354402898, -0.87, -1.578, 1.668], a = 0.2, v = 0.2, t = 0.2)
movej(p[-0.515876924185853, -0.226808953074896, 0.414537006122132, -0.87, -1.578, 1.668], a = 0.2, v = 0.2, t = 0.2)
movej(p[-0.515859995363283, -0.22678267496721, 0.415174816681767, -0.87, -1.578, 1.668], a = 0.2, v = 0.2, t = 0.2)
movej(p[-0.515860500916858, -0.226783459722986, 0.415155769438092, -0.87, -1.578, 1.668], a = 0.2, v = 0.2, t = 0.2)
movej(p[-0.51589057413238, -0.226830141480837, 0.414022730542903, -0.87, -1.578, 1.668], a = 0.2, v = 0.2, t = 0.2)
movej(p[-0.515928009170913, -0.226888250777555, 0.412612327499339, -0.87, -1.578, 1.668], a = 0.2, v = 0.2, t = 0.2)
movej(p[-0.515959074234401, -0.226936472151499, 0.411441919726082, -0.87, -1.578, 1.668], a = 0.2, v = 0.2, t = 0.2)
movej(p[-0.515972541218681, -0.226957376550588, 0.410934537435041, -0.87, -1.578, 1.668], a = 0.2, v = 0.2, t = 0.2)
movej(p[-0.515979233785055, -0.226967765222284, 0.410682388209246, -0.87, -1.578, 1.668], a = 0.2, v = 0.2, t = 0.2)
movej(p[-0.515984245987642, -0.226975545515259, 0.410493548393381, -0.87, -1.578, 1.668], a = 0.2, v = 0.2, t = 0.2)
movej(p[-0.515988405971346, -0.226982002934213, 0.410336816788283, -0.87, -1.578, 1.668], a = 0.2, v = 0.2, t = 0.2)
movej(p[-0.515988396341754, -0.226981987986484, 0.410337179592925, -0.87, -1.578, 1.668], a = 0.2, v = 0.2, t = 0.2)
movej(p[-0.515979200081484, -0.226967712905232, 0.410683658025491, -0.87, -1.578, 1.668], a = 0.2, v = 0.2, t = 0.2)
movej(p[-0.515960687191045, -0.226938975896116, 0.411381149948643, -0.87, -1.578, 1.668], a = 0.2, v = 0.2, t = 0.2)
movej(p[-0.515930378050522, -0.226891927918903, 0.412523077557547, -0.87, -1.578, 1.668], a = 0.2, v = 0.2, t = 0.2)
movej(p[-0.515899235950299, -0.226843586963126, 0.413696387767936, -0.87, -1.578, 1.668], a = 0.2, v = 0.2, t = 0.2)
movej(p[-0.515874627528184, -0.226805388041516, 0.414623535029113, -0.87, -1.578, 1.668], a = 0.2, v = 0.2, t = 0.2)
movej(p[-0.515854959086716, -0.226774857304913, 0.415364563509236, -0.87, -1.578, 1.668], a = 0.2, v = 0.2, t = 0.2)
movej(p[-0.515856052045398, -0.226776553872161, 0.415323385182434, -0.87, -1.578, 1.668], a = 0.2, v = 0.2, t = 0.2)
movej(p[-0.515892336347698, -0.226832876915255, 0.413956337293521, -0.87, -1.578, 1.668], a = 0.2, v = 0.2, t = 0.2)
movej(p[-0.515934735440859, -0.226898691766302, 0.4123589084573, -0.87, -1.578, 1.668], a = 0.2, v = 0.2, t = 0.2)
movej(p[-0.5159563394303, -0.226932226996446, 0.411544956244249, -0.87, -1.578, 1.668], a = 0.2, v = 0.2, t = 0.2)
movej(p[-0.515970827151322, -0.226954715854816, 0.410999116661216, -0.87, -1.578, 1.668], a = 0.2, v = 0.2, t = 0.2)
movej(p[-0.51597935896975, -0.226967959542762, 0.410677671748908, -0.87, -1.578, 1.668], a = 0.2, v = 0.2, t = 0.2)
movej(p[-0.515986518571332, -0.226979073179317, 0.410407926498004, -0.87, -1.578, 1.668], a = 0.2, v = 0.2, t = 0.2)
movej(p[-0.51598749597491, -0.226980590373817, 0.410371101826898, -0.87, -1.578, 1.668], a = 0.2, v = 0.2, t = 0.2)
movej(p[-0.515987808936647, -0.226981076175011, 0.410359310676052, -0.87, -1.578, 1.668], a = 0.2, v = 0.2, t = 0.2)
movej(p[-0.51598266673457, -0.226973094087694, 0.410553048354576, -0.87, -1.578, 1.668], a = 0.2, v = 0.2, t = 0.2)
movej(p[-0.515956026468563, -0.226931741195252, 0.411556747395095, -0.87, -1.578, 1.668], a = 0.2, v = 0.2, t = 0.2)
movej(p[-0.515924696591297, -0.226883108758758, 0.412737132295992, -0.87, -1.578, 1.668], a = 0.2, v = 0.2, t = 0.2)
movej(p[-0.515896226702828, -0.226838915797795, 0.413809764218383, -0.87, -1.578, 1.668], a = 0.2, v = 0.2, t = 0.2)
movej(p[-0.515873183089398, -0.226803145882157, 0.414677955725328, -0.87, -1.578, 1.668], a = 0.2, v = 0.2, t = 0.2)
movej(p[-0.515849104294838, -0.226765769085645, 0.415585148731226, -0.87, -1.578, 1.668], a = 0.2, v = 0.2, t = 0.2)
movej(p[-0.515851227619853, -0.226769065059902, 0.415505150307791, -0.87, -1.578, 1.668], a = 0.2, v = 0.2, t = 0.2)
movej(p[-0.51588931265584, -0.226828183328331, 0.41407025795093, -0.87, -1.578, 1.668], a = 0.2, v = 0.2, t = 0.2)
movej(p[-0.515925972512225, -0.226885089332859, 0.412689060681002, -0.87, -1.578, 1.668], a = 0.2, v = 0.2, t = 0.2)
movej(p[-0.515952709074151, -0.226926591702591, 0.411681733594068, -0.87, -1.578, 1.668], a = 0.2, v = 0.2, t = 0.2)
movej(p[-0.515969286416617, -0.226952324218166, 0.411057165403845, -0.87, -1.578, 1.668], a = 0.2, v = 0.2, t = 0.2)
movej(p[-0.515981838589666, -0.226971808582995, 0.410584249553739, -0.87, -1.578, 1.668], a = 0.2, v = 0.2, t = 0.2)
movej(p[-0.515985719315204, -0.226977832517805, 0.410438039283242, -0.87, -1.578, 1.668], a = 0.2, v = 0.2, t = 0.2)
movej(p[-0.515987274494297, -0.226980246576048, 0.410379446333651, -0.87, -1.578, 1.668], a = 0.2, v = 0.2, t = 0.2)
movej(p[-0.515989686707069, -0.226983990982178, 0.410288563770973, -0.87, -1.578, 1.668], a = 0.2, v = 0.2, t = 0.2)
movej(p[-0.515987914862158, -0.226981240600031, 0.410355319824996, -0.87, -1.578, 1.668], a = 0.2, v = 0.2, t = 0.2)
movej(p[-0.515972314923271, -0.226957025278955, 0.410943063344115, -0.87, -1.578, 1.668], a = 0.2, v = 0.2, t = 0.2)
movej(p[-0.515946098359308, -0.226916330086592, 0.411930798980411, -0.87, -1.578, 1.668], a = 0.2, v = 0.2, t = 0.2)
movej(p[-0.515921514011173, -0.226878168534304, 0.412857039229985, -0.87, -1.578, 1.668], a = 0.2, v = 0.2, t = 0.2)
movej(p[-0.515891301166568, -0.226831270034381, 0.413995338792475, -0.87, -1.578, 1.668], a = 0.2, v = 0.2, t = 0.2)
movej(p[-0.515865171268932, -0.22679070937158, 0.414979809186998, -0.87, -1.578, 1.668], a = 0.2, v = 0.2, t = 0.2)
movej(p[-0.515854689458143, -0.226774438768499, 0.415374722039196, -0.87, -1.578, 1.668], a = 0.2, v = 0.2, t = 0.2)
movej(p[-0.515878960844541, -0.226812114519592, 0.414460272940469, -0.87, -1.578, 1.668], a = 0.2, v = 0.2, t = 0.2)
movej(p[-0.515914657741736, -0.226867525751214, 0.413115356134684, -0.87, -1.578, 1.668], a = 0.2, v = 0.2, t = 0.2)
movej(p[-0.51594522688124, -0.226914977317112, 0.41196363280046, -0.87, -1.578, 1.668], a = 0.2, v = 0.2, t = 0.2)
movej(p[-0.515969450119679, -0.22695257832956, 0.41105099772494, -0.87, -1.578, 1.668], a = 0.2, v = 0.2, t = 0.2)
movej(p[-0.515978010826883, -0.226965866860694, 0.410728464398708, -0.87, -1.578, 1.668], a = 0.2, v = 0.2, t = 0.2)
movej(p[-0.515983340806003, -0.226974140428728, 0.410527652029676, -0.87, -1.578, 1.668], a = 0.2, v = 0.2, t = 0.2)
movej(p[-0.515985993758573, -0.226978258528084, 0.410427699350962, -0.87, -1.578, 1.668], a = 0.2, v = 0.2, t = 0.2)
movej(p[-0.515990303000951, -0.226984947636838, 0.410265344273921, -0.87, -1.578, 1.668], a = 0.2, v = 0.2, t = 0.2)
movej(p[-0.515990457074421, -0.226985186800502, 0.410259539399658, -0.87, -1.578, 1.668], a = 0.2, v = 0.2, t = 0.2)
movej(p[-0.515988853747369, -0.226982698003614, 0.410319946372457, -0.87, -1.578, 1.668], a = 0.2, v = 0.2, t = 0.2)
movej(p[-0.51597877637944, -0.226967055205154, 0.410699621429714, -0.87, -1.578, 1.668], a = 0.2, v = 0.2, t = 0.2)
movej(p[-0.515955448693048, -0.226930844331508, 0.411578515673581, -0.87, -1.578, 1.668], a = 0.2, v = 0.2, t = 0.2)
movej(p[-0.515926868064272, -0.226886479471661, 0.412655319849349, -0.87, -1.578, 1.668], a = 0.2, v = 0.2, t = 0.2)
movej(p[-0.515902235568177, -0.226848243180728, 0.41358337412213, -0.87, -1.578, 1.668], a = 0.2, v = 0.2, t = 0.2)
movej(p[-0.515882533423138, -0.226817660127073, 0.414325672418498, -0.87, -1.578, 1.668], a = 0.2, v = 0.2, t = 0.2)
movej(p[-0.515860149436754, -0.226782914130875, 0.415169011807505, -0.87, -1.578, 1.668], a = 0.2, v = 0.2, t = 0.2)
