def moving():
set_payload_mass(0.606)
set_tcp(p[0.0005,0.0025,0.058,0,0,0])
movej(p[0.5348, -0.0101, 0.1843, -1.198, 1.201, -1.221], a = 0.2, v = 0.2, t = 0.2)
movej(p[0.534849041975008, -0.0101501210227445, 0.184350820938267, -1.19713837063127, 1.20011968084904, -1.22012440477063], a = 0.2, v = 0.2, t = 0.2)
movej(p[0.5348, -0.0101, 0.1843, -1.198, 1.201, -1.221], a = 0.2, v = 0.2, t = 0.2)
movej(p[0.534849041975008, -0.0101501210227445, 0.184350820938267, -1.19713837063127, 1.20011968084904, -1.22012440477063], a = 0.2, v = 0.2, t = 0.2)
movej(p[0.5348, -0.0101, 0.1843, -1.198, 1.201, -1.221], a = 0.2, v = 0.2, t = 0.2)
movej(p[0.5348, -0.0101, 0.1843, -1.198, 1.201, -1.221], a = 0.2, v = 0.2, t = 0.2)
movej(p[0.534934022819759, -0.0101264322672269, 0.184297883627346, -1.19779995040104, 1.20111538387137, -1.22075516203635], a = 0.2, v = 0.2, t = 0.2)
movej(p[0.535068145628103, -0.0101528649994232, 0.184295768692241, -1.19759990255557, 1.20123074605262, -1.2205103161927], a = 0.2, v = 0.2, t = 0.2)
movej(p[0.535077244589396, -0.0101529073116393, 0.184295899509111, -1.19738261570746, 1.20136920151957, -1.22029052866929], a = 0.2, v = 0.2, t = 0.2)
movej(p[0.535076531655987, -0.0101310819537681, 0.184352546887512, -1.1973261946447, 1.20142013589579, -1.22027597295091], a = 0.2, v = 0.2, t = 0.2)
movej(p[0.534492643274216, -0.00986298290209893, 0.184753807446411, -1.19740780963615, 1.20762417852354, -1.21624363856266], a = 0.2, v = 0.2, t = 0.2)
movej(p[0.534492643274216, -0.00986298290209893, 0.184753807446411, -1.19704906420553, 1.20792726189319, -1.21609740732485], a = 0.2, v = 0.2, t = 0.2)
movej(p[0.534689146725751, -0.009926134332541, 0.184692963791293, -1.19704136469763, 1.20791952992678, -1.2161023582784], a = 0.2, v = 0.2, t = 0.2)
movej(p[0.534689470718042, -0.0099333894147842, 0.184668081894045, -1.19611993912182, 1.2056535271816, -1.21736820007903], a = 0.2, v = 0.2, t = 0.2)
movej(p[0.534690307680311, -0.00994192447777051, 0.184607106389177, -1.1945479278733, 1.20242186870665, -1.21900262841156], a = 0.2, v = 0.2, t = 0.2)
movej(p[0.534978632488466, -0.0100431632016548, 0.184380148627052, -1.1938805717568, 1.19869980321414, -1.2222412254569], a = 0.2, v = 0.2, t = 0.2)
movej(p[0.53563866623413, -0.0102365341250727, 0.184390059760279, -1.19446761193708, 1.19832475903149, -1.22283329907079], a = 0.2, v = 0.2, t = 0.2)
movej(p[0.535790635604763, -0.010273414969066, 0.184451031013632, -1.19451328035555, 1.19808292950047, -1.22285942375277], a = 0.2, v = 0.2, t = 0.2)
movej(p[0.535805335835298, -0.0102803436274284, 0.184469759519059, -1.19535858944994, 1.1968202783114, -1.22448647916089], a = 0.2, v = 0.2, t = 0.2)
movej(p[0.535806394948509, -0.0102817883241314, 0.184451275982313, -1.19453425963262, 1.19560003366288, -1.22539701249416], a = 0.2, v = 0.2, t = 0.2)
movej(p[0.53606248700907, -0.0103711402000611, 0.184473655186618, -1.19472563140388, 1.19493125617423, -1.22637011836331], a = 0.2, v = 0.2, t = 0.2)
movej(p[0.536127783679125, -0.0104083360555049, 0.184524981039924, -1.19371835627124, 1.19528516540649, -1.2260931562006], a = 0.2, v = 0.2, t = 0.2)
movej(p[0.536127581128427, -0.0104083048102715, 0.184539079550375, -1.19261961232466, 1.19635475976749, -1.22602641425304], a = 0.2, v = 0.2, t = 0.2)
movej(p[0.536076269382037, -0.0103904660494634, 0.184538302829578, -1.19290628339193, 1.19683355299957, -1.22565564011877], a = 0.2, v = 0.2, t = 0.2)
movej(p[0.535498716047748, -0.010204803992703, 0.184750517100378, -1.19515081469022, 1.20196121149125, -1.22026805196811], a = 0.2, v = 0.2, t = 0.2)
movej(p[0.533841375482293, -0.00966551909287458, 0.185318073826102, -1.19806905650671, 1.21313802933128, -1.20987254856579], a = 0.2, v = 0.2, t = 0.2)
movej(p[0.532287957543743, -0.00910573558979247, 0.185599347763518, -1.19291607861432, 1.22153620417381, -1.19927745394087], a = 0.2, v = 0.2, t = 0.2)
movej(p[0.530242963422139, -0.00850231655654314, 0.186501328940105, -1.18836930802991, 1.22794701990592, -1.19416440407567], a = 0.2, v = 0.2, t = 0.2)
movej(p[0.526005700874708, -0.00704278141077057, 0.187702351988341, -1.17567184217382, 1.24909827391366, -1.17252251335627], a = 0.2, v = 0.2, t = 0.2)
movej(p[0.523609187747796, -0.00628739179111491, 0.188568542945955, -1.17134661747218, 1.25176162891511, -1.1684214591302], a = 0.2, v = 0.2, t = 0.2)
movej(p[0.523608871711246, -0.00628734303968696, 0.188590540621837, -1.16928737546257, 1.25427987482757, -1.17120901073727], a = 0.2, v = 0.2, t = 0.2)
movej(p[0.524462383009744, -0.00673801585734735, 0.188603801645907, -1.16699091643757, 1.25020028440479, -1.17478043862203], a = 0.2, v = 0.2, t = 0.2)
movej(p[0.526735280632305, -0.00731790024425312, 0.187516222611917, -1.16857916078467, 1.23858653545214, -1.1849964693592], a = 0.2, v = 0.2, t = 0.2)
movej(p[0.529074507824419, -0.00797300787808866, 0.186562777284817, -1.18045441149348, 1.22631253442428, -1.19936661360438], a = 0.2, v = 0.2, t = 0.2)
movej(p[0.531149579398343, -0.00857505356932547, 0.185760435662592, -1.18404787048337, 1.21551447033156, -1.21029305044604], a = 0.2, v = 0.2, t = 0.2)
movej(p[0.532992844770742, -0.00920910171055432, 0.185196760204976, -1.18722552882594, 1.2086839496553, -1.21703252793909], a = 0.2, v = 0.2, t = 0.2)
movej(p[0.533724971377133, -0.0095178735717668, 0.185038244906227, -1.19190093484966, 1.20443206684165, -1.22024345110515], a = 0.2, v = 0.2, t = 0.2)
movej(p[0.534308931364697, -0.00968676957640291, 0.184824085310265, -1.19182779879928, 1.20435850234249, -1.22029032431908], a = 0.2, v = 0.2, t = 0.2)
movej(p[0.534958985049457, -0.00996100833983244, 0.184688116867004, -1.19082205709474, 1.20140221962166, -1.22260726827736], a = 0.2, v = 0.2, t = 0.2)
movej(p[0.535411908540232, -0.0101688462446535, 0.184588073242402, -1.19329958469101, 1.19954943891429, -1.22431620022242], a = 0.2, v = 0.2, t = 0.2)
movej(p[0.535631539069093, -0.0102290673059216, 0.184498652302059, -1.19336964723446, 1.19868689803342, -1.22394436173489], a = 0.2, v = 0.2, t = 0.2)
movej(p[0.535792544577127, -0.0104383177905703, 0.184501429181103, -1.19582938376815, 1.19865234438574, -1.22149990273473], a = 0.2, v = 0.2, t = 0.2)
movej(p[0.535791876590783, -0.0104382147477794, 0.184547924268763, -1.19468644523179, 1.20083325049545, -1.21857911240845], a = 0.2, v = 0.2, t = 0.2)
movej(p[0.535499081658025, -0.0102504617660374, 0.184585106054607, -1.19486650285427, 1.20144141400968, -1.21803443275761], a = 0.2, v = 0.2, t = 0.2)
movej(p[0.534309452985581, -0.00993338187833192, 0.185007158630137, -1.19257545995976, 1.2078153152619, -1.2121502725861], a = 0.2, v = 0.2, t = 0.2)
movej(p[0.532747357177455, -0.00928878721612818, 0.185460338128451, -1.18760562616512, 1.21713473088373, -1.20074640826341], a = 0.2, v = 0.2, t = 0.2)
movej(p[0.531926435951867, -0.00904623500704104, 0.185742437662741, -1.18376828861437, 1.22411263953799, -1.19205158355991], a = 0.2, v = 0.2, t = 0.2)
movej(p[0.529365872867234, -0.00820457147517786, 0.186610881051077, -1.18360508492095, 1.2304967022353, -1.19073456472049], a = 0.2, v = 0.2, t = 0.2)
movej(p[0.52707723235097, -0.00733777568048474, 0.187341960484255, -1.17515413299646, 1.2426097997327, -1.17563899271099], a = 0.2, v = 0.2, t = 0.2)
movej(p[0.524505703035551, -0.00661785795482399, 0.188259021260988, -1.17413527092822, 1.252346657728, -1.16466088883078], a = 0.2, v = 0.2, t = 0.2)
movej(p[0.524505703035551, -0.00661785795482399, 0.188259021260988, -1.17449488220089, 1.25184185116837, -1.16415475895218], a = 0.2, v = 0.2, t = 0.2)
movej(p[0.525460002102904, -0.00690717700004704, 0.187957439315041, -1.17310104027119, 1.24483132867494, -1.17127213920494], a = 0.2, v = 0.2, t = 0.2)
movej(p[0.528569277516934, -0.00784934647197123, 0.186886079624796, -1.18751122398499, 1.22700065503456, -1.19993315593257], a = 0.2, v = 0.2, t = 0.2)
movej(p[0.530417965527204, -0.00828491156567336, 0.186232032684714, -1.18241523858978, 1.22337459359264, -1.20539425966696], a = 0.2, v = 0.2, t = 0.2)
movej(p[0.531984938916147, -0.00897524771683642, 0.185723918812887, -1.1812978529737, 1.21928325474397, -1.20955780500598], a = 0.2, v = 0.2, t = 0.2)
movej(p[0.53310709893343, -0.00931890190291392, 0.185353161336897, -1.18308240767034, 1.21221398701644, -1.21708806845044], a = 0.2, v = 0.2, t = 0.2)
movej(p[0.534174562586935, -0.00976259764833428, 0.18498414000426, -1.19328546258711, 1.20349098028674, -1.22076892173363], a = 0.2, v = 0.2, t = 0.2)
movej(p[0.534674556599414, -0.00990940178263736, 0.1848158301007, -1.19789126289989, 1.200178489249, -1.22296455268054], a = 0.2, v = 0.2, t = 0.2)
movej(p[0.535046673029257, -0.0100210131767475, 0.184691109816279, -1.19789126289989, 1.200178489249, -1.22296455268054], a = 0.2, v = 0.2, t = 0.2)
movej(p[0.535296714915384, -0.0101079967308093, 0.184592484076714, -1.19496964439931, 1.20118743535253, -1.22173369833192], a = 0.2, v = 0.2, t = 0.2)
movej(p[0.535321640937802, -0.010141425605677, 0.18458701564627, -1.194085809694, 1.20152549809481, -1.22272533300603], a = 0.2, v = 0.2, t = 0.2)
movej(p[0.535373103119893, -0.0101592024607898, 0.184570392552793, -1.19274882230796, 1.20191207976484, -1.22601571829967], a = 0.2, v = 0.2, t = 0.2)
movej(p[0.535373103119893, -0.0101592024607898, 0.184570392552793, -1.19270009635007, 1.2019864222945, -1.22608982255783], a = 0.2, v = 0.2, t = 0.2)
movej(p[0.534511663496974, -0.00978342395032943, 0.184868716516199, -1.19055784018636, 1.21171781090371, -1.22081326860137], a = 0.2, v = 0.2, t = 0.2)
movej(p[0.53186002292047, -0.00862039074582663, 0.185755341323128, -1.18998010255792, 1.22156445076203, -1.21054635503687], a = 0.2, v = 0.2, t = 0.2)
movej(p[0.529898957587953, -0.00802735316692829, 0.186430027154915, -1.18898534199818, 1.23046520036427, -1.20071831578737], a = 0.2, v = 0.2, t = 0.2)
movej(p[0.52753853761544, -0.00726012247491753, 0.187300810847114, -1.17523547669923, 1.240561112967, -1.18386476359988], a = 0.2, v = 0.2, t = 0.2)
movej(p[0.525096321672675, -0.0064166316148599, 0.188160549358467, -1.17116307147696, 1.24625210501462, -1.17109415569896], a = 0.2, v = 0.2, t = 0.2)
movej(p[0.523348346171068, -0.00604458310426704, 0.188793981637048, -1.1737805615518, 1.24636936481343, -1.1685640506395], a = 0.2, v = 0.2, t = 0.2)
movej(p[0.523348346171068, -0.00604458310426704, 0.188793981637048, -1.17708622387568, 1.24440080417142, -1.17195420774929], a = 0.2, v = 0.2, t = 0.2)
movej(p[0.524448984145434, -0.00641466264298932, 0.188457777198641, -1.1815643408721, 1.23850188999376, -1.18088376288255], a = 0.2, v = 0.2, t = 0.2)
movej(p[0.527066603869746, -0.00717277610980684, 0.187550264173764, -1.17927434901273, 1.23168924877181, -1.18775690170285], a = 0.2, v = 0.2, t = 0.2)
movej(p[0.529847892068661, -0.00815315049225559, 0.186553485389472, -1.18547744078822, 1.22342569782943, -1.2027832643971], a = 0.2, v = 0.2, t = 0.2)
movej(p[0.532265464883649, -0.00904674050793488, 0.185687303209958, -1.18867743908481, 1.21600930735137, -1.21162634288215], a = 0.2, v = 0.2, t = 0.2)
movej(p[0.533183109704448, -0.00944411682297648, 0.185326427903093, -1.19833820501592, 1.2099304926487, -1.22130016966395], a = 0.2, v = 0.2, t = 0.2)
movej(p[0.534034834304023, -0.00985284585937821, 0.184983632699974, -1.19967974628462, 1.20908601364915, -1.22265716773153], a = 0.2, v = 0.2, t = 0.2)
movej(p[0.534594778242067, -0.0100498024845246, 0.184782191631523, -1.19892179076962, 1.20403743036987, -1.22744269938347], a = 0.2, v = 0.2, t = 0.2)
movej(p[0.534926605885013, -0.0101112921455071, 0.18467258311466, -1.19917523329626, 1.2023929254046, -1.22662471184632], a = 0.2, v = 0.2, t = 0.2)
movej(p[0.535482828435269, -0.0103406661276079, 0.184455158734882, -1.19842276404274, 1.20117824031776, -1.22694777030461], a = 0.2, v = 0.2, t = 0.2)
movej(p[0.535482828435269, -0.0103406661276079, 0.184455158734882, -1.19621262723667, 1.20258367914933, -1.22471879688898], a = 0.2, v = 0.2, t = 0.2)
movej(p[0.535269019376251, -0.0101593195276646, 0.184568397407475, -1.19346073130953, 1.20571629290338, -1.22530501701863], a = 0.2, v = 0.2, t = 0.2)
movej(p[0.534791091635765, -0.00989583061749306, 0.184776969982592, -1.19208389585598, 1.20936857354731, -1.22205790673143], a = 0.2, v = 0.2, t = 0.2)
movej(p[0.534192487433471, -0.00958769096987168, 0.185025214250521, -1.18817011719765, 1.21399245849926, -1.21896889772964], a = 0.2, v = 0.2, t = 0.2)
movej(p[0.532069176966836, -0.00876792469542735, 0.185823780044654, -1.18746223189163, 1.22381962731675, -1.20864106214601], a = 0.2, v = 0.2, t = 0.2)
movej(p[0.530183961738136, -0.0080595367679692, 0.186546804979018, -1.18675914730965, 1.23284554728357, -1.20205619820588], a = 0.2, v = 0.2, t = 0.2)
movej(p[0.527952805385433, -0.007346491389124, 0.187334056830396, -1.17853664838115, 1.23999085969554, -1.18946864987501], a = 0.2, v = 0.2, t = 0.2)
movej(p[0.525474546069588, -0.00666441037317053, 0.188158231490954, -1.17056289987604, 1.24747782217157, -1.1784139727776], a = 0.2, v = 0.2, t = 0.2)
movej(p[0.524426065160023, -0.00643520766927096, 0.188480095845617, -1.16945760548851, 1.25052653485277, -1.17290661964339], a = 0.2, v = 0.2, t = 0.2)
movej(p[0.524426065160023, -0.00643520766927096, 0.188480095845617, -1.17036121753991, 1.24925701632612, -1.17162868024754], a = 0.2, v = 0.2, t = 0.2)
movej(p[0.527584395238239, -0.00735422295992391, 0.187447593636135, -1.17690781243972, 1.23298793399497, -1.18676665848991], a = 0.2, v = 0.2, t = 0.2)
movej(p[0.529543967783996, -0.00815969481909562, 0.1866619453866, -1.18997953965382, 1.22242477772331, -1.19986254463348], a = 0.2, v = 0.2, t = 0.2)
movej(p[0.531513747360401, -0.00894623181983077, 0.185868100939085, -1.19473442971063, 1.21559882912705, -1.20869776467645], a = 0.2, v = 0.2, t = 0.2)
movej(p[0.532872971097552, -0.00949342475002826, 0.185345483947869, -1.1971656905639, 1.21024077626836, -1.21676164255602], a = 0.2, v = 0.2, t = 0.2)
movej(p[0.533748484160079, -0.00990356865318377, 0.184954528520681, -1.19445983382133, 1.20942426791308, -1.21950386932619], a = 0.2, v = 0.2, t = 0.2)
movej(p[0.534866129428345, -0.010110698233718, 0.184677613567688, -1.19751575472796, 1.20428640197418, -1.22581852761849], a = 0.2, v = 0.2, t = 0.2)
movej(p[0.535161916646651, -0.0102478673652512, 0.18454605270405, -1.19925312693339, 1.20125193357333, -1.22521814869697], a = 0.2, v = 0.2, t = 0.2)
movej(p[0.535287215505815, -0.0102582635918875, 0.184495070311365, -1.19762715761811, 1.19960865471648, -1.2262534677632], a = 0.2, v = 0.2, t = 0.2)
movej(p[0.535359307276065, -0.0102585988348302, 0.184496106783492, -1.19802820353737, 1.19916024186641, -1.2261150567345], a = 0.2, v = 0.2, t = 0.2)
movej(p[0.535359129347878, -0.010224747429402, 0.184519431677748, -1.19719423469889, 1.20061205784829, -1.22644050926127], a = 0.2, v = 0.2, t = 0.2)
movej(p[0.535348959724165, -0.00995834676624253, 0.184728617349872, -1.20009608753504, 1.20354650816293, -1.22458873497436], a = 0.2, v = 0.2, t = 0.2)
movej(p[0.534182988815259, -0.00944253013383414, 0.185218076501708, -1.19282936830878, 1.21640686430294, -1.221023632662], a = 0.2, v = 0.2, t = 0.2)
movej(p[0.532359104808549, -0.00884507593368727, 0.185827016251433, -1.1875994278684, 1.22573994514144, -1.21208049997556], a = 0.2, v = 0.2, t = 0.2)
movej(p[0.530644460757707, -0.00823850084336628, 0.186450906633402, -1.1826855825299, 1.23757504455863, -1.19950401488195], a = 0.2, v = 0.2, t = 0.2)
movej(p[0.528430704002344, -0.00755686344300418, 0.18717947183468, -1.1806222186372, 1.24349869722528, -1.19244620022062], a = 0.2, v = 0.2, t = 0.2)
movej(p[0.526041194448121, -0.00688103244961826, 0.187894523733955, -1.17791169922681, 1.24746635318613, -1.18093509998228], a = 0.2, v = 0.2, t = 0.2)
movej(p[0.525736723302237, -0.00685876640210177, 0.187959907481569, -1.17951868332491, 1.24509595199701, -1.17841134550304], a = 0.2, v = 0.2, t = 0.2)
movej(p[0.525736723302237, -0.00685876640210177, 0.187959907481569, -1.17430021074012, 1.24171140866155, -1.1800710565829], a = 0.2, v = 0.2, t = 0.2)
movej(p[0.527609873780306, -0.00749213059907315, 0.187314251156188, -1.16789659676326, 1.2354339633887, -1.18437419904557], a = 0.2, v = 0.2, t = 0.2)
movej(p[0.52952322993299, -0.00825165190662408, 0.186544238820985, -1.18267339020567, 1.2231890357161, -1.19712355585161], a = 0.2, v = 0.2, t = 0.2)
movej(p[0.531397353841551, -0.00900347996578622, 0.185778646321796, -1.19117540729754, 1.21352571968102, -1.20819552690029], a = 0.2, v = 0.2, t = 0.2)
movej(p[0.533483778262981, -0.00973336778087261, 0.18502875662254, -1.19882850960079, 1.20656661601918, -1.21813672664612], a = 0.2, v = 0.2, t = 0.2)
movej(p[0.534068428292671, -0.0100097462879961, 0.18473183637469, -1.20123046052252, 1.20404802638613, -1.22157365161884], a = 0.2, v = 0.2, t = 0.2)
movej(p[0.534548459308129, -0.0101279528986291, 0.184611781423102, -1.20738357003763, 1.19926906026808, -1.2254158189546], a = 0.2, v = 0.2, t = 0.2)
movej(p[0.534948827983571, -0.0102118094687714, 0.18452740974913, -1.20811708168573, 1.19869928139462, -1.2262590782932], a = 0.2, v = 0.2, t = 0.2)
movej(p[0.535291635939858, -0.010235556230566, 0.184507984857609, -1.20614059649197, 1.19775439894639, -1.22787946960528], a = 0.2, v = 0.2, t = 0.2)
movej(p[0.535605000167267, -0.0102370134446887, 0.184512490133123, -1.20505028069771, 1.19794453256518, -1.22899390122298], a = 0.2, v = 0.2, t = 0.2)
movej(p[0.535609687767445, -0.0102210071678013, 0.184525523379256, -1.20351414237757, 1.19892828808894, -1.22744089077943], a = 0.2, v = 0.2, t = 0.2)
movej(p[0.535604600047129, -0.0101941213847256, 0.18455419374323, -1.20359105168661, 1.1986808563728, -1.22696351064895], a = 0.2, v = 0.2, t = 0.2)
movej(p[0.535342588943384, -0.0100352160752061, 0.184729496264949, -1.20318736859559, 1.19899218047003, -1.22650249559477], a = 0.2, v = 0.2, t = 0.2)
movej(p[0.534260435239482, -0.00948213200322839, 0.185293084723361, -1.19802740683314, 1.21370905213466, -1.21966737881292], a = 0.2, v = 0.2, t = 0.2)
movej(p[0.533341349703023, -0.00905362650140024, 0.185757281267483, -1.19711793176426, 1.22412318131667, -1.21554796211456], a = 0.2, v = 0.2, t = 0.2)
movej(p[0.531421138726532, -0.00845001463944264, 0.186369323934188, -1.19066443436021, 1.23569644554049, -1.20396502589591], a = 0.2, v = 0.2, t = 0.2)
movej(p[0.529833401884648, -0.00792644079906164, 0.186897311173233, -1.18948992319284, 1.24153752817341, -1.19736629818565], a = 0.2, v = 0.2, t = 0.2)
movej(p[0.529448932961555, -0.00776646989740393, 0.187069051814312, -1.18770995986801, 1.24374320437246, -1.19434219909836], a = 0.2, v = 0.2, t = 0.2)
movej(p[0.52799367201164, -0.00736250432181515, 0.187463693070889, -1.18511793331781, 1.24662039670841, -1.18936891671826], a = 0.2, v = 0.2, t = 0.2)
movej(p[0.525483739030317, -0.00652968769505369, 0.188327582899198, -1.17344596219998, 1.25310995030314, -1.17626050164879], a = 0.2, v = 0.2, t = 0.2)
movej(p[0.525483739030317, -0.00652968769505369, 0.188327582899198, -1.17205770293558, 1.24654210542407, -1.1756080941913], a = 0.2, v = 0.2, t = 0.2)
movej(p[0.528489467662339, -0.0077936539348018, 0.186987620446209, -1.17460827491473, 1.23083614518214, -1.19073867178706], a = 0.2, v = 0.2, t = 0.2)
movej(p[0.530580756517636, -0.00864337286886898, 0.186048446172286, -1.18323555066924, 1.22295896581758, -1.2022100718625], a = 0.2, v = 0.2, t = 0.2)
movej(p[0.532309662096184, -0.00932524143895277, 0.185319516413259, -1.19222452438006, 1.21634798067712, -1.21239591179716], a = 0.2, v = 0.2, t = 0.2)
movej(p[0.533441797042339, -0.00973107213294511, 0.184888733670442, -1.19592090320268, 1.21017493905431, -1.2186789467681], a = 0.2, v = 0.2, t = 0.2)
movej(p[0.534438832968096, -0.00992329837075577, 0.184769369746882, -1.2004066671951, 1.20734828262994, -1.22321679895926], a = 0.2, v = 0.2, t = 0.2)
movej(p[0.534733813262151, -0.00997450748465403, 0.184756519347153, -1.20250522156931, 1.20655643426429, -1.22480222694195], a = 0.2, v = 0.2, t = 0.2)
movej(p[0.534946286061495, -0.0100619759355301, 0.184676156920358, -1.20557363345974, 1.20424729743647, -1.22689113739891], a = 0.2, v = 0.2, t = 0.2)
movej(p[0.535011778585092, -0.010062280490492, 0.184677098514316, -1.20530479520897, 1.20397446751835, -1.2270629165689], a = 0.2, v = 0.2, t = 0.2)
movej(p[0.535038440323726, -0.0100702000909783, 0.184726104244808, -1.20516493389332, 1.20391188847432, -1.2271794922312], a = 0.2, v = 0.2, t = 0.2)
movej(p[0.53559130035317, -0.0101087401575397, 0.184748634027598, -1.20455126032645, 1.20394586895573, -1.22766364053024], a = 0.2, v = 0.2, t = 0.2)
movej(p[0.53559099149927, -0.0101086925140987, 0.1847701317563, -1.20159311429258, 1.20633485475481, -1.22610937199754], a = 0.2, v = 0.2, t = 0.2)
movej(p[0.535052834329258, -0.0098394049076655, 0.185079536920101, -1.20150643992469, 1.2107447661277, -1.22204747285982], a = 0.2, v = 0.2, t = 0.2)
movej(p[0.533884611307784, -0.00936789672632724, 0.185606965917245, -1.20323642600881, 1.22150903339094, -1.21608415324107], a = 0.2, v = 0.2, t = 0.2)
movej(p[0.532357813505739, -0.00886467220090773, 0.186105270521568, -1.19795646214828, 1.23425403977223, -1.20653674352334], a = 0.2, v = 0.2, t = 0.2)
movej(p[0.531065065533196, -0.00840364672531634, 0.18660223069134, -1.19457181020678, 1.23951257156537, -1.20002711302073], a = 0.2, v = 0.2, t = 0.2)
movej(p[0.530657639332785, -0.00825861561681668, 0.186752072337041, -1.19193708352011, 1.24123954702145, -1.19774631829858], a = 0.2, v = 0.2, t = 0.2)
movej(p[0.530207445266966, -0.00809029860600746, 0.186941652206683, -1.18936067080466, 1.24278376974999, -1.1951174012582], a = 0.2, v = 0.2, t = 0.2)
movej(p[0.528276603835966, -0.00746975515504865, 0.187498598823341, -1.18482425639115, 1.24812980892372, -1.18742205714851], a = 0.2, v = 0.2, t = 0.2)
movej(p[0.528016633513291, -0.00746854623458947, 0.187494861198473, -1.1855733320364, 1.24705440783654, -1.18635782583267], a = 0.2, v = 0.2, t = 0.2)
movej(p[0.528020174987513, -0.00757126490973859, 0.18721531016246, -1.18158758785997, 1.2352841939106, -1.18982103236558], a = 0.2, v = 0.2, t = 0.2)
movej(p[0.531438472741039, -0.00881706778573193, 0.185872733862056, -1.18863430743253, 1.21903260353163, -1.20772788751042], a = 0.2, v = 0.2, t = 0.2)
movej(p[0.532679997131533, -0.00933000151730621, 0.185214135801915, -1.19429993939399, 1.2154815077505, -1.2134785841724], a = 0.2, v = 0.2, t = 0.2)
movej(p[0.533642962147798, -0.00965771298184562, 0.184888660897413, -1.19749182501562, 1.21175511015796, -1.21826966659777], a = 0.2, v = 0.2, t = 0.2)
movej(p[0.534284509882914, -0.0098499278271761, 0.184744787665708, -1.19993836946772, 1.20998298018859, -1.22019781084841], a = 0.2, v = 0.2, t = 0.2)
movej(p[0.534591841972873, -0.00994828053130203, 0.184692314986408, -1.20190070468046, 1.20870329544165, -1.22220886628124], a = 0.2, v = 0.2, t = 0.2)
movej(p[0.535213710792467, -0.0100889160855932, 0.184681758846705, -1.20125140829197, 1.20535524120726, -1.22533178253816], a = 0.2, v = 0.2, t = 0.2)
movej(p[0.535434230593215, -0.0101472141002264, 0.184698057588007, -1.20152464460032, 1.20516329896382, -1.22574791794192], a = 0.2, v = 0.2, t = 0.2)
movej(p[0.535478267861127, -0.0101569469034389, 0.184685710459738, -1.20189961955907, 1.20499152834271, -1.22631162785298], a = 0.2, v = 0.2, t = 0.2)
movej(p[0.535499489718057, -0.010176017812161, 0.184699058988831, -1.20198815041665, 1.20532285733476, -1.22682846515835], a = 0.2, v = 0.2, t = 0.2)
movej(p[0.535555271420715, -0.0101766757086024, 0.184700561926251, -1.20276058235216, 1.20690713112077, -1.22660642952093], a = 0.2, v = 0.2, t = 0.2)
movej(p[0.535589668009625, -0.0101893848322311, 0.184724786765732, -1.20284896837665, 1.20685124987352, -1.22669579344669], a = 0.2, v = 0.2, t = 0.2)
movej(p[0.535758754889296, -0.0102315714762591, 0.184727309500111, -1.20183187301688, 1.20576866466775, -1.22765738135861], a = 0.2, v = 0.2, t = 0.2)
movej(p[0.535756483735727, -0.01023122113077, 0.184885392798152, -1.20183187301688, 1.20576866466775, -1.22765738135861], a = 0.2, v = 0.2, t = 0.2)
movej(p[0.534703288613212, -0.00982621102061688, 0.185432023591819, -1.20164851846643, 1.21327468886, -1.22040126241539], a = 0.2, v = 0.2, t = 0.2)
movej(p[0.533397626437564, -0.00936902023753266, 0.185838197151942, -1.20126722963363, 1.22351091177669, -1.21008791462849], a = 0.2, v = 0.2, t = 0.2)
movej(p[0.532310414314701, -0.00899489400630841, 0.18613228103965, -1.20206951458426, 1.23431290551439, -1.19885572914218], a = 0.2, v = 0.2, t = 0.2)
movej(p[0.531080537527612, -0.00857577115765383, 0.186486022097935, -1.19767738317621, 1.23759632748879, -1.19358388149421], a = 0.2, v = 0.2, t = 0.2)
movej(p[0.530187663945716, -0.00826154074235968, 0.18692654591438, -1.19626880359922, 1.24105673252683, -1.18933341266664], a = 0.2, v = 0.2, t = 0.2)
movej(p[0.528498579235705, -0.00767778463738823, 0.187504349161443, -1.18940866061722, 1.24536165614439, -1.18192930491918], a = 0.2, v = 0.2, t = 0.2)
movej(p[0.528157214613425, -0.00756204107558703, 0.187571395955231, -1.18806427586431, 1.24616395592476, -1.18054861013791], a = 0.2, v = 0.2, t = 0.2)
movej(p[0.528157214613425, -0.00756204107558703, 0.187571395955231, -1.18719395555055, 1.24551723301403, -1.18120186814587], a = 0.2, v = 0.2, t = 0.2)
movej(p[0.528713576487715, -0.00778140882942226, 0.187264041903015, -1.18363686426936, 1.24001335097814, -1.18709008890594], a = 0.2, v = 0.2, t = 0.2)
movej(p[0.530423457374746, -0.00840044408187452, 0.186369182082492, -1.18649108571931, 1.22671978422365, -1.20217385927454], a = 0.2, v = 0.2, t = 0.2)
movej(p[0.532592450356133, -0.00917373737306353, 0.185517663954384, -1.18996846101579, 1.21638824216758, -1.21356577833514], a = 0.2, v = 0.2, t = 0.2)
movej(p[0.533342632445573, -0.00942079050109958, 0.185034536968373, -1.19408411337122, 1.21330288521678, -1.2162506779452], a = 0.2, v = 0.2, t = 0.2)
movej(p[0.533663421372789, -0.00951134347645618, 0.184918133562797, -1.19591134789785, 1.2126659826026, -1.21628095305933], a = 0.2, v = 0.2, t = 0.2)
movej(p[0.53392782800039, -0.00977134017515871, 0.184613075761808, -1.20116332174166, 1.20570774862281, -1.22299820008078], a = 0.2, v = 0.2, t = 0.2)
movej(p[0.53445475063365, -0.00993586250475978, 0.18454160218892, -1.20158560931456, 1.20466209384965, -1.22446337882594], a = 0.2, v = 0.2, t = 0.2)
movej(p[0.535368625264841, -0.0102165946128943, 0.184425040051298, -1.20246759644502, 1.20127587844821, -1.22833615232216], a = 0.2, v = 0.2, t = 0.2)
movej(p[0.535538399490178, -0.0102620849111279, 0.184427379961099, -1.20235584186267, 1.20158944360098, -1.22890147978429], a = 0.2, v = 0.2, t = 0.2)
movej(p[0.535707335825831, -0.0103150709469224, 0.18442992446634, -1.20241780322639, 1.20217479980618, -1.22904248802781], a = 0.2, v = 0.2, t = 0.2)
movej(p[0.535705837525279, -0.0103148398208345, 0.184534213447906, -1.20059483212707, 1.20384357640009, -1.22863167492255], a = 0.2, v = 0.2, t = 0.2)
movej(p[0.535496382444266, -0.0101478441282903, 0.184959079388774, -1.19759729023078, 1.20652320471333, -1.22780552899317], a = 0.2, v = 0.2, t = 0.2)
movej(p[0.535047797368425, -0.00993744739409604, 0.185328608134576, -1.19503599379433, 1.21204218032674, -1.22370331281077], a = 0.2, v = 0.2, t = 0.2)
movej(p[0.533893898286646, -0.00951397816250231, 0.185776340933197, -1.19379237668428, 1.22212858505858, -1.2149250786316], a = 0.2, v = 0.2, t = 0.2)
movej(p[0.532160727079231, -0.00891995035791926, 0.186244876559558, -1.19371902423689, 1.23335156290863, -1.2032739234039], a = 0.2, v = 0.2, t = 0.2)
movej(p[0.530716540448049, -0.00843202260678967, 0.18659898656223, -1.18972927494967, 1.23808060305791, -1.19662649490495], a = 0.2, v = 0.2, t = 0.2)
movej(p[0.528984001703729, -0.00786568201060963, 0.18702848850466, -1.1850408551001, 1.24089992592149, -1.19184527776361], a = 0.2, v = 0.2, t = 0.2)
movej(p[0.527898019925088, -0.00747842994582613, 0.187756006768884, -1.16251103870007, 1.22163438111527, -1.20479774537342], a = 0.2, v = 0.2, t = 0.2)
movej(p[0.527751057355084, -0.007425222728802, 0.187811183530973, -1.16249976397264, 1.22165068968547, -1.20481440918016], a = 0.2, v = 0.2, t = 0.2)
movej(p[0.527751057355084, -0.007425222728802, 0.187811183530973, -1.16256553144806, 1.22162072155055, -1.20486962484641], a = 0.2, v = 0.2, t = 0.2)
movej(p[0.528971563210993, -0.00788568292505138, 0.187094161081281, -1.17275861344364, 1.22363461265646, -1.20411739862867], a = 0.2, v = 0.2, t = 0.2)
movej(p[0.530059311418732, -0.00832992342222223, 0.186329690573521, -1.18210101726353, 1.22234285567335, -1.20621841548114], a = 0.2, v = 0.2, t = 0.2)
movej(p[0.53102244780707, -0.00868783682201235, 0.185864270273459, -1.18698225907331, 1.2187092934016, -1.20936632176918], a = 0.2, v = 0.2, t = 0.2)
movej(p[0.532350957867956, -0.00917048358520533, 0.185342369114134, -1.19250179546372, 1.21207568102909, -1.21614906858391], a = 0.2, v = 0.2, t = 0.2)
movej(p[0.532559306504647, -0.00923412261866838, 0.185313100034736, -1.19362900400216, 1.21115637147774, -1.21668306057297], a = 0.2, v = 0.2, t = 0.2)
movej(p[0.533106438870759, -0.00942394260289637, 0.185100757958028, -1.19627932466326, 1.21074919538883, -1.21804939945728], a = 0.2, v = 0.2, t = 0.2)
movej(p[0.533829643117523, -0.00965515941913128, 0.184947943229182, -1.19952489191206, 1.21090492755355, -1.21915252697591], a = 0.2, v = 0.2, t = 0.2)
movej(p[0.534255187318992, -0.00981315133542756, 0.184716281931203, -1.20267120966771, 1.2114850995177, -1.22012297107677], a = 0.2, v = 0.2, t = 0.2)
movej(p[0.534928220529967, -0.01001214658646, 0.184696689152138, -1.20348262422372, 1.21134308269984, -1.22176999631836], a = 0.2, v = 0.2, t = 0.2)
movej(p[0.535465136681878, -0.0101655721597752, 0.184691941598051, -1.20443933751372, 1.21092994648205, -1.22326766404261], a = 0.2, v = 0.2, t = 0.2)
movej(p[0.535826787699867, -0.0102870628889033, 0.184693706229309, -1.20397662975277, 1.21055101191183, -1.2235964235169], a = 0.2, v = 0.2, t = 0.2)
movej(p[0.535826787699867, -0.0102870628889033, 0.184693706229309, -1.20338995980184, 1.21114761848401, -1.22411820292611], a = 0.2, v = 0.2, t = 0.2)
movej(p[0.535229439765085, -0.0100290498182293, 0.185165303218456, -1.19989504777181, 1.21390252451597, -1.22219122835831], a = 0.2, v = 0.2, t = 0.2)
movej(p[0.534487195084383, -0.00975272785017455, 0.185557969812325, -1.19547825178014, 1.21664348565426, -1.21928667104272], a = 0.2, v = 0.2, t = 0.2)
movej(p[0.533933683871888, -0.0095496775745802, 0.185863500781661, -1.19172096251609, 1.21935298879185, -1.21704953103171], a = 0.2, v = 0.2, t = 0.2)
movej(p[0.53223567953106, -0.00898233598865274, 0.186089475101899, -1.18479040435345, 1.22361909880972, -1.21046089169566], a = 0.2, v = 0.2, t = 0.2)
movej(p[0.530920323453975, -0.00851174965739514, 0.18693772642392, -1.17390027537221, 1.22137482926643, -1.21204640529574], a = 0.2, v = 0.2, t = 0.2)
movej(p[0.528521083291707, -0.00771110813770704, 0.187403035579975, -1.16507614291871, 1.22528486629719, -1.20481933936885], a = 0.2, v = 0.2, t = 0.2)
movej(p[0.5264491278237, -0.00702704604590245, 0.187521267949286, -1.16181159802046, 1.22652578714931, -1.20223062102142], a = 0.2, v = 0.2, t = 0.2)
movej(p[0.526451275435709, -0.00702737733401512, 0.187371783742726, -1.16238349084156, 1.22570291377078, -1.20139081729478], a = 0.2, v = 0.2, t = 0.2)
movej(p[0.528313849161303, -0.00767345467129165, 0.18739507431985, -1.16724455038878, 1.22277795532537, -1.2060471274654], a = 0.2, v = 0.2, t = 0.2)
movej(p[0.529477993933649, -0.00809610680829986, 0.186791470426471, -1.17354638754657, 1.22088710859104, -1.20837508687232], a = 0.2, v = 0.2, t = 0.2)
movej(p[0.530431223187056, -0.00844178385579647, 0.186274775275262, -1.18110773310777, 1.21942521467733, -1.20964868488338], a = 0.2, v = 0.2, t = 0.2)
movej(p[0.531464046670795, -0.00881063273264631, 0.185758574919311, -1.18874870902661, 1.21798133847992, -1.21113109376418], a = 0.2, v = 0.2, t = 0.2)
movej(p[0.532639008651049, -0.00922315133285845, 0.185240613010058, -1.19622271730944, 1.21653638710496, -1.21329654003247], a = 0.2, v = 0.2, t = 0.2)
movej(p[0.533605025460357, -0.00955516256168438, 0.184875387274291, -1.20005676452978, 1.213890899275, -1.21647839284857], a = 0.2, v = 0.2, t = 0.2)
movej(p[0.534080846246262, -0.00972927729924916, 0.184696189484505, -1.20176413604593, 1.21170655732993, -1.21898499671837], a = 0.2, v = 0.2, t = 0.2)
movej(p[0.534624871956419, -0.00992443609513702, 0.184552121823055, -1.2035483371811, 1.20949995117099, -1.22189073701445], a = 0.2, v = 0.2, t = 0.2)
movej(p[0.534993900291223, -0.0100850556601415, 0.18455677944577, -1.20256014599135, 1.20808248990934, -1.22377063668712], a = 0.2, v = 0.2, t = 0.2)
movej(p[0.535145308569643, -0.0101016598778772, 0.184558991498966, -1.20375295565349, 1.20714212610355, -1.22591362607508], a = 0.2, v = 0.2, t = 0.2)
movej(p[0.536055678416138, -0.0103808898378777, 0.184575389731511, -1.203253271402, 1.20790854178409, -1.22666735831203], a = 0.2, v = 0.2, t = 0.2)
movej(p[0.536053312451604, -0.0103805248669603, 0.184740072332317, -1.20335693917435, 1.21180317780836, -1.22479596109304], a = 0.2, v = 0.2, t = 0.2)
movej(p[0.535728368243384, -0.0102319799709307, 0.185122515642374, -1.20091965500956, 1.21478388527239, -1.22206614043067], a = 0.2, v = 0.2, t = 0.2)
movej(p[0.534965987900202, -0.00996647105828544, 0.185465311674494, -1.19898787817671, 1.22038119657033, -1.21602989548115], a = 0.2, v = 0.2, t = 0.2)
movej(p[0.534031545467385, -0.00962849336690104, 0.185744068629341, -1.19707240741706, 1.22701534178511, -1.20847027249132], a = 0.2, v = 0.2, t = 0.2)
movej(p[0.532681091305842, -0.00915976041045904, 0.185979155088157, -1.19614637537533, 1.22860789650952, -1.20609834161029], a = 0.2, v = 0.2, t = 0.2)
movej(p[0.531571521012984, -0.00878150797388648, 0.186236704790997, -1.19347779364231, 1.2291234672581, -1.20454370845897], a = 0.2, v = 0.2, t = 0.2)
movej(p[0.529954775539286, -0.00826325079854463, 0.186693779602689, -1.17529346517137, 1.22300803083545, -1.20809828600831], a = 0.2, v = 0.2, t = 0.2)
movej(p[0.528253533267513, -0.00767336525022511, 0.187305298181817, -1.16722904379978, 1.22686601967938, -1.20434318664611], a = 0.2, v = 0.2, t = 0.2)
movej(p[0.527638401792502, -0.00744525164166078, 0.187598987167034, -1.16470586841285, 1.22827869731179, -1.20200425299874], a = 0.2, v = 0.2, t = 0.2)
movej(p[0.527638401792502, -0.00744525164166078, 0.187598987167034, -1.16467530976865, 1.22832269726791, -1.20204899222639], a = 0.2, v = 0.2, t = 0.2)
movej(p[0.529496726321333, -0.00810349135742078, 0.187072185541999, -1.17107610416311, 1.22453952570998, -1.20835887446814], a = 0.2, v = 0.2, t = 0.2)
movej(p[0.531001143839453, -0.00862962965014205, 0.186425794570446, -1.17921718265915, 1.21898692804248, -1.21366374852323], a = 0.2, v = 0.2, t = 0.2)
movej(p[0.531813588208334, -0.00891060444897743, 0.185649606210642, -1.18643828634907, 1.21786099781263, -1.21278672857153], a = 0.2, v = 0.2, t = 0.2)
movej(p[0.532579716897805, -0.00917397006095256, 0.185102437684869, -1.19670279518369, 1.21338852706798, -1.21437881543258], a = 0.2, v = 0.2, t = 0.2)
movej(p[0.533198898847367, -0.00938798052803537, 0.184865481627095, -1.19901890254256, 1.21165409667041, -1.21522034140591], a = 0.2, v = 0.2, t = 0.2)
movej(p[0.533863233678384, -0.00961925161626288, 0.184605710042722, -1.20222167778031, 1.2092092754932, -1.21797060029958], a = 0.2, v = 0.2, t = 0.2)
movej(p[0.534477324524791, -0.00983214454559227, 0.184458887895204, -1.2041410489449, 1.20776640270006, -1.21987451519809], a = 0.2, v = 0.2, t = 0.2)
movej(p[0.534751047017131, -0.00993092441400784, 0.18441363411323, -1.20432512237683, 1.20764996044791, -1.22006142288654], a = 0.2, v = 0.2, t = 0.2)
movej(p[0.534896278568292, -0.00998540023082857, 0.184415841357871, -1.20502794043415, 1.20846808933078, -1.22039176228963], a = 0.2, v = 0.2, t = 0.2)
movej(p[0.535347382365997, -0.0101350370226382, 0.18454466679881, -1.20462739666026, 1.20988829918874, -1.22193253868326], a = 0.2, v = 0.2, t = 0.2)
movej(p[0.535700145324645, -0.010268893230627, 0.184729350475915, -1.20585348921917, 1.21068031653184, -1.2216227103766], a = 0.2, v = 0.2, t = 0.2)
movej(p[0.53613968401444, -0.010422838475946, 0.184736006421859, -1.2059859186723, 1.21113493690118, -1.22164514488226], a = 0.2, v = 0.2, t = 0.2)
movej(p[0.536138415558652, -0.0104226428054419, 0.184824297093693, -1.20623099235272, 1.21279446337582, -1.22131755019019], a = 0.2, v = 0.2, t = 0.2)
movej(p[0.535554396178702, -0.0102206085039711, 0.184962874418219, -1.20357168899613, 1.21450916335586, -1.2187484886825], a = 0.2, v = 0.2, t = 0.2)
movej(p[0.534206026186944, -0.00977231077178451, 0.185651584022218, -1.19303797953426, 1.21438601615912, -1.22027490684382], a = 0.2, v = 0.2, t = 0.2)
movej(p[0.533074258526139, -0.00936424800445484, 0.185772334342617, -1.18984069840198, 1.21653108856821, -1.21748792288575], a = 0.2, v = 0.2, t = 0.2)
movej(p[0.532438631386529, -0.00914653186853536, 0.186069152272586, -1.18677360298692, 1.21888875995428, -1.21467034431145], a = 0.2, v = 0.2, t = 0.2)
movej(p[0.531068775625833, -0.00863498352552085, 0.186408476155693, -1.18658924143949, 1.22942990081208, -1.20371596460359], a = 0.2, v = 0.2, t = 0.2)
movej(p[0.529394710618796, -0.00801990245771346, 0.186890815665002, -1.18020654206173, 1.23330863329892, -1.19724043543606], a = 0.2, v = 0.2, t = 0.2)
movej(p[0.52850721557866, -0.00775249513144704, 0.187053391141603, -1.16940945422598, 1.22608551919053, -1.2055637204782], a = 0.2, v = 0.2, t = 0.2)
movej(p[0.52850721557866, -0.00775249513144704, 0.187053391141603, -1.17003902362819, 1.22570177341295, -1.2061962685629], a = 0.2, v = 0.2, t = 0.2)
movej(p[0.529670538025524, -0.0081562174074635, 0.186554844585633, -1.176371603941, 1.22114388569036, -1.21054125978575], a = 0.2, v = 0.2, t = 0.2)
movej(p[0.53116015475748, -0.00867855034828145, 0.186111353998569, -1.18356889814273, 1.2187811860211, -1.21276307626005], a = 0.2, v = 0.2, t = 0.2)
movej(p[0.532135237983939, -0.00900537455125538, 0.18566673862341, -1.18862348418621, 1.21559278998688, -1.21387125309245], a = 0.2, v = 0.2, t = 0.2)
movej(p[0.532910901481186, -0.00924289575884585, 0.185021239409636, -1.1947614140966, 1.21183337743531, -1.21566706004929], a = 0.2, v = 0.2, t = 0.2)
movej(p[0.533652603484094, -0.00950200229073827, 0.184727537325863, -1.20052678027316, 1.20934203461261, -1.21776285997139], a = 0.2, v = 0.2, t = 0.2)
movej(p[0.533939904064644, -0.00960345441329357, 0.184724789009165, -1.20175732555414, 1.21057092138068, -1.21698068408756], a = 0.2, v = 0.2, t = 0.2)
movej(p[0.53428331835022, -0.00972489373590815, 0.184617680048822, -1.20144156581186, 1.21111513728586, -1.21763411571146], a = 0.2, v = 0.2, t = 0.2)
movej(p[0.534626135139802, -0.00984635591952648, 0.184545166210619, -1.20110387762015, 1.2116248226952, -1.21831430429998], a = 0.2, v = 0.2, t = 0.2)
movej(p[0.53502862699299, -0.0100207956882182, 0.184520332056387, -1.20323989171749, 1.20981670194047, -1.22095083363493], a = 0.2, v = 0.2, t = 0.2)
movej(p[0.535452826421934, -0.0101620694953897, 0.184526739543456, -1.20598366759003, 1.20743041213669, -1.22224169384519], a = 0.2, v = 0.2, t = 0.2)
movej(p[0.535527570841124, -0.0101753331091852, 0.184380827246685, -1.20453726950141, 1.20327461606547, -1.22586966254869], a = 0.2, v = 0.2, t = 0.2)
movej(p[0.535783302328183, -0.0102917232976269, 0.184384759238646, -1.20418569250676, 1.20381611560546, -1.22640277958062], a = 0.2, v = 0.2, t = 0.2)
movej(p[0.535777844951581, -0.0102908814491051, 0.184764619105349, -1.19980945120892, 1.20902065434525, -1.22300302590813], a = 0.2, v = 0.2, t = 0.2)
movej(p[0.535292228091703, -0.0101777116819679, 0.185181136294919, -1.20189428148375, 1.21528899890131, -1.21744108446174], a = 0.2, v = 0.2, t = 0.2)
movej(p[0.533938201030165, -0.00966572619585175, 0.185525687145491, -1.2012554175761, 1.22490929340922, -1.20732489380711], a = 0.2, v = 0.2, t = 0.2)
movej(p[0.532576768332264, -0.00916034557160465, 0.185944954141237, -1.19738955254353, 1.23025560779818, -1.20254760491715], a = 0.2, v = 0.2, t = 0.2)
movej(p[0.531470127860744, -0.00875273530828472, 0.186189079457477, -1.19382726774658, 1.23534102400533, -1.19585068328726], a = 0.2, v = 0.2, t = 0.2)
movej(p[0.530193472834322, -0.00829498048360127, 0.1865951684551, -1.18964591536104, 1.23787103550624, -1.19157590393435], a = 0.2, v = 0.2, t = 0.2)
movej(p[0.529008274498448, -0.00789759519741905, 0.187215027615691, -1.18321160786832, 1.24177481578783, -1.18872941454827], a = 0.2, v = 0.2, t = 0.2)
movej(p[0.527684741488607, -0.00744186357744822, 0.187229006257275, -1.17651439747218, 1.2453497266703, -1.18979880272178], a = 0.2, v = 0.2, t = 0.2)
movej(p[0.527684741488607, -0.00744186357744822, 0.187229006257275, -1.17427848408792, 1.24313174973886, -1.19131224788352], a = 0.2, v = 0.2, t = 0.2)
movej(p[0.529066901233863, -0.00792341670054909, 0.186634865736669, -1.1764488770796, 1.22783676057267, -1.20664714496435], a = 0.2, v = 0.2, t = 0.2)
movej(p[0.530684302143291, -0.00845776569197602, 0.18604352181513, -1.18004666655071, 1.22473315122746, -1.20856945378831], a = 0.2, v = 0.2, t = 0.2)
movej(p[0.532132416020863, -0.00893798769946802, 0.185328313005688, -1.18534032032927, 1.22013432553985, -1.21107403621309], a = 0.2, v = 0.2, t = 0.2)
movej(p[0.532913133243527, -0.00920774581234608, 0.185002591608212, -1.19202003436963, 1.21405011818395, -1.21676103129011], a = 0.2, v = 0.2, t = 0.2)
movej(p[0.533712029232405, -0.0094812031055554, 0.18467033886143, -1.19990744491352, 1.20755238167357, -1.22036295543833], a = 0.2, v = 0.2, t = 0.2)
movej(p[0.534184367556496, -0.00962113516444285, 0.184521818537937, -1.20167933141205, 1.20750742712549, -1.22107407088814], a = 0.2, v = 0.2, t = 0.2)
movej(p[0.534696945857844, -0.00983471871656521, 0.184437446260203, -1.20230456701961, 1.2073202595064, -1.22229247719341], a = 0.2, v = 0.2, t = 0.2)
movej(p[0.534911179404386, -0.0099112921032192, 0.184405090055348, -1.20118301746107, 1.20621412098999, -1.22302160522413], a = 0.2, v = 0.2, t = 0.2)
movej(p[0.535313352135858, -0.0100800637159714, 0.18441124202978, -1.19937498947577, 1.20559484979289, -1.22460349118747], a = 0.2, v = 0.2, t = 0.2)
movej(p[0.53547161110418, -0.0101658920619234, 0.184464111245555, -1.19999058046973, 1.20551950604232, -1.22610878667364], a = 0.2, v = 0.2, t = 0.2)
movej(p[0.535867299938425, -0.010310674002728, 0.184497719816946, -1.20070227712756, 1.20624094694237, -1.2256524339138], a = 0.2, v = 0.2, t = 0.2)
movej(p[0.535866343209597, -0.0103105264188597, 0.184564312781206, -1.20168292112189, 1.20764057577765, -1.2248463414209], a = 0.2, v = 0.2, t = 0.2)
movej(p[0.535616590004176, -0.0102992832773125, 0.184924438131814, -1.19922807981011, 1.2102814990547, -1.22071635522676], a = 0.2, v = 0.2, t = 0.2)
movej(p[0.53405205435456, -0.00971825186943785, 0.185436329638036, -1.20217609349286, 1.22075824728407, -1.21271743805334], a = 0.2, v = 0.2, t = 0.2)
movej(p[0.532586924681614, -0.00917653241822902, 0.185880229072182, -1.19645986659309, 1.22892070929641, -1.20163682726103], a = 0.2, v = 0.2, t = 0.2)
movej(p[0.530956477502087, -0.00856562019587313, 0.186332501226254, -1.19130629098135, 1.23725094904006, -1.1909083898742], a = 0.2, v = 0.2, t = 0.2)
movej(p[0.52954364239155, -0.00803392567715694, 0.186739170169253, -1.18785707005734, 1.23987280283184, -1.18680232480313], a = 0.2, v = 0.2, t = 0.2)
movej(p[0.528448306384733, -0.00768522754057964, 0.18723531504902, -1.18187640051878, 1.24480356182578, -1.18461633811774], a = 0.2, v = 0.2, t = 0.2)
movej(p[0.528448306384733, -0.00768522754057964, 0.18723531504902, -1.17917708786076, 1.24474490672838, -1.1872504915263], a = 0.2, v = 0.2, t = 0.2)
movej(p[0.528801925595084, -0.00786038417051962, 0.187235783086237, -1.17591240338785, 1.24105398363567, -1.18994548330901], a = 0.2, v = 0.2, t = 0.2)
movej(p[0.529906630156244, -0.00819725674175578, 0.1865857303243, -1.18163222737099, 1.23322932891768, -1.1981275788496], a = 0.2, v = 0.2, t = 0.2)
movej(p[0.530845941792823, -0.00843781498504676, 0.185860680290874, -1.1849672902659, 1.22469306055519, -1.2048620909085], a = 0.2, v = 0.2, t = 0.2)
movej(p[0.532353356946763, -0.0089589736867972, 0.185257825945893, -1.18694880804394, 1.21770706136743, -1.21249712352601], a = 0.2, v = 0.2, t = 0.2)
movej(p[0.533152506071819, -0.00921537750985211, 0.184857831889131, -1.18932271749197, 1.21398419829639, -1.21644247592582], a = 0.2, v = 0.2, t = 0.2)
movej(p[0.533614220229367, -0.00936092017349425, 0.18468126841675, -1.19319655118776, 1.21114756115244, -1.21917378851107], a = 0.2, v = 0.2, t = 0.2)
movej(p[0.534207740891988, -0.00958798217143925, 0.184597188798935, -1.19645083050407, 1.2091488921504, -1.21919606348069], a = 0.2, v = 0.2, t = 0.2)
movej(p[0.534686439495962, -0.00980939670218929, 0.184564252616305, -1.20016427727163, 1.2065862802388, -1.22233395903521], a = 0.2, v = 0.2, t = 0.2)
movej(p[0.535393690514765, -0.0101083605833355, 0.184587877479709, -1.19813331691668, 1.20453419002276, -1.22363575797494], a = 0.2, v = 0.2, t = 0.2)
movej(p[0.53557992176983, -0.0102216336601694, 0.184494893934382, -1.19706234314089, 1.20647701382649, -1.22612184866175], a = 0.2, v = 0.2, t = 0.2)
movej(p[0.535772664414305, -0.0102713350136974, 0.184588682784777, -1.19812191369101, 1.20755104744849, -1.2254409543915], a = 0.2, v = 0.2, t = 0.2)
movej(p[0.535772664414305, -0.0102713350136974, 0.184588682784777, -1.19963609151263, 1.20855818911942, -1.2242874259132], a = 0.2, v = 0.2, t = 0.2)
movej(p[0.53559986903729, -0.0102582318440555, 0.184772090867007, -1.19955103106555, 1.21318939746128, -1.21957577931061], a = 0.2, v = 0.2, t = 0.2)
movej(p[0.534760869999567, -0.00999430411334817, 0.18514289271121, -1.19863804612164, 1.21363113823067, -1.21786639323699], a = 0.2, v = 0.2, t = 0.2)
movej(p[0.533937736171561, -0.00971401864207467, 0.185528487778328, -1.20052020260364, 1.22265777718021, -1.20986673708064], a = 0.2, v = 0.2, t = 0.2)
movej(p[0.532408565894445, -0.00913231560011953, 0.185918072909673, -1.19532201905224, 1.22619321030009, -1.2042297447712], a = 0.2, v = 0.2, t = 0.2)
movej(p[0.53085024337536, -0.00855814989336142, 0.186412967087953, -1.18670169161392, 1.23517402940734, -1.19516796936751], a = 0.2, v = 0.2, t = 0.2)
movej(p[0.529062718654784, -0.00789872457058844, 0.186947683982221, -1.18472290883882, 1.23873828331001, -1.19064334617212], a = 0.2, v = 0.2, t = 0.2)
movej(p[0.526523047237081, -0.00700547120363954, 0.187903122354141, -1.17767636798359, 1.25099587370669, -1.17478487327761], a = 0.2, v = 0.2, t = 0.2)
movej(p[0.526523047237081, -0.00700547120363954, 0.187903122354141, -1.17718823505893, 1.25168637709615, -1.17547384586018], a = 0.2, v = 0.2, t = 0.2)
movej(p[0.527719713604771, -0.00749329657402385, 0.187569358571729, -1.17196428054848, 1.24217628365099, -1.18645141401104], a = 0.2, v = 0.2, t = 0.2)
movej(p[0.528927538190795, -0.00781774893236628, 0.186874054856393, -1.1764328797723, 1.23584943575504, -1.1948599510066], a = 0.2, v = 0.2, t = 0.2)
movej(p[0.530029668994158, -0.00814742894507122, 0.18630795805239, -1.17831982023012, 1.2303544617353, -1.20134209149754], a = 0.2, v = 0.2, t = 0.2)
movej(p[0.530936627674356, -0.00838836988380929, 0.185753162093093, -1.17696646879505, 1.22444347847792, -1.20775788064363], a = 0.2, v = 0.2, t = 0.2)
movej(p[0.531485256187025, -0.0085559851817349, 0.185499587948141, -1.17871629252639, 1.22148005359443, -1.21146882399734], a = 0.2, v = 0.2, t = 0.2)
movej(p[0.532771129008538, -0.0090295819309963, 0.185094166542707, -1.18643257405123, 1.21427433791149, -1.2174451302581], a = 0.2, v = 0.2, t = 0.2)
movej(p[0.533416389351302, -0.00924086866262019, 0.184831976407316, -1.19134440418509, 1.21056554217963, -1.22056920533533], a = 0.2, v = 0.2, t = 0.2)
movej(p[0.533925441262413, -0.00942132794834412, 0.184704475513241, -1.19104988342148, 1.21026837886724, -1.22075954973227], a = 0.2, v = 0.2, t = 0.2)
movej(p[0.534161121668276, -0.00954902499168122, 0.184708144493363, -1.19056671960456, 1.21084447619421, -1.22105026603909], a = 0.2, v = 0.2, t = 0.2)
movej(p[0.534161210890427, -0.0095513254261407, 0.184708150873442, -1.19045331278023, 1.21091492394843, -1.22094238437972], a = 0.2, v = 0.2, t = 0.2)
movej(p[0.53476402474879, -0.00979467118171692, 0.184605438871178, -1.19042273818818, 1.21096102071646, -1.22098828343023], a = 0.2, v = 0.2, t = 0.2)
movej(p[0.535456266623522, -0.0101351931300875, 0.184616138849948, -1.19384800218757, 1.20949804068299, -1.22374766326787], a = 0.2, v = 0.2, t = 0.2)
movej(p[0.535456033905699, -0.0101351572313087, 0.184632337138551, -1.19609687397264, 1.20828484166299, -1.22221183385647], a = 0.2, v = 0.2, t = 0.2)
movej(p[0.534968202608529, -0.0100142983997517, 0.184899289678035, -1.20055241019351, 1.21244309280168, -1.21922109132105], a = 0.2, v = 0.2, t = 0.2)
movej(p[0.53384092208351, -0.00964503004880329, 0.185404931085457, -1.19930997563432, 1.22094691813375, -1.20973698288806], a = 0.2, v = 0.2, t = 0.2)
movej(p[0.532832726385892, -0.00927433238806765, 0.185718259698306, -1.19504340537046, 1.22606424278292, -1.20282204329962], a = 0.2, v = 0.2, t = 0.2)
movej(p[0.531487077240637, -0.00877170992472494, 0.186144860316235, -1.18970244607097, 1.23159950093481, -1.19605869778186], a = 0.2, v = 0.2, t = 0.2)
movej(p[0.52956120565186, -0.00801532346062675, 0.186685275555167, -1.18699429284253, 1.23901252433069, -1.1875221760458], a = 0.2, v = 0.2, t = 0.2)
movej(p[0.527435040325866, -0.00726871738893364, 0.187450058890666, -1.17226429976927, 1.25029330639373, -1.17760573515999], a = 0.2, v = 0.2, t = 0.2)
movej(p[0.526796784727175, -0.0071064043947767, 0.187786566026796, -1.1712694234942, 1.25125249475119, -1.17769851837484], a = 0.2, v = 0.2, t = 0.2)
movej(p[0.526796784727175, -0.0071064043947767, 0.187786566026796, -1.17046629358942, 1.25117061869643, -1.17846309000706], a = 0.2, v = 0.2, t = 0.2)
movej(p[0.528516428135309, -0.00770622782072829, 0.187151031270438, -1.16687403781023, 1.24395474369532, -1.18748744379827], a = 0.2, v = 0.2, t = 0.2)
movej(p[0.529614024653734, -0.00800036102156238, 0.186550086877911, -1.17101247768173, 1.23570974982294, -1.19779670998638], a = 0.2, v = 0.2, t = 0.2)
movej(p[0.53062446648257, -0.00824064141257303, 0.185969673314808, -1.17429737531362, 1.22932267440934, -1.20296832432166], a = 0.2, v = 0.2, t = 0.2)
movej(p[0.531549515973, -0.00853068621495362, 0.185545859885493, -1.18223121252233, 1.22043071924399, -1.2119633015632], a = 0.2, v = 0.2, t = 0.2)
movej(p[0.532584910902326, -0.00891882297052954, 0.185227160074862, -1.18463636669398, 1.2186732761366, -1.21443132611187], a = 0.2, v = 0.2, t = 0.2)
movej(p[0.533566147062162, -0.00928932606000949, 0.184945647110122, -1.19189653861955, 1.21248565564021, -1.216976226647], a = 0.2, v = 0.2, t = 0.2)
movej(p[0.533777392214131, -0.00936457135436701, 0.184919845725534, -1.19623733782763, 1.20950256945646, -1.21981913560127], a = 0.2, v = 0.2, t = 0.2)
movej(p[0.533953257024492, -0.00943665697542164, 0.184844723879752, -1.19730079033104, 1.20883310105417, -1.22089447816896], a = 0.2, v = 0.2, t = 0.2)
movej(p[0.534062576462338, -0.00946883738642734, 0.184812962241622, -1.19664596944654, 1.20822124885985, -1.2213328149356], a = 0.2, v = 0.2, t = 0.2)
movej(p[0.534545959521886, -0.00967689651880754, 0.184722857718012, -1.1955250725309, 1.20992703280044, -1.22302914550163], a = 0.2, v = 0.2, t = 0.2)
movej(p[0.535358763754208, -0.0100598294116865, 0.184619071497971, -1.19572430331773, 1.21038317497027, -1.22264366394647], a = 0.2, v = 0.2, t = 0.2)
movej(p[0.535627552162262, -0.0101667720057702, 0.184580465627092, -1.1964678271244, 1.21065311821043, -1.22200028596188], a = 0.2, v = 0.2, t = 0.2)
movej(p[0.535627552162262, -0.0101667720057702, 0.184580465627092, -1.19588864931982, 1.2110697414741, -1.22061551858177], a = 0.2, v = 0.2, t = 0.2)
movej(p[0.535358468763283, -0.0100762357658067, 0.184662108162861, -1.19682238258719, 1.21051417228708, -1.21943168415917], a = 0.2, v = 0.2, t = 0.2)
movej(p[0.534591484644476, -0.00984202698751097, 0.184995006375034, -1.20077552778294, 1.21359655600566, -1.21571123399789], a = 0.2, v = 0.2, t = 0.2)
movej(p[0.533705146834227, -0.00947392775376047, 0.185248784979795, -1.19988380163205, 1.21935560065926, -1.20948192048091], a = 0.2, v = 0.2, t = 0.2)
movej(p[0.532605354378324, -0.00904367613558358, 0.185573467007316, -1.19004809643404, 1.22775150040412, -1.20083682497281], a = 0.2, v = 0.2, t = 0.2)
movej(p[0.531081087240036, -0.0084702481670533, 0.186078453102216, -1.18722881369778, 1.23418722835385, -1.19461478706712], a = 0.2, v = 0.2, t = 0.2)
movej(p[0.530671970235638, -0.00832959870240372, 0.186233180684782, -1.185584124307, 1.23627211185401, -1.19178716378681], a = 0.2, v = 0.2, t = 0.2)
movej(p[0.529519342592523, -0.007943972885369, 0.186663713791015, -1.18077311352722, 1.23985189234312, -1.18873250190799], a = 0.2, v = 0.2, t = 0.2)
movej(p[0.528916097744677, -0.00777188229668758, 0.186926394400947, -1.17635104224235, 1.2435603523663, -1.18734742805407], a = 0.2, v = 0.2, t = 0.2)
movej(p[0.528916097744677, -0.00777188229668758, 0.186926394400947, -1.17196921562607, 1.23993333619222, -1.19052573590468], a = 0.2, v = 0.2, t = 0.2)
movej(p[0.530201210844461, -0.00819021145010197, 0.186410827974417, -1.17579620259687, 1.23416149682117, -1.1980715431997], a = 0.2, v = 0.2, t = 0.2)
movej(p[0.53099783660398, -0.00842828238579784, 0.186067062983692, -1.17979890457208, 1.22983185848407, -1.20156133381089], a = 0.2, v = 0.2, t = 0.2)
movej(p[0.532190521055857, -0.00879774155399585, 0.185568562300356, -1.18343448060112, 1.22455376428175, -1.20841423342188], a = 0.2, v = 0.2, t = 0.2)
movej(p[0.532885650445672, -0.00902659859026465, 0.185289325683192, -1.18404848975291, 1.21884241184258, -1.21451948817413], a = 0.2, v = 0.2, t = 0.2)
movej(p[0.534095910372939, -0.00953423032470534, 0.184935798978909, -1.18920963626004, 1.21273943703584, -1.22317707892053], a = 0.2, v = 0.2, t = 0.2)
movej(p[0.534619787007074, -0.0097430676009596, 0.18480447352725, -1.19204487749346, 1.21013910211994, -1.22368386591845], a = 0.2, v = 0.2, t = 0.2)
movej(p[0.534888520489438, -0.00985942334441993, 0.184759687073714, -1.19346859090705, 1.21053819556578, -1.22381498599739], a = 0.2, v = 0.2, t = 0.2)
movej(p[0.535224869817469, -0.00999194280280701, 0.184646500534399, -1.19811897209665, 1.20620038547992, -1.22421063301852], a = 0.2, v = 0.2, t = 0.2)
movej(p[0.535430899349803, -0.010046196052955, 0.184558971187008, -1.19811897209665, 1.20620038547992, -1.22421063301852], a = 0.2, v = 0.2, t = 0.2)
movej(p[0.535851544415738, -0.0103059543391198, 0.184565590195465, -1.19519612915002, 1.20905741288704, -1.22412284075037], a = 0.2, v = 0.2, t = 0.2)
movej(p[0.53585058912344, -0.0103058069768489, 0.184632083170289, -1.19273327068415, 1.21125761266061, -1.2213166577194], a = 0.2, v = 0.2, t = 0.2)
movej(p[0.534406908069225, -0.00972065839890462, 0.184996386073696, -1.18892430597957, 1.21857699179038, -1.21304468005548], a = 0.2, v = 0.2, t = 0.2)
movej(p[0.532879397614418, -0.00918401529563751, 0.185548112029375, -1.18787791841124, 1.22654719637936, -1.2051445068238], a = 0.2, v = 0.2, t = 0.2)
movej(p[0.53116647457172, -0.00845024994263934, 0.186030830370164, -1.18141906621736, 1.23148379372159, -1.19882438662772], a = 0.2, v = 0.2, t = 0.2)
movej(p[0.529312123083464, -0.00779960123575036, 0.186710121999897, -1.16439581005761, 1.2450372640998, -1.19037990422722], a = 0.2, v = 0.2, t = 0.2)
movej(p[0.527734754512657, -0.00728406742510452, 0.187335186254125, -1.16195449432852, 1.25122269171485, -1.1828120606457], a = 0.2, v = 0.2, t = 0.2)
movej(p[0.525828869087559, -0.00665492408980401, 0.188085992793816, -1.15987565879813, 1.25623483592072, -1.17446661846516], a = 0.2, v = 0.2, t = 0.2)
movej(p[0.525828869087559, -0.00665492408980401, 0.188085992793816, -1.15987565879813, 1.25623483592072, -1.17446661846516], a = 0.2, v = 0.2, t = 0.2)
movej(p[0.526906435292558, -0.00701669899946548, 0.187701633432562, -1.15742879458317, 1.25343396643194, -1.17932757607115], a = 0.2, v = 0.2, t = 0.2)
movej(p[0.528090729589686, -0.00737804465783303, 0.187191092970925, -1.15907427278824, 1.2451507437037, -1.18887317188979], a = 0.2, v = 0.2, t = 0.2)
movej(p[0.529925834899401, -0.00803545664254628, 0.186533542148091, -1.16818402548413, 1.2357641016725, -1.19849653287203], a = 0.2, v = 0.2, t = 0.2)
movej(p[0.530768551443345, -0.00828516435907601, 0.186180064025899, -1.17742067032579, 1.2285512125574, -1.20559892421608], a = 0.2, v = 0.2, t = 0.2)
movej(p[0.531412265782966, -0.00857905633798971, 0.186005644004981, -1.17875874568673, 1.22753698384362, -1.20637057623858], a = 0.2, v = 0.2, t = 0.2)
movej(p[0.531881632028101, -0.00865859005257206, 0.18575643650876, -1.18287851194888, 1.22456966319129, -1.20923195655024], a = 0.2, v = 0.2, t = 0.2)
movej(p[0.532996668927969, -0.0090956990145298, 0.185391784445407, -1.18622008098424, 1.21863092715486, -1.21570712450097], a = 0.2, v = 0.2, t = 0.2)
movej(p[0.534114025266977, -0.00957573251638406, 0.185067565092534, -1.19023807062374, 1.21385763808314, -1.2206039123258], a = 0.2, v = 0.2, t = 0.2)
movej(p[0.534573339859784, -0.00969024671511817, 0.184852294302311, -1.19225785550881, 1.21181056521857, -1.22040836007967], a = 0.2, v = 0.2, t = 0.2)
movej(p[0.534825193653481, -0.00986227651214758, 0.184829691082753, -1.19453591172547, 1.21058897452943, -1.2214378287624], a = 0.2, v = 0.2, t = 0.2)
movej(p[0.535114296185237, -0.00992772110534925, 0.184741079789157, -1.19581479546134, 1.20994701977179, -1.22022864707259], a = 0.2, v = 0.2, t = 0.2)
movej(p[0.535168086715142, -0.0100004071054339, 0.18472561194237, -1.19688092460554, 1.20934901981367, -1.21897279041664], a = 0.2, v = 0.2, t = 0.2)
movej(p[0.535271612424725, -0.0100251860865281, 0.184681849406437, -1.19932591305972, 1.20733446134725, -1.21851538979209], a = 0.2, v = 0.2, t = 0.2)
movej(p[0.535271612424725, -0.0100251860865281, 0.184681849406437, -1.20056851893547, 1.20858547065117, -1.21771673764909], a = 0.2, v = 0.2, t = 0.2)
movej(p[0.534910587918208, -0.00996100933143972, 0.184861439940153, -1.19573923327989, 1.21394443287676, -1.21821774451797], a = 0.2, v = 0.2, t = 0.2)
movej(p[0.532985145053888, -0.00913487511666649, 0.185471114095271, -1.17932518046977, 1.22754740610594, -1.20627807354354], a = 0.2, v = 0.2, t = 0.2)
movej(p[0.530621678864937, -0.00825773979120516, 0.18629020502094, -1.17846595060302, 1.2370045188346, -1.1968523222019], a = 0.2, v = 0.2, t = 0.2)
movej(p[0.528601108767759, -0.00755354059137714, 0.187049398645356, -1.16958009651274, 1.24608681902865, -1.18408902070489], a = 0.2, v = 0.2, t = 0.2)
movej(p[0.526849306707051, -0.00697206676752129, 0.187731517016511, -1.16240923590817, 1.25462931093595, -1.17465278236633], a = 0.2, v = 0.2, t = 0.2)
movej(p[0.526096131106132, -0.00677033171886936, 0.188060385127348, -1.16133281101981, 1.25744075685356, -1.17116866794013], a = 0.2, v = 0.2, t = 0.2)
movej(p[0.526096131106132, -0.00677033171886936, 0.188060385127348, -1.1617244881851, 1.2568981392509, -1.17061964282784], a = 0.2, v = 0.2, t = 0.2)
movej(p[0.528011254730731, -0.00735028901154833, 0.18732290370984, -1.16787249159285, 1.24517774097676, -1.18124752910019], a = 0.2, v = 0.2, t = 0.2)
movej(p[0.529310547767535, -0.0078017300122458, 0.186832917059612, -1.1716204184403, 1.23843435300033, -1.1885748518926], a = 0.2, v = 0.2, t = 0.2)
movej(p[0.530782862598153, -0.00829375947920201, 0.186260097111295, -1.18681810736814, 1.22865018093338, -1.20228935754499], a = 0.2, v = 0.2, t = 0.2)
movej(p[0.531723875396562, -0.00856095809574345, 0.185985478134259, -1.17609339898873, 1.23087569709007, -1.20380363081435], a = 0.2, v = 0.2, t = 0.2)
movej(p[0.531741588095853, -0.00856434500509884, 0.185983639893566, -1.17516669882828, 1.23129022798443, -1.20376493036851], a = 0.2, v = 0.2, t = 0.2)
movej(p[0.532030568147061, -0.00887382398575258, 0.185880266054818, -1.17498632906014, 1.23111003450635, -1.20388506930807], a = 0.2, v = 0.2, t = 0.2)
movej(p[0.532794945855776, -0.00923833256177545, 0.185589123552897, -1.17878944426675, 1.22770950182983, -1.20513745072842], a = 0.2, v = 0.2, t = 0.2)
movej(p[0.533546107933522, -0.0094693723152713, 0.185300395696151, -1.18268375304098, 1.22496793188249, -1.20840602107994], a = 0.2, v = 0.2, t = 0.2)
movej(p[0.533993868780126, -0.0096501220239562, 0.185136911179884, -1.18885984597803, 1.21872594554419, -1.21138265806868], a = 0.2, v = 0.2, t = 0.2)
movej(p[0.534887440453139, -0.0100262002471532, 0.184815647043659, -1.19684392511499, 1.21224199858236, -1.21517286256983], a = 0.2, v = 0.2, t = 0.2)
movej(p[0.53509344620696, -0.0100705876893022, 0.184712093799517, -1.19815816684467, 1.21040539388609, -1.21325620283512], a = 0.2, v = 0.2, t = 0.2)
movej(p[0.535250935350863, -0.010071470706202, 0.184644250967664, -1.19190581215207, 1.21432768216758, -1.20690586342035], a = 0.2, v = 0.2, t = 0.2)
movej(p[0.535496138807114, -0.0102889838698165, 0.184568647404937, -1.17830802499204, 1.21988154014433, -1.20714119357394], a = 0.2, v = 0.2, t = 0.2)
movej(p[0.535581048628676, -0.0102894414754065, 0.184540665217758, -1.17357480900814, 1.22195637299478, -1.20637319497318], a = 0.2, v = 0.2, t = 0.2)
movej(p[0.535581559800271, -0.0101802429239648, 0.184540430554949, -1.17357480900814, 1.22195637299478, -1.20637319497318], a = 0.2, v = 0.2, t = 0.2)
movej(p[0.534832693474832, -0.00980204354270157, 0.184814463736582, -1.17771050115116, 1.22116019031014, -1.20708470887082], a = 0.2, v = 0.2, t = 0.2)
movej(p[0.534227299009521, -0.00956764085932521, 0.185031170527883, -1.18020733940286, 1.2236520510443, -1.20544212299038], a = 0.2, v = 0.2, t = 0.2)
movej(p[0.53363645731414, -0.00934071923738934, 0.185241902320685, -1.18272033446696, 1.22618132011756, -1.20379149326098], a = 0.2, v = 0.2, t = 0.2)
movej(p[0.531701139582968, -0.0084998229871749, 0.185951912507786, -1.18637738746412, 1.23158709104344, -1.19967252967208], a = 0.2, v = 0.2, t = 0.2)
movej(p[0.529652700730403, -0.00778724769952662, 0.186732289465885, -1.17453416648077, 1.2420383977982, -1.19445509602196], a = 0.2, v = 0.2, t = 0.2)
movej(p[0.528617102136557, -0.00763353167607724, 0.187135414739914, -1.17463170322752, 1.24362262435995, -1.19280872171763], a = 0.2, v = 0.2, t = 0.2)
movej(p[0.528617102136557, -0.00763353167607724, 0.187135414739914, -1.17796066841176, 1.23885095485742, -1.18803260343904], a = 0.2, v = 0.2, t = 0.2)
movej(p[0.529423620631739, -0.00775892300582072, 0.186849548282708, -1.18108720757041, 1.23520648889878, -1.19173205096145], a = 0.2, v = 0.2, t = 0.2)
movej(p[0.529938483479155, -0.00791434277794155, 0.186659868808898, -1.18030402821976, 1.23325156171011, -1.19195019155044], a = 0.2, v = 0.2, t = 0.2)
movej(p[0.530836718399167, -0.00839999992565097, 0.186312711750279, -1.18283859281947, 1.23006084205308, -1.19602047176882], a = 0.2, v = 0.2, t = 0.2)
movej(p[0.532469794526258, -0.00905285741876644, 0.185705753970192, -1.19396466487508, 1.21889677245522, -1.20689630063029], a = 0.2, v = 0.2, t = 0.2)
movej(p[0.532881459868669, -0.00923165301463679, 0.185535345869578, -1.20193989245365, 1.21332310972471, -1.21331890651846], a = 0.2, v = 0.2, t = 0.2)
movej(p[0.533412265752664, -0.00945788879071492, 0.185326850360901, -1.20452985729412, 1.21169554723483, -1.21595467193244], a = 0.2, v = 0.2, t = 0.2)
movej(p[0.53402740244004, -0.00978459365496441, 0.185084385337608, -1.20152323363588, 1.21145102560304, -1.21992364861817], a = 0.2, v = 0.2, t = 0.2)
movej(p[0.534504449861462, -0.00987188649396642, 0.184917514075933, -1.20031470842033, 1.20978241149863, -1.22115551100162], a = 0.2, v = 0.2, t = 0.2)
movej(p[0.535156591847565, -0.0101328527153873, 0.184633630594133, -1.19973774083774, 1.20784112271688, -1.22106537629707], a = 0.2, v = 0.2, t = 0.2)
movej(p[0.535161181601272, -0.0101911840108442, 0.184629425343696, -1.20030320942423, 1.2074213196777, -1.22146129567519], a = 0.2, v = 0.2, t = 0.2)
movej(p[0.535251673545273, -0.0101916649955521, 0.184602723532436, -1.19766263803488, 1.20767601792832, -1.22021370542222], a = 0.2, v = 0.2, t = 0.2)
movej(p[0.535303809257758, -0.010191913670938, 0.184600572801319, -1.19601713053801, 1.20904129319309, -1.2216066142589], a = 0.2, v = 0.2, t = 0.2)
movej(p[0.535304506267377, -0.0100430156461241, 0.184600252826115, -1.19413179751733, 1.21027327363583, -1.22007687180364], a = 0.2, v = 0.2, t = 0.2)
movej(p[0.53508583415446, -0.00976013976608884, 0.184715896907358, -1.19079020870126, 1.2128516491413, -1.21808262196496], a = 0.2, v = 0.2, t = 0.2)
movej(p[0.53488125888492, -0.00973923998385085, 0.184781918783997, -1.18960488809547, 1.21367554178743, -1.21684190870872], a = 0.2, v = 0.2, t = 0.2)
movej(p[0.533102409683319, -0.00909439271611576, 0.185438905526068, -1.18897439824752, 1.22258739798564, -1.21022055477459], a = 0.2, v = 0.2, t = 0.2)
movej(p[0.53111336226995, -0.00842751521049957, 0.186163831066986, -1.17839147030748, 1.23431223705902, -1.19831823490249], a = 0.2, v = 0.2, t = 0.2)
movej(p[0.529571274055394, -0.00779939780179798, 0.186764350058704, -1.17495872824564, 1.2409024094692, -1.19205561600174], a = 0.2, v = 0.2, t = 0.2)
movej(p[0.528957172038367, -0.00765454206333078, 0.186987330859931, -1.17117983549729, 1.24318242050201, -1.18819384233611], a = 0.2, v = 0.2, t = 0.2)
movej(p[0.528957172038367, -0.00765454206333078, 0.186987330859931, -1.17139895904106, 1.24292612244568, -1.18789762736124], a = 0.2, v = 0.2, t = 0.2)
movej(p[0.528975991841012, -0.00772166539575489, 0.18697134826713, -1.17602041263041, 1.23844909525493, -1.18753980588099], a = 0.2, v = 0.2, t = 0.2)
movej(p[0.530254077243037, -0.00823067237561805, 0.18649788627332, -1.1784004406108, 1.22800448544753, -1.19334630506645], a = 0.2, v = 0.2, t = 0.2)
movej(p[0.531067456751362, -0.00860218947195166, 0.186169959341568, -1.18130506118126, 1.22464607164019, -1.19748294736414], a = 0.2, v = 0.2, t = 0.2)
movej(p[0.532151350175879, -0.0090539766673829, 0.185747686332326, -1.18394060285099, 1.22134674339588, -1.20190011928937], a = 0.2, v = 0.2, t = 0.2)
movej(p[0.532892087448213, -0.00931822782189616, 0.185477684293975, -1.18793002952231, 1.21832838878266, -1.20651255938667], a = 0.2, v = 0.2, t = 0.2)
movej(p[0.533455959220315, -0.00962903241453202, 0.185216645638173, -1.19755543140747, 1.2120542119224, -1.21550671276689], a = 0.2, v = 0.2, t = 0.2)
movej(p[0.533897117717912, -0.00980068938378076, 0.185035344245717, -1.20362220429301, 1.20748421120888, -1.21955323005735], a = 0.2, v = 0.2, t = 0.2)
movej(p[0.534249926064696, -0.00996197459921222, 0.184881053546962, -1.2027914955439, 1.20664633994553, -1.22008616526841], a = 0.2, v = 0.2, t = 0.2)
movej(p[0.535003182047019, -0.0101863586988839, 0.18462274423449, -1.19995198183126, 1.20594249860451, -1.22222113128396], a = 0.2, v = 0.2, t = 0.2)
movej(p[0.535339424827421, -0.0102974511955948, 0.184475205053924, -1.19747172331788, 1.20663599551743, -1.22227860584062], a = 0.2, v = 0.2, t = 0.2)
movej(p[0.535378720341579, -0.0102976339285719, 0.184475770010298, -1.19739547037602, 1.20659961419705, -1.22234147867767], a = 0.2, v = 0.2, t = 0.2)
movej(p[0.535379209784301, -0.0101331928978755, 0.184494914666715, -1.19384319254639, 1.20920446209746, -1.21940869823302], a = 0.2, v = 0.2, t = 0.2)
movej(p[0.534653514663339, -0.00976014113446803, 0.18479729511124, -1.19443399217981, 1.21298554205352, -1.21658314845804], a = 0.2, v = 0.2, t = 0.2)
movej(p[0.533926057418706, -0.00944891565918132, 0.185083985590265, -1.19243745700579, 1.21739777871268, -1.21369121677503], a = 0.2, v = 0.2, t = 0.2)
movej(p[0.532910831033814, -0.00901325522245461, 0.185503880507226, -1.18046206906291, 1.22835287222328, -1.20838407100914], a = 0.2, v = 0.2, t = 0.2)
movej(p[0.530882943330772, -0.00826658918109636, 0.186277976480949, -1.17445317808444, 1.23964211135336, -1.2000542654354], a = 0.2, v = 0.2, t = 0.2)
movej(p[0.528452161001449, -0.00763134438424113, 0.187095936293849, -1.16438106735842, 1.24941606743241, -1.18582022203832], a = 0.2, v = 0.2, t = 0.2)
movej(p[0.526102601147129, -0.00691135163617481, 0.187926476421535, -1.16157154418682, 1.25752445311367, -1.17527838752632], a = 0.2, v = 0.2, t = 0.2)
movej(p[0.524364692407358, -0.00630223130930537, 0.188520723827608, -1.15713484126543, 1.26035082330408, -1.16609044166788], a = 0.2, v = 0.2, t = 0.2)
movej(p[0.524364692407358, -0.00630223130930537, 0.188520723827608, -1.16055135058271, 1.25564571917295, -1.16131211974327], a = 0.2, v = 0.2, t = 0.2)
movej(p[0.526645250091859, -0.00700214283744105, 0.187717150812601, -1.15692792609548, 1.24832165478847, -1.16706042306918], a = 0.2, v = 0.2, t = 0.2)
movej(p[0.528102639475601, -0.0074894610140897, 0.187210112965035, -1.16692795271125, 1.23732454120704, -1.18075551837217], a = 0.2, v = 0.2, t = 0.2)
movej(p[0.529271722904988, -0.00798493477983287, 0.186747256256548, -1.17412222242318, 1.23004990006944, -1.19084883455849], a = 0.2, v = 0.2, t = 0.2)
movej(p[0.53002323427374, -0.00822823241908323, 0.186478962739345, -1.176849481951, 1.22838887397581, -1.19361601824948], a = 0.2, v = 0.2, t = 0.2)
movej(p[0.530855988114018, -0.00865101720018918, 0.186115523981965, -1.18032337274379, 1.22632326554145, -1.19730885911373], a = 0.2, v = 0.2, t = 0.2)
movej(p[0.531837736280135, -0.00895534203068359, 0.185778065812897, -1.1831836924226, 1.2239355477184, -1.20086985729189], a = 0.2, v = 0.2, t = 0.2)
movej(p[0.532143185992404, -0.00911398077750844, 0.185635290145219, -1.18723640494077, 1.21925170110458, -1.20874977321622], a = 0.2, v = 0.2, t = 0.2)
movej(p[0.532704347288859, -0.00924639996160701, 0.185453525629859, -1.18723640494077, 1.21925170110458, -1.20874977321622], a = 0.2, v = 0.2, t = 0.2)
movej(p[0.533204585138645, -0.00937684040113173, 0.185315286144262, -1.18380764664658, 1.21960063457402, -1.21225307751196], a = 0.2, v = 0.2, t = 0.2)
movej(p[0.533564502719757, -0.00951574430110289, 0.18516764867822, -1.18428213206259, 1.21789651785073, -1.21417679637444], a = 0.2, v = 0.2, t = 0.2)
movej(p[0.534032487507107, -0.00966651552404653, 0.184991486914092, -1.18488397124874, 1.21730492819838, -1.21415457244595], a = 0.2, v = 0.2, t = 0.2)
movej(p[0.534032487507107, -0.00966651552404653, 0.184991486914092, -1.1859692019807, 1.21809869591467, -1.21374904318442], a = 0.2, v = 0.2, t = 0.2)
movej(p[0.53376719781902, -0.00955230452554138, 0.185116036017722, -1.18586540292147, 1.21825313912723, -1.21390318787627], a = 0.2, v = 0.2, t = 0.2)
movej(p[0.533671831359402, -0.00955121913610112, 0.185134165560179, -1.18540692011251, 1.2185294295298, -1.2134512998983], a = 0.2, v = 0.2, t = 0.2)
movej(p[0.533576464899784, -0.00955013374666086, 0.185152295102636, -1.18495310642544, 1.21881025973732, -1.21299346852826], a = 0.2, v = 0.2, t = 0.2)
movej(p[0.532611215060754, -0.0091423824573154, 0.185537366114645, -1.18150974244954, 1.2236512545471, -1.20735897270668], a = 0.2, v = 0.2, t = 0.2)
movej(p[0.532611374961741, -0.00909747529701325, 0.185540769258085, -1.1820858862815, 1.22441777097957, -1.20704191909878], a = 0.2, v = 0.2, t = 0.2)
movej(p[0.532612374847597, -0.00909747994670733, 0.185540783633565, -1.18264670504219, 1.22407366811009, -1.20760861054982], a = 0.2, v = 0.2, t = 0.2)
movej(p[0.533283091201602, -0.00935492183099114, 0.18530866463674, -1.18400193496275, 1.21951302351383, -1.20941750014144], a = 0.2, v = 0.2, t = 0.2)
movej(p[0.534655963876737, -0.00982383028426412, 0.184808072566968, -1.18925382579042, 1.21340388756816, -1.21698675655176], a = 0.2, v = 0.2, t = 0.2)
movej(p[0.535441708583907, -0.0101449776114477, 0.184498638988641, -1.18947993371338, 1.2096202629611, -1.22090614469552], a = 0.2, v = 0.2, t = 0.2)
movej(p[0.535441708583907, -0.0101449776114477, 0.184498638988641, -1.18947993371338, 1.2096202629611, -1.22090614469552], a = 0.2, v = 0.2, t = 0.2)
movej(p[0.535277220556743, -0.00987115383876597, 0.184661586496858, -1.19062759056975, 1.21332373856119, -1.21831196359411], a = 0.2, v = 0.2, t = 0.2)
movej(p[0.533097903742897, -0.00905371210011545, 0.185466353549362, -1.1827405102839, 1.22556203629683, -1.2073052081498], a = 0.2, v = 0.2, t = 0.2)
movej(p[0.531244214136617, -0.00823116427852037, 0.186238683591999, -1.17684151235556, 1.23494664206524, -1.19612790267644], a = 0.2, v = 0.2, t = 0.2)
movej(p[0.529460070681269, -0.00760379060585875, 0.186896533092714, -1.17290468112236, 1.24272198664973, -1.18735367913064], a = 0.2, v = 0.2, t = 0.2)
movej(p[0.525954295907835, -0.00665497756120364, 0.18800858652859, -1.15801528901723, 1.25603754669619, -1.16961073489012], a = 0.2, v = 0.2, t = 0.2)
movej(p[0.523308055420354, -0.00582406562967174, 0.188899125294988, -1.15191810657508, 1.26375144013165, -1.1587713915362], a = 0.2, v = 0.2, t = 0.2)
movej(p[0.523308055420354, -0.00582406562967174, 0.188899125294988, -1.15746208864606, 1.25618333208081, -1.15104744386575], a = 0.2, v = 0.2, t = 0.2)
movej(p[0.52416256316003, -0.00609121979351915, 0.188596360575158, -1.16319215590877, 1.24708125955731, -1.1599905488205], a = 0.2, v = 0.2, t = 0.2)
movej(p[0.52665502848964, -0.00692849284054713, 0.187714727819749, -1.16596044722142, 1.23780263658435, -1.17111374791087], a = 0.2, v = 0.2, t = 0.2)
movej(p[0.528041943172811, -0.00757217160265278, 0.187120014810963, -1.16680916375708, 1.23532457091433, -1.17949251567172], a = 0.2, v = 0.2, t = 0.2)
movej(p[0.529348192742793, -0.00804958220312284, 0.186659488753631, -1.17383878303152, 1.23156218037019, -1.18809581518509], a = 0.2, v = 0.2, t = 0.2)
movej(p[0.530386450224219, -0.00842276560540707, 0.18627869036797, -1.18468308472248, 1.22494070970696, -1.19911246360958], a = 0.2, v = 0.2, t = 0.2)
movej(p[0.531764830524421, -0.00892480940817481, 0.185773850395189, -1.18689658224653, 1.2209000617685, -1.20300963401125], a = 0.2, v = 0.2, t = 0.2)
movej(p[0.533102826971122, -0.00936540880317941, 0.185294396818982, -1.18885972690832, 1.21634853595645, -1.20843701886728], a = 0.2, v = 0.2, t = 0.2)
movej(p[0.533539788467879, -0.00958366470470637, 0.185104737514438, -1.19203549006513, 1.21472031410628, -1.21569315940261], a = 0.2, v = 0.2, t = 0.2)
movej(p[0.534298036500166, -0.00979002823728847, 0.184866762129253, -1.19116368670862, 1.21385525625874, -1.21661194641916], a = 0.2, v = 0.2, t = 0.2)
movej(p[0.534592561952779, -0.00989271297896581, 0.184771510559241, -1.18864370492689, 1.21615876112182, -1.2198768616365], a = 0.2, v = 0.2, t = 0.2)
movej(p[0.534804297202268, -0.00994996592283827, 0.184696571153443, -1.1824892601219, 1.21857822678422, -1.21991426346556], a = 0.2, v = 0.2, t = 0.2)
movej(p[0.535449029516933, -0.0100229134755118, 0.184543678423116, -1.17476754165635, 1.22024072020131, -1.22068439852698], a = 0.2, v = 0.2, t = 0.2)
movej(p[0.535449029516933, -0.0100229134755118, 0.184543678423116, -1.17476754165635, 1.22024072020131, -1.22068439852698], a = 0.2, v = 0.2, t = 0.2)
movej(p[0.535154284241761, -0.00979374546249703, 0.184722955428265, -1.17924629548867, 1.21998075488253, -1.21749160725586], a = 0.2, v = 0.2, t = 0.2)
movej(p[0.53406656538872, -0.00930054749747882, 0.185188186257037, -1.18785500580427, 1.22143142742583, -1.21042958479469], a = 0.2, v = 0.2, t = 0.2)
movej(p[0.53269886077279, -0.00870791093909756, 0.185758885795529, -1.19175119885134, 1.22534031669326, -1.20786859637553], a = 0.2, v = 0.2, t = 0.2)
movej(p[0.531786840809869, -0.00834172687436004, 0.186135812722089, -1.18103115194267, 1.23613373352734, -1.20391222517713], a = 0.2, v = 0.2, t = 0.2)
movej(p[0.529502186983144, -0.00756300078623527, 0.186936751965541, -1.170663908478, 1.24661019325202, -1.18899941293226], a = 0.2, v = 0.2, t = 0.2)
movej(p[0.527120185688998, -0.00687891050448477, 0.187695698057898, -1.17031394399923, 1.25385838560676, -1.18105910142053], a = 0.2, v = 0.2, t = 0.2)
movej(p[0.524452756287063, -0.00618786026716373, 0.18851223455138, -1.15996396397714, 1.25863217187204, -1.1659088091793], a = 0.2, v = 0.2, t = 0.2)
movej(p[0.524452756287063, -0.00618786026716373, 0.18851223455138, -1.1614412028824, 1.25659273897533, -1.16384159771435], a = 0.2, v = 0.2, t = 0.2)
movej(p[0.525661803190395, -0.00650414319081855, 0.188131063477259, -1.15652573634882, 1.24894969842031, -1.16790278404166], a = 0.2, v = 0.2, t = 0.2)
movej(p[0.528207466829147, -0.00734843917920323, 0.187261611780883, -1.16048092361925, 1.23872252569183, -1.1792029508962], a = 0.2, v = 0.2, t = 0.2)
movej(p[0.529211293974515, -0.00781917140591305, 0.186830229615094, -1.17249614461327, 1.23029209253629, -1.18784174150677], a = 0.2, v = 0.2, t = 0.2)
movej(p[0.53061526794875, -0.00832895406202504, 0.186316573520807, -1.18307925000573, 1.22347567897557, -1.19758164105165], a = 0.2, v = 0.2, t = 0.2)
movej(p[0.531860842115528, -0.00890088683919117, 0.185760675226641, -1.18721634288356, 1.22018783203599, -1.2025457184026], a = 0.2, v = 0.2, t = 0.2)
movej(p[0.533286800943862, -0.0093956591362279, 0.185253102331403, -1.18294852165296, 1.21982939625076, -1.20663605387126], a = 0.2, v = 0.2, t = 0.2)
movej(p[0.534410057446154, -0.00969233979256079, 0.184918660351058, -1.17381329750731, 1.22255090985131, -1.21619962536501], a = 0.2, v = 0.2, t = 0.2)
movej(p[0.534934363082095, -0.00985658635721911, 0.184737136947281, -1.1708332807861, 1.22349709556324, -1.21886584366983], a = 0.2, v = 0.2, t = 0.2)
movej(p[0.535218284833657, -0.00989195846208844, 0.184670786942105, -1.16899131153247, 1.22462531504554, -1.21714611729551], a = 0.2, v = 0.2, t = 0.2)
movej(p[0.535403862707872, -0.00992011537611474, 0.184629910900291, -1.16681581802967, 1.22574035052712, -1.21967771894757], a = 0.2, v = 0.2, t = 0.2)
movej(p[0.535562773001523, -0.00992088851655081, 0.184616293968712, -1.16262915467759, 1.22570605322894, -1.21997905353522], a = 0.2, v = 0.2, t = 0.2)
movej(p[0.535665423266435, -0.0098867655691688, 0.184617693102571, -1.16262915467759, 1.22570605322894, -1.21997905353522], a = 0.2, v = 0.2, t = 0.2)
movej(p[0.53566516722009, -0.00983889218971316, 0.184650986855435, -1.17138534729237, 1.22290570699014, -1.21836279402666], a = 0.2, v = 0.2, t = 0.2)
movej(p[0.53444398773019, -0.00937683991619165, 0.185130170974517, -1.17801435293828, 1.22959468394247, -1.21397153031972], a = 0.2, v = 0.2, t = 0.2)
movej(p[0.533311032759145, -0.00892186759581712, 0.185578234866476, -1.17536144128219, 1.23438521473757, -1.20787280215847], a = 0.2, v = 0.2, t = 0.2)
movej(p[0.531903131818477, -0.00841625059534888, 0.186099344567118, -1.17666650939085, 1.23891837247843, -1.2036238406206], a = 0.2, v = 0.2, t = 0.2)
movej(p[0.531619784001442, -0.008340233532404, 0.186187615064583, -1.17824407893351, 1.23954211721658, -1.19943020891255], a = 0.2, v = 0.2, t = 0.2)
movej(p[0.530535593850915, -0.00794705706092306, 0.186604613133853, -1.1808419546871, 1.24206477833534, -1.19647604494487], a = 0.2, v = 0.2, t = 0.2)
movej(p[0.528196152682999, -0.0071705639703177, 0.187410470808694, -1.16723082009177, 1.25183765604198, -1.18026359234532], a = 0.2, v = 0.2, t = 0.2)
movej(p[0.524823936959954, -0.00618439074545984, 0.188468954411694, -1.15528206851399, 1.25874777461733, -1.16796064092683], a = 0.2, v = 0.2, t = 0.2)
movej(p[0.524823936959954, -0.00618439074545984, 0.188468954411694, -1.15693436474999, 1.25567557844713, -1.16540352553471], a = 0.2, v = 0.2, t = 0.2)
movej(p[0.52643065833174, -0.00675238692250383, 0.187879131797419, -1.15444484982717, 1.24821454451611, -1.17103558955189], a = 0.2, v = 0.2, t = 0.2)
movej(p[0.529007682682008, -0.00775568541544082, 0.186891670485675, -1.17250865724255, 1.23400656572123, -1.1881927231009], a = 0.2, v = 0.2, t = 0.2)
movej(p[0.52967429680343, -0.00818173654352151, 0.186507750156201, -1.17367165507172, 1.22923776932431, -1.19323191831937], a = 0.2, v = 0.2, t = 0.2)
movej(p[0.530665353521811, -0.00868270979307984, 0.18602964661702, -1.17805300897054, 1.22640242998499, -1.19784085868149], a = 0.2, v = 0.2, t = 0.2)
movej(p[0.531489335462198, -0.00907154876645554, 0.185668206836834, -1.18557559973201, 1.22121215668204, -1.20605049526965], a = 0.2, v = 0.2, t = 0.2)
movej(p[0.532474987564374, -0.00939969431758622, 0.185329757430351, -1.18069088686531, 1.22327301602624, -1.21155787841633], a = 0.2, v = 0.2, t = 0.2)
movej(p[0.53358674282812, -0.00962309449769831, 0.185053794021439, -1.16695650077761, 1.22694203386977, -1.21496676827644], a = 0.2, v = 0.2, t = 0.2)
movej(p[0.533808130964777, -0.00971492486059494, 0.184964068342852, -1.15853535026375, 1.2338995010604, -1.21765860499963], a = 0.2, v = 0.2, t = 0.2)
movej(p[0.534105225389828, -0.00976573535615921, 0.184908642932218, -1.15594479030493, 1.23449205512681, -1.21881227019244], a = 0.2, v = 0.2, t = 0.2)
movej(p[0.534445605823565, -0.00979042714539049, 0.1848629824912, -1.1518085105293, 1.23643984994628, -1.21948051879064], a = 0.2, v = 0.2, t = 0.2)
movej(p[0.534838553222796, -0.00980806912352629, 0.184815361360963, -1.14971193381133, 1.23431549566779, -1.22089431284691], a = 0.2, v = 0.2, t = 0.2)
movej(p[0.535445905385656, -0.00985127474976276, 0.184739973934086, -1.14941106289711, 1.23375837963965, -1.22101543470947], a = 0.2, v = 0.2, t = 0.2)
movej(p[0.535445905385656, -0.00985127474976276, 0.184739973934086, -1.14983733151522, 1.23304868373655, -1.22179574294943], a = 0.2, v = 0.2, t = 0.2)
movej(p[0.535436247025504, -0.00980667443903548, 0.184765339035352, -1.15125295727297, 1.23102824732776, -1.21972326569222], a = 0.2, v = 0.2, t = 0.2)
movej(p[0.535032295100172, -0.00967143736920446, 0.184879048476314, -1.17793363159596, 1.21771877408353, -1.21559203934958], a = 0.2, v = 0.2, t = 0.2)
movej(p[0.53470056123359, -0.00959339528494375, 0.184966619332466, -1.18424589345327, 1.21684239973102, -1.21380029324809], a = 0.2, v = 0.2, t = 0.2)
movej(p[0.533914410845924, -0.00923272753177745, 0.185330965307877, -1.18828339298839, 1.22089546334779, -1.21115971069888], a = 0.2, v = 0.2, t = 0.2)
movej(p[0.532448461419739, -0.00865470651700809, 0.185913187135321, -1.17991977247599, 1.22999385126237, -1.20376428676326], a = 0.2, v = 0.2, t = 0.2)
movej(p[0.52999312655503, -0.00793115618740756, 0.186679693125305, -1.17292727542027, 1.24255844930307, -1.19271365837017], a = 0.2, v = 0.2, t = 0.2)
movej(p[0.527891803510059, -0.00730035897088547, 0.187355580565861, -1.16840209373489, 1.24825797999772, -1.18489904049532], a = 0.2, v = 0.2, t = 0.2)
movej(p[0.526675473229654, -0.00699721830562344, 0.187654767474055, -1.16164803340254, 1.25218708344837, -1.17792540751269], a = 0.2, v = 0.2, t = 0.2)
movej(p[0.526675473229654, -0.00699721830562344, 0.187654767474055, -1.16148764351544, 1.24651418937184, -1.176328556746], a = 0.2, v = 0.2, t = 0.2)
movej(p[0.528659461998786, -0.00761694035844076, 0.186990871216189, -1.17053225139006, 1.23153289185668, -1.18754930565199], a = 0.2, v = 0.2, t = 0.2)
movej(p[0.529759220348669, -0.00821874174072231, 0.186411341926034, -1.17171649581368, 1.22683970805754, -1.19277981773998], a = 0.2, v = 0.2, t = 0.2)
movej(p[0.530682858838826, -0.00860851442079378, 0.186018632507545, -1.17773402860386, 1.22118778920595, -1.20041047755312], a = 0.2, v = 0.2, t = 0.2)
movej(p[0.531741795678404, -0.00899968898093032, 0.185640571344123, -1.18251225918533, 1.21821570359235, -1.20518834552424], a = 0.2, v = 0.2, t = 0.2)
movej(p[0.532458763000324, -0.00938987245134493, 0.185257995013552, -1.18908484090556, 1.21393605371851, -1.21128548076806], a = 0.2, v = 0.2, t = 0.2)
movej(p[0.533556764406617, -0.00967155666534382, 0.184959860840127, -1.19320306977574, 1.21033792557081, -1.21382717278996], a = 0.2, v = 0.2, t = 0.2)
movej(p[0.534110189392238, -0.00986426209321411, 0.184768017718386, -1.19619278607095, 1.20803511223756, -1.21661329341298], a = 0.2, v = 0.2, t = 0.2)
movej(p[0.534352735708658, -0.0099593872200207, 0.184680303496956, -1.19963956867685, 1.20570410998369, -1.21967456204599], a = 0.2, v = 0.2, t = 0.2)
movej(p[0.534757146311973, -0.0100796245759279, 0.18456736748777, -1.20362717260583, 1.20366441701904, -1.22236129059551], a = 0.2, v = 0.2, t = 0.2)
movej(p[0.535074901042592, -0.0101683972326316, 0.184481719799004, -1.20514204791496, 1.20256898514203, -1.22352981048924], a = 0.2, v = 0.2, t = 0.2)
movej(p[0.535344656965256, -0.0101744680328528, 0.184478007983757, -1.20426994845412, 1.20162237209792, -1.22415086556786], a = 0.2, v = 0.2, t = 0.2)
movej(p[0.535871936598773, -0.0102372031923654, 0.184400713366617, -1.2056141207124, 1.20079767488224, -1.22560604737146], a = 0.2, v = 0.2, t = 0.2)
movej(p[0.535924635067077, -0.0102524595553301, 0.184396303737666, -1.20624364047018, 1.20144112388101, -1.22520775847978], a = 0.2, v = 0.2, t = 0.2)
movej(p[0.535924630583408, -0.0102374482312431, 0.184401470954426, -1.20238726940089, 1.20522658773434, -1.22503126649481], a = 0.2, v = 0.2, t = 0.2)
movej(p[0.535633012959956, -0.00997968899583088, 0.184629834717428, -1.19529141459769, 1.21085455398594, -1.21999303728318], a = 0.2, v = 0.2, t = 0.2)
movej(p[0.534293571469832, -0.00935359525152196, 0.18524197050128, -1.18219512020941, 1.22526728521778, -1.21171844812458], a = 0.2, v = 0.2, t = 0.2)
movej(p[0.532991726570559, -0.00884254752951758, 0.185775693026634, -1.18092042008491, 1.23183244173169, -1.20638481557555], a = 0.2, v = 0.2, t = 0.2)
movej(p[0.531523594227748, -0.00829115269596107, 0.186341140726707, -1.17005430652574, 1.24238062674605, -1.19718240404816], a = 0.2, v = 0.2, t = 0.2)
movej(p[0.529731218993556, -0.00776848943176518, 0.186883791841253, -1.17228129170324, 1.24773751779351, -1.19233214248509], a = 0.2, v = 0.2, t = 0.2)
movej(p[0.527765667057136, -0.00710395703093484, 0.187545853457329, -1.16315492713626, 1.25391705131893, -1.18136590232331], a = 0.2, v = 0.2, t = 0.2)
movej(p[0.527600785879409, -0.00710319029638207, 0.187543482940633, -1.16377528308305, 1.25305015691427, -1.1804906023439], a = 0.2, v = 0.2, t = 0.2)
movej(p[0.527601317967012, -0.00714430143759895, 0.187493176370977, -1.16268487511073, 1.24523673943106, -1.18047605519193], a = 0.2, v = 0.2, t = 0.2)
movej(p[0.52947212859006, -0.00773364283841217, 0.186899294349038, -1.17414287220898, 1.23066128092711, -1.18974251226347], a = 0.2, v = 0.2, t = 0.2)
movej(p[0.530251753464307, -0.00823927799823556, 0.186350656407764, -1.17508012419718, 1.22723533132849, -1.193696729177], a = 0.2, v = 0.2, t = 0.2)
movej(p[0.53105795517888, -0.00862745147783844, 0.185980958862259, -1.18260286062713, 1.22117449397286, -1.20282280612198], a = 0.2, v = 0.2, t = 0.2)
movej(p[0.531867236709143, -0.00897927034768844, 0.185596623451984, -1.18459138349236, 1.21848559435949, -1.20424606750452], a = 0.2, v = 0.2, t = 0.2)
movej(p[0.532668550226565, -0.00930308751644126, 0.185288619591588, -1.19001072100665, 1.21396438607213, -1.21025388700176], a = 0.2, v = 0.2, t = 0.2)
movej(p[0.533666101515263, -0.00967935242509402, 0.184920844653708, -1.19613493902355, 1.20866435464911, -1.21673498520895], a = 0.2, v = 0.2, t = 0.2)
movej(p[0.533910237308116, -0.00980542490139801, 0.184768214986321, -1.19541360566472, 1.2076294375517, -1.21751279912175], a = 0.2, v = 0.2, t = 0.2)
movej(p[0.534358189780699, -0.00994404441005788, 0.184618941364654, -1.19639953780744, 1.20723737218803, -1.21916425448979], a = 0.2, v = 0.2, t = 0.2)
movej(p[0.53462526462814, -0.0100237876160293, 0.184576150162684, -1.19654086949076, 1.20727055170333, -1.2196542579562], a = 0.2, v = 0.2, t = 0.2)
movej(p[0.534764548179921, -0.0100286129358408, 0.184542058103611, -1.19644725617849, 1.20715106540024, -1.21973983222233], a = 0.2, v = 0.2, t = 0.2)
movej(p[0.535088397093197, -0.0101366267752333, 0.184450639987956, -1.19605932068142, 1.20579508558827, -1.2208435918086], a = 0.2, v = 0.2, t = 0.2)
movej(p[0.535366265372702, -0.0101379189252164, 0.184454634933921, -1.19812665976083, 1.20352732144862, -1.22022215482915], a = 0.2, v = 0.2, t = 0.2)
movej(p[0.53536428515003, -0.00995718565644147, 0.18465082671325, -1.19887608316464, 1.20428160571192, -1.21974290867762], a = 0.2, v = 0.2, t = 0.2)
movej(p[0.534534972471326, -0.0094747669179064, 0.185176799927065, -1.18460322611831, 1.21927468369013, -1.21344308400242], a = 0.2, v = 0.2, t = 0.2)
movej(p[0.533301662527609, -0.00902024390021481, 0.185662527164428, -1.18412769254644, 1.2270831375313, -1.20800693224827], a = 0.2, v = 0.2, t = 0.2)
movej(p[0.53207219702198, -0.00847893449708227, 0.186242827302762, -1.17990261711617, 1.23819486953442, -1.20087779934914], a = 0.2, v = 0.2, t = 0.2)
movej(p[0.531173914948994, -0.00817331255317658, 0.186528076097248, -1.1755849848952, 1.24379700278359, -1.19521351787853], a = 0.2, v = 0.2, t = 0.2)
movej(p[0.529386119914297, -0.00771108988552933, 0.18696911620815, -1.16802613071184, 1.25152492590366, -1.18707716600111], a = 0.2, v = 0.2, t = 0.2)
movej(p[0.527421123352321, -0.00705242766498228, 0.187646300408088, -1.16172075556132, 1.25772377125081, -1.17795108505897], a = 0.2, v = 0.2, t = 0.2)
movej(p[0.527421123352321, -0.00705242766498228, 0.187646300408088, -1.16298755109858, 1.25596274431217, -1.17617260048398], a = 0.2, v = 0.2, t = 0.2)
movej(p[0.527663803502915, -0.00720805545486607, 0.18741840737282, -1.15949392830782, 1.24413028506114, -1.18032343609709], a = 0.2, v = 0.2, t = 0.2)
movej(p[0.529408039467137, -0.00790831309350307, 0.186681537750265, -1.1675018890337, 1.22955604371262, -1.19014745046106], a = 0.2, v = 0.2, t = 0.2)
movej(p[0.530736988814118, -0.00849823345439125, 0.18608047225386, -1.17891570554067, 1.22257972819442, -1.20169350988549], a = 0.2, v = 0.2, t = 0.2)
movej(p[0.531855423070063, -0.00901841568057347, 0.185550035568956, -1.18564717068584, 1.21741161066124, -1.20526772325178], a = 0.2, v = 0.2, t = 0.2)
movej(p[0.532570547969342, -0.00932450970495364, 0.185204550349778, -1.1924503257147, 1.21498762584316, -1.21125867231423], a = 0.2, v = 0.2, t = 0.2)
movej(p[0.533340622578845, -0.00966776386993992, 0.184857936726246, -1.19606667378043, 1.21272604840999, -1.21492450991106], a = 0.2, v = 0.2, t = 0.2)
movej(p[0.533820686528228, -0.00978780675511997, 0.184721084542411, -1.19487055720434, 1.21064550396811, -1.21799923596286], a = 0.2, v = 0.2, t = 0.2)
movej(p[0.534819284974684, -0.00997524623587183, 0.184598932163019, -1.19810830688735, 1.20819256064402, -1.22169362426221], a = 0.2, v = 0.2, t = 0.2)
movej(p[0.535061241123637, -0.0100518017722832, 0.184495666671065, -1.19842225910223, 1.20637171304472, -1.22269871826891], a = 0.2, v = 0.2, t = 0.2)
movej(p[0.535280745186887, -0.0101156311520197, 0.184448656390282, -1.19970675124812, 1.20540162520448, -1.2236506420315], a = 0.2, v = 0.2, t = 0.2)
movej(p[0.535382118168273, -0.010152670998287, 0.184418491536008, -1.20055898056743, 1.20456712772156, -1.22380477905542], a = 0.2, v = 0.2, t = 0.2)
movej(p[0.535469008249198, -0.010153075056702, 0.184419740765243, -1.20026617804598, 1.20501558855869, -1.22424794822713], a = 0.2, v = 0.2, t = 0.2)
movej(p[0.535468106492318, -0.0100984973924213, 0.184500115359464, -1.19893252362956, 1.206328660063, -1.22421952937384], a = 0.2, v = 0.2, t = 0.2)
movej(p[0.535134299868926, -0.00965830555911781, 0.185022899902151, -1.18699581014058, 1.21565420951098, -1.21551204716559], a = 0.2, v = 0.2, t = 0.2)
movej(p[0.533483185949898, -0.0089149906039437, 0.185849421307687, -1.17756768769205, 1.23227776693512, -1.20519052459394], a = 0.2, v = 0.2, t = 0.2)
movej(p[0.531596640184494, -0.00831323186856717, 0.186463551912226, -1.1744451117977, 1.24200790762134, -1.1957747048361], a = 0.2, v = 0.2, t = 0.2)
movej(p[0.529895479856717, -0.00782765706638289, 0.186931287628933, -1.17130781483413, 1.24840477391656, -1.18775715684643], a = 0.2, v = 0.2, t = 0.2)
movej(p[0.528058587465366, -0.00716540535261165, 0.18760340359378, -1.16714192960553, 1.25227375754763, -1.18029561070809], a = 0.2, v = 0.2, t = 0.2)
movej(p[0.528058587465366, -0.00716540535261165, 0.18760340359378, -1.16748647160171, 1.2517901923344, -1.17980881304843], a = 0.2, v = 0.2, t = 0.2)
movej(p[0.528080169693672, -0.00727830755548882, 0.187463949085044, -1.16862259034298, 1.24655520209573, -1.18032955808476], a = 0.2, v = 0.2, t = 0.2)
movej(p[0.529338450386788, -0.00778546964113795, 0.186921691234743, -1.17342475204546, 1.23588242506673, -1.18969317429718], a = 0.2, v = 0.2, t = 0.2)
movej(p[0.530301622087199, -0.00825335607251404, 0.186376506712896, -1.18073249614292, 1.22415900695122, -1.19673048099193], a = 0.2, v = 0.2, t = 0.2)
movej(p[0.531109587723099, -0.00861548868312171, 0.185982974282799, -1.18117746180109, 1.22092713159047, -1.20025921305255], a = 0.2, v = 0.2, t = 0.2)
movej(p[0.532161941260234, -0.00891880837067535, 0.185708634821506, -1.18323127113344, 1.21869378385969, -1.20509730697758], a = 0.2, v = 0.2, t = 0.2)
movej(p[0.532936120256986, -0.00932908393288881, 0.185221813864645, -1.18975743567579, 1.21435987913884, -1.21198544206125], a = 0.2, v = 0.2, t = 0.2)
movej(p[0.533226675463361, -0.00950141321603939, 0.185004546701417, -1.19013165043932, 1.21288456220506, -1.21363096848521], a = 0.2, v = 0.2, t = 0.2)
movej(p[0.533663001053094, -0.0096168982973948, 0.184892358708618, -1.18925131490876, 1.21216650773933, -1.21540826161733], a = 0.2, v = 0.2, t = 0.2)
movej(p[0.534158032623913, -0.009786726467091, 0.184748731146254, -1.19086980532603, 1.2116249083051, -1.21899544514607], a = 0.2, v = 0.2, t = 0.2)
movej(p[0.534830350106933, -0.00996442517229395, 0.184632770712506, -1.19372500886864, 1.20983453123639, -1.22187568654732], a = 0.2, v = 0.2, t = 0.2)
movej(p[0.535209755739001, -0.010069634517241, 0.184524842726838, -1.19773183685835, 1.20681734811942, -1.22432199172503], a = 0.2, v = 0.2, t = 0.2)
movej(p[0.5352682207686, -0.010077622577038, 0.184518199593935, -1.19932358824405, 1.20706684864844, -1.22389826063168], a = 0.2, v = 0.2, t = 0.2)
movej(p[0.535274720026666, -0.0100776528000495, 0.184518293034557, -1.19932358824405, 1.20706684864844, -1.22389826063168], a = 0.2, v = 0.2, t = 0.2)
movej(p[0.535271918772402, -0.00988958777633097, 0.184773963055929, -1.19338692634466, 1.21082772773684, -1.21796434032992], a = 0.2, v = 0.2, t = 0.2)
movej(p[0.5342842496581, -0.0094240891670663, 0.18531800083534, -1.18305252982547, 1.22054899565133, -1.21322150498947], a = 0.2, v = 0.2, t = 0.2)
movej(p[0.533151166295764, -0.00891717624170244, 0.185923964464692, -1.18291107219936, 1.22971216321078, -1.20505328750249], a = 0.2, v = 0.2, t = 0.2)
movej(p[0.53156841200871, -0.00838644786149192, 0.186441606332444, -1.18349106393555, 1.23808405581837, -1.19772287514553], a = 0.2, v = 0.2, t = 0.2)
movej(p[0.529592298451164, -0.00782837157251863, 0.186962137180107, -1.17358670315021, 1.24917456052801, -1.18929394123763], a = 0.2, v = 0.2, t = 0.2)
movej(p[0.527876305633728, -0.0071728332711162, 0.187612202450601, -1.16268551326742, 1.25643748869436, -1.17727454923571], a = 0.2, v = 0.2, t = 0.2)
movej(p[0.527151168487653, -0.00696813161194552, 0.187800451913059, -1.16464898157616, 1.2523720736147, -1.17410676665211], a = 0.2, v = 0.2, t = 0.2)
movej(p[0.527151168487653, -0.00696813161194552, 0.187800451913059, -1.16262901667826, 1.24930623749936, -1.1766721458982], a = 0.2, v = 0.2, t = 0.2)
movej(p[0.528028086962007, -0.00722630616085642, 0.187583498296746, -1.16083246017205, 1.24482490541558, -1.18064273789483], a = 0.2, v = 0.2, t = 0.2)
movej(p[0.529522186579662, -0.00783590792886392, 0.186932143533988, -1.16773103436066, 1.2324383441588, -1.19280612333515], a = 0.2, v = 0.2, t = 0.2)
movej(p[0.530681037520934, -0.00844863536728869, 0.186190070166919, -1.1753168664097, 1.22689494508298, -1.20145055951089], a = 0.2, v = 0.2, t = 0.2)
movej(p[0.531659623516475, -0.00880875041634988, 0.185804085075534, -1.17720762875321, 1.22600639126699, -1.20466694517752], a = 0.2, v = 0.2, t = 0.2)
movej(p[0.532322479889796, -0.00906796752136172, 0.185519851596125, -1.17901733962988, 1.22297814857605, -1.20847973736055], a = 0.2, v = 0.2, t = 0.2)
movej(p[0.533522807162408, -0.00952141895094641, 0.18508865393886, -1.18843158812363, 1.21526990716806, -1.21433776921799], a = 0.2, v = 0.2, t = 0.2)
movej(p[0.533840317210278, -0.00962960217595783, 0.184951140269256, -1.18887373145482, 1.21354854240533, -1.21625745897438], a = 0.2, v = 0.2, t = 0.2)
movej(p[0.534449240407327, -0.00983005672023893, 0.184764312097473, -1.19038968835009, 1.21260157792409, -1.21778731710119], a = 0.2, v = 0.2, t = 0.2)
movej(p[0.534654984467537, -0.0099880487257744, 0.184565696796262, -1.19472727695164, 1.2132002930901, -1.21886491281472], a = 0.2, v = 0.2, t = 0.2)
movej(p[0.535012406477236, -0.0100325954299589, 0.184531726395487, -1.19705250858412, 1.21141388220692, -1.22028250200691], a = 0.2, v = 0.2, t = 0.2)
movej(p[0.535480538823527, -0.0100455881957694, 0.184577684902781, -1.19572280294279, 1.21064875409144, -1.21858172812793], a = 0.2, v = 0.2, t = 0.2)
movej(p[0.535478208772238, -0.010045228764787, 0.18473986776769, -1.19512062507808, 1.21004189920518, -1.21897043805233], a = 0.2, v = 0.2, t = 0.2)
movej(p[0.535056917734951, -0.0096151038280947, 0.185320223960677, -1.18401487411232, 1.2191679382105, -1.21405752126425], a = 0.2, v = 0.2, t = 0.2)
movej(p[0.533905553626417, -0.00921468756510239, 0.185702437338137, -1.18021443149056, 1.22456260435647, -1.20902132969046], a = 0.2, v = 0.2, t = 0.2)
movej(p[0.532650489160095, -0.00885669238139214, 0.18603534982486, -1.17913434736206, 1.22783655505975, -1.20522274525796], a = 0.2, v = 0.2, t = 0.2)
movej(p[0.531114107347074, -0.00837327411263794, 0.186463453225984, -1.17505884961341, 1.2302825447725, -1.20062671567409], a = 0.2, v = 0.2, t = 0.2)
movej(p[0.5296922065172, -0.00784644691243035, 0.18700521699473, -1.17101365934293, 1.23362274943435, -1.19271733833482], a = 0.2, v = 0.2, t = 0.2)
movej(p[0.527464343708404, -0.00722326257431088, 0.187492583608178, -1.16777175628738, 1.2345942424247, -1.1830295229735], a = 0.2, v = 0.2, t = 0.2)
movej(p[0.525832974563188, -0.00650817670581009, 0.188348754340396, -1.16166806271256, 1.23795572351694, -1.17579179406863], a = 0.2, v = 0.2, t = 0.2)
movej(p[0.525832974563188, -0.00650817670581009, 0.188348754340396, -1.16165132132611, 1.23793945022333, -1.17580305115746], a = 0.2, v = 0.2, t = 0.2)
movej(p[0.526870955736545, -0.0069321627800418, 0.187873354569032, -1.1661812048674, 1.2345157761313, -1.1813112247935], a = 0.2, v = 0.2, t = 0.2)
movej(p[0.528638047637871, -0.00762227303846523, 0.187115188542698, -1.17261455222367, 1.23006127386436, -1.18973703673832], a = 0.2, v = 0.2, t = 0.2)
movej(p[0.529844461811015, -0.00816677880067789, 0.186439854308592, -1.17766269599812, 1.22731246232684, -1.1964041236867], a = 0.2, v = 0.2, t = 0.2)
movej(p[0.530807977420109, -0.00862425571775372, 0.185853247283937, -1.18180096462527, 1.2252048162614, -1.20188757690961], a = 0.2, v = 0.2, t = 0.2)
movej(p[0.531720611300132, -0.00906457094925388, 0.185277472442578, -1.18589190582859, 1.22303498641016, -1.2071947959317], a = 0.2, v = 0.2, t = 0.2)
movej(p[0.53229423175175, -0.00930708455409765, 0.184986519338192, -1.18779816752358, 1.22195306096049, -1.20997301475863], a = 0.2, v = 0.2, t = 0.2)
movej(p[0.53292271912719, -0.00951876283800498, 0.184784795509568, -1.18948548469441, 1.2208766711461, -1.21241197710801], a = 0.2, v = 0.2, t = 0.2)
movej(p[0.534313326931439, -0.00998599363668802, 0.184358962390232, -1.19435784287486, 1.21789016998803, -1.21828132576508], a = 0.2, v = 0.2, t = 0.2)
movej(p[0.534539645198673, -0.010020346350665, 0.184362289995775, -1.19421733523952, 1.2178961745413, -1.21898561887729], a = 0.2, v = 0.2, t = 0.2)
movej(p[0.534775969464827, -0.0100212136308882, 0.18447349853435, -1.19338247849315, 1.21762341976595, -1.21972561510609], a = 0.2, v = 0.2, t = 0.2)
movej(p[0.535126519600551, -0.0100153586401765, 0.184704245693438, -1.19208142990689, 1.21630279164265, -1.22057788744358], a = 0.2, v = 0.2, t = 0.2)
movej(p[0.535288001166366, -0.0100161095657694, 0.1847065673335, -1.19147659580408, 1.21497439197784, -1.22073192514357], a = 0.2, v = 0.2, t = 0.2)
movej(p[0.535287777649599, -0.0100125726054318, 0.184723258048039, -1.19112445660367, 1.21519366042025, -1.22037689519887], a = 0.2, v = 0.2, t = 0.2)
movej(p[0.535173431968151, -0.00977713322151093, 0.185142538004194, -1.18167228101387, 1.22412115524921, -1.21546858680489], a = 0.2, v = 0.2, t = 0.2)
