def moving():
set_payload_mass(0)
set_tcp(p[0,0,0,0,0,0])
movej(p[-0.516, -0.228, 0.4095, -0.871, -1.583, 1.667], a = 0.2, v = 0.2, t = 0.2)
movej(p[-0.51599494150274, -0.227991362175315, 0.409719532166525, -0.871, -1.583, 1.667], a = 0.2, v = 0.2, t = 0.2)
movej(p[-0.51598988300548, -0.227982724350629, 0.40993906433305, -0.871, -1.583, 1.667], a = 0.2, v = 0.2, t = 0.2)
movej(p[-0.515984824508219, -0.227974086525944, 0.410158596499575, -0.871, -1.583, 1.667], a = 0.2, v = 0.2, t = 0.2)
movej(p[-0.515979766010959, -0.227965448701258, 0.4103781286661, -0.871, -1.583, 1.667], a = 0.2, v = 0.2, t = 0.2)
movej(p[-0.515974707513699, -0.227956810876573, 0.410597660832625, -0.871, -1.583, 1.667], a = 0.2, v = 0.2, t = 0.2)
movej(p[-0.515969649016438, -0.227948173051888, 0.41081719299915, -0.871, -1.583, 1.667], a = 0.2, v = 0.2, t = 0.2)
movej(p[-0.515964590519178, -0.227939535227202, 0.411036725165675, -0.871, -1.583, 1.667], a = 0.2, v = 0.2, t = 0.2)
movej(p[-0.515959532021918, -0.227930897402517, 0.4112562573322, -0.871, -1.583, 1.667], a = 0.2, v = 0.2, t = 0.2)
movej(p[-0.515954473524658, -0.227922259577831, 0.411475789498725, -0.871, -1.583, 1.667], a = 0.2, v = 0.2, t = 0.2)
movej(p[-0.515949415027398, -0.227913621753146, 0.41169532166525, -0.871, -1.583, 1.667], a = 0.2, v = 0.2, t = 0.2)
movej(p[-0.515962692537562, -0.227936294258271, 0.411119095086008, -0.871, -1.583, 1.667], a = 0.2, v = 0.2, t = 0.2)
movej(p[-0.515970096338097, -0.227948936892583, 0.410797779824094, -0.871, -1.583, 1.667], a = 0.2, v = 0.2, t = 0.2)
movej(p[-0.515976576231282, -0.227960001874618, 0.410516560933091, -0.871, -1.583, 1.667], a = 0.2, v = 0.2, t = 0.2)
movej(p[-0.515978858825913, -0.227963899603774, 0.41041749931084, -0.871, -1.583, 1.667], a = 0.2, v = 0.2, t = 0.2)
movej(p[-0.515979569523875, -0.227965113182448, 0.410386655948601, -0.871, -1.583, 1.667], a = 0.2, v = 0.2, t = 0.2)
movej(p[-0.515980259318956, -0.227966291067633, 0.410356719744075, -0.871, -1.583, 1.667], a = 0.2, v = 0.2, t = 0.2)
movej(p[-0.515982813651044, -0.227970652812164, 0.410245865071557, -0.871, -1.583, 1.667], a = 0.2, v = 0.2, t = 0.2)
movej(p[-0.515980439083735, -0.22796659803165, 0.410348918187744, -0.871, -1.583, 1.667], a = 0.2, v = 0.2, t = 0.2)
movej(p[-0.515964828812024, -0.227939942132993, 0.411026383567748, -0.871, -1.583, 1.667], a = 0.2, v = 0.2, t = 0.2)
movej(p[-0.515944239474002, -0.227904784044914, 0.411919933914968, -0.871, -1.583, 1.667], a = 0.2, v = 0.2, t = 0.2)
movej(p[-0.515921831585312, -0.227866520623167, 0.412892406983211, -0.871, -1.583, 1.667], a = 0.2, v = 0.2, t = 0.2)
movej(p[-0.515891827589579, -0.227815286186996, 0.414194541164326, -0.871, -1.583, 1.667], a = 0.2, v = 0.2, t = 0.2)
movej(p[-0.515866902993988, -0.227772725269001, 0.415276236021204, -0.871, -1.583, 1.667], a = 0.2, v = 0.2, t = 0.2)
movej(p[-0.515861581120424, -0.227763637706336, 0.415507198374912, -0.871, -1.583, 1.667], a = 0.2, v = 0.2, t = 0.2)
movej(p[-0.515887249858588, -0.227807469312591, 0.414393208703454, -0.871, -1.583, 1.667], a = 0.2, v = 0.2, t = 0.2)
movej(p[-0.515922479574631, -0.227867627121371, 0.41286428509411, -0.871, -1.583, 1.667], a = 0.2, v = 0.2, t = 0.2)
movej(p[-0.515948252827201, -0.227911637195078, 0.411745759634088, -0.871, -1.583, 1.667], a = 0.2, v = 0.2, t = 0.2)
movej(p[-0.515967408227569, -0.227944346709713, 0.410914440305974, -0.871, -1.583, 1.667], a = 0.2, v = 0.2, t = 0.2)
movej(p[-0.515973917384788, -0.227955461662635, 0.410631951394173, -0.871, -1.583, 1.667], a = 0.2, v = 0.2, t = 0.2)
movej(p[-0.515976806162975, -0.227960394503013, 0.410506582198249, -0.871, -1.583, 1.667], a = 0.2, v = 0.2, t = 0.2)
movej(p[-0.51598025513838, -0.227966283928935, 0.410356901175618, -0.871, -1.583, 1.667], a = 0.2, v = 0.2, t = 0.2)
movej(p[-0.515980635570819, -0.227966933550461, 0.410340390905243, -0.871, -1.583, 1.667], a = 0.2, v = 0.2, t = 0.2)
movej(p[-0.515974235108583, -0.227956004203689, 0.410618162596937, -0.871, -1.583, 1.667], a = 0.2, v = 0.2, t = 0.2)
movej(p[-0.515955409973737, -0.227923858646203, 0.411435148833187, -0.871, -1.583, 1.667], a = 0.2, v = 0.2, t = 0.2)
movej(p[-0.515931697745258, -0.227883367950653, 0.412464228542715, -0.871, -1.583, 1.667], a = 0.2, v = 0.2, t = 0.2)
movej(p[-0.515903687884395, -0.227835538673469, 0.413679819878019, -0.871, -1.583, 1.667], a = 0.2, v = 0.2, t = 0.2)
movej(p[-0.515877312628846, -0.227790500627238, 0.414824471480173, -0.871, -1.583, 1.667], a = 0.2, v = 0.2, t = 0.2)
movej(p[-0.515863086127873, -0.227766207637647, 0.415441883019582, -0.871, -1.583, 1.667], a = 0.2, v = 0.2, t = 0.2)
movej(p[-0.515875000770181, -0.227786552927195, 0.414924803123222, -0.871, -1.583, 1.667], a = 0.2, v = 0.2, t = 0.2)
movej(p[-0.515907065790004, -0.227841306741524, 0.413533223191613, -0.871, -1.583, 1.667], a = 0.2, v = 0.2, t = 0.2)
movej(p[-0.515938545529152, -0.227895061138119, 0.412167043675965, -0.871, -1.583, 1.667], a = 0.2, v = 0.2, t = 0.2)
movej(p[-0.515962458425292, -0.227935894491178, 0.411129255252392, -0.871, -1.583, 1.667], a = 0.2, v = 0.2, t = 0.2)
movej(p[-0.515971467567106, -0.227951278385555, 0.410738270278127, -0.871, -1.583, 1.667], a = 0.2, v = 0.2, t = 0.2)
movej(p[-0.515976158173657, -0.227959288004809, 0.410534704087349, -0.871, -1.583, 1.667], a = 0.2, v = 0.2, t = 0.2)
movej(p[-0.515978913173404, -0.227963992406849, 0.410415140700787, -0.871, -1.583, 1.667], a = 0.2, v = 0.2, t = 0.2)
movej(p[-0.515981141420545, -0.227967797332929, 0.41031843768859, -0.871, -1.583, 1.667], a = 0.2, v = 0.2, t = 0.2)
movej(p[-0.515979243438928, -0.227964556363998, 0.410400807608923, -0.871, -1.583, 1.667], a = 0.2, v = 0.2, t = 0.2)
movej(p[-0.515965815428019, -0.227941626865742, 0.410983565723698, -0.871, -1.583, 1.667], a = 0.2, v = 0.2, t = 0.2)
movej(p[-0.515945702675689, -0.227907282589245, 0.411856432875064, -0.871, -1.583, 1.667], a = 0.2, v = 0.2, t = 0.2)
movej(p[-0.515915401859043, -0.227855541305509, 0.413171448695703, -0.871, -1.583, 1.667], a = 0.2, v = 0.2, t = 0.2)
movej(p[-0.515888800852376, -0.227810117769581, 0.414325897601156, -0.871, -1.583, 1.667], a = 0.2, v = 0.2, t = 0.2)
movej(p[-0.515869653813159, -0.227777422532342, 0.415156854066185, -0.871, -1.583, 1.667], a = 0.2, v = 0.2, t = 0.2)
movej(p[-0.515862362888183, -0.227764972642878, 0.415473270676449, -0.871, -1.583, 1.667], a = 0.2, v = 0.2, t = 0.2)
movej(p[-0.5158795032508, -0.227794241305035, 0.41472940135186, -0.871, -1.583, 1.667], a = 0.2, v = 0.2, t = 0.2)
movej(p[-0.515916346669275, -0.227857154651277, 0.413130445167079, -0.871, -1.583, 1.667], a = 0.2, v = 0.2, t = 0.2)
movej(p[-0.515948683426554, -0.227912372480981, 0.411727072185202, -0.871, -1.583, 1.667], a = 0.2, v = 0.2, t = 0.2)
movej(p[-0.51596347430532, -0.227937629194813, 0.411085167387545, -0.871, -1.583, 1.667], a = 0.2, v = 0.2, t = 0.2)
movej(p[-0.515972027764324, -0.227952234971099, 0.410713958451421, -0.871, -1.583, 1.667], a = 0.2, v = 0.2, t = 0.2)
movej(p[-0.515977203317719, -0.227961072679331, 0.410489346201703, -0.871, -1.583, 1.667], a = 0.2, v = 0.2, t = 0.2)
movej(p[-0.515980100457059, -0.227966019797105, 0.410363614142693, -0.871, -1.583, 1.667], a = 0.2, v = 0.2, t = 0.2)
movej(p[-0.515980577042751, -0.227966833608687, 0.410342930946839, -0.871, -1.583, 1.667], a = 0.2, v = 0.2, t = 0.2)
movej(p[-0.515974766041766, -0.227956910818346, 0.410595120791029, -0.871, -1.583, 1.667], a = 0.2, v = 0.2, t = 0.2)
movej(p[-0.515956045421327, -0.227924943728312, 0.411407571238714, -0.871, -1.583, 1.667], a = 0.2, v = 0.2, t = 0.2)
movej(p[-0.515925874202544, -0.227873423744217, 0.412716962681533, -0.871, -1.583, 1.667], a = 0.2, v = 0.2, t = 0.2)
movej(p[-0.515896593446502, -0.227823424302815, 0.413987709205782, -0.871, -1.583, 1.667], a = 0.2, v = 0.2, t = 0.2)
movej(p[-0.515877659616675, -0.227791093139179, 0.414809412662139, -0.871, -1.583, 1.667], a = 0.2, v = 0.2, t = 0.2)
movej(p[-0.51586005939067, -0.227761039220232, 0.415573239456412, -0.871, -1.583, 1.667], a = 0.2, v = 0.2, t = 0.2)
movej(p[-0.515865648821114, -0.227770583659575, 0.415330665483979, -0.871, -1.583, 1.667], a = 0.2, v = 0.2, t = 0.2)
movej(p[-0.515903274007347, -0.227834831942359, 0.413697781600735, -0.871, -1.583, 1.667], a = 0.2, v = 0.2, t = 0.2)
movej(p[-0.515941559724627, -0.22790020813944, 0.412036231533763, -0.871, -1.583, 1.667], a = 0.2, v = 0.2, t = 0.2)
movej(p[-0.515960585527133, -0.227932696354435, 0.411210536583469, -0.871, -1.583, 1.667], a = 0.2, v = 0.2, t = 0.2)
movej(p[-0.515970150685588, -0.227949029695658, 0.41079542121404, -0.871, -1.583, 1.667], a = 0.2, v = 0.2, t = 0.2)
movej(p[-0.515977512680361, -0.227961600942989, 0.410475920267552, -0.871, -1.583, 1.667], a = 0.2, v = 0.2, t = 0.2)
movej(p[-0.515979477551198, -0.22796495613109, 0.410390647442538, -0.871, -1.583, 1.667], a = 0.2, v = 0.2, t = 0.2)
movej(p[-0.515979970859195, -0.227965798497465, 0.410369238520513, -0.871, -1.583, 1.667], a = 0.2, v = 0.2, t = 0.2)
movej(p[-0.515975250988611, -0.227957738907324, 0.410574074732089, -0.871, -1.583, 1.667], a = 0.2, v = 0.2, t = 0.2)
movej(p[-0.515959778675917, -0.227931318585704, 0.411245552871188, -0.871, -1.583, 1.667], a = 0.2, v = 0.2, t = 0.2)
movej(p[-0.515932257942475, -0.227884324536196, 0.412439916716009, -0.871, -1.583, 1.667], a = 0.2, v = 0.2, t = 0.2)
movej(p[-0.51590567783869, -0.227838936693759, 0.41359345846375, -0.871, -1.583, 1.667], a = 0.2, v = 0.2, t = 0.2)
movej(p[-0.515884453053078, -0.22780269352357, 0.414514586405442, -0.871, -1.583, 1.667], a = 0.2, v = 0.2, t = 0.2)
movej(p[-0.515864093646749, -0.227767928063886, 0.41539815801782, -0.871, -1.583, 1.667], a = 0.2, v = 0.2, t = 0.2)
movej(p[-0.515863132114212, -0.227766286163326, 0.415439887272614, -0.871, -1.583, 1.667], a = 0.2, v = 0.2, t = 0.2)
movej(p[-0.515893704668315, -0.227818491462437, 0.414113078401707, -0.871, -1.583, 1.667], a = 0.2, v = 0.2, t = 0.2)
movej(p[-0.515932960279285, -0.227885523837475, 0.412409436216856, -0.871, -1.583, 1.667], a = 0.2, v = 0.2, t = 0.2)
movej(p[-0.515956057963056, -0.227924965144406, 0.411407026944086, -0.871, -1.583, 1.667], a = 0.2, v = 0.2, t = 0.2)
movej(p[-0.515969009388273, -0.22794708083108, 0.410844952025165, -0.871, -1.583, 1.667], a = 0.2, v = 0.2, t = 0.2)
movej(p[-0.51597775933436, -0.227962022126177, 0.41046521580654, -0.871, -1.583, 1.667], a = 0.2, v = 0.2, t = 0.2)
movej(p[-0.515979481731774, -0.227964963269788, 0.410390466010996, -0.871, -1.583, 1.667], a = 0.2, v = 0.2, t = 0.2)
movej(p[-0.515979607149062, -0.227965177430731, 0.410385023064718, -0.871, -1.583, 1.667], a = 0.2, v = 0.2, t = 0.2)
movej(p[-0.515976839607585, -0.227960451612597, 0.410505130745908, -0.871, -1.583, 1.667], a = 0.2, v = 0.2, t = 0.2)
movej(p[-0.515960949237266, -0.227933317421168, 0.411194752039265, -0.871, -1.583, 1.667], a = 0.2, v = 0.2, t = 0.2)
movej(p[-0.515933875825483, -0.227887087212356, 0.41236970270903, -0.871, -1.583, 1.667], a = 0.2, v = 0.2, t = 0.2)
movej(p[-0.515908959591044, -0.227844540571757, 0.413451034702823, -0.871, -1.583, 1.667], a = 0.2, v = 0.2, t = 0.2)
movej(p[-0.515887563401806, -0.227808004714947, 0.414379601337761, -0.871, -1.583, 1.667], a = 0.2, v = 0.2, t = 0.2)
movej(p[-0.515866530922702, -0.227772089924871, 0.415292383428494, -0.871, -1.583, 1.667], a = 0.2, v = 0.2, t = 0.2)
movej(p[-0.515861321924697, -0.227763195107054, 0.415518447130552, -0.871, -1.583, 1.667], a = 0.2, v = 0.2, t = 0.2)
movej(p[-0.515891284114667, -0.227814358156245, 0.414218127264862, -0.871, -1.583, 1.667], a = 0.2, v = 0.2, t = 0.2)
movej(p[-0.515925330727632, -0.227872495713466, 0.412740548782069, -0.871, -1.583, 1.667], a = 0.2, v = 0.2, t = 0.2)
movej(p[-0.515950840603898, -0.227916056049194, 0.411633453509229, -0.871, -1.583, 1.667], a = 0.2, v = 0.2, t = 0.2)
movej(p[-0.515966868933234, -0.22794342581766, 0.410937844974968, -0.871, -1.583, 1.667], a = 0.2, v = 0.2, t = 0.2)
movej(p[-0.515977374721345, -0.227961365365953, 0.410481907508457, -0.871, -1.583, 1.667], a = 0.2, v = 0.2, t = 0.2)
movej(p[-0.515979498454079, -0.227964991824581, 0.410389740284825, -0.871, -1.583, 1.667], a = 0.2, v = 0.2, t = 0.2)
movej(p[-0.515980459986616, -0.227966633725141, 0.410348011030031, -0.871, -1.583, 1.667], a = 0.2, v = 0.2, t = 0.2)
movej(p[-0.515981939910608, -0.227969160824264, 0.410283784263957, -0.871, -1.583, 1.667], a = 0.2, v = 0.2, t = 0.2)
movej(p[-0.51597658877301, -0.227960023290712, 0.410516016638463, -0.871, -1.583, 1.667], a = 0.2, v = 0.2, t = 0.2)
movej(p[-0.515953758646119, -0.227921038860458, 0.411506814292507, -0.871, -1.583, 1.667], a = 0.2, v = 0.2, t = 0.2)
movej(p[-0.515928014657583, -0.227877078757638, 0.412624069731731, -0.871, -1.583, 1.667], a = 0.2, v = 0.2, t = 0.2)
movej(p[-0.515905853422892, -0.227839236519078, 0.413585838338962, -0.871, -1.583, 1.667], a = 0.2, v = 0.2, t = 0.2)
movej(p[-0.515878299244841, -0.227792185359986, 0.414781653636124, -0.871, -1.583, 1.667], a = 0.2, v = 0.2, t = 0.2)
movej(p[-0.51585892227393, -0.227759097494352, 0.415622588835994, -0.871, -1.583, 1.667], a = 0.2, v = 0.2, t = 0.2)
movej(p[-0.515869365353398, -0.227776929962174, 0.415169372842623, -0.871, -1.583, 1.667], a = 0.2, v = 0.2, t = 0.2)
movej(p[-0.515903148590059, -0.227834617781416, 0.413703224547012, -0.871, -1.583, 1.667], a = 0.2, v = 0.2, t = 0.2)
movej(p[-0.515934611606903, -0.227888343623219, 0.412337770757535, -0.871, -1.583, 1.667], a = 0.2, v = 0.2, t = 0.2)
movej(p[-0.515957458456099, -0.227927356608266, 0.411346247377321, -0.871, -1.583, 1.667], a = 0.2, v = 0.2, t = 0.2)
movej(p[-0.515972771906896, -0.227953505659359, 0.410681663636841, -0.871, -1.583, 1.667], a = 0.2, v = 0.2, t = 0.2)
movej(p[-0.515977220040024, -0.227961101234123, 0.410488620475533, -0.871, -1.583, 1.667], a = 0.2, v = 0.2, t = 0.2)
movej(p[-0.515979184910861, -0.227964456422224, 0.410403347650519, -0.871, -1.583, 1.667], a = 0.2, v = 0.2, t = 0.2)
movej(p[-0.515982257634403, -0.227969703365318, 0.410269995466721, -0.871, -1.583, 1.667], a = 0.2, v = 0.2, t = 0.2)
movej(p[-0.515982278537284, -0.227969739058809, 0.410269088309008, -0.871, -1.583, 1.667], a = 0.2, v = 0.2, t = 0.2)
movej(p[-0.515976877232772, -0.22796051586088, 0.410503497862025, -0.871, -1.583, 1.667], a = 0.2, v = 0.2, t = 0.2)
movej(p[-0.515958695906668, -0.227929469662899, 0.411292543640717, -0.871, -1.583, 1.667], a = 0.2, v = 0.2, t = 0.2)
movej(p[-0.515939218601928, -0.227896210468511, 0.412137833197609, -0.871, -1.583, 1.667], a = 0.2, v = 0.2, t = 0.2)
movej(p[-0.515913035652886, -0.227851500802392, 0.413274138948804, -0.871, -1.583, 1.667], a = 0.2, v = 0.2, t = 0.2)
movej(p[-0.51588992124681, -0.227812030940668, 0.414277273947744, -0.871, -1.583, 1.667], a = 0.2, v = 0.2, t = 0.2)
movej(p[-0.515878871983786, -0.227793163361624, 0.41475679751479, -0.871, -1.583, 1.667], a = 0.2, v = 0.2, t = 0.2)
movej(p[-0.515892646982524, -0.227816685371821, 0.41415898058198, -0.871, -1.583, 1.667], a = 0.2, v = 0.2, t = 0.2)
movej(p[-0.515924072374181, -0.227870346965342, 0.412795159676386, -0.871, -1.583, 1.667], a = 0.2, v = 0.2, t = 0.2)
movej(p[-0.51594938994394, -0.227913578920957, 0.411696410254506, -0.871, -1.583, 1.667], a = 0.2, v = 0.2, t = 0.2)
movej(p[-0.51596890069329, -0.22794689522493, 0.410849669245272, -0.871, -1.583, 1.667], a = 0.2, v = 0.2, t = 0.2)
movej(p[-0.515975092126714, -0.227957467636797, 0.410580969130707, -0.871, -1.583, 1.667], a = 0.2, v = 0.2, t = 0.2)
movej(p[-0.515978449129441, -0.227963200011361, 0.410435279602014, -0.871, -1.583, 1.667], a = 0.2, v = 0.2, t = 0.2)
movej(p[-0.515981927368879, -0.227969139408169, 0.410284328558585, -0.871, -1.583, 1.667], a = 0.2, v = 0.2, t = 0.2)
movej(p[-0.51598231616247, -0.227969803307092, 0.410267455425125, -0.871, -1.583, 1.667], a = 0.2, v = 0.2, t = 0.2)
movej(p[-0.515982286898437, -0.227969753336205, 0.410268725445923, -0.871, -1.583, 1.667], a = 0.2, v = 0.2, t = 0.2)
movej(p[-0.515977245123481, -0.227961144066312, 0.410487531886277, -0.871, -1.583, 1.667], a = 0.2, v = 0.2, t = 0.2)
movej(p[-0.515961789533092, -0.227934752299484, 0.411158284299205, -0.871, -1.583, 1.667], a = 0.2, v = 0.2, t = 0.2)
movej(p[-0.515938666765864, -0.227895268160364, 0.41216178216123, -0.871, -1.583, 1.667], a = 0.2, v = 0.2, t = 0.2)
movej(p[-0.515916434461376, -0.227857304563937, 0.413126635104685, -0.871, -1.583, 1.667], a = 0.2, v = 0.2, t = 0.2)
movej(p[-0.515899528211028, -0.227828435668872, 0.413860344262889, -0.871, -1.583, 1.667], a = 0.2, v = 0.2, t = 0.2)
movej(p[-0.515880615284082, -0.227796140198726, 0.414681140561533, -0.871, -1.583, 1.667], a = 0.2, v = 0.2, t = 0.2)
movej(p[-0.515880351907778, -0.227795690460747, 0.414692570748716, -0.871, -1.583, 1.667], a = 0.2, v = 0.2, t = 0.2)
movej(p[-0.515908002239084, -0.227842905809895, 0.413492582526074, -0.871, -1.583, 1.667], a = 0.2, v = 0.2, t = 0.2)
movej(p[-0.515939515422842, -0.227896717316076, 0.412124951558086, -0.871, -1.583, 1.667], a = 0.2, v = 0.2, t = 0.2)
movej(p[-0.515958988547006, -0.227929969371765, 0.411279843432736, -0.871, -1.583, 1.667], a = 0.2, v = 0.2, t = 0.2)
movej(p[-0.515970121421555, -0.227948979724771, 0.410796691234838, -0.871, -1.583, 1.667], a = 0.2, v = 0.2, t = 0.2)
movej(p[-0.515978415684831, -0.227963142901776, 0.410436731054354, -0.871, -1.583, 1.667], a = 0.2, v = 0.2, t = 0.2)
movej(p[-0.515980936572308, -0.227967447536723, 0.410327327834177, -0.871, -1.583, 1.667], a = 0.2, v = 0.2, t = 0.2)
movej(p[-0.515982165661726, -0.22796954631396, 0.410273986960658, -0.871, -1.583, 1.667], a = 0.2, v = 0.2, t = 0.2)
movej(p[-0.515982709136638, -0.227970474344712, 0.410250400860122, -0.871, -1.583, 1.667], a = 0.2, v = 0.2, t = 0.2)
movej(p[-0.515985543567334, -0.227975314382015, 0.410127390274251, -0.871, -1.583, 1.667], a = 0.2, v = 0.2, t = 0.2)
movej(p[-0.515985493400419, -0.227975228717638, 0.410129567452762, -0.871, -1.583, 1.667], a = 0.2, v = 0.2, t = 0.2)
movej(p[-0.515978992604353, -0.227964128042112, 0.410411693501478, -0.871, -1.583, 1.667], a = 0.2, v = 0.2, t = 0.2)
movej(p[-0.515964720117042, -0.227939756526843, 0.411031100787855, -0.871, -1.583, 1.667], a = 0.2, v = 0.2, t = 0.2)
movej(p[-0.515947044640665, -0.227909574111331, 0.411798193349895, -0.871, -1.583, 1.667], a = 0.2, v = 0.2, t = 0.2)
movej(p[-0.51592495447577, -0.227871853230638, 0.412756877620901, -0.871, -1.583, 1.667], a = 0.2, v = 0.2, t = 0.2)
movej(p[-0.51590640107838, -0.227840171688528, 0.413562070806883, -0.871, -1.583, 1.667], a = 0.2, v = 0.2, t = 0.2)
movej(p[-0.515890861876466, -0.227813637147738, 0.414236451850663, -0.871, -1.583, 1.667], a = 0.2, v = 0.2, t = 0.2)
movej(p[-0.515880548394862, -0.227796025979557, 0.414684043466214, -0.871, -1.583, 1.667], a = 0.2, v = 0.2, t = 0.2)
movej(p[-0.515900594257972, -0.227830256036885, 0.413814079219531, -0.871, -1.583, 1.667], a = 0.2, v = 0.2, t = 0.2)
movej(p[-0.515931852426579, -0.227883632082482, 0.41245751557564, -0.871, -1.583, 1.667], a = 0.2, v = 0.2, t = 0.2)
movej(p[-0.515959168311784, -0.227930276335783, 0.411272041876405, -0.871, -1.583, 1.667], a = 0.2, v = 0.2, t = 0.2)
movej(p[-0.515970790313754, -0.227950121916465, 0.410767662188025, -0.871, -1.583, 1.667], a = 0.2, v = 0.2, t = 0.2)
movej(p[-0.515977303651549, -0.227961244008085, 0.410484991844681, -0.871, -1.583, 1.667], a = 0.2, v = 0.2, t = 0.2)
movej(p[-0.515982069508472, -0.227969382123904, 0.410278159886137, -0.871, -1.583, 1.667], a = 0.2, v = 0.2, t = 0.2)
movej(p[-0.515983323681346, -0.227971523733331, 0.410223730423362, -0.871, -1.583, 1.667], a = 0.2, v = 0.2, t = 0.2)
movej(p[-0.515984030198732, -0.227972730173307, 0.410193068492666, -0.871, -1.583, 1.667], a = 0.2, v = 0.2, t = 0.2)
movej(p[-0.515984000934698, -0.227972680202421, 0.410194338513464, -0.871, -1.583, 1.667], a = 0.2, v = 0.2, t = 0.2)
movej(p[-0.515985957444382, -0.227976021113125, 0.410109428551535, -0.871, -1.583, 1.667], a = 0.2, v = 0.2, t = 0.2)
movej(p[-0.515982491746673, -0.227970103132411, 0.410259835300336, -0.871, -1.583, 1.667], a = 0.2, v = 0.2, t = 0.2)
movej(p[-0.515966082984899, -0.227942083742419, 0.410971954104973, -0.871, -1.583, 1.667], a = 0.2, v = 0.2, t = 0.2)
movej(p[-0.515948190118557, -0.227911530114606, 0.411748481107227, -0.871, -1.583, 1.667], a = 0.2, v = 0.2, t = 0.2)
movej(p[-0.515927153458876, -0.227875608185832, 0.412661444629503, -0.871, -1.583, 1.667], a = 0.2, v = 0.2, t = 0.2)
movej(p[-0.515903558286532, -0.227835317373828, 0.413685444255839, -0.871, -1.583, 1.667], a = 0.2, v = 0.2, t = 0.2)
movej(p[-0.515885657059037, -0.227804749468619, 0.414462334121178, -0.871, -1.583, 1.667], a = 0.2, v = 0.2, t = 0.2)
movej(p[-0.515884440511349, -0.227802672107476, 0.41451513070007, -0.871, -1.583, 1.667], a = 0.2, v = 0.2, t = 0.2)
movej(p[-0.515909649386125, -0.227845718456941, 0.413421098498296, -0.871, -1.583, 1.667], a = 0.2, v = 0.2, t = 0.2)
movej(p[-0.515936668450417, -0.227891855862678, 0.412248506438585, -0.871, -1.583, 1.667], a = 0.2, v = 0.2, t = 0.2)
movej(p[-0.515957960125249, -0.227928213252036, 0.411324475592211, -0.871, -1.583, 1.667], a = 0.2, v = 0.2, t = 0.2)
movej(p[-0.515972625586727, -0.227953255804926, 0.410688013740831, -0.871, -1.583, 1.667], a = 0.2, v = 0.2, t = 0.2)
movej(p[-0.515978265184086, -0.227962885908645, 0.410443262589887, -0.871, -1.583, 1.667], a = 0.2, v = 0.2, t = 0.2)
movej(p[-0.515980986739223, -0.2279675332011, 0.410325150655666, -0.871, -1.583, 1.667], a = 0.2, v = 0.2, t = 0.2)
movej(p[-0.515984795244186, -0.227974036555057, 0.410159866520373, -0.871, -1.583, 1.667], a = 0.2, v = 0.2, t = 0.2)
movej(p[-0.515984623840559, -0.227973743868436, 0.410167305213619, -0.871, -1.583, 1.667], a = 0.2, v = 0.2, t = 0.2)
movej(p[-0.515984929022625, -0.227974264993396, 0.41015406071101, -0.871, -1.583, 1.667], a = 0.2, v = 0.2, t = 0.2)
movej(p[-0.515983862975682, -0.227972444625384, 0.410200325754369, -0.871, -1.583, 1.667], a = 0.2, v = 0.2, t = 0.2)
movej(p[-0.515972993477437, -0.227953884010357, 0.410672047765084, -0.871, -1.583, 1.667], a = 0.2, v = 0.2, t = 0.2)
movej(p[-0.515952032068129, -0.227918090578148, 0.411581745519593, -0.871, -1.583, 1.667], a = 0.2, v = 0.2, t = 0.2)
movej(p[-0.515931480355293, -0.227882996738352, 0.41247366298293, -0.871, -1.583, 1.667], a = 0.2, v = 0.2, t = 0.2)
movej(p[-0.515915878444735, -0.227856355117091, 0.413150765499848, -0.871, -1.583, 1.667], a = 0.2, v = 0.2, t = 0.2)
movej(p[-0.515892738955201, -0.227816842423179, 0.414154989088043, -0.871, -1.583, 1.667], a = 0.2, v = 0.2, t = 0.2)
movej(p[-0.515872425535212, -0.227782155489174, 0.415036564953452, -0.871, -1.583, 1.667], a = 0.2, v = 0.2, t = 0.2)
movej(p[-0.515883056740611, -0.227800309198409, 0.414575184540665, -0.871, -1.583, 1.667], a = 0.2, v = 0.2, t = 0.2)
movej(p[-0.51591762174503, -0.227859331954193, 0.413075108546591, -0.871, -1.583, 1.667], a = 0.2, v = 0.2, t = 0.2)
movej(p[-0.515942186811065, -0.227901278944153, 0.412009016802376, -0.871, -1.583, 1.667], a = 0.2, v = 0.2, t = 0.2)
movej(p[-0.515962266118784, -0.227935566111066, 0.411137601103351, -0.871, -1.583, 1.667], a = 0.2, v = 0.2, t = 0.2)
movej(p[-0.515976735093179, -0.227960273145145, 0.410509666534472, -0.871, -1.583, 1.667], a = 0.2, v = 0.2, t = 0.2)
movej(p[-0.515980296944142, -0.227966355315915, 0.410355086860192, -0.871, -1.583, 1.667], a = 0.2, v = 0.2, t = 0.2)
movej(p[-0.515982270176132, -0.227969724781413, 0.410269451172093, -0.871, -1.583, 1.667], a = 0.2, v = 0.2, t = 0.2)
movej(p[-0.51598331950077, -0.227971516594632, 0.410223911854905, -0.871, -1.583, 1.667], a = 0.2, v = 0.2, t = 0.2)
movej(p[-0.515985744234994, -0.227975657039523, 0.410118681560207, -0.871, -1.583, 1.667], a = 0.2, v = 0.2, t = 0.2)
movej(p[-0.515985493400419, -0.227975228717638, 0.410129567452762, -0.871, -1.583, 1.667], a = 0.2, v = 0.2, t = 0.2)
movej(p[-0.515983946587207, -0.227972587399346, 0.410196697123517, -0.871, -1.583, 1.667], a = 0.2, v = 0.2, t = 0.2)
movej(p[-0.515973495146587, -0.227954740654128, 0.410650275979974, -0.871, -1.583, 1.667], a = 0.2, v = 0.2, t = 0.2)
movej(p[-0.515953612325951, -0.227920789006025, 0.411513164396497, -0.871, -1.583, 1.667], a = 0.2, v = 0.2, t = 0.2)
movej(p[-0.51593240844322, -0.227884581529328, 0.412433385180476, -0.871, -1.583, 1.667], a = 0.2, v = 0.2, t = 0.2)
movej(p[-0.515914490493421, -0.227853985069326, 0.413211000771986, -0.871, -1.583, 1.667], a = 0.2, v = 0.2, t = 0.2)
movej(p[-0.515898988916693, -0.227827514776819, 0.413883748931882, -0.871, -1.583, 1.667], a = 0.2, v = 0.2, t = 0.2)
movej(p[-0.515883612757252, -0.227801258645255, 0.414551054145501, -0.871, -1.583, 1.667], a = 0.2, v = 0.2, t = 0.2)
movej(p[-0.515892128591069, -0.227815800173258, 0.41418147809326, -0.871, -1.583, 1.667], a = 0.2, v = 0.2, t = 0.2)
movej(p[-0.515925477047801, -0.227872745567899, 0.412734198678078, -0.871, -1.583, 1.667], a = 0.2, v = 0.2, t = 0.2)
movej(p[-0.51594935649933, -0.227913521811373, 0.411697861706846, -0.871, -1.583, 1.667], a = 0.2, v = 0.2, t = 0.2)
movej(p[-0.515966459236761, -0.227942726225247, 0.410955625266141, -0.871, -1.583, 1.667], a = 0.2, v = 0.2, t = 0.2)
movej(p[-0.515974774402919, -0.227956925095742, 0.410594757927944, -0.871, -1.583, 1.667], a = 0.2, v = 0.2, t = 0.2)
movej(p[-0.515982688233756, -0.227970438651221, 0.410251308017835, -0.871, -1.583, 1.667], a = 0.2, v = 0.2, t = 0.2)
movej(p[-0.51598415561602, -0.22797294433425, 0.410187625546388, -0.871, -1.583, 1.667], a = 0.2, v = 0.2, t = 0.2)
movej(p[-0.515984577854221, -0.227973665342757, 0.410169300960587, -0.871, -1.583, 1.667], a = 0.2, v = 0.2, t = 0.2)
movej(p[-0.515987383020883, -0.227978455409173, 0.410047560395514, -0.871, -1.583, 1.667], a = 0.2, v = 0.2, t = 0.2)
movej(p[-0.515987169811495, -0.227978091335571, 0.410056813404186, -0.871, -1.583, 1.667], a = 0.2, v = 0.2, t = 0.2)
movej(p[-0.51598661797543, -0.227977149027423, 0.410080762367807, -0.871, -1.583, 1.667], a = 0.2, v = 0.2, t = 0.2)
movej(p[-0.515975744296608, -0.227958581273699, 0.410552665810065, -0.871, -1.583, 1.667], a = 0.2, v = 0.2, t = 0.2)
movej(p[-0.515960225997575, -0.227932082426399, 0.411226139696131, -0.871, -1.583, 1.667], a = 0.2, v = 0.2, t = 0.2)
movej(p[-0.51593907228176, -0.227895960614078, 0.4121441833016, -0.871, -1.583, 1.667], a = 0.2, v = 0.2, t = 0.2)
movej(p[-0.515917617564454, -0.227859324815495, 0.413075289978134, -0.871, -1.583, 1.667], a = 0.2, v = 0.2, t = 0.2)
movej(p[-0.515903508119617, -0.227835231709451, 0.41368762143435, -0.871, -1.583, 1.667], a = 0.2, v = 0.2, t = 0.2)
movej(p[-0.515889055867527, -0.227810553230164, 0.414314830277059, -0.871, -1.583, 1.667], a = 0.2, v = 0.2, t = 0.2)
movej(p[-0.515887095177267, -0.227807205180761, 0.41439992167053, -0.871, -1.583, 1.667], a = 0.2, v = 0.2, t = 0.2)
movej(p[-0.515917441980252, -0.227859024990176, 0.413082910102922, -0.871, -1.583, 1.667], a = 0.2, v = 0.2, t = 0.2)
movej(p[-0.515947408350798, -0.227910195178064, 0.41178240880569, -0.871, -1.583, 1.667], a = 0.2, v = 0.2, t = 0.2)
movej(p[-0.515964038683114, -0.227938592919055, 0.411060674129296, -0.871, -1.583, 1.667], a = 0.2, v = 0.2, t = 0.2)
movej(p[-0.515974143135905, -0.227955847152331, 0.410622154090874, -0.871, -1.583, 1.667], a = 0.2, v = 0.2, t = 0.2)
movej(p[-0.515979189091437, -0.227964463560922, 0.410403166218976, -0.871, -1.583, 1.667], a = 0.2, v = 0.2, t = 0.2)
movej(p[-0.515984619659983, -0.227973736729738, 0.410167486645162, -0.871, -1.583, 1.667], a = 0.2, v = 0.2, t = 0.2)
movej(p[-0.515985087884523, -0.227974536263923, 0.410147166312392, -0.871, -1.583, 1.667], a = 0.2, v = 0.2, t = 0.2)
movej(p[-0.515985008453574, -0.22797440062866, 0.410150613511701, -0.871, -1.583, 1.667], a = 0.2, v = 0.2, t = 0.2)
movej(p[-0.515986622156006, -0.227977156166121, 0.410080580936264, -0.871, -1.583, 1.667], a = 0.2, v = 0.2, t = 0.2)
movej(p[-0.515974878917325, -0.227957103563195, 0.410590222139379, -0.871, -1.583, 1.667], a = 0.2, v = 0.2, t = 0.2)
movej(p[-0.51595438155198, -0.227922102526473, 0.411479780992662, -0.871, -1.583, 1.667], a = 0.2, v = 0.2, t = 0.2)
movej(p[-0.515932721986439, -0.227885116931684, 0.412419777814783, -0.871, -1.583, 1.667], a = 0.2, v = 0.2, t = 0.2)
movej(p[-0.515914695341657, -0.227854334865532, 0.413202110626399, -0.871, -1.583, 1.667], a = 0.2, v = 0.2, t = 0.2)
movej(p[-0.515891681269411, -0.227815036332563, 0.414200891268317, -0.871, -1.583, 1.667], a = 0.2, v = 0.2, t = 0.2)
movej(p[-0.515875025853638, -0.227786595759384, 0.414923714533966, -0.871, -1.583, 1.667], a = 0.2, v = 0.2, t = 0.2)
movej(p[-0.51589042291596, -0.227812887584439, 0.414255502162634, -0.871, -1.583, 1.667], a = 0.2, v = 0.2, t = 0.2)
movej(p[-0.515922287268123, -0.227867298741259, 0.412872630945069, -0.871, -1.583, 1.667], a = 0.2, v = 0.2, t = 0.2)
movej(p[-0.515948825566147, -0.227912615196716, 0.411720903512754, -0.871, -1.583, 1.667], a = 0.2, v = 0.2, t = 0.2)
movej(p[-0.515966446695032, -0.227942704809153, 0.410956169560768, -0.871, -1.583, 1.667], a = 0.2, v = 0.2, t = 0.2)
movej(p[-0.515978771033812, -0.227963749691114, 0.410421309373235, -0.871, -1.583, 1.667], a = 0.2, v = 0.2, t = 0.2)
movej(p[-0.515981835396202, -0.227968982356812, 0.410288320052522, -0.871, -1.583, 1.667], a = 0.2, v = 0.2, t = 0.2)
movej(p[-0.515983223347516, -0.227971352404576, 0.410228084780384, -0.871, -1.583, 1.667], a = 0.2, v = 0.2, t = 0.2)
movej(p[-0.515985071162218, -0.227974507709131, 0.410147892038563, -0.871, -1.583, 1.667], a = 0.2, v = 0.2, t = 0.2)
movej(p[-0.515987036033055, -0.227977862897232, 0.410062619213549, -0.871, -1.583, 1.667], a = 0.2, v = 0.2, t = 0.2)
movej(p[-0.51598648419699, -0.227976920589084, 0.41008656817717, -0.871, -1.583, 1.667], a = 0.2, v = 0.2, t = 0.2)
movej(p[-0.515976592953587, -0.22796003042941, 0.41051583520692, -0.871, -1.583, 1.667], a = 0.2, v = 0.2, t = 0.2)
movej(p[-0.515958474336127, -0.227929091311901, 0.411302159512474, -0.871, -1.583, 1.667], a = 0.2, v = 0.2, t = 0.2)
movej(p[-0.515935221971035, -0.22788938587314, 0.412311281752318, -0.871, -1.583, 1.667], a = 0.2, v = 0.2, t = 0.2)
movej(p[-0.515911551548318, -0.227848966564571, 0.413338547146421, -0.871, -1.583, 1.667], a = 0.2, v = 0.2, t = 0.2)
movej(p[-0.515894787437563, -0.227820340385242, 0.414066087632178, -0.871, -1.583, 1.667], a = 0.2, v = 0.2, t = 0.2)
movej(p[-0.515880866118657, -0.227796568520612, 0.414670254668978, -0.871, -1.583, 1.667], a = 0.2, v = 0.2, t = 0.2)
movej(p[-0.515883813424912, -0.227801601302763, 0.414542345431457, -0.871, -1.583, 1.667], a = 0.2, v = 0.2, t = 0.2)
movej(p[-0.515917751342894, -0.227859553253834, 0.413069484168771, -0.871, -1.583, 1.667], a = 0.2, v = 0.2, t = 0.2)
movej(p[-0.515951325550743, -0.227916884138172, 0.41161240745029, -0.871, -1.583, 1.667], a = 0.2, v = 0.2, t = 0.2)
movej(p[-0.51596744167218, -0.227944403819298, 0.410912988853634, -0.871, -1.583, 1.667], a = 0.2, v = 0.2, t = 0.2)
movej(p[-0.515976371383046, -0.227959652078412, 0.410525451078677, -0.871, -1.583, 1.667], a = 0.2, v = 0.2, t = 0.2)
movej(p[-0.515981852118507, -0.227969010911604, 0.410287594326351, -0.871, -1.583, 1.667], a = 0.2, v = 0.2, t = 0.2)
movej(p[-0.51598494574493, -0.227974293548188, 0.41015333498484, -0.871, -1.583, 1.667], a = 0.2, v = 0.2, t = 0.2)
movej(p[-0.515985535206182, -0.227975300104619, 0.410127753137336, -0.871, -1.583, 1.667], a = 0.2, v = 0.2, t = 0.2)
movej(p[-0.515985464136385, -0.227975178746751, 0.41013083747356, -0.871, -1.583, 1.667], a = 0.2, v = 0.2, t = 0.2)
movej(p[-0.515987947398677, -0.227979419133415, 0.410023067137266, -0.871, -1.583, 1.667], a = 0.2, v = 0.2, t = 0.2)
movej(p[-0.515984000934698, -0.227972680202421, 0.410194338513464, -0.871, -1.583, 1.667], a = 0.2, v = 0.2, t = 0.2)
movej(p[-0.515967809562889, -0.227945032024729, 0.410897022877886, -0.871, -1.583, 1.667], a = 0.2, v = 0.2, t = 0.2)
movej(p[-0.515951735247215, -0.227917583730584, 0.411594627159117, -0.871, -1.583, 1.667], a = 0.2, v = 0.2, t = 0.2)
movej(p[-0.515931292229362, -0.227882675496938, 0.412481827402346, -0.871, -1.583, 1.667], a = 0.2, v = 0.2, t = 0.2)
movej(p[-0.515908717117622, -0.227844126527268, 0.413461557732292, -0.871, -1.583, 1.667], a = 0.2, v = 0.2, t = 0.2)
movej(p[-0.515891154516803, -0.227814136856604, 0.414223751642682, -0.871, -1.583, 1.667], a = 0.2, v = 0.2, t = 0.2)
movej(p[-0.515881409593569, -0.227797496551363, 0.414646668568442, -0.871, -1.583, 1.667], a = 0.2, v = 0.2, t = 0.2)
movej(p[-0.515896576724197, -0.227823395748023, 0.413988434931952, -0.871, -1.583, 1.667], a = 0.2, v = 0.2, t = 0.2)
movej(p[-0.515924628390822, -0.227871296412187, 0.412771029281223, -0.871, -1.583, 1.667], a = 0.2, v = 0.2, t = 0.2)
movej(p[-0.515953403297138, -0.227920432071121, 0.411522235973626, -0.871, -1.583, 1.667], a = 0.2, v = 0.2, t = 0.2)
movej(p[-0.515970618910128, -0.227949829229844, 0.410775100881271, -0.871, -1.583, 1.667], a = 0.2, v = 0.2, t = 0.2)
movej(p[-0.515977341276735, -0.227961308256368, 0.410483358960798, -0.871, -1.583, 1.667], a = 0.2, v = 0.2, t = 0.2)
movej(p[-0.515981559478169, -0.227968511202738, 0.410300294534332, -0.871, -1.583, 1.667], a = 0.2, v = 0.2, t = 0.2)
movej(p[-0.515986078681094, -0.22797622813537, 0.4101041670368, -0.871, -1.583, 1.667], a = 0.2, v = 0.2, t = 0.2)
movej(p[-0.5159861831955, -0.227976406602822, 0.410099631248236, -0.871, -1.583, 1.667], a = 0.2, v = 0.2, t = 0.2)
movej(p[-0.515985832027095, -0.227975806952183, 0.410114871497813, -0.871, -1.583, 1.667], a = 0.2, v = 0.2, t = 0.2)
movej(p[-0.51598655108621, -0.227977034808254, 0.410083665272488, -0.871, -1.583, 1.667], a = 0.2, v = 0.2, t = 0.2)
movej(p[-0.515976747634908, -0.22796029456124, 0.410509122239845, -0.871, -1.583, 1.667], a = 0.2, v = 0.2, t = 0.2)
movej(p[-0.51595778036047, -0.227927906288018, 0.411332277148542, -0.871, -1.583, 1.667], a = 0.2, v = 0.2, t = 0.2)
movej(p[-0.515938742016236, -0.22789539665693, 0.412158516393464, -0.871, -1.583, 1.667], a = 0.2, v = 0.2, t = 0.2)
movej(p[-0.515923211175474, -0.227868876393536, 0.412832534574158, -0.871, -1.583, 1.667], a = 0.2, v = 0.2, t = 0.2)
movej(p[-0.515908378490946, -0.227843548292723, 0.413476253687242, -0.871, -1.583, 1.667], a = 0.2, v = 0.2, t = 0.2)
movej(p[-0.515921162693113, -0.227865378431473, 0.412921436030024, -0.871, -1.583, 1.667], a = 0.2, v = 0.2, t = 0.2)
movej(p[-0.515949532083532, -0.227913821636692, 0.411690241582058, -0.871, -1.583, 1.667], a = 0.2, v = 0.2, t = 0.2)
movej(p[-0.51596846591336, -0.227946152800329, 0.410868538125701, -0.871, -1.583, 1.667], a = 0.2, v = 0.2, t = 0.2)
movej(p[-0.515976735093179, -0.227960273145145, 0.410509666534472, -0.871, -1.583, 1.667], a = 0.2, v = 0.2, t = 0.2)
movej(p[-0.515981145601121, -0.227967804471627, 0.410318256257048, -0.871, -1.583, 1.667], a = 0.2, v = 0.2, t = 0.2)
movej(p[-0.515986112125704, -0.227976285244955, 0.41010271558446, -0.871, -1.583, 1.667], a = 0.2, v = 0.2, t = 0.2)
movej(p[-0.515986291890482, -0.227976592208972, 0.410094914028129, -0.871, -1.583, 1.667], a = 0.2, v = 0.2, t = 0.2)
movej(p[-0.51598574841557, -0.227975664178221, 0.410118500128664, -0.871, -1.583, 1.667], a = 0.2, v = 0.2, t = 0.2)
movej(p[-0.51597772588975, -0.227961965016592, 0.41046666725888, -0.871, -1.583, 1.667], a = 0.2, v = 0.2, t = 0.2)
movej(p[-0.515960514457336, -0.227932574996567, 0.411213620919693, -0.871, -1.583, 1.667], a = 0.2, v = 0.2, t = 0.2)
movej(p[-0.515934373314057, -0.227887936717429, 0.412348112355463, -0.871, -1.583, 1.667], a = 0.2, v = 0.2, t = 0.2)
movej(p[-0.515909979651649, -0.22784628241409, 0.413406765406432, -0.871, -1.583, 1.667], a = 0.2, v = 0.2, t = 0.2)
movej(p[-0.515891376087345, -0.227814515207603, 0.414214135770925, -0.871, -1.583, 1.667], a = 0.2, v = 0.2, t = 0.2)
movej(p[-0.515875857788312, -0.227788016360303, 0.414887609656992, -0.871, -1.583, 1.667], a = 0.2, v = 0.2, t = 0.2)
movej(p[-0.515886154547611, -0.227805598973692, 0.414440743767611, -0.871, -1.583, 1.667], a = 0.2, v = 0.2, t = 0.2)
movej(p[-0.515916911047068, -0.227858118375519, 0.41310595190883, -0.871, -1.583, 1.667], a = 0.2, v = 0.2, t = 0.2)
movej(p[-0.515944260376884, -0.227904819738405, 0.411919026757255, -0.871, -1.583, 1.667], a = 0.2, v = 0.2, t = 0.2)
movej(p[-0.515961095557435, -0.227933567275601, 0.411188401935274, -0.871, -1.583, 1.667], a = 0.2, v = 0.2, t = 0.2)
movej(p[-0.515972554516931, -0.227953134447058, 0.410691098077055, -0.871, -1.583, 1.667], a = 0.2, v = 0.2, t = 0.2)
movej(p[-0.515981856299083, -0.227969018050302, 0.410287412894809, -0.871, -1.583, 1.667], a = 0.2, v = 0.2, t = 0.2)
movej(p[-0.515983465820939, -0.227971766449065, 0.410217561750914, -0.871, -1.583, 1.667], a = 0.2, v = 0.2, t = 0.2)
movej(p[-0.515984176518901, -0.22797298002774, 0.410186718388675, -0.871, -1.583, 1.667], a = 0.2, v = 0.2, t = 0.2)
movej(p[-0.51598285127623, -0.227970717060447, 0.410244232187674, -0.871, -1.583, 1.667], a = 0.2, v = 0.2, t = 0.2)
movej(p[-0.515972659031337, -0.22795331291451, 0.410686562288491, -0.871, -1.583, 1.667], a = 0.2, v = 0.2, t = 0.2)
movej(p[-0.515950945118304, -0.227916234516646, 0.411628917720665, -0.871, -1.583, 1.667], a = 0.2, v = 0.2, t = 0.2)
movej(p[-0.515925042267871, -0.227872003143298, 0.412753067558507, -0.871, -1.583, 1.667], a = 0.2, v = 0.2, t = 0.2)
movej(p[-0.515896982240093, -0.227824088201737, 0.413970836072322, -0.871, -1.583, 1.667], a = 0.2, v = 0.2, t = 0.2)
movej(p[-0.515872074366807, -0.227781555838534, 0.415051805203029, -0.871, -1.583, 1.667], a = 0.2, v = 0.2, t = 0.2)
movej(p[-0.515865331097319, -0.22777004111852, 0.415344454281215, -0.871, -1.583, 1.667], a = 0.2, v = 0.2, t = 0.2)
movej(p[-0.515894373560515, -0.227819633654131, 0.414084049354894, -0.871, -1.583, 1.667], a = 0.2, v = 0.2, t = 0.2)
movej(p[-0.515923792275573, -0.22786986867257, 0.412807315589739, -0.871, -1.583, 1.667], a = 0.2, v = 0.2, t = 0.2)
movej(p[-0.515948328077573, -0.227911765691643, 0.411742493866322, -0.871, -1.583, 1.667], a = 0.2, v = 0.2, t = 0.2)
movej(p[-0.515965748538799, -0.227941512646572, 0.41098646862838, -0.871, -1.583, 1.667], a = 0.2, v = 0.2, t = 0.2)
movej(p[-0.515978616352491, -0.227963485559284, 0.41042802234031, -0.871, -1.583, 1.667], a = 0.2, v = 0.2, t = 0.2)
movej(p[-0.515981709978914, -0.227968768195869, 0.410293762998799, -0.871, -1.583, 1.667], a = 0.2, v = 0.2, t = 0.2)
movej(p[-0.51598348672382, -0.227971802142556, 0.410216654593202, -0.871, -1.583, 1.667], a = 0.2, v = 0.2, t = 0.2)
movej(p[-0.515985639720588, -0.227975478572071, 0.410123217348771, -0.871, -1.583, 1.667], a = 0.2, v = 0.2, t = 0.2)
movej(p[-0.515986914796343, -0.227977655874987, 0.410067880728284, -0.871, -1.583, 1.667], a = 0.2, v = 0.2, t = 0.2)
movej(p[-0.515981362991086, -0.227968175683928, 0.410308821816833, -0.871, -1.583, 1.667], a = 0.2, v = 0.2, t = 0.2)
movej(p[-0.515962880663493, -0.227936615499685, 0.411110930666591, -0.871, -1.583, 1.667], a = 0.2, v = 0.2, t = 0.2)
movej(p[-0.515941655877881, -0.227900372329496, 0.412032058608284, -0.871, -1.583, 1.667], a = 0.2, v = 0.2, t = 0.2)
movej(p[-0.515913428627054, -0.227852171840012, 0.413257084383802, -0.871, -1.583, 1.667], a = 0.2, v = 0.2, t = 0.2)
movej(p[-0.515886242339712, -0.227805748886352, 0.414436933705217, -0.871, -1.583, 1.667], a = 0.2, v = 0.2, t = 0.2)
movej(p[-0.515870627887425, -0.227779085848996, 0.415114580516763, -0.871, -1.583, 1.667], a = 0.2, v = 0.2, t = 0.2)
movej(p[-0.51587870058016, -0.227792870675002, 0.414764236208036, -0.871, -1.583, 1.667], a = 0.2, v = 0.2, t = 0.2)
movej(p[-0.515906284022245, -0.227839971804981, 0.413567150890076, -0.871, -1.583, 1.667], a = 0.2, v = 0.2, t = 0.2)
movej(p[-0.515938215263629, -0.227894497180971, 0.412181376767829, -0.871, -1.583, 1.667], a = 0.2, v = 0.2, t = 0.2)
movej(p[-0.515964720117042, -0.227939756526843, 0.411031100787855, -0.871, -1.583, 1.667], a = 0.2, v = 0.2, t = 0.2)
movej(p[-0.515975000154036, -0.227957310585439, 0.410584960624644, -0.871, -1.583, 1.667], a = 0.2, v = 0.2, t = 0.2)
movej(p[-0.51598008791533, -0.227965998381011, 0.410364158437321, -0.871, -1.583, 1.667], a = 0.2, v = 0.2, t = 0.2)
movej(p[-0.515983415654024, -0.227971680784688, 0.410219738929425, -0.871, -1.583, 1.667], a = 0.2, v = 0.2, t = 0.2)
movej(p[-0.515987144728037, -0.227978048503382, 0.410057901993442, -0.871, -1.583, 1.667], a = 0.2, v = 0.2, t = 0.2)
movej(p[-0.515986580350243, -0.22797708477914, 0.41008239525169, -0.871, -1.583, 1.667], a = 0.2, v = 0.2, t = 0.2)
movej(p[-0.515978980062624, -0.227964106626018, 0.410412237796106, -0.871, -1.583, 1.667], a = 0.2, v = 0.2, t = 0.2)
movej(p[-0.515963236012474, -0.227937222289022, 0.411095508985472, -0.871, -1.583, 1.667], a = 0.2, v = 0.2, t = 0.2)
movej(p[-0.51593604136398, -0.227890785057965, 0.412275721169972, -0.871, -1.583, 1.667], a = 0.2, v = 0.2, t = 0.2)
movej(p[-0.515909143536399, -0.227844854674473, 0.413443051714949, -0.871, -1.583, 1.667], a = 0.2, v = 0.2, t = 0.2)
movej(p[-0.515889674592812, -0.227811609757481, 0.414287978408756, -0.871, -1.583, 1.667], a = 0.2, v = 0.2, t = 0.2)
movej(p[-0.515872417174059, -0.227782141211778, 0.415036927816538, -0.871, -1.583, 1.667], a = 0.2, v = 0.2, t = 0.2)
movej(p[-0.515882312598039, -0.22779903851015, 0.414607479355244, -0.871, -1.583, 1.667], a = 0.2, v = 0.2, t = 0.2)
movej(p[-0.515912032314587, -0.227849787514851, 0.413317682519024, -0.871, -1.583, 1.667], a = 0.2, v = 0.2, t = 0.2)
movej(p[-0.515946304678669, -0.227908310561769, 0.411830306732932, -0.871, -1.583, 1.667], a = 0.2, v = 0.2, t = 0.2)
movej(p[-0.515962721801595, -0.227936344229157, 0.41111782506521, -0.871, -1.583, 1.667], a = 0.2, v = 0.2, t = 0.2)
movej(p[-0.515973720897704, -0.227955126143824, 0.410640478676675, -0.871, -1.583, 1.667], a = 0.2, v = 0.2, t = 0.2)
movej(p[-0.51597975346923, -0.227965427285164, 0.410378672960728, -0.871, -1.583, 1.667], a = 0.2, v = 0.2, t = 0.2)
movej(p[-0.515985305274488, -0.227974907476224, 0.410137731872178, -0.871, -1.583, 1.667], a = 0.2, v = 0.2, t = 0.2)
movej(p[-0.515986061958789, -0.227976199580578, 0.410104892762971, -0.871, -1.583, 1.667], a = 0.2, v = 0.2, t = 0.2)
movej(p[-0.51598507952337, -0.227974521986527, 0.410147529175477, -0.871, -1.583, 1.667], a = 0.2, v = 0.2, t = 0.2)
movej(p[-0.51597742488826, -0.22796145103033, 0.410479730329946, -0.871, -1.583, 1.667], a = 0.2, v = 0.2, t = 0.2)
movej(p[-0.515953909146864, -0.22792129585359, 0.411500282756974, -0.871, -1.583, 1.667], a = 0.2, v = 0.2, t = 0.2)
movej(p[-0.515929055621069, -0.227878856293462, 0.412578893277628, -0.871, -1.583, 1.667], a = 0.2, v = 0.2, t = 0.2)
movej(p[-0.515907233013054, -0.227841592289447, 0.413525965929909, -0.871, -1.583, 1.667], a = 0.2, v = 0.2, t = 0.2)
movej(p[-0.515889436299966, -0.22781120285169, 0.414298320006684, -0.871, -1.583, 1.667], a = 0.2, v = 0.2, t = 0.2)
movej(p[-0.515873989070729, -0.227784825362258, 0.414968709556527, -0.871, -1.583, 1.667], a = 0.2, v = 0.2, t = 0.2)
movej(p[-0.515892245647204, -0.227816000056805, 0.414176398010068, -0.871, -1.583, 1.667], a = 0.2, v = 0.2, t = 0.2)
movej(p[-0.51592668105376, -0.227874801512948, 0.412681946393815, -0.871, -1.583, 1.667], a = 0.2, v = 0.2, t = 0.2)
movej(p[-0.515952136582535, -0.227918269045601, 0.411577209731029, -0.871, -1.583, 1.667], a = 0.2, v = 0.2, t = 0.2)
movej(p[-0.51596883380407, -0.227946781005761, 0.410852572149954, -0.871, -1.583, 1.667], a = 0.2, v = 0.2, t = 0.2)
movej(p[-0.51597839478195, -0.227963107208286, 0.410437638212067, -0.871, -1.583, 1.667], a = 0.2, v = 0.2, t = 0.2)
movej(p[-0.515984845411101, -0.227974122219434, 0.410157689341862, -0.871, -1.583, 1.667], a = 0.2, v = 0.2, t = 0.2)
movej(p[-0.515985974166687, -0.227976049667918, 0.410108702825365, -0.871, -1.583, 1.667], a = 0.2, v = 0.2, t = 0.2)
movej(p[-0.515986312793364, -0.227976627902463, 0.410094006870416, -0.871, -1.583, 1.667], a = 0.2, v = 0.2, t = 0.2)
movej(p[-0.515987015130173, -0.227977827203741, 0.410063526371262, -0.871, -1.583, 1.667], a = 0.2, v = 0.2, t = 0.2)
movej(p[-0.515970957536804, -0.227950407464389, 0.410760404926322, -0.871, -1.583, 1.667], a = 0.2, v = 0.2, t = 0.2)
movej(p[-0.515946204344839, -0.227908139233015, 0.411834661089954, -0.871, -1.583, 1.667], a = 0.2, v = 0.2, t = 0.2)
movej(p[-0.515923997123809, -0.227870218468776, 0.412798425444153, -0.871, -1.583, 1.667], a = 0.2, v = 0.2, t = 0.2)
movej(p[-0.515903370160601, -0.227834996132415, 0.413693608675256, -0.871, -1.583, 1.667], a = 0.2, v = 0.2, t = 0.2)
movej(p[-0.515881656247568, -0.22779791773455, 0.41463596410743, -0.871, -1.583, 1.667], a = 0.2, v = 0.2, t = 0.2)
movej(p[-0.515868006666118, -0.227774609885296, 0.415228338093962, -0.871, -1.583, 1.667], a = 0.2, v = 0.2, t = 0.2)
movej(p[-0.515883286672305, -0.227800701826804, 0.414565205805823, -0.871, -1.583, 1.667], a = 0.2, v = 0.2, t = 0.2)
movej(p[-0.515913478793969, -0.227852257504389, 0.413254907205291, -0.871, -1.583, 1.667], a = 0.2, v = 0.2, t = 0.2)
movej(p[-0.515941731128253, -0.227900500826062, 0.412028792840517, -0.871, -1.583, 1.667], a = 0.2, v = 0.2, t = 0.2)
movej(p[-0.515963378152066, -0.227937465004757, 0.411089340313024, -0.871, -1.583, 1.667], a = 0.2, v = 0.2, t = 0.2)
movej(p[-0.515977642278225, -0.22796182224263, 0.410470295889732, -0.871, -1.583, 1.667], a = 0.2, v = 0.2, t = 0.2)
movej(p[-0.515981801951592, -0.227968925247227, 0.410289771504862, -0.871, -1.583, 1.667], a = 0.2, v = 0.2, t = 0.2)
movej(p[-0.515983925684326, -0.227972551705855, 0.41019760428123, -0.871, -1.583, 1.667], a = 0.2, v = 0.2, t = 0.2)
movej(p[-0.515986889712886, -0.227977613042799, 0.410068969317539, -0.871, -1.583, 1.667], a = 0.2, v = 0.2, t = 0.2)
movej(p[-0.515987056935936, -0.227977898590722, 0.410061712055836, -0.871, -1.583, 1.667], a = 0.2, v = 0.2, t = 0.2)
movej(p[-0.515984870494558, -0.227974165051623, 0.410156600752607, -0.871, -1.583, 1.667], a = 0.2, v = 0.2, t = 0.2)
movej(p[-0.515968486816242, -0.227946188493819, 0.410867630967988, -0.871, -1.583, 1.667], a = 0.2, v = 0.2, t = 0.2)
movej(p[-0.51595049361607, -0.227915463537252, 0.411648512327264, -0.871, -1.583, 1.667], a = 0.2, v = 0.2, t = 0.2)
movej(p[-0.515924047290724, -0.227870304133153, 0.412796248265642, -0.871, -1.583, 1.667], a = 0.2, v = 0.2, t = 0.2)
movej(p[-0.515899026541879, -0.227827579025102, 0.413882116047999, -0.871, -1.583, 1.667], a = 0.2, v = 0.2, t = 0.2)
movej(p[-0.515883374464406, -0.227800851739464, 0.414561395743428, -0.871, -1.583, 1.667], a = 0.2, v = 0.2, t = 0.2)
movej(p[-0.515869795952752, -0.227777665248077, 0.415150685393737, -0.871, -1.583, 1.667], a = 0.2, v = 0.2, t = 0.2)
movej(p[-0.515889590981287, -0.227811466983519, 0.414291607039608, -0.871, -1.583, 1.667], a = 0.2, v = 0.2, t = 0.2)
movej(p[-0.515924845780787, -0.227871667624488, 0.412761594841008, -0.871, -1.583, 1.667], a = 0.2, v = 0.2, t = 0.2)
movej(p[-0.515956066324208, -0.227924979421803, 0.411406664081001, -0.871, -1.583, 1.667], a = 0.2, v = 0.2, t = 0.2)
movej(p[-0.5159699374762, -0.227948665622056, 0.410804674222712, -0.871, -1.583, 1.667], a = 0.2, v = 0.2, t = 0.2)
movej(p[-0.515977408165955, -0.227961422475537, 0.410480456056117, -0.871, -1.583, 1.667], a = 0.2, v = 0.2, t = 0.2)
movej(p[-0.51598382116992, -0.227972373238403, 0.410202140069795, -0.871, -1.583, 1.667], a = 0.2, v = 0.2, t = 0.2)
movej(p[-0.515985543567334, -0.227975314382015, 0.410127390274251, -0.871, -1.583, 1.667], a = 0.2, v = 0.2, t = 0.2)
movej(p[-0.515985422330623, -0.22797510735977, 0.410132651788986, -0.871, -1.583, 1.667], a = 0.2, v = 0.2, t = 0.2)
movej(p[-0.515980276041261, -0.227966319622425, 0.410355994017905, -0.871, -1.583, 1.667], a = 0.2, v = 0.2, t = 0.2)
movej(p[-0.515965422453852, -0.227940955828122, 0.411000620288701, -0.871, -1.583, 1.667], a = 0.2, v = 0.2, t = 0.2)
movej(p[-0.51594043096904, -0.227898280690957, 0.41208521805026, -0.871, -1.583, 1.667], a = 0.2, v = 0.2, t = 0.2)
movej(p[-0.515912483816822, -0.227850558494244, 0.413298087912425, -0.871, -1.583, 1.667], a = 0.2, v = 0.2, t = 0.2)
movej(p[-0.515891054182974, -0.22781396552785, 0.414228105999704, -0.871, -1.583, 1.667], a = 0.2, v = 0.2, t = 0.2)
movej(p[-0.515870297621902, -0.227778521891847, 0.415128913608627, -0.871, -1.583, 1.667], a = 0.2, v = 0.2, t = 0.2)
movej(p[-0.515867584427916, -0.227773888876789, 0.415246662679763, -0.871, -1.583, 1.667], a = 0.2, v = 0.2, t = 0.2)
movej(p[-0.51589948222469, -0.227828357143194, 0.413862340009858, -0.871, -1.583, 1.667], a = 0.2, v = 0.2, t = 0.2)
movej(p[-0.515935548055983, -0.227889942691591, 0.412297130091997, -0.871, -1.583, 1.667], a = 0.2, v = 0.2, t = 0.2)
movej(p[-0.51595595344865, -0.227924786676954, 0.411411562732651, -0.871, -1.583, 1.667], a = 0.2, v = 0.2, t = 0.2)
movej(p[-0.515969761891997, -0.227948365796736, 0.4108122943475, -0.871, -1.583, 1.667], a = 0.2, v = 0.2, t = 0.2)
movej(p[-0.515978524379813, -0.227963328507927, 0.410432013834247, -0.871, -1.583, 1.667], a = 0.2, v = 0.2, t = 0.2)
movej(p[-0.515984310297341, -0.227973208466079, 0.410180912579313, -0.871, -1.583, 1.667], a = 0.2, v = 0.2, t = 0.2)
movej(p[-0.515985276010454, -0.227974857505337, 0.410139001892976, -0.871, -1.583, 1.667], a = 0.2, v = 0.2, t = 0.2)
movej(p[-0.515985050259337, -0.227974472015641, 0.410148799196276, -0.871, -1.583, 1.667], a = 0.2, v = 0.2, t = 0.2)
movej(p[-0.515982278537284, -0.227969739058809, 0.410269088309008, -0.871, -1.583, 1.667], a = 0.2, v = 0.2, t = 0.2)
movej(p[-0.515961944214413, -0.227935016431313, 0.41115157133213, -0.871, -1.583, 1.667], a = 0.2, v = 0.2, t = 0.2)
movej(p[-0.515939130809827, -0.227896060555852, 0.412141643260004, -0.871, -1.583, 1.667], a = 0.2, v = 0.2, t = 0.2)
movej(p[-0.515916793990933, -0.227857918491972, 0.413111031992023, -0.871, -1.583, 1.667], a = 0.2, v = 0.2, t = 0.2)
movej(p[-0.515897885244563, -0.227825630160524, 0.413931646859124, -0.871, -1.583, 1.667], a = 0.2, v = 0.2, t = 0.2)
movej(p[-0.515875983205599, -0.227788230521246, 0.414882166710715, -0.871, -1.583, 1.667], a = 0.2, v = 0.2, t = 0.2)
movej(p[-0.515869758327566, -0.227777600999794, 0.41515231827762, -0.871, -1.583, 1.667], a = 0.2, v = 0.2, t = 0.2)
movej(p[-0.515892856011337, -0.227817042306725, 0.414149909004851, -0.871, -1.583, 1.667], a = 0.2, v = 0.2, t = 0.2)
movej(p[-0.515918495485466, -0.227860823942094, 0.413037189354192, -0.871, -1.583, 1.667], a = 0.2, v = 0.2, t = 0.2)
movej(p[-0.515942910050755, -0.227902513938922, 0.411977629145509, -0.871, -1.583, 1.667], a = 0.2, v = 0.2, t = 0.2)
movej(p[-0.515961396558925, -0.227934081261864, 0.411175338864208, -0.871, -1.583, 1.667], a = 0.2, v = 0.2, t = 0.2)
movej(p[-0.51597672255145, -0.227960251729051, 0.4105102108291, -0.871, -1.583, 1.667], a = 0.2, v = 0.2, t = 0.2)
movej(p[-0.515981388074543, -0.227968218516116, 0.410307733227578, -0.871, -1.583, 1.667], a = 0.2, v = 0.2, t = 0.2)
movej(p[-0.515983231708669, -0.227971366681973, 0.410227721917299, -0.871, -1.583, 1.667], a = 0.2, v = 0.2, t = 0.2)
movej(p[-0.515985238385268, -0.227974793257054, 0.410140634776859, -0.871, -1.583, 1.667], a = 0.2, v = 0.2, t = 0.2)
movej(p[-0.515985196579505, -0.227974721870074, 0.410142449092285, -0.871, -1.583, 1.667], a = 0.2, v = 0.2, t = 0.2)
movej(p[-0.51597206538951, -0.227952299219382, 0.410712325567537, -0.871, -1.583, 1.667], a = 0.2, v = 0.2, t = 0.2)
movej(p[-0.515952726043786, -0.227919275602031, 0.411551627883525, -0.871, -1.583, 1.667], a = 0.2, v = 0.2, t = 0.2)
movej(p[-0.515933516295926, -0.227886473284321, 0.412385305821692, -0.871, -1.583, 1.667], a = 0.2, v = 0.2, t = 0.2)
movej(p[-0.515907881002372, -0.227842698787651, 0.413497844040809, -0.871, -1.583, 1.667], a = 0.2, v = 0.2, t = 0.2)
movej(p[-0.515884043356605, -0.227801993931158, 0.414532366696615, -0.871, -1.583, 1.667], a = 0.2, v = 0.2, t = 0.2)
movej(p[-0.515870987416982, -0.227779699777032, 0.415098977404101, -0.871, -1.583, 1.667], a = 0.2, v = 0.2, t = 0.2)
movej(p[-0.515888508212038, -0.227809618060715, 0.414338597809137, -0.871, -1.583, 1.667], a = 0.2, v = 0.2, t = 0.2)
movej(p[-0.515918077427841, -0.227860110072285, 0.41305533250845, -0.871, -1.583, 1.667], a = 0.2, v = 0.2, t = 0.2)
movej(p[-0.515945903343349, -0.227907625246753, 0.41184772416102, -0.871, -1.583, 1.667], a = 0.2, v = 0.2, t = 0.2)
movej(p[-0.515967909896719, -0.227945203353483, 0.410892668520864, -0.871, -1.583, 1.667], a = 0.2, v = 0.2, t = 0.2)
movej(p[-0.515976902316229, -0.227960558693069, 0.410502409272769, -0.871, -1.583, 1.667], a = 0.2, v = 0.2, t = 0.2)
movej(p[-0.515981375532815, -0.227968197100022, 0.410308277522206, -0.871, -1.583, 1.667], a = 0.2, v = 0.2, t = 0.2)
movej(p[-0.515983315320194, -0.227971509455934, 0.410224093286447, -0.871, -1.583, 1.667], a = 0.2, v = 0.2, t = 0.2)
movej(p[-0.515986902254615, -0.227977634458893, 0.410068425022911, -0.871, -1.583, 1.667], a = 0.2, v = 0.2, t = 0.2)
movej(p[-0.515985288552183, -0.227974878921431, 0.410138457598348, -0.871, -1.583, 1.667], a = 0.2, v = 0.2, t = 0.2)
movej(p[-0.515971041148329, -0.227950550238351, 0.41075677629547, -0.871, -1.583, 1.667], a = 0.2, v = 0.2, t = 0.2)
movej(p[-0.515954879040554, -0.227922952031546, 0.411458190639095, -0.871, -1.583, 1.667], a = 0.2, v = 0.2, t = 0.2)
movej(p[-0.515930301432791, -0.227880983625492, 0.412524826677938, -0.871, -1.583, 1.667], a = 0.2, v = 0.2, t = 0.2)
movej(p[-0.515902638559757, -0.227833746860249, 0.413725359195208, -0.871, -1.583, 1.667], a = 0.2, v = 0.2, t = 0.2)
movej(p[-0.515880172143, -0.227795383496729, 0.414700372305047, -0.871, -1.583, 1.667], a = 0.2, v = 0.2, t = 0.2)
movej(p[-0.515871572697657, -0.227780699194764, 0.415073576988139, -0.871, -1.583, 1.667], a = 0.2, v = 0.2, t = 0.2)
movej(p[-0.515888792491223, -0.227810103492185, 0.414326260464241, -0.871, -1.583, 1.667], a = 0.2, v = 0.2, t = 0.2)
movej(p[-0.515919210364005, -0.227862044659467, 0.41300616456041, -0.871, -1.583, 1.667], a = 0.2, v = 0.2, t = 0.2)
movej(p[-0.515948018714931, -0.227911237427985, 0.411755919800473, -0.871, -1.583, 1.667], a = 0.2, v = 0.2, t = 0.2)
movej(p[-0.515968741831393, -0.227946623954403, 0.410856563643891, -0.871, -1.583, 1.667], a = 0.2, v = 0.2, t = 0.2)
movej(p[-0.515976814524128, -0.227960408780409, 0.410506219335163, -0.871, -1.583, 1.667], a = 0.2, v = 0.2, t = 0.2)
movej(p[-0.515981204129188, -0.2279679044134, 0.410315716215452, -0.871, -1.583, 1.667], a = 0.2, v = 0.2, t = 0.2)
movej(p[-0.515985827846519, -0.227975799813485, 0.410115052929355, -0.871, -1.583, 1.667], a = 0.2, v = 0.2, t = 0.2)
movej(p[-0.515986643058887, -0.227977191859612, 0.410079673778552, -0.871, -1.583, 1.667], a = 0.2, v = 0.2, t = 0.2)
movej(p[-0.515986496738719, -0.227976942005179, 0.410086023882542, -0.871, -1.583, 1.667], a = 0.2, v = 0.2, t = 0.2)
movej(p[-0.515979607149062, -0.227965177430731, 0.410385023064718, -0.871, -1.583, 1.667], a = 0.2, v = 0.2, t = 0.2)
movej(p[-0.51596714067069, -0.227943889833035, 0.4109260519247, -0.871, -1.583, 1.667], a = 0.2, v = 0.2, t = 0.2)
movej(p[-0.515940351538092, -0.227898145055693, 0.412088665249569, -0.871, -1.583, 1.667], a = 0.2, v = 0.2, t = 0.2)
movej(p[-0.51591579483321, -0.227856212343129, 0.4131543941307, -0.871, -1.583, 1.667], a = 0.2, v = 0.2, t = 0.2)
movej(p[-0.515900259811872, -0.227829684941038, 0.413828593742937, -0.871, -1.583, 1.667], a = 0.2, v = 0.2, t = 0.2)
movej(p[-0.515880560936591, -0.227796047395651, 0.414683499171587, -0.871, -1.583, 1.667], a = 0.2, v = 0.2, t = 0.2)
movej(p[-0.515858734147999, -0.227758776252938, 0.415630753255411, -0.871, -1.583, 1.667], a = 0.2, v = 0.2, t = 0.2)
movej(p[-0.51584793571955, -0.227740336995779, 0.416099390929902, -0.871, -1.583, 1.667], a = 0.2, v = 0.2, t = 0.2)
movej(p[-0.515882755739121, -0.227799795212147, 0.414588247611731, -0.871, -1.583, 1.667], a = 0.2, v = 0.2, t = 0.2)
movej(p[-0.515916994658593, -0.22785826114948, 0.413102323277979, -0.871, -1.583, 1.667], a = 0.2, v = 0.2, t = 0.2)
movej(p[-0.515941952698795, -0.22790087917706, 0.41201917696876, -0.871, -1.583, 1.667], a = 0.2, v = 0.2, t = 0.2)
movej(p[-0.515963879821216, -0.227938321648527, 0.411067568527914, -0.871, -1.583, 1.667], a = 0.2, v = 0.2, t = 0.2)
movej(p[-0.515976032756369, -0.227959073843867, 0.410540147033626, -0.871, -1.583, 1.667], a = 0.2, v = 0.2, t = 0.2)
movej(p[-0.515981329546476, -0.227968118574343, 0.410310273269174, -0.871, -1.583, 1.667], a = 0.2, v = 0.2, t = 0.2)
movej(p[-0.515983913142597, -0.227972530289761, 0.410198148575858, -0.871, -1.583, 1.667], a = 0.2, v = 0.2, t = 0.2)
movej(p[-0.515987500077018, -0.22797865529272, 0.410042480312322, -0.871, -1.583, 1.667], a = 0.2, v = 0.2, t = 0.2)
movej(p[-0.515987219978409, -0.227978176999948, 0.410054636225675, -0.871, -1.583, 1.667], a = 0.2, v = 0.2, t = 0.2)
movej(p[-0.515987504257594, -0.227978662431418, 0.41004229888078, -0.871, -1.583, 1.667], a = 0.2, v = 0.2, t = 0.2)
movej(p[-0.515987311951087, -0.227978334051306, 0.410050644731738, -0.871, -1.583, 1.667], a = 0.2, v = 0.2, t = 0.2)
movej(p[-0.515982429038029, -0.22796999605194, 0.410262556773475, -0.871, -1.583, 1.667], a = 0.2, v = 0.2, t = 0.2)
movej(p[-0.515961609768313, -0.227934445335466, 0.411166085855537, -0.871, -1.583, 1.667], a = 0.2, v = 0.2, t = 0.2)
movej(p[-0.515936463602181, -0.227891506066472, 0.412257396584171, -0.871, -1.583, 1.667], a = 0.2, v = 0.2, t = 0.2)
movej(p[-0.515918395151636, -0.22786065261334, 0.413041543711214, -0.871, -1.583, 1.667], a = 0.2, v = 0.2, t = 0.2)
movej(p[-0.515893980586347, -0.227818962616511, 0.414101103919896, -0.871, -1.583, 1.667], a = 0.2, v = 0.2, t = 0.2)
movej(p[-0.515873926362085, -0.227784718281787, 0.414971431029665, -0.871, -1.583, 1.667], a = 0.2, v = 0.2, t = 0.2)
movej(p[-0.515882509085122, -0.22779937402896, 0.414598952072743, -0.871, -1.583, 1.667], a = 0.2, v = 0.2, t = 0.2)
movej(p[-0.515917592480997, -0.227859281983307, 0.413076378567389, -0.871, -1.583, 1.667], a = 0.2, v = 0.2, t = 0.2)
movej(p[-0.515942717744248, -0.22790218555881, 0.411985974996468, -0.871, -1.583, 1.667], a = 0.2, v = 0.2, t = 0.2)
movej(p[-0.515960522818489, -0.227932589273963, 0.411213258056608, -0.871, -1.583, 1.667], a = 0.2, v = 0.2, t = 0.2)
movej(p[-0.515974021899194, -0.227955640130087, 0.410627415605609, -0.871, -1.583, 1.667], a = 0.2, v = 0.2, t = 0.2)
movej(p[-0.515982353787657, -0.227969867555374, 0.410265822541241, -0.871, -1.583, 1.667], a = 0.2, v = 0.2, t = 0.2)
movej(p[-0.515984757618999, -0.227973972306774, 0.410161499404256, -0.871, -1.583, 1.667], a = 0.2, v = 0.2, t = 0.2)
movej(p[-0.515984611298831, -0.227973722452341, 0.410167849508247, -0.871, -1.583, 1.667], a = 0.2, v = 0.2, t = 0.2)
movej(p[-0.515977746792631, -0.227962000710082, 0.410465760101167, -0.871, -1.583, 1.667], a = 0.2, v = 0.2, t = 0.2)
movej(p[-0.515952726043786, -0.227919275602031, 0.411551627883525, -0.871, -1.583, 1.667], a = 0.2, v = 0.2, t = 0.2)
movej(p[-0.515921936099718, -0.227866699090619, 0.412887871194646, -0.871, -1.583, 1.667], a = 0.2, v = 0.2, t = 0.2)
movej(p[-0.51589558174705, -0.227821696737878, 0.414031615639087, -0.871, -1.583, 1.667], a = 0.2, v = 0.2, t = 0.2)
movej(p[-0.515876965641017, -0.227789908115296, 0.414839530298208, -0.871, -1.583, 1.667], a = 0.2, v = 0.2, t = 0.2)
movej(p[-0.515859194011386, -0.227759561509728, 0.415610795785727, -0.871, -1.583, 1.667], a = 0.2, v = 0.2, t = 0.2)
movej(p[-0.515879641209816, -0.227794476882072, 0.414723414110955, -0.871, -1.583, 1.667], a = 0.2, v = 0.2, t = 0.2)
movej(p[-0.515915021426604, -0.227854891683983, 0.413187958966078, -0.871, -1.583, 1.667], a = 0.2, v = 0.2, t = 0.2)
movej(p[-0.51593816927729, -0.227894418655292, 0.412183372514798, -0.871, -1.583, 1.667], a = 0.2, v = 0.2, t = 0.2)
movej(p[-0.51595434810737, -0.227922045416889, 0.411481232445003, -0.871, -1.583, 1.667], a = 0.2, v = 0.2, t = 0.2)
movej(p[-0.515963403235524, -0.227937507836945, 0.411088251723769, -0.871, -1.583, 1.667], a = 0.2, v = 0.2, t = 0.2)
movej(p[-0.515968457552208, -0.227946138522933, 0.410868900988786, -0.871, -1.583, 1.667], a = 0.2, v = 0.2, t = 0.2)
movej(p[-0.515964264434231, -0.227938978408751, 0.411050876825997, -0.871, -1.583, 1.667], a = 0.2, v = 0.2, t = 0.2)
movej(p[-0.515935288860255, -0.22788950009231, 0.412308378847637, -0.871, -1.583, 1.667], a = 0.2, v = 0.2, t = 0.2)
movej(p[-0.515903746412463, -0.227835638615242, 0.413677279836423, -0.871, -1.583, 1.667], a = 0.2, v = 0.2, t = 0.2)
movej(p[-0.515874432211811, -0.227785582064256, 0.414949477813013, -0.871, -1.583, 1.667], a = 0.2, v = 0.2, t = 0.2)
movej(p[-0.515847617995755, -0.227739794454725, 0.416113179727138, -0.871, -1.583, 1.667], a = 0.2, v = 0.2, t = 0.2)
movej(p[-0.515812116542256, -0.227679172630569, 0.41765389638675, -0.871, -1.583, 1.667], a = 0.2, v = 0.2, t = 0.2)
movej(p[-0.515777518093227, -0.2276200927652, 0.419155423833164, -0.871, -1.583, 1.667], a = 0.2, v = 0.2, t = 0.2)
movej(p[-0.515769817471778, -0.227606943283324, 0.419489620734601, -0.871, -1.583, 1.667], a = 0.2, v = 0.2, t = 0.2)
movej(p[-0.515821184212138, -0.22769465646672, 0.417260371370888, -0.871, -1.583, 1.667], a = 0.2, v = 0.2, t = 0.2)
movej(p[-0.515864812705864, -0.227769155919957, 0.415366951792496, -0.871, -1.583, 1.667], a = 0.2, v = 0.2, t = 0.2)
movej(p[-0.515895611011084, -0.227821746708765, 0.414030345618289, -0.871, -1.583, 1.667], a = 0.2, v = 0.2, t = 0.2)
movej(p[-0.515917061547813, -0.22785837536865, 0.413099420373297, -0.871, -1.583, 1.667], a = 0.2, v = 0.2, t = 0.2)
movej(p[-0.515935422638695, -0.227889728530648, 0.412302573038274, -0.871, -1.583, 1.667], a = 0.2, v = 0.2, t = 0.2)
movej(p[-0.515952926711446, -0.227919618259539, 0.411542919169481, -0.871, -1.583, 1.667], a = 0.2, v = 0.2, t = 0.2)
movej(p[-0.515962901566374, -0.227936651193175, 0.411110023508878, -0.871, -1.583, 1.667], a = 0.2, v = 0.2, t = 0.2)
movej(p[-0.515971137301583, -0.227950714428407, 0.410752603369991, -0.871, -1.583, 1.667], a = 0.2, v = 0.2, t = 0.2)
movej(p[-0.515976580411858, -0.227960009013316, 0.410516379501548, -0.871, -1.583, 1.667], a = 0.2, v = 0.2, t = 0.2)
movej(p[-0.515981551117017, -0.227968496925342, 0.410300657397417, -0.871, -1.583, 1.667], a = 0.2, v = 0.2, t = 0.2)
movej(p[-0.515978674880558, -0.227963585501058, 0.410425482298714, -0.871, -1.583, 1.667], a = 0.2, v = 0.2, t = 0.2)
movej(p[-0.515956028699022, -0.22792491517352, 0.411408296964884, -0.871, -1.583, 1.667], a = 0.2, v = 0.2, t = 0.2)
movej(p[-0.515934001242771, -0.227887301373299, 0.412364259762752, -0.871, -1.583, 1.667], a = 0.2, v = 0.2, t = 0.2)
movej(p[-0.515904427846391, -0.227836802223031, 0.413647706494982, -0.871, -1.583, 1.667], a = 0.2, v = 0.2, t = 0.2)
movej(p[-0.51588263450241, -0.227799588189902, 0.414593509126466, -0.871, -1.583, 1.667], a = 0.2, v = 0.2, t = 0.2)
movej(p[-0.515885703045376, -0.227804827994298, 0.41446033837421, -0.871, -1.583, 1.667], a = 0.2, v = 0.2, t = 0.2)
movej(p[-0.515924122541096, -0.227870432629719, 0.412792982497875, -0.871, -1.583, 1.667], a = 0.2, v = 0.2, t = 0.2)
movej(p[-0.515951212675184, -0.227916691393323, 0.41161730610194, -0.871, -1.583, 1.667], a = 0.2, v = 0.2, t = 0.2)
movej(p[-0.515968415746445, -0.227946067135952, 0.410870715304212, -0.871, -1.583, 1.667], a = 0.2, v = 0.2, t = 0.2)
movej(p[-0.515978750130931, -0.227963713997623, 0.410422216530948, -0.871, -1.583, 1.667], a = 0.2, v = 0.2, t = 0.2)
movej(p[-0.515983277695008, -0.227971445207652, 0.410225726170331, -0.871, -1.583, 1.667], a = 0.2, v = 0.2, t = 0.2)
movej(p[-0.515984786883033, -0.227974022277661, 0.410160229383458, -0.871, -1.583, 1.667], a = 0.2, v = 0.2, t = 0.2)
movej(p[-0.515984209963511, -0.227973037137325, 0.410185266936335, -0.871, -1.583, 1.667], a = 0.2, v = 0.2, t = 0.2)
movej(p[-0.515976517703214, -0.227959901932845, 0.410519100974687, -0.871, -1.583, 1.667], a = 0.2, v = 0.2, t = 0.2)
movej(p[-0.515951267022675, -0.227916784196399, 0.411614947491886, -0.871, -1.583, 1.667], a = 0.2, v = 0.2, t = 0.2)
movej(p[-0.515927433557485, -0.227876086478604, 0.41264928871615, -0.871, -1.583, 1.667], a = 0.2, v = 0.2, t = 0.2)
movej(p[-0.515905694560995, -0.227838965248551, 0.41359273273758, -0.871, -1.583, 1.667], a = 0.2, v = 0.2, t = 0.2)
movej(p[-0.51588449485884, -0.227802764910551, 0.414512772090016, -0.871, -1.583, 1.667], a = 0.2, v = 0.2, t = 0.2)
movej(p[-0.515874423850658, -0.227785567786859, 0.414949840676098, -0.871, -1.583, 1.667], a = 0.2, v = 0.2, t = 0.2)
movej(p[-0.515900502285294, -0.227830098985527, 0.413818070713467, -0.871, -1.583, 1.667], a = 0.2, v = 0.2, t = 0.2)
movej(p[-0.515938244527663, -0.227894547151857, 0.412180106747031, -0.871, -1.583, 1.667], a = 0.2, v = 0.2, t = 0.2)
movej(p[-0.51595898436643, -0.227929962233067, 0.411280024864278, -0.871, -1.583, 1.667], a = 0.2, v = 0.2, t = 0.2)
movej(p[-0.515972157362187, -0.22795245627074, 0.410708334073601, -0.871, -1.583, 1.667], a = 0.2, v = 0.2, t = 0.2)
movej(p[-0.515978470032322, -0.227963235704851, 0.410434372444301, -0.871, -1.583, 1.667], a = 0.2, v = 0.2, t = 0.2)
movej(p[-0.515984552770763, -0.227973622510568, 0.410170389549843, -0.871, -1.583, 1.667], a = 0.2, v = 0.2, t = 0.2)
movej(p[-0.515985321996793, -0.227974936031016, 0.410137006146008, -0.871, -1.583, 1.667], a = 0.2, v = 0.2, t = 0.2)
movej(p[-0.51598385461453, -0.227972430347988, 0.410200688617454, -0.871, -1.583, 1.667], a = 0.2, v = 0.2, t = 0.2)
movej(p[-0.515974097149567, -0.227955768626652, 0.410624149837842, -0.871, -1.583, 1.667], a = 0.2, v = 0.2, t = 0.2)
movej(p[-0.515952759488396, -0.227919332711616, 0.411550176431184, -0.871, -1.583, 1.667], a = 0.2, v = 0.2, t = 0.2)
movej(p[-0.5159281526166, -0.227877314334675, 0.412618082490826, -0.871, -1.583, 1.667], a = 0.2, v = 0.2, t = 0.2)
movej(p[-0.515908432838437, -0.227843641095798, 0.413473895077188, -0.871, -1.583, 1.667], a = 0.2, v = 0.2, t = 0.2)
movej(p[-0.515893512361807, -0.227818163082325, 0.414121424252666, -0.871, -1.583, 1.667], a = 0.2, v = 0.2, t = 0.2)
movej(p[-0.515889503189185, -0.22781131707086, 0.414295417102002, -0.871, -1.583, 1.667], a = 0.2, v = 0.2, t = 0.2)
movej(p[-0.515916455364257, -0.227857340257427, 0.413125727946972, -0.871, -1.583, 1.667], a = 0.2, v = 0.2, t = 0.2)
movej(p[-0.515943507873159, -0.227903534772749, 0.411951684434919, -0.871, -1.583, 1.667], a = 0.2, v = 0.2, t = 0.2)
movej(p[-0.515965982651069, -0.227941912413665, 0.410976308461995, -0.871, -1.583, 1.667], a = 0.2, v = 0.2, t = 0.2)
movej(p[-0.515974753500038, -0.227956889402252, 0.410595665085657, -0.871, -1.583, 1.667], a = 0.2, v = 0.2, t = 0.2)
movej(p[-0.515979473370622, -0.227964948992392, 0.410390828874081, -0.871, -1.583, 1.667], a = 0.2, v = 0.2, t = 0.2)
movej(p[-0.515983570335345, -0.227971944916518, 0.41021302596235, -0.871, -1.583, 1.667], a = 0.2, v = 0.2, t = 0.2)
movej(p[-0.515986032694755, -0.227976149609691, 0.410106162783769, -0.871, -1.583, 1.667], a = 0.2, v = 0.2, t = 0.2)
movej(p[-0.515986241723567, -0.227976506544595, 0.41009709120664, -0.871, -1.583, 1.667], a = 0.2, v = 0.2, t = 0.2)
movej(p[-0.515986262626449, -0.227976542238086, 0.410096184048927, -0.871, -1.583, 1.667], a = 0.2, v = 0.2, t = 0.2)
movej(p[-0.515988833680841, -0.227980932537409, 0.409984603650238, -0.871, -1.583, 1.667], a = 0.2, v = 0.2, t = 0.2)
movej(p[-0.515984352103103, -0.22797327985306, 0.410179098263887, -0.871, -1.583, 1.667], a = 0.2, v = 0.2, t = 0.2)
movej(p[-0.515970305366909, -0.227949293827487, 0.410788708246965, -0.871, -1.583, 1.667], a = 0.2, v = 0.2, t = 0.2)
movej(p[-0.51595258808477, -0.227919040024994, 0.41155761512443, -0.871, -1.583, 1.667], a = 0.2, v = 0.2, t = 0.2)
movej(p[-0.515933328169995, -0.227886152042907, 0.412393470241108, -0.871, -1.583, 1.667], a = 0.2, v = 0.2, t = 0.2)
movej(p[-0.515908311601726, -0.227843434073553, 0.413479156591923, -0.871, -1.583, 1.667], a = 0.2, v = 0.2, t = 0.2)
movej(p[-0.51588459519267, -0.227802936239305, 0.414508417732994, -0.871, -1.583, 1.667], a = 0.2, v = 0.2, t = 0.2)
movej(p[-0.515873270011614, -0.227783597506187, 0.414999915781851, -0.871, -1.583, 1.667], a = 0.2, v = 0.2, t = 0.2)
movej(p[-0.515898859318829, -0.227827293477179, 0.413889373309702, -0.871, -1.583, 1.667], a = 0.2, v = 0.2, t = 0.2)
movej(p[-0.515928562313072, -0.227878013927087, 0.412600302199652, -0.871, -1.583, 1.667], a = 0.2, v = 0.2, t = 0.2)
movej(p[-0.515953144101411, -0.22791998947184, 0.411533484729266, -0.871, -1.583, 1.667], a = 0.2, v = 0.2, t = 0.2)
movej(p[-0.5159716974988, -0.22795167101395, 0.410728291543285, -0.871, -1.583, 1.667], a = 0.2, v = 0.2, t = 0.2)
movej(p[-0.515979164007979, -0.227964420728734, 0.410404254808232, -0.871, -1.583, 1.667], a = 0.2, v = 0.2, t = 0.2)
movej(p[-0.515982362148809, -0.22796988183277, 0.410265459678156, -0.871, -1.583, 1.667], a = 0.2, v = 0.2, t = 0.2)
movej(p[-0.515983900600868, -0.227972508873667, 0.410198692870486, -0.871, -1.583, 1.667], a = 0.2, v = 0.2, t = 0.2)
movej(p[-0.515987107102851, -0.227977984255099, 0.410059534877325, -0.871, -1.583, 1.667], a = 0.2, v = 0.2, t = 0.2)
movej(p[-0.51598671830926, -0.227977320356177, 0.410076408010785, -0.871, -1.583, 1.667], a = 0.2, v = 0.2, t = 0.2)
movej(p[-0.51598668486465, -0.227977263246593, 0.410077859463126, -0.871, -1.583, 1.667], a = 0.2, v = 0.2, t = 0.2)
movej(p[-0.515981342088205, -0.227968139990437, 0.410309728974546, -0.871, -1.583, 1.667], a = 0.2, v = 0.2, t = 0.2)
movej(p[-0.515967228462791, -0.227944039745695, 0.410922241862305, -0.871, -1.583, 1.667], a = 0.2, v = 0.2, t = 0.2)
movej(p[-0.515945288798641, -0.227906575858134, 0.411874394597779, -0.871, -1.583, 1.667], a = 0.2, v = 0.2, t = 0.2)
movej(p[-0.515923298967575, -0.227869026306196, 0.412828724511764, -0.871, -1.583, 1.667], a = 0.2, v = 0.2, t = 0.2)
movej(p[-0.515906714621599, -0.227840707090884, 0.413548463441189, -0.871, -1.583, 1.667], a = 0.2, v = 0.2, t = 0.2)
movej(p[-0.515890013219488, -0.227812187992026, 0.414273282453807, -0.871, -1.583, 1.667], a = 0.2, v = 0.2, t = 0.2)
movej(p[-0.515883416270168, -0.227800923126445, 0.414559581428003, -0.871, -1.583, 1.667], a = 0.2, v = 0.2, t = 0.2)
movej(p[-0.515909386009822, -0.227845268718962, 0.413432528685479, -0.871, -1.583, 1.667], a = 0.2, v = 0.2, t = 0.2)
movej(p[-0.515943980278275, -0.227904341445633, 0.411931182670608, -0.871, -1.583, 1.667], a = 0.2, v = 0.2, t = 0.2)
movej(p[-0.515962040367667, -0.227935180621369, 0.411147398406651, -0.871, -1.583, 1.667], a = 0.2, v = 0.2, t = 0.2)
movej(p[-0.51597186472185, -0.227951956561874, 0.410721034281581, -0.871, -1.583, 1.667], a = 0.2, v = 0.2, t = 0.2)
movej(p[-0.515979005146082, -0.227964149458207, 0.41041114920685, -0.871, -1.583, 1.667], a = 0.2, v = 0.2, t = 0.2)
movej(p[-0.515983913142597, -0.227972530289761, 0.410198148575858, -0.871, -1.583, 1.667], a = 0.2, v = 0.2, t = 0.2)
movej(p[-0.515985004272998, -0.227974393489962, 0.410150794943244, -0.871, -1.583, 1.667], a = 0.2, v = 0.2, t = 0.2)
movej(p[-0.515985602095401, -0.227975414323788, 0.410124850232655, -0.871, -1.583, 1.667], a = 0.2, v = 0.2, t = 0.2)
movej(p[-0.515988302747658, -0.227980025922752, 0.410007645456146, -0.871, -1.583, 1.667], a = 0.2, v = 0.2, t = 0.2)
movej(p[-0.515987437368374, -0.227978548212248, 0.410045201785461, -0.871, -1.583, 1.667], a = 0.2, v = 0.2, t = 0.2)
movej(p[-0.515978482574051, -0.227963257120946, 0.410433828149673, -0.871, -1.583, 1.667], a = 0.2, v = 0.2, t = 0.2)
movej(p[-0.515961116460316, -0.227933602969092, 0.411187494777561, -0.871, -1.583, 1.667], a = 0.2, v = 0.2, t = 0.2)
movej(p[-0.515945844815282, -0.22790752530498, 0.411850264202616, -0.871, -1.583, 1.667], a = 0.2, v = 0.2, t = 0.2)
movej(p[-0.515923462010049, -0.227869304715421, 0.412821648681603, -0.871, -1.583, 1.667], a = 0.2, v = 0.2, t = 0.2)
movej(p[-0.515904682861542, -0.227837237683614, 0.413636639170885, -0.871, -1.583, 1.667], a = 0.2, v = 0.2, t = 0.2)
movej(p[-0.515892028257239, -0.227815628844504, 0.414185832450282, -0.871, -1.583, 1.667], a = 0.2, v = 0.2, t = 0.2)
movej(p[-0.515884866930126, -0.227803400254681, 0.414496624682726, -0.871, -1.583, 1.667], a = 0.2, v = 0.2, t = 0.2)
movej(p[-0.515910773961136, -0.227847638766727, 0.413372293413342, -0.871, -1.583, 1.667], a = 0.2, v = 0.2, t = 0.2)
movej(p[-0.515939582312062, -0.227896831535245, 0.412122048653405, -0.871, -1.583, 1.667], a = 0.2, v = 0.2, t = 0.2)
movej(p[-0.515964122294639, -0.227938735693016, 0.411057045498444, -0.871, -1.583, 1.667], a = 0.2, v = 0.2, t = 0.2)
movej(p[-0.51597405952438, -0.227955704378369, 0.410625782721725, -0.871, -1.583, 1.667], a = 0.2, v = 0.2, t = 0.2)
movej(p[-0.515979883067094, -0.227965648584805, 0.410373048582908, -0.871, -1.583, 1.667], a = 0.2, v = 0.2, t = 0.2)
movej(p[-0.515983712474937, -0.227972187632253, 0.410206857289902, -0.871, -1.583, 1.667], a = 0.2, v = 0.2, t = 0.2)
movej(p[-0.515986772656751, -0.227977413159252, 0.410074049400732, -0.871, -1.583, 1.667], a = 0.2, v = 0.2, t = 0.2)
movej(p[-0.515986425668922, -0.227976820647311, 0.410089108218766, -0.871, -1.583, 1.667], a = 0.2, v = 0.2, t = 0.2)
movej(p[-0.515975978408878, -0.227958981040791, 0.41054250564368, -0.871, -1.583, 1.667], a = 0.2, v = 0.2, t = 0.2)
movej(p[-0.515959632355748, -0.227931068731271, 0.411251902975178, -0.871, -1.583, 1.667], a = 0.2, v = 0.2, t = 0.2)
movej(p[-0.515936170961843, -0.227891006357606, 0.412270096792152, -0.871, -1.583, 1.667], a = 0.2, v = 0.2, t = 0.2)
movej(p[-0.515912479636245, -0.227850551355546, 0.413298269343968, -0.871, -1.583, 1.667], a = 0.2, v = 0.2, t = 0.2)
movej(p[-0.515893558348146, -0.227818241608004, 0.414119428505697, -0.871, -1.583, 1.667], a = 0.2, v = 0.2, t = 0.2)
movej(p[-0.515885360238124, -0.227804242621055, 0.414475215760702, -0.871, -1.583, 1.667], a = 0.2, v = 0.2, t = 0.2)
movej(p[-0.515907161943258, -0.22784147093158, 0.413529050266133, -0.871, -1.583, 1.667], a = 0.2, v = 0.2, t = 0.2)
movej(p[-0.515938110749223, -0.227894318713518, 0.412185912556394, -0.871, -1.583, 1.667], a = 0.2, v = 0.2, t = 0.2)
movej(p[-0.515963085511729, -0.227936965295891, 0.411102040521005, -0.871, -1.583, 1.667], a = 0.2, v = 0.2, t = 0.2)
movej(p[-0.51597459463814, -0.227956618131725, 0.410602559484275, -0.871, -1.583, 1.667], a = 0.2, v = 0.2, t = 0.2)
movej(p[-0.515980171526855, -0.227966141154973, 0.41036052980647, -0.871, -1.583, 1.667], a = 0.2, v = 0.2, t = 0.2)
movej(p[-0.515983035221585, -0.227971031163163, 0.4102362491998, -0.871, -1.583, 1.667], a = 0.2, v = 0.2, t = 0.2)
movej(p[-0.515986964963258, -0.227977741539364, 0.410065703549773, -0.871, -1.583, 1.667], a = 0.2, v = 0.2, t = 0.2)
movej(p[-0.515987169811495, -0.227978091335571, 0.410056813404186, -0.871, -1.583, 1.667], a = 0.2, v = 0.2, t = 0.2)
movej(p[-0.515984582034797, -0.227973672481455, 0.410169119529045, -0.871, -1.583, 1.667], a = 0.2, v = 0.2, t = 0.2)
movej(p[-0.515972638128456, -0.22795327722102, 0.410687469446203, -0.871, -1.583, 1.667], a = 0.2, v = 0.2, t = 0.2)
movej(p[-0.51595042672685, -0.227915349318083, 0.411651415231945, -0.871, -1.583, 1.667], a = 0.2, v = 0.2, t = 0.2)
movej(p[-0.515925380894547, -0.227872581377843, 0.412738371603558, -0.871, -1.583, 1.667], a = 0.2, v = 0.2, t = 0.2)
movej(p[-0.515904569985984, -0.227837044938766, 0.413641537822534, -0.871, -1.583, 1.667], a = 0.2, v = 0.2, t = 0.2)
movej(p[-0.515890213887148, -0.227812530649534, 0.414264573739763, -0.871, -1.583, 1.667], a = 0.2, v = 0.2, t = 0.2)
movej(p[-0.515883320116915, -0.227800758936389, 0.414563754353482, -0.871, -1.583, 1.667], a = 0.2, v = 0.2, t = 0.2)
movej(p[-0.515909210425619, -0.227844968893642, 0.413440148810268, -0.871, -1.583, 1.667], a = 0.2, v = 0.2, t = 0.2)
movej(p[-0.515943925930784, -0.227904248642558, 0.411933541280661, -0.871, -1.583, 1.667], a = 0.2, v = 0.2, t = 0.2)
movej(p[-0.515965062924294, -0.227940341900086, 0.411016223401363, -0.871, -1.583, 1.667], a = 0.2, v = 0.2, t = 0.2)
movej(p[-0.515975585434711, -0.227958310003171, 0.410559560208683, -0.871, -1.583, 1.667], a = 0.2, v = 0.2, t = 0.2)
movej(p[-0.515981354629933, -0.227968161406532, 0.410309184679919, -0.871, -1.583, 1.667], a = 0.2, v = 0.2, t = 0.2)
movej(p[-0.515986676503497, -0.227977248969196, 0.410078222326211, -0.871, -1.583, 1.667], a = 0.2, v = 0.2, t = 0.2)
movej(p[-0.515987006769021, -0.227977812926345, 0.410063889234347, -0.871, -1.583, 1.667], a = 0.2, v = 0.2, t = 0.2)
movej(p[-0.515987107102851, -0.227977984255099, 0.410059534877325, -0.871, -1.583, 1.667], a = 0.2, v = 0.2, t = 0.2)
movej(p[-0.515987646397187, -0.227978905147153, 0.410036130208332, -0.871, -1.583, 1.667], a = 0.2, v = 0.2, t = 0.2)
movej(p[-0.515989264280195, -0.227981667823312, 0.409965916201352, -0.871, -1.583, 1.667], a = 0.2, v = 0.2, t = 0.2)
movej(p[-0.515980514334107, -0.227966726528216, 0.410345652419978, -0.871, -1.583, 1.667], a = 0.2, v = 0.2, t = 0.2)
movej(p[-0.515962801232544, -0.227936479864421, 0.4111143778659, -0.871, -1.583, 1.667], a = 0.2, v = 0.2, t = 0.2)
movej(p[-0.515947788783237, -0.22791084479959, 0.411765898535315, -0.871, -1.583, 1.667], a = 0.2, v = 0.2, t = 0.2)
movej(p[-0.515928817328223, -0.227878449387671, 0.412589234875555, -0.871, -1.583, 1.667], a = 0.2, v = 0.2, t = 0.2)
movej(p[-0.51590850808881, -0.227843769592364, 0.413470629309422, -0.871, -1.583, 1.667], a = 0.2, v = 0.2, t = 0.2)
movej(p[-0.515893533264689, -0.227818198775816, 0.414120517094953, -0.871, -1.583, 1.667], a = 0.2, v = 0.2, t = 0.2)
movej(p[-0.51589715364372, -0.227824380888359, 0.413963397379076, -0.871, -1.583, 1.667], a = 0.2, v = 0.2, t = 0.2)
movej(p[-0.515922366699072, -0.227867434376522, 0.41286918374576, -0.871, -1.583, 1.667], a = 0.2, v = 0.2, t = 0.2)
movej(p[-0.515948842288452, -0.227912643751508, 0.411720177786584, -0.871, -1.583, 1.667], a = 0.2, v = 0.2, t = 0.2)
movej(p[-0.515969628113557, -0.227948137358397, 0.410818100156863, -0.871, -1.583, 1.667], a = 0.2, v = 0.2, t = 0.2)
movej(p[-0.515977567027852, -0.227961693746065, 0.410473561657499, -0.871, -1.583, 1.667], a = 0.2, v = 0.2, t = 0.2)
movej(p[-0.515982328704199, -0.227969824723186, 0.410266911130497, -0.871, -1.583, 1.667], a = 0.2, v = 0.2, t = 0.2)
movej(p[-0.515984661465746, -0.227973808116718, 0.410165672329736, -0.871, -1.583, 1.667], a = 0.2, v = 0.2, t = 0.2)
movej(p[-0.515988666457791, -0.227980646989486, 0.409991860911942, -0.871, -1.583, 1.667], a = 0.2, v = 0.2, t = 0.2)
movej(p[-0.515988892208909, -0.227981032479183, 0.409982063608642, -0.871, -1.583, 1.667], a = 0.2, v = 0.2, t = 0.2)
movej(p[-0.515988503415318, -0.22798036858026, 0.409998936742102, -0.871, -1.583, 1.667], a = 0.2, v = 0.2, t = 0.2)
movej(p[-0.515988089538269, -0.22797966184915, 0.410016898464818, -0.871, -1.583, 1.667], a = 0.2, v = 0.2, t = 0.2)
movej(p[-0.515972579600388, -0.227953177279247, 0.4106900094878, -0.871, -1.583, 1.667], a = 0.2, v = 0.2, t = 0.2)
movej(p[-0.515954745262114, -0.227922723593207, 0.411463996448457, -0.871, -1.583, 1.667], a = 0.2, v = 0.2, t = 0.2)
movej(p[-0.515936124975505, -0.227890927831927, 0.41227209253912, -0.871, -1.583, 1.667], a = 0.2, v = 0.2, t = 0.2)
movej(p[-0.51592132155501, -0.227865649702001, 0.412914541631406, -0.871, -1.583, 1.667], a = 0.2, v = 0.2, t = 0.2)
movej(p[-0.515903090061992, -0.227834517839643, 0.413705764588609, -0.871, -1.583, 1.667], a = 0.2, v = 0.2, t = 0.2)
movej(p[-0.51588998813603, -0.227812145159838, 0.414274371043063, -0.871, -1.583, 1.667], a = 0.2, v = 0.2, t = 0.2)
movej(p[-0.515912120106688, -0.227849937427511, 0.41331387245663, -0.871, -1.583, 1.667], a = 0.2, v = 0.2, t = 0.2)
movej(p[-0.515939590673214, -0.227896845812641, 0.412121685790319, -0.871, -1.583, 1.667], a = 0.2, v = 0.2, t = 0.2)
movej(p[-0.515959310451377, -0.227930519051518, 0.411265873203957, -0.871, -1.583, 1.667], a = 0.2, v = 0.2, t = 0.2)
movej(p[-0.515972215890255, -0.227952556212513, 0.410705794032004, -0.871, -1.583, 1.667], a = 0.2, v = 0.2, t = 0.2)
movej(p[-0.515982357968233, -0.227969874694072, 0.410265641109699, -0.871, -1.583, 1.667], a = 0.2, v = 0.2, t = 0.2)
movej(p[-0.515984962467235, -0.227974322102981, 0.41015260925867, -0.871, -1.583, 1.667], a = 0.2, v = 0.2, t = 0.2)
movej(p[-0.515986124667432, -0.227976306661049, 0.410102171289832, -0.871, -1.583, 1.667], a = 0.2, v = 0.2, t = 0.2)
movej(p[-0.515987671480644, -0.227978947979341, 0.410035041619076, -0.871, -1.583, 1.667], a = 0.2, v = 0.2, t = 0.2)
movej(p[-0.515983474182091, -0.227971780726462, 0.410217198887829, -0.871, -1.583, 1.667], a = 0.2, v = 0.2, t = 0.2)
movej(p[-0.515964996035074, -0.227940227680917, 0.411019126306045, -0.871, -1.583, 1.667], a = 0.2, v = 0.2, t = 0.2)
movej(p[-0.515945961871417, -0.227907725188526, 0.411845184119423, -0.871, -1.583, 1.667], a = 0.2, v = 0.2, t = 0.2)
movej(p[-0.515928900939748, -0.227878592161633, 0.412585606244703, -0.871, -1.583, 1.667], a = 0.2, v = 0.2, t = 0.2)
movej(p[-0.515905932853841, -0.227839372154342, 0.413582391139652, -0.871, -1.583, 1.667], a = 0.2, v = 0.2, t = 0.2)
movej(p[-0.515885427127344, -0.227804356840225, 0.41447231285602, -0.871, -1.583, 1.667], a = 0.2, v = 0.2, t = 0.2)
movej(p[-0.515880531672557, -0.227795997424765, 0.414684769192385, -0.871, -1.583, 1.667], a = 0.2, v = 0.2, t = 0.2)
movej(p[-0.515912508900279, -0.227850601326433, 0.41329699932317, -0.871, -1.583, 1.667], a = 0.2, v = 0.2, t = 0.2)
movej(p[-0.515938700210474, -0.227895325269949, 0.41216033070889, -0.871, -1.583, 1.667], a = 0.2, v = 0.2, t = 0.2)
movej(p[-0.515960171650084, -0.227931989623324, 0.411228498306185, -0.871, -1.583, 1.667], a = 0.2, v = 0.2, t = 0.2)
movej(p[-0.515976337938436, -0.227959594968827, 0.410526902531018, -0.871, -1.583, 1.667], a = 0.2, v = 0.2, t = 0.2)
movej(p[-0.515982429038029, -0.22796999605194, 0.410262556773475, -0.871, -1.583, 1.667], a = 0.2, v = 0.2, t = 0.2)
movej(p[-0.515985330357945, -0.227974950308412, 0.410136643282923, -0.871, -1.583, 1.667], a = 0.2, v = 0.2, t = 0.2)
movej(p[-0.515986571989091, -0.227977070501744, 0.410082758114775, -0.871, -1.583, 1.667], a = 0.2, v = 0.2, t = 0.2)
movej(p[-0.515989983339309, -0.227982895679383, 0.409934709976028, -0.871, -1.583, 1.667], a = 0.2, v = 0.2, t = 0.2)
movej(p[-0.515989899727785, -0.227982752905422, 0.40993833860688, -0.871, -1.583, 1.667], a = 0.2, v = 0.2, t = 0.2)
movej(p[-0.515986199917805, -0.227976435157614, 0.410098905522065, -0.871, -1.583, 1.667], a = 0.2, v = 0.2, t = 0.2)
movej(p[-0.51597389230133, -0.227955418830446, 0.410633039983429, -0.871, -1.583, 1.667], a = 0.2, v = 0.2, t = 0.2)
movej(p[-0.515955376529127, -0.227923801536618, 0.411436600285527, -0.871, -1.583, 1.667], a = 0.2, v = 0.2, t = 0.2)
movej(p[-0.515931735370444, -0.227883432198936, 0.412462595658832, -0.871, -1.583, 1.667], a = 0.2, v = 0.2, t = 0.2)
movej(p[-0.515910029818564, -0.227846368078467, 0.413404588227921, -0.871, -1.583, 1.667], a = 0.2, v = 0.2, t = 0.2)
movej(p[-0.515893366041639, -0.227817913227892, 0.414127774356656, -0.871, -1.583, 1.667], a = 0.2, v = 0.2, t = 0.2)
movej(p[-0.515878261619654, -0.227792121111703, 0.414783286520007, -0.871, -1.583, 1.667], a = 0.2, v = 0.2, t = 0.2)
movej(p[-0.515895832581625, -0.227822125059763, 0.414020729746532, -0.871, -1.583, 1.667], a = 0.2, v = 0.2, t = 0.2)
movej(p[-0.515932228678441, -0.22788427456531, 0.412441186736808, -0.871, -1.583, 1.667], a = 0.2, v = 0.2, t = 0.2)
movej(p[-0.515961200071841, -0.227933745743054, 0.41118386614671, -0.871, -1.583, 1.667], a = 0.2, v = 0.2, t = 0.2)
movej(p[-0.515974264372617, -0.227956054174576, 0.410616892576139, -0.871, -1.583, 1.667], a = 0.2, v = 0.2, t = 0.2)
movej(p[-0.515980894766546, -0.227967376149742, 0.410329142149603, -0.871, -1.583, 1.667], a = 0.2, v = 0.2, t = 0.2)
movej(p[-0.515987048574783, -0.227977884313326, 0.410062074918921, -0.871, -1.583, 1.667], a = 0.2, v = 0.2, t = 0.2)
movej(p[-0.515988164788642, -0.227979790345715, 0.410013632697051, -0.871, -1.583, 1.667], a = 0.2, v = 0.2, t = 0.2)
movej(p[-0.515987621313729, -0.227978862314964, 0.410037218797587, -0.871, -1.583, 1.667], a = 0.2, v = 0.2, t = 0.2)
movej(p[-0.51597519664112, -0.227957646104249, 0.410576433342143, -0.871, -1.583, 1.667], a = 0.2, v = 0.2, t = 0.2)
movej(p[-0.515958052097926, -0.227928370303394, 0.411320484098274, -0.871, -1.583, 1.667], a = 0.2, v = 0.2, t = 0.2)
movej(p[-0.51593450291192, -0.227888158017069, 0.412342487977643, -0.871, -1.583, 1.667], a = 0.2, v = 0.2, t = 0.2)
movej(p[-0.515909896040124, -0.227846139640129, 0.413410394037284, -0.871, -1.583, 1.667], a = 0.2, v = 0.2, t = 0.2)
movej(p[-0.515892308355848, -0.227816107137276, 0.414173676536929, -0.871, -1.583, 1.667], a = 0.2, v = 0.2, t = 0.2)
movej(p[-0.515876923835255, -0.227789836728315, 0.414841344613634, -0.871, -1.583, 1.667], a = 0.2, v = 0.2, t = 0.2)
movej(p[-0.515889152020781, -0.22781071742022, 0.414310657351579, -0.871, -1.583, 1.667], a = 0.2, v = 0.2, t = 0.2)
movej(p[-0.515921764696092, -0.227866406403998, 0.412895309887892, -0.871, -1.583, 1.667], a = 0.2, v = 0.2, t = 0.2)
movej(p[-0.515954406635438, -0.227922145358662, 0.411478692403406, -0.871, -1.583, 1.667], a = 0.2, v = 0.2, t = 0.2)
movej(p[-0.515969887309285, -0.227948579957679, 0.410806851401223, -0.871, -1.583, 1.667], a = 0.2, v = 0.2, t = 0.2)
movej(p[-0.515979046951844, -0.227964220845187, 0.410409334891424, -0.871, -1.583, 1.667], a = 0.2, v = 0.2, t = 0.2)
movej(p[-0.515984406450595, -0.227973372656135, 0.410176739653833, -0.871, -1.583, 1.667], a = 0.2, v = 0.2, t = 0.2)
movej(p[-0.51598821077498, -0.227979868871394, 0.410011636950083, -0.871, -1.583, 1.667], a = 0.2, v = 0.2, t = 0.2)
movej(p[-0.515988369636878, -0.227980140141922, 0.410004742551465, -0.871, -1.583, 1.667], a = 0.2, v = 0.2, t = 0.2)
movej(p[-0.515983143916568, -0.227971216769313, 0.410231531979693, -0.871, -1.583, 1.667], a = 0.2, v = 0.2, t = 0.2)
movej(p[-0.51596677277998, -0.227943261627604, 0.410942017900447, -0.871, -1.583, 1.667], a = 0.2, v = 0.2, t = 0.2)
movej(p[-0.515941517918865, -0.227900136752459, 0.412038045849189, -0.871, -1.583, 1.667], a = 0.2, v = 0.2, t = 0.2)
movej(p[-0.515916447003105, -0.227857325980031, 0.413126090810057, -0.871, -1.583, 1.667], a = 0.2, v = 0.2, t = 0.2)
movej(p[-0.515895510677254, -0.227821575380011, 0.414034699975311, -0.871, -1.583, 1.667], a = 0.2, v = 0.2, t = 0.2)
movej(p[-0.515878909608973, -0.227793227609907, 0.414755164630907, -0.871, -1.583, 1.667], a = 0.2, v = 0.2, t = 0.2)
movej(p[-0.515878922150701, -0.227793249026001, 0.414754620336279, -0.871, -1.583, 1.667], a = 0.2, v = 0.2, t = 0.2)
movej(p[-0.5159102346668, -0.227846717874674, 0.413395698082335, -0.871, -1.583, 1.667], a = 0.2, v = 0.2, t = 0.2)
movej(p[-0.515944101514986, -0.227904548467877, 0.411925921155873, -0.871, -1.583, 1.667], a = 0.2, v = 0.2, t = 0.2)
movej(p[-0.515964021960808, -0.227938564364262, 0.411061399855466, -0.871, -1.583, 1.667], a = 0.2, v = 0.2, t = 0.2)
movej(p[-0.515976592953587, -0.22796003042941, 0.41051583520692, -0.871, -1.583, 1.667], a = 0.2, v = 0.2, t = 0.2)
movej(p[-0.515982391412843, -0.227969931803657, 0.410264189657358, -0.871, -1.583, 1.667], a = 0.2, v = 0.2, t = 0.2)
movej(p[-0.515988202413828, -0.227979854593998, 0.410011999813168, -0.871, -1.583, 1.667], a = 0.2, v = 0.2, t = 0.2)
movej(p[-0.515988963278705, -0.22798115383705, 0.409978979272418, -0.871, -1.583, 1.667], a = 0.2, v = 0.2, t = 0.2)
movej(p[-0.515989117960026, -0.227981417968879, 0.409972266305343, -0.871, -1.583, 1.667], a = 0.2, v = 0.2, t = 0.2)
movej(p[-0.515991116275473, -0.227984830266565, 0.409885542027988, -0.871, -1.583, 1.667], a = 0.2, v = 0.2, t = 0.2)
movej(p[-0.51598211549481, -0.227969460649583, 0.410276164139169, -0.871, -1.583, 1.667], a = 0.2, v = 0.2, t = 0.2)
movej(p[-0.515963428318981, -0.227937550669134, 0.411087163134513, -0.871, -1.583, 1.667], a = 0.2, v = 0.2, t = 0.2)
movej(p[-0.515943792152344, -0.227904020204219, 0.411939347090024, -0.871, -1.583, 1.667], a = 0.2, v = 0.2, t = 0.2)
movej(p[-0.515926304801898, -0.22787415903012, 0.412698275232647, -0.871, -1.583, 1.667], a = 0.2, v = 0.2, t = 0.2)
movej(p[-0.515902868491451, -0.227834139488644, 0.413715380460366, -0.871, -1.583, 1.667], a = 0.2, v = 0.2, t = 0.2)
movej(p[-0.515883951383928, -0.2278018368798, 0.414536358190552, -0.871, -1.583, 1.667], a = 0.2, v = 0.2, t = 0.2)
movej(p[-0.515888136140752, -0.227808982716585, 0.414354745216427, -0.871, -1.583, 1.667], a = 0.2, v = 0.2, t = 0.2)
movej(p[-0.515911058240321, -0.227848124198197, 0.413359956068446, -0.871, -1.583, 1.667], a = 0.2, v = 0.2, t = 0.2)
movej(p[-0.515936488685638, -0.227891548898661, 0.412256307994916, -0.871, -1.583, 1.667], a = 0.2, v = 0.2, t = 0.2)
movej(p[-0.515958687545516, -0.227929455385503, 0.411292906503802, -0.871, -1.583, 1.667], a = 0.2, v = 0.2, t = 0.2)
movej(p[-0.515975827908133, -0.22795872404766, 0.410549037179213, -0.871, -1.583, 1.667], a = 0.2, v = 0.2, t = 0.2)
movej(p[-0.515981254296103, -0.227967990077777, 0.410313539036941, -0.871, -1.583, 1.667], a = 0.2, v = 0.2, t = 0.2)
movej(p[-0.515984674007474, -0.227973829532813, 0.410165128035108, -0.871, -1.583, 1.667], a = 0.2, v = 0.2, t = 0.2)
movej(p[-0.515987374659731, -0.227978441131777, 0.4100479232586, -0.871, -1.583, 1.667], a = 0.2, v = 0.2, t = 0.2)
movej(p[-0.515990050228529, -0.227983009898553, 0.409931807071347, -0.871, -1.583, 1.667], a = 0.2, v = 0.2, t = 0.2)
movej(p[-0.515990004242191, -0.227982931372874, 0.409933802818315, -0.871, -1.583, 1.667], a = 0.2, v = 0.2, t = 0.2)
movej(p[-0.515982776025858, -0.227970588563881, 0.410247497955441, -0.871, -1.583, 1.667], a = 0.2, v = 0.2, t = 0.2)
movej(p[-0.51596910136095, -0.227947237882438, 0.410840960531228, -0.871, -1.583, 1.667], a = 0.2, v = 0.2, t = 0.2)
movej(p[-0.515948424230827, -0.227911929881699, 0.411738320940842, -0.871, -1.583, 1.667], a = 0.2, v = 0.2, t = 0.2)
movej(p[-0.515925631729122, -0.227873009699728, 0.412727485711003, -0.871, -1.583, 1.667], a = 0.2, v = 0.2, t = 0.2)
movej(p[-0.515906886025225, -0.227840999777506, 0.413541024747944, -0.871, -1.583, 1.667], a = 0.2, v = 0.2, t = 0.2)
movej(p[-0.515892433773135, -0.227816321298219, 0.414168233590652, -0.871, -1.583, 1.667], a = 0.2, v = 0.2, t = 0.2)
movej(p[-0.515887417081638, -0.227807754860514, 0.414385951441751, -0.871, -1.583, 1.667], a = 0.2, v = 0.2, t = 0.2)
movej(p[-0.515910627640967, -0.227847388912294, 0.413378643517332, -0.871, -1.583, 1.667], a = 0.2, v = 0.2, t = 0.2)
movej(p[-0.515944904185626, -0.22790591909791, 0.411891086299697, -0.871, -1.583, 1.667], a = 0.2, v = 0.2, t = 0.2)
movej(p[-0.515963449221863, -0.227937586362624, 0.4110862559768, -0.871, -1.583, 1.667], a = 0.2, v = 0.2, t = 0.2)
movej(p[-0.515975092126714, -0.227957467636797, 0.410580969130707, -0.871, -1.583, 1.667], a = 0.2, v = 0.2, t = 0.2)
movej(p[-0.515981827035049, -0.227968968079415, 0.410288682915607, -0.871, -1.583, 1.667], a = 0.2, v = 0.2, t = 0.2)
movej(p[-0.515988294386505, -0.227980011645356, 0.410008008319231, -0.871, -1.583, 1.667], a = 0.2, v = 0.2, t = 0.2)
movej(p[-0.515989285183076, -0.227981703516803, 0.409965009043639, -0.871, -1.583, 1.667], a = 0.2, v = 0.2, t = 0.2)
movej(p[-0.515989427322669, -0.227981946232538, 0.409958840371192, -0.871, -1.583, 1.667], a = 0.2, v = 0.2, t = 0.2)
movej(p[-0.515991057747405, -0.227984730324792, 0.409888082069584, -0.871, -1.583, 1.667], a = 0.2, v = 0.2, t = 0.2)
movej(p[-0.515980551959294, -0.227966790776499, 0.410344019536095, -0.871, -1.583, 1.667], a = 0.2, v = 0.2, t = 0.2)
movej(p[-0.515959293729072, -0.227930490496726, 0.411266598930127, -0.871, -1.583, 1.667], a = 0.2, v = 0.2, t = 0.2)
movej(p[-0.515935953571878, -0.227890635145305, 0.412279531232366, -0.871, -1.583, 1.667], a = 0.2, v = 0.2, t = 0.2)
movej(p[-0.51591252980316, -0.227850637019923, 0.413296092165457, -0.871, -1.583, 1.667], a = 0.2, v = 0.2, t = 0.2)
movej(p[-0.515887471429129, -0.227807847663589, 0.414383592831697, -0.871, -1.583, 1.667], a = 0.2, v = 0.2, t = 0.2)
movej(p[-0.515869666354888, -0.227777443948436, 0.415156309771557, -0.871, -1.583, 1.667], a = 0.2, v = 0.2, t = 0.2)
movej(p[-0.515882153736141, -0.227798767239622, 0.414614373753863, -0.871, -1.583, 1.667], a = 0.2, v = 0.2, t = 0.2)
movej(p[-0.515919816547561, -0.227863079770689, 0.412979856986735, -0.871, -1.583, 1.667], a = 0.2, v = 0.2, t = 0.2)
movej(p[-0.515950121544783, -0.227914828193123, 0.411664659734554, -0.871, -1.583, 1.667], a = 0.2, v = 0.2, t = 0.2)
movej(p[-0.515968382301835, -0.227946010026367, 0.410872166756553, -0.871, -1.583, 1.667], a = 0.2, v = 0.2, t = 0.2)
movej(p[-0.515982546094164, -0.227970195935486, 0.410257476690283, -0.871, -1.583, 1.667], a = 0.2, v = 0.2, t = 0.2)
movej(p[-0.515985660623469, -0.227975514265561, 0.410122310191058, -0.871, -1.583, 1.667], a = 0.2, v = 0.2, t = 0.2)
movej(p[-0.515987604591424, -0.227978833760172, 0.410037944523758, -0.871, -1.583, 1.667], a = 0.2, v = 0.2, t = 0.2)
movej(p[-0.51598941478094, -0.227981924816443, 0.409959384665819, -0.871, -1.583, 1.667], a = 0.2, v = 0.2, t = 0.2)
movej(p[-0.515991538513674, -0.227985551275072, 0.409867217442187, -0.871, -1.583, 1.667], a = 0.2, v = 0.2, t = 0.2)
movej(p[-0.51598395494836, -0.227972601676742, 0.410196334260432, -0.871, -1.583, 1.667], a = 0.2, v = 0.2, t = 0.2)
movej(p[-0.515963950891012, -0.227938443006395, 0.41106448419169, -0.871, -1.583, 1.667], a = 0.2, v = 0.2, t = 0.2)
movej(p[-0.515944690976237, -0.227905555024308, 0.411900339308369, -0.871, -1.583, 1.667], a = 0.2, v = 0.2, t = 0.2)
movej(p[-0.515918570735839, -0.227860952438659, 0.413033923586425, -0.871, -1.583, 1.667], a = 0.2, v = 0.2, t = 0.2)
movej(p[-0.515893136109945, -0.227817520599497, 0.414137753091498, -0.871, -1.583, 1.667], a = 0.2, v = 0.2, t = 0.2)
movej(p[-0.515878437203857, -0.227792420937023, 0.414775666395219, -0.871, -1.583, 1.667], a = 0.2, v = 0.2, t = 0.2)
movej(p[-0.515878876164363, -0.227793170500322, 0.414756616083247, -0.871, -1.583, 1.667], a = 0.2, v = 0.2, t = 0.2)
movej(p[-0.515904988043609, -0.227837758808574, 0.413623394668276, -0.871, -1.583, 1.667], a = 0.2, v = 0.2, t = 0.2)
movej(p[-0.515937492023938, -0.227893262186202, 0.412212764424696, -0.871, -1.583, 1.667], a = 0.2, v = 0.2, t = 0.2)
movej(p[-0.515964465101891, -0.22793932106626, 0.411042168111953, -0.871, -1.583, 1.667], a = 0.2, v = 0.2, t = 0.2)
movej(p[-0.515976158173657, -0.227959288004809, 0.410534704087349, -0.871, -1.583, 1.667], a = 0.2, v = 0.2, t = 0.2)
movej(p[-0.515981969174642, -0.22796921079515, 0.410282514243159, -0.871, -1.583, 1.667], a = 0.2, v = 0.2, t = 0.2)
movej(p[-0.515986321154516, -0.227976642179859, 0.41009364400733, -0.871, -1.583, 1.667], a = 0.2, v = 0.2, t = 0.2)
movej(p[-0.515989933172395, -0.227982810015006, 0.409936887154539, -0.871, -1.583, 1.667], a = 0.2, v = 0.2, t = 0.2)
movej(p[-0.515989924811242, -0.22798279573761, 0.409937250017624, -0.871, -1.583, 1.667], a = 0.2, v = 0.2, t = 0.2)
movej(p[-0.515981939910608, -0.227969160824264, 0.410283784263957, -0.871, -1.583, 1.667], a = 0.2, v = 0.2, t = 0.2)
movej(p[-0.515965865594934, -0.227941712530119, 0.410981388545187, -0.871, -1.583, 1.667], a = 0.2, v = 0.2, t = 0.2)
movej(p[-0.515939548867452, -0.22789677442566, 0.412123500105745, -0.871, -1.583, 1.667], a = 0.2, v = 0.2, t = 0.2)
movej(p[-0.515912508900279, -0.227850601326433, 0.41329699932317, -0.871, -1.583, 1.667], a = 0.2, v = 0.2, t = 0.2)
movej(p[-0.515891141975075, -0.22781411544051, 0.41422429593731, -0.871, -1.583, 1.667], a = 0.2, v = 0.2, t = 0.2)
movej(p[-0.515874064321101, -0.227784953858824, 0.41496544378876, -0.871, -1.583, 1.667], a = 0.2, v = 0.2, t = 0.2)
movej(p[-0.515875013311909, -0.22778657434329, 0.414924258828594, -0.871, -1.583, 1.667], a = 0.2, v = 0.2, t = 0.2)
movej(p[-0.515906518134515, -0.227840371572074, 0.413556990723691, -0.871, -1.583, 1.667], a = 0.2, v = 0.2, t = 0.2)
movej(p[-0.515943332288957, -0.227903234947429, 0.411959304559708, -0.871, -1.583, 1.667], a = 0.2, v = 0.2, t = 0.2)
movej(p[-0.515962090534582, -0.227935266285746, 0.41114522122814, -0.871, -1.583, 1.667], a = 0.2, v = 0.2, t = 0.2)
movej(p[-0.515974669888513, -0.22795674662829, 0.410599293716508, -0.871, -1.583, 1.667], a = 0.2, v = 0.2, t = 0.2)
movej(p[-0.515982077869624, -0.227969396401301, 0.410277797023052, -0.871, -1.583, 1.667], a = 0.2, v = 0.2, t = 0.2)
movej(p[-0.515988294386505, -0.227980011645356, 0.410008008319231, -0.871, -1.583, 1.667], a = 0.2, v = 0.2, t = 0.2)
movej(p[-0.515989143043484, -0.227981460801068, 0.409971177716087, -0.871, -1.583, 1.667], a = 0.2, v = 0.2, t = 0.2)
movej(p[-0.51598941478094, -0.227981924816443, 0.409959384665819, -0.871, -1.583, 1.667], a = 0.2, v = 0.2, t = 0.2)
movej(p[-0.515984949925507, -0.227974300686886, 0.410153153553298, -0.871, -1.583, 1.667], a = 0.2, v = 0.2, t = 0.2)
movej(p[-0.515961818797126, -0.22793480227037, 0.411157014278407, -0.871, -1.583, 1.667], a = 0.2, v = 0.2, t = 0.2)
movej(p[-0.515934615787479, -0.227888350761918, 0.412337589325993, -0.871, -1.583, 1.667], a = 0.2, v = 0.2, t = 0.2)
movej(p[-0.515909896040124, -0.227846139640129, 0.413410394037284, -0.871, -1.583, 1.667], a = 0.2, v = 0.2, t = 0.2)
movej(p[-0.5158898878022, -0.227811973831084, 0.414278725400085, -0.871, -1.583, 1.667], a = 0.2, v = 0.2, t = 0.2)
movej(p[-0.515868980740383, -0.22777627320195, 0.415186064544541, -0.871, -1.583, 1.667], a = 0.2, v = 0.2, t = 0.2)
movej(p[-0.515870824374509, -0.227779421367806, 0.415106053234262, -0.871, -1.583, 1.667], a = 0.2, v = 0.2, t = 0.2)
movej(p[-0.515903892732632, -0.227835888469675, 0.413670929732433, -0.871, -1.583, 1.667], a = 0.2, v = 0.2, t = 0.2)
movej(p[-0.515935723640185, -0.227890242516911, 0.412289509967208, -0.871, -1.583, 1.667], a = 0.2, v = 0.2, t = 0.2)
movej(p[-0.515958938380091, -0.227929883707388, 0.411282020611247, -0.871, -1.583, 1.667], a = 0.2, v = 0.2, t = 0.2)
movej(p[-0.515973332104113, -0.227954462244902, 0.410657351810135, -0.871, -1.583, 1.667], a = 0.2, v = 0.2, t = 0.2)
movej(p[-0.515984230866392, -0.227973072830815, 0.410184359778622, -0.871, -1.583, 1.667], a = 0.2, v = 0.2, t = 0.2)
movej(p[-0.515987600410848, -0.227978826621474, 0.4100381259553, -0.871, -1.583, 1.667], a = 0.2, v = 0.2, t = 0.2)
movej(p[-0.515988950736976, -0.227981132420956, 0.409979523567046, -0.871, -1.583, 1.667], a = 0.2, v = 0.2, t = 0.2)
movej(p[-0.515991045205677, -0.227984708908697, 0.409888626364212, -0.871, -1.583, 1.667], a = 0.2, v = 0.2, t = 0.2)
movej(p[-0.515989506753617, -0.227982081867801, 0.409955393171882, -0.871, -1.583, 1.667], a = 0.2, v = 0.2, t = 0.2)
movej(p[-0.515975961686573, -0.227958952485999, 0.41054323136985, -0.871, -1.583, 1.667], a = 0.2, v = 0.2, t = 0.2)
movej(p[-0.515953198448902, -0.227920082274915, 0.411531126119213, -0.871, -1.583, 1.667], a = 0.2, v = 0.2, t = 0.2)
movej(p[-0.515931852426579, -0.227883632082482, 0.41245751557564, -0.871, -1.583, 1.667], a = 0.2, v = 0.2, t = 0.2)
movej(p[-0.515905619310622, -0.227838836751985, 0.413595998505346, -0.871, -1.583, 1.667], a = 0.2, v = 0.2, t = 0.2)
movej(p[-0.515882931323323, -0.227800095037467, 0.414580627486942, -0.871, -1.583, 1.667], a = 0.2, v = 0.2, t = 0.2)
movej(p[-0.515873830208831, -0.227784554091731, 0.414975603955145, -0.871, -1.583, 1.667], a = 0.2, v = 0.2, t = 0.2)
movej(p[-0.515894904493698, -0.227820540268788, 0.414061007548986, -0.871, -1.583, 1.667], a = 0.2, v = 0.2, t = 0.2)
movej(p[-0.515925899286002, -0.227873466576406, 0.412715874092278, -0.871, -1.583, 1.667], a = 0.2, v = 0.2, t = 0.2)
movej(p[-0.515952441764601, -0.227918790170561, 0.41156396522842, -0.871, -1.583, 1.667], a = 0.2, v = 0.2, t = 0.2)
movej(p[-0.515973474243706, -0.227954704960637, 0.410651183137687, -0.871, -1.583, 1.667], a = 0.2, v = 0.2, t = 0.2)
movej(p[-0.515980907308275, -0.227967397565836, 0.410328597854975, -0.871, -1.583, 1.667], a = 0.2, v = 0.2, t = 0.2)
movej(p[-0.515985535206182, -0.227975300104619, 0.410127753137336, -0.871, -1.583, 1.667], a = 0.2, v = 0.2, t = 0.2)
movej(p[-0.515987838703694, -0.227979233527265, 0.410027784357373, -0.871, -1.583, 1.667], a = 0.2, v = 0.2, t = 0.2)
movej(p[-0.515991580319436, -0.227985622662053, 0.409865403126761, -0.871, -1.583, 1.667], a = 0.2, v = 0.2, t = 0.2)
