def moving():
set_payload_mass(0.606)
set_tcp(p[0.0005,0.0025,0.058,0,0,0])
movej(p[0.5359, 0.0125, 0.1626, -1.263, 1.183, -1.155], a = 0.2, v = 0.2, t = 0.2)
movej(p[0.536008715768837, 0.0124068925151484, 0.162697528856605, -1.2611951163603, 1.18136264918527, -1.15321089796327], a = 0.2, v = 0.2, t = 0.2)
movej(p[0.5359, 0.0125, 0.1626, -1.263, 1.183, -1.155], a = 0.2, v = 0.2, t = 0.2)
movej(p[0.536008715768837, 0.0124068925151484, 0.162697528856605, -1.2611951163603, 1.18136264918527, -1.15321089796327], a = 0.2, v = 0.2, t = 0.2)
movej(p[0.5359, 0.0125, 0.1626, -1.263, 1.183, -1.155], a = 0.2, v = 0.2, t = 0.2)
movej(p[0.536008715768837, 0.0124068925151484, 0.162697528856605, -1.2611951163603, 1.18136264918527, -1.15321089796327], a = 0.2, v = 0.2, t = 0.2)
movej(p[0.5359, 0.0125, 0.1626, -1.263, 1.183, -1.155], a = 0.2, v = 0.2, t = 0.2)
movej(p[0.535364993045664, 0.0121531182276411, 0.162468176481927, -1.26727705595008, 1.19685222057493, -1.13957762812854], a = 0.2, v = 0.2, t = 0.2)
movej(p[0.534390079918987, 0.0117720579078616, 0.162122205668675, -1.27258596888322, 1.22194151055892, -1.12061289911538], a = 0.2, v = 0.2, t = 0.2)
movej(p[0.532864653791367, 0.0111494132371811, 0.161769151135142, -1.27639241901746, 1.25127371194198, -1.12319485143624], a = 0.2, v = 0.2, t = 0.2)
movej(p[0.531232484109079, 0.0105230308536704, 0.161925368424351, -1.28825058795128, 1.28538611948736, -1.10864961603896], a = 0.2, v = 0.2, t = 0.2)
movej(p[0.529515222327787, 0.00971136281373558, 0.162372293228272, -1.30044538639163, 1.31239541702177, -1.10828260383381], a = 0.2, v = 0.2, t = 0.2)
movej(p[0.527957119377103, 0.00910437014054376, 0.162836956720331, -1.30314295756299, 1.33034117510371, -1.11899374482609], a = 0.2, v = 0.2, t = 0.2)
movej(p[0.526704882257838, 0.008720183846199, 0.163015550033251, -1.29922090837612, 1.34315828655964, -1.13858798930861], a = 0.2, v = 0.2, t = 0.2)
movej(p[0.526004238407619, 0.00862295545643769, 0.163453598273717, -1.29528316220108, 1.35443155617263, -1.13998542172989], a = 0.2, v = 0.2, t = 0.2)
movej(p[0.525740753891453, 0.00870277122515358, 0.164130929778746, -1.29210999654226, 1.35442636439482, -1.14790811272454], a = 0.2, v = 0.2, t = 0.2)
movej(p[0.525802516069983, 0.00888712976958909, 0.164869794563667, -1.28761335973005, 1.34612927762079, -1.16691905989788], a = 0.2, v = 0.2, t = 0.2)
movej(p[0.526763752059303, 0.00937989316859081, 0.164894899452418, -1.28154634952478, 1.3228164082574, -1.18007819737424], a = 0.2, v = 0.2, t = 0.2)
movej(p[0.528060339157117, 0.010078950887458, 0.16528450765751, -1.27778873340887, 1.30102360014234, -1.18017613174196], a = 0.2, v = 0.2, t = 0.2)
movej(p[0.529588411073289, 0.0109766807064993, 0.165797379991536, -1.2665032963295, 1.26920704546107, -1.19226569109201], a = 0.2, v = 0.2, t = 0.2)
movej(p[0.530984970277052, 0.0119209222644969, 0.166217808882236, -1.25862730892465, 1.24143113144636, -1.20663327372563], a = 0.2, v = 0.2, t = 0.2)
movej(p[0.532271075182432, 0.012699994774716, 0.166381469145521, -1.2567333547537, 1.2173805336427, -1.19577580179015], a = 0.2, v = 0.2, t = 0.2)
movej(p[0.533083091498941, 0.0132402854237092, 0.166603066383624, -1.25729753803226, 1.20215154399578, -1.18355978145293], a = 0.2, v = 0.2, t = 0.2)
movej(p[0.533466462974875, 0.0134982889815777, 0.166900389028519, -1.25848939300029, 1.18554312421073, -1.1821743305936], a = 0.2, v = 0.2, t = 0.2)
movej(p[0.533748165305275, 0.013680498640796, 0.166738381568398, -1.25623864700267, 1.17787298415253, -1.1945252929147], a = 0.2, v = 0.2, t = 0.2)
movej(p[0.534100785725568, 0.0136244088886596, 0.166236706704669, -1.25813973754449, 1.17427589289052, -1.1850116888875], a = 0.2, v = 0.2, t = 0.2)
movej(p[0.534252684044919, 0.0134018439493491, 0.165793133327573, -1.25447998357032, 1.18130084407484, -1.17677252843749], a = 0.2, v = 0.2, t = 0.2)
movej(p[0.534263594221817, 0.0130911887425498, 0.165659999056521, -1.24789710550991, 1.18005576059247, -1.18646804320328], a = 0.2, v = 0.2, t = 0.2)
movej(p[0.534431935431557, 0.0129766411982661, 0.165410590023803, -1.2458246864111, 1.1864041222403, -1.19084970241199], a = 0.2, v = 0.2, t = 0.2)
movej(p[0.534414428382746, 0.012744946150699, 0.165223012198155, -1.25204602425988, 1.19120175613191, -1.18091537461751], a = 0.2, v = 0.2, t = 0.2)
movej(p[0.534331197858586, 0.0126311455840866, 0.164886463455048, -1.24720548109632, 1.18718403098565, -1.17333601728218], a = 0.2, v = 0.2, t = 0.2)
movej(p[0.534409373821885, 0.0126667604912657, 0.164523986678897, -1.23906511391512, 1.1763767847833, -1.18040302317744], a = 0.2, v = 0.2, t = 0.2)
movej(p[0.534920376999716, 0.0128301922643242, 0.164050912517795, -1.23582785517285, 1.17369976641259, -1.17235810982297], a = 0.2, v = 0.2, t = 0.2)
movej(p[0.535268972307958, 0.0128749331086665, 0.163546968339915, -1.23541662258497, 1.17541802364611, -1.16178558820504], a = 0.2, v = 0.2, t = 0.2)
movej(p[0.535273378729793, 0.0127010095739217, 0.163289714935256, -1.24202181293915, 1.18218758332557, -1.14688921475388], a = 0.2, v = 0.2, t = 0.2)
movej(p[0.535223804801413, 0.0123973789089496, 0.162310401497925, -1.25343404772291, 1.18830231534909, -1.14478821268315], a = 0.2, v = 0.2, t = 0.2)
movej(p[0.534920024327536, 0.0119178626912957, 0.161680687141233, -1.27088291499671, 1.21109223794562, -1.12081713372769], a = 0.2, v = 0.2, t = 0.2)
movej(p[0.533877642977847, 0.0111133547045481, 0.16146787396923, -1.28717621511682, 1.23344018124336, -1.11521929781287], a = 0.2, v = 0.2, t = 0.2)
movej(p[0.532183137047613, 0.0104354314298441, 0.162056148926727, -1.28843805971945, 1.26125036113356, -1.12016941855476], a = 0.2, v = 0.2, t = 0.2)
movej(p[0.530617672670124, 0.00993422098919039, 0.162644038725407, -1.29142156639894, 1.28308814531769, -1.12813612668814], a = 0.2, v = 0.2, t = 0.2)
movej(p[0.529367176803436, 0.00970395872108166, 0.163336372064329, -1.29023171676736, 1.30366806376267, -1.13172171701292], a = 0.2, v = 0.2, t = 0.2)
movej(p[0.528689600892043, 0.00967156273894704, 0.1637784553537, -1.27819778235524, 1.30690827675756, -1.15133289652599], a = 0.2, v = 0.2, t = 0.2)
movej(p[0.52897198371104, 0.0100703788243631, 0.164038842876344, -1.2653558885208, 1.29586095055045, -1.18563347965617], a = 0.2, v = 0.2, t = 0.2)
movej(p[0.530298176094198, 0.0107243120823629, 0.164072043884383, -1.26131106108723, 1.26886315735531, -1.1906845931351], a = 0.2, v = 0.2, t = 0.2)
movej(p[0.531711206938173, 0.0115168316406968, 0.164529957262365, -1.25911683805784, 1.2449643438035, -1.18095129216753], a = 0.2, v = 0.2, t = 0.2)
movej(p[0.532610719106859, 0.0122342677213206, 0.165165277045333, -1.25137188497565, 1.21598977966103, -1.18696799007335], a = 0.2, v = 0.2, t = 0.2)
movej(p[0.533326400935557, 0.0128107477975762, 0.165344703015519, -1.24330833467672, 1.19835678524996, -1.19215267561205], a = 0.2, v = 0.2, t = 0.2)
movej(p[0.533872029953951, 0.0130654121135132, 0.165236957219433, -1.24537586960266, 1.18342382968477, -1.18878829590506], a = 0.2, v = 0.2, t = 0.2)
movej(p[0.534252706523159, 0.0130313817776678, 0.165188417484182, -1.24779194035059, 1.17262054103594, -1.17733799312955], a = 0.2, v = 0.2, t = 0.2)
movej(p[0.534413281836532, 0.0129968314998213, 0.16494468492186, -1.24715415599655, 1.1680875880079, -1.18372268107348], a = 0.2, v = 0.2, t = 0.2)
movej(p[0.534655360200821, 0.0128237729048082, 0.164220727024027, -1.25862985066571, 1.17874547582248, -1.16890815703813], a = 0.2, v = 0.2, t = 0.2)
movej(p[0.534337467384009, 0.0123345393372213, 0.163502039781757, -1.27364703816017, 1.19845458607018, -1.15065041923628], a = 0.2, v = 0.2, t = 0.2)
movej(p[0.533281794644772, 0.0115628438552155, 0.163251929683439, -1.28980571809812, 1.21994711727284, -1.13092587557717], a = 0.2, v = 0.2, t = 0.2)
movej(p[0.531777585129661, 0.0109618325775405, 0.16324826559348, -1.2928346237823, 1.24200565700397, -1.13956861743358], a = 0.2, v = 0.2, t = 0.2)
movej(p[0.53038540406691, 0.0105605324256964, 0.163322776738607, -1.29542375798677, 1.2662842763298, -1.14043255819108], a = 0.2, v = 0.2, t = 0.2)
movej(p[0.529202854459591, 0.0101605490099936, 0.163623152862648, -1.29443028549664, 1.28920033933034, -1.14744214429713], a = 0.2, v = 0.2, t = 0.2)
movej(p[0.528670409849516, 0.0100084999609081, 0.164085746418887, -1.28192005108189, 1.29002683545471, -1.17035382690017], a = 0.2, v = 0.2, t = 0.2)
movej(p[0.529352182627791, 0.0103830789496069, 0.164306467306047, -1.26913810074848, 1.27778346929566, -1.19464528438593], a = 0.2, v = 0.2, t = 0.2)
movej(p[0.530692784666733, 0.0110380075441938, 0.164558640598006, -1.26272317804437, 1.25746263296006, -1.18902781513001], a = 0.2, v = 0.2, t = 0.2)
movej(p[0.531921684971827, 0.01174253837242, 0.165121553502299, -1.25978206925537, 1.23191778276862, -1.18657134112809], a = 0.2, v = 0.2, t = 0.2)
movej(p[0.532609250200522, 0.0124040497408151, 0.165820240840801, -1.25630804348547, 1.21000286108099, -1.18732867787837], a = 0.2, v = 0.2, t = 0.2)
movej(p[0.533310992270929, 0.0128878027752617, 0.166105457960996, -1.25585181999181, 1.19288644960543, -1.18776457141349], a = 0.2, v = 0.2, t = 0.2)
movej(p[0.533774045858833, 0.0130901912701685, 0.166061098340176, -1.25484881546427, 1.18687036864751, -1.17656054690672], a = 0.2, v = 0.2, t = 0.2)
movej(p[0.53410013804334, 0.0130784124777554, 0.165838312417702, -1.24903719596766, 1.17499907307364, -1.17550981618877], a = 0.2, v = 0.2, t = 0.2)
movej(p[0.534327860530936, 0.0130343635503621, 0.165153199185719, -1.2498365218826, 1.17011120423866, -1.18335595124704], a = 0.2, v = 0.2, t = 0.2)
movej(p[0.534671894218539, 0.0128260261395794, 0.164201422835591, -1.2594280498057, 1.18022911872225, -1.1678813557429], a = 0.2, v = 0.2, t = 0.2)
movej(p[0.534350670076349, 0.0124471318268142, 0.163442523680253, -1.27176529626048, 1.20973296938242, -1.14280888231742], a = 0.2, v = 0.2, t = 0.2)
movej(p[0.533452559972369, 0.0119007348257077, 0.163055334479402, -1.27384406494646, 1.23229139617463, -1.13207179817882], a = 0.2, v = 0.2, t = 0.2)
movej(p[0.532585997226204, 0.0116211793014212, 0.162893970170464, -1.27407928705951, 1.24380828359413, -1.1395760232021], a = 0.2, v = 0.2, t = 0.2)
movej(p[0.531939272394012, 0.011235652194714, 0.16290831185516, -1.27646131915807, 1.25177124963339, -1.14598003156635], a = 0.2, v = 0.2, t = 0.2)
movej(p[0.531762934193152, 0.010958729181484, 0.163050804429216, -1.27135329104019, 1.24667612157116, -1.16319730896934], a = 0.2, v = 0.2, t = 0.2)
movej(p[0.531920790294403, 0.0110978454949683, 0.163777925869018, -1.26361820318328, 1.23821165387967, -1.17487089543931], a = 0.2, v = 0.2, t = 0.2)
movej(p[0.532809252944549, 0.0116706859830921, 0.164068709929898, -1.25318648290574, 1.22065792729843, -1.18400623430477], a = 0.2, v = 0.2, t = 0.2)
movej(p[0.533559621610431, 0.0121807313502275, 0.164507002106792, -1.25384152561325, 1.21237514582788, -1.16867244897658], a = 0.2, v = 0.2, t = 0.2)
movej(p[0.534027336332882, 0.0125228996635839, 0.164624715630814, -1.24322739457681, 1.19740374529253, -1.17132591773496], a = 0.2, v = 0.2, t = 0.2)
movej(p[0.534236779028539, 0.012756971333296, 0.16467104141493, -1.23465050388035, 1.18075762712612, -1.18140228465706], a = 0.2, v = 0.2, t = 0.2)
movej(p[0.534873609247694, 0.012991275799223, 0.164232340615276, -1.23001694810852, 1.17169506721203, -1.1768359701873], a = 0.2, v = 0.2, t = 0.2)
movej(p[0.535209473205041, 0.0128733421355842, 0.163765994379592, -1.24044206379667, 1.17546662590055, -1.16047335787697], a = 0.2, v = 0.2, t = 0.2)
movej(p[0.535083984885804, 0.0125712694399969, 0.163368023243936, -1.24894351156476, 1.1861817887167, -1.14938253941407], a = 0.2, v = 0.2, t = 0.2)
movej(p[0.53463770830371, 0.0121367810492753, 0.162925889284594, -1.26323220542703, 1.20708927102423, -1.13950335855173], a = 0.2, v = 0.2, t = 0.2)
movej(p[0.534146761868885, 0.0116566443970649, 0.162441328113702, -1.27588384356038, 1.22805701312965, -1.12601855253331], a = 0.2, v = 0.2, t = 0.2)
movej(p[0.533576773479489, 0.0112109565793458, 0.162283639955646, -1.28077324229946, 1.24365233646658, -1.12207026578048], a = 0.2, v = 0.2, t = 0.2)
movej(p[0.532906473151573, 0.0110053108957628, 0.162614512932685, -1.27117774402818, 1.24760188432204, -1.13822485679043], a = 0.2, v = 0.2, t = 0.2)
movej(p[0.532981230858276, 0.0112845026200476, 0.162685789557068, -1.25583172446914, 1.24194852399168, -1.15872866332782], a = 0.2, v = 0.2, t = 0.2)
movej(p[0.533431822410775, 0.0114360290389893, 0.162798055885987, -1.2530843642201, 1.23216896760384, -1.1609850970692], a = 0.2, v = 0.2, t = 0.2)
movej(p[0.534003791176312, 0.0115388930744705, 0.162997928910318, -1.24962855624004, 1.2150177491189, -1.16799418354025], a = 0.2, v = 0.2, t = 0.2)
movej(p[0.534317353783751, 0.0117448091964386, 0.163455558926848, -1.24354221790395, 1.19674985002941, -1.17686439155867], a = 0.2, v = 0.2, t = 0.2)
movej(p[0.53485739457025, 0.0120114137977515, 0.163485344312134, -1.24202167214822, 1.18381878074431, -1.17917144600496], a = 0.2, v = 0.2, t = 0.2)
movej(p[0.535245511127884, 0.0122220763219411, 0.163244685977783, -1.24141239626966, 1.18054946157004, -1.163036238068], a = 0.2, v = 0.2, t = 0.2)
movej(p[0.535505558588317, 0.0121534453492835, 0.162996438252085, -1.23715575844839, 1.17431445870746, -1.16319257961681], a = 0.2, v = 0.2, t = 0.2)
movej(p[0.535659767846102, 0.0122678437369023, 0.162703857852059, -1.23129310673382, 1.17511085760075, -1.17032954705721], a = 0.2, v = 0.2, t = 0.2)
movej(p[0.535998714986621, 0.0121658931792851, 0.161901846409517, -1.24177081100063, 1.1903068427319, -1.16164988791873], a = 0.2, v = 0.2, t = 0.2)
movej(p[0.535949560346655, 0.0117997938631975, 0.161231579123236, -1.26056093233831, 1.20973750096189, -1.13116435843994], a = 0.2, v = 0.2, t = 0.2)
movej(p[0.535266194750788, 0.0112664661632436, 0.161039911905517, -1.26852192865967, 1.2261756209745, -1.12136764565862], a = 0.2, v = 0.2, t = 0.2)
movej(p[0.534382803180388, 0.0109702736028043, 0.161036301173409, -1.26383222083894, 1.23692896220787, -1.13256836779394], a = 0.2, v = 0.2, t = 0.2)
movej(p[0.533889738272771, 0.010794699391898, 0.161117063499659, -1.26659027912108, 1.2464054747585, -1.13013517869054], a = 0.2, v = 0.2, t = 0.2)
movej(p[0.533790286958365, 0.0107680777297611, 0.16120107197047, -1.26122595739376, 1.24794869943183, -1.13667353770388], a = 0.2, v = 0.2, t = 0.2)
movej(p[0.533937617106397, 0.0109351078289309, 0.161791375641771, -1.25219322044516, 1.23523361665241, -1.14641300955867], a = 0.2, v = 0.2, t = 0.2)
movej(p[0.53454419099974, 0.0113856835682128, 0.161894553583137, -1.23563412684777, 1.21525131586483, -1.17374163583241], a = 0.2, v = 0.2, t = 0.2)
movej(p[0.535106910604039, 0.0116902387061162, 0.161994830247995, -1.23893784106536, 1.20839580374253, -1.16064091316297], a = 0.2, v = 0.2, t = 0.2)
movej(p[0.535434887089792, 0.0117168424884668, 0.161886696051471, -1.24370001879258, 1.20322314725531, -1.14583662108393], a = 0.2, v = 0.2, t = 0.2)
movej(p[0.535487119105938, 0.0117843461071437, 0.162038001509915, -1.23985651587004, 1.19686644053036, -1.15045753915643], a = 0.2, v = 0.2, t = 0.2)
movej(p[0.535839247080586, 0.0119599640154911, 0.161698415638568, -1.23708521735812, 1.19200044084085, -1.16107608562271], a = 0.2, v = 0.2, t = 0.2)
movej(p[0.536243403881407, 0.0120362652929804, 0.16112396927219, -1.24742172877576, 1.20032448081136, -1.13885605138143], a = 0.2, v = 0.2, t = 0.2)
movej(p[0.536110286737115, 0.0117713426312159, 0.160553006462123, -1.25479284538682, 1.21157658631744, -1.12183570227542], a = 0.2, v = 0.2, t = 0.2)
movej(p[0.535500022710677, 0.0113819260870579, 0.16024707370338, -1.25576090161965, 1.22658406151079, -1.12089271902524], a = 0.2, v = 0.2, t = 0.2)
movej(p[0.534907904885357, 0.0109437084972874, 0.159941750807, -1.25893998241115, 1.2396314862707, -1.12864029766804], a = 0.2, v = 0.2, t = 0.2)
movej(p[0.534317556407935, 0.010604719398646, 0.160131312818508, -1.26919266072274, 1.25972026564027, -1.11836067217753], a = 0.2, v = 0.2, t = 0.2)
movej(p[0.533952430944462, 0.0103863375533735, 0.160650050686394, -1.27101796891735, 1.25980756308295, -1.11997095129815], a = 0.2, v = 0.2, t = 0.2)
movej(p[0.533896446015528, 0.0105181144849239, 0.161451924777535, -1.26241623505075, 1.25303483476441, -1.14037046054457], a = 0.2, v = 0.2, t = 0.2)
movej(p[0.534536987724416, 0.0109843486403942, 0.161512039346883, -1.25068236443599, 1.23417581829847, -1.15353571098976], a = 0.2, v = 0.2, t = 0.2)
movej(p[0.534972689585776, 0.0112155060577903, 0.16163474993033, -1.25220086394528, 1.23111849245358, -1.13958891956367], a = 0.2, v = 0.2, t = 0.2)
movej(p[0.5352663538146, 0.0112531967498867, 0.161652891772534, -1.24708719572041, 1.21455668050617, -1.14380772304353], a = 0.2, v = 0.2, t = 0.2)
movej(p[0.535453488361837, 0.0112635415946323, 0.161677958264458, -1.24200286594053, 1.1999123279858, -1.15664610457733], a = 0.2, v = 0.2, t = 0.2)
movej(p[0.535970342149713, 0.0114335352230083, 0.161284124284615, -1.24171890885572, 1.19474662592866, -1.15031457802383], a = 0.2, v = 0.2, t = 0.2)
movej(p[0.536260023598132, 0.011528173325611, 0.160944309722734, -1.24473728732331, 1.2043542609905, -1.13034235805149], a = 0.2, v = 0.2, t = 0.2)
movej(p[0.536179978283406, 0.011405225685698, 0.160541001830509, -1.24548523392627, 1.21375738774262, -1.12620803514454], a = 0.2, v = 0.2, t = 0.2)
movej(p[0.535860022862532, 0.0112171667956315, 0.159898301886454, -1.24608874780869, 1.22874523921602, -1.13324153353472], a = 0.2, v = 0.2, t = 0.2)
movej(p[0.535537627409821, 0.010831759715491, 0.15924813006478, -1.25733538882628, 1.24503297081171, -1.12418337125971], a = 0.2, v = 0.2, t = 0.2)
movej(p[0.534830071430721, 0.0104606700719303, 0.159093563184496, -1.26710829712473, 1.2647726764687, -1.11372054229422], a = 0.2, v = 0.2, t = 0.2)
movej(p[0.533904301815148, 0.0101429262250124, 0.159586252494942, -1.26656399563884, 1.27218565203223, -1.11945058531327], a = 0.2, v = 0.2, t = 0.2)
movej(p[0.533521021561985, 0.0100829142385876, 0.159983171351915, -1.26107959093725, 1.26770968516253, -1.14295044397834], a = 0.2, v = 0.2, t = 0.2)
movej(p[0.533723538386867, 0.0101426710559066, 0.160104233313009, -1.2598566320297, 1.25928750696377, -1.14429630754439], a = 0.2, v = 0.2, t = 0.2)
movej(p[0.534283885254898, 0.0102113460211223, 0.160322687762816, -1.25366169966573, 1.24055445364679, -1.1494956189729], a = 0.2, v = 0.2, t = 0.2)
movej(p[0.534701484572668, 0.010569604118796, 0.160690957019269, -1.24163953834657, 1.22454250693832, -1.15887254159925], a = 0.2, v = 0.2, t = 0.2)
movej(p[0.535218117320065, 0.0109516857972895, 0.160845091275283, -1.23637361598439, 1.21359830163098, -1.16726826416145], a = 0.2, v = 0.2, t = 0.2)
movej(p[0.535699639163035, 0.0112697602200752, 0.160693249980464, -1.23735075224029, 1.21302579683728, -1.15073991825215], a = 0.2, v = 0.2, t = 0.2)
movej(p[0.535952564349894, 0.0113129931866775, 0.160534337593873, -1.23638624799052, 1.2105827709473, -1.1401986710099], a = 0.2, v = 0.2, t = 0.2)
movej(p[0.53607709381218, 0.0113716744132206, 0.16050620484507, -1.22446080841584, 1.20421174835316, -1.15149341819121], a = 0.2, v = 0.2, t = 0.2)
movej(p[0.536431330553824, 0.0114738915538812, 0.160047110579015, -1.22908735512682, 1.20400804555735, -1.14954668503012], a = 0.2, v = 0.2, t = 0.2)
movej(p[0.536613530028203, 0.0113507591428847, 0.159441899905119, -1.2447769493739, 1.21257768425445, -1.13097304154367], a = 0.2, v = 0.2, t = 0.2)
movej(p[0.536308095250025, 0.0109787865771017, 0.159022845947991, -1.25815723807861, 1.22149705571338, -1.11604049254022], a = 0.2, v = 0.2, t = 0.2)
movej(p[0.53558080500415, 0.0106392976994251, 0.158855428448639, -1.25606411427024, 1.23485565788226, -1.12725461089801], a = 0.2, v = 0.2, t = 0.2)
movej(p[0.534961268955024, 0.0103918158616839, 0.158772385605347, -1.25895151097158, 1.25125937299884, -1.12315831573129], a = 0.2, v = 0.2, t = 0.2)
movej(p[0.534249430822087, 0.0101632688374412, 0.15911268069818, -1.26817760803801, 1.27248046531967, -1.11128586995244], a = 0.2, v = 0.2, t = 0.2)
movej(p[0.533561251496397, 0.00992411359138578, 0.159547103929576, -1.26890965519781, 1.2797629970818, -1.11530517503332], a = 0.2, v = 0.2, t = 0.2)
movej(p[0.533197732246382, 0.0100203037551086, 0.160026308757673, -1.25598754566911, 1.2756369420467, -1.13850779125888], a = 0.2, v = 0.2, t = 0.2)
movej(p[0.533646739375065, 0.0102686237122278, 0.159881595602474, -1.24766985151078, 1.2609788794553, -1.14848718242977], a = 0.2, v = 0.2, t = 0.2)
movej(p[0.534300534162615, 0.0104757450946249, 0.160051460692259, -1.24898882562415, 1.24956918286706, -1.14081819142818], a = 0.2, v = 0.2, t = 0.2)
movej(p[0.534738045913391, 0.010719959597057, 0.160549095683728, -1.242318071384, 1.23629053231883, -1.14312733992568], a = 0.2, v = 0.2, t = 0.2)
movej(p[0.535101291781666, 0.0108784016471006, 0.160962640846992, -1.24095326119096, 1.22412753254449, -1.15209482141767], a = 0.2, v = 0.2, t = 0.2)
movej(p[0.535572353331055, 0.0110801722320108, 0.160857826054845, -1.24051132099932, 1.21927901852113, -1.14457104771515], a = 0.2, v = 0.2, t = 0.2)
movej(p[0.535902805979572, 0.0110585630625633, 0.1606592921046, -1.24296772115874, 1.21633851662927, -1.13609584312582], a = 0.2, v = 0.2, t = 0.2)
movej(p[0.5360651052493, 0.0110952977278526, 0.160438928426133, -1.23354217137711, 1.21184555132656, -1.13938613105983], a = 0.2, v = 0.2, t = 0.2)
movej(p[0.536419114391798, 0.0111797111573813, 0.15969583703233, -1.22784240569535, 1.20625810283663, -1.13300235273673], a = 0.2, v = 0.2, t = 0.2)
movej(p[0.536710286406329, 0.0111510610328878, 0.158979561533084, -1.23530186418202, 1.20901102761955, -1.11747241855063], a = 0.2, v = 0.2, t = 0.2)
movej(p[0.536488028103866, 0.0108384341775826, 0.158388106655323, -1.25278945761874, 1.23150806063916, -1.08740031191875], a = 0.2, v = 0.2, t = 0.2)
movej(p[0.535671437128122, 0.0104217015286401, 0.158569369797024, -1.25771425205191, 1.24677239054414, -1.10668700243133], a = 0.2, v = 0.2, t = 0.2)
movej(p[0.534986999556718, 0.0101989809782651, 0.158765765071128, -1.25614560997119, 1.26430941556115, -1.12175452910964], a = 0.2, v = 0.2, t = 0.2)
movej(p[0.534752446320951, 0.0101352637784623, 0.15895279778923, -1.25912683742425, 1.27675717434786, -1.11364226531604], a = 0.2, v = 0.2, t = 0.2)
movej(p[0.534758296632461, 0.0100960868018157, 0.159292249211905, -1.25646902581711, 1.27554870048306, -1.11226427303104], a = 0.2, v = 0.2, t = 0.2)
movej(p[0.53493014666763, 0.0102084382531477, 0.15979320814914, -1.24723382876955, 1.25659845318387, -1.1336636173187], a = 0.2, v = 0.2, t = 0.2)
movej(p[0.53542575144332, 0.0104558932792134, 0.159692067425451, -1.24183136064252, 1.24036782681809, -1.15042622082054], a = 0.2, v = 0.2, t = 0.2)
movej(p[0.535833734189049, 0.0107264249557095, 0.159673548456134, -1.24368463073317, 1.23620557067907, -1.13941955782662], a = 0.2, v = 0.2, t = 0.2)
movej(p[0.536098288857331, 0.0107351448336716, 0.159426597152749, -1.24048410865033, 1.22446525713891, -1.13670236555942], a = 0.2, v = 0.2, t = 0.2)
movej(p[0.536176513644861, 0.0108072860549619, 0.159423927376243, -1.23302743282561, 1.21857565962613, -1.14433509992094], a = 0.2, v = 0.2, t = 0.2)
movej(p[0.536619144571946, 0.0108628033483324, 0.158506784603211, -1.23356448034718, 1.21183603354491, -1.15166240758527], a = 0.2, v = 0.2, t = 0.2)
movej(p[0.536727312357082, 0.0108008479000715, 0.158064073990294, -1.24896245153441, 1.22928600046536, -1.12245013109442], a = 0.2, v = 0.2, t = 0.2)
movej(p[0.536302243291487, 0.0105155661178579, 0.157752943930976, -1.2569265566337, 1.24169141994961, -1.11133379114973], a = 0.2, v = 0.2, t = 0.2)
movej(p[0.535439381944953, 0.0101075278186536, 0.158123574903023, -1.26177035029292, 1.25598365695896, -1.11233556259092], a = 0.2, v = 0.2, t = 0.2)
movej(p[0.534876893288799, 0.00986198521445387, 0.158194831069217, -1.26642943692683, 1.27126952197613, -1.10990248095471], a = 0.2, v = 0.2, t = 0.2)
movej(p[0.534576933071257, 0.00971401043379143, 0.158429765085868, -1.27214378264593, 1.28288877900428, -1.10122638734714], a = 0.2, v = 0.2, t = 0.2)
movej(p[0.534496789324127, 0.00976663691020979, 0.159008186795156, -1.25957559339949, 1.276976465735, -1.11453912136069], a = 0.2, v = 0.2, t = 0.2)
movej(p[0.534772028886945, 0.0101705670689776, 0.159509433730207, -1.24006767171115, 1.26009214463898, -1.13839145528685], a = 0.2, v = 0.2, t = 0.2)
movej(p[0.535395069053623, 0.0104984795870885, 0.159664852542684, -1.23588152749858, 1.24682996059683, -1.14145710266563], a = 0.2, v = 0.2, t = 0.2)
movej(p[0.535821586313026, 0.0106941213355761, 0.159573979533882, -1.23669636796573, 1.2407551242919, -1.13122133494927], a = 0.2, v = 0.2, t = 0.2)
movej(p[0.536020125649755, 0.0107655991686347, 0.159683270927146, -1.23205702549782, 1.23500524394045, -1.13093003339826], a = 0.2, v = 0.2, t = 0.2)
movej(p[0.53630273974611, 0.0109722581904162, 0.159452937999935, -1.22404073448797, 1.22844955375533, -1.14935612528007], a = 0.2, v = 0.2, t = 0.2)
movej(p[0.536720194548567, 0.0110849740583695, 0.158986632637412, -1.23303751002659, 1.22654087688409, -1.1332677823469], a = 0.2, v = 0.2, t = 0.2)
movej(p[0.536805897146606, 0.0109237018959511, 0.158489734888959, -1.24623737925757, 1.2322318578448, -1.11259355888518], a = 0.2, v = 0.2, t = 0.2)
movej(p[0.536309866734805, 0.0106402070885565, 0.158113823982427, -1.24936519159638, 1.24177053573915, -1.10480667630867], a = 0.2, v = 0.2, t = 0.2)
movej(p[0.535767126870152, 0.0102697406750749, 0.157836912971092, -1.25006159654246, 1.25689524108098, -1.11633514054593], a = 0.2, v = 0.2, t = 0.2)
movej(p[0.535118607361227, 0.00987000916521101, 0.157905829000186, -1.27012345669757, 1.28002224160356, -1.09458738317751], a = 0.2, v = 0.2, t = 0.2)
movej(p[0.534121310416248, 0.00943906411948059, 0.158383869002272, -1.28578238997622, 1.29742664155324, -1.07887864602794], a = 0.2, v = 0.2, t = 0.2)
movej(p[0.532644612045887, 0.00918715443684197, 0.159066084748769, -1.28820498936065, 1.31351596158247, -1.08139617395981], a = 0.2, v = 0.2, t = 0.2)
movej(p[0.531129859424599, 0.00896998829146718, 0.159704846489642, -1.28791805871518, 1.3279954980382, -1.09554194166952], a = 0.2, v = 0.2, t = 0.2)
movej(p[0.529727005919442, 0.00876919919456447, 0.160283519628498, -1.28995418566843, 1.34176810091215, -1.10115575637563], a = 0.2, v = 0.2, t = 0.2)
movej(p[0.528767875743133, 0.00848494603538079, 0.160940519823618, -1.28992736834003, 1.34350983632887, -1.11548617738008], a = 0.2, v = 0.2, t = 0.2)
movej(p[0.528503434882167, 0.00869013157349203, 0.161539349779449, -1.27022522553627, 1.3379164753736, -1.14680458146924], a = 0.2, v = 0.2, t = 0.2)
movej(p[0.529556418974981, 0.00934510886264854, 0.16167692252737, -1.25556193455312, 1.3181313961944, -1.16477476852236], a = 0.2, v = 0.2, t = 0.2)
movej(p[0.531009823535766, 0.0102906628925183, 0.162178878204481, -1.24902093771391, 1.30073788579507, -1.15656852622262], a = 0.2, v = 0.2, t = 0.2)
movej(p[0.532387072044158, 0.0111852485289758, 0.162529358967971, -1.23941928724669, 1.26658046716215, -1.16557039862599], a = 0.2, v = 0.2, t = 0.2)
movej(p[0.53316746901083, 0.0117456840633895, 0.163280401165638, -1.23542840338339, 1.24000420127993, -1.17893207948366], a = 0.2, v = 0.2, t = 0.2)
movej(p[0.533933078217133, 0.0121450958586823, 0.1634243425044, -1.23363225682941, 1.22097590237599, -1.18258436959616], a = 0.2, v = 0.2, t = 0.2)
movej(p[0.534452479184607, 0.0122680730743786, 0.163507231036217, -1.23875074798104, 1.21443112893368, -1.1702115931652], a = 0.2, v = 0.2, t = 0.2)
movej(p[0.534687747672113, 0.0123037778020758, 0.163282353826819, -1.23866798046413, 1.21019664705133, -1.16433240517195], a = 0.2, v = 0.2, t = 0.2)
movej(p[0.534696681037417, 0.0121580071204827, 0.16264075931435, -1.24322734751761, 1.21437330136105, -1.16289869667576], a = 0.2, v = 0.2, t = 0.2)
movej(p[0.534688287590663, 0.0117601679887599, 0.161714757881987, -1.25863303121712, 1.23002863972862, -1.14109098708083], a = 0.2, v = 0.2, t = 0.2)
movej(p[0.534091314286258, 0.0111764170074482, 0.161321170022743, -1.27564097724353, 1.25354327239874, -1.11893968271866], a = 0.2, v = 0.2, t = 0.2)
movej(p[0.533128258626202, 0.010559557629166, 0.16153808132503, -1.28281623879586, 1.26663285100217, -1.11462388135336], a = 0.2, v = 0.2, t = 0.2)
movej(p[0.532143385665699, 0.0103668679525957, 0.162029303837353, -1.28512433741255, 1.27880179805843, -1.12096042691809], a = 0.2, v = 0.2, t = 0.2)
movej(p[0.531298985255876, 0.0101324968833919, 0.162406504393837, -1.28784974229017, 1.29122695369054, -1.12042651815385], a = 0.2, v = 0.2, t = 0.2)
movej(p[0.530706798544813, 0.0099679687032225, 0.162625570107198, -1.28395504628116, 1.29866234226095, -1.13235865617027], a = 0.2, v = 0.2, t = 0.2)
movej(p[0.530634994763381, 0.00995713023018482, 0.162979517252086, -1.27220199651682, 1.28895504283512, -1.15673034212773], a = 0.2, v = 0.2, t = 0.2)
movej(p[0.531446664386495, 0.0103821221759056, 0.16307912514628, -1.25743420097655, 1.26793736523282, -1.1836872018996], a = 0.2, v = 0.2, t = 0.2)
movej(p[0.532662311163791, 0.0110454374292099, 0.163373147263105, -1.25485362213937, 1.24543188870342, -1.16881123191501], a = 0.2, v = 0.2, t = 0.2)
movej(p[0.533526817146509, 0.0116369706250976, 0.163610264115541, -1.24717159503609, 1.22317852615122, -1.16507963932277], a = 0.2, v = 0.2, t = 0.2)
movej(p[0.533943147704144, 0.0120036629108811, 0.163942536028778, -1.23939961475918, 1.20101854090048, -1.17983298228405], a = 0.2, v = 0.2, t = 0.2)
movej(p[0.534481482807762, 0.012237900280303, 0.163484176688654, -1.24003364582987, 1.19335647628227, -1.19212896760491], a = 0.2, v = 0.2, t = 0.2)
movej(p[0.534755498467462, 0.0121429594434673, 0.162997238491097, -1.25531340498206, 1.20044038050379, -1.1683411447713], a = 0.2, v = 0.2, t = 0.2)
movej(p[0.534468241941102, 0.0118169867509598, 0.162363413943526, -1.26635313038995, 1.21883740606608, -1.14321552468708], a = 0.2, v = 0.2, t = 0.2)
movej(p[0.533590453064376, 0.0112946851709829, 0.162215225044992, -1.27565042234924, 1.23942873472089, -1.13494694509438], a = 0.2, v = 0.2, t = 0.2)
movej(p[0.532840900100149, 0.0108562717061009, 0.162223424174744, -1.28424597016069, 1.25903318100911, -1.13214297102329], a = 0.2, v = 0.2, t = 0.2)
movej(p[0.532034381127721, 0.0104448726206888, 0.162544170230271, -1.29607275159343, 1.27642932644705, -1.12663871644474], a = 0.2, v = 0.2, t = 0.2)
movej(p[0.530981310517761, 0.0100178860461727, 0.162928320483715, -1.30089221628036, 1.28597249711733, -1.12643864634116], a = 0.2, v = 0.2, t = 0.2)
movej(p[0.529919678783419, 0.00976460750805043, 0.163255126145944, -1.2957183985243, 1.29440307290943, -1.14636429473909], a = 0.2, v = 0.2, t = 0.2)
movej(p[0.529626108131939, 0.00975158572952309, 0.163143039668733, -1.28722690161582, 1.29248961940703, -1.15974991482976], a = 0.2, v = 0.2, t = 0.2)
movej(p[0.530123089933868, 0.0100861170434403, 0.163418646412047, -1.27575399768736, 1.28566825217017, -1.16368099233023], a = 0.2, v = 0.2, t = 0.2)
movej(p[0.531042485060039, 0.0106493861324083, 0.163814435120182, -1.26168309570824, 1.2610771744316, -1.17826197718157], a = 0.2, v = 0.2, t = 0.2)
movej(p[0.532145111623268, 0.0114896521619318, 0.164386882742318, -1.25159380485095, 1.23866218713635, -1.18504541018729], a = 0.2, v = 0.2, t = 0.2)
movej(p[0.533103907083319, 0.0120835372494007, 0.164662072692475, -1.25479165564326, 1.21821833397033, -1.17314280098533], a = 0.2, v = 0.2, t = 0.2)
movej(p[0.533684180320856, 0.0123966515697678, 0.164791923857831, -1.2537596222497, 1.20432747137921, -1.16538015508895], a = 0.2, v = 0.2, t = 0.2)
movej(p[0.533953821412145, 0.012474792766424, 0.164925915910944, -1.24837026925852, 1.18874433308188, -1.17537588603492], a = 0.2, v = 0.2, t = 0.2)
movej(p[0.534510585931777, 0.0126611587737936, 0.164137814673215, -1.24327700324584, 1.18407246075656, -1.18048910092961], a = 0.2, v = 0.2, t = 0.2)
movej(p[0.534808268347073, 0.012487843984762, 0.163426229618718, -1.2566930392476, 1.19739680103059, -1.15502743532214], a = 0.2, v = 0.2, t = 0.2)
movej(p[0.534459817950742, 0.0120154918092312, 0.162830928163232, -1.27254429642078, 1.21923333508544, -1.12857881151732], a = 0.2, v = 0.2, t = 0.2)
movej(p[0.533446103436461, 0.0113290628336873, 0.162883446746322, -1.28197098874557, 1.23999692232384, -1.12351858858987], a = 0.2, v = 0.2, t = 0.2)
movej(p[0.532565545253512, 0.0109817026661652, 0.162890621323712, -1.28660520374407, 1.25809733008114, -1.12385695058253], a = 0.2, v = 0.2, t = 0.2)
movej(p[0.531656406887062, 0.0106502257020135, 0.163283548006167, -1.29360863062192, 1.27731662038098, -1.12083615297627], a = 0.2, v = 0.2, t = 0.2)
movej(p[0.530814286182956, 0.0103981245971905, 0.163575956847968, -1.29111640551782, 1.28540483878225, -1.13362672842462], a = 0.2, v = 0.2, t = 0.2)
movej(p[0.530477432433217, 0.0104084963768566, 0.163866024892353, -1.27929558831768, 1.28187619919815, -1.16169440830604], a = 0.2, v = 0.2, t = 0.2)
movej(p[0.531106702137002, 0.0107593250079462, 0.163865135225426, -1.26903936377035, 1.27020969620515, -1.16714937903585], a = 0.2, v = 0.2, t = 0.2)
movej(p[0.532109147523556, 0.0111527073391, 0.164068308103813, -1.26498554787864, 1.25595890071916, -1.16041349450838], a = 0.2, v = 0.2, t = 0.2)
movej(p[0.532883400482394, 0.0116729128066362, 0.164531848009512, -1.25507500019496, 1.23091483157013, -1.16371582013388], a = 0.2, v = 0.2, t = 0.2)
movej(p[0.533450135562133, 0.0121575622362464, 0.164948037134636, -1.25032388302257, 1.21166961071037, -1.17253217288567], a = 0.2, v = 0.2, t = 0.2)
movej(p[0.534070598622295, 0.0125466738679371, 0.164852497069966, -1.24524860527651, 1.19735115586213, -1.16919104201982], a = 0.2, v = 0.2, t = 0.2)
movej(p[0.534569226225632, 0.0126214638687518, 0.164546667847411, -1.23987256542112, 1.19010599877715, -1.16520973234121], a = 0.2, v = 0.2, t = 0.2)
movej(p[0.534772687656603, 0.0125782991983306, 0.164118267256568, -1.23435525492261, 1.18497836739415, -1.16806829386889], a = 0.2, v = 0.2, t = 0.2)
movej(p[0.534993944650542, 0.0124211068900732, 0.163391603301578, -1.24471711763192, 1.18732839150632, -1.16053969699249], a = 0.2, v = 0.2, t = 0.2)
movej(p[0.534858079612385, 0.0119544926856586, 0.162762735036096, -1.26988791585294, 1.20240084090993, -1.13070014142359], a = 0.2, v = 0.2, t = 0.2)
movej(p[0.53427392810297, 0.0114002747082273, 0.162381756905439, -1.27951399504094, 1.21975413549039, -1.1205687795391], a = 0.2, v = 0.2, t = 0.2)
movej(p[0.533236854991331, 0.0110263221710467, 0.162658886376881, -1.27886776887121, 1.24240458935703, -1.12123027735289], a = 0.2, v = 0.2, t = 0.2)
movej(p[0.532630981145333, 0.011010264325604, 0.162707207925484, -1.27021642859002, 1.2574649284119, -1.13284147630368], a = 0.2, v = 0.2, t = 0.2)
movej(p[0.532515279143838, 0.0110089217409605, 0.16298876682328, -1.26911922678798, 1.26542541592409, -1.13125122829716], a = 0.2, v = 0.2, t = 0.2)
movej(p[0.53284426921967, 0.0110916539512132, 0.163265357566962, -1.25824263219892, 1.25138998645184, -1.14805522714167], a = 0.2, v = 0.2, t = 0.2)
movej(p[0.533407438685365, 0.0114121085925431, 0.163734575866114, -1.25018873527563, 1.23259290595696, -1.16593876185069], a = 0.2, v = 0.2, t = 0.2)
movej(p[0.53416003808501, 0.0118145700151698, 0.163773166992708, -1.24937474126705, 1.21800458614232, -1.15704176498582], a = 0.2, v = 0.2, t = 0.2)
movej(p[0.534668178153572, 0.012068039756816, 0.163724044012426, -1.24845298625907, 1.21240149666056, -1.14698064625692], a = 0.2, v = 0.2, t = 0.2)
movej(p[0.534934883873428, 0.0121000989799816, 0.163681060182839, -1.24140259443872, 1.20037983815408, -1.15085471211635], a = 0.2, v = 0.2, t = 0.2)
movej(p[0.53529155748856, 0.0121720892454504, 0.163263191921486, -1.23578068199301, 1.18867345151941, -1.16714331533616], a = 0.2, v = 0.2, t = 0.2)
movej(p[0.535866428758207, 0.012109525232051, 0.162582313950563, -1.24790140580487, 1.18836133709966, -1.15198380431412], a = 0.2, v = 0.2, t = 0.2)
movej(p[0.53592981780577, 0.0119691635878903, 0.161824108520161, -1.25464084221391, 1.20205187946691, -1.13458179525307], a = 0.2, v = 0.2, t = 0.2)
movej(p[0.535328266414623, 0.0116085401340021, 0.161713881443165, -1.25910938496731, 1.2213188957918, -1.1211215874847], a = 0.2, v = 0.2, t = 0.2)
movej(p[0.534531617277674, 0.0113239306491254, 0.161664511953432, -1.26228191281385, 1.23959446838424, -1.12782917078921], a = 0.2, v = 0.2, t = 0.2)
movej(p[0.533792455360633, 0.0110174646597135, 0.161785309828538, -1.27050653129206, 1.25518713334332, -1.1265130830366], a = 0.2, v = 0.2, t = 0.2)
movej(p[0.533304115257299, 0.010767332030292, 0.161962211828456, -1.272388706364, 1.25817787006847, -1.13787096400498], a = 0.2, v = 0.2, t = 0.2)
movej(p[0.533091771917009, 0.0108914056709941, 0.162384089573682, -1.25769551650484, 1.25236866857469, -1.15311564735085], a = 0.2, v = 0.2, t = 0.2)
movej(p[0.533589792427688, 0.0112454118686975, 0.16247970172684, -1.24657475312266, 1.23799794729504, -1.16574607949175], a = 0.2, v = 0.2, t = 0.2)
movej(p[0.534140802323078, 0.0115339062739382, 0.162583034467551, -1.24432289130215, 1.23283174657557, -1.15373513122424], a = 0.2, v = 0.2, t = 0.2)
movej(p[0.534506266782575, 0.0116541734976341, 0.16266749284529, -1.24186955397771, 1.21879824808824, -1.15882353659461], a = 0.2, v = 0.2, t = 0.2)
movej(p[0.534776452236546, 0.0118297477504322, 0.162665689868402, -1.23105061431318, 1.19846961273679, -1.1729399194338], a = 0.2, v = 0.2, t = 0.2)
movej(p[0.535314940938801, 0.0120192048326312, 0.162256578737054, -1.22484056924763, 1.18594700718628, -1.17678533463434], a = 0.2, v = 0.2, t = 0.2)
movej(p[0.535631825206278, 0.0119653228496699, 0.161840864515698, -1.22821252765024, 1.18212958577334, -1.16490238346408], a = 0.2, v = 0.2, t = 0.2)
movej(p[0.535694308273696, 0.0118614213327071, 0.161686377893433, -1.23029081648632, 1.1883366218248, -1.15666570608321], a = 0.2, v = 0.2, t = 0.2)
movej(p[0.535670381762645, 0.0115868919816154, 0.161214645219073, -1.24236323269508, 1.19687736484904, -1.15680049928709], a = 0.2, v = 0.2, t = 0.2)
movej(p[0.535708263868423, 0.0113276400341969, 0.160547635666352, -1.25194159010897, 1.21246129293488, -1.14378308143356], a = 0.2, v = 0.2, t = 0.2)
movej(p[0.535214007345182, 0.0108188515941914, 0.160330197107328, -1.27016835095506, 1.2348886459137, -1.12592692735187], a = 0.2, v = 0.2, t = 0.2)
movej(p[0.534348523508825, 0.0105354995218074, 0.160703845924374, -1.27000339769712, 1.25230970341154, -1.12137762707892], a = 0.2, v = 0.2, t = 0.2)
movej(p[0.533732580692062, 0.0105165500505177, 0.160931761641288, -1.26368244171398, 1.26102127285749, -1.13629383117971], a = 0.2, v = 0.2, t = 0.2)
movej(p[0.53358590245369, 0.0106005121400131, 0.160982964296645, -1.25705420986482, 1.26367228870991, -1.13543081264895], a = 0.2, v = 0.2, t = 0.2)
movej(p[0.533771799798674, 0.0107009181650154, 0.161177661336353, -1.24992241614474, 1.25746207713626, -1.13930635154781], a = 0.2, v = 0.2, t = 0.2)
movej(p[0.534197703401579, 0.0108552293109102, 0.161940841462002, -1.24714141618204, 1.23865769163753, -1.1488190145791], a = 0.2, v = 0.2, t = 0.2)
movej(p[0.534874970183328, 0.0111233980361751, 0.16197783499156, -1.24225098781406, 1.22041730321575, -1.16443130184833], a = 0.2, v = 0.2, t = 0.2)
movej(p[0.53541336427813, 0.0113205580746519, 0.161840492535961, -1.24301896198199, 1.21153920025676, -1.15412296934404], a = 0.2, v = 0.2, t = 0.2)
movej(p[0.535639893585706, 0.0113818067238189, 0.161715897615179, -1.23808975253583, 1.20561398283348, -1.15004280825106], a = 0.2, v = 0.2, t = 0.2)
movej(p[0.535713684615891, 0.0115486857235656, 0.161403635524768, -1.23246375662058, 1.20360017514544, -1.15385797460321], a = 0.2, v = 0.2, t = 0.2)
movej(p[0.536007280999029, 0.0114574255783883, 0.160566267365766, -1.23914372748869, 1.21371496125313, -1.14619096123489], a = 0.2, v = 0.2, t = 0.2)
movej(p[0.535830995242259, 0.0112494490615025, 0.159679124505441, -1.24942006889965, 1.23094779861353, -1.12586104094762], a = 0.2, v = 0.2, t = 0.2)
movej(p[0.535079749401118, 0.0106836787782313, 0.159644321689208, -1.25950838210298, 1.24692954048128, -1.11218888876901], a = 0.2, v = 0.2, t = 0.2)
movej(p[0.534157412315253, 0.01041953829005, 0.159766276660575, -1.25783430624921, 1.25749422376359, -1.1259640807751], a = 0.2, v = 0.2, t = 0.2)
movej(p[0.533640902991714, 0.010121189283813, 0.160191219432221, -1.26616940634765, 1.26755178168964, -1.12845511917504], a = 0.2, v = 0.2, t = 0.2)
movej(p[0.533426794869212, 0.0101245602248369, 0.16059859413521, -1.26514801256084, 1.27449949554639, -1.12898684337867], a = 0.2, v = 0.2, t = 0.2)
movej(p[0.533476518664745, 0.0102800643900672, 0.161050079393833, -1.25387142138429, 1.25751901376131, -1.14933732115476], a = 0.2, v = 0.2, t = 0.2)
movej(p[0.53396260444534, 0.0107144407853856, 0.161309987129564, -1.24239976470418, 1.23995459476171, -1.17286266194194], a = 0.2, v = 0.2, t = 0.2)
movej(p[0.53464781333678, 0.0110626447760546, 0.161426643745212, -1.24274670812011, 1.2265194604467, -1.16258404399773], a = 0.2, v = 0.2, t = 0.2)
movej(p[0.535125632604645, 0.0111226870062422, 0.161618842163392, -1.24901065176128, 1.21840668968512, -1.14937499466226], a = 0.2, v = 0.2, t = 0.2)
movej(p[0.535268061338185, 0.0111963068454585, 0.161811044855454, -1.2438560185754, 1.20859011175755, -1.15375363754042], a = 0.2, v = 0.2, t = 0.2)
movej(p[0.53564372402445, 0.0113296251379855, 0.161498219216758, -1.24000755700429, 1.20404491807536, -1.16381501038369], a = 0.2, v = 0.2, t = 0.2)
movej(p[0.536022206147464, 0.0114415759355068, 0.160971323694768, -1.25018710873833, 1.21315369943709, -1.13776025887054], a = 0.2, v = 0.2, t = 0.2)
movej(p[0.535935728703311, 0.01119244396754, 0.160493139178631, -1.25924852647212, 1.22478615127414, -1.11129250636592], a = 0.2, v = 0.2, t = 0.2)
movej(p[0.535326137337694, 0.0109040710876182, 0.160153575271987, -1.26171119921562, 1.23737208926238, -1.1100830129701], a = 0.2, v = 0.2, t = 0.2)
movej(p[0.534800105101736, 0.0106942779047768, 0.159714799322821, -1.25687229061779, 1.24967647235843, -1.11656997699401], a = 0.2, v = 0.2, t = 0.2)
movej(p[0.534130034065167, 0.0104355437518099, 0.159713437691849, -1.26026337961254, 1.26724940855753, -1.12379587361578], a = 0.2, v = 0.2, t = 0.2)
movej(p[0.533689178211871, 0.0102073541289558, 0.159975327578322, -1.2616200814879, 1.26996120042666, -1.13065562936468], a = 0.2, v = 0.2, t = 0.2)
movej(p[0.533340992657725, 0.0101493513029231, 0.160720468713984, -1.25638912768176, 1.26510769621277, -1.1563253743727], a = 0.2, v = 0.2, t = 0.2)
movej(p[0.533788203811186, 0.0104139182772339, 0.160912045461852, -1.25155149716344, 1.25190001469642, -1.15578641578445], a = 0.2, v = 0.2, t = 0.2)
movej(p[0.534284708582619, 0.0105670443138936, 0.160925880158864, -1.24885477094511, 1.242194642723, -1.15042311204963], a = 0.2, v = 0.2, t = 0.2)
movej(p[0.53463933218665, 0.0107328952512777, 0.16122557387924, -1.24043259257682, 1.23046897345763, -1.14951161956647], a = 0.2, v = 0.2, t = 0.2)
movej(p[0.534969497883453, 0.0108952466841242, 0.161463574372743, -1.23566811403757, 1.2148244867348, -1.16579141500691], a = 0.2, v = 0.2, t = 0.2)
movej(p[0.535512925900943, 0.0112150040127948, 0.161417471155191, -1.23793868045698, 1.21037300655024, -1.15206593577886], a = 0.2, v = 0.2, t = 0.2)
movej(p[0.535950341990887, 0.0111922740352434, 0.161087180627015, -1.24527593496911, 1.20341668861957, -1.14691207603109], a = 0.2, v = 0.2, t = 0.2)
movej(p[0.536031227477384, 0.0111264680876261, 0.160723123717511, -1.24401573536093, 1.20360018847243, -1.14942767617428], a = 0.2, v = 0.2, t = 0.2)
movej(p[0.536090719369214, 0.0109969356520675, 0.159926834816518, -1.24638151983135, 1.20716378117091, -1.15326971142942], a = 0.2, v = 0.2, t = 0.2)
movej(p[0.535982764896814, 0.0107298041603716, 0.159181679071033, -1.25986522603656, 1.22454946641357, -1.12756691265636], a = 0.2, v = 0.2, t = 0.2)
movej(p[0.535409583971435, 0.0104588289933507, 0.158816326574208, -1.26267593065611, 1.24543818917734, -1.10744389739122], a = 0.2, v = 0.2, t = 0.2)
movej(p[0.534549664116342, 0.0101391521871115, 0.159191164812478, -1.25946471301035, 1.25783570283799, -1.11284574603076], a = 0.2, v = 0.2, t = 0.2)
movej(p[0.533952488203377, 0.0102006570865872, 0.159472404703522, -1.24878980587079, 1.26866681144687, -1.1340923490104], a = 0.2, v = 0.2, t = 0.2)
movej(p[0.53379497672759, 0.010086224569897, 0.159879048016659, -1.25445396471368, 1.27388482397399, -1.13150417075745], a = 0.2, v = 0.2, t = 0.2)
movej(p[0.533929856800087, 0.0101825213579194, 0.16030335690728, -1.24950208132733, 1.2726179914852, -1.13256465959886], a = 0.2, v = 0.2, t = 0.2)
movej(p[0.53420347703151, 0.0103972497722184, 0.160852076441331, -1.24016082644173, 1.25283774245443, -1.14785435406444], a = 0.2, v = 0.2, t = 0.2)
movej(p[0.534800819437105, 0.0108381258820877, 0.160989454519001, -1.23368538962897, 1.24158503380814, -1.15249991189856], a = 0.2, v = 0.2, t = 0.2)
movej(p[0.535230823633053, 0.0110224324631196, 0.161069134376904, -1.24140582823287, 1.23486700086896, -1.13807883722905], a = 0.2, v = 0.2, t = 0.2)
movej(p[0.535530949231461, 0.0110084149940076, 0.161106133513918, -1.24006280248726, 1.22548569481863, -1.13548465823955], a = 0.2, v = 0.2, t = 0.2)
movej(p[0.535725576896968, 0.011047432944739, 0.160891117837884, -1.2374757935959, 1.21306557997604, -1.14706442688309], a = 0.2, v = 0.2, t = 0.2)
movej(p[0.536263292267598, 0.0110533583841426, 0.160102413449753, -1.2397353355827, 1.2179674999674, -1.14951663199958], a = 0.2, v = 0.2, t = 0.2)
movej(p[0.536372336798679, 0.0109591259037327, 0.159490024344056, -1.25356510723029, 1.23482957669984, -1.12299380322135], a = 0.2, v = 0.2, t = 0.2)
movej(p[0.535892384185675, 0.0106220951681147, 0.159307401811577, -1.26079663445797, 1.25233719822421, -1.10655609925481], a = 0.2, v = 0.2, t = 0.2)
movej(p[0.534971794722118, 0.010342239405158, 0.159352980374257, -1.26012942271868, 1.26275550080556, -1.11229932101823], a = 0.2, v = 0.2, t = 0.2)
movej(p[0.534423040720298, 0.0101821939738985, 0.159543301334533, -1.26372328249078, 1.27572059390121, -1.1037145957621], a = 0.2, v = 0.2, t = 0.2)
movej(p[0.534082439620744, 0.0100686809955207, 0.159768873572901, -1.26450113142397, 1.28107775912829, -1.10522025345582], a = 0.2, v = 0.2, t = 0.2)
movej(p[0.534053534375006, 0.0100974565624701, 0.16021081125348, -1.2546866898043, 1.26629213444548, -1.12782637009162], a = 0.2, v = 0.2, t = 0.2)
movej(p[0.53431137605181, 0.0103888029959478, 0.160550967784217, -1.24278206915942, 1.25193423597978, -1.15563875090141], a = 0.2, v = 0.2, t = 0.2)
movej(p[0.534895897507158, 0.0105851683408801, 0.160749230991965, -1.24908476105335, 1.23909647771428, -1.14823432882616], a = 0.2, v = 0.2, t = 0.2)
movej(p[0.535277988119024, 0.0107156371184135, 0.161014755945244, -1.25144933566343, 1.23507748556949, -1.13047838532856], a = 0.2, v = 0.2, t = 0.2)
movej(p[0.535400882663279, 0.0106693629400142, 0.161149566843563, -1.2487958455084, 1.21885846360876, -1.1435910924046], a = 0.2, v = 0.2, t = 0.2)
movej(p[0.53558379841822, 0.0107100132350021, 0.160902665761727, -1.2447702497742, 1.20526028816342, -1.15712398782497], a = 0.2, v = 0.2, t = 0.2)
movej(p[0.535972259729497, 0.0109213975061025, 0.160190312364818, -1.24476767174451, 1.20572983177732, -1.14706253882717], a = 0.2, v = 0.2, t = 0.2)
movej(p[0.536087249813562, 0.0109228663295409, 0.159493453206336, -1.24758686210891, 1.21656998059943, -1.13064182696224], a = 0.2, v = 0.2, t = 0.2)
movej(p[0.5358072034534, 0.0108047634259858, 0.159029691910214, -1.24136486574759, 1.23247360622012, -1.12550763347534], a = 0.2, v = 0.2, t = 0.2)
movej(p[0.535395216366599, 0.0104661378034189, 0.158594694632407, -1.24925660260478, 1.24850258968625, -1.12357347706563], a = 0.2, v = 0.2, t = 0.2)
movej(p[0.534774694191708, 0.0100493816452332, 0.158569373179379, -1.26465496171691, 1.26583911762275, -1.10542264867125], a = 0.2, v = 0.2, t = 0.2)
movej(p[0.534099765340486, 0.00982839896900731, 0.15887502905221, -1.26953754117955, 1.2788641792094, -1.10334196132718], a = 0.2, v = 0.2, t = 0.2)
movej(p[0.533476610484692, 0.00969892370180725, 0.159768012378417, -1.26968626759814, 1.28351375619755, -1.11432298651753], a = 0.2, v = 0.2, t = 0.2)
movej(p[0.533643994003919, 0.00987729049853629, 0.160028038556552, -1.26041608823034, 1.27642031530682, -1.13415837202466], a = 0.2, v = 0.2, t = 0.2)
movej(p[0.534086775270499, 0.00993455570195794, 0.160131233791148, -1.26289050159435, 1.26609466775559, -1.13545475407524], a = 0.2, v = 0.2, t = 0.2)
movej(p[0.534601282853095, 0.010189194668461, 0.160191766709377, -1.24794907001247, 1.24900611828577, -1.14634515624097], a = 0.2, v = 0.2, t = 0.2)
movej(p[0.534947360831647, 0.0105021864304487, 0.160410858196407, -1.23735268969285, 1.23092499406977, -1.15969099846593], a = 0.2, v = 0.2, t = 0.2)
movej(p[0.535482907764031, 0.0108324202538235, 0.160156818964764, -1.23131234077896, 1.22463300207906, -1.15134922176653], a = 0.2, v = 0.2, t = 0.2)
movej(p[0.535767870626968, 0.0108991711986679, 0.159732996256419, -1.23456505938126, 1.22019748367622, -1.14008301634611], a = 0.2, v = 0.2, t = 0.2)
movej(p[0.535830143524561, 0.0108217276285623, 0.159292425911748, -1.2335754505417, 1.21820749104979, -1.13839515890037], a = 0.2, v = 0.2, t = 0.2)
movej(p[0.535766318885086, 0.0107263693061619, 0.158643447434914, -1.23383771052642, 1.22291805971972, -1.14812969905535], a = 0.2, v = 0.2, t = 0.2)
movej(p[0.53572308787806, 0.010526568108266, 0.158093035006138, -1.24749050922911, 1.24132957139969, -1.12780583816677], a = 0.2, v = 0.2, t = 0.2)
movej(p[0.535053734344725, 0.0100389217232711, 0.158201779801941, -1.27067250796024, 1.27139901702668, -1.09397132288917], a = 0.2, v = 0.2, t = 0.2)
movej(p[0.533772907670286, 0.00950163645898259, 0.158596347916368, -1.27879716975762, 1.29181908814694, -1.08139301447705], a = 0.2, v = 0.2, t = 0.2)
movej(p[0.532123588755315, 0.00898536666521991, 0.158936846032028, -1.28328875642644, 1.3097871790566, -1.09366716600426], a = 0.2, v = 0.2, t = 0.2)
movej(p[0.530451977798052, 0.00867464056435717, 0.159162723228308, -1.28215535781737, 1.32936465563642, -1.08965226211321], a = 0.2, v = 0.2, t = 0.2)
movej(p[0.528764585304453, 0.00830435713949184, 0.159935212689606, -1.28953744463433, 1.35197889733551, -1.08976284896617], a = 0.2, v = 0.2, t = 0.2)
movej(p[0.527276423470851, 0.00801334326460008, 0.160940874924967, -1.28606250510453, 1.36581931698259, -1.10252525805777], a = 0.2, v = 0.2, t = 0.2)
movej(p[0.526845891379096, 0.00815479722696678, 0.161775971868142, -1.27920534141391, 1.36933451988788, -1.12656157049594], a = 0.2, v = 0.2, t = 0.2)
movej(p[0.527382813629802, 0.00865140302261228, 0.162473609507628, -1.27198113674503, 1.35595681190121, -1.13835819681869], a = 0.2, v = 0.2, t = 0.2)
movej(p[0.528806807902901, 0.0095016280818158, 0.163272108406428, -1.2615923910241, 1.32598848232703, -1.1611949468523], a = 0.2, v = 0.2, t = 0.2)
movej(p[0.530243474503331, 0.0104347880723467, 0.163976585707254, -1.25411754292456, 1.28703126832467, -1.1846249601342], a = 0.2, v = 0.2, t = 0.2)
movej(p[0.531649347659058, 0.011307528091431, 0.164250371825777, -1.25234811081236, 1.25636090904557, -1.18616177278264], a = 0.2, v = 0.2, t = 0.2)
movej(p[0.532575004242549, 0.0119354288726376, 0.164582814924667, -1.25618614779274, 1.23392331970637, -1.17316548178662], a = 0.2, v = 0.2, t = 0.2)
movej(p[0.533194144448027, 0.0123002862843453, 0.164926776226426, -1.25270873914974, 1.21710693823448, -1.1691261506359], a = 0.2, v = 0.2, t = 0.2)
movej(p[0.533489735400854, 0.012545187455277, 0.164956318604601, -1.24344031560767, 1.20103046818935, -1.18538874686963], a = 0.2, v = 0.2, t = 0.2)
movej(p[0.533927893542278, 0.0126807607786538, 0.164253349140476, -1.24783976972688, 1.20436347411676, -1.17533645506426], a = 0.2, v = 0.2, t = 0.2)
movej(p[0.533646085483444, 0.0121492747088037, 0.163336017034567, -1.26713047532052, 1.21323449568264, -1.15266724332442], a = 0.2, v = 0.2, t = 0.2)
movej(p[0.532580227251438, 0.0112971980845631, 0.162701482740062, -1.27965442527291, 1.23715184576622, -1.14199475268555], a = 0.2, v = 0.2, t = 0.2)
movej(p[0.531103646493283, 0.0103911888568613, 0.162466769252511, -1.28433084570626, 1.2562645934609, -1.14887335583982], a = 0.2, v = 0.2, t = 0.2)
movej(p[0.529974355333453, 0.00999646872481703, 0.162677192697236, -1.28457029826756, 1.28560984331113, -1.14958115911927], a = 0.2, v = 0.2, t = 0.2)
movej(p[0.528968217484455, 0.00969167951197772, 0.163244449350479, -1.29019008411474, 1.30667264522925, -1.14353586797645], a = 0.2, v = 0.2, t = 0.2)
movej(p[0.527854029036958, 0.00936267139444518, 0.163996562498658, -1.29379449707183, 1.32119672127854, -1.14620145051499], a = 0.2, v = 0.2, t = 0.2)
movej(p[0.527127690407599, 0.00938532108190324, 0.164416882385362, -1.28810697354155, 1.32734440358348, -1.15889008098962], a = 0.2, v = 0.2, t = 0.2)
movej(p[0.527046888221672, 0.0095902634052671, 0.164522862670527, -1.2855982934408, 1.32540582562906, -1.16569995882897], a = 0.2, v = 0.2, t = 0.2)
movej(p[0.527719797502879, 0.00992931350399512, 0.164679557341204, -1.27617251740324, 1.30983879731783, -1.18091803300708], a = 0.2, v = 0.2, t = 0.2)
movej(p[0.528928167619267, 0.010497279439971, 0.164966785086019, -1.26640806153793, 1.28094790925768, -1.20108107592479], a = 0.2, v = 0.2, t = 0.2)
movej(p[0.530507306254524, 0.0112053145649051, 0.165099813394648, -1.25924208536545, 1.25272280072925, -1.2101765357382], a = 0.2, v = 0.2, t = 0.2)
movej(p[0.531920114313762, 0.0119716714553791, 0.165306101552755, -1.2572280223284, 1.22928752519285, -1.19087814804248], a = 0.2, v = 0.2, t = 0.2)
movej(p[0.532763773427265, 0.0124058655600314, 0.165741506758338, -1.25884412859738, 1.21284262292743, -1.17752873080381], a = 0.2, v = 0.2, t = 0.2)
movej(p[0.533210755238721, 0.0127521406877419, 0.165953135763717, -1.2506988580998, 1.19196746012996, -1.18769810493572], a = 0.2, v = 0.2, t = 0.2)
movej(p[0.53375227117559, 0.0129722595891816, 0.16558743267466, -1.25053132618977, 1.18086488987448, -1.1964046172037], a = 0.2, v = 0.2, t = 0.2)
movej(p[0.534102105539389, 0.0130259347817457, 0.164957424779703, -1.25304905953051, 1.18058469829364, -1.18645316429253], a = 0.2, v = 0.2, t = 0.2)
movej(p[0.53421645867043, 0.0127463239422273, 0.164548050037144, -1.2527073833967, 1.18247659736393, -1.17648759515491], a = 0.2, v = 0.2, t = 0.2)
movej(p[0.534231031465841, 0.012543166981847, 0.164395359574171, -1.24599050542606, 1.1857058837137, -1.18326316462948], a = 0.2, v = 0.2, t = 0.2)
movej(p[0.534560798798728, 0.0124208037694772, 0.164206944670993, -1.24459712841712, 1.19282702639496, -1.17809837061623], a = 0.2, v = 0.2, t = 0.2)
movej(p[0.534501326547174, 0.0120605101513509, 0.164121017168803, -1.25046664260432, 1.20494152872402, -1.16927762076965], a = 0.2, v = 0.2, t = 0.2)
movej(p[0.53440455574524, 0.0117896190361744, 0.164013546635113, -1.24542066024117, 1.20369734497004, -1.16999304965948], a = 0.2, v = 0.2, t = 0.2)
movej(p[0.534438183680492, 0.0117204681289364, 0.163615209617377, -1.23641356729117, 1.19289526256107, -1.18434374774689], a = 0.2, v = 0.2, t = 0.2)
movej(p[0.534928172293256, 0.0119135187432518, 0.163115449512454, -1.23360843117658, 1.18697538849425, -1.17365943867012], a = 0.2, v = 0.2, t = 0.2)
movej(p[0.535162292986611, 0.0119812835432483, 0.162802965575387, -1.23444708663688, 1.19056632045617, -1.15904712693465], a = 0.2, v = 0.2, t = 0.2)
movej(p[0.535204723912749, 0.0120080068262252, 0.162394227336469, -1.23292062001869, 1.18924181301942, -1.15382888933585], a = 0.2, v = 0.2, t = 0.2)
movej(p[0.5353854983413, 0.0118576614732183, 0.161464160976411, -1.24156716447829, 1.19435417823193, -1.15836443216775], a = 0.2, v = 0.2, t = 0.2)
movej(p[0.53528148239058, 0.011470504200985, 0.160519629593474, -1.2585198509501, 1.20465774732475, -1.13586466739597], a = 0.2, v = 0.2, t = 0.2)
movej(p[0.534621614541576, 0.0107386896875922, 0.160397979770053, -1.28098045412909, 1.22945448412966, -1.11504002365893], a = 0.2, v = 0.2, t = 0.2)
movej(p[0.533336221399814, 0.0101071264085502, 0.160825845292943, -1.28684127371383, 1.25174607417626, -1.11039937367425], a = 0.2, v = 0.2, t = 0.2)
movej(p[0.532211358493268, 0.00979393372100062, 0.161350097848438, -1.28984589220003, 1.27617762163637, -1.11190114292383], a = 0.2, v = 0.2, t = 0.2)
movej(p[0.531013822137432, 0.0095231908601428, 0.161593542708201, -1.28760102985521, 1.29223090731893, -1.12250743503936], a = 0.2, v = 0.2, t = 0.2)
movej(p[0.530140631604482, 0.00933257597633868, 0.162168325492249, -1.28006202839158, 1.29742041961481, -1.14189048989885], a = 0.2, v = 0.2, t = 0.2)
movej(p[0.53003508095941, 0.00947191683926301, 0.162432767194037, -1.26474673262985, 1.28903525826854, -1.17229031729046], a = 0.2, v = 0.2, t = 0.2)
movej(p[0.530920719107703, 0.0100596474274242, 0.162566330583216, -1.2554129119751, 1.27752377555388, -1.16655828490162], a = 0.2, v = 0.2, t = 0.2)
movej(p[0.532041881968938, 0.0106952002617645, 0.162858896747099, -1.24835109109951, 1.25618386667144, -1.16472183607717], a = 0.2, v = 0.2, t = 0.2)
movej(p[0.532763954584007, 0.0113413079992794, 0.163632511751989, -1.24203908612059, 1.23402308344181, -1.1660528836862], a = 0.2, v = 0.2, t = 0.2)
movej(p[0.533432145254052, 0.0117121515835691, 0.164058133997831, -1.24486788312517, 1.21271210290749, -1.17229017233778], a = 0.2, v = 0.2, t = 0.2)
movej(p[0.53391895638695, 0.011930544599025, 0.164084105570501, -1.24713189044249, 1.20112864801068, -1.16727948731724], a = 0.2, v = 0.2, t = 0.2)
movej(p[0.534348578803605, 0.0119308767870106, 0.163937063939463, -1.24710864946365, 1.19180995035115, -1.1691379928208], a = 0.2, v = 0.2, t = 0.2)
movej(p[0.534496337929188, 0.0119431375222417, 0.163435836072941, -1.24239669143585, 1.18875694886534, -1.1767487489008], a = 0.2, v = 0.2, t = 0.2)
movej(p[0.534722243700986, 0.0118375100321187, 0.162365678652512, -1.250385079462, 1.19447149584081, -1.16196563943185], a = 0.2, v = 0.2, t = 0.2)
movej(p[0.53437982014818, 0.0114953666810438, 0.161367314984003, -1.26373733987292, 1.21493197107756, -1.13633113682723], a = 0.2, v = 0.2, t = 0.2)
movej(p[0.533440461699219, 0.0109425654982908, 0.161022946630618, -1.27322310539688, 1.23825396756062, -1.12404038122619], a = 0.2, v = 0.2, t = 0.2)
movej(p[0.532066227501444, 0.0103589651765347, 0.161438755558024, -1.27787193650237, 1.26198833614663, -1.13435480195589], a = 0.2, v = 0.2, t = 0.2)
movej(p[0.530825889866589, 0.00982077002772205, 0.161784112451336, -1.28907667195267, 1.28445769368181, -1.13264833676442], a = 0.2, v = 0.2, t = 0.2)
movej(p[0.529755283533842, 0.00937050136581388, 0.162249978755425, -1.29499171746456, 1.30311534170066, -1.13233475039764], a = 0.2, v = 0.2, t = 0.2)
movej(p[0.529013087688491, 0.00924131837873902, 0.162729455195224, -1.28548438032061, 1.30674440272428, -1.15150592350128], a = 0.2, v = 0.2, t = 0.2)
movej(p[0.529238838949412, 0.00956945150470771, 0.163100090404296, -1.2748588753555, 1.29983164587475, -1.17480006116735], a = 0.2, v = 0.2, t = 0.2)
movej(p[0.530208187271905, 0.00999207862165381, 0.163301141666666, -1.27273892432202, 1.28092310874639, -1.17432251120148], a = 0.2, v = 0.2, t = 0.2)
movej(p[0.531485384210662, 0.0105716860850102, 0.16360105645065, -1.26523802970758, 1.25572295897081, -1.17758508418892], a = 0.2, v = 0.2, t = 0.2)
movej(p[0.5323091984145, 0.0112168589964508, 0.164196314454794, -1.25373685592925, 1.22843624214557, -1.18193205545767], a = 0.2, v = 0.2, t = 0.2)
movej(p[0.533103360117454, 0.0118620005748757, 0.164475632910592, -1.24551608655815, 1.20921190849304, -1.18493256803826], a = 0.2, v = 0.2, t = 0.2)
movej(p[0.533606840542372, 0.012203466093336, 0.164645836219395, -1.2478901927306, 1.20097594946234, -1.16659545101378], a = 0.2, v = 0.2, t = 0.2)
movej(p[0.53402267413317, 0.0122562755311426, 0.164641696781946, -1.24746850726126, 1.19649366874025, -1.15718997094047], a = 0.2, v = 0.2, t = 0.2)
movej(p[0.534158825077558, 0.0123216445252491, 0.164185189718107, -1.24271362119325, 1.19366663608866, -1.16146117266805], a = 0.2, v = 0.2, t = 0.2)
movej(p[0.53447847218329, 0.0121954885038749, 0.163271341716526, -1.25572344675401, 1.2014295431475, -1.15253198058131], a = 0.2, v = 0.2, t = 0.2)
movej(p[0.534358200622477, 0.0118563807443047, 0.162644974531363, -1.27134220710022, 1.22081035394449, -1.12534120091582], a = 0.2, v = 0.2, t = 0.2)
movej(p[0.533770276412851, 0.0112728280877385, 0.162473879860055, -1.28179117103413, 1.23827132420617, -1.12053174252259], a = 0.2, v = 0.2, t = 0.2)
movej(p[0.532921115211227, 0.0109451778048253, 0.162593747144008, -1.2771539996507, 1.25133343675933, -1.1285196620892], a = 0.2, v = 0.2, t = 0.2)
movej(p[0.532456770146596, 0.0107823973246771, 0.162525701125491, -1.27724664853744, 1.26269139405266, -1.13118296116928], a = 0.2, v = 0.2, t = 0.2)
movej(p[0.532231646786432, 0.0105850623762698, 0.162529239549665, -1.27482421202138, 1.26600562939793, -1.13609378108279], a = 0.2, v = 0.2, t = 0.2)
movej(p[0.532258818061104, 0.0106688945762296, 0.162867923508663, -1.2633086350556, 1.2539557552709, -1.15345534233026], a = 0.2, v = 0.2, t = 0.2)
movej(p[0.532827780257308, 0.0110215237671429, 0.162932901758918, -1.24824108756787, 1.22761680885179, -1.1810539656212], a = 0.2, v = 0.2, t = 0.2)
movej(p[0.53359501676422, 0.0115065488756753, 0.162939994646505, -1.24454045334327, 1.2116817772788, -1.17250444291445], a = 0.2, v = 0.2, t = 0.2)
movej(p[0.534141003389141, 0.0117167108354829, 0.162896133738433, -1.23731939219088, 1.20337131083581, -1.16646883547888], a = 0.2, v = 0.2, t = 0.2)
movej(p[0.534381616204312, 0.0118662740325129, 0.163112993103391, -1.23002740229044, 1.19570431532568, -1.16675440789542], a = 0.2, v = 0.2, t = 0.2)
movej(p[0.534786500164132, 0.0120818272631921, 0.162852745493556, -1.22755884125328, 1.18779337904848, -1.1716761029465], a = 0.2, v = 0.2, t = 0.2)
movej(p[0.535150120644373, 0.0120127618454102, 0.162437619254785, -1.24339585451035, 1.18696940566834, -1.15689514751798], a = 0.2, v = 0.2, t = 0.2)
movej(p[0.535140959722699, 0.0118040720745985, 0.161719794341542, -1.25442602397748, 1.19776026113856, -1.14580422332308], a = 0.2, v = 0.2, t = 0.2)
movej(p[0.534658683866019, 0.0113601044153397, 0.161203878095727, -1.26250261356141, 1.21694674907031, -1.14220357743941], a = 0.2, v = 0.2, t = 0.2)
movej(p[0.53422323140441, 0.0109909237776899, 0.160635913562976, -1.26375980353107, 1.23970693573458, -1.13617476283468], a = 0.2, v = 0.2, t = 0.2)
movej(p[0.533677180067796, 0.0106444815529919, 0.160803330953734, -1.27119522688634, 1.2643491944, -1.11287108005823], a = 0.2, v = 0.2, t = 0.2)
movej(p[0.533199457737037, 0.0104739039682342, 0.1612857922706, -1.26388858088428, 1.26904672691031, -1.11442334496558], a = 0.2, v = 0.2, t = 0.2)
movej(p[0.533110912567393, 0.0106427223740198, 0.162153745779955, -1.25775718793711, 1.26187194519663, -1.13082281270504], a = 0.2, v = 0.2, t = 0.2)
movej(p[0.533596921383343, 0.0109065791255549, 0.162004058968285, -1.24878342667726, 1.24386781194868, -1.14934659894474], a = 0.2, v = 0.2, t = 0.2)
movej(p[0.534075698371479, 0.0110841014741379, 0.162197520182448, -1.24788800384237, 1.23368898484122, -1.14827752493545], a = 0.2, v = 0.2, t = 0.2)
movej(p[0.534326607087756, 0.0111872089395663, 0.16225029782136, -1.2413584458734, 1.2150828503174, -1.15800976456208], a = 0.2, v = 0.2, t = 0.2)
movej(p[0.534671216020658, 0.0114724166592907, 0.162291204159177, -1.23661597356458, 1.20094066069034, -1.16447429962833], a = 0.2, v = 0.2, t = 0.2)
movej(p[0.535086016281146, 0.0115785760529078, 0.162096922222946, -1.23912853982648, 1.19536044112448, -1.15265106435594], a = 0.2, v = 0.2, t = 0.2)
movej(p[0.535302053277563, 0.011534825075899, 0.161669611034829, -1.23498263692067, 1.19525823800402, -1.14855118815681], a = 0.2, v = 0.2, t = 0.2)
movej(p[0.535341939363759, 0.0114555920421526, 0.161547734951895, -1.22746683827471, 1.19275784876155, -1.15160307842415], a = 0.2, v = 0.2, t = 0.2)
movej(p[0.535689595088992, 0.0116086135792224, 0.161029855313267, -1.22669980414327, 1.18886020868939, -1.1575728426607], a = 0.2, v = 0.2, t = 0.2)
movej(p[0.535978220678953, 0.0116862986139237, 0.160600748521865, -1.23810446590822, 1.20020672257834, -1.13669057486736], a = 0.2, v = 0.2, t = 0.2)
movej(p[0.535970600075578, 0.0114844360016261, 0.160074227016856, -1.24367636732566, 1.21029408189064, -1.12855863943016], a = 0.2, v = 0.2, t = 0.2)
movej(p[0.535690029945484, 0.011187098875376, 0.159849523115518, -1.24511580827864, 1.22442058402617, -1.13036486333366], a = 0.2, v = 0.2, t = 0.2)
movej(p[0.53563511904002, 0.0108373934409676, 0.159489368045991, -1.25191057524532, 1.23067145200665, -1.12362440560267], a = 0.2, v = 0.2, t = 0.2)
movej(p[0.535525619927415, 0.0105722275591733, 0.159456560852102, -1.25857782251152, 1.23946323171727, -1.1115106349456], a = 0.2, v = 0.2, t = 0.2)
movej(p[0.535376486522598, 0.0105001465049413, 0.159740014058272, -1.25156716089122, 1.23369194943171, -1.12004815603334], a = 0.2, v = 0.2, t = 0.2)
movej(p[0.535377425656367, 0.0107183774604023, 0.159773797256853, -1.23845366684186, 1.22069083183019, -1.14499594555052], a = 0.2, v = 0.2, t = 0.2)
movej(p[0.535749912921893, 0.0109215799391842, 0.159645624240436, -1.24073348562345, 1.21486201438067, -1.14242851736761], a = 0.2, v = 0.2, t = 0.2)
movej(p[0.536027259843518, 0.0109281659185245, 0.159417724717967, -1.24208490389077, 1.21349620308276, -1.13357196086342], a = 0.2, v = 0.2, t = 0.2)
movej(p[0.536089424776183, 0.0108210990501524, 0.15929630388226, -1.23616566919524, 1.20573294159869, -1.13967555268338], a = 0.2, v = 0.2, t = 0.2)
movej(p[0.536248165249063, 0.0108155040842629, 0.158581515170663, -1.24000954911413, 1.20744491963484, -1.14152649351459], a = 0.2, v = 0.2, t = 0.2)
movej(p[0.536232535759043, 0.0106436753061108, 0.157905352487842, -1.25629764918698, 1.21824193435728, -1.12261585718624], a = 0.2, v = 0.2, t = 0.2)
movej(p[0.535778058133077, 0.0102628606964777, 0.157890066694249, -1.27350207460834, 1.24044241456067, -1.10113957903181], a = 0.2, v = 0.2, t = 0.2)
movej(p[0.534904392123333, 0.00991245585779547, 0.15821779491602, -1.27368696077024, 1.25954426400384, -1.10248057553219], a = 0.2, v = 0.2, t = 0.2)
movej(p[0.534161857567343, 0.00976729326150293, 0.15849657897905, -1.27134420557282, 1.27349199469495, -1.1055989830354], a = 0.2, v = 0.2, t = 0.2)
movej(p[0.533602018529036, 0.00967161133598537, 0.158631253253938, -1.2691887592618, 1.28073699988688, -1.11324062987024], a = 0.2, v = 0.2, t = 0.2)
movej(p[0.533414714110892, 0.0096359413877285, 0.159313941506169, -1.26504291167888, 1.27366317560828, -1.12606264135352], a = 0.2, v = 0.2, t = 0.2)
movej(p[0.533722643360128, 0.00992533366707022, 0.159795520228833, -1.25010239010285, 1.25118001257221, -1.15455472494606], a = 0.2, v = 0.2, t = 0.2)
movej(p[0.534506448499119, 0.0103583144735538, 0.16008150508037, -1.24564723507815, 1.23634249904352, -1.1479660918689], a = 0.2, v = 0.2, t = 0.2)
movej(p[0.535123235447123, 0.0106838326392437, 0.160020125404769, -1.23987968217741, 1.22875448010056, -1.13482266969837], a = 0.2, v = 0.2, t = 0.2)
movej(p[0.535382860414945, 0.0106712708449129, 0.160388037796931, -1.23929751523724, 1.21833513027481, -1.13706642582713], a = 0.2, v = 0.2, t = 0.2)
movej(p[0.535663868011855, 0.0108943131575422, 0.160206460273939, -1.23348896081898, 1.21192572444228, -1.15026154110304], a = 0.2, v = 0.2, t = 0.2)
movej(p[0.536068815707086, 0.0109363893418671, 0.159885369743185, -1.24475505031034, 1.20825236892036, -1.1400277598938], a = 0.2, v = 0.2, t = 0.2)
movej(p[0.536240172396761, 0.0110258620777276, 0.159313122771292, -1.24775376223767, 1.21886306857621, -1.12260257198781], a = 0.2, v = 0.2, t = 0.2)
movej(p[0.535974762436781, 0.0106750532590311, 0.158973696266475, -1.25377722231339, 1.2239628149679, -1.12284527693819], a = 0.2, v = 0.2, t = 0.2)
movej(p[0.535574539323373, 0.0104471525981925, 0.158462960310166, -1.25525021291399, 1.24014373971252, -1.12052575318506], a = 0.2, v = 0.2, t = 0.2)
movej(p[0.535086784074215, 0.0100794844567863, 0.158180931278481, -1.26761156758462, 1.25765078834965, -1.10873845704132], a = 0.2, v = 0.2, t = 0.2)
movej(p[0.534391396202669, 0.00984582264570407, 0.158365614706404, -1.27014045382762, 1.27468406965303, -1.0965496635217], a = 0.2, v = 0.2, t = 0.2)
movej(p[0.533807790787418, 0.00978023779805603, 0.159119347229949, -1.26192695278659, 1.28141532269501, -1.11356403661396], a = 0.2, v = 0.2, t = 0.2)
movej(p[0.533849057818185, 0.00991934975497851, 0.159365899771231, -1.25251534200914, 1.27525220531115, -1.13797538287427], a = 0.2, v = 0.2, t = 0.2)
movej(p[0.534268310237974, 0.0100570438873912, 0.159644801894565, -1.25167718206773, 1.26707496478125, -1.13458913762715], a = 0.2, v = 0.2, t = 0.2)
movej(p[0.534747106698708, 0.0102258681646908, 0.159841523963949, -1.24233436090267, 1.24947301488226, -1.13925408203288], a = 0.2, v = 0.2, t = 0.2)
movej(p[0.535094113118131, 0.0105073938684097, 0.160320921366345, -1.2319104102765, 1.23453534117846, -1.14291994560785], a = 0.2, v = 0.2, t = 0.2)
movej(p[0.535663983923208, 0.0107635805946592, 0.160226066968373, -1.22973138995433, 1.2264974217858, -1.14383006667853], a = 0.2, v = 0.2, t = 0.2)
movej(p[0.536007232646376, 0.0108977895647386, 0.159766270855163, -1.23524952984446, 1.22556874114713, -1.13043310780318], a = 0.2, v = 0.2, t = 0.2)
movej(p[0.536068192656528, 0.0107880948603885, 0.159303751207484, -1.23908121882005, 1.22326721900411, -1.12579774949321], a = 0.2, v = 0.2, t = 0.2)
movej(p[0.535879296840864, 0.0105913548032394, 0.158840885962962, -1.24534467859948, 1.23089837189547, -1.12949352185839], a = 0.2, v = 0.2, t = 0.2)
movej(p[0.53575961039899, 0.0102917045398203, 0.158319694793665, -1.26096306209954, 1.25103252162218, -1.11185176111909], a = 0.2, v = 0.2, t = 0.2)
movej(p[0.535160451031476, 0.0097402102701826, 0.15823975770292, -1.28526889883041, 1.27275961735339, -1.08893374914395], a = 0.2, v = 0.2, t = 0.2)
movej(p[0.533967977249733, 0.00935772248545138, 0.158435404704655, -1.29073637335481, 1.29165653700881, -1.07954263847734], a = 0.2, v = 0.2, t = 0.2)
movej(p[0.532385122980964, 0.00893166242231859, 0.158879497247312, -1.30093450450023, 1.30530889849869, -1.08857862390216], a = 0.2, v = 0.2, t = 0.2)
movej(p[0.530740652252928, 0.00866628178230497, 0.159129484548068, -1.30087108284303, 1.32730556630284, -1.08685405976886], a = 0.2, v = 0.2, t = 0.2)
movej(p[0.528975344939514, 0.00826196766362585, 0.159830939209925, -1.30672608633096, 1.35058950354484, -1.08883224432491], a = 0.2, v = 0.2, t = 0.2)
movej(p[0.527260457207391, 0.00793840503622276, 0.160524469701226, -1.2980634279062, 1.37099094121409, -1.09615785826784], a = 0.2, v = 0.2, t = 0.2)
movej(p[0.52595990275531, 0.00765924366802998, 0.161336216778634, -1.29801423347171, 1.38809093380343, -1.10041450931562], a = 0.2, v = 0.2, t = 0.2)
movej(p[0.525241634486766, 0.00763878080545337, 0.161986391953304, -1.29405906954341, 1.39273648681461, -1.10278060815113], a = 0.2, v = 0.2, t = 0.2)
movej(p[0.525410989497385, 0.00811841168849922, 0.163647948036621, -1.28617099291065, 1.38098222271292, -1.1184883900268], a = 0.2, v = 0.2, t = 0.2)
movej(p[0.525871354646577, 0.00898852381606378, 0.165678957191148, -1.27330739204897, 1.35314995036914, -1.1584248835005], a = 0.2, v = 0.2, t = 0.2)
movej(p[0.526528266748238, 0.0101358871809427, 0.167900262971455, -1.27476475901533, 1.32326921070357, -1.18475377867063], a = 0.2, v = 0.2, t = 0.2)
movej(p[0.526925847235845, 0.0111347878003283, 0.169315863038023, -1.27551917765514, 1.29453156099971, -1.21110500749992], a = 0.2, v = 0.2, t = 0.2)
movej(p[0.52765695663415, 0.0119542572196391, 0.169931360012901, -1.27192364756023, 1.26344934930427, -1.23323115584934], a = 0.2, v = 0.2, t = 0.2)
movej(p[0.528929570184338, 0.0127946764706047, 0.169946422858793, -1.26150623344799, 1.22605174223455, -1.25015469872529], a = 0.2, v = 0.2, t = 0.2)
movej(p[0.530636287952122, 0.0135356197883586, 0.169476451537747, -1.26260935528752, 1.19237512220006, -1.23911108602685], a = 0.2, v = 0.2, t = 0.2)
movej(p[0.531601957777273, 0.0138759928638423, 0.169271976091108, -1.267211332217, 1.17870029290689, -1.21801286739775], a = 0.2, v = 0.2, t = 0.2)
movej(p[0.532196787142613, 0.0139287675429431, 0.169012426097127, -1.26699059271629, 1.16351398586306, -1.21515721631238], a = 0.2, v = 0.2, t = 0.2)
movej(p[0.532613344150938, 0.0139345175190935, 0.168426230876582, -1.26485366635897, 1.15948991743748, -1.21731249934452], a = 0.2, v = 0.2, t = 0.2)
movej(p[0.533317315414193, 0.0139095653053412, 0.167119581548132, -1.26293248989786, 1.16608395165713, -1.20396375074364], a = 0.2, v = 0.2, t = 0.2)
movej(p[0.533298338993813, 0.0135211774071757, 0.165925178288748, -1.27115390539762, 1.18772902179049, -1.1758141066376], a = 0.2, v = 0.2, t = 0.2)
movej(p[0.532426307896426, 0.0128012764899086, 0.165421536246213, -1.27432309905606, 1.21271764815168, -1.1655153791871], a = 0.2, v = 0.2, t = 0.2)
movej(p[0.531160498979037, 0.0121065922524358, 0.165428981094466, -1.28623979467265, 1.2358792804633, -1.15938269164022], a = 0.2, v = 0.2, t = 0.2)
movej(p[0.530010519306183, 0.011462301583767, 0.165586182164404, -1.29677471542653, 1.26100272607817, -1.15615277165037], a = 0.2, v = 0.2, t = 0.2)
movej(p[0.528705948366768, 0.010887346866681, 0.165856644117797, -1.30054130864421, 1.28439357694554, -1.15710865033999], a = 0.2, v = 0.2, t = 0.2)
movej(p[0.527306936733079, 0.0103925547811937, 0.166144002954349, -1.29756049079699, 1.2978817712312, -1.16948787509184], a = 0.2, v = 0.2, t = 0.2)
movej(p[0.526480691386695, 0.0103139680422306, 0.166248781015206, -1.28972236882466, 1.30670032257569, -1.18203171334398], a = 0.2, v = 0.2, t = 0.2)
movej(p[0.526522019486437, 0.0105035496385862, 0.1662367686676, -1.28265976792817, 1.30223459782592, -1.19247038501766], a = 0.2, v = 0.2, t = 0.2)
movej(p[0.527209685863384, 0.0108444713815234, 0.166700858873496, -1.27758814695497, 1.29220572415224, -1.19808684082928], a = 0.2, v = 0.2, t = 0.2)
movej(p[0.5284502157596, 0.0115062240999764, 0.167006214342768, -1.26457214892658, 1.26501410432948, -1.21544123908706], a = 0.2, v = 0.2, t = 0.2)
movej(p[0.530020099471151, 0.0122310750254089, 0.16710447994545, -1.26053837243523, 1.23903896139334, -1.20980439448922], a = 0.2, v = 0.2, t = 0.2)
movej(p[0.531297916172689, 0.0129243488625487, 0.167096896119731, -1.25634562339127, 1.21451312188759, -1.19901248489371], a = 0.2, v = 0.2, t = 0.2)
movej(p[0.532045278642231, 0.0133862708042699, 0.167286996827977, -1.25135335202131, 1.19173571885533, -1.1977748946456], a = 0.2, v = 0.2, t = 0.2)
movej(p[0.532514969570997, 0.0137670537899575, 0.167584866982987, -1.24620083794434, 1.17304910611547, -1.20326636260871], a = 0.2, v = 0.2, t = 0.2)
movej(p[0.533235025674554, 0.0138614327022378, 0.167007252605875, -1.24959198317332, 1.15747665838275, -1.20436873836044], a = 0.2, v = 0.2, t = 0.2)
movej(p[0.533564541078214, 0.0136685919133284, 0.166329212858601, -1.26045134277543, 1.16425552096887, -1.18094908007558], a = 0.2, v = 0.2, t = 0.2)
movej(p[0.533246133859994, 0.0131401265291502, 0.165543351115855, -1.26764308659744, 1.18260626697711, -1.15929512602765], a = 0.2, v = 0.2, t = 0.2)
movej(p[0.532535647037407, 0.0125930766742722, 0.164954188924173, -1.27188948221582, 1.2102344119645, -1.15340954129996], a = 0.2, v = 0.2, t = 0.2)
movej(p[0.53175860540056, 0.0120198750532727, 0.164699088196636, -1.28054646428034, 1.2334735259602, -1.14727207841614], a = 0.2, v = 0.2, t = 0.2)
movej(p[0.530656204420645, 0.0114849451427402, 0.165007821351158, -1.28842404328248, 1.25756404685224, -1.14972339696538], a = 0.2, v = 0.2, t = 0.2)
movej(p[0.529142602219716, 0.0110183701822443, 0.165549125819994, -1.29232972961265, 1.27673787033977, -1.15251555771062], a = 0.2, v = 0.2, t = 0.2)
movej(p[0.527835184639788, 0.0108070213346081, 0.165698709730553, -1.28994215552894, 1.29197286257275, -1.16235543967387], a = 0.2, v = 0.2, t = 0.2)
movej(p[0.526880575186261, 0.0105728015498414, 0.16562850984694, -1.28421161940999, 1.29924803836938, -1.17397703997548], a = 0.2, v = 0.2, t = 0.2)
movej(p[0.526612647156298, 0.0105566675113305, 0.165642206326839, -1.27543834374345, 1.2993051050977, -1.19175913388501], a = 0.2, v = 0.2, t = 0.2)
movej(p[0.527079058096577, 0.0107232602909283, 0.165920839868564, -1.26617567739098, 1.29079199855734, -1.20627616447038], a = 0.2, v = 0.2, t = 0.2)
movej(p[0.528491559463567, 0.0111828279997494, 0.16607702975863, -1.26401804295472, 1.27619443661741, -1.20718825584214], a = 0.2, v = 0.2, t = 0.2)
movej(p[0.52993895984319, 0.0117627173633824, 0.166405453531544, -1.26470133417587, 1.25416708484039, -1.1919240379135], a = 0.2, v = 0.2, t = 0.2)
movej(p[0.531095390707748, 0.0124283063053621, 0.166895206446197, -1.25579434537543, 1.22319199841662, -1.19518219807608], a = 0.2, v = 0.2, t = 0.2)
movej(p[0.531869196140327, 0.0131209456499532, 0.167482325548624, -1.25125232415767, 1.19245153374038, -1.20649872295582], a = 0.2, v = 0.2, t = 0.2)
movej(p[0.532637395137762, 0.013396531407326, 0.167266725277813, -1.25438862854764, 1.17215425241538, -1.20347354184627], a = 0.2, v = 0.2, t = 0.2)
movej(p[0.53289796351382, 0.0132961822925907, 0.166710303856433, -1.26697524037528, 1.17268850713557, -1.18943004945175], a = 0.2, v = 0.2, t = 0.2)
movej(p[0.532439969856035, 0.0127250781750079, 0.165678179223257, -1.27673674048453, 1.18420017955808, -1.1729125052534], a = 0.2, v = 0.2, t = 0.2)
movej(p[0.531491306349756, 0.0122253306818309, 0.16504498662932, -1.2849829597193, 1.22270526614793, -1.15336576693857], a = 0.2, v = 0.2, t = 0.2)
movej(p[0.530373543348314, 0.0114710721067979, 0.164648563907724, -1.29198587795949, 1.2505910526191, -1.14378771001424], a = 0.2, v = 0.2, t = 0.2)
movej(p[0.529191581307465, 0.0109462734662729, 0.165077290666037, -1.29551048818504, 1.28051973292129, -1.13925281426519], a = 0.2, v = 0.2, t = 0.2)
movej(p[0.527970854539184, 0.0104629497382787, 0.165459036067008, -1.29236795703121, 1.28942828576475, -1.1579678129659], a = 0.2, v = 0.2, t = 0.2)
movej(p[0.527391112672234, 0.0104287466693118, 0.165782248315813, -1.29169636778018, 1.29578121016432, -1.17458006186081], a = 0.2, v = 0.2, t = 0.2)
movej(p[0.527673191565485, 0.0106482604046841, 0.165876086676652, -1.28699406989807, 1.28800177828923, -1.18154637248265], a = 0.2, v = 0.2, t = 0.2)
movej(p[0.528476791626979, 0.0110968321917561, 0.166029030050193, -1.27631717765892, 1.27182647685419, -1.19306767191171], a = 0.2, v = 0.2, t = 0.2)
movej(p[0.529617233244637, 0.0117894459287305, 0.166136890801482, -1.25932111092992, 1.24681375423262, -1.20708735943079], a = 0.2, v = 0.2, t = 0.2)
movej(p[0.530979314821603, 0.0124839301972131, 0.166076528539929, -1.25026117091796, 1.22539050772992, -1.20724611240228], a = 0.2, v = 0.2, t = 0.2)
movej(p[0.531975899017763, 0.0130888032558027, 0.166534226841714, -1.25213807568557, 1.21549435713331, -1.1882357403078], a = 0.2, v = 0.2, t = 0.2)
movej(p[0.532615564313823, 0.0134893117173878, 0.167096743751784, -1.24798820775177, 1.19754535732043, -1.17743013945221], a = 0.2, v = 0.2, t = 0.2)
movej(p[0.5329003148667, 0.0138026082004428, 0.167395049025526, -1.24256162866332, 1.18073583370403, -1.1873148934642], a = 0.2, v = 0.2, t = 0.2)
movej(p[0.533647009477665, 0.0138903842431613, 0.167051510986467, -1.24409212619858, 1.16204459832967, -1.18632388378733], a = 0.2, v = 0.2, t = 0.2)
movej(p[0.53404716399938, 0.0137416165317721, 0.166612722966121, -1.25052046038683, 1.1562232636342, -1.18123237220521], a = 0.2, v = 0.2, t = 0.2)
movej(p[0.534117467394771, 0.013546979937673, 0.166491269564218, -1.2502881827207, 1.15397829355926, -1.1772716043245], a = 0.2, v = 0.2, t = 0.2)
movej(p[0.534138880937992, 0.0133802297257756, 0.165852713091696, -1.2406909465529, 1.15165811168859, -1.19201912135576], a = 0.2, v = 0.2, t = 0.2)
movej(p[0.534408928557609, 0.0131697004304778, 0.165450244641554, -1.24090715977401, 1.16242690612839, -1.17609219341476], a = 0.2, v = 0.2, t = 0.2)
movej(p[0.534506485783125, 0.0127090644193944, 0.164970974497018, -1.2411499946799, 1.17300017469328, -1.17115272048245], a = 0.2, v = 0.2, t = 0.2)
movej(p[0.534458959524305, 0.0124149025452109, 0.164922460870985, -1.23830424746347, 1.18153470727658, -1.16964712292779], a = 0.2, v = 0.2, t = 0.2)
movej(p[0.534542901147281, 0.0122050991403551, 0.164593323561926, -1.23660179518604, 1.17863423810897, -1.18689855708113], a = 0.2, v = 0.2, t = 0.2)
movej(p[0.534780103298274, 0.0123242508285225, 0.164159321752746, -1.23755058313283, 1.18276126854707, -1.17089978856095], a = 0.2, v = 0.2, t = 0.2)
movej(p[0.534811667776589, 0.0122728862602324, 0.163672942808678, -1.23892687014794, 1.18671299599682, -1.15912193091505], a = 0.2, v = 0.2, t = 0.2)
movej(p[0.534482492139207, 0.0122269683729327, 0.163019815942303, -1.24224734435241, 1.20248710163268, -1.14965639619952], a = 0.2, v = 0.2, t = 0.2)
movej(p[0.533913502843646, 0.0117549799694768, 0.162107423984733, -1.25545511604512, 1.22615343619909, -1.1397839918898], a = 0.2, v = 0.2, t = 0.2)
movej(p[0.53263816229034, 0.010980834570047, 0.161808947172005, -1.27920693305878, 1.26130810861767, -1.11783739787809], a = 0.2, v = 0.2, t = 0.2)
movej(p[0.530615446742509, 0.0100290240390926, 0.162208135603859, -1.29080432636681, 1.29327705229969, -1.11576531422136], a = 0.2, v = 0.2, t = 0.2)
movej(p[0.528725026126585, 0.00958458067841607, 0.163220918185878, -1.29310237424362, 1.32102015085372, -1.11681446999796], a = 0.2, v = 0.2, t = 0.2)
movej(p[0.527450823206438, 0.00944161760738345, 0.16392689404312, -1.28963937547556, 1.33917418927968, -1.12425130243004], a = 0.2, v = 0.2, t = 0.2)
movej(p[0.526721787803946, 0.00941593426306227, 0.164643157261314, -1.28730619731359, 1.34598312861235, -1.13476350194211], a = 0.2, v = 0.2, t = 0.2)
movej(p[0.526371561036671, 0.00932034621232253, 0.165058369852694, -1.28073192687349, 1.33604197766686, -1.16351515347211], a = 0.2, v = 0.2, t = 0.2)
movej(p[0.526986523648507, 0.00975651623217091, 0.165437176307007, -1.2750759440817, 1.31695659250353, -1.18647898651156], a = 0.2, v = 0.2, t = 0.2)
movej(p[0.528319420756941, 0.0105500837172199, 0.165932825906022, -1.27049534148561, 1.29236203785556, -1.19003065287165], a = 0.2, v = 0.2, t = 0.2)
movej(p[0.529909597909459, 0.0115863341423364, 0.16673156734263, -1.26413470040908, 1.26087691097452, -1.19127648602508], a = 0.2, v = 0.2, t = 0.2)
movej(p[0.531042615647175, 0.0124530129002358, 0.16732145824121, -1.25678748219512, 1.22913384730571, -1.19818861161801], a = 0.2, v = 0.2, t = 0.2)
movej(p[0.532186655067073, 0.013106205981303, 0.167307432031314, -1.25206610096615, 1.19950399780801, -1.20012542147964], a = 0.2, v = 0.2, t = 0.2)
movej(p[0.532877478097043, 0.0134560613511825, 0.167291455187777, -1.24942381552409, 1.18228345751709, -1.19168439728602], a = 0.2, v = 0.2, t = 0.2)
movej(p[0.533324850987864, 0.0136549445493671, 0.167234969614051, -1.24228452419506, 1.16841706163819, -1.19527469247638], a = 0.2, v = 0.2, t = 0.2)
movej(p[0.533594766675231, 0.0138109464831612, 0.167180532968625, -1.23316319574368, 1.15516433900206, -1.19926528202738], a = 0.2, v = 0.2, t = 0.2)
movej(p[0.534154270305196, 0.0139161744597513, 0.166724059299068, -1.23246590429326, 1.14999259273083, -1.1957981884419], a = 0.2, v = 0.2, t = 0.2)
movej(p[0.53447782328149, 0.0137415647527778, 0.166115698006938, -1.24306595141593, 1.15172570722424, -1.18023100225329], a = 0.2, v = 0.2, t = 0.2)
movej(p[0.534273841372532, 0.0133402246482223, 0.165490409043584, -1.25365813353584, 1.16432355770373, -1.16486200249272], a = 0.2, v = 0.2, t = 0.2)
movej(p[0.533739452291402, 0.0128494803731353, 0.164696854725003, -1.26426478177935, 1.18558299512814, -1.15718320438188], a = 0.2, v = 0.2, t = 0.2)
movej(p[0.533257395114125, 0.012146602091076, 0.164013692687968, -1.27498265168807, 1.20685465609266, -1.1465277922711], a = 0.2, v = 0.2, t = 0.2)
movej(p[0.532417762072704, 0.0114160253445197, 0.164002702999776, -1.2848284268638, 1.23157331807401, -1.1450366981361], a = 0.2, v = 0.2, t = 0.2)
movej(p[0.531480352373903, 0.010978790099525, 0.164158404016882, -1.28081492514122, 1.24004570254207, -1.16059223637632], a = 0.2, v = 0.2, t = 0.2)
movej(p[0.53120351580713, 0.011085988828993, 0.164336582095493, -1.27212185500776, 1.24421142774753, -1.17565429318777], a = 0.2, v = 0.2, t = 0.2)
movej(p[0.531621484084094, 0.0113409052655702, 0.164322082650181, -1.26538610102084, 1.23653278233185, -1.17628347896631], a = 0.2, v = 0.2, t = 0.2)
movej(p[0.532425267735307, 0.0117350098145219, 0.164781332632802, -1.25379822821838, 1.22593626959878, -1.17557109372793], a = 0.2, v = 0.2, t = 0.2)
movej(p[0.533014933582012, 0.0123706402367411, 0.165271247881371, -1.23493147451073, 1.20670192962106, -1.18251776157058], a = 0.2, v = 0.2, t = 0.2)
movej(p[0.533730866630702, 0.0129415547104751, 0.165434197591269, -1.22213113917905, 1.19265057872213, -1.19279957792134], a = 0.2, v = 0.2, t = 0.2)
movej(p[0.534239616691871, 0.0131343428374014, 0.165329150359145, -1.22366624576134, 1.18380404875358, -1.18097017474391], a = 0.2, v = 0.2, t = 0.2)
movej(p[0.534481829409985, 0.012918482027777, 0.165304495103073, -1.23109342959805, 1.17398590240215, -1.17509711491284], a = 0.2, v = 0.2, t = 0.2)
movej(p[0.534562353938, 0.0128604278911276, 0.165102067213428, -1.23553009482416, 1.16593713984892, -1.18096196214474], a = 0.2, v = 0.2, t = 0.2)
movej(p[0.534960110576448, 0.0126159708999871, 0.164008717018727, -1.24719648101175, 1.16719757464362, -1.17326541884419], a = 0.2, v = 0.2, t = 0.2)
movej(p[0.534982090558086, 0.0122090114467378, 0.163198243642102, -1.26326651720533, 1.18207015812211, -1.15484121565963], a = 0.2, v = 0.2, t = 0.2)
movej(p[0.534372473837991, 0.0117105022005078, 0.162664030553955, -1.2702022693121, 1.20339673663195, -1.13821321992845], a = 0.2, v = 0.2, t = 0.2)
movej(p[0.533400285383821, 0.0113926359905492, 0.162856626802644, -1.27069726243318, 1.22761977826882, -1.13935357950492], a = 0.2, v = 0.2, t = 0.2)
movej(p[0.532651002695623, 0.0111753805202987, 0.162785974206876, -1.27087482281754, 1.24670109434989, -1.14168605853768], a = 0.2, v = 0.2, t = 0.2)
movej(p[0.532164642909693, 0.0108529530375553, 0.16302492877791, -1.27006451101004, 1.25923875601933, -1.14381917612962], a = 0.2, v = 0.2, t = 0.2)
movej(p[0.532107750245669, 0.0108913424846002, 0.163366658146322, -1.25671692308883, 1.24826205428944, -1.16015414330327], a = 0.2, v = 0.2, t = 0.2)
movej(p[0.532684714477372, 0.0114090236924962, 0.163629584279915, -1.23836233043255, 1.23124437693621, -1.18320816071886], a = 0.2, v = 0.2, t = 0.2)
movej(p[0.533595974073724, 0.0119623633038469, 0.163647279266958, -1.23166830144768, 1.21064375239279, -1.177718380627], a = 0.2, v = 0.2, t = 0.2)
movej(p[0.534168970629155, 0.0121055434923237, 0.163967988308914, -1.23423572986056, 1.19799743881686, -1.17048993242924], a = 0.2, v = 0.2, t = 0.2)
movej(p[0.534430035921467, 0.0122033412056077, 0.164255962413351, -1.23064913850623, 1.18346134104732, -1.17625362724756], a = 0.2, v = 0.2, t = 0.2)
movej(p[0.534784529583183, 0.0124057308299291, 0.164126016646101, -1.22706572457593, 1.17836082726295, -1.18642028808108], a = 0.2, v = 0.2, t = 0.2)
movej(p[0.535192790395267, 0.012562470158448, 0.163643267385473, -1.23376775265751, 1.17818697828983, -1.17163825376097], a = 0.2, v = 0.2, t = 0.2)
movej(p[0.535290692657093, 0.0123648637284641, 0.163158451311571, -1.24427903570418, 1.18170899391975, -1.15078299178846], a = 0.2, v = 0.2, t = 0.2)
movej(p[0.535025126544016, 0.0120886123886442, 0.162768342736514, -1.24980185814814, 1.19097659662942, -1.14583304426126], a = 0.2, v = 0.2, t = 0.2)
movej(p[0.534829033136633, 0.011826972857859, 0.161975006735307, -1.25476447450131, 1.20840593471795, -1.13773942472165], a = 0.2, v = 0.2, t = 0.2)
movej(p[0.534380271470505, 0.011442756236415, 0.161604870398642, -1.26402410543231, 1.23315692854396, -1.1256311734576], a = 0.2, v = 0.2, t = 0.2)
movej(p[0.533706418693395, 0.0111096136315033, 0.161741202897238, -1.26717064537633, 1.24652528483309, -1.123696762608], a = 0.2, v = 0.2, t = 0.2)
movej(p[0.533276095765617, 0.0110514784100384, 0.162140705824329, -1.25648523608489, 1.24687936537121, -1.15014674655129], a = 0.2, v = 0.2, t = 0.2)
movej(p[0.53348572329498, 0.0113003046352582, 0.162104457741949, -1.24566585054758, 1.23665735563781, -1.15883682463622], a = 0.2, v = 0.2, t = 0.2)
movej(p[0.533904652316534, 0.0113807815540643, 0.162262029699286, -1.24245310941468, 1.22683773658703, -1.15927993225695], a = 0.2, v = 0.2, t = 0.2)
movej(p[0.534307719324073, 0.0115519503167739, 0.162638420386527, -1.23527904577131, 1.21147110503141, -1.16018066235221], a = 0.2, v = 0.2, t = 0.2)
movej(p[0.534699423411095, 0.0118275085721687, 0.162968758772868, -1.22832842696386, 1.2007833298515, -1.1781338224939], a = 0.2, v = 0.2, t = 0.2)
movej(p[0.535279918256938, 0.012121413634535, 0.162604511886703, -1.22383267528058, 1.19077055118922, -1.17354114807557], a = 0.2, v = 0.2, t = 0.2)
movej(p[0.535593469997681, 0.0120927420187321, 0.162259976312631, -1.22529028241654, 1.18726975212976, -1.16563579312658], a = 0.2, v = 0.2, t = 0.2)
movej(p[0.535651911136948, 0.0119929887916451, 0.162012857190087, -1.22039979370328, 1.17765239479613, -1.16837140455112], a = 0.2, v = 0.2, t = 0.2)
movej(p[0.535914364773334, 0.0120172773568534, 0.161714636718127, -1.22657601439975, 1.18070354306799, -1.16554626067192], a = 0.2, v = 0.2, t = 0.2)
movej(p[0.536273765256074, 0.0119493580195201, 0.160962114838676, -1.24203575387814, 1.19392734191998, -1.14197228918454], a = 0.2, v = 0.2, t = 0.2)
movej(p[0.536048659353279, 0.0115701541545952, 0.160767678469, -1.26235320374074, 1.21786490418509, -1.11039723776202], a = 0.2, v = 0.2, t = 0.2)
movej(p[0.535311032167607, 0.0111050848456878, 0.160671258523602, -1.266722605975, 1.23341404773053, -1.10454333435385], a = 0.2, v = 0.2, t = 0.2)
movej(p[0.534663153051256, 0.0108467227827206, 0.160695561427032, -1.26649133195498, 1.24483256758083, -1.10746617224489], a = 0.2, v = 0.2, t = 0.2)
movej(p[0.534246335646257, 0.0107124930474986, 0.160652669830275, -1.26296956031042, 1.25382486723464, -1.11236921937186], a = 0.2, v = 0.2, t = 0.2)
movej(p[0.534186327740657, 0.0107414735808835, 0.161032681566871, -1.25281568479856, 1.25365925391025, -1.12309094590954], a = 0.2, v = 0.2, t = 0.2)
movej(p[0.534365620068267, 0.0109200600036605, 0.161585090682346, -1.24031109863329, 1.2382324098814, -1.14772694802485], a = 0.2, v = 0.2, t = 0.2)
movej(p[0.535050318972573, 0.0112307370190321, 0.161618483749918, -1.23349769627799, 1.22129732824107, -1.15735237893385], a = 0.2, v = 0.2, t = 0.2)
movej(p[0.535552478367426, 0.0113434633896893, 0.161638785681336, -1.24015957842091, 1.21720791463803, -1.1381439514465], a = 0.2, v = 0.2, t = 0.2)
movej(p[0.535805516066704, 0.0114355486929543, 0.161451770702613, -1.23135472646408, 1.20782068256453, -1.13981620484666], a = 0.2, v = 0.2, t = 0.2)
movej(p[0.535956371632897, 0.0115872216176964, 0.161386916109425, -1.2227977888159, 1.20056383972803, -1.1523578308935], a = 0.2, v = 0.2, t = 0.2)
movej(p[0.536400444736614, 0.0116457491281687, 0.160709017260848, -1.22946596139404, 1.20101956616383, -1.1569641376087], a = 0.2, v = 0.2, t = 0.2)
movej(p[0.536554796277206, 0.0114556282273617, 0.160342683372171, -1.24980897005981, 1.21476318125985, -1.12789247215868], a = 0.2, v = 0.2, t = 0.2)
movej(p[0.536095012627336, 0.0110236665869239, 0.15995073651429, -1.26351904024326, 1.22595519842136, -1.11172619909805], a = 0.2, v = 0.2, t = 0.2)
movej(p[0.535357816818409, 0.010713932233729, 0.15978290129078, -1.26514639855928, 1.23837655532086, -1.11410649266939], a = 0.2, v = 0.2, t = 0.2)
movej(p[0.53483259679827, 0.010565050791397, 0.159393003575764, -1.25978292396447, 1.24777647935655, -1.12243404659347], a = 0.2, v = 0.2, t = 0.2)
movej(p[0.534595176931009, 0.0104063555572941, 0.159691023775251, -1.25745306165961, 1.25731699266921, -1.12563801094512], a = 0.2, v = 0.2, t = 0.2)
movej(p[0.534619502186013, 0.010477780988619, 0.160183244284504, -1.23912968915225, 1.2435202189844, -1.14412355895788], a = 0.2, v = 0.2, t = 0.2)
movej(p[0.534947506606099, 0.0107564491178499, 0.160583677933259, -1.2271708345026, 1.22976430579927, -1.16632423692784], a = 0.2, v = 0.2, t = 0.2)
movej(p[0.535537708378023, 0.0110601333275188, 0.160368552203474, -1.22904452263912, 1.21983411238412, -1.15923791426841], a = 0.2, v = 0.2, t = 0.2)
movej(p[0.535856236761886, 0.0110992883599418, 0.160359529934674, -1.23643933330191, 1.2182598307806, -1.14054315185875], a = 0.2, v = 0.2, t = 0.2)
movej(p[0.53597179548045, 0.0111475188531724, 0.160352839248047, -1.23419611874468, 1.21181292457735, -1.14407156502351], a = 0.2, v = 0.2, t = 0.2)
movej(p[0.536228171283104, 0.0113098459466774, 0.160090059328449, -1.22983019753201, 1.20168855113952, -1.15234067971963], a = 0.2, v = 0.2, t = 0.2)
movej(p[0.536646794814598, 0.0113501531540223, 0.159361402407247, -1.24014040051479, 1.2000441684697, -1.1429986104898], a = 0.2, v = 0.2, t = 0.2)
movej(p[0.536640687118302, 0.0111244696773852, 0.159108022855351, -1.25396890473653, 1.21184630904008, -1.12067643908469], a = 0.2, v = 0.2, t = 0.2)
movej(p[0.536182982263111, 0.0107136042217186, 0.159131555234618, -1.26204130764461, 1.22763483269692, -1.11812191581356], a = 0.2, v = 0.2, t = 0.2)
movej(p[0.53563076219784, 0.0104475020790993, 0.159038781951258, -1.26481544235976, 1.24771913851988, -1.11882249694368], a = 0.2, v = 0.2, t = 0.2)
movej(p[0.535294098325737, 0.0100887665878919, 0.158814230076251, -1.27092337091957, 1.25660779439393, -1.11130014905733], a = 0.2, v = 0.2, t = 0.2)
movej(p[0.535038189630851, 0.00985244332934925, 0.15894284684403, -1.26797654786192, 1.25904064302825, -1.10851177628845], a = 0.2, v = 0.2, t = 0.2)
movej(p[0.534993413417353, 0.00989069448921167, 0.15946591613387, -1.26065361495774, 1.24590550949456, -1.12954925007098], a = 0.2, v = 0.2, t = 0.2)
movej(p[0.535533468043482, 0.0102645150666314, 0.1593745179523, -1.24817461847465, 1.23367009254499, -1.1484677647123], a = 0.2, v = 0.2, t = 0.2)
movej(p[0.536004278195627, 0.0104488915278104, 0.159182591585561, -1.25027701845237, 1.2257093918174, -1.14052945376865], a = 0.2, v = 0.2, t = 0.2)
movej(p[0.536363982214882, 0.0105965881577888, 0.159126104331834, -1.24103096954035, 1.22009401873962, -1.1338976322149], a = 0.2, v = 0.2, t = 0.2)
movej(p[0.536416322864266, 0.0107971613688714, 0.159193331750482, -1.23024767433873, 1.213493143883, -1.14053692193261], a = 0.2, v = 0.2, t = 0.2)
movej(p[0.536728520429356, 0.0110569677736861, 0.158644131449345, -1.22533086846833, 1.21346271387709, -1.14306002708114], a = 0.2, v = 0.2, t = 0.2)
movej(p[0.536986676207598, 0.0110710405569318, 0.157896205912255, -1.23257142940569, 1.21679483906473, -1.13250692053431], a = 0.2, v = 0.2, t = 0.2)
movej(p[0.536993171866179, 0.0108607923411111, 0.157788218764113, -1.23978530197365, 1.22102660699066, -1.11549367292358], a = 0.2, v = 0.2, t = 0.2)
movej(p[0.536749950276083, 0.0106103824439377, 0.157599823101719, -1.24071942261265, 1.22086904656826, -1.12656932877797], a = 0.2, v = 0.2, t = 0.2)
movej(p[0.536642870894464, 0.0103363837050112, 0.157165027518026, -1.25043205079348, 1.22865320793219, -1.12610405864207], a = 0.2, v = 0.2, t = 0.2)
movej(p[0.536357277447822, 0.0100343902762731, 0.156600350156044, -1.26087971291636, 1.23920068620793, -1.11187905095533], a = 0.2, v = 0.2, t = 0.2)
movej(p[0.53602854948048, 0.00971692967218965, 0.156769458621952, -1.25918688977834, 1.24121868457804, -1.1175780723065], a = 0.2, v = 0.2, t = 0.2)
movej(p[0.535804982583809, 0.00984690469598805, 0.15726307349957, -1.24204764591712, 1.23821655643336, -1.1387471357377], a = 0.2, v = 0.2, t = 0.2)
movej(p[0.536006600656962, 0.0101381552652877, 0.157291124111768, -1.23227976091819, 1.23903326304052, -1.1502328122566], a = 0.2, v = 0.2, t = 0.2)
movej(p[0.536292792227803, 0.0103525113703152, 0.157268726854864, -1.23597638210407, 1.24381705329845, -1.13212364236797], a = 0.2, v = 0.2, t = 0.2)
movej(p[0.5364293718506, 0.0102844565703141, 0.157429502143181, -1.23461867433846, 1.24010783206828, -1.12621707354519], a = 0.2, v = 0.2, t = 0.2)
movej(p[0.536567031066722, 0.0103242678071945, 0.157688246042113, -1.23081504189428, 1.23030142609377, -1.13960671900798], a = 0.2, v = 0.2, t = 0.2)
movej(p[0.536946769367461, 0.0104183772109771, 0.157300799159725, -1.23198042054407, 1.22548060936948, -1.1382733321231], a = 0.2, v = 0.2, t = 0.2)
movej(p[0.537168774830815, 0.0104641239438431, 0.156942278280734, -1.23943531108686, 1.23375954615526, -1.11719186294907], a = 0.2, v = 0.2, t = 0.2)
movej(p[0.537196821391474, 0.0104243667257483, 0.156615392484094, -1.23374999415322, 1.23902107496758, -1.11231905174101], a = 0.2, v = 0.2, t = 0.2)
movej(p[0.537078827613014, 0.0102902075591282, 0.156520000837413, -1.23214428201453, 1.2463571934179, -1.11721550936511], a = 0.2, v = 0.2, t = 0.2)
movej(p[0.53709569071544, 0.0101081606434467, 0.156124290101815, -1.24169564686535, 1.26156911953504, -1.10660663607304], a = 0.2, v = 0.2, t = 0.2)
movej(p[0.536865820488457, 0.00978038375205524, 0.155871411473385, -1.25471945024563, 1.2733620363737, -1.08400155937214], a = 0.2, v = 0.2, t = 0.2)
movej(p[0.536426968695492, 0.00942228179409831, 0.156329226103906, -1.25982774188281, 1.27292633715831, -1.0882913880142], a = 0.2, v = 0.2, t = 0.2)
movej(p[0.536197252878555, 0.00936349868470208, 0.156620130613322, -1.2459276431891, 1.25831507897611, -1.12073730341881], a = 0.2, v = 0.2, t = 0.2)
movej(p[0.536414134913463, 0.00944799831226823, 0.156610646759921, -1.2480231032594, 1.25543297830224, -1.11806833065933], a = 0.2, v = 0.2, t = 0.2)
movej(p[0.536669358931685, 0.00963108368345174, 0.156248412871693, -1.24333999245828, 1.2552971964926, -1.10710254803264], a = 0.2, v = 0.2, t = 0.2)
movej(p[0.536783945176036, 0.00973111072336251, 0.156000085695588, -1.23200095673862, 1.24476516356436, -1.11659771446665], a = 0.2, v = 0.2, t = 0.2)
movej(p[0.536955029862838, 0.00982080396327639, 0.155922165256962, -1.2255480093666, 1.23807213338921, -1.13824369384658], a = 0.2, v = 0.2, t = 0.2)
movej(p[0.53729113252883, 0.00986976329890734, 0.155547802423113, -1.23329804376072, 1.23785424946848, -1.12707064757158], a = 0.2, v = 0.2, t = 0.2)
movej(p[0.537403845827955, 0.00976247939664147, 0.155296157442008, -1.24409575548776, 1.2482398231893, -1.10755665152299], a = 0.2, v = 0.2, t = 0.2)
movej(p[0.537280093344087, 0.00963296186895735, 0.155021621209866, -1.2442814045915, 1.24910332175208, -1.10910837250095], a = 0.2, v = 0.2, t = 0.2)
movej(p[0.537148275148096, 0.00955659905109776, 0.154755656506842, -1.23897842003046, 1.25403576852233, -1.12304614430194], a = 0.2, v = 0.2, t = 0.2)
movej(p[0.537202548679084, 0.00949367835276631, 0.154213573081938, -1.24802360935809, 1.26707921297399, -1.10631285098572], a = 0.2, v = 0.2, t = 0.2)
movej(p[0.537012756130918, 0.00933948653979341, 0.154028264141321, -1.2549696338912, 1.28145857123347, -1.08012517249382], a = 0.2, v = 0.2, t = 0.2)
movej(p[0.536441184472477, 0.00909067293815337, 0.154739391555928, -1.25901793223284, 1.28897783224331, -1.07063875557225], a = 0.2, v = 0.2, t = 0.2)
movej(p[0.53601245882693, 0.0090584508809908, 0.155269297527099, -1.25134383370723, 1.29232098232324, -1.08942156371625], a = 0.2, v = 0.2, t = 0.2)
movej(p[0.535929194275624, 0.00903313005514671, 0.155376937580195, -1.2534824572916, 1.29083693595328, -1.09031091054147], a = 0.2, v = 0.2, t = 0.2)
movej(p[0.536165590105181, 0.0090227600513273, 0.155177756742751, -1.24981098584125, 1.27920305170416, -1.09936140008252], a = 0.2, v = 0.2, t = 0.2)
movej(p[0.536369197402746, 0.00908546331692216, 0.155410916653031, -1.23970337105247, 1.26504424617558, -1.11107762802741], a = 0.2, v = 0.2, t = 0.2)
movej(p[0.536644007115582, 0.00929657590734869, 0.155495619923302, -1.22629320495763, 1.2583274363856, -1.12949029279908], a = 0.2, v = 0.2, t = 0.2)
movej(p[0.537048528743045, 0.00952939227596734, 0.155294480138531, -1.22739051181948, 1.26168678448795, -1.11337867118585], a = 0.2, v = 0.2, t = 0.2)
movej(p[0.537312323740132, 0.00943212853205677, 0.155000160493192, -1.23509395924849, 1.25889300404463, -1.10148462188886], a = 0.2, v = 0.2, t = 0.2)
