def moving():
set_payload_mass(0)
set_tcp(p[0,0,0,0,0,0])
movej(p[-0.4576, -0.1952, 0.068, 1.564, 0, 0], a = 0.2, v = 0.2, t = 0.2)
movej(p[-0.4575, -0.195300677317953, 0.0679006819369415, 1.56574294009214, -0.00273964251062781, 1.17006131483168E-05], a = 0.2, v = 0.2, t = 0.2)
movej(p[-0.4576, -0.1952, 0.068, 1.564, 0, 0], a = 0.2, v = 0.2, t = 0.2)
movej(p[-0.4575, -0.195300677317953, 0.0679006819369415, 1.56574294009214, -0.00273964251062781, 1.17006131483168E-05], a = 0.2, v = 0.2, t = 0.2)
movej(p[-0.4576, -0.1952, 0.068, 1.564, 0, 0], a = 0.2, v = 0.2, t = 0.2)
movej(p[-0.4575, -0.195300677317953, 0.0679006819369415, 1.56574294009214, -0.00273964251062781, 1.17006131483168E-05], a = 0.2, v = 0.2, t = 0.2)
movej(p[-0.4576, -0.1952, 0.068, 1.564, 0, 0], a = 0.2, v = 0.2, t = 0.2)
movej(p[-0.4577427, -0.195273914840027, 0.0681437356651071, 1.56474504632517, 0.0085591525712678, 0.00153109644801579], a = 0.2, v = 0.2, t = 0.2)
movej(p[-0.4577996, -0.195529892157473, 0.0682803685127432, 1.56130012156244, 0.0144534588028411, 0.00115261491747238], a = 0.2, v = 0.2, t = 0.2)
movej(p[-0.45780366, -0.19555491914378, 0.0683691806541225, 1.5600809787268, 0.0128648639303153, 0.00401813888103307], a = 0.2, v = 0.2, t = 0.2)
movej(p[-0.457651422, -0.195544881316078, 0.0683423418144489, 1.55827725347598, 0.0190644426965974, 0.00131991066090144], a = 0.2, v = 0.2, t = 0.2)
movej(p[-0.457625911, -0.195485762473833, 0.0683846410034676, 1.55941400420304, 0.0192419095729392, 0.00444539727308628], a = 0.2, v = 0.2, t = 0.2)
movej(p[-0.457658086, -0.195350590107143, 0.0685169553907551, 1.56071880698463, 0.0224002976197903, 0.00335078995307725], a = 0.2, v = 0.2, t = 0.2)
movej(p[-0.457567336, -0.194868975940066, 0.0686027441899719, 1.56430311741822, 0.0137844217680497, 0.00791276618029335], a = 0.2, v = 0.2, t = 0.2)
movej(p[-0.45748872, -0.193973560530572, 0.0686343394307705, 1.57208380263, 0.0244241796790074, 0.00811978712562085], a = 0.2, v = 0.2, t = 0.2)
movej(p[-0.457633129, -0.193022738479392, 0.0686932087427174, 1.57825136205783, 0.0319776195477289, 0.00450477904893931], a = 0.2, v = 0.2, t = 0.2)
movej(p[-0.45793689, -0.19206581823815, 0.0686929352437912, 1.58510792184892, 0.0410773288382821, -0.00204995127158625], a = 0.2, v = 0.2, t = 0.2)
movej(p[-0.45805641, -0.191217771950211, 0.0685644387208318, 1.591417702963, 0.0250737236689933, -0.00157885763261557], a = 0.2, v = 0.2, t = 0.2)
movej(p[-0.45820274, -0.190697168850182, 0.0684601281502253, 1.59896725374252, 0.0276475387226229, -0.0059035649721971], a = 0.2, v = 0.2, t = 0.2)
movej(p[-0.45835825, -0.19087940317716, 0.0684556965623829, 1.59939987959876, 0.0286986346287132, -0.0142793327532961], a = 0.2, v = 0.2, t = 0.2)
movej(p[-0.45839055, -0.191772720420676, 0.068426767123439, 1.59706497518236, 0.0309700765670781, -0.0201118769837026], a = 0.2, v = 0.2, t = 0.2)
movej(p[-0.45832781, -0.192870253016191, 0.0683668448723021, 1.59289967404868, 0.0279086006187838, -0.0185159537380165], a = 0.2, v = 0.2, t = 0.2)
movej(p[-0.45836922, -0.194047503923538, 0.0684074967314461, 1.58575946784786, 0.0302870532396332, -0.0129012865983027], a = 0.2, v = 0.2, t = 0.2)
movej(p[-0.45838968, -0.194961949389066, 0.0684980836459212, 1.5765298710233, 0.0283703046631564, -0.00634336440348078], a = 0.2, v = 0.2, t = 0.2)
movej(p[-0.45823682, -0.195472799759106, 0.0685218360738123, 1.56604545478935, 0.0290168695485011, -0.00518001350182736], a = 0.2, v = 0.2, t = 0.2)
movej(p[-0.45805915, -0.195533217501443, 0.0685473872794759, 1.56377711816977, 0.0276106829674618, -0.00113671523786688], a = 0.2, v = 0.2, t = 0.2)
movej(p[-0.45801607, -0.195478140403161, 0.0686438851890122, 1.56248343111725, 0.0240545783322271, 0.00204337002227255], a = 0.2, v = 0.2, t = 0.2)
movej(p[-0.45790529, -0.195149342485958, 0.0687226524072444, 1.56595127572414, 0.0160413812146596, 0.00619691478437426], a = 0.2, v = 0.2, t = 0.2)
movej(p[-0.45774482, -0.194451115221741, 0.0686926563703545, 1.56900750255141, 0.0202187839246276, 0.00687219350298091], a = 0.2, v = 0.2, t = 0.2)
movej(p[-0.45772289, -0.193523634436024, 0.0687249337018079, 1.57637039349309, 0.0324950528777635, 0.00322552634508217], a = 0.2, v = 0.2, t = 0.2)
movej(p[-0.45792356, -0.192489005726885, 0.0687256420974817, 1.5823008006667, 0.0411056415941822, -0.00165564391239247], a = 0.2, v = 0.2, t = 0.2)
movej(p[-0.45802578, -0.191647109503558, 0.0686192278820389, 1.58846136202403, 0.033824084960321, -0.00479532296757516], a = 0.2, v = 0.2, t = 0.2)
movej(p[-0.45816509, -0.190900414949954, 0.0684687496656186, 1.59396268959505, 0.0381518655961547, -0.0128156081668395], a = 0.2, v = 0.2, t = 0.2)
movej(p[-0.45830556, -0.190753874423913, 0.0684300728427431, 1.59661903480794, 0.0374171405207936, -0.0194833259567895], a = 0.2, v = 0.2, t = 0.2)
movej(p[-0.45842369, -0.191177576920867, 0.0684605731456106, 1.59751980726655, 0.0326935931746433, -0.0207208014054657], a = 0.2, v = 0.2, t = 0.2)
movej(p[-0.45832476, -0.192153416701145, 0.0684138941425518, 1.59448638265604, 0.0293981970096391, -0.0204478483541764], a = 0.2, v = 0.2, t = 0.2)
movej(p[-0.45830307, -0.193330298448323, 0.0684352930481361, 1.58994215475003, 0.029002312780466, -0.0145979432778225], a = 0.2, v = 0.2, t = 0.2)
movej(p[-0.45833714, -0.194425919522864, 0.0685050708011919, 1.57913435357513, 0.034978740711616, -0.0151576408035984], a = 0.2, v = 0.2, t = 0.2)
movej(p[-0.45824279, -0.195087043731422, 0.0685346546660126, 1.57112032579492, 0.0213389311025849, -0.00358645933754919], a = 0.2, v = 0.2, t = 0.2)
movej(p[-0.45811148, -0.195312236757409, 0.0685246749091451, 1.5658802004262, 0.0278675534815394, -0.00352036163682576], a = 0.2, v = 0.2, t = 0.2)
movej(p[-0.4580379, -0.195347831426982, 0.068597678506303, 1.56376212130926, 0.0311116324371032, -0.00339778567831054], a = 0.2, v = 0.2, t = 0.2)
movej(p[-0.45800534, -0.195231857857274, 0.0687066928357709, 1.56354043311253, 0.0341678807547099, -0.00568158405249184], a = 0.2, v = 0.2, t = 0.2)
movej(p[-0.45778556, -0.194792423337935, 0.0687294068427425, 1.56792531345751, 0.027892997414765, -0.0018388742031804], a = 0.2, v = 0.2, t = 0.2)
movej(p[-0.4577763, -0.194044953849922, 0.0687974184056636, 1.57606377764423, 0.0301976802902479, 0.00160130822881006], a = 0.2, v = 0.2, t = 0.2)
movej(p[-0.45790675, -0.193102934993644, 0.0688558475363734, 1.58314024452025, 0.0363986208227036, 0.000609302364774383], a = 0.2, v = 0.2, t = 0.2)
movej(p[-0.45806494, -0.19210529760876, 0.0688138163481718, 1.58862024733696, 0.0326716989543596, -2.67820172095352E-05], a = 0.2, v = 0.2, t = 0.2)
movej(p[-0.45814709, -0.191206226444438, 0.0686740927868597, 1.59384405135021, 0.0328063257783188, -0.00295183411530511], a = 0.2, v = 0.2, t = 0.2)
movej(p[-0.45833432, -0.190800450806122, 0.0686102735503451, 1.59586619920908, 0.0316359659940129, -0.0106570867824108], a = 0.2, v = 0.2, t = 0.2)
movej(p[-0.45841982, -0.190896953168918, 0.0685513980471639, 1.59631698276514, 0.0342318643022338, -0.0205319159301087], a = 0.2, v = 0.2, t = 0.2)
movej(p[-0.45835921, -0.191425419291071, 0.0684404670860367, 1.59528356558743, 0.0272959256440455, -0.0214408740822878], a = 0.2, v = 0.2, t = 0.2)
movej(p[-0.45830293, -0.192433443647739, 0.0683961668731309, 1.59097648257306, 0.0309411442558176, -0.0213654122440825], a = 0.2, v = 0.2, t = 0.2)
movej(p[-0.45828579, -0.193644019698807, 0.0684038044566358, 1.58278298017285, 0.0241017922288366, -0.0133154491481293], a = 0.2, v = 0.2, t = 0.2)
movej(p[-0.45816858, -0.194670791585835, 0.0684143729242809, 1.57290785384002, 0.0183987947724408, -0.00802700669971272], a = 0.2, v = 0.2, t = 0.2)
movej(p[-0.45800179, -0.195111822440083, 0.068382639558138, 1.5681087183506, 0.013037024195125, -0.0010358593929031], a = 0.2, v = 0.2, t = 0.2)
movej(p[-0.45791392, -0.195322033242587, 0.0684236991567183, 1.56487425301472, 0.00730039785157624, 0.00556934205189416], a = 0.2, v = 0.2, t = 0.2)
movej(p[-0.45778962, -0.195355056884595, 0.0684644745361584, 1.56432829633491, 0.00501748970839509, 0.00819383844949921], a = 0.2, v = 0.2, t = 0.2)
movej(p[-0.457616277, -0.195118107322671, 0.0685103952224345, 1.5666328970139, 0.00222580832979214, 0.0127007483020538], a = 0.2, v = 0.2, t = 0.2)
movej(p[-0.457555457, -0.194533589329775, 0.0686217052484178, 1.57115327662472, 0.0208089083614665, 0.00501874693118017], a = 0.2, v = 0.2, t = 0.2)
movej(p[-0.457636427, -0.193579367631241, 0.0687349527112884, 1.57680080984719, 0.0253014597337297, 0.00317816980923745], a = 0.2, v = 0.2, t = 0.2)
movej(p[-0.457698509, -0.192543712774023, 0.0686953632023005, 1.58020420993721, 0.0319178839570623, -0.00406481858501464], a = 0.2, v = 0.2, t = 0.2)
movej(p[-0.45781171, -0.191535506823329, 0.0686045290601236, 1.58824585866352, 0.0251119597697067, -0.00199266401575241], a = 0.2, v = 0.2, t = 0.2)
movej(p[-0.45805197, -0.190885645527236, 0.068581911902043, 1.59245969114473, 0.0209665331768833, -0.00496713785259764], a = 0.2, v = 0.2, t = 0.2)
movej(p[-0.45817804, -0.190745050875713, 0.0685365053335397, 1.59531554386578, 0.0116931077593129, -0.00657843121535487], a = 0.2, v = 0.2, t = 0.2)
movej(p[-0.45817017, -0.191047293721059, 0.0684135166184576, 1.5948547934613, 0.0125287707538792, -0.012440183259563], a = 0.2, v = 0.2, t = 0.2)
movej(p[-0.4581495, -0.192015648237553, 0.0683352160131926, 1.59173287393504, 0.0200726744795722, -0.0162779322209428], a = 0.2, v = 0.2, t = 0.2)
movej(p[-0.45817894, -0.193296180986319, 0.0683347488544379, 1.58410279546384, 0.0164378785310378, -0.0115278680848044], a = 0.2, v = 0.2, t = 0.2)
movej(p[-0.4580813, -0.194471617679279, 0.0683259872424818, 1.57393557610271, 0.00826119222541731, -0.00506774204866782], a = 0.2, v = 0.2, t = 0.2)
movej(p[-0.45796811, -0.195047233872417, 0.0683240892442882, 1.56806957225259, 0.00260747364308517, 0.00209421245132014], a = 0.2, v = 0.2, t = 0.2)
movej(p[-0.4578846, -0.195308872700468, 0.0683972491031994, 1.56408916170106, 0.00503686114559864, 0.00321597674775157], a = 0.2, v = 0.2, t = 0.2)
movej(p[-0.45775117, -0.195346571133943, 0.0684491065097443, 1.56351018874379, 0.00531110359745732, 0.0043446767128087], a = 0.2, v = 0.2, t = 0.2)
movej(p[-0.457625443, -0.195097508275788, 0.0685050351018663, 1.56587606644104, 0.0115641147540235, 0.00558667724809184], a = 0.2, v = 0.2, t = 0.2)
movej(p[-0.4575950374, -0.194620994963331, 0.0686167591668646, 1.57036053631207, 0.0216157961272259, 0.00347239552161206], a = 0.2, v = 0.2, t = 0.2)
movej(p[-0.457678289, -0.193759779115322, 0.0687044481327511, 1.57610384068526, 0.0246452515775084, 0.00343380515663113], a = 0.2, v = 0.2, t = 0.2)
movej(p[-0.457649312, -0.192765990730755, 0.0686257922575673, 1.5802828575811, 0.0219143928450662, 0.00316068192940547], a = 0.2, v = 0.2, t = 0.2)
movej(p[-0.4577919, -0.19182514577599, 0.0685409260570369, 1.58862053373672, 0.0187498670059113, 0.004541383905079], a = 0.2, v = 0.2, t = 0.2)
movej(p[-0.45804834, -0.191211458837458, 0.0685222048397958, 1.5919755893251, 0.0224755593967454, -0.00327629786411555], a = 0.2, v = 0.2, t = 0.2)
movej(p[-0.45819141, -0.190867091165487, 0.0685015639458767, 1.59557947994454, 0.0191207671332096, -0.00897148475010111], a = 0.2, v = 0.2, t = 0.2)
movej(p[-0.45816581, -0.190968651904239, 0.0684194022830144, 1.59447641061304, 0.0333561245581507, -0.0211943153073362], a = 0.2, v = 0.2, t = 0.2)
movej(p[-0.4581361, -0.191713060236348, 0.0683618501571976, 1.59105502252092, 0.0377214196318067, -0.0245203567365181], a = 0.2, v = 0.2, t = 0.2)
movej(p[-0.45817948, -0.192958063314205, 0.0683803419669037, 1.58441660387152, 0.0335956374707348, -0.0207759497107159], a = 0.2, v = 0.2, t = 0.2)
movej(p[-0.45805759, -0.194156068757784, 0.0683100423171541, 1.57539561749219, 0.0284852481398576, -0.0162436955026571], a = 0.2, v = 0.2, t = 0.2)
movej(p[-0.45796438, -0.194883863465486, 0.0683397792965225, 1.57096839983004, 0.0165101176798299, -0.00434782384947187], a = 0.2, v = 0.2, t = 0.2)
movej(p[-0.45786638, -0.195262286320117, 0.0683968524802118, 1.56551965289468, 0.018327756595981, -0.00330599265166098], a = 0.2, v = 0.2, t = 0.2)
movej(p[-0.45772676, -0.195320254976277, 0.0684440375408461, 1.563264808433, 0.00884182413423331, 0.00208167223433637], a = 0.2, v = 0.2, t = 0.2)
movej(p[-0.457581431, -0.195126756511558, 0.0684478625605081, 1.56235306208259, 0.0234775655770881, -0.00409216541676198], a = 0.2, v = 0.2, t = 0.2)
movej(p[-0.457545503, -0.194607045357197, 0.0685739833736082, 1.56497034755832, 0.0339684353415965, -0.00811751423063463], a = 0.2, v = 0.2, t = 0.2)
movej(p[-0.457579639, -0.193764252456938, 0.0686789579461142, 1.57025440627395, 0.0370757674927451, -0.00824440657492585], a = 0.2, v = 0.2, t = 0.2)
movej(p[-0.457562004, -0.192753832475304, 0.0686637505033695, 1.57802469156539, 0.0291017780609703, -0.0029213332151378], a = 0.2, v = 0.2, t = 0.2)
movej(p[-0.45773464, -0.19184119734104, 0.0686216770128172, 1.58657948379271, 0.0222342896779517, 0.00111524770812026], a = 0.2, v = 0.2, t = 0.2)
movej(p[-0.4579708, -0.191187468281395, 0.0685943034585052, 1.59190037507363, 0.02410833696776, -0.00630030833253931], a = 0.2, v = 0.2, t = 0.2)
movej(p[-0.45806094, -0.190826922046498, 0.0685263115170623, 1.59408037466608, 0.0159605887632069, -0.0108675481257224], a = 0.2, v = 0.2, t = 0.2)
movej(p[-0.45800833, -0.190710579613121, 0.0684144482384763, 1.59622893982872, 0.0238352503683902, -0.0196687703736964], a = 0.2, v = 0.2, t = 0.2)
movej(p[-0.45798197, -0.191373801874438, 0.0683692846359512, 1.59245601279704, 0.027495487474873, -0.0246818857535141], a = 0.2, v = 0.2, t = 0.2)
movej(p[-0.45800476, -0.192530071110971, 0.0683483124746983, 1.58735622556981, 0.032138894564009, -0.0257440194110818], a = 0.2, v = 0.2, t = 0.2)
movej(p[-0.45789379, -0.193851854869717, 0.0682816241397557, 1.57920486921455, 0.0242529234129236, -0.0172507852558938], a = 0.2, v = 0.2, t = 0.2)
movej(p[-0.45786671, -0.194791655444383, 0.0682935615581064, 1.57198051557194, 0.0213607123119412, -0.00952928587751797], a = 0.2, v = 0.2, t = 0.2)
movej(p[-0.45776384, -0.19533769194939, 0.0683297734083781, 1.56619305109772, 0.0123330096905068, -0.00143197394346402], a = 0.2, v = 0.2, t = 0.2)
movej(p[-0.457643847, -0.195464861483558, 0.0683449880388181, 1.56145463922143, 0.015588043095698, -0.00177954993774909], a = 0.2, v = 0.2, t = 0.2)
movej(p[-0.457505897, -0.195389104144483, 0.0683487532581058, 1.56100214650682, 0.0171512550214494, -0.000550574744753881], a = 0.2, v = 0.2, t = 0.2)
movej(p[-0.45743798, -0.195131344465613, 0.0684422936128886, 1.56144892073739, 0.021042164086848, -0.00218530668820436], a = 0.2, v = 0.2, t = 0.2)
movej(p[-0.4573528, -0.194496739246049, 0.0685377228655663, 1.56611404142404, 0.0190683555061191, -0.00164819709282028], a = 0.2, v = 0.2, t = 0.2)
movej(p[-0.45724507, -0.193474854595054, 0.0685599483702935, 1.57373955248646, 0.0150014335313939, 0.00414608971875101], a = 0.2, v = 0.2, t = 0.2)
movej(p[-0.45742974, -0.192436518340562, 0.0685911822734562, 1.58269571824252, 0.0185093856181901, 0.00420494421832619], a = 0.2, v = 0.2, t = 0.2)
movej(p[-0.45770566, -0.191549806919825, 0.0685751355686635, 1.58894470351943, 0.019564078698148, 0.000293027037337263], a = 0.2, v = 0.2, t = 0.2)
movej(p[-0.45784198, -0.190849509353705, 0.0684841140520538, 1.5922418497911, 0.0127376561812663, -0.00565893216105552], a = 0.2, v = 0.2, t = 0.2)
movej(p[-0.45789584, -0.190554594492231, 0.0683675870385242, 1.59585289220864, 0.0167874779001962, -0.0115936894932778], a = 0.2, v = 0.2, t = 0.2)
movej(p[-0.45798561, -0.190896488289624, 0.0683255196710691, 1.5945424673026, 0.0190804677642961, -0.0175129309897261], a = 0.2, v = 0.2, t = 0.2)
movej(p[-0.4580174, -0.192003352254056, 0.0682904414122471, 1.59167998582422, 0.0186225420636476, -0.0171431495063603], a = 0.2, v = 0.2, t = 0.2)
movej(p[-0.45800754, -0.193304655564801, 0.0682502344981453, 1.58423949345982, 0.0166636041261999, -0.0121979956939005], a = 0.2, v = 0.2, t = 0.2)
movej(p[-0.45798553, -0.194443575164564, 0.0682556350330748, 1.57471922156287, 0.0199281967667754, -0.00888162190584984], a = 0.2, v = 0.2, t = 0.2)
movej(p[-0.4579294, -0.195200170559897, 0.0682813076559553, 1.56525170299777, 0.0114494226829162, -0.000889810635231895], a = 0.2, v = 0.2, t = 0.2)
movej(p[-0.45771567, -0.195535450275009, 0.0682394653425793, 1.55760765610886, 0.0097797775214048, -3.45536664613149E-05], a = 0.2, v = 0.2, t = 0.2)
movej(p[-0.457558334, -0.19552059646251, 0.0682708751173994, 1.5591266847925, -0.00203142689425325, 0.0102928655746792], a = 0.2, v = 0.2, t = 0.2)
movej(p[-0.457532699, -0.195476954472554, 0.0683563604887366, 1.55925426233766, -0.0013201435724074, 0.0111773920439798], a = 0.2, v = 0.2, t = 0.2)
movej(p[-0.45741951, -0.195221846127907, 0.0684273483418658, 1.56171798318091, -0.00764538097675627, 0.0134870162584152], a = 0.2, v = 0.2, t = 0.2)
movej(p[-0.45733477, -0.194642459690298, 0.0684954822461574, 1.56686206171001, 0.000241734924742207, 0.0120277708068742], a = 0.2, v = 0.2, t = 0.2)
movej(p[-0.4573603, -0.193849992467646, 0.0685850784906201, 1.57214180443912, 0.0145310551681687, 0.00588125213202102], a = 0.2, v = 0.2, t = 0.2)
movej(p[-0.457504773, -0.192837968252343, 0.0686587721982297, 1.57911522184232, 0.0171667733517737, 0.00509284099650106], a = 0.2, v = 0.2, t = 0.2)
movej(p[-0.45756073, -0.191965940256959, 0.0685275026249607, 1.5824189049175, 0.0179409737181178, -0.000773479188074587], a = 0.2, v = 0.2, t = 0.2)
movej(p[-0.45770637, -0.191292740730204, 0.0684515756226711, 1.5891921352391, 0.0158667020562049, -0.00128540265465602], a = 0.2, v = 0.2, t = 0.2)
movej(p[-0.4578928, -0.191252079544393, 0.068416298463368, 1.58991377096202, 0.0177805921777075, -0.00954279225811154], a = 0.2, v = 0.2, t = 0.2)
movej(p[-0.45796005, -0.191759302627565, 0.0684146256520276, 1.59075219869604, 0.00850612007869433, -0.0086663953255382], a = 0.2, v = 0.2, t = 0.2)
movej(p[-0.4579082, -0.192710708552202, 0.0683139893436387, 1.58621307049432, 0.0116315117099342, -0.00968266887541932], a = 0.2, v = 0.2, t = 0.2)
movej(p[-0.45787541, -0.193860573247113, 0.0682936636702937, 1.57851927528693, 0.0134731220903892, -0.00787613989369178], a = 0.2, v = 0.2, t = 0.2)
movej(p[-0.45787557, -0.194745852093798, 0.068295370307737, 1.56789628613494, 0.0167867892823693, -0.00691510580301157], a = 0.2, v = 0.2, t = 0.2)
movej(p[-0.457655846, -0.195266461037159, 0.0682493274456528, 1.56100140158772, 0.0108409377065321, -0.00238457041117804], a = 0.2, v = 0.2, t = 0.2)
movej(p[-0.457540255, -0.195389589453954, 0.0682861751111636, 1.55927052585765, 0.00637591179285686, 0.00546125604383392], a = 0.2, v = 0.2, t = 0.2)
movej(p[-0.457504389, -0.195452232086838, 0.0683728128485838, 1.55919388517274, 0.0060738364495249, 0.00855724966797753], a = 0.2, v = 0.2, t = 0.2)
movej(p[-0.45744439, -0.195389267732111, 0.0684438665665284, 1.55993973010613, 0.000169491300708641, 0.0118884660121076], a = 0.2, v = 0.2, t = 0.2)
movej(p[-0.45732542, -0.195144882950016, 0.0684393255555975, 1.56025263332528, 0.0172426629700727, 0.00154910982740114], a = 0.2, v = 0.2, t = 0.2)
movej(p[-0.457348, -0.19464489103593, 0.0685453199212478, 1.56365829754921, 0.0259166964359181, -0.00260695870383622], a = 0.2, v = 0.2, t = 0.2)
movej(p[-0.45742895, -0.193865181878721, 0.0686014020990196, 1.5672507531984, 0.0396455722846867, -0.010004681457948], a = 0.2, v = 0.2, t = 0.2)
movej(p[-0.45741603, -0.192869477091051, 0.0685251532550245, 1.57529060284095, 0.0223181183794827, 0.000609542280228966], a = 0.2, v = 0.2, t = 0.2)
movej(p[-0.457566616, -0.192049870411169, 0.0684497812423547, 1.58302395800126, 0.0236751221961771, 0.000741509145666306], a = 0.2, v = 0.2, t = 0.2)
movej(p[-0.45781071, -0.191558554708541, 0.0684504221407875, 1.58760359329514, 0.0248348537515061, -0.00493304144951386], a = 0.2, v = 0.2, t = 0.2)
movej(p[-0.45796519, -0.191391028964164, 0.0684242129845482, 1.58922566473806, 0.0262038044437905, -0.0136862186431236], a = 0.2, v = 0.2, t = 0.2)
movej(p[-0.45789182, -0.191516072911572, 0.0683004599594675, 1.5897652708379, 0.0282376635039029, -0.019198004500947], a = 0.2, v = 0.2, t = 0.2)
movej(p[-0.45788803, -0.192229777676559, 0.0682874701929463, 1.58768867137655, 0.0234283178989884, -0.0166139236932643], a = 0.2, v = 0.2, t = 0.2)
movej(p[-0.4579111, -0.19328285609828, 0.0683089376987343, 1.5828390125606, 0.0150415412157256, -0.0102274508209802], a = 0.2, v = 0.2, t = 0.2)
movej(p[-0.45785269, -0.194320711662496, 0.0682851607008853, 1.57367960365143, 0.00580723348314029, -0.00290511412001629], a = 0.2, v = 0.2, t = 0.2)
movej(p[-0.45778562, -0.194918206633707, 0.068277631266815, 1.56806220040141, 0.00208183540486153, 0.00384601349368083], a = 0.2, v = 0.2, t = 0.2)
movej(p[-0.45780906, -0.19528692323303, 0.0683773794697061, 1.56269730354275, 0.000537958710707208, 0.00757318836922628], a = 0.2, v = 0.2, t = 0.2)
movej(p[-0.45773464, -0.195411009015064, 0.0684790651391637, 1.56290242821304, -0.00648259887125431, 0.011005679127773], a = 0.2, v = 0.2, t = 0.2)
movej(p[-0.457659268, -0.195358863131646, 0.0685415521845618, 1.56367377681887, 0.000804893756261819, 0.0104901409886688], a = 0.2, v = 0.2, t = 0.2)
movej(p[-0.457665654, -0.195304094611476, 0.0686294319922451, 1.56437977411666, 0.0172903181677247, 0.00449821787726305], a = 0.2, v = 0.2, t = 0.2)
movej(p[-0.45775113, -0.195230853625319, 0.0687461569221556, 1.56437063458539, 0.025458764587325, 0.00175541638353983], a = 0.2, v = 0.2, t = 0.2)
movej(p[-0.457634383, -0.195057415239883, 0.0687844690721005, 1.56549749683859, 0.0176176070697155, 0.00435142180545573], a = 0.2, v = 0.2, t = 0.2)
movej(p[-0.457589072, -0.194468146346165, 0.0688367454462793, 1.57322908285988, 0.0263314000257932, 0.00514265869582528], a = 0.2, v = 0.2, t = 0.2)
movej(p[-0.45772251, -0.193844510061753, 0.0689503196659079, 1.57862900913638, 0.0341377778848586, 0.00295055684078185], a = 0.2, v = 0.2, t = 0.2)
movej(p[-0.45796886, -0.193150269628252, 0.0690421935391921, 1.583702859246, 0.0454486072672909, -0.00361817624764907], a = 0.2, v = 0.2, t = 0.2)
movej(p[-0.458004, -0.192543127248056, 0.0689286546107564, 1.58618761151622, 0.0430755007212648, -0.00578929206819462], a = 0.2, v = 0.2, t = 0.2)
movej(p[-0.45817488, -0.191962941457777, 0.0688804503956059, 1.59287988395775, 0.0453546051126636, -0.00791640378601518], a = 0.2, v = 0.2, t = 0.2)
movej(p[-0.45842549, -0.19170880822313, 0.0688697629895652, 1.59514928936168, 0.0459700624723546, -0.0126339301714431], a = 0.2, v = 0.2, t = 0.2)
movej(p[-0.45856651, -0.191803362900983, 0.0688473250909068, 1.59725923033207, 0.0380675682609464, -0.0148447545926735], a = 0.2, v = 0.2, t = 0.2)
movej(p[-0.45848796, -0.192270028571939, 0.0687509644534513, 1.59420073906587, 0.0460920154239899, -0.0234239412750852], a = 0.2, v = 0.2, t = 0.2)
movej(p[-0.45843795, -0.193219795824773, 0.0687148684987546, 1.58983834021811, 0.0427736228993677, -0.0206261680501972], a = 0.2, v = 0.2, t = 0.2)
movej(p[-0.45842857, -0.194187843359065, 0.0687258778697628, 1.58174250507183, 0.0478414258093615, -0.0212053351203237], a = 0.2, v = 0.2, t = 0.2)
movej(p[-0.45826036, -0.194934642194927, 0.0686815022947774, 1.57602938728945, 0.0239822183940166, -0.00550902099195194], a = 0.2, v = 0.2, t = 0.2)
movej(p[-0.45811851, -0.195201497690654, 0.0686751557713988, 1.5729239964769, 0.0297661208855326, -0.00404508927515619], a = 0.2, v = 0.2, t = 0.2)
movej(p[-0.45808764, -0.195313978558064, 0.0687524820080917, 1.57204660395153, 0.0252616195273114, 0.00105312256160076], a = 0.2, v = 0.2, t = 0.2)
movej(p[-0.45802925, -0.195339712470136, 0.068809378216836, 1.57213668175829, 0.0205641686488409, 0.00423793678313127], a = 0.2, v = 0.2, t = 0.2)
movej(p[-0.45788867, -0.195274227537287, 0.0688354837661645, 1.57431910670679, 0.0142792573527621, 0.0109739305399041], a = 0.2, v = 0.2, t = 0.2)
movej(p[-0.45787434, -0.195227451746875, 0.068887087056829, 1.5747928602492, 0.0252879196754297, 0.00650548111244159], a = 0.2, v = 0.2, t = 0.2)
movej(p[-0.45787418, -0.195091686159821, 0.0689919167776713, 1.5762322763329, 0.0265053135791628, 0.00680857139007664], a = 0.2, v = 0.2, t = 0.2)
movej(p[-0.45779139, -0.194669344934754, 0.0689847762658741, 1.57569414524018, 0.0277918851481855, 0.00367769580551347], a = 0.2, v = 0.2, t = 0.2)
movej(p[-0.4577243, -0.193916531171953, 0.0689916000945098, 1.58236544123934, 0.0318229329982826, 0.00519017875608701], a = 0.2, v = 0.2, t = 0.2)
movej(p[-0.45787968, -0.19315959048192, 0.069039156816139, 1.58559268704734, 0.0382398167347597, 0.0011298068427338], a = 0.2, v = 0.2, t = 0.2)
movej(p[-0.45808294, -0.192436642520189, 0.0690290432297876, 1.59115227236851, 0.0365511052757399, -0.00137346975268478], a = 0.2, v = 0.2, t = 0.2)
movej(p[-0.45813773, -0.19180261856197, 0.0688685605226056, 1.59264286293708, 0.032948047763746, -0.0058716882990823], a = 0.2, v = 0.2, t = 0.2)
movej(p[-0.45824689, -0.191408380260437, 0.0687698588913917, 1.59773752170064, 0.029510989416367, -0.00551193127713018], a = 0.2, v = 0.2, t = 0.2)
movej(p[-0.45838433, -0.191654641061004, 0.0687323216804651, 1.5972804232326, 0.0299611576804038, -0.0112094821031521], a = 0.2, v = 0.2, t = 0.2)
movej(p[-0.45835831, -0.19233687172419, 0.06873012825665, 1.59843021402968, 0.01210397781494, -0.00536419591752691], a = 0.2, v = 0.2, t = 0.2)
movej(p[-0.45823094, -0.193212456044732, 0.0686471270511102, 1.59322591101775, 0.0224930810891312, -0.0106094948657931], a = 0.2, v = 0.2, t = 0.2)
movej(p[-0.45814777, -0.194164463053948, 0.0686346168631245, 1.58516799030627, 0.0279944397354734, -0.0113961143993179], a = 0.2, v = 0.2, t = 0.2)
movej(p[-0.45812486, -0.194858137048467, 0.0686525716766525, 1.57605092282277, 0.0289344625823228, -0.0101009771552742], a = 0.2, v = 0.2, t = 0.2)
movej(p[-0.45788728, -0.19526923770605, 0.0686038445042069, 1.57043797258334, 0.0133591313012282, 0.000506812099463434], a = 0.2, v = 0.2, t = 0.2)
movej(p[-0.45775584, -0.195339930280672, 0.0686243054228911, 1.57074872492518, 0.00807494774525806, 0.00938369703922933], a = 0.2, v = 0.2, t = 0.2)
movej(p[-0.45772301, -0.195393881730989, 0.0686640030085691, 1.56957330623217, 0.00677524855990159, 0.0146130809397564], a = 0.2, v = 0.2, t = 0.2)
movej(p[-0.457697184, -0.195347762311143, 0.0686622895287605, 1.5685845599601, 0.0088328806208065, 0.0135480326293919], a = 0.2, v = 0.2, t = 0.2)
movej(p[-0.457581142, -0.195212002841381, 0.0686408563751441, 1.56692990742554, 0.0242729982178134, 0.00409689162234668], a = 0.2, v = 0.2, t = 0.2)
movej(p[-0.457537559, -0.194829246602326, 0.0687349372314783, 1.56867996526753, 0.0322635457948684, -0.00147598044774262], a = 0.2, v = 0.2, t = 0.2)
movej(p[-0.457504081, -0.194207643734372, 0.0688259447495867, 1.5719455941577, 0.038441631471781, -0.00515437308251201], a = 0.2, v = 0.2, t = 0.2)
movej(p[-0.45738275, -0.193262690563379, 0.0688040720833231, 1.58001554706976, 0.0143526472928514, 0.00982368321756795], a = 0.2, v = 0.2, t = 0.2)
movej(p[-0.45745738, -0.192403176654973, 0.0687737698910596, 1.58773844338322, 0.0121694111981638, 0.0128352415830779], a = 0.2, v = 0.2, t = 0.2)
movej(p[-0.45771758, -0.191818052652387, 0.0687753132633804, 1.59203294263956, 0.0143435654111187, 0.0081971412386901], a = 0.2, v = 0.2, t = 0.2)
movej(p[-0.4579494, -0.191343005144514, 0.068721833475016, 1.59495078090673, 0.0171157449955992, -0.00111746292018083], a = 0.2, v = 0.2, t = 0.2)
movej(p[-0.45798995, -0.191043053445759, 0.0685812816749067, 1.5986864802388, 0.0188859035260093, -0.00661531130938052], a = 0.2, v = 0.2, t = 0.2)
movej(p[-0.45804417, -0.191375314799275, 0.0685586692920309, 1.59910262615302, 0.0137051056358371, -0.00724855515036952], a = 0.2, v = 0.2, t = 0.2)
movej(p[-0.45809161, -0.192300925180177, 0.0685308593519671, 1.59529851134406, 0.0117401397703959, -0.0073600395001236], a = 0.2, v = 0.2, t = 0.2)
movej(p[-0.45807103, -0.193481279519983, 0.0685121609321988, 1.58880918331236, 0.00276240138909832, 0.000205357792046874], a = 0.2, v = 0.2, t = 0.2)
movej(p[-0.45805107, -0.194451559193315, 0.06850373502458, 1.58130706864481, 0.0105496597193, 0.000203113691336267], a = 0.2, v = 0.2, t = 0.2)
movej(p[-0.45800595, -0.195175419134795, 0.0685421054615864, 1.57326557971384, 0.0151038279675265, -0.000881549205543382], a = 0.2, v = 0.2, t = 0.2)
movej(p[-0.45786879, -0.195468253549423, 0.0685345054691224, 1.56626038850894, 0.0183413135584702, -0.00270190006165701], a = 0.2, v = 0.2, t = 0.2)
movej(p[-0.457681009, -0.19547161083701, 0.0685157878538882, 1.56579580630953, 0.0201744047908891, -0.00149991351543251], a = 0.2, v = 0.2, t = 0.2)
movej(p[-0.457635644, -0.195458394403566, 0.0685799595134195, 1.56712592072293, 0.0105522224058746, 0.00838921583468122], a = 0.2, v = 0.2, t = 0.2)
movej(p[-0.45757778, -0.195445881442276, 0.0686038950246893, 1.56801836029607, 0.00814589264374918, 0.00994800749047609], a = 0.2, v = 0.2, t = 0.2)
movej(p[-0.45743413, -0.195378785698938, 0.0685471277125638, 1.5668858853488, 0.00132059498614713, 0.01300532869797], a = 0.2, v = 0.2, t = 0.2)
movej(p[-0.45735889, -0.194967681430083, 0.0685949148387558, 1.56883774513059, 0.0174909832728721, 0.00573939565939688], a = 0.2, v = 0.2, t = 0.2)
movej(p[-0.457366, -0.194332814095244, 0.0687056626638077, 1.57158257996652, 0.0249568421653559, 0.00270022354371218], a = 0.2, v = 0.2, t = 0.2)
movej(p[-0.45732538, -0.193495744731083, 0.0687233241185449, 1.57575679592468, 0.0254709892412471, 0.00243666681223798], a = 0.2, v = 0.2, t = 0.2)
movej(p[-0.4573541, -0.192690979710373, 0.0686418728334641, 1.58217642093354, 0.026943395769054, 0.00250175789744294], a = 0.2, v = 0.2, t = 0.2)
movej(p[-0.457550845, -0.192131453300539, 0.068614429504605, 1.58736930821548, 0.0258273344549674, 0.00107948568950501], a = 0.2, v = 0.2, t = 0.2)
movej(p[-0.45779233, -0.19173249756522, 0.0686359885898304, 1.59137871734791, 0.022954523240639, -0.00318662286002142], a = 0.2, v = 0.2, t = 0.2)
movej(p[-0.45780241, -0.191630404848968, 0.0685315723282216, 1.59118929431739, 0.0177260200953823, -0.00890574034641587], a = 0.2, v = 0.2, t = 0.2)
movej(p[-0.45776383, -0.191810421996656, 0.0684266633513009, 1.59285429177662, 0.0208628032958957, -0.0117379912482763], a = 0.2, v = 0.2, t = 0.2)
movej(p[-0.45781617, -0.192625762357385, 0.0683793535355652, 1.5876962743441, 0.0218511537759535, -0.0152904846940449], a = 0.2, v = 0.2, t = 0.2)
movej(p[-0.45781347, -0.193607721983348, 0.0683739170771515, 1.58379468752076, 0.00978655094318445, -0.00701047458000225], a = 0.2, v = 0.2, t = 0.2)
movej(p[-0.45776172, -0.19445322398276, 0.0683411825848072, 1.57400396924958, 0.0204856969017252, -0.0115470628634677], a = 0.2, v = 0.2, t = 0.2)
movej(p[-0.45773026, -0.195027121852244, 0.068383173922036, 1.56791334475649, 0.0224969891331463, -0.00905634477338885], a = 0.2, v = 0.2, t = 0.2)
movej(p[-0.4577406, -0.195260264654564, 0.06846963042122, 1.56277282103796, 0.0286111749780435, -0.00984087352624696], a = 0.2, v = 0.2, t = 0.2)
movej(p[-0.45760068594, -0.195325202281645, 0.0684988924309617, 1.56345174319301, 0.00926928444714374, 0.00467337019805234], a = 0.2, v = 0.2, t = 0.2)
movej(p[-0.457560058, -0.195249642041021, 0.0685763606919519, 1.56751144571375, 0.00658037525065385, 0.013034995339138], a = 0.2, v = 0.2, t = 0.2)
movej(p[-0.457610488, -0.195280127301105, 0.0686595597996252, 1.56822583097762, 0.0081228405403419, 0.0147318821071159], a = 0.2, v = 0.2, t = 0.2)
movej(p[-0.457616565, -0.195233128973903, 0.0687364021607635, 1.56883042738168, 0.00676682901472689, 0.0147129360625603], a = 0.2, v = 0.2, t = 0.2)
movej(p[-0.45744764, -0.194945061258432, 0.0687331742989546, 1.57105925281261, 0.0095284778875499, 0.014291767896564], a = 0.2, v = 0.2, t = 0.2)
movej(p[-0.45746507, -0.194447104419163, 0.0688531428182642, 1.57560236159516, 0.0203171537640129, 0.0109929514893438], a = 0.2, v = 0.2, t = 0.2)
movej(p[-0.457570459, -0.193758949918422, 0.0689588783733526, 1.58053639286722, 0.029326861657955, 0.0059527887212148], a = 0.2, v = 0.2, t = 0.2)
movej(p[-0.45761814, -0.19302303906824, 0.0689285462207067, 1.58390669548743, 0.0314653074759542, 0.000967573271491102], a = 0.2, v = 0.2, t = 0.2)
movej(p[-0.457679239, -0.192342852208294, 0.0688507316869905, 1.58900149562802, 0.0254398747773638, 0.00256111147354451], a = 0.2, v = 0.2, t = 0.2)
movej(p[-0.45787222, -0.19187328360292, 0.0688592305661448, 1.59153204388716, 0.0187072528101099, 0.00202647788280861], a = 0.2, v = 0.2, t = 0.2)
movej(p[-0.4580228, -0.191688644815819, 0.0688054544683133, 1.59383498324918, 0.0107129804335631, 0.000825744869897595], a = 0.2, v = 0.2, t = 0.2)
movej(p[-0.45796517, -0.191852427690105, 0.0686319635749194, 1.59303715814625, 0.00790507911090772, -0.0038272771779692], a = 0.2, v = 0.2, t = 0.2)
movej(p[-0.45792011, -0.192520323418829, 0.0685171501260025, 1.58978743858722, 0.0205523427856781, -0.0109526569755977], a = 0.2, v = 0.2, t = 0.2)
movej(p[-0.4579539, -0.193504678139516, 0.0684977296223492, 1.58178281012719, 0.0229280780289841, -0.0121577913345532], a = 0.2, v = 0.2, t = 0.2)
movej(p[-0.45784692, -0.194429162451372, 0.0684634518798376, 1.57476781094925, 0.0131252738604104, -0.00591618731316592], a = 0.2, v = 0.2, t = 0.2)
movej(p[-0.45772559, -0.194890360626382, 0.0684314455700383, 1.57197660836685, 0.00971896446582179, 0.00162706134978792], a = 0.2, v = 0.2, t = 0.2)
movej(p[-0.457675192, -0.195200030509934, 0.0684748911749371, 1.56940705894176, 0.0126260781543692, 0.00245830329332809], a = 0.2, v = 0.2, t = 0.2)
movej(p[-0.457676948, -0.19527370792138, 0.0685788143069464, 1.56722834571745, 0.0135529532743932, 0.00287501031562262], a = 0.2, v = 0.2, t = 0.2)
movej(p[-0.457510441, -0.195364243362456, 0.0685547790555609, 1.56447530317905, 0.00773264821851303, 0.00431895980861529], a = 0.2, v = 0.2, t = 0.2)
movej(p[-0.45742403, -0.195251923802921, 0.0685793462683838, 1.56805746884776, 0.00176700018507339, 0.0123874933462787], a = 0.2, v = 0.2, t = 0.2)
movej(p[-0.45743678, -0.194989370442712, 0.0686907744571109, 1.56996257568207, 0.00177679928247083, 0.0140926033653007], a = 0.2, v = 0.2, t = 0.2)
movej(p[-0.45741292, -0.19440639354707, 0.0687810344706654, 1.57481030905719, 0.000482599125344932, 0.0158569371442941], a = 0.2, v = 0.2, t = 0.2)
movej(p[-0.45733393, -0.193535098427545, 0.0687744127569567, 1.57863422559219, 0.0188872459448913, 0.00523615520226831], a = 0.2, v = 0.2, t = 0.2)
movej(p[-0.4574599, -0.192728790524548, 0.0688022635103484, 1.58499564864464, 0.0245893328429829, 0.00289452928641605], a = 0.2, v = 0.2, t = 0.2)
movej(p[-0.45772451, -0.192070122980745, 0.0688246775425839, 1.58943102637471, 0.0283927166970683, -0.00376555349515228], a = 0.2, v = 0.2, t = 0.2)
movej(p[-0.45783672, -0.191527224546977, 0.0687637464486163, 1.59336217546833, 0.00361759451209422, 0.00343254024989265], a = 0.2, v = 0.2, t = 0.2)
movej(p[-0.45785403, -0.191237070583009, 0.0686235612450684, 1.59686531225851, 0.00499843861726174, -0.000282299735241145], a = 0.2, v = 0.2, t = 0.2)
movej(p[-0.45787634, -0.191616054979251, 0.0685535753107259, 1.59440253553675, 0.00941374710860195, -0.00811806711978756], a = 0.2, v = 0.2, t = 0.2)
movej(p[-0.45788429, -0.192499912898978, 0.0684892007650186, 1.59096287180416, 0.0148911819275677, -0.013286130887994], a = 0.2, v = 0.2, t = 0.2)
movej(p[-0.45773002, -0.193640819204516, 0.068389152366809, 1.58587408860883, 0.00217100600740554, -0.00416964684014638], a = 0.2, v = 0.2, t = 0.2)
movej(p[-0.4577067, -0.194576364953037, 0.0684076710201867, 1.58035734600322, -0.00285192858185381, 0.00455720887615963], a = 0.2, v = 0.2, t = 0.2)
movej(p[-0.457669657, -0.195225017572585, 0.0684166996499434, 1.57176000250732, -0.0110096044748305, 0.0124584633557582], a = 0.2, v = 0.2, t = 0.2)
movej(p[-0.457547734, -0.195413160532768, 0.0684038080234099, 1.56578396718062, -0.00975625300178232, 0.0125851920892377], a = 0.2, v = 0.2, t = 0.2)
movej(p[-0.45740063, -0.195381069241975, 0.0683509187007137, 1.56332682012898, -0.00448542176186468, 0.0129590670247645], a = 0.2, v = 0.2, t = 0.2)
movej(p[-0.45738836, -0.195394714044929, 0.0684076427445782, 1.56270725293587, -0.00677070218038956, 0.0151939462221353], a = 0.2, v = 0.2, t = 0.2)
movej(p[-0.45732182, -0.195355766259777, 0.0684542691215735, 1.56274249109154, -0.0092761794560038, 0.0166897979670783], a = 0.2, v = 0.2, t = 0.2)
movej(p[-0.4571755, -0.195076354899291, 0.0685079614052964, 1.56581765367906, -0.011545578751658, 0.0192568211704021], a = 0.2, v = 0.2, t = 0.2)
movej(p[-0.45717568, -0.194507504139525, 0.0686415084236583, 1.57026754876186, -0.00293214670913261, 0.0183955128629423], a = 0.2, v = 0.2, t = 0.2)
movej(p[-0.4572337, -0.193648031976307, 0.0687698601792099, 1.57521630545434, 0.0086499809056595, 0.0127506633708434], a = 0.2, v = 0.2, t = 0.2)
movej(p[-0.45727248, -0.192731214905699, 0.0687398285451763, 1.57881016504799, 0.0077262104751634, 0.00967088649119589], a = 0.2, v = 0.2, t = 0.2)
movej(p[-0.45732982, -0.191883898059471, 0.0686658582389826, 1.58621784953738, 0.007196496558628, 0.00778348508335472], a = 0.2, v = 0.2, t = 0.2)
movej(p[-0.457582461, -0.191364096651067, 0.0686495851501129, 1.589634193965, 0.00205931318201947, 0.00456860246079945], a = 0.2, v = 0.2, t = 0.2)
movej(p[-0.45773655, -0.19122652263992, 0.0686305797204433, 1.59288633733654, -0.00139895987938701, -0.000326614181512709], a = 0.2, v = 0.2, t = 0.2)
movej(p[-0.45772457, -0.19152375914428, 0.0685085070020487, 1.59060999017777, 0.0059370700035986, -0.00936694123804361], a = 0.2, v = 0.2, t = 0.2)
movej(p[-0.457659488, -0.192360194458686, 0.0684178695527591, 1.58724016866845, 0.0146075319641274, -0.0135243684195078], a = 0.2, v = 0.2, t = 0.2)
movej(p[-0.457673188, -0.19348234368064, 0.0683555845484045, 1.57906952861155, 0.0112720444839085, -0.0116050027950224], a = 0.2, v = 0.2, t = 0.2)
movej(p[-0.4575822, -0.194486986695125, 0.0682585001359212, 1.57033761270249, -0.00658738115476787, 0.00027536895124428], a = 0.2, v = 0.2, t = 0.2)
movej(p[-0.457508163, -0.195049108199279, 0.0681969190457399, 1.56581573911297, -0.0150217129554331, 0.00998398525831374], a = 0.2, v = 0.2, t = 0.2)
movej(p[-0.45747105, -0.19535911390557, 0.0682545172598358, 1.56257040954267, -0.018649120854319, 0.0169561622200849], a = 0.2, v = 0.2, t = 0.2)
movej(p[-0.45738264, -0.195414523097403, 0.0683298655760768, 1.56247881780283, -0.0176589627178802, 0.0173341788661161], a = 0.2, v = 0.2, t = 0.2)
movej(p[-0.45721629, -0.195408506937404, 0.0683233945391539, 1.56045852395121, -0.0092805364694972, 0.0120876318950965], a = 0.2, v = 0.2, t = 0.2)
movej(p[-0.45714932, -0.195354367927916, 0.0683466071316791, 1.56027998929306, -0.00120216325076677, 0.00950512494822841], a = 0.2, v = 0.2, t = 0.2)
movej(p[-0.45716208, -0.195217127355139, 0.0684526068551347, 1.55969331577597, -0.00334200814373764, 0.0109048002178026], a = 0.2, v = 0.2, t = 0.2)
movej(p[-0.45705214, -0.194772357938087, 0.0685108954262696, 1.56239450010296, -0.0122436632443669, 0.0180748410711883], a = 0.2, v = 0.2, t = 0.2)
movej(p[-0.45703832, -0.194053727836733, 0.0685658526880898, 1.56997232338428, -0.00513045647648738, 0.0184450896324459], a = 0.2, v = 0.2, t = 0.2)
movej(p[-0.45716273, -0.193309161782069, 0.0686171835983022, 1.57671512513456, -0.00071004510269698, 0.0169337054989801], a = 0.2, v = 0.2, t = 0.2)
movej(p[-0.45733655, -0.192544800145502, 0.0686383692761042, 1.58273947190271, -0.000586810917669912, 0.0143076886994437], a = 0.2, v = 0.2, t = 0.2)
movej(p[-0.45736466, -0.191825037919114, 0.0685567956905202, 1.58655461095783, 1.42128302306992E-05, 0.00887130101679523], a = 0.2, v = 0.2, t = 0.2)
movej(p[-0.457501288, -0.191328734788119, 0.0685261419702735, 1.59008788565909, -0.00204030266898237, 0.00660622093790813], a = 0.2, v = 0.2, t = 0.2)
movej(p[-0.457688299, -0.191258551491597, 0.0684793039036045, 1.59080495370997, -0.000250840557500375, -0.00154415327430573], a = 0.2, v = 0.2, t = 0.2)
movej(p[-0.457693366, -0.191701266582046, 0.0683755903216142, 1.59027936040909, -0.0136531235826576, 0.00139797662327817], a = 0.2, v = 0.2, t = 0.2)
movej(p[-0.457651146, -0.192510280324413, 0.0682586058993128, 1.58751930970542, -0.00597187854872077, -0.000875700437623852], a = 0.2, v = 0.2, t = 0.2)
movej(p[-0.457689698, -0.19366803874472, 0.0682539442356516, 1.5783999870951, -0.00254419120859321, -0.00354786110438015], a = 0.2, v = 0.2, t = 0.2)
movej(p[-0.45770184, -0.194605798742832, 0.0682424172437749, 1.56890308982068, 0.00131430788517095, -0.00398412247600602], a = 0.2, v = 0.2, t = 0.2)
movej(p[-0.45749622, -0.195133904002111, 0.0681541243529494, 1.56315176896807, 0.00117249227144455, -0.00417468431600131], a = 0.2, v = 0.2, t = 0.2)
movej(p[-0.45741718, -0.195333244531744, 0.0681940100470604, 1.56266466306638, -0.00293497961350593, 0.0037104152020372], a = 0.2, v = 0.2, t = 0.2)
movej(p[-0.45736337, -0.195436760536615, 0.0682641051890851, 1.5614177496956, -0.00139983881681725, 0.00454826952638392], a = 0.2, v = 0.2, t = 0.2)
movej(p[-0.45730099, -0.195430430691566, 0.068297902950278, 1.55974873652913, -0.00379536578782053, 0.00620636368276933], a = 0.2, v = 0.2, t = 0.2)
movej(p[-0.45719468, -0.195319168753833, 0.0683051669513723, 1.55897406403184, -0.000404496097023459, 0.00625912204554223], a = 0.2, v = 0.2, t = 0.2)
movej(p[-0.45718235, -0.195021213622113, 0.0684373350189296, 1.56065511773636, -0.00276470100836538, 0.0102859179395627], a = 0.2, v = 0.2, t = 0.2)
movej(p[-0.45711846, -0.194413282996544, 0.0685133451109853, 1.56462978428253, -0.00142561680418156, 0.0115751115722786], a = 0.2, v = 0.2, t = 0.2)
movej(p[-0.4570227, -0.193568196246257, 0.0684952812522918, 1.57260923316252, -0.00756560008654083, 0.0184190499052353], a = 0.2, v = 0.2, t = 0.2)
movej(p[-0.45713543, -0.192842436974921, 0.0684721082579024, 1.57981367322183, -0.000345213708831987, 0.0154926125395779], a = 0.2, v = 0.2, t = 0.2)
movej(p[-0.45736546, -0.192377633777086, 0.068470999302182, 1.5836568111753, -0.00158121399351944, 0.0128627689793419], a = 0.2, v = 0.2, t = 0.2)
movej(p[-0.45739729, -0.192420749804818, 0.0683657899007359, 1.5833094157553, -0.00118514730432948, 0.00602632085018788], a = 0.2, v = 0.2, t = 0.2)
movej(p[-0.45733621, -0.19284069604302, 0.0681985601084732, 1.58343909002875, -0.00410391739559074, 0.00640307510756112], a = 0.2, v = 0.2, t = 0.2)
movej(p[-0.45737222, -0.193781202317363, 0.068156691080296, 1.57987925868063, -0.0135267268708186, 0.0125930771061304], a = 0.2, v = 0.2, t = 0.2)
movej(p[-0.45738804, -0.19462433602711, 0.0681384108262249, 1.5743678599721, -0.0236797044721385, 0.0192295125541554], a = 0.2, v = 0.2, t = 0.2)
movej(p[-0.457309, -0.195245168026413, 0.0681184497098939, 1.56758079453009, -0.0234949304581423, 0.0181409298363545], a = 0.2, v = 0.2, t = 0.2)
movej(p[-0.45722241, -0.195482624076397, 0.0681195435516475, 1.56366334721896, -0.0202371806732403, 0.0172247745777568], a = 0.2, v = 0.2, t = 0.2)
movej(p[-0.45724712, -0.195575690025781, 0.0682072680793764, 1.56099208310682, -0.016431119279357, 0.0147979743877486], a = 0.2, v = 0.2, t = 0.2)
movej(p[-0.45713172, -0.195528548101896, 0.0682471186102681, 1.56025286947569, -0.0243387343264079, 0.0180884284126256], a = 0.2, v = 0.2, t = 0.2)
movej(p[-0.45704623, -0.195150956175685, 0.0683255742038254, 1.56487707597357, -0.0178417040348318, 0.0189575925466346], a = 0.2, v = 0.2, t = 0.2)
movej(p[-0.45703945, -0.194537042688131, 0.0684328843575819, 1.56907229509721, -0.00950958850786078, 0.0163396445931986], a = 0.2, v = 0.2, t = 0.2)
movej(p[-0.45709991, -0.193524358951321, 0.0685153337851152, 1.57462008531457, -0.00502790605748351, 0.0156149977589549], a = 0.2, v = 0.2, t = 0.2)
movej(p[-0.45708568, -0.192451757162981, 0.0684383823117701, 1.57940575288905, 0.00214331198433863, 0.00817718499141288], a = 0.2, v = 0.2, t = 0.2)
movej(p[-0.4572449, -0.191559921072603, 0.0683965201821102, 1.58708971493543, 0.00345144464973032, 0.00549696164941805], a = 0.2, v = 0.2, t = 0.2)
movej(p[-0.45749892, -0.191029007192543, 0.068411472290977, 1.59160586696816, 0.00234424285220644, -0.000113296213095467], a = 0.2, v = 0.2, t = 0.2)
movej(p[-0.457587765, -0.190830440682341, 0.068376441969449, 1.59461332161213, -0.00806914844339264, -0.000135626844249049], a = 0.2, v = 0.2, t = 0.2)
movej(p[-0.457518603, -0.19102514210646, 0.0682591825056676, 1.59470464759758, -0.00661960151299193, -0.00253419896552094], a = 0.2, v = 0.2, t = 0.2)
movej(p[-0.457500776, -0.191802568113317, 0.0681697140399251, 1.58980956895784, -0.00328849524999536, -0.00577933809511679], a = 0.2, v = 0.2, t = 0.2)
movej(p[-0.457568231, -0.192859320822116, 0.068150835585389, 1.58406331502792, -0.00141888695106729, -0.00597432305193083], a = 0.2, v = 0.2, t = 0.2)
movej(p[-0.457508156, -0.193941583427233, 0.0681011597918475, 1.57662693484331, -0.00285881525447817, -0.00434900288830817], a = 0.2, v = 0.2, t = 0.2)
movej(p[-0.457520989, -0.194763776782329, 0.0681549588860467, 1.57229827997467, -0.0108200667493193, 0.0053392197863367], a = 0.2, v = 0.2, t = 0.2)
movej(p[-0.457522518, -0.195328775706649, 0.0682129501131181, 1.56576971347498, -0.00976416641715618, 0.0073400989186596], a = 0.2, v = 0.2, t = 0.2)
movej(p[-0.45741462, -0.195490228022926, 0.0682558283776451, 1.56266240574521, -0.0149845696851877, 0.0126919674363724], a = 0.2, v = 0.2, t = 0.2)
movej(p[-0.4573062, -0.195344204410334, 0.0682691062677462, 1.56134873426269, -0.00162491552826815, 0.00958483138761169], a = 0.2, v = 0.2, t = 0.2)
movej(p[-0.45724373, -0.194910277491777, 0.0683848898553208, 1.56250210864474, 0.00415062260927877, 0.00787510841207774], a = 0.2, v = 0.2, t = 0.2)
movej(p[-0.45721472, -0.194057420011473, 0.0684493050894629, 1.56495896433629, 0.00529758649811396, 0.00843733256686037], a = 0.2, v = 0.2, t = 0.2)
movej(p[-0.45708107, -0.192922581173748, 0.0684070214366989, 1.57241319181568, 0.00200914285558916, 0.00999731681469645], a = 0.2, v = 0.2, t = 0.2)
movej(p[-0.4572134, -0.191742839572588, 0.0684091336377496, 1.58162127138434, -0.00277541413371543, 0.0117964427195726], a = 0.2, v = 0.2, t = 0.2)
movej(p[-0.45743058, -0.190758831671304, 0.0684216663394093, 1.58954513617302, -0.000312229976935989, 0.00252008927508336], a = 0.2, v = 0.2, t = 0.2)
movej(p[-0.457571948, -0.190227078837058, 0.0683834915195499, 1.59269305017332, -0.00157955617568087, -0.006854779367698], a = 0.2, v = 0.2, t = 0.2)
movej(p[-0.457578466, -0.190157155269654, 0.0682837239956686, 1.59559610408509, 0.0124073868344259, -0.0195673660916514], a = 0.2, v = 0.2, t = 0.2)
movej(p[-0.457614195, -0.190942437424025, 0.0682595904313665, 1.59221576954653, 0.0088895733385097, -0.0204899263939412], a = 0.2, v = 0.2, t = 0.2)
movej(p[-0.457642161, -0.192114944456989, 0.0682183981596528, 1.58797145800826, 0.00621209557451895, -0.018398122760145], a = 0.2, v = 0.2, t = 0.2)
movej(p[-0.4575968435, -0.193372030117754, 0.0681512101071374, 1.58199785234376, -0.00592257229730537, -0.00666294620623565], a = 0.2, v = 0.2, t = 0.2)
movej(p[-0.457638098, -0.194386424261617, 0.0681614044436021, 1.57385886211008, 0.00405291257319343, -0.00466628121236993], a = 0.2, v = 0.2, t = 0.2)
movej(p[-0.457648026, -0.195081200055508, 0.0682423682004487, 1.56565401546719, 0.000323377039114442, 0.00147547435460608], a = 0.2, v = 0.2, t = 0.2)
movej(p[-0.457518863, -0.195418860563973, 0.0682566833645513, 1.55785187014342, -0.000774674545060583, 0.00194052726625064], a = 0.2, v = 0.2, t = 0.2)
movej(p[-0.45737778, -0.195442507815233, 0.0682527539870127, 1.55843143105273, -0.00749335336541995, 0.00900543215588131], a = 0.2, v = 0.2, t = 0.2)
movej(p[-0.45735091, -0.195453401708485, 0.068316959507724, 1.55866726318385, -0.0113984858236668, 0.015285097190237], a = 0.2, v = 0.2, t = 0.2)
movej(p[-0.45725078, -0.195193128247849, 0.0683612116398474, 1.56047022265714, -0.0115801716975333, 0.0163449350300483], a = 0.2, v = 0.2, t = 0.2)
movej(p[-0.45712061, -0.194560813400447, 0.0683740045500416, 1.56350497464146, -0.00526891484389816, 0.0164688684709726], a = 0.2, v = 0.2, t = 0.2)
movej(p[-0.45713347, -0.193601828018906, 0.0684465786982672, 1.56974090395026, 0.0156035211979292, 0.00780777761970053], a = 0.2, v = 0.2, t = 0.2)
movej(p[-0.45729485, -0.192525864749081, 0.0685110876463912, 1.5773028759174, 0.0229991970545864, 0.00269513879968093], a = 0.2, v = 0.2, t = 0.2)
movej(p[-0.45736051, -0.191522230036365, 0.0684392150095172, 1.58291204292964, 0.0106467669158434, 0.00252032536232209], a = 0.2, v = 0.2, t = 0.2)
movej(p[-0.45745444, -0.190694284803891, 0.0683253454366564, 1.5918514168234, 0.00922199927286002, -0.00288632325763988], a = 0.2, v = 0.2, t = 0.2)
movej(p[-0.457634332, -0.190476275245575, 0.068296583119596, 1.59490895732968, 0.00794475212003795, -0.00989071016259676], a = 0.2, v = 0.2, t = 0.2)
movej(p[-0.45776069, -0.190848976152875, 0.0682977161234256, 1.59661841696135, 0.00404089804007599, -0.0132443778220549], a = 0.2, v = 0.2, t = 0.2)
movej(p[-0.45770032, -0.191732191017056, 0.0682102466739609, 1.5925745087675, 0.00483822722721746, -0.016964765394454], a = 0.2, v = 0.2, t = 0.2)
movej(p[-0.457697748, -0.192869409448483, 0.0681966852093572, 1.58703649718617, 0.00136587171717227, -0.0105045975348368], a = 0.2, v = 0.2, t = 0.2)
movej(p[-0.45776691, -0.194092439588885, 0.0682405482708968, 1.576484928029, 0.00229404777908299, -0.00735057453774928], a = 0.2, v = 0.2, t = 0.2)
movej(p[-0.457689486, -0.195014275839436, 0.0682560036800179, 1.56867966489348, -0.0143830434861262, 0.00636510703622436], a = 0.2, v = 0.2, t = 0.2)
movej(p[-0.457563826, -0.195356571236961, 0.0682210592064503, 1.56225740270309, -0.003782089052875, 0.00545379900915889], a = 0.2, v = 0.2, t = 0.2)
movej(p[-0.457506819, -0.195513280848013, 0.0682922758927249, 1.55996601072824, 0.0052482868875256, 0.00316835389259301], a = 0.2, v = 0.2, t = 0.2)
movej(p[-0.457514798, -0.195431348509787, 0.0683762109965422, 1.55787925839384, 0.0148094957987973, -0.00122680247713039], a = 0.2, v = 0.2, t = 0.2)
movej(p[-0.45726605, -0.195099678651287, 0.0683866871190943, 1.56178765033462, 0.00316322320200831, 0.00617355444602332], a = 0.2, v = 0.2, t = 0.2)
movej(p[-0.45721291, -0.19442668914126, 0.0684580449456704, 1.56881657078124, 0.00412822178305445, 0.0112961860940919], a = 0.2, v = 0.2, t = 0.2)
movej(p[-0.45727795, -0.193499161058503, 0.0685737938834519, 1.57558060053082, 0.00545983619374807, 0.0117689491062483], a = 0.2, v = 0.2, t = 0.2)
movej(p[-0.4574121, -0.192490488116813, 0.0685810988339925, 1.58196460212676, 0.0089209515314176, 0.00790282248982726], a = 0.2, v = 0.2, t = 0.2)
movej(p[-0.457520532, -0.19154547633241, 0.0684766238616808, 1.58914578041453, 0.00868403693997773, 0.00613012815149121], a = 0.2, v = 0.2, t = 0.2)
movej(p[-0.45774629, -0.19100823164479, 0.0684372316895639, 1.59246931782785, 0.0110465068070308, -0.00124380139132503], a = 0.2, v = 0.2, t = 0.2)
movej(p[-0.45790592, -0.190889744279608, 0.0684202560248564, 1.59493041239431, 0.010935219401685, -0.00842276747763793], a = 0.2, v = 0.2, t = 0.2)
movej(p[-0.45782713, -0.191196630612845, 0.068349740080048, 1.59529483524959, -0.00478996246667001, -0.00569385438535262], a = 0.2, v = 0.2, t = 0.2)
movej(p[-0.45774599, -0.191918735876923, 0.0682631357054994, 1.59328473766768, -0.00411002014024894, -0.00608544761425773], a = 0.2, v = 0.2, t = 0.2)
movej(p[-0.457739, -0.192924863131907, 0.068218402589372, 1.58655625293913, -0.00474686659161786, -0.00395197573978951], a = 0.2, v = 0.2, t = 0.2)
movej(p[-0.457696018, -0.193970362427778, 0.068177917154541, 1.57741680983364, -0.00322753566323977, -0.00323370806454752], a = 0.2, v = 0.2, t = 0.2)
movej(p[-0.4575918693, -0.194676352996719, 0.0681508046340619, 1.57220042065721, -0.00651364993461338, 0.00282313291645777], a = 0.2, v = 0.2, t = 0.2)
movej(p[-0.457583586, -0.195181072192871, 0.0682206164565514, 1.5672088137103, -0.00944583856584792, 0.00727210931810805], a = 0.2, v = 0.2, t = 0.2)
movej(p[-0.457522293, -0.195362232300865, 0.0682812490706758, 1.5637601107313, -0.00323901743359008, 0.00508897701727397], a = 0.2, v = 0.2, t = 0.2)
movej(p[-0.45740767, -0.195310916852769, 0.0683186611808361, 1.56252251158805, 0.0021436009462524, 0.00390819985930319], a = 0.2, v = 0.2, t = 0.2)
movej(p[-0.45731625, -0.194956562211294, 0.0684402656978804, 1.56571578707146, 0.0178842260050081, 0.00015571227314636], a = 0.2, v = 0.2, t = 0.2)
movej(p[-0.4573208, -0.19432278596918, 0.068577341546342, 1.57028907229687, 0.0251914413759997, -0.00170850244985899], a = 0.2, v = 0.2, t = 0.2)
movej(p[-0.45728062, -0.193419895066319, 0.0686273764074977, 1.57503562334936, 0.0242229931018298, -0.00131516046097677], a = 0.2, v = 0.2, t = 0.2)
movej(p[-0.45734274, -0.192432597065837, 0.0685795853555668, 1.58337677303343, 0.0238956421253383, 0.000992896650890135], a = 0.2, v = 0.2, t = 0.2)
movej(p[-0.4575994278, -0.191765295986637, 0.0685921904853901, 1.58827854556489, 0.0212600199071132, -6.08760772288803E-05], a = 0.2, v = 0.2, t = 0.2)
movej(p[-0.45783053, -0.191294336971849, 0.0685845595424231, 1.59234030314636, 0.0132945378818683, 0.0001608229918467], a = 0.2, v = 0.2, t = 0.2)
movej(p[-0.45787567, -0.191153275739536, 0.0684753783300371, 1.59211853534481, 0.0121507429193312, -0.0069368304510073], a = 0.2, v = 0.2, t = 0.2)
movej(p[-0.45780995, -0.19151450870796, 0.0683834712458511, 1.59174981916924, 0.0169696829713368, -0.0116309161565802], a = 0.2, v = 0.2, t = 0.2)
movej(p[-0.45783658, -0.192462140983986, 0.0683378005601382, 1.58666826651819, 0.014499348092509, -0.0114788849562825], a = 0.2, v = 0.2, t = 0.2)
movej(p[-0.45773741, -0.193745148566753, 0.0682821889474768, 1.58122322959571, -0.00540226243749862, 0.00075338760527492], a = 0.2, v = 0.2, t = 0.2)
movej(p[-0.457685168, -0.194616972772516, 0.0682536334445851, 1.57581624218974, -0.00934094823803109, 0.00872974588614456], a = 0.2, v = 0.2, t = 0.2)
movej(p[-0.457643187, -0.195276395128246, 0.0682798056643551, 1.56787212314643, -0.00129486634342568, 0.00614521328381254], a = 0.2, v = 0.2, t = 0.2)
movej(p[-0.457616385, -0.195459940537518, 0.068349524699492, 1.56226629573907, 0.00597355602540465, 0.00370717702125954], a = 0.2, v = 0.2, t = 0.2)
movej(p[-0.45740262, -0.195535807111215, 0.0683326299193664, 1.55862959998031, -0.00232429845507581, 0.00670913510160754], a = 0.2, v = 0.2, t = 0.2)
movej(p[-0.45728068, -0.19534909002305, 0.0684007225113804, 1.56182182078284, -0.0106528206535903, 0.0149491861228462], a = 0.2, v = 0.2, t = 0.2)
movej(p[-0.45724914, -0.194900371508886, 0.0685328759492721, 1.56480973775495, -0.0108564224923137, 0.0166328353425281], a = 0.2, v = 0.2, t = 0.2)
movej(p[-0.45719644, -0.194067574010056, 0.0686032476541186, 1.57023503049869, -0.00943948385216334, 0.0169009682062951], a = 0.2, v = 0.2, t = 0.2)
movej(p[-0.45721113, -0.193069305653534, 0.0686099133023112, 1.57771818240479, 0.00440853727539714, 0.012585403958339], a = 0.2, v = 0.2, t = 0.2)
movej(p[-0.45740034, -0.192209201031927, 0.0686370984230646, 1.58377378956135, 0.0136731156492379, 0.00498313738725243], a = 0.2, v = 0.2, t = 0.2)
movej(p[-0.457685659, -0.191530747785311, 0.0686426275962784, 1.5883704453557, 0.0227348312319808, -0.0052468702556179], a = 0.2, v = 0.2, t = 0.2)
movej(p[-0.45770425, -0.190992056045302, 0.0685365840502868, 1.59114552484004, 0.010321416344738, -0.0046223612786313], a = 0.2, v = 0.2, t = 0.2)
movej(p[-0.45774413, -0.190742604977293, 0.0684549668274158, 1.59465458985405, 0.00938813959632927, -0.00709521156432047], a = 0.2, v = 0.2, t = 0.2)
movej(p[-0.45781092, -0.191117300673235, 0.0684568734062421, 1.59483974711109, 0.00707992097524378, -0.00977889861616241], a = 0.2, v = 0.2, t = 0.2)
movej(p[-0.45782033, -0.192037550257428, 0.0684232768990921, 1.59115150584699, 0.0132260808489405, -0.0158671168052533], a = 0.2, v = 0.2, t = 0.2)
movej(p[-0.45773594, -0.193137621960724, 0.0683281810920974, 1.58461815784563, 0.0210669064439865, -0.017262755724788], a = 0.2, v = 0.2, t = 0.2)
movej(p[-0.45772087, -0.194245790732491, 0.0683159422285787, 1.57513085839785, 0.0171041750945123, -0.0106557556271202], a = 0.2, v = 0.2, t = 0.2)
movej(p[-0.457683033, -0.194997039282455, 0.0683290082216812, 1.56732201237251, 0.0138781934060898, -0.00581102911724462], a = 0.2, v = 0.2, t = 0.2)
movej(p[-0.45751499, -0.195352274136532, 0.0683309725406182, 1.56444186012784, -0.00565369990913187, 0.00812239901580058], a = 0.2, v = 0.2, t = 0.2)
movej(p[-0.45742408, -0.195422314353471, 0.0683635493055152, 1.56327063920236, 0.00609058338767581, 0.00654635121219259], a = 0.2, v = 0.2, t = 0.2)
movej(p[-0.45740845, -0.195451188968352, 0.0684247669591414, 1.56173498533233, 0.0104928099058404, 0.0046082566844493], a = 0.2, v = 0.2, t = 0.2)
movej(p[-0.4573195, -0.195347789764518, 0.0684846256122037, 1.5617790328509, 0.0050596464587812, 0.0067724811641179], a = 0.2, v = 0.2, t = 0.2)
movej(p[-0.45715143, -0.194841740132429, 0.0685093369307126, 1.56682017880202, 0.00326601247912291, 0.0106786248080923], a = 0.2, v = 0.2, t = 0.2)
movej(p[-0.45720928, -0.194145867721697, 0.068648580806639, 1.57368424276181, 0.00273214592701003, 0.0155880993288914], a = 0.2, v = 0.2, t = 0.2)
movej(p[-0.45735033, -0.193185242294822, 0.0687079135028558, 1.57941367501445, 0.00915202621208653, 0.0124005227472077], a = 0.2, v = 0.2, t = 0.2)
movej(p[-0.45747031, -0.192230417038284, 0.068664243239775, 1.58322798738831, 0.0130064404095742, 0.0066256506939188], a = 0.2, v = 0.2, t = 0.2)
movej(p[-0.457617435, -0.191446485431632, 0.0686073741120178, 1.58908806934201, 0.0162360441643566, 0.00209869711664812], a = 0.2, v = 0.2, t = 0.2)
movej(p[-0.45786102, -0.190967701679151, 0.0686180704132524, 1.59100455932359, 0.0129573308449588, -0.00270622939241987], a = 0.2, v = 0.2, t = 0.2)
movej(p[-0.45791114, -0.191037084007145, 0.0685620506608243, 1.59226421782561, -0.00238924012946371, -0.00205706032897714], a = 0.2, v = 0.2, t = 0.2)
movej(p[-0.45782944, -0.191541530517618, 0.0684244958409469, 1.59056031113396, -0.00342311388859812, -0.00444009784796961], a = 0.2, v = 0.2, t = 0.2)
movej(p[-0.45780208, -0.19266347872475, 0.0683623594738732, 1.58559435262034, 0.00806630636558598, -0.00904362285669286], a = 0.2, v = 0.2, t = 0.2)
movej(p[-0.45785491, -0.1939148362067, 0.0683581539456599, 1.57679276857929, 0.0131385442738058, -0.00828254937332794], a = 0.2, v = 0.2, t = 0.2)
movej(p[-0.45770863, -0.194972439634699, 0.0683053304888872, 1.56826625156303, 0.00334658206069106, -0.000792504916656891], a = 0.2, v = 0.2, t = 0.2)
movej(p[-0.45759910908, -0.195385236023598, 0.0682763652974989, 1.56561331689878, 0.00435474825196849, 0.00510566523593757], a = 0.2, v = 0.2, t = 0.2)
movej(p[-0.457559755, -0.195610964201541, 0.0683303706554034, 1.56323433885477, 0.000950955268592726, 0.00961435763585767], a = 0.2, v = 0.2, t = 0.2)
movej(p[-0.457513431, -0.195579018324101, 0.0684032252250239, 1.56275954928785, -0.00148344019960026, 0.0115256396700324], a = 0.2, v = 0.2, t = 0.2)
movej(p[-0.45734382, -0.195337147852144, 0.068401001355549, 1.56281350187532, 0.0047328167407921, 0.00780127613510238], a = 0.2, v = 0.2, t = 0.2)
movej(p[-0.45725962, -0.194773108230085, 0.0684843699128548, 1.56720305228612, 0.00687193648553835, 0.0093506894106409], a = 0.2, v = 0.2, t = 0.2)
movej(p[-0.45731019, -0.193818875966831, 0.0685726867281528, 1.57245592343352, 0.0128911682037545, 0.00793515392643865], a = 0.2, v = 0.2, t = 0.2)
movej(p[-0.45726653, -0.192703086191673, 0.0685379627126359, 1.57961487932582, 0.00154591672644883, 0.0123438497461244], a = 0.2, v = 0.2, t = 0.2)
movej(p[-0.45733408, -0.191592139635882, 0.0684380401072096, 1.58698911329927, 0.0149206209399824, 0.00193607619607443], a = 0.2, v = 0.2, t = 0.2)
movej(p[-0.457542905, -0.190836761246504, 0.0684028655359886, 1.59160569599967, 0.0202428217467117, -0.00918429741101198], a = 0.2, v = 0.2, t = 0.2)
movej(p[-0.457693103, -0.190416479176799, 0.0683987990897718, 1.59552468731769, 0.0124468081775799, -0.0128630330613994], a = 0.2, v = 0.2, t = 0.2)
movej(p[-0.457586485, -0.1903817116101, 0.0682467692887266, 1.59740171277277, -0.00101452427625556, -0.0100615394850936], a = 0.2, v = 0.2, t = 0.2)
movej(p[-0.457579419, -0.19110003841919, 0.0681864098408858, 1.59775213902326, -0.00891656247530253, -0.00387191641172462], a = 0.2, v = 0.2, t = 0.2)
movej(p[-0.457654622, -0.192290908419781, 0.0681654428360416, 1.5919562987315, -0.00440709122019033, -0.0048688784368844], a = 0.2, v = 0.2, t = 0.2)
movej(p[-0.457684509, -0.193693576228397, 0.0681749459709399, 1.58261519242859, -0.0115624560872727, 0.00226177019529095], a = 0.2, v = 0.2, t = 0.2)
movej(p[-0.457592692, -0.194663386024015, 0.0681517865296331, 1.5747043011205, -0.0101822781115532, 0.0068148757292191], a = 0.2, v = 0.2, t = 0.2)
movej(p[-0.457577895, -0.195247333316554, 0.0682406872488687, 1.56707620067031, -0.0107514393358563, 0.0107452275103352], a = 0.2, v = 0.2, t = 0.2)
movej(p[-0.457522651, -0.19549574896014, 0.0683278075618047, 1.56341009889207, -0.00960592605460022, 0.0122765869726698], a = 0.2, v = 0.2, t = 0.2)
movej(p[-0.45739447, -0.195461199578189, 0.0683746838373268, 1.5622665901133, -0.0123494464027514, 0.016169398761714], a = 0.2, v = 0.2, t = 0.2)
movej(p[-0.4572891, -0.195180169550626, 0.0684147848062533, 1.56359197415239, 0.000107868984453397, 0.0125324511288944], a = 0.2, v = 0.2, t = 0.2)
movej(p[-0.45729177, -0.194599146575307, 0.0685222784971974, 1.56645777273497, 0.00311497823735795, 0.0125452816170674], a = 0.2, v = 0.2, t = 0.2)
movej(p[-0.45722611, -0.19374901350345, 0.0685080704313667, 1.56993245105683, 0.0067280369132444, 0.00961170165449418], a = 0.2, v = 0.2, t = 0.2)
movej(p[-0.45724428, -0.192747944254599, 0.0684707160272858, 1.5786214224178, 0.0110025816644262, 0.00925846022489044], a = 0.2, v = 0.2, t = 0.2)
movej(p[-0.45745545, -0.191972021056502, 0.0684714926581966, 1.58488576041031, 0.0185894826561009, 0.00267400422856456], a = 0.2, v = 0.2, t = 0.2)
movej(p[-0.457686884, -0.191335437871102, 0.0685109971764972, 1.59070276133694, 0.0146974066412954, -0.00089517060926633], a = 0.2, v = 0.2, t = 0.2)
movej(p[-0.45773797, -0.190966255814566, 0.0684482466646906, 1.59241602647808, 0.0133666303601252, -0.00875312777893039], a = 0.2, v = 0.2, t = 0.2)
movej(p[-0.4577223, -0.190836453573642, 0.068403993471009, 1.59581199912858, 0.00954290334357065, -0.00818806434245332], a = 0.2, v = 0.2, t = 0.2)
movej(p[-0.45776595, -0.191299862920456, 0.0684041929327306, 1.59319954391792, 0.013549509710887, -0.012886056583984], a = 0.2, v = 0.2, t = 0.2)
movej(p[-0.45773166, -0.192140779335265, 0.0683752073620757, 1.59003624612365, 0.00132970789989457, -0.00651087645397927], a = 0.2, v = 0.2, t = 0.2)
movej(p[-0.457615807, -0.193099832158069, 0.0682529825255199, 1.58376830244917, 0.0117460690863481, -0.0104162657799034], a = 0.2, v = 0.2, t = 0.2)
movej(p[-0.4575927013, -0.194084855463801, 0.0682381866725601, 1.57655823174667, 0.00701283464870018, -0.00436602650114648], a = 0.2, v = 0.2, t = 0.2)
movej(p[-0.457588637, -0.194817931424063, 0.0682809998467644, 1.56871088673164, 0.00511538034987044, -0.000633805350566042], a = 0.2, v = 0.2, t = 0.2)
movej(p[-0.45742749, -0.195255611192203, 0.0682751643038292, 1.56449386872427, -0.011969991612773, 0.0109479384454809], a = 0.2, v = 0.2, t = 0.2)
movej(p[-0.45729948, -0.195339159231154, 0.0683139930159805, 1.56403526682654, -0.00125199772267115, 0.00952011349799181], a = 0.2, v = 0.2, t = 0.2)
movej(p[-0.45728903, -0.195248977243393, 0.0683832817146573, 1.56326571659304, 0.00301042113826609, 0.00921308515391811], a = 0.2, v = 0.2, t = 0.2)
movej(p[-0.45725438, -0.194857176208527, 0.0684614107316699, 1.56376966768514, 0.0115669379863352, 0.00376675388858497], a = 0.2, v = 0.2, t = 0.2)
movej(p[-0.45708914, -0.194073170071723, 0.068397850942865, 1.56788607565628, 0.00642634827929969, 0.00877272654198851], a = 0.2, v = 0.2, t = 0.2)
movej(p[-0.45714336, -0.193225501776681, 0.0684491611414744, 1.57595850124335, 0.00653705676756547, 0.0130580910526063], a = 0.2, v = 0.2, t = 0.2)
movej(p[-0.45737182, -0.192414294264216, 0.0685210796135167, 1.58273253883186, 0.00427430657753057, 0.0149147843839108], a = 0.2, v = 0.2, t = 0.2)
movej(p[-0.457504987, -0.191700226814498, 0.0684844357688477, 1.58684521371047, -0.000749863036011412, 0.0106203498673772], a = 0.2, v = 0.2, t = 0.2)
movej(p[-0.457554016, -0.191068651424223, 0.0683756708972258, 1.59240491611371, 0.00233431677699522, 0.00390369576052421], a = 0.2, v = 0.2, t = 0.2)
movej(p[-0.45769217, -0.190977338192187, 0.0683478796656009, 1.59337120733747, 0.00520971761717007, -0.00339679323594405], a = 0.2, v = 0.2, t = 0.2)
movej(p[-0.45778587, -0.191433788954052, 0.0683419616935874, 1.59345947099669, 0.00513794317379874, -0.00664138216643471], a = 0.2, v = 0.2, t = 0.2)
movej(p[-0.45778933, -0.192395874952386, 0.0683031493977326, 1.58862471964189, 0.00764788153123419, -0.00917906007478379], a = 0.2, v = 0.2, t = 0.2)
movej(p[-0.45778336, -0.193472078209695, 0.0682916133040343, 1.58305507452757, 0.0125153257400739, -0.00767845984376691], a = 0.2, v = 0.2, t = 0.2)
movej(p[-0.45784667, -0.194557566558322, 0.0683882428124432, 1.57377461961424, 0.00396183939572403, -0.00055656822004965], a = 0.2, v = 0.2, t = 0.2)
movej(p[-0.45772404, -0.195246347875247, 0.0683886239681287, 1.56544167739217, -0.00519520130511989, 0.00499630933208887], a = 0.2, v = 0.2, t = 0.2)
movej(p[-0.457545954, -0.195484075343292, 0.0683371284399656, 1.56090391166982, -0.00630489416167582, 0.00962447796877603], a = 0.2, v = 0.2, t = 0.2)
movej(p[-0.45746899, -0.195552852929538, 0.0683686165985365, 1.55853848033041, 0.0115102717686569, 0.00164098546164642], a = 0.2, v = 0.2, t = 0.2)
movej(p[-0.45745214, -0.195386879643551, 0.0684685909074302, 1.55954113013618, 0.0120328633430224, 0.00172704538732459], a = 0.2, v = 0.2, t = 0.2)
movej(p[-0.45723441, -0.194997570840176, 0.0684921056010175, 1.56261465580704, 0.00631750949471646, 0.00299345905668931], a = 0.2, v = 0.2, t = 0.2)
movej(p[-0.45715125, -0.194209289020938, 0.0685044085055455, 1.57116840259167, 0.00660527346564567, 0.00880428097259751], a = 0.2, v = 0.2, t = 0.2)
movej(p[-0.45726669, -0.193350306226465, 0.0685666420599856, 1.5767596372559, 0.00909160536683517, 0.00995229788315925], a = 0.2, v = 0.2, t = 0.2)
movej(p[-0.4574871, -0.192415003656918, 0.0685785557621524, 1.5828787660808, 0.0101909258530949, 0.00805937032341361], a = 0.2, v = 0.2, t = 0.2)
movej(p[-0.457528998, -0.191559471604963, 0.0684037972954692, 1.58588365180428, 0.0152805775839834, -0.000190032806946473], a = 0.2, v = 0.2, t = 0.2)
movej(p[-0.457675162, -0.190953042510322, 0.0683177338492626, 1.59182922725359, 0.0173628245575561, -0.0060537980415787], a = 0.2, v = 0.2, t = 0.2)
movej(p[-0.45785622, -0.190942951350356, 0.0683016848963201, 1.59350171537687, 0.0169136161863145, -0.0130610676653], a = 0.2, v = 0.2, t = 0.2)
movej(p[-0.45790945, -0.191518203761628, 0.068281213996825, 1.59284108811928, 0.00510936144677874, -0.010074450459672], a = 0.2, v = 0.2, t = 0.2)
movej(p[-0.45782516, -0.192440593414318, 0.0682123012185407, 1.58896762583176, 0.0112092644396925, -0.0122641218792774], a = 0.2, v = 0.2, t = 0.2)
movej(p[-0.45782159, -0.193660114139745, 0.0682281097812159, 1.58052323265141, 0.00769893569901723, -0.00428097904524606], a = 0.2, v = 0.2, t = 0.2)
movej(p[-0.45779649, -0.194669981739652, 0.068262793919636, 1.57283079534367, 0.00638068246036037, -0.000148076435566535], a = 0.2, v = 0.2, t = 0.2)
movej(p[-0.457661183, -0.195299358603894, 0.0682300805820407, 1.56667245654049, -0.011267388985665, 0.0146997045746907], a = 0.2, v = 0.2, t = 0.2)
movej(p[-0.4575939184, -0.195560234293202, 0.0682448439057871, 1.56403001537848, 0.000471649892573507, 0.0136296032822951], a = 0.2, v = 0.2, t = 0.2)
movej(p[-0.457578202, -0.195668661077439, 0.068316312454535, 1.5616194708044, 0.005482586893552, 0.0120916849199609], a = 0.2, v = 0.2, t = 0.2)
movej(p[-0.45748084, -0.195672385621752, 0.068349498533991, 1.56025548205694, 0.00365195813365051, 0.0124669061692794], a = 0.2, v = 0.2, t = 0.2)
movej(p[-0.45726739, -0.195374908618158, 0.0683480467650961, 1.56372349361365, 0.000675056850232731, 0.0155644233496609], a = 0.2, v = 0.2, t = 0.2)
movej(p[-0.45726093, -0.194838506942541, 0.0684553537103275, 1.56847564353265, 0.00584675205388798, 0.0163376680693335], a = 0.2, v = 0.2, t = 0.2)
movej(p[-0.45730619, -0.19391505188007, 0.0685471297758208, 1.5738779672973, 0.0126957112585694, 0.0141640764701473], a = 0.2, v = 0.2, t = 0.2)
movej(p[-0.45733135, -0.192843818524684, 0.0684748277100994, 1.57766441105081, 0.0175102307186701, 0.0100674857647422], a = 0.2, v = 0.2, t = 0.2)
movej(p[-0.45742051, -0.19195225652254, 0.0683484954923867, 1.5838605234398, 0.0156945625285231, 0.00931789305867517], a = 0.2, v = 0.2, t = 0.2)
movej(p[-0.457669933, -0.191289857444963, 0.0682431112126002, 1.58784662702627, 0.0126082079515363, 0.003909757725793], a = 0.2, v = 0.2, t = 0.2)
movej(p[-0.45782008, -0.190746683935694, 0.0680166584264304, 1.59013538211737, 0.00614447471710862, -0.0032243496707111], a = 0.2, v = 0.2, t = 0.2)
movej(p[-0.45782981, -0.190244540334486, 0.0677123746932763, 1.59213699346302, 0.00319953115056872, -0.00955794578306286], a = 0.2, v = 0.2, t = 0.2)
movej(p[-0.45788985, -0.190266410762057, 0.0675255190152843, 1.59430101444463, 0.0096249665122651, -0.0153373989204833], a = 0.2, v = 0.2, t = 0.2)
movej(p[-0.45804667, -0.19099707712428, 0.0675476653358992, 1.59436550564074, 0.0123784197132374, -0.0182191593335942], a = 0.2, v = 0.2, t = 0.2)
movej(p[-0.45802135, -0.192122059798234, 0.0675687515139146, 1.59226239180079, 0.00484429634289204, -0.0136127010563469], a = 0.2, v = 0.2, t = 0.2)
movej(p[-0.45796815, -0.193152109274284, 0.0675649719255868, 1.58844025452831, 0.0124206081950142, -0.0104344699125582], a = 0.2, v = 0.2, t = 0.2)
movej(p[-0.45790605, -0.19412142440931, 0.0676101807013908, 1.57938267145966, 0.0176464235308498, -0.00916851108829209], a = 0.2, v = 0.2, t = 0.2)
movej(p[-0.45786636, -0.194860749995877, 0.0677030975069112, 1.57119195559891, 0.0191191187081775, -0.00504596002020162], a = 0.2, v = 0.2, t = 0.2)
movej(p[-0.457649814, -0.195324118212741, 0.0677181770327566, 1.56447118708215, 0.0143932991941987, -0.000810038451448659], a = 0.2, v = 0.2, t = 0.2)
movej(p[-0.457581315, -0.195477934711536, 0.067803084372831, 1.56375821106454, 0.00723917478588342, 0.0080932363949684], a = 0.2, v = 0.2, t = 0.2)
movej(p[-0.45758249, -0.195569807187836, 0.0679236865486966, 1.56173536228478, 0.0099454233776696, 0.00834393388021225], a = 0.2, v = 0.2, t = 0.2)
movej(p[-0.457525898, -0.195566390697968, 0.0679878998122952, 1.56087635872352, 0.00183989366737525, 0.0130411213355836], a = 0.2, v = 0.2, t = 0.2)
movej(p[-0.45736625, -0.195488194993878, 0.0679884733860741, 1.56044682122771, 0.00642164551436932, 0.0106693366241253], a = 0.2, v = 0.2, t = 0.2)
movej(p[-0.45732306, -0.195242614399388, 0.0680893996838352, 1.56121587845645, 0.00585066210615625, 0.0128188646264897], a = 0.2, v = 0.2, t = 0.2)
movej(p[-0.45728316, -0.194655795352287, 0.0681901158265574, 1.56487547186009, 0.0101413881098226, 0.0111512420605809], a = 0.2, v = 0.2, t = 0.2)
movej(p[-0.4571779, -0.193689658351809, 0.0681628490645979, 1.56974743617107, 0.00794946499355942, 0.0127169154584825], a = 0.2, v = 0.2, t = 0.2)
movej(p[-0.45725331, -0.192715590289896, 0.0681106978262625, 1.5780553127682, 0.0210986305506667, 0.00666902005148851], a = 0.2, v = 0.2, t = 0.2)
movej(p[-0.45752515, -0.191978337017514, 0.0681013170340173, 1.5821356878575, 0.0273988200043695, -0.0012985795164178], a = 0.2, v = 0.2, t = 0.2)
movej(p[-0.45773452, -0.191423596664995, 0.0680465136006375, 1.58697303780676, 0.0247023379757798, -0.00626573125573521], a = 0.2, v = 0.2, t = 0.2)
movej(p[-0.45774763, -0.191070724011718, 0.0679088652022497, 1.58967584979592, 0.0121466253307727, -0.00574057788924118], a = 0.2, v = 0.2, t = 0.2)
movej(p[-0.4577545, -0.191297077321513, 0.0678282206989914, 1.59074254250514, 0.0153131452721892, -0.00931145430330842], a = 0.2, v = 0.2, t = 0.2)
movej(p[-0.45780777, -0.192065523392379, 0.0678240531731591, 1.58784540941537, 0.0157066704944382, -0.0126588387376954], a = 0.2, v = 0.2, t = 0.2)
movej(p[-0.45772116, -0.193192314533566, 0.0677703299142947, 1.58263757816373, 0.0138253325594414, -0.0122836457489961], a = 0.2, v = 0.2, t = 0.2)
movej(p[-0.457680298, -0.194096212959469, 0.0677736331323819, 1.5786850596693, 0.0151424686927157, -0.00639407269123968], a = 0.2, v = 0.2, t = 0.2)
movej(p[-0.45770303, -0.194957690874909, 0.0678533798144938, 1.56976583678323, 0.0240545144863909, -0.0071005214466445], a = 0.2, v = 0.2, t = 0.2)
movej(p[-0.45770114, -0.195400216171029, 0.0679644589032331, 1.5637116369347, 0.0183130564897995, -0.000892528702893505], a = 0.2, v = 0.2, t = 0.2)
movej(p[-0.457509983, -0.19554710215746, 0.0679802625456975, 1.55920046522163, 0.014350000982776, 0.000641050593612237], a = 0.2, v = 0.2, t = 0.2)
movej(p[-0.45740183, -0.195214308983025, 0.0680867162504827, 1.56432956469579, 0.00167265532310864, 0.0122772156351377], a = 0.2, v = 0.2, t = 0.2)
movej(p[-0.45741845, -0.194502656898664, 0.0682511664655548, 1.569677036747, 0.00578367138340306, 0.0121772862593378], a = 0.2, v = 0.2, t = 0.2)
movej(p[-0.4574296, -0.193419872915321, 0.0683069288562365, 1.57723815119316, 0.000295520806778652, 0.0151886450369681], a = 0.2, v = 0.2, t = 0.2)
movej(p[-0.45748739, -0.192263226167145, 0.0681921653170087, 1.58270545996557, 0.0189050414804455, 0.00469862284722183], a = 0.2, v = 0.2, t = 0.2)
movej(p[-0.45773556, -0.191438986514621, 0.0680922012494332, 1.5857355062792, 0.0292639461332756, -0.00623231818657673], a = 0.2, v = 0.2, t = 0.2)
movej(p[-0.45802225, -0.190946649063796, 0.0680371829183382, 1.58884488433731, 0.0375475678800837, -0.0182640503731736], a = 0.2, v = 0.2, t = 0.2)
movej(p[-0.45799398, -0.190875871245204, 0.0679159670933841, 1.59083254602402, 0.0177443763411953, -0.016080885199865], a = 0.2, v = 0.2, t = 0.2)
movej(p[-0.45792796, -0.191108459274006, 0.067844949185313, 1.59357764253324, 0.0168436087174319, -0.0155360173497435], a = 0.2, v = 0.2, t = 0.2)
movej(p[-0.45792031, -0.191845531556082, 0.0678368183430683, 1.58985018809368, 0.0172639207172943, -0.0167269067608216], a = 0.2, v = 0.2, t = 0.2)
movej(p[-0.45787352, -0.192666087001396, 0.0678167345992634, 1.58475299922441, 0.0202806615061501, -0.0161019549634669], a = 0.2, v = 0.2, t = 0.2)
movej(p[-0.45769267, -0.193319225442725, 0.0677544420687383, 1.58076848066781, 0.0112350370869739, -0.0081272301125823], a = 0.2, v = 0.2, t = 0.2)
movej(p[-0.457627481, -0.193730602378927, 0.0678180893692398, 1.57886912144719, 0.00798023367339855, -0.000441429399052822], a = 0.2, v = 0.2, t = 0.2)
movej(p[-0.457627121, -0.194191507817542, 0.0680248505842453, 1.57294331620624, 0.0279963508793718, -0.0216737382843242], a = 0.2, v = 0.2, t = 0.2)
movej(p[-0.457613009, -0.194287727681207, 0.0681473233493499, 1.56869137478934, 0.0351986558338945, -0.0241241295303107], a = 0.2, v = 0.2, t = 0.2)
movej(p[-0.45743282, -0.193953437807792, 0.068181482212513, 1.57093162855377, 0.025530544526234, -0.0165047873785172], a = 0.2, v = 0.2, t = 0.2)
movej(p[-0.457506234, -0.193337069904255, 0.068248234748709, 1.57733180398303, 0.0283060701552369, -0.0115858624529649], a = 0.2, v = 0.2, t = 0.2)
movej(p[-0.4577768, -0.19258472195292, 0.0683263033885219, 1.58226988955762, 0.0344294084313311, -0.012413223701689], a = 0.2, v = 0.2, t = 0.2)
movej(p[-0.45801382, -0.191956970001026, 0.0683023864615949, 1.5861571601236, 0.034653314531413, -0.0155054261167132], a = 0.2, v = 0.2, t = 0.2)
movej(p[-0.45794909, -0.191426352965687, 0.0681412365208337, 1.58932319534672, 0.030377273527411, -0.0171352408286249], a = 0.2, v = 0.2, t = 0.2)
movej(p[-0.45791626, -0.191623559731134, 0.068082055425356, 1.59204351482871, 0.0204618636780624, -0.0147367136371604], a = 0.2, v = 0.2, t = 0.2)
movej(p[-0.45790896, -0.192307189231113, 0.0680947518523, 1.5902420472752, 0.0134785610909763, -0.0128634393493638], a = 0.2, v = 0.2, t = 0.2)
movej(p[-0.45787852, -0.193428563783694, 0.0680875928562116, 1.58362929027374, 0.00312172517754285, -0.00738709957618182], a = 0.2, v = 0.2, t = 0.2)
movej(p[-0.45783854, -0.19432366851699, 0.068098766491717, 1.5757827108447, 0.00886108184350698, -0.00593139977273816], a = 0.2, v = 0.2, t = 0.2)
movej(p[-0.45784665, -0.194967822285698, 0.0681798562102951, 1.56824647201771, 0.00854380181942822, -0.00203219031751994], a = 0.2, v = 0.2, t = 0.2)
movej(p[-0.45774479, -0.195265529340429, 0.0682486910988897, 1.56478219714148, 0.00548282722281175, 0.00189371846974013], a = 0.2, v = 0.2, t = 0.2)
movej(p[-0.457563354, -0.195231257430901, 0.0682548883207103, 1.56374317582252, 0.00397461288248341, 0.00720231865222383], a = 0.2, v = 0.2, t = 0.2)
movej(p[-0.457468, -0.194920779270642, 0.0683169796599105, 1.56521069772199, 0.0170925673040114, 0.00295056212304499], a = 0.2, v = 0.2, t = 0.2)
movej(p[-0.45749084, -0.19426586193885, 0.0684085307763331, 1.56844263475982, 0.0270702257070458, -0.000110193444886702], a = 0.2, v = 0.2, t = 0.2)
movej(p[-0.45745736, -0.193409313312648, 0.0683745186512606, 1.57092037143916, 0.0327921069511776, -0.00412248715635465], a = 0.2, v = 0.2, t = 0.2)
movej(p[-0.457554493, -0.19251171060898, 0.0682982965365722, 1.57815079341863, 0.0358906888835247, -0.00377152015587897], a = 0.2, v = 0.2, t = 0.2)
movej(p[-0.45780558, -0.191852863224723, 0.0682588879187723, 1.58250991180335, 0.0345838468106448, -0.00593822543048141], a = 0.2, v = 0.2, t = 0.2)
movej(p[-0.45800579, -0.191458286925483, 0.0682393458186179, 1.58836221677197, 0.0241014753129583, -0.00750810010353396], a = 0.2, v = 0.2, t = 0.2)
movej(p[-0.45793261, -0.191414416170811, 0.0680877541599274, 1.58824436174696, 0.0166827937277498, -0.0121614151232565], a = 0.2, v = 0.2, t = 0.2)
movej(p[-0.45783161, -0.191828756109175, 0.0679802880459509, 1.58813664598866, 0.0210403726000184, -0.0152330883886389], a = 0.2, v = 0.2, t = 0.2)
movej(p[-0.45783233, -0.192831903127793, 0.0679914925671955, 1.58262212779583, 0.0250865990850304, -0.01752220159785], a = 0.2, v = 0.2, t = 0.2)
movej(p[-0.45778663, -0.193921218522565, 0.0680370709062367, 1.57763977128914, 0.0139988642082321, -0.0091787386633883], a = 0.2, v = 0.2, t = 0.2)
movej(p[-0.45763982, -0.194664967718414, 0.0680073459434157, 1.57014555870546, 0.0211125354071628, -0.0113897461438237], a = 0.2, v = 0.2, t = 0.2)
movej(p[-0.457560881, -0.195085137067625, 0.0680662538901143, 1.56440151457721, 0.0192567827605138, -0.00839119536202774], a = 0.2, v = 0.2, t = 0.2)
movej(p[-0.457527028, -0.19524976272192, 0.068162651957554, 1.56076051214998, 0.0218457394750632, -0.00892386612424024], a = 0.2, v = 0.2, t = 0.2)
movej(p[-0.45736802, -0.195197955132076, 0.0682148810651816, 1.56199846138251, 0.0119852005934582, -0.00258000280861621], a = 0.2, v = 0.2, t = 0.2)
movej(p[-0.4572718, -0.19485438252495, 0.0683089182232242, 1.56530751841555, 0.0268677703976215, -0.00562361485477716], a = 0.2, v = 0.2, t = 0.2)
movej(p[-0.45733412, -0.194264454955287, 0.0684286816794705, 1.56880841690573, 0.0388539997826862, -0.00985295595375122], a = 0.2, v = 0.2, t = 0.2)
movej(p[-0.45743393, -0.193482911580424, 0.0684780212356753, 1.57310672625536, 0.0405903976192806, -0.00919636857609874], a = 0.2, v = 0.2, t = 0.2)
movej(p[-0.45744015, -0.192555616396903, 0.0683417359355883, 1.57979986798575, 0.0226367800849817, 1.0182810367066E-05], a = 0.2, v = 0.2, t = 0.2)
movej(p[-0.457635242, -0.191921486835611, 0.0682850749084543, 1.58671167231173, 0.0205025126737694, 0.0019911743841358], a = 0.2, v = 0.2, t = 0.2)
movej(p[-0.45789771, -0.191666401426362, 0.0682820612083973, 1.58809578225015, 0.022900164758765, -0.00525906546721684], a = 0.2, v = 0.2, t = 0.2)
movej(p[-0.45794246, -0.191923987359529, 0.0682261505418464, 1.58731879490714, 0.0225665439334672, -0.0114041286577867], a = 0.2, v = 0.2, t = 0.2)
movej(p[-0.45785111, -0.192501628422525, 0.0681190738761292, 1.58588019296545, 0.0255929402724343, -0.0145568181433306], a = 0.2, v = 0.2, t = 0.2)
movej(p[-0.45781921, -0.193416889749338, 0.0681278744465708, 1.58180200459085, 0.0275380011034179, -0.0128608611935294], a = 0.2, v = 0.2, t = 0.2)
movej(p[-0.45785294, -0.194368910779158, 0.0682030563791172, 1.5748911770232, 0.0245418444488318, -0.00952572876409204], a = 0.2, v = 0.2, t = 0.2)
movej(p[-0.457698832, -0.195096840930608, 0.0682010935468933, 1.56669038659465, 0.0156022674031759, -0.00477000077554308], a = 0.2, v = 0.2, t = 0.2)
movej(p[-0.45760014558, -0.195294193068855, 0.0682114550454911, 1.56517144384155, 0.0175630397163336, -0.00187562162595467], a = 0.2, v = 0.2, t = 0.2)
movej(p[-0.457583975, -0.195481526453091, 0.068298700229511, 1.56312789462188, 0.0250974151634042, -0.00483272734899825], a = 0.2, v = 0.2, t = 0.2)
movej(p[-0.457576996, -0.195524369367104, 0.0683896435020433, 1.5624286761058, 0.0256254601233348, -0.00391531546702391], a = 0.2, v = 0.2, t = 0.2)
movej(p[-0.45735674, -0.195571818009129, 0.0683591052707593, 1.56240146902124, 0.0147708041672631, 0.00349960648360392], a = 0.2, v = 0.2, t = 0.2)
movej(p[-0.45728122, -0.195494149496352, 0.0684071785244774, 1.56526739595874, 0.0127919468219393, 0.00994961052218248], a = 0.2, v = 0.2, t = 0.2)
movej(p[-0.45729994, -0.195347673511242, 0.0684958450812275, 1.56488110058352, 0.0155057374994224, 0.00714466040502752], a = 0.2, v = 0.2, t = 0.2)
movej(p[-0.45723461, -0.194867912425453, 0.0685267452068428, 1.56562044162317, 0.0204856817556842, 0.00330746365803879], a = 0.2, v = 0.2, t = 0.2)
movej(p[-0.45704857, -0.194039138419745, 0.0684318204389408, 1.5695056548496, 0.0247427640926643, 0.00299285397771799], a = 0.2, v = 0.2, t = 0.2)
movej(p[-0.4571568, -0.19318511471463, 0.0684324062729628, 1.57555122170307, 0.029229209905218, 0.00355160381470662], a = 0.2, v = 0.2, t = 0.2)
movej(p[-0.45741251, -0.192410501365601, 0.068446452112419, 1.58147552690693, 0.0317094066975325, 0.000487401877472301], a = 0.2, v = 0.2, t = 0.2)
movej(p[-0.457573532, -0.191795260401319, 0.0683768191577888, 1.58524954339644, 0.0236380183869956, -0.00298286149062221], a = 0.2, v = 0.2, t = 0.2)
movej(p[-0.457615758, -0.191200894637152, 0.0682373364635728, 1.59094982740138, 0.0241934956250852, -0.0083982881141727], a = 0.2, v = 0.2, t = 0.2)
movej(p[-0.45774845, -0.191226597392763, 0.0682075904595725, 1.5922524516745, 0.0190598094749353, -0.0115704346948291], a = 0.2, v = 0.2, t = 0.2)
movej(p[-0.45785334, -0.191783505760061, 0.0682229657167845, 1.59191656202732, 0.0245972392083648, -0.0187535852116554], a = 0.2, v = 0.2, t = 0.2)
movej(p[-0.45776925, -0.192852691731585, 0.0681845213102401, 1.58654000039599, 0.0174778895097678, -0.0170572210313656], a = 0.2, v = 0.2, t = 0.2)
movej(p[-0.45773689, -0.193898654006222, 0.0682083405070514, 1.58377950911136, 0.0166309380972603, -0.00791677495651058], a = 0.2, v = 0.2, t = 0.2)
movej(p[-0.45778985, -0.194834323083448, 0.0683455527398259, 1.57577948333631, 0.0109692143820792, -0.00055999432436421], a = 0.2, v = 0.2, t = 0.2)
movej(p[-0.45778705, -0.195378895920234, 0.0684529262860817, 1.56871825532836, 0.00387063507736583, 0.00776603714057782], a = 0.2, v = 0.2, t = 0.2)
movej(p[-0.4576018039, -0.195542662264655, 0.0684525492784011, 1.56276806651037, 0.0117741003780727, 0.00314744516334788], a = 0.2, v = 0.2, t = 0.2)
movej(p[-0.457505769, -0.195548859609603, 0.0684750319164936, 1.56262379656905, 0.0148376542930346, 0.0050985698862778], a = 0.2, v = 0.2, t = 0.2)
movej(p[-0.457533079, -0.195564233117808, 0.0685702085971747, 1.56323995107721, 0.0181760702437566, 0.00435501844006291], a = 0.2, v = 0.2, t = 0.2)
movej(p[-0.45744853, -0.195537895473698, 0.0686315710164777, 1.56401940932116, 0.00712157949317919, 0.0108543544390808], a = 0.2, v = 0.2, t = 0.2)
movej(p[-0.45730354, -0.195302479372544, 0.0686125406245328, 1.56541101835585, 0.0197406367398181, 0.00589138668295931], a = 0.2, v = 0.2, t = 0.2)
movej(p[-0.45732106, -0.194831364051718, 0.0686941206795898, 1.56868767723835, 0.0195613709114318, 0.00740210207224681], a = 0.2, v = 0.2, t = 0.2)
movej(p[-0.4573688, -0.194085766377733, 0.0687221440403476, 1.57301155962583, 0.0284793573575693, 0.00323990836972243], a = 0.2, v = 0.2, t = 0.2)
movej(p[-0.45737913, -0.193192444607634, 0.0686046000657329, 1.57796306331997, 0.021995176927117, 0.00700731554388543], a = 0.2, v = 0.2, t = 0.2)
movej(p[-0.45748448, -0.192377100462396, 0.0684611854509787, 1.5833030743966, 0.037905040660987, -0.000692871499023455], a = 0.2, v = 0.2, t = 0.2)
movej(p[-0.45777341, -0.191870467845067, 0.0684201212882792, 1.58519447965177, 0.044355752416873, -0.0105365840849627], a = 0.2, v = 0.2, t = 0.2)
movej(p[-0.45794198, -0.191699373378731, 0.0683892977714576, 1.58822337437867, 0.0417121083114246, -0.0157176988761833], a = 0.2, v = 0.2, t = 0.2)
movej(p[-0.45789261, -0.191723779434522, 0.0682413502248719, 1.58782863896166, 0.0365072530952211, -0.0191409822464341], a = 0.2, v = 0.2, t = 0.2)
movej(p[-0.45787835, -0.19232723961638, 0.068175689989483, 1.58644187157761, 0.0390065263895915, -0.0203179286996296], a = 0.2, v = 0.2, t = 0.2)
movej(p[-0.45791879, -0.193284899963968, 0.0681847787219624, 1.57980292868939, 0.0394060997363432, -0.0215444987052183], a = 0.2, v = 0.2, t = 0.2)
movej(p[-0.45783698, -0.194375139112359, 0.0681989086127868, 1.57316192612452, 0.027300675421558, -0.0153493377965497], a = 0.2, v = 0.2, t = 0.2)
movej(p[-0.45773505, -0.194984987807664, 0.0682232438739294, 1.57001713044484, 0.018476028602437, -0.0055288846442727], a = 0.2, v = 0.2, t = 0.2)
movej(p[-0.45770327, -0.195412658778741, 0.0683069523764765, 1.56694612722277, 0.00776405590808505, 0.00406768603253757], a = 0.2, v = 0.2, t = 0.2)
movej(p[-0.457654537, -0.195556334436803, 0.0683831205947844, 1.56386746248955, 0.00844681716339885, 0.00506067849210697], a = 0.2, v = 0.2, t = 0.2)
movej(p[-0.45747929, -0.195647288406738, 0.0683754885666674, 1.56037684292128, 0.00440835966307435, 0.00704368815886465], a = 0.2, v = 0.2, t = 0.2)
movej(p[-0.45739938, -0.195610962668407, 0.0683894520094641, 1.56072216793558, 0.00581478145106509, 0.0092971921779812], a = 0.2, v = 0.2, t = 0.2)
movej(p[-0.4574222, -0.195587217024613, 0.0684755426158087, 1.56129776366898, -9.2942251949668E-05, 0.0143150279983054], a = 0.2, v = 0.2, t = 0.2)
movej(p[-0.45731619, -0.195313366734555, 0.0685143823510739, 1.56398878313026, -0.00745063282964896, 0.0183289719770947], a = 0.2, v = 0.2, t = 0.2)
movej(p[-0.45716744, -0.194687699689417, 0.0685103500529798, 1.56785028297224, 0.010900528161927, 0.0123163255730647], a = 0.2, v = 0.2, t = 0.2)
movej(p[-0.45718401, -0.193991986309236, 0.0685717532119947, 1.57243295119227, 0.0168898095536387, 0.0114868687476336], a = 0.2, v = 0.2, t = 0.2)
movej(p[-0.45733962, -0.193243256303863, 0.0686177657000265, 1.57803967453559, 0.0221194637676414, 0.0094901196213637], a = 0.2, v = 0.2, t = 0.2)
movej(p[-0.4573528, -0.192507123495301, 0.0685023800745857, 1.58268117199141, 0.0075872558884879, 0.0123397176960531], a = 0.2, v = 0.2, t = 0.2)
movej(p[-0.45746886, -0.191857028235915, 0.068411189742733, 1.58869848456239, 0.0103583440621215, 0.00913817424407893], a = 0.2, v = 0.2, t = 0.2)
movej(p[-0.45770582, -0.191603923022293, 0.068381668888448, 1.58965867471409, 0.0141799853334419, -3.67706618636136E-05], a = 0.2, v = 0.2, t = 0.2)
movej(p[-0.45785563, -0.191820504082051, 0.0683410498946828, 1.59004800664058, 0.0143419028565133, -0.00559189832812502], a = 0.2, v = 0.2, t = 0.2)
movej(p[-0.45776485, -0.192407315368779, 0.0682383856542277, 1.58929766309403, 0.0069653438425121, -0.00322331332275562], a = 0.2, v = 0.2, t = 0.2)
movej(p[-0.45775187, -0.19341111431744, 0.0682272374899339, 1.58535758195321, 0.0102438539841211, -0.00242974726029826], a = 0.2, v = 0.2, t = 0.2)
movej(p[-0.4577834, -0.194451093816546, 0.0682852868167035, 1.57723674863797, 0.00583570852573609, 0.00223957516132947], a = 0.2, v = 0.2, t = 0.2)
movej(p[-0.457669631, -0.195164853210118, 0.0682761775110721, 1.56794095272362, 0.00511497432387235, 0.00220358538843538], a = 0.2, v = 0.2, t = 0.2)
movej(p[-0.45748169, -0.195420221332869, 0.0682433323043683, 1.56379753485609, 0.00386172216700399, 0.00609820746088647], a = 0.2, v = 0.2, t = 0.2)
movej(p[-0.45742603, -0.195532718807682, 0.0683205986525465, 1.56113412865876, 0.00242567170991152, 0.0080043006055892], a = 0.2, v = 0.2, t = 0.2)
movej(p[-0.45736133, -0.195469061206678, 0.0683921276699761, 1.56201641491541, 0.00214169704915315, 0.00880308862214311], a = 0.2, v = 0.2, t = 0.2)
movej(p[-0.45726571, -0.195142630534234, 0.0684449703779284, 1.56320010824548, 0.00568886211172516, 0.00837795367641164], a = 0.2, v = 0.2, t = 0.2)
movej(p[-0.45730365, -0.19452801308662, 0.0685387354345559, 1.56810527293123, 0.0253522621319286, 0.0024882114587549], a = 0.2, v = 0.2, t = 0.2)
movej(p[-0.45748694, -0.193762685703179, 0.0686593468451085, 1.57226276658386, 0.0361697139024569, -0.00177034515786], a = 0.2, v = 0.2, t = 0.2)
movej(p[-0.4576031598, -0.192954352830566, 0.0686467229014902, 1.57856066869291, 0.0256469771733352, 0.00183316525357271], a = 0.2, v = 0.2, t = 0.2)
movej(p[-0.45771098, -0.192115795158358, 0.0685493615848333, 1.58649311591744, 0.0219381108078774, 0.00396585536021541], a = 0.2, v = 0.2, t = 0.2)
movej(p[-0.45792499, -0.191704424912514, 0.0685435856663374, 1.59232056500998, 0.0194375110070477, 0.00156777292521693], a = 0.2, v = 0.2, t = 0.2)
movej(p[-0.45811346, -0.191783146270238, 0.0685407106118923, 1.59335651301433, 0.0246000588296746, -0.00786601443085262], a = 0.2, v = 0.2, t = 0.2)
movej(p[-0.45802706, -0.192437695844101, 0.0684473569544563, 1.5910513230084, 0.0200047069524854, -0.0110935133459453], a = 0.2, v = 0.2, t = 0.2)
movej(p[-0.45796944, -0.193337205172182, 0.0684048992861851, 1.58880479334828, 0.0218134800122008, -0.00948107816082409], a = 0.2, v = 0.2, t = 0.2)
movej(p[-0.4579939, -0.194362536158994, 0.0684509087795852, 1.58150271599643, 0.0187242762875785, -0.00357159163502317], a = 0.2, v = 0.2, t = 0.2)
movej(p[-0.45797516, -0.195104993511511, 0.0685332766258191, 1.57486288880093, 0.0104050458776667, 0.00366024178296306], a = 0.2, v = 0.2, t = 0.2)
movej(p[-0.45780392, -0.195379370038888, 0.0685038206837253, 1.56656579454988, 0.0145700239485965, 0.00255255918767973], a = 0.2, v = 0.2, t = 0.2)
movej(p[-0.457684233, -0.195474582294094, 0.0685420686556796, 1.5634608078693, 0.0150556719274987, 0.00358573175180754], a = 0.2, v = 0.2, t = 0.2)
movej(p[-0.457663402, -0.19551731025261, 0.0686234409259011, 1.56235154518069, 0.0190648364388753, 0.00198600933036176], a = 0.2, v = 0.2, t = 0.2)
movej(p[-0.45749553, -0.195408318277699, 0.0686439606604262, 1.5643314812361, 0.00817206647246234, 0.00675514002779314], a = 0.2, v = 0.2, t = 0.2)
movej(p[-0.45740378, -0.194979319652132, 0.0687011563889495, 1.56856149697129, 0.0206744954830305, 0.00457841595761823], a = 0.2, v = 0.2, t = 0.2)
movej(p[-0.45746014, -0.194298455603939, 0.0688083215249705, 1.57271543933959, 0.0278504982384882, 0.00344462895165185], a = 0.2, v = 0.2, t = 0.2)
movej(p[-0.457541656, -0.193407386139654, 0.0688493565200161, 1.57810886479761, 0.0263674342305125, 0.00574701315311691], a = 0.2, v = 0.2, t = 0.2)
movej(p[-0.457554056, -0.192521859524478, 0.0687472658803076, 1.58465397817892, 0.0200237642689185, 0.00779445781423756], a = 0.2, v = 0.2, t = 0.2)
movej(p[-0.45773588, -0.19183291618453, 0.0686777320263917, 1.59005398792569, 0.0245225106758651, 0.00174504829655499], a = 0.2, v = 0.2, t = 0.2)
movej(p[-0.45795511, -0.191518723163593, 0.0686314956165563, 1.59117127118908, 0.0319925498535206, -0.0116224043353357], a = 0.2, v = 0.2, t = 0.2)
movej(p[-0.45802127, -0.191701127867656, 0.0685578535882324, 1.58982913497718, 0.030346261088191, -0.0168555398442161], a = 0.2, v = 0.2, t = 0.2)
movej(p[-0.45792622, -0.19227084852039, 0.0684537531619691, 1.5893388706317, 0.0321763681128567, -0.0183101115705626], a = 0.2, v = 0.2, t = 0.2)
movej(p[-0.45791272, -0.193366878869823, 0.0684530120679408, 1.58268076815248, 0.0274386127791903, -0.0133677053594635], a = 0.2, v = 0.2, t = 0.2)
movej(p[-0.45784806, -0.194398293346466, 0.0684705722493724, 1.57676489289934, 0.019099162152631, -0.00724990494137266], a = 0.2, v = 0.2, t = 0.2)
movej(p[-0.457689759, -0.195120005448661, 0.0684335763484924, 1.56752987060159, 0.014888377187456, -0.00382090847252517], a = 0.2, v = 0.2, t = 0.2)
movej(p[-0.457569536, -0.195375612872942, 0.0684430637458164, 1.56327705735202, 0.0242090322303812, -0.00576128079468222], a = 0.2, v = 0.2, t = 0.2)
movej(p[-0.457531789, -0.19546175057374, 0.0685025505351175, 1.55981060228874, 0.0286085160118062, -0.00683421145749022], a = 0.2, v = 0.2, t = 0.2)
movej(p[-0.45741838, -0.195491053001609, 0.0685096498464182, 1.5589976868708, 0.0150413287748177, 0.00164497725153201], a = 0.2, v = 0.2, t = 0.2)
movej(p[-0.45732579, -0.195402368089732, 0.0685056570272014, 1.56275357937209, 0.00326420884186439, 0.0128884595114433], a = 0.2, v = 0.2, t = 0.2)
movej(p[-0.45733281, -0.195396008776588, 0.0685482047902019, 1.56398694956384, -0.0101159672812238, 0.0245988080945443], a = 0.2, v = 0.2, t = 0.2)
movej(p[-0.45729991, -0.195124317250786, 0.0686224000135544, 1.56471767458422, -0.00927723597039633, 0.0240731388351296], a = 0.2, v = 0.2, t = 0.2)
movej(p[-0.45717295, -0.194607759619209, 0.0685836584513742, 1.56445433976226, -0.00453419605121182, 0.020549400289432], a = 0.2, v = 0.2, t = 0.2)
movej(p[-0.4571772, -0.193867257975298, 0.0686049262901328, 1.57101855456594, 0.00247683910734506, 0.0197845772744546], a = 0.2, v = 0.2, t = 0.2)
movej(p[-0.45733304, -0.193175229558348, 0.0686361837969572, 1.57564819337616, 0.0090962461738033, 0.0161322982327762], a = 0.2, v = 0.2, t = 0.2)
movej(p[-0.45742229, -0.192523867326441, 0.0686431271208025, 1.58152680424652, -0.0046229429169842, 0.0204525781885782], a = 0.2, v = 0.2, t = 0.2)
movej(p[-0.457528288, -0.191936324863408, 0.0685885227598738, 1.58501363034179, 0.00343996837663989, 0.0134046554848905], a = 0.2, v = 0.2, t = 0.2)
movej(p[-0.45770275, -0.191719779725933, 0.0685650005164386, 1.58665522725742, 0.0051573205052896, 0.00657343903576825], a = 0.2, v = 0.2, t = 0.2)
movej(p[-0.45784495, -0.191951762172567, 0.0685095158514042, 1.58681832878737, 0.0133070438286037, -0.00327990885554138], a = 0.2, v = 0.2, t = 0.2)
movej(p[-0.4577365, -0.192672317309265, 0.0683861400925315, 1.58427201182478, 0.0116740796400886, -0.00695283308068956], a = 0.2, v = 0.2, t = 0.2)
movej(p[-0.457670733, -0.19353755776538, 0.0683536997549501, 1.58169878184808, 0.016973554297357, -0.00600250200279174], a = 0.2, v = 0.2, t = 0.2)
movej(p[-0.457670151, -0.194485951860635, 0.0683945762455716, 1.57275328761876, 0.0190443396283747, -0.00478822665123881], a = 0.2, v = 0.2, t = 0.2)
movej(p[-0.4575966823, -0.19508085158408, 0.068408409666859, 1.56539515526597, 0.0079421138145154, 0.00216836248755175], a = 0.2, v = 0.2, t = 0.2)
movej(p[-0.45739558, -0.19535009706305, 0.0683231775646048, 1.56025682562615, 0.00667962722209162, 0.00327190852600815], a = 0.2, v = 0.2, t = 0.2)
movej(p[-0.45734537, -0.195474617325072, 0.0683794751386722, 1.56023209905083, -0.00841405707057114, 0.0145895975279894], a = 0.2, v = 0.2, t = 0.2)
movej(p[-0.45730262, -0.195538342361667, 0.0684304494087596, 1.55883286896199, -0.00279260357161842, 0.0115817988381878], a = 0.2, v = 0.2, t = 0.2)
movej(p[-0.45720403, -0.195505519875437, 0.0684660171595693, 1.56056894732511, -0.0136185383542033, 0.020875872815515], a = 0.2, v = 0.2, t = 0.2)
movej(p[-0.45714286, -0.195349023007083, 0.0685179947643172, 1.56172908214758, 0.00906802270826439, 0.0114828861762565], a = 0.2, v = 0.2, t = 0.2)
movej(p[-0.45714286, -0.194997938796808, 0.0686336613709738, 1.56281544575491, 0.0112857661463923, 0.0105505342839553], a = 0.2, v = 0.2, t = 0.2)
movej(p[-0.4571214, -0.194372357473454, 0.0686744006894663, 1.56536824970885, 0.0157071023132241, 0.00753393169828117], a = 0.2, v = 0.2, t = 0.2)
movej(p[-0.45702775, -0.193525169793423, 0.0685873109581292, 1.57187626877313, 0.00946618955080404, 0.0132122204418125], a = 0.2, v = 0.2, t = 0.2)
movej(p[-0.45721699, -0.192888293590622, 0.0686110731214344, 1.57846754533971, 0.00691799784111667, 0.0168159451067738], a = 0.2, v = 0.2, t = 0.2)
movej(p[-0.45746482, -0.19234032573298, 0.0686339095088756, 1.58294936539133, 0.00612234755261111, 0.0146262581452196], a = 0.2, v = 0.2, t = 0.2)
movej(p[-0.457568414, -0.191925782425301, 0.0685947312539556, 1.58484350804945, 0.00813913847717765, 0.0050849821765194], a = 0.2, v = 0.2, t = 0.2)
movej(p[-0.45758394, -0.191783812941294, 0.0684573332171758, 1.58711033310497, 0.0154847984421566, -0.00178164374003822], a = 0.2, v = 0.2, t = 0.2)
movej(p[-0.457664234, -0.192230593232584, 0.0683734677217967, 1.5853150026823, 0.0192409500662995, -0.00796590420633796], a = 0.2, v = 0.2, t = 0.2)
movej(p[-0.457654033, -0.193128186540845, 0.068318646746199, 1.58296457435662, 0.00413114111606529, -0.000816028619222556], a = 0.2, v = 0.2, t = 0.2)
movej(p[-0.4576022371, -0.194056505126352, 0.0682749248443512, 1.57805737881785, -0.00408909589626359, 0.00540310001999505], a = 0.2, v = 0.2, t = 0.2)
movej(p[-0.457570001, -0.194791843681723, 0.0683276636250043, 1.57254237001748, -0.00252399221360447, 0.008335889945016], a = 0.2, v = 0.2, t = 0.2)
movej(p[-0.457579855, -0.195227603205001, 0.0684077870167743, 1.56574022224128, 0.00419761413079548, 0.00605209803917815], a = 0.2, v = 0.2, t = 0.2)
movej(p[-0.45740102, -0.195488808075027, 0.0684103122950862, 1.561245710054, 0.000290539010982081, 0.00707056193933353], a = 0.2, v = 0.2, t = 0.2)
movej(p[-0.45729819, -0.195457119013552, 0.0684321374315768, 1.56161014496171, 0.00345502012766135, 0.0105895081255558], a = 0.2, v = 0.2, t = 0.2)
movej(p[-0.45727506, -0.195318915493996, 0.0685322404743983, 1.56128342867675, 0.00994569046412234, 0.00842438170483192], a = 0.2, v = 0.2, t = 0.2)
movej(p[-0.45727172, -0.194761236216039, 0.0686288225635141, 1.5636152701695, 0.0106156053569187, 0.00885994699216626], a = 0.2, v = 0.2, t = 0.2)
movej(p[-0.45714043, -0.193918199907123, 0.0685695016873546, 1.56644528981417, 0.0182489480375305, 0.00448257701767074], a = 0.2, v = 0.2, t = 0.2)
movej(p[-0.45718006, -0.193059680111849, 0.0685694969510747, 1.5753090184837, 0.00816391688756562, 0.0133939051294399], a = 0.2, v = 0.2, t = 0.2)
movej(p[-0.45738751, -0.19231888598775, 0.0685955429124081, 1.58080019192409, 0.00998932417196527, 0.0104098868397301], a = 0.2, v = 0.2, t = 0.2)
movej(p[-0.45755018, -0.19167909305961, 0.0685776142900011, 1.58685753178457, -0.00343144842190437, 0.0109100561853427], a = 0.2, v = 0.2, t = 0.2)
movej(p[-0.457615798, -0.191217396773795, 0.0684430733681043, 1.58888417389859, 0.00640822502252579, 0.000796865362014432], a = 0.2, v = 0.2, t = 0.2)
movej(p[-0.45771105, -0.191300220472457, 0.0683515841477554, 1.58934601564578, 0.00725220977298066, -0.00461384819745166], a = 0.2, v = 0.2, t = 0.2)
movej(p[-0.45780917, -0.191946624432014, 0.068309056304308, 1.58806752173426, 0.0121239413025162, -0.01051644033982], a = 0.2, v = 0.2, t = 0.2)
movej(p[-0.45773492, -0.192964166171631, 0.0682622307158256, 1.58569584068097, -0.00314572787223984, -0.00331456218571944], a = 0.2, v = 0.2, t = 0.2)
movej(p[-0.45772703, -0.193987372172645, 0.0682648247645619, 1.57999881428929, 0.00855750141573457, -0.00397770450751473], a = 0.2, v = 0.2, t = 0.2)
movej(p[-0.45775195, -0.194858298788437, 0.0683565659396469, 1.57089993357849, 0.00868059896418863, -0.00236255105411754], a = 0.2, v = 0.2, t = 0.2)
movej(p[-0.457646348, -0.195320871014603, 0.0684004807216695, 1.56410507917857, 0.00780329791605585, 0.000503420599920309], a = 0.2, v = 0.2, t = 0.2)
movej(p[-0.45742516, -0.195468626258572, 0.0683825544928574, 1.56300954013862, -0.00268611472193622, 0.00976575680637211], a = 0.2, v = 0.2, t = 0.2)
movej(p[-0.45739047, -0.195509290767584, 0.0684703128867969, 1.56416710702304, -0.00536760803930781, 0.0170294371860527], a = 0.2, v = 0.2, t = 0.2)
movej(p[-0.45739562, -0.195522160799949, 0.0685336218171853, 1.56386346561652, -0.00259602147865368, 0.0175089436124693], a = 0.2, v = 0.2, t = 0.2)
movej(p[-0.45730687, -0.195397386300817, 0.0685706446704823, 1.56287753593763, -0.00165337905540826, 0.0144536559181919], a = 0.2, v = 0.2, t = 0.2)
