def moving():
set_payload_mass(0)
set_tcp(p[0,0,0,0,0,0])
movej(p[-0.3138, 0.0809, 0.5452, -1.569, -1.043, 1.796], a = 0.2, v = 0.2, t = 0.2)
movej(p[-0.313862827695609, 0.0809579123034681, 0.545214101268433, -1.56852275706417, -1.04195420047293, 1.79764097572967], a = 0.2, v = 0.2, t = 0.2)
movej(p[-0.3138, 0.0809, 0.5452, -1.569, -1.043, 1.796], a = 0.2, v = 0.2, t = 0.2)
movej(p[-0.313862827695609, 0.0809579123034681, 0.545214101268433, -1.56852275706417, -1.04195420047293, 1.79764097572967], a = 0.2, v = 0.2, t = 0.2)
movej(p[-0.3138, 0.0809, 0.5452, -1.569, -1.043, 1.796], a = 0.2, v = 0.2, t = 0.2)
movej(p[-0.3138, 0.0809, 0.5452, -1.569, -1.043, 1.796], a = 0.2, v = 0.2, t = 0.2)
movej(p[-0.313130571084359, 0.0810058031394519, 0.545464612551831, -1.55935698661178, -1.03649272928714, 1.79140646155557], a = 0.2, v = 0.2, t = 0.2)
movej(p[-0.31246106263457, 0.0811117070209798, 0.545729165728976, -1.54966525704807, -1.03005424709896, 1.78683574244553], a = 0.2, v = 0.2, t = 0.2)
movej(p[-0.311460370294784, 0.0813167690045605, 0.546158600990668, -1.54068811376822, -1.02530251404004, 1.78342867188363], a = 0.2, v = 0.2, t = 0.2)
movej(p[-0.309722306077163, 0.0817425732178444, 0.54695493125342, -1.53424827430664, -1.02365961493484, 1.78142417565265], a = 0.2, v = 0.2, t = 0.2)
movej(p[-0.307520559053476, 0.0820055316611091, 0.54769792559445, -1.52738869011969, -1.02117362778075, 1.78375856758732], a = 0.2, v = 0.2, t = 0.2)
movej(p[-0.305022323639369, 0.0821643316540764, 0.548406861873626, -1.52040418081792, -1.01804688965536, 1.78868388860325], a = 0.2, v = 0.2, t = 0.2)
movej(p[-0.302628271220437, 0.0825324068775081, 0.549266480472369, -1.51345084043273, -1.01940431041569, 1.79187960619457], a = 0.2, v = 0.2, t = 0.2)
movej(p[-0.300336986583283, 0.082912653036752, 0.55011216345666, -1.50599530827156, -1.01956498846413, 1.79559782987927], a = 0.2, v = 0.2, t = 0.2)
movej(p[-0.298154562216236, 0.0830586002188803, 0.55073583475001, -1.4969874099616, -1.01160373652673, 1.80238881878051], a = 0.2, v = 0.2, t = 0.2)
movej(p[-0.296253850470854, 0.083132238842819, 0.551274279690585, -1.48422616133913, -1.00022519881423, 1.81574936108126], a = 0.2, v = 0.2, t = 0.2)
movej(p[-0.296253850470854, 0.083132238842819, 0.551274279690585, -1.48666105443247, -0.997592602436143, 1.82660971961779], a = 0.2, v = 0.2, t = 0.2)
movej(p[-0.296654042295106, 0.0831393027064896, 0.551200724978757, -1.48838213694325, -0.999508673353214, 1.82644433689295], a = 0.2, v = 0.2, t = 0.2)
movej(p[-0.297551606142254, 0.0829034415056721, 0.550851281042995, -1.49358762553529, -1.00009784913851, 1.82752668424691], a = 0.2, v = 0.2, t = 0.2)
movej(p[-0.299348725730561, 0.0825777031293395, 0.550225122991454, -1.50821805657094, -1.00813676123984, 1.81459014301553], a = 0.2, v = 0.2, t = 0.2)
movej(p[-0.301324114969358, 0.0823894428778513, 0.549628966054942, -1.52277861739998, -1.00897083664222, 1.79850087874887], a = 0.2, v = 0.2, t = 0.2)
movej(p[-0.30370139299042, 0.082281197248437, 0.548938946841955, -1.52941995122924, -1.02113419535141, 1.78155395039531], a = 0.2, v = 0.2, t = 0.2)
movej(p[-0.305795479543123, 0.0819426913684564, 0.548244826500078, -1.53499959125422, -1.01818991477906, 1.77022129531059], a = 0.2, v = 0.2, t = 0.2)
movej(p[-0.307841960278908, 0.0818599100971627, 0.547710008326133, -1.53415815857359, -1.0195514392719, 1.761513674341], a = 0.2, v = 0.2, t = 0.2)
movej(p[-0.309686420223506, 0.082146676235765, 0.547246542529634, -1.54050512190347, -1.02011424288194, 1.75479805398855], a = 0.2, v = 0.2, t = 0.2)
movej(p[-0.310474604090332, 0.0821148876232513, 0.547032815352629, -1.54582382817722, -1.02791227115409, 1.75249893721578], a = 0.2, v = 0.2, t = 0.2)
movej(p[-0.310824236145316, 0.0820306483669277, 0.546951398070548, -1.54636363541473, -1.02759086869556, 1.75178317938798], a = 0.2, v = 0.2, t = 0.2)
movej(p[-0.31119760744723, 0.0821560496459942, 0.546823017035673, -1.54600807533406, -1.02792973450091, 1.75079320838557], a = 0.2, v = 0.2, t = 0.2)
movej(p[-0.311199372777824, 0.0821664657360477, 0.546838325486799, -1.54950323452248, -1.02678681773717, 1.7445189650702], a = 0.2, v = 0.2, t = 0.2)
movej(p[-0.310558062539656, 0.0823859392309744, 0.547009716365917, -1.550278812253, -1.02807634254501, 1.74419151242398], a = 0.2, v = 0.2, t = 0.2)
movej(p[-0.308757728554709, 0.0825931587960089, 0.547556140491035, -1.55186922575438, -1.0268830600287, 1.74483509346463], a = 0.2, v = 0.2, t = 0.2)
movej(p[-0.307153615853033, 0.0827826479928033, 0.548029427607509, -1.54990017820276, -1.023929842406, 1.74579173745261], a = 0.2, v = 0.2, t = 0.2)
movej(p[-0.305851141368549, 0.0832581118664687, 0.548425226207947, -1.54685502569899, -1.02517076459482, 1.74385517307493], a = 0.2, v = 0.2, t = 0.2)
movej(p[-0.304204213625325, 0.0834544663486122, 0.548890881805939, -1.54027111427292, -1.02782885874888, 1.74710080043093], a = 0.2, v = 0.2, t = 0.2)
movej(p[-0.302334119795093, 0.0833472086150373, 0.549453258756672, -1.52771294606551, -1.02332981170903, 1.7495909257845], a = 0.2, v = 0.2, t = 0.2)
movej(p[-0.300513091116444, 0.0834135812748923, 0.550016133077957, -1.52370438098709, -1.01858886164982, 1.75169961585782], a = 0.2, v = 0.2, t = 0.2)
movej(p[-0.299181762957282, 0.0837955259527652, 0.550377801552761, -1.51700288758367, -1.01447777626717, 1.75725851127286], a = 0.2, v = 0.2, t = 0.2)
movej(p[-0.297436133055489, 0.0838468625582856, 0.550908312908813, -1.50918019592352, -1.01585478034214, 1.76381416856597], a = 0.2, v = 0.2, t = 0.2)
movej(p[-0.295635311401998, 0.0839455810475741, 0.551465316671985, -1.4960431948642, -1.00892138931958, 1.77547886071058], a = 0.2, v = 0.2, t = 0.2)
movej(p[-0.293862089354125, 0.0838979834170741, 0.552054905015248, -1.48464855263478, -1.00336005778249, 1.79047792876385], a = 0.2, v = 0.2, t = 0.2)
movej(p[-0.292884311592234, 0.0839780464596513, 0.552355579270156, -1.47759497529592, -0.995139711764797, 1.79588480260749], a = 0.2, v = 0.2, t = 0.2)
movej(p[-0.292154156627167, 0.0841412300826739, 0.552546598568042, -1.46893364577146, -0.99098358655225, 1.80502877518526], a = 0.2, v = 0.2, t = 0.2)
movej(p[-0.291259947688311, 0.084127961488313, 0.552844763368235, -1.47112958706265, -0.988954075398528, 1.8105678472072], a = 0.2, v = 0.2, t = 0.2)
movej(p[-0.291252200397299, 0.0840940017372662, 0.552868763468043, -1.47329897767131, -0.992517364098606, 1.80977860082001], a = 0.2, v = 0.2, t = 0.2)
movej(p[-0.291405562137477, 0.0840208825087254, 0.552814806493819, -1.47674711987582, -0.999137962760958, 1.80877698356412], a = 0.2, v = 0.2, t = 0.2)
movej(p[-0.292150335772535, 0.0837579163295436, 0.552672377174057, -1.48352620739476, -1.00304448147918, 1.80986870754493], a = 0.2, v = 0.2, t = 0.2)
movej(p[-0.293299506958555, 0.0834106185605409, 0.552440698463625, -1.49653938185069, -1.01088414216598, 1.81433848957813], a = 0.2, v = 0.2, t = 0.2)
movej(p[-0.294828648514584, 0.0829356926932281, 0.552174524587781, -1.503571364741, -1.01308543138979, 1.81634073233236], a = 0.2, v = 0.2, t = 0.2)
movej(p[-0.296663443819936, 0.082724588448772, 0.551657874052667, -1.50739143817527, -1.01550194830231, 1.81684686267614], a = 0.2, v = 0.2, t = 0.2)
movej(p[-0.297961750883368, 0.0826206546781158, 0.551257867702267, -1.51599539055294, -1.02486430870907, 1.81870334308605], a = 0.2, v = 0.2, t = 0.2)
movej(p[-0.299414963736845, 0.0823013239010852, 0.550970033032139, -1.52008886675763, -1.02731726597475, 1.82151096206578], a = 0.2, v = 0.2, t = 0.2)
movej(p[-0.301044579914957, 0.082028115788813, 0.550592200490626, -1.52094469802678, -1.02719683701137, 1.82195392798461], a = 0.2, v = 0.2, t = 0.2)
movej(p[-0.303466080477752, 0.0819545088019209, 0.549747272945885, -1.5308266792091, -1.02753437803857, 1.8113990466515], a = 0.2, v = 0.2, t = 0.2)
movej(p[-0.305900138766122, 0.0821162546230686, 0.54866202686404, -1.5353886334397, -1.02553317811722, 1.80123738107295], a = 0.2, v = 0.2, t = 0.2)
movej(p[-0.306985703746942, 0.0820967542408366, 0.548252188972295, -1.53611670066708, -1.02802595371617, 1.79958922677332], a = 0.2, v = 0.2, t = 0.2)
movej(p[-0.308515260939889, 0.0819674272963013, 0.547762237837058, -1.53494682989658, -1.02901877276252, 1.79734900780759], a = 0.2, v = 0.2, t = 0.2)
movej(p[-0.309815502607468, 0.0821294370253067, 0.547055667052493, -1.53202403027427, -1.02442416855227, 1.79188881930022], a = 0.2, v = 0.2, t = 0.2)
movej(p[-0.309817901886717, 0.0821399541113284, 0.54704823439747, -1.52939857578935, -1.02451084409919, 1.78981981991841], a = 0.2, v = 0.2, t = 0.2)
movej(p[-0.309251283419012, 0.0822956528123372, 0.547085639698685, -1.52913519052836, -1.02451792580706, 1.78958521744221], a = 0.2, v = 0.2, t = 0.2)
movej(p[-0.308660161198479, 0.0823512084097485, 0.547259134326812, -1.52881490636849, -1.02456113280107, 1.78942315697724], a = 0.2, v = 0.2, t = 0.2)
movej(p[-0.307298484240621, 0.0824743827634808, 0.547675956040522, -1.52846348933105, -1.02475768199981, 1.78930766250654], a = 0.2, v = 0.2, t = 0.2)
movej(p[-0.305358356004592, 0.0825936667889262, 0.548366374326083, -1.52728415135607, -1.02561991665405, 1.78874420321729], a = 0.2, v = 0.2, t = 0.2)
movej(p[-0.303240234091949, 0.0827396714060261, 0.549186956896558, -1.52641803250232, -1.02616903345886, 1.78937329955125], a = 0.2, v = 0.2, t = 0.2)
movej(p[-0.301303966277997, 0.082880869192411, 0.549926901379458, -1.51821884175639, -1.02050937551576, 1.79613984562373], a = 0.2, v = 0.2, t = 0.2)
movej(p[-0.299511511473114, 0.0830714193320018, 0.550457393185948, -1.50936638267418, -1.01145787330959, 1.8026157881834], a = 0.2, v = 0.2, t = 0.2)
movej(p[-0.298255492761374, 0.0831318217245879, 0.551017252013447, -1.50798959018206, -1.01149759516955, 1.81318498170008], a = 0.2, v = 0.2, t = 0.2)
movej(p[-0.298255492761374, 0.0831318217245879, 0.551017252013447, -1.51293747425, -1.01779082588345, 1.81760272400209], a = 0.2, v = 0.2, t = 0.2)
movej(p[-0.299643852456202, 0.082800437567271, 0.55086186028891, -1.52004887452783, -1.02847186014534, 1.81555831644595], a = 0.2, v = 0.2, t = 0.2)
movej(p[-0.302250743455104, 0.0827165658120168, 0.54975892776218, -1.52940453178634, -1.02203889032752, 1.82220463965576], a = 0.2, v = 0.2, t = 0.2)
movej(p[-0.304431812439384, 0.0825067956546425, 0.549213709771937, -1.53468907657314, -1.01888425861332, 1.8153150738306], a = 0.2, v = 0.2, t = 0.2)
movej(p[-0.306758224407623, 0.0824630319510201, 0.548010367945074, -1.52872961273215, -1.01967666992561, 1.80351745189798], a = 0.2, v = 0.2, t = 0.2)
movej(p[-0.308557206912605, 0.0823271430289458, 0.547301475352625, -1.52872961273215, -1.01967666992561, 1.80351745189798], a = 0.2, v = 0.2, t = 0.2)
movej(p[-0.309941853017467, 0.082288320182186, 0.546569214735865, -1.52872961273215, -1.01967666992561, 1.80351745189798], a = 0.2, v = 0.2, t = 0.2)
movej(p[-0.310358185096111, 0.0821896936479268, 0.546506419297878, -1.52627764065896, -1.01754688169893, 1.80314718218799], a = 0.2, v = 0.2, t = 0.2)
movej(p[-0.310358185096111, 0.0821896936479268, 0.546506419297878, -1.51928336151017, -1.0120920512483, 1.80019175863528], a = 0.2, v = 0.2, t = 0.2)
movej(p[-0.30243972270546, 0.0834896573484559, 0.54746270578484, -1.51875883969527, -1.01121009612657, 1.79761622787474], a = 0.2, v = 0.2, t = 0.2)
movej(p[-0.298886923327308, 0.0840460386462462, 0.547903295605506, -1.5189938872361, -1.01107320395967, 1.7973057186409], a = 0.2, v = 0.2, t = 0.2)
movej(p[-0.298886923327308, 0.0840460386462462, 0.547903295605506, -1.51991574072488, -1.01192496936083, 1.79729035611884], a = 0.2, v = 0.2, t = 0.2)
movej(p[-0.299742861565109, 0.0838863092442907, 0.547808174413218, -1.52096445491201, -1.01281153371856, 1.798160808466], a = 0.2, v = 0.2, t = 0.2)
movej(p[-0.300598799802909, 0.0837265798423352, 0.547713053220931, -1.52201463976876, -1.01370052469075, 1.79903226391376], a = 0.2, v = 0.2, t = 0.2)
movej(p[-0.301454631367368, 0.0835668466167411, 0.547618068433108, -1.52306257626424, -1.01459193705138, 1.79990571916394], a = 0.2, v = 0.2, t = 0.2)
movej(p[-0.302310569605168, 0.0834071172147856, 0.54752294724082, -1.52410943283785, -1.01548533478607, 1.80077667364486], a = 0.2, v = 0.2, t = 0.2)
movej(p[-0.303166507842968, 0.0832473878128301, 0.547427826048533, -1.52515542499234, -1.01638009716875, 1.80165075076404], a = 0.2, v = 0.2, t = 0.2)
movej(p[-0.304022348231511, 0.0830876788698512, 0.547332702219384, -1.52620033506937, -1.01727684270755, 1.80252232375479], a = 0.2, v = 0.2, t = 0.2)
movej(p[-0.304878286469311, 0.0829279494678957, 0.547237581027097, -1.52724437458582, -1.01817495985993, 1.80339701854617], a = 0.2, v = 0.2, t = 0.2)
movej(p[-0.305734224707112, 0.0827682200659402, 0.547142459834809, -1.5282873298656, -1.01907505794769, 1.80426920584902], a = 0.2, v = 0.2, t = 0.2)
movej(p[-0.306590065095654, 0.0826085111229613, 0.547047336005661, -1.52933069448697, -1.01997577343407, 1.80514283009799], a = 0.2, v = 0.2, t = 0.2)
movej(p[-0.307446003333454, 0.0824487817210058, 0.546952214813374, -1.53037178984471, -1.02087893102675, 1.80601844419419], a = 0.2, v = 0.2, t = 0.2)
movej(p[-0.307446003333454, 0.0824487817210058, 0.546952214813374, -1.53046756060687, -1.02073516614335, 1.80698469938121], a = 0.2, v = 0.2, t = 0.2)
movej(p[-0.306852183785483, 0.0824388963220876, 0.547184520158416, -1.53141179771989, -1.0217840662188, 1.80689154576094], a = 0.2, v = 0.2, t = 0.2)
movej(p[-0.304779586656658, 0.0826193646928037, 0.547990132967872, -1.5340925713191, -1.01999949499006, 1.80593447766505], a = 0.2, v = 0.2, t = 0.2)
movej(p[-0.302526982039172, 0.082825308291271, 0.548801357087046, -1.54174596193485, -1.02175275042156, 1.80343456124213], a = 0.2, v = 0.2, t = 0.2)
movej(p[-0.301027651604386, 0.0829548065532588, 0.549331446529937, -1.54193999350043, -1.0216358387609, 1.80318022549066], a = 0.2, v = 0.2, t = 0.2)
movej(p[-0.30037874648167, 0.0829968009068314, 0.549655333973321, -1.53669075820924, -1.0192805053634, 1.80190204568744], a = 0.2, v = 0.2, t = 0.2)
movej(p[-0.298468706020065, 0.0832021330728999, 0.550056161887279, -1.52495224038878, -1.01609017148227, 1.79839787213117], a = 0.2, v = 0.2, t = 0.2)
movej(p[-0.295856598899675, 0.0834947038410513, 0.550298283648455, -1.5210197642222, -1.01576271257436, 1.79674192978053], a = 0.2, v = 0.2, t = 0.2)
movej(p[-0.295010530789009, 0.0834904867454597, 0.551117765349421, -1.51990975989893, -1.0163370195268, 1.79604444455084], a = 0.2, v = 0.2, t = 0.2)
movej(p[-0.294418819732065, 0.0835389533372919, 0.55117088328017, -1.52060262610086, -1.01608175581207, 1.79639849946405], a = 0.2, v = 0.2, t = 0.2)
movej(p[-0.294412152983039, 0.0835235657708841, 0.551298884949133, -1.52049776765683, -1.01598243929519, 1.79647459341422], a = 0.2, v = 0.2, t = 0.2)
movej(p[-0.294558241924848, 0.0834930205187848, 0.551302821782297, -1.52060019918764, -1.01579285008198, 1.79787044023018], a = 0.2, v = 0.2, t = 0.2)
movej(p[-0.295196416612661, 0.0834247182389731, 0.551070608439857, -1.52001782980642, -1.01528645987875, 1.80876404486692], a = 0.2, v = 0.2, t = 0.2)
movej(p[-0.296127284633144, 0.0833239573686087, 0.550696599635889, -1.51954324662332, -1.0142469986499, 1.82821963363015], a = 0.2, v = 0.2, t = 0.2)
movej(p[-0.296909461641813, 0.083278639920254, 0.550543922506024, -1.51970057489022, -1.01451648349262, 1.82816085782676], a = 0.2, v = 0.2, t = 0.2)
movej(p[-0.297774207607229, 0.0831009025992787, 0.550471459618767, -1.52318831751176, -1.01587797353252, 1.82486734342305], a = 0.2, v = 0.2, t = 0.2)
movej(p[-0.299358986786947, 0.083013953848018, 0.5501269784492, -1.52623916496546, -1.01439098674393, 1.81683799963944], a = 0.2, v = 0.2, t = 0.2)
movej(p[-0.300541214928371, 0.0828689148177507, 0.549456675240701, -1.52623916496546, -1.01439098674393, 1.81683799963944], a = 0.2, v = 0.2, t = 0.2)
movej(p[-0.301961489310446, 0.0827026880003355, 0.548799217458942, -1.52737403640059, -1.01347896481372, 1.81823771487184], a = 0.2, v = 0.2, t = 0.2)
movej(p[-0.303451836124241, 0.0825485070822288, 0.548414778011042, -1.52608918413822, -1.00963559425844, 1.81951008154586], a = 0.2, v = 0.2, t = 0.2)
movej(p[-0.304842811699829, 0.082381600462699, 0.547872213822697, -1.52974208449929, -1.00684487510077, 1.82245275902324], a = 0.2, v = 0.2, t = 0.2)
movej(p[-0.304842811699829, 0.082381600462699, 0.547872213822697, -1.53350193328201, -1.0096433464303, 1.81942575908917], a = 0.2, v = 0.2, t = 0.2)
movej(p[-0.304946976480659, 0.0823543124299919, 0.547822635281919, -1.53367835331783, -1.01032104116354, 1.81857509355507], a = 0.2, v = 0.2, t = 0.2)
movej(p[-0.305475607085306, 0.0822285413173161, 0.547132701045164, -1.52982303198086, -1.01471561991279, 1.81476172455297], a = 0.2, v = 0.2, t = 0.2)
movej(p[-0.30549188184561, 0.0822328291651623, 0.547119523164534, -1.52982303198086, -1.01471561991279, 1.81476172455297], a = 0.2, v = 0.2, t = 0.2)
movej(p[-0.30548677567432, 0.082202700904685, 0.547075243881168, -1.52956974865935, -1.01404742705591, 1.81570015060326], a = 0.2, v = 0.2, t = 0.2)
movej(p[-0.305623972898528, 0.0821597901623803, 0.546914994076599, -1.52921764272266, -1.01295117695931, 1.81723222263087], a = 0.2, v = 0.2, t = 0.2)
movej(p[-0.305633807168622, 0.0821209715012107, 0.546863240828617, -1.52902178886692, -1.01251295147994, 1.81756540403079], a = 0.2, v = 0.2, t = 0.2)
movej(p[-0.305635264774291, 0.0820991825171675, 0.546822129083822, -1.52898157034952, -1.01243059756296, 1.81758709549472], a = 0.2, v = 0.2, t = 0.2)
movej(p[-0.306144830252489, 0.0820351221924096, 0.546730651937933, -1.53058633084869, -1.01146558741991, 1.81558723130276], a = 0.2, v = 0.2, t = 0.2)
movej(p[-0.306772990988274, 0.0819736171118952, 0.546619386017319, -1.5324676573857, -1.01034193274415, 1.81310963948867], a = 0.2, v = 0.2, t = 0.2)
movej(p[-0.307750986010629, 0.0819376088048756, 0.546531106755461, -1.53276001964151, -1.01063192010008, 1.8123871845635], a = 0.2, v = 0.2, t = 0.2)
movej(p[-0.307754934276905, 0.0819609050062855, 0.546565345011744, -1.53432374531134, -1.01241080522531, 1.81136575240499], a = 0.2, v = 0.2, t = 0.2)
movej(p[-0.307647504042095, 0.0821350362634776, 0.547560663407996, -1.53673255735099, -1.01096584480706, 1.80818902217706], a = 0.2, v = 0.2, t = 0.2)
movej(p[-0.305737416097504, 0.0822227287697045, 0.547755890450901, -1.53570144382925, -1.00852541250707, 1.8076151688894], a = 0.2, v = 0.2, t = 0.2)
movej(p[-0.303135667131546, 0.0824512617469375, 0.548501002211949, -1.52567341977764, -1.00301414820687, 1.80587908685133], a = 0.2, v = 0.2, t = 0.2)
movej(p[-0.300708025468648, 0.0827389331789669, 0.549429529757992, -1.52268624386806, -1.00531419549397, 1.80347791634605], a = 0.2, v = 0.2, t = 0.2)
movej(p[-0.298771363897867, 0.0828516123233092, 0.549712516702371, -1.52184036451851, -1.00607569371074, 1.80166922878406], a = 0.2, v = 0.2, t = 0.2)
movej(p[-0.296450883551919, 0.0831028048368321, 0.550564446855153, -1.52040377622908, -1.00717922083445, 1.80051338359752], a = 0.2, v = 0.2, t = 0.2)
movej(p[-0.294347443974069, 0.083321722545827, 0.551242842048989, -1.51551063855167, -1.00045701922221, 1.80322144936007], a = 0.2, v = 0.2, t = 0.2)
movej(p[-0.292819923629305, 0.0835293857055002, 0.551927484808718, -1.49152605549149, -1.0008626635719, 1.82703588903347], a = 0.2, v = 0.2, t = 0.2)
movej(p[-0.291547738164439, 0.0837397340975001, 0.552589604055505, -1.48838124434299, -1.0027336655054, 1.83004925712248], a = 0.2, v = 0.2, t = 0.2)
movej(p[-0.290520362688818, 0.0837810071380204, 0.552852163188307, -1.4870980707003, -1.00441311049046, 1.82876502521776], a = 0.2, v = 0.2, t = 0.2)
movej(p[-0.289979068727654, 0.0839057965955106, 0.552999412870505, -1.48860126375576, -1.00728692651488, 1.82804782015273], a = 0.2, v = 0.2, t = 0.2)
movej(p[-0.289175531136895, 0.0840972862386824, 0.553592253782382, -1.50056261998937, -1.00997641291526, 1.81598520234952], a = 0.2, v = 0.2, t = 0.2)
movej(p[-0.289175531136895, 0.0840972862386824, 0.553592253782382, -1.50563259558915, -1.00615845727817, 1.82002893217302], a = 0.2, v = 0.2, t = 0.2)
movej(p[-0.289665377598118, 0.0840600230735976, 0.553477162814207, -1.50158386628218, -1.00745149025061, 1.83782615248155], a = 0.2, v = 0.2, t = 0.2)
movej(p[-0.290041849090825, 0.0839369212596252, 0.553167706486795, -1.50306433117092, -1.00966103881829, 1.85002182941866], a = 0.2, v = 0.2, t = 0.2)
movej(p[-0.290379528154811, 0.0837844455755825, 0.552791826871065, -1.50949958564353, -1.01798509583968, 1.85901438641158], a = 0.2, v = 0.2, t = 0.2)
movej(p[-0.290717216042882, 0.083631994174155, 0.55241580821401, -1.51584786604993, -1.02645055649563, 1.86801545003683], a = 0.2, v = 0.2, t = 0.2)
movej(p[-0.291208558894147, 0.0835125214151259, 0.552119310317962, -1.52132494386408, -1.03241963212043, 1.87583408834389], a = 0.2, v = 0.2, t = 0.2)
movej(p[-0.292434409677306, 0.0834733771873883, 0.551941280413559, -1.52317812549911, -1.03203367981624, 1.88539106416715], a = 0.2, v = 0.2, t = 0.2)
movej(p[-0.29460869002741, 0.0833572309687449, 0.551468008879396, -1.52476746665174, -1.03056295879808, 1.89189820220585], a = 0.2, v = 0.2, t = 0.2)
movej(p[-0.296202981660193, 0.0831260131725232, 0.550860949005623, -1.52610764752681, -1.02830995376101, 1.89431560146728], a = 0.2, v = 0.2, t = 0.2)
movej(p[-0.297625022529278, 0.0829322630835256, 0.550326384547706, -1.52957153925811, -1.02509759322521, 1.89905908057526], a = 0.2, v = 0.2, t = 0.2)
movej(p[-0.299705528163487, 0.0826976338235568, 0.549694494314843, -1.52957153925811, -1.02509759322521, 1.89905908057526], a = 0.2, v = 0.2, t = 0.2)
movej(p[-0.301540659244743, 0.0823848883427133, 0.548983547932321, -1.53155602590699, -1.03070926473211, 1.89500235525746], a = 0.2, v = 0.2, t = 0.2)
movej(p[-0.302799664582598, 0.0820378408148651, 0.54833771366359, -1.53739737611837, -1.02931688938488, 1.88520796960604], a = 0.2, v = 0.2, t = 0.2)
movej(p[-0.304219322091977, 0.0818309410486951, 0.547819904371647, -1.54402477710628, -1.02591250842224, 1.87353590427599], a = 0.2, v = 0.2, t = 0.2)
movej(p[-0.305609384975154, 0.0817230531463404, 0.547408848388428, -1.54656863511779, -1.02965875323838, 1.85838349776919], a = 0.2, v = 0.2, t = 0.2)
movej(p[-0.30680810872235, 0.0815626043707035, 0.546981504383784, -1.54864322138941, -1.03206493206342, 1.85540336914101], a = 0.2, v = 0.2, t = 0.2)
movej(p[-0.30680810872235, 0.0815626043707035, 0.546981504383784, -1.54799599177398, -1.03262225189025, 1.85372097342156], a = 0.2, v = 0.2, t = 0.2)
movej(p[-0.304672782124469, 0.0823933885463767, 0.548000563363351, -1.52401078310484, -1.00728921048968, 1.83354115216123], a = 0.2, v = 0.2, t = 0.2)
movej(p[-0.301589934912506, 0.0839369996596408, 0.549553552097597, -1.527313482222, -1.00547823857409, 1.82718370863046], a = 0.2, v = 0.2, t = 0.2)
movej(p[-0.301589934912506, 0.0839369996596408, 0.549553552097597, -1.53122368074758, -1.00546807524472, 1.8229179113135], a = 0.2, v = 0.2, t = 0.2)
movej(p[-0.30299683371756, 0.0837500624424289, 0.548966282586081, -1.5314781061968, -1.00633036150275, 1.8165899797249], a = 0.2, v = 0.2, t = 0.2)
movej(p[-0.304876215261426, 0.0835709105517457, 0.548355194799718, -1.52842281262361, -1.00905418337833, 1.80944572649821], a = 0.2, v = 0.2, t = 0.2)
movej(p[-0.306482478283769, 0.083414657569378, 0.547813482248123, -1.52583868805648, -1.01165446242641, 1.80703559429618], a = 0.2, v = 0.2, t = 0.2)
movej(p[-0.307394224042619, 0.0833942821368165, 0.547676764279416, -1.52575515811903, -1.01178143264427, 1.80693759002502], a = 0.2, v = 0.2, t = 0.2)
movej(p[-0.307977124942637, 0.08323584620389, 0.547237659774867, -1.52606267968285, -1.011666525477, 1.80639625568165], a = 0.2, v = 0.2, t = 0.2)
movej(p[-0.308367508971814, 0.0832280355604991, 0.547181310474846, -1.52645359742057, -1.01147885518035, 1.80584564360331], a = 0.2, v = 0.2, t = 0.2)
movej(p[-0.308764648729986, 0.0831797216062688, 0.547026473094649, -1.52662255751517, -1.01139783139892, 1.80560870769179], a = 0.2, v = 0.2, t = 0.2)
movej(p[-0.309051935307651, 0.0831213239291154, 0.546857508886616, -1.52662255751517, -1.01139783139892, 1.80560870769179], a = 0.2, v = 0.2, t = 0.2)
movej(p[-0.309051935307651, 0.0831213239291154, 0.546857508886616, -1.52662255751517, -1.01139783139892, 1.80560870769179], a = 0.2, v = 0.2, t = 0.2)
movej(p[-0.309051935307651, 0.0831213239291154, 0.546857508886616, -1.52662255751517, -1.01139783139892, 1.80560870769179], a = 0.2, v = 0.2, t = 0.2)
movej(p[-0.308329650817555, 0.0832198675967621, 0.547165110952494, -1.53533557331272, -1.01356766899815, 1.79473016408431], a = 0.2, v = 0.2, t = 0.2)
movej(p[-0.307147527667582, 0.0833759646283257, 0.547648055788925, -1.54558362150761, -1.01609860847456, 1.78185928813755], a = 0.2, v = 0.2, t = 0.2)
movej(p[-0.305800154372913, 0.0835388517706481, 0.548138025159068, -1.5454471177122, -1.01620513394626, 1.78174726235396], a = 0.2, v = 0.2, t = 0.2)
movej(p[-0.304214706343537, 0.0836623131958857, 0.548509985362082, -1.54308069890232, -1.01519000105121, 1.78121665992701], a = 0.2, v = 0.2, t = 0.2)
movej(p[-0.30264987450169, 0.0838220282811599, 0.549054284634798, -1.53746420695314, -1.0102683887232, 1.77692652127501], a = 0.2, v = 0.2, t = 0.2)
movej(p[-0.30159187137081, 0.0839684259947469, 0.549418341944165, -1.53426763879941, -1.0112354544555, 1.77507584239091], a = 0.2, v = 0.2, t = 0.2)
movej(p[-0.300264272427244, 0.0839742565113186, 0.549639763420356, -1.52794652066154, -1.01201048257882, 1.78230879199978], a = 0.2, v = 0.2, t = 0.2)
movej(p[-0.299676465602295, 0.0839713290049846, 0.549816704021268, -1.52940917978406, -1.00901288096438, 1.80553741500284], a = 0.2, v = 0.2, t = 0.2)
movej(p[-0.299681970396622, 0.0840038092857965, 0.549864440051662, -1.53233353167136, -1.00676031758906, 1.80790034707778], a = 0.2, v = 0.2, t = 0.2)
movej(p[-0.300342534738443, 0.0840058255789189, 0.549786893582514, -1.52991599260809, -1.00763134309509, 1.81152835967154], a = 0.2, v = 0.2, t = 0.2)
movej(p[-0.300345105648726, 0.0840099316455641, 0.549768858598815, -1.5270289905028, -1.00910063601556, 1.81524307987168], a = 0.2, v = 0.2, t = 0.2)
movej(p[-0.300350485226788, 0.0839966020512997, 0.549746446502603, -1.52690268045274, -1.00887643265033, 1.81529483675456], a = 0.2, v = 0.2, t = 0.2)
movej(p[-0.300343420005105, 0.0839527754176001, 0.549668580664002, -1.52913388075973, -1.00755851600542, 1.81224683342013], a = 0.2, v = 0.2, t = 0.2)
movej(p[-0.300317392102546, 0.083958217505382, 0.549667879259031, -1.53067922732205, -1.00803255224435, 1.80898186780428], a = 0.2, v = 0.2, t = 0.2)
movej(p[-0.299428728711196, 0.0840689642170221, 0.55005501293457, -1.5306624000225, -1.01146704378791, 1.80550840840929], a = 0.2, v = 0.2, t = 0.2)
movej(p[-0.298012743555611, 0.0842097583502641, 0.550541804020363, -1.53014011772842, -1.01186825320991, 1.80508527387802], a = 0.2, v = 0.2, t = 0.2)
movej(p[-0.2961943351349, 0.0843008746708846, 0.551059108883672, -1.52388130621723, -1.01027999104653, 1.80662077234448], a = 0.2, v = 0.2, t = 0.2)
movej(p[-0.295239123308837, 0.0844200973335778, 0.551478524970689, -1.50801383153365, -0.996766054163839, 1.8091664837395], a = 0.2, v = 0.2, t = 0.2)
movej(p[-0.294783001905762, 0.0846628047799692, 0.551977863694526, -1.50801383153365, -0.996766054163839, 1.8091664837395], a = 0.2, v = 0.2, t = 0.2)
movej(p[-0.294783001905762, 0.0846628047799692, 0.551977863694526, -1.50995667566958, -0.998425275407515, 1.81644124902451], a = 0.2, v = 0.2, t = 0.2)
movej(p[-0.294897883821762, 0.0845854207226074, 0.551847288417224, -1.51759878196146, -1.00337194910825, 1.84156819390608], a = 0.2, v = 0.2, t = 0.2)
movej(p[-0.296137122912728, 0.0844606421636959, 0.551421984647364, -1.52229291552379, -1.0082927220812, 1.84135510739938], a = 0.2, v = 0.2, t = 0.2)
movej(p[-0.297839350389689, 0.0843541805594303, 0.550868375368633, -1.52705506942932, -1.01016672613583, 1.83704818371215], a = 0.2, v = 0.2, t = 0.2)
movej(p[-0.299640727316601, 0.0841070913364415, 0.550095263699422, -1.53012595504801, -1.01045260344974, 1.83382083971149], a = 0.2, v = 0.2, t = 0.2)
movej(p[-0.301931006979744, 0.0838639584345659, 0.549216789028972, -1.53364583444499, -1.00866541984997, 1.82572950010124], a = 0.2, v = 0.2, t = 0.2)
movej(p[-0.304302918894615, 0.0837280199376607, 0.548541371185596, -1.53364278501422, -1.00964306170973, 1.81462564408455], a = 0.2, v = 0.2, t = 0.2)
movej(p[-0.306223990964058, 0.0837085356952457, 0.548069558745844, -1.53231518676286, -1.01575159053252, 1.81110049054959], a = 0.2, v = 0.2, t = 0.2)
movej(p[-0.307616620884776, 0.0836063931503555, 0.547581275104459, -1.53192894710573, -1.01601254167187, 1.81122046920048], a = 0.2, v = 0.2, t = 0.2)
movej(p[-0.308703233421433, 0.0834565395006817, 0.547084440958231, -1.53084807488197, -1.01621569398306, 1.81064365216725], a = 0.2, v = 0.2, t = 0.2)
movej(p[-0.309361056285843, 0.0834265391828866, 0.546898138059724, -1.53101826613749, -1.01614991497101, 1.80997437537818], a = 0.2, v = 0.2, t = 0.2)
movej(p[-0.309361056285843, 0.0834265391828866, 0.546898138059724, -1.53937701252739, -1.01639397592159, 1.79724391201077], a = 0.2, v = 0.2, t = 0.2)
movej(p[-0.308955655608961, 0.0836121191254878, 0.547294416479635, -1.54389803565966, -1.01408381097499, 1.7862554644196], a = 0.2, v = 0.2, t = 0.2)
movej(p[-0.307159113192579, 0.0837197955104279, 0.547845560700568, -1.54162491407162, -1.01517437489845, 1.78472876580642], a = 0.2, v = 0.2, t = 0.2)
movej(p[-0.304882626729363, 0.0839339894979854, 0.548639952454358, -1.52893684765693, -1.00516285478685, 1.7860039526237], a = 0.2, v = 0.2, t = 0.2)
movej(p[-0.302590584937711, 0.084220679984677, 0.549584250309994, -1.52023823968944, -1.00473823631991, 1.78414404419944], a = 0.2, v = 0.2, t = 0.2)
movej(p[-0.300550978334159, 0.0843460799095253, 0.550171898462884, -1.51315740269614, -0.998444664545704, 1.78938602259024], a = 0.2, v = 0.2, t = 0.2)
movej(p[-0.298540548828007, 0.084350193484806, 0.550620611744716, -1.509528365801, -0.996162770346277, 1.79868044535526], a = 0.2, v = 0.2, t = 0.2)
movej(p[-0.296387574586638, 0.0844729427960635, 0.55128741097431, -1.50388945097829, -0.991281385975358, 1.80615414447731], a = 0.2, v = 0.2, t = 0.2)
movej(p[-0.296140433081265, 0.0846058742937959, 0.551557525826239, -1.49991894083787, -0.992727859263014, 1.82069940392933], a = 0.2, v = 0.2, t = 0.2)
movej(p[-0.296140433081265, 0.0846058742937959, 0.551557525826239, -1.50374357357113, -0.994683802855196, 1.83293438036525], a = 0.2, v = 0.2, t = 0.2)
movej(p[-0.296612791405419, 0.0845322438560019, 0.55135413442467, -1.51234639576192, -0.988956499563696, 1.84509649441961], a = 0.2, v = 0.2, t = 0.2)
movej(p[-0.299774396815217, 0.0841629613006875, 0.550240732535379, -1.51321422675016, -0.990530898920272, 1.84475387062515], a = 0.2, v = 0.2, t = 0.2)
movej(p[-0.304157896318579, 0.0838944007637317, 0.548835028269889, -1.51588683783442, -0.995092041471058, 1.82780241990187], a = 0.2, v = 0.2, t = 0.2)
movej(p[-0.306392212443544, 0.0836626172860786, 0.547959658911726, -1.52495775199425, -1.00395749115947, 1.80930846649195], a = 0.2, v = 0.2, t = 0.2)
movej(p[-0.307613470436819, 0.0836256634275883, 0.54758602285056, -1.52912997148246, -1.01243145636167, 1.80643072913398], a = 0.2, v = 0.2, t = 0.2)
movej(p[-0.308212126019639, 0.0835411145440383, 0.547344148855578, -1.52998489941902, -1.01193172787437, 1.80520879661435], a = 0.2, v = 0.2, t = 0.2)
movej(p[-0.308728677029245, 0.0834867735130434, 0.547118162424955, -1.52907507497147, -1.01164707922073, 1.80491610092837], a = 0.2, v = 0.2, t = 0.2)
movej(p[-0.308920494235923, 0.0832956631089257, 0.546803737564837, -1.52916106197944, -1.0105488207094, 1.80439746299246], a = 0.2, v = 0.2, t = 0.2)
movej(p[-0.309098608643681, 0.0831800761049346, 0.546590167547612, -1.52910668289551, -1.00987152404415, 1.80419405906272], a = 0.2, v = 0.2, t = 0.2)
movej(p[-0.309330838860412, 0.0831236116903431, 0.546446527628642, -1.52897144825089, -1.0096082372672, 1.80425163084856], a = 0.2, v = 0.2, t = 0.2)
movej(p[-0.309330838860412, 0.0831236116903431, 0.546446527628642, -1.528921437018, -1.0096466998165, 1.80421119075353], a = 0.2, v = 0.2, t = 0.2)
movej(p[-0.308878306772815, 0.0834670945473153, 0.547044676996828, -1.53065728477224, -1.0088615011898, 1.80178652767992], a = 0.2, v = 0.2, t = 0.2)
movej(p[-0.307148466622924, 0.0835064574301992, 0.547522100372121, -1.53336263232562, -1.00837031066262, 1.79635204745051], a = 0.2, v = 0.2, t = 0.2)
movej(p[-0.305343992999099, 0.0835214064110518, 0.547913567968341, -1.53246521792306, -1.0110434955979, 1.78848039412538], a = 0.2, v = 0.2, t = 0.2)
movej(p[-0.303280944892744, 0.083668471008447, 0.548613838933795, -1.53248730205406, -1.01108161875396, 1.78847132488718], a = 0.2, v = 0.2, t = 0.2)
movej(p[-0.301614711715839, 0.0838068793006772, 0.549168047788672, -1.53283363358155, -1.01240917017459, 1.7952720620635], a = 0.2, v = 0.2, t = 0.2)
movej(p[-0.29971983860147, 0.0838281521369804, 0.549705485419357, -1.53214150945759, -1.01279877272723, 1.79644816494265], a = 0.2, v = 0.2, t = 0.2)
movej(p[-0.298619605809082, 0.0837817246397777, 0.549905383343452, -1.52581218546144, -1.01075920217064, 1.80399600823438], a = 0.2, v = 0.2, t = 0.2)
movej(p[-0.298152488568125, 0.0838021919734886, 0.550078246472695, -1.52481324114651, -1.01087069018934, 1.80523645420795], a = 0.2, v = 0.2, t = 0.2)
movej(p[-0.29768535301206, 0.0838225790241002, 0.550251166339763, -1.52381438133377, -1.01097881489237, 1.80647829710582], a = 0.2, v = 0.2, t = 0.2)
movej(p[-0.297218235771103, 0.0838430463578111, 0.550424029469007, -1.52281618599821, -1.01108861202166, 1.80771674458445], a = 0.2, v = 0.2, t = 0.2)
movej(p[-0.296295635997589, 0.0843410700272786, 0.55115397230414, -1.51492714364715, -1.00860984552274, 1.81831404073462], a = 0.2, v = 0.2, t = 0.2)
movej(p[-0.295240195624814, 0.0842728728369066, 0.551373480419577, -1.51824989933513, -1.00605693853518, 1.82133771208292], a = 0.2, v = 0.2, t = 0.2)
movej(p[-0.295236180921366, 0.0842491846321075, 0.551338666038789, -1.51882640650207, -1.00509949684053, 1.83736249309739], a = 0.2, v = 0.2, t = 0.2)
movej(p[-0.295677836200484, 0.0841653779421582, 0.551247557569661, -1.52509849205338, -1.00913344184658, 1.85038374194086], a = 0.2, v = 0.2, t = 0.2)
movej(p[-0.298477602664891, 0.084012026949605, 0.550359200182196, -1.52801846752254, -1.01272000491648, 1.85117549375313], a = 0.2, v = 0.2, t = 0.2)
movej(p[-0.300655790637097, 0.0837147569344274, 0.5494809146843, -1.52852453484686, -1.01365738455143, 1.85096652559742], a = 0.2, v = 0.2, t = 0.2)
movej(p[-0.303674520292348, 0.0836211347028055, 0.54856093015386, -1.53004054254878, -1.01307311284347, 1.8444425865156], a = 0.2, v = 0.2, t = 0.2)
movej(p[-0.306857650304147, 0.0834001825106563, 0.547545569505238, -1.53058563244225, -1.01448629867395, 1.83083801259263], a = 0.2, v = 0.2, t = 0.2)
movej(p[-0.307956028784802, 0.0832724901276879, 0.54703436522262, -1.53125117022273, -1.01492662008726, 1.81901461853593], a = 0.2, v = 0.2, t = 0.2)
movej(p[-0.308982168364232, 0.0833751550708293, 0.546758819195654, -1.52800216075618, -1.01283019477642, 1.81487153728119], a = 0.2, v = 0.2, t = 0.2)
movej(p[-0.308995693314033, 0.0834187286518616, 0.546814971032391, -1.52812913597736, -1.0127510603323, 1.81468808914367], a = 0.2, v = 0.2, t = 0.2)
movej(p[-0.308999783945679, 0.0834428648605339, 0.546850443841184, -1.53045126574501, -1.0104480487608, 1.81067582292907], a = 0.2, v = 0.2, t = 0.2)
movej(p[-0.307442064249756, 0.0836212968558551, 0.547442910474827, -1.53204682562775, -1.00820659846582, 1.80713523424692], a = 0.2, v = 0.2, t = 0.2)
movej(p[-0.305288927167209, 0.0837879044449087, 0.548190574560517, -1.52899988558368, -1.00641509882706, 1.80471437773906], a = 0.2, v = 0.2, t = 0.2)
movej(p[-0.303082816834053, 0.0841020229200933, 0.549029754673178, -1.51636849701526, -1.00207130507279, 1.80133178140621], a = 0.2, v = 0.2, t = 0.2)
movej(p[-0.301020761114807, 0.0842273174298698, 0.549600137076961, -1.51011979573331, -0.998706039067358, 1.80033156617884], a = 0.2, v = 0.2, t = 0.2)
movej(p[-0.299428946645663, 0.0841684625182404, 0.550041477405055, -1.5084273577821, -0.996370922333828, 1.80125629160555], a = 0.2, v = 0.2, t = 0.2)
movej(p[-0.297331064999185, 0.0841775237062678, 0.550622298575677, -1.50325626155162, -0.995306546160938, 1.80927300607587], a = 0.2, v = 0.2, t = 0.2)
movej(p[-0.295283596967016, 0.0844671994958773, 0.551460301633046, -1.49947984954533, -0.997205530819696, 1.81722555579989], a = 0.2, v = 0.2, t = 0.2)
movej(p[-0.295283596967016, 0.0844671994958773, 0.551460301633046, -1.50891031054452, -0.998498685171577, 1.83812401146071], a = 0.2, v = 0.2, t = 0.2)
movej(p[-0.296856285233579, 0.08404006353594, 0.55085915341676, -1.51554345665089, -1.00177274279686, 1.84279115867097], a = 0.2, v = 0.2, t = 0.2)
movej(p[-0.299584521244942, 0.0838278762446103, 0.549942531842881, -1.51670536613035, -1.00388956482794, 1.8423187358088], a = 0.2, v = 0.2, t = 0.2)
movej(p[-0.302658356496229, 0.083640605798551, 0.548860237530793, -1.52282046638115, -1.00478745498558, 1.81996318578566], a = 0.2, v = 0.2, t = 0.2)
movej(p[-0.304598170800062, 0.0835988117449821, 0.548160749200846, -1.53094156518093, -1.01133122703295, 1.8122731215765], a = 0.2, v = 0.2, t = 0.2)
movej(p[-0.305172067169167, 0.0833382651792851, 0.547813423381721, -1.531312514316, -1.01198867727453, 1.8121206020111], a = 0.2, v = 0.2, t = 0.2)
movej(p[-0.305570042954697, 0.0833212143390994, 0.547710847639066, -1.53266193985661, -1.01338772593956, 1.81293985346474], a = 0.2, v = 0.2, t = 0.2)
movej(p[-0.306918199335613, 0.0833720682803339, 0.547412886669717, -1.53182048301116, -1.013890299764, 1.81404565850421], a = 0.2, v = 0.2, t = 0.2)
movej(p[-0.308073072872035, 0.0832433381899461, 0.546898182124661, -1.52648756454687, -1.01136786004358, 1.81504449410849], a = 0.2, v = 0.2, t = 0.2)
movej(p[-0.30872012244717, 0.0832724738797253, 0.546686857258877, -1.52237093820477, -1.01058102122753, 1.81361064457059], a = 0.2, v = 0.2, t = 0.2)
movej(p[-0.309132934750218, 0.0831484664703886, 0.546455353900625, -1.52327137892211, -1.00969838060673, 1.81213464580733], a = 0.2, v = 0.2, t = 0.2)
movej(p[-0.309132934750218, 0.0831484664703886, 0.546455353900625, -1.527153611782, -1.0074434991945, 1.80653168849633], a = 0.2, v = 0.2, t = 0.2)
movej(p[-0.308432057016977, 0.083295661532962, 0.546816323396014, -1.53607131637531, -1.01506429705302, 1.79973726642314], a = 0.2, v = 0.2, t = 0.2)
movej(p[-0.307106444462281, 0.0833871717277291, 0.5472837009191, -1.53806492534974, -1.01427659966926, 1.79215295587146], a = 0.2, v = 0.2, t = 0.2)
movej(p[-0.305250738966001, 0.0834913111925779, 0.54790944205802, -1.53545657457343, -1.01003339868345, 1.79261924165477], a = 0.2, v = 0.2, t = 0.2)
movej(p[-0.303735756757134, 0.0840142399654249, 0.548750772846322, -1.52759448492473, -1.01085984607405, 1.773462309294], a = 0.2, v = 0.2, t = 0.2)
movej(p[-0.302018238061889, 0.08390620246121, 0.549117721574576, -1.52463248527432, -1.0124255840173, 1.76940463611265], a = 0.2, v = 0.2, t = 0.2)
movej(p[-0.300241839863793, 0.0837295933033094, 0.549499236786782, -1.52222026528169, -1.00835176464773, 1.77040090408906], a = 0.2, v = 0.2, t = 0.2)
movej(p[-0.298290343996289, 0.083681313596304, 0.550088827533835, -1.51240683908701, -1.00316254298293, 1.78233645204438], a = 0.2, v = 0.2, t = 0.2)
movej(p[-0.29754480205927, 0.0837918215247995, 0.550370072672255, -1.51001705344564, -1.00311041720841, 1.801293100883], a = 0.2, v = 0.2, t = 0.2)
movej(p[-0.29754480205927, 0.0837918215247995, 0.550370072672255, -1.51317778280847, -1.00412909280948, 1.81651588590504], a = 0.2, v = 0.2, t = 0.2)
movej(p[-0.300165609899898, 0.0835812455095978, 0.549565224851654, -1.51880133285472, -1.00483758713508, 1.818633797549], a = 0.2, v = 0.2, t = 0.2)
movej(p[-0.303116918758735, 0.0830641758296782, 0.548388788952059, -1.51980745121455, -1.00507052349854, 1.81762398601118], a = 0.2, v = 0.2, t = 0.2)
movej(p[-0.305237851049846, 0.082930837150053, 0.547774564894374, -1.5252145404576, -1.00586405124473, 1.80564018085264], a = 0.2, v = 0.2, t = 0.2)
movej(p[-0.306454459120441, 0.0829947163759792, 0.547278788596979, -1.5293636874975, -1.01662565694216, 1.8022455968395], a = 0.2, v = 0.2, t = 0.2)
movej(p[-0.307160750545878, 0.0827166417784614, 0.546930187176199, -1.53335131595362, -1.02659520069779, 1.79979550125301], a = 0.2, v = 0.2, t = 0.2)
movej(p[-0.307417602255938, 0.0828508123905046, 0.546767965581141, -1.53246739055648, -1.02958941780632, 1.79792131458042], a = 0.2, v = 0.2, t = 0.2)
movej(p[-0.308025381449924, 0.0826874543314833, 0.546516575096217, -1.53198548099016, -1.02987443805011, 1.79854840935995], a = 0.2, v = 0.2, t = 0.2)
movej(p[-0.308420809425178, 0.0825691410073887, 0.546432041471382, -1.53032776518414, -1.02957137756358, 1.80950029882742], a = 0.2, v = 0.2, t = 0.2)
movej(p[-0.308485086910512, 0.0825110447937679, 0.546368293962865, -1.53023180498696, -1.02780802850399, 1.81032629566016], a = 0.2, v = 0.2, t = 0.2)
movej(p[-0.308580915885226, 0.0824595001870853, 0.546276766966153, -1.53043340443518, -1.02765549413464, 1.81049134636281], a = 0.2, v = 0.2, t = 0.2)
movej(p[-0.309002588871303, 0.0824370948661436, 0.54623172149572, -1.53168753285772, -1.02687372430238, 1.80935078935714], a = 0.2, v = 0.2, t = 0.2)
movej(p[-0.309145296901695, 0.0824371164709709, 0.546215250078209, -1.52584734820778, -1.01640531432919, 1.81177986697675], a = 0.2, v = 0.2, t = 0.2)
movej(p[-0.309630021991875, 0.08287420360704, 0.546053074363525, -1.52119692560275, -1.00814041072336, 1.81369595332761], a = 0.2, v = 0.2, t = 0.2)
movej(p[-0.30988839917896, 0.0828361617618213, 0.546049163199215, -1.52127079909153, -1.00808403358353, 1.81375535212573], a = 0.2, v = 0.2, t = 0.2)
movej(p[-0.310121147750257, 0.0828475534922736, 0.546014572144927, -1.5220309059081, -1.00864126381723, 1.8137899121656], a = 0.2, v = 0.2, t = 0.2)
movej(p[-0.310160130306408, 0.0830290561411377, 0.545976247886666, -1.52321529574267, -1.0098879981362, 1.81365637529246], a = 0.2, v = 0.2, t = 0.2)
movej(p[-0.310122344715445, 0.0831211507248166, 0.546094362944015, -1.52491462914102, -1.01001544389965, 1.81185186344225], a = 0.2, v = 0.2, t = 0.2)
movej(p[-0.309634632061471, 0.0831624020891243, 0.546297741856631, -1.52723176084787, -1.00906984166494, 1.80884034953641], a = 0.2, v = 0.2, t = 0.2)
movej(p[-0.308555629528858, 0.0832727846150257, 0.546733074066088, -1.53188094013653, -1.01089661152808, 1.80330556048526], a = 0.2, v = 0.2, t = 0.2)
movej(p[-0.307323410279405, 0.0834321702962711, 0.547211903613934, -1.53524445161756, -1.01097834924448, 1.79808216125686], a = 0.2, v = 0.2, t = 0.2)
movej(p[-0.305406132718651, 0.0836509669361238, 0.547849230222056, -1.53498427636219, -1.01153698436437, 1.79355529595179], a = 0.2, v = 0.2, t = 0.2)
movej(p[-0.303495335461349, 0.083620663512815, 0.548471226005017, -1.5307931405946, -1.01254512635909, 1.79123916722116], a = 0.2, v = 0.2, t = 0.2)
movej(p[-0.30132355769838, 0.0836052393432932, 0.549196057353172, -1.5195712864938, -0.999122074825683, 1.79820413424762], a = 0.2, v = 0.2, t = 0.2)
movej(p[-0.29930869935338, 0.0838916502370795, 0.550015997222617, -1.51352549887534, -0.999343004033842, 1.8028405102981], a = 0.2, v = 0.2, t = 0.2)
movej(p[-0.29715458888826, 0.0839705032282639, 0.550866008575389, -1.51216555162572, -0.996978667290141, 1.80338962751581], a = 0.2, v = 0.2, t = 0.2)
movej(p[-0.295040490341129, 0.0840444613486005, 0.551569906593184, -1.50826997452631, -0.99187632814275, 1.80562451533762], a = 0.2, v = 0.2, t = 0.2)
movej(p[-0.293916353280494, 0.084258908434587, 0.551920074833062, -1.49642922911974, -0.987008524736854, 1.82160028817668], a = 0.2, v = 0.2, t = 0.2)
movej(p[-0.293927600144766, 0.0843252690083148, 0.552017604481367, -1.49435007319168, -0.9836848529783, 1.83175773256786], a = 0.2, v = 0.2, t = 0.2)
movej(p[-0.294202898571621, 0.0843339884589642, 0.551979924946451, -1.49385950028857, -0.982946215774717, 1.84408423526232], a = 0.2, v = 0.2, t = 0.2)
movej(p[-0.295334475875438, 0.0841104389724884, 0.551559882683599, -1.50182816052941, -0.988788222253367, 1.84485726141892], a = 0.2, v = 0.2, t = 0.2)
movej(p[-0.296532260579866, 0.08385483340226, 0.551115500995962, -1.50599270713316, -0.992929223928752, 1.84188500365019], a = 0.2, v = 0.2, t = 0.2)
movej(p[-0.298128861733655, 0.0838481220664856, 0.550549090787995, -1.51359612667436, -0.994994453941126, 1.82164135937228], a = 0.2, v = 0.2, t = 0.2)
movej(p[-0.302021073954732, 0.0833368863694294, 0.549017179815334, -1.51690144958546, -0.997392434548654, 1.80748032349603], a = 0.2, v = 0.2, t = 0.2)
movej(p[-0.304509912720909, 0.0833009283881396, 0.548142393624568, -1.51665090126768, -0.998196529309076, 1.80029756874354], a = 0.2, v = 0.2, t = 0.2)
movej(p[-0.306005847321156, 0.0831661920007672, 0.547553565094603, -1.51850201172967, -0.997718864123395, 1.79107250897365], a = 0.2, v = 0.2, t = 0.2)
movej(p[-0.307373507715579, 0.0834260671599286, 0.54710311483411, -1.52239028861124, -1.00440047950674, 1.78949930033403], a = 0.2, v = 0.2, t = 0.2)
movej(p[-0.307832968767573, 0.0832818151957307, 0.546910017624068, -1.52896778076457, -1.00898059169572, 1.79034400835371], a = 0.2, v = 0.2, t = 0.2)
movej(p[-0.308253907920801, 0.0831162953718483, 0.546745067731126, -1.52921028328631, -1.0087928672022, 1.79054037767817], a = 0.2, v = 0.2, t = 0.2)
movej(p[-0.308620181837315, 0.083203257873137, 0.54663491133571, -1.53116482479594, -1.01042702506813, 1.78962190029795], a = 0.2, v = 0.2, t = 0.2)
movej(p[-0.309094827005649, 0.0833259808754207, 0.546478327272384, -1.53333674885872, -1.00897582286661, 1.78864646718536], a = 0.2, v = 0.2, t = 0.2)
movej(p[-0.309267392190011, 0.0832547721582816, 0.546405425175368, -1.53372411674465, -1.00918732541395, 1.78830666637039], a = 0.2, v = 0.2, t = 0.2)
movej(p[-0.309584643125362, 0.0831645746427461, 0.546265820762077, -1.53381882701733, -1.00935067408492, 1.78826796878307], a = 0.2, v = 0.2, t = 0.2)
movej(p[-0.309591383085392, 0.0831941188233259, 0.546244941242622, -1.53713819302401, -1.00696721809331, 1.78860616253788], a = 0.2, v = 0.2, t = 0.2)
movej(p[-0.308970433785307, 0.0836073234099829, 0.546629175059836, -1.5398312005119, -1.00362255623892, 1.78430780235736], a = 0.2, v = 0.2, t = 0.2)
movej(p[-0.307405890545427, 0.083862836194301, 0.547174112742139, -1.53685422674293, -0.99921221780778, 1.78155457939206], a = 0.2, v = 0.2, t = 0.2)
movej(p[-0.305054797875053, 0.0840387546845765, 0.548043246586891, -1.53217178001944, -0.999179247716781, 1.77957520799231], a = 0.2, v = 0.2, t = 0.2)
movej(p[-0.302659064529429, 0.084185274609798, 0.548922465295849, -1.52370471442603, -0.987063474062352, 1.78334181688049], a = 0.2, v = 0.2, t = 0.2)
movej(p[-0.300546301007195, 0.0843506396909101, 0.549724761256866, -1.51671591409118, -0.983445492581579, 1.78338831660324], a = 0.2, v = 0.2, t = 0.2)
movej(p[-0.298315091011977, 0.0842674263760373, 0.550479364093772, -1.51009886288872, -0.985639316684212, 1.78096001886222], a = 0.2, v = 0.2, t = 0.2)
movej(p[-0.295930063847843, 0.0842558646681005, 0.551316191353877, -1.50568802928466, -0.981853016183574, 1.78425217834442], a = 0.2, v = 0.2, t = 0.2)
movej(p[-0.293867495549891, 0.0844846993126363, 0.552124918020769, -1.49712125044733, -0.975143432509865, 1.79743146667647], a = 0.2, v = 0.2, t = 0.2)
movej(p[-0.293569565724933, 0.0845800738978931, 0.552247593682118, -1.49638219024834, -0.973699787522269, 1.80249369035354], a = 0.2, v = 0.2, t = 0.2)
movej(p[-0.293560829418047, 0.0845417788594786, 0.552274657624455, -1.49626308653547, -0.973318799050203, 1.80731547348004], a = 0.2, v = 0.2, t = 0.2)
movej(p[-0.293883457082179, 0.0844146552176884, 0.552198924738369, -1.5036576324599, -0.972962514934968, 1.82266006902851], a = 0.2, v = 0.2, t = 0.2)
movej(p[-0.295880337744841, 0.0838899694898762, 0.551490573472319, -1.50571937702843, -0.976578957687386, 1.82186941215694], a = 0.2, v = 0.2, t = 0.2)
movej(p[-0.300185244063529, 0.083746589416766, 0.549895761373057, -1.51458991081942, -0.978304282191325, 1.80638984832905], a = 0.2, v = 0.2, t = 0.2)
movej(p[-0.304633715051751, 0.0833112530740681, 0.548145149298472, -1.51981682147184, -0.987192317150101, 1.80202004926366], a = 0.2, v = 0.2, t = 0.2)
movej(p[-0.306388200361698, 0.0831543000812808, 0.547501890878214, -1.52132983492531, -0.990224523222838, 1.80122964207873], a = 0.2, v = 0.2, t = 0.2)
movej(p[-0.307098206830132, 0.0832058473532296, 0.547187501321237, -1.52578098431083, -0.998133120852835, 1.79954276614295], a = 0.2, v = 0.2, t = 0.2)
movej(p[-0.307822268759379, 0.0831555516102225, 0.546937991840755, -1.52934528319098, -1.00430894359331, 1.79813035182527], a = 0.2, v = 0.2, t = 0.2)
movej(p[-0.308055165284199, 0.0830382018903024, 0.546847123463629, -1.52940302472784, -1.00561339225774, 1.80337436288516], a = 0.2, v = 0.2, t = 0.2)
movej(p[-0.308220151545244, 0.0829711951669207, 0.546796050548224, -1.53299856668934, -1.00570849575778, 1.80508666827427], a = 0.2, v = 0.2, t = 0.2)
movej(p[-0.308489097146723, 0.0829039450866125, 0.546787709076909, -1.53326135135741, -1.00616938501157, 1.80498018619101], a = 0.2, v = 0.2, t = 0.2)
movej(p[-0.308962319299367, 0.0828781258507865, 0.546604661292686, -1.53683987519415, -1.00972005089233, 1.80246062820742], a = 0.2, v = 0.2, t = 0.2)
movej(p[-0.309150195160103, 0.0828365151871108, 0.546473890219351, -1.54311591277788, -1.01662511879017, 1.80188026547773], a = 0.2, v = 0.2, t = 0.2)
movej(p[-0.309473381148537, 0.0827419783082406, 0.54644444730147, -1.54282925160692, -1.01787619409982, 1.81113923820386], a = 0.2, v = 0.2, t = 0.2)
movej(p[-0.309699902075196, 0.0828521299470622, 0.546341554219824, -1.54360307378706, -1.01728122052941, 1.8117716987642], a = 0.2, v = 0.2, t = 0.2)
movej(p[-0.310176155442822, 0.0830056463577726, 0.546182179154437, -1.54438054165207, -1.01667282432473, 1.8125409885228], a = 0.2, v = 0.2, t = 0.2)
movej(p[-0.310304614723554, 0.0829087414363371, 0.54608652723655, -1.5471114711012, -1.01824441435451, 1.81251316827206], a = 0.2, v = 0.2, t = 0.2)
movej(p[-0.310291849092737, 0.0828527841160542, 0.546126073500301, -1.54867772340166, -1.01704786306997, 1.81365613185406], a = 0.2, v = 0.2, t = 0.2)
movej(p[-0.309474782782561, 0.0831072834895527, 0.546469712691406, -1.55068330731785, -1.00332745325182, 1.81208275975814], a = 0.2, v = 0.2, t = 0.2)
movej(p[-0.308618655913465, 0.0834858260411975, 0.546847423904645, -1.55351192118843, -1.00157019352117, 1.80830591029841], a = 0.2, v = 0.2, t = 0.2)
movej(p[-0.30757841298467, 0.083724200837738, 0.547209180902457, -1.55183766896531, -1.00169024078122, 1.80385088537741], a = 0.2, v = 0.2, t = 0.2)
movej(p[-0.306691882857783, 0.0836450722846065, 0.547557104336851, -1.55257071364246, -0.998030035782929, 1.80013864571907], a = 0.2, v = 0.2, t = 0.2)
movej(p[-0.303706774118287, 0.0836342120649831, 0.548728377946651, -1.55143156904402, -0.998597141554203, 1.79937255322083], a = 0.2, v = 0.2, t = 0.2)
movej(p[-0.301031063903934, 0.0840210067558629, 0.54969910873112, -1.54470848562235, -0.99674756700855, 1.79956215122069], a = 0.2, v = 0.2, t = 0.2)
movej(p[-0.298484457924224, 0.0841356709908231, 0.550620438285257, -1.53693231513573, -0.997346230727538, 1.80198282528183], a = 0.2, v = 0.2, t = 0.2)
movej(p[-0.296024005871114, 0.0840871135454464, 0.55158748647891, -1.53259239143371, -0.993356233950643, 1.80513859373067], a = 0.2, v = 0.2, t = 0.2)
movej(p[-0.294354037996503, 0.0843942209113228, 0.552098783626947, -1.52219085848529, -0.98662259622605, 1.81604787143718], a = 0.2, v = 0.2, t = 0.2)
movej(p[-0.293997341246146, 0.0844349471570294, 0.552396762789298, -1.51291344628971, -0.981086169753013, 1.8351630937997], a = 0.2, v = 0.2, t = 0.2)
movej(p[-0.293997341246146, 0.0844349471570294, 0.552396762789298, -1.51224991722798, -0.98144422787366, 1.83644483005963], a = 0.2, v = 0.2, t = 0.2)
movej(p[-0.293999716244817, 0.08435390950725, 0.55228286248772, -1.5141448762392, -0.979291810321122, 1.84930323691226], a = 0.2, v = 0.2, t = 0.2)
movej(p[-0.295261439171782, 0.083863201576595, 0.551968839857385, -1.52311116268665, -0.981342859129439, 1.85229846894768], a = 0.2, v = 0.2, t = 0.2)
movej(p[-0.297475118845766, 0.0836690194652081, 0.55113842808085, -1.53567201945257, -0.998597459861392, 1.84520999367983], a = 0.2, v = 0.2, t = 0.2)
movej(p[-0.299103340431653, 0.0832957420384477, 0.550517558078417, -1.53993612171982, -0.996714901351414, 1.83758866844211], a = 0.2, v = 0.2, t = 0.2)
movej(p[-0.301168556236035, 0.082989773140833, 0.549808516454092, -1.54090459856263, -0.996383107162727, 1.83283752311306], a = 0.2, v = 0.2, t = 0.2)
movej(p[-0.303403946492356, 0.0829059965853347, 0.548896348492204, -1.54280320731097, -0.995733420261301, 1.82362611041573], a = 0.2, v = 0.2, t = 0.2)
movej(p[-0.305478194199879, 0.0831374058264353, 0.548039571256883, -1.5421429878909, -1.00166231803779, 1.82054520810896], a = 0.2, v = 0.2, t = 0.2)
movej(p[-0.306717377969106, 0.0829436184282921, 0.547551148099767, -1.54312221087715, -1.00718275362496, 1.81792493045517], a = 0.2, v = 0.2, t = 0.2)
movej(p[-0.307937980694877, 0.0827748565147641, 0.547081738883428, -1.54253127585759, -1.00768292041823, 1.81688211538765], a = 0.2, v = 0.2, t = 0.2)
movej(p[-0.308671463879762, 0.0827771327407833, 0.546799503296932, -1.54367465333069, -1.00971998992857, 1.81641948398528], a = 0.2, v = 0.2, t = 0.2)
movej(p[-0.309440127385978, 0.083101442066133, 0.546451317820923, -1.54528964175817, -1.01140827095139, 1.81500179120745], a = 0.2, v = 0.2, t = 0.2)
movej(p[-0.309543284689716, 0.0830770319861646, 0.546450077384969, -1.54749675769683, -1.01342519256508, 1.81655265425252], a = 0.2, v = 0.2, t = 0.2)
movej(p[-0.309669978678193, 0.0828379134880266, 0.54639355847546, -1.54915823576863, -1.01371090686446, 1.81562529869396], a = 0.2, v = 0.2, t = 0.2)
movej(p[-0.309665619682304, 0.082818806110369, 0.546407062077717, -1.55461743854893, -1.01035235502635, 1.80841392871168], a = 0.2, v = 0.2, t = 0.2)
movej(p[-0.307863116080006, 0.0835008153557367, 0.547035404224111, -1.55410834940607, -1.00215280007197, 1.80072103782178], a = 0.2, v = 0.2, t = 0.2)
movej(p[-0.305447652052298, 0.0836433801656789, 0.547963815892399, -1.55309136899257, -1.00139953968054, 1.79693702836335], a = 0.2, v = 0.2, t = 0.2)
movej(p[-0.303178935074209, 0.0835797699022594, 0.548904658672952, -1.55032701957027, -0.99723005864441, 1.79772237614134], a = 0.2, v = 0.2, t = 0.2)
movej(p[-0.301036743827626, 0.0835338487581534, 0.549762619704459, -1.54326965755968, -0.991318122653785, 1.8013691659933], a = 0.2, v = 0.2, t = 0.2)
movej(p[-0.299090918638681, 0.0838051677451862, 0.550478796778474, -1.54182026038308, -0.992366122301624, 1.80132769118977], a = 0.2, v = 0.2, t = 0.2)
movej(p[-0.297410727515286, 0.0838294205673912, 0.551116540801951, -1.53899569314748, -0.99491070837692, 1.80546368157724], a = 0.2, v = 0.2, t = 0.2)
movej(p[-0.295956247026507, 0.0837701799021154, 0.551703539116546, -1.5369848186451, -0.995916503999354, 1.81071532454619], a = 0.2, v = 0.2, t = 0.2)
movej(p[-0.294624170154578, 0.0838773862042745, 0.55224056572301, -1.53310980007979, -0.99285376617389, 1.82024104124061], a = 0.2, v = 0.2, t = 0.2)
movej(p[-0.294488943929094, 0.0839012641155556, 0.552324113333951, -1.52943120642143, -0.994757920802228, 1.82901908141057], a = 0.2, v = 0.2, t = 0.2)
movej(p[-0.294488943929094, 0.0839012641155556, 0.552324113333951, -1.53225725317105, -0.993869566775053, 1.84426218381156], a = 0.2, v = 0.2, t = 0.2)
movej(p[-0.295396831360561, 0.0835120267672265, 0.552066417101056, -1.53720391059215, -0.994035217231558, 1.84985424342341], a = 0.2, v = 0.2, t = 0.2)
movej(p[-0.29699227597102, 0.0830805837948432, 0.551562047438469, -1.54150234300669, -0.9940862247043, 1.85610921807261], a = 0.2, v = 0.2, t = 0.2)
movej(p[-0.299097650779096, 0.0832525401654465, 0.550757563986725, -1.54279562261472, -0.996478154908246, 1.8556038147751], a = 0.2, v = 0.2, t = 0.2)
movej(p[-0.301243826751804, 0.082926459684412, 0.549944855610947, -1.55114170768969, -1.00198741226796, 1.83937925167885], a = 0.2, v = 0.2, t = 0.2)
movej(p[-0.303030818940828, 0.0827506747408825, 0.549272753639522, -1.55574110796293, -1.00552065441963, 1.83345973704312], a = 0.2, v = 0.2, t = 0.2)
movej(p[-0.304843172431202, 0.0826976868224703, 0.548547830128775, -1.55482129952654, -1.00640177888927, 1.83035671370726], a = 0.2, v = 0.2, t = 0.2)
movej(p[-0.306474036707529, 0.0827559525923242, 0.547851243908509, -1.55345254790613, -1.01126590479134, 1.82657919295309], a = 0.2, v = 0.2, t = 0.2)
movej(p[-0.307564944311911, 0.0828178424436697, 0.547347502362672, -1.55408347103222, -1.01232734680686, 1.82609735409823], a = 0.2, v = 0.2, t = 0.2)
movej(p[-0.308058964999569, 0.0827459876955494, 0.547158022428805, -1.55452092009421, -1.01327520851879, 1.82584563041291], a = 0.2, v = 0.2, t = 0.2)
movej(p[-0.308782719003752, 0.0827159440342007, 0.546891245106228, -1.55322847961407, -1.01407603427285, 1.82754288931793], a = 0.2, v = 0.2, t = 0.2)
movej(p[-0.309740643738367, 0.0829050454104705, 0.546434867726962, -1.54989206978027, -1.01660627413803, 1.82534137874311], a = 0.2, v = 0.2, t = 0.2)
movej(p[-0.310160846987164, 0.0828650575517378, 0.54635724259666, -1.55232772730429, -1.02041232179089, 1.8241174402189], a = 0.2, v = 0.2, t = 0.2)
movej(p[-0.310336415299054, 0.0828277196602266, 0.546359850223497, -1.55765663090668, -1.01659546373486, 1.82443789421509], a = 0.2, v = 0.2, t = 0.2)
movej(p[-0.310336287093292, 0.0828271576785308, 0.546360247388269, -1.56087414639888, -1.01426059390714, 1.82199939041079], a = 0.2, v = 0.2, t = 0.2)
movej(p[-0.309424856278359, 0.0830827029688785, 0.546713327781623, -1.56091450286584, -1.00817184411067, 1.81964657586638], a = 0.2, v = 0.2, t = 0.2)
movej(p[-0.308185117480858, 0.0835398028149587, 0.547069552955755, -1.56211749332458, -1.00271236951516, 1.81273072713492], a = 0.2, v = 0.2, t = 0.2)
movej(p[-0.306246576032256, 0.0835965069617965, 0.5478716243689, -1.56330211288938, -1.00204844213742, 1.80995977311747], a = 0.2, v = 0.2, t = 0.2)
movej(p[-0.304042197242308, 0.0834359660677312, 0.548816811155603, -1.56221043700077, -1.00217597939402, 1.80941592556601], a = 0.2, v = 0.2, t = 0.2)
movej(p[-0.301877489811373, 0.083676221746256, 0.549545101652172, -1.55512171563557, -0.997903386836103, 1.81065004125276], a = 0.2, v = 0.2, t = 0.2)
movej(p[-0.30006609848118, 0.0839959645093688, 0.550176498979009, -1.54879432326759, -0.995523986532759, 1.81299378016176], a = 0.2, v = 0.2, t = 0.2)
movej(p[-0.298238219196523, 0.0840158480732195, 0.550833882417051, -1.54237557175148, -0.992519049768226, 1.81670080506685], a = 0.2, v = 0.2, t = 0.2)
movej(p[-0.296485193671599, 0.0840275486174923, 0.551551261045271, -1.53582527130779, -0.9900543111693, 1.82290134488411], a = 0.2, v = 0.2, t = 0.2)
movej(p[-0.294792098205421, 0.084346356568879, 0.552044506301245, -1.52885478344115, -0.986698020293309, 1.82921825360403], a = 0.2, v = 0.2, t = 0.2)
movej(p[-0.294593754175831, 0.0843479243884313, 0.552165821790231, -1.52563730761378, -0.988215544157633, 1.83524500640401], a = 0.2, v = 0.2, t = 0.2)
movej(p[-0.294575548957709, 0.0842681229876262, 0.552222219187889, -1.52783999561262, -0.985464448311995, 1.85050160786573], a = 0.2, v = 0.2, t = 0.2)
movej(p[-0.295496697162228, 0.0838525131213354, 0.551931486880856, -1.53521287461856, -0.990536551442191, 1.85812283554229], a = 0.2, v = 0.2, t = 0.2)
movej(p[-0.296476445415745, 0.0835268942467591, 0.551734484321863, -1.54008512183244, -0.994108197168448, 1.8586915866289], a = 0.2, v = 0.2, t = 0.2)
movej(p[-0.298726208077557, 0.0832462716985595, 0.550980232632467, -1.5471262748326, -0.997566207547805, 1.85233774977029], a = 0.2, v = 0.2, t = 0.2)
movej(p[-0.301936415302477, 0.0829609318994233, 0.549803016738036, -1.55150616577186, -1.0020003162587, 1.84061605279999], a = 0.2, v = 0.2, t = 0.2)
movej(p[-0.304443685771311, 0.0827486618910192, 0.548874874653199, -1.55670811311153, -0.999277014348006, 1.82648362395082], a = 0.2, v = 0.2, t = 0.2)
movej(p[-0.306044196838706, 0.0827398541753617, 0.548219164345753, -1.55183514842178, -1.00261717020033, 1.81712026594826], a = 0.2, v = 0.2, t = 0.2)
movej(p[-0.307787232030218, 0.0830715209793061, 0.547392751239424, -1.54888367274311, -1.00491768336763, 1.81472513739225], a = 0.2, v = 0.2, t = 0.2)
movej(p[-0.308361877746714, 0.082988680680371, 0.547148716907034, -1.55023020476035, -1.01130920063336, 1.81572145832225], a = 0.2, v = 0.2, t = 0.2)
movej(p[-0.308892571491959, 0.082918352022095, 0.546941333400981, -1.55098315280149, -1.01059856856057, 1.81803637026901], a = 0.2, v = 0.2, t = 0.2)
movej(p[-0.309322047087312, 0.0829732162941553, 0.546736012981521, -1.55023185679736, -1.00925547702428, 1.818339522763], a = 0.2, v = 0.2, t = 0.2)
movej(p[-0.309358823825733, 0.0831344247577536, 0.546622083429712, -1.55254511174137, -1.00795733553118, 1.81358699651927], a = 0.2, v = 0.2, t = 0.2)
movej(p[-0.309355408051526, 0.0831758443722251, 0.546679588890527, -1.55645376939934, -1.00771029699945, 1.80436424512201], a = 0.2, v = 0.2, t = 0.2)
movej(p[-0.307540613705206, 0.0834368453025555, 0.547337982264531, -1.5609202939641, -1.00523223894348, 1.79464841032823], a = 0.2, v = 0.2, t = 0.2)
movej(p[-0.305375562475046, 0.0837160374327796, 0.548164966046237, -1.5586519514486, -0.995884030936359, 1.79045767018221], a = 0.2, v = 0.2, t = 0.2)
movej(p[-0.303452707832471, 0.0841292770277811, 0.548830286999348, -1.55356843547547, -0.999437155557001, 1.78655674823042], a = 0.2, v = 0.2, t = 0.2)
movej(p[-0.301197552816058, 0.0840804134163523, 0.549700846784444, -1.55245500496183, -0.998327727878002, 1.78732365097709], a = 0.2, v = 0.2, t = 0.2)
movej(p[-0.299073876237152, 0.0838788169848411, 0.550624566480567, -1.54751224223055, -0.992277772036528, 1.79499584812718], a = 0.2, v = 0.2, t = 0.2)
movej(p[-0.297332412227267, 0.0841107513404024, 0.551267793576535, -1.5419633822296, -0.986752179366063, 1.80292666934635], a = 0.2, v = 0.2, t = 0.2)
movej(p[-0.297094081429047, 0.0840590840465305, 0.551337358016903, -1.54852804467321, -0.981217994990272, 1.81225107528376], a = 0.2, v = 0.2, t = 0.2)
movej(p[-0.296958170861503, 0.0836754337795288, 0.551614072021354, -1.55251802398602, -0.981417602909587, 1.81437402733182], a = 0.2, v = 0.2, t = 0.2)
movej(p[-0.297000711157671, 0.0836442729566455, 0.551583712075387, -1.55353657955665, -0.996130888465263, 1.81920276027509], a = 0.2, v = 0.2, t = 0.2)
movej(p[-0.2971662415384, 0.0836265517420113, 0.551473891031831, -1.55182971044648, -1.00255761445933, 1.8235754248496], a = 0.2, v = 0.2, t = 0.2)
movej(p[-0.298528407897827, 0.0836947842039679, 0.550870521733323, -1.55249275775192, -1.00204131830982, 1.82411272719554], a = 0.2, v = 0.2, t = 0.2)
movej(p[-0.300848423518361, 0.0832991067301289, 0.550094234030744, -1.56304865954251, -0.994085592583855, 1.82025171359814], a = 0.2, v = 0.2, t = 0.2)
movej(p[-0.302980437583709, 0.0829436103949323, 0.549389196811289, -1.56422467572672, -0.993343370587839, 1.81867246860409], a = 0.2, v = 0.2, t = 0.2)
movej(p[-0.305483702077393, 0.0829841518938425, 0.548280630493234, -1.56081132900528, -0.999522315950379, 1.81425067333546], a = 0.2, v = 0.2, t = 0.2)
movej(p[-0.307156080365111, 0.0832697347408975, 0.547496273074553, -1.56388127981635, -0.998940947584781, 1.81030250876302], a = 0.2, v = 0.2, t = 0.2)
movej(p[-0.308017503189527, 0.0831275639050424, 0.54717837469298, -1.56594328779684, -1.00350455870194, 1.80896943803955], a = 0.2, v = 0.2, t = 0.2)
movej(p[-0.308388945001986, 0.0831538861747796, 0.547001353993418, -1.5658747793214, -1.00378198235986, 1.80880762717996], a = 0.2, v = 0.2, t = 0.2)
movej(p[-0.308516632550477, 0.0831229332821968, 0.546949247963047, -1.56554610512823, -1.00404226524518, 1.80852781866016], a = 0.2, v = 0.2, t = 0.2)
movej(p[-0.309161160438875, 0.0830032109761311, 0.546757363986364, -1.56554555431397, -1.00461947217587, 1.80825385664653], a = 0.2, v = 0.2, t = 0.2)
movej(p[-0.309663855764089, 0.0831081351788449, 0.546483658740356, -1.56478589865274, -1.00511165218763, 1.80927306895365], a = 0.2, v = 0.2, t = 0.2)
movej(p[-0.310176531653334, 0.0831534737496287, 0.546222979652996, -1.56746169715955, -1.01340852252398, 1.81064976004211], a = 0.2, v = 0.2, t = 0.2)
movej(p[-0.310506527456338, 0.0829887637602955, 0.546063835035074, -1.56746169715955, -1.01340852252398, 1.81064976004211], a = 0.2, v = 0.2, t = 0.2)
movej(p[-0.31054522728118, 0.083158401949331, 0.545943948011682, -1.57178341693188, -1.00994154277736, 1.80089999219984], a = 0.2, v = 0.2, t = 0.2)
movej(p[-0.310039973181589, 0.0834029757472368, 0.546126918698471, -1.5738423038655, -1.00802212106935, 1.7957975194554], a = 0.2, v = 0.2, t = 0.2)
movej(p[-0.307863451742758, 0.0836091916829929, 0.546965026748872, -1.57652186143275, -1.00507715874862, 1.79163641037223], a = 0.2, v = 0.2, t = 0.2)
movej(p[-0.305611946253568, 0.0835771376386645, 0.547948145760178, -1.57049815424663, -0.99862685509184, 1.79207226787075], a = 0.2, v = 0.2, t = 0.2)
movej(p[-0.303294779677707, 0.0840771645941623, 0.548688825477389, -1.55880680751737, -0.997336784369203, 1.79254179264065], a = 0.2, v = 0.2, t = 0.2)
movej(p[-0.301358477193947, 0.0842039455885745, 0.549439555362795, -1.55444237751529, -0.998369666293679, 1.79178705310208], a = 0.2, v = 0.2, t = 0.2)
movej(p[-0.299083260245215, 0.0841443506829583, 0.550440381368365, -1.5448937920685, -0.990494223848415, 1.79489202480483], a = 0.2, v = 0.2, t = 0.2)
movej(p[-0.296822403803955, 0.0843205523628429, 0.551334638165946, -1.53861187158976, -0.98966830936361, 1.80146913067589], a = 0.2, v = 0.2, t = 0.2)
movej(p[-0.296630404967772, 0.0839710033427186, 0.551594617144778, -1.53843976087913, -0.987955256256345, 1.82381046345212], a = 0.2, v = 0.2, t = 0.2)
movej(p[-0.296628278978239, 0.0839584592342671, 0.551576181160626, -1.5470007067234, -0.995199085197623, 1.83668370225377], a = 0.2, v = 0.2, t = 0.2)
movej(p[-0.299392287970256, 0.0833061013398416, 0.550695284004523, -1.55576410660257, -0.992788529087251, 1.84170080293294], a = 0.2, v = 0.2, t = 0.2)
movej(p[-0.302620055420596, 0.0829316721594064, 0.549502544881596, -1.56492583195242, -0.987923577609137, 1.82979340630753], a = 0.2, v = 0.2, t = 0.2)
movej(p[-0.305137394741626, 0.0829129424405882, 0.54841300123381, -1.56034224864992, -0.995243756950769, 1.81513030384021], a = 0.2, v = 0.2, t = 0.2)
movej(p[-0.306734243365623, 0.0831882857398584, 0.547572148934304, -1.56223195892575, -0.999450658654038, 1.81391303133148], a = 0.2, v = 0.2, t = 0.2)
movej(p[-0.307438979131224, 0.083070954372461, 0.54728834507438, -1.56439221352128, -1.00306368290394, 1.81298119165812], a = 0.2, v = 0.2, t = 0.2)
movej(p[-0.308226267329291, 0.0829284335807561, 0.547007179167634, -1.56803745411127, -1.00453532893375, 1.8090064695842], a = 0.2, v = 0.2, t = 0.2)
movej(p[-0.308818606042057, 0.0830240997832295, 0.546710360018887, -1.56783486584359, -1.00523517869201, 1.80858452184889], a = 0.2, v = 0.2, t = 0.2)
movej(p[-0.30963030761215, 0.083147367980566, 0.546280889120416, -1.56731856584095, -1.01030847164917, 1.81111605073699], a = 0.2, v = 0.2, t = 0.2)
movej(p[-0.309941321764792, 0.0830031316476041, 0.546177193184573, -1.57141154743444, -1.01289047023331, 1.81172317358875], a = 0.2, v = 0.2, t = 0.2)
movej(p[-0.310263248628992, 0.0828927962089493, 0.546124989113055, -1.57325908130117, -1.01260677481184, 1.81098769303801], a = 0.2, v = 0.2, t = 0.2)
movej(p[-0.310509225424895, 0.0829014081217607, 0.54599890889718, -1.57363747975732, -1.01236658020008, 1.81048612233205], a = 0.2, v = 0.2, t = 0.2)
movej(p[-0.310561386854687, 0.0831300543888562, 0.545837319572702, -1.57526863189412, -1.01094685294898, 1.80552836181774], a = 0.2, v = 0.2, t = 0.2)
movej(p[-0.310189703897227, 0.0832893531430819, 0.545942744550938, -1.57679105886749, -1.00767787908573, 1.80208600563103], a = 0.2, v = 0.2, t = 0.2)
movej(p[-0.309237773856898, 0.0834919888845223, 0.546254239100826, -1.57738424316959, -1.0064430973403, 1.80087932788151], a = 0.2, v = 0.2, t = 0.2)
movej(p[-0.306294946660317, 0.0835331991463368, 0.547553730010908, -1.57080204322002, -1.00039557476381, 1.79188139205175], a = 0.2, v = 0.2, t = 0.2)
movej(p[-0.303495896851133, 0.0839544316542868, 0.548544655376388, -1.56500919672019, -0.999816317671826, 1.78962604145204], a = 0.2, v = 0.2, t = 0.2)
movej(p[-0.301391359298473, 0.0839414833103014, 0.549455787112105, -1.55140631078852, -0.995166099481145, 1.80054123477517], a = 0.2, v = 0.2, t = 0.2)
movej(p[-0.299372926914893, 0.0839092842757129, 0.550340684504511, -1.5476980977803, -0.991229905906483, 1.80288752385536], a = 0.2, v = 0.2, t = 0.2)
movej(p[-0.297029276506379, 0.0840213241036442, 0.551272350334962, -1.53095584220658, -0.979708352785658, 1.81660029484154], a = 0.2, v = 0.2, t = 0.2)
movej(p[-0.295970622926741, 0.0842193638087729, 0.551526499766422, -1.52514917466059, -0.983078414517022, 1.82584317271391], a = 0.2, v = 0.2, t = 0.2)
movej(p[-0.295947857246533, 0.0841195719162168, 0.551597024882408, -1.53052219098883, -0.992735915012744, 1.85268454009344], a = 0.2, v = 0.2, t = 0.2)
movej(p[-0.298713025039766, 0.0830401324288671, 0.550962238494385, -1.54639669278133, -0.995747733055254, 1.85843735833572], a = 0.2, v = 0.2, t = 0.2)
movej(p[-0.302524355709296, 0.0827188233476526, 0.549509931260421, -1.55833994040119, -0.99322315638018, 1.84449007383994], a = 0.2, v = 0.2, t = 0.2)
movej(p[-0.305328681502589, 0.0829055775643895, 0.548258292495599, -1.55868450936679, -0.998479088287772, 1.82273695835101], a = 0.2, v = 0.2, t = 0.2)
movej(p[-0.3071032898824, 0.0830583583515794, 0.547439753193325, -1.55813286722521, -1.00386950582338, 1.8199656985877], a = 0.2, v = 0.2, t = 0.2)
movej(p[-0.307810720849352, 0.0831058232132417, 0.547071697159676, -1.56088150526926, -1.01193247090449, 1.81857540926498], a = 0.2, v = 0.2, t = 0.2)
movej(p[-0.308373548542563, 0.0829492497689414, 0.546929253366217, -1.56050414997718, -1.01776208429222, 1.82117561897669], a = 0.2, v = 0.2, t = 0.2)
movej(p[-0.308903704397257, 0.0831941329144554, 0.54657075953813, -1.55944951199208, -1.01925547209214, 1.81998404140023], a = 0.2, v = 0.2, t = 0.2)
movej(p[-0.309286236614697, 0.0832646177895593, 0.546381729791788, -1.56316114636156, -1.01892552078942, 1.81585455083065], a = 0.2, v = 0.2, t = 0.2)
movej(p[-0.309623690153923, 0.0831263343493282, 0.546294991801138, -1.5670548824812, -1.01744969995849, 1.81832374739991], a = 0.2, v = 0.2, t = 0.2)
movej(p[-0.309930779207331, 0.0830050116489547, 0.546218926265901, -1.56744268295364, -1.01712699498189, 1.81893998586011], a = 0.2, v = 0.2, t = 0.2)
movej(p[-0.310141307282218, 0.0830787235528974, 0.546119586269416, -1.56744268295364, -1.01712699498189, 1.81893998586011], a = 0.2, v = 0.2, t = 0.2)
movej(p[-0.310141307282218, 0.0830787235528974, 0.546119586269416, -1.57626220821153, -1.01163474255435, 1.80385593659901], a = 0.2, v = 0.2, t = 0.2)
movej(p[-0.308724878418134, 0.0834287495343903, 0.546535871562537, -1.57417290419443, -1.01195823014122, 1.80086113465144], a = 0.2, v = 0.2, t = 0.2)
movej(p[-0.307102649402354, 0.0835434684642802, 0.547165763360775, -1.57842256870636, -1.00786652358517, 1.79287129621201], a = 0.2, v = 0.2, t = 0.2)
movej(p[-0.30551072145554, 0.0837320033059361, 0.547752141639393, -1.56608626274005, -1.00315926069839, 1.78803623181124], a = 0.2, v = 0.2, t = 0.2)
movej(p[-0.304113854874594, 0.0839735730570174, 0.548208983352022, -1.56421426140549, -1.00252423868218, 1.78752412987941], a = 0.2, v = 0.2, t = 0.2)
movej(p[-0.302477262508567, 0.083847459557402, 0.548940609043669, -1.56148822797502, -1.00106916962985, 1.78991423798414], a = 0.2, v = 0.2, t = 0.2)
movej(p[-0.301893226754862, 0.0838203618810656, 0.549199657329383, -1.56059310139719, -0.999901296507274, 1.79041913924771], a = 0.2, v = 0.2, t = 0.2)
movej(p[-0.301438606276114, 0.0838293391106272, 0.549388496016237, -1.55991065249554, -0.998760314577058, 1.79072314809811], a = 0.2, v = 0.2, t = 0.2)
movej(p[-0.300058964090387, 0.0840613176023841, 0.549852307517522, -1.5519276250069, -0.993605114920102, 1.7975419839624], a = 0.2, v = 0.2, t = 0.2)
movej(p[-0.300026747814052, 0.0839200996305368, 0.549952109351004, -1.54595443370725, -0.996586809377941, 1.81414201955326], a = 0.2, v = 0.2, t = 0.2)
movej(p[-0.300818900036427, 0.0836012169781438, 0.54975660426005, -1.55916962433833, -0.991628104199414, 1.82227030234643], a = 0.2, v = 0.2, t = 0.2)
movej(p[-0.305744691991615, 0.0827323100682419, 0.548136483555865, -1.56116099170756, -0.995029197926763, 1.82144536665369], a = 0.2, v = 0.2, t = 0.2)
movej(p[-0.308037368059644, 0.0831788369468695, 0.546907306597998, -1.56321786112471, -1.00444663928254, 1.81795391198369], a = 0.2, v = 0.2, t = 0.2)
movej(p[-0.308891368260039, 0.0830625678613067, 0.546584182894956, -1.5655387578671, -1.00860793443645, 1.81702793358511], a = 0.2, v = 0.2, t = 0.2)
movej(p[-0.309320304029629, 0.0829739085114358, 0.54645337347157, -1.57032634588804, -1.01227745671799, 1.81324736802095], a = 0.2, v = 0.2, t = 0.2)
movej(p[-0.309689598395344, 0.0830752332919447, 0.546236381259022, -1.56981269191751, -1.01270723460731, 1.81281141574117], a = 0.2, v = 0.2, t = 0.2)
movej(p[-0.309889874203051, 0.0830009447114134, 0.546195913646669, -1.56907089775904, -1.01370528433132, 1.8139549476824], a = 0.2, v = 0.2, t = 0.2)
movej(p[-0.309993415190725, 0.0830712790439104, 0.546096386084939, -1.56789868180285, -1.01506354213991, 1.81277806782576], a = 0.2, v = 0.2, t = 0.2)
movej(p[-0.310182706841226, 0.083018852094176, 0.546049114254088, -1.56807227227134, -1.01526861079265, 1.81266819063555], a = 0.2, v = 0.2, t = 0.2)
movej(p[-0.310483694105736, 0.0830910960919713, 0.545926490351908, -1.57392246269843, -1.01941939238492, 1.81171099416847], a = 0.2, v = 0.2, t = 0.2)
movej(p[-0.310483694105736, 0.0830910960919713, 0.545926490351908, -1.57781083245528, -1.01694817432411, 1.8065794678223], a = 0.2, v = 0.2, t = 0.2)
movej(p[-0.3094550210326, 0.0832845135345524, 0.546245816879949, -1.57809790051852, -1.01096242689364, 1.80090088135334], a = 0.2, v = 0.2, t = 0.2)
movej(p[-0.308107603660181, 0.0834219015609747, 0.546748159735675, -1.57832052262822, -1.00538670747704, 1.79571388930559], a = 0.2, v = 0.2, t = 0.2)
movej(p[-0.306548815984731, 0.0836596535973102, 0.547298200290619, -1.57678620672543, -1.00451374565894, 1.78285806661989], a = 0.2, v = 0.2, t = 0.2)
movej(p[-0.305355860852114, 0.0838707129994897, 0.547672825156738, -1.57635353099579, -1.00486112823631, 1.78250074486342], a = 0.2, v = 0.2, t = 0.2)
movej(p[-0.303838217012917, 0.083929966765626, 0.548235082596482, -1.57544190431008, -1.00745383789836, 1.78454139761352], a = 0.2, v = 0.2, t = 0.2)
movej(p[-0.303400955812916, 0.083894147155594, 0.548444745274398, -1.5749777819385, -1.00774735490644, 1.78516467581496], a = 0.2, v = 0.2, t = 0.2)
movej(p[-0.301781772244759, 0.083954334267583, 0.549107380561838, -1.56594517936894, -1.00442017309316, 1.78315541384135], a = 0.2, v = 0.2, t = 0.2)
movej(p[-0.300237250956843, 0.0843316615510711, 0.549551086829889, -1.56150206085179, -1.00422420045914, 1.78480421238579], a = 0.2, v = 0.2, t = 0.2)
movej(p[-0.298624107403867, 0.0843205603651734, 0.550248044512366, -1.55414494551697, -1.00206463340686, 1.79197592402778], a = 0.2, v = 0.2, t = 0.2)
movej(p[-0.297279531073458, 0.0841831428954224, 0.550856485849482, -1.55118836896611, -0.999261463261279, 1.80927304765524], a = 0.2, v = 0.2, t = 0.2)
movej(p[-0.297279531073458, 0.0841831428954224, 0.550856485849482, -1.55039741625936, -0.999058961140038, 1.819256280559], a = 0.2, v = 0.2, t = 0.2)
movej(p[-0.298323082434418, 0.0838753589175135, 0.550588109416127, -1.55248285657358, -0.998736256930623, 1.82424482665231], a = 0.2, v = 0.2, t = 0.2)
movej(p[-0.298718411452645, 0.083879308627007, 0.550416752632944, -1.55873437406098, -0.999891119945395, 1.82675720817185], a = 0.2, v = 0.2, t = 0.2)
movej(p[-0.30091281536403, 0.0832618371413054, 0.549782047679409, -1.56612339834236, -1.00169729069591, 1.8289585028946], a = 0.2, v = 0.2, t = 0.2)
movej(p[-0.304116625839367, 0.0829615004865523, 0.548566565403958, -1.56945379649635, -1.00164580357004, 1.82532294514497], a = 0.2, v = 0.2, t = 0.2)
movej(p[-0.306579994500363, 0.0830062479470612, 0.54747310313904, -1.57116877536348, -1.00782941835337, 1.80966343034119], a = 0.2, v = 0.2, t = 0.2)
movej(p[-0.308154953264441, 0.0831476881678214, 0.546690041752299, -1.57149370709402, -1.01009245710206, 1.80701160954425], a = 0.2, v = 0.2, t = 0.2)
movej(p[-0.308891245961675, 0.0830617685938809, 0.546427031865005, -1.57176931256283, -1.01057871500856, 1.80641649840048], a = 0.2, v = 0.2, t = 0.2)
movej(p[-0.309409979204403, 0.0830474193332674, 0.546210397768869, -1.57381810237071, -1.01222988433856, 1.80375654940211], a = 0.2, v = 0.2, t = 0.2)
movej(p[-0.31007096292984, 0.0832345211500332, 0.545824008308778, -1.57582243175124, -1.01577388085244, 1.80295356465022], a = 0.2, v = 0.2, t = 0.2)
movej(p[-0.310328646883042, 0.0831812596239867, 0.545746696730694, -1.57568489887383, -1.01809675587415, 1.8065163062207], a = 0.2, v = 0.2, t = 0.2)
movej(p[-0.310551727257914, 0.0830837057191802, 0.545680670432872, -1.57629148937429, -1.0185969968579, 1.80654958311755], a = 0.2, v = 0.2, t = 0.2)
movej(p[-0.310551855463675, 0.083084267700876, 0.5456802732681, -1.58228938715359, -1.01477186010318, 1.79860231935426], a = 0.2, v = 0.2, t = 0.2)
movej(p[-0.309924547695728, 0.0833266444982792, 0.545820736011753, -1.58314392081256, -1.01443791723459, 1.79098602198798], a = 0.2, v = 0.2, t = 0.2)
movej(p[-0.308164366304784, 0.0836755898647208, 0.546352242147382, -1.58181161866812, -1.01145739650101, 1.78510152119153], a = 0.2, v = 0.2, t = 0.2)
movej(p[-0.305975278278764, 0.0838080588893409, 0.547213424945546, -1.57678887953854, -1.00530930523709, 1.78342017922005], a = 0.2, v = 0.2, t = 0.2)
movej(p[-0.303663710729466, 0.083940994432245, 0.548110284609298, -1.57001904372758, -1.00259259060473, 1.78177042668013], a = 0.2, v = 0.2, t = 0.2)
movej(p[-0.301767920516086, 0.0843142628087221, 0.548682311091179, -1.56134420228439, -0.997165341604608, 1.78316821651262], a = 0.2, v = 0.2, t = 0.2)
movej(p[-0.299941588573887, 0.0844593107282759, 0.549369778907107, -1.55316629890478, -0.992434910558466, 1.7876360890212], a = 0.2, v = 0.2, t = 0.2)
movej(p[-0.297170070987353, 0.0844908392150353, 0.550517347729468, -1.54576514840827, -0.987883923255164, 1.79389097766074], a = 0.2, v = 0.2, t = 0.2)
movej(p[-0.295195447988474, 0.0847221962410475, 0.551203285626668, -1.53647835642108, -0.984603316191368, 1.8028238745476], a = 0.2, v = 0.2, t = 0.2)
movej(p[-0.295170979003151, 0.0846149380202471, 0.551279087360342, -1.53872385548575, -0.982111083106644, 1.81317202044799], a = 0.2, v = 0.2, t = 0.2)
movej(p[-0.295874086424187, 0.0844422102903626, 0.551088568448385, -1.54771893301935, -0.982668778214791, 1.81680111028641], a = 0.2, v = 0.2, t = 0.2)
movej(p[-0.29729821826368, 0.0839061252230154, 0.550789730040029, -1.55592446904117, -0.986984880591023, 1.81523205514868], a = 0.2, v = 0.2, t = 0.2)
movej(p[-0.299601375072273, 0.083712925451199, 0.549934601924947, -1.5601337668883, -0.98882255428588, 1.81136285013378], a = 0.2, v = 0.2, t = 0.2)
movej(p[-0.302595037206785, 0.0836330511289725, 0.548712783658169, -1.56929082936772, -0.98967717849061, 1.79408856846228], a = 0.2, v = 0.2, t = 0.2)
movej(p[-0.305060886508647, 0.0833508780972536, 0.547835037151096, -1.57177810858956, -0.994426151519525, 1.78986341592986], a = 0.2, v = 0.2, t = 0.2)
movej(p[-0.306750057870924, 0.0832551909143868, 0.547163091995671, -1.57451161853414, -0.993273362465905, 1.78502448826261], a = 0.2, v = 0.2, t = 0.2)
movej(p[-0.30788185243503, 0.083315220285425, 0.546640835182147, -1.57455175946453, -0.994336313287935, 1.7841090971041], a = 0.2, v = 0.2, t = 0.2)
movej(p[-0.308658443582337, 0.0834915907255841, 0.546174178533462, -1.57751603401844, -1.00159109490893, 1.78192682875176], a = 0.2, v = 0.2, t = 0.2)
movej(p[-0.308883367579051, 0.0834221026964703, 0.546113386514971, -1.57524089000705, -1.00321332304728, 1.7850718589566], a = 0.2, v = 0.2, t = 0.2)
movej(p[-0.309099171675865, 0.0833172305539151, 0.546063384859856, -1.57652229294251, -1.00395415820752, 1.78777758379418], a = 0.2, v = 0.2, t = 0.2)
movej(p[-0.309217631216944, 0.0832709757331964, 0.546007445440055, -1.57830149183111, -1.006415870365, 1.78737708756985], a = 0.2, v = 0.2, t = 0.2)
movej(p[-0.309214645854213, 0.083257889587994, 0.546016693705466, -1.59002264450074, -1.00793145071258, 1.77813114569437], a = 0.2, v = 0.2, t = 0.2)
movej(p[-0.307757249849927, 0.0836319371101267, 0.546364738914993, -1.58879413399555, -1.00893469579103, 1.77697805173305], a = 0.2, v = 0.2, t = 0.2)
movej(p[-0.305606190343811, 0.0836884956117169, 0.547239531054332, -1.57980694893386, -1.00407660778523, 1.77114748303277], a = 0.2, v = 0.2, t = 0.2)
movej(p[-0.303337691951787, 0.0839375939152673, 0.548038655613179, -1.5701291777053, -0.994789394537639, 1.77146013508939], a = 0.2, v = 0.2, t = 0.2)
movej(p[-0.301644845899495, 0.084337668901949, 0.548462968679524, -1.56356808512174, -0.993826334129858, 1.77595669289582], a = 0.2, v = 0.2, t = 0.2)
movej(p[-0.299578913234844, 0.0843620257902325, 0.549330778916338, -1.55985230841155, -0.991245594009541, 1.77895784686189], a = 0.2, v = 0.2, t = 0.2)
movej(p[-0.297670912329945, 0.0843654998197681, 0.550133835114885, -1.55401519315558, -0.994250809681106, 1.79124232657762], a = 0.2, v = 0.2, t = 0.2)
movej(p[-0.297582248888364, 0.0839768493355652, 0.550408502923803, -1.54831995414231, -0.99642136411735, 1.81555303197068], a = 0.2, v = 0.2, t = 0.2)
movej(p[-0.298156663939734, 0.0837948188921334, 0.550336355391455, -1.55777725045614, -0.98955678465011, 1.826368033953], a = 0.2, v = 0.2, t = 0.2)
movej(p[-0.302174916064382, 0.0830122529259316, 0.549185939474795, -1.55969283352239, -0.99298366350462, 1.82563472063262], a = 0.2, v = 0.2, t = 0.2)
movej(p[-0.304072123418985, 0.0828418376859357, 0.548489333553476, -1.56654062584088, -0.996429772695611, 1.81528352187008], a = 0.2, v = 0.2, t = 0.2)
movej(p[-0.305312523666423, 0.0828438707531722, 0.547942983498297, -1.56978594936714, -0.998470748322009, 1.80413330108278], a = 0.2, v = 0.2, t = 0.2)
movej(p[-0.307115103689728, 0.082981288475872, 0.547063266476142, -1.57043097684614, -1.00706487360153, 1.79848277286159], a = 0.2, v = 0.2, t = 0.2)
movej(p[-0.307927904029004, 0.0830954987881593, 0.546606176066004, -1.57278615890352, -1.01119275009675, 1.79754753303639], a = 0.2, v = 0.2, t = 0.2)
movej(p[-0.308477780509764, 0.0829915768686666, 0.546438878036859, -1.57432414956739, -1.01380171195459, 1.80051336164368], a = 0.2, v = 0.2, t = 0.2)
movej(p[-0.308790874620009, 0.0829513042028935, 0.546336497274401, -1.57382958954762, -1.01414294183211, 1.80166541569037], a = 0.2, v = 0.2, t = 0.2)
movej(p[-0.309358555526447, 0.0830953128936485, 0.545953130471648, -1.57677347314164, -1.01934253446563, 1.80047845926549], a = 0.2, v = 0.2, t = 0.2)
movej(p[-0.309613644552555, 0.0830060845032987, 0.545909217112462, -1.5807447365905, -1.02343967209549, 1.8057153069454], a = 0.2, v = 0.2, t = 0.2)
movej(p[-0.309916331486053, 0.0829041787326712, 0.545862730187394, -1.5807447365905, -1.02343967209549, 1.8057153069454], a = 0.2, v = 0.2, t = 0.2)
movej(p[-0.309932723508407, 0.0829760321066356, 0.545811949834371, -1.58317245343211, -1.01956000140735, 1.79978527271617], a = 0.2, v = 0.2, t = 0.2)
movej(p[-0.30959946039441, 0.0830762710439756, 0.545846208151468, -1.5813938494351, -1.0179496215565, 1.79489709916334], a = 0.2, v = 0.2, t = 0.2)
movej(p[-0.307724754370929, 0.083321135583133, 0.546513012697784, -1.58247370677878, -1.01525331911008, 1.79164313376775], a = 0.2, v = 0.2, t = 0.2)
movej(p[-0.305804151268924, 0.0833179621558881, 0.547371860794905, -1.58326608185928, -1.01237537877346, 1.78961254964942], a = 0.2, v = 0.2, t = 0.2)
movej(p[-0.304035853859747, 0.0834516041918834, 0.548058574424383, -1.57266301799148, -1.00390843009049, 1.78767748783607], a = 0.2, v = 0.2, t = 0.2)
movej(p[-0.302672112284452, 0.0837905335247219, 0.548398087300657, -1.56696731404644, -1.00090646346328, 1.78662858368391], a = 0.2, v = 0.2, t = 0.2)
movej(p[-0.30137785030529, 0.0838315391196954, 0.548952347312273, -1.56210863828245, -1.00327578951502, 1.78624162770993], a = 0.2, v = 0.2, t = 0.2)
movej(p[-0.299851279831963, 0.0839246672387408, 0.549543616188005, -1.55736002629967, -0.993211067982819, 1.78939254000727], a = 0.2, v = 0.2, t = 0.2)
movej(p[-0.298689860484028, 0.0839993486434928, 0.550044941946394, -1.54238085851003, -0.994625702617383, 1.806416056115], a = 0.2, v = 0.2, t = 0.2)
movej(p[-0.298679933695071, 0.0839558352036172, 0.550075693847331, -1.5442104185951, -0.991288746748674, 1.83204422200877], a = 0.2, v = 0.2, t = 0.2)
movej(p[-0.301105582917042, 0.0831310228043057, 0.549691603222746, -1.56108237750841, -0.998819804764693, 1.83608565721387], a = 0.2, v = 0.2, t = 0.2)
movej(p[-0.30383579569818, 0.0827503243100209, 0.548861830292264, -1.56286401257849, -0.999859903192813, 1.83454950566116], a = 0.2, v = 0.2, t = 0.2)
movej(p[-0.304759449190632, 0.0826385006224987, 0.548559726040737, -1.55958001322274, -1.0030259592323, 1.82960124293881], a = 0.2, v = 0.2, t = 0.2)
movej(p[-0.306900705202506, 0.0827113612166459, 0.547554872765162, -1.56184409107932, -1.00557863690458, 1.81794464581664], a = 0.2, v = 0.2, t = 0.2)
movej(p[-0.308452565281093, 0.0828924149262907, 0.546737922851941, -1.56557755774228, -1.01610272163987, 1.81192596875385], a = 0.2, v = 0.2, t = 0.2)
movej(p[-0.309044967887482, 0.0829197278221285, 0.546427947663152, -1.56815074939368, -1.02069826981982, 1.81087866290634], a = 0.2, v = 0.2, t = 0.2)
movej(p[-0.309351088964893, 0.0828424954612839, 0.546388576882072, -1.57376864226023, -1.01889631439621, 1.81509884692041], a = 0.2, v = 0.2, t = 0.2)
movej(p[-0.309604335577253, 0.0829694814188522, 0.546186825500642, -1.57579927628444, -1.02254468959098, 1.8142728319519], a = 0.2, v = 0.2, t = 0.2)
movej(p[-0.309694219425577, 0.082940618465946, 0.546161957172189, -1.57448556735819, -1.02363364807212, 1.81225763450829], a = 0.2, v = 0.2, t = 0.2)
movej(p[-0.309700996015823, 0.0829703232127245, 0.546140964177085, -1.57414575000947, -1.01973322127266, 1.8106598487486], a = 0.2, v = 0.2, t = 0.2)
movej(p[-0.30942588652997, 0.0830657670871576, 0.54618720969175, -1.57910693709983, -1.01646207777919, 1.79759625557259], a = 0.2, v = 0.2, t = 0.2)
movej(p[-0.30784362072782, 0.0833244071844995, 0.546663171866082, -1.58127416107814, -1.01481114385285, 1.79449835962014], a = 0.2, v = 0.2, t = 0.2)
movej(p[-0.306311526073392, 0.0835431202974208, 0.547117868296803, -1.57633699245663, -1.01105655983437, 1.78338981139211], a = 0.2, v = 0.2, t = 0.2)
movej(p[-0.304825553067748, 0.0835096346137675, 0.547802877081772, -1.57484776662327, -1.00721573225056, 1.78129631096206], a = 0.2, v = 0.2, t = 0.2)
movej(p[-0.303573140747061, 0.0837226164651566, 0.54820297658186, -1.57263172938489, -1.00657138398294, 1.78063776475978], a = 0.2, v = 0.2, t = 0.2)
movej(p[-0.303112223987232, 0.0837314181459377, 0.548324498435549, -1.56812895733898, -1.00491659225904, 1.78244295335658], a = 0.2, v = 0.2, t = 0.2)
movej(p[-0.302867393896923, 0.0838620482126386, 0.548430306103291, -1.56025231945467, -1.00704916654754, 1.79189498756487], a = 0.2, v = 0.2, t = 0.2)
movej(p[-0.302770928219003, 0.0834391971280907, 0.548729144225491, -1.5641292103913, -1.00149614521795, 1.82550057988947], a = 0.2, v = 0.2, t = 0.2)
movej(p[-0.304393526848795, 0.082954449172665, 0.548567012561988, -1.56565725594333, -1.00028155043892, 1.82695135676407], a = 0.2, v = 0.2, t = 0.2)
movej(p[-0.305430167184312, 0.0828025165315114, 0.548243569727272, -1.56565725594333, -1.00028155043892, 1.82695135676407], a = 0.2, v = 0.2, t = 0.2)
movej(p[-0.306946858498193, 0.0828447836293833, 0.547533491392975, -1.5721953310167, -1.01186237836882, 1.8210437050328], a = 0.2, v = 0.2, t = 0.2)
movej(p[-0.308255404388034, 0.0827771329109099, 0.547038846960609, -1.5728590263565, -1.01178638732926, 1.81520190740526], a = 0.2, v = 0.2, t = 0.2)
movej(p[-0.308884017777486, 0.0829169699124786, 0.546618486651358, -1.57014178654528, -1.01392729520908, 1.81285682112237], a = 0.2, v = 0.2, t = 0.2)
movej(p[-0.309127553123406, 0.0830054542035842, 0.546451828331689, -1.57095057770368, -1.0153718841224, 1.81253150520133], a = 0.2, v = 0.2, t = 0.2)
movej(p[-0.30963423988989, 0.0831135292308118, 0.546115132684019, -1.57296869047894, -1.01916070284565, 1.81599046195885], a = 0.2, v = 0.2, t = 0.2)
movej(p[-0.31011823053658, 0.0829867932820917, 0.546035108230138, -1.57255589105301, -1.01942235171562, 1.81653318928131], a = 0.2, v = 0.2, t = 0.2)
movej(p[-0.310264731232758, 0.0830197024363703, 0.545962409374686, -1.57221388234598, -1.0196893912944, 1.81624981396415], a = 0.2, v = 0.2, t = 0.2)
movej(p[-0.310264731232758, 0.0830197024363703, 0.545962409374686, -1.57932148722859, -1.0198485648308, 1.80306245844089], a = 0.2, v = 0.2, t = 0.2)
movej(p[-0.309214123662724, 0.083258031304101, 0.546147150124367, -1.58156967733275, -1.01842210789546, 1.79997337010142], a = 0.2, v = 0.2, t = 0.2)
movej(p[-0.307487265740966, 0.0832813017073075, 0.546847928303534, -1.57909258236558, -1.01393710994484, 1.7969165715261], a = 0.2, v = 0.2, t = 0.2)
movej(p[-0.305393534314964, 0.083628270881912, 0.547439047934107, -1.57238401316881, -1.00981911205586, 1.79177564002018], a = 0.2, v = 0.2, t = 0.2)
movej(p[-0.303727257119515, 0.0838295108223442, 0.547955248868144, -1.57129033411807, -1.0081310053669, 1.79210587884966], a = 0.2, v = 0.2, t = 0.2)
movej(p[-0.30160415879806, 0.0839310668751368, 0.548725607236421, -1.56584658793887, -1.00915096462565, 1.79469101572632], a = 0.2, v = 0.2, t = 0.2)
movej(p[-0.299816694076489, 0.0841029217063257, 0.549297526020984, -1.55801639706384, -1.0036723581466, 1.79512856322343], a = 0.2, v = 0.2, t = 0.2)
movej(p[-0.298116378238382, 0.0844033580726937, 0.549768261254898, -1.54937152869695, -0.993360442477441, 1.8004266018475], a = 0.2, v = 0.2, t = 0.2)
movej(p[-0.296539900956251, 0.0847033740325265, 0.550145661311563, -1.54517938729795, -0.988166933798818, 1.80532918632245], a = 0.2, v = 0.2, t = 0.2)
movej(p[-0.294952744224483, 0.0845959146102648, 0.550841032990141, -1.53869971827473, -0.984279290098677, 1.82156509623587], a = 0.2, v = 0.2, t = 0.2)
movej(p[-0.294892597407265, 0.0843322649118302, 0.551027360006147, -1.54108274424853, -0.982000336481518, 1.82860203114884], a = 0.2, v = 0.2, t = 0.2)
movej(p[-0.295717090544393, 0.0840912202192426, 0.550952434089375, -1.55058882433539, -0.989811989860124, 1.82918554290217], a = 0.2, v = 0.2, t = 0.2)
movej(p[-0.297260624389351, 0.0839723269646506, 0.55041161094501, -1.55225761650904, -0.98990359350257, 1.82802133610702], a = 0.2, v = 0.2, t = 0.2)
movej(p[-0.2991489016853, 0.0837580282966711, 0.549815878602001, -1.56594449681312, -0.992940052366145, 1.81464531725955], a = 0.2, v = 0.2, t = 0.2)
movej(p[-0.301509336865607, 0.0835401204389092, 0.549040334396239, -1.57221053818521, -0.989438302500417, 1.80637273566582], a = 0.2, v = 0.2, t = 0.2)
movej(p[-0.303120377483367, 0.0835276832849287, 0.548375308738741, -1.57338346851724, -0.992748706971864, 1.78787801282301], a = 0.2, v = 0.2, t = 0.2)
movej(p[-0.303773521240766, 0.0836204329030782, 0.548002869816898, -1.57101897275807, -0.994726896022109, 1.78591086037545], a = 0.2, v = 0.2, t = 0.2)
movej(p[-0.306696696308505, 0.0835503320104789, 0.546821653440359, -1.56922511105465, -0.995858167049615, 1.78834384886043], a = 0.2, v = 0.2, t = 0.2)
movej(p[-0.308369212930596, 0.0835535029401727, 0.546139161569318, -1.56915216597311, -1.01030274680778, 1.80515936778726], a = 0.2, v = 0.2, t = 0.2)
movej(p[-0.309493797868742, 0.083693549536355, 0.545454790428933, -1.56984184042237, -1.01020522275073, 1.80551395211318], a = 0.2, v = 0.2, t = 0.2)
movej(p[-0.309819877534427, 0.0836286986933085, 0.545335923655682, -1.57024085226539, -1.00995343708446, 1.80498323874397], a = 0.2, v = 0.2, t = 0.2)
movej(p[-0.309819877534427, 0.0836286986933085, 0.545335923655682, -1.57005319705238, -1.00882388220239, 1.8015809960078], a = 0.2, v = 0.2, t = 0.2)
movej(p[-0.308402612116722, 0.0838136603899666, 0.545738863460801, -1.57018890262112, -1.00386440520274, 1.77074763734514], a = 0.2, v = 0.2, t = 0.2)
movej(p[-0.306176018993576, 0.0840309520904556, 0.546499635595448, -1.57349782098884, -0.999927976271978, 1.76419612329391], a = 0.2, v = 0.2, t = 0.2)
movej(p[-0.304118595181485, 0.0841607067010148, 0.547190623691207, -1.5729364228294, -0.998983943486161, 1.76441444429959], a = 0.2, v = 0.2, t = 0.2)
movej(p[-0.301449114773291, 0.0843030661405737, 0.548168758354858, -1.56488664693798, -0.993094901880873, 1.76725912645389], a = 0.2, v = 0.2, t = 0.2)
movej(p[-0.298934524471448, 0.0844598915011787, 0.549071074075739, -1.55932921910951, -0.985533116414921, 1.76981453285408], a = 0.2, v = 0.2, t = 0.2)
movej(p[-0.296732423061192, 0.0847609085463394, 0.549652253469277, -1.5506446507924, -0.979702485766811, 1.77255500863235], a = 0.2, v = 0.2, t = 0.2)
movej(p[-0.294589075087953, 0.0847824289905517, 0.550496171561329, -1.54537251537353, -0.977940728428579, 1.77763939722145], a = 0.2, v = 0.2, t = 0.2)
movej(p[-0.293516330498422, 0.0847772475242227, 0.550928979518786, -1.53459484148723, -0.980424454486335, 1.79465033945552], a = 0.2, v = 0.2, t = 0.2)
movej(p[-0.293347316646425, 0.084469179289053, 0.551298782561381, -1.54318878468211, -0.972987791237115, 1.80844049144983], a = 0.2, v = 0.2, t = 0.2)
movej(p[-0.293336236005616, 0.0844206080139151, 0.551333108945268, -1.54444879457627, -0.974560337439161, 1.81582860912683], a = 0.2, v = 0.2, t = 0.2)
movej(p[-0.294058905893962, 0.0842894894862039, 0.551274227163967, -1.55227372581131, -0.98057051245378, 1.82210901628695], a = 0.2, v = 0.2, t = 0.2)
movej(p[-0.295363910176056, 0.0838842158115404, 0.551078849011807, -1.55670687420352, -0.985088017447576, 1.82197383064024], a = 0.2, v = 0.2, t = 0.2)
movej(p[-0.297119918835945, 0.0836053961680238, 0.550635705205819, -1.56360858571051, -0.98405445338686, 1.81397821151382], a = 0.2, v = 0.2, t = 0.2)
movej(p[-0.298382529847567, 0.0836289071318831, 0.550084087142384, -1.56865526682817, -0.989402909908526, 1.80682072375232], a = 0.2, v = 0.2, t = 0.2)
movej(p[-0.298910628075087, 0.0836307408146058, 0.549846492382975, -1.57071983282214, -0.989822286990669, 1.8038537481974], a = 0.2, v = 0.2, t = 0.2)
movej(p[-0.303115476157569, 0.0833923783961621, 0.54832274302671, -1.57565065656376, -0.997578532512804, 1.79797171826644], a = 0.2, v = 0.2, t = 0.2)
movej(p[-0.306037205873935, 0.0831518756909456, 0.547401373457379, -1.57638864111893, -0.99886560928081, 1.79768726824126], a = 0.2, v = 0.2, t = 0.2)
movej(p[-0.308164486032268, 0.0833991639368872, 0.546190266648967, -1.56813325939674, -1.00720848013886, 1.81093214310073], a = 0.2, v = 0.2, t = 0.2)
movej(p[-0.308756271616771, 0.0833286685826126, 0.546012766572912, -1.5684717264714, -1.00761571654126, 1.81090591052236], a = 0.2, v = 0.2, t = 0.2)
movej(p[-0.309284897194384, 0.0832758164808901, 0.545847069427383, -1.56886988083831, -1.00797861333311, 1.81241374184644], a = 0.2, v = 0.2, t = 0.2)
movej(p[-0.309544489820993, 0.0833072720422102, 0.545711530518311, -1.56893781841137, -1.00804913852412, 1.8128490149603], a = 0.2, v = 0.2, t = 0.2)
movej(p[-0.309544489820993, 0.0833072720422102, 0.545711530518311, -1.56893781841137, -1.00804913852412, 1.8128490149603], a = 0.2, v = 0.2, t = 0.2)
movej(p[-0.309257955524958, 0.0832191627905291, 0.54594838149881, -1.5752720636063, -1.00625713815275, 1.80110763122845], a = 0.2, v = 0.2, t = 0.2)
movej(p[-0.30772031987226, 0.0832136249757061, 0.546598096976662, -1.58116835291642, -1.00289180320945, 1.78791193823285], a = 0.2, v = 0.2, t = 0.2)
movej(p[-0.305986834212864, 0.0832306264517939, 0.547291390261268, -1.57476171782615, -1.00381267892491, 1.78415528613366], a = 0.2, v = 0.2, t = 0.2)
movej(p[-0.304138260059261, 0.08362917431544, 0.547551354776182, -1.56106883584235, -1.00240490271636, 1.77887375953631], a = 0.2, v = 0.2, t = 0.2)
movej(p[-0.301822779917709, 0.0837725864426483, 0.548337167410243, -1.54963183274315, -0.995361407004329, 1.78852330416065], a = 0.2, v = 0.2, t = 0.2)
movej(p[-0.299306569218324, 0.0838822054760053, 0.549263284748287, -1.54410023409071, -0.989150056561572, 1.79424545767062], a = 0.2, v = 0.2, t = 0.2)
movej(p[-0.296881876721137, 0.0840783156144476, 0.550024255462364, -1.54630091954843, -0.984254178195854, 1.80179275528861], a = 0.2, v = 0.2, t = 0.2)
movej(p[-0.295328175342269, 0.0839799616732252, 0.550842010307992, -1.53910838758387, -0.984288023279957, 1.81755837273715], a = 0.2, v = 0.2, t = 0.2)
movej(p[-0.295328120396942, 0.083979720823927, 0.550842180521466, -1.53204614600511, -0.988370356873902, 1.82960197389354], a = 0.2, v = 0.2, t = 0.2)
movej(p[-0.29786895031569, 0.0832862456879579, 0.550680581852574, -1.54411513018817, -0.985500475925286, 1.83621170430735], a = 0.2, v = 0.2, t = 0.2)
movej(p[-0.301340733216627, 0.0828685750211125, 0.549771738157089, -1.55215723655153, -0.992930523249694, 1.83165266170287], a = 0.2, v = 0.2, t = 0.2)
movej(p[-0.303976595729723, 0.0829629782345103, 0.548552182961391, -1.55804102107228, -0.996120067970512, 1.82929207870577], a = 0.2, v = 0.2, t = 0.2)
movej(p[-0.30479044339868, 0.0829786958568903, 0.548183250382076, -1.56429141379646, -0.996077226487423, 1.83210369723776], a = 0.2, v = 0.2, t = 0.2)
movej(p[-0.307243238314993, 0.0827166205092555, 0.547543870643056, -1.56456166454758, -0.996287021211288, 1.83189120105742], a = 0.2, v = 0.2, t = 0.2)
movej(p[-0.307965714147191, 0.0828224756903498, 0.547176754091365, -1.56428498465873, -1.00467952216621, 1.81522775339221], a = 0.2, v = 0.2, t = 0.2)
movej(p[-0.309029603080337, 0.0831226542879172, 0.546327488357043, -1.56516437787291, -1.00524138753766, 1.8144905864547], a = 0.2, v = 0.2, t = 0.2)
movej(p[-0.309323853894195, 0.0831293101203077, 0.546188667146709, -1.56608112753795, -1.00565715793169, 1.81379660123728], a = 0.2, v = 0.2, t = 0.2)
movej(p[-0.309414462358786, 0.0831268653709807, 0.546121925635299, -1.56640737966601, -1.00579920148745, 1.8135218297152], a = 0.2, v = 0.2, t = 0.2)
movej(p[-0.309797331933871, 0.0830730929163706, 0.546086416318224, -1.56685155232693, -1.00588855510974, 1.81307411564559], a = 0.2, v = 0.2, t = 0.2)
movej(p[-0.310014815297105, 0.0831412022443425, 0.545859958206955, -1.56670866784237, -1.00606016261023, 1.81214865483221], a = 0.2, v = 0.2, t = 0.2)
movej(p[-0.310014815297105, 0.0831412022443425, 0.545859958206955, -1.5665859365422, -1.0061280545466, 1.81160036002173], a = 0.2, v = 0.2, t = 0.2)
movej(p[-0.309124278377642, 0.0831648391263589, 0.546194432814183, -1.56801591451205, -1.00513326342929, 1.80953300584566], a = 0.2, v = 0.2, t = 0.2)
movej(p[-0.307284042565069, 0.0831820903710275, 0.546963776098212, -1.57070900567589, -1.0035173928996, 1.80477307907464], a = 0.2, v = 0.2, t = 0.2)
movej(p[-0.305533550818079, 0.0831626143720369, 0.547735852926764, -1.57756376182573, -1.00611181053739, 1.79834555517246], a = 0.2, v = 0.2, t = 0.2)
movej(p[-0.303930879756951, 0.0834438022551907, 0.548006246444047, -1.57884323473903, -1.00529546932685, 1.79663041081198], a = 0.2, v = 0.2, t = 0.2)
movej(p[-0.302077359176934, 0.0833721237339702, 0.548919887308419, -1.57335579774195, -0.998221798698563, 1.7975717674027], a = 0.2, v = 0.2, t = 0.2)
movej(p[-0.29995114326472, 0.0835684787841894, 0.549600951775926, -1.55136344017608, -0.999086952319753, 1.79463428039691], a = 0.2, v = 0.2, t = 0.2)
movej(p[-0.298609689772856, 0.0838481422311146, 0.549677503559823, -1.54118797624036, -1.00138790798086, 1.80669457033822], a = 0.2, v = 0.2, t = 0.2)
movej(p[-0.298551324912401, 0.0836249564495967, 0.550111658290296, -1.5475938084533, -0.994435794387075, 1.8373385672506], a = 0.2, v = 0.2, t = 0.2)
movej(p[-0.299168851578011, 0.0834958398481239, 0.550128299518761, -1.54891790031254, -0.996835721867152, 1.83682240963981], a = 0.2, v = 0.2, t = 0.2)
movej(p[-0.302180912770446, 0.0829799525981404, 0.549520577963826, -1.5549348047507, -1.00031161261062, 1.83345249848119], a = 0.2, v = 0.2, t = 0.2)
