def moving():
set_payload_mass(0)
set_tcp(p[0,0,0,0,0,0])
movej(p[-0.3138, 0.0809, 0.5452, -1.569, -1.043, 1.796], a = 0.2, v = 0.2, t = 0.2)
movej(p[-0.313862827695609, 0.0809579123034681, 0.545214101268433, -1.56852275706417, -1.04195420047293, 1.79764097572967], a = 0.2, v = 0.2, t = 0.2)
movej(p[-0.3138, 0.0809, 0.5452, -1.569, -1.043, 1.796], a = 0.2, v = 0.2, t = 0.2)
movej(p[-0.313862827695609, 0.0809579123034681, 0.545214101268433, -1.56852275706417, -1.04195420047293, 1.79764097572967], a = 0.2, v = 0.2, t = 0.2)
movej(p[-0.3138, 0.0809, 0.5452, -1.569, -1.043, 1.796], a = 0.2, v = 0.2, t = 0.2)
movej(p[-0.3138, 0.0809, 0.5452, -1.569, -1.043, 1.796], a = 0.2, v = 0.2, t = 0.2)
movej(p[-0.313935552020683, 0.0808909815321426, 0.545185523228047, -1.56921018959243, -1.04283694642213, 1.79622854386024], a = 0.2, v = 0.2, t = 0.2)
movej(p[-0.314071201890624, 0.0808819426053086, 0.545171049092955, -1.56942037906131, -1.04267386715103, 1.79645707805037], a = 0.2, v = 0.2, t = 0.2)
movej(p[-0.314080106173079, 0.0808800808384358, 0.545171289047287, -1.56965417571749, -1.04249358314466, 1.79665415431259], a = 0.2, v = 0.2, t = 0.2)
movej(p[-0.31408151320548, 0.0808944116803835, 0.545230267240112, -1.56972274491814, -1.04244455421479, 1.79665651893434], a = 0.2, v = 0.2, t = 0.2)
movej(p[-0.313505161175996, 0.0810302957200664, 0.54570267241141, -1.57645036007661, -1.04451690635993, 1.79667510477444], a = 0.2, v = 0.2, t = 0.2)
movej(p[-0.313505161175996, 0.0810302957200664, 0.54570267241141, -1.57687517027783, -1.04420747005262, 1.79675155915517], a = 0.2, v = 0.2, t = 0.2)
movej(p[-0.313702166280702, 0.0810043440806956, 0.545620094199189, -1.57686897800232, -1.0441964305649, 1.79675421890611], a = 0.2, v = 0.2, t = 0.2)
movej(p[-0.313701121703384, 0.080996180343297, 0.545595515504148, -1.57470053045524, -1.04247359392211, 1.79724901382123], a = 0.2, v = 0.2, t = 0.2)
movej(p[-0.313696870647453, 0.0809687638283101, 0.545540544391467, -1.57170917316399, -1.03975393420545, 1.79819423845474], a = 0.2, v = 0.2, t = 0.2)
movej(p[-0.313972482756294, 0.0808606257309956, 0.5453013072343, -1.567717713163, -1.03771761483452, 1.79761220449807], a = 0.2, v = 0.2, t = 0.2)
movej(p[-0.314654120001968, 0.0808781706336734, 0.545210764803916, -1.56708608281088, -1.03820567625944, 1.79708200516808], a = 0.2, v = 0.2, t = 0.2)
movej(p[-0.314816048982299, 0.0809088834487229, 0.545242515525496, -1.56683112458707, -1.03819697128613, 1.79718632858674], a = 0.2, v = 0.2, t = 0.2)
movej(p[-0.314833745953035, 0.0809217142256573, 0.545254222292343, -1.56508755965541, -1.03862960145248, 1.79612657636473], a = 0.2, v = 0.2, t = 0.2)
movej(p[-0.31483302931905, 0.0809123144276666, 0.545238222910059, -1.5639776966197, -1.03731008578788, 1.79627826617213], a = 0.2, v = 0.2, t = 0.2)
movej(p[-0.315102215978442, 0.0809409455589382, 0.545210177754899, -1.56311028480016, -1.03723990972399, 1.79569811121739], a = 0.2, v = 0.2, t = 0.2)
movej(p[-0.315178542762738, 0.0809852747067236, 0.545232329022481, -1.56378942538301, -1.03623829470824, 1.79608847395336], a = 0.2, v = 0.2, t = 0.2)
movej(p[-0.315179880997221, 0.0809931707749899, 0.545243933816077, -1.5651642705483, -1.03527293368276, 1.79588601305365], a = 0.2, v = 0.2, t = 0.2)
movej(p[-0.315126363019598, 0.0809895568634799, 0.54525256432676, -1.56561253883716, -1.03575132488226, 1.79585205857272], a = 0.2, v = 0.2, t = 0.2)
movej(p[-0.314550976839858, 0.0810844457690949, 0.545522749429526, -1.57087881226167, -1.04014987567363, 1.79708001395172], a = 0.2, v = 0.2, t = 0.2)
movej(p[-0.31289410564777, 0.0813283873605498, 0.546267730598943, -1.58272425996825, -1.04739992179552, 1.79907009811375], a = 0.2, v = 0.2, t = 0.2)
movej(p[-0.311303528424089, 0.0813734768099159, 0.546790808917231, -1.59423976044279, -1.04505003646147, 1.80560101705911], a = 0.2, v = 0.2, t = 0.2)
movej(p[-0.309292793593596, 0.0818367999982084, 0.547840552978719, -1.60273768062846, -1.04215872652576, 1.80796911875209], a = 0.2, v = 0.2, t = 0.2)
movej(p[-0.305014245447909, 0.0822561154303656, 0.549585629892039, -1.63106982169294, -1.03582875516523, 1.81916147942931], a = 0.2, v = 0.2, t = 0.2)
movej(p[-0.302627965090252, 0.0826538275005261, 0.550686387169511, -1.63569903546897, -1.03213465722506, 1.82272581543082], a = 0.2, v = 0.2, t = 0.2)
movej(p[-0.302630053115687, 0.0826661476070409, 0.550704493939661, -1.63829507210564, -1.03002900765195, 1.81921036999776], a = 0.2, v = 0.2, t = 0.2)
movej(p[-0.303549162805084, 0.0828497047490978, 0.550473609694951, -1.63429651315142, -1.02598039256257, 1.81923685743233], a = 0.2, v = 0.2, t = 0.2)
movej(p[-0.305757658482925, 0.0822145287154835, 0.549288596653976, -1.6205569431849, -1.02365375533766, 1.81650837321946], a = 0.2, v = 0.2, t = 0.2)
movej(p[-0.308059674776229, 0.0817001713585861, 0.548172189311304, -1.60253559861446, -1.0322003876845, 1.80678215578462], a = 0.2, v = 0.2, t = 0.2)
movej(p[-0.310110409123001, 0.0812849123926502, 0.54720565852536, -1.58902954061959, -1.03224432320158, 1.80197825004733], a = 0.2, v = 0.2, t = 0.2)
movej(p[-0.311966964128907, 0.0810787811039483, 0.546413138682162, -1.58028421779035, -1.03331051171278, 1.7987431792902], a = 0.2, v = 0.2, t = 0.2)
movej(p[-0.312722192714363, 0.0810790156984328, 0.546119700002578, -1.57424119678827, -1.03710842262139, 1.79672133124674], a = 0.2, v = 0.2, t = 0.2)
movej(p[-0.313300476638571, 0.0809682303069078, 0.545857566906563, -1.57418220968068, -1.03700368801452, 1.79674630174714], a = 0.2, v = 0.2, t = 0.2)
movej(p[-0.313971580093723, 0.080971172381581, 0.545600904469342, -1.57118831341649, -1.03489200710609, 1.79668643859398], a = 0.2, v = 0.2, t = 0.2)
movej(p[-0.31444173228785, 0.0809836772225555, 0.545408172652276, -1.56838413765907, -1.0369944031038, 1.79535571843678], a = 0.2, v = 0.2, t = 0.2)
movej(p[-0.314657638499554, 0.0809344084794878, 0.545304166168322, -1.56757667974107, -1.03692134896702, 1.79619571997006], a = 0.2, v = 0.2, t = 0.2)
movej(p[-0.314854341298892, 0.0810686551996094, 0.545190139518503, -1.56723335793963, -1.03997380005397, 1.79767435845857], a = 0.2, v = 0.2, t = 0.2)
movej(p[-0.314858754625378, 0.0810946954247432, 0.545228410646319, -1.57017567563336, -1.03959569074933, 1.79949608508922], a = 0.2, v = 0.2, t = 0.2)
movej(p[-0.314541804651613, 0.0810285014734207, 0.54536078743786, -1.57081035441699, -1.04001003243719, 1.79958100745641], a = 0.2, v = 0.2, t = 0.2)
movej(p[-0.313367243595409, 0.0812678507100241, 0.54586774175354, -1.57869626577004, -1.03972377370739, 1.80203544255747], a = 0.2, v = 0.2, t = 0.2)
movej(p[-0.311771093913447, 0.0813429643496734, 0.546580259391153, -1.59119201471481, -1.03787441847052, 1.80872555414544], a = 0.2, v = 0.2, t = 0.2)
movej(p[-0.310955118137102, 0.0814840096851671, 0.546936086773116, -1.60064642965116, -1.03638036833063, 1.81386221656843], a = 0.2, v = 0.2, t = 0.2)
movej(p[-0.3083927697509, 0.0818494022861483, 0.548084970459516, -1.60721946318307, -1.03787876723644, 1.81119907895727], a = 0.2, v = 0.2, t = 0.2)
movej(p[-0.306076127201165, 0.0820590882970265, 0.549139904852545, -1.6242564360928, -1.03327676186294, 1.8205330600957], a = 0.2, v = 0.2, t = 0.2)
movej(p[-0.303531216701539, 0.0825514907517277, 0.550259286553083, -1.63612901152363, -1.03594433862553, 1.8249223628759], a = 0.2, v = 0.2, t = 0.2)
movej(p[-0.303531216701539, 0.0825514907517277, 0.550259286553083, -1.63561324694785, -1.03630056938433, 1.82559443662012], a = 0.2, v = 0.2, t = 0.2)
movej(p[-0.304484028233288, 0.0824081440051245, 0.549863122716768, -1.6278204428129, -1.03207877887538, 1.82388330946866], a = 0.2, v = 0.2, t = 0.2)
movej(p[-0.307578660434213, 0.0818911194741661, 0.548499661798594, -1.60107521313333, -1.04019179352467, 1.80345992213645], a = 0.2, v = 0.2, t = 0.2)
movej(p[-0.309393412572999, 0.0814744105439586, 0.547745891241822, -1.59805497610101, -1.03290673615006, 1.8023013745823], a = 0.2, v = 0.2, t = 0.2)
movej(p[-0.310996891908036, 0.0814041699948702, 0.546962265312328, -1.59365014706338, -1.03014912671185, 1.80128563876821], a = 0.2, v = 0.2, t = 0.2)
movej(p[-0.312116184752847, 0.0812293551262674, 0.546481198062072, -1.5849307412296, -1.02950489333271, 1.79794133045632], a = 0.2, v = 0.2, t = 0.2)
movej(p[-0.313201031647632, 0.0811474409828302, 0.5459436865757, -1.57283478659543, -1.03836188998075, 1.79632581420789], a = 0.2, v = 0.2, t = 0.2)
movej(p[-0.313698223500022, 0.0810627534563774, 0.545730374656719, -1.56790735714763, -1.04242610611891, 1.79468790181211], a = 0.2, v = 0.2, t = 0.2)
movej(p[-0.314068755101761, 0.0810019132171419, 0.545570726019385, -1.56790735714763, -1.04242610611891, 1.79468790181211], a = 0.2, v = 0.2, t = 0.2)
movej(p[-0.314318358677356, 0.080962348202658, 0.545444445440201, -1.56993319329785, -1.03957389018572, 1.79623152559232], a = 0.2, v = 0.2, t = 0.2)
movej(p[-0.314348359952556, 0.0809806637020374, 0.545421355053265, -1.57035765859086, -1.03853739966534, 1.79539941827595], a = 0.2, v = 0.2, t = 0.2)
movej(p[-0.314400110327516, 0.0809744737051811, 0.545398457834428, -1.57058587795651, -1.03670598012573, 1.79253569598612], a = 0.2, v = 0.2, t = 0.2)
movej(p[-0.314400110327516, 0.0809744737051811, 0.545398457834428, -1.5706607095326, -1.03665930002229, 1.79243817631319], a = 0.2, v = 0.2, t = 0.2)
movej(p[-0.313521378075307, 0.0810266863227009, 0.545842741945668, -1.58168432903685, -1.03723130685412, 1.79224848651439], a = 0.2, v = 0.2, t = 0.2)
movej(p[-0.310811858827139, 0.0811646461909264, 0.547187888795854, -1.59322467803078, -1.04024948511936, 1.79605412190932], a = 0.2, v = 0.2, t = 0.2)
movej(p[-0.308860141291534, 0.0814911247732244, 0.548046307211612, -1.60392077544603, -1.04254784303305, 1.80008799846974], a = 0.2, v = 0.2, t = 0.2)
movej(p[-0.306507375834882, 0.0818741132007459, 0.549158199378312, -1.62077089353232, -1.03177169041972, 1.81412732818484], a = 0.2, v = 0.2, t = 0.2)
movej(p[-0.304059258642151, 0.0822075724466197, 0.550303001977889, -1.62982511108068, -1.03025042886008, 1.8237944895904], a = 0.2, v = 0.2, t = 0.2)
movej(p[-0.302352472216956, 0.0826418254325069, 0.551005411646827, -1.62962135487638, -1.03358222212179, 1.82520597188018], a = 0.2, v = 0.2, t = 0.2)
movej(p[-0.302352472216956, 0.0826418254325069, 0.551005411646827, -1.62610908422573, -1.03638636377856, 1.82218980457609], a = 0.2, v = 0.2, t = 0.2)
movej(p[-0.30345948926243, 0.0825121299629464, 0.550537342649555, -1.61741140822972, -1.03881516023005, 1.81608003419499], a = 0.2, v = 0.2, t = 0.2)
movej(p[-0.306057596769156, 0.0820456701634704, 0.549404866787135, -1.61016356995142, -1.0336947701374, 1.81468996814609], a = 0.2, v = 0.2, t = 0.2)
movej(p[-0.308847380065002, 0.0816718704492567, 0.548075337225271, -1.59766291262962, -1.03669324192282, 1.8036842289123], a = 0.2, v = 0.2, t = 0.2)
movej(p[-0.31128012993066, 0.0813802537385375, 0.546896303389805, -1.5879628823437, -1.03735407563152, 1.79887530985378], a = 0.2, v = 0.2, t = 0.2)
movej(p[-0.312210936165057, 0.0812982225580847, 0.546389271261196, -1.57761772153587, -1.04540653074254, 1.79023424202279], a = 0.2, v = 0.2, t = 0.2)
movej(p[-0.313081499448795, 0.0812496456809172, 0.545889508691558, -1.57618184869058, -1.04651902084845, 1.78901592081083], a = 0.2, v = 0.2, t = 0.2)
movej(p[-0.313642991792804, 0.0811736289638239, 0.545621450048084, -1.57067221336939, -1.04386653314268, 1.78783105858228], a = 0.2, v = 0.2, t = 0.2)
movej(p[-0.313966450486297, 0.0810898205020634, 0.545502054883437, -1.56912100791556, -1.043876696835, 1.78949601677537], a = 0.2, v = 0.2, t = 0.2)
movej(p[-0.314528640089803, 0.0810316328728226, 0.545202344423971, -1.56809331644678, -1.04271705791561, 1.79017667311699], a = 0.2, v = 0.2, t = 0.2)
movej(p[-0.314528640089803, 0.0810316328728226, 0.545202344423971, -1.57046501868817, -1.04088350436564, 1.79217605934594], a = 0.2, v = 0.2, t = 0.2)
movej(p[-0.314298311685735, 0.0809959731960221, 0.545394960917891, -1.57422931401258, -1.03847309693397, 1.79068011692415], a = 0.2, v = 0.2, t = 0.2)
movej(p[-0.313805186179295, 0.0810049611062712, 0.545708154631697, -1.57873750398076, -1.03821898118241, 1.79198771645002], a = 0.2, v = 0.2, t = 0.2)
movej(p[-0.313190228143181, 0.0810264768025878, 0.546077296797577, -1.58490623113338, -1.03534519695917, 1.79340039662274], a = 0.2, v = 0.2, t = 0.2)
movej(p[-0.311051171984114, 0.0812757502902127, 0.547163792488651, -1.59648697360261, -1.03822079464928, 1.79730109824365], a = 0.2, v = 0.2, t = 0.2)
movej(p[-0.309157155855382, 0.0815204730173437, 0.548128898006679, -1.60667562686652, -1.04043466539932, 1.7981170208071], a = 0.2, v = 0.2, t = 0.2)
movej(p[-0.306931596438378, 0.0818722033389818, 0.549143505774356, -1.61827039593528, -1.03459648240538, 1.80816072243382], a = 0.2, v = 0.2, t = 0.2)
movej(p[-0.304474668289304, 0.0823228199326283, 0.550166597351789, -1.62991953998358, -1.02887872897559, 1.81639942671944], a = 0.2, v = 0.2, t = 0.2)
movej(p[-0.303443409378537, 0.0825460079436827, 0.550543605217337, -1.63423210791388, -1.02909695588449, 1.81996198676211], a = 0.2, v = 0.2, t = 0.2)
movej(p[-0.303443409378537, 0.0825460079436827, 0.550543605217337, -1.63293931915001, -1.02998798919505, 1.82165872205782], a = 0.2, v = 0.2, t = 0.2)
movej(p[-0.306585835113135, 0.0820215424420836, 0.549226109395648, -1.61230330242439, -1.03147212314689, 1.815596185198], a = 0.2, v = 0.2, t = 0.2)
movej(p[-0.308563789473631, 0.0818034696958722, 0.548155551842243, -1.59586747324538, -1.04189161946892, 1.8055075006081], a = 0.2, v = 0.2, t = 0.2)
movej(p[-0.310547261134184, 0.081563449222927, 0.547089206971035, -1.58630047199752, -1.04441251761941, 1.79981108028747], a = 0.2, v = 0.2, t = 0.2)
movej(p[-0.311919519838125, 0.081415451477501, 0.54637154374444, -1.57900482954955, -1.04478539644359, 1.79469287258125], a = 0.2, v = 0.2, t = 0.2)
movej(p[-0.312808302934727, 0.0813359517391094, 0.54583179223792, -1.57853062087765, -1.04121550568205, 1.7935409760634], a = 0.2, v = 0.2, t = 0.2)
movej(p[-0.313907854559752, 0.0811052409032114, 0.545505488339531, -1.57158303180498, -1.04257951430052, 1.78968195509232], a = 0.2, v = 0.2, t = 0.2)
movej(p[-0.314207920311574, 0.0810775561578036, 0.5453243590778, -1.56820743518507, -1.04388717337855, 1.79146987490255], a = 0.2, v = 0.2, t = 0.2)
movej(p[-0.314326605791229, 0.0810302834779366, 0.545278684789003, -1.56689344808686, -1.04156257864561, 1.79203610422356], a = 0.2, v = 0.2, t = 0.2)
movej(p[-0.314397155106061, 0.0810155325557909, 0.545280585965635, -1.56636109912775, -1.04192276318247, 1.79229696457265], a = 0.2, v = 0.2, t = 0.2)
movej(p[-0.314393185499076, 0.0810015009814862, 0.54531902236951, -1.56797141250319, -1.04128900279317, 1.79140870004927], a = 0.2, v = 0.2, t = 0.2)
movej(p[-0.31435618794804, 0.0809072917904627, 0.545642421796758, -1.57031805000449, -1.04543890025775, 1.79039708286376], a = 0.2, v = 0.2, t = 0.2)
movej(p[-0.313174831486458, 0.0810200700579024, 0.546318293968897, -1.58559198754993, -1.04082136047922, 1.78844159396466], a = 0.2, v = 0.2, t = 0.2)
movej(p[-0.311349006830519, 0.0812765964650945, 0.547127534685974, -1.59774840453115, -1.0383634324055, 1.79286200949231], a = 0.2, v = 0.2, t = 0.2)
movej(p[-0.309629742809416, 0.0815105376391949, 0.547956135629012, -1.61294260425276, -1.0373307401736, 1.79892567229677], a = 0.2, v = 0.2, t = 0.2)
movej(p[-0.30742063882782, 0.0818508593530966, 0.548904922485763, -1.62059399793558, -1.03736505023436, 1.80248937044558], a = 0.2, v = 0.2, t = 0.2)
movej(p[-0.305039582786318, 0.0822263070381826, 0.54983627302288, -1.62731667532547, -1.03681875291454, 1.8116165523077], a = 0.2, v = 0.2, t = 0.2)
movej(p[-0.304745345947538, 0.082310890227579, 0.54989746008668, -1.62495236841207, -1.03841143146067, 1.81492426136024], a = 0.2, v = 0.2, t = 0.2)
movej(p[-0.304745345947538, 0.082310890227579, 0.54989746008668, -1.62284210346392, -1.03150100482642, 1.81725238595617], a = 0.2, v = 0.2, t = 0.2)
movej(p[-0.306621979934974, 0.0820519399826453, 0.549038446316216, -1.61774655364782, -1.02221785798602, 1.81928414363791], a = 0.2, v = 0.2, t = 0.2)
movej(p[-0.308547914461734, 0.0818158139866096, 0.54800609749308, -1.59919544680706, -1.0342531692494, 1.81005984539453], a = 0.2, v = 0.2, t = 0.2)
movej(p[-0.310434592997537, 0.0815844867011633, 0.546981085532393, -1.58537042948582, -1.04002242303591, 1.80275127578533], a = 0.2, v = 0.2, t = 0.2)
movej(p[-0.31252611455701, 0.0812984317810932, 0.545985119770452, -1.57469432297083, -1.04559774878484, 1.79505544614784], a = 0.2, v = 0.2, t = 0.2)
movej(p[-0.313116173042432, 0.0812273097533744, 0.54559379508307, -1.57097340988458, -1.04722142826987, 1.79253041981367], a = 0.2, v = 0.2, t = 0.2)
movej(p[-0.313593793285934, 0.0811510071034576, 0.545436084656613, -1.56390026663876, -1.05242850859726, 1.78967480812146], a = 0.2, v = 0.2, t = 0.2)
movej(p[-0.313991112434286, 0.0810843766299609, 0.545325887313839, -1.5629961027602, -1.05299583472044, 1.7889714613253], a = 0.2, v = 0.2, t = 0.2)
movej(p[-0.314328075820322, 0.0810183626228808, 0.545302300085512, -1.56237738635533, -1.05036579830143, 1.78870084467205], a = 0.2, v = 0.2, t = 0.2)
movej(p[-0.314634735394086, 0.0809542441901419, 0.545310564007237, -1.56269761181486, -1.0490500443267, 1.78791955560952], a = 0.2, v = 0.2, t = 0.2)
movej(p[-0.314637735574265, 0.0809476969263003, 0.54533046808358, -1.56435072071206, -1.04778247057068, 1.78931622960607], a = 0.2, v = 0.2, t = 0.2)
movej(p[-0.314630863775855, 0.0809432912259763, 0.545369250659452, -1.5641627306623, -1.04787495993544, 1.78988455942363], a = 0.2, v = 0.2, t = 0.2)
movej(p[-0.314364477239422, 0.0809707050363732, 0.545599290625994, -1.5646576191802, -1.047560942569, 1.7902693910147], a = 0.2, v = 0.2, t = 0.2)
movej(p[-0.313266059381389, 0.0810769287417726, 0.546358754458948, -1.58167908014025, -1.04615780213475, 1.78958115344808], a = 0.2, v = 0.2, t = 0.2)
movej(p[-0.312339309648664, 0.0811920774041069, 0.546968417758202, -1.59282688901938, -1.04812483536182, 1.78739098461271], a = 0.2, v = 0.2, t = 0.2)
movej(p[-0.31041863929243, 0.081466249690909, 0.547782056891869, -1.60800916935472, -1.04520923123452, 1.79324705416362], a = 0.2, v = 0.2, t = 0.2)
movej(p[-0.308828330793055, 0.0816856012471569, 0.548486764023653, -1.61522253337164, -1.04616930191622, 1.79614929554415], a = 0.2, v = 0.2, t = 0.2)
movej(p[-0.308441816501899, 0.0817366678797061, 0.548712376061834, -1.61843442118221, -1.04511040396431, 1.79818509370014], a = 0.2, v = 0.2, t = 0.2)
movej(p[-0.30698866807507, 0.081948613100555, 0.54924167107689, -1.62289032241053, -1.0435654687268, 1.80188017719988], a = 0.2, v = 0.2, t = 0.2)
movej(p[-0.304476903488331, 0.0823075897802528, 0.550382647476399, -1.63501888955842, -1.03376181466619, 1.8138774488411], a = 0.2, v = 0.2, t = 0.2)
movej(p[-0.304476903488331, 0.0823075897802528, 0.550382647476399, -1.62905467031262, -1.03072058587123, 1.81911008783262], a = 0.2, v = 0.2, t = 0.2)
movej(p[-0.307501416066086, 0.0819205327397372, 0.548613459766068, -1.6101616952061, -1.0278472448864, 1.81398844042648], a = 0.2, v = 0.2, t = 0.2)
movej(p[-0.309599452812562, 0.0816236065300191, 0.547393772799499, -1.59794758013257, -1.03415041696171, 1.8052588726663], a = 0.2, v = 0.2, t = 0.2)
movej(p[-0.311335267877975, 0.081388173044229, 0.546436216027054, -1.58714605504135, -1.04128796536389, 1.79675069657175], a = 0.2, v = 0.2, t = 0.2)
movej(p[-0.312469390832559, 0.081227442261505, 0.545870590179546, -1.57898308703126, -1.04312652125785, 1.79336302940303], a = 0.2, v = 0.2, t = 0.2)
movej(p[-0.313465644023539, 0.0810989239912779, 0.545680217010006, -1.57417869020102, -1.04684863744652, 1.78929074735305], a = 0.2, v = 0.2, t = 0.2)
movej(p[-0.313761787801799, 0.0810689189104644, 0.545645584110574, -1.57254133218908, -1.0487817203296, 1.78756419775683], a = 0.2, v = 0.2, t = 0.2)
movej(p[-0.313976806122662, 0.0810480751669788, 0.54553339587567, -1.56905926604224, -1.05136947464382, 1.78594047026558], a = 0.2, v = 0.2, t = 0.2)
movej(p[-0.314040897386483, 0.0810346745372902, 0.545535123019489, -1.56884155302055, -1.05098503124151, 1.78603601889789], a = 0.2, v = 0.2, t = 0.2)
movej(p[-0.314073767614702, 0.0810626273778491, 0.545571362732533, -1.56880156220133, -1.05079967066726, 1.78601264621118], a = 0.2, v = 0.2, t = 0.2)
movej(p[-0.31462313719553, 0.0809864498461772, 0.54557746087404, -1.56893253223067, -1.05006141460177, 1.78575051739774], a = 0.2, v = 0.2, t = 0.2)
movej(p[-0.314625177765841, 0.0809984899502713, 0.545595156126687, -1.57237319385987, -1.04754167561215, 1.78678707208895], a = 0.2, v = 0.2, t = 0.2)
movej(p[-0.314083198567204, 0.0810722052268961, 0.545993509131241, -1.57738128095699, -1.04901517065868, 1.78795906551003], a = 0.2, v = 0.2, t = 0.2)
movej(p[-0.312912103373414, 0.0812421602586155, 0.546675343183101, -1.58840745903546, -1.05424922386282, 1.78639171970895], a = 0.2, v = 0.2, t = 0.2)
movej(p[-0.311381850292428, 0.0814480341467572, 0.547345115816397, -1.60403178859216, -1.05265631731643, 1.78925979717978], a = 0.2, v = 0.2, t = 0.2)
movej(p[-0.310087832113594, 0.0816363014422603, 0.547993794163724, -1.61129155530188, -1.05100950451925, 1.79320787987775], a = 0.2, v = 0.2, t = 0.2)
movej(p[-0.309679313999622, 0.0816920609177182, 0.548192506220364, -1.61414980353161, -1.0487846096511, 1.79515039206557], a = 0.2, v = 0.2, t = 0.2)
movej(p[-0.309229027548587, 0.0817606336230257, 0.548436403198821, -1.61687524036735, -1.04662672805702, 1.79750601703094], a = 0.2, v = 0.2, t = 0.2)
movej(p[-0.30728878038666, 0.0819927662994382, 0.549214199901807, -1.62480266462392, -1.04385984574382, 1.80283854553414], a = 0.2, v = 0.2, t = 0.2)
movej(p[-0.30703437231653, 0.0820459596386601, 0.549207344063745, -1.62371364490114, -1.04459356402595, 1.80425414753885], a = 0.2, v = 0.2, t = 0.2)
movej(p[-0.307026516155475, 0.0819712393284735, 0.548919129549921, -1.61268389176707, -1.0368653030154, 1.80975200058148], a = 0.2, v = 0.2, t = 0.2)
movej(p[-0.310450070998195, 0.0814789125242282, 0.547165224758687, -1.59159849724648, -1.03853281527245, 1.80069153685479], a = 0.2, v = 0.2, t = 0.2)
movej(p[-0.311686142199228, 0.0812529757292602, 0.546353242135317, -1.58551714313202, -1.04325450193181, 1.79556119312698], a = 0.2, v = 0.2, t = 0.2)
movej(p[-0.312651998267594, 0.0811251422800326, 0.545915736701681, -1.58014874178405, -1.04529686244529, 1.79225481058985], a = 0.2, v = 0.2, t = 0.2)
movej(p[-0.313298555582475, 0.0810598374842967, 0.545699106897114, -1.57738995069314, -1.04734642724265, 1.79068664287199], a = 0.2, v = 0.2, t = 0.2)
movej(p[-0.313611262453933, 0.0810427661898278, 0.545605284546642, -1.57524166380936, -1.04895839246357, 1.78890508149943], a = 0.2, v = 0.2, t = 0.2)
movej(p[-0.314243519066755, 0.0810149117103104, 0.545527269653739, -1.57163855331034, -1.04704050589737, 1.78822053397627], a = 0.2, v = 0.2, t = 0.2)
movej(p[-0.314471494316904, 0.0810229796508696, 0.545511285797681, -1.571304408982, -1.0472433963999, 1.78785266293984], a = 0.2, v = 0.2, t = 0.2)
movej(p[-0.314514956243175, 0.0810143449916342, 0.545496353831143, -1.57093688353508, -1.04754394166566, 1.78729960315704], a = 0.2, v = 0.2, t = 0.2)
movej(p[-0.314540707537468, 0.081032480163487, 0.545496840024627, -1.57115183745632, -1.04764917792453, 1.78658657498998], a = 0.2, v = 0.2, t = 0.2)
movej(p[-0.314595447120896, 0.0810217771903177, 0.545498660566155, -1.57251703973434, -1.04890237606609, 1.78557744545212], a = 0.2, v = 0.2, t = 0.2)
movej(p[-0.31463405573915, 0.0810380452517228, 0.545511935157472, -1.57242238101947, -1.04897543975877, 1.78549708697315], a = 0.2, v = 0.2, t = 0.2)
movej(p[-0.314807296987541, 0.0810366454074509, 0.545492909903408, -1.57149809387201, -1.04746727630533, 1.78559657375708], a = 0.2, v = 0.2, t = 0.2)
movej(p[-0.314822302297594, 0.0811251821729056, 0.545623031737982, -1.57149809387201, -1.04746727630533, 1.78559657375708], a = 0.2, v = 0.2, t = 0.2)
movej(p[-0.313778060255843, 0.0813342175574964, 0.546284787845797, -1.58008896180483, -1.0499828929454, 1.78791849298519], a = 0.2, v = 0.2, t = 0.2)
movej(p[-0.312462226273055, 0.0814776240637104, 0.546856425487765, -1.59194442317212, -1.05335028620988, 1.79143884967869], a = 0.2, v = 0.2, t = 0.2)
movej(p[-0.311362949994555, 0.081577640689289, 0.547292400611064, -1.60420515177507, -1.05833088244274, 1.79495791350007], a = 0.2, v = 0.2, t = 0.2)
movej(p[-0.310122497945249, 0.0817058322309479, 0.547800573073933, -1.60961718786577, -1.05493063993032, 1.79933557594735], a = 0.2, v = 0.2, t = 0.2)
movej(p[-0.309240171636678, 0.0818935746222202, 0.548326194895895, -1.61416387511488, -1.05476287433567, 1.80160985621783], a = 0.2, v = 0.2, t = 0.2)
movej(p[-0.307545095818108, 0.0821145048074957, 0.549104361177955, -1.62170058195914, -1.04911717869129, 1.80813818120764], a = 0.2, v = 0.2, t = 0.2)
movej(p[-0.307197500994296, 0.0821331590750509, 0.549219476367053, -1.62312718893041, -1.0479882531952, 1.80937380380818], a = 0.2, v = 0.2, t = 0.2)
movej(p[-0.307197500994296, 0.0821331590750509, 0.549219476367053, -1.62263082566511, -1.0467657114967, 1.8094703128502], a = 0.2, v = 0.2, t = 0.2)
movej(p[-0.307748115834408, 0.082016683642132, 0.548851530676257, -1.61722081377911, -1.04065521855815, 1.80865302066078], a = 0.2, v = 0.2, t = 0.2)
movej(p[-0.309435433131372, 0.0816423503172646, 0.547792990978722, -1.60071379691831, -1.03868189502643, 1.80188507578277], a = 0.2, v = 0.2, t = 0.2)
movej(p[-0.311604578739528, 0.0813163989175441, 0.546690194893474, -1.5876404209843, -1.03862457147841, 1.79639511863268], a = 0.2, v = 0.2, t = 0.2)
movej(p[-0.312330361277558, 0.0810819428769021, 0.546165323316326, -1.58298130186167, -1.04213422897191, 1.79436536495559], a = 0.2, v = 0.2, t = 0.2)
movej(p[-0.312647750350698, 0.0810199952520576, 0.546023613055485, -1.58182536170599, -1.04401715111766, 1.79410187478596], a = 0.2, v = 0.2, t = 0.2)
movej(p[-0.312921238677242, 0.0810005015866851, 0.545629413179465, -1.57238907051537, -1.04733882373608, 1.79022305366058], a = 0.2, v = 0.2, t = 0.2)
movej(p[-0.313458629156006, 0.0809782785692934, 0.545486091370824, -1.57100465269865, -1.04736821338713, 1.78933506200857], a = 0.2, v = 0.2, t = 0.2)
movej(p[-0.314390603801473, 0.0809401795665002, 0.545246225124359, -1.56680677724491, -1.04704316336805, 1.78743504730412], a = 0.2, v = 0.2, t = 0.2)
movej(p[-0.314565115411207, 0.0809411738507039, 0.545225181373107, -1.56705458730836, -1.04691571022119, 1.78675643300552], a = 0.2, v = 0.2, t = 0.2)
movej(p[-0.314740236842087, 0.080948465040144, 0.545200025797124, -1.56758720901942, -1.04710067214448, 1.78625305669666], a = 0.2, v = 0.2, t = 0.2)
movej(p[-0.314750135980851, 0.0810068735451214, 0.545285868348333, -1.56980988973963, -1.0455193095977, 1.78626260071497], a = 0.2, v = 0.2, t = 0.2)
movej(p[-0.314560827968984, 0.0811558769924654, 0.54572658425379, -1.57342661798481, -1.04292314952174, 1.78645029053355], a = 0.2, v = 0.2, t = 0.2)
movej(p[-0.314123901932361, 0.0812909541577428, 0.546142392680763, -1.58023911013924, -1.04190395032868, 1.7878332356263], a = 0.2, v = 0.2, t = 0.2)
movej(p[-0.312967080341342, 0.0814517426207817, 0.546731616591264, -1.5919403202312, -1.04404237567534, 1.79032652823999], a = 0.2, v = 0.2, t = 0.2)
movej(p[-0.311215093702954, 0.0816129368733398, 0.547425040222137, -1.60494102520443, -1.04816640630552, 1.79430875072353], a = 0.2, v = 0.2, t = 0.2)
movej(p[-0.309752581179673, 0.0817326174548688, 0.547968985152851, -1.61188873672846, -1.04572656388789, 1.79891768385464], a = 0.2, v = 0.2, t = 0.2)
movej(p[-0.308002134219165, 0.0818940327356024, 0.548614573749089, -1.61685635024518, -1.04179086998338, 1.80319479232984], a = 0.2, v = 0.2, t = 0.2)
movej(p[-0.306948998443524, 0.082225446957127, 0.549414369386634, -1.60215566493991, -1.01026518461815, 1.81046229600793], a = 0.2, v = 0.2, t = 0.2)
movej(p[-0.30680159786137, 0.0822454748327248, 0.549487481851917, -1.60217213957591, -1.01025427764924, 1.81044031342406], a = 0.2, v = 0.2, t = 0.2)
movej(p[-0.30680159786137, 0.0822454748327248, 0.549487481851917, -1.60211438420596, -1.01031409868825, 1.81038570991179], a = 0.2, v = 0.2, t = 0.2)
movej(p[-0.308000924150008, 0.081949430563593, 0.548656967809836, -1.60130674041873, -1.02231993797296, 1.80653563819923], a = 0.2, v = 0.2, t = 0.2)
movej(p[-0.309062427791244, 0.0816426143613557, 0.547794393304249, -1.5969912712692, -1.03220417865711, 1.80226883505928], a = 0.2, v = 0.2, t = 0.2)
movej(p[-0.31001880920517, 0.0814607326836299, 0.547224653533472, -1.5914823893574, -1.03639279059527, 1.79991348495821], a = 0.2, v = 0.2, t = 0.2)
movej(p[-0.311349063092481, 0.0812681029112367, 0.546543781984587, -1.58224845451802, -1.04009931744706, 1.79574086699314], a = 0.2, v = 0.2, t = 0.2)
movej(p[-0.31156117541319, 0.081257620385264, 0.546487087716334, -1.58093369739144, -1.04106994721764, 1.7954158032455], a = 0.2, v = 0.2, t = 0.2)
movej(p[-0.312107631441327, 0.0811725711832693, 0.546213908191931, -1.57954705707362, -1.04374341178084, 1.7934828643625], a = 0.2, v = 0.2, t = 0.2)
movej(p[-0.312840233147251, 0.0811158286306165, 0.545969136945265, -1.57858451397367, -1.04724192822087, 1.79124862456802], a = 0.2, v = 0.2, t = 0.2)
movej(p[-0.313259919522574, 0.0810208106852624, 0.545696096277177, -1.57808723195973, -1.05074238729368, 1.78891061887187], a = 0.2, v = 0.2, t = 0.2)
movej(p[-0.31395207427137, 0.0810235611835577, 0.545578321371198, -1.57744354362192, -1.05138640277333, 1.78717762631048], a = 0.2, v = 0.2, t = 0.2)
movej(p[-0.314504436679713, 0.0810275733192294, 0.545496342272543, -1.57651741266591, -1.05214874169425, 1.7856977510423], a = 0.2, v = 0.2, t = 0.2)
movej(p[-0.314880437023653, 0.0810475780410672, 0.545434875838931, -1.57622591507444, -1.0515027063273, 1.7857787087839], a = 0.2, v = 0.2, t = 0.2)
movej(p[-0.314880437023653, 0.0810475780410672, 0.545434875838931, -1.57689291091242, -1.05091865784024, 1.78513240797002], a = 0.2, v = 0.2, t = 0.2)
movej(p[-0.314300529314827, 0.0812337484944216, 0.545959134011535, -1.58091298160801, -1.04793751004756, 1.78646584426386], a = 0.2, v = 0.2, t = 0.2)
movej(p[-0.313567114644107, 0.081392510749096, 0.546426429974779, -1.58535094155668, -1.04405542591106, 1.78902375931767], a = 0.2, v = 0.2, t = 0.2)
movej(p[-0.313022142465731, 0.0815204150076962, 0.546783640102614, -1.58946146616121, -1.04080363373674, 1.79073882469984], a = 0.2, v = 0.2, t = 0.2)
movej(p[-0.311282961138538, 0.0815598397345429, 0.547263070610669, -1.59675285032428, -1.03494755128477, 1.79662033569068], a = 0.2, v = 0.2, t = 0.2)
movej(p[-0.310003498518729, 0.0819416208825853, 0.548205600169628, -1.59740946509046, -1.02204422969971, 1.80012295862757], a = 0.2, v = 0.2, t = 0.2)
movej(p[-0.307562231474524, 0.0820797084348647, 0.549002494050132, -1.60501686914686, -1.01400261263945, 1.80737085752047], a = 0.2, v = 0.2, t = 0.2)
movej(p[-0.305424347596691, 0.0820463962889804, 0.549453340061358, -1.60761911909489, -1.0109582250872, 1.81008677765639], a = 0.2, v = 0.2, t = 0.2)
movej(p[-0.305410158514762, 0.0819626755651634, 0.549330296327842, -1.60678771928911, -1.01151245220199, 1.81119591925953], a = 0.2, v = 0.2, t = 0.2)
movej(p[-0.307352007559578, 0.0820899528901549, 0.549013812474083, -1.60171617421824, -1.01568802033996, 1.80705711728432], a = 0.2, v = 0.2, t = 0.2)
movej(p[-0.308501631311377, 0.081839203556506, 0.548297086905281, -1.59765300615177, -1.02200648312077, 1.80397566929709], a = 0.2, v = 0.2, t = 0.2)
movej(p[-0.309440440182722, 0.0816210199206475, 0.547691986653978, -1.59382911558554, -1.02995789458898, 1.80117713372066], a = 0.2, v = 0.2, t = 0.2)
movej(p[-0.310461344320115, 0.0814044430236942, 0.547075475632212, -1.58996284075463, -1.03796008810201, 1.79811274956885], a = 0.2, v = 0.2, t = 0.2)
movej(p[-0.311628993298086, 0.0811910907168658, 0.546435109762247, -1.58602825690569, -1.04566760160249, 1.79443461441885], a = 0.2, v = 0.2, t = 0.2)
movej(p[-0.312594287404632, 0.0810438294907024, 0.545962530468227, -1.58179967938542, -1.04888966391935, 1.79175758565667], a = 0.2, v = 0.2, t = 0.2)
movej(p[-0.313071812027835, 0.0809801545545078, 0.545724310093919, -1.57875281856924, -1.04994053621591, 1.79015228684365], a = 0.2, v = 0.2, t = 0.2)
movej(p[-0.313623702922413, 0.0809381988921696, 0.545504167906051, -1.5755999067722, -1.05101617245309, 1.78815551310006], a = 0.2, v = 0.2, t = 0.2)
movej(p[-0.31401455727514, 0.0809895514367222, 0.545422939578957, -1.57418846517661, -1.04933540170253, 1.78759190942981], a = 0.2, v = 0.2, t = 0.2)
movej(p[-0.314165711002914, 0.080971321099942, 0.545417913108946, -1.57257492514759, -1.05015137508668, 1.78574329569317], a = 0.2, v = 0.2, t = 0.2)
movej(p[-0.315108523341805, 0.0810070666875128, 0.545288149182508, -1.57334539984793, -1.04967217381415, 1.78474874714547], a = 0.2, v = 0.2, t = 0.2)
movej(p[-0.315124155059488, 0.0810992994849219, 0.545423703048127, -1.57743212970016, -1.05094159164339, 1.78411394466756], a = 0.2, v = 0.2, t = 0.2)
movej(p[-0.31482093112612, 0.0812643606533998, 0.545817056917936, -1.58150088713524, -1.04929686804583, 1.78569745118799], a = 0.2, v = 0.2, t = 0.2)
movej(p[-0.314064434293286, 0.0814082727098047, 0.54623685419274, -1.588542295633, -1.04926954485896, 1.78859146677644], a = 0.2, v = 0.2, t = 0.2)
movej(p[-0.313119386959517, 0.081495612610055, 0.546642285196439, -1.59686923155396, -1.04971477380382, 1.79223410269402], a = 0.2, v = 0.2, t = 0.2)
movej(p[-0.311738954703999, 0.081543878264576, 0.547079068763574, -1.59910176928559, -1.04937920729283, 1.79378146046231], a = 0.2, v = 0.2, t = 0.2)
movej(p[-0.310613084275074, 0.0816250162134606, 0.547486972429314, -1.60064682046765, -1.04673381225992, 1.79582382840297], a = 0.2, v = 0.2, t = 0.2)
movej(p[-0.308987700526728, 0.0818152801256321, 0.548129857430177, -1.59928547094046, -1.02449620629435, 1.80236023199819], a = 0.2, v = 0.2, t = 0.2)
movej(p[-0.307283294895849, 0.0820527711893382, 0.548939020355731, -1.60603860507481, -1.01685135783004, 1.80614409794335], a = 0.2, v = 0.2, t = 0.2)
movej(p[-0.306672177358262, 0.0821673252930437, 0.549299698165663, -1.60855619434762, -1.01465154759273, 1.80828171295948], a = 0.2, v = 0.2, t = 0.2)
movej(p[-0.306672177358262, 0.0821673252930437, 0.549299698165663, -1.60860062459506, -1.01462192658348, 1.80822257079431], a = 0.2, v = 0.2, t = 0.2)
movej(p[-0.308552000668998, 0.081997906632269, 0.548523984837304, -1.60195811701369, -1.02010079953911, 1.80256105630927], a = 0.2, v = 0.2, t = 0.2)
movej(p[-0.310048508326279, 0.0817324802824014, 0.547719044749784, -1.59326535963057, -1.02721830739242, 1.79831426717564], a = 0.2, v = 0.2, t = 0.2)
movej(p[-0.310809379505588, 0.0813479691167408, 0.5469350120515, -1.5902325944507, -1.03513308967347, 1.79741451384788], a = 0.2, v = 0.2, t = 0.2)
movej(p[-0.311546783285166, 0.0810873410383184, 0.546348482699633, -1.5826207836251, -1.04532344689348, 1.79517258119092], a = 0.2, v = 0.2, t = 0.2)
movej(p[-0.312165414882902, 0.0809923175443367, 0.546042540839348, -1.58011190789961, -1.04738579376532, 1.79464547038142], a = 0.2, v = 0.2, t = 0.2)
movej(p[-0.312828863975051, 0.0808885959829718, 0.545708796176717, -1.57633874169609, -1.05000836051273, 1.79245312783384], a = 0.2, v = 0.2, t = 0.2)
movej(p[-0.313452173369295, 0.0808441398189182, 0.545477502513757, -1.57405982436008, -1.05154814392757, 1.79088217888283], a = 0.2, v = 0.2, t = 0.2)
movej(p[-0.313732941438964, 0.0808387160174949, 0.545388793757524, -1.5738621683912, -1.05170021154025, 1.79071408713665], a = 0.2, v = 0.2, t = 0.2)
movej(p[-0.313885165637499, 0.0808521405139853, 0.54536210544034, -1.57440778293285, -1.05262535580332, 1.7896693728759], a = 0.2, v = 0.2, t = 0.2)
movej(p[-0.314367658651523, 0.0809463176076086, 0.545390618006958, -1.57566254738089, -1.0522986571639, 1.78751014168333], a = 0.2, v = 0.2, t = 0.2)
movej(p[-0.31475730525061, 0.0810803479087306, 0.545472341052672, -1.57613534781122, -1.05388564252047, 1.78689798974739], a = 0.2, v = 0.2, t = 0.2)
movej(p[-0.315215956182678, 0.081112217062647, 0.545397766395166, -1.57653851262641, -1.05413478168273, 1.78655647129579], a = 0.2, v = 0.2, t = 0.2)
movej(p[-0.31522433675749, 0.081161665490159, 0.545470440386267, -1.57814579568231, -1.05483583485833, 1.78577373209358], a = 0.2, v = 0.2, t = 0.2)
movej(p[-0.314631516138059, 0.0812037022107397, 0.545689293755672, -1.58101585669579, -1.05263179430422, 1.788052614769], a = 0.2, v = 0.2, t = 0.2)
movej(p[-0.313306557998263, 0.0815213307132252, 0.546487411210812, -1.58367713636128, -1.04068342767871, 1.79029840342337], a = 0.2, v = 0.2, t = 0.2)
movej(p[-0.312138469909382, 0.0815069706032167, 0.546799433491834, -1.58716307778629, -1.03799357487507, 1.79268238199168], a = 0.2, v = 0.2, t = 0.2)
movej(p[-0.311509636904477, 0.081636032080052, 0.547156414229605, -1.59082943220196, -1.03549789250374, 1.79491311371852], a = 0.2, v = 0.2, t = 0.2)
movej(p[-0.310113637623916, 0.081712456998526, 0.547702923562104, -1.60308623512442, -1.03921972691793, 1.79873964712663], a = 0.2, v = 0.2, t = 0.2)
movej(p[-0.308416910461153, 0.0818517192996908, 0.548420692826296, -1.60985955172661, -1.03385215425758, 1.80452097573285], a = 0.2, v = 0.2, t = 0.2)
movej(p[-0.307518216781266, 0.0819204877928157, 0.548691257927673, -1.60443524901913, -1.01895607103964, 1.80477163941952], a = 0.2, v = 0.2, t = 0.2)
movej(p[-0.307518216781266, 0.0819204877928157, 0.548691257927673, -1.60376862694462, -1.01949014148643, 1.8042100749821], a = 0.2, v = 0.2, t = 0.2)
movej(p[-0.308674977770231, 0.0817134592745695, 0.548071659132452, -1.59672864975652, -1.02494827929475, 1.8008601345469], a = 0.2, v = 0.2, t = 0.2)
movej(p[-0.31017851323842, 0.0815615551839659, 0.54743543601659, -1.59196535376558, -1.03214798625458, 1.79783569487055], a = 0.2, v = 0.2, t = 0.2)
movej(p[-0.311143003055816, 0.0813638220263755, 0.546900697594061, -1.58719523777752, -1.03689813751104, 1.79704670763942], a = 0.2, v = 0.2, t = 0.2)
movej(p[-0.311874115364317, 0.0810254988644674, 0.546248201118611, -1.58144030899098, -1.04262518568914, 1.79557192957235], a = 0.2, v = 0.2, t = 0.2)
movej(p[-0.312614595375062, 0.0809083652903986, 0.54587205214611, -1.57699115193512, -1.0481820828454, 1.79314948853445], a = 0.2, v = 0.2, t = 0.2)
movej(p[-0.312913767250716, 0.0809258921627776, 0.545817000283633, -1.57797047716337, -1.04994261510935, 1.79271546941404], a = 0.2, v = 0.2, t = 0.2)
movej(p[-0.31326004955858, 0.080888970669992, 0.545665743625495, -1.57848803592229, -1.04962859639896, 1.79188390177561], a = 0.2, v = 0.2, t = 0.2)
movej(p[-0.313609536226842, 0.0808715260868012, 0.545542904603908, -1.5789733266278, -1.04927869642821, 1.79105554599111], a = 0.2, v = 0.2, t = 0.2)
movej(p[-0.314032422231264, 0.0809102250663624, 0.545430141683387, -1.57615299351264, -1.05087491534138, 1.78894931371012], a = 0.2, v = 0.2, t = 0.2)
movej(p[-0.314473696673934, 0.0809351292321543, 0.54536230991522, -1.57281402992409, -1.05319359989597, 1.78823488527245], a = 0.2, v = 0.2, t = 0.2)
movej(p[-0.314533188981707, 0.0808480505149603, 0.545236091801117, -1.56856982340989, -1.05013375102068, 1.78783671855761], a = 0.2, v = 0.2, t = 0.2)
movej(p[-0.314805075634609, 0.0808881002883841, 0.545177488101383, -1.56911481185444, -1.04979658929194, 1.78713419909876], a = 0.2, v = 0.2, t = 0.2)
movej(p[-0.31484113203745, 0.0811008461277024, 0.545490159100465, -1.57602383260155, -1.04660137613018, 1.7886873963853], a = 0.2, v = 0.2, t = 0.2)
movej(p[-0.314391424603038, 0.0813480323165112, 0.545888631071244, -1.58248033066562, -1.05112691002937, 1.78937802142499], a = 0.2, v = 0.2, t = 0.2)
movej(p[-0.313011366330149, 0.081423602866413, 0.546439958528767, -1.59378334928525, -1.05404504277093, 1.79316125502133], a = 0.2, v = 0.2, t = 0.2)
movej(p[-0.311633488267896, 0.0815478099447519, 0.547048824710494, -1.60096032034597, -1.05164131761985, 1.79564803691978], a = 0.2, v = 0.2, t = 0.2)
movej(p[-0.310503505480383, 0.081597308664143, 0.547462449185958, -1.60813672416376, -1.04977711403004, 1.79995205196777], a = 0.2, v = 0.2, t = 0.2)
movej(p[-0.309215872121455, 0.0817339400830195, 0.548034837164826, -1.61258077973664, -1.04627864804459, 1.80378120813199], a = 0.2, v = 0.2, t = 0.2)
movej(p[-0.308052211630008, 0.0820185564119637, 0.548750185573606, -1.61879395649084, -1.04036953967606, 1.80616481358675], a = 0.2, v = 0.2, t = 0.2)
movej(p[-0.306676315951607, 0.0819478668619628, 0.548998258969352, -1.62407627511866, -1.03354686826462, 1.80516242435316], a = 0.2, v = 0.2, t = 0.2)
movej(p[-0.306676315951607, 0.0819478668619628, 0.548998258969352, -1.62227808917515, -1.03030753435564, 1.80588768937992], a = 0.2, v = 0.2, t = 0.2)
movej(p[-0.308050835373826, 0.0817023910679388, 0.548259543921117, -1.60394822905549, -1.02711253980088, 1.80036695650781], a = 0.2, v = 0.2, t = 0.2)
movej(p[-0.309665192272093, 0.0814498487429673, 0.547497129100224, -1.59953447503551, -1.03015709385044, 1.79928725986644], a = 0.2, v = 0.2, t = 0.2)
movej(p[-0.31109060388058, 0.0811213923163888, 0.546660774664456, -1.59306892489599, -1.03466533647831, 1.79799682279616], a = 0.2, v = 0.2, t = 0.2)
movej(p[-0.311867664402073, 0.0809864548618453, 0.54625291184524, -1.58422373327017, -1.03994048262164, 1.7941340914474], a = 0.2, v = 0.2, t = 0.2)
movej(p[-0.312662449593454, 0.0808468964911886, 0.545837887098096, -1.57498841163424, -1.04672612930723, 1.79200913828386], a = 0.2, v = 0.2, t = 0.2)
movej(p[-0.313133520823925, 0.0807737478544708, 0.545644279420643, -1.57431873583501, -1.0485892145234, 1.79076339693162], a = 0.2, v = 0.2, t = 0.2)
movej(p[-0.313664696726078, 0.0807867014105702, 0.54546218742094, -1.57375662861088, -1.04907543777134, 1.78952157774082], a = 0.2, v = 0.2, t = 0.2)
movej(p[-0.313884641089235, 0.0807835763093064, 0.545395695836078, -1.57287597436933, -1.04747478619944, 1.78988992780516], a = 0.2, v = 0.2, t = 0.2)
movej(p[-0.314309541514482, 0.0808351191264137, 0.545311626955806, -1.57253031824101, -1.04511011539183, 1.78940023537466], a = 0.2, v = 0.2, t = 0.2)
movej(p[-0.314485901180448, 0.0808991329623814, 0.545308970449688, -1.57203467460954, -1.04557435340679, 1.78782592375711], a = 0.2, v = 0.2, t = 0.2)
movej(p[-0.314902977163535, 0.0809482127089101, 0.545261014190316, -1.57261146443443, -1.04659265377155, 1.78757625113081], a = 0.2, v = 0.2, t = 0.2)
movej(p[-0.314909298185986, 0.0809855090313597, 0.545315828321768, -1.57383206442163, -1.04811376061717, 1.78715273807748], a = 0.2, v = 0.2, t = 0.2)
movej(p[-0.314702774453273, 0.0812317591208217, 0.545613993009929, -1.5778017673924, -1.04655592154848, 1.79026434184191], a = 0.2, v = 0.2, t = 0.2)
movej(p[-0.313122581195724, 0.0813910953452029, 0.546338564225476, -1.58854290637956, -1.05335913848825, 1.79035813962309], a = 0.2, v = 0.2, t = 0.2)
movej(p[-0.311639358991238, 0.0815224082416112, 0.54698657691467, -1.6000753791224, -1.05041668373956, 1.79764101413715], a = 0.2, v = 0.2, t = 0.2)
movej(p[-0.30998270325248, 0.0816387711571146, 0.547678005352856, -1.61160126898371, -1.04808648053561, 1.80422482940036], a = 0.2, v = 0.2, t = 0.2)
movej(p[-0.308548336939668, 0.0817459935802935, 0.548290605036696, -1.61590007972307, -1.04540185225015, 1.80758178183072], a = 0.2, v = 0.2, t = 0.2)
movej(p[-0.307467995323118, 0.0819810239149093, 0.548878085958395, -1.6228858400355, -1.0401468187096, 1.80854017835826], a = 0.2, v = 0.2, t = 0.2)
movej(p[-0.307467995323118, 0.0819810239149093, 0.548878085958395, -1.62315358686602, -1.03673983094888, 1.80702926201491], a = 0.2, v = 0.2, t = 0.2)
movej(p[-0.307846075255046, 0.0820450084550083, 0.54878487569232, -1.61999739493293, -1.03183466728385, 1.80792372738934], a = 0.2, v = 0.2, t = 0.2)
movej(p[-0.308916513547585, 0.0817124902493211, 0.548077756611292, -1.60921549660265, -1.03531301656605, 1.80326588597099], a = 0.2, v = 0.2, t = 0.2)
movej(p[-0.309799242367971, 0.0812967427989609, 0.547360946973258, -1.5987053278347, -1.03614166079147, 1.80113411335538], a = 0.2, v = 0.2, t = 0.2)
movej(p[-0.311302503753945, 0.0810510062646731, 0.546594683988928, -1.58998301205628, -1.03570531745495, 1.79760791922032], a = 0.2, v = 0.2, t = 0.2)
movej(p[-0.312086930528831, 0.080859890544957, 0.546133677582769, -1.58498710032291, -1.03696166450434, 1.7953825628883], a = 0.2, v = 0.2, t = 0.2)
movej(p[-0.31254561599115, 0.0807778641141541, 0.545913639855761, -1.58063856106243, -1.04025378903757, 1.79323675564639], a = 0.2, v = 0.2, t = 0.2)
movej(p[-0.313158363652102, 0.0807842589808524, 0.545725510326771, -1.57773910007179, -1.0434086021848, 1.79331847951251], a = 0.2, v = 0.2, t = 0.2)
movej(p[-0.313663560815574, 0.0808395516405441, 0.545580665279205, -1.57364552399978, -1.04652181321026, 1.7906585507021], a = 0.2, v = 0.2, t = 0.2)
movej(p[-0.314412586831517, 0.0809390831421606, 0.545442119086093, -1.57200406965388, -1.04361452183729, 1.79136712103425], a = 0.2, v = 0.2, t = 0.2)
movej(p[-0.314605447014728, 0.0809375253727206, 0.545304418929643, -1.57380993952343, -1.04254278732703, 1.78823661981247], a = 0.2, v = 0.2, t = 0.2)
movej(p[-0.314813169867274, 0.0809880167399474, 0.545356554698225, -1.57466950470216, -1.04405918499292, 1.78786737125719], a = 0.2, v = 0.2, t = 0.2)
movej(p[-0.314813169867274, 0.0809880167399474, 0.545356554698225, -1.57541014398075, -1.04612877984386, 1.78782369201466], a = 0.2, v = 0.2, t = 0.2)
movej(p[-0.314662094747573, 0.0811173891293831, 0.545511820770047, -1.58074623050337, -1.04774377031454, 1.78946095168757], a = 0.2, v = 0.2, t = 0.2)
movej(p[-0.313834164970703, 0.0812947927288535, 0.545952424319132, -1.58172467762395, -1.04706239911101, 1.7911035985226], a = 0.2, v = 0.2, t = 0.2)
movej(p[-0.313020273086839, 0.0814639325344494, 0.546414771080279, -1.59136202213912, -1.05234992679681, 1.79242549990062], a = 0.2, v = 0.2, t = 0.2)
movej(p[-0.311461100735362, 0.0815467428340449, 0.547039783698288, -1.59728844580266, -1.04815123603032, 1.79729470916966], a = 0.2, v = 0.2, t = 0.2)
movej(p[-0.309886400895451, 0.0817007346877969, 0.547746581054794, -1.610165971037, -1.04185171381111, 1.80311350856512], a = 0.2, v = 0.2, t = 0.2)
movej(p[-0.308076332862527, 0.0818583077210612, 0.548530693926371, -1.6150314098958, -1.0410886777591, 1.80577460167461], a = 0.2, v = 0.2, t = 0.2)
movej(p[-0.305534219392192, 0.0822264824302197, 0.549780814503547, -1.63195595348601, -1.03823235896443, 1.81518220694614], a = 0.2, v = 0.2, t = 0.2)
movej(p[-0.305534219392192, 0.0822264824302197, 0.549780814503547, -1.63265814127484, -1.03775146147591, 1.81426627365115], a = 0.2, v = 0.2, t = 0.2)
movej(p[-0.306757318371435, 0.082171643668712, 0.549249397673544, -1.62286310889705, -1.0281256021695, 1.81178542555705], a = 0.2, v = 0.2, t = 0.2)
movej(p[-0.307921141031226, 0.0817815864419378, 0.54851391892035, -1.61386547109995, -1.03053450918339, 1.80641827909428], a = 0.2, v = 0.2, t = 0.2)
movej(p[-0.308996899837291, 0.0814907752516583, 0.547879869511565, -1.60679352110567, -1.03049688068537, 1.80315035835798], a = 0.2, v = 0.2, t = 0.2)
movej(p[-0.309866737744756, 0.0811774604096619, 0.547302252887391, -1.60027415279297, -1.02674986558155, 1.8012452882912], a = 0.2, v = 0.2, t = 0.2)
movej(p[-0.310405981995521, 0.0810512722052143, 0.547007837950482, -1.59622904473366, -1.02752804712897, 1.79901109039016], a = 0.2, v = 0.2, t = 0.2)
movej(p[-0.311705656577729, 0.0809257028336381, 0.546427142140884, -1.58593482168426, -1.03367510732979, 1.7952386100468], a = 0.2, v = 0.2, t = 0.2)
movej(p[-0.312346474594227, 0.0808087570488368, 0.546102453654563, -1.58036889202738, -1.03787124903018, 1.79290848865813], a = 0.2, v = 0.2, t = 0.2)
movej(p[-0.312863281221562, 0.0807718561437415, 0.545903694722323, -1.58013043002603, -1.03744911057689, 1.79300916742776], a = 0.2, v = 0.2, t = 0.2)
movej(p[-0.313117685945316, 0.0808251499858218, 0.545838095538425, -1.58078607709975, -1.03700678461869, 1.79255169579672], a = 0.2, v = 0.2, t = 0.2)
movej(p[-0.313118205042075, 0.0808269760381314, 0.54583679320532, -1.58090550771758, -1.03691117508319, 1.79264833693525], a = 0.2, v = 0.2, t = 0.2)
movej(p[-0.313741039720459, 0.0808339869090382, 0.545624239044948, -1.58095190440689, -1.03688179648757, 1.79258779312754], a = 0.2, v = 0.2, t = 0.2)
movej(p[-0.31448179258183, 0.0809628169645271, 0.545451159539594, -1.57808056630715, -1.03998713324555, 1.7897309659101], a = 0.2, v = 0.2, t = 0.2)
movej(p[-0.314483330127832, 0.0809718890429608, 0.545464492706704, -1.57649861295484, -1.04241056072179, 1.79113746704969], a = 0.2, v = 0.2, t = 0.2)
movej(p[-0.314013663035449, 0.0811298320549719, 0.545744343948061, -1.57978496994912, -1.04873208876048, 1.78990160625914], a = 0.2, v = 0.2, t = 0.2)
movej(p[-0.312899320325959, 0.0813606110992687, 0.546350788577454, -1.59005671003902, -1.05062066316892, 1.79401039190058], a = 0.2, v = 0.2, t = 0.2)
movej(p[-0.311879924152691, 0.0814570286200988, 0.546801992792422, -1.59748062628324, -1.04800298410052, 1.79878261104294], a = 0.2, v = 0.2, t = 0.2)
movej(p[-0.31051877249311, 0.0815841263992136, 0.5474155898623, -1.60562408565831, -1.04425202676625, 1.80348812361362], a = 0.2, v = 0.2, t = 0.2)
movej(p[-0.308556099880898, 0.08169718744658, 0.548257185909607, -1.61517998259001, -1.04413091910297, 1.8077427999905], a = 0.2, v = 0.2, t = 0.2)
movej(p[-0.306424279131239, 0.0819867774850365, 0.54927422625834, -1.63234574458681, -1.03157663784866, 1.81480637439439], a = 0.2, v = 0.2, t = 0.2)
movej(p[-0.305807608170847, 0.0821829405353456, 0.549632262226229, -1.63356650222188, -1.03067005633152, 1.81444094075264], a = 0.2, v = 0.2, t = 0.2)
movej(p[-0.305807608170847, 0.0821829405353456, 0.549632262226229, -1.6335840838508, -1.02964176200726, 1.81404655635479], a = 0.2, v = 0.2, t = 0.2)
movej(p[-0.307529213079034, 0.0819360060229614, 0.548798016515002, -1.62591239313585, -1.02267932958636, 1.81137443573311], a = 0.2, v = 0.2, t = 0.2)
movej(p[-0.308590070159402, 0.0815982457480765, 0.54815546934028, -1.61478643156062, -1.02402976580461, 1.80555219644589], a = 0.2, v = 0.2, t = 0.2)
movej(p[-0.309557998802599, 0.0812476981727811, 0.547558947924795, -1.60665995148049, -1.02553283986101, 1.80359953739584], a = 0.2, v = 0.2, t = 0.2)
movej(p[-0.310469026887015, 0.0810429668178227, 0.547061380570859, -1.59410471948111, -1.03114499581477, 1.79802262896375], a = 0.2, v = 0.2, t = 0.2)
movej(p[-0.311517656092773, 0.0809516254034662, 0.546596304335331, -1.59127249233355, -1.03309480015194, 1.79598391290708], a = 0.2, v = 0.2, t = 0.2)
movej(p[-0.312514178322693, 0.0808786616673404, 0.546170903079471, -1.58268815797082, -1.0394100281311, 1.79492324715], a = 0.2, v = 0.2, t = 0.2)
movej(p[-0.312731673368592, 0.080878782228061, 0.546110504648411, -1.57804515054032, -1.04316960274098, 1.79259454718058], a = 0.2, v = 0.2, t = 0.2)
movej(p[-0.31290864544402, 0.0808564714669919, 0.546010749074836, -1.57690655856878, -1.04405294901548, 1.7916300565962], a = 0.2, v = 0.2, t = 0.2)
movej(p[-0.313017918707081, 0.0808408364801739, 0.545968204731298, -1.57642272007496, -1.0431239817645, 1.79181182317022], a = 0.2, v = 0.2, t = 0.2)
movej(p[-0.313518932736533, 0.0808524812033959, 0.545784041888375, -1.57813809713164, -1.04204671177762, 1.78957615642044], a = 0.2, v = 0.2, t = 0.2)
movej(p[-0.314372805087397, 0.0809252138240006, 0.545494780977899, -1.57859132339949, -1.04242548484372, 1.7895938712863], a = 0.2, v = 0.2, t = 0.2)
movej(p[-0.314651014130269, 0.0809311073000448, 0.545406807485275, -1.57874825636824, -1.04340077877024, 1.7897801167577], a = 0.2, v = 0.2, t = 0.2)
movej(p[-0.314651014130269, 0.0809311073000448, 0.545406807485275, -1.57955115225121, -1.04303885723422, 1.79102104729482], a = 0.2, v = 0.2, t = 0.2)
movej(p[-0.314380299617998, 0.0809624589076835, 0.545520820289574, -1.57893292712265, -1.04410740782076, 1.7921467230075], a = 0.2, v = 0.2, t = 0.2)
movej(p[-0.313624094736909, 0.0811268966391941, 0.545914589283112, -1.58143032601195, -1.0497256674171, 1.79240648776227], a = 0.2, v = 0.2, t = 0.2)
movej(p[-0.312717626154434, 0.0811657558804089, 0.546317454035056, -1.58837165099511, -1.05092467521397, 1.79502450892523], a = 0.2, v = 0.2, t = 0.2)
movej(p[-0.311598892833693, 0.081240655033029, 0.546810307151106, -1.60092483424557, -1.0430844339741, 1.80129474312609], a = 0.2, v = 0.2, t = 0.2)
movej(p[-0.310058678468953, 0.0813935076618512, 0.54752556702312, -1.609137126563, -1.04228579946602, 1.80406512596048], a = 0.2, v = 0.2, t = 0.2)
movej(p[-0.309649865691854, 0.0814558709610325, 0.547725773297237, -1.61215492450885, -1.04131785328073, 1.80595815932153], a = 0.2, v = 0.2, t = 0.2)
movej(p[-0.308499499455772, 0.0816370728441663, 0.548279343446748, -1.61761076336301, -1.0371760095872, 1.80818607875444], a = 0.2, v = 0.2, t = 0.2)
movej(p[-0.307907097736414, 0.0817765833486306, 0.548582852329726, -1.62279377646821, -1.03326928339852, 1.80862653848225], a = 0.2, v = 0.2, t = 0.2)
movej(p[-0.307907097736414, 0.0817765833486306, 0.548582852329726, -1.61993686681541, -1.02705928934982, 1.80938933597247], a = 0.2, v = 0.2, t = 0.2)
movej(p[-0.309183623225379, 0.0815453882577043, 0.547943043603656, -1.61183220260827, -1.028996416833, 1.80468123355201], a = 0.2, v = 0.2, t = 0.2)
movej(p[-0.309968298810736, 0.0813715575480576, 0.547538652888964, -1.60581448500731, -1.03200200239006, 1.80277690051591], a = 0.2, v = 0.2, t = 0.2)
movej(p[-0.311147302912469, 0.0811307696209907, 0.546939094958257, -1.59840847197957, -1.0339227859641, 1.7984134016671], a = 0.2, v = 0.2, t = 0.2)
movej(p[-0.311838231121486, 0.0810075766148237, 0.546591251324972, -1.59159263405413, -1.03246671721734, 1.79599465753059], a = 0.2, v = 0.2, t = 0.2)
movej(p[-0.313076151772755, 0.0809546120241988, 0.546032549782732, -1.58268055983892, -1.03565682677866, 1.78987062725895], a = 0.2, v = 0.2, t = 0.2)
movej(p[-0.313612331983265, 0.0809350868288667, 0.545814752494858, -1.57923615032902, -1.03813947567343, 1.79001327715173], a = 0.2, v = 0.2, t = 0.2)
movej(p[-0.313891576353572, 0.0809450753452134, 0.545716340192819, -1.57919741277244, -1.0397977968523, 1.78916852576784], a = 0.2, v = 0.2, t = 0.2)
movej(p[-0.314232374879729, 0.0809151578347521, 0.545553660208994, -1.57354812452557, -1.04390766261759, 1.7898326847097], a = 0.2, v = 0.2, t = 0.2)
movej(p[-0.31443409231248, 0.0808651108198079, 0.545454371017137, -1.57354812452557, -1.04390766261759, 1.7898326847097], a = 0.2, v = 0.2, t = 0.2)
movej(p[-0.314894134681316, 0.0809857642276893, 0.545319225820988, -1.57720052820388, -1.04133362098296, 1.78918862238317], a = 0.2, v = 0.2, t = 0.2)
movej(p[-0.314900446212743, 0.0810230045496547, 0.54537395764894, -1.58052578138985, -1.03947867775852, 1.79132125677802], a = 0.2, v = 0.2, t = 0.2)
movej(p[-0.313421314168816, 0.0810704330909647, 0.545981616582964, -1.59017702497992, -1.03803998773525, 1.79590068928963], a = 0.2, v = 0.2, t = 0.2)
movej(p[-0.311889942005565, 0.0812795534250071, 0.546714312647857, -1.59963827893925, -1.0397927607114, 1.79875000125458], a = 0.2, v = 0.2, t = 0.2)
movej(p[-0.31013307272365, 0.0813324130959808, 0.547499264953063, -1.60744030005632, -1.03457019656766, 1.80376958183218], a = 0.2, v = 0.2, t = 0.2)
movej(p[-0.308275227282132, 0.0815922504029152, 0.548396090013683, -1.62718604082065, -1.01976809730817, 1.8088030499652], a = 0.2, v = 0.2, t = 0.2)
movej(p[-0.306707163637026, 0.081870035483222, 0.549176207885583, -1.63533831668754, -1.01947607817572, 1.81274958088779], a = 0.2, v = 0.2, t = 0.2)
movej(p[-0.304810865698263, 0.0821981984627062, 0.550118701512265, -1.64239100267412, -1.01942026118217, 1.81801322912472], a = 0.2, v = 0.2, t = 0.2)
movej(p[-0.304810865698263, 0.0821981984627062, 0.550118701512265, -1.64239100267412, -1.01942026118217, 1.81801322912472], a = 0.2, v = 0.2, t = 0.2)
movej(p[-0.305888537756558, 0.0820399405009041, 0.549615373108242, -1.63946108815771, -1.01534890291616, 1.81605918178106], a = 0.2, v = 0.2, t = 0.2)
movej(p[-0.307056513866376, 0.0817877450571605, 0.549010390054719, -1.62910534748186, -1.01399663087195, 1.81186165152308], a = 0.2, v = 0.2, t = 0.2)
movej(p[-0.30889921756612, 0.0815496341371816, 0.548127258487661, -1.61553471812362, -1.02077602821648, 1.80579072076513], a = 0.2, v = 0.2, t = 0.2)
movej(p[-0.309730004665869, 0.0813697205212672, 0.547709053052858, -1.60454991582271, -1.02850535962126, 1.80058481093088], a = 0.2, v = 0.2, t = 0.2)
movej(p[-0.310394399579329, 0.0813682851079167, 0.547409486151219, -1.60303541435742, -1.02966330719879, 1.80004542017215], a = 0.2, v = 0.2, t = 0.2)
movej(p[-0.310840234458943, 0.0811911659982835, 0.547167422644837, -1.59844557652929, -1.03319696751156, 1.79782497014332], a = 0.2, v = 0.2, t = 0.2)
movej(p[-0.311970763340931, 0.0810961261491279, 0.546638069705802, -1.59056161103838, -1.03468338651048, 1.79428604323738], a = 0.2, v = 0.2, t = 0.2)
movej(p[-0.313116025929636, 0.0810575419995555, 0.546117569555644, -1.58390881360688, -1.03740076468368, 1.79125626868183], a = 0.2, v = 0.2, t = 0.2)
movej(p[-0.313562318530601, 0.0809295655662289, 0.545883326398142, -1.58135448237412, -1.0391987815753, 1.79199771756901], a = 0.2, v = 0.2, t = 0.2)
movej(p[-0.313837949801102, 0.0810001749731987, 0.545771178262315, -1.57933287066329, -1.04131264974154, 1.79100150416866], a = 0.2, v = 0.2, t = 0.2)
movej(p[-0.314122739705216, 0.0809405091122799, 0.545666059636205, -1.5785351836088, -1.04274782399124, 1.7920866567206], a = 0.2, v = 0.2, t = 0.2)
movej(p[-0.314187184065842, 0.0809784226084444, 0.545612904945046, -1.57784850359988, -1.04396366566678, 1.79326006162186], a = 0.2, v = 0.2, t = 0.2)
movej(p[-0.31428810162345, 0.0809514101532532, 0.5455646068723, -1.57524342925022, -1.04627830100283, 1.79406828769529], a = 0.2, v = 0.2, t = 0.2)
movej(p[-0.31428810162345, 0.0809514101532532, 0.5455646068723, -1.57624426841462, -1.04805924167624, 1.79363509933839], a = 0.2, v = 0.2, t = 0.2)
movej(p[-0.313943291558053, 0.0810784855928835, 0.545742561814473, -1.58280857521528, -1.04386216392669, 1.79157384169197], a = 0.2, v = 0.2, t = 0.2)
movej(p[-0.311975534743111, 0.0811743088903296, 0.546680795022646, -1.60289816447137, -1.03031170494676, 1.79993740837053], a = 0.2, v = 0.2, t = 0.2)
movej(p[-0.309593536762027, 0.0814410813956468, 0.547812681412049, -1.61406694059764, -1.03282285720923, 1.8031635873124], a = 0.2, v = 0.2, t = 0.2)
movej(p[-0.3075721333546, 0.0817386528796018, 0.548802809922081, -1.6278289769367, -1.02668257743912, 1.81231322567404], a = 0.2, v = 0.2, t = 0.2)
movej(p[-0.305827671171323, 0.082033264394689, 0.549664357068961, -1.64003260038351, -1.0218764494019, 1.81803950057451], a = 0.2, v = 0.2, t = 0.2)
movej(p[-0.305090593318241, 0.0822184620318362, 0.550036570480448, -1.64375304114741, -1.02179320419037, 1.81983997871549], a = 0.2, v = 0.2, t = 0.2)
movej(p[-0.305090593318241, 0.0822184620318362, 0.550036570480448, -1.64320142645078, -1.02217952109703, 1.82057026452551], a = 0.2, v = 0.2, t = 0.2)
movej(p[-0.306988144661485, 0.0818563656059902, 0.549133180820255, -1.62793072300972, -1.02491868649978, 1.81609698675398], a = 0.2, v = 0.2, t = 0.2)
movej(p[-0.308287517521592, 0.0816629048738942, 0.548495802278449, -1.61890075615145, -1.02657010350502, 1.812262825163], a = 0.2, v = 0.2, t = 0.2)
movej(p[-0.309754338552995, 0.081418222395897, 0.547770203769082, -1.60249731054468, -1.03948497973529, 1.80047594046695], a = 0.2, v = 0.2, t = 0.2)
movej(p[-0.310692981916026, 0.0812751051660777, 0.547408566014463, -1.60752568311014, -1.02780122548416, 1.80126564844825], a = 0.2, v = 0.2, t = 0.2)
movej(p[-0.310710706321717, 0.0812729572593282, 0.547405432017097, -1.60820713895444, -1.02686584020952, 1.80135139490858], a = 0.2, v = 0.2, t = 0.2)
movej(p[-0.311039515758526, 0.0814004504150599, 0.54714930175823, -1.60806133460969, -1.02660567191491, 1.80141015483622], a = 0.2, v = 0.2, t = 0.2)
movej(p[-0.311822172427101, 0.0813642284717674, 0.546715665678136, -1.60340690191227, -1.02990038036849, 1.80108153850337], a = 0.2, v = 0.2, t = 0.2)
movej(p[-0.312567168782718, 0.0812253562266879, 0.546359740770797, -1.59903312349798, -1.03318182378356, 1.79841740961457], a = 0.2, v = 0.2, t = 0.2)
movej(p[-0.313020264794642, 0.0811818442147035, 0.546130180040725, -1.59062018552362, -1.03822445361474, 1.79738567080477], a = 0.2, v = 0.2, t = 0.2)
movej(p[-0.313927910526141, 0.0811101018124236, 0.545667418694233, -1.58132350526795, -1.04510666968275, 1.79507723936734], a = 0.2, v = 0.2, t = 0.2)
movej(p[-0.314126002651398, 0.0810432080701032, 0.545560570076322, -1.57945623636341, -1.04640327524605, 1.79753286751306], a = 0.2, v = 0.2, t = 0.2)
movej(p[-0.314272483531448, 0.0809719334322918, 0.545507002009487, -1.58616280729725, -1.04119919701778, 1.8032220617262], a = 0.2, v = 0.2, t = 0.2)
movej(p[-0.314544354471684, 0.0810507841561029, 0.545325284191951, -1.59550472973081, -1.02726116902756, 1.80417472792064], a = 0.2, v = 0.2, t = 0.2)
movej(p[-0.314624265715263, 0.0810171441794815, 0.545303479717122, -1.59903656744294, -1.02254804343114, 1.80518569982943], a = 0.2, v = 0.2, t = 0.2)
movej(p[-0.31460426561648, 0.080929475034935, 0.545365437421592, -1.59903656744294, -1.02254804343114, 1.80518569982943], a = 0.2, v = 0.2, t = 0.2)
movej(p[-0.313832312602798, 0.0809418200623038, 0.545793065618705, -1.59694456474316, -1.02689974963105, 1.80364291517137], a = 0.2, v = 0.2, t = 0.2)
movej(p[-0.313221102039261, 0.0810062199192723, 0.546094202158241, -1.59895612969498, -1.03049467618711, 1.80282239001633], a = 0.2, v = 0.2, t = 0.2)
movej(p[-0.312624846492615, 0.0810701221439683, 0.546386419626529, -1.60099943177846, -1.0341193608436, 1.80197137882211], a = 0.2, v = 0.2, t = 0.2)
movej(p[-0.310655655279819, 0.0812123238915935, 0.547415370704286, -1.60595914581155, -1.04003421562093, 1.80124969663457], a = 0.2, v = 0.2, t = 0.2)
movej(p[-0.308607793699671, 0.0815210549435239, 0.548427201498504, -1.62057622115385, -1.02991827039055, 1.80355806288182], a = 0.2, v = 0.2, t = 0.2)
movej(p[-0.307612149543236, 0.0818472952767763, 0.548828278808653, -1.62239509679059, -1.03062111948265, 1.80406729225777], a = 0.2, v = 0.2, t = 0.2)
movej(p[-0.307612149543236, 0.0818472952767763, 0.548828278808653, -1.61756470882228, -1.03387291341082, 1.81040533363922], a = 0.2, v = 0.2, t = 0.2)
movej(p[-0.308391687734728, 0.0816134592623998, 0.548535779874663, -1.61242288785102, -1.0360269238428, 1.80818574823088], a = 0.2, v = 0.2, t = 0.2)
movej(p[-0.30890267230166, 0.0815205126842308, 0.548300252666119, -1.61068606728513, -1.0346569997406, 1.80946112480112], a = 0.2, v = 0.2, t = 0.2)
movej(p[-0.309832583193167, 0.0815210261180681, 0.547753926453823, -1.60610869429271, -1.03620264894716, 1.80679342541336], a = 0.2, v = 0.2, t = 0.2)
movej(p[-0.311482753006485, 0.0813512494685787, 0.546911505082713, -1.59006492478634, -1.04456713739722, 1.79974479384968], a = 0.2, v = 0.2, t = 0.2)
movej(p[-0.311899490489568, 0.0813101144793567, 0.546676743665834, -1.58122031931028, -1.05128545718476, 1.79440743819683], a = 0.2, v = 0.2, t = 0.2)
movej(p[-0.312437257442899, 0.0812599025232463, 0.546385722440889, -1.57844196694423, -1.05342801356559, 1.79203795762905], a = 0.2, v = 0.2, t = 0.2)
movej(p[-0.313072466606538, 0.0812529025778515, 0.546011050825746, -1.57841744511628, -1.04948580734146, 1.78951213354906], a = 0.2, v = 0.2, t = 0.2)
movej(p[-0.31353625858599, 0.08112633738213, 0.54583239318939, -1.57692792840057, -1.04758874767334, 1.78978309760568], a = 0.2, v = 0.2, t = 0.2)
movej(p[-0.314190736111557, 0.0810355566981907, 0.545461717581949, -1.57520558895962, -1.04650957918139, 1.79123598606376], a = 0.2, v = 0.2, t = 0.2)
movej(p[-0.314205692979257, 0.0810789156929609, 0.545425144645492, -1.57456674307316, -1.0469874199322, 1.79092487000769], a = 0.2, v = 0.2, t = 0.2)
movej(p[-0.314291197673566, 0.0810448020194584, 0.545404475476876, -1.57577913204164, -1.04427835617739, 1.79284147723678], a = 0.2, v = 0.2, t = 0.2)
movej(p[-0.314341901897134, 0.0810325188785968, 0.54540346247983, -1.57736249372652, -1.04257828289324, 1.79127494061163], a = 0.2, v = 0.2, t = 0.2)
movej(p[-0.314314630700167, 0.080912977343588, 0.545487945100668, -1.57936349712334, -1.04097120236262, 1.79260311332591], a = 0.2, v = 0.2, t = 0.2)
movej(p[-0.314060782707699, 0.0807984266597283, 0.545740232927459, -1.58318199452118, -1.03811558702939, 1.79403972543983], a = 0.2, v = 0.2, t = 0.2)
movej(p[-0.313864386185185, 0.0808628458754988, 0.545802885146765, -1.5845367443113, -1.037151305962, 1.79510098849248], a = 0.2, v = 0.2, t = 0.2)
movej(p[-0.312078891501583, 0.0810985292060867, 0.546679370265014, -1.59457394632528, -1.03940969124573, 1.79607145488699], a = 0.2, v = 0.2, t = 0.2)
movej(p[-0.310091509091331, 0.0814000143507258, 0.547620630124448, -1.61118669275622, -1.0319097498725, 1.80349604800082], a = 0.2, v = 0.2, t = 0.2)
movej(p[-0.308534092374064, 0.0815663140868778, 0.548445244074447, -1.61975599595869, -1.03044558672157, 1.8063671956665], a = 0.2, v = 0.2, t = 0.2)
movej(p[-0.307931856952387, 0.081707797267011, 0.548700430117594, -1.62377671727315, -1.02724982517392, 1.80978722235412], a = 0.2, v = 0.2, t = 0.2)
movej(p[-0.307931856952387, 0.081707797267011, 0.548700430117594, -1.62351258421233, -1.0274749346475, 1.81015226394227], a = 0.2, v = 0.2, t = 0.2)
movej(p[-0.307961065056928, 0.0817485361176262, 0.548649416367686, -1.61781823616558, -1.03166195303742, 1.81176241936126], a = 0.2, v = 0.2, t = 0.2)
movej(p[-0.309252335939571, 0.0816149858229005, 0.547992498955511, -1.60582300975905, -1.03109475696204, 1.81204700031048], a = 0.2, v = 0.2, t = 0.2)
movej(p[-0.310080117476176, 0.0815532200620459, 0.547525476505899, -1.60096708702038, -1.03301304972102, 1.8092852741618], a = 0.2, v = 0.2, t = 0.2)
movej(p[-0.311176695899804, 0.0814444759651066, 0.546939864345665, -1.59620837818985, -1.03460299061118, 1.80630185407003], a = 0.2, v = 0.2, t = 0.2)
movej(p[-0.311919790573513, 0.0813449119808121, 0.54658025511478, -1.5913121808186, -1.03774368035279, 1.80249560040985], a = 0.2, v = 0.2, t = 0.2)
movej(p[-0.312499944645682, 0.0813258963345689, 0.546198480694811, -1.58087919294289, -1.04581031611211, 1.79463590039461], a = 0.2, v = 0.2, t = 0.2)
movej(p[-0.312942942472552, 0.0812665781442299, 0.545959333443763, -1.57398489697485, -1.05094997750537, 1.79153159285479], a = 0.2, v = 0.2, t = 0.2)
movej(p[-0.31330070571683, 0.081233163963496, 0.545746774690546, -1.57331541150453, -1.04975996395826, 1.79182389773303], a = 0.2, v = 0.2, t = 0.2)
movej(p[-0.31404982477822, 0.0811055057066246, 0.545419680665357, -1.57309363038382, -1.04615193526645, 1.79122407671256], a = 0.2, v = 0.2, t = 0.2)
movej(p[-0.314382745189713, 0.081039262376562, 0.545240950755063, -1.574476303021, -1.04354787787273, 1.79160004277152], a = 0.2, v = 0.2, t = 0.2)
movej(p[-0.314421199948006, 0.0810312219987488, 0.545241987041355, -1.57445223439462, -1.04344624690927, 1.79158905693368], a = 0.2, v = 0.2, t = 0.2)
movej(p[-0.314392940658996, 0.0809101566777436, 0.54535131320764, -1.57850756675448, -1.04049072079236, 1.79397192309913], a = 0.2, v = 0.2, t = 0.2)
movej(p[-0.313647671627605, 0.0809374479602631, 0.545799715055035, -1.58251420286608, -1.04240551787089, 1.79412799055077], a = 0.2, v = 0.2, t = 0.2)
movej(p[-0.312910558314152, 0.0810058539243183, 0.546200004147082, -1.58789945779896, -1.04159623727868, 1.79482802116825], a = 0.2, v = 0.2, t = 0.2)
movej(p[-0.311883773422939, 0.0811113234175611, 0.54677566493537, -1.60300123325277, -1.03149479281688, 1.79709464072633], a = 0.2, v = 0.2, t = 0.2)
movej(p[-0.309848894558306, 0.0813848044457713, 0.5478020856208, -1.61726356373735, -1.02852116974684, 1.79985997317555], a = 0.2, v = 0.2, t = 0.2)
movej(p[-0.307446413124877, 0.0818591744569749, 0.548794231272658, -1.63231464114734, -1.02138765777184, 1.81029938817959], a = 0.2, v = 0.2, t = 0.2)
movej(p[-0.305108704391516, 0.0822551478356848, 0.549846343876576, -1.64302267087436, -1.02153865629471, 1.81588278420495], a = 0.2, v = 0.2, t = 0.2)
movej(p[-0.303363011348372, 0.0824755225679016, 0.550651623403522, -1.64877899201264, -1.01840857035589, 1.82406617785951], a = 0.2, v = 0.2, t = 0.2)
movej(p[-0.303363011348372, 0.0824755225679016, 0.550651623403522, -1.64398139866108, -1.0217905816342, 1.8304177173601], a = 0.2, v = 0.2, t = 0.2)
movej(p[-0.305632547052152, 0.0820934688711144, 0.549631921607877, -1.63674218394311, -1.0151599688888, 1.83090632179188], a = 0.2, v = 0.2, t = 0.2)
movej(p[-0.307091109083879, 0.0818849982299161, 0.548962827450555, -1.62052662505877, -1.02205041985813, 1.82179930967683], a = 0.2, v = 0.2, t = 0.2)
movej(p[-0.308274599065713, 0.0817701230168788, 0.548320455441259, -1.60950693496167, -1.0271001905533, 1.81453416936181], a = 0.2, v = 0.2, t = 0.2)
movej(p[-0.309024469293553, 0.0816524064789577, 0.547974360153657, -1.60660487380279, -1.02940724725059, 1.81207322031872], a = 0.2, v = 0.2, t = 0.2)
movej(p[-0.309876891781103, 0.0816076535435493, 0.547449301359338, -1.6029339551598, -1.03232966611594, 1.80874207392364], a = 0.2, v = 0.2, t = 0.2)
movej(p[-0.310855388006574, 0.0814503365962196, 0.547015576106649, -1.59915085628291, -1.03450021887546, 1.80592863701208], a = 0.2, v = 0.2, t = 0.2)
movej(p[-0.311167684743602, 0.0814314843171338, 0.546813175490011, -1.59204571831203, -1.03688566953987, 1.80007319792847], a = 0.2, v = 0.2, t = 0.2)
movej(p[-0.311720417256435, 0.0813145275890704, 0.546598040478872, -1.59204571831203, -1.03688566953987, 1.80007319792847], a = 0.2, v = 0.2, t = 0.2)
movej(p[-0.312218067640077, 0.0812334873092871, 0.546418766000171, -1.59278735257178, -1.0326732999385, 1.79773283690579], a = 0.2, v = 0.2, t = 0.2)
movej(p[-0.312579302004919, 0.0811843331589015, 0.546224535767826, -1.59065433300151, -1.03255152123317, 1.79681410849365], a = 0.2, v = 0.2, t = 0.2)
movej(p[-0.313045132829207, 0.0811053605351926, 0.546001960706671, -1.58990421465568, -1.03308791805726, 1.79699421809789], a = 0.2, v = 0.2, t = 0.2)
movej(p[-0.313045132829207, 0.0811053605351926, 0.546001960706671, -1.59043972822476, -1.03453783304842, 1.79652657961907], a = 0.2, v = 0.2, t = 0.2)
movej(p[-0.312778375118944, 0.0811409098030818, 0.546164785224382, -1.59059537428906, -1.03443771419695, 1.79632297316861], a = 0.2, v = 0.2, t = 0.2)
movej(p[-0.312687061333996, 0.0811708046856655, 0.546178667179349, -1.59107425379589, -1.03405027820667, 1.79673081107296], a = 0.2, v = 0.2, t = 0.2)
movej(p[-0.312595747549047, 0.0812006995682492, 0.546192549134315, -1.5915573355555, -1.03366979044932, 1.79713971501328], a = 0.2, v = 0.2, t = 0.2)
movej(p[-0.311619172054903, 0.081298243372161, 0.546724558119723, -1.59825527463399, -1.03169892071449, 1.80059668964359], a = 0.2, v = 0.2, t = 0.2)
movej(p[-0.311611280756927, 0.0812641562774753, 0.546752914025495, -1.59889647828325, -1.03256484147347, 1.80023022080704], a = 0.2, v = 0.2, t = 0.2)
movej(p[-0.311612259249504, 0.081263951687709, 0.546752940394102, -1.59830051703588, -1.03303634415315, 1.79972460137526], a = 0.2, v = 0.2, t = 0.2)
movej(p[-0.31228986853073, 0.081195252762144, 0.546427145827506, -1.59312200204401, -1.03324399131922, 1.80037411308757], a = 0.2, v = 0.2, t = 0.2)
movej(p[-0.313663182028987, 0.0809939310355806, 0.545772373700796, -1.58434685699586, -1.0366775588859, 1.79524842275963], a = 0.2, v = 0.2, t = 0.2)
movej(p[-0.314456566280544, 0.0809081499283648, 0.545348743530686, -1.57992025717767, -1.03553116221214, 1.79379200847409], a = 0.2, v = 0.2, t = 0.2)
movej(p[-0.314456566280544, 0.0809081499283648, 0.545348743530686, -1.57992025717767, -1.03553116221214, 1.79379200847409], a = 0.2, v = 0.2, t = 0.2)
movej(p[-0.314262480901743, 0.080815552687319, 0.545635700455478, -1.58365388355672, -1.03801389697723, 1.79359378608602], a = 0.2, v = 0.2, t = 0.2)
movej(p[-0.312069867572155, 0.0810822701373522, 0.546725008202977, -1.59978743856624, -1.03353023121096, 1.79906214499847], a = 0.2, v = 0.2, t = 0.2)
movej(p[-0.310190613897034, 0.0812563203070987, 0.547796155220411, -1.61263868185585, -1.03061174046273, 1.80566117992335], a = 0.2, v = 0.2, t = 0.2)
movej(p[-0.308403321615287, 0.0815076210512237, 0.548663314834098, -1.62296939399902, -1.02919319353027, 1.8102905745937], a = 0.2, v = 0.2, t = 0.2)
movej(p[-0.304924847228311, 0.0821278535896134, 0.550057191922465, -1.64361545235677, -1.01790704363569, 1.82326521420187], a = 0.2, v = 0.2, t = 0.2)
movej(p[-0.302283296126193, 0.0825327375175967, 0.551216648445911, -1.65501018194956, -1.01427000749549, 1.83037286437898], a = 0.2, v = 0.2, t = 0.2)
movej(p[-0.302283296126193, 0.0825327375175967, 0.551216648445911, -1.64726714499594, -1.01978209475654, 1.84063416036576], a = 0.2, v = 0.2, t = 0.2)
movej(p[-0.303134410343928, 0.0823925758575231, 0.550830409404105, -1.63493673486177, -1.02291129151915, 1.83624200522165], a = 0.2, v = 0.2, t = 0.2)
movej(p[-0.305628018862619, 0.0820310330714331, 0.54967200996551, -1.62295853853568, -1.02234619990508, 1.8308173256666], a = 0.2, v = 0.2, t = 0.2)
movej(p[-0.307037513875093, 0.0819140109329831, 0.548840644895925, -1.61879966514869, -1.02160713730411, 1.82426832354258], a = 0.2, v = 0.2, t = 0.2)
movej(p[-0.308351768228049, 0.0817562975253432, 0.54821282720998, -1.6115555810297, -1.02750347429488, 1.8162610204801], a = 0.2, v = 0.2, t = 0.2)
movej(p[-0.30939359706194, 0.0816176683417587, 0.5477052580124, -1.60000497727864, -1.03665127979331, 1.8064488705657], a = 0.2, v = 0.2, t = 0.2)
movej(p[-0.310778034814549, 0.0814393105971034, 0.54702823197592, -1.5947286612014, -1.03765911727367, 1.80454494602404], a = 0.2, v = 0.2, t = 0.2)
movej(p[-0.312114307627165, 0.0812346806895591, 0.546406348046876, -1.58877517964059, -1.03806240582985, 1.80159040154127], a = 0.2, v = 0.2, t = 0.2)
movej(p[-0.312561031229081, 0.0812089092009135, 0.546133739364212, -1.58505425404987, -1.0402563304356, 1.79472092113222], a = 0.2, v = 0.2, t = 0.2)
movej(p[-0.313313868410309, 0.0810771042176496, 0.545833702874852, -1.58430342514232, -1.03896084896502, 1.79468131101641], a = 0.2, v = 0.2, t = 0.2)
movej(p[-0.313610207854384, 0.0810423703930711, 0.545702026167285, -1.58674310151389, -1.03625738250461, 1.79107624173929], a = 0.2, v = 0.2, t = 0.2)
movej(p[-0.313819434224693, 0.0810005248520079, 0.545611478353063, -1.59087387361046, -1.02996062421193, 1.79162583019706], a = 0.2, v = 0.2, t = 0.2)
movej(p[-0.314445752636076, 0.0808340028016644, 0.545455359986711, -1.59458394091634, -1.02164066314798, 1.79244025745213], a = 0.2, v = 0.2, t = 0.2)
movej(p[-0.314445752636076, 0.0808340028016644, 0.545455359986711, -1.59458394091634, -1.02164066314798, 1.79244025745213], a = 0.2, v = 0.2, t = 0.2)
movej(p[-0.314134673540472, 0.0808144656439379, 0.545728088965271, -1.59358708881074, -1.02698665632258, 1.79411422606429], a = 0.2, v = 0.2, t = 0.2)
movej(p[-0.313031294733803, 0.0809148846347019, 0.546372517002593, -1.59372678318966, -1.03786203644809, 1.79696134224739], a = 0.2, v = 0.2, t = 0.2)
movej(p[-0.311647495509898, 0.0810551990880775, 0.547155424105699, -1.59687059834048, -1.04346924333862, 1.79563913828254], a = 0.2, v = 0.2, t = 0.2)
movej(p[-0.310729783617831, 0.0811699551339273, 0.547657998501286, -1.6112427433246, -1.03455032095429, 1.79626348981419], a = 0.2, v = 0.2, t = 0.2)
movej(p[-0.308441184607145, 0.0814883223907143, 0.548720315759969, -1.62716025774379, -1.02737516241665, 1.80704906650024], a = 0.2, v = 0.2, t = 0.2)
movej(p[-0.306070709585419, 0.0818800578966043, 0.549692581317726, -1.63581411801194, -1.0297609993062, 1.80997302854365], a = 0.2, v = 0.2, t = 0.2)
movej(p[-0.303426604207418, 0.0823601563782244, 0.550711244209938, -1.64628337553416, -1.0212275684988, 1.82441877215479], a = 0.2, v = 0.2, t = 0.2)
movej(p[-0.303426604207418, 0.0823601563782244, 0.550711244209938, -1.64420458288361, -1.0226891843254, 1.82716689052757], a = 0.2, v = 0.2, t = 0.2)
movej(p[-0.304624441950329, 0.0821388092780694, 0.550238686390289, -1.63733249507272, -1.01474394013481, 1.82985229907005], a = 0.2, v = 0.2, t = 0.2)
movej(p[-0.307172629376867, 0.0817781847044157, 0.549087219462362, -1.62404947630615, -1.01530344218341, 1.8244761231651], a = 0.2, v = 0.2, t = 0.2)
movej(p[-0.308193606079061, 0.0816968428472039, 0.548481960496429, -1.61073229019245, -1.02572499263923, 1.81773114334792], a = 0.2, v = 0.2, t = 0.2)
movej(p[-0.309603514166389, 0.0815142175345214, 0.547793722862718, -1.59928353771886, -1.03471445200442, 1.80931936144605], a = 0.2, v = 0.2, t = 0.2)
movej(p[-0.310865831469085, 0.0813920222100175, 0.547032665473304, -1.59401279936459, -1.03791233898842, 1.80530715088897], a = 0.2, v = 0.2, t = 0.2)
movej(p[-0.312295051291124, 0.0811960212025493, 0.546358348963522, -1.59420378746913, -1.03250795710008, 1.80313470143216], a = 0.2, v = 0.2, t = 0.2)
movej(p[-0.313410578972519, 0.0810036513108882, 0.545933887143304, -1.59788414243035, -1.02168975690461, 1.79554238608793], a = 0.2, v = 0.2, t = 0.2)
movej(p[-0.313933328079742, 0.0809202856224434, 0.545700204424885, -1.59921050682571, -1.01824396748595, 1.79343976858078], a = 0.2, v = 0.2, t = 0.2)
movej(p[-0.31420985697787, 0.0808501018889868, 0.545630411287269, -1.60113764107183, -1.01666908798573, 1.79495889490933], a = 0.2, v = 0.2, t = 0.2)
movej(p[-0.314391819576767, 0.0808096531152002, 0.545583975102008, -1.6024183964103, -1.01418166934504, 1.79260842283426], a = 0.2, v = 0.2, t = 0.2)
movej(p[-0.314545597275876, 0.0807682806423171, 0.545575073543478, -1.60352758314274, -1.00945929145669, 1.79369571006848], a = 0.2, v = 0.2, t = 0.2)
movej(p[-0.314639555737426, 0.0807195322388848, 0.545597407613104, -1.60352758314274, -1.00945929145669, 1.79369571006848], a = 0.2, v = 0.2, t = 0.2)
movej(p[-0.314633971117682, 0.0806998610790798, 0.545652017662493, -1.5985585834828, -1.01878560801579, 1.7940930350325], a = 0.2, v = 0.2, t = 0.2)
movej(p[-0.313407678735451, 0.0808618890698368, 0.546287897362983, -1.60396554023419, -1.02831927140239, 1.79191773496046], a = 0.2, v = 0.2, t = 0.2)
movej(p[-0.312265431706694, 0.0809931086068112, 0.546895681196604, -1.61047942275189, -1.02727469585147, 1.795531080013], a = 0.2, v = 0.2, t = 0.2)
movej(p[-0.310853286408993, 0.0811840832870921, 0.547587608403523, -1.61528827506298, -1.03035920295579, 1.79624862410341], a = 0.2, v = 0.2, t = 0.2)
movej(p[-0.310572094546941, 0.0812338489758702, 0.547698562326103, -1.61617585392616, -1.03282867046461, 1.79924910775786], a = 0.2, v = 0.2, t = 0.2)
movej(p[-0.309485638412464, 0.0813866354018909, 0.548246479095221, -1.61841491239897, -1.03672974367992, 1.79956000635959], a = 0.2, v = 0.2, t = 0.2)
movej(p[-0.307144514723921, 0.0817213928239732, 0.549310626844974, -1.6348647538073, -1.02591038836442, 1.81301173239438], a = 0.2, v = 0.2, t = 0.2)
movej(p[-0.303783552368582, 0.0822528846302639, 0.55068402138255, -1.64739387195874, -1.01567673037716, 1.82395193667611], a = 0.2, v = 0.2, t = 0.2)
movej(p[-0.303783552368582, 0.0822528846302639, 0.55068402138255, -1.64433149829693, -1.01714955045977, 1.82776526010516], a = 0.2, v = 0.2, t = 0.2)
movej(p[-0.305393959142838, 0.0820304419100827, 0.549903525900392, -1.63664975440613, -1.01179989260114, 1.82806742927998], a = 0.2, v = 0.2, t = 0.2)
movej(p[-0.307989665168902, 0.0817243982280058, 0.548565097829512, -1.61433902079015, -1.02657189689145, 1.81508979982276], a = 0.2, v = 0.2, t = 0.2)
movej(p[-0.308678281220449, 0.0817067642660428, 0.548018484852226, -1.60842682736851, -1.02608720531232, 1.8129595670921], a = 0.2, v = 0.2, t = 0.2)
movej(p[-0.309687352316703, 0.0816262927231233, 0.547357386929461, -1.60357733284155, -1.02973064200294, 1.80895235374654], a = 0.2, v = 0.2, t = 0.2)
movej(p[-0.310525066200982, 0.0815573766765887, 0.546853138254088, -1.5949057789183, -1.03584790291808, 1.80195563331511], a = 0.2, v = 0.2, t = 0.2)
movej(p[-0.31151173099138, 0.0814177327425259, 0.546405109535066, -1.59740751344386, -1.03014286351912, 1.79717434674727], a = 0.2, v = 0.2, t = 0.2)
movej(p[-0.312608687632434, 0.0812018546773161, 0.546070227468347, -1.60436658694065, -1.01521418305266, 1.79623816360646], a = 0.2, v = 0.2, t = 0.2)
movej(p[-0.312832202590308, 0.0811773426711669, 0.54594801271817, -1.61312774019143, -1.00709804991679, 1.79213307769748], a = 0.2, v = 0.2, t = 0.2)
movej(p[-0.313125679355368, 0.0811227730839555, 0.545878641769484, -1.61424533459023, -1.00419868301818, 1.79150951633169], a = 0.2, v = 0.2, t = 0.2)
movej(p[-0.313457581149695, 0.081043382349266, 0.545832906551455, -1.61721409668673, -0.999950341460473, 1.79098402260608], a = 0.2, v = 0.2, t = 0.2)
movej(p[-0.313839260543729, 0.0809458779725204, 0.54579047535202, -1.61548178927589, -0.996932954340127, 1.79163202357309], a = 0.2, v = 0.2, t = 0.2)
movej(p[-0.314431989673605, 0.0808069361365716, 0.545714357122805, -1.61500043710619, -0.996450353645424, 1.79195703732203], a = 0.2, v = 0.2, t = 0.2)
movej(p[-0.314431989673605, 0.0808069361365716, 0.545714357122805, -1.6140471152136, -0.996665991491717, 1.79153002649595], a = 0.2, v = 0.2, t = 0.2)
movej(p[-0.314416973473038, 0.0807874898840618, 0.545760424649153, -1.61202830215887, -0.998022662253723, 1.79427622311394], a = 0.2, v = 0.2, t = 0.2)
movej(p[-0.314009731651408, 0.0808301508755975, 0.545923918375383, -1.59206298043067, -1.02523813201964, 1.7977062862089], a = 0.2, v = 0.2, t = 0.2)
movej(p[-0.313680851076651, 0.0808883736132723, 0.546034617338183, -1.58969246190514, -1.03231430361125, 1.79782081377799], a = 0.2, v = 0.2, t = 0.2)
movej(p[-0.312885666434339, 0.0809732825276579, 0.546525874410284, -1.59295416023976, -1.03811755386024, 1.79646257774021], a = 0.2, v = 0.2, t = 0.2)
movej(p[-0.311409964861458, 0.0811529935885908, 0.547308247129885, -1.60556109208113, -1.03188354212237, 1.80057858978694], a = 0.2, v = 0.2, t = 0.2)
movej(p[-0.308961332996168, 0.0815332273335785, 0.548307922125799, -1.62186007107192, -1.02846763691267, 1.80538715900628], a = 0.2, v = 0.2, t = 0.2)
movej(p[-0.306865753401152, 0.0818604933051555, 0.549186404137455, -1.63016846272011, -1.02576379470766, 1.81057492375228], a = 0.2, v = 0.2, t = 0.2)
movej(p[-0.305654304135501, 0.0820481313657432, 0.549583957976542, -1.63725474765847, -1.02000116809251, 1.81679210489587], a = 0.2, v = 0.2, t = 0.2)
movej(p[-0.305654304135501, 0.0820481313657432, 0.549583957976542, -1.63197857414042, -1.01867561586196, 1.82192748765151], a = 0.2, v = 0.2, t = 0.2)
movej(p[-0.307634581584406, 0.0817440856556619, 0.548719618615213, -1.61257741766115, -1.02384559006031, 1.81788149606347], a = 0.2, v = 0.2, t = 0.2)
movej(p[-0.30875757501764, 0.0816641506777679, 0.547919628816389, -1.60670005883144, -1.02338162974923, 1.81551046865899], a = 0.2, v = 0.2, t = 0.2)
movej(p[-0.309689325060957, 0.0815569483005003, 0.547390855710902, -1.59809154141074, -1.02780686311962, 1.80986325152548], a = 0.2, v = 0.2, t = 0.2)
movej(p[-0.310755012729522, 0.0814297783361908, 0.546875654193779, -1.59298343154765, -1.03183298039193, 1.80562137829737], a = 0.2, v = 0.2, t = 0.2)
movej(p[-0.311486203791361, 0.0813732837724677, 0.546351423399799, -1.58586406796164, -1.03737030442427, 1.80031781488742], a = 0.2, v = 0.2, t = 0.2)
movej(p[-0.312578237426803, 0.0811946579859841, 0.545964910220895, -1.58072226802277, -1.04078696288097, 1.79872811415784], a = 0.2, v = 0.2, t = 0.2)
movej(p[-0.313133618813144, 0.0811220108001832, 0.54570704924653, -1.57714288767679, -1.04320939187138, 1.79649567060802], a = 0.2, v = 0.2, t = 0.2)
movej(p[-0.313378625244561, 0.0810966825584012, 0.545584977059965, -1.57336405157275, -1.04609259363749, 1.79385785232654], a = 0.2, v = 0.2, t = 0.2)
movej(p[-0.313783587125103, 0.0810423452699221, 0.545430662982874, -1.5697811021004, -1.04968920781311, 1.79119982711006], a = 0.2, v = 0.2, t = 0.2)
movej(p[-0.314101043996301, 0.0809968129149007, 0.545315198184881, -1.56808278000918, -1.05095952658515, 1.79024097161329], a = 0.2, v = 0.2, t = 0.2)
movej(p[-0.314365101251775, 0.0809412326069215, 0.545313331316807, -1.56730479816026, -1.04968814088372, 1.79052722541422], a = 0.2, v = 0.2, t = 0.2)
movej(p[-0.314883119753906, 0.0808341862851795, 0.545223154343855, -1.56587608841531, -1.05079224405861, 1.78919493580281], a = 0.2, v = 0.2, t = 0.2)
movej(p[-0.314936940045768, 0.0808325348442327, 0.545211753513766, -1.5663901762073, -1.0516934664645, 1.78896556420564], a = 0.2, v = 0.2, t = 0.2)
movej(p[-0.314934686312736, 0.0808234044044987, 0.545224543969493, -1.57123533527317, -1.04831223923348, 1.78818956653697], a = 0.2, v = 0.2, t = 0.2)
movej(p[-0.314626667926797, 0.0808077258190296, 0.545553951810748, -1.57961434867227, -1.04240780689476, 1.79193662756902], a = 0.2, v = 0.2, t = 0.2)
movej(p[-0.313268716689576, 0.0809382899068038, 0.546390449602924, -1.59890466125588, -1.03226886316348, 1.79529979751298], a = 0.2, v = 0.2, t = 0.2)
movej(p[-0.311960460215922, 0.0811090165047871, 0.547097660376232, -1.60662719764056, -1.03308785556333, 1.79666044194062], a = 0.2, v = 0.2, t = 0.2)
movej(p[-0.310485785436897, 0.0813011453452846, 0.547851053198575, -1.62173181787348, -1.02461085227938, 1.80227437987842], a = 0.2, v = 0.2, t = 0.2)
movej(p[-0.308697491462112, 0.0815736965138521, 0.548563777984351, -1.62720768508819, -1.02901813275748, 1.80269919808978], a = 0.2, v = 0.2, t = 0.2)
movej(p[-0.306726609273782, 0.0818368515688734, 0.549452426467578, -1.63790488879004, -1.02166219799479, 1.81199655408096], a = 0.2, v = 0.2, t = 0.2)
movej(p[-0.306565255847766, 0.0818705884213261, 0.549448078284131, -1.63702681630095, -1.02227083653568, 1.81316081213209], a = 0.2, v = 0.2, t = 0.2)
movej(p[-0.306567981565914, 0.0818752802480648, 0.5493833348117, -1.62963277135234, -1.01917989152335, 1.81847545881998], a = 0.2, v = 0.2, t = 0.2)
movej(p[-0.308439739775779, 0.0816105182353514, 0.548591896999596, -1.61029463580574, -1.02741435071351, 1.8151816347235], a = 0.2, v = 0.2, t = 0.2)
movej(p[-0.309235579937898, 0.0815401168024409, 0.547866522941194, -1.60596367230638, -1.02713626461816, 1.81329794534558], a = 0.2, v = 0.2, t = 0.2)
movej(p[-0.310054909632413, 0.0814699011753929, 0.547355558414632, -1.59626921125159, -1.03294167098329, 1.80599282290383], a = 0.2, v = 0.2, t = 0.2)
movej(p[-0.310868828867686, 0.0813617340371068, 0.546853301340369, -1.59280838572574, -1.03434830849256, 1.80564180566826], a = 0.2, v = 0.2, t = 0.2)
movej(p[-0.311678067688575, 0.0812755206959319, 0.546429594979111, -1.5857965908962, -1.03854830637953, 1.80095323616324], a = 0.2, v = 0.2, t = 0.2)
movej(p[-0.312682162751029, 0.081155442806006, 0.54593027878079, -1.5777576870211, -1.04327484440147, 1.79602171233389], a = 0.2, v = 0.2, t = 0.2)
movej(p[-0.312927423863954, 0.0811182777723236, 0.545737255163691, -1.5768210741505, -1.04212663767014, 1.79616369348674], a = 0.2, v = 0.2, t = 0.2)
movej(p[-0.313374362130132, 0.0810489337267726, 0.545543355732097, -1.57588293876767, -1.04291194750075, 1.79451858396684], a = 0.2, v = 0.2, t = 0.2)
movej(p[-0.313645341195507, 0.0810310829004849, 0.545467390383883, -1.5757948385763, -1.043011265622, 1.79399177977173], a = 0.2, v = 0.2, t = 0.2)
movej(p[-0.313778480624796, 0.0809857612732253, 0.54543901253211, -1.57569044547896, -1.04286789254175, 1.79401553528432], a = 0.2, v = 0.2, t = 0.2)
movej(p[-0.314104862831143, 0.0809510912471497, 0.54530795901376, -1.5742905890118, -1.04197389073024, 1.79393036936234], a = 0.2, v = 0.2, t = 0.2)
movej(p[-0.314376785918408, 0.0808942357511122, 0.545315286849904, -1.57157212030144, -1.04383111075802, 1.79517041600062], a = 0.2, v = 0.2, t = 0.2)
movej(p[-0.31436242313185, 0.0808595822747468, 0.545579393830005, -1.57217558311339, -1.04490419824937, 1.79491020021821], a = 0.2, v = 0.2, t = 0.2)
movej(p[-0.313519953900137, 0.0809466588757376, 0.546272068673764, -1.59203845523426, -1.03332849152939, 1.79655263973822], a = 0.2, v = 0.2, t = 0.2)
movej(p[-0.312283947453899, 0.0811209954916826, 0.546908834210834, -1.60076148577198, -1.03534408133414, 1.79700637453516], a = 0.2, v = 0.2, t = 0.2)
movej(p[-0.311045764888226, 0.0812778573711661, 0.547672802688474, -1.61411977941332, -1.03417631310406, 1.79818749942185], a = 0.2, v = 0.2, t = 0.2)
movej(p[-0.310142792119758, 0.081386905390498, 0.548065779836519, -1.62186617481326, -1.0314122353576, 1.80140003577159], a = 0.2, v = 0.2, t = 0.2)
movej(p[-0.308359188852073, 0.0816500828868266, 0.548660653141458, -1.63310636057179, -1.02582812294071, 1.80660176237746], a = 0.2, v = 0.2, t = 0.2)
movej(p[-0.306391603193953, 0.0819262670460076, 0.549558403016522, -1.64269189890689, -1.02140177625081, 1.8132184827416], a = 0.2, v = 0.2, t = 0.2)
movej(p[-0.306391603193953, 0.0819262670460076, 0.549558403016522, -1.64090662940034, -1.02264720758791, 1.81558562793082], a = 0.2, v = 0.2, t = 0.2)
movej(p[-0.306632753825072, 0.0818710278944169, 0.549286660658318, -1.62949133527925, -1.01533188815306, 1.82035095974013], a = 0.2, v = 0.2, t = 0.2)
movej(p[-0.308386113227799, 0.0816425639526929, 0.548312375416615, -1.61105122825011, -1.01962431504411, 1.81767440928419], a = 0.2, v = 0.2, t = 0.2)
movej(p[-0.30972825102448, 0.0814914939132902, 0.547505383404316, -1.59890693664031, -1.02929011689603, 1.80741625187417], a = 0.2, v = 0.2, t = 0.2)
movej(p[-0.310859541290029, 0.0813696009579638, 0.546792521389255, -1.59127554824909, -1.03514221596621, 1.80498788108119], a = 0.2, v = 0.2, t = 0.2)
movej(p[-0.311577224375328, 0.0812669045739371, 0.546346604747064, -1.58593352322727, -1.04137541001241, 1.79856541073732], a = 0.2, v = 0.2, t = 0.2)
movej(p[-0.312355390856288, 0.0811814397477868, 0.545879558687877, -1.58206355220026, -1.04438695569621, 1.79528112665663], a = 0.2, v = 0.2, t = 0.2)
movej(p[-0.312831550581082, 0.0810972150302738, 0.545706994718741, -1.57985856556663, -1.04215772592525, 1.79407173762027], a = 0.2, v = 0.2, t = 0.2)
movej(p[-0.313828126637015, 0.0809629682730697, 0.545517080019675, -1.57591557070075, -1.04469499757961, 1.79099305856239], a = 0.2, v = 0.2, t = 0.2)
movej(p[-0.314067374706051, 0.0809142114305441, 0.545392780294134, -1.57387579339005, -1.04448697255204, 1.79104162454589], a = 0.2, v = 0.2, t = 0.2)
movej(p[-0.314288472017541, 0.0808915550725544, 0.545321584379261, -1.57240091928214, -1.04556184675677, 1.7902949834438], a = 0.2, v = 0.2, t = 0.2)
movej(p[-0.31439107397699, 0.080882422224991, 0.545277450729826, -1.57131318402831, -1.04629469361403, 1.79036032436232], a = 0.2, v = 0.2, t = 0.2)
movej(p[-0.314476104981968, 0.0808646433743049, 0.545279742161855, -1.571764784422, -1.04601364967241, 1.78977638444154], a = 0.2, v = 0.2, t = 0.2)
movej(p[-0.314473781837679, 0.0808660497579781, 0.545376861856488, -1.57343900893961, -1.04484003442535, 1.78946969347287], a = 0.2, v = 0.2, t = 0.2)
movej(p[-0.314122574189168, 0.0808779405771301, 0.546051407026249, -1.58744985399539, -1.03487966888527, 1.79602100963085], a = 0.2, v = 0.2, t = 0.2)
movej(p[-0.31246184841097, 0.0811018740088298, 0.547125499963473, -1.6082386410339, -1.02959938331693, 1.79861399187496], a = 0.2, v = 0.2, t = 0.2)
movej(p[-0.310574616467839, 0.081371412440946, 0.54794038003222, -1.62034040035704, -1.02963606645436, 1.80237580014113], a = 0.2, v = 0.2, t = 0.2)
movej(p[-0.308874123735651, 0.0816120641154908, 0.548571979026292, -1.62895955005116, -1.02868998952207, 1.80686264595873], a = 0.2, v = 0.2, t = 0.2)
movej(p[-0.307030361012168, 0.0818548248610115, 0.549469808130258, -1.63531498341717, -1.02590970292254, 1.81273425602389], a = 0.2, v = 0.2, t = 0.2)
movej(p[-0.307030361012168, 0.0818548248610115, 0.549469808130258, -1.6348246957474, -1.02624798780436, 1.81338152472072], a = 0.2, v = 0.2, t = 0.2)
movej(p[-0.307057345775764, 0.081862630415715, 0.549291283185644, -1.62923489402906, -1.0262143850476, 1.81583703333115], a = 0.2, v = 0.2, t = 0.2)
movej(p[-0.308321414673809, 0.0816934498775898, 0.548578517427127, -1.61566561695127, -1.02784788575437, 1.81221699171471], a = 0.2, v = 0.2, t = 0.2)
movej(p[-0.309289726161862, 0.0815550414095398, 0.547880620903223, -1.60077951135334, -1.03235640879699, 1.81047980626233], a = 0.2, v = 0.2, t = 0.2)
movej(p[-0.310103288789458, 0.0814502778116221, 0.547364910994912, -1.59686787266803, -1.031626634782, 1.80901817004359], a = 0.2, v = 0.2, t = 0.2)
movej(p[-0.31115742137925, 0.081312145599476, 0.546984862425507, -1.59326261648377, -1.03276184767091, 1.80517397392964], a = 0.2, v = 0.2, t = 0.2)
movej(p[-0.311936827021267, 0.081201113905429, 0.546364481407012, -1.58597118024221, -1.03812670148674, 1.79917843525025], a = 0.2, v = 0.2, t = 0.2)
movej(p[-0.312229004749754, 0.0811548247454152, 0.546092793684357, -1.58414072362488, -1.0379809108246, 1.79840821604646], a = 0.2, v = 0.2, t = 0.2)
movej(p[-0.31266431157626, 0.0810901951729748, 0.545942347829767, -1.58339390548958, -1.03659555799663, 1.79747695616425], a = 0.2, v = 0.2, t = 0.2)
movej(p[-0.31316367528528, 0.081038805816019, 0.545736139779233, -1.58180431553677, -1.03779768308137, 1.79390134121438], a = 0.2, v = 0.2, t = 0.2)
movej(p[-0.313840599745232, 0.080970817079184, 0.545551247223452, -1.57875381509554, -1.04017714447484, 1.79132212698572], a = 0.2, v = 0.2, t = 0.2)
movej(p[-0.314218882875465, 0.0809126563791945, 0.545409172256067, -1.57424563510423, -1.04360556959018, 1.78948930013956], a = 0.2, v = 0.2, t = 0.2)
movej(p[-0.314276725278509, 0.0809026900991882, 0.545400170607724, -1.57410261749692, -1.0454885633651, 1.78919279575826], a = 0.2, v = 0.2, t = 0.2)
movej(p[-0.314283085480263, 0.0809013602657077, 0.545400342003675, -1.57410261749692, -1.0454885633651, 1.78919279575826], a = 0.2, v = 0.2, t = 0.2)
movej(p[-0.31427305116557, 0.0808942466942598, 0.545717504690053, -1.58046945113883, -1.04055269010398, 1.79449765208549], a = 0.2, v = 0.2, t = 0.2)
movej(p[-0.313281148558892, 0.0810392266851944, 0.546412678309441, -1.59377266792271, -1.03192454286795, 1.79649937181008], a = 0.2, v = 0.2, t = 0.2)
movej(p[-0.312146305888932, 0.0812171121872923, 0.547179828491989, -1.60419898881972, -1.03499336003373, 1.79855076139052], a = 0.2, v = 0.2, t = 0.2)
movej(p[-0.310558388399528, 0.0814238772791528, 0.547880187752392, -1.61351779516613, -1.03859256855821, 1.7999990579583], a = 0.2, v = 0.2, t = 0.2)
movej(p[-0.308581677805554, 0.0816954718363417, 0.54859171984877, -1.62877999331049, -1.03122993479951, 1.80419207367636], a = 0.2, v = 0.2, t = 0.2)
movej(p[-0.306854779644664, 0.0819051282098879, 0.549469679766389, -1.64126429776076, -1.02227352189958, 1.81435523520777], a = 0.2, v = 0.2, t = 0.2)
movej(p[-0.306129137540067, 0.0820033162050697, 0.549728459911761, -1.63724675408481, -1.02394167421353, 1.81925309324288], a = 0.2, v = 0.2, t = 0.2)
movej(p[-0.306129137540067, 0.0820033162050697, 0.549728459911761, -1.6343469635511, -1.02058700960809, 1.81946856973592], a = 0.2, v = 0.2, t = 0.2)
movej(p[-0.307009828964068, 0.0818990614446217, 0.549418262328573, -1.62973365794587, -1.01696804197432, 1.81918149884141], a = 0.2, v = 0.2, t = 0.2)
movej(p[-0.308511370260167, 0.0816999173562088, 0.548561567296394, -1.61337449700279, -1.02021896900431, 1.81332517762612], a = 0.2, v = 0.2, t = 0.2)
movej(p[-0.30967632019364, 0.0815251260477158, 0.547622747318456, -1.60423637712056, -1.02630261660618, 1.80618077852705], a = 0.2, v = 0.2, t = 0.2)
movej(p[-0.310656882723416, 0.0813860470746102, 0.547117324669142, -1.60226823550567, -1.0277910287775, 1.80309527101787], a = 0.2, v = 0.2, t = 0.2)
movej(p[-0.31132145299248, 0.0812913521819622, 0.546747540969146, -1.59812104811696, -1.02860615985724, 1.80079026642036], a = 0.2, v = 0.2, t = 0.2)
movej(p[-0.31253102552044, 0.081153761357982, 0.546155647190871, -1.58685559574166, -1.03654684193494, 1.79687113013534], a = 0.2, v = 0.2, t = 0.2)
movej(p[-0.312846210722491, 0.0810948435206565, 0.545986492744129, -1.58471904169925, -1.03638414175443, 1.7959712254741], a = 0.2, v = 0.2, t = 0.2)
movej(p[-0.313457768552333, 0.0810191943966426, 0.545729299274548, -1.58310050011301, -1.03765035763584, 1.79460275505604], a = 0.2, v = 0.2, t = 0.2)
movej(p[-0.313666508722565, 0.0809901982763833, 0.545479645721917, -1.5822629856296, -1.04247610662734, 1.79176374656531], a = 0.2, v = 0.2, t = 0.2)
movej(p[-0.314020046806835, 0.0809295482476134, 0.545432515190611, -1.57960882112691, -1.04445794094019, 1.79072831148854], a = 0.2, v = 0.2, t = 0.2)
movej(p[-0.314484480955669, 0.080864339612826, 0.545470955343392, -1.57952090954786, -1.04302914684449, 1.79323497688999], a = 0.2, v = 0.2, t = 0.2)
movej(p[-0.314499875397735, 0.0809551723981311, 0.545604451621495, -1.57903458044442, -1.04216581042347, 1.79344278594898], a = 0.2, v = 0.2, t = 0.2)
movej(p[-0.314071452416074, 0.0810262189842611, 0.5463190935188, -1.59199949364648, -1.03256599945691, 1.79623952226926], a = 0.2, v = 0.2, t = 0.2)
movej(p[-0.312914262310142, 0.0811683081568524, 0.546841378197653, -1.59924180740022, -1.03024533071809, 1.79891370271991], a = 0.2, v = 0.2, t = 0.2)
movej(p[-0.311658405943366, 0.0813392525177176, 0.547297208101803, -1.603417742894, -1.03030503124751, 1.80080892859057], a = 0.2, v = 0.2, t = 0.2)
movej(p[-0.310114833558429, 0.0815238340295917, 0.547897831759292, -1.60778720320155, -1.0269189704698, 1.80494353031014], a = 0.2, v = 0.2, t = 0.2)
movej(p[-0.308687304199371, 0.0817123964158621, 0.548618568192055, -1.61361056029097, -1.02420289376503, 1.81159540436781], a = 0.2, v = 0.2, t = 0.2)
movej(p[-0.30644901219872, 0.0819678045630664, 0.549335557193478, -1.61718488932918, -1.02205450212656, 1.82110507044311], a = 0.2, v = 0.2, t = 0.2)
movej(p[-0.304816095550756, 0.0822266327984011, 0.550418300272604, -1.62354141270508, -1.01690780071343, 1.82775732287828], a = 0.2, v = 0.2, t = 0.2)
movej(p[-0.304816095550756, 0.0822266327984011, 0.550418300272604, -1.62352815734034, -1.0168835052429, 1.82776246013312], a = 0.2, v = 0.2, t = 0.2)
movej(p[-0.305856833939686, 0.0820758808302885, 0.549804043404578, -1.61786520831667, -1.02046653157772, 1.82328047101536], a = 0.2, v = 0.2, t = 0.2)
movej(p[-0.307628272907866, 0.0818224483550075, 0.548818417896342, -1.61014478122299, -1.02555347117908, 1.81606433477345], a = 0.2, v = 0.2, t = 0.2)
movej(p[-0.30883416002263, 0.0816200347834036, 0.547974105736962, -1.60483213884205, -1.02969715082485, 1.80986311528757], a = 0.2, v = 0.2, t = 0.2)
movej(p[-0.309796325592262, 0.0814500737664047, 0.547248085124778, -1.60062753796395, -1.03311391686226, 1.8046591787754], a = 0.2, v = 0.2, t = 0.2)
movej(p[-0.310706789444443, 0.0812834341218941, 0.546539860885748, -1.59641385983768, -1.03647580143722, 1.79966218233229], a = 0.2, v = 0.2, t = 0.2)
movej(p[-0.311280384599021, 0.0811909193830007, 0.546172523708578, -1.5943322984678, -1.03798145287865, 1.79708781526659], a = 0.2, v = 0.2, t = 0.2)
movej(p[-0.311911515526184, 0.0811117005679633, 0.545897033759355, -1.59237853218042, -1.03928720514252, 1.7948983153714], a = 0.2, v = 0.2, t = 0.2)
movej(p[-0.31331000245656, 0.0809469683849023, 0.545304981275674, -1.58706251664478, -1.0432337056095, 1.78958558441881], a = 0.2, v = 0.2, t = 0.2)
movej(p[-0.313537729956568, 0.0809273630749502, 0.545292060069776, -1.58699119725499, -1.04298424512491, 1.78897120488854], a = 0.2, v = 0.2, t = 0.2)
movej(p[-0.313780744665364, 0.080939059691485, 0.545387056335336, -1.58684083380804, -1.04189282736038, 1.78872839659261], a = 0.2, v = 0.2, t = 0.2)
movej(p[-0.314147074524393, 0.0809874491079778, 0.545586116197577, -1.58577948467597, -1.04002443606971, 1.78917461973036], a = 0.2, v = 0.2, t = 0.2)
movej(p[-0.314305101075646, 0.0809544078607303, 0.545590374727758, -1.58462632732348, -1.03902200827743, 1.79004150373056], a = 0.2, v = 0.2, t = 0.2)
movej(p[-0.314306045047964, 0.0809609500331058, 0.545606105236233, -1.58500144125236, -1.03872824162491, 1.79035941635521], a = 0.2, v = 0.2, t = 0.2)
movej(p[-0.314196135783552, 0.0810314557411766, 0.546082813971968, -1.59729337495979, -1.03092476196656, 1.79267024994428], a = 0.2, v = 0.2, t = 0.2)
movej(p[-0.313160692423298, 0.0812135911645443, 0.54683889051919, -1.60350253963425, -1.02683207738003, 1.79751722657653], a = 0.2, v = 0.2, t = 0.2)
movej(p[-0.311925192621053, 0.0813555249416853, 0.547292671933043, -1.60532561893021, -1.02917451247274, 1.79987054952274], a = 0.2, v = 0.2, t = 0.2)
movej(p[-0.310375986470002, 0.0815182847834479, 0.547815479876227, -1.61370980907213, -1.03108144426614, 1.80360067918796], a = 0.2, v = 0.2, t = 0.2)
