def moving():
set_payload_mass(0)
set_tcp(p[0,0,0,0,0,0])
movej(p[0.4213, 0.2206, 0.3109, -1.405, 0.76, -0.761], a = 0.2, v = 0.2, t = 0.2)
movej(p[0.42129708186797, 0.220594813761932, 0.311119679675867, -1.405, 0.76, -0.761], a = 0.2, v = 0.2, t = 0.2)
movej(p[0.421294163735941, 0.220589627523865, 0.311339359351735, -1.405, 0.76, -0.761], a = 0.2, v = 0.2, t = 0.2)
movej(p[0.421291245603911, 0.220584441285797, 0.311559039027602, -1.405, 0.76, -0.761], a = 0.2, v = 0.2, t = 0.2)
movej(p[0.421288327471882, 0.220579255047729, 0.311778718703469, -1.405, 0.76, -0.761], a = 0.2, v = 0.2, t = 0.2)
movej(p[0.421285409339852, 0.220574068809662, 0.311998398379336, -1.405, 0.76, -0.761], a = 0.2, v = 0.2, t = 0.2)
movej(p[0.421282491207823, 0.220568882571594, 0.312218078055204, -1.405, 0.76, -0.761], a = 0.2, v = 0.2, t = 0.2)
movej(p[0.421279573075793, 0.220563696333526, 0.312437757731071, -1.405, 0.76, -0.761], a = 0.2, v = 0.2, t = 0.2)
movej(p[0.421276654943764, 0.220558510095458, 0.312657437406938, -1.405, 0.76, -0.761], a = 0.2, v = 0.2, t = 0.2)
movej(p[0.421273736811734, 0.220553323857391, 0.312877117082806, -1.405, 0.76, -0.761], a = 0.2, v = 0.2, t = 0.2)
movej(p[0.421270818679705, 0.220548137619323, 0.313096796758673, -1.405, 0.76, -0.761], a = 0.2, v = 0.2, t = 0.2)
movej(p[0.421278478173363, 0.220561750422714, 0.312520182997884, -1.405, 0.76, -0.761], a = 0.2, v = 0.2, t = 0.2)
movej(p[0.421282749257515, 0.22056934118934, 0.312198651835933, -1.405, 0.76, -0.761], a = 0.2, v = 0.2, t = 0.2)
movej(p[0.421286487360528, 0.220575984717444, 0.311917243986681, -1.405, 0.76, -0.761], a = 0.2, v = 0.2, t = 0.2)
movej(p[0.42128780413746, 0.220578324953795, 0.311818115802364, -1.405, 0.76, -0.761], a = 0.2, v = 0.2, t = 0.2)
movej(p[0.421288214122952, 0.220579053598813, 0.311787251715672, -1.405, 0.76, -0.761], a = 0.2, v = 0.2, t = 0.2)
movej(p[0.421288612050047, 0.220579760813095, 0.311757295396236, -1.405, 0.76, -0.761], a = 0.2, v = 0.2, t = 0.2)
movej(p[0.421290085586138, 0.220582379649011, 0.311646366237595, -1.405, 0.76, -0.761], a = 0.2, v = 0.2, t = 0.2)
movej(p[0.421288715752259, 0.220579945117423, 0.311749488597837, -1.405, 0.76, -0.761], a = 0.2, v = 0.2, t = 0.2)
movej(p[0.421279710541517, 0.220563940643914, 0.312427409184357, -1.405, 0.76, -0.761], a = 0.2, v = 0.2, t = 0.2)
movej(p[0.421267833020653, 0.220542831369135, 0.313321559931172, -1.405, 0.76, -0.761], a = 0.2, v = 0.2, t = 0.2)
movej(p[0.421254906419266, 0.220519857620339, 0.314294686429229, -1.405, 0.76, -0.761], a = 0.2, v = 0.2, t = 0.2)
movej(p[0.421237597796476, 0.220489095942148, 0.315597695547989, -1.405, 0.76, -0.761], a = 0.2, v = 0.2, t = 0.2)
movej(p[0.421223219364113, 0.22046354193276, 0.316680117223626, -1.405, 0.76, -0.761], a = 0.2, v = 0.2, t = 0.2)
movej(p[0.421220149296283, 0.220458085667421, 0.316911234766914, -1.405, 0.76, -0.761], a = 0.2, v = 0.2, t = 0.2)
movej(p[0.421234957007574, 0.220484402611004, 0.315796496576976, -1.405, 0.76, -0.761], a = 0.2, v = 0.2, t = 0.2)
movej(p[0.421255280229567, 0.220520521973149, 0.314266545644304, -1.405, 0.76, -0.761], a = 0.2, v = 0.2, t = 0.2)
movej(p[0.421270148232842, 0.220546946070412, 0.313147268618087, -1.405, 0.76, -0.761], a = 0.2, v = 0.2, t = 0.2)
movej(p[0.421281198547684, 0.220566585196714, 0.312315390705009, -1.405, 0.76, -0.761], a = 0.2, v = 0.2, t = 0.2)
movej(p[0.421284953532453, 0.220573258727848, 0.3120327119816, -1.405, 0.76, -0.761], a = 0.2, v = 0.2, t = 0.2)
movej(p[0.421286620002893, 0.220576220455538, 0.311907258546869, -1.405, 0.76, -0.761], a = 0.2, v = 0.2, t = 0.2)
movej(p[0.421288609638367, 0.220579756526947, 0.311757476949687, -1.405, 0.76, -0.761], a = 0.2, v = 0.2, t = 0.2)
movej(p[0.421288829101189, 0.220580146566339, 0.311740955585634, -1.405, 0.76, -0.761], a = 0.2, v = 0.2, t = 0.2)
movej(p[0.421285136820084, 0.220573584475032, 0.312018913919314, -1.405, 0.76, -0.761], a = 0.2, v = 0.2, t = 0.2)
movej(p[0.421274277027912, 0.220554283954355, 0.312836449109753, -1.405, 0.76, -0.761], a = 0.2, v = 0.2, t = 0.2)
movej(p[0.421260597982563, 0.220529972927645, 0.313866220284562, -1.405, 0.76, -0.761], a = 0.2, v = 0.2, t = 0.2)
movej(p[0.42124443973083, 0.22050125574165, 0.315082628407133, -1.405, 0.76, -0.761], a = 0.2, v = 0.2, t = 0.2)
movej(p[0.421229224445727, 0.220474214439196, 0.316228049130312, -1.405, 0.76, -0.761], a = 0.2, v = 0.2, t = 0.2)
movej(p[0.421221017500854, 0.220459628680399, 0.316845875524507, -1.405, 0.76, -0.761], a = 0.2, v = 0.2, t = 0.2)
movej(p[0.421227890787039, 0.220471844199815, 0.316328448188787, -1.405, 0.76, -0.761], a = 0.2, v = 0.2, t = 0.2)
movej(p[0.421246388367755, 0.220504718948558, 0.31493593321862, -1.405, 0.76, -0.761], a = 0.2, v = 0.2, t = 0.2)
movej(p[0.42126454831336, 0.220536993636698, 0.313568835731611, -1.405, 0.76, -0.761], a = 0.2, v = 0.2, t = 0.2)
movej(p[0.421278343119318, 0.220561510398473, 0.312530349991147, -1.405, 0.76, -0.761], a = 0.2, v = 0.2, t = 0.2)
movej(p[0.421283540288346, 0.22057074704561, 0.312139102303962, -1.405, 0.76, -0.761], a = 0.2, v = 0.2, t = 0.2)
movej(p[0.421286246192591, 0.220575556102727, 0.311935399331794, -1.405, 0.76, -0.761], a = 0.2, v = 0.2, t = 0.2)
movej(p[0.421287835489292, 0.220578380673708, 0.3118157556075, -1.405, 0.76, -0.761], a = 0.2, v = 0.2, t = 0.2)
movej(p[0.421289120914392, 0.220580665190146, 0.311718987618047, -1.405, 0.76, -0.761], a = 0.2, v = 0.2, t = 0.2)
movej(p[0.421288026011962, 0.220578719279334, 0.31180141288486, -1.405, 0.76, -0.761], a = 0.2, v = 0.2, t = 0.2)
movej(p[0.421280279697847, 0.220564952174645, 0.31238456256989, -1.405, 0.76, -0.761], a = 0.2, v = 0.2, t = 0.2)
movej(p[0.42126867710843, 0.220544331520642, 0.313258016223276, -1.405, 0.76, -0.761], a = 0.2, v = 0.2, t = 0.2)
movej(p[0.421251197256406, 0.220513265526002, 0.314573915637067, -1.405, 0.76, -0.761], a = 0.2, v = 0.2, t = 0.2)
movej(p[0.421235851740617, 0.220485992771601, 0.315729140246607, -1.405, 0.76, -0.761], a = 0.2, v = 0.2, t = 0.2)
movej(p[0.421224806249134, 0.220466362217593, 0.316560655052782, -1.405, 0.76, -0.761], a = 0.2, v = 0.2, t = 0.2)
movej(p[0.421220600280324, 0.22045888717694, 0.316877284271553, -1.405, 0.76, -0.761], a = 0.2, v = 0.2, t = 0.2)
movej(p[0.421230488165713, 0.22047646038031, 0.31613291512192, -1.405, 0.76, -0.761], a = 0.2, v = 0.2, t = 0.2)
movej(p[0.421251742295942, 0.220514234195261, 0.314532884557111, -1.405, 0.76, -0.761], a = 0.2, v = 0.2, t = 0.2)
movej(p[0.421270396635816, 0.22054738754357, 0.313128568612621, -1.405, 0.76, -0.761], a = 0.2, v = 0.2, t = 0.2)
movej(p[0.421278929157403, 0.220562551932234, 0.312486232502523, -1.405, 0.76, -0.761], a = 0.2, v = 0.2, t = 0.2)
movej(p[0.421283863453381, 0.22057132138933, 0.312114774141511, -1.405, 0.76, -0.761], a = 0.2, v = 0.2, t = 0.2)
movej(p[0.421286849112432, 0.220576627639518, 0.311890010969012, -1.405, 0.76, -0.761], a = 0.2, v = 0.2, t = 0.2)
movej(p[0.421288520406231, 0.220579597939502, 0.311764194427379, -1.405, 0.76, -0.761], a = 0.2, v = 0.2, t = 0.2)
movej(p[0.421288795337678, 0.220580086560279, 0.31174349733395, -1.405, 0.76, -0.761], a = 0.2, v = 0.2, t = 0.2)
movej(p[0.421285443103364, 0.220574128815722, 0.311995856631021, -1.405, 0.76, -0.761], a = 0.2, v = 0.2, t = 0.2)
movej(p[0.421274643603175, 0.220554935448724, 0.312808852985181, -1.405, 0.76, -0.761], a = 0.2, v = 0.2, t = 0.2)
movej(p[0.42125723851321, 0.220524002324646, 0.314119124241986, -1.405, 0.76, -0.761], a = 0.2, v = 0.2, t = 0.2)
movej(p[0.42124034711095, 0.220493982149914, 0.3153907246137, -1.405, 0.76, -0.761], a = 0.2, v = 0.2, t = 0.2)
movej(p[0.421229424615114, 0.220474570189411, 0.316212980193868, -1.405, 0.76, -0.761], a = 0.2, v = 0.2, t = 0.2)
movej(p[0.421219271444995, 0.220456525509853, 0.316977320223125, -1.405, 0.76, -0.761], a = 0.2, v = 0.2, t = 0.2)
movej(p[0.421222495860304, 0.220462256088611, 0.316734583258965, -1.405, 0.76, -0.761], a = 0.2, v = 0.2, t = 0.2)
movej(p[0.421244200974573, 0.220500831413081, 0.315100602198795, -1.405, 0.76, -0.761], a = 0.2, v = 0.2, t = 0.2)
movej(p[0.421266287134181, 0.220540083948803, 0.313437935693346, -1.405, 0.76, -0.761], a = 0.2, v = 0.2, t = 0.2)
movej(p[0.421277262686963, 0.220559590204544, 0.312611685937254, -1.405, 0.76, -0.761], a = 0.2, v = 0.2, t = 0.2)
movej(p[0.421282780609346, 0.220569396909253, 0.312196291641068, -1.405, 0.76, -0.761], a = 0.2, v = 0.2, t = 0.2)
movej(p[0.421287027576705, 0.220576944814408, 0.311876576013628, -1.405, 0.76, -0.761], a = 0.2, v = 0.2, t = 0.2)
movej(p[0.421288161066006, 0.220578959303575, 0.311791245891597, -1.405, 0.76, -0.761], a = 0.2, v = 0.2, t = 0.2)
movej(p[0.421288445644171, 0.22057946506894, 0.311769822584364, -1.405, 0.76, -0.761], a = 0.2, v = 0.2, t = 0.2)
movej(p[0.42128572285817, 0.220574626008793, 0.31197479643069, -1.405, 0.76, -0.761], a = 0.2, v = 0.2, t = 0.2)
movej(p[0.421276797232846, 0.220558762978141, 0.312646725753322, -1.405, 0.76, -0.761], a = 0.2, v = 0.2, t = 0.2)
movej(p[0.421260921147598, 0.220530547271365, 0.31384189212211, -1.405, 0.76, -0.761], a = 0.2, v = 0.2, t = 0.2)
movej(p[0.421245587690207, 0.2205032959477, 0.314996208964395, -1.405, 0.76, -0.761], a = 0.2, v = 0.2, t = 0.2)
movej(p[0.421233343594079, 0.220481535178551, 0.315917955835782, -1.405, 0.76, -0.761], a = 0.2, v = 0.2, t = 0.2)
movej(p[0.421221598715581, 0.220460661641866, 0.316802121142785, -1.405, 0.76, -0.761], a = 0.2, v = 0.2, t = 0.2)
movej(p[0.421221044029327, 0.220459675828018, 0.316843878436545, -1.405, 0.76, -0.761], a = 0.2, v = 0.2, t = 0.2)
movej(p[0.42123868064051, 0.220491020422224, 0.315516178048431, -1.405, 0.76, -0.761], a = 0.2, v = 0.2, t = 0.2)
movej(p[0.421261326309731, 0.220531267344088, 0.313811391142321, -1.405, 0.76, -0.761], a = 0.2, v = 0.2, t = 0.2)
movej(p[0.421274650838213, 0.220554948307166, 0.312808308324827, -1.405, 0.76, -0.761], a = 0.2, v = 0.2, t = 0.2)
movej(p[0.42128212222088, 0.220568226791078, 0.312245855733227, -1.405, 0.76, -0.761], a = 0.2, v = 0.2, t = 0.2)
movej(p[0.421287169865788, 0.220577197697091, 0.311865864360012, -1.405, 0.76, -0.761], a = 0.2, v = 0.2, t = 0.2)
movej(p[0.421288163477685, 0.220578963589722, 0.311791064338146, -1.405, 0.76, -0.761], a = 0.2, v = 0.2, t = 0.2)
movej(p[0.421288235828066, 0.220579092174137, 0.311785617734612, -1.405, 0.76, -0.761], a = 0.2, v = 0.2, t = 0.2)
movej(p[0.421286639296328, 0.220576254744715, 0.31190580611926, -1.405, 0.76, -0.761], a = 0.2, v = 0.2, t = 0.2)
movej(p[0.421277472503068, 0.220559963099347, 0.312595890787005, -1.405, 0.76, -0.761], a = 0.2, v = 0.2, t = 0.2)
movej(p[0.421261854467512, 0.220532206010317, 0.313771630936523, -1.405, 0.76, -0.761], a = 0.2, v = 0.2, t = 0.2)
movej(p[0.421247480858507, 0.220506660573223, 0.314853689505258, -1.405, 0.76, -0.761], a = 0.2, v = 0.2, t = 0.2)
movej(p[0.421235137883526, 0.220484724072041, 0.315782880068141, -1.405, 0.76, -0.761], a = 0.2, v = 0.2, t = 0.2)
movej(p[0.421223004724649, 0.220463160465662, 0.316696275480776, -1.405, 0.76, -0.761], a = 0.2, v = 0.2, t = 0.2)
movej(p[0.421219999772163, 0.220457819926296, 0.316922491080884, -1.405, 0.76, -0.761], a = 0.2, v = 0.2, t = 0.2)
movej(p[0.421237284278159, 0.220488538743016, 0.315621297496636, -1.405, 0.76, -0.761], a = 0.2, v = 0.2, t = 0.2)
movej(p[0.421256924994893, 0.220523445125515, 0.314142726190633, -1.405, 0.76, -0.761], a = 0.2, v = 0.2, t = 0.2)
movej(p[0.421271641062368, 0.220549599195506, 0.313034887031838, -1.405, 0.76, -0.761], a = 0.2, v = 0.2, t = 0.2)
movej(p[0.421280887441046, 0.22056603228373, 0.312338811100205, -1.405, 0.76, -0.761], a = 0.2, v = 0.2, t = 0.2)
movej(p[0.421286947991286, 0.220576803371552, 0.311882567277516, -1.405, 0.76, -0.761], a = 0.2, v = 0.2, t = 0.2)
movej(p[0.421288173124403, 0.220578980734311, 0.311790338124341, -1.405, 0.76, -0.761], a = 0.2, v = 0.2, t = 0.2)
movej(p[0.421288727810656, 0.220579966548158, 0.311748580830582, -1.405, 0.76, -0.761], a = 0.2, v = 0.2, t = 0.2)
movej(p[0.421289581545151, 0.220581483844254, 0.311684310908882, -1.405, 0.76, -0.761], a = 0.2, v = 0.2, t = 0.2)
movej(p[0.421286494595566, 0.220575997575885, 0.311916699326328, -1.405, 0.76, -0.761], a = 0.2, v = 0.2, t = 0.2)
movej(p[0.421273324414563, 0.220552590926226, 0.312908162722949, -1.405, 0.76, -0.761], a = 0.2, v = 0.2, t = 0.2)
movej(p[0.421258473293044, 0.220526196831994, 0.314026168875007, -1.405, 0.76, -0.761], a = 0.2, v = 0.2, t = 0.2)
movej(p[0.42124568898074, 0.220503475965881, 0.314988583719447, -1.405, 0.76, -0.761], a = 0.2, v = 0.2, t = 0.2)
movej(p[0.421229793602057, 0.220475225969927, 0.316185202515845, -1.405, 0.76, -0.761], a = 0.2, v = 0.2, t = 0.2)
movej(p[0.421218615468208, 0.220455359677825, 0.317026702761833, -1.405, 0.76, -0.761], a = 0.2, v = 0.2, t = 0.2)
movej(p[0.421224639843258, 0.220466066473439, 0.31657318224091, -1.405, 0.76, -0.761], a = 0.2, v = 0.2, t = 0.2)
movej(p[0.421244128624192, 0.220500702828666, 0.315106048802329, -1.405, 0.76, -0.761], a = 0.2, v = 0.2, t = 0.2)
movej(p[0.42126227892308, 0.220532960372218, 0.313739677529124, -1.405, 0.76, -0.761], a = 0.2, v = 0.2, t = 0.2)
movej(p[0.4212754587508, 0.220556384166465, 0.312747487918699, -1.405, 0.76, -0.761], a = 0.2, v = 0.2, t = 0.2)
movej(p[0.421284292732307, 0.220572084323525, 0.31208245762721, -1.405, 0.76, -0.761], a = 0.2, v = 0.2, t = 0.2)
movej(p[0.42128685875915, 0.220576644784107, 0.311889284755207, -1.405, 0.76, -0.761], a = 0.2, v = 0.2, t = 0.2)
movej(p[0.42128799224845, 0.220578659273274, 0.311803954633176, -1.405, 0.76, -0.761], a = 0.2, v = 0.2, t = 0.2)
movej(p[0.421289764832782, 0.220581809591439, 0.311670512846596, -1.405, 0.76, -0.761], a = 0.2, v = 0.2, t = 0.2)
movej(p[0.421289776891179, 0.220581831022174, 0.31166960507934, -1.405, 0.76, -0.761], a = 0.2, v = 0.2, t = 0.2)
movej(p[0.421286661001442, 0.220576293320039, 0.3119041721382, -1.405, 0.76, -0.761], a = 0.2, v = 0.2, t = 0.2)
movej(p[0.421276172607891, 0.220557652866026, 0.312693748097164, -1.405, 0.76, -0.761], a = 0.2, v = 0.2, t = 0.2)
movej(p[0.421264936593738, 0.220537683706392, 0.313539605625979, -1.405, 0.76, -0.761], a = 0.2, v = 0.2, t = 0.2)
movej(p[0.421249832245886, 0.220510839566707, 0.314676674890406, -1.405, 0.76, -0.761], a = 0.2, v = 0.2, t = 0.2)
movej(p[0.421236498070687, 0.220487141459041, 0.315680483921704, -1.405, 0.76, -0.761], a = 0.2, v = 0.2, t = 0.2)
movej(p[0.42123012400213, 0.220475813172088, 0.31616032969304, -1.405, 0.76, -0.761], a = 0.2, v = 0.2, t = 0.2)
movej(p[0.421238070485631, 0.220489936026992, 0.315562111071567, -1.405, 0.76, -0.761], a = 0.2, v = 0.2, t = 0.2)
movej(p[0.421256199079405, 0.220522154995219, 0.314197373779423, -1.405, 0.76, -0.761], a = 0.2, v = 0.2, t = 0.2)
movej(p[0.421270804209629, 0.22054811190244, 0.31309788607938, -1.405, 0.76, -0.761], a = 0.2, v = 0.2, t = 0.2)
movej(p[0.421282059517217, 0.220568115351252, 0.312250576122956, -1.405, 0.76, -0.761], a = 0.2, v = 0.2, t = 0.2)
movej(p[0.421285631214354, 0.220574463135201, 0.311981695461832, -1.405, 0.76, -0.761], a = 0.2, v = 0.2, t = 0.2)
movej(p[0.421287567792883, 0.220577904911373, 0.311835908040575, -1.405, 0.76, -0.761], a = 0.2, v = 0.2, t = 0.2)
movej(p[0.421289574310113, 0.220581470985813, 0.311684855569235, -1.405, 0.76, -0.761], a = 0.2, v = 0.2, t = 0.2)
movej(p[0.421289798596294, 0.220581869597499, 0.31166797109828, -1.405, 0.76, -0.761], a = 0.2, v = 0.2, t = 0.2)
movej(p[0.421289781714538, 0.220581839594469, 0.311669241972438, -1.405, 0.76, -0.761], a = 0.2, v = 0.2, t = 0.2)
movej(p[0.421286873229226, 0.22057667050099, 0.311888195434501, -1.405, 0.76, -0.761], a = 0.2, v = 0.2, t = 0.2)
movej(p[0.42127795725062, 0.220560824614927, 0.312559398543328, -1.405, 0.76, -0.761], a = 0.2, v = 0.2, t = 0.2)
movej(p[0.421264618252062, 0.220537117934966, 0.313563570681528, -1.405, 0.76, -0.761], a = 0.2, v = 0.2, t = 0.2)
movej(p[0.421251792941208, 0.220514324204351, 0.314529071934637, -1.405, 0.76, -0.761], a = 0.2, v = 0.2, t = 0.2)
movej(p[0.421242040109863, 0.220496991025223, 0.315263274091007, -1.405, 0.76, -0.761], a = 0.2, v = 0.2, t = 0.2)
movej(p[0.421231129672424, 0.220477600495455, 0.316084621903919, -1.405, 0.76, -0.761], a = 0.2, v = 0.2, t = 0.2)
movej(p[0.421230977736624, 0.220477330468184, 0.31609605977134, -1.405, 0.76, -0.761], a = 0.2, v = 0.2, t = 0.2)
movej(p[0.421246928583933, 0.220505679045523, 0.314895265245567, -1.405, 0.76, -0.761], a = 0.2, v = 0.2, t = 0.2)
movej(p[0.421265107822973, 0.22053798802284, 0.313526715330949, -1.405, 0.76, -0.761], a = 0.2, v = 0.2, t = 0.2)
movej(p[0.421276341425447, 0.220557952896327, 0.312681039355585, -1.405, 0.76, -0.761], a = 0.2, v = 0.2, t = 0.2)
movej(p[0.421282763727591, 0.220569366906223, 0.312197562515226, -1.405, 0.76, -0.761], a = 0.2, v = 0.2, t = 0.2)
movej(p[0.421287548499448, 0.220577870622195, 0.311837360468184, -1.405, 0.76, -0.761], a = 0.2, v = 0.2, t = 0.2)
movej(p[0.421289002742104, 0.220580455168935, 0.311727883737153, -1.405, 0.76, -0.761], a = 0.2, v = 0.2, t = 0.2)
movej(p[0.421289711775836, 0.220581715296201, 0.311674507022521, -1.405, 0.76, -0.761], a = 0.2, v = 0.2, t = 0.2)
movej(p[0.421290025294154, 0.220582272495332, 0.311650905073874, -1.405, 0.76, -0.761], a = 0.2, v = 0.2, t = 0.2)
movej(p[0.421291660412762, 0.220585178503109, 0.311527811834007, -1.405, 0.76, -0.761], a = 0.2, v = 0.2, t = 0.2)
movej(p[0.42129163147261, 0.220585127069343, 0.311529990475421, -1.405, 0.76, -0.761], a = 0.2, v = 0.2, t = 0.2)
movej(p[0.4212878813112, 0.220578462110504, 0.311812306091928, -1.405, 0.76, -0.761], a = 0.2, v = 0.2, t = 0.2)
movej(p[0.421279647837854, 0.220563829204088, 0.312432129574086, -1.405, 0.76, -0.761], a = 0.2, v = 0.2, t = 0.2)
movej(p[0.421269451257506, 0.220545707373881, 0.313199737565464, -1.405, 0.76, -0.761], a = 0.2, v = 0.2, t = 0.2)
movej(p[0.421256707943751, 0.22052305937227, 0.314159066001235, -1.405, 0.76, -0.761], a = 0.2, v = 0.2, t = 0.2)
movej(p[0.421246004910736, 0.220504037451159, 0.314964800217349, -1.405, 0.76, -0.761], a = 0.2, v = 0.2, t = 0.2)
movej(p[0.421237040698543, 0.220488105842153, 0.3156396343952, -1.405, 0.76, -0.761], a = 0.2, v = 0.2, t = 0.2)
movej(p[0.421231091085554, 0.220477531917101, 0.316087526759137, -1.405, 0.76, -0.761], a = 0.2, v = 0.2, t = 0.2)
movej(p[0.421242655088101, 0.220498083992749, 0.315216977960969, -1.405, 0.76, -0.761], a = 0.2, v = 0.2, t = 0.2)
movej(p[0.4212606872147, 0.22053013151509, 0.31385950280687, -1.405, 0.76, -0.761], a = 0.2, v = 0.2, t = 0.2)
movej(p[0.421276445127659, 0.220558137200655, 0.312673232557187, -1.405, 0.76, -0.761], a = 0.2, v = 0.2, t = 0.2)
movej(p[0.421283149596289, 0.220570052689769, 0.312168513963045, -1.405, 0.76, -0.761], a = 0.2, v = 0.2, t = 0.2)
movej(p[0.421286906992737, 0.22057673050705, 0.311885653686185, -1.405, 0.76, -0.761], a = 0.2, v = 0.2, t = 0.2)
movej(p[0.421289656307211, 0.220581616714816, 0.311678682751897, -1.405, 0.76, -0.761], a = 0.2, v = 0.2, t = 0.2)
movej(p[0.42129037981102, 0.220582902558965, 0.311624216716557, -1.405, 0.76, -0.761], a = 0.2, v = 0.2, t = 0.2)
movej(p[0.421290787384832, 0.220583626917836, 0.311593534183317, -1.405, 0.76, -0.761], a = 0.2, v = 0.2, t = 0.2)
movej(p[0.421290770503077, 0.220583596914806, 0.311594805057474, -1.405, 0.76, -0.761], a = 0.2, v = 0.2, t = 0.2)
movej(p[0.421291899169019, 0.220585602831678, 0.311509838042346, -1.405, 0.76, -0.761], a = 0.2, v = 0.2, t = 0.2)
movej(p[0.421289899886827, 0.22058204961568, 0.311660345853332, -1.405, 0.76, -0.761], a = 0.2, v = 0.2, t = 0.2)
movej(p[0.421280434045326, 0.220565226488064, 0.312372943149018, -1.405, 0.76, -0.761], a = 0.2, v = 0.2, t = 0.2)
movej(p[0.421270112057651, 0.220546881778204, 0.313149991919854, -1.405, 0.76, -0.761], a = 0.2, v = 0.2, t = 0.2)
movej(p[0.421257976487096, 0.220525313885678, 0.31406356888594, -1.405, 0.76, -0.761], a = 0.2, v = 0.2, t = 0.2)
movej(p[0.421244364968769, 0.220501122871088, 0.315088256564118, -1.405, 0.76, -0.761], a = 0.2, v = 0.2, t = 0.2)
movej(p[0.421234038157736, 0.220482769588934, 0.315865668441856, -1.405, 0.76, -0.761], a = 0.2, v = 0.2, t = 0.2)
movej(p[0.421233336359041, 0.22048152232011, 0.315918500496135, -1.405, 0.76, -0.761], a = 0.2, v = 0.2, t = 0.2)
movej(p[0.421247878785602, 0.220507367787505, 0.314823733185821, -1.405, 0.76, -0.761], a = 0.2, v = 0.2, t = 0.2)
movej(p[0.421263465469326, 0.220535069156622, 0.313650353231168, -1.405, 0.76, -0.761], a = 0.2, v = 0.2, t = 0.2)
movej(p[0.421275748152323, 0.220556898504125, 0.312725701504563, -1.405, 0.76, -0.761], a = 0.2, v = 0.2, t = 0.2)
movej(p[0.42128420832353, 0.220571934308374, 0.312088811997999, -1.405, 0.76, -0.761], a = 0.2, v = 0.2, t = 0.2)
movej(p[0.421287461678991, 0.220577716320898, 0.311843896392425, -1.405, 0.76, -0.761], a = 0.2, v = 0.2, t = 0.2)
movej(p[0.421289031682256, 0.220580506602701, 0.311725705095739, -1.405, 0.76, -0.761], a = 0.2, v = 0.2, t = 0.2)
movej(p[0.421291228722156, 0.220584411282767, 0.31156030990176, -1.405, 0.76, -0.761], a = 0.2, v = 0.2, t = 0.2)
movej(p[0.421291129843302, 0.220584235550733, 0.311567753593256, -1.405, 0.76, -0.761], a = 0.2, v = 0.2, t = 0.2)
movej(p[0.421291305895896, 0.220584548439476, 0.311554500191324, -1.405, 0.76, -0.761], a = 0.2, v = 0.2, t = 0.2)
movej(p[0.421290690917658, 0.220583455471949, 0.311600796321362, -1.405, 0.76, -0.761], a = 0.2, v = 0.2, t = 0.2)
movej(p[0.421284420551313, 0.220572311489325, 0.3120728352943, -1.405, 0.76, -0.761], a = 0.2, v = 0.2, t = 0.2)
movej(p[0.421272328390986, 0.220550820747447, 0.312983144298266, -1.405, 0.76, -0.761], a = 0.2, v = 0.2, t = 0.2)
movej(p[0.421260472575237, 0.220529750047992, 0.313875661064021, -1.405, 0.76, -0.761], a = 0.2, v = 0.2, t = 0.2)
movej(p[0.421251472187853, 0.220513754146779, 0.314553218543638, -1.405, 0.76, -0.761], a = 0.2, v = 0.2, t = 0.2)
movej(p[0.421238123542577, 0.220490030322229, 0.315558116895642, -1.405, 0.76, -0.761], a = 0.2, v = 0.2, t = 0.2)
movej(p[0.421226405192551, 0.220469203933162, 0.316440285114683, -1.405, 0.76, -0.761], a = 0.2, v = 0.2, t = 0.2)
movej(p[0.421232538093172, 0.220480103605399, 0.315978594688459, -1.405, 0.76, -0.761], a = 0.2, v = 0.2, t = 0.2)
movej(p[0.421252477858147, 0.220515541470146, 0.314477510754517, -1.405, 0.76, -0.761], a = 0.2, v = 0.2, t = 0.2)
movej(p[0.421266648886086, 0.220540726870878, 0.313410702675677, -1.405, 0.76, -0.761], a = 0.2, v = 0.2, t = 0.2)
movej(p[0.421278232182067, 0.220561313235703, 0.312538701449899, -1.405, 0.76, -0.761], a = 0.2, v = 0.2, t = 0.2)
movej(p[0.421286579004344, 0.220576147591036, 0.311910344955538, -1.405, 0.76, -0.761], a = 0.2, v = 0.2, t = 0.2)
movej(p[0.421288633755161, 0.220579799388419, 0.311755661415176, -1.405, 0.76, -0.761], a = 0.2, v = 0.2, t = 0.2)
movej(p[0.421289772067821, 0.22058182244988, 0.311669968186242, -1.405, 0.76, -0.761], a = 0.2, v = 0.2, t = 0.2)
movej(p[0.421290377399341, 0.220582898272818, 0.311624398270009, -1.405, 0.76, -0.761], a = 0.2, v = 0.2, t = 0.2)
movej(p[0.421291776173371, 0.220585384238173, 0.311519097268353, -1.405, 0.76, -0.761], a = 0.2, v = 0.2, t = 0.2)
movej(p[0.42129163147261, 0.220585127069343, 0.311529990475421, -1.405, 0.76, -0.761], a = 0.2, v = 0.2, t = 0.2)
movej(p[0.421290739151245, 0.220583541194893, 0.311597165252339, -1.405, 0.76, -0.761], a = 0.2, v = 0.2, t = 0.2)
movej(p[0.421284709952837, 0.220572825826984, 0.312051048880164, -1.405, 0.76, -0.761], a = 0.2, v = 0.2, t = 0.2)
movej(p[0.421273240005786, 0.220552440911075, 0.312914517093738, -1.405, 0.76, -0.761], a = 0.2, v = 0.2, t = 0.2)
movej(p[0.421261007968055, 0.220530701572662, 0.31383535619787, -1.405, 0.76, -0.761], a = 0.2, v = 0.2, t = 0.2)
movej(p[0.421250671510304, 0.22051233114592, 0.314613494289413, -1.405, 0.76, -0.761], a = 0.2, v = 0.2, t = 0.2)
movej(p[0.421241729003225, 0.220496438112238, 0.315286694486203, -1.405, 0.76, -0.761], a = 0.2, v = 0.2, t = 0.2)
movej(p[0.421232858846528, 0.220480673662972, 0.315954448079459, -1.405, 0.76, -0.761], a = 0.2, v = 0.2, t = 0.2)
movej(p[0.42123777143739, 0.220489404544743, 0.315584623699507, -1.405, 0.76, -0.761], a = 0.2, v = 0.2, t = 0.2)
movej(p[0.421257009403671, 0.220523595140666, 0.314136371819843, -1.405, 0.76, -0.761], a = 0.2, v = 0.2, t = 0.2)
movej(p[0.421270784916194, 0.220548077613263, 0.313099338506989, -1.405, 0.76, -0.761], a = 0.2, v = 0.2, t = 0.2)
movej(p[0.421280651096469, 0.220565612241308, 0.312356603338416, -1.405, 0.76, -0.761], a = 0.2, v = 0.2, t = 0.2)
movej(p[0.421285447926722, 0.220574137388016, 0.311995493524118, -1.405, 0.76, -0.761], a = 0.2, v = 0.2, t = 0.2)
movej(p[0.421290013235757, 0.220582251064596, 0.311651812841129, -1.405, 0.76, -0.761], a = 0.2, v = 0.2, t = 0.2)
movej(p[0.421290859735213, 0.220583755502251, 0.311588087579783, -1.405, 0.76, -0.761], a = 0.2, v = 0.2, t = 0.2)
movej(p[0.421291103314829, 0.220584188403114, 0.311569750681219, -1.405, 0.76, -0.761], a = 0.2, v = 0.2, t = 0.2)
movej(p[0.421292721551682, 0.220587064407861, 0.31144792831551, -1.405, 0.76, -0.761], a = 0.2, v = 0.2, t = 0.2)
movej(p[0.421292598556034, 0.220586845814356, 0.311457187541518, -1.405, 0.76, -0.761], a = 0.2, v = 0.2, t = 0.2)
movej(p[0.421292280214358, 0.22058628004293, 0.311481152597067, -1.405, 0.76, -0.761], a = 0.2, v = 0.2, t = 0.2)
movej(p[0.421286007436334, 0.220575131774158, 0.311953373123456, -1.405, 0.76, -0.761], a = 0.2, v = 0.2, t = 0.2)
movej(p[0.421277055282538, 0.220559221595888, 0.312627299534051, -1.405, 0.76, -0.761], a = 0.2, v = 0.2, t = 0.2)
movej(p[0.42126485218496, 0.220537533691241, 0.313545959996769, -1.405, 0.76, -0.761], a = 0.2, v = 0.2, t = 0.2)
movej(p[0.421252475446468, 0.220515537183998, 0.314477692307968, -1.405, 0.76, -0.761], a = 0.2, v = 0.2, t = 0.2)
movej(p[0.421244336028617, 0.220501071437322, 0.315090435205531, -1.405, 0.76, -0.761], a = 0.2, v = 0.2, t = 0.2)
movej(p[0.421235998853058, 0.220486254226578, 0.315718065486088, -1.405, 0.76, -0.761], a = 0.2, v = 0.2, t = 0.2)
movej(p[0.421234867775437, 0.220484244023559, 0.315803214054668, -1.405, 0.76, -0.761], a = 0.2, v = 0.2, t = 0.2)
movej(p[0.421252374155935, 0.220515357165818, 0.314485317552915, -1.405, 0.76, -0.761], a = 0.2, v = 0.2, t = 0.2)
movej(p[0.42126966107361, 0.220546080268685, 0.313183942415215, -1.405, 0.76, -0.761], a = 0.2, v = 0.2, t = 0.2)
movej(p[0.421279254734117, 0.220563130562101, 0.31246172278662, -1.405, 0.76, -0.761], a = 0.2, v = 0.2, t = 0.2)
movej(p[0.421285083763138, 0.220573490179794, 0.312022908095239, -1.405, 0.76, -0.761], a = 0.2, v = 0.2, t = 0.2)
movej(p[0.42128799466013, 0.220578663559421, 0.311803773079725, -1.405, 0.76, -0.761], a = 0.2, v = 0.2, t = 0.2)
movej(p[0.421291127431623, 0.220584231264586, 0.311567935146707, -1.405, 0.76, -0.761], a = 0.2, v = 0.2, t = 0.2)
movej(p[0.421291397539711, 0.220584711313068, 0.311547601160181, -1.405, 0.76, -0.761], a = 0.2, v = 0.2, t = 0.2)
movej(p[0.421291351717803, 0.220584629876272, 0.311551050675752, -1.405, 0.76, -0.761], a = 0.2, v = 0.2, t = 0.2)
movej(p[0.421292282626038, 0.220586284329077, 0.311480971043616, -1.405, 0.76, -0.761], a = 0.2, v = 0.2, t = 0.2)
movej(p[0.421285508218706, 0.220574244541695, 0.31199095468784, -1.405, 0.76, -0.761], a = 0.2, v = 0.2, t = 0.2)
movej(p[0.421273683754788, 0.220553229562153, 0.31288111125873, -1.405, 0.76, -0.761], a = 0.2, v = 0.2, t = 0.2)
movej(p[0.421261188844007, 0.2205310230337, 0.313821739689035, -1.405, 0.76, -0.761], a = 0.2, v = 0.2, t = 0.2)
movej(p[0.421250789682593, 0.220512541167131, 0.314604598170308, -1.405, 0.76, -0.761], a = 0.2, v = 0.2, t = 0.2)
movej(p[0.421237513387699, 0.220488945926997, 0.315604049918778, -1.405, 0.76, -0.761], a = 0.2, v = 0.2, t = 0.2)
movej(p[0.421227905257115, 0.220471869916698, 0.31632735886808, -1.405, 0.76, -0.761], a = 0.2, v = 0.2, t = 0.2)
movej(p[0.42123678747221, 0.220487655796701, 0.315658697507568, -1.405, 0.76, -0.761], a = 0.2, v = 0.2, t = 0.2)
movej(p[0.421255169292317, 0.22052032481038, 0.314274897103055, -1.405, 0.76, -0.761], a = 0.2, v = 0.2, t = 0.2)
movej(p[0.421270478632915, 0.220547533272573, 0.313122395795282, -1.405, 0.76, -0.761], a = 0.2, v = 0.2, t = 0.2)
movej(p[0.421280643861431, 0.220565599382867, 0.312357147998769, -1.405, 0.76, -0.761], a = 0.2, v = 0.2, t = 0.2)
movej(p[0.421287753492194, 0.220578234944704, 0.311821928424838, -1.405, 0.76, -0.761], a = 0.2, v = 0.2, t = 0.2)
movej(p[0.421289521253167, 0.220581376690575, 0.31168884974516, -1.405, 0.76, -0.761], a = 0.2, v = 0.2, t = 0.2)
movej(p[0.421290321930715, 0.220582799691433, 0.311628573999385, -1.405, 0.76, -0.761], a = 0.2, v = 0.2, t = 0.2)
movej(p[0.421291387892994, 0.22058469416848, 0.311548327373985, -1.405, 0.76, -0.761], a = 0.2, v = 0.2, t = 0.2)
movej(p[0.421292521382295, 0.220586708657646, 0.311462997251954, -1.405, 0.76, -0.761], a = 0.2, v = 0.2, t = 0.2)
movej(p[0.421292203040619, 0.220586142886221, 0.311486962307503, -1.405, 0.76, -0.761], a = 0.2, v = 0.2, t = 0.2)
movej(p[0.421286497007245, 0.220576001862032, 0.311916517772877, -1.405, 0.76, -0.761], a = 0.2, v = 0.2, t = 0.2)
movej(p[0.421276044788885, 0.220557425700226, 0.312703370430074, -1.405, 0.76, -0.761], a = 0.2, v = 0.2, t = 0.2)
movej(p[0.421262631028267, 0.220533586149703, 0.313713170725259, -1.405, 0.76, -0.761], a = 0.2, v = 0.2, t = 0.2)
movej(p[0.421248976099712, 0.220509317984464, 0.314741126365557, -1.405, 0.76, -0.761], a = 0.2, v = 0.2, t = 0.2)
movej(p[0.421239305265465, 0.220492130534339, 0.315469155704589, -1.405, 0.76, -0.761], a = 0.2, v = 0.2, t = 0.2)
movej(p[0.421231274373186, 0.220477857664285, 0.316073728696851, -1.405, 0.76, -0.761], a = 0.2, v = 0.2, t = 0.2)
movej(p[0.421232974607137, 0.220480879398035, 0.315945733513805, -1.405, 0.76, -0.761], a = 0.2, v = 0.2, t = 0.2)
movej(p[0.421252552620208, 0.220515674340708, 0.314471882597532, -1.405, 0.76, -0.761], a = 0.2, v = 0.2, t = 0.2)
movej(p[0.421271920817174, 0.220550096388577, 0.313013826831507, -1.405, 0.76, -0.761], a = 0.2, v = 0.2, t = 0.2)
movej(p[0.421281217841119, 0.220566619485892, 0.3123139382774, -1.405, 0.76, -0.761], a = 0.2, v = 0.2, t = 0.2)
movej(p[0.421286369188239, 0.220575774696233, 0.311926140105787, -1.405, 0.76, -0.761], a = 0.2, v = 0.2, t = 0.2)
movej(p[0.421289530899884, 0.220581393835164, 0.311688123531355, -1.405, 0.76, -0.761], a = 0.2, v = 0.2, t = 0.2)
movej(p[0.421291315542613, 0.220584565584065, 0.311553773977519, -1.405, 0.76, -0.761], a = 0.2, v = 0.2, t = 0.2)
movej(p[0.421291655589403, 0.220585169930815, 0.31152817494091, -1.405, 0.76, -0.761], a = 0.2, v = 0.2, t = 0.2)
movej(p[0.421291614590854, 0.220585097066313, 0.311531261349579, -1.405, 0.76, -0.761], a = 0.2, v = 0.2, t = 0.2)
movej(p[0.421293047128396, 0.220587643037728, 0.311423418599608, -1.405, 0.76, -0.761], a = 0.2, v = 0.2, t = 0.2)
movej(p[0.421290770503077, 0.220583596914806, 0.311594805057474, -1.405, 0.76, -0.761], a = 0.2, v = 0.2, t = 0.2)
movej(p[0.421281430068903, 0.220566996666842, 0.312297961573701, -1.405, 0.76, -0.761], a = 0.2, v = 0.2, t = 0.2)
movej(p[0.421272157161751, 0.220550516430999, 0.312996034593296, -1.405, 0.76, -0.761], a = 0.2, v = 0.2, t = 0.2)
movej(p[0.421260364049665, 0.22052955717137, 0.313883830969321, -1.405, 0.76, -0.761], a = 0.2, v = 0.2, t = 0.2)
movej(p[0.421247340981104, 0.220506411976688, 0.314864219605423, -1.405, 0.76, -0.761], a = 0.2, v = 0.2, t = 0.2)
movej(p[0.421237209516099, 0.220488405872454, 0.315626925653621, -1.405, 0.76, -0.761], a = 0.2, v = 0.2, t = 0.2)
movej(p[0.421231587891503, 0.220478414863416, 0.316050126748205, -1.405, 0.76, -0.761], a = 0.2, v = 0.2, t = 0.2)
movej(p[0.421240337464233, 0.220493965005325, 0.315391450827505, -1.405, 0.76, -0.761], a = 0.2, v = 0.2, t = 0.2)
movej(p[0.42125651983276, 0.220522725052791, 0.314173227170423, -1.405, 0.76, -0.761], a = 0.2, v = 0.2, t = 0.2)
movej(p[0.421273119421817, 0.220552226603717, 0.312923594766295, -1.405, 0.76, -0.761], a = 0.2, v = 0.2, t = 0.2)
movej(p[0.421283050717435, 0.220569876957736, 0.312175957654542, -1.405, 0.76, -0.761], a = 0.2, v = 0.2, t = 0.2)
movej(p[0.421286928697851, 0.220576769082374, 0.311884019705125, -1.405, 0.76, -0.761], a = 0.2, v = 0.2, t = 0.2)
movej(p[0.421289362082329, 0.220581093804862, 0.311700832272934, -1.405, 0.76, -0.761], a = 0.2, v = 0.2, t = 0.2)
movej(p[0.42129196910772, 0.220585727129946, 0.311504572992263, -1.405, 0.76, -0.761], a = 0.2, v = 0.2, t = 0.2)
movej(p[0.421292029399705, 0.220585834283625, 0.311500034155985, -1.405, 0.76, -0.761], a = 0.2, v = 0.2, t = 0.2)
movej(p[0.421291826818638, 0.220585474247263, 0.31151528464588, -1.405, 0.76, -0.761], a = 0.2, v = 0.2, t = 0.2)
movej(p[0.421292241627488, 0.220586211464575, 0.311484057452285, -1.405, 0.76, -0.761], a = 0.2, v = 0.2, t = 0.2)
movej(p[0.421286586239382, 0.220576160449477, 0.311909800295185, -1.405, 0.76, -0.761], a = 0.2, v = 0.2, t = 0.2)
movej(p[0.421275644450111, 0.220556714199797, 0.312733508302962, -1.405, 0.76, -0.761], a = 0.2, v = 0.2, t = 0.2)
movej(p[0.42126466166229, 0.220537195085615, 0.313560302719408, -1.405, 0.76, -0.761], a = 0.2, v = 0.2, t = 0.2)
movej(p[0.421255702273456, 0.220521272048903, 0.314234773790356, -1.405, 0.76, -0.761], a = 0.2, v = 0.2, t = 0.2)
movej(p[0.421247145635075, 0.220506064798767, 0.314878925434965, -1.405, 0.76, -0.761], a = 0.2, v = 0.2, t = 0.2)
movej(p[0.421254520550568, 0.220519171836793, 0.314323734981409, -1.405, 0.76, -0.761], a = 0.2, v = 0.2, t = 0.2)
movej(p[0.421270886206727, 0.220548257631444, 0.313091713262041, -1.405, 0.76, -0.761], a = 0.2, v = 0.2, t = 0.2)
movej(p[0.421281808702563, 0.220567669591947, 0.312269457681874, -1.405, 0.76, -0.761], a = 0.2, v = 0.2, t = 0.2)
movej(p[0.421286579004344, 0.220576147591036, 0.311910344955538, -1.405, 0.76, -0.761], a = 0.2, v = 0.2, t = 0.2)
movej(p[0.421289123326072, 0.220580669476293, 0.311718806064596, -1.405, 0.76, -0.761], a = 0.2, v = 0.2, t = 0.2)
movej(p[0.421291988401155, 0.220585761419123, 0.311503120564654, -1.405, 0.76, -0.761], a = 0.2, v = 0.2, t = 0.2)
movej(p[0.421292092103368, 0.220585945723451, 0.311495313766255, -1.405, 0.76, -0.761], a = 0.2, v = 0.2, t = 0.2)
movej(p[0.421291778585051, 0.22058538852432, 0.311518915714902, -1.405, 0.76, -0.761], a = 0.2, v = 0.2, t = 0.2)
movej(p[0.421287150572353, 0.220577163407914, 0.311867316787621, -1.405, 0.76, -0.761], a = 0.2, v = 0.2, t = 0.2)
movej(p[0.421277221688414, 0.220559517340042, 0.312614772345923, -1.405, 0.76, -0.761], a = 0.2, v = 0.2, t = 0.2)
movej(p[0.421262141457356, 0.220532716061829, 0.313750026075839, -1.405, 0.76, -0.761], a = 0.2, v = 0.2, t = 0.2)
movej(p[0.421248069308271, 0.220507706393131, 0.314809390463182, -1.405, 0.76, -0.761], a = 0.2, v = 0.2, t = 0.2)
movej(p[0.421237337335105, 0.220488633038254, 0.315617303320711, -1.405, 0.76, -0.761], a = 0.2, v = 0.2, t = 0.2)
movej(p[0.421228385181309, 0.220472722859984, 0.316291229731305, -1.405, 0.76, -0.761], a = 0.2, v = 0.2, t = 0.2)
movej(p[0.42123432514758, 0.220483279640447, 0.315844063581172, -1.405, 0.76, -0.761], a = 0.2, v = 0.2, t = 0.2)
movej(p[0.421252067872656, 0.220514812825128, 0.314508374841209, -1.405, 0.76, -0.761], a = 0.2, v = 0.2, t = 0.2)
movej(p[0.42126784507905, 0.220542852799871, 0.313320652163916, -1.405, 0.76, -0.761], a = 0.2, v = 0.2, t = 0.2)
movej(p[0.421277556911846, 0.220560113114498, 0.312589536416216, -1.405, 0.76, -0.761], a = 0.2, v = 0.2, t = 0.2)
movej(p[0.42128416732498, 0.220571861443872, 0.312091898406668, -1.405, 0.76, -0.761], a = 0.2, v = 0.2, t = 0.2)
movej(p[0.421289533311564, 0.220581398121311, 0.311687941977904, -1.405, 0.76, -0.761], a = 0.2, v = 0.2, t = 0.2)
movej(p[0.421290461808118, 0.220583048287969, 0.311618043899219, -1.405, 0.76, -0.761], a = 0.2, v = 0.2, t = 0.2)
movej(p[0.42129087179361, 0.220583776932987, 0.311587179812527, -1.405, 0.76, -0.761], a = 0.2, v = 0.2, t = 0.2)
movej(p[0.421290107291252, 0.220582418224336, 0.311644732256535, -1.405, 0.76, -0.761], a = 0.2, v = 0.2, t = 0.2)
movej(p[0.421284227616964, 0.220571968597552, 0.31208735957039, -1.405, 0.76, -0.761], a = 0.2, v = 0.2, t = 0.2)
movej(p[0.421271701354352, 0.220549706349185, 0.313030348195559, -1.405, 0.76, -0.761], a = 0.2, v = 0.2, t = 0.2)
movej(p[0.421256758589017, 0.220523149381361, 0.314155253378761, -1.405, 0.76, -0.761], a = 0.2, v = 0.2, t = 0.2)
movej(p[0.421240571397131, 0.2204943807616, 0.315373840142745, -1.405, 0.76, -0.761], a = 0.2, v = 0.2, t = 0.2)
movej(p[0.421226202611485, 0.220468843896801, 0.316455535604578, -1.405, 0.76, -0.761], a = 0.2, v = 0.2, t = 0.2)
movej(p[0.421222312572672, 0.220461930341426, 0.316748381321251, -1.405, 0.76, -0.761], a = 0.2, v = 0.2, t = 0.2)
movej(p[0.421239066509208, 0.22049170620577, 0.31548712949625, -1.405, 0.76, -0.761], a = 0.2, v = 0.2, t = 0.2)
movej(p[0.421256037496888, 0.220521867823359, 0.314209537860649, -1.405, 0.76, -0.761], a = 0.2, v = 0.2, t = 0.2)
movej(p[0.42127019164307, 0.220547023221061, 0.313144000655967, -1.405, 0.76, -0.761], a = 0.2, v = 0.2, t = 0.2)
movej(p[0.421280241110977, 0.22056488359629, 0.312387467425108, -1.405, 0.76, -0.761], a = 0.2, v = 0.2, t = 0.2)
movej(p[0.421287664260057, 0.220578076357259, 0.31182864590253, -1.405, 0.76, -0.761], a = 0.2, v = 0.2, t = 0.2)
movej(p[0.421289448902786, 0.22058124810616, 0.311694296348694, -1.405, 0.76, -0.761], a = 0.2, v = 0.2, t = 0.2)
movej(p[0.421290473866515, 0.220583069718705, 0.311617136131963, -1.405, 0.76, -0.761], a = 0.2, v = 0.2, t = 0.2)
movej(p[0.421291715881387, 0.220585277084494, 0.311523636104632, -1.405, 0.76, -0.761], a = 0.2, v = 0.2, t = 0.2)
movej(p[0.421292451443593, 0.220586584359379, 0.311468262302037, -1.405, 0.76, -0.761], a = 0.2, v = 0.2, t = 0.2)
movej(p[0.421289248733399, 0.220580892355946, 0.311709365285137, -1.405, 0.76, -0.761], a = 0.2, v = 0.2, t = 0.2)
movej(p[0.421278586698934, 0.220561943299336, 0.312512013092583, -1.405, 0.76, -0.761], a = 0.2, v = 0.2, t = 0.2)
movej(p[0.421266342602807, 0.220540182530188, 0.31343375996397, -1.405, 0.76, -0.761], a = 0.2, v = 0.2, t = 0.2)
movej(p[0.421250058943746, 0.220511242464541, 0.314659608866, -1.405, 0.76, -0.761], a = 0.2, v = 0.2, t = 0.2)
movej(p[0.421234375792847, 0.220483369649537, 0.315840250958698, -1.405, 0.76, -0.761], a = 0.2, v = 0.2, t = 0.2)
movej(p[0.421225368170425, 0.220467360889882, 0.316518353098669, -1.405, 0.76, -0.761], a = 0.2, v = 0.2, t = 0.2)
movej(p[0.421230025123276, 0.220475637440055, 0.316167773384537, -1.405, 0.76, -0.761], a = 0.2, v = 0.2, t = 0.2)
movej(p[0.421245937383714, 0.220503917439039, 0.314969883713981, -1.405, 0.76, -0.761], a = 0.2, v = 0.2, t = 0.2)
movej(p[0.421264357790691, 0.220536655031072, 0.31358317845425, -1.405, 0.76, -0.761], a = 0.2, v = 0.2, t = 0.2)
movej(p[0.421279647837854, 0.220563829204088, 0.312432129574086, -1.405, 0.76, -0.761], a = 0.2, v = 0.2, t = 0.2)
movej(p[0.421285578157408, 0.220574368839963, 0.311985689637757, -1.405, 0.76, -0.761], a = 0.2, v = 0.2, t = 0.2)
movej(p[0.421288513171193, 0.220579585081061, 0.311764739087732, -1.405, 0.76, -0.761], a = 0.2, v = 0.2, t = 0.2)
movej(p[0.421290432867966, 0.220582996854203, 0.311620222540633, -1.405, 0.76, -0.761], a = 0.2, v = 0.2, t = 0.2)
movej(p[0.421292584085958, 0.220586820097473, 0.311458276862225, -1.405, 0.76, -0.761], a = 0.2, v = 0.2, t = 0.2)
movej(p[0.421292258509244, 0.220586241467606, 0.311482786578127, -1.405, 0.76, -0.761], a = 0.2, v = 0.2, t = 0.2)
movej(p[0.421287874076162, 0.220578449252063, 0.311812850752282, -1.405, 0.76, -0.761], a = 0.2, v = 0.2, t = 0.2)
movej(p[0.42127879169168, 0.220562307621845, 0.312496581049237, -1.405, 0.76, -0.761], a = 0.2, v = 0.2, t = 0.2)
movej(p[0.421263103717422, 0.220534426234547, 0.313677586248838, -1.405, 0.76, -0.761], a = 0.2, v = 0.2, t = 0.2)
movej(p[0.421247586972399, 0.220506849163698, 0.314845701153408, -1.405, 0.76, -0.761], a = 0.2, v = 0.2, t = 0.2)
movej(p[0.421236355781604, 0.220486888576358, 0.315691195575321, -1.405, 0.76, -0.761], a = 0.2, v = 0.2, t = 0.2)
movej(p[0.421226400369193, 0.220469195360868, 0.316440648221585, -1.405, 0.76, -0.761], a = 0.2, v = 0.2, t = 0.2)
movej(p[0.421232108814246, 0.220479340671204, 0.31601091120276, -1.405, 0.76, -0.761], a = 0.2, v = 0.2, t = 0.2)
movej(p[0.421249253442839, 0.220509810891388, 0.314720247718677, -1.405, 0.76, -0.761], a = 0.2, v = 0.2, t = 0.2)
movej(p[0.421269024390259, 0.220544948725834, 0.313231872526314, -1.405, 0.76, -0.761], a = 0.2, v = 0.2, t = 0.2)
movej(p[0.421278495055118, 0.220561780425744, 0.312518912123726, -1.405, 0.76, -0.761], a = 0.2, v = 0.2, t = 0.2)
movej(p[0.421284840183523, 0.220573057278931, 0.312041244993803, -1.405, 0.76, -0.761], a = 0.2, v = 0.2, t = 0.2)
movej(p[0.421288320236844, 0.220579242189288, 0.311779263363823, -1.405, 0.76, -0.761], a = 0.2, v = 0.2, t = 0.2)
movej(p[0.421291522947038, 0.220584934192721, 0.311538160380722, -1.405, 0.76, -0.761], a = 0.2, v = 0.2, t = 0.2)
movej(p[0.421291959461003, 0.220585709985357, 0.311505299206067, -1.405, 0.76, -0.761], a = 0.2, v = 0.2, t = 0.2)
movej(p[0.421291392716353, 0.220584702740774, 0.311547964267083, -1.405, 0.76, -0.761], a = 0.2, v = 0.2, t = 0.2)
movej(p[0.421286976931439, 0.220576854805318, 0.311880388636102, -1.405, 0.76, -0.761], a = 0.2, v = 0.2, t = 0.2)
movej(p[0.42127341123502, 0.220552745227524, 0.312901626798708, -1.405, 0.76, -0.761], a = 0.2, v = 0.2, t = 0.2)
movej(p[0.421259073801206, 0.220527264082637, 0.313980962065676, -1.405, 0.76, -0.761], a = 0.2, v = 0.2, t = 0.2)
movej(p[0.42124648483493, 0.220504890394445, 0.314928671080575, -1.405, 0.76, -0.761], a = 0.2, v = 0.2, t = 0.2)
movej(p[0.42123621831588, 0.22048664426597, 0.315701544122035, -1.405, 0.76, -0.761], a = 0.2, v = 0.2, t = 0.2)
movej(p[0.421227307160633, 0.220470806952201, 0.31637238412396, -1.405, 0.76, -0.761], a = 0.2, v = 0.2, t = 0.2)
movej(p[0.421237838964413, 0.220489524556864, 0.315579540202876, -1.405, 0.76, -0.761], a = 0.2, v = 0.2, t = 0.2)
movej(p[0.421257703967328, 0.220524829551049, 0.314084084425918, -1.405, 0.76, -0.761], a = 0.2, v = 0.2, t = 0.2)
movej(p[0.42127238868297, 0.220550927901126, 0.312978605461987, -1.405, 0.76, -0.761], a = 0.2, v = 0.2, t = 0.2)
movej(p[0.421282020930347, 0.220568046772897, 0.312253480978174, -1.405, 0.76, -0.761], a = 0.2, v = 0.2, t = 0.2)
movej(p[0.421287536441051, 0.22057784919146, 0.31183826823544, -1.405, 0.76, -0.761], a = 0.2, v = 0.2, t = 0.2)
movej(p[0.421291257662308, 0.220584462716533, 0.311558131260346, -1.405, 0.76, -0.761], a = 0.2, v = 0.2, t = 0.2)
movej(p[0.421291908815736, 0.220585619976267, 0.311509111828541, -1.405, 0.76, -0.761], a = 0.2, v = 0.2, t = 0.2)
movej(p[0.421292104161765, 0.220585967154187, 0.311494405999, -1.405, 0.76, -0.761], a = 0.2, v = 0.2, t = 0.2)
movej(p[0.421292509323898, 0.220586687226911, 0.31146390501921, -1.405, 0.76, -0.761], a = 0.2, v = 0.2, t = 0.2)
movej(p[0.421283246063464, 0.220570224135656, 0.312161251825, -1.405, 0.76, -0.761], a = 0.2, v = 0.2, t = 0.2)
movej(p[0.421268966509954, 0.220544845858302, 0.313236229809141, -1.405, 0.76, -0.761], a = 0.2, v = 0.2, t = 0.2)
movej(p[0.421256155669176, 0.22052207784457, 0.314200641741543, -1.405, 0.76, -0.761], a = 0.2, v = 0.2, t = 0.2)
movej(p[0.421244256443198, 0.220500929994466, 0.315096426469419, -1.405, 0.76, -0.761], a = 0.2, v = 0.2, t = 0.2)
movej(p[0.421231730180586, 0.220478667746099, 0.316039415094588, -1.405, 0.76, -0.761], a = 0.2, v = 0.2, t = 0.2)
movej(p[0.421223856047465, 0.220464673475611, 0.316632187112527, -1.405, 0.76, -0.761], a = 0.2, v = 0.2, t = 0.2)
movej(p[0.421232670735537, 0.220480339343493, 0.315968609248647, -1.405, 0.76, -0.761], a = 0.2, v = 0.2, t = 0.2)
movej(p[0.421250087883898, 0.220511293898307, 0.314657430224586, -1.405, 0.76, -0.761], a = 0.2, v = 0.2, t = 0.2)
movej(p[0.421266386013035, 0.220540259680837, 0.31343049200185, -1.405, 0.76, -0.761], a = 0.2, v = 0.2, t = 0.2)
movej(p[0.421278873688778, 0.220562453350849, 0.312490408231899, -1.405, 0.76, -0.761], a = 0.2, v = 0.2, t = 0.2)
movej(p[0.421287102338765, 0.22057707768497, 0.311870947856643, -1.405, 0.76, -0.761], a = 0.2, v = 0.2, t = 0.2)
movej(p[0.421289501959732, 0.220581342401398, 0.311690302172769, -1.405, 0.76, -0.761], a = 0.2, v = 0.2, t = 0.2)
movej(p[0.421290727092848, 0.220583519764157, 0.311598073019595, -1.405, 0.76, -0.761], a = 0.2, v = 0.2, t = 0.2)
movej(p[0.421292436973517, 0.220586558642496, 0.311469351622744, -1.405, 0.76, -0.761], a = 0.2, v = 0.2, t = 0.2)
movej(p[0.421292533440691, 0.220586730088382, 0.311462089484698, -1.405, 0.76, -0.761], a = 0.2, v = 0.2, t = 0.2)
movej(p[0.421291272132384, 0.220584488433416, 0.311557041939639, -1.405, 0.76, -0.761], a = 0.2, v = 0.2, t = 0.2)
movej(p[0.42128182076096, 0.220567691022682, 0.312268549914618, -1.405, 0.76, -0.761], a = 0.2, v = 0.2, t = 0.2)
movej(p[0.421271440892981, 0.220549243445291, 0.313049955968281, -1.405, 0.76, -0.761], a = 0.2, v = 0.2, t = 0.2)
movej(p[0.421256184609329, 0.220522129278336, 0.31419846310013, -1.405, 0.76, -0.761], a = 0.2, v = 0.2, t = 0.2)
movej(p[0.42124175070834, 0.220496476687563, 0.315285060505143, -1.405, 0.76, -0.761], a = 0.2, v = 0.2, t = 0.2)
movej(p[0.421232721380804, 0.220480429352583, 0.315964796626173, -1.405, 0.76, -0.761], a = 0.2, v = 0.2, t = 0.2)
movej(p[0.421224888246232, 0.220466507946597, 0.316554482235444, -1.405, 0.76, -0.761], a = 0.2, v = 0.2, t = 0.2)
movej(p[0.421236307548017, 0.220486802853415, 0.315694826644343, -1.405, 0.76, -0.761], a = 0.2, v = 0.2, t = 0.2)
movej(p[0.421256645240087, 0.220522947932444, 0.314163786390964, -1.405, 0.76, -0.761], a = 0.2, v = 0.2, t = 0.2)
movej(p[0.421274655661572, 0.22055495687946, 0.312807945217925, -1.405, 0.76, -0.761], a = 0.2, v = 0.2, t = 0.2)
movej(p[0.421282657613699, 0.220569178315748, 0.312205550867076, -1.405, 0.76, -0.761], a = 0.2, v = 0.2, t = 0.2)
movej(p[0.421286967284721, 0.220576837660729, 0.311881114849906, -1.405, 0.76, -0.761], a = 0.2, v = 0.2, t = 0.2)
movej(p[0.421290666800864, 0.220583412610478, 0.311602611855873, -1.405, 0.76, -0.761], a = 0.2, v = 0.2, t = 0.2)
movej(p[0.421291660412762, 0.220585178503109, 0.311527811834007, -1.405, 0.76, -0.761], a = 0.2, v = 0.2, t = 0.2)
movej(p[0.42129159047406, 0.220585054204841, 0.31153307688409, -1.405, 0.76, -0.761], a = 0.2, v = 0.2, t = 0.2)
movej(p[0.421288621696764, 0.220579777957683, 0.311756569182431, -1.405, 0.76, -0.761], a = 0.2, v = 0.2, t = 0.2)
movej(p[0.421280052999987, 0.220564549276812, 0.312401628594296, -1.405, 0.76, -0.761], a = 0.2, v = 0.2, t = 0.2)
movej(p[0.421265635980753, 0.220538926689069, 0.313486955125151, -1.405, 0.76, -0.761], a = 0.2, v = 0.2, t = 0.2)
movej(p[0.42124951390421, 0.220510273795282, 0.314700639945955, -1.405, 0.76, -0.761], a = 0.2, v = 0.2, t = 0.2)
movej(p[0.421237151635794, 0.220488303004922, 0.315631282936448, -1.405, 0.76, -0.761], a = 0.2, v = 0.2, t = 0.2)
movej(p[0.421225177647756, 0.220467022284256, 0.316532695821308, -1.405, 0.76, -0.761], a = 0.2, v = 0.2, t = 0.2)
movej(p[0.421223612467849, 0.220464240574747, 0.316650524011092, -1.405, 0.76, -0.761], a = 0.2, v = 0.2, t = 0.2)
movej(p[0.42124201358139, 0.220496943877604, 0.31526527117897, -1.405, 0.76, -0.761], a = 0.2, v = 0.2, t = 0.2)
movej(p[0.421262819139257, 0.220533920469182, 0.313699009556071, -1.405, 0.76, -0.761], a = 0.2, v = 0.2, t = 0.2)
movej(p[0.421274590546229, 0.220554841153487, 0.312812847161106, -1.405, 0.76, -0.761], a = 0.2, v = 0.2, t = 0.2)
movej(p[0.421282556323166, 0.220568998297567, 0.312213176112023, -1.405, 0.76, -0.761], a = 0.2, v = 0.2, t = 0.2)
movej(p[0.421287611203111, 0.220577982062022, 0.311832640078455, -1.405, 0.76, -0.761], a = 0.2, v = 0.2, t = 0.2)
movej(p[0.42129094896735, 0.220583914089696, 0.311581370102091, -1.405, 0.76, -0.761], a = 0.2, v = 0.2, t = 0.2)
movej(p[0.421291506065283, 0.220584904189691, 0.31153943125488, -1.405, 0.76, -0.761], a = 0.2, v = 0.2, t = 0.2)
movej(p[0.421291375834597, 0.220584672737744, 0.311549235141241, -1.405, 0.76, -0.761], a = 0.2, v = 0.2, t = 0.2)
movej(p[0.421289776891179, 0.220581831022174, 0.31166960507934, -1.405, 0.76, -0.761], a = 0.2, v = 0.2, t = 0.2)
movej(p[0.421278046482756, 0.220560983202372, 0.312552681065636, -1.405, 0.76, -0.761], a = 0.2, v = 0.2, t = 0.2)
movej(p[0.421264885948471, 0.220537593697301, 0.313543418248453, -1.405, 0.76, -0.761], a = 0.2, v = 0.2, t = 0.2)
movej(p[0.421252000345633, 0.220514692813007, 0.31451345833784, -1.405, 0.76, -0.761], a = 0.2, v = 0.2, t = 0.2)
movej(p[0.421241092319874, 0.220495306569387, 0.315334624597301, -1.405, 0.76, -0.761], a = 0.2, v = 0.2, t = 0.2)
movej(p[0.42122845753169, 0.220472851444398, 0.316285783127771, -1.405, 0.76, -0.761], a = 0.2, v = 0.2, t = 0.2)
movej(p[0.421224866541118, 0.220466469371272, 0.316556116216504, -1.405, 0.76, -0.761], a = 0.2, v = 0.2, t = 0.2)
movej(p[0.4212381910696, 0.22049015033435, 0.315553033399011, -1.405, 0.76, -0.761], a = 0.2, v = 0.2, t = 0.2)
movej(p[0.421252981899134, 0.220516437274903, 0.31443956608323, -1.405, 0.76, -0.761], a = 0.2, v = 0.2, t = 0.2)
movej(p[0.421267066106616, 0.220541468374337, 0.313379293928631, -1.405, 0.76, -0.761], a = 0.2, v = 0.2, t = 0.2)
movej(p[0.42127773055276, 0.220560421717093, 0.312576464567734, -1.405, 0.76, -0.761], a = 0.2, v = 0.2, t = 0.2)
movej(p[0.421286571769306, 0.220576134732594, 0.311910889615892, -1.405, 0.76, -0.761], a = 0.2, v = 0.2, t = 0.2)
movej(p[0.421289263203475, 0.220580918072829, 0.311708275964431, -1.405, 0.76, -0.761], a = 0.2, v = 0.2, t = 0.2)
movej(p[0.421290326754074, 0.220582808263728, 0.311628210892482, -1.405, 0.76, -0.761], a = 0.2, v = 0.2, t = 0.2)
movej(p[0.421291484360168, 0.220584865614366, 0.31154106523594, -1.405, 0.76, -0.761], a = 0.2, v = 0.2, t = 0.2)
movej(p[0.421291460243375, 0.220584822752894, 0.311542880770451, -1.405, 0.76, -0.761], a = 0.2, v = 0.2, t = 0.2)
movej(p[0.421283885158495, 0.220571359964654, 0.312113140160451, -1.405, 0.76, -0.761], a = 0.2, v = 0.2, t = 0.2)
movej(p[0.421272728729761, 0.220551532247877, 0.312953006425378, -1.405, 0.76, -0.761], a = 0.2, v = 0.2, t = 0.2)
movej(p[0.421261647063086, 0.220531837401661, 0.31378724453332, -1.405, 0.76, -0.761], a = 0.2, v = 0.2, t = 0.2)
movej(p[0.421246858645231, 0.220505554747255, 0.314900530295649, -1.405, 0.76, -0.761], a = 0.2, v = 0.2, t = 0.2)
movej(p[0.421233107249502, 0.220481115136129, 0.315935748073993, -1.405, 0.76, -0.761], a = 0.2, v = 0.2, t = 0.2)
movej(p[0.421225575574851, 0.220467729498538, 0.316502739501872, -1.405, 0.76, -0.761], a = 0.2, v = 0.2, t = 0.2)
movej(p[0.421235682923062, 0.2204856927413, 0.315741848988186, -1.405, 0.76, -0.761], a = 0.2, v = 0.2, t = 0.2)
movej(p[0.421252740731198, 0.220516008660186, 0.314457721428343, -1.405, 0.76, -0.761], a = 0.2, v = 0.2, t = 0.2)
movej(p[0.42126879286904, 0.220544537255706, 0.313249301657622, -1.405, 0.76, -0.761], a = 0.2, v = 0.2, t = 0.2)
movej(p[0.421281487949208, 0.220567099534374, 0.312293604290874, -1.405, 0.76, -0.761], a = 0.2, v = 0.2, t = 0.2)
movej(p[0.421286675471518, 0.220576319036922, 0.311903082817493, -1.405, 0.76, -0.761], a = 0.2, v = 0.2, t = 0.2)
movej(p[0.421289255968437, 0.220580905214387, 0.311708820624784, -1.405, 0.76, -0.761], a = 0.2, v = 0.2, t = 0.2)
movej(p[0.421290374987661, 0.220582893986671, 0.31162457982346, -1.405, 0.76, -0.761], a = 0.2, v = 0.2, t = 0.2)
movej(p[0.421292444208555, 0.220586571500937, 0.31146880696239, -1.405, 0.76, -0.761], a = 0.2, v = 0.2, t = 0.2)
movej(p[0.421291513300321, 0.220584917048132, 0.311538886594526, -1.405, 0.76, -0.761], a = 0.2, v = 0.2, t = 0.2)
movej(p[0.421283294297051, 0.220570309858599, 0.312157620755977, -1.405, 0.76, -0.761], a = 0.2, v = 0.2, t = 0.2)
movej(p[0.421273970744633, 0.220553739613666, 0.312859506398046, -1.405, 0.76, -0.761], a = 0.2, v = 0.2, t = 0.2)
movej(p[0.421259792481656, 0.220528541354492, 0.313926859137239, -1.405, 0.76, -0.761], a = 0.2, v = 0.2, t = 0.2)
movej(p[0.42124383439931, 0.220500179918712, 0.315128198323366, -1.405, 0.76, -0.761], a = 0.2, v = 0.2, t = 0.2)
movej(p[0.421230874034412, 0.220477146163856, 0.316103866569739, -1.405, 0.76, -0.761], a = 0.2, v = 0.2, t = 0.2)
movej(p[0.421225913209961, 0.220468329559141, 0.316477322018713, -1.405, 0.76, -0.761], a = 0.2, v = 0.2, t = 0.2)
movej(p[0.421235846917259, 0.220485984199307, 0.315729503353509, -1.405, 0.76, -0.761], a = 0.2, v = 0.2, t = 0.2)
movej(p[0.421253394296305, 0.220517170206068, 0.314408520443087, -1.405, 0.76, -0.761], a = 0.2, v = 0.2, t = 0.2)
movej(p[0.421270013178798, 0.220546706046171, 0.31315743561135, -1.405, 0.76, -0.761], a = 0.2, v = 0.2, t = 0.2)
movej(p[0.421281967873401, 0.220567952477659, 0.312257475154099, -1.405, 0.76, -0.761], a = 0.2, v = 0.2, t = 0.2)
movej(p[0.421286624826252, 0.220576229027832, 0.311906895439967, -1.405, 0.76, -0.761], a = 0.2, v = 0.2, t = 0.2)
movej(p[0.421289157089583, 0.220580729482353, 0.31171626431628, -1.405, 0.76, -0.761], a = 0.2, v = 0.2, t = 0.2)
movej(p[0.421291824406959, 0.220585469961116, 0.311515466199331, -1.405, 0.76, -0.761], a = 0.2, v = 0.2, t = 0.2)
movej(p[0.421292294684434, 0.220586305759813, 0.31148006327636, -1.405, 0.76, -0.761], a = 0.2, v = 0.2, t = 0.2)
movej(p[0.421292210275657, 0.220586155744662, 0.31148641764715, -1.405, 0.76, -0.761], a = 0.2, v = 0.2, t = 0.2)
movej(p[0.421288235828066, 0.220579092174137, 0.311785617734612, -1.405, 0.76, -0.761], a = 0.2, v = 0.2, t = 0.2)
movej(p[0.421281044200205, 0.220566310883296, 0.312327010125882, -1.405, 0.76, -0.761], a = 0.2, v = 0.2, t = 0.2)
movej(p[0.421265590158845, 0.220538845252273, 0.313490404640723, -1.405, 0.76, -0.761], a = 0.2, v = 0.2, t = 0.2)
movej(p[0.421251423954266, 0.220513668423835, 0.31455684961266, -1.405, 0.76, -0.761], a = 0.2, v = 0.2, t = 0.2)
movej(p[0.421242462153752, 0.220497741100976, 0.315231502237059, -1.405, 0.76, -0.761], a = 0.2, v = 0.2, t = 0.2)
movej(p[0.421231098320592, 0.220477544775542, 0.316086982098784, -1.405, 0.76, -0.761], a = 0.2, v = 0.2, t = 0.2)
movej(p[0.421218506942637, 0.220455166801202, 0.317034872667134, -1.405, 0.76, -0.761], a = 0.2, v = 0.2, t = 0.2)
movej(p[0.421212277574842, 0.220444095683079, 0.317503825231402, -1.405, 0.76, -0.761], a = 0.2, v = 0.2, t = 0.2)
movej(p[0.421232364452258, 0.220479795002803, 0.315991666536941, -1.405, 0.76, -0.761], a = 0.2, v = 0.2, t = 0.2)
movej(p[0.421252116106243, 0.220514898548071, 0.314504743772186, -1.405, 0.76, -0.761], a = 0.2, v = 0.2, t = 0.2)
movej(p[0.421266513832041, 0.220540486846636, 0.31342086966894, -1.405, 0.76, -0.761], a = 0.2, v = 0.2, t = 0.2)
movej(p[0.421279163090302, 0.220562967688508, 0.312468621817763, -1.405, 0.76, -0.761], a = 0.2, v = 0.2, t = 0.2)
movej(p[0.421286173842211, 0.220575427518312, 0.311940845935328, -1.405, 0.76, -0.761], a = 0.2, v = 0.2, t = 0.2)
movej(p[0.421289229439964, 0.220580858066768, 0.311710817712747, -1.405, 0.76, -0.761], a = 0.2, v = 0.2, t = 0.2)
movej(p[0.42129071985781, 0.220583506905715, 0.311598617679948, -1.405, 0.76, -0.761], a = 0.2, v = 0.2, t = 0.2)
movej(p[0.421292789078704, 0.220587184419981, 0.311442844818879, -1.405, 0.76, -0.761], a = 0.2, v = 0.2, t = 0.2)
movej(p[0.421292627496187, 0.220586897248122, 0.311455008900104, -1.405, 0.76, -0.761], a = 0.2, v = 0.2, t = 0.2)
movej(p[0.421292791490383, 0.220587188706129, 0.311442663265428, -1.405, 0.76, -0.761], a = 0.2, v = 0.2, t = 0.2)
movej(p[0.421292680553133, 0.220586991543359, 0.31145101472418, -1.405, 0.76, -0.761], a = 0.2, v = 0.2, t = 0.2)
movej(p[0.421289863711636, 0.220581985323472, 0.311663069155099, -1.405, 0.76, -0.761], a = 0.2, v = 0.2, t = 0.2)
movej(p[0.421277853548407, 0.220560640310599, 0.312567205341727, -1.405, 0.76, -0.761], a = 0.2, v = 0.2, t = 0.2)
movej(p[0.421263347297038, 0.220534859135411, 0.313659249350274, -1.405, 0.76, -0.761], a = 0.2, v = 0.2, t = 0.2)
movej(p[0.42125292401883, 0.220516334407371, 0.314443923366057, -1.405, 0.76, -0.761], a = 0.2, v = 0.2, t = 0.2)
movej(p[0.421238839811348, 0.220491303307937, 0.315504195520657, -1.405, 0.76, -0.761], a = 0.2, v = 0.2, t = 0.2)
movej(p[0.421227270985443, 0.220470742659994, 0.316375107425727, -1.405, 0.76, -0.761], a = 0.2, v = 0.2, t = 0.2)
movej(p[0.421232222163176, 0.22047954212012, 0.316002378190557, -1.405, 0.76, -0.761], a = 0.2, v = 0.2, t = 0.2)
movej(p[0.421252460976392, 0.220515511467115, 0.314478781628674, -1.405, 0.76, -0.761], a = 0.2, v = 0.2, t = 0.2)
movej(p[0.421266955169365, 0.220541271211567, 0.313387645387383, -1.405, 0.76, -0.761], a = 0.2, v = 0.2, t = 0.2)
movej(p[0.421277226511773, 0.220559525912336, 0.312614409239021, -1.405, 0.76, -0.761], a = 0.2, v = 0.2, t = 0.2)
movej(p[0.421285013824437, 0.220573365881527, 0.312028173145322, -1.405, 0.76, -0.761], a = 0.2, v = 0.2, t = 0.2)
movej(p[0.421289820301408, 0.220581908172823, 0.31166633711722, -1.405, 0.76, -0.761], a = 0.2, v = 0.2, t = 0.2)
movej(p[0.421291207017042, 0.220584372707442, 0.31156194388282, -1.405, 0.76, -0.761], a = 0.2, v = 0.2, t = 0.2)
movej(p[0.421291122608264, 0.220584222692292, 0.311568298253609, -1.405, 0.76, -0.761], a = 0.2, v = 0.2, t = 0.2)
movej(p[0.42128716263075, 0.220577184838649, 0.311866409020365, -1.405, 0.76, -0.761], a = 0.2, v = 0.2, t = 0.2)
movej(p[0.421272728729761, 0.220551532247877, 0.312953006425378, -1.405, 0.76, -0.761], a = 0.2, v = 0.2, t = 0.2)
movej(p[0.42125496671125, 0.220519964774018, 0.31429014759295, -1.405, 0.76, -0.761], a = 0.2, v = 0.2, t = 0.2)
movej(p[0.421239763484544, 0.2204929449023, 0.315434660548874, -1.405, 0.76, -0.761], a = 0.2, v = 0.2, t = 0.2)
movej(p[0.42122902427634, 0.220473858688982, 0.316243118066756, -1.405, 0.76, -0.761], a = 0.2, v = 0.2, t = 0.2)
movej(p[0.421218772227367, 0.22045563827739, 0.317014901787509, -1.405, 0.76, -0.761], a = 0.2, v = 0.2, t = 0.2)
movej(p[0.421230567751132, 0.220476601823166, 0.316126923858033, -1.405, 0.76, -0.761], a = 0.2, v = 0.2, t = 0.2)
movej(p[0.421250977793584, 0.22051287548661, 0.314590437001119, -1.405, 0.76, -0.761], a = 0.2, v = 0.2, t = 0.2)
movej(p[0.421264331262218, 0.220536607883454, 0.313585175542213, -1.405, 0.76, -0.761], a = 0.2, v = 0.2, t = 0.2)
movej(p[0.421273664461353, 0.220553195272976, 0.31288256368634, -1.405, 0.76, -0.761], a = 0.2, v = 0.2, t = 0.2)
movej(p[0.421278888158854, 0.220562479067732, 0.312489318911192, -1.405, 0.76, -0.761], a = 0.2, v = 0.2, t = 0.2)
movej(p[0.421281803879204, 0.220567661019652, 0.312269820788776, -1.405, 0.76, -0.761], a = 0.2, v = 0.2, t = 0.2)
movej(p[0.421279384964803, 0.220563362014047, 0.312451918900259, -1.405, 0.76, -0.761], a = 0.2, v = 0.2, t = 0.2)
movej(p[0.421262669615136, 0.220533654728058, 0.313710265870041, -1.405, 0.76, -0.761], a = 0.2, v = 0.2, t = 0.2)
movej(p[0.421244473494341, 0.22050131574771, 0.315080086658817, -1.405, 0.76, -0.761], a = 0.2, v = 0.2, t = 0.2)
movej(p[0.421227562798646, 0.220471261283801, 0.316353139458141, -1.405, 0.76, -0.761], a = 0.2, v = 0.2, t = 0.2)
movej(p[0.42121209428721, 0.220443769935895, 0.317517623293688, -1.405, 0.76, -0.761], a = 0.2, v = 0.2, t = 0.2)
movej(p[0.421191614306057, 0.220407371974183, 0.319059375200684, -1.405, 0.76, -0.761], a = 0.2, v = 0.2, t = 0.2)
movej(p[0.421171655247647, 0.220371899820259, 0.320561911562236, -1.405, 0.76, -0.761], a = 0.2, v = 0.2, t = 0.2)
movej(p[0.42116721293426, 0.220364004737184, 0.320896333019218, -1.405, 0.76, -0.761], a = 0.2, v = 0.2, t = 0.2)
movej(p[0.421196845238596, 0.220416668627381, 0.318665585765183, -1.405, 0.76, -0.761], a = 0.2, v = 0.2, t = 0.2)
movej(p[0.421222013524431, 0.220461398859178, 0.316770893949191, -1.405, 0.76, -0.761], a = 0.2, v = 0.2, t = 0.2)
movej(p[0.4212397803663, 0.22049297490533, 0.315433389674716, -1.405, 0.76, -0.761], a = 0.2, v = 0.2, t = 0.2)
movej(p[0.421252154693113, 0.220514967126426, 0.314501838916968, -1.405, 0.76, -0.761], a = 0.2, v = 0.2, t = 0.2)
movej(p[0.421262746788876, 0.220533791884767, 0.313704456159605, -1.405, 0.76, -0.761], a = 0.2, v = 0.2, t = 0.2)
movej(p[0.42127284449037, 0.22055173798294, 0.312944291859724, -1.405, 0.76, -0.761], a = 0.2, v = 0.2, t = 0.2)
movej(p[0.421278598757331, 0.220561964730072, 0.312511105325328, -1.405, 0.76, -0.761], a = 0.2, v = 0.2, t = 0.2)
movej(p[0.421283349765676, 0.220570408439984, 0.312153445026601, -1.405, 0.76, -0.761], a = 0.2, v = 0.2, t = 0.2)
movej(p[0.421286489772207, 0.220575989003591, 0.31191706243323, -1.405, 0.76, -0.761], a = 0.2, v = 0.2, t = 0.2)
movej(p[0.42128935725897, 0.220581085232568, 0.311701195379837, -1.405, 0.76, -0.761], a = 0.2, v = 0.2, t = 0.2)
movej(p[0.421287698023568, 0.22057813636332, 0.311826104154214, -1.405, 0.76, -0.761], a = 0.2, v = 0.2, t = 0.2)
movej(p[0.421274633956457, 0.220554918304136, 0.312809579198985, -1.405, 0.76, -0.761], a = 0.2, v = 0.2, t = 0.2)
movej(p[0.421261926817893, 0.220532334594732, 0.313766184332989, -1.405, 0.76, -0.761], a = 0.2, v = 0.2, t = 0.2)
movej(p[0.421244866598077, 0.220502014389698, 0.315050493446283, -1.405, 0.76, -0.761], a = 0.2, v = 0.2, t = 0.2)
movej(p[0.421232294513556, 0.220479670704535, 0.315996931587024, -1.405, 0.76, -0.761], a = 0.2, v = 0.2, t = 0.2)
movej(p[0.421234064686209, 0.220482816736553, 0.315863671353894, -1.405, 0.76, -0.761], a = 0.2, v = 0.2, t = 0.2)
movej(p[0.421256228019557, 0.220522206428985, 0.314195195138009, -1.405, 0.76, -0.761], a = 0.2, v = 0.2, t = 0.2)
movej(p[0.421271855701831, 0.220549980662603, 0.313018728774687, -1.405, 0.76, -0.761], a = 0.2, v = 0.2, t = 0.2)
movej(p[0.421281779762411, 0.220567618158181, 0.312271636323287, -1.405, 0.76, -0.761], a = 0.2, v = 0.2, t = 0.2)
movej(p[0.421287741433797, 0.220578213513969, 0.311822836192094, -1.405, 0.76, -0.761], a = 0.2, v = 0.2, t = 0.2)
movej(p[0.421290353282547, 0.220582855411346, 0.31162621380452, -1.405, 0.76, -0.761], a = 0.2, v = 0.2, t = 0.2)
movej(p[0.421291223898797, 0.220584402710472, 0.311560673008662, -1.405, 0.76, -0.761], a = 0.2, v = 0.2, t = 0.2)
movej(p[0.421290891087045, 0.220583811222164, 0.311585727384918, -1.405, 0.76, -0.761], a = 0.2, v = 0.2, t = 0.2)
movej(p[0.421286453597017, 0.220575924711383, 0.311919785734997, -1.405, 0.76, -0.761], a = 0.2, v = 0.2, t = 0.2)
movej(p[0.421271887053663, 0.220550036382516, 0.313016368579822, -1.405, 0.76, -0.761], a = 0.2, v = 0.2, t = 0.2)
movej(p[0.421258138069613, 0.220525601057538, 0.314051404804714, -1.405, 0.76, -0.761], a = 0.2, v = 0.2, t = 0.2)
movej(p[0.421245597336924, 0.220503313092289, 0.31499548275059, -1.405, 0.76, -0.761], a = 0.2, v = 0.2, t = 0.2)
movej(p[0.421233367710873, 0.220481578040023, 0.315916140301271, -1.405, 0.76, -0.761], a = 0.2, v = 0.2, t = 0.2)
movej(p[0.421227557975287, 0.220471252711506, 0.316353502565043, -1.405, 0.76, -0.761], a = 0.2, v = 0.2, t = 0.2)
movej(p[0.421242602031155, 0.220497989697512, 0.315220972136894, -1.405, 0.76, -0.761], a = 0.2, v = 0.2, t = 0.2)
movej(p[0.421264374672446, 0.220536685034103, 0.313581907580092, -1.405, 0.76, -0.761], a = 0.2, v = 0.2, t = 0.2)
movej(p[0.421276339013767, 0.22055794861018, 0.312681220909036, -1.405, 0.76, -0.761], a = 0.2, v = 0.2, t = 0.2)
movej(p[0.421283938215441, 0.220571454259892, 0.312109145984526, -1.405, 0.76, -0.761], a = 0.2, v = 0.2, t = 0.2)
movej(p[0.421287579851279, 0.220577926342109, 0.311835000273319, -1.405, 0.76, -0.761], a = 0.2, v = 0.2, t = 0.2)
movej(p[0.421291088844753, 0.220584162686231, 0.311570840001925, -1.405, 0.76, -0.761], a = 0.2, v = 0.2, t = 0.2)
movej(p[0.421291532593756, 0.220584951337309, 0.311537434166917, -1.405, 0.76, -0.761], a = 0.2, v = 0.2, t = 0.2)
movej(p[0.421290686094299, 0.220583446899655, 0.311601159428264, -1.405, 0.76, -0.761], a = 0.2, v = 0.2, t = 0.2)
movej(p[0.421285057234665, 0.220573443032176, 0.312024905183201, -1.405, 0.76, -0.761], a = 0.2, v = 0.2, t = 0.2)
movej(p[0.421272748023195, 0.220551566537054, 0.312951553997769, -1.405, 0.76, -0.761], a = 0.2, v = 0.2, t = 0.2)
movej(p[0.421258552878463, 0.22052633827485, 0.31402017761112, -1.405, 0.76, -0.761], a = 0.2, v = 0.2, t = 0.2)
movej(p[0.421247176986907, 0.220506120518681, 0.3148765652401, -1.405, 0.76, -0.761], a = 0.2, v = 0.2, t = 0.2)
movej(p[0.42123856970326, 0.220490823259454, 0.315524529507183, -1.405, 0.76, -0.761], a = 0.2, v = 0.2, t = 0.2)
movej(p[0.42123625690275, 0.220486712844325, 0.315698639266817, -1.405, 0.76, -0.761], a = 0.2, v = 0.2, t = 0.2)
movej(p[0.421251804999605, 0.220514345635087, 0.314528164167382, -1.405, 0.76, -0.761], a = 0.2, v = 0.2, t = 0.2)
movej(p[0.421267410976765, 0.220542081293381, 0.31335333178512, -1.405, 0.76, -0.761], a = 0.2, v = 0.2, t = 0.2)
movej(p[0.421280376165021, 0.220565123620532, 0.312377300431845, -1.405, 0.76, -0.761], a = 0.2, v = 0.2, t = 0.2)
movej(p[0.421285435868325, 0.22057411595728, 0.311996401291374, -1.405, 0.76, -0.761], a = 0.2, v = 0.2, t = 0.2)
movej(p[0.421288158654327, 0.220578955017428, 0.311791427445048, -1.405, 0.76, -0.761], a = 0.2, v = 0.2, t = 0.2)
movej(p[0.421290522100102, 0.220583155441648, 0.311613505062941, -1.405, 0.76, -0.761], a = 0.2, v = 0.2, t = 0.2)
movej(p[0.421291942579247, 0.220585679982327, 0.311506570080225, -1.405, 0.76, -0.761], a = 0.2, v = 0.2, t = 0.2)
movej(p[0.421292063163216, 0.220585894289685, 0.311497492407669, -1.405, 0.76, -0.761], a = 0.2, v = 0.2, t = 0.2)
movej(p[0.421292075221612, 0.220585915720421, 0.311496584640413, -1.405, 0.76, -0.761], a = 0.2, v = 0.2, t = 0.2)
movej(p[0.421293558404421, 0.220588551700927, 0.311384929267968, -1.405, 0.76, -0.761], a = 0.2, v = 0.2, t = 0.2)
movej(p[0.421290973084143, 0.220583956951167, 0.31157955456758, -1.405, 0.76, -0.761], a = 0.2, v = 0.2, t = 0.2)
movej(p[0.421282869841483, 0.220569555496699, 0.312189574163376, -1.405, 0.76, -0.761], a = 0.2, v = 0.2, t = 0.2)
movej(p[0.421272649144342, 0.22055139080502, 0.312958997689265, -1.405, 0.76, -0.761], a = 0.2, v = 0.2, t = 0.2)
movej(p[0.421261538537515, 0.220531644525038, 0.313795414438621, -1.405, 0.76, -0.761], a = 0.2, v = 0.2, t = 0.2)
movej(p[0.421247107048206, 0.220505996220413, 0.314881830290183, -1.405, 0.76, -0.761], a = 0.2, v = 0.2, t = 0.2)
movej(p[0.421233425591178, 0.220481680907555, 0.315911783018444, -1.405, 0.76, -0.761], a = 0.2, v = 0.2, t = 0.2)
movej(p[0.421226892351783, 0.220470069734889, 0.316403611317555, -1.405, 0.76, -0.761], a = 0.2, v = 0.2, t = 0.2)
movej(p[0.421241654241165, 0.220496305241676, 0.315292322643188, -1.405, 0.76, -0.761], a = 0.2, v = 0.2, t = 0.2)
movej(p[0.421258789223041, 0.220526758317272, 0.314002385372909, -1.405, 0.76, -0.761], a = 0.2, v = 0.2, t = 0.2)
movej(p[0.421272969897697, 0.220551960862593, 0.312934851080265, -1.405, 0.76, -0.761], a = 0.2, v = 0.2, t = 0.2)
movej(p[0.421283672930711, 0.220570982783704, 0.31212911686415, -1.405, 0.76, -0.761], a = 0.2, v = 0.2, t = 0.2)
movej(p[0.421287980190054, 0.220578637842538, 0.311804862400432, -1.405, 0.76, -0.761], a = 0.2, v = 0.2, t = 0.2)
movej(p[0.421289825124767, 0.220581916745118, 0.311665974010317, -1.405, 0.76, -0.761], a = 0.2, v = 0.2, t = 0.2)
movej(p[0.421290712622772, 0.220583494047274, 0.311599162340302, -1.405, 0.76, -0.761], a = 0.2, v = 0.2, t = 0.2)
movej(p[0.421292562380844, 0.220586781522148, 0.311459910843285, -1.405, 0.76, -0.761], a = 0.2, v = 0.2, t = 0.2)
movej(p[0.421292338094663, 0.220586382910462, 0.31147679531424, -1.405, 0.76, -0.761], a = 0.2, v = 0.2, t = 0.2)
movej(p[0.421292318801228, 0.220586348621285, 0.311478247741849, -1.405, 0.76, -0.761], a = 0.2, v = 0.2, t = 0.2)
movej(p[0.421289236675002, 0.22058087092521, 0.311710273052393, -1.405, 0.76, -0.761], a = 0.2, v = 0.2, t = 0.2)
movej(p[0.421281094845472, 0.220566400892386, 0.312323197503408, -1.405, 0.76, -0.761], a = 0.2, v = 0.2, t = 0.2)
movej(p[0.421268438352173, 0.220543907192073, 0.313275990014938, -1.405, 0.76, -0.761], a = 0.2, v = 0.2, t = 0.2)
movej(p[0.421255752918723, 0.220521362057993, 0.314230961167882, -1.405, 0.76, -0.761], a = 0.2, v = 0.2, t = 0.2)
movej(p[0.421246185786689, 0.220504358912196, 0.314951183708515, -1.405, 0.76, -0.761], a = 0.2, v = 0.2, t = 0.2)
movej(p[0.421236551127633, 0.220487235754279, 0.315676489745779, -1.405, 0.76, -0.761], a = 0.2, v = 0.2, t = 0.2)
movej(p[0.421232745497597, 0.220480472214055, 0.315962981091662, -1.405, 0.76, -0.761], a = 0.2, v = 0.2, t = 0.2)
movej(p[0.421247726849802, 0.220507097760234, 0.314835171053243, -1.405, 0.76, -0.761], a = 0.2, v = 0.2, t = 0.2)
movej(p[0.421267683496533, 0.220542565628011, 0.313332816245142, -1.405, 0.76, -0.761], a = 0.2, v = 0.2, t = 0.2)
movej(p[0.421278101951382, 0.220561081783757, 0.31254850533626, -1.405, 0.76, -0.761], a = 0.2, v = 0.2, t = 0.2)
movej(p[0.421283769397885, 0.22057115422959, 0.312121854726105, -1.405, 0.76, -0.761], a = 0.2, v = 0.2, t = 0.2)
movej(p[0.421287888546238, 0.220578474968946, 0.311811761431575, -1.405, 0.76, -0.761], a = 0.2, v = 0.2, t = 0.2)
movej(p[0.42129071985781, 0.220583506905715, 0.311598617679948, -1.405, 0.76, -0.761], a = 0.2, v = 0.2, t = 0.2)
movej(p[0.421291349306124, 0.220584625590125, 0.311551232229203, -1.405, 0.76, -0.761], a = 0.2, v = 0.2, t = 0.2)
movej(p[0.421291694176273, 0.220585238509169, 0.311525270085692, -1.405, 0.76, -0.761], a = 0.2, v = 0.2, t = 0.2)
movej(p[0.421293252121142, 0.220588007360237, 0.311407986556262, -1.405, 0.76, -0.761], a = 0.2, v = 0.2, t = 0.2)
movej(p[0.421292752903513, 0.220587120127774, 0.311445568120646, -1.405, 0.76, -0.761], a = 0.2, v = 0.2, t = 0.2)
movej(p[0.421287587086317, 0.22057793920055, 0.311834455612966, -1.405, 0.76, -0.761], a = 0.2, v = 0.2, t = 0.2)
movej(p[0.421277568970243, 0.220560134545233, 0.31258862864896, -1.405, 0.76, -0.761], a = 0.2, v = 0.2, t = 0.2)
movej(p[0.421268759105529, 0.220544477249646, 0.313251843405938, -1.405, 0.76, -0.761], a = 0.2, v = 0.2, t = 0.2)
movej(p[0.421255846974218, 0.220521529217733, 0.314223880583288, -1.405, 0.76, -0.761], a = 0.2, v = 0.2, t = 0.2)
movej(p[0.421245013710518, 0.220502275844675, 0.315039418685764, -1.405, 0.76, -0.761], a = 0.2, v = 0.2, t = 0.2)
movej(p[0.421237713557086, 0.220489301677211, 0.315588980982334, -1.405, 0.76, -0.761], a = 0.2, v = 0.2, t = 0.2)
movej(p[0.421233582350336, 0.220481959507121, 0.31589998204412, -1.405, 0.76, -0.761], a = 0.2, v = 0.2, t = 0.2)
movej(p[0.42124852752735, 0.220508520761092, 0.314774895307467, -1.405, 0.76, -0.761], a = 0.2, v = 0.2, t = 0.2)
movej(p[0.421265146409843, 0.220538056601195, 0.313523810475731, -1.405, 0.76, -0.761], a = 0.2, v = 0.2, t = 0.2)
movej(p[0.421279302967705, 0.220563216285044, 0.312458091717598, -1.405, 0.76, -0.761], a = 0.2, v = 0.2, t = 0.2)
movej(p[0.421285035529551, 0.220573404456851, 0.312026539164262, -1.405, 0.76, -0.761], a = 0.2, v = 0.2, t = 0.2)
movej(p[0.421288394998904, 0.22057937505985, 0.311773635206837, -1.405, 0.76, -0.761], a = 0.2, v = 0.2, t = 0.2)
movej(p[0.421290604097201, 0.220583301170651, 0.311607332245602, -1.405, 0.76, -0.761], a = 0.2, v = 0.2, t = 0.2)
movej(p[0.421292369446495, 0.220586438630375, 0.311474435119375, -1.405, 0.76, -0.761], a = 0.2, v = 0.2, t = 0.2)
movej(p[0.421292169277108, 0.220586082880161, 0.311489504055819, -1.405, 0.76, -0.761], a = 0.2, v = 0.2, t = 0.2)
movej(p[0.421286142490379, 0.220575371798399, 0.311943206130193, -1.405, 0.76, -0.761], a = 0.2, v = 0.2, t = 0.2)
movej(p[0.421276712824069, 0.22055861296299, 0.312653080124111, -1.405, 0.76, -0.761], a = 0.2, v = 0.2, t = 0.2)
movej(p[0.421263178479482, 0.22053455910511, 0.313671958091853, -1.405, 0.76, -0.761], a = 0.2, v = 0.2, t = 0.2)
movej(p[0.421249511492531, 0.220510269509135, 0.314700821499406, -1.405, 0.76, -0.761], a = 0.2, v = 0.2, t = 0.2)
movej(p[0.421238596231733, 0.220490870407073, 0.315522532419221, -1.405, 0.76, -0.761], a = 0.2, v = 0.2, t = 0.2)
movej(p[0.421233866928501, 0.220482465272486, 0.315878558736887, -1.405, 0.76, -0.761], a = 0.2, v = 0.2, t = 0.2)
movej(p[0.421246443836381, 0.220504817529943, 0.314931757489244, -1.405, 0.76, -0.761], a = 0.2, v = 0.2, t = 0.2)
movej(p[0.421264297498707, 0.220536547877393, 0.313587717290528, -1.405, 0.76, -0.761], a = 0.2, v = 0.2, t = 0.2)
movej(p[0.421278704871223, 0.220562153320547, 0.312503116973478, -1.405, 0.76, -0.761], a = 0.2, v = 0.2, t = 0.2)
movej(p[0.42128534422451, 0.220573953083688, 0.312003300322517, -1.405, 0.76, -0.761], a = 0.2, v = 0.2, t = 0.2)
movej(p[0.42128856140478, 0.220579670804004, 0.31176110801871, -1.405, 0.76, -0.761], a = 0.2, v = 0.2, t = 0.2)
movej(p[0.421290213405144, 0.220582606814811, 0.311636743904685, -1.405, 0.76, -0.761], a = 0.2, v = 0.2, t = 0.2)
movej(p[0.421292480383745, 0.220586635793145, 0.311466083660623, -1.405, 0.76, -0.761], a = 0.2, v = 0.2, t = 0.2)
movej(p[0.421292598556034, 0.220586845814356, 0.311457187541518, -1.405, 0.76, -0.761], a = 0.2, v = 0.2, t = 0.2)
movej(p[0.421291105726508, 0.220584192689261, 0.311569569127767, -1.405, 0.76, -0.761], a = 0.2, v = 0.2, t = 0.2)
movej(p[0.421284215558568, 0.220571947166816, 0.312088267337646, -1.405, 0.76, -0.761], a = 0.2, v = 0.2, t = 0.2)
movej(p[0.421271402306111, 0.220549174866937, 0.313052860823499, -1.405, 0.76, -0.761], a = 0.2, v = 0.2, t = 0.2)
movej(p[0.421256953935046, 0.220523496559281, 0.314140547549219, -1.405, 0.76, -0.761], a = 0.2, v = 0.2, t = 0.2)
movej(p[0.421244948595175, 0.220502160118702, 0.315044320628944, -1.405, 0.76, -0.761], a = 0.2, v = 0.2, t = 0.2)
movej(p[0.421236666888242, 0.220487441489343, 0.315667775180125, -1.405, 0.76, -0.761], a = 0.2, v = 0.2, t = 0.2)
movej(p[0.421232690028972, 0.22048037363267, 0.315967156821038, -1.405, 0.76, -0.761], a = 0.2, v = 0.2, t = 0.2)
movej(p[0.421247625559269, 0.220506917742053, 0.31484279629819, -1.405, 0.76, -0.761], a = 0.2, v = 0.2, t = 0.2)
movej(p[0.421267652144701, 0.220542509908098, 0.313335176440007, -1.405, 0.76, -0.761], a = 0.2, v = 0.2, t = 0.2)
movej(p[0.421279845595561, 0.220564180668156, 0.312417242191093, -1.405, 0.76, -0.761], a = 0.2, v = 0.2, t = 0.2)
movej(p[0.421285915792519, 0.220574968900566, 0.311960272154599, -1.405, 0.76, -0.761], a = 0.2, v = 0.2, t = 0.2)
movej(p[0.42128924391004, 0.220580883783651, 0.31170972839204, -1.405, 0.76, -0.761], a = 0.2, v = 0.2, t = 0.2)
movej(p[0.421292313977869, 0.22058634004899, 0.311478610848751, -1.405, 0.76, -0.761], a = 0.2, v = 0.2, t = 0.2)
movej(p[0.421292504500539, 0.220586678654616, 0.311464268126112, -1.405, 0.76, -0.761], a = 0.2, v = 0.2, t = 0.2)
movej(p[0.421292562380844, 0.220586781522148, 0.311459910843285, -1.405, 0.76, -0.761], a = 0.2, v = 0.2, t = 0.2)
movej(p[0.421292873487482, 0.220587334435132, 0.311436490448089, -1.405, 0.76, -0.761], a = 0.2, v = 0.2, t = 0.2)
movej(p[0.421293806807395, 0.220588993174084, 0.311366229262502, -1.405, 0.76, -0.761], a = 0.2, v = 0.2, t = 0.2)
movej(p[0.421288759162488, 0.220580022268071, 0.311746220635717, -1.405, 0.76, -0.761], a = 0.2, v = 0.2, t = 0.2)
movej(p[0.421278540877026, 0.22056186186254, 0.312515462608155, -1.405, 0.76, -0.761], a = 0.2, v = 0.2, t = 0.2)
movej(p[0.421269880536433, 0.220546470308077, 0.313167421051162, -1.405, 0.76, -0.761], a = 0.2, v = 0.2, t = 0.2)
movej(p[0.421258936335482, 0.220527019772249, 0.31399131061239, -1.405, 0.76, -0.761], a = 0.2, v = 0.2, t = 0.2)
movej(p[0.421247220397136, 0.220506197669329, 0.31487329727798, -1.405, 0.76, -0.761], a = 0.2, v = 0.2, t = 0.2)
movej(p[0.421238581761656, 0.22049084469019, 0.315523621739928, -1.405, 0.76, -0.761], a = 0.2, v = 0.2, t = 0.2)
movej(p[0.421240670275985, 0.220494556493634, 0.315366396451249, -1.405, 0.76, -0.761], a = 0.2, v = 0.2, t = 0.2)
movej(p[0.421255215114225, 0.220520406247176, 0.314271447587484, -1.405, 0.76, -0.761], a = 0.2, v = 0.2, t = 0.2)
movej(p[0.421270488279632, 0.220547550417162, 0.313121669581478, -1.405, 0.76, -0.761], a = 0.2, v = 0.2, t = 0.2)
movej(p[0.421282479149426, 0.220568861140858, 0.312218985822459, -1.405, 0.76, -0.761], a = 0.2, v = 0.2, t = 0.2)
movej(p[0.421287058928537, 0.220577000534321, 0.311874215818764, -1.405, 0.76, -0.761], a = 0.2, v = 0.2, t = 0.2)
movej(p[0.421289805831332, 0.22058188245594, 0.311667426437926, -1.405, 0.76, -0.761], a = 0.2, v = 0.2, t = 0.2)
movej(p[0.421291151548416, 0.220584274126058, 0.311566119612196, -1.405, 0.76, -0.761], a = 0.2, v = 0.2, t = 0.2)
movej(p[0.421293461937246, 0.22058838025504, 0.311392191406013, -1.405, 0.76, -0.761], a = 0.2, v = 0.2, t = 0.2)
movej(p[0.421293592167932, 0.220588611706987, 0.311382387519652, -1.405, 0.76, -0.761], a = 0.2, v = 0.2, t = 0.2)
movej(p[0.421293367881751, 0.220588213095301, 0.311399271990607, -1.405, 0.76, -0.761], a = 0.2, v = 0.2, t = 0.2)
movej(p[0.421293129125494, 0.220587788766732, 0.311417245782269, -1.405, 0.76, -0.761], a = 0.2, v = 0.2, t = 0.2)
movej(p[0.421284181795057, 0.220571887160755, 0.312090809085962, -1.405, 0.76, -0.761], a = 0.2, v = 0.2, t = 0.2)
movej(p[0.421273893570893, 0.220553602456956, 0.312865316108482, -1.405, 0.76, -0.761], a = 0.2, v = 0.2, t = 0.2)
movej(p[0.421263151951009, 0.220534511957491, 0.313673955179815, -1.405, 0.76, -0.761], a = 0.2, v = 0.2, t = 0.2)
movej(p[0.421254612194384, 0.220519334710385, 0.314316835950266, -1.405, 0.76, -0.761], a = 0.2, v = 0.2, t = 0.2)
movej(p[0.421244094860681, 0.220500642822606, 0.315108590550644, -1.405, 0.76, -0.761], a = 0.2, v = 0.2, t = 0.2)
movej(p[0.421236536657556, 0.220487210037396, 0.315677579066486, -1.405, 0.76, -0.761], a = 0.2, v = 0.2, t = 0.2)
movej(p[0.421249304088105, 0.220509900900479, 0.314716435096204, -1.405, 0.76, -0.761], a = 0.2, v = 0.2, t = 0.2)
movej(p[0.421265151233201, 0.220538065173489, 0.313523447368828, -1.405, 0.76, -0.761], a = 0.2, v = 0.2, t = 0.2)
movej(p[0.421276527124758, 0.220558282929659, 0.312667059739848, -1.405, 0.76, -0.761], a = 0.2, v = 0.2, t = 0.2)
movej(p[0.421283971978952, 0.220571514265952, 0.31210660423621, -1.405, 0.76, -0.761], a = 0.2, v = 0.2, t = 0.2)
movej(p[0.421289822713087, 0.220581912458971, 0.311666155563769, -1.405, 0.76, -0.761], a = 0.2, v = 0.2, t = 0.2)
movej(p[0.42129132518933, 0.220584582728653, 0.311553047763715, -1.405, 0.76, -0.761], a = 0.2, v = 0.2, t = 0.2)
movej(p[0.421291995636193, 0.220585774277565, 0.3115025759043, -1.405, 0.76, -0.761], a = 0.2, v = 0.2, t = 0.2)
movej(p[0.421292887957558, 0.220587360152015, 0.311435401127382, -1.405, 0.76, -0.761], a = 0.2, v = 0.2, t = 0.2)
movej(p[0.421290466631477, 0.220583056860263, 0.311617680792317, -1.405, 0.76, -0.761], a = 0.2, v = 0.2, t = 0.2)
movej(p[0.421279807008692, 0.220564112089801, 0.312420147046311, -1.405, 0.76, -0.761], a = 0.2, v = 0.2, t = 0.2)
movej(p[0.421268826632551, 0.220544597261766, 0.313246759909306, -1.405, 0.76, -0.761], a = 0.2, v = 0.2, t = 0.2)
movej(p[0.421258984569069, 0.220527105495192, 0.313987679543368, -1.405, 0.76, -0.761], a = 0.2, v = 0.2, t = 0.2)
movej(p[0.421245734802648, 0.220503557402677, 0.314985134203876, -1.405, 0.76, -0.761], a = 0.2, v = 0.2, t = 0.2)
movej(p[0.421233905515371, 0.22048253385084, 0.315875653881669, -1.405, 0.76, -0.761], a = 0.2, v = 0.2, t = 0.2)
movej(p[0.421231081438837, 0.220477514772512, 0.316088252972942, -1.405, 0.76, -0.761], a = 0.2, v = 0.2, t = 0.2)
movej(p[0.421249528374286, 0.220510299512165, 0.314699550625249, -1.405, 0.76, -0.761], a = 0.2, v = 0.2, t = 0.2)
movej(p[0.421264637545497, 0.220537152224143, 0.313562118253919, -1.405, 0.76, -0.761], a = 0.2, v = 0.2, t = 0.2)
movej(p[0.421277023930706, 0.220559165875974, 0.312629659728915, -1.405, 0.76, -0.761], a = 0.2, v = 0.2, t = 0.2)
movej(p[0.421286349894804, 0.220575740407055, 0.311927592533396, -1.405, 0.76, -0.761], a = 0.2, v = 0.2, t = 0.2)
movej(p[0.421289863711636, 0.220581985323472, 0.311663069155099, -1.405, 0.76, -0.761], a = 0.2, v = 0.2, t = 0.2)
movej(p[0.421291537417114, 0.220584959909604, 0.311537071060015, -1.405, 0.76, -0.761], a = 0.2, v = 0.2, t = 0.2)
movej(p[0.421292253685885, 0.220586232895311, 0.311483149685029, -1.405, 0.76, -0.761], a = 0.2, v = 0.2, t = 0.2)
movej(p[0.421294221616246, 0.220589730391397, 0.311335002068907, -1.405, 0.76, -0.761], a = 0.2, v = 0.2, t = 0.2)
movej(p[0.421294173382658, 0.220589644668453, 0.31133863313793, -1.405, 0.76, -0.761], a = 0.2, v = 0.2, t = 0.2)
movej(p[0.421292039046422, 0.220585851428214, 0.31149930794218, -1.405, 0.76, -0.761], a = 0.2, v = 0.2, t = 0.2)
movej(p[0.421284939062377, 0.220573233010965, 0.312033801302307, -1.405, 0.76, -0.761], a = 0.2, v = 0.2, t = 0.2)
movej(p[0.421274257734477, 0.220554249665178, 0.312837901537362, -1.405, 0.76, -0.761], a = 0.2, v = 0.2, t = 0.2)
movej(p[0.421260619687678, 0.220530011502969, 0.313864586303502, -1.405, 0.76, -0.761], a = 0.2, v = 0.2, t = 0.2)
movej(p[0.421248098248424, 0.220507757826897, 0.314807211821769, -1.405, 0.76, -0.761], a = 0.2, v = 0.2, t = 0.2)
movej(p[0.421238485294482, 0.220490673244304, 0.315530883877973, -1.405, 0.76, -0.761], a = 0.2, v = 0.2, t = 0.2)
movej(p[0.421229771896943, 0.220475187394602, 0.316186836496905, -1.405, 0.76, -0.761], a = 0.2, v = 0.2, t = 0.2)
movej(p[0.421239908185306, 0.22049320207113, 0.315423767341806, -1.405, 0.76, -0.761], a = 0.2, v = 0.2, t = 0.2)
movej(p[0.421260904265843, 0.220530517268334, 0.313843162996268, -1.405, 0.76, -0.761], a = 0.2, v = 0.2, t = 0.2)
movej(p[0.42127761720383, 0.220560220268177, 0.312584997579937, -1.405, 0.76, -0.761], a = 0.2, v = 0.2, t = 0.2)
movej(p[0.42128515370184, 0.220573614478062, 0.312017643045156, -1.405, 0.76, -0.761], a = 0.2, v = 0.2, t = 0.2)
movej(p[0.42128897862531, 0.220580412307463, 0.311729699271664, -1.405, 0.76, -0.761], a = 0.2, v = 0.2, t = 0.2)
movej(p[0.421292528617333, 0.220586721516088, 0.311462452591601, -1.405, 0.76, -0.761], a = 0.2, v = 0.2, t = 0.2)
movej(p[0.421293172535723, 0.22058786591738, 0.311413977820149, -1.405, 0.76, -0.761], a = 0.2, v = 0.2, t = 0.2)
movej(p[0.421292859017405, 0.220587308718249, 0.311437579768796, -1.405, 0.76, -0.761], a = 0.2, v = 0.2, t = 0.2)
movej(p[0.421285691506338, 0.22057457028888, 0.311977156625554, -1.405, 0.76, -0.761], a = 0.2, v = 0.2, t = 0.2)
movej(p[0.421275801209269, 0.220556992799363, 0.312721707328638, -1.405, 0.76, -0.761], a = 0.2, v = 0.2, t = 0.2)
movej(p[0.421262216219416, 0.220532848932391, 0.313744397918854, -1.405, 0.76, -0.761], a = 0.2, v = 0.2, t = 0.2)
movej(p[0.421248021074684, 0.220507620670188, 0.314813021532205, -1.405, 0.76, -0.761], a = 0.2, v = 0.2, t = 0.2)
movej(p[0.421237875139603, 0.220489588849071, 0.315576816901109, -1.405, 0.76, -0.761], a = 0.2, v = 0.2, t = 0.2)
movej(p[0.421229000159546, 0.22047381582751, 0.316244933601267, -1.405, 0.76, -0.761], a = 0.2, v = 0.2, t = 0.2)
movej(p[0.421236054321684, 0.220486352807963, 0.315713889756712, -1.405, 0.76, -0.761], a = 0.2, v = 0.2, t = 0.2)
movej(p[0.421254867832396, 0.220519789041985, 0.314297591284447, -1.405, 0.76, -0.761], a = 0.2, v = 0.2, t = 0.2)
movej(p[0.421273698224865, 0.220553255279036, 0.312880021938024, -1.405, 0.76, -0.761], a = 0.2, v = 0.2, t = 0.2)
movej(p[0.421282628673547, 0.220569126881982, 0.312207729508489, -1.405, 0.76, -0.761], a = 0.2, v = 0.2, t = 0.2)
movej(p[0.421287912663031, 0.220578517830417, 0.311809945897064, -1.405, 0.76, -0.761], a = 0.2, v = 0.2, t = 0.2)
movej(p[0.421291004435975, 0.220584012671081, 0.311577194372715, -1.405, 0.76, -0.761], a = 0.2, v = 0.2, t = 0.2)
movej(p[0.421293199064196, 0.220587913064999, 0.311411980732187, -1.405, 0.76, -0.761], a = 0.2, v = 0.2, t = 0.2)
movej(p[0.421293290708011, 0.220588075938591, 0.311405081701044, -1.405, 0.76, -0.761], a = 0.2, v = 0.2, t = 0.2)
movej(p[0.421290276108807, 0.220582718254637, 0.311632023514956, -1.405, 0.76, -0.761], a = 0.2, v = 0.2, t = 0.2)
movej(p[0.421280831972421, 0.220565933702345, 0.312342986829581, -1.405, 0.76, -0.761], a = 0.2, v = 0.2, t = 0.2)
movej(p[0.421266263017388, 0.220540041087331, 0.313439751227858, -1.405, 0.76, -0.761], a = 0.2, v = 0.2, t = 0.2)
movej(p[0.421251800176246, 0.220514337062793, 0.314528527274284, -1.405, 0.76, -0.761], a = 0.2, v = 0.2, t = 0.2)
movej(p[0.421239722485995, 0.220492872037799, 0.315437746957543, -1.405, 0.76, -0.761], a = 0.2, v = 0.2, t = 0.2)
movej(p[0.421230145707244, 0.220475851747413, 0.31615869571198, -1.405, 0.76, -0.761], a = 0.2, v = 0.2, t = 0.2)
movej(p[0.421230152942282, 0.220475864605854, 0.316158151051627, -1.405, 0.76, -0.761], a = 0.2, v = 0.2, t = 0.2)
movej(p[0.421248216420713, 0.220507967848108, 0.314798315702663, -1.405, 0.76, -0.761], a = 0.2, v = 0.2, t = 0.2)
movej(p[0.421267753435234, 0.220542689926278, 0.313327551195059, -1.405, 0.76, -0.761], a = 0.2, v = 0.2, t = 0.2)
movej(p[0.4212792450874, 0.220563113417512, 0.312462449000425, -1.405, 0.76, -0.761], a = 0.2, v = 0.2, t = 0.2)
movej(p[0.421286497007245, 0.220576001862032, 0.311916517772877, -1.405, 0.76, -0.761], a = 0.2, v = 0.2, t = 0.2)
movej(p[0.421289842006522, 0.220581946748148, 0.31166470313616, -1.405, 0.76, -0.761], a = 0.2, v = 0.2, t = 0.2)
movej(p[0.421293194240837, 0.220587904492705, 0.311412343839089, -1.405, 0.76, -0.761], a = 0.2, v = 0.2, t = 0.2)
movej(p[0.421293633166481, 0.220588684571489, 0.311379301110983, -1.405, 0.76, -0.761], a = 0.2, v = 0.2, t = 0.2)
movej(p[0.421293722398618, 0.220588843158934, 0.311372583633291, -1.405, 0.76, -0.761], a = 0.2, v = 0.2, t = 0.2)
movej(p[0.421294875181353, 0.220590891937278, 0.311285801083651, -1.405, 0.76, -0.761], a = 0.2, v = 0.2, t = 0.2)
movej(p[0.421289682835684, 0.220581663862435, 0.311676685663934, -1.405, 0.76, -0.761], a = 0.2, v = 0.2, t = 0.2)
movej(p[0.42127890262893, 0.220562504784615, 0.312488229590485, -1.405, 0.76, -0.761], a = 0.2, v = 0.2, t = 0.2)
movej(p[0.421267574970961, 0.220542372751388, 0.313340986150443, -1.405, 0.76, -0.761], a = 0.2, v = 0.2, t = 0.2)
movej(p[0.421257486916185, 0.220524443797804, 0.31410042423652, -1.405, 0.76, -0.761], a = 0.2, v = 0.2, t = 0.2)
movej(p[0.421243967041675, 0.220500415656806, 0.315118212883554, -1.405, 0.76, -0.761], a = 0.2, v = 0.2, t = 0.2)
movej(p[0.421233054192556, 0.220481020840892, 0.315939742249918, -1.405, 0.76, -0.761], a = 0.2, v = 0.2, t = 0.2)
movej(p[0.421235468283599, 0.220485311274202, 0.315758007245336, -1.405, 0.76, -0.761], a = 0.2, v = 0.2, t = 0.2)
movej(p[0.421248691521547, 0.220508812219099, 0.314762549672791, -1.405, 0.76, -0.761], a = 0.2, v = 0.2, t = 0.2)
movej(p[0.421263361767114, 0.220534884852294, 0.313658160029567, -1.405, 0.76, -0.761], a = 0.2, v = 0.2, t = 0.2)
movej(p[0.421276167784532, 0.220557644293732, 0.312694111204067, -1.405, 0.76, -0.761], a = 0.2, v = 0.2, t = 0.2)
movej(p[0.421286055669922, 0.220575217497101, 0.311949742054434, -1.405, 0.76, -0.761], a = 0.2, v = 0.2, t = 0.2)
movej(p[0.421289186029735, 0.220580780916119, 0.311714085674867, -1.405, 0.76, -0.761], a = 0.2, v = 0.2, t = 0.2)
movej(p[0.421291158783454, 0.220584286984499, 0.311565574951843, -1.405, 0.76, -0.761], a = 0.2, v = 0.2, t = 0.2)
movej(p[0.421292716728323, 0.220587055835567, 0.311448291422413, -1.405, 0.76, -0.761], a = 0.2, v = 0.2, t = 0.2)
movej(p[0.421294260203116, 0.220589798969751, 0.311332097213689, -1.405, 0.76, -0.761], a = 0.2, v = 0.2, t = 0.2)
movej(p[0.421294233674643, 0.220589751822132, 0.311334094301652, -1.405, 0.76, -0.761], a = 0.2, v = 0.2, t = 0.2)
movej(p[0.421290063881023, 0.220582341073687, 0.311648000218656, -1.405, 0.76, -0.761], a = 0.2, v = 0.2, t = 0.2)
movej(p[0.421282175277826, 0.220568321086315, 0.312241861557302, -1.405, 0.76, -0.761], a = 0.2, v = 0.2, t = 0.2)
movej(p[0.421270247111696, 0.220547121802445, 0.313139824926591, -1.405, 0.76, -0.761], a = 0.2, v = 0.2, t = 0.2)
movej(p[0.421257098635807, 0.220523753728111, 0.314129654342151, -1.405, 0.76, -0.761], a = 0.2, v = 0.2, t = 0.2)
movej(p[0.421246284665543, 0.22050453464423, 0.314943740017018, -1.405, 0.76, -0.761], a = 0.2, v = 0.2, t = 0.2)
movej(p[0.421237947489984, 0.220489717433486, 0.315571370297575, -1.405, 0.76, -0.761], a = 0.2, v = 0.2, t = 0.2)
movej(p[0.421235053474748, 0.22048457405689, 0.315789234438931, -1.405, 0.76, -0.761], a = 0.2, v = 0.2, t = 0.2)
movej(p[0.421248443118573, 0.220508370745941, 0.314781249678257, -1.405, 0.76, -0.761], a = 0.2, v = 0.2, t = 0.2)
movej(p[0.421268216477672, 0.220543512866534, 0.313292692932442, -1.405, 0.76, -0.761], a = 0.2, v = 0.2, t = 0.2)
movej(p[0.421278914687327, 0.220562526215351, 0.31248732182323, -1.405, 0.76, -0.761], a = 0.2, v = 0.2, t = 0.2)
movej(p[0.421285631214354, 0.220574463135201, 0.311981695461832, -1.405, 0.76, -0.761], a = 0.2, v = 0.2, t = 0.2)
movej(p[0.421289516429808, 0.220581368118281, 0.311689212852062, -1.405, 0.76, -0.761], a = 0.2, v = 0.2, t = 0.2)
movej(p[0.421293247297783, 0.220587998787943, 0.311408349663164, -1.405, 0.76, -0.761], a = 0.2, v = 0.2, t = 0.2)
movej(p[0.421293818865792, 0.22058901460482, 0.311365321495246, -1.405, 0.76, -0.761], a = 0.2, v = 0.2, t = 0.2)
movej(p[0.42129390086289, 0.220589160333824, 0.311359148677908, -1.405, 0.76, -0.761], a = 0.2, v = 0.2, t = 0.2)
movej(p[0.421294841417842, 0.220590831931218, 0.311288342831967, -1.405, 0.76, -0.761], a = 0.2, v = 0.2, t = 0.2)
movej(p[0.421288780867602, 0.220580060843396, 0.311744586654657, -1.405, 0.76, -0.761], a = 0.2, v = 0.2, t = 0.2)
movej(p[0.42127651747804, 0.22055826578507, 0.312667785953653, -1.405, 0.76, -0.761], a = 0.2, v = 0.2, t = 0.2)
movej(p[0.421263053072155, 0.220534336225457, 0.313681398871312, -1.405, 0.76, -0.761], a = 0.2, v = 0.2, t = 0.2)
movej(p[0.421249540432683, 0.220510320942901, 0.314698642857993, -1.405, 0.76, -0.761], a = 0.2, v = 0.2, t = 0.2)
movej(p[0.42123508482658, 0.220484629776803, 0.315786874244066, -1.405, 0.76, -0.761], a = 0.2, v = 0.2, t = 0.2)
movej(p[0.421224813484172, 0.220466375076035, 0.316560110392429, -1.405, 0.76, -0.761], a = 0.2, v = 0.2, t = 0.2)
movej(p[0.42123201717043, 0.220479177797612, 0.316017810233903, -1.405, 0.76, -0.761], a = 0.2, v = 0.2, t = 0.2)
movej(p[0.421253743989813, 0.220517791697406, 0.314382195192673, -1.405, 0.76, -0.761], a = 0.2, v = 0.2, t = 0.2)
movej(p[0.421271226253517, 0.220548861978194, 0.313066114225432, -1.405, 0.76, -0.761], a = 0.2, v = 0.2, t = 0.2)
movej(p[0.421281760468976, 0.220567583869003, 0.312273088750896, -1.405, 0.76, -0.761], a = 0.2, v = 0.2, t = 0.2)
movej(p[0.421289931238658, 0.220582105335593, 0.311657985658468, -1.405, 0.76, -0.761], a = 0.2, v = 0.2, t = 0.2)
movej(p[0.421291727939784, 0.22058529851523, 0.311522728337376, -1.405, 0.76, -0.761], a = 0.2, v = 0.2, t = 0.2)
movej(p[0.421292849370688, 0.220587291573661, 0.3114383059826, -1.405, 0.76, -0.761], a = 0.2, v = 0.2, t = 0.2)
movej(p[0.421293893627852, 0.220589147475382, 0.311359693338261, -1.405, 0.76, -0.761], a = 0.2, v = 0.2, t = 0.2)
movej(p[0.421295118760969, 0.220591324838141, 0.311267464185087, -1.405, 0.76, -0.761], a = 0.2, v = 0.2, t = 0.2)
movej(p[0.421290743974604, 0.220583549767187, 0.311596802145437, -1.405, 0.76, -0.761], a = 0.2, v = 0.2, t = 0.2)
movej(p[0.421279204088851, 0.22056304055301, 0.312465535409094, -1.405, 0.76, -0.761], a = 0.2, v = 0.2, t = 0.2)
movej(p[0.421268093482024, 0.220543294273029, 0.31330195215845, -1.405, 0.76, -0.761], a = 0.2, v = 0.2, t = 0.2)
movej(p[0.421253025309363, 0.220516514425552, 0.31443629812111, -1.405, 0.76, -0.761], a = 0.2, v = 0.2, t = 0.2)
movej(p[0.421238352652117, 0.22049043750621, 0.315540869317785, -1.405, 0.76, -0.761], a = 0.2, v = 0.2, t = 0.2)
movej(p[0.421229873187476, 0.220475367412783, 0.316179211251958, -1.405, 0.76, -0.761], a = 0.2, v = 0.2, t = 0.2)
movej(p[0.421230126413809, 0.220475817458235, 0.316160148139589, -1.405, 0.76, -0.761], a = 0.2, v = 0.2, t = 0.2)
movej(p[0.421245189763112, 0.220502588733418, 0.315026165283831, -1.405, 0.76, -0.761], a = 0.2, v = 0.2, t = 0.2)
movej(p[0.421263940570161, 0.220535913527613, 0.313614587201296, -1.405, 0.76, -0.761], a = 0.2, v = 0.2, t = 0.2)
movej(p[0.421279500725412, 0.220563567749111, 0.312443204334605, -1.405, 0.76, -0.761], a = 0.2, v = 0.2, t = 0.2)
movej(p[0.421286246192591, 0.220575556102727, 0.311935399331794, -1.405, 0.76, -0.761], a = 0.2, v = 0.2, t = 0.2)
movej(p[0.421289598426906, 0.220581513847284, 0.311683040034724, -1.405, 0.76, -0.761], a = 0.2, v = 0.2, t = 0.2)
movej(p[0.421292108985123, 0.220585975726481, 0.311494042892097, -1.405, 0.76, -0.761], a = 0.2, v = 0.2, t = 0.2)
movej(p[0.421294192676093, 0.220589678957631, 0.311337180710321, -1.405, 0.76, -0.761], a = 0.2, v = 0.2, t = 0.2)
movej(p[0.421294187852735, 0.220589670385336, 0.311337543817223, -1.405, 0.76, -0.761], a = 0.2, v = 0.2, t = 0.2)
movej(p[0.421289581545151, 0.220581483844254, 0.311684310908882, -1.405, 0.76, -0.761], a = 0.2, v = 0.2, t = 0.2)
movej(p[0.421280308637999, 0.220565003608411, 0.312382383928476, -1.405, 0.76, -0.761], a = 0.2, v = 0.2, t = 0.2)
movej(p[0.421265127116408, 0.220538022312018, 0.31352526290334, -1.405, 0.76, -0.761], a = 0.2, v = 0.2, t = 0.2)
movej(p[0.421249528374286, 0.220510299512165, 0.314699550625249, -1.405, 0.76, -0.761], a = 0.2, v = 0.2, t = 0.2)
movej(p[0.421237202281061, 0.220488393014013, 0.315627470313974, -1.405, 0.76, -0.761], a = 0.2, v = 0.2, t = 0.2)
movej(p[0.421227350570862, 0.22047088410285, 0.31636911616184, -1.405, 0.76, -0.761], a = 0.2, v = 0.2, t = 0.2)
movej(p[0.421227898022077, 0.220471857058257, 0.316327903528433, -1.405, 0.76, -0.761], a = 0.2, v = 0.2, t = 0.2)
movej(p[0.421246072437759, 0.22050415746328, 0.314959716720718, -1.405, 0.76, -0.761], a = 0.2, v = 0.2, t = 0.2)
movej(p[0.421267309686231, 0.2205419012752, 0.313360957030067, -1.405, 0.76, -0.761], a = 0.2, v = 0.2, t = 0.2)
movej(p[0.421278130891534, 0.220561133217522, 0.312546326694847, -1.405, 0.76, -0.761], a = 0.2, v = 0.2, t = 0.2)
movej(p[0.421285387634738, 0.220574030234337, 0.312000032360397, -1.405, 0.76, -0.761], a = 0.2, v = 0.2, t = 0.2)
movej(p[0.42128966113057, 0.220581625287111, 0.311678319644994, -1.405, 0.76, -0.761], a = 0.2, v = 0.2, t = 0.2)
movej(p[0.421293247297783, 0.220587998787943, 0.311408349663164, -1.405, 0.76, -0.761], a = 0.2, v = 0.2, t = 0.2)
movej(p[0.421293736868694, 0.220588868875817, 0.311371494312585, -1.405, 0.76, -0.761], a = 0.2, v = 0.2, t = 0.2)
movej(p[0.421293893627852, 0.220589147475382, 0.311359693338261, -1.405, 0.76, -0.761], a = 0.2, v = 0.2, t = 0.2)
movej(p[0.421291317954292, 0.220584569870212, 0.311553592424068, -1.405, 0.76, -0.761], a = 0.2, v = 0.2, t = 0.2)
movej(p[0.421277974132376, 0.220560854617957, 0.31255812766917, -1.405, 0.76, -0.761], a = 0.2, v = 0.2, t = 0.2)
movej(p[0.421262281334759, 0.220532964658365, 0.313739495975673, -1.405, 0.76, -0.761], a = 0.2, v = 0.2, t = 0.2)
movej(p[0.421248021074684, 0.220507620670188, 0.314813021532205, -1.405, 0.76, -0.761], a = 0.2, v = 0.2, t = 0.2)
movej(p[0.421236478777252, 0.220487107169864, 0.315681936349313, -1.405, 0.76, -0.761], a = 0.2, v = 0.2, t = 0.2)
movej(p[0.421224417968756, 0.2204656721479, 0.316589885158414, -1.405, 0.76, -0.761], a = 0.2, v = 0.2, t = 0.2)
movej(p[0.421225481519355, 0.220467562338799, 0.316509820086466, -1.405, 0.76, -0.761], a = 0.2, v = 0.2, t = 0.2)
movej(p[0.421244557903119, 0.220501465762861, 0.315073732288027, -1.405, 0.76, -0.761], a = 0.2, v = 0.2, t = 0.2)
movej(p[0.42126292042979, 0.220534100487363, 0.313691384311124, -1.405, 0.76, -0.761], a = 0.2, v = 0.2, t = 0.2)
movej(p[0.421276312485294, 0.220557901462561, 0.312683217996999, -1.405, 0.76, -0.761], a = 0.2, v = 0.2, t = 0.2)
movej(p[0.421284615897342, 0.220572658667245, 0.312058129464758, -1.405, 0.76, -0.761], a = 0.2, v = 0.2, t = 0.2)
movej(p[0.421290903145442, 0.2205838326529, 0.311584819617662, -1.405, 0.76, -0.761], a = 0.2, v = 0.2, t = 0.2)
movej(p[0.421292846959009, 0.220587287287513, 0.311438487536052, -1.405, 0.76, -0.761], a = 0.2, v = 0.2, t = 0.2)
movej(p[0.421293625931443, 0.220588671713047, 0.311379845771337, -1.405, 0.76, -0.761], a = 0.2, v = 0.2, t = 0.2)
movej(p[0.421294834182804, 0.220590819072776, 0.31128888749232, -1.405, 0.76, -0.761], a = 0.2, v = 0.2, t = 0.2)
movej(p[0.421293946684798, 0.22058924177062, 0.311355699162336, -1.405, 0.76, -0.761], a = 0.2, v = 0.2, t = 0.2)
movej(p[0.421286132843661, 0.220575354653811, 0.311943932343997, -1.405, 0.76, -0.761], a = 0.2, v = 0.2, t = 0.2)
movej(p[0.421273001249529, 0.220552016582506, 0.3129324908854, -1.405, 0.76, -0.761], a = 0.2, v = 0.2, t = 0.2)
movej(p[0.4212606872147, 0.22053013151509, 0.31385950280687, -1.405, 0.76, -0.761], a = 0.2, v = 0.2, t = 0.2)
movej(p[0.421245553926696, 0.22050323594164, 0.314998750712711, -1.405, 0.76, -0.761], a = 0.2, v = 0.2, t = 0.2)
movej(p[0.421232465742791, 0.220479975020984, 0.315984041291993, -1.405, 0.76, -0.761], a = 0.2, v = 0.2, t = 0.2)
movej(p[0.421227215516818, 0.220470644078609, 0.316379283155103, -1.405, 0.76, -0.761], a = 0.2, v = 0.2, t = 0.2)
movej(p[0.421239372792488, 0.22049225054646, 0.315464072207957, -1.405, 0.76, -0.761], a = 0.2, v = 0.2, t = 0.2)
movej(p[0.421257252983287, 0.220524028041529, 0.314118034921279, -1.405, 0.76, -0.761], a = 0.2, v = 0.2, t = 0.2)
movej(p[0.421272564735564, 0.220551240789869, 0.312965352060055, -1.405, 0.76, -0.761], a = 0.2, v = 0.2, t = 0.2)
movej(p[0.42128469789444, 0.220572804396248, 0.31205195664742, -1.405, 0.76, -0.761], a = 0.2, v = 0.2, t = 0.2)
movej(p[0.421288985860348, 0.220580425165905, 0.311729154611311, -1.405, 0.76, -0.761], a = 0.2, v = 0.2, t = 0.2)
movej(p[0.421291655589403, 0.220585169930815, 0.31152817494091, -1.405, 0.76, -0.761], a = 0.2, v = 0.2, t = 0.2)
movej(p[0.421292984424732, 0.220587531597902, 0.311428138989337, -1.405, 0.76, -0.761], a = 0.2, v = 0.2, t = 0.2)
movej(p[0.421295142877762, 0.220591367699613, 0.311265648650576, -1.405, 0.76, -0.761], a = 0.2, v = 0.2, t = 0.2)
movej(p[0.421295220051502, 0.220591504856322, 0.31125983894014, -1.405, 0.76, -0.761], a = 0.2, v = 0.2, t = 0.2)
movej(p[0.421294416962274, 0.220590077569317, 0.311320296239366, -1.405, 0.76, -0.761], a = 0.2, v = 0.2, t = 0.2)
movej(p[0.421289369317367, 0.220581106663304, 0.311700287612581, -1.405, 0.76, -0.761], a = 0.2, v = 0.2, t = 0.2)
movej(p[0.421277684730852, 0.220560340280297, 0.312579914083306, -1.405, 0.76, -0.761], a = 0.2, v = 0.2, t = 0.2)
movej(p[0.421263369002152, 0.220534897710735, 0.313657615369213, -1.405, 0.76, -0.761], a = 0.2, v = 0.2, t = 0.2)
movej(p[0.42125103085053, 0.220512969781848, 0.314586442825195, -1.405, 0.76, -0.761], a = 0.2, v = 0.2, t = 0.2)
movej(p[0.421241162258575, 0.220495430867655, 0.315329359547219, -1.405, 0.76, -0.761], a = 0.2, v = 0.2, t = 0.2)
movej(p[0.421229950361215, 0.220475504569493, 0.316173401541522, -1.405, 0.76, -0.761], a = 0.2, v = 0.2, t = 0.2)
movej(p[0.421231720533868, 0.22047865060151, 0.316040141308392, -1.405, 0.76, -0.761], a = 0.2, v = 0.2, t = 0.2)
movej(p[0.421250203644508, 0.220511499633371, 0.314648715658932, -1.405, 0.76, -0.761], a = 0.2, v = 0.2, t = 0.2)
movej(p[0.421268773575605, 0.220544502966529, 0.313250754085231, -1.405, 0.76, -0.761], a = 0.2, v = 0.2, t = 0.2)
movej(p[0.421279401846559, 0.220563392017078, 0.312450648026101, -1.405, 0.76, -0.761], a = 0.2, v = 0.2, t = 0.2)
movej(p[0.42128674541022, 0.22057644333519, 0.31189781776741, -1.405, 0.76, -0.761], a = 0.2, v = 0.2, t = 0.2)
movej(p[0.421292441796876, 0.22058656721479, 0.311468988515841, -1.405, 0.76, -0.761], a = 0.2, v = 0.2, t = 0.2)
movej(p[0.421293575286176, 0.220588581703957, 0.31138365839381, -1.405, 0.76, -0.761], a = 0.2, v = 0.2, t = 0.2)
movej(p[0.421294238498001, 0.220589760394427, 0.31133373119475, -1.405, 0.76, -0.761], a = 0.2, v = 0.2, t = 0.2)
movej(p[0.421294778714179, 0.220590720491391, 0.311293063221696, -1.405, 0.76, -0.761], a = 0.2, v = 0.2, t = 0.2)
movej(p[0.421294031093576, 0.220589391785771, 0.311349344791547, -1.405, 0.76, -0.761], a = 0.2, v = 0.2, t = 0.2)
movej(p[0.421284722011234, 0.22057284725772, 0.312050141112908, -1.405, 0.76, -0.761], a = 0.2, v = 0.2, t = 0.2)
movej(p[0.421270973027184, 0.220548411932742, 0.313085177337801, -1.405, 0.76, -0.761], a = 0.2, v = 0.2, t = 0.2)
movej(p[0.421258391295946, 0.22052605110299, 0.314032341692346, -1.405, 0.76, -0.761], a = 0.2, v = 0.2, t = 0.2)
movej(p[0.42124311330718, 0.22049889836071, 0.315182482805254, -1.405, 0.76, -0.761], a = 0.2, v = 0.2, t = 0.2)
movej(p[0.421229378793206, 0.220474488752615, 0.31621642970944, -1.405, 0.76, -0.761], a = 0.2, v = 0.2, t = 0.2)
