def moving():
set_payload_mass(0)
set_tcp(p[0,0,0,0,0,0])
movej(p[0.3823, 0.2128, 0.3124, -1.33, 0.73, -0.764], a = 0.2, v = 0.2, t = 0.2)
movej(p[0.382273318748272, 0.21276771813933, 0.31279780144831, -1.33, 0.73, -0.764], a = 0.2, v = 0.2, t = 0.2)
movej(p[0.3823, 0.2128, 0.3124, -1.33, 0.73, -0.764], a = 0.2, v = 0.2, t = 0.2)
movej(p[0.382273318748272, 0.21276771813933, 0.31279780144831, -1.33, 0.73, -0.764], a = 0.2, v = 0.2, t = 0.2)
movej(p[0.3823, 0.2128, 0.3124, -1.33, 0.73, -0.764], a = 0.2, v = 0.2, t = 0.2)
movej(p[0.382273318748272, 0.21276771813933, 0.31279780144831, -1.33, 0.73, -0.764], a = 0.2, v = 0.2, t = 0.2)
movej(p[0.3823, 0.2128, 0.3124, -1.33, 0.73, -0.764], a = 0.2, v = 0.2, t = 0.2)
movej(p[0.382273318748272, 0.21276771813933, 0.31279780144831, -1.33, 0.73, -0.764], a = 0.2, v = 0.2, t = 0.2)
movej(p[0.3823, 0.2128, 0.3124, -1.33, 0.73, -0.764], a = 0.2, v = 0.2, t = 0.2)
movej(p[0.382273318748272, 0.21276771813933, 0.31279780144831, -1.33, 0.73, -0.764], a = 0.2, v = 0.2, t = 0.2)
movej(p[0.3823, 0.2128, 0.3124, -1.33, 0.73, -0.764], a = 0.2, v = 0.2, t = 0.2)
movej(p[0.382291055110358, 0.21278917750621, 0.312533362935546, -1.33, 0.73, -0.764], a = 0.2, v = 0.2, t = 0.2)
movej(p[0.382282103550403, 0.212778346941955, 0.312666825321454, -1.33, 0.73, -0.764], a = 0.2, v = 0.2, t = 0.2)
movej(p[0.382281496551927, 0.212777612529625, 0.312675875304403, -1.33, 0.73, -0.764], a = 0.2, v = 0.2, t = 0.2)
movej(p[0.382274826238995, 0.212769542064458, 0.312775325666481, -1.33, 0.73, -0.764], a = 0.2, v = 0.2, t = 0.2)
movej(p[0.382320137674742, 0.212824364734341, 0.312099759356888, -1.33, 0.73, -0.764], a = 0.2, v = 0.2, t = 0.2)
movej(p[0.38231346736181, 0.212816294269173, 0.312199209718965, -1.33, 0.73, -0.764], a = 0.2, v = 0.2, t = 0.2)
movej(p[0.382307070531708, 0.212808554693078, 0.312294582616198, -1.33, 0.73, -0.764], a = 0.2, v = 0.2, t = 0.2)
movej(p[0.382300400218776, 0.21280048422791, 0.312394032978275, -1.33, 0.73, -0.764], a = 0.2, v = 0.2, t = 0.2)
movej(p[0.382307070531708, 0.212808554693078, 0.312294582616198, -1.33, 0.73, -0.764], a = 0.2, v = 0.2, t = 0.2)
movej(p[0.382288026788287, 0.212785513515024, 0.312578513399929, -1.33, 0.73, -0.764], a = 0.2, v = 0.2, t = 0.2)
movej(p[0.382243936019806, 0.212732167740267, 0.313235880293262, -1.33, 0.73, -0.764], a = 0.2, v = 0.2, t = 0.2)
movej(p[0.38223373044102, 0.21271981992856, 0.313388039347241, -1.33, 0.73, -0.764], a = 0.2, v = 0.2, t = 0.2)
movej(p[0.38223272989408, 0.212718609358785, 0.313402956901553, -1.33, 0.73, -0.764], a = 0.2, v = 0.2, t = 0.2)
movej(p[0.382232676531577, 0.212718544795064, 0.313403752504449, -1.33, 0.73, -0.764], a = 0.2, v = 0.2, t = 0.2)
movej(p[0.382215547167968, 0.212697819840514, 0.313659141034265, -1.33, 0.73, -0.764], a = 0.2, v = 0.2, t = 0.2)
movej(p[0.382211131420807, 0.212692477192573, 0.31372497717396, -1.33, 0.73, -0.764], a = 0.2, v = 0.2, t = 0.2)
movej(p[0.382204461107875, 0.212684406727405, 0.313824427536038, -1.33, 0.73, -0.764], a = 0.2, v = 0.2, t = 0.2)
movej(p[0.382214559961654, 0.212696625411669, 0.313673859687852, -1.33, 0.73, -0.764], a = 0.2, v = 0.2, t = 0.2)
movej(p[0.382252934271952, 0.212743054797778, 0.31310172175482, -1.33, 0.73, -0.764], a = 0.2, v = 0.2, t = 0.2)
movej(p[0.382363094490024, 0.21287633853002, 0.311459299025108, -1.33, 0.73, -0.764], a = 0.2, v = 0.2, t = 0.2)
movej(p[0.382466604406103, 0.21300157600849, 0.309916028306387, -1.33, 0.73, -0.764], a = 0.2, v = 0.2, t = 0.2)
movej(p[0.382602318593019, 0.213165777692789, 0.307892611239556, -1.33, 0.73, -0.764], a = 0.2, v = 0.2, t = 0.2)
movej(p[0.382884226028465, 0.213506859762165, 0.30368954058707, -1.33, 0.73, -0.764], a = 0.2, v = 0.2, t = 0.2)
movej(p[0.383043466409092, 0.21369952597711, 0.301315362093191, -1.33, 0.73, -0.764], a = 0.2, v = 0.2, t = 0.2)
movej(p[0.38303679609616, 0.213691455511942, 0.301414812455269, -1.33, 0.73, -0.764], a = 0.2, v = 0.2, t = 0.2)
movej(p[0.382986388541332, 0.213630467006671, 0.30216635884149, -1.33, 0.73, -0.764], a = 0.2, v = 0.2, t = 0.2)
movej(p[0.382835659480007, 0.21344809870528, 0.304413638673357, -1.33, 0.73, -0.764], a = 0.2, v = 0.2, t = 0.2)
movej(p[0.38268035458401, 0.213260194064784, 0.30672914145361, -1.33, 0.73, -0.764], a = 0.2, v = 0.2, t = 0.2)
movej(p[0.382542539248522, 0.213093450183957, 0.308783885384496, -1.33, 0.73, -0.764], a = 0.2, v = 0.2, t = 0.2)
movej(p[0.382419945567144, 0.212945123104643, 0.31061168358912, -1.33, 0.73, -0.764], a = 0.2, v = 0.2, t = 0.2)
movej(p[0.382371172238985, 0.212886111863338, 0.311338864636632, -1.33, 0.73, -0.764], a = 0.2, v = 0.2, t = 0.2)
movej(p[0.382332377698972, 0.212839174037923, 0.311917267942475, -1.33, 0.73, -0.764], a = 0.2, v = 0.2, t = 0.2)
movej(p[0.382289067357104, 0.21278677250759, 0.312562999143445, -1.33, 0.73, -0.764], a = 0.2, v = 0.2, t = 0.2)
movej(p[0.3822588908614, 0.212750261723172, 0.313012912581484, -1.33, 0.73, -0.764], a = 0.2, v = 0.2, t = 0.2)
movej(p[0.38224430955733, 0.212732619686316, 0.313230311072986, -1.33, 0.73, -0.764], a = 0.2, v = 0.2, t = 0.2)
movej(p[0.382233503650381, 0.212719545532745, 0.313391420659552, -1.33, 0.73, -0.764], a = 0.2, v = 0.2, t = 0.2)
movej(p[0.382226833337449, 0.212711475067577, 0.313490871021629, -1.33, 0.73, -0.764], a = 0.2, v = 0.2, t = 0.2)
movej(p[0.382253054337584, 0.212743200066151, 0.313099931648302, -1.33, 0.73, -0.764], a = 0.2, v = 0.2, t = 0.2)
movej(p[0.382332090875516, 0.212838827007921, 0.311921544308045, -1.33, 0.73, -0.764], a = 0.2, v = 0.2, t = 0.2)
movej(p[0.382436041032249, 0.212964597137092, 0.310371709865427, -1.33, 0.73, -0.764], a = 0.2, v = 0.2, t = 0.2)
movej(p[0.38249059752172, 0.213030605471697, 0.309558305353994, -1.33, 0.73, -0.764], a = 0.2, v = 0.2, t = 0.2)
movej(p[0.382660803896807, 0.213236539531378, 0.30702063046486, -1.33, 0.73, -0.764], a = 0.2, v = 0.2, t = 0.2)
movej(p[0.382813013767603, 0.213420699476036, 0.304751272652611, -1.33, 0.73, -0.764], a = 0.2, v = 0.2, t = 0.2)
movej(p[0.382983867163044, 0.213627416370838, 0.302203951078355, -1.33, 0.73, -0.764], a = 0.2, v = 0.2, t = 0.2)
movej(p[0.382977196850112, 0.21361934590567, 0.302303401440432, -1.33, 0.73, -0.764], a = 0.2, v = 0.2, t = 0.2)
movej(p[0.382920419146434, 0.213550650106164, 0.303149922922437, -1.33, 0.73, -0.764], a = 0.2, v = 0.2, t = 0.2)
movej(p[0.382713779522113, 0.213300635165738, 0.306230795689239, -1.33, 0.73, -0.764], a = 0.2, v = 0.2, t = 0.2)
movej(p[0.382590972390721, 0.213152049831539, 0.30806177630545, -1.33, 0.73, -0.764], a = 0.2, v = 0.2, t = 0.2)
movej(p[0.382486735410532, 0.213025932672365, 0.309615887113637, -1.33, 0.73, -0.764], a = 0.2, v = 0.2, t = 0.2)
movej(p[0.382412141301013, 0.212935680660397, 0.310728040512751, -1.33, 0.73, -0.764], a = 0.2, v = 0.2, t = 0.2)
movej(p[0.382341162501104, 0.212849802840549, 0.311786291815619, -1.33, 0.73, -0.764], a = 0.2, v = 0.2, t = 0.2)
movej(p[0.382307931002076, 0.212809595783084, 0.31228175351949, -1.33, 0.73, -0.764], a = 0.2, v = 0.2, t = 0.2)
movej(p[0.382283197481724, 0.212779670498243, 0.312650515462073, -1.33, 0.73, -0.764], a = 0.2, v = 0.2, t = 0.2)
movej(p[0.382266588402523, 0.212759575039976, 0.312898146863647, -1.33, 0.73, -0.764], a = 0.2, v = 0.2, t = 0.2)
movej(p[0.38226492082429, 0.212757557423684, 0.312923009454166, -1.33, 0.73, -0.764], a = 0.2, v = 0.2, t = 0.2)
movej(p[0.382261498953756, 0.212753417275053, 0.312974027489912, -1.33, 0.73, -0.764], a = 0.2, v = 0.2, t = 0.2)
movej(p[0.382254828640824, 0.212745346809885, 0.31307347785199, -1.33, 0.73, -0.764], a = 0.2, v = 0.2, t = 0.2)
movej(p[0.382318783601217, 0.212822726429912, 0.312119947780389, -1.33, 0.73, -0.764], a = 0.2, v = 0.2, t = 0.2)
movej(p[0.38249514667514, 0.213036109528942, 0.309490480207057, -1.33, 0.73, -0.764], a = 0.2, v = 0.2, t = 0.2)
movej(p[0.382625477919519, 0.21319379834785, 0.307547319582423, -1.33, 0.73, -0.764], a = 0.2, v = 0.2, t = 0.2)
movej(p[0.382782310317177, 0.21338355112487, 0.305209042669254, -1.33, 0.73, -0.764], a = 0.2, v = 0.2, t = 0.2)
movej(p[0.382944632382378, 0.213579945894722, 0.302788918108095, -1.33, 0.73, -0.764], a = 0.2, v = 0.2, t = 0.2)
movej(p[0.383060722508647, 0.213720404270498, 0.301058084006497, -1.33, 0.73, -0.764], a = 0.2, v = 0.2, t = 0.2)
movej(p[0.383054052195715, 0.21371233380533, 0.301157534368574, -1.33, 0.73, -0.764], a = 0.2, v = 0.2, t = 0.2)
movej(p[0.382987522494531, 0.213631838985749, 0.302149452279936, -1.33, 0.73, -0.764], a = 0.2, v = 0.2, t = 0.2)
movej(p[0.382813574073889, 0.21342137739511, 0.304742918822196, -1.33, 0.73, -0.764], a = 0.2, v = 0.2, t = 0.2)
movej(p[0.382628726361917, 0.213197728664387, 0.307498887256091, -1.33, 0.73, -0.764], a = 0.2, v = 0.2, t = 0.2)
movej(p[0.382468038523384, 0.213003311158501, 0.309894646478541, -1.33, 0.73, -0.764], a = 0.2, v = 0.2, t = 0.2)
movej(p[0.382407058522559, 0.212929530965939, 0.310803821688654, -1.33, 0.73, -0.764], a = 0.2, v = 0.2, t = 0.2)
movej(p[0.382350454247018, 0.212861044998527, 0.311647757461245, -1.33, 0.73, -0.764], a = 0.2, v = 0.2, t = 0.2)
movej(p[0.38231324057117, 0.212816019873358, 0.312202591031276, -1.33, 0.73, -0.764], a = 0.2, v = 0.2, t = 0.2)
movej(p[0.38229119518693, 0.212789346985979, 0.312531274477942, -1.33, 0.73, -0.764], a = 0.2, v = 0.2, t = 0.2)
movej(p[0.382254234982973, 0.212744628538485, 0.313082328934214, -1.33, 0.73, -0.764], a = 0.2, v = 0.2, t = 0.2)
movej(p[0.382247564670041, 0.212736558073318, 0.313181779296292, -1.33, 0.73, -0.764], a = 0.2, v = 0.2, t = 0.2)
movej(p[0.382268442749519, 0.212761818629292, 0.312870499662989, -1.33, 0.73, -0.764], a = 0.2, v = 0.2, t = 0.2)
movej(p[0.382300200109388, 0.212800242113955, 0.312397016489138, -1.33, 0.73, -0.764], a = 0.2, v = 0.2, t = 0.2)
movej(p[0.382339981855715, 0.212848374368214, 0.311803894529707, -1.33, 0.73, -0.764], a = 0.2, v = 0.2, t = 0.2)
movej(p[0.382481085655479, 0.213019096988369, 0.309700121570317, -1.33, 0.73, -0.764], a = 0.2, v = 0.2, t = 0.2)
movej(p[0.38260634746203, 0.21317065225375, 0.307832543220861, -1.33, 0.73, -0.764], a = 0.2, v = 0.2, t = 0.2)
movej(p[0.382754621848196, 0.213350050623959, 0.305621861122238, -1.33, 0.73, -0.764], a = 0.2, v = 0.2, t = 0.2)
movej(p[0.382919331885426, 0.213549334620342, 0.303166133331456, -1.33, 0.73, -0.764], a = 0.2, v = 0.2, t = 0.2)
movej(p[0.38298902331494, 0.213633654840412, 0.302127075948469, -1.33, 0.73, -0.764], a = 0.2, v = 0.2, t = 0.2)
movej(p[0.382982353002008, 0.213625584375245, 0.302226526310546, -1.33, 0.73, -0.764], a = 0.2, v = 0.2, t = 0.2)
movej(p[0.382779081885717, 0.213379645019729, 0.3052571766445, -1.33, 0.73, -0.764], a = 0.2, v = 0.2, t = 0.2)
movej(p[0.38264889071791, 0.213222125680589, 0.30719824881153, -1.33, 0.73, -0.764], a = 0.2, v = 0.2, t = 0.2)
movej(p[0.382518032518809, 0.213063799294932, 0.309149266014769, -1.33, 0.73, -0.764], a = 0.2, v = 0.2, t = 0.2)
movej(p[0.382427709811397, 0.212954517126098, 0.310495923367662, -1.33, 0.73, -0.764], a = 0.2, v = 0.2, t = 0.2)
movej(p[0.382369564693568, 0.212884166881232, 0.311362832173893, -1.33, 0.73, -0.764], a = 0.2, v = 0.2, t = 0.2)
movej(p[0.382295224055941, 0.21279422154694, 0.312471206459248, -1.33, 0.73, -0.764], a = 0.2, v = 0.2, t = 0.2)
movej(p[0.382275579984356, 0.212770454027022, 0.312764087775566, -1.33, 0.73, -0.764], a = 0.2, v = 0.2, t = 0.2)
movej(p[0.382267268774443, 0.212760398227423, 0.312888002926715, -1.33, 0.73, -0.764], a = 0.2, v = 0.2, t = 0.2)
movej(p[0.382262459478819, 0.212754579422037, 0.312959706637773, -1.33, 0.73, -0.764], a = 0.2, v = 0.2, t = 0.2)
movej(p[0.382255789165886, 0.21274650895687, 0.31305915699985, -1.33, 0.73, -0.764], a = 0.2, v = 0.2, t = 0.2)
movej(p[0.382263019785105, 0.212755257341111, 0.312951352807358, -1.33, 0.73, -0.764], a = 0.2, v = 0.2, t = 0.2)
movej(p[0.382340475458872, 0.212848971582637, 0.311796535202913, -1.33, 0.73, -0.764], a = 0.2, v = 0.2, t = 0.2)
movej(p[0.382461721737037, 0.212995668427987, 0.309988825971428, -1.33, 0.73, -0.764], a = 0.2, v = 0.2, t = 0.2)
movej(p[0.382575670692855, 0.213133536184444, 0.308289915436056, -1.33, 0.73, -0.764], a = 0.2, v = 0.2, t = 0.2)
movej(p[0.382722831136762, 0.213311586786971, 0.3060958415479, -1.33, 0.73, -0.764], a = 0.2, v = 0.2, t = 0.2)
movej(p[0.382881724661116, 0.213503833337727, 0.303726834472849, -1.33, 0.73, -0.764], a = 0.2, v = 0.2, t = 0.2)
movej(p[0.382901975731177, 0.213528335269976, 0.303424903173582, -1.33, 0.73, -0.764], a = 0.2, v = 0.2, t = 0.2)
movej(p[0.382895305418245, 0.213520264804808, 0.303524353535659, -1.33, 0.73, -0.764], a = 0.2, v = 0.2, t = 0.2)
movej(p[0.382777467669988, 0.213377691967158, 0.305281243632122, -1.33, 0.73, -0.764], a = 0.2, v = 0.2, t = 0.2)
movej(p[0.382650358186755, 0.213223901182925, 0.307176369731873, -1.33, 0.73, -0.764], a = 0.2, v = 0.2, t = 0.2)
movej(p[0.382525863466192, 0.213073274021038, 0.30903251128969, -1.33, 0.73, -0.764], a = 0.2, v = 0.2, t = 0.2)
movej(p[0.382387201000961, 0.212905505191135, 0.311099885416559, -1.33, 0.73, -0.764], a = 0.2, v = 0.2, t = 0.2)
movej(p[0.382348406460948, 0.212858567365721, 0.311678288722403, -1.33, 0.73, -0.764], a = 0.2, v = 0.2, t = 0.2)
movej(p[0.382316469002629, 0.212819925978499, 0.31215445705603, -1.33, 0.73, -0.764], a = 0.2, v = 0.2, t = 0.2)
movej(p[0.382289821102466, 0.212787684470154, 0.31255176125253, -1.33, 0.73, -0.764], a = 0.2, v = 0.2, t = 0.2)
movej(p[0.382266968610361, 0.21276003505649, 0.312892478193008, -1.33, 0.73, -0.764], a = 0.2, v = 0.2, t = 0.2)
movej(p[0.382246063849632, 0.212734742218655, 0.31320415562776, -1.33, 0.73, -0.764], a = 0.2, v = 0.2, t = 0.2)
movej(p[0.382245743674611, 0.212734354836327, 0.313208929245139, -1.33, 0.73, -0.764], a = 0.2, v = 0.2, t = 0.2)
movej(p[0.382246063849632, 0.212734742218655, 0.31320415562776, -1.33, 0.73, -0.764], a = 0.2, v = 0.2, t = 0.2)
movej(p[0.382263420003881, 0.212755741569021, 0.312945385785634, -1.33, 0.73, -0.764], a = 0.2, v = 0.2, t = 0.2)
movej(p[0.382335225922594, 0.21284262012655, 0.311874802637868, -1.33, 0.73, -0.764], a = 0.2, v = 0.2, t = 0.2)
movej(p[0.382396212593732, 0.212916408389577, 0.310965527977392, -1.33, 0.73, -0.764], a = 0.2, v = 0.2, t = 0.2)
movej(p[0.382523882383251, 0.213070877092884, 0.309062048047227, -1.33, 0.73, -0.764], a = 0.2, v = 0.2, t = 0.2)
movej(p[0.382629433415087, 0.213198584133695, 0.307488345517711, -1.33, 0.73, -0.764], a = 0.2, v = 0.2, t = 0.2)
movej(p[0.382654960702678, 0.213229469803891, 0.30710774898204, -1.33, 0.73, -0.764], a = 0.2, v = 0.2, t = 0.2)
movej(p[0.382751766954261, 0.213346596464868, 0.305664425877207, -1.33, 0.73, -0.764], a = 0.2, v = 0.2, t = 0.2)
movej(p[0.382918598151004, 0.213548446869173, 0.303177072871284, -1.33, 0.73, -0.764], a = 0.2, v = 0.2, t = 0.2)
movej(p[0.382911927838072, 0.213540376404006, 0.303276523233362, -1.33, 0.73, -0.764], a = 0.2, v = 0.2, t = 0.2)
movej(p[0.382719022388077, 0.21330697855136, 0.306152627704646, -1.33, 0.73, -0.764], a = 0.2, v = 0.2, t = 0.2)
movej(p[0.382580179824397, 0.213138991818898, 0.308222686991292, -1.33, 0.73, -0.764], a = 0.2, v = 0.2, t = 0.2)
movej(p[0.382465357057585, 0.213000066831503, 0.309934625524096, -1.33, 0.73, -0.764], a = 0.2, v = 0.2, t = 0.2)
movej(p[0.382390135938651, 0.212909056195809, 0.311056127257245, -1.33, 0.73, -0.764], a = 0.2, v = 0.2, t = 0.2)
movej(p[0.382323692951535, 0.212828666292275, 0.3120467523139, -1.33, 0.73, -0.764], a = 0.2, v = 0.2, t = 0.2)
movej(p[0.382304015528385, 0.212804858420031, 0.312340130882029, -1.33, 0.73, -0.764], a = 0.2, v = 0.2, t = 0.2)
movej(p[0.382289894475908, 0.212787773245271, 0.312550667298548, -1.33, 0.73, -0.764], a = 0.2, v = 0.2, t = 0.2)
movej(p[0.382285525420938, 0.212782487090586, 0.312615807285708, -1.33, 0.73, -0.764], a = 0.2, v = 0.2, t = 0.2)
movej(p[0.382283697755194, 0.212780275783131, 0.312643056684918, -1.33, 0.73, -0.764], a = 0.2, v = 0.2, t = 0.2)
movej(p[0.382246790913741, 0.212735621899358, 0.313193315538293, -1.33, 0.73, -0.764], a = 0.2, v = 0.2, t = 0.2)
movej(p[0.382240120600809, 0.212727551434191, 0.313292765900371, -1.33, 0.73, -0.764], a = 0.2, v = 0.2, t = 0.2)
movej(p[0.382282470417615, 0.21277879081754, 0.31266135555154, -1.33, 0.73, -0.764], a = 0.2, v = 0.2, t = 0.2)
movej(p[0.382360026146075, 0.212872626116043, 0.311505046191664, -1.33, 0.73, -0.764], a = 0.2, v = 0.2, t = 0.2)
movej(p[0.382461534968275, 0.212995442454962, 0.309991610581566, -1.33, 0.73, -0.764], a = 0.2, v = 0.2, t = 0.2)
movej(p[0.382547421917588, 0.21309935776446, 0.308711087719455, -1.33, 0.73, -0.764], a = 0.2, v = 0.2, t = 0.2)
movej(p[0.382574496717779, 0.213132115782575, 0.308307418699782, -1.33, 0.73, -0.764], a = 0.2, v = 0.2, t = 0.2)
movej(p[0.38260439306034, 0.213168287607456, 0.30786168217695, -1.33, 0.73, -0.764], a = 0.2, v = 0.2, t = 0.2)
movej(p[0.382732829935847, 0.213323684414257, 0.305946765455146, -1.33, 0.73, -0.764], a = 0.2, v = 0.2, t = 0.2)
movej(p[0.38275017274947, 0.213344667623693, 0.305688194513744, -1.33, 0.73, -0.764], a = 0.2, v = 0.2, t = 0.2)
movej(p[0.382743502436538, 0.213336597158525, 0.305787644875822, -1.33, 0.73, -0.764], a = 0.2, v = 0.2, t = 0.2)
movej(p[0.382523088616012, 0.213069916707529, 0.309073882640314, -1.33, 0.73, -0.764], a = 0.2, v = 0.2, t = 0.2)
movej(p[0.382440756943492, 0.212970302955966, 0.310301398459438, -1.33, 0.73, -0.764], a = 0.2, v = 0.2, t = 0.2)
movej(p[0.382376741950283, 0.212892850701753, 0.311255823584297, -1.33, 0.73, -0.764], a = 0.2, v = 0.2, t = 0.2)
movej(p[0.382334031936579, 0.212841175513285, 0.31189260425268, -1.33, 0.73, -0.764], a = 0.2, v = 0.2, t = 0.2)
movej(p[0.382313554075878, 0.21281639918522, 0.312197916864258, -1.33, 0.73, -0.764], a = 0.2, v = 0.2, t = 0.2)
movej(p[0.382272044718502, 0.212766176680483, 0.312816796467467, -1.33, 0.73, -0.764], a = 0.2, v = 0.2, t = 0.2)
movej(p[0.382257303326922, 0.212748340952463, 0.313036581767659, -1.33, 0.73, -0.764], a = 0.2, v = 0.2, t = 0.2)
movej(p[0.382254375059545, 0.212744798018254, 0.313080240476611, -1.33, 0.73, -0.764], a = 0.2, v = 0.2, t = 0.2)
movej(p[0.382252940942265, 0.212743062868243, 0.313101622304457, -1.33, 0.73, -0.764], a = 0.2, v = 0.2, t = 0.2)
movej(p[0.382249218907648, 0.212738559548679, 0.313157115606497, -1.33, 0.73, -0.764], a = 0.2, v = 0.2, t = 0.2)
movej(p[0.382246897638748, 0.212735751026801, 0.3131917243325, -1.33, 0.73, -0.764], a = 0.2, v = 0.2, t = 0.2)
movej(p[0.382235604798954, 0.212722087729273, 0.313360093795497, -1.33, 0.73, -0.764], a = 0.2, v = 0.2, t = 0.2)
movej(p[0.382228934486022, 0.212714017264105, 0.313459544157575, -1.33, 0.73, -0.764], a = 0.2, v = 0.2, t = 0.2)
movej(p[0.382305449645665, 0.212806593570042, 0.312318749054183, -1.33, 0.73, -0.764], a = 0.2, v = 0.2, t = 0.2)
movej(p[0.382392283779415, 0.212911654885593, 0.311024104240656, -1.33, 0.73, -0.764], a = 0.2, v = 0.2, t = 0.2)
movej(p[0.382464629993476, 0.2129991871508, 0.309945465613562, -1.33, 0.73, -0.764], a = 0.2, v = 0.2, t = 0.2)
movej(p[0.3825464480519, 0.213098179476545, 0.308725607472318, -1.33, 0.73, -0.764], a = 0.2, v = 0.2, t = 0.2)
movej(p[0.382605673760423, 0.213169837136768, 0.307842587707431, -1.33, 0.73, -0.764], a = 0.2, v = 0.2, t = 0.2)
movej(p[0.382717955138008, 0.213305687276933, 0.306168539762579, -1.33, 0.73, -0.764], a = 0.2, v = 0.2, t = 0.2)
movej(p[0.382740694234794, 0.213333199492689, 0.305829513478256, -1.33, 0.73, -0.764], a = 0.2, v = 0.2, t = 0.2)
movej(p[0.382734023921862, 0.213325129027522, 0.305928963840334, -1.33, 0.73, -0.764], a = 0.2, v = 0.2, t = 0.2)
movej(p[0.382703814074592, 0.213288577890778, 0.306379374530183, -1.33, 0.73, -0.764], a = 0.2, v = 0.2, t = 0.2)
movej(p[0.382590438765687, 0.213151404194325, 0.308069732334417, -1.33, 0.73, -0.764], a = 0.2, v = 0.2, t = 0.2)
movej(p[0.382446353336042, 0.212977074076241, 0.310217959605655, -1.33, 0.73, -0.764], a = 0.2, v = 0.2, t = 0.2)
movej(p[0.382396706196889, 0.212917005603999, 0.310958168650599, -1.33, 0.73, -0.764], a = 0.2, v = 0.2, t = 0.2)
movej(p[0.382375394547071, 0.212891220467789, 0.311275912557437, -1.33, 0.73, -0.764], a = 0.2, v = 0.2, t = 0.2)
movej(p[0.382368724234139, 0.212883150002621, 0.311375362919514, -1.33, 0.73, -0.764], a = 0.2, v = 0.2, t = 0.2)
movej(p[0.382536829460652, 0.213086541865774, 0.308869014894434, -1.33, 0.73, -0.764], a = 0.2, v = 0.2, t = 0.2)
movej(p[0.382541418635949, 0.213092094345809, 0.308800593045325, -1.33, 0.73, -0.764], a = 0.2, v = 0.2, t = 0.2)
movej(p[0.382546014481559, 0.213097654896309, 0.308732071745853, -1.33, 0.73, -0.764], a = 0.2, v = 0.2, t = 0.2)
movej(p[0.382550610327169, 0.21310321544681, 0.308663550446382, -1.33, 0.73, -0.764], a = 0.2, v = 0.2, t = 0.2)
movej(p[0.382555199502467, 0.213108767926845, 0.308595128597273, -1.33, 0.73, -0.764], a = 0.2, v = 0.2, t = 0.2)
movej(p[0.382559795348077, 0.213114328477346, 0.308526607297801, -1.33, 0.73, -0.764], a = 0.2, v = 0.2, t = 0.2)
movej(p[0.382564391193687, 0.213119889027846, 0.30845808599833, -1.33, 0.73, -0.764], a = 0.2, v = 0.2, t = 0.2)
movej(p[0.382568987039297, 0.213125449578347, 0.308389564698858, -1.33, 0.73, -0.764], a = 0.2, v = 0.2, t = 0.2)
movej(p[0.382573576214594, 0.213131002058382, 0.308321142849749, -1.33, 0.73, -0.764], a = 0.2, v = 0.2, t = 0.2)
movej(p[0.382578172060205, 0.213136562608882, 0.308252621550277, -1.33, 0.73, -0.764], a = 0.2, v = 0.2, t = 0.2)
movej(p[0.382582767905815, 0.213142123159383, 0.308184100250806, -1.33, 0.73, -0.764], a = 0.2, v = 0.2, t = 0.2)
movej(p[0.382587363751425, 0.213147683709883, 0.308115578951334, -1.33, 0.73, -0.764], a = 0.2, v = 0.2, t = 0.2)
movej(p[0.382591952926722, 0.213153236189918, 0.308047157102225, -1.33, 0.73, -0.764], a = 0.2, v = 0.2, t = 0.2)
movej(p[0.382596548772332, 0.213158796740419, 0.307978635802753, -1.33, 0.73, -0.764], a = 0.2, v = 0.2, t = 0.2)
movej(p[0.382601144617943, 0.213164357290919, 0.307910114503282, -1.33, 0.73, -0.764], a = 0.2, v = 0.2, t = 0.2)
movej(p[0.382605740463553, 0.21316991784142, 0.307841593203811, -1.33, 0.73, -0.764], a = 0.2, v = 0.2, t = 0.2)
movej(p[0.38261032963885, 0.213175470321455, 0.307773171354701, -1.33, 0.73, -0.764], a = 0.2, v = 0.2, t = 0.2)
movej(p[0.38261492548446, 0.213181030871955, 0.30770465005523, -1.33, 0.73, -0.764], a = 0.2, v = 0.2, t = 0.2)
movej(p[0.38261952133007, 0.213186591422456, 0.307636128755758, -1.33, 0.73, -0.764], a = 0.2, v = 0.2, t = 0.2)
movej(p[0.382624110505368, 0.213192143902491, 0.307567706906649, -1.33, 0.73, -0.764], a = 0.2, v = 0.2, t = 0.2)
movej(p[0.382628706350978, 0.213197704452992, 0.307499185607177, -1.33, 0.73, -0.764], a = 0.2, v = 0.2, t = 0.2)
movej(p[0.382633302196588, 0.213203265003492, 0.307430664307706, -1.33, 0.73, -0.764], a = 0.2, v = 0.2, t = 0.2)
movej(p[0.382637898042198, 0.213208825553992, 0.307362143008234, -1.33, 0.73, -0.764], a = 0.2, v = 0.2, t = 0.2)
movej(p[0.382642487217495, 0.213214378034028, 0.307293721159125, -1.33, 0.73, -0.764], a = 0.2, v = 0.2, t = 0.2)
movej(p[0.382635816904563, 0.21320630756886, 0.307393171521203, -1.33, 0.73, -0.764], a = 0.2, v = 0.2, t = 0.2)
movej(p[0.382624330625694, 0.213192410227842, 0.3075644250447, -1.33, 0.73, -0.764], a = 0.2, v = 0.2, t = 0.2)
movej(p[0.382524342634843, 0.21307143395498, 0.309055185972244, -1.33, 0.73, -0.764], a = 0.2, v = 0.2, t = 0.2)
movej(p[0.382469412607848, 0.213004973674325, 0.309874159703953, -1.33, 0.73, -0.764], a = 0.2, v = 0.2, t = 0.2)
movej(p[0.382403349828569, 0.212925043787306, 0.310859116089969, -1.33, 0.73, -0.764], a = 0.2, v = 0.2, t = 0.2)
movej(p[0.382357971689692, 0.212870140412771, 0.311535676903183, -1.33, 0.73, -0.764], a = 0.2, v = 0.2, t = 0.2)
movej(p[0.382322845821792, 0.212827641343199, 0.312059382509884, -1.33, 0.73, -0.764], a = 0.2, v = 0.2, t = 0.2)
movej(p[0.382261919183471, 0.212753925714358, 0.312967762117101, -1.33, 0.73, -0.764], a = 0.2, v = 0.2, t = 0.2)
movej(p[0.382250579651487, 0.212740205923574, 0.313136827732633, -1.33, 0.73, -0.764], a = 0.2, v = 0.2, t = 0.2)
movej(p[0.382239293482006, 0.21272655069651, 0.313305097745268, -1.33, 0.73, -0.764], a = 0.2, v = 0.2, t = 0.2)
movej(p[0.382232623169074, 0.212718480231343, 0.313404548107346, -1.33, 0.73, -0.764], a = 0.2, v = 0.2, t = 0.2)
movej(p[0.3822529075907, 0.212743022515917, 0.313102119556268, -1.33, 0.73, -0.764], a = 0.2, v = 0.2, t = 0.2)
movej(p[0.382282537120744, 0.212778871522191, 0.312660361047919, -1.33, 0.73, -0.764], a = 0.2, v = 0.2, t = 0.2)
movej(p[0.382359199027272, 0.212871625378362, 0.311517378036561, -1.33, 0.73, -0.764], a = 0.2, v = 0.2, t = 0.2)
movej(p[0.382474528737867, 0.213011163721109, 0.309797881276239, -1.33, 0.73, -0.764], a = 0.2, v = 0.2, t = 0.2)
movej(p[0.382570661287843, 0.213127475265104, 0.308364602657977, -1.33, 0.73, -0.764], a = 0.2, v = 0.2, t = 0.2)
movej(p[0.382685977657812, 0.21326699746692, 0.306645304798379, -1.33, 0.73, -0.764], a = 0.2, v = 0.2, t = 0.2)
movej(p[0.382757830268716, 0.213353932517705, 0.305574025498079, -1.33, 0.73, -0.764], a = 0.2, v = 0.2, t = 0.2)
movej(p[0.382767595606849, 0.21336574767871, 0.305428430167997, -1.33, 0.73, -0.764], a = 0.2, v = 0.2, t = 0.2)
movej(p[0.382760925293916, 0.213357677213543, 0.305527880530075, -1.33, 0.73, -0.764], a = 0.2, v = 0.2, t = 0.2)
movej(p[0.382686738073486, 0.213267917499949, 0.306633967457102, -1.33, 0.73, -0.764], a = 0.2, v = 0.2, t = 0.2)
movej(p[0.382614785407889, 0.213180861392187, 0.307706738512833, -1.33, 0.73, -0.764], a = 0.2, v = 0.2, t = 0.2)
movej(p[0.38255088381, 0.213103546335882, 0.308659472981537, -1.33, 0.73, -0.764], a = 0.2, v = 0.2, t = 0.2)
movej(p[0.382462628899596, 0.21299676601125, 0.309975300722186, -1.33, 0.73, -0.764], a = 0.2, v = 0.2, t = 0.2)
movej(p[0.382448741308071, 0.212979963302771, 0.310182356376031, -1.33, 0.73, -0.764], a = 0.2, v = 0.2, t = 0.2)
movej(p[0.382412394772905, 0.212935987338073, 0.310724261398992, -1.33, 0.73, -0.764], a = 0.2, v = 0.2, t = 0.2)
movej(p[0.382364235113536, 0.212877718579564, 0.311442293013193, -1.33, 0.73, -0.764], a = 0.2, v = 0.2, t = 0.2)
movej(p[0.382336026360146, 0.21284358858237, 0.311862868594419, -1.33, 0.73, -0.764], a = 0.2, v = 0.2, t = 0.2)
movej(p[0.382291095132236, 0.212789225929001, 0.312532766233374, -1.33, 0.73, -0.764], a = 0.2, v = 0.2, t = 0.2)
movej(p[0.382255242200226, 0.212745847178726, 0.313067311929541, -1.33, 0.73, -0.764], a = 0.2, v = 0.2, t = 0.2)
movej(p[0.382231082326786, 0.212716615953889, 0.313427521140986, -1.33, 0.73, -0.764], a = 0.2, v = 0.2, t = 0.2)
movej(p[0.382224412013854, 0.212708545488721, 0.313526971503063, -1.33, 0.73, -0.764], a = 0.2, v = 0.2, t = 0.2)
movej(p[0.382270550568405, 0.212764368896285, 0.312839073348573, -1.33, 0.73, -0.764], a = 0.2, v = 0.2, t = 0.2)
movej(p[0.382319764137218, 0.212823912788291, 0.312105328577164, -1.33, 0.73, -0.764], a = 0.2, v = 0.2, t = 0.2)
movej(p[0.382356450858344, 0.212868300346713, 0.311558351585737, -1.33, 0.73, -0.764], a = 0.2, v = 0.2, t = 0.2)
movej(p[0.382469659409426, 0.213005272281537, 0.309870480040556, -1.33, 0.73, -0.764], a = 0.2, v = 0.2, t = 0.2)
movej(p[0.382556720333815, 0.213110607992903, 0.308572453914719, -1.33, 0.73, -0.764], a = 0.2, v = 0.2, t = 0.2)
movej(p[0.382716541031667, 0.213303976338318, 0.306189623239339, -1.33, 0.73, -0.764], a = 0.2, v = 0.2, t = 0.2)
movej(p[0.382854829959374, 0.213471293222171, 0.304127818332746, -1.33, 0.73, -0.764], a = 0.2, v = 0.2, t = 0.2)
movej(p[0.382848159646442, 0.213463222757004, 0.304227268694824, -1.33, 0.73, -0.764], a = 0.2, v = 0.2, t = 0.2)
movej(p[0.382730381931001, 0.21332072255354, 0.305983263738028, -1.33, 0.73, -0.764], a = 0.2, v = 0.2, t = 0.2)
movej(p[0.382653186399438, 0.213227323060156, 0.307134202778352, -1.33, 0.73, -0.764], a = 0.2, v = 0.2, t = 0.2)
movej(p[0.382589998525033, 0.213150871543624, 0.308076296058314, -1.33, 0.73, -0.764], a = 0.2, v = 0.2, t = 0.2)
movej(p[0.382521494411221, 0.213067987866354, 0.309097651276851, -1.33, 0.73, -0.764], a = 0.2, v = 0.2, t = 0.2)
movej(p[0.382443498442107, 0.212973619917149, 0.310260524360624, -1.33, 0.73, -0.764], a = 0.2, v = 0.2, t = 0.2)
movej(p[0.382379316691075, 0.212895965901307, 0.311217435744535, -1.33, 0.73, -0.764], a = 0.2, v = 0.2, t = 0.2)
movej(p[0.382347699407777, 0.212857711896413, 0.311688830460783, -1.33, 0.73, -0.764], a = 0.2, v = 0.2, t = 0.2)
movej(p[0.382311492949182, 0.212813905411484, 0.31222864702614, -1.33, 0.73, -0.764], a = 0.2, v = 0.2, t = 0.2)
movej(p[0.382286826131959, 0.212784060831294, 0.312596414465103, -1.33, 0.73, -0.764], a = 0.2, v = 0.2, t = 0.2)
movej(p[0.382276720607867, 0.212771834076565, 0.312747081763651, -1.33, 0.73, -0.764], a = 0.2, v = 0.2, t = 0.2)
movej(p[0.382215900694553, 0.212698247575168, 0.313653870165075, -1.33, 0.73, -0.764], a = 0.2, v = 0.2, t = 0.2)
movej(p[0.382209230381621, 0.21269017711, 0.313753320527152, -1.33, 0.73, -0.764], a = 0.2, v = 0.2, t = 0.2)
movej(p[0.382237252366248, 0.212724081134169, 0.313335529556064, -1.33, 0.73, -0.764], a = 0.2, v = 0.2, t = 0.2)
movej(p[0.382287853360151, 0.21278530368293, 0.312581099109343, -1.33, 0.73, -0.764], a = 0.2, v = 0.2, t = 0.2)
movej(p[0.382350014006364, 0.212860512347826, 0.311654321185142, -1.33, 0.73, -0.764], a = 0.2, v = 0.2, t = 0.2)
movej(p[0.38244000319813, 0.212969390993402, 0.310312636350353, -1.33, 0.73, -0.764], a = 0.2, v = 0.2, t = 0.2)
movej(p[0.382513876913853, 0.213058771395132, 0.309211223590343, -1.33, 0.73, -0.764], a = 0.2, v = 0.2, t = 0.2)
movej(p[0.382621429039569, 0.213188899575494, 0.307607685952204, -1.33, 0.73, -0.764], a = 0.2, v = 0.2, t = 0.2)
movej(p[0.382734490843767, 0.213325693960084, 0.305922002314988, -1.33, 0.73, -0.764], a = 0.2, v = 0.2, t = 0.2)
movej(p[0.382775306488598, 0.213375077136444, 0.305313465549436, -1.33, 0.73, -0.764], a = 0.2, v = 0.2, t = 0.2)
movej(p[0.382768636175666, 0.213367006671276, 0.305412915911513, -1.33, 0.73, -0.764], a = 0.2, v = 0.2, t = 0.2)
movej(p[0.38265166556809, 0.213225482994098, 0.307156877460906, -1.33, 0.73, -0.764], a = 0.2, v = 0.2, t = 0.2)
movej(p[0.382551784302246, 0.213104635848679, 0.308646047182656, -1.33, 0.73, -0.764], a = 0.2, v = 0.2, t = 0.2)
movej(p[0.382498255040966, 0.21303987036571, 0.309444136338329, -1.33, 0.73, -0.764], a = 0.2, v = 0.2, t = 0.2)
movej(p[0.38244760068456, 0.212978583253227, 0.310199362387947, -1.33, 0.73, -0.764], a = 0.2, v = 0.2, t = 0.2)
movej(p[0.382406464864708, 0.212928812694539, 0.310812672770879, -1.33, 0.73, -0.764], a = 0.2, v = 0.2, t = 0.2)
movej(p[0.38236233407435, 0.212875418496991, 0.311470636366385, -1.33, 0.73, -0.764], a = 0.2, v = 0.2, t = 0.2)
movej(p[0.382321451726389, 0.212825954615979, 0.312080167635558, -1.33, 0.73, -0.764], a = 0.2, v = 0.2, t = 0.2)
movej(p[0.38230320842052, 0.212803881893746, 0.312352164375841, -1.33, 0.73, -0.764], a = 0.2, v = 0.2, t = 0.2)
movej(p[0.382293503115204, 0.212792139366927, 0.312496864652664, -1.33, 0.73, -0.764], a = 0.2, v = 0.2, t = 0.2)
movej(p[0.382263246575745, 0.212755531736927, 0.312947971495048, -1.33, 0.73, -0.764], a = 0.2, v = 0.2, t = 0.2)
movej(p[0.382239500261707, 0.21272680088093, 0.313302014784044, -1.33, 0.73, -0.764], a = 0.2, v = 0.2, t = 0.2)
movej(p[0.382210130873867, 0.212691266622798, 0.313739894728272, -1.33, 0.73, -0.764], a = 0.2, v = 0.2, t = 0.2)
movej(p[0.382203460560935, 0.21268319615763, 0.313839345090349, -1.33, 0.73, -0.764], a = 0.2, v = 0.2, t = 0.2)
movej(p[0.382249012127948, 0.212738309364259, 0.313160198567721, -1.33, 0.73, -0.764], a = 0.2, v = 0.2, t = 0.2)
movej(p[0.382338421002489, 0.212846485879365, 0.311827165914433, -1.33, 0.73, -0.764], a = 0.2, v = 0.2, t = 0.2)
movej(p[0.382413915604253, 0.212937827404131, 0.310701586716438, -1.33, 0.73, -0.764], a = 0.2, v = 0.2, t = 0.2)
movej(p[0.382456091992923, 0.212988856955386, 0.310072762077022, -1.33, 0.73, -0.764], a = 0.2, v = 0.2, t = 0.2)
movej(p[0.382547288511329, 0.213099196355156, 0.308713076726697, -1.33, 0.73, -0.764], a = 0.2, v = 0.2, t = 0.2)
movej(p[0.382658669396668, 0.213233956982524, 0.307052454580725, -1.33, 0.73, -0.764], a = 0.2, v = 0.2, t = 0.2)
movej(p[0.382717788380185, 0.213305485515304, 0.306171026021631, -1.33, 0.73, -0.764], a = 0.2, v = 0.2, t = 0.2)
movej(p[0.382711118067253, 0.213297415050137, 0.306270476383708, -1.33, 0.73, -0.764], a = 0.2, v = 0.2, t = 0.2)
movej(p[0.382640552826745, 0.213212037599129, 0.307322561764127, -1.33, 0.73, -0.764], a = 0.2, v = 0.2, t = 0.2)
movej(p[0.38254146532814, 0.213092150839065, 0.30879989689279, -1.33, 0.73, -0.764], a = 0.2, v = 0.2, t = 0.2)
movej(p[0.382476756622386, 0.213013859256475, 0.309764664855305, -1.33, 0.73, -0.764], a = 0.2, v = 0.2, t = 0.2)
movej(p[0.382425568640946, 0.212951926506779, 0.310527846933889, -1.33, 0.73, -0.764], a = 0.2, v = 0.2, t = 0.2)
movej(p[0.38237630170963, 0.212892318051052, 0.311262387308194, -1.33, 0.73, -0.764], a = 0.2, v = 0.2, t = 0.2)
movej(p[0.382357111219324, 0.212869099322765, 0.311548505999891, -1.33, 0.73, -0.764], a = 0.2, v = 0.2, t = 0.2)
movej(p[0.382334272067845, 0.212841466050031, 0.311889024039645, -1.33, 0.73, -0.764], a = 0.2, v = 0.2, t = 0.2)
movej(p[0.382311439586678, 0.212813840847762, 0.312229442629037, -1.33, 0.73, -0.764], a = 0.2, v = 0.2, t = 0.2)
movej(p[0.382284564895875, 0.212781324943602, 0.312630128137848, -1.33, 0.73, -0.764], a = 0.2, v = 0.2, t = 0.2)
movej(p[0.382256222736227, 0.212747033537105, 0.313052692726315, -1.33, 0.73, -0.764], a = 0.2, v = 0.2, t = 0.2)
movej(p[0.382251373418726, 0.212741166308929, 0.313124993139546, -1.33, 0.73, -0.764], a = 0.2, v = 0.2, t = 0.2)
movej(p[0.382234277406681, 0.212720481706704, 0.313379884417551, -1.33, 0.73, -0.764], a = 0.2, v = 0.2, t = 0.2)
movej(p[0.382227607093749, 0.212712411241537, 0.313479334779628, -1.33, 0.73, -0.764], a = 0.2, v = 0.2, t = 0.2)
movej(p[0.382266301579067, 0.212759228009974, 0.312902423229216, -1.33, 0.73, -0.764], a = 0.2, v = 0.2, t = 0.2)
movej(p[0.382356437517718, 0.212868284205783, 0.311558550486461, -1.33, 0.73, -0.764], a = 0.2, v = 0.2, t = 0.2)
movej(p[0.382446993686083, 0.212977848840897, 0.310208412370896, -1.33, 0.73, -0.764], a = 0.2, v = 0.2, t = 0.2)
movej(p[0.382520693973669, 0.213067019410533, 0.3091095853203, -1.33, 0.73, -0.764], a = 0.2, v = 0.2, t = 0.2)
movej(p[0.382605593716668, 0.213169740291186, 0.307843781111776, -1.33, 0.73, -0.764], a = 0.2, v = 0.2, t = 0.2)
movej(p[0.382684170003008, 0.21326481037086, 0.306672255846502, -1.33, 0.73, -0.764], a = 0.2, v = 0.2, t = 0.2)
movej(p[0.382772571660296, 0.213371768245725, 0.305354240197887, -1.33, 0.73, -0.764], a = 0.2, v = 0.2, t = 0.2)
movej(p[0.382765901347364, 0.213363697780558, 0.305453690559965, -1.33, 0.73, -0.764], a = 0.2, v = 0.2, t = 0.2)
movej(p[0.38268080816529, 0.213260742856415, 0.306722378828989, -1.33, 0.73, -0.764], a = 0.2, v = 0.2, t = 0.2)
movej(p[0.382573336083329, 0.213130711521636, 0.308324723062784, -1.33, 0.73, -0.764], a = 0.2, v = 0.2, t = 0.2)
movej(p[0.382477290247421, 0.213014504893688, 0.309756708826339, -1.33, 0.73, -0.764], a = 0.2, v = 0.2, t = 0.2)
movej(p[0.382425448575313, 0.212951781238406, 0.310529637040406, -1.33, 0.73, -0.764], a = 0.2, v = 0.2, t = 0.2)
movej(p[0.382372399576564, 0.212887596828929, 0.31132056577001, -1.33, 0.73, -0.764], a = 0.2, v = 0.2, t = 0.2)
movej(p[0.38234099574328, 0.21284960107892, 0.311788778074671, -1.33, 0.73, -0.764], a = 0.2, v = 0.2, t = 0.2)
movej(p[0.382306823730129, 0.212808256085866, 0.312298262279595, -1.33, 0.73, -0.764], a = 0.2, v = 0.2, t = 0.2)
movej(p[0.382292542590142, 0.212790977219943, 0.312511185504803, -1.33, 0.73, -0.764], a = 0.2, v = 0.2, t = 0.2)
movej(p[0.382265661229026, 0.212758453245317, 0.312911970463976, -1.33, 0.73, -0.764], a = 0.2, v = 0.2, t = 0.2)
movej(p[0.382255028750212, 0.21274558892384, 0.313070494341127, -1.33, 0.73, -0.764], a = 0.2, v = 0.2, t = 0.2)
movej(p[0.382228560948498, 0.212713565318056, 0.313465113377851, -1.33, 0.73, -0.764], a = 0.2, v = 0.2, t = 0.2)
movej(p[0.382221890635566, 0.212705494852888, 0.313564563739929, -1.33, 0.73, -0.764], a = 0.2, v = 0.2, t = 0.2)
movej(p[0.38224487653393, 0.212733305675855, 0.313221857792209, -1.33, 0.73, -0.764], a = 0.2, v = 0.2, t = 0.2)
movej(p[0.382348913404731, 0.212859180721074, 0.311670730494885, -1.33, 0.73, -0.764], a = 0.2, v = 0.2, t = 0.2)
movej(p[0.382446373346981, 0.212977098287637, 0.310217661254569, -1.33, 0.73, -0.764], a = 0.2, v = 0.2, t = 0.2)
movej(p[0.382554872657133, 0.213108372474052, 0.308600001665014, -1.33, 0.73, -0.764], a = 0.2, v = 0.2, t = 0.2)
movej(p[0.382648877377284, 0.213222109539658, 0.307198447712255, -1.33, 0.73, -0.764], a = 0.2, v = 0.2, t = 0.2)
movej(p[0.382721563777305, 0.213310053398589, 0.306114737116695, -1.33, 0.73, -0.764], a = 0.2, v = 0.2, t = 0.2)
movej(p[0.382714893464373, 0.213301982933421, 0.306214187478772, -1.33, 0.73, -0.764], a = 0.2, v = 0.2, t = 0.2)
movej(p[0.382697924188273, 0.213281451670035, 0.306467189199898, -1.33, 0.73, -0.764], a = 0.2, v = 0.2, t = 0.2)
movej(p[0.382624764196035, 0.213192934808078, 0.307557960771165, -1.33, 0.73, -0.764], a = 0.2, v = 0.2, t = 0.2)
movej(p[0.38256273695608, 0.213117887552485, 0.308482749688125, -1.33, 0.73, -0.764], a = 0.2, v = 0.2, t = 0.2)
movej(p[0.38246261555897, 0.21299674987032, 0.30997549962291, -1.33, 0.73, -0.764], a = 0.2, v = 0.2, t = 0.2)
movej(p[0.382409619922725, 0.212932630024563, 0.310765632749616, -1.33, 0.73, -0.764], a = 0.2, v = 0.2, t = 0.2)
movej(p[0.382378949823864, 0.212895522025723, 0.311222905514449, -1.33, 0.73, -0.764], a = 0.2, v = 0.2, t = 0.2)
movej(p[0.382339374857238, 0.212847639955884, 0.311812944512656, -1.33, 0.73, -0.764], a = 0.2, v = 0.2, t = 0.2)
movej(p[0.382307410717668, 0.212808966286801, 0.312289510647732, -1.33, 0.73, -0.764], a = 0.2, v = 0.2, t = 0.2)
movej(p[0.382260124869292, 0.212751754759228, 0.3129945142645, -1.33, 0.73, -0.764], a = 0.2, v = 0.2, t = 0.2)
movej(p[0.382247758109116, 0.212736792116808, 0.313178895235792, -1.33, 0.73, -0.764], a = 0.2, v = 0.2, t = 0.2)
movej(p[0.382234797691089, 0.212721111202987, 0.313372127289309, -1.33, 0.73, -0.764], a = 0.2, v = 0.2, t = 0.2)
movej(p[0.382228127378157, 0.21271304073782, 0.313471577651386, -1.33, 0.73, -0.764], a = 0.2, v = 0.2, t = 0.2)
movej(p[0.3822461505637, 0.212734847134702, 0.313202862773053, -1.33, 0.73, -0.764], a = 0.2, v = 0.2, t = 0.2)
movej(p[0.382301834336056, 0.212802219377921, 0.312372651150429, -1.33, 0.73, -0.764], a = 0.2, v = 0.2, t = 0.2)
movej(p[0.382356450858344, 0.212868300346713, 0.311558351585737, -1.33, 0.73, -0.764], a = 0.2, v = 0.2, t = 0.2)
movej(p[0.382458246504, 0.212991463715635, 0.310040639610071, -1.33, 0.73, -0.764], a = 0.2, v = 0.2, t = 0.2)
movej(p[0.382561883156025, 0.213116854532943, 0.308495479334471, -1.33, 0.73, -0.764], a = 0.2, v = 0.2, t = 0.2)
movej(p[0.382680794824664, 0.213260726715485, 0.306722577729713, -1.33, 0.73, -0.764], a = 0.2, v = 0.2, t = 0.2)
movej(p[0.382849540401219, 0.213464893343293, 0.304206682469874, -1.33, 0.73, -0.764], a = 0.2, v = 0.2, t = 0.2)
movej(p[0.382842870088286, 0.213456822878126, 0.304306132831951, -1.33, 0.73, -0.764], a = 0.2, v = 0.2, t = 0.2)
movej(p[0.38276989686481, 0.213368531989193, 0.305394119793081, -1.33, 0.73, -0.764], a = 0.2, v = 0.2, t = 0.2)
movej(p[0.382689906472129, 0.213271750970904, 0.306586728535115, -1.33, 0.73, -0.764], a = 0.2, v = 0.2, t = 0.2)
movej(p[0.382616839864272, 0.213183347095458, 0.307676107801313, -1.33, 0.73, -0.764], a = 0.2, v = 0.2, t = 0.2)
movej(p[0.382556807047883, 0.213110712908951, 0.308571161060012, -1.33, 0.73, -0.764], a = 0.2, v = 0.2, t = 0.2)
movej(p[0.382520407150213, 0.213066672380531, 0.309113861685869, -1.33, 0.73, -0.764], a = 0.2, v = 0.2, t = 0.2)
movej(p[0.382434887068112, 0.212963200946618, 0.310388914778066, -1.33, 0.73, -0.764], a = 0.2, v = 0.2, t = 0.2)
movej(p[0.382392036977836, 0.212911356278382, 0.311027783904053, -1.33, 0.73, -0.764], a = 0.2, v = 0.2, t = 0.2)
movej(p[0.382358151788141, 0.212870358315331, 0.311532991743407, -1.33, 0.73, -0.764], a = 0.2, v = 0.2, t = 0.2)
movej(p[0.382342389838683, 0.21285128780614, 0.311767992948997, -1.33, 0.73, -0.764], a = 0.2, v = 0.2, t = 0.2)
movej(p[0.38234238316837, 0.212851279735675, 0.311768092399359, -1.33, 0.73, -0.764], a = 0.2, v = 0.2, t = 0.2)
movej(p[0.382302201203268, 0.212802663253505, 0.312367181380514, -1.33, 0.73, -0.764], a = 0.2, v = 0.2, t = 0.2)
movej(p[0.382255915901832, 0.212746662295708, 0.313057267442971, -1.33, 0.73, -0.764], a = 0.2, v = 0.2, t = 0.2)
movej(p[0.3822492455889, 0.21273859183054, 0.313156717805049, -1.33, 0.73, -0.764], a = 0.2, v = 0.2, t = 0.2)
movej(p[0.382288233567988, 0.212785763699444, 0.312575430438705, -1.33, 0.73, -0.764], a = 0.2, v = 0.2, t = 0.2)
movej(p[0.382363047797834, 0.212876282036764, 0.311459995177642, -1.33, 0.73, -0.764], a = 0.2, v = 0.2, t = 0.2)
movej(p[0.382430104453739, 0.212957414423093, 0.310460220687676, -1.33, 0.73, -0.764], a = 0.2, v = 0.2, t = 0.2)
movej(p[0.382519600042348, 0.213065695854246, 0.309125895179681, -1.33, 0.73, -0.764], a = 0.2, v = 0.2, t = 0.2)
movej(p[0.382647763435025, 0.213220761771975, 0.307215055922722, -1.33, 0.73, -0.764], a = 0.2, v = 0.2, t = 0.2)
movej(p[0.382789067344177, 0.213391726506085, 0.305108299452469, -1.33, 0.73, -0.764], a = 0.2, v = 0.2, t = 0.2)
movej(p[0.382831363798479, 0.213442901325712, 0.304477684706535, -1.33, 0.73, -0.764], a = 0.2, v = 0.2, t = 0.2)
movej(p[0.382824693485547, 0.213434830860544, 0.304577135068613, -1.33, 0.73, -0.764], a = 0.2, v = 0.2, t = 0.2)
movej(p[0.38271709466764, 0.213304646186927, 0.306181368859287, -1.33, 0.73, -0.764], a = 0.2, v = 0.2, t = 0.2)
movej(p[0.382644374916055, 0.21321666197567, 0.307265576706657, -1.33, 0.73, -0.764], a = 0.2, v = 0.2, t = 0.2)
movej(p[0.382577465007034, 0.213135707139574, 0.308263163288658, -1.33, 0.73, -0.764], a = 0.2, v = 0.2, t = 0.2)
movej(p[0.382516084787433, 0.213061442719103, 0.309178305520496, -1.33, 0.73, -0.764], a = 0.2, v = 0.2, t = 0.2)
movej(p[0.38244721380641, 0.212978115166248, 0.310205130508947, -1.33, 0.73, -0.764], a = 0.2, v = 0.2, t = 0.2)
movej(p[0.382381924783431, 0.212899121453188, 0.311178550652963, -1.33, 0.73, -0.764], a = 0.2, v = 0.2, t = 0.2)
movej(p[0.382367837082519, 0.212882076630754, 0.311388589817671, -1.33, 0.73, -0.764], a = 0.2, v = 0.2, t = 0.2)
movej(p[0.382356157364575, 0.212867945246246, 0.311562727401669, -1.33, 0.73, -0.764], a = 0.2, v = 0.2, t = 0.2)
movej(p[0.382348886723479, 0.212859148439213, 0.311671128296333, -1.33, 0.73, -0.764], a = 0.2, v = 0.2, t = 0.2)
movej(p[0.382316669112017, 0.212820168092454, 0.312151473545168, -1.33, 0.73, -0.764], a = 0.2, v = 0.2, t = 0.2)
movej(p[0.38226243946788, 0.212754555210642, 0.312960004988859, -1.33, 0.73, -0.764], a = 0.2, v = 0.2, t = 0.2)
movej(p[0.382244516337031, 0.212732869870736, 0.313227228111762, -1.33, 0.73, -0.764], a = 0.2, v = 0.2, t = 0.2)
movej(p[0.382237846024099, 0.212724799405569, 0.313326678473839, -1.33, 0.73, -0.764], a = 0.2, v = 0.2, t = 0.2)
movej(p[0.382262412786628, 0.212754522928781, 0.312960402790307, -1.33, 0.73, -0.764], a = 0.2, v = 0.2, t = 0.2)
movej(p[0.382313320614925, 0.21281611671894, 0.312201397626931, -1.33, 0.73, -0.764], a = 0.2, v = 0.2, t = 0.2)
movej(p[0.382372306192183, 0.212887483842416, 0.311321958075079, -1.33, 0.73, -0.764], a = 0.2, v = 0.2, t = 0.2)
movej(p[0.382445479525048, 0.212976016845304, 0.310230987603087, -1.33, 0.73, -0.764], a = 0.2, v = 0.2, t = 0.2)
movej(p[0.38254683493005, 0.213098647563525, 0.308719839351318, -1.33, 0.73, -0.764], a = 0.2, v = 0.2, t = 0.2)
movej(p[0.382574016455248, 0.213131534709083, 0.308314579125852, -1.33, 0.73, -0.764], a = 0.2, v = 0.2, t = 0.2)
movej(p[0.382650598318021, 0.213224191719671, 0.307172789518839, -1.33, 0.73, -0.764], a = 0.2, v = 0.2, t = 0.2)
movej(p[0.382690633536239, 0.213272630651607, 0.306575888445649, -1.33, 0.73, -0.764], a = 0.2, v = 0.2, t = 0.2)
movej(p[0.382683963223307, 0.213264560186439, 0.306675338807726, -1.33, 0.73, -0.764], a = 0.2, v = 0.2, t = 0.2)
movej(p[0.382605286882273, 0.213169369049788, 0.307848355828432, -1.33, 0.73, -0.764], a = 0.2, v = 0.2, t = 0.2)
movej(p[0.382552411311661, 0.213105394472405, 0.308636698848621, -1.33, 0.73, -0.764], a = 0.2, v = 0.2, t = 0.2)
movej(p[0.382473228026845, 0.213009589980401, 0.309817274096844, -1.33, 0.73, -0.764], a = 0.2, v = 0.2, t = 0.2)
movej(p[0.382427062791042, 0.212953734290977, 0.310505570052784, -1.33, 0.73, -0.764], a = 0.2, v = 0.2, t = 0.2)
movej(p[0.382346525432701, 0.212856291494544, 0.311706333724509, -1.33, 0.73, -0.764], a = 0.2, v = 0.2, t = 0.2)
movej(p[0.382311646366379, 0.212814091032183, 0.312226359667812, -1.33, 0.73, -0.764], a = 0.2, v = 0.2, t = 0.2)
movej(p[0.382293729905844, 0.212792413762743, 0.312493483340353, -1.33, 0.73, -0.764], a = 0.2, v = 0.2, t = 0.2)
movej(p[0.382271364346583, 0.212765353493036, 0.312826940404399, -1.33, 0.73, -0.764], a = 0.2, v = 0.2, t = 0.2)
movej(p[0.382257690205072, 0.212748809039442, 0.313030813646658, -1.33, 0.73, -0.764], a = 0.2, v = 0.2, t = 0.2)
movej(p[0.382229548154812, 0.2127147597469, 0.313450394724264, -1.33, 0.73, -0.764], a = 0.2, v = 0.2, t = 0.2)
movej(p[0.38222287784188, 0.212706689281733, 0.313549845086341, -1.33, 0.73, -0.764], a = 0.2, v = 0.2, t = 0.2)
movej(p[0.382325667364163, 0.212831055149965, 0.312017315006725, -1.33, 0.73, -0.764], a = 0.2, v = 0.2, t = 0.2)
movej(p[0.382427182856675, 0.21295387955935, 0.310503779946266, -1.33, 0.73, -0.764], a = 0.2, v = 0.2, t = 0.2)
movej(p[0.382541191845309, 0.213091819949993, 0.308803974357636, -1.33, 0.73, -0.764], a = 0.2, v = 0.2, t = 0.2)
movej(p[0.382664419206416, 0.213240913723499, 0.306966728368614, -1.33, 0.73, -0.764], a = 0.2, v = 0.2, t = 0.2)
movej(p[0.382769183141326, 0.21336766844942, 0.305404760981823, -1.33, 0.73, -0.764], a = 0.2, v = 0.2, t = 0.2)
movej(p[0.38289577234015, 0.21352082973737, 0.303517392010314, -1.33, 0.73, -0.764], a = 0.2, v = 0.2, t = 0.2)
movej(p[0.382889102027218, 0.213512759272202, 0.303616842372392, -1.33, 0.73, -0.764], a = 0.2, v = 0.2, t = 0.2)
movej(p[0.382824159860512, 0.213434185223331, 0.304585091097579, -1.33, 0.73, -0.764], a = 0.2, v = 0.2, t = 0.2)
movej(p[0.382745550222608, 0.213339074791331, 0.305757113614664, -1.33, 0.73, -0.764], a = 0.2, v = 0.2, t = 0.2)
movej(p[0.382623583550646, 0.213191506335743, 0.307575563485253, -1.33, 0.73, -0.764], a = 0.2, v = 0.2, t = 0.2)
movej(p[0.382567639636085, 0.213123819344383, 0.308409653671998, -1.33, 0.73, -0.764], a = 0.2, v = 0.2, t = 0.2)
movej(p[0.382524782875497, 0.213071966605681, 0.309048622248347, -1.33, 0.73, -0.764], a = 0.2, v = 0.2, t = 0.2)
movej(p[0.38249369254692, 0.213034350167535, 0.30951216038599, -1.33, 0.73, -0.764], a = 0.2, v = 0.2, t = 0.2)
movej(p[0.382419538678055, 0.212944630806268, 0.310617750061207, -1.33, 0.73, -0.764], a = 0.2, v = 0.2, t = 0.2)
movej(p[0.382345178029489, 0.21285466126058, 0.311726422697648, -1.33, 0.73, -0.764], a = 0.2, v = 0.2, t = 0.2)
movej(p[0.382314714710328, 0.21281780344616, 0.312180612501257, -1.33, 0.73, -0.764], a = 0.2, v = 0.2, t = 0.2)
movej(p[0.382297885510801, 0.212797441662542, 0.312431525764779, -1.33, 0.73, -0.764], a = 0.2, v = 0.2, t = 0.2)
movej(p[0.382278668339243, 0.212774190652394, 0.312718042257924, -1.33, 0.73, -0.764], a = 0.2, v = 0.2, t = 0.2)
movej(p[0.382275073040573, 0.212769840671669, 0.312771646003084, -1.33, 0.73, -0.764], a = 0.2, v = 0.2, t = 0.2)
movej(p[0.382268202618253, 0.212761528092546, 0.312874079876024, -1.33, 0.73, -0.764], a = 0.2, v = 0.2, t = 0.2)
movej(p[0.382261532305321, 0.212753457627379, 0.312973530238102, -1.33, 0.73, -0.764], a = 0.2, v = 0.2, t = 0.2)
movej(p[0.38229212903074, 0.212790476851102, 0.312517351427252, -1.33, 0.73, -0.764], a = 0.2, v = 0.2, t = 0.2)
movej(p[0.382420219049974, 0.212945453993715, 0.310607606124275, -1.33, 0.73, -0.764], a = 0.2, v = 0.2, t = 0.2)
movej(p[0.382577338271088, 0.213135553800736, 0.308265052845537, -1.33, 0.73, -0.764], a = 0.2, v = 0.2, t = 0.2)
movej(p[0.382711591659471, 0.213297988053163, 0.306263415408001, -1.33, 0.73, -0.764], a = 0.2, v = 0.2, t = 0.2)
movej(p[0.382827955268571, 0.213438777318011, 0.304528503841557, -1.33, 0.73, -0.764], a = 0.2, v = 0.2, t = 0.2)
movej(p[0.38287793592337, 0.213499249313512, 0.303783322278509, -1.33, 0.73, -0.764], a = 0.2, v = 0.2, t = 0.2)
movej(p[0.382871265610438, 0.213491178848344, 0.303882772640587, -1.33, 0.73, -0.764], a = 0.2, v = 0.2, t = 0.2)
movej(p[0.382750733055756, 0.213345345542767, 0.305679840683329, -1.33, 0.73, -0.764], a = 0.2, v = 0.2, t = 0.2)
movej(p[0.38266440586579, 0.213240897582568, 0.306966927269338, -1.33, 0.73, -0.764], a = 0.2, v = 0.2, t = 0.2)
movej(p[0.382566605737581, 0.213122568422282, 0.30842506847812, -1.33, 0.73, -0.764], a = 0.2, v = 0.2, t = 0.2)
movej(p[0.382526417102165, 0.213073943869647, 0.309024256909637, -1.33, 0.73, -0.764], a = 0.2, v = 0.2, t = 0.2)
movej(p[0.382525243127089, 0.213072523467778, 0.309041760173363, -1.33, 0.73, -0.764], a = 0.2, v = 0.2, t = 0.2)
movej(p[0.3825240624817, 0.213071094995443, 0.309059362887451, -1.33, 0.73, -0.764], a = 0.2, v = 0.2, t = 0.2)
movej(p[0.382522881836311, 0.213069666523108, 0.309076965601539, -1.33, 0.73, -0.764], a = 0.2, v = 0.2, t = 0.2)
movej(p[0.382521701190922, 0.213068238050774, 0.309094568315626, -1.33, 0.73, -0.764], a = 0.2, v = 0.2, t = 0.2)
movej(p[0.382520527215846, 0.213066817648904, 0.309112071579352, -1.33, 0.73, -0.764], a = 0.2, v = 0.2, t = 0.2)
movej(p[0.382519346570457, 0.21306538917657, 0.30912967429344, -1.33, 0.73, -0.764], a = 0.2, v = 0.2, t = 0.2)
movej(p[0.382518165925068, 0.213063960704235, 0.309147277007527, -1.33, 0.73, -0.764], a = 0.2, v = 0.2, t = 0.2)
movej(p[0.382516991949992, 0.213062540302365, 0.309164780271253, -1.33, 0.73, -0.764], a = 0.2, v = 0.2, t = 0.2)
movej(p[0.382515811304603, 0.213061111830031, 0.309182382985341, -1.33, 0.73, -0.764], a = 0.2, v = 0.2, t = 0.2)
movej(p[0.382514630659214, 0.213059683357696, 0.309199985699429, -1.33, 0.73, -0.764], a = 0.2, v = 0.2, t = 0.2)
movej(p[0.382513450013825, 0.213058254885362, 0.309217588413516, -1.33, 0.73, -0.764], a = 0.2, v = 0.2, t = 0.2)
movej(p[0.382512276038749, 0.213056834483492, 0.309235091677242, -1.33, 0.73, -0.764], a = 0.2, v = 0.2, t = 0.2)
movej(p[0.38251109539336, 0.213055406011157, 0.30925269439133, -1.33, 0.73, -0.764], a = 0.2, v = 0.2, t = 0.2)
movej(p[0.382509914747971, 0.213053977538823, 0.309270297105417, -1.33, 0.73, -0.764], a = 0.2, v = 0.2, t = 0.2)
movej(p[0.382508740772895, 0.213052557136953, 0.309287800369143, -1.33, 0.73, -0.764], a = 0.2, v = 0.2, t = 0.2)
movej(p[0.382507560127506, 0.213051128664619, 0.309305403083231, -1.33, 0.73, -0.764], a = 0.2, v = 0.2, t = 0.2)
movej(p[0.382506379482117, 0.213049700192284, 0.309323005797319, -1.33, 0.73, -0.764], a = 0.2, v = 0.2, t = 0.2)
movej(p[0.382505198836728, 0.213048271719949, 0.309340608511406, -1.33, 0.73, -0.764], a = 0.2, v = 0.2, t = 0.2)
movej(p[0.382504024861652, 0.21304685131808, 0.309358111775132, -1.33, 0.73, -0.764], a = 0.2, v = 0.2, t = 0.2)
movej(p[0.382502844216263, 0.213045422845745, 0.30937571448922, -1.33, 0.73, -0.764], a = 0.2, v = 0.2, t = 0.2)
movej(p[0.382483573682203, 0.213022107271876, 0.309663026585262, -1.33, 0.73, -0.764], a = 0.2, v = 0.2, t = 0.2)
movej(p[0.382432759238286, 0.21296062646823, 0.310420639443569, -1.33, 0.73, -0.764], a = 0.2, v = 0.2, t = 0.2)
movej(p[0.382382865297555, 0.212900259388776, 0.31116452815191, -1.33, 0.73, -0.764], a = 0.2, v = 0.2, t = 0.2)
movej(p[0.382353102361252, 0.212864248973199, 0.3116082756675, -1.33, 0.73, -0.764], a = 0.2, v = 0.2, t = 0.2)
movej(p[0.382293696554279, 0.212792373410417, 0.312493980592163, -1.33, 0.73, -0.764], a = 0.2, v = 0.2, t = 0.2)
movej(p[0.382280042423707, 0.212775853168219, 0.312697555483336, -1.33, 0.73, -0.764], a = 0.2, v = 0.2, t = 0.2)
movej(p[0.382269603383969, 0.212763222890232, 0.312853195299988, -1.33, 0.73, -0.764], a = 0.2, v = 0.2, t = 0.2)
movej(p[0.382253254446972, 0.212743442180106, 0.31309694813744, -1.33, 0.73, -0.764], a = 0.2, v = 0.2, t = 0.2)
movej(p[0.382247618032545, 0.212736622637039, 0.313180983693395, -1.33, 0.73, -0.764], a = 0.2, v = 0.2, t = 0.2)
movej(p[0.382240947719613, 0.212728552171872, 0.313280434055473, -1.33, 0.73, -0.764], a = 0.2, v = 0.2, t = 0.2)
movej(p[0.382297418588895, 0.21279687672998, 0.312438487290124, -1.33, 0.73, -0.764], a = 0.2, v = 0.2, t = 0.2)
movej(p[0.382337660586814, 0.212845565846336, 0.31183850325571, -1.33, 0.73, -0.764], a = 0.2, v = 0.2, t = 0.2)
movej(p[0.382376935389358, 0.212893084745242, 0.311252939523797, -1.33, 0.73, -0.764], a = 0.2, v = 0.2, t = 0.2)
movej(p[0.382505592385191, 0.213048747877394, 0.309334740940044, -1.33, 0.73, -0.764], a = 0.2, v = 0.2, t = 0.2)
movej(p[0.382641686779943, 0.213213409578208, 0.307305655202574, -1.33, 0.73, -0.764], a = 0.2, v = 0.2, t = 0.2)
movej(p[0.382710417684395, 0.213296567651294, 0.306280918671727, -1.33, 0.73, -0.764], a = 0.2, v = 0.2, t = 0.2)
movej(p[0.382703747371463, 0.213288497186126, 0.306380369033804, -1.33, 0.73, -0.764], a = 0.2, v = 0.2, t = 0.2)
movej(p[0.382656861741864, 0.213231769886464, 0.307079405628848, -1.33, 0.73, -0.764], a = 0.2, v = 0.2, t = 0.2)
movej(p[0.382622656377148, 0.213190384541085, 0.307589387085582, -1.33, 0.73, -0.764], a = 0.2, v = 0.2, t = 0.2)
movej(p[0.382562930395155, 0.213118121595974, 0.308479865627625, -1.33, 0.73, -0.764], a = 0.2, v = 0.2, t = 0.2)
movej(p[0.382454391063125, 0.212986798986768, 0.310098121919352, -1.33, 0.73, -0.764], a = 0.2, v = 0.2, t = 0.2)
movej(p[0.382427042780104, 0.212953710079581, 0.31050586840387, -1.33, 0.73, -0.764], a = 0.2, v = 0.2, t = 0.2)
movej(p[0.382391770165319, 0.212911033459775, 0.311031761918536, -1.33, 0.73, -0.764], a = 0.2, v = 0.2, t = 0.2)
movej(p[0.382350874476733, 0.212861553437833, 0.311641492088434, -1.33, 0.73, -0.764], a = 0.2, v = 0.2, t = 0.2)
movej(p[0.382319190490305, 0.212823218728287, 0.312113881308303, -1.33, 0.73, -0.764], a = 0.2, v = 0.2, t = 0.2)
movej(p[0.382275886818751, 0.212770825268419, 0.312759513058911, -1.33, 0.73, -0.764], a = 0.2, v = 0.2, t = 0.2)
movej(p[0.38227556664373, 0.212770437886091, 0.31276428667629, -1.33, 0.73, -0.764], a = 0.2, v = 0.2, t = 0.2)
movej(p[0.382269556691778, 0.212763166396975, 0.312853891452522, -1.33, 0.73, -0.764], a = 0.2, v = 0.2, t = 0.2)
movej(p[0.382266081458741, 0.212758961684623, 0.312905705091165, -1.33, 0.73, -0.764], a = 0.2, v = 0.2, t = 0.2)
movej(p[0.382259411145809, 0.212750891219456, 0.313005155453242, -1.33, 0.73, -0.764], a = 0.2, v = 0.2, t = 0.2)
movej(p[0.382280642751871, 0.212776579510084, 0.312688604950749, -1.33, 0.73, -0.764], a = 0.2, v = 0.2, t = 0.2)
movej(p[0.382294230179314, 0.21279301904763, 0.312486024563197, -1.33, 0.73, -0.764], a = 0.2, v = 0.2, t = 0.2)
movej(p[0.382412441465095, 0.212936043831329, 0.310723565246458, -1.33, 0.73, -0.764], a = 0.2, v = 0.2, t = 0.2)
movej(p[0.382544613715844, 0.213095960098624, 0.30875295632189, -1.33, 0.73, -0.764], a = 0.2, v = 0.2, t = 0.2)
movej(p[0.382647083063105, 0.213219938584528, 0.307225199859653, -1.33, 0.73, -0.764], a = 0.2, v = 0.2, t = 0.2)
movej(p[0.382687872026685, 0.213269289479028, 0.306617060895549, -1.33, 0.73, -0.764], a = 0.2, v = 0.2, t = 0.2)
movej(p[0.382681201713753, 0.21326121901386, 0.306716511257627, -1.33, 0.73, -0.764], a = 0.2, v = 0.2, t = 0.2)
movej(p[0.382686611337541, 0.213267764161111, 0.306635857013982, -1.33, 0.73, -0.764], a = 0.2, v = 0.2, t = 0.2)
movej(p[0.382601664902351, 0.213164986787202, 0.30790235737504, -1.33, 0.73, -0.764], a = 0.2, v = 0.2, t = 0.2)
movej(p[0.382547615356663, 0.21309959180795, 0.308708203658955, -1.33, 0.73, -0.764], a = 0.2, v = 0.2, t = 0.2)
movej(p[0.382475589317623, 0.213012446925071, 0.309782068668669, -1.33, 0.73, -0.764], a = 0.2, v = 0.2, t = 0.2)
movej(p[0.382426362408184, 0.212952886892134, 0.310516012340802, -1.33, 0.73, -0.764], a = 0.2, v = 0.2, t = 0.2)
movej(p[0.382388908601071, 0.212907571230218, 0.311074426123867, -1.33, 0.73, -0.764], a = 0.2, v = 0.2, t = 0.2)
movej(p[0.382359605916361, 0.212872117676737, 0.311511311564474, -1.33, 0.73, -0.764], a = 0.2, v = 0.2, t = 0.2)
movej(p[0.38233617310703, 0.212843766132604, 0.311860680686453, -1.33, 0.73, -0.764], a = 0.2, v = 0.2, t = 0.2)
movej(p[0.382286112408476, 0.212783197291521, 0.312607055653846, -1.33, 0.73, -0.764], a = 0.2, v = 0.2, t = 0.2)
movej(p[0.382263793541405, 0.212756193515071, 0.312939816565357, -1.33, 0.73, -0.764], a = 0.2, v = 0.2, t = 0.2)
movej(p[0.382261172108423, 0.21275302182226, 0.312978900557654, -1.33, 0.73, -0.764], a = 0.2, v = 0.2, t = 0.2)
movej(p[0.382254501795491, 0.212744951357092, 0.313078350919731, -1.33, 0.73, -0.764], a = 0.2, v = 0.2, t = 0.2)
movej(p[0.382309398470921, 0.212811371285421, 0.312259874439833, -1.33, 0.73, -0.764], a = 0.2, v = 0.2, t = 0.2)
movej(p[0.38235773822874, 0.21286985794649, 0.311539157665856, -1.33, 0.73, -0.764], a = 0.2, v = 0.2, t = 0.2)
movej(p[0.382425181762796, 0.212951458419799, 0.310533615054889, -1.33, 0.73, -0.764], a = 0.2, v = 0.2, t = 0.2)
movej(p[0.382559922084023, 0.213114481816184, 0.308524717740922, -1.33, 0.73, -0.764], a = 0.2, v = 0.2, t = 0.2)
movej(p[0.382721457052298, 0.213309924271146, 0.306116328322488, -1.33, 0.73, -0.764], a = 0.2, v = 0.2, t = 0.2)
movej(p[0.382877589067098, 0.213498829649323, 0.303788493697337, -1.33, 0.73, -0.764], a = 0.2, v = 0.2, t = 0.2)
movej(p[0.382993118887081, 0.213638610106025, 0.302066013426153, -1.33, 0.73, -0.764], a = 0.2, v = 0.2, t = 0.2)
movej(p[0.382986448574149, 0.213630539640857, 0.302165463788231, -1.33, 0.73, -0.764], a = 0.2, v = 0.2, t = 0.2)
movej(p[0.382841569377265, 0.213455249137418, 0.304325525652557, -1.33, 0.73, -0.764], a = 0.2, v = 0.2, t = 0.2)
movej(p[0.382744703092866, 0.213338049842255, 0.305769743810648, -1.33, 0.73, -0.764], a = 0.2, v = 0.2, t = 0.2)
movej(p[0.382667020628459, 0.213244061204914, 0.306927942727403, -1.33, 0.73, -0.764], a = 0.2, v = 0.2, t = 0.2)
movej(p[0.382617079995537, 0.213183637632204, 0.307672527588279, -1.33, 0.73, -0.764], a = 0.2, v = 0.2, t = 0.2)
movej(p[0.382561756420079, 0.213116701194105, 0.30849736889135, -1.33, 0.73, -0.764], a = 0.2, v = 0.2, t = 0.2)
movej(p[0.382496507418978, 0.213037755903836, 0.309470192333194, -1.33, 0.73, -0.764], a = 0.2, v = 0.2, t = 0.2)
movej(p[0.382476222997351, 0.213013213619261, 0.309772620884272, -1.33, 0.73, -0.764], a = 0.2, v = 0.2, t = 0.2)
movej(p[0.382438929277748, 0.21296809164851, 0.310328647858647, -1.33, 0.73, -0.764], a = 0.2, v = 0.2, t = 0.2)
movej(p[0.382405657756843, 0.212927836168254, 0.310824706264691, -1.33, 0.73, -0.764], a = 0.2, v = 0.2, t = 0.2)
movej(p[0.382381751355295, 0.212898911621093, 0.311181136362377, -1.33, 0.73, -0.764], a = 0.2, v = 0.2, t = 0.2)
movej(p[0.382350661026719, 0.212861295182948, 0.31164467450002, -1.33, 0.73, -0.764], a = 0.2, v = 0.2, t = 0.2)
movej(p[0.382343990713787, 0.21285322471778, 0.311744124862098, -1.33, 0.73, -0.764], a = 0.2, v = 0.2, t = 0.2)
movej(p[0.382368270652859, 0.21288260121099, 0.311382125544136, -1.33, 0.73, -0.764], a = 0.2, v = 0.2, t = 0.2)
movej(p[0.382374614120458, 0.212890276223364, 0.3112875482498, -1.33, 0.73, -0.764], a = 0.2, v = 0.2, t = 0.2)
movej(p[0.382380957588056, 0.212897951235739, 0.311192970955464, -1.33, 0.73, -0.764], a = 0.2, v = 0.2, t = 0.2)
movej(p[0.382445092646898, 0.212975548758324, 0.310236755724088, -1.33, 0.73, -0.764], a = 0.2, v = 0.2, t = 0.2)
movej(p[0.382438422333966, 0.212967478293157, 0.310336206086165, -1.33, 0.73, -0.764], a = 0.2, v = 0.2, t = 0.2)
movej(p[0.382445025943768, 0.212975468053673, 0.310237750227709, -1.33, 0.73, -0.764], a = 0.2, v = 0.2, t = 0.2)
movej(p[0.382400434901818, 0.212921516994028, 0.310902575898197, -1.33, 0.73, -0.764], a = 0.2, v = 0.2, t = 0.2)
movej(p[0.382309205031846, 0.212811137241931, 0.312262758500333, -1.33, 0.73, -0.764], a = 0.2, v = 0.2, t = 0.2)
movej(p[0.382256996492527, 0.212747969711065, 0.313041156484314, -1.33, 0.73, -0.764], a = 0.2, v = 0.2, t = 0.2)
movej(p[0.382250326179595, 0.212739899245897, 0.313140606846392, -1.33, 0.73, -0.764], a = 0.2, v = 0.2, t = 0.2)
movej(p[0.382267895783858, 0.212761156851149, 0.312878654592679, -1.33, 0.73, -0.764], a = 0.2, v = 0.2, t = 0.2)
movej(p[0.382412728288551, 0.212936390861332, 0.310719288880888, -1.33, 0.73, -0.764], a = 0.2, v = 0.2, t = 0.2)
movej(p[0.382535875605903, 0.213085387789255, 0.308883236296211, -1.33, 0.73, -0.764], a = 0.2, v = 0.2, t = 0.2)
movej(p[0.382654433747957, 0.213228832237143, 0.307115605560644, -1.33, 0.73, -0.764], a = 0.2, v = 0.2, t = 0.2)
movej(p[0.382887481141176, 0.213510798149166, 0.303641008810376, -1.33, 0.73, -0.764], a = 0.2, v = 0.2, t = 0.2)
movej(p[0.383063377293194, 0.213723616315635, 0.30101850276239, -1.33, 0.73, -0.764], a = 0.2, v = 0.2, t = 0.2)
movej(p[0.383056706980262, 0.213715545850467, 0.301117953124467, -1.33, 0.73, -0.764], a = 0.2, v = 0.2, t = 0.2)
movej(p[0.383006592919203, 0.213654912445663, 0.301865123694756, -1.33, 0.73, -0.764], a = 0.2, v = 0.2, t = 0.2)
movej(p[0.382840942367849, 0.213454490513693, 0.304334873986592, -1.33, 0.73, -0.764], a = 0.2, v = 0.2, t = 0.2)
movej(p[0.382748812005632, 0.213343021248798, 0.305708482387608, -1.33, 0.73, -0.764], a = 0.2, v = 0.2, t = 0.2)
movej(p[0.382661984542196, 0.213237968003712, 0.307003027750772, -1.33, 0.73, -0.764], a = 0.2, v = 0.2, t = 0.2)
movej(p[0.382592986825227, 0.213154487112019, 0.308031742296103, -1.33, 0.73, -0.764], a = 0.2, v = 0.2, t = 0.2)
movej(p[0.382501383417731, 0.213043655413873, 0.309397494118515, -1.33, 0.73, -0.764], a = 0.2, v = 0.2, t = 0.2)
movej(p[0.382412468146347, 0.21293607611319, 0.310723167445009, -1.33, 0.73, -0.764], a = 0.2, v = 0.2, t = 0.2)
movej(p[0.382383438944467, 0.212900953448781, 0.311155975420771, -1.33, 0.73, -0.764], a = 0.2, v = 0.2, t = 0.2)
movej(p[0.382333031389639, 0.21283996494351, 0.311907521806992, -1.33, 0.73, -0.764], a = 0.2, v = 0.2, t = 0.2)
movej(p[0.382313447350871, 0.212816270057778, 0.312199508070051, -1.33, 0.73, -0.764], a = 0.2, v = 0.2, t = 0.2)
movej(p[0.382299379660897, 0.212799249446739, 0.312409248883673, -1.33, 0.73, -0.764], a = 0.2, v = 0.2, t = 0.2)
movej(p[0.38225650288937, 0.212747372496642, 0.313048515811108, -1.33, 0.73, -0.764], a = 0.2, v = 0.2, t = 0.2)
movej(p[0.382249832576438, 0.212739302031475, 0.313147966173186, -1.33, 0.73, -0.764], a = 0.2, v = 0.2, t = 0.2)
movej(p[0.382276060246887, 0.212771035100514, 0.312756927349497, -1.33, 0.73, -0.764], a = 0.2, v = 0.2, t = 0.2)
movej(p[0.382348313076567, 0.212858454379209, 0.311679681027472, -1.33, 0.73, -0.764], a = 0.2, v = 0.2, t = 0.2)
movej(p[0.382439169409014, 0.212968382185256, 0.310325067645613, -1.33, 0.73, -0.764], a = 0.2, v = 0.2, t = 0.2)
movej(p[0.382499749191063, 0.213041678149907, 0.309421859457224, -1.33, 0.73, -0.764], a = 0.2, v = 0.2, t = 0.2)
movej(p[0.38265159886496, 0.213225402289447, 0.307157871964527, -1.33, 0.73, -0.764], a = 0.2, v = 0.2, t = 0.2)
movej(p[0.382809952093967, 0.213416995132524, 0.304796920368804, -1.33, 0.73, -0.764], a = 0.2, v = 0.2, t = 0.2)
movej(p[0.382987289033578, 0.213631556519468, 0.302152933042609, -1.33, 0.73, -0.764], a = 0.2, v = 0.2, t = 0.2)
movej(p[0.382980618720646, 0.213623486054301, 0.302252383404687, -1.33, 0.73, -0.764], a = 0.2, v = 0.2, t = 0.2)
movej(p[0.38290691843306, 0.213534315484665, 0.303351210455282, -1.33, 0.73, -0.764], a = 0.2, v = 0.2, t = 0.2)
movej(p[0.3827377059346, 0.213329583924294, 0.305874067240467, -1.33, 0.73, -0.764], a = 0.2, v = 0.2, t = 0.2)
movej(p[0.382671022816219, 0.213248903484014, 0.306868272510157, -1.33, 0.73, -0.764], a = 0.2, v = 0.2, t = 0.2)
movej(p[0.382577718478925, 0.213136013817251, 0.308259384174899, -1.33, 0.73, -0.764], a = 0.2, v = 0.2, t = 0.2)
movej(p[0.382494999928255, 0.213035931978708, 0.309492668115023, -1.33, 0.73, -0.764], a = 0.2, v = 0.2, t = 0.2)
movej(p[0.382400228122117, 0.212921266809608, 0.310905658859422, -1.33, 0.73, -0.764], a = 0.2, v = 0.2, t = 0.2)
movej(p[0.382325540628217, 0.212830901811127, 0.312019204563605, -1.33, 0.73, -0.764], a = 0.2, v = 0.2, t = 0.2)
movej(p[0.38229069491346, 0.212788741701091, 0.312538733255098, -1.33, 0.73, -0.764], a = 0.2, v = 0.2, t = 0.2)
movej(p[0.382271811257549, 0.212765894214202, 0.31282027723014, -1.33, 0.73, -0.764], a = 0.2, v = 0.2, t = 0.2)
movej(p[0.382259464508312, 0.212750955783177, 0.313004359850346, -1.33, 0.73, -0.764], a = 0.2, v = 0.2, t = 0.2)
movej(p[0.382248878721689, 0.212738147954956, 0.313162187574963, -1.33, 0.73, -0.764], a = 0.2, v = 0.2, t = 0.2)
movej(p[0.382242041650934, 0.212729875728159, 0.313264124196092, -1.33, 0.73, -0.764], a = 0.2, v = 0.2, t = 0.2)
movej(p[0.382235371338002, 0.212721805262992, 0.31336357455817, -1.33, 0.73, -0.764], a = 0.2, v = 0.2, t = 0.2)
movej(p[0.382323172667126, 0.212828036795992, 0.312054509442142, -1.33, 0.73, -0.764], a = 0.2, v = 0.2, t = 0.2)
movej(p[0.382398447148564, 0.212919111995408, 0.310932212106096, -1.33, 0.73, -0.764], a = 0.2, v = 0.2, t = 0.2)
movej(p[0.382492004957749, 0.213032308339848, 0.309537321327596, -1.33, 0.73, -0.764], a = 0.2, v = 0.2, t = 0.2)
movej(p[0.382510841921469, 0.213055099333481, 0.309256473505089, -1.33, 0.73, -0.764], a = 0.2, v = 0.2, t = 0.2)
movej(p[0.382582874630822, 0.213142252286825, 0.308182509045013, -1.33, 0.73, -0.764], a = 0.2, v = 0.2, t = 0.2)
movej(p[0.382738372965893, 0.213330390970811, 0.305864122204259, -1.33, 0.73, -0.764], a = 0.2, v = 0.2, t = 0.2)
movej(p[0.382962575524165, 0.213601655446023, 0.302521396634107, -1.33, 0.73, -0.764], a = 0.2, v = 0.2, t = 0.2)
movej(p[0.382955905211233, 0.213593584980855, 0.302620846996184, -1.33, 0.73, -0.764], a = 0.2, v = 0.2, t = 0.2)
movej(p[0.382855803825062, 0.213472471510086, 0.304113298579883, -1.33, 0.73, -0.764], a = 0.2, v = 0.2, t = 0.2)
movej(p[0.382684563551471, 0.213265286528305, 0.306666388275139, -1.33, 0.73, -0.764], a = 0.2, v = 0.2, t = 0.2)
movej(p[0.382640339376731, 0.213211779344244, 0.307325744175714, -1.33, 0.73, -0.764], a = 0.2, v = 0.2, t = 0.2)
movej(p[0.38257454340997, 0.213132172275831, 0.308306722547248, -1.33, 0.73, -0.764], a = 0.2, v = 0.2, t = 0.2)
movej(p[0.382519813492362, 0.213065954109131, 0.309122712768094, -1.33, 0.73, -0.764], a = 0.2, v = 0.2, t = 0.2)
movej(p[0.382454297678744, 0.212986686000256, 0.310099514224421, -1.33, 0.73, -0.764], a = 0.2, v = 0.2, t = 0.2)
movej(p[0.382380343919266, 0.212897208752943, 0.311202120388775, -1.33, 0.73, -0.764], a = 0.2, v = 0.2, t = 0.2)
movej(p[0.382365635879251, 0.212879413377249, 0.311421408437156, -1.33, 0.73, -0.764], a = 0.2, v = 0.2, t = 0.2)
movej(p[0.382345858401408, 0.212855484448027, 0.311716278760716, -1.33, 0.73, -0.764], a = 0.2, v = 0.2, t = 0.2)
movej(p[0.382323192678065, 0.212828061007388, 0.312054211091056, -1.33, 0.73, -0.764], a = 0.2, v = 0.2, t = 0.2)
movej(p[0.382297025040432, 0.212796400572535, 0.312444354861487, -1.33, 0.73, -0.764], a = 0.2, v = 0.2, t = 0.2)
movej(p[0.382256576262813, 0.212747461271759, 0.313047421857125, -1.33, 0.73, -0.764], a = 0.2, v = 0.2, t = 0.2)
movej(p[0.38224990594988, 0.212739390806592, 0.313146872219203, -1.33, 0.73, -0.764], a = 0.2, v = 0.2, t = 0.2)
movej(p[0.382257209942541, 0.21274822796595, 0.313037974072728, -1.33, 0.73, -0.764], a = 0.2, v = 0.2, t = 0.2)
movej(p[0.382284084633344, 0.21278074387011, 0.312637288563917, -1.33, 0.73, -0.764], a = 0.2, v = 0.2, t = 0.2)
movej(p[0.382306150028523, 0.212807440968884, 0.312308306766164, -1.33, 0.73, -0.764], a = 0.2, v = 0.2, t = 0.2)
movej(p[0.382358345227217, 0.212870592358821, 0.311530107682907, -1.33, 0.73, -0.764], a = 0.2, v = 0.2, t = 0.2)
movej(p[0.382455738466337, 0.212988429220732, 0.310078032946212, -1.33, 0.73, -0.764], a = 0.2, v = 0.2, t = 0.2)
movej(p[0.382618987705036, 0.213185945785242, 0.307644084784724, -1.33, 0.73, -0.764], a = 0.2, v = 0.2, t = 0.2)
movej(p[0.382758684068771, 0.213354965537246, 0.305561295851733, -1.33, 0.73, -0.764], a = 0.2, v = 0.2, t = 0.2)
movej(p[0.382839614975576, 0.213452884491124, 0.304354664608645, -1.33, 0.73, -0.764], a = 0.2, v = 0.2, t = 0.2)
movej(p[0.382832944662644, 0.213444814025957, 0.304454114970723, -1.33, 0.73, -0.764], a = 0.2, v = 0.2, t = 0.2)
movej(p[0.382707736218596, 0.213293323324297, 0.306320897717282, -1.33, 0.73, -0.764], a = 0.2, v = 0.2, t = 0.2)
movej(p[0.382634756324807, 0.213205024364898, 0.307408984128773, -1.33, 0.73, -0.764], a = 0.2, v = 0.2, t = 0.2)
movej(p[0.382573409456771, 0.213130800296753, 0.308323629108801, -1.33, 0.73, -0.764], a = 0.2, v = 0.2, t = 0.2)
movej(p[0.382503024314712, 0.213045640748305, 0.309373029329444, -1.33, 0.73, -0.764], a = 0.2, v = 0.2, t = 0.2)
movej(p[0.382455451642881, 0.21298808219073, 0.310082309311781, -1.33, 0.73, -0.764], a = 0.2, v = 0.2, t = 0.2)
movej(p[0.382382418386588, 0.21289971866761, 0.311171191326169, -1.33, 0.73, -0.764], a = 0.2, v = 0.2, t = 0.2)
movej(p[0.382345631610768, 0.212855210052211, 0.311719660073027, -1.33, 0.73, -0.764], a = 0.2, v = 0.2, t = 0.2)
movej(p[0.382329509464411, 0.212835703737901, 0.311960031598169, -1.33, 0.73, -0.764], a = 0.2, v = 0.2, t = 0.2)
movej(p[0.382302608092356, 0.212803155551881, 0.312361114908428, -1.33, 0.73, -0.764], a = 0.2, v = 0.2, t = 0.2)
movej(p[0.382281469870675, 0.212777580247765, 0.312676273105852, -1.33, 0.73, -0.764], a = 0.2, v = 0.2, t = 0.2)
movej(p[0.382263480036697, 0.212755814203208, 0.312944490732375, -1.33, 0.73, -0.764], a = 0.2, v = 0.2, t = 0.2)
movej(p[0.382228367509423, 0.212713331274566, 0.313467997438351, -1.33, 0.73, -0.764], a = 0.2, v = 0.2, t = 0.2)
movej(p[0.382224852254508, 0.212709078139422, 0.313520407779166, -1.33, 0.73, -0.764], a = 0.2, v = 0.2, t = 0.2)
movej(p[0.382218181941576, 0.212701007674255, 0.313619858141244, -1.33, 0.73, -0.764], a = 0.2, v = 0.2, t = 0.2)
movej(p[0.382244162810446, 0.212732442136082, 0.313232498980952, -1.33, 0.73, -0.764], a = 0.2, v = 0.2, t = 0.2)
movej(p[0.382333104763082, 0.212840053718627, 0.311906427853009, -1.33, 0.73, -0.764], a = 0.2, v = 0.2, t = 0.2)
movej(p[0.382419578699933, 0.212944679229059, 0.310617153359035, -1.33, 0.73, -0.764], a = 0.2, v = 0.2, t = 0.2)
movej(p[0.382517125356251, 0.213062701711669, 0.309162791264012, -1.33, 0.73, -0.764], a = 0.2, v = 0.2, t = 0.2)
movej(p[0.38263631050772, 0.213206904783283, 0.307385812194409, -1.33, 0.73, -0.764], a = 0.2, v = 0.2, t = 0.2)
movej(p[0.382766975267746, 0.21336499712545, 0.30543767905167, -1.33, 0.73, -0.764], a = 0.2, v = 0.2, t = 0.2)
movej(p[0.382777974613771, 0.213378305322511, 0.305273685404604, -1.33, 0.73, -0.764], a = 0.2, v = 0.2, t = 0.2)
movej(p[0.382771304300839, 0.213370234857343, 0.305373135766682, -1.33, 0.73, -0.764], a = 0.2, v = 0.2, t = 0.2)
movej(p[0.382653586618214, 0.213227807288066, 0.307128235756628, -1.33, 0.73, -0.764], a = 0.2, v = 0.2, t = 0.2)
movej(p[0.38260195839612, 0.21316534188767, 0.307897981559109, -1.33, 0.73, -0.764], a = 0.2, v = 0.2, t = 0.2)
movej(p[0.382548422464528, 0.213100568334235, 0.308696170165143, -1.33, 0.73, -0.764], a = 0.2, v = 0.2, t = 0.2)
movej(p[0.382494706434486, 0.213035576878241, 0.309497043930954, -1.33, 0.73, -0.764], a = 0.2, v = 0.2, t = 0.2)
movej(p[0.38244145732635, 0.212971150354808, 0.31029095617142, -1.33, 0.73, -0.764], a = 0.2, v = 0.2, t = 0.2)
movej(p[0.382375161086118, 0.212890938001508, 0.311279393320109, -1.33, 0.73, -0.764], a = 0.2, v = 0.2, t = 0.2)
movej(p[0.382358985577258, 0.212871367123477, 0.311520560448148, -1.33, 0.73, -0.764], a = 0.2, v = 0.2, t = 0.2)
movej(p[0.382329209300329, 0.212835340566969, 0.311964506864462, -1.33, 0.73, -0.764], a = 0.2, v = 0.2, t = 0.2)
movej(p[0.382311412905427, 0.212813808565902, 0.312229840430485, -1.33, 0.73, -0.764], a = 0.2, v = 0.2, t = 0.2)
movej(p[0.382302154511077, 0.212802606760249, 0.312367877533049, -1.33, 0.73, -0.764], a = 0.2, v = 0.2, t = 0.2)
movej(p[0.382280609400307, 0.212776539157758, 0.31268910220256, -1.33, 0.73, -0.764], a = 0.2, v = 0.2, t = 0.2)
movej(p[0.382262072600668, 0.212754111335057, 0.312965474758773, -1.33, 0.73, -0.764], a = 0.2, v = 0.2, t = 0.2)
movej(p[0.382255402287736, 0.21274604086989, 0.313064925120851, -1.33, 0.73, -0.764], a = 0.2, v = 0.2, t = 0.2)
movej(p[0.382317029308916, 0.212820603897573, 0.312146103225616, -1.33, 0.73, -0.764], a = 0.2, v = 0.2, t = 0.2)
movej(p[0.38239896076266, 0.212919733421226, 0.310924554428216, -1.33, 0.73, -0.764], a = 0.2, v = 0.2, t = 0.2)
movej(p[0.382480572041383, 0.213018475562551, 0.309707779248197, -1.33, 0.73, -0.764], a = 0.2, v = 0.2, t = 0.2)
movej(p[0.382540304693689, 0.213090746578126, 0.308817201255792, -1.33, 0.73, -0.764], a = 0.2, v = 0.2, t = 0.2)
movej(p[0.382659263054519, 0.213234675253924, 0.3070436034985, -1.33, 0.73, -0.764], a = 0.2, v = 0.2, t = 0.2)
movej(p[0.382789874452041, 0.21339270303237, 0.305096265958658, -1.33, 0.73, -0.764], a = 0.2, v = 0.2, t = 0.2)
movej(p[0.382783204139109, 0.213384632567202, 0.305195716320736, -1.33, 0.73, -0.764], a = 0.2, v = 0.2, t = 0.2)
movej(p[0.382773859030692, 0.213373325845503, 0.305335046278006, -1.33, 0.73, -0.764], a = 0.2, v = 0.2, t = 0.2)
movej(p[0.382658015706001, 0.213233166076938, 0.307062200716208, -1.33, 0.73, -0.764], a = 0.2, v = 0.2, t = 0.2)
movej(p[0.382569774136223, 0.213126401893236, 0.308377829556133, -1.33, 0.73, -0.764], a = 0.2, v = 0.2, t = 0.2)
movej(p[0.382495526882977, 0.213036569545456, 0.309484811536419, -1.33, 0.73, -0.764], a = 0.2, v = 0.2, t = 0.2)
movej(p[0.382448067606465, 0.212979148185789, 0.310192400862601, -1.33, 0.73, -0.764], a = 0.2, v = 0.2, t = 0.2)
movej(p[0.382396932987528, 0.212917279999815, 0.310954787338288, -1.33, 0.73, -0.764], a = 0.2, v = 0.2, t = 0.2)
movej(p[0.382365008869836, 0.212878654753523, 0.311430756771192, -1.33, 0.73, -0.764], a = 0.2, v = 0.2, t = 0.2)
movej(p[0.382298465828026, 0.212798143793011, 0.312422873583278, -1.33, 0.73, -0.764], a = 0.2, v = 0.2, t = 0.2)
movej(p[0.382282403714485, 0.212778710112888, 0.312662350055161, -1.33, 0.73, -0.764], a = 0.2, v = 0.2, t = 0.2)
movej(p[0.382267789058851, 0.212761027723706, 0.312880245798473, -1.33, 0.73, -0.764], a = 0.2, v = 0.2, t = 0.2)
movej(p[0.382261045372477, 0.212752868483422, 0.312980790114533, -1.33, 0.73, -0.764], a = 0.2, v = 0.2, t = 0.2)
movej(p[0.382255248870539, 0.212745855249191, 0.313067212479179, -1.33, 0.73, -0.764], a = 0.2, v = 0.2, t = 0.2)
movej(p[0.382248578557607, 0.212737784784023, 0.313166662841256, -1.33, 0.73, -0.764], a = 0.2, v = 0.2, t = 0.2)
movej(p[0.382277147507895, 0.212772350586336, 0.312740716940478, -1.33, 0.73, -0.764], a = 0.2, v = 0.2, t = 0.2)
movej(p[0.382386707397804, 0.212904907976713, 0.311107244743353, -1.33, 0.73, -0.764], a = 0.2, v = 0.2, t = 0.2)
movej(p[0.382512129291865, 0.213056656933258, 0.309237279585208, -1.33, 0.73, -0.764], a = 0.2, v = 0.2, t = 0.2)
movej(p[0.382625291150757, 0.213193572374826, 0.307550104192561, -1.33, 0.73, -0.764], a = 0.2, v = 0.2, t = 0.2)
movej(p[0.382747364547726, 0.213341269957857, 0.305730063116179, -1.33, 0.73, -0.764], a = 0.2, v = 0.2, t = 0.2)
movej(p[0.382740694234794, 0.213333199492689, 0.305829513478256, -1.33, 0.73, -0.764], a = 0.2, v = 0.2, t = 0.2)
movej(p[0.382746023814826, 0.213339647794358, 0.305750052638956, -1.33, 0.73, -0.764], a = 0.2, v = 0.2, t = 0.2)
movej(p[0.382662464804727, 0.213238549077204, 0.306995867324703, -1.33, 0.73, -0.764], a = 0.2, v = 0.2, t = 0.2)
movej(p[0.382598603228715, 0.21316128244369, 0.307948005091234, -1.33, 0.73, -0.764], a = 0.2, v = 0.2, t = 0.2)
movej(p[0.382544980583055, 0.213096403974208, 0.308747486551975, -1.33, 0.73, -0.764], a = 0.2, v = 0.2, t = 0.2)
movej(p[0.382474962308207, 0.213011688301345, 0.309791417002704, -1.33, 0.73, -0.764], a = 0.2, v = 0.2, t = 0.2)
movej(p[0.38242366760176, 0.212949626424206, 0.310556190287081, -1.33, 0.73, -0.764], a = 0.2, v = 0.2, t = 0.2)
movej(p[0.38240444375989, 0.212926367343593, 0.310842806230589, -1.33, 0.73, -0.764], a = 0.2, v = 0.2, t = 0.2)
movej(p[0.38237541455801, 0.212891244679184, 0.31127561420635, -1.33, 0.73, -0.764], a = 0.2, v = 0.2, t = 0.2)
movej(p[0.382342483223064, 0.212851400792652, 0.311766600643928, -1.33, 0.73, -0.764], a = 0.2, v = 0.2, t = 0.2)
movej(p[0.382297698742038, 0.212797215689517, 0.312434310374917, -1.33, 0.73, -0.764], a = 0.2, v = 0.2, t = 0.2)
movej(p[0.382272464948217, 0.212766685119788, 0.312810531094656, -1.33, 0.73, -0.764], a = 0.2, v = 0.2, t = 0.2)
movej(p[0.382268569485464, 0.212761971968131, 0.31286861010611, -1.33, 0.73, -0.764], a = 0.2, v = 0.2, t = 0.2)
movej(p[0.382268135915124, 0.212761447387895, 0.312875074379645, -1.33, 0.73, -0.764], a = 0.2, v = 0.2, t = 0.2)
movej(p[0.382261465602192, 0.212753376922727, 0.312974524741722, -1.33, 0.73, -0.764], a = 0.2, v = 0.2, t = 0.2)
movej(p[0.382333631717803, 0.212840691285375, 0.311898571274405, -1.33, 0.73, -0.764], a = 0.2, v = 0.2, t = 0.2)
movej(p[0.382408779463296, 0.212931613145952, 0.310778163495238, -1.33, 0.73, -0.764], a = 0.2, v = 0.2, t = 0.2)
movej(p[0.382514010320111, 0.213058932804436, 0.309209234583102, -1.33, 0.73, -0.764], a = 0.2, v = 0.2, t = 0.2)
movej(p[0.382645482188002, 0.213218001672888, 0.307249067946552, -1.33, 0.73, -0.764], a = 0.2, v = 0.2, t = 0.2)
movej(p[0.382759511187575, 0.213355966274927, 0.305548964006835, -1.33, 0.73, -0.764], a = 0.2, v = 0.2, t = 0.2)
movej(p[0.382807757561012, 0.213414339949484, 0.304829639537928, -1.33, 0.73, -0.764], a = 0.2, v = 0.2, t = 0.2)
movej(p[0.38280108724808, 0.213406269484316, 0.304929089900006, -1.33, 0.73, -0.764], a = 0.2, v = 0.2, t = 0.2)
movej(p[0.38274939899317, 0.213343731449733, 0.305699730755745, -1.33, 0.73, -0.764], a = 0.2, v = 0.2, t = 0.2)
movej(p[0.382650184758619, 0.213223691350831, 0.307178955441287, -1.33, 0.73, -0.764], a = 0.2, v = 0.2, t = 0.2)
movej(p[0.382573416127084, 0.213130808367218, 0.308323529658439, -1.33, 0.73, -0.764], a = 0.2, v = 0.2, t = 0.2)
movej(p[0.382508407257249, 0.213052153613695, 0.309292772887247, -1.33, 0.73, -0.764], a = 0.2, v = 0.2, t = 0.2)
movej(p[0.38246438986221, 0.212998896614054, 0.309949045826597, -1.33, 0.73, -0.764], a = 0.2, v = 0.2, t = 0.2)
movej(p[0.38238460624923, 0.212902365780185, 0.311138571607408, -1.33, 0.73, -0.764], a = 0.2, v = 0.2, t = 0.2)
movej(p[0.382363528060365, 0.212876863110256, 0.311452834751573, -1.33, 0.73, -0.764], a = 0.2, v = 0.2, t = 0.2)
movej(p[0.382323032590554, 0.212827867316224, 0.312056597899746, -1.33, 0.73, -0.764], a = 0.2, v = 0.2, t = 0.2)
movej(p[0.382309451833425, 0.212811435849142, 0.312259078836936, -1.33, 0.73, -0.764], a = 0.2, v = 0.2, t = 0.2)
movej(p[0.382285632145944, 0.212782616218029, 0.312614216079915, -1.33, 0.73, -0.764], a = 0.2, v = 0.2, t = 0.2)
movej(p[0.382254361718919, 0.212744781877324, 0.313080439377335, -1.33, 0.73, -0.764], a = 0.2, v = 0.2, t = 0.2)
movej(p[0.382247691405987, 0.212736711412156, 0.313179889739413, -1.33, 0.73, -0.764], a = 0.2, v = 0.2, t = 0.2)
movej(p[0.382282036847274, 0.212778266237304, 0.312667819825075, -1.33, 0.73, -0.764], a = 0.2, v = 0.2, t = 0.2)
movej(p[0.382358585358482, 0.212870882895567, 0.311526527469872, -1.33, 0.73, -0.764], a = 0.2, v = 0.2, t = 0.2)
movej(p[0.382442084335765, 0.212971908978534, 0.310281607837385, -1.33, 0.73, -0.764], a = 0.2, v = 0.2, t = 0.2)
movej(p[0.382544293540823, 0.213095572716296, 0.308757729939269, -1.33, 0.73, -0.764], a = 0.2, v = 0.2, t = 0.2)
movej(p[0.382638771853192, 0.213209882784929, 0.307349115010802, -1.33, 0.73, -0.764], a = 0.2, v = 0.2, t = 0.2)
movej(p[0.382787086261236, 0.21338932957793, 0.305137836210007, -1.33, 0.73, -0.764], a = 0.2, v = 0.2, t = 0.2)
movej(p[0.382895292077619, 0.213520248663878, 0.303524552436383, -1.33, 0.73, -0.764], a = 0.2, v = 0.2, t = 0.2)
movej(p[0.382888621764687, 0.21351217819871, 0.303624002798461, -1.33, 0.73, -0.764], a = 0.2, v = 0.2, t = 0.2)
movej(p[0.382826387745031, 0.213436880758697, 0.304551874676645, -1.33, 0.73, -0.764], a = 0.2, v = 0.2, t = 0.2)
movej(p[0.382709043599931, 0.213294905135469, 0.306301405446315, -1.33, 0.73, -0.764], a = 0.2, v = 0.2, t = 0.2)
movej(p[0.382629059877563, 0.213198132187645, 0.307493914737987, -1.33, 0.73, -0.764], a = 0.2, v = 0.2, t = 0.2)
movej(p[0.382565218312491, 0.213120889765527, 0.308445754153432, -1.33, 0.73, -0.764], a = 0.2, v = 0.2, t = 0.2)
movej(p[0.382504765266388, 0.213047747139713, 0.309347072784941, -1.33, 0.73, -0.764], a = 0.2, v = 0.2, t = 0.2)
movej(p[0.38246671113111, 0.213001705135933, 0.309914437100594, -1.33, 0.73, -0.764], a = 0.2, v = 0.2, t = 0.2)
movej(p[0.382424921620591, 0.212951143671658, 0.31053749361901, -1.33, 0.73, -0.764], a = 0.2, v = 0.2, t = 0.2)
movej(p[0.382332437731788, 0.21283924667211, 0.311916372889217, -1.33, 0.73, -0.764], a = 0.2, v = 0.2, t = 0.2)
movej(p[0.382317329472997, 0.212820967068505, 0.312141627959322, -1.33, 0.73, -0.764], a = 0.2, v = 0.2, t = 0.2)
movej(p[0.382301460798532, 0.212801767431872, 0.312378220370705, -1.33, 0.73, -0.764], a = 0.2, v = 0.2, t = 0.2)
movej(p[0.382277861231379, 0.212773214126109, 0.312730075751736, -1.33, 0.73, -0.764], a = 0.2, v = 0.2, t = 0.2)
movej(p[0.382267088675993, 0.212760180324863, 0.312890688086491, -1.33, 0.73, -0.764], a = 0.2, v = 0.2, t = 0.2)
movej(p[0.382260418363061, 0.212752109859696, 0.312990138448568, -1.33, 0.73, -0.764], a = 0.2, v = 0.2, t = 0.2)
movej(p[0.382274385998341, 0.212769009413757, 0.312781889390378, -1.33, 0.73, -0.764], a = 0.2, v = 0.2, t = 0.2)
movej(p[0.382343123573106, 0.212852175557308, 0.311757053409168, -1.33, 0.73, -0.764], a = 0.2, v = 0.2, t = 0.2)
movej(p[0.382424901609652, 0.212951119460262, 0.310537791970097, -1.33, 0.73, -0.764], a = 0.2, v = 0.2, t = 0.2)
movej(p[0.382527317594411, 0.213075033382445, 0.309010831110757, -1.33, 0.73, -0.764], a = 0.2, v = 0.2, t = 0.2)
movej(p[0.382654527132338, 0.213228945223655, 0.307114213255575, -1.33, 0.73, -0.764], a = 0.2, v = 0.2, t = 0.2)
movej(p[0.38278900731136, 0.213391653871898, 0.305109194505728, -1.33, 0.73, -0.764], a = 0.2, v = 0.2, t = 0.2)
movej(p[0.382849540401219, 0.213464893343293, 0.304206682469874, -1.33, 0.73, -0.764], a = 0.2, v = 0.2, t = 0.2)
movej(p[0.382842870088286, 0.213456822878126, 0.304306132831951, -1.33, 0.73, -0.764], a = 0.2, v = 0.2, t = 0.2)
movej(p[0.382763193200313, 0.2133604211717, 0.305494067406968, -1.33, 0.73, -0.764], a = 0.2, v = 0.2, t = 0.2)
movej(p[0.382684750320233, 0.213265512501329, 0.306663603665001, -1.33, 0.73, -0.764], a = 0.2, v = 0.2, t = 0.2)
movej(p[0.382594007383105, 0.21315572189319, 0.308016526390705, -1.33, 0.73, -0.764], a = 0.2, v = 0.2, t = 0.2)
movej(p[0.382564244446803, 0.213119711477612, 0.308460273906295, -1.33, 0.73, -0.764], a = 0.2, v = 0.2, t = 0.2)
movej(p[0.38251951332828, 0.213065590938199, 0.309127188034388, -1.33, 0.73, -0.764], a = 0.2, v = 0.2, t = 0.2)
movej(p[0.382480071767913, 0.213017870277663, 0.309715238025353, -1.33, 0.73, -0.764], a = 0.2, v = 0.2, t = 0.2)
movej(p[0.382435540758779, 0.212963991852205, 0.310379168642583, -1.33, 0.73, -0.764], a = 0.2, v = 0.2, t = 0.2)
movej(p[0.38237186595153, 0.212886951191715, 0.311328521798976, -1.33, 0.73, -0.764], a = 0.2, v = 0.2, t = 0.2)
movej(p[0.382356477539596, 0.212868332628574, 0.311557953784289, -1.33, 0.73, -0.764], a = 0.2, v = 0.2, t = 0.2)
movej(p[0.382334805692879, 0.212842111687244, 0.311881068010679, -1.33, 0.73, -0.764], a = 0.2, v = 0.2, t = 0.2)
movej(p[0.382313060472721, 0.212815801970798, 0.312205276191052, -1.33, 0.73, -0.764], a = 0.2, v = 0.2, t = 0.2)
movej(p[0.382272891848244, 0.212767201629559, 0.312804166271483, -1.33, 0.73, -0.764], a = 0.2, v = 0.2, t = 0.2)
movej(p[0.382265427768073, 0.212758170779037, 0.312915451226648, -1.33, 0.73, -0.764], a = 0.2, v = 0.2, t = 0.2)
movej(p[0.382258757455141, 0.212750100313869, 0.313014901588726, -1.33, 0.73, -0.764], a = 0.2, v = 0.2, t = 0.2)
movej(p[0.382303081684575, 0.212803728554907, 0.31235405393272, -1.33, 0.73, -0.764], a = 0.2, v = 0.2, t = 0.2)
movej(p[0.38237935004264, 0.212896006253633, 0.311216938492725, -1.33, 0.73, -0.764], a = 0.2, v = 0.2, t = 0.2)
movej(p[0.382457192594556, 0.212990188582138, 0.310056352767279, -1.33, 0.73, -0.764], a = 0.2, v = 0.2, t = 0.2)
movej(p[0.38256933389557, 0.213125869242535, 0.30838439328003, -1.33, 0.73, -0.764], a = 0.2, v = 0.2, t = 0.2)
movej(p[0.382665439764294, 0.213242148504669, 0.306951512463216, -1.33, 0.73, -0.764], a = 0.2, v = 0.2, t = 0.2)
movej(p[0.382797485279097, 0.213401911433126, 0.304982793095528, -1.33, 0.73, -0.764], a = 0.2, v = 0.2, t = 0.2)
movej(p[0.382790814966165, 0.213393840967958, 0.305082243457605, -1.33, 0.73, -0.764], a = 0.2, v = 0.2, t = 0.2)
movej(p[0.382753794729392, 0.213349049886279, 0.305634192967136, -1.33, 0.73, -0.764], a = 0.2, v = 0.2, t = 0.2)
movej(p[0.382697223805416, 0.213280604271193, 0.306477631487916, -1.33, 0.73, -0.764], a = 0.2, v = 0.2, t = 0.2)
movej(p[0.38258262115893, 0.213141945609149, 0.308186288158772, -1.33, 0.73, -0.764], a = 0.2, v = 0.2, t = 0.2)
movej(p[0.382510728526149, 0.213054962135573, 0.309258164161244, -1.33, 0.73, -0.764], a = 0.2, v = 0.2, t = 0.2)
movej(p[0.382472540984613, 0.213008758722489, 0.309827517484138, -1.33, 0.73, -0.764], a = 0.2, v = 0.2, t = 0.2)
movej(p[0.382422967218902, 0.212948779025364, 0.310566632575099, -1.33, 0.73, -0.764], a = 0.2, v = 0.2, t = 0.2)
movej(p[0.382391956934081, 0.2129112594328, 0.311028977308398, -1.33, 0.73, -0.764], a = 0.2, v = 0.2, t = 0.2)
movej(p[0.382338754518135, 0.212846889402623, 0.311822193396329, -1.33, 0.73, -0.764], a = 0.2, v = 0.2, t = 0.2)
movej(p[0.382322712415534, 0.212827479933896, 0.312061371517126, -1.33, 0.73, -0.764], a = 0.2, v = 0.2, t = 0.2)
movej(p[0.382312286716421, 0.212814865796839, 0.312216812433053, -1.33, 0.73, -0.764], a = 0.2, v = 0.2, t = 0.2)
movej(p[0.382281636628498, 0.212777782009394, 0.3126737868468, -1.33, 0.73, -0.764], a = 0.2, v = 0.2, t = 0.2)
movej(p[0.382277761176685, 0.212773093069131, 0.312731567507167, -1.33, 0.73, -0.764], a = 0.2, v = 0.2, t = 0.2)
movej(p[0.382276160301581, 0.212771156157491, 0.312755435594065, -1.33, 0.73, -0.764], a = 0.2, v = 0.2, t = 0.2)
movej(p[0.382269343241764, 0.21276290814209, 0.312857073864109, -1.33, 0.73, -0.764], a = 0.2, v = 0.2, t = 0.2)
movej(p[0.382262672928832, 0.212754837676922, 0.312956524226186, -1.33, 0.73, -0.764], a = 0.2, v = 0.2, t = 0.2)
movej(p[0.382329883001936, 0.212836155683951, 0.311954462377892, -1.33, 0.73, -0.764], a = 0.2, v = 0.2, t = 0.2)
movej(p[0.382414802755873, 0.212938900775999, 0.310688359818282, -1.33, 0.73, -0.764], a = 0.2, v = 0.2, t = 0.2)
movej(p[0.382507700204078, 0.213051298144387, 0.309303314625627, -1.33, 0.73, -0.764], a = 0.2, v = 0.2, t = 0.2)
movej(p[0.382567146032928, 0.21312322212996, 0.308417012998792, -1.33, 0.73, -0.764], a = 0.2, v = 0.2, t = 0.2)
movej(p[0.382619961570724, 0.213187124073157, 0.307629565031861, -1.33, 0.73, -0.764], a = 0.2, v = 0.2, t = 0.2)
movej(p[0.38271582063787, 0.21330310472808, 0.306200363878444, -1.33, 0.73, -0.764], a = 0.2, v = 0.2, t = 0.2)
movej(p[0.382709150324938, 0.213295034262912, 0.306299814240521, -1.33, 0.73, -0.764], a = 0.2, v = 0.2, t = 0.2)
movej(p[0.382653433201017, 0.213227621667368, 0.307130523114956, -1.33, 0.73, -0.764], a = 0.2, v = 0.2, t = 0.2)
movej(p[0.382580506669731, 0.213139387271691, 0.30821781392355, -1.33, 0.73, -0.764], a = 0.2, v = 0.2, t = 0.2)
movej(p[0.382501670241187, 0.213044002443876, 0.309393217752945, -1.33, 0.73, -0.764], a = 0.2, v = 0.2, t = 0.2)
movej(p[0.38246222868082, 0.21299628178334, 0.30998126774391, -1.33, 0.73, -0.764], a = 0.2, v = 0.2, t = 0.2)
movej(p[0.38242516842217, 0.212951442278869, 0.310533813955614, -1.33, 0.73, -0.764], a = 0.2, v = 0.2, t = 0.2)
movej(p[0.382412714947926, 0.212936374720401, 0.310719487781612, -1.33, 0.73, -0.764], a = 0.2, v = 0.2, t = 0.2)
movej(p[0.382373680276647, 0.212889146358241, 0.311301471300491, -1.33, 0.73, -0.764], a = 0.2, v = 0.2, t = 0.2)
movej(p[0.382323099293684, 0.212827948020875, 0.312055603396125, -1.33, 0.73, -0.764], a = 0.2, v = 0.2, t = 0.2)
movej(p[0.382299406342149, 0.2127992817286, 0.312408851082225, -1.33, 0.73, -0.764], a = 0.2, v = 0.2, t = 0.2)
movej(p[0.382280902894076, 0.212776894258225, 0.312684726386628, -1.33, 0.73, -0.764], a = 0.2, v = 0.2, t = 0.2)
movej(p[0.382280109126837, 0.21277593387287, 0.312696560979715, -1.33, 0.73, -0.764], a = 0.2, v = 0.2, t = 0.2)
movej(p[0.382279061887706, 0.212774666809839, 0.312712174686562, -1.33, 0.73, -0.764], a = 0.2, v = 0.2, t = 0.2)
movej(p[0.382255909231519, 0.212746654225243, 0.313057366893333, -1.33, 0.73, -0.764], a = 0.2, v = 0.2, t = 0.2)
movej(p[0.382249238918587, 0.212738583760075, 0.313156817255411, -1.33, 0.73, -0.764], a = 0.2, v = 0.2, t = 0.2)
movej(p[0.382323092623371, 0.21282793995041, 0.312055702846487, -1.33, 0.73, -0.764], a = 0.2, v = 0.2, t = 0.2)
movej(p[0.382405631075592, 0.212927803886393, 0.310825104066139, -1.33, 0.73, -0.764], a = 0.2, v = 0.2, t = 0.2)
movej(p[0.382499382323851, 0.213041234274323, 0.309427329227138, -1.33, 0.73, -0.764], a = 0.2, v = 0.2, t = 0.2)
movej(p[0.382589358174992, 0.213150096778968, 0.308085843293073, -1.33, 0.73, -0.764], a = 0.2, v = 0.2, t = 0.2)
movej(p[0.382668748239509, 0.213246151455392, 0.306902185083625, -1.33, 0.73, -0.764], a = 0.2, v = 0.2, t = 0.2)
movej(p[0.382701939716659, 0.213286310090066, 0.306407320081927, -1.33, 0.73, -0.764], a = 0.2, v = 0.2, t = 0.2)
movej(p[0.382695269403726, 0.213278239624898, 0.306506770444005, -1.33, 0.73, -0.764], a = 0.2, v = 0.2, t = 0.2)
movej(p[0.38265287289473, 0.213226943748294, 0.30713887694537, -1.33, 0.73, -0.764], a = 0.2, v = 0.2, t = 0.2)
movej(p[0.382599537072526, 0.213162412308814, 0.307934082040543, -1.33, 0.73, -0.764], a = 0.2, v = 0.2, t = 0.2)
movej(p[0.382535555430882, 0.213085000406927, 0.308888009913591, -1.33, 0.73, -0.764], a = 0.2, v = 0.2, t = 0.2)
movej(p[0.382469686090678, 0.213005304563397, 0.309870082239108, -1.33, 0.73, -0.764], a = 0.2, v = 0.2, t = 0.2)
movej(p[0.382451756289517, 0.212983611153027, 0.310137404812372, -1.33, 0.73, -0.764], a = 0.2, v = 0.2, t = 0.2)
movej(p[0.382432432392953, 0.212960231015436, 0.310425512511311, -1.33, 0.73, -0.764], a = 0.2, v = 0.2, t = 0.2)
movej(p[0.382416517026297, 0.212940974885547, 0.310662801075228, -1.33, 0.73, -0.764], a = 0.2, v = 0.2, t = 0.2)
movej(p[0.382381177708383, 0.212898217561089, 0.311189689093515, -1.33, 0.73, -0.764], a = 0.2, v = 0.2, t = 0.2)
movej(p[0.382345778357653, 0.212855387602445, 0.311717472165061, -1.33, 0.73, -0.764], a = 0.2, v = 0.2, t = 0.2)
movej(p[0.382294797155913, 0.212793705037169, 0.31247757128242, -1.33, 0.73, -0.764], a = 0.2, v = 0.2, t = 0.2)
movej(p[0.382290574847827, 0.212788596432718, 0.312540523361616, -1.33, 0.73, -0.764], a = 0.2, v = 0.2, t = 0.2)
movej(p[0.382281876759764, 0.21277807254614, 0.312670206633765, -1.33, 0.73, -0.764], a = 0.2, v = 0.2, t = 0.2)
movej(p[0.382275206446832, 0.212770002080972, 0.312769656995842, -1.33, 0.73, -0.764], a = 0.2, v = 0.2, t = 0.2)
movej(p[0.382293009512047, 0.212791542152504, 0.312504223979457, -1.33, 0.73, -0.764], a = 0.2, v = 0.2, t = 0.2)
movej(p[0.382322145438934, 0.212826793944356, 0.312069824797902, -1.33, 0.73, -0.764], a = 0.2, v = 0.2, t = 0.2)
movej(p[0.382413155188579, 0.212936907371102, 0.310712924057715, -1.33, 0.73, -0.764], a = 0.2, v = 0.2, t = 0.2)
movej(p[0.382518219287572, 0.213064025267956, 0.309146481404631, -1.33, 0.73, -0.764], a = 0.2, v = 0.2, t = 0.2)
movej(p[0.382630607390163, 0.213200004535564, 0.307470842253985, -1.33, 0.73, -0.764], a = 0.2, v = 0.2, t = 0.2)
movej(p[0.382735204567251, 0.213326557499857, 0.305911361126246, -1.33, 0.73, -0.764], a = 0.2, v = 0.2, t = 0.2)
movej(p[0.382829122573334, 0.213440189649416, 0.304511100028193, -1.33, 0.73, -0.764], a = 0.2, v = 0.2, t = 0.2)
movej(p[0.382822452260402, 0.213432119184248, 0.304610550390271, -1.33, 0.73, -0.764], a = 0.2, v = 0.2, t = 0.2)
movej(p[0.382759344429752, 0.213355764513298, 0.305551450265887, -1.33, 0.73, -0.764], a = 0.2, v = 0.2, t = 0.2)
movej(p[0.382666900562827, 0.213243915936541, 0.306929732833921, -1.33, 0.73, -0.764], a = 0.2, v = 0.2, t = 0.2)
movej(p[0.382595821708223, 0.213157917059716, 0.30798947589222, -1.33, 0.73, -0.764], a = 0.2, v = 0.2, t = 0.2)
movej(p[0.382533327546363, 0.213082304871561, 0.308921226334525, -1.33, 0.73, -0.764], a = 0.2, v = 0.2, t = 0.2)
movej(p[0.382406211392817, 0.212928506016863, 0.310816451884638, -1.33, 0.73, -0.764], a = 0.2, v = 0.2, t = 0.2)
movej(p[0.382386073718075, 0.212904141282522, 0.31111669252775, -1.33, 0.73, -0.764], a = 0.2, v = 0.2, t = 0.2)
movej(p[0.382368037191907, 0.212882318744709, 0.311385606306808, -1.33, 0.73, -0.764], a = 0.2, v = 0.2, t = 0.2)
movej(p[0.382308984911519, 0.212810870916581, 0.312266040362281, -1.33, 0.73, -0.764], a = 0.2, v = 0.2, t = 0.2)
movej(p[0.382277681132929, 0.212772996223549, 0.312732760911512, -1.33, 0.73, -0.764], a = 0.2, v = 0.2, t = 0.2)
movej(p[0.382233330222244, 0.21271933570065, 0.313394006368966, -1.33, 0.73, -0.764], a = 0.2, v = 0.2, t = 0.2)
movej(p[0.382226659909312, 0.212711265235483, 0.313493456731043, -1.33, 0.73, -0.764], a = 0.2, v = 0.2, t = 0.2)
movej(p[0.382271337665331, 0.212765321211175, 0.312827338205847, -1.33, 0.73, -0.764], a = 0.2, v = 0.2, t = 0.2)
movej(p[0.3823754612502, 0.21289130117244, 0.311274918053816, -1.33, 0.73, -0.764], a = 0.2, v = 0.2, t = 0.2)
movej(p[0.382474788880071, 0.21301147846925, 0.309794002712118, -1.33, 0.73, -0.764], a = 0.2, v = 0.2, t = 0.2)
movej(p[0.382566859209472, 0.213122875099958, 0.308421289364361, -1.33, 0.73, -0.764], a = 0.2, v = 0.2, t = 0.2)
movej(p[0.382725039010342, 0.213314258110941, 0.306062923478052, -1.33, 0.73, -0.764], a = 0.2, v = 0.2, t = 0.2)
movej(p[0.382903389837519, 0.213530046208591, 0.303403819696821, -1.33, 0.73, -0.764], a = 0.2, v = 0.2, t = 0.2)
movej(p[0.382971547095058, 0.213612510221673, 0.302387635897112, -1.33, 0.73, -0.764], a = 0.2, v = 0.2, t = 0.2)
movej(p[0.382964876782126, 0.213604439756506, 0.30248708625919, -1.33, 0.73, -0.764], a = 0.2, v = 0.2, t = 0.2)
movej(p[0.382866222853862, 0.213485077576678, 0.303957957114318, -1.33, 0.73, -0.764], a = 0.2, v = 0.2, t = 0.2)
movej(p[0.38269304818952, 0.213275552159998, 0.306539887414577, -1.33, 0.73, -0.764], a = 0.2, v = 0.2, t = 0.2)
movej(p[0.38260063767416, 0.213163743935567, 0.3079176727308, -1.33, 0.73, -0.764], a = 0.2, v = 0.2, t = 0.2)
movej(p[0.382550717052176, 0.213103344574253, 0.308661959240589, -1.33, 0.73, -0.764], a = 0.2, v = 0.2, t = 0.2)
movej(p[0.38251773902504, 0.213063444194464, 0.3091536418307, -1.33, 0.73, -0.764], a = 0.2, v = 0.2, t = 0.2)
movej(p[0.382475182428534, 0.213011954626695, 0.309788135140756, -1.33, 0.73, -0.764], a = 0.2, v = 0.2, t = 0.2)
movej(p[0.382380644083348, 0.212897571923876, 0.311197645122482, -1.33, 0.73, -0.764], a = 0.2, v = 0.2, t = 0.2)
movej(p[0.382353089020626, 0.212864232832269, 0.311608474568224, -1.33, 0.73, -0.764], a = 0.2, v = 0.2, t = 0.2)
movej(p[0.382300233460953, 0.212800282466281, 0.312396519237327, -1.33, 0.73, -0.764], a = 0.2, v = 0.2, t = 0.2)
movej(p[0.38230011339532, 0.212800137197908, 0.312398309343845, -1.33, 0.73, -0.764], a = 0.2, v = 0.2, t = 0.2)
movej(p[0.382267802399477, 0.212761043864636, 0.312880046897749, -1.33, 0.73, -0.764], a = 0.2, v = 0.2, t = 0.2)
movej(p[0.382261132086545, 0.212752973399469, 0.312979497259826, -1.33, 0.73, -0.764], a = 0.2, v = 0.2, t = 0.2)
movej(p[0.382368657531009, 0.21288306929797, 0.311376357423135, -1.33, 0.73, -0.764], a = 0.2, v = 0.2, t = 0.2)
movej(p[0.382458139778993, 0.212991334588192, 0.310042230815864, -1.33, 0.73, -0.764], a = 0.2, v = 0.2, t = 0.2)
movej(p[0.382611050032647, 0.213176341931693, 0.307762430715597, -1.33, 0.73, -0.764], a = 0.2, v = 0.2, t = 0.2)
movej(p[0.382759417803194, 0.213355853288415, 0.305550356311904, -1.33, 0.73, -0.764], a = 0.2, v = 0.2, t = 0.2)
movej(p[0.382863814870893, 0.213482164138752, 0.303993858695028, -1.33, 0.73, -0.764], a = 0.2, v = 0.2, t = 0.2)
movej(p[0.382979431404944, 0.213622049511501, 0.302270085569136, -1.33, 0.73, -0.764], a = 0.2, v = 0.2, t = 0.2)
movej(p[0.382972761092012, 0.213613979046334, 0.302369535931214, -1.33, 0.73, -0.764], a = 0.2, v = 0.2, t = 0.2)
movej(p[0.382940436755543, 0.213574869572132, 0.302851472385842, -1.33, 0.73, -0.764], a = 0.2, v = 0.2, t = 0.2)
movej(p[0.382784444817315, 0.213386133673723, 0.305177218553389, -1.33, 0.73, -0.764], a = 0.2, v = 0.2, t = 0.2)
movej(p[0.382665466445546, 0.21324218078653, 0.306951114661768, -1.33, 0.73, -0.764], a = 0.2, v = 0.2, t = 0.2)
movej(p[0.382573809675547, 0.213131284524663, 0.308317662087076, -1.33, 0.73, -0.764], a = 0.2, v = 0.2, t = 0.2)
movej(p[0.382522795122243, 0.213069561607061, 0.309078258456246, -1.33, 0.73, -0.764], a = 0.2, v = 0.2, t = 0.2)
movej(p[0.382471467064231, 0.213007459377597, 0.309843528992433, -1.33, 0.73, -0.764], a = 0.2, v = 0.2, t = 0.2)
movej(p[0.382439996527818, 0.212969382922936, 0.310312735800715, -1.33, 0.73, -0.764], a = 0.2, v = 0.2, t = 0.2)
movej(p[0.382389662346432, 0.212908483192782, 0.311063188232953, -1.33, 0.73, -0.764], a = 0.2, v = 0.2, t = 0.2)
movej(p[0.382320784695096, 0.212825147569462, 0.312090112671766, -1.33, 0.73, -0.764], a = 0.2, v = 0.2, t = 0.2)
movej(p[0.382309071625588, 0.212810975832628, 0.312264747507574, -1.33, 0.73, -0.764], a = 0.2, v = 0.2, t = 0.2)
movej(p[0.382288160194546, 0.212785674924328, 0.312576524392688, -1.33, 0.73, -0.764], a = 0.2, v = 0.2, t = 0.2)
movej(p[0.382275033018695, 0.212769792248878, 0.312772242705256, -1.33, 0.73, -0.764], a = 0.2, v = 0.2, t = 0.2)
movej(p[0.382269783482418, 0.212763440792791, 0.312850510140212, -1.33, 0.73, -0.764], a = 0.2, v = 0.2, t = 0.2)
movej(p[0.382263113169486, 0.212755370327623, 0.312949960502289, -1.33, 0.73, -0.764], a = 0.2, v = 0.2, t = 0.2)
movej(p[0.382349266931316, 0.212859608455728, 0.311665459625695, -1.33, 0.73, -0.764], a = 0.2, v = 0.2, t = 0.2)
movej(p[0.382515130932684, 0.213060288642584, 0.309192526922273, -1.33, 0.73, -0.764], a = 0.2, v = 0.2, t = 0.2)
movej(p[0.382659870052996, 0.213235409666254, 0.307034553515551, -1.33, 0.73, -0.764], a = 0.2, v = 0.2, t = 0.2)
movej(p[0.382799006110445, 0.213403751499184, 0.304960118412974, -1.33, 0.73, -0.764], a = 0.2, v = 0.2, t = 0.2)
movej(p[0.382868344013374, 0.213487643984601, 0.303926331899177, -1.33, 0.73, -0.764], a = 0.2, v = 0.2, t = 0.2)
movej(p[0.382861673700442, 0.213479573519433, 0.304025782261255, -1.33, 0.73, -0.764], a = 0.2, v = 0.2, t = 0.2)
movej(p[0.382766048094248, 0.213363875330791, 0.305451502651999, -1.33, 0.73, -0.764], a = 0.2, v = 0.2, t = 0.2)
movej(p[0.382662911715693, 0.213239089798371, 0.306989204150443, -1.33, 0.73, -0.764], a = 0.2, v = 0.2, t = 0.2)
movej(p[0.382593286989309, 0.213154850282952, 0.308027267029809, -1.33, 0.73, -0.764], a = 0.2, v = 0.2, t = 0.2)
movej(p[0.382525343181783, 0.213072644524755, 0.309040268417932, -1.33, 0.73, -0.764], a = 0.2, v = 0.2, t = 0.2)
movej(p[0.382455218181928, 0.212987799724449, 0.310085790074454, -1.33, 0.73, -0.764], a = 0.2, v = 0.2, t = 0.2)
movej(p[0.382411220797829, 0.212934566936204, 0.310741764662718, -1.33, 0.73, -0.764], a = 0.2, v = 0.2, t = 0.2)
movej(p[0.382363101160337, 0.212876346600485, 0.311459199574746, -1.33, 0.73, -0.764], a = 0.2, v = 0.2, t = 0.2)
movej(p[0.38234393068097, 0.212853152083593, 0.311745019915357, -1.33, 0.73, -0.764], a = 0.2, v = 0.2, t = 0.2)
movej(p[0.382323526193711, 0.212828464530646, 0.312049238572952, -1.33, 0.73, -0.764], a = 0.2, v = 0.2, t = 0.2)
movej(p[0.382299759868734, 0.212799709463254, 0.312403580213035, -1.33, 0.73, -0.764], a = 0.2, v = 0.2, t = 0.2)
movej(p[0.382287253031987, 0.212784577341065, 0.31259004964193, -1.33, 0.73, -0.764], a = 0.2, v = 0.2, t = 0.2)
movej(p[0.382280582719055, 0.212776506875897, 0.312689500004008, -1.33, 0.73, -0.764], a = 0.2, v = 0.2, t = 0.2)
movej(p[0.382295184034063, 0.212794173124149, 0.31247180316142, -1.33, 0.73, -0.764], a = 0.2, v = 0.2, t = 0.2)
movej(p[0.382303121706452, 0.212803776977698, 0.312353457230548, -1.33, 0.73, -0.764], a = 0.2, v = 0.2, t = 0.2)
