def moving():
set_payload_mass(0.62)
set_tcp(p[0,0.005,0.058,0,0,0])
movej(p[0.4431, -0.1037, 0.3786, -1.201, 1.094, -1.2], a = 0.2, v = 0.2, t = 0.2)
movej(p[0.444342861276817, -0.104837080408716, 0.379960089699507, -1.201, 1.094, -1.2], a = 0.2, v = 0.2, t = 0.2)
movej(p[0.445585722553633, -0.105974160817432, 0.381320179399014, -1.201, 1.094, -1.2], a = 0.2, v = 0.2, t = 0.2)
movej(p[0.446828583830449, -0.107111241226148, 0.38268026909852, -1.201, 1.094, -1.2], a = 0.2, v = 0.2, t = 0.2)
movej(p[0.448071445107266, -0.108248321634864, 0.384040358798027, -1.201, 1.094, -1.2], a = 0.2, v = 0.2, t = 0.2)
movej(p[0.446828583830449, -0.107111241226148, 0.38268026909852, -1.201, 1.094, -1.2], a = 0.2, v = 0.2, t = 0.2)
movej(p[0.445585722553633, -0.105974160817432, 0.381320179399014, -1.201, 1.094, -1.2], a = 0.2, v = 0.2, t = 0.2)
movej(p[0.444342861276817, -0.104837080408716, 0.379960089699507, -1.201, 1.094, -1.2], a = 0.2, v = 0.2, t = 0.2)
movej(p[0.4431, -0.1037, 0.3786, -1.201, 1.094, -1.2], a = 0.2, v = 0.2, t = 0.2)
movej(p[0.442756142739462, -0.103008482413747, 0.378982146099389, -1.20619347381541, 1.07490700688689, -1.20182602069517], a = 0.2, v = 0.2, t = 0.2)
movej(p[0.442262355787331, -0.102281444629057, 0.379513101229356, -1.20460988973059, 1.06805053331891, -1.20359427993605], a = 0.2, v = 0.2, t = 0.2)
movej(p[0.441920549054627, -0.101746298817476, 0.379872367732562, -1.20694220159733, 1.05856599471533, -1.20659855533188], a = 0.2, v = 0.2, t = 0.2)
movej(p[0.441713511975412, -0.101382272367768, 0.380071799955994, -1.20742174008014, 1.05015364777071, -1.20672819524253], a = 0.2, v = 0.2, t = 0.2)
movej(p[0.441649647215121, -0.100961438199148, 0.380168501170643, -1.21256734801226, 1.03980218180632, -1.20423411230612], a = 0.2, v = 0.2, t = 0.2)
movej(p[0.44161043152776, -0.100748265847173, 0.380186245415294, -1.2174317818766, 1.03678999850936, -1.20126625918283], a = 0.2, v = 0.2, t = 0.2)
movej(p[0.441699021233285, -0.100656210836169, 0.380155140286713, -1.22008600951891, 1.03918865650831, -1.19925997112004], a = 0.2, v = 0.2, t = 0.2)
movej(p[0.442066242610765, -0.10075029812805, 0.379851996643653, -1.2216205777668, 1.0371982156974, -1.19677728365691], a = 0.2, v = 0.2, t = 0.2)
movej(p[0.442987009078733, -0.100637387461689, 0.379241129594461, -1.22974665213945, 1.04138104485603, -1.18382505670428], a = 0.2, v = 0.2, t = 0.2)
movej(p[0.444418840097994, -0.100851591395232, 0.378274881246604, -1.23757631774242, 1.06533032582759, -1.16078499291172], a = 0.2, v = 0.2, t = 0.2)
movej(p[0.44559892007217, -0.101760346473087, 0.377256048959806, -1.23987034187504, 1.09889881925434, -1.14736786179071], a = 0.2, v = 0.2, t = 0.2)
movej(p[0.446464629535911, -0.102775711843256, 0.376252358659041, -1.23304109330336, 1.12801012980844, -1.13579660120808], a = 0.2, v = 0.2, t = 0.2)
movej(p[0.447021375148204, -0.103802943155272, 0.375233205537617, -1.22540877387843, 1.14588893830557, -1.12976158664123], a = 0.2, v = 0.2, t = 0.2)
movej(p[0.447352503783024, -0.10464565094201, 0.374481390438358, -1.21446926676109, 1.15970876022289, -1.12380017291348], a = 0.2, v = 0.2, t = 0.2)
movej(p[0.447366479267776, -0.10528829450041, 0.374248790346627, -1.20374683827118, 1.17031299523284, -1.12163066583588], a = 0.2, v = 0.2, t = 0.2)
movej(p[0.447004012623043, -0.105361206305613, 0.374714450201154, -1.19963163400192, 1.15931688814802, -1.13291292029039], a = 0.2, v = 0.2, t = 0.2)
movej(p[0.446182804209171, -0.104798907467339, 0.375803552729597, -1.19936842851827, 1.13913463659798, -1.15117623760476], a = 0.2, v = 0.2, t = 0.2)
movej(p[0.44497902755549, -0.104025278792976, 0.37709654127195, -1.20421150951755, 1.10811640355013, -1.17357297377266], a = 0.2, v = 0.2, t = 0.2)
movej(p[0.443531843786666, -0.103254410668176, 0.378412143992691, -1.20405253662698, 1.0804599293241, -1.19524675716048], a = 0.2, v = 0.2, t = 0.2)
movej(p[0.442474730577977, -0.102552274966418, 0.37924074178549, -1.20557016590045, 1.05687733794266, -1.20452889600036], a = 0.2, v = 0.2, t = 0.2)
movej(p[0.442080170512652, -0.101690203022239, 0.37970998733998, -1.21119637730349, 1.03901227254823, -1.20189384397693], a = 0.2, v = 0.2, t = 0.2)
movej(p[0.441960567660002, -0.101166119695226, 0.379920846328134, -1.21437248507386, 1.04530709800545, -1.19689414897838], a = 0.2, v = 0.2, t = 0.2)
movej(p[0.441856364815723, -0.101216602680998, 0.379962383269421, -1.2170262743642, 1.04486430833632, -1.19715703737291], a = 0.2, v = 0.2, t = 0.2)
movej(p[0.44163474384015, -0.101194319909207, 0.38007032205609, -1.21523116671602, 1.04196718917188, -1.20456112628545], a = 0.2, v = 0.2, t = 0.2)
movej(p[0.441500467512972, -0.101052116366831, 0.380129846593007, -1.21534245902973, 1.02875256060257, -1.21023897699056], a = 0.2, v = 0.2, t = 0.2)
movej(p[0.44161820434476, -0.100434037042417, 0.380238093381283, -1.21888957573419, 1.01733571134623, -1.20563412404596], a = 0.2, v = 0.2, t = 0.2)
movej(p[0.441943170396573, -0.100114247647036, 0.380164900439883, -1.22490046827548, 1.02279987363972, -1.19734208489847], a = 0.2, v = 0.2, t = 0.2)
movej(p[0.442404261517002, -0.100395721720547, 0.379904049296502, -1.22758775750156, 1.03507302348367, -1.19026850761758], a = 0.2, v = 0.2, t = 0.2)
movej(p[0.443137986607928, -0.100761528224381, 0.379304533755338, -1.22702856439801, 1.05816045218291, -1.17929374870238], a = 0.2, v = 0.2, t = 0.2)
movej(p[0.444231198519855, -0.101159512788544, 0.378433965289156, -1.22993502761546, 1.07072802060544, -1.16501644130066], a = 0.2, v = 0.2, t = 0.2)
movej(p[0.445380250811048, -0.101560077993066, 0.37754444679293, -1.23417721861656, 1.09257555780379, -1.15119837415629], a = 0.2, v = 0.2, t = 0.2)
movej(p[0.446353423687895, -0.102340131425275, 0.376555263976323, -1.23476889980437, 1.1187906869092, -1.13663596671704], a = 0.2, v = 0.2, t = 0.2)
movej(p[0.446992431982165, -0.1033513614706, 0.375497228217152, -1.22826005010371, 1.14638420845571, -1.12354946937989], a = 0.2, v = 0.2, t = 0.2)
movej(p[0.447371185659009, -0.104259980606997, 0.37458373236623, -1.22061316606063, 1.15980161285675, -1.11596838430937], a = 0.2, v = 0.2, t = 0.2)
movej(p[0.447528818386589, -0.105139230121138, 0.373882809470985, -1.2091526427158, 1.17252815322165, -1.11281820737182], a = 0.2, v = 0.2, t = 0.2)
movej(p[0.447426495498826, -0.10581590665219, 0.373626659107013, -1.19516892658647, 1.18358689954051, -1.11530120590893], a = 0.2, v = 0.2, t = 0.2)
movej(p[0.447227351803117, -0.106096744954817, 0.373637998253239, -1.18609206932526, 1.18553986303899, -1.11641800071879], a = 0.2, v = 0.2, t = 0.2)
movej(p[0.44717221708911, -0.105940847769634, 0.373792614846667, -1.18466037284869, 1.18037781577523, -1.11472457385721], a = 0.2, v = 0.2, t = 0.2)
movej(p[0.447117577207991, -0.105517890276507, 0.374235027925586, -1.19503225799982, 1.17372010332831, -1.11818050556723], a = 0.2, v = 0.2, t = 0.2)
movej(p[0.446610840745743, -0.105194240752064, 0.375058737318004, -1.19586972121934, 1.16541566063261, -1.13257547836488], a = 0.2, v = 0.2, t = 0.2)
movej(p[0.445539785230695, -0.104588170747874, 0.376298139949801, -1.19782193109161, 1.13808490911263, -1.15502832303402], a = 0.2, v = 0.2, t = 0.2)
movej(p[0.444172064181948, -0.103643183225593, 0.377690038552317, -1.19939421121849, 1.10383335215601, -1.17680335877848], a = 0.2, v = 0.2, t = 0.2)
movej(p[0.443006112640686, -0.10277764468513, 0.378745362560836, -1.20225785405495, 1.0801482019478, -1.18830175404041], a = 0.2, v = 0.2, t = 0.2)
movej(p[0.442333310243318, -0.10223655402225, 0.379367087097862, -1.20695837721928, 1.06576081601478, -1.19622685237634], a = 0.2, v = 0.2, t = 0.2)
movej(p[0.441902644503584, -0.101924428864032, 0.379748169811621, -1.20707780590973, 1.05748232437186, -1.20047132707879], a = 0.2, v = 0.2, t = 0.2)
movej(p[0.441756237171455, -0.101324733119201, 0.380021031437231, -1.2155582220542, 1.0392200538349, -1.20017848346605], a = 0.2, v = 0.2, t = 0.2)
movej(p[0.441606232412942, -0.10103726868652, 0.380134024190836, -1.21795963382657, 1.04173537665985, -1.1995929159095], a = 0.2, v = 0.2, t = 0.2)
movej(p[0.441545553344874, -0.100962174435411, 0.380209886000389, -1.21803044486517, 1.04469191861589, -1.20164925514506], a = 0.2, v = 0.2, t = 0.2)
movej(p[0.441509279956871, -0.100939274724704, 0.380192972852477, -1.21564576931241, 1.04372679695008, -1.20431080804763], a = 0.2, v = 0.2, t = 0.2)
movej(p[0.441879056750323, -0.100693536509767, 0.380027794667648, -1.21844789669295, 1.033431084499, -1.20035299642825], a = 0.2, v = 0.2, t = 0.2)
movej(p[0.442787697519752, -0.100467933642271, 0.379505850911778, -1.23116498854465, 1.03239196156086, -1.18325220031301], a = 0.2, v = 0.2, t = 0.2)
movej(p[0.443950395452045, -0.100883836476915, 0.378734857496958, -1.2382398657742, 1.06177283845062, -1.17046303012392], a = 0.2, v = 0.2, t = 0.2)
movej(p[0.444976953080049, -0.101640765896814, 0.377893638466456, -1.24230609455969, 1.08994646402564, -1.15794670909007], a = 0.2, v = 0.2, t = 0.2)
movej(p[0.445787430526501, -0.102531565961601, 0.376853791729735, -1.23490016028601, 1.11750324507487, -1.14655323104215], a = 0.2, v = 0.2, t = 0.2)
movej(p[0.446603271038814, -0.103413774956879, 0.375681405528799, -1.22703439846914, 1.13432836469188, -1.13208928046935], a = 0.2, v = 0.2, t = 0.2)
movej(p[0.447353122276778, -0.104146120834018, 0.374586704960979, -1.21993544431272, 1.14988585733618, -1.118339074063], a = 0.2, v = 0.2, t = 0.2)
movej(p[0.447691364989512, -0.104971806269993, 0.374004659156853, -1.20922647776819, 1.16915677983493, -1.11640543658732], a = 0.2, v = 0.2, t = 0.2)
movej(p[0.447537124992278, -0.105580126119824, 0.373987557590988, -1.20027941346661, 1.17502987221909, -1.11775893613294], a = 0.2, v = 0.2, t = 0.2)
movej(p[0.447148688762899, -0.105669037685313, 0.374391150640022, -1.19957347080968, 1.16832572728152, -1.12345824110182], a = 0.2, v = 0.2, t = 0.2)
movej(p[0.446740609042721, -0.105273954994124, 0.375092613396768, -1.20434401352435, 1.15075589145571, -1.13337490693428], a = 0.2, v = 0.2, t = 0.2)
movej(p[0.446127513489861, -0.10434271703413, 0.376109998619449, -1.21041405712875, 1.12686163965745, -1.14700026803071], a = 0.2, v = 0.2, t = 0.2)
movej(p[0.445045443880683, -0.103628843830281, 0.37726843776581, -1.20732497880967, 1.11904536478305, -1.16583432557197], a = 0.2, v = 0.2, t = 0.2)
movej(p[0.443795227339783, -0.103184595527793, 0.378339316964596, -1.20314774901673, 1.10103675853636, -1.18283091054548], a = 0.2, v = 0.2, t = 0.2)
movej(p[0.442762296382598, -0.102703029618572, 0.379067113851485, -1.20431798347323, 1.07912524426575, -1.19158422874739], a = 0.2, v = 0.2, t = 0.2)
movej(p[0.442347013887287, -0.102075097465408, 0.379533184495177, -1.20784136364024, 1.05979608958254, -1.19281378151816], a = 0.2, v = 0.2, t = 0.2)
movej(p[0.44208907103008, -0.101605428813871, 0.379832457558749, -1.20620901123363, 1.05782829063181, -1.19146521681274], a = 0.2, v = 0.2, t = 0.2)
movej(p[0.441938225379167, -0.101354108872401, 0.380005535261011, -1.20502674376424, 1.06351645738643, -1.19339816618506], a = 0.2, v = 0.2, t = 0.2)
movej(p[0.441843236781618, -0.101077173792902, 0.380085313163202, -1.20842582870345, 1.0544394229782, -1.19293190914542], a = 0.2, v = 0.2, t = 0.2)
movej(p[0.441845508131509, -0.100752989445801, 0.380181649233626, -1.2152023752127, 1.04956241415459, -1.19392528058698], a = 0.2, v = 0.2, t = 0.2)
movej(p[0.441923238725829, -0.100666198556532, 0.380195843057861, -1.22021420993916, 1.04184972905652, -1.19510976602728], a = 0.2, v = 0.2, t = 0.2)
movej(p[0.442009060998513, -0.100735790144741, 0.380122661185366, -1.21944842372021, 1.04424061070121, -1.19910482941985], a = 0.2, v = 0.2, t = 0.2)
movej(p[0.442402179577742, -0.100707476465286, 0.379795929478424, -1.22201403369288, 1.03787100780601, -1.19396087039344], a = 0.2, v = 0.2, t = 0.2)
movej(p[0.443290035536636, -0.100610357074101, 0.379166725217861, -1.22308817976334, 1.04630394236712, -1.17680841802579], a = 0.2, v = 0.2, t = 0.2)
movej(p[0.4445675686429, -0.10100438231776, 0.378273670286874, -1.23134663074811, 1.07194999935157, -1.16011402993302], a = 0.2, v = 0.2, t = 0.2)
movej(p[0.445621261011587, -0.10192707774654, 0.377337125558642, -1.22975935689124, 1.10481862966296, -1.14814529262836], a = 0.2, v = 0.2, t = 0.2)
movej(p[0.446438337207147, -0.102913270156257, 0.376293367244392, -1.22722555171779, 1.13360483428442, -1.13772274748654], a = 0.2, v = 0.2, t = 0.2)
movej(p[0.447100374871418, -0.103866551212066, 0.375197848919523, -1.22308120594001, 1.14928250418054, -1.12581209963826], a = 0.2, v = 0.2, t = 0.2)
movej(p[0.447568717633883, -0.104742528911022, 0.374250702077541, -1.21682149727731, 1.16546172126525, -1.11559128480791], a = 0.2, v = 0.2, t = 0.2)
movej(p[0.447736402189547, -0.105614989548811, 0.373739455253296, -1.21040225882352, 1.17066762877686, -1.11541806204543], a = 0.2, v = 0.2, t = 0.2)
movej(p[0.447587429717797, -0.106009835472146, 0.373769641168666, -1.20236913276185, 1.17133553398203, -1.11597546271399], a = 0.2, v = 0.2, t = 0.2)
movej(p[0.447251654805088, -0.105858518003501, 0.374301872069383, -1.20065889866661, 1.16266406833498, -1.12716624278598], a = 0.2, v = 0.2, t = 0.2)
movej(p[0.446561835921917, -0.105366755019815, 0.37530862422175, -1.20142940417732, 1.1469828593337, -1.14597784738195], a = 0.2, v = 0.2, t = 0.2)
movej(p[0.445432144171651, -0.104623834307327, 0.376641669181359, -1.19972062616443, 1.12162180810511, -1.16865089382676], a = 0.2, v = 0.2, t = 0.2)
movej(p[0.444286015993516, -0.103715287531173, 0.377842533228071, -1.20049202971536, 1.09125543920083, -1.18356449628731], a = 0.2, v = 0.2, t = 0.2)
movej(p[0.443457279414398, -0.102653833192411, 0.378733301525675, -1.20736191357635, 1.06650852945545, -1.18635936720973], a = 0.2, v = 0.2, t = 0.2)
movej(p[0.442928807854505, -0.102001204650745, 0.379252815765688, -1.21071967400318, 1.06786857736871, -1.18807861824807], a = 0.2, v = 0.2, t = 0.2)
movej(p[0.442533233553241, -0.101974475448051, 0.379475758218659, -1.20877362883079, 1.06460082852308, -1.19220345332473], a = 0.2, v = 0.2, t = 0.2)
movej(p[0.442144822235858, -0.101909872718876, 0.379674145783571, -1.20841423188703, 1.05858249500454, -1.19964945026249], a = 0.2, v = 0.2, t = 0.2)
movej(p[0.441890518894203, -0.101708298824141, 0.37982332307871, -1.20787487711247, 1.04336393061854, -1.20575008663192], a = 0.2, v = 0.2, t = 0.2)
movej(p[0.441914642495396, -0.101100544400527, 0.379944672324044, -1.21291655860168, 1.03408683885143, -1.20273836599037], a = 0.2, v = 0.2, t = 0.2)
movej(p[0.442067678864099, -0.100518275435102, 0.38003212696518, -1.21556992527395, 1.03789684349038, -1.19318806094251], a = 0.2, v = 0.2, t = 0.2)
movej(p[0.44215022461202, -0.100650037929712, 0.379966750788216, -1.21604747616251, 1.04405733951425, -1.19078374719933], a = 0.2, v = 0.2, t = 0.2)
movej(p[0.442269020492837, -0.10078288711836, 0.379856725317181, -1.21567269219935, 1.04905526555132, -1.19153205578155], a = 0.2, v = 0.2, t = 0.2)
movej(p[0.442625719445449, -0.100871616200746, 0.379527385335333, -1.21929413926519, 1.04355823458493, -1.18971917701559], a = 0.2, v = 0.2, t = 0.2)
movej(p[0.443412623782971, -0.100845321730664, 0.379067331852755, -1.22297070080359, 1.05835086668024, -1.1794588106679], a = 0.2, v = 0.2, t = 0.2)
movej(p[0.444301601630583, -0.101060315591958, 0.378421673003391, -1.22546957420394, 1.07745858823075, -1.16625120081467], a = 0.2, v = 0.2, t = 0.2)
movej(p[0.44528170701187, -0.101710536732055, 0.377456965494897, -1.22454026598746, 1.10237389969452, -1.15390598792946], a = 0.2, v = 0.2, t = 0.2)
movej(p[0.44609993943264, -0.102631439148193, 0.376393872386063, -1.22423686752755, 1.11953990396505, -1.14609882429095], a = 0.2, v = 0.2, t = 0.2)
movej(p[0.446861787751667, -0.103526164856196, 0.375180374777141, -1.22362404733106, 1.13720283974058, -1.13211526644996], a = 0.2, v = 0.2, t = 0.2)
movej(p[0.447478676917031, -0.104482758601788, 0.374149266010242, -1.21989401214709, 1.15674088322073, -1.12065193428361], a = 0.2, v = 0.2, t = 0.2)
movej(p[0.44797899296573, -0.105264471751784, 0.37326168179309, -1.21160800973137, 1.17300604630591, -1.10730581898802], a = 0.2, v = 0.2, t = 0.2)
movej(p[0.448058059925479, -0.106130694938546, 0.372878905805609, -1.20024996795258, 1.18653011697799, -1.10790831965931], a = 0.2, v = 0.2, t = 0.2)
movej(p[0.447810409302335, -0.106624333589229, 0.373000212901066, -1.18855791445614, 1.19529904555303, -1.10982245282406], a = 0.2, v = 0.2, t = 0.2)
movej(p[0.447414139052616, -0.106647910924665, 0.373463932038521, -1.18500509278777, 1.19234929862642, -1.11641024258803], a = 0.2, v = 0.2, t = 0.2)
movej(p[0.447085013966505, -0.106023462750237, 0.374264323814557, -1.19052311580978, 1.17078550121776, -1.12270220029919], a = 0.2, v = 0.2, t = 0.2)
movej(p[0.446459758654938, -0.105101940707192, 0.375352542684793, -1.20083199323204, 1.14945447231186, -1.13680676704457], a = 0.2, v = 0.2, t = 0.2)
movej(p[0.445155338718984, -0.104417801807424, 0.376683536859315, -1.19957493989595, 1.13552347531842, -1.16122712920798], a = 0.2, v = 0.2, t = 0.2)
movej(p[0.443730824000508, -0.103863225722739, 0.377888473403927, -1.19564197658242, 1.11653611924747, -1.18057629133474], a = 0.2, v = 0.2, t = 0.2)
movej(p[0.442617578144035, -0.103328237996403, 0.378703610250791, -1.1937520232452, 1.0903815847086, -1.19663780750628], a = 0.2, v = 0.2, t = 0.2)
movej(p[0.44213597647815, -0.102602615478421, 0.379238238746958, -1.19836513280852, 1.0600896632375, -1.2028466732008], a = 0.2, v = 0.2, t = 0.2)
movej(p[0.441951015703299, -0.101697135459019, 0.379598589373475, -1.20938567316164, 1.04412177222157, -1.2010827162177], a = 0.2, v = 0.2, t = 0.2)
movej(p[0.441842349547143, -0.101421136918817, 0.379746264920579, -1.20798297607357, 1.05398290291221, -1.1985264194704], a = 0.2, v = 0.2, t = 0.2)
movej(p[0.441739312219461, -0.101429161179878, 0.379822821911367, -1.20789745413453, 1.0531944897057, -1.1990066854263], a = 0.2, v = 0.2, t = 0.2)
movej(p[0.441726219334933, -0.101365847787871, 0.379795445082345, -1.21035599216526, 1.04723157681644, -1.1996530705279], a = 0.2, v = 0.2, t = 0.2)
movej(p[0.44226687139016, -0.10117816360678, 0.379567303145501, -1.22154273983252, 1.04188890315753, -1.1948853959344], a = 0.2, v = 0.2, t = 0.2)
movej(p[0.443047628794059, -0.101157375818566, 0.379137194927354, -1.22833970284527, 1.05520384028627, -1.18233680502289], a = 0.2, v = 0.2, t = 0.2)
movej(p[0.44407617313507, -0.101498563780325, 0.378307390407587, -1.22523188871909, 1.0841523006989, -1.16710363876999], a = 0.2, v = 0.2, t = 0.2)
movej(p[0.44515924407267, -0.10213210164332, 0.377171672725776, -1.2256631057805, 1.10524916858125, -1.14991121537683], a = 0.2, v = 0.2, t = 0.2)
movej(p[0.446205258082019, -0.102876647254456, 0.375961148864267, -1.22370800048663, 1.12916039709451, -1.13484622182623], a = 0.2, v = 0.2, t = 0.2)
movej(p[0.446908866485626, -0.103961209213668, 0.374979138784175, -1.22010402134758, 1.14723851164423, -1.12792675598478], a = 0.2, v = 0.2, t = 0.2)
movej(p[0.447108450637086, -0.104777076713736, 0.374619805966693, -1.21207077000424, 1.15182124082145, -1.13308929661033], a = 0.2, v = 0.2, t = 0.2)
movej(p[0.446856798304999, -0.104744044000543, 0.375028936915919, -1.21371911482994, 1.1316203868835, -1.14472885689742], a = 0.2, v = 0.2, t = 0.2)
movej(p[0.446088789248768, -0.104047338182322, 0.376126485300641, -1.21911762010978, 1.10957889435149, -1.16029550709732], a = 0.2, v = 0.2, t = 0.2)
movej(p[0.44492228206722, -0.103484573462699, 0.377363850632563, -1.21365014662645, 1.09837079482195, -1.17620141243816], a = 0.2, v = 0.2, t = 0.2)
movej(p[0.443650314599313, -0.102988794416713, 0.378350665878618, -1.20859395594912, 1.08791246784901, -1.1922074277749], a = 0.2, v = 0.2, t = 0.2)
movej(p[0.442746227738615, -0.102406563876037, 0.379018597921282, -1.20526640111228, 1.06836079695523, -1.19877531354697], a = 0.2, v = 0.2, t = 0.2)
movej(p[0.442325754760622, -0.101843018956374, 0.379424323345183, -1.20693687752259, 1.05884201369958, -1.20177287065918], a = 0.2, v = 0.2, t = 0.2)
movej(p[0.442125908137011, -0.101513203841862, 0.379664570687044, -1.2100915599475, 1.05187764765734, -1.19851361541632], a = 0.2, v = 0.2, t = 0.2)
movej(p[0.441923966896557, -0.101370408344258, 0.379736655940514, -1.21143528200713, 1.05034464826553, -1.20346726237243], a = 0.2, v = 0.2, t = 0.2)
movej(p[0.441852037197007, -0.100981130321467, 0.379823857212259, -1.2155976681571, 1.03340200256283, -1.20424409654777], a = 0.2, v = 0.2, t = 0.2)
movej(p[0.441947632308556, -0.100489762879009, 0.379849830006491, -1.21891030455532, 1.02418344646535, -1.20131861744551], a = 0.2, v = 0.2, t = 0.2)
movej(p[0.442117772643149, -0.100395964908662, 0.379844459037919, -1.22059035046272, 1.0346177279746, -1.19621203202373], a = 0.2, v = 0.2, t = 0.2)
movej(p[0.44229830145537, -0.100685563689588, 0.379696136563076, -1.21759750334255, 1.04667908334608, -1.19144748624954], a = 0.2, v = 0.2, t = 0.2)
movej(p[0.442558342026709, -0.100915615673883, 0.379395857132245, -1.2166167522489, 1.05679382156071, -1.18934046384892], a = 0.2, v = 0.2, t = 0.2)
movej(p[0.443367641229204, -0.101172399244666, 0.378699272408384, -1.22035836949898, 1.06096183883741, -1.1776807502116], a = 0.2, v = 0.2, t = 0.2)
movej(p[0.444720692842822, -0.101386968448083, 0.377614536677973, -1.23006179801313, 1.07469409450655, -1.15772401135593], a = 0.2, v = 0.2, t = 0.2)
movej(p[0.44616745542685, -0.102120023278867, 0.376446292054394, -1.23502944399125, 1.10421061131356, -1.13709468757361], a = 0.2, v = 0.2, t = 0.2)
movej(p[0.447151441134453, -0.10339355205125, 0.375291986863712, -1.22737216596269, 1.1407255845349, -1.12526481624833], a = 0.2, v = 0.2, t = 0.2)
movej(p[0.447620621017049, -0.104619148636766, 0.374306330458251, -1.21663405938463, 1.16452163012335, -1.12002727893479], a = 0.2, v = 0.2, t = 0.2)
movej(p[0.44775078400122, -0.105401543568981, 0.373652939375058, -1.21263437923321, 1.16568110724974, -1.11911871906419], a = 0.2, v = 0.2, t = 0.2)
movej(p[0.447730053576785, -0.105743683173772, 0.373558993218479, -1.20673900983313, 1.1652579892117, -1.12353087690574], a = 0.2, v = 0.2, t = 0.2)
movej(p[0.447410039732898, -0.10575614346872, 0.374120033021675, -1.20141311585229, 1.15798302955599, -1.13334863003827], a = 0.2, v = 0.2, t = 0.2)
movej(p[0.446781970875783, -0.105298377088706, 0.37510470678595, -1.19891923068263, 1.14524445041797, -1.14442147810392], a = 0.2, v = 0.2, t = 0.2)
movej(p[0.445874645922411, -0.104508582987691, 0.376293048223875, -1.1996082310395, 1.1328721276816, -1.15630703787089], a = 0.2, v = 0.2, t = 0.2)
movej(p[0.444798446223679, -0.103773199376296, 0.377398385048079, -1.20332281367202, 1.11299482146405, -1.1698607624113], a = 0.2, v = 0.2, t = 0.2)
movej(p[0.443715919170281, -0.103102207122429, 0.378368203878796, -1.19668045650046, 1.09484885823176, -1.18353670306867], a = 0.2, v = 0.2, t = 0.2)
movej(p[0.442939819812141, -0.102538808607666, 0.378969624324026, -1.1964024384663, 1.07105409186088, -1.19058959507661], a = 0.2, v = 0.2, t = 0.2)
movej(p[0.44259691522634, -0.101777743207965, 0.379364122486377, -1.20061424141896, 1.05274198256822, -1.18907460457606], a = 0.2, v = 0.2, t = 0.2)
movej(p[0.442525957962694, -0.10123787192262, 0.379579745836216, -1.20552745890428, 1.05374695625595, -1.18413160763478], a = 0.2, v = 0.2, t = 0.2)
movej(p[0.442365124851242, -0.101314853073108, 0.379611349993066, -1.20788341671772, 1.05649850864728, -1.18516764322463], a = 0.2, v = 0.2, t = 0.2)
movej(p[0.442151866606991, -0.101334262652202, 0.379682553136246, -1.20536407263587, 1.05684321945382, -1.19161177121626], a = 0.2, v = 0.2, t = 0.2)
movej(p[0.441952868863061, -0.101250137882105, 0.379732169877035, -1.20584933340895, 1.0441667908795, -1.20015074988499], a = 0.2, v = 0.2, t = 0.2)
movej(p[0.442087042720562, -0.100686314360789, 0.379824197401585, -1.21527234949827, 1.02593400779162, -1.19775170339403], a = 0.2, v = 0.2, t = 0.2)
movej(p[0.442251514007405, -0.100305736989768, 0.379839063758585, -1.22230184730116, 1.02834925229614, -1.19277500157443], a = 0.2, v = 0.2, t = 0.2)
movej(p[0.442455569325947, -0.100497739450973, 0.379760468066811, -1.22603403313421, 1.03791263173614, -1.19059477623973], a = 0.2, v = 0.2, t = 0.2)
movej(p[0.442651523215755, -0.100680466363791, 0.379533842429909, -1.22282259355846, 1.04495002930633, -1.19044864672672], a = 0.2, v = 0.2, t = 0.2)
movej(p[0.443264647006697, -0.100847839855477, 0.378992255035888, -1.22640121698114, 1.04025572823458, -1.18663663438579], a = 0.2, v = 0.2, t = 0.2)
movej(p[0.44437491717448, -0.100927822129294, 0.378076114670002, -1.2359220710213, 1.05179738243316, -1.16958897666671], a = 0.2, v = 0.2, t = 0.2)
movej(p[0.445656356251957, -0.101495860897275, 0.377000445349817, -1.24094887793164, 1.08265182404387, -1.14880844859917], a = 0.2, v = 0.2, t = 0.2)
movej(p[0.44659647357749, -0.102652098568742, 0.375885273957693, -1.23298192830313, 1.12478389681115, -1.1311684126613], a = 0.2, v = 0.2, t = 0.2)
movej(p[0.447186544120128, -0.103883391192346, 0.374719364056084, -1.22051751033266, 1.15200471210936, -1.12008283635435], a = 0.2, v = 0.2, t = 0.2)
movej(p[0.447529049154418, -0.104900495044757, 0.373756107655484, -1.21007026372287, 1.16624786461993, -1.11722342191426], a = 0.2, v = 0.2, t = 0.2)
movej(p[0.447656410040389, -0.105518682430975, 0.373309007968339, -1.20564315388281, 1.16477036755894, -1.1208861982907], a = 0.2, v = 0.2, t = 0.2)
movej(p[0.447526920682978, -0.105707171066734, 0.37350264267728, -1.19737463000058, 1.16313473275086, -1.12341348180264], a = 0.2, v = 0.2, t = 0.2)
movej(p[0.447156769202019, -0.105366332364009, 0.374227674235124, -1.1967788078661, 1.15336557565032, -1.13163455934294], a = 0.2, v = 0.2, t = 0.2)
movej(p[0.446479159075331, -0.104754136454742, 0.375266514807534, -1.195286238065, 1.14602818002581, -1.14142216397527], a = 0.2, v = 0.2, t = 0.2)
movej(p[0.445543777590365, -0.104130968205584, 0.376403262872553, -1.19817322521242, 1.12647026220817, -1.16140072263797], a = 0.2, v = 0.2, t = 0.2)
movej(p[0.444343569163572, -0.103482169905886, 0.377567710639593, -1.19326506108157, 1.10104052242742, -1.17981751161277], a = 0.2, v = 0.2, t = 0.2)
movej(p[0.443439229215498, -0.102701282659692, 0.37839980700207, -1.19670404178006, 1.06926649422609, -1.18861164963656], a = 0.2, v = 0.2, t = 0.2)
movej(p[0.442971779182435, -0.101823398772766, 0.378977033720408, -1.2044810402434, 1.05919215682107, -1.18837554671616], a = 0.2, v = 0.2, t = 0.2)
movej(p[0.442700674412188, -0.101661052138091, 0.379185874209909, -1.20699399900824, 1.06354695691038, -1.189672742007], a = 0.2, v = 0.2, t = 0.2)
movej(p[0.442468525187368, -0.101614103636734, 0.379361672176153, -1.20831618391036, 1.06277921586556, -1.19305279232017], a = 0.2, v = 0.2, t = 0.2)
movej(p[0.442315187299577, -0.101346142668804, 0.379474428261281, -1.21466619193636, 1.04472280277486, -1.19882763349408], a = 0.2, v = 0.2, t = 0.2)
movej(p[0.442336785591304, -0.10099982600358, 0.379611392547439, -1.22243744805627, 1.03691753418088, -1.19956068617728], a = 0.2, v = 0.2, t = 0.2)
movej(p[0.442378576027194, -0.100737305144736, 0.379698320719166, -1.22444907086724, 1.03514629283233, -1.1980707536048], a = 0.2, v = 0.2, t = 0.2)
movej(p[0.44245125619025, -0.100705052354012, 0.379636655783517, -1.22017784195638, 1.03637616397695, -1.19631926166319], a = 0.2, v = 0.2, t = 0.2)
movej(p[0.44287747626011, -0.100514901036355, 0.379404270314863, -1.22376357817414, 1.02780855552197, -1.18982990150742], a = 0.2, v = 0.2, t = 0.2)
movej(p[0.443566728619411, -0.100669730854964, 0.378902695660631, -1.23039222000762, 1.04303105356572, -1.18064816968621], a = 0.2, v = 0.2, t = 0.2)
movej(p[0.444412741349063, -0.101119987971229, 0.378173640799376, -1.23552620333684, 1.06864732028603, -1.17087875366694], a = 0.2, v = 0.2, t = 0.2)
movej(p[0.445218538118566, -0.101771489276082, 0.377238930042974, -1.23517287580508, 1.08934679700679, -1.16202432533492], a = 0.2, v = 0.2, t = 0.2)
movej(p[0.446167839596845, -0.102302708150528, 0.376124747189593, -1.235461846918, 1.10328909293664, -1.14542896814087], a = 0.2, v = 0.2, t = 0.2)
movej(p[0.447094955777636, -0.103056321045105, 0.375047588264762, -1.231168327212, 1.12481265575084, -1.13040034243793], a = 0.2, v = 0.2, t = 0.2)
movej(p[0.447519693621445, -0.104186637198204, 0.374253439854841, -1.22136558192592, 1.15444784228603, -1.12370831098098], a = 0.2, v = 0.2, t = 0.2)
movej(p[0.447521777909582, -0.105045472948684, 0.373786481103943, -1.21057540042076, 1.16535016402078, -1.12398481533206], a = 0.2, v = 0.2, t = 0.2)
movej(p[0.447371023729904, -0.105349044865166, 0.373679543931578, -1.2068816533252, 1.1615373160407, -1.12413095440013], a = 0.2, v = 0.2, t = 0.2)
movej(p[0.44702753063586, -0.105071164618944, 0.37424752959434, -1.20526443607404, 1.15377922224103, -1.13181165483719], a = 0.2, v = 0.2, t = 0.2)
movej(p[0.446277667546029, -0.104541301248338, 0.375392654842948, -1.20137894957051, 1.14316158079508, -1.14954947324376], a = 0.2, v = 0.2, t = 0.2)
movej(p[0.444965051680457, -0.103778995134389, 0.376819878928958, -1.1982066812478, 1.11467856163868, -1.17411876578439], a = 0.2, v = 0.2, t = 0.2)
movej(p[0.443821205796058, -0.102888871788612, 0.377959644618495, -1.19762985963667, 1.08874091676138, -1.18629099452072], a = 0.2, v = 0.2, t = 0.2)
movej(p[0.443012381301458, -0.102378077717931, 0.37863544789461, -1.19997775573686, 1.07083079536346, -1.19358167369575], a = 0.2, v = 0.2, t = 0.2)
movej(p[0.442568295865266, -0.102040126711133, 0.379088042353196, -1.2017622997819, 1.06420846284296, -1.19965042554289], a = 0.2, v = 0.2, t = 0.2)
movej(p[0.442234006793413, -0.101787540198949, 0.379355872936218, -1.20239937977269, 1.04961389369281, -1.2066927372595], a = 0.2, v = 0.2, t = 0.2)
movej(p[0.442155681387, -0.101251134357826, 0.379543744138959, -1.20800537292776, 1.03476882669802, -1.20743164663879], a = 0.2, v = 0.2, t = 0.2)
movej(p[0.442249764505155, -0.100705196650147, 0.379646195328374, -1.21566367746506, 1.0279072721691, -1.19903620993922], a = 0.2, v = 0.2, t = 0.2)
movej(p[0.442315043120316, -0.100686469372282, 0.379678628599353, -1.21652086049042, 1.04139776557158, -1.19632093862085], a = 0.2, v = 0.2, t = 0.2)
movej(p[0.442319563553135, -0.100840381527387, 0.379689130651436, -1.21772168416819, 1.04518526475719, -1.19560331699075], a = 0.2, v = 0.2, t = 0.2)
movej(p[0.442268070588611, -0.100916211366223, 0.379611239823692, -1.21572328529688, 1.04455704812261, -1.19897298759768], a = 0.2, v = 0.2, t = 0.2)
movej(p[0.442605654423362, -0.100776531813786, 0.37933850561105, -1.22329521284112, 1.03356803421356, -1.19432940343389], a = 0.2, v = 0.2, t = 0.2)
movej(p[0.443346873539936, -0.100537992303945, 0.378882676165018, -1.23470196781607, 1.0372848680561, -1.18072660517504], a = 0.2, v = 0.2, t = 0.2)
movej(p[0.444311736768099, -0.10083710398945, 0.378289448614213, -1.23879751388186, 1.06075451243789, -1.16748572333015], a = 0.2, v = 0.2, t = 0.2)
movej(p[0.445172091444811, -0.101496271947178, 0.377514037637141, -1.23754510482739, 1.09240477185635, -1.15393570007677], a = 0.2, v = 0.2, t = 0.2)
movej(p[0.445883115925103, -0.102309816196506, 0.376527966629145, -1.22924658801516, 1.11650841912015, -1.14690599775582], a = 0.2, v = 0.2, t = 0.2)
movej(p[0.446590943326021, -0.103229242856189, 0.375280737633982, -1.2214954088509, 1.13787086795084, -1.13346063545514], a = 0.2, v = 0.2, t = 0.2)
movej(p[0.447338363036885, -0.104129285310199, 0.374069257127786, -1.21856116331732, 1.15055314131272, -1.11988068129286], a = 0.2, v = 0.2, t = 0.2)
movej(p[0.44774884218141, -0.10520660509354, 0.373284084389829, -1.20962698017714, 1.17219522952471, -1.11292657270114], a = 0.2, v = 0.2, t = 0.2)
movej(p[0.447709715140727, -0.105956853080726, 0.373104160371393, -1.20247774795122, 1.17707312446558, -1.11614253574388], a = 0.2, v = 0.2, t = 0.2)
movej(p[0.447453063455271, -0.106074883975076, 0.373402318517905, -1.19808979810182, 1.17373380080771, -1.1218442381547], a = 0.2, v = 0.2, t = 0.2)
movej(p[0.447023267766387, -0.105524196748677, 0.374251234641264, -1.19879790459934, 1.15719225552465, -1.13306043395003], a = 0.2, v = 0.2, t = 0.2)
movej(p[0.44625884523605, -0.104796956457087, 0.375389855756209, -1.20187257524729, 1.14146824852361, -1.14677678676275], a = 0.2, v = 0.2, t = 0.2)
movej(p[0.445146526656425, -0.103969691563598, 0.376714032679215, -1.20043693679611, 1.12149083359701, -1.16566667623859], a = 0.2, v = 0.2, t = 0.2)
movej(p[0.444033931729822, -0.103150528421462, 0.377797917449504, -1.20092700426854, 1.10321218190529, -1.17529638120729], a = 0.2, v = 0.2, t = 0.2)
movej(p[0.443284252359463, -0.102566392486924, 0.378488299846325, -1.20152364491404, 1.08749011666024, -1.18265675798946], a = 0.2, v = 0.2, t = 0.2)
movej(p[0.442816092761023, -0.102175616573418, 0.378964151602244, -1.20623932918996, 1.07085070775336, -1.18982642636558], a = 0.2, v = 0.2, t = 0.2)
movej(p[0.442473986391072, -0.101870243952028, 0.37925381925067, -1.2085328781766, 1.0566803123566, -1.19866707579138], a = 0.2, v = 0.2, t = 0.2)
movej(p[0.442326030012675, -0.101360254352474, 0.379492471477642, -1.2102711797623, 1.038278724068, -1.20239933392028], a = 0.2, v = 0.2, t = 0.2)
movej(p[0.442410434758291, -0.100799145688993, 0.379607526226278, -1.21588276692899, 1.02902188731581, -1.19854347972741], a = 0.2, v = 0.2, t = 0.2)
movej(p[0.442437309773232, -0.100804788905936, 0.379624119832712, -1.21598396988063, 1.04386133724338, -1.1951661813726], a = 0.2, v = 0.2, t = 0.2)
movej(p[0.442451218521461, -0.100988791581573, 0.37959219180457, -1.21355730162515, 1.05377248317744, -1.19430843326747], a = 0.2, v = 0.2, t = 0.2)
movej(p[0.44248154667458, -0.101109811146596, 0.379437080591211, -1.21136526425389, 1.05801712753606, -1.19121217668488], a = 0.2, v = 0.2, t = 0.2)
movej(p[0.442975846605333, -0.101033656591592, 0.379100262813161, -1.21160371346338, 1.0494307124593, -1.18487409689986], a = 0.2, v = 0.2, t = 0.2)
movej(p[0.443917187782348, -0.100829191677228, 0.378515705082094, -1.22264834573506, 1.04903393992598, -1.16826775577011], a = 0.2, v = 0.2, t = 0.2)
movej(p[0.444967938118712, -0.101156746330503, 0.377834633911548, -1.22712619062566, 1.07585498638042, -1.15633194178437], a = 0.2, v = 0.2, t = 0.2)
movej(p[0.445751219633984, -0.101854624835138, 0.377098438541621, -1.23200303424325, 1.10107274992215, -1.14843028384878], a = 0.2, v = 0.2, t = 0.2)
movej(p[0.446291943185992, -0.102635084575962, 0.376173700014601, -1.22831128619033, 1.12174394270401, -1.14307012504404], a = 0.2, v = 0.2, t = 0.2)
movej(p[0.446898339093003, -0.103471382191526, 0.375024998295645, -1.22684604317667, 1.13334975798113, -1.13374745489022], a = 0.2, v = 0.2, t = 0.2)
movej(p[0.447552777981428, -0.10421596951338, 0.373912407222222, -1.21988084730491, 1.14922136627042, -1.11694028357181], a = 0.2, v = 0.2, t = 0.2)
movej(p[0.447840786744445, -0.105153435126131, 0.373284127909945, -1.21467946985379, 1.1681765483687, -1.11542446564377], a = 0.2, v = 0.2, t = 0.2)
movej(p[0.447679412369206, -0.105860223042369, 0.37315078469686, -1.19996391953879, 1.17993583608535, -1.11785728907128], a = 0.2, v = 0.2, t = 0.2)
movej(p[0.44734071776631, -0.106011715031719, 0.373418279431634, -1.19268612448725, 1.17689966955157, -1.12399354661437], a = 0.2, v = 0.2, t = 0.2)
movej(p[0.447044317159393, -0.10561294984744, 0.373991633465392, -1.18818736006728, 1.1654421611853, -1.12693231365622], a = 0.2, v = 0.2, t = 0.2)
movej(p[0.446483697593028, -0.105032548736507, 0.374941835560862, -1.19365517734314, 1.14738293449456, -1.13945250044741], a = 0.2, v = 0.2, t = 0.2)
movej(p[0.445498840546486, -0.104332747163467, 0.376146725830699, -1.19601004284347, 1.12532308690664, -1.15755566030453], a = 0.2, v = 0.2, t = 0.2)
movej(p[0.444354437441517, -0.103458223189953, 0.377372647460775, -1.20145463934778, 1.09901035623228, -1.17370546146089], a = 0.2, v = 0.2, t = 0.2)
movej(p[0.44346737272423, -0.10282566085844, 0.378193216590888, -1.20165266209579, 1.08469925197334, -1.18133141044083], a = 0.2, v = 0.2, t = 0.2)
movej(p[0.442895490573941, -0.102331106415228, 0.378773770835365, -1.20467805176273, 1.07081120705928, -1.19099149453262], a = 0.2, v = 0.2, t = 0.2)
movej(p[0.442473065131366, -0.102042937165059, 0.379107113065546, -1.20028804753209, 1.06199376833229, -1.19687579499478], a = 0.2, v = 0.2, t = 0.2)
movej(p[0.442321312179198, -0.101522241203267, 0.37933789273034, -1.20672977707588, 1.04237780164385, -1.20072646240828], a = 0.2, v = 0.2, t = 0.2)
movej(p[0.442383050246463, -0.100935705305324, 0.379485727924979, -1.21459053625453, 1.03337145960887, -1.19561133738795], a = 0.2, v = 0.2, t = 0.2)
movej(p[0.442393106207217, -0.100997121071352, 0.379481669127561, -1.21703618782353, 1.04676482787518, -1.19605635601566], a = 0.2, v = 0.2, t = 0.2)
movej(p[0.442397897775183, -0.101101979158181, 0.37947041999413, -1.21491902618538, 1.05599028768171, -1.19500504671192], a = 0.2, v = 0.2, t = 0.2)
movej(p[0.442413369348033, -0.101178188733097, 0.37934577899917, -1.21271671042673, 1.05517779839472, -1.19497021991876], a = 0.2, v = 0.2, t = 0.2)
movej(p[0.44296069074982, -0.100964588747772, 0.37898643746617, -1.2195805743097, 1.04597759054976, -1.18538689608353], a = 0.2, v = 0.2, t = 0.2)
movej(p[0.443902446834374, -0.100786919645141, 0.378426032800111, -1.23434202461775, 1.04539134941773, -1.1694113640635], a = 0.2, v = 0.2, t = 0.2)
movej(p[0.444920030361068, -0.101338479592735, 0.377705026551588, -1.2343141394505, 1.08406757475795, -1.15362191979934], a = 0.2, v = 0.2, t = 0.2)
movej(p[0.445735551598201, -0.102124714211249, 0.376911950736211, -1.2284275133806, 1.11690185738461, -1.13977039845923], a = 0.2, v = 0.2, t = 0.2)
movej(p[0.446361507017772, -0.103006755732888, 0.375924440216564, -1.21650010555694, 1.14143771779835, -1.13095200339846], a = 0.2, v = 0.2, t = 0.2)
movej(p[0.447091360186413, -0.103859152985648, 0.374728682349849, -1.21030455326676, 1.15347010549305, -1.11896586167336], a = 0.2, v = 0.2, t = 0.2)
movej(p[0.447804047412723, -0.104670922841678, 0.373569728307103, -1.20678033087363, 1.16773307451546, -1.10482388473481], a = 0.2, v = 0.2, t = 0.2)
movej(p[0.44802490747673, -0.105629348519988, 0.37292404994965, -1.19661316901703, 1.19044535376861, -1.09886061296282], a = 0.2, v = 0.2, t = 0.2)
movej(p[0.44791715356768, -0.10639133022854, 0.372540978662661, -1.1821410859106, 1.20592423468681, -1.09625292375711], a = 0.2, v = 0.2, t = 0.2)
movej(p[0.447649173219083, -0.106801265827008, 0.372316219707612, -1.17365283818898, 1.21066323956792, -1.09707151776911], a = 0.2, v = 0.2, t = 0.2)
movej(p[0.447469951272236, -0.106816033540738, 0.372368205940398, -1.17405040950067, 1.20930968109748, -1.09690632266687], a = 0.2, v = 0.2, t = 0.2)
movej(p[0.447137933673313, -0.106616467044879, 0.372886333509378, -1.18363037087954, 1.19472959114625, -1.10894157341544], a = 0.2, v = 0.2, t = 0.2)
movej(p[0.446352691780934, -0.10589789170618, 0.374141967370448, -1.18513418239879, 1.17044563482911, -1.12847202544538], a = 0.2, v = 0.2, t = 0.2)
movej(p[0.445254284406917, -0.10498730763304, 0.375544779480622, -1.18508902651855, 1.14500519788291, -1.15229324029757], a = 0.2, v = 0.2, t = 0.2)
movej(p[0.444068630516857, -0.10420092711268, 0.376780970881653, -1.18187963839635, 1.12754236510774, -1.16746176292315], a = 0.2, v = 0.2, t = 0.2)
movej(p[0.443054199254154, -0.103637072090789, 0.377727152654532, -1.18274617406494, 1.10903234001027, -1.18292101948774], a = 0.2, v = 0.2, t = 0.2)
movej(p[0.442367649200401, -0.103206733277977, 0.37841706675351, -1.19135098116442, 1.08634224552192, -1.19417776667888], a = 0.2, v = 0.2, t = 0.2)
movej(p[0.442039059545702, -0.102481017654016, 0.378955625626766, -1.20014117951457, 1.06444061704802, -1.19631914835932], a = 0.2, v = 0.2, t = 0.2)
movej(p[0.44189090365223, -0.10181985929631, 0.379363449786257, -1.20817466242823, 1.05612499631459, -1.19632447163598], a = 0.2, v = 0.2, t = 0.2)
movej(p[0.441675684160905, -0.10178307739399, 0.379524514128107, -1.20587586547422, 1.06262777476481, -1.19634773471916], a = 0.2, v = 0.2, t = 0.2)
movej(p[0.441432045601735, -0.101721456643093, 0.379709429637311, -1.20269291265756, 1.0599446871751, -1.20290314170751], a = 0.2, v = 0.2, t = 0.2)
movej(p[0.441198515361237, -0.101601063345154, 0.379844268209629, -1.2001631495939, 1.04651214564588, -1.21030621795895], a = 0.2, v = 0.2, t = 0.2)
movej(p[0.441257099741472, -0.10102503381321, 0.3800003642657, -1.20171091046075, 1.0291335226287, -1.20771731627701], a = 0.2, v = 0.2, t = 0.2)
movej(p[0.441416552307063, -0.100502389892321, 0.380091891864182, -1.20750621809765, 1.02566445706159, -1.20306480516291], a = 0.2, v = 0.2, t = 0.2)
movej(p[0.44149503866334, -0.100557124525506, 0.380069716612021, -1.20814886129153, 1.03970886661519, -1.1996090150694], a = 0.2, v = 0.2, t = 0.2)
movej(p[0.441477291698972, -0.100635500633281, 0.380072059897271, -1.2053837678317, 1.04755167124138, -1.19983997683201], a = 0.2, v = 0.2, t = 0.2)
movej(p[0.441506206123986, -0.100734076313625, 0.37994824446499, -1.20212816500312, 1.04461504116719, -1.20152212498901], a = 0.2, v = 0.2, t = 0.2)
movej(p[0.442054064616493, -0.100494644461767, 0.379648947045349, -1.2080719928506, 1.0370204189115, -1.19357190585166], a = 0.2, v = 0.2, t = 0.2)
movej(p[0.44295719112159, -0.100431521535066, 0.379179880469674, -1.2176283501085, 1.04389503172567, -1.18292396202873], a = 0.2, v = 0.2, t = 0.2)
movej(p[0.443774032254897, -0.100871287546853, 0.37867577895301, -1.22306748903883, 1.06575881099383, -1.17417700218117], a = 0.2, v = 0.2, t = 0.2)
movej(p[0.444471882666647, -0.1013214360019, 0.378039740026065, -1.22621235448337, 1.08800009456291, -1.16542740716587], a = 0.2, v = 0.2, t = 0.2)
movej(p[0.445218795805351, -0.101855578160605, 0.377127954941726, -1.23212194775936, 1.10072662385697, -1.15483900234658], a = 0.2, v = 0.2, t = 0.2)
movej(p[0.446099570514185, -0.102429368624589, 0.376188493614304, -1.23854751598484, 1.11435617706695, -1.14424902341108], a = 0.2, v = 0.2, t = 0.2)
movej(p[0.446893780449606, -0.103366012172513, 0.375148410152745, -1.23724764407793, 1.13351466687734, -1.13109470465752], a = 0.2, v = 0.2, t = 0.2)
movej(p[0.447425769550164, -0.104368009021028, 0.374255958251041, -1.22835483514156, 1.15276033827227, -1.12261168066895], a = 0.2, v = 0.2, t = 0.2)
movej(p[0.447627735331572, -0.10509583905981, 0.373654257696125, -1.21469131696543, 1.16712580698287, -1.1158784569939], a = 0.2, v = 0.2, t = 0.2)
movej(p[0.44761152107569, -0.105561883975037, 0.373459304766172, -1.20641744457939, 1.17163262493745, -1.11635817110407], a = 0.2, v = 0.2, t = 0.2)
movej(p[0.44736013709711, -0.105562138320652, 0.373846335269648, -1.20168854250581, 1.16811524225334, -1.12189108139584], a = 0.2, v = 0.2, t = 0.2)
movej(p[0.447049341972076, -0.105022996827898, 0.374555349134848, -1.20683999406681, 1.14775413405896, -1.12994049358249], a = 0.2, v = 0.2, t = 0.2)
movej(p[0.446491264444047, -0.103964619818988, 0.375696531375606, -1.21085017709981, 1.12972525079319, -1.14481824236741], a = 0.2, v = 0.2, t = 0.2)
movej(p[0.445393918007152, -0.103442232835752, 0.376963089675914, -1.20827981760092, 1.11517106709527, -1.16519938632869], a = 0.2, v = 0.2, t = 0.2)
movej(p[0.444002751001294, -0.103069159121645, 0.378166837423639, -1.2029294780117, 1.09517875088422, -1.18402955320178], a = 0.2, v = 0.2, t = 0.2)
movej(p[0.442834664484061, -0.102679383689209, 0.378980791465541, -1.20307850988648, 1.07356764277744, -1.19362044467015], a = 0.2, v = 0.2, t = 0.2)
movej(p[0.442183405940692, -0.102228472311902, 0.379464268046674, -1.20359300785251, 1.06506545947133, -1.19413223475655], a = 0.2, v = 0.2, t = 0.2)
movej(p[0.4418672648398, -0.101833264629235, 0.379720787852514, -1.20284202135869, 1.06378297860685, -1.19668556816962], a = 0.2, v = 0.2, t = 0.2)
movej(p[0.441647746576028, -0.101596439745236, 0.379848992400752, -1.19913569029733, 1.05799089609242, -1.19940356180849], a = 0.2, v = 0.2, t = 0.2)
movej(p[0.441628301980269, -0.101082112267536, 0.37996617116751, -1.20651114969663, 1.04369004570401, -1.20089864852846], a = 0.2, v = 0.2, t = 0.2)
movej(p[0.441580043443701, -0.10090594378207, 0.379987251688775, -1.21199488316285, 1.04512140858451, -1.20250010457576], a = 0.2, v = 0.2, t = 0.2)
movej(p[0.441524298813798, -0.100881649679034, 0.380008597479805, -1.21430209038735, 1.04678387186767, -1.2062245921719], a = 0.2, v = 0.2, t = 0.2)
movej(p[0.441382456727432, -0.100880536628402, 0.380007167915735, -1.21619276118749, 1.03590021169747, -1.21208509909284], a = 0.2, v = 0.2, t = 0.2)
movej(p[0.441535912453746, -0.100509921917313, 0.380020453471259, -1.21504298200834, 1.02326485174147, -1.2080861917643], a = 0.2, v = 0.2, t = 0.2)
movej(p[0.441981578501271, -0.100158842412216, 0.379871192767508, -1.22267214606693, 1.0160743266825, -1.1989134621582], a = 0.2, v = 0.2, t = 0.2)
movej(p[0.442641885164971, -0.100371399131926, 0.379495830638785, -1.21900572890091, 1.04538273161201, -1.18473972387038], a = 0.2, v = 0.2, t = 0.2)
movej(p[0.443395686281708, -0.100863496104978, 0.378880338847353, -1.22282039365191, 1.06657466166637, -1.17287808882089], a = 0.2, v = 0.2, t = 0.2)
movej(p[0.444269453409124, -0.101411162049384, 0.37798713559468, -1.22232020646583, 1.09027400052402, -1.15877168956706], a = 0.2, v = 0.2, t = 0.2)
movej(p[0.445471271949806, -0.102026389264431, 0.376893397777496, -1.22924868673209, 1.10404289792401, -1.14613711483924], a = 0.2, v = 0.2, t = 0.2)
movej(p[0.446533145597375, -0.102826068039456, 0.375795282185323, -1.23112154289968, 1.12829802458593, -1.13175407499911], a = 0.2, v = 0.2, t = 0.2)
movej(p[0.447210913376083, -0.103863585131158, 0.374824482843198, -1.22576368987905, 1.15193429509544, -1.12534637492807], a = 0.2, v = 0.2, t = 0.2)
movej(p[0.447480084428824, -0.104651373553411, 0.374249183611293, -1.2249781467976, 1.15255938677525, -1.12734726921115], a = 0.2, v = 0.2, t = 0.2)
movej(p[0.44732757909641, -0.10489834049729, 0.374462659750981, -1.21656517682484, 1.14225563406439, -1.14074587350117], a = 0.2, v = 0.2, t = 0.2)
movej(p[0.446587648505513, -0.104530249693522, 0.375530644400138, -1.21514469452113, 1.1202701757113, -1.15767412877072], a = 0.2, v = 0.2, t = 0.2)
movej(p[0.445270200662752, -0.103713735232572, 0.377046241133001, -1.20852228630929, 1.09743751137357, -1.17688314346847], a = 0.2, v = 0.2, t = 0.2)
movej(p[0.443983957125864, -0.102775270263481, 0.378245459769657, -1.20944178621591, 1.07165128010864, -1.18842073153229], a = 0.2, v = 0.2, t = 0.2)
movej(p[0.443201806490247, -0.101982736045661, 0.378923902059383, -1.21066803044233, 1.05454776342655, -1.19162961159555], a = 0.2, v = 0.2, t = 0.2)
movej(p[0.442721341994563, -0.101610242041015, 0.379280059709716, -1.20864903824921, 1.05976129168681, -1.19501057293165], a = 0.2, v = 0.2, t = 0.2)
movej(p[0.442383954966794, -0.101662630439132, 0.379393346687059, -1.2098067904435, 1.05964367226878, -1.199716943324], a = 0.2, v = 0.2, t = 0.2)
movej(p[0.442035239801823, -0.101613335219141, 0.379539996723559, -1.20766821013285, 1.05104170966766, -1.20801005081256], a = 0.2, v = 0.2, t = 0.2)
movej(p[0.441911698228188, -0.101330978738545, 0.379646180573315, -1.20705544314921, 1.03377721728455, -1.2090028263321], a = 0.2, v = 0.2, t = 0.2)
movej(p[0.442030118797567, -0.100747700626004, 0.379740901366062, -1.21026093164766, 1.02124059238762, -1.20619265204444], a = 0.2, v = 0.2, t = 0.2)
movej(p[0.442198076437551, -0.100438760242429, 0.379772520244404, -1.21213453849486, 1.0315121696082, -1.20211684215779], a = 0.2, v = 0.2, t = 0.2)
movej(p[0.442287842029275, -0.100623114557296, 0.379719505830966, -1.21293791883353, 1.03856853258724, -1.20087258729143], a = 0.2, v = 0.2, t = 0.2)
movej(p[0.442303072554658, -0.100722563441794, 0.379613346797112, -1.21373669506633, 1.04165074535301, -1.19952615752337], a = 0.2, v = 0.2, t = 0.2)
movej(p[0.442662763851811, -0.100783831112719, 0.379276742047217, -1.21912998224763, 1.03583589087466, -1.19482652335228], a = 0.2, v = 0.2, t = 0.2)
movej(p[0.443589741490331, -0.100654271775072, 0.378663056253486, -1.22814079941448, 1.03726450299339, -1.17829961033601], a = 0.2, v = 0.2, t = 0.2)
movej(p[0.444861169140122, -0.100937939608656, 0.377828448559037, -1.23574064460178, 1.06523094023949, -1.15927357711265], a = 0.2, v = 0.2, t = 0.2)
movej(p[0.445959811316672, -0.101796181507603, 0.376907241032799, -1.23607990548137, 1.10103140679019, -1.14198008823808], a = 0.2, v = 0.2, t = 0.2)
movej(p[0.446777512328807, -0.102726767761991, 0.375871112442904, -1.23140896146812, 1.12910630325435, -1.12917080692826], a = 0.2, v = 0.2, t = 0.2)
movej(p[0.447511667199484, -0.103631249552786, 0.374842727193894, -1.22814648877324, 1.14258377008667, -1.12215774429805], a = 0.2, v = 0.2, t = 0.2)
movej(p[0.448001155266129, -0.104524575225877, 0.374011284690225, -1.22224414130859, 1.15650423410859, -1.11603710426583], a = 0.2, v = 0.2, t = 0.2)
movej(p[0.448233074210285, -0.105318440965722, 0.373514951797457, -1.21791034201172, 1.17012748205151, -1.11140498308648], a = 0.2, v = 0.2, t = 0.2)
movej(p[0.448177251654339, -0.10583690675455, 0.373278270644718, -1.20923149140136, 1.17784518329277, -1.10955949247649], a = 0.2, v = 0.2, t = 0.2)
movej(p[0.447953976271665, -0.105946122694866, 0.37347187039129, -1.20028408789515, 1.17872864016941, -1.11314090706769], a = 0.2, v = 0.2, t = 0.2)
movej(p[0.447478575092139, -0.105690634519821, 0.374201321041381, -1.19501197498193, 1.16955419737861, -1.12870331517406], a = 0.2, v = 0.2, t = 0.2)
movej(p[0.446308550048499, -0.10497688075386, 0.375607496122525, -1.19334378922769, 1.14428139783742, -1.15346438027781], a = 0.2, v = 0.2, t = 0.2)
movej(p[0.444939509919676, -0.103926298400002, 0.377004572047389, -1.19914395713771, 1.11000845481713, -1.17054259203948], a = 0.2, v = 0.2, t = 0.2)
movej(p[0.443665822844073, -0.10286273819711, 0.378075646488858, -1.20665763514925, 1.08269701482194, -1.1836806540675], a = 0.2, v = 0.2, t = 0.2)
movej(p[0.442746526393828, -0.102515412709895, 0.378677312663657, -1.20506279611255, 1.07232860833018, -1.19090324198609], a = 0.2, v = 0.2, t = 0.2)
movej(p[0.442132048453043, -0.102270424808959, 0.379100451505745, -1.20476815634857, 1.05503641208558, -1.19714412787582], a = 0.2, v = 0.2, t = 0.2)
movej(p[0.441841366700478, -0.101858066332407, 0.37939677338756, -1.20693180562361, 1.04309194555501, -1.1992387267832], a = 0.2, v = 0.2, t = 0.2)
movej(p[0.441745877763028, -0.101412525185305, 0.3796516062949, -1.21108527627328, 1.03684318278077, -1.19842929643732], a = 0.2, v = 0.2, t = 0.2)
movej(p[0.441675783095694, -0.101079032342357, 0.379821412099611, -1.21415071332687, 1.03569577688752, -1.20183935747793], a = 0.2, v = 0.2, t = 0.2)
movej(p[0.441587722877256, -0.10094121413683, 0.379899739298936, -1.21544270208864, 1.03225467362879, -1.20489015841406], a = 0.2, v = 0.2, t = 0.2)
movej(p[0.441632422155307, -0.100455938930675, 0.379981713251098, -1.22223790710925, 1.01902670403831, -1.20378647335151], a = 0.2, v = 0.2, t = 0.2)
movej(p[0.44162415836936, -0.100351616513533, 0.379956452943829, -1.22427029678627, 1.02344214559386, -1.20409446287729], a = 0.2, v = 0.2, t = 0.2)
movej(p[0.441700875700984, -0.100422663525096, 0.379926943738886, -1.22012078597674, 1.03205325852598, -1.20302568383569], a = 0.2, v = 0.2, t = 0.2)
movej(p[0.441804249445119, -0.100567154388622, 0.379769608929384, -1.21606456660662, 1.03305340240286, -1.20432244492019], a = 0.2, v = 0.2, t = 0.2)
movej(p[0.442366044555136, -0.100383922373806, 0.379435001326949, -1.22278363239665, 1.02769591057644, -1.19498990929628], a = 0.2, v = 0.2, t = 0.2)
movej(p[0.443244134764018, -0.100304235818232, 0.37893619466939, -1.23212554535951, 1.03764834189111, -1.17986582919234], a = 0.2, v = 0.2, t = 0.2)
movej(p[0.444179626398388, -0.10085197837169, 0.378279812480756, -1.2333981803366, 1.06686436677464, -1.16576064403676], a = 0.2, v = 0.2, t = 0.2)
movej(p[0.445031270143463, -0.101499044282748, 0.377440232926978, -1.23187251901972, 1.0917991024967, -1.15350555511658], a = 0.2, v = 0.2, t = 0.2)
movej(p[0.445880485200046, -0.102227593497788, 0.376446456156804, -1.23050767056322, 1.10809588590169, -1.14465646296538], a = 0.2, v = 0.2, t = 0.2)
movej(p[0.446606037625372, -0.102977814764365, 0.375458305949761, -1.2278044164613, 1.12910008846778, -1.1336868526783], a = 0.2, v = 0.2, t = 0.2)
movej(p[0.44713376153373, -0.103852761140413, 0.374570168208649, -1.22251516695574, 1.15050238642931, -1.12330915873664], a = 0.2, v = 0.2, t = 0.2)
movej(p[0.447353323974958, -0.104789123268216, 0.373825526375539, -1.20935064686258, 1.16787259732642, -1.11927337202829], a = 0.2, v = 0.2, t = 0.2)
movej(p[0.447528275511325, -0.105320500256647, 0.373216718108439, -1.20217765601558, 1.17476545265293, -1.11081594700853], a = 0.2, v = 0.2, t = 0.2)
movej(p[0.447586458331763, -0.105627419963565, 0.373002261252844, -1.19972849666685, 1.17860015174785, -1.11300848122772], a = 0.2, v = 0.2, t = 0.2)
movej(p[0.447278601983276, -0.105941414415211, 0.373200381123204, -1.19027042004387, 1.18702093433756, -1.11543622874403], a = 0.2, v = 0.2, t = 0.2)
movej(p[0.446852573953723, -0.105909487840859, 0.373708102653066, -1.19085869341474, 1.17765843334116, -1.12531489027469], a = 0.2, v = 0.2, t = 0.2)
movej(p[0.446400646304919, -0.105417578310407, 0.374535915013506, -1.19390557551075, 1.15795927563398, -1.13413016041049], a = 0.2, v = 0.2, t = 0.2)
movej(p[0.44571281809587, -0.104594036836047, 0.375654725723521, -1.19883046506588, 1.14159020575583, -1.14857138297959], a = 0.2, v = 0.2, t = 0.2)
movej(p[0.444734290193374, -0.104062633633088, 0.376777986277633, -1.19877649580306, 1.12327048565429, -1.16712670173294], a = 0.2, v = 0.2, t = 0.2)
movej(p[0.443509142812945, -0.103570858324109, 0.377811310629231, -1.19493718291955, 1.1039423323982, -1.1842866417893], a = 0.2, v = 0.2, t = 0.2)
movej(p[0.442615323041842, -0.102986028221063, 0.378561978827755, -1.19696561513895, 1.07365232706203, -1.19474425374122], a = 0.2, v = 0.2, t = 0.2)
movej(p[0.442242978495018, -0.102181326151152, 0.379065043315103, -1.19980360674331, 1.05337561338674, -1.19643235601745], a = 0.2, v = 0.2, t = 0.2)
movej(p[0.442099592474572, -0.101567145882783, 0.379376672601896, -1.20319987125108, 1.05196116318758, -1.19588809560222], a = 0.2, v = 0.2, t = 0.2)
movej(p[0.441931655766516, -0.101549834032763, 0.379480365760477, -1.20182427032981, 1.05616625071711, -1.19848301504704], a = 0.2, v = 0.2, t = 0.2)
movej(p[0.441730298348726, -0.10149087713147, 0.379576994001126, -1.2007279584712, 1.05705029614983, -1.20250706571414], a = 0.2, v = 0.2, t = 0.2)
movej(p[0.44155052888012, -0.101262315899531, 0.379681359184074, -1.20575956517938, 1.04279843626852, -1.20479852119764], a = 0.2, v = 0.2, t = 0.2)
movej(p[0.441609630404332, -0.100843993210274, 0.379805495510298, -1.21010034300564, 1.03797367056803, -1.20098434498025], a = 0.2, v = 0.2, t = 0.2)
movej(p[0.441708854569007, -0.100638603642977, 0.379872842231005, -1.21516991427035, 1.03168426816962, -1.19950464106405], a = 0.2, v = 0.2, t = 0.2)
movej(p[0.441910973126284, -0.100645888813744, 0.379758455177581, -1.21441367894196, 1.03920383725206, -1.19742320491059], a = 0.2, v = 0.2, t = 0.2)
movej(p[0.44244009766384, -0.100597871554037, 0.379469840821344, -1.22111124216152, 1.03928260784016, -1.1926005812839], a = 0.2, v = 0.2, t = 0.2)
movej(p[0.443143347318613, -0.10080121320549, 0.378957727486284, -1.22556961233464, 1.05762305038517, -1.18309711131995], a = 0.2, v = 0.2, t = 0.2)
movej(p[0.444044248893635, -0.101264554016952, 0.378145142153499, -1.22838370646924, 1.0834031557481, -1.16795219304183], a = 0.2, v = 0.2, t = 0.2)
movej(p[0.445006804904289, -0.102007689258414, 0.37695683588437, -1.22768572505313, 1.10623296177676, -1.15324054409875], a = 0.2, v = 0.2, t = 0.2)
movej(p[0.446109974741121, -0.102710357958572, 0.37558490219103, -1.22569484298011, 1.12742888762923, -1.1360702463512], a = 0.2, v = 0.2, t = 0.2)
movej(p[0.447143465648122, -0.103695827928084, 0.374300147277735, -1.21972087241396, 1.15177976707292, -1.12258024372176], a = 0.2, v = 0.2, t = 0.2)
movej(p[0.447638353854097, -0.104982711250159, 0.373430513677963, -1.20705906245557, 1.17809079438272, -1.11861069078218], a = 0.2, v = 0.2, t = 0.2)
movej(p[0.447558466337447, -0.105850652416529, 0.373251661654203, -1.20256245135585, 1.17910952960317, -1.12207838088203], a = 0.2, v = 0.2, t = 0.2)
movej(p[0.447113800068894, -0.105871713618426, 0.373814371015583, -1.20283282000158, 1.16041039934109, -1.13460957002358], a = 0.2, v = 0.2, t = 0.2)
movej(p[0.446473078623799, -0.105051747114213, 0.375002579941557, -1.20826995824991, 1.12727286253415, -1.15041191148199], a = 0.2, v = 0.2, t = 0.2)
movej(p[0.445640941256114, -0.103852243798806, 0.376290684712928, -1.21169686775007, 1.10738258900069, -1.15955300924565], a = 0.2, v = 0.2, t = 0.2)
movej(p[0.444632538339317, -0.103250574673405, 0.377335000843146, -1.20853921131729, 1.09977657530238, -1.17366613072322], a = 0.2, v = 0.2, t = 0.2)
movej(p[0.443707741411961, -0.102919050204514, 0.378017999375414, -1.20779401423448, 1.09302646025323, -1.18479724453054], a = 0.2, v = 0.2, t = 0.2)
movej(p[0.442946958532091, -0.102532877557747, 0.378588278440654, -1.20797934867674, 1.07194912683864, -1.19890585622538], a = 0.2, v = 0.2, t = 0.2)
movej(p[0.442505587995678, -0.101996158837831, 0.378998136290504, -1.21158510175319, 1.0514735618116, -1.20324213631338], a = 0.2, v = 0.2, t = 0.2)
movej(p[0.442369512873884, -0.101230606404078, 0.37932087579367, -1.22080130413311, 1.03343379451594, -1.19938586212959], a = 0.2, v = 0.2, t = 0.2)
movej(p[0.442268255941625, -0.101043488451683, 0.379454123606639, -1.22641053126193, 1.03878614677711, -1.20119406719129], a = 0.2, v = 0.2, t = 0.2)
movej(p[0.442189117227991, -0.101076558163694, 0.379534958731751, -1.2261132778509, 1.03935964394671, -1.2050357579323], a = 0.2, v = 0.2, t = 0.2)
movej(p[0.442095143636597, -0.101228450696693, 0.379535276441888, -1.2220270849389, 1.04843181389755, -1.20668360816799], a = 0.2, v = 0.2, t = 0.2)
movej(p[0.442102385167342, -0.101164870780801, 0.379565849983188, -1.21961177731203, 1.04145060455903, -1.20653442482579], a = 0.2, v = 0.2, t = 0.2)
movej(p[0.442370940081093, -0.100843568256681, 0.379413806924832, -1.22345399860816, 1.03727494764795, -1.20083927624607], a = 0.2, v = 0.2, t = 0.2)
movej(p[0.443004392141408, -0.100664123311028, 0.378981988196587, -1.22842336246616, 1.03716453547625, -1.19238570536657], a = 0.2, v = 0.2, t = 0.2)
movej(p[0.444039059917478, -0.100626408524343, 0.378290433611231, -1.23688328161537, 1.04390148317664, -1.17750209158478], a = 0.2, v = 0.2, t = 0.2)
movej(p[0.444966548372635, -0.101212371207003, 0.377546777753337, -1.23782028922853, 1.07865586900779, -1.16349064172965], a = 0.2, v = 0.2, t = 0.2)
movej(p[0.445728473952718, -0.102092758499816, 0.376680262153322, -1.23470887431318, 1.10961443637036, -1.15232812557528], a = 0.2, v = 0.2, t = 0.2)
movej(p[0.446409090221553, -0.103101677344592, 0.375542527665776, -1.22213337435457, 1.1388891003366, -1.14040393220559], a = 0.2, v = 0.2, t = 0.2)
movej(p[0.447132723275482, -0.104037322606777, 0.37427291147861, -1.21476589971962, 1.15413545286773, -1.12606385720776], a = 0.2, v = 0.2, t = 0.2)
movej(p[0.447761866765709, -0.104917533605083, 0.373155147875353, -1.2068946671731, 1.17123080607584, -1.11446162674403], a = 0.2, v = 0.2, t = 0.2)
movej(p[0.447883706340276, -0.105923756284154, 0.37266366500872, -1.1977754071368, 1.18485465290606, -1.11345855703243], a = 0.2, v = 0.2, t = 0.2)
movej(p[0.447671639361169, -0.106426550262901, 0.372697561783019, -1.18933737948182, 1.18268151934808, -1.11781479480927], a = 0.2, v = 0.2, t = 0.2)
movej(p[0.447371476761191, -0.106144932192392, 0.37327420232611, -1.19326254878786, 1.16562440603512, -1.12573241133846], a = 0.2, v = 0.2, t = 0.2)
movej(p[0.446795943551767, -0.105438655261792, 0.374283806031607, -1.19819871420129, 1.1489527425809, -1.13811342529492], a = 0.2, v = 0.2, t = 0.2)
movej(p[0.445884361825914, -0.104603001310765, 0.375554255594251, -1.20050085941463, 1.13043551157683, -1.15555899897447], a = 0.2, v = 0.2, t = 0.2)
movej(p[0.444690775273171, -0.103811852335048, 0.37679551564365, -1.19747842963512, 1.10971029359027, -1.17512373237132], a = 0.2, v = 0.2, t = 0.2)
movej(p[0.443734392249609, -0.102970005971825, 0.377757886679203, -1.19887175683408, 1.08328569508272, -1.18504680951671], a = 0.2, v = 0.2, t = 0.2)
movej(p[0.443241792712438, -0.102133545887113, 0.378344322459884, -1.2100566260494, 1.06340246345612, -1.1878321357262], a = 0.2, v = 0.2, t = 0.2)
movej(p[0.442851465947276, -0.101852738693335, 0.378705225039011, -1.21156089275383, 1.0697571131682, -1.1889056809772], a = 0.2, v = 0.2, t = 0.2)
movej(p[0.442523339711764, -0.101863860449592, 0.378940444128599, -1.20999270482459, 1.07189997534134, -1.19225284781198], a = 0.2, v = 0.2, t = 0.2)
movej(p[0.44217640552668, -0.101685830408028, 0.379185722463396, -1.20583933206617, 1.06228402589411, -1.19428397151364], a = 0.2, v = 0.2, t = 0.2)
movej(p[0.442111976737153, -0.101270960509056, 0.37941623408481, -1.20855135761776, 1.04759192876504, -1.1929013652036], a = 0.2, v = 0.2, t = 0.2)
movej(p[0.442090266126441, -0.100904262840268, 0.379568612279077, -1.21622906007252, 1.04102553485403, -1.19140574453729], a = 0.2, v = 0.2, t = 0.2)
movej(p[0.442072330735181, -0.100691856279478, 0.379665850014416, -1.21998679912463, 1.03967309579126, -1.19608803777648], a = 0.2, v = 0.2, t = 0.2)
movej(p[0.442200264887833, -0.100540641246411, 0.379592731121782, -1.22591335008809, 1.0302810919187, -1.1965063975944], a = 0.2, v = 0.2, t = 0.2)
movej(p[0.442602375492021, -0.10037511122212, 0.379409188630904, -1.22513849680207, 1.04061671931264, -1.18850384323055], a = 0.2, v = 0.2, t = 0.2)
movej(p[0.443239887875317, -0.100558998588277, 0.378956197055141, -1.22609141485383, 1.05734455786295, -1.17712876856029], a = 0.2, v = 0.2, t = 0.2)
movej(p[0.443977977594528, -0.100945447970247, 0.378200921757935, -1.23016202901917, 1.07391701617421, -1.16876483521738], a = 0.2, v = 0.2, t = 0.2)
movej(p[0.444993384071827, -0.101358270929957, 0.377195604026969, -1.23919241305412, 1.08268089166604, -1.15672285141834], a = 0.2, v = 0.2, t = 0.2)
movej(p[0.446022435336632, -0.102004296041583, 0.376156205326011, -1.24205588175129, 1.10562597546194, -1.14621940446103], a = 0.2, v = 0.2, t = 0.2)
movej(p[0.446699394908323, -0.103037699847969, 0.375264311901188, -1.23447374357284, 1.13257055406701, -1.13424643131119], a = 0.2, v = 0.2, t = 0.2)
movej(p[0.446951649356228, -0.103993003125504, 0.374642763611558, -1.22037801570425, 1.14199927595364, -1.13629547905832], a = 0.2, v = 0.2, t = 0.2)
movej(p[0.446890657640834, -0.104077744750841, 0.374715513371615, -1.21850825078511, 1.12544309563102, -1.14047270416754], a = 0.2, v = 0.2, t = 0.2)
movej(p[0.446344690987709, -0.103687378178397, 0.375524918805495, -1.2097157461271, 1.11531839335005, -1.15512028279176], a = 0.2, v = 0.2, t = 0.2)
movej(p[0.445396888071425, -0.103183093852389, 0.376751381568087, -1.20614210281867, 1.10470381177421, -1.16923980888511], a = 0.2, v = 0.2, t = 0.2)
movej(p[0.444196272396769, -0.102558684678249, 0.37781496191123, -1.20236170940235, 1.0860104114249, -1.18215225665444], a = 0.2, v = 0.2, t = 0.2)
movej(p[0.443482315526043, -0.101987909986079, 0.378464930857043, -1.20513709275251, 1.06736606877043, -1.18471655060272], a = 0.2, v = 0.2, t = 0.2)
movej(p[0.443080812882199, -0.101580896753138, 0.378823864067122, -1.2099814291136, 1.0558155182493, -1.18580811759914], a = 0.2, v = 0.2, t = 0.2)
movej(p[0.442862795586317, -0.101381862462994, 0.379049040021931, -1.21215400635093, 1.05253667146061, -1.18972902500277], a = 0.2, v = 0.2, t = 0.2)
movej(p[0.442717912411329, -0.101116223391451, 0.379138562736456, -1.21668135061132, 1.04367043050491, -1.1907115340425], a = 0.2, v = 0.2, t = 0.2)
movej(p[0.442712514114029, -0.100828181996126, 0.379230623254408, -1.21935380537487, 1.04377094871404, -1.19109716088502], a = 0.2, v = 0.2, t = 0.2)
movej(p[0.442751592830096, -0.100733663991592, 0.379251746970211, -1.22070009115519, 1.04412458106757, -1.18922202515171], a = 0.2, v = 0.2, t = 0.2)
movej(p[0.442669433248455, -0.100744001410184, 0.37926220288822, -1.21914112185736, 1.03987116889116, -1.19301982003422], a = 0.2, v = 0.2, t = 0.2)
movej(p[0.442716684985753, -0.100512680725376, 0.379241265198791, -1.22363402751307, 1.02330765703679, -1.19296611707936], a = 0.2, v = 0.2, t = 0.2)
movej(p[0.44297785138604, -0.100176611643673, 0.37918388770599, -1.22871816806593, 1.02319175667175, -1.18841651722678], a = 0.2, v = 0.2, t = 0.2)
movej(p[0.4434534405239, -0.10050127880788, 0.378921459062479, -1.23152341751965, 1.04327887828494, -1.18215887208793], a = 0.2, v = 0.2, t = 0.2)
movej(p[0.443945027692889, -0.100806493022106, 0.378462047995547, -1.22996728679107, 1.05808507796153, -1.17479279747685], a = 0.2, v = 0.2, t = 0.2)
movej(p[0.444699497431469, -0.101112015616232, 0.377701386783873, -1.230801949348, 1.06542342832565, -1.16343975093933], a = 0.2, v = 0.2, t = 0.2)
movej(p[0.445690140495293, -0.101436687332762, 0.376803892852593, -1.23372267807465, 1.08332979643305, -1.15020017098026], a = 0.2, v = 0.2, t = 0.2)
movej(p[0.446586752482476, -0.102220013630619, 0.375869988047207, -1.23303421364801, 1.11229990803747, -1.13873967344563], a = 0.2, v = 0.2, t = 0.2)
movej(p[0.447166323554041, -0.10328399917534, 0.374835956203146, -1.22441583890697, 1.13913518508657, -1.13084382220835], a = 0.2, v = 0.2, t = 0.2)
movej(p[0.447536693358485, -0.10410478933936, 0.373976731474333, -1.21927844720603, 1.146681424514, -1.12584490501009], a = 0.2, v = 0.2, t = 0.2)
movej(p[0.447651858034046, -0.104614187938116, 0.373660558664009, -1.20930475619404, 1.15251819626876, -1.12354629078083], a = 0.2, v = 0.2, t = 0.2)
movej(p[0.44739380926563, -0.104846498512779, 0.374052490915832, -1.20503548547324, 1.14855500195306, -1.13211021910631], a = 0.2, v = 0.2, t = 0.2)
movej(p[0.446673696079041, -0.104436324104196, 0.375042454724234, -1.19798305671281, 1.13257253873907, -1.14497183153665], a = 0.2, v = 0.2, t = 0.2)
movej(p[0.445855472052273, -0.103510795710518, 0.376093754254928, -1.20853498575487, 1.100800134201, -1.15817606524556], a = 0.2, v = 0.2, t = 0.2)
movej(p[0.444932539108142, -0.102718471067814, 0.377079050994112, -1.21288503293241, 1.08610509270587, -1.17041899198259], a = 0.2, v = 0.2, t = 0.2)
movej(p[0.444142187176618, -0.102377200764788, 0.37783743817017, -1.21220855981154, 1.07850213685273, -1.1828673267295], a = 0.2, v = 0.2, t = 0.2)
movej(p[0.443537515390151, -0.102096735224434, 0.378263805284081, -1.21132705905242, 1.06565462214463, -1.19258130208603], a = 0.2, v = 0.2, t = 0.2)
movej(p[0.443345959009522, -0.101534487155139, 0.378577319916535, -1.21414919465786, 1.05045885696294, -1.19537021486071], a = 0.2, v = 0.2, t = 0.2)
movej(p[0.443218982105058, -0.101249461487617, 0.378705640886977, -1.21670038110842, 1.04993318489366, -1.19328024360097], a = 0.2, v = 0.2, t = 0.2)
movej(p[0.443106044147697, -0.101176834128347, 0.378838287918503, -1.2148908073917, 1.0548490436227, -1.19405806950506], a = 0.2, v = 0.2, t = 0.2)
movej(p[0.442924400412831, -0.101078866698579, 0.378900529996621, -1.21217567780607, 1.0474437971534, -1.19498434590501], a = 0.2, v = 0.2, t = 0.2)
movej(p[0.44308597794166, -0.100628149608171, 0.378955716150606, -1.21821417026898, 1.03437854770807, -1.19003532960289], a = 0.2, v = 0.2, t = 0.2)
movej(p[0.443452748289909, -0.100580024296268, 0.378794258186418, -1.22347299615493, 1.04413822462061, -1.18286590757146], a = 0.2, v = 0.2, t = 0.2)
movej(p[0.444038159870618, -0.100822534970146, 0.37839225196504, -1.2272159126688, 1.05966637373849, -1.17254594388962], a = 0.2, v = 0.2, t = 0.2)
movej(p[0.444732590198118, -0.101196828070443, 0.377685887219163, -1.22785398730574, 1.07425262584168, -1.16317622011177], a = 0.2, v = 0.2, t = 0.2)
movej(p[0.445727871171337, -0.101418876597622, 0.376873820771188, -1.23414377921709, 1.07718807244666, -1.14973366426093], a = 0.2, v = 0.2, t = 0.2)
movej(p[0.446576017314873, -0.102164270894794, 0.376013159704944, -1.23535024043277, 1.10104114565553, -1.14132285021134], a = 0.2, v = 0.2, t = 0.2)
movej(p[0.447209584627866, -0.103102247810402, 0.375064156889462, -1.23230351736273, 1.12544185897321, -1.13174666960953], a = 0.2, v = 0.2, t = 0.2)
movej(p[0.447578497628178, -0.104053099067048, 0.374127434099339, -1.22176881129563, 1.14482414462086, -1.12424593083667], a = 0.2, v = 0.2, t = 0.2)
movej(p[0.447794069899443, -0.104468834954089, 0.373716825842496, -1.21959163282576, 1.14531232308625, -1.12238725482435], a = 0.2, v = 0.2, t = 0.2)
movej(p[0.447628173220506, -0.104688497994063, 0.374027126713889, -1.21662278645624, 1.14047265954661, -1.13156364811182], a = 0.2, v = 0.2, t = 0.2)
movej(p[0.446835338290908, -0.104269111723899, 0.375140975855563, -1.21882367345024, 1.12040521636128, -1.15210690303774], a = 0.2, v = 0.2, t = 0.2)
movej(p[0.445813514380332, -0.103465251457888, 0.376310474367744, -1.22093846182135, 1.09141034720169, -1.16869560010439], a = 0.2, v = 0.2, t = 0.2)
movej(p[0.444796941300029, -0.102634441212345, 0.377353649035301, -1.21880705549889, 1.07567820230762, -1.18009541590081], a = 0.2, v = 0.2, t = 0.2)
movej(p[0.443988678773829, -0.102278678038337, 0.378022981382242, -1.21316528507226, 1.06769674635546, -1.18606410134512], a = 0.2, v = 0.2, t = 0.2)
movej(p[0.443350655545591, -0.102109040620629, 0.378439913992314, -1.20773524824135, 1.06670156088603, -1.19405333071175], a = 0.2, v = 0.2, t = 0.2)
movej(p[0.443103783253269, -0.101639322291807, 0.378660887852989, -1.21319538783827, 1.04875901166767, -1.19389406488096], a = 0.2, v = 0.2, t = 0.2)
movej(p[0.443013887760163, -0.101224760405614, 0.37881915614692, -1.21726509056465, 1.04953573921916, -1.19387819289868], a = 0.2, v = 0.2, t = 0.2)
movej(p[0.443014326707654, -0.101132603292001, 0.378886904985549, -1.21939747199826, 1.04942170220507, -1.19219560163149], a = 0.2, v = 0.2, t = 0.2)
movej(p[0.442905586251456, -0.101095759495235, 0.378923597353512, -1.21430572916447, 1.04931105046459, -1.19507934819643], a = 0.2, v = 0.2, t = 0.2)
movej(p[0.442999465261026, -0.100780139518881, 0.37893230667321, -1.21567329301704, 1.0321242795696, -1.19088959948752], a = 0.2, v = 0.2, t = 0.2)
movej(p[0.443312754212335, -0.100588527286076, 0.378796923183349, -1.2170092946527, 1.04622270945047, -1.18198330035852], a = 0.2, v = 0.2, t = 0.2)
movej(p[0.443933240068938, -0.100811838274526, 0.378420798804062, -1.22121003679967, 1.06464830766061, -1.16816068323808], a = 0.2, v = 0.2, t = 0.2)
movej(p[0.44471053403765, -0.101257136683725, 0.377593310240656, -1.22625225344365, 1.08496896096103, -1.15625400483862], a = 0.2, v = 0.2, t = 0.2)
movej(p[0.445811921964357, -0.101737646333467, 0.376583909526663, -1.23271491494184, 1.09757572515561, -1.14312192667511], a = 0.2, v = 0.2, t = 0.2)
movej(p[0.446824784870798, -0.102478513581812, 0.375545081926391, -1.22772085236361, 1.12557939095488, -1.12937591503898], a = 0.2, v = 0.2, t = 0.2)
movej(p[0.447545261167062, -0.103459510850583, 0.374522022204434, -1.21652457118466, 1.15592882273856, -1.11793316882874], a = 0.2, v = 0.2, t = 0.2)
movej(p[0.447914666086558, -0.104398618721579, 0.373553992590531, -1.20763455596908, 1.17355050681843, -1.11101830655983], a = 0.2, v = 0.2, t = 0.2)
movej(p[0.44804171368641, -0.105203130658692, 0.37277792443501, -1.20409393951036, 1.18011956659602, -1.11071895019011], a = 0.2, v = 0.2, t = 0.2)
movej(p[0.447917149850298, -0.105791660949176, 0.372651634459495, -1.20006981587333, 1.17964010605744, -1.11106753463448], a = 0.2, v = 0.2, t = 0.2)
movej(p[0.447437495566679, -0.105842489832403, 0.373207551623141, -1.19311104036518, 1.17264027529476, -1.11869908733632], a = 0.2, v = 0.2, t = 0.2)
movej(p[0.446786637956651, -0.105144781287682, 0.374252538904448, -1.19444762477136, 1.15015990863667, -1.13172187689554], a = 0.2, v = 0.2, t = 0.2)
movej(p[0.446060331980462, -0.104043633141156, 0.375408246912534, -1.19873153718291, 1.12795054211584, -1.14496223562194], a = 0.2, v = 0.2, t = 0.2)
movej(p[0.445309135303204, -0.103518568072315, 0.376256811874784, -1.19657922396322, 1.12812761402883, -1.15586220045777], a = 0.2, v = 0.2, t = 0.2)
movej(p[0.444882892788347, -0.103481475515486, 0.376497705939378, -1.19238546473166, 1.13044633160913, -1.15339339201244], a = 0.2, v = 0.2, t = 0.2)
movej(p[0.444909958737024, -0.103566984831834, 0.376277914231507, -1.19455979848819, 1.1296950172339, -1.1480886142141], a = 0.2, v = 0.2, t = 0.2)
movej(p[0.445386329562116, -0.103713146535555, 0.375921223263335, -1.19697823785415, 1.12866006160827, -1.14352118421427], a = 0.2, v = 0.2, t = 0.2)
movej(p[0.445730694221077, -0.103996935149143, 0.375682396756104, -1.1961468214856, 1.13173622100528, -1.14580328035781], a = 0.2, v = 0.2, t = 0.2)
movej(p[0.445755542711171, -0.10437182148457, 0.375695027074804, -1.18444634835947, 1.13879594974376, -1.1555432816872], a = 0.2, v = 0.2, t = 0.2)
movej(p[0.445496939987769, -0.104347142245095, 0.375906608407129, -1.18203402093953, 1.12568985498266, -1.15889419123245], a = 0.2, v = 0.2, t = 0.2)
movej(p[0.445191889177204, -0.104001519632315, 0.376177389475354, -1.18449184867986, 1.1196053424066, -1.16105343309776], a = 0.2, v = 0.2, t = 0.2)
movej(p[0.444973149926646, -0.103819202688574, 0.376335657763998, -1.18934382521814, 1.11725441417258, -1.15843679820122], a = 0.2, v = 0.2, t = 0.2)
movej(p[0.444650113368893, -0.103500733525752, 0.376600963555655, -1.19571238373205, 1.1044933972131, -1.16737343434987], a = 0.2, v = 0.2, t = 0.2)
movej(p[0.444299090919028, -0.102907592642127, 0.377094007204801, -1.20302123170599, 1.08422576726572, -1.17498346491942], a = 0.2, v = 0.2, t = 0.2)
movej(p[0.443806241690773, -0.102366113013003, 0.377773134544297, -1.2040966344579, 1.07697214071313, -1.18452424441714], a = 0.2, v = 0.2, t = 0.2)
movej(p[0.443337620219675, -0.102097939228706, 0.378323064549972, -1.20357925175796, 1.07743277574456, -1.19059282763693], a = 0.2, v = 0.2, t = 0.2)
movej(p[0.442925590736948, -0.10190876499956, 0.378609579144505, -1.20213925020507, 1.06871719559173, -1.19531194468017], a = 0.2, v = 0.2, t = 0.2)
movej(p[0.442811632173944, -0.101477696591907, 0.378768795022955, -1.2076297626878, 1.05395386091855, -1.19582884472915], a = 0.2, v = 0.2, t = 0.2)
movej(p[0.44277053547077, -0.101282663650109, 0.378842858621988, -1.20850391014068, 1.05454410579245, -1.19476487527476], a = 0.2, v = 0.2, t = 0.2)
movej(p[0.442809641232238, -0.101239102136069, 0.378911552552685, -1.20627688221328, 1.06272655752589, -1.19431545722043], a = 0.2, v = 0.2, t = 0.2)
movej(p[0.442930232271319, -0.101283393854068, 0.378778680854829, -1.20857073554335, 1.05737319407891, -1.19122006551022], a = 0.2, v = 0.2, t = 0.2)
movej(p[0.443688813245057, -0.101180966644735, 0.378344671469455, -1.21428819498801, 1.06425876018268, -1.17850901333769], a = 0.2, v = 0.2, t = 0.2)
movej(p[0.444704348814131, -0.101648368913552, 0.377525355069002, -1.22163901869683, 1.08627426910669, -1.16236083668129], a = 0.2, v = 0.2, t = 0.2)
movej(p[0.445825832605237, -0.102401595024436, 0.376392100820315, -1.22012751538704, 1.12076762674709, -1.14500851817238], a = 0.2, v = 0.2, t = 0.2)
movej(p[0.446698429118235, -0.103243556898103, 0.375185952602062, -1.21994685645285, 1.13679068451572, -1.1299440699166], a = 0.2, v = 0.2, t = 0.2)
movej(p[0.447433560257668, -0.103981505507853, 0.374141886954124, -1.21350524789206, 1.15527693625347, -1.11559826538299], a = 0.2, v = 0.2, t = 0.2)
movej(p[0.447827146984486, -0.105053540449933, 0.373359612349505, -1.20226489314803, 1.17635518217573, -1.10718556363531], a = 0.2, v = 0.2, t = 0.2)
movej(p[0.447866418874315, -0.105963390430477, 0.372891255667505, -1.1893312868449, 1.19196595325208, -1.10339421971394], a = 0.2, v = 0.2, t = 0.2)
movej(p[0.447734736430013, -0.106422422388444, 0.372735443712163, -1.18340982771526, 1.19377615150754, -1.10361873641606], a = 0.2, v = 0.2, t = 0.2)
movej(p[0.447487825932328, -0.106394471094502, 0.372966794898241, -1.17731041826972, 1.19573157750042, -1.10593937332265], a = 0.2, v = 0.2, t = 0.2)
movej(p[0.447115099974883, -0.106361223997775, 0.3734757144805, -1.17652770211818, 1.19095628175184, -1.11493810514205], a = 0.2, v = 0.2, t = 0.2)
movej(p[0.446507652307083, -0.10611631769272, 0.374317626852798, -1.17842958580703, 1.17104315816316, -1.13092335950518], a = 0.2, v = 0.2, t = 0.2)
movej(p[0.445691622391538, -0.105302268934107, 0.375474058578208, -1.19062937353495, 1.13634334023443, -1.14665692253349], a = 0.2, v = 0.2, t = 0.2)
movej(p[0.444562308582937, -0.104375777259955, 0.376740611757918, -1.19242693338774, 1.11480978986081, -1.16347594406078], a = 0.2, v = 0.2, t = 0.2)
movej(p[0.443413835141309, -0.103611989071932, 0.377856426401329, -1.19370033222472, 1.09444435826768, -1.17888849446192], a = 0.2, v = 0.2, t = 0.2)
movej(p[0.442539963256108, -0.102942889815755, 0.378636646950815, -1.19450960036808, 1.07885898200649, -1.18942272801886], a = 0.2, v = 0.2, t = 0.2)
movej(p[0.442129571245422, -0.102312398942612, 0.379150154742526, -1.19887278376857, 1.06580544613219, -1.19355901582915], a = 0.2, v = 0.2, t = 0.2)
movej(p[0.441930593779052, -0.101836822498414, 0.379469964565078, -1.20036392451631, 1.06261047594281, -1.19352847650863], a = 0.2, v = 0.2, t = 0.2)
movej(p[0.441771181864722, -0.101572929565233, 0.379641061280087, -1.19813695397476, 1.06040015382653, -1.19587832560952], a = 0.2, v = 0.2, t = 0.2)
movej(p[0.441700240487887, -0.101227555688039, 0.379757699292778, -1.20290940589367, 1.04168876540359, -1.19806196500811], a = 0.2, v = 0.2, t = 0.2)
movej(p[0.441828284618584, -0.100724278571347, 0.379885880513356, -1.20934402966326, 1.03746052973738, -1.19762049963297], a = 0.2, v = 0.2, t = 0.2)
movej(p[0.442225155599588, -0.100874393544363, 0.379725754406135, -1.21222418563989, 1.05158915199082, -1.19087129730927], a = 0.2, v = 0.2, t = 0.2)
movej(p[0.442860306346388, -0.101162680693795, 0.379244324715814, -1.21538750719145, 1.0684336973415, -1.18160724109806], a = 0.2, v = 0.2, t = 0.2)
movej(p[0.44387021680232, -0.101559176323946, 0.378356103235014, -1.21975323981588, 1.08394167555642, -1.16588847764895], a = 0.2, v = 0.2, t = 0.2)
movej(p[0.445083228478462, -0.102003854970488, 0.377366736049712, -1.22218995569281, 1.10591208972836, -1.15014169071334], a = 0.2, v = 0.2, t = 0.2)
movej(p[0.446218872478466, -0.102850363376346, 0.376102493274701, -1.21699989571331, 1.1404132316179, -1.13039354004315], a = 0.2, v = 0.2, t = 0.2)
movej(p[0.447195445649771, -0.104096074494219, 0.374639515364958, -1.20951279615896, 1.17057791417723, -1.11654508944561], a = 0.2, v = 0.2, t = 0.2)
movej(p[0.447825700401359, -0.105092053137917, 0.373493890904239, -1.20302428609608, 1.18149523643103, -1.10611079408519], a = 0.2, v = 0.2, t = 0.2)
movej(p[0.448083940208799, -0.105787609854945, 0.373040806689936, -1.19912656387307, 1.18640208739447, -1.10767697169417], a = 0.2, v = 0.2, t = 0.2)
movej(p[0.447705555218083, -0.106190183788647, 0.373444196348585, -1.18468601861387, 1.19071080884188, -1.11688319296833], a = 0.2, v = 0.2, t = 0.2)
movej(p[0.447038358980637, -0.106135533116884, 0.374138635528653, -1.17855625945367, 1.18226101991221, -1.13120239996573], a = 0.2, v = 0.2, t = 0.2)
movej(p[0.446476636094626, -0.105643863066168, 0.374885065713306, -1.18185891926969, 1.15824523997574, -1.14200356417964], a = 0.2, v = 0.2, t = 0.2)
movej(p[0.445623894484332, -0.104957304116201, 0.375845948850994, -1.18501163600826, 1.14210328104959, -1.1560687101277], a = 0.2, v = 0.2, t = 0.2)
movej(p[0.444580522693168, -0.104256646974885, 0.376929494962484, -1.1871259751601, 1.12142684197941, -1.1737760386664], a = 0.2, v = 0.2, t = 0.2)
movej(p[0.443321004730848, -0.103408440776331, 0.378006140682454, -1.1889167279921, 1.09664379317395, -1.19154552403987], a = 0.2, v = 0.2, t = 0.2)
movej(p[0.442570992225786, -0.102423046669529, 0.378796867083638, -1.20002133068605, 1.06672423387651, -1.19757687302056], a = 0.2, v = 0.2, t = 0.2)
movej(p[0.44211452292529, -0.101747250090939, 0.379270310539366, -1.20462919112233, 1.06166823600079, -1.19606232870963], a = 0.2, v = 0.2, t = 0.2)
movej(p[0.441965794913283, -0.101520222131249, 0.379508978497968, -1.20684972516275, 1.05688179398881, -1.19562520175369], a = 0.2, v = 0.2, t = 0.2)
movej(p[0.441717211334944, -0.101337936159582, 0.379655423773458, -1.20428105742265, 1.05017646049243, -1.20006109662556], a = 0.2, v = 0.2, t = 0.2)
movej(p[0.441712664660035, -0.100774264993751, 0.379789488700112, -1.213757877746, 1.02609207899501, -1.20264438161966], a = 0.2, v = 0.2, t = 0.2)
movej(p[0.441701030876045, -0.100496278598598, 0.379808000025837, -1.21825472046738, 1.03189798006578, -1.20150828418263], a = 0.2, v = 0.2, t = 0.2)
movej(p[0.441773669699074, -0.100491028140993, 0.379804151170971, -1.21905168978743, 1.03685830341886, -1.20119986999167], a = 0.2, v = 0.2, t = 0.2)
movej(p[0.441852941838918, -0.100490955130824, 0.379690451865282, -1.21800289448392, 1.03942423243641, -1.19947834729682], a = 0.2, v = 0.2, t = 0.2)
movej(p[0.442323857639786, -0.100370606967067, 0.379502596627205, -1.22050344239064, 1.03383119143376, -1.19354517451398], a = 0.2, v = 0.2, t = 0.2)
movej(p[0.443058321987022, -0.100532784921173, 0.379010113174852, -1.22608143291548, 1.04994106023085, -1.18075838442549], a = 0.2, v = 0.2, t = 0.2)
movej(p[0.443999365623107, -0.100958002604029, 0.378207275764868, -1.22767843102985, 1.07329109896207, -1.1690129917516], a = 0.2, v = 0.2, t = 0.2)
movej(p[0.44498452722988, -0.101594298641709, 0.377125388319071, -1.23078256347728, 1.09306008494834, -1.15743663945542], a = 0.2, v = 0.2, t = 0.2)
movej(p[0.446213699063774, -0.102261183327173, 0.375832648887067, -1.23278395134262, 1.11127197802418, -1.13812361236755], a = 0.2, v = 0.2, t = 0.2)
movej(p[0.447209644811021, -0.10343144154885, 0.374702419130435, -1.23051407685111, 1.14060610698949, -1.12680567837959], a = 0.2, v = 0.2, t = 0.2)
movej(p[0.447662188914626, -0.104647039293645, 0.373869133521906, -1.22041031390439, 1.16718673964409, -1.11602800598584], a = 0.2, v = 0.2, t = 0.2)
movej(p[0.447731003768373, -0.105420426357122, 0.373476747199577, -1.2097770368499, 1.17569354699967, -1.11811223240069], a = 0.2, v = 0.2, t = 0.2)
movej(p[0.44753497293829, -0.105554694288376, 0.373607503791359, -1.20458881558988, 1.1719504419766, -1.12074783402452], a = 0.2, v = 0.2, t = 0.2)
movej(p[0.446901801789972, -0.105368411978908, 0.374386229537765, -1.20117988161052, 1.15888744912972, -1.13903158803893], a = 0.2, v = 0.2, t = 0.2)
movej(p[0.445728971462563, -0.104759009081552, 0.375693206198537, -1.20030055465759, 1.13589165628214, -1.16222176353998], a = 0.2, v = 0.2, t = 0.2)
movej(p[0.444329888183697, -0.103761604734607, 0.3771266836181, -1.20274265356313, 1.10508964562635, -1.18085172488465], a = 0.2, v = 0.2, t = 0.2)
movej(p[0.443169967818526, -0.102866936954924, 0.378177702026053, -1.20203810742645, 1.08657519624804, -1.19073205800733], a = 0.2, v = 0.2, t = 0.2)
movej(p[0.442339628131614, -0.102204668474182, 0.378918167569313, -1.20314209270993, 1.07139213633873, -1.1995691114959], a = 0.2, v = 0.2, t = 0.2)
movej(p[0.441805283827663, -0.101785263881076, 0.379285790447567, -1.20322214305921, 1.05563228751485, -1.20819680855959], a = 0.2, v = 0.2, t = 0.2)
movej(p[0.441643814376657, -0.101120756312718, 0.379533316522935, -1.21304541836374, 1.03368527014081, -1.21003837432318], a = 0.2, v = 0.2, t = 0.2)
movej(p[0.441612805841759, -0.100615636015453, 0.379680752902619, -1.2194998729105, 1.03453177812155, -1.20894922907023], a = 0.2, v = 0.2, t = 0.2)
movej(p[0.441638895271322, -0.100623904415668, 0.379737034207001, -1.21695809909605, 1.0401941145601, -1.20735506309745], a = 0.2, v = 0.2, t = 0.2)
movej(p[0.441604098431743, -0.100587899196155, 0.379798473885736, -1.21307011551885, 1.04122046808543, -1.2084353196056], a = 0.2, v = 0.2, t = 0.2)
movej(p[0.441858841593987, -0.10040471519373, 0.379683120853068, -1.21559012500081, 1.03169549489491, -1.20364648700205], a = 0.2, v = 0.2, t = 0.2)
movej(p[0.442480003473455, -0.100322400468007, 0.379334158880318, -1.22106453653375, 1.04190636230061, -1.19394899350844], a = 0.2, v = 0.2, t = 0.2)
movej(p[0.443431113242156, -0.100651401994439, 0.378638994295212, -1.22660430827594, 1.06193029773107, -1.18140694686496], a = 0.2, v = 0.2, t = 0.2)
movej(p[0.444463592019822, -0.101380197537929, 0.377584292148083, -1.22753975819266, 1.08477338120727, -1.16930309856967], a = 0.2, v = 0.2, t = 0.2)
movej(p[0.445661639140565, -0.10207754466632, 0.376366581189356, -1.23123271246103, 1.10141727863725, -1.15238112038762], a = 0.2, v = 0.2, t = 0.2)
movej(p[0.44665350050476, -0.103105101552921, 0.37520547329574, -1.22303153716752, 1.13172026296225, -1.14138091189431], a = 0.2, v = 0.2, t = 0.2)
movej(p[0.447234126458082, -0.104280204060571, 0.374253119892983, -1.21563662500887, 1.1591825706008, -1.13024263799564], a = 0.2, v = 0.2, t = 0.2)
movej(p[0.447414375589681, -0.105294167622093, 0.373553647448519, -1.20041571365045, 1.17722566571083, -1.12426364350966], a = 0.2, v = 0.2, t = 0.2)
movej(p[0.447371235439295, -0.105574868720389, 0.373363172881084, -1.20047586462423, 1.16999346441792, -1.12234418559613], a = 0.2, v = 0.2, t = 0.2)
movej(p[0.447100013019586, -0.10548781402202, 0.373788295602823, -1.19472008150506, 1.16456351289528, -1.12885063436026], a = 0.2, v = 0.2, t = 0.2)
movej(p[0.446432001372396, -0.10493054918919, 0.374812327865649, -1.19977960504414, 1.14740588907653, -1.14717131015505], a = 0.2, v = 0.2, t = 0.2)
movej(p[0.445487310605319, -0.104166055145061, 0.376037264186929, -1.20056742468002, 1.12438939314686, -1.16275250714137], a = 0.2, v = 0.2, t = 0.2)
movej(p[0.444581091989987, -0.103157315290734, 0.377087799568303, -1.20926201443899, 1.10036944395159, -1.1723010915865], a = 0.2, v = 0.2, t = 0.2)
movej(p[0.443585511425193, -0.102561743108651, 0.377937004214566, -1.20963199656058, 1.08633174539578, -1.18234843356413], a = 0.2, v = 0.2, t = 0.2)
movej(p[0.442781347216107, -0.102202556363984, 0.378549698007048, -1.20672656524429, 1.08177457338423, -1.19168293234237], a = 0.2, v = 0.2, t = 0.2)
movej(p[0.442225153912844, -0.101892527181772, 0.378951248344846, -1.20089688682815, 1.06754333435124, -1.20052276971064], a = 0.2, v = 0.2, t = 0.2)
movej(p[0.442019825406412, -0.101228147597743, 0.37929947747914, -1.20539228074811, 1.05307340421635, -1.20219558495886], a = 0.2, v = 0.2, t = 0.2)
movej(p[0.441879622416051, -0.100930287249634, 0.379490278522686, -1.20902669823301, 1.04840854146862, -1.20361558200347], a = 0.2, v = 0.2, t = 0.2)
movej(p[0.441758988823039, -0.100806150791193, 0.37961352146497, -1.21308293554282, 1.04674220009793, -1.20562155945703], a = 0.2, v = 0.2, t = 0.2)
movej(p[0.441608226802219, -0.100690871471553, 0.37968683143388, -1.21293018356123, 1.03727014118944, -1.20922810269364], a = 0.2, v = 0.2, t = 0.2)
movej(p[0.441688503433356, -0.1001598553598, 0.379780141677432, -1.22000527387203, 1.02554668990112, -1.20485574816272], a = 0.2, v = 0.2, t = 0.2)
movej(p[0.441759641535029, -0.100061252460864, 0.379759999353538, -1.22277489213407, 1.03093905258747, -1.20116822364761], a = 0.2, v = 0.2, t = 0.2)
movej(p[0.441938732821368, -0.100171541888493, 0.379687003379605, -1.22413415247536, 1.0412846526954, -1.19779841051578], a = 0.2, v = 0.2, t = 0.2)
movej(p[0.442232369782027, -0.100372139750394, 0.379392926520713, -1.22440345509138, 1.04181626204293, -1.19674279820862], a = 0.2, v = 0.2, t = 0.2)
movej(p[0.442971234837692, -0.100366651140955, 0.378871883109773, -1.22895846836195, 1.04025764371889, -1.18844872787475], a = 0.2, v = 0.2, t = 0.2)
movej(p[0.444189300182726, -0.100519540879576, 0.377994599665241, -1.23946941154608, 1.05394724768897, -1.16905625172843], a = 0.2, v = 0.2, t = 0.2)
movej(p[0.445391740748461, -0.101215075731211, 0.377098071759295, -1.24131063491324, 1.08818853733879, -1.15241201524716], a = 0.2, v = 0.2, t = 0.2)
movej(p[0.446301481417876, -0.102210333682907, 0.376239952056692, -1.2381966262626, 1.1193708368104, -1.14085602243773], a = 0.2, v = 0.2, t = 0.2)
movej(p[0.446827058697274, -0.103220322903956, 0.375315245689705, -1.2253775396231, 1.14647127831916, -1.12941043441862], a = 0.2, v = 0.2, t = 0.2)
movej(p[0.447305487401038, -0.1042201380863, 0.374278932962451, -1.21510525774224, 1.16191096273019, -1.12018275060942], a = 0.2, v = 0.2, t = 0.2)
movej(p[0.447886370776453, -0.104971015506097, 0.373223485694841, -1.20821310027325, 1.1720577929158, -1.10637673951991], a = 0.2, v = 0.2, t = 0.2)
movej(p[0.448140205870861, -0.105641279187728, 0.372756604348101, -1.20428902588587, 1.180229912241, -1.10586069723933], a = 0.2, v = 0.2, t = 0.2)
movej(p[0.447938800747234, -0.106097081020338, 0.372923531055268, -1.19672402092669, 1.18386255231951, -1.11154530463827], a = 0.2, v = 0.2, t = 0.2)
movej(p[0.447170140046779, -0.105684159014587, 0.374018487618216, -1.19690194932836, 1.16383460934791, -1.13104943413054], a = 0.2, v = 0.2, t = 0.2)
movej(p[0.446205095060031, -0.104780941927447, 0.375395012636896, -1.19934981539916, 1.13748080782693, -1.15007817282532], a = 0.2, v = 0.2, t = 0.2)
movej(p[0.445112035922687, -0.10357628968159, 0.376779165714328, -1.20575910041436, 1.10572587193343, -1.1651117612782], a = 0.2, v = 0.2, t = 0.2)
movej(p[0.443921357986405, -0.102802760650664, 0.377835086663751, -1.20661182827828, 1.09351109351752, -1.17482446035204], a = 0.2, v = 0.2, t = 0.2)
movej(p[0.442963398747301, -0.102579810946997, 0.378497014280397, -1.20478760585431, 1.08225902605018, -1.1855891104333], a = 0.2, v = 0.2, t = 0.2)
movej(p[0.442218049070609, -0.102213151077029, 0.37898386948994, -1.20697621268559, 1.06706785857047, -1.19582552827662], a = 0.2, v = 0.2, t = 0.2)
movej(p[0.441898963710799, -0.101685029763337, 0.379312842451867, -1.2102058525093, 1.05086810863483, -1.20361282653342], a = 0.2, v = 0.2, t = 0.2)
movej(p[0.441749770723814, -0.101214387535385, 0.379538349080823, -1.21368486249789, 1.04785212726155, -1.20395231218017], a = 0.2, v = 0.2, t = 0.2)
movej(p[0.441657913081957, -0.100917679439797, 0.379735521567861, -1.21235400348113, 1.04495197540934, -1.20375047673531], a = 0.2, v = 0.2, t = 0.2)
movej(p[0.441563562970402, -0.100694676233855, 0.379803227893926, -1.21654063832549, 1.03431415122967, -1.20261669768728], a = 0.2, v = 0.2, t = 0.2)
movej(p[0.441631941304313, -0.100331747068207, 0.379867613250752, -1.22193022604583, 1.02948949060863, -1.20148916398879], a = 0.2, v = 0.2, t = 0.2)
movej(p[0.441812219931674, -0.100283875238054, 0.37972080145969, -1.22590849390122, 1.03552437598606, -1.19676456077529], a = 0.2, v = 0.2, t = 0.2)
movej(p[0.442193067220628, -0.100435027966101, 0.379401640044259, -1.22485932151629, 1.05251641075922, -1.19238584147393], a = 0.2, v = 0.2, t = 0.2)
movej(p[0.442864314944804, -0.100587966520916, 0.378803560014507, -1.23068872149517, 1.05415675985768, -1.18320632983767], a = 0.2, v = 0.2, t = 0.2)
movej(p[0.443900109826057, -0.100577629096524, 0.378118348872757, -1.23776077751332, 1.06524464033365, -1.168084319004], a = 0.2, v = 0.2, t = 0.2)
movej(p[0.444870944052929, -0.101198142672802, 0.377314625340323, -1.24069624110114, 1.09299835163812, -1.15326838416229], a = 0.2, v = 0.2, t = 0.2)
movej(p[0.445629032245197, -0.102081518590537, 0.376389103362892, -1.23267433082374, 1.12388406656455, -1.14403618768996], a = 0.2, v = 0.2, t = 0.2)
movej(p[0.446280477707285, -0.103122033760778, 0.375182956257716, -1.22366834682852, 1.14298220154838, -1.13666630725118], a = 0.2, v = 0.2, t = 0.2)
movej(p[0.446930806857536, -0.104059559981243, 0.37408987642885, -1.21463476820747, 1.15431004674475, -1.13225628422665], a = 0.2, v = 0.2, t = 0.2)
movej(p[0.447330087289159, -0.104993523415948, 0.373325438457228, -1.20816947040526, 1.16679127636428, -1.12551886842898], a = 0.2, v = 0.2, t = 0.2)
movej(p[0.447404130200396, -0.105688100817355, 0.373045905112615, -1.20098208632627, 1.17293662633523, -1.12521401659704], a = 0.2, v = 0.2, t = 0.2)
movej(p[0.44729559011451, -0.105628123646173, 0.373278591336301, -1.20295127685176, 1.16477024972602, -1.12458696107306], a = 0.2, v = 0.2, t = 0.2)
movej(p[0.446745366097645, -0.105096363848873, 0.374177157638384, -1.20246471571603, 1.14781855498608, -1.14133025030572], a = 0.2, v = 0.2, t = 0.2)
movej(p[0.445606318553257, -0.104363134939588, 0.375575626661357, -1.20413114046543, 1.12627190310754, -1.16387818576711], a = 0.2, v = 0.2, t = 0.2)
movej(p[0.444080930070756, -0.103539940033604, 0.377087161215217, -1.19909480162527, 1.09851519565633, -1.19034770632669], a = 0.2, v = 0.2, t = 0.2)
movej(p[0.442987357148432, -0.102593850902389, 0.3781133583146, -1.20837429834601, 1.06484856734392, -1.19625984955445], a = 0.2, v = 0.2, t = 0.2)
movej(p[0.442355372439544, -0.102033477783357, 0.378711758087597, -1.2117583510174, 1.05147975035122, -1.20040632366276], a = 0.2, v = 0.2, t = 0.2)
movej(p[0.442020885964687, -0.101726242998062, 0.379081914513777, -1.21664700349883, 1.04666566071253, -1.20310394768961], a = 0.2, v = 0.2, t = 0.2)
movej(p[0.441704142450202, -0.101464200060014, 0.379325469876377, -1.21223828405978, 1.04120906790628, -1.20814965323583], a = 0.2, v = 0.2, t = 0.2)
movej(p[0.441635974967474, -0.100883194435183, 0.379563274293311, -1.21629456374157, 1.03225628388658, -1.20619857149071], a = 0.2, v = 0.2, t = 0.2)
movej(p[0.441608261491132, -0.100636249313844, 0.379663444499838, -1.21865759435257, 1.03241739781466, -1.2024174407701], a = 0.2, v = 0.2, t = 0.2)
movej(p[0.441594785954186, -0.100547750548435, 0.379745610724196, -1.21872360838281, 1.03802007612533, -1.20365986501732], a = 0.2, v = 0.2, t = 0.2)
movej(p[0.441599519402312, -0.100496564156219, 0.379697044092433, -1.21651976101965, 1.0334129039549, -1.2048347321416], a = 0.2, v = 0.2, t = 0.2)
movej(p[0.442032977866725, -0.100171338960214, 0.379510827299657, -1.22053029773445, 1.03033696722347, -1.19594149324202], a = 0.2, v = 0.2, t = 0.2)
movej(p[0.442704791404598, -0.1003247048221, 0.37906472778975, -1.22402513488899, 1.04601491054232, -1.18554188229944], a = 0.2, v = 0.2, t = 0.2)
movej(p[0.443474259614267, -0.100633250026214, 0.378485964162156, -1.22513305171685, 1.06680400009239, -1.17580172865341], a = 0.2, v = 0.2, t = 0.2)
movej(p[0.444362681098601, -0.101071106572807, 0.377631718841607, -1.22840220477956, 1.08085488177855, -1.16571342826054], a = 0.2, v = 0.2, t = 0.2)
movej(p[0.445500282225168, -0.101444826391689, 0.376667385479222, -1.234384067548, 1.0912001063297, -1.15109738629274], a = 0.2, v = 0.2, t = 0.2)
movej(p[0.446445194809773, -0.102450082623383, 0.375630080786234, -1.23295778344774, 1.11755031755608, -1.13652127735926], a = 0.2, v = 0.2, t = 0.2)
movej(p[0.447084075122666, -0.103681528047857, 0.374602139711103, -1.22460773469402, 1.14421187137087, -1.12588049252282], a = 0.2, v = 0.2, t = 0.2)
movej(p[0.44741019385417, -0.104703103743382, 0.373708533904902, -1.21154462033318, 1.16047503540648, -1.1176896433444], a = 0.2, v = 0.2, t = 0.2)
movej(p[0.447511173845708, -0.105147973766102, 0.373403695842657, -1.20480576763057, 1.15951313116879, -1.11869404214051], a = 0.2, v = 0.2, t = 0.2)
movej(p[0.447259230744515, -0.105244941708471, 0.373823057872309, -1.20479148759042, 1.14897055917158, -1.1362234553297], a = 0.2, v = 0.2, t = 0.2)
movej(p[0.446143438966684, -0.104635483703101, 0.37516692302485, -1.20538016794189, 1.12763535534138, -1.15877010940382], a = 0.2, v = 0.2, t = 0.2)
movej(p[0.44479015904003, -0.103617239052177, 0.376669578612285, -1.20957878791238, 1.10120305862307, -1.17972806826868], a = 0.2, v = 0.2, t = 0.2)
movej(p[0.443462470403836, -0.102771746274247, 0.377872859500806, -1.20532822212734, 1.08847324731148, -1.18834105662841], a = 0.2, v = 0.2, t = 0.2)
movej(p[0.442627090950063, -0.10229717170361, 0.378604668014355, -1.20338433383762, 1.07544068016521, -1.19369430433798], a = 0.2, v = 0.2, t = 0.2)
movej(p[0.442070727671231, -0.1020115557376, 0.379020635574931, -1.20018234486577, 1.06345766918254, -1.1988675215807], a = 0.2, v = 0.2, t = 0.2)
movej(p[0.441922353584013, -0.101364055268577, 0.379315620534815, -1.20698194401033, 1.04368689066371, -1.19879049707039], a = 0.2, v = 0.2, t = 0.2)
movej(p[0.441802893729494, -0.100924327007917, 0.379487560236848, -1.21301503658856, 1.04743723008696, -1.19962982651569], a = 0.2, v = 0.2, t = 0.2)
movej(p[0.441816231028416, -0.100900160335927, 0.379553201522807, -1.21543723895645, 1.05261703025475, -1.19982730807599], a = 0.2, v = 0.2, t = 0.2)
movej(p[0.441687426539689, -0.100792301378871, 0.37961559109779, -1.21668724822216, 1.04437983673377, -1.20247752783203], a = 0.2, v = 0.2, t = 0.2)
movej(p[0.44172087823546, -0.100491345272101, 0.379715132676279, -1.21852646244894, 1.0317145947242, -1.20124463757523], a = 0.2, v = 0.2, t = 0.2)
movej(p[0.441781291541336, -0.100267802989122, 0.379757620823963, -1.21922144478851, 1.03654056613168, -1.19940446224419], a = 0.2, v = 0.2, t = 0.2)
movej(p[0.44196005669439, -0.100220723543816, 0.37966556096092, -1.21948294687346, 1.04125764070359, -1.19769950984559], a = 0.2, v = 0.2, t = 0.2)
movej(p[0.442288746900287, -0.100391334480448, 0.379282441242622, -1.22008390098885, 1.03980597881937, -1.19638624284089], a = 0.2, v = 0.2, t = 0.2)
movej(p[0.44313134088844, -0.100349882327874, 0.378658507755241, -1.22879167439874, 1.0349047770256, -1.18605104172352], a = 0.2, v = 0.2, t = 0.2)
movej(p[0.444186672668113, -0.100627869168662, 0.3779662744459, -1.23543317964031, 1.054012732687, -1.17394777671015], a = 0.2, v = 0.2, t = 0.2)
movej(p[0.445137445132928, -0.101375528111246, 0.377225991201375, -1.23083344733584, 1.08752645675967, -1.16251480311761], a = 0.2, v = 0.2, t = 0.2)
movej(p[0.445951935663314, -0.102122097832435, 0.376316339033063, -1.22413152368883, 1.11181310238556, -1.14823429616557], a = 0.2, v = 0.2, t = 0.2)
movej(p[0.446722652959277, -0.102875972072361, 0.375337177282288, -1.21976320285807, 1.12891698493131, -1.13490929178668], a = 0.2, v = 0.2, t = 0.2)
movej(p[0.447344573028223, -0.103779847534084, 0.374348757584014, -1.21580078833305, 1.15133973388873, -1.12253208654771], a = 0.2, v = 0.2, t = 0.2)
movej(p[0.447688407279015, -0.10484706867788, 0.373537787520252, -1.20951655442096, 1.17156648205365, -1.1130980263212], a = 0.2, v = 0.2, t = 0.2)
movej(p[0.447699279910278, -0.105591590772897, 0.373092618601839, -1.20314519619292, 1.1836972805133, -1.10815813076889], a = 0.2, v = 0.2, t = 0.2)
movej(p[0.447563007780434, -0.105869828448556, 0.373114667694148, -1.19844368407673, 1.17924974041863, -1.11559517753311], a = 0.2, v = 0.2, t = 0.2)
movej(p[0.447067051760026, -0.105668638627613, 0.373911617731334, -1.19554225385396, 1.16617633101682, -1.13056238819714], a = 0.2, v = 0.2, t = 0.2)
movej(p[0.445914341692404, -0.104965176927967, 0.375294836223523, -1.19443034531502, 1.13855848656262, -1.15544435060484], a = 0.2, v = 0.2, t = 0.2)
movej(p[0.44458250687491, -0.103873513021898, 0.37676038887273, -1.19877421841192, 1.10925143284635, -1.17127752795135], a = 0.2, v = 0.2, t = 0.2)
movej(p[0.443304849368636, -0.103057169108033, 0.377836163295067, -1.2000367231735, 1.09204063309024, -1.18564450363856], a = 0.2, v = 0.2, t = 0.2)
movej(p[0.442528066748381, -0.102616421724225, 0.37851312747241, -1.19746882867599, 1.08173350717922, -1.19305744978447], a = 0.2, v = 0.2, t = 0.2)
movej(p[0.441905204701919, -0.102250453214626, 0.378981806480163, -1.19565386775001, 1.06493393944393, -1.20056045767108], a = 0.2, v = 0.2, t = 0.2)
movej(p[0.441695519418213, -0.101628844533521, 0.379290823799212, -1.20183506335782, 1.04006787867755, -1.20282221567986], a = 0.2, v = 0.2, t = 0.2)
movej(p[0.441660439466559, -0.100921078309819, 0.379506213358101, -1.21110813591788, 1.03211475263856, -1.20063136813959], a = 0.2, v = 0.2, t = 0.2)
movej(p[0.441650359860699, -0.100870411914633, 0.37953618514391, -1.21558308667596, 1.04311250054409, -1.20030359262444], a = 0.2, v = 0.2, t = 0.2)
movej(p[0.44161465889526, -0.100854401684214, 0.379609857686886, -1.21395479791375, 1.04413076148474, -1.20306097019017], a = 0.2, v = 0.2, t = 0.2)
