def moving():
set_payload_mass(0)
set_tcp(p[0,0,0,0,0,0])
movej(p[0.41, -0.1121, 0.2958, -1.163, 1.177, -1.232], a = 0.2, v = 0.2, t = 0.2)
movej(p[0.410376555227748, -0.112504666441183, 0.296217673594852, -1.15626277880791, 1.16985784254975, -1.22496397626171], a = 0.2, v = 0.2, t = 0.2)
movej(p[0.41, -0.1121, 0.2958, -1.163, 1.177, -1.232], a = 0.2, v = 0.2, t = 0.2)
movej(p[0.410376555227748, -0.112504666441183, 0.296217673594852, -1.15626277880791, 1.16985784254975, -1.22496397626171], a = 0.2, v = 0.2, t = 0.2)
movej(p[0.41, -0.1121, 0.2958, -1.163, 1.177, -1.232], a = 0.2, v = 0.2, t = 0.2)
movej(p[0.410376555227748, -0.112504666441183, 0.296217673594852, -1.15626277880791, 1.16985784254975, -1.22496397626171], a = 0.2, v = 0.2, t = 0.2)
movej(p[0.41, -0.1121, 0.2958, -1.163, 1.177, -1.232], a = 0.2, v = 0.2, t = 0.2)
movej(p[0.410376555227748, -0.112504666441183, 0.296217673594852, -1.15626277880791, 1.16985784254975, -1.22496397626171], a = 0.2, v = 0.2, t = 0.2)
movej(p[0.41, -0.1121, 0.2958, -1.163, 1.177, -1.232], a = 0.2, v = 0.2, t = 0.2)
movej(p[0.410376555227748, -0.112504666441183, 0.296217673594852, -1.15626277880791, 1.16985784254975, -1.22496397626171], a = 0.2, v = 0.2, t = 0.2)
movej(p[0.41, -0.1121, 0.2958, -1.163, 1.177, -1.232], a = 0.2, v = 0.2, t = 0.2)
movej(p[0.410082977305497, -0.111956693885276, 0.295661924805793, -1.1624556863313, 1.17920931897129, -1.24029497585348], a = 0.2, v = 0.2, t = 0.2)
movej(p[0.410346882914081, -0.111900130181085, 0.295541156808269, -1.16610528687344, 1.18256335262482, -1.24424596291278], a = 0.2, v = 0.2, t = 0.2)
movej(p[0.410377166387408, -0.111895590977739, 0.295454020495653, -1.16457125422503, 1.18535364896564, -1.24211206272329], a = 0.2, v = 0.2, t = 0.2)
movej(p[0.410364862521455, -0.112047956285281, 0.295479138574491, -1.16884085977457, 1.18577954048662, -1.24717889006752], a = 0.2, v = 0.2, t = 0.2)
movej(p[0.410308249795064, -0.112072887998738, 0.295433220398398, -1.16559823418649, 1.18734825929547, -1.24777134367001], a = 0.2, v = 0.2, t = 0.2)
movej(p[0.410181333767109, -0.112039150092661, 0.295293334830999, -1.16590446935527, 1.18612320277446, -1.25136480828008], a = 0.2, v = 0.2, t = 0.2)
movej(p[0.409705270347427, -0.112126941276602, 0.295178426976772, -1.15855310984157, 1.18534689643897, -1.24478817199108], a = 0.2, v = 0.2, t = 0.2)
movej(p[0.408812973852698, -0.112200927379306, 0.295093101058335, -1.15404701326519, 1.1816575377291, -1.25828660784707], a = 0.2, v = 0.2, t = 0.2)
movej(p[0.407867998853537, -0.112051438191451, 0.294978832244317, -1.15324605051107, 1.17566773538099, -1.26825689382938], a = 0.2, v = 0.2, t = 0.2)
movej(p[0.406914138205698, -0.111742973900436, 0.294924363779188, -1.15435283063608, 1.16715962877772, -1.28005229805035], a = 0.2, v = 0.2, t = 0.2)
movej(p[0.406060498657862, -0.111620150801275, 0.295003058772569, -1.14725430034825, 1.16002678164379, -1.26788030190654], a = 0.2, v = 0.2, t = 0.2)
movej(p[0.405535278874327, -0.111471968201729, 0.295077266912113, -1.14527507927567, 1.15157786051028, -1.27376848784314], a = 0.2, v = 0.2, t = 0.2)
movej(p[0.405717627335179, -0.11131739181873, 0.295093623245569, -1.15148944229085, 1.14507439624349, -1.27518355203779], a = 0.2, v = 0.2, t = 0.2)
movej(p[0.406607778810609, -0.111289691656868, 0.295175836090202, -1.15797504692348, 1.14275135305624, -1.27643424764547], a = 0.2, v = 0.2, t = 0.2)
movej(p[0.407699509262415, -0.111358244871261, 0.295300454946702, -1.15948269848862, 1.14653403283454, -1.27167970573618], a = 0.2, v = 0.2, t = 0.2)
movej(p[0.408877268735265, -0.111322362111336, 0.295330155321302, -1.16083697308171, 1.15653581951498, -1.27055652679728], a = 0.2, v = 0.2, t = 0.2)
movej(p[0.40979556640763, -0.111305794613406, 0.295294238569762, -1.16243607113942, 1.16806048024963, -1.26442749297419], a = 0.2, v = 0.2, t = 0.2)
movej(p[0.41030622958317, -0.111461005591056, 0.295299818136445, -1.16943037217052, 1.17685267974587, -1.26025712037701], a = 0.2, v = 0.2, t = 0.2)
movej(p[0.410367257233291, -0.111638793697814, 0.295276648941035, -1.16780466547578, 1.1813732229575, -1.25778544146284], a = 0.2, v = 0.2, t = 0.2)
movej(p[0.4103178235608, -0.111680945917137, 0.295176745376883, -1.16583026679354, 1.18411706668789, -1.25376242662004], a = 0.2, v = 0.2, t = 0.2)
movej(p[0.409993796140139, -0.11178956714411, 0.295077789764936, -1.15896883319895, 1.18323685618335, -1.24770677311015], a = 0.2, v = 0.2, t = 0.2)
movej(p[0.409294303418458, -0.111946794098108, 0.295065088864335, -1.15674023493983, 1.18224034451816, -1.25299006223843], a = 0.2, v = 0.2, t = 0.2)
movej(p[0.408370295209266, -0.111963933543282, 0.294977576421413, -1.15570123577046, 1.17619056854474, -1.26793477996747], a = 0.2, v = 0.2, t = 0.2)
movej(p[0.407338457339108, -0.111758167005842, 0.294916779560667, -1.15614736674164, 1.16955968753431, -1.27881486003492], a = 0.2, v = 0.2, t = 0.2)
movej(p[0.406492192278361, -0.111652523755244, 0.294973675211318, -1.15305057098427, 1.16131682863998, -1.27483543491622], a = 0.2, v = 0.2, t = 0.2)
movej(p[0.405738505828667, -0.111510559995453, 0.295080477610886, -1.15563900035253, 1.15185639683773, -1.2815637356204], a = 0.2, v = 0.2, t = 0.2)
movej(p[0.405590560037363, -0.111369635226817, 0.295111366050798, -1.15865075836208, 1.14466333515274, -1.28224288536477], a = 0.2, v = 0.2, t = 0.2)
movej(p[0.406015855667921, -0.111253390467304, 0.295106944081324, -1.15831854887427, 1.14224346385959, -1.27826242501727], a = 0.2, v = 0.2, t = 0.2)
movej(p[0.406986734324561, -0.111357442821419, 0.295210853141011, -1.15996030090366, 1.14413795588274, -1.27383117424466], a = 0.2, v = 0.2, t = 0.2)
movej(p[0.408162695139661, -0.111384786674306, 0.295259304055939, -1.15884389754945, 1.15191060870051, -1.27127206377138], a = 0.2, v = 0.2, t = 0.2)
movej(p[0.409260669468161, -0.111355643724206, 0.295255026075599, -1.16812499710631, 1.16054734490656, -1.27204811631562], a = 0.2, v = 0.2, t = 0.2)
movej(p[0.409921949958178, -0.111453047756672, 0.295264131825516, -1.16340924197401, 1.17292426325131, -1.25531417959093], a = 0.2, v = 0.2, t = 0.2)
movej(p[0.410145555358237, -0.111585530642747, 0.295286553256378, -1.16811923579027, 1.17803763056791, -1.25905398131984], a = 0.2, v = 0.2, t = 0.2)
movej(p[0.410185096760077, -0.111658788065185, 0.295215276684503, -1.17002676018213, 1.18028458858172, -1.26113419472865], a = 0.2, v = 0.2, t = 0.2)
movej(p[0.410075667071026, -0.111690035611708, 0.295099333247903, -1.17235851859994, 1.17924627127851, -1.26397359657673], a = 0.2, v = 0.2, t = 0.2)
movej(p[0.409637373688401, -0.111907488152542, 0.295048982731208, -1.16530170900857, 1.17780531511769, -1.25995598781355], a = 0.2, v = 0.2, t = 0.2)
movej(p[0.408895238965217, -0.111912602669072, 0.294936591227236, -1.15688994341131, 1.17477859084164, -1.26569259011073], a = 0.2, v = 0.2, t = 0.2)
movej(p[0.407958962264064, -0.111777118360691, 0.294823186498669, -1.15318041453327, 1.16983924006168, -1.27470917155709], a = 0.2, v = 0.2, t = 0.2)
movej(p[0.406961315773791, -0.111614302659808, 0.294806951456564, -1.14911540413165, 1.16461933229554, -1.27368611790295], a = 0.2, v = 0.2, t = 0.2)
movej(p[0.406055905652038, -0.11152867297611, 0.294893555863473, -1.14748814459627, 1.15852874045464, -1.27622421055692], a = 0.2, v = 0.2, t = 0.2)
movej(p[0.405647902044989, -0.111339882924274, 0.294934460746596, -1.15173864644869, 1.15096593337892, -1.27625457547279], a = 0.2, v = 0.2, t = 0.2)
movej(p[0.405741116628595, -0.111255261038997, 0.294999571873413, -1.15927264723425, 1.14354386280388, -1.27916142436486], a = 0.2, v = 0.2, t = 0.2)
movej(p[0.406261769540469, -0.111319226040159, 0.295141292431142, -1.15984731518851, 1.14242474614529, -1.27225047334148], a = 0.2, v = 0.2, t = 0.2)
movej(p[0.40726510955501, -0.11138077236154, 0.295245041727266, -1.16348798872152, 1.14630571450377, -1.27373710092863], a = 0.2, v = 0.2, t = 0.2)
movej(p[0.408473906666603, -0.111403825809283, 0.295309264536701, -1.16256931367759, 1.15734432699828, -1.26344923824133], a = 0.2, v = 0.2, t = 0.2)
movej(p[0.409498949370834, -0.111526020037259, 0.295358927498268, -1.16510744452148, 1.16768390844552, -1.25350374677602], a = 0.2, v = 0.2, t = 0.2)
movej(p[0.409936554056979, -0.111695192973792, 0.295415644173361, -1.16255941799893, 1.17559110084786, -1.24609779712677], a = 0.2, v = 0.2, t = 0.2)
movej(p[0.410148436005386, -0.111783817198288, 0.295386534109863, -1.15906314029558, 1.18194462013223, -1.23905483179106], a = 0.2, v = 0.2, t = 0.2)
movej(p[0.410183264915364, -0.111907998868454, 0.295346916660115, -1.15711914329395, 1.18391152090819, -1.23659025138999], a = 0.2, v = 0.2, t = 0.2)
movej(p[0.409948685980374, -0.112079856433803, 0.295285766840292, -1.15153950526521, 1.18508526066601, -1.23490025970407], a = 0.2, v = 0.2, t = 0.2)
movej(p[0.409371555202495, -0.11213703835866, 0.295139477500288, -1.15666413051364, 1.17934582871924, -1.25457392115734], a = 0.2, v = 0.2, t = 0.2)
movej(p[0.408426134647793, -0.112050600173682, 0.294970277637332, -1.15448745180012, 1.17455574737402, -1.26139118284681], a = 0.2, v = 0.2, t = 0.2)
movej(p[0.407390249612837, -0.111983685168301, 0.294948665982289, -1.15840259546263, 1.16768895989723, -1.26933584641519], a = 0.2, v = 0.2, t = 0.2)
movej(p[0.406378947317156, -0.111866135980536, 0.294980200122611, -1.14993892195392, 1.16208073400645, -1.26651100520919], a = 0.2, v = 0.2, t = 0.2)
movej(p[0.405729982986062, -0.111622835308381, 0.294965840892245, -1.14854691650376, 1.15595835414567, -1.26461321854799], a = 0.2, v = 0.2, t = 0.2)
movej(p[0.405587507153591, -0.11149638500367, 0.295003698718388, -1.14643351893515, 1.15096693450879, -1.25729710932313], a = 0.2, v = 0.2, t = 0.2)
movej(p[0.405881860602848, -0.111506578825671, 0.295144379319053, -1.15136506488944, 1.147010704298, -1.25803856448819], a = 0.2, v = 0.2, t = 0.2)
movej(p[0.406843739822258, -0.111532551629089, 0.295279961338699, -1.15762264335991, 1.14773880719112, -1.2637819498579], a = 0.2, v = 0.2, t = 0.2)
movej(p[0.408122097313306, -0.111509426469973, 0.295356762410281, -1.15919950801867, 1.15636811990108, -1.25683146343971], a = 0.2, v = 0.2, t = 0.2)
movej(p[0.409294478660245, -0.111612915200731, 0.295434697091619, -1.16069332487559, 1.16733355892544, -1.24440824129606], a = 0.2, v = 0.2, t = 0.2)
movej(p[0.409868445728163, -0.111728950812838, 0.295470011705711, -1.15873987700649, 1.17606789298949, -1.23623896599993], a = 0.2, v = 0.2, t = 0.2)
movej(p[0.410133593193348, -0.111813250801266, 0.295411947129096, -1.16115207040937, 1.18031913775703, -1.23665019027623], a = 0.2, v = 0.2, t = 0.2)
movej(p[0.410173706520734, -0.11194650998529, 0.295361480920211, -1.16074474206212, 1.18165554798754, -1.23660669798055], a = 0.2, v = 0.2, t = 0.2)
movej(p[0.409927846178888, -0.112070625615299, 0.295289957525768, -1.1588918334648, 1.18200551360061, -1.24350052171676], a = 0.2, v = 0.2, t = 0.2)
movej(p[0.409458689718237, -0.112097923661518, 0.295149890626529, -1.15855599592997, 1.17890762357878, -1.25501677172019], a = 0.2, v = 0.2, t = 0.2)
movej(p[0.40860459941954, -0.112009835742853, 0.295011748667806, -1.15472176837946, 1.17515110588367, -1.26045458177922], a = 0.2, v = 0.2, t = 0.2)
movej(p[0.407607771344896, -0.112034447964343, 0.295030978714168, -1.15147222726901, 1.17134474614458, -1.25979288276592], a = 0.2, v = 0.2, t = 0.2)
movej(p[0.406664197779113, -0.111887804275348, 0.295060767857798, -1.14380297578089, 1.16561703903425, -1.26054317807766], a = 0.2, v = 0.2, t = 0.2)
movej(p[0.406051648190029, -0.111628476006266, 0.295044784558134, -1.14780654331942, 1.15786697451233, -1.26575484158626], a = 0.2, v = 0.2, t = 0.2)
movej(p[0.405707312104197, -0.111483854018162, 0.295045927121301, -1.14904741017216, 1.15027633565024, -1.26440190180342], a = 0.2, v = 0.2, t = 0.2)
movej(p[0.40580368923588, -0.111510511174687, 0.295133798202975, -1.1610454530735, 1.14425427385558, -1.27754552773933], a = 0.2, v = 0.2, t = 0.2)
movej(p[0.406543214419149, -0.111544279223715, 0.295235291643033, -1.16670410592571, 1.14498985052065, -1.28020243118414], a = 0.2, v = 0.2, t = 0.2)
movej(p[0.40778729617985, -0.111506910803668, 0.29529115405594, -1.16829492188049, 1.15208126503718, -1.27327725234359], a = 0.2, v = 0.2, t = 0.2)
movej(p[0.408978436172388, -0.111635177502752, 0.29543168671329, -1.17090544243927, 1.16135441122861, -1.26431124693723], a = 0.2, v = 0.2, t = 0.2)
movej(p[0.409706282688045, -0.111731769097339, 0.295444611190127, -1.16346212747038, 1.17158408759724, -1.25074769534323], a = 0.2, v = 0.2, t = 0.2)
movej(p[0.410086983904604, -0.111831243268119, 0.295409444753547, -1.16694896233912, 1.17674766537353, -1.24993788537426], a = 0.2, v = 0.2, t = 0.2)
movej(p[0.41014702548317, -0.111970823835505, 0.295364803813867, -1.16316401517614, 1.1807765765391, -1.23986455016994], a = 0.2, v = 0.2, t = 0.2)
movej(p[0.409953442840331, -0.112115168181587, 0.295348455266207, -1.17059991957984, 1.17942987242193, -1.25334557845092], a = 0.2, v = 0.2, t = 0.2)
movej(p[0.40944199687457, -0.11214767785203, 0.295191410336068, -1.17314956583333, 1.17628354482163, -1.26450684263434], a = 0.2, v = 0.2, t = 0.2)
movej(p[0.408607103097816, -0.112108677295991, 0.295036761901671, -1.16970985720889, 1.17280533779055, -1.2698204146264], a = 0.2, v = 0.2, t = 0.2)
movej(p[0.407597498301249, -0.112121435390265, 0.29499174874132, -1.15878091485269, 1.16968533739494, -1.26568447199503], a = 0.2, v = 0.2, t = 0.2)
movej(p[0.406684765406634, -0.111944593386872, 0.294980711335825, -1.14841310319461, 1.16516654084597, -1.26298382345189], a = 0.2, v = 0.2, t = 0.2)
movej(p[0.406031638764937, -0.111705405786751, 0.294970841059556, -1.15039447530433, 1.15591638828884, -1.26733416878371], a = 0.2, v = 0.2, t = 0.2)
movej(p[0.405668097368808, -0.111613953532987, 0.295017913873174, -1.15119772548881, 1.14938970180952, -1.26084297452002], a = 0.2, v = 0.2, t = 0.2)
movej(p[0.405545070693572, -0.111666747440094, 0.295122288235702, -1.15734028222998, 1.14247766694325, -1.26939216738263], a = 0.2, v = 0.2, t = 0.2)
movej(p[0.406204306407021, -0.111696681442233, 0.295206612598317, -1.16445745025101, 1.14207438255734, -1.27126880139637], a = 0.2, v = 0.2, t = 0.2)
movej(p[0.40735737197007, -0.111679732809859, 0.295296447525652, -1.16969312681487, 1.14583842649917, -1.27336528513172], a = 0.2, v = 0.2, t = 0.2)
movej(p[0.408672333970455, -0.111797665382441, 0.295440811044828, -1.16827318448924, 1.15701434886615, -1.26209359626039], a = 0.2, v = 0.2, t = 0.2)
movej(p[0.409611048686988, -0.111829294884279, 0.295484574089477, -1.16734972075769, 1.16775700445194, -1.25589957082863], a = 0.2, v = 0.2, t = 0.2)
movej(p[0.41015780219611, -0.111934606471875, 0.295480161654649, -1.16418927570767, 1.1765801173368, -1.24457650973275], a = 0.2, v = 0.2, t = 0.2)
movej(p[0.410285108385988, -0.112055118713144, 0.295471686445394, -1.16841379159825, 1.18042387543199, -1.24546780820456], a = 0.2, v = 0.2, t = 0.2)
movej(p[0.410209086956841, -0.112192664968441, 0.295462449359041, -1.1680109762817, 1.18198258317313, -1.24668901819493], a = 0.2, v = 0.2, t = 0.2)
movej(p[0.409957043566145, -0.112258674537686, 0.295353273194576, -1.16946992348241, 1.18111479539267, -1.25059102185142], a = 0.2, v = 0.2, t = 0.2)
movej(p[0.40932886013237, -0.112340076536834, 0.295219686341072, -1.16532692941891, 1.17770486757976, -1.25085330173225], a = 0.2, v = 0.2, t = 0.2)
movej(p[0.408309630811577, -0.112442615941792, 0.295135989101175, -1.15464878720313, 1.17570643387806, -1.25034092750139], a = 0.2, v = 0.2, t = 0.2)
movej(p[0.407275835462151, -0.112252623423161, 0.295044388001995, -1.1484282066739, 1.16972872107076, -1.25766643821836], a = 0.2, v = 0.2, t = 0.2)
movej(p[0.406390994656778, -0.111972452188945, 0.295009641556638, -1.14693927634037, 1.16230859957803, -1.26157611752118], a = 0.2, v = 0.2, t = 0.2)
movej(p[0.405687145668648, -0.11183330349917, 0.295059831038019, -1.14815502781056, 1.15413092971757, -1.25686643102608], a = 0.2, v = 0.2, t = 0.2)
movej(p[0.405386067969678, -0.11177878277037, 0.29515899720823, -1.15054027942408, 1.14766992140313, -1.26242582014446], a = 0.2, v = 0.2, t = 0.2)
movej(p[0.405725256050117, -0.111690986296201, 0.295221948858024, -1.15633496900069, 1.14454084681695, -1.26414660019553], a = 0.2, v = 0.2, t = 0.2)
movej(p[0.406828205907978, -0.111664890229104, 0.295322991079031, -1.15813021307424, 1.14686269863502, -1.26243036674966], a = 0.2, v = 0.2, t = 0.2)
movej(p[0.408124755699321, -0.111681435723368, 0.295440417682862, -1.15964083633086, 1.1557965890393, -1.25712302495932], a = 0.2, v = 0.2, t = 0.2)
movej(p[0.409261868911569, -0.111709021048028, 0.295502579190191, -1.16462195221275, 1.16596445591853, -1.25578048578795], a = 0.2, v = 0.2, t = 0.2)
movej(p[0.410018390518045, -0.111768703461165, 0.295521534959839, -1.16434744317729, 1.17752747405463, -1.2433032660261], a = 0.2, v = 0.2, t = 0.2)
movej(p[0.410349619115361, -0.1119843621909, 0.295581723896222, -1.1691162266318, 1.18352965745243, -1.23820806920719], a = 0.2, v = 0.2, t = 0.2)
movej(p[0.410335949561786, -0.112141406308108, 0.295548375505682, -1.15834490744461, 1.18802299589983, -1.22754504821593], a = 0.2, v = 0.2, t = 0.2)
movej(p[0.410297354365391, -0.112166245226172, 0.295460267820492, -1.1576643338541, 1.18873287279429, -1.22824118490328], a = 0.2, v = 0.2, t = 0.2)
movej(p[0.410046411677604, -0.112277691311475, 0.295373441384206, -1.15316771553527, 1.18744498171503, -1.22340211076251], a = 0.2, v = 0.2, t = 0.2)
movej(p[0.409471727096018, -0.112359110678817, 0.295270386743802, -1.15161820675445, 1.18403364539676, -1.23317404038263], a = 0.2, v = 0.2, t = 0.2)
movej(p[0.408686115778269, -0.112329068189629, 0.29513402005737, -1.15442739566956, 1.17812212673888, -1.24912263062367], a = 0.2, v = 0.2, t = 0.2)
movej(p[0.407680929679273, -0.112179112792745, 0.295001315468299, -1.15022126196427, 1.17282146823798, -1.2547702496341], a = 0.2, v = 0.2, t = 0.2)
movej(p[0.406802899142796, -0.112119751091119, 0.29508090363854, -1.15239559465889, 1.16606118155508, -1.2571606919893], a = 0.2, v = 0.2, t = 0.2)
movej(p[0.406127039876307, -0.111971313839928, 0.295117702503458, -1.14748268332603, 1.1602688250004, -1.258285552341], a = 0.2, v = 0.2, t = 0.2)
movej(p[0.406085194639631, -0.11178492940486, 0.295151816627102, -1.15353007691872, 1.1538100027322, -1.26063654626102], a = 0.2, v = 0.2, t = 0.2)
movej(p[0.406591718632288, -0.111720192784413, 0.295184115725158, -1.15099692174208, 1.15219384511557, -1.25234562850869], a = 0.2, v = 0.2, t = 0.2)
movej(p[0.407535210065981, -0.11177741253725, 0.295340765452047, -1.15557136418178, 1.15534699479436, -1.25324471078257], a = 0.2, v = 0.2, t = 0.2)
movej(p[0.408681669955246, -0.111816006000661, 0.295429181517266, -1.16015613808841, 1.1627521491504, -1.25143722774996], a = 0.2, v = 0.2, t = 0.2)
movej(p[0.409565474503202, -0.111820197196644, 0.295480108224291, -1.16775930984305, 1.17195354431242, -1.24968451751234], a = 0.2, v = 0.2, t = 0.2)
movej(p[0.410081425362969, -0.11204279154769, 0.295555465496133, -1.16856721483911, 1.17942405635167, -1.24083143893878], a = 0.2, v = 0.2, t = 0.2)
movej(p[0.410206004286529, -0.112158735226043, 0.295525186922658, -1.16315920016359, 1.18584233355244, -1.23562026696346], a = 0.2, v = 0.2, t = 0.2)
movej(p[0.410273526780772, -0.112194320749023, 0.295442175174806, -1.16077247949893, 1.18819090493096, -1.23520760581077], a = 0.2, v = 0.2, t = 0.2)
movej(p[0.410214630023003, -0.11225352516909, 0.295367081703919, -1.15681589309227, 1.18904568558996, -1.22992731158386], a = 0.2, v = 0.2, t = 0.2)
movej(p[0.409969873088676, -0.112371317439856, 0.295356245309383, -1.16695300077282, 1.18415469366333, -1.24636834407297], a = 0.2, v = 0.2, t = 0.2)
movej(p[0.409477178300082, -0.11234555492581, 0.295220876501077, -1.16880658252948, 1.18003502410679, -1.25618523993187], a = 0.2, v = 0.2, t = 0.2)
movej(p[0.408702559114342, -0.112260384686812, 0.295119113882827, -1.17364138110877, 1.17413977100634, -1.2709314451787], a = 0.2, v = 0.2, t = 0.2)
movej(p[0.407704033735659, -0.112268914694519, 0.29513594076297, -1.1572024588183, 1.17319465168776, -1.25799420262617], a = 0.2, v = 0.2, t = 0.2)
movej(p[0.40688208339037, -0.112114806337211, 0.295163516793914, -1.15153193556086, 1.1677856658949, -1.26274526323166], a = 0.2, v = 0.2, t = 0.2)
movej(p[0.406392783058184, -0.1118682953036, 0.295135393734574, -1.15264125861996, 1.16027761327641, -1.26605188034776], a = 0.2, v = 0.2, t = 0.2)
movej(p[0.406224694288498, -0.111713173003698, 0.295152688325589, -1.15831885663768, 1.15265031601031, -1.26831101110878], a = 0.2, v = 0.2, t = 0.2)
movej(p[0.406341823149738, -0.111787996449075, 0.295283134631732, -1.16239111236287, 1.14839487640907, -1.27060929652771], a = 0.2, v = 0.2, t = 0.2)
movej(p[0.407053467152296, -0.111795391696628, 0.295338503518627, -1.16134158074187, 1.15106977419284, -1.26511445812832], a = 0.2, v = 0.2, t = 0.2)
movej(p[0.408106051325969, -0.111777366538936, 0.295379842265885, -1.15895744895943, 1.15804471585505, -1.25492114122221], a = 0.2, v = 0.2, t = 0.2)
movej(p[0.409140380566156, -0.111841050526268, 0.295464863548818, -1.15888284535552, 1.16871533294652, -1.24193709137522], a = 0.2, v = 0.2, t = 0.2)
movej(p[0.409736060752586, -0.111911113797022, 0.29550742610848, -1.15731967523674, 1.17730301389054, -1.2356920377214], a = 0.2, v = 0.2, t = 0.2)
movej(p[0.410110159800547, -0.11188881481077, 0.29542994239585, -1.15818191169613, 1.18380809029469, -1.23167437945959], a = 0.2, v = 0.2, t = 0.2)
movej(p[0.410239736999752, -0.111963153662021, 0.295335289991143, -1.15438522104601, 1.18491839723563, -1.22511007797164], a = 0.2, v = 0.2, t = 0.2)
movej(p[0.410191060462338, -0.112037841990051, 0.295269282334424, -1.15523841114122, 1.18534187577917, -1.23228319397951], a = 0.2, v = 0.2, t = 0.2)
movej(p[0.41014164557867, -0.112030589952512, 0.295178349339205, -1.16161703813447, 1.18334338191711, -1.24821097729912], a = 0.2, v = 0.2, t = 0.2)
movej(p[0.410075864050287, -0.111943963917671, 0.295058083722741, -1.16483921403463, 1.18274909905899, -1.25594867056046], a = 0.2, v = 0.2, t = 0.2)
movej(p[0.409904486198198, -0.112059592096758, 0.295008704451794, -1.16094690852777, 1.18246171522855, -1.24903218904196], a = 0.2, v = 0.2, t = 0.2)
movej(p[0.409319171578505, -0.112101642758504, 0.294921170041752, -1.15575391725198, 1.17888993542296, -1.26068285567494], a = 0.2, v = 0.2, t = 0.2)
movej(p[0.40870400409462, -0.11196436537019, 0.294771667854905, -1.15444365954413, 1.17458703628806, -1.27049832394513], a = 0.2, v = 0.2, t = 0.2)
movej(p[0.408017577312275, -0.111713979265605, 0.294640427686857, -1.15715596998538, 1.16776457187904, -1.28357338716411], a = 0.2, v = 0.2, t = 0.2)
movej(p[0.407404921320376, -0.111676618902532, 0.294717917147827, -1.15667726538363, 1.16384963251416, -1.28251764273404], a = 0.2, v = 0.2, t = 0.2)
movej(p[0.406823673134895, -0.111503212795197, 0.294732750920592, -1.15358861164366, 1.1576219568702, -1.28768492320025], a = 0.2, v = 0.2, t = 0.2)
movej(p[0.406570488483365, -0.11125143173172, 0.294730082212348, -1.15558338453518, 1.15243495488378, -1.28940151688043], a = 0.2, v = 0.2, t = 0.2)
movej(p[0.406664176952212, -0.111111034933658, 0.294759097668556, -1.15471141247127, 1.14783997308278, -1.28300225158399], a = 0.2, v = 0.2, t = 0.2)
movej(p[0.407123925126228, -0.111192535868312, 0.294882473263956, -1.16455886846222, 1.14490476594233, -1.28940351336238], a = 0.2, v = 0.2, t = 0.2)
movej(p[0.408069628103187, -0.111247469637066, 0.29497461398796, -1.16528548604408, 1.14973734766575, -1.28428496467483], a = 0.2, v = 0.2, t = 0.2)
movej(p[0.409036564204961, -0.111261545263925, 0.295021107762979, -1.17244238990366, 1.15616904683674, -1.28545716214902], a = 0.2, v = 0.2, t = 0.2)
movej(p[0.409778633954363, -0.111433730806208, 0.295108611608903, -1.16159050072997, 1.1682888433551, -1.26006789604673], a = 0.2, v = 0.2, t = 0.2)
movej(p[0.41004399614483, -0.111576933984527, 0.295129808638128, -1.16353195075047, 1.1727404885522, -1.26404098454794], a = 0.2, v = 0.2, t = 0.2)
movej(p[0.410160736814765, -0.111607832480832, 0.295059089841307, -1.15965678649973, 1.17647195617824, -1.25926958460015], a = 0.2, v = 0.2, t = 0.2)
movej(p[0.410189545516261, -0.111665961147693, 0.295003412900774, -1.15650687339713, 1.17797786974079, -1.2548146744374], a = 0.2, v = 0.2, t = 0.2)
movej(p[0.410125095170087, -0.111806036331979, 0.294972467656209, -1.14883872344741, 1.18030917621927, -1.24971981563049], a = 0.2, v = 0.2, t = 0.2)
movej(p[0.410081407432855, -0.111819785128884, 0.294918074869231, -1.1534016632997, 1.17857165321603, -1.26037058731964], a = 0.2, v = 0.2, t = 0.2)
movej(p[0.409952118378129, -0.111818564674101, 0.294805360888652, -1.15225699884652, 1.17794693688444, -1.26215117825025], a = 0.2, v = 0.2, t = 0.2)
movej(p[0.409529730672545, -0.111899318864618, 0.294786795644622, -1.15524726415718, 1.17620331741055, -1.26320895414444], a = 0.2, v = 0.2, t = 0.2)
movej(p[0.40877836047192, -0.111962650232234, 0.294734755720631, -1.14963667447488, 1.17309117953541, -1.26993767900975], a = 0.2, v = 0.2, t = 0.2)
movej(p[0.408026298211605, -0.111803222670951, 0.29464338283782, -1.15118226816137, 1.16872408828462, -1.27751364464986], a = 0.2, v = 0.2, t = 0.2)
movej(p[0.407304954020155, -0.111596475667058, 0.294611936034442, -1.14875384818644, 1.1623819792588, -1.27848286499628], a = 0.2, v = 0.2, t = 0.2)
movej(p[0.406662760750053, -0.111539652081271, 0.294734825850675, -1.1506452879506, 1.1572315243598, -1.27590929221323], a = 0.2, v = 0.2, t = 0.2)
movej(p[0.406263846506132, -0.111429222854525, 0.294810684718825, -1.14613000285004, 1.15311409049156, -1.2749503474091], a = 0.2, v = 0.2, t = 0.2)
movej(p[0.406508056630426, -0.111293256022953, 0.294863765917045, -1.15089068246214, 1.14920437216904, -1.27533402243611], a = 0.2, v = 0.2, t = 0.2)
movej(p[0.407188824381386, -0.111322652115771, 0.294906329613787, -1.14324253677116, 1.14964835357204, -1.25903543949116], a = 0.2, v = 0.2, t = 0.2)
movej(p[0.408057337169087, -0.111454895881262, 0.29504033462671, -1.15249594477372, 1.15137317198069, -1.26654397821707], a = 0.2, v = 0.2, t = 0.2)
movej(p[0.409006529095566, -0.111542839467751, 0.295108830696683, -1.15982779870183, 1.1577232635836, -1.26810379123765], a = 0.2, v = 0.2, t = 0.2)
movej(p[0.409699932300464, -0.111569045337524, 0.295131984571667, -1.16575836566445, 1.16564773859389, -1.26485032361716], a = 0.2, v = 0.2, t = 0.2)
movej(p[0.410106329587199, -0.111808973605053, 0.295203384965049, -1.15968562701102, 1.17509568799224, -1.24741427800237], a = 0.2, v = 0.2, t = 0.2)
movej(p[0.410177519760105, -0.111940618516286, 0.295186234468611, -1.15187463525769, 1.18061780582334, -1.24234746536211], a = 0.2, v = 0.2, t = 0.2)
movej(p[0.410233588166613, -0.111973443852326, 0.295149583448085, -1.14851039207337, 1.18519678786025, -1.24043491185386], a = 0.2, v = 0.2, t = 0.2)
movej(p[0.410187332329855, -0.111999053289166, 0.295148369575512, -1.15034609805071, 1.18551136537548, -1.24193892264313], a = 0.2, v = 0.2, t = 0.2)
movej(p[0.410050015708581, -0.112114567613562, 0.295160873408894, -1.16096861667392, 1.1824134292901, -1.25592958368868], a = 0.2, v = 0.2, t = 0.2)
movej(p[0.409673340395176, -0.112155624371106, 0.295043898732645, -1.16503079108774, 1.17829921902558, -1.26438873414508], a = 0.2, v = 0.2, t = 0.2)
movej(p[0.409058106623901, -0.11218542027193, 0.29491586404492, -1.1662380132565, 1.1741484026346, -1.27177458713338], a = 0.2, v = 0.2, t = 0.2)
movej(p[0.40811298731424, -0.112302238578901, 0.294880663276114, -1.14552438499945, 1.17521581865645, -1.25240407092972], a = 0.2, v = 0.2, t = 0.2)
movej(p[0.407253538643207, -0.112223581036725, 0.294860341085815, -1.13719191193771, 1.17133716416306, -1.2537570452375], a = 0.2, v = 0.2, t = 0.2)
movej(p[0.406670723481662, -0.111960496145572, 0.294825854161923, -1.13787746900997, 1.16504235994279, -1.25785356966789], a = 0.2, v = 0.2, t = 0.2)
movej(p[0.406194387740184, -0.11172670611708, 0.29485263510419, -1.14323726500212, 1.156338618624, -1.26202223103897], a = 0.2, v = 0.2, t = 0.2)
movej(p[0.405886793025757, -0.111685633131059, 0.294975389468984, -1.14489935225008, 1.14971384385475, -1.26549847730026], a = 0.2, v = 0.2, t = 0.2)
movej(p[0.406217362497882, -0.111633205914432, 0.295018097153958, -1.14439392385592, 1.14800809305704, -1.26087986974711], a = 0.2, v = 0.2, t = 0.2)
movej(p[0.407139884562206, -0.111590517832936, 0.295101219305835, -1.14705006264947, 1.15039579094923, -1.25735606952329], a = 0.2, v = 0.2, t = 0.2)
movej(p[0.408316931730353, -0.111617040940175, 0.295189909911537, -1.1448659524839, 1.15930547348116, -1.24586527725056], a = 0.2, v = 0.2, t = 0.2)
movej(p[0.40928489216946, -0.111641839083736, 0.295255862033573, -1.15148239861, 1.16628983355657, -1.24973097963842], a = 0.2, v = 0.2, t = 0.2)
movej(p[0.410009541629287, -0.11169026439159, 0.295260274475842, -1.15889552657751, 1.17226180145866, -1.25037285458652], a = 0.2, v = 0.2, t = 0.2)
movej(p[0.410300783095099, -0.1118289142685, 0.295284300297383, -1.16593446908308, 1.17666133565893, -1.25027031392473], a = 0.2, v = 0.2, t = 0.2)
movej(p[0.410302173048897, -0.112016832228008, 0.295301856862636, -1.16559699016923, 1.17825480711767, -1.25174027148628], a = 0.2, v = 0.2, t = 0.2)
movej(p[0.410292592346375, -0.112061695028998, 0.295236694001652, -1.15565877706361, 1.18301429767297, -1.2430394889094], a = 0.2, v = 0.2, t = 0.2)
movej(p[0.410281264093857, -0.112119332901188, 0.295211648607261, -1.15346379362761, 1.18308468281909, -1.24114976488201], a = 0.2, v = 0.2, t = 0.2)
movej(p[0.410210262500639, -0.112263032417489, 0.295263310118809, -1.15099179527688, 1.18495700655844, -1.23416169300089], a = 0.2, v = 0.2, t = 0.2)
movej(p[0.409802393039271, -0.112335919509782, 0.295190637144736, -1.1573804858648, 1.18101053037481, -1.250393359218], a = 0.2, v = 0.2, t = 0.2)
movej(p[0.409175275905439, -0.112324929510547, 0.295042395834466, -1.15868731045556, 1.17801435592231, -1.25872412705113], a = 0.2, v = 0.2, t = 0.2)
movej(p[0.408340564327204, -0.112361303041771, 0.294974715858195, -1.1558583208984, 1.17480035633884, -1.26110120030582], a = 0.2, v = 0.2, t = 0.2)
movej(p[0.407532517272585, -0.112329170794387, 0.295008381344959, -1.15122832307218, 1.17033208046482, -1.26536780246097], a = 0.2, v = 0.2, t = 0.2)
movej(p[0.406973243378052, -0.112129861524734, 0.295003902444573, -1.14831900041234, 1.16518860375501, -1.26669524050167], a = 0.2, v = 0.2, t = 0.2)
movej(p[0.406577371008476, -0.111886272609964, 0.294960371010726, -1.14824429482814, 1.15846350627627, -1.2659325458725], a = 0.2, v = 0.2, t = 0.2)
movej(p[0.406469294737043, -0.111876398410584, 0.295058601884385, -1.15208511592632, 1.15333808757035, -1.26113837397946], a = 0.2, v = 0.2, t = 0.2)
movej(p[0.406642576888627, -0.111916576118318, 0.295173751921483, -1.1534228287363, 1.15050400579521, -1.26488998870299], a = 0.2, v = 0.2, t = 0.2)
movej(p[0.407453887542125, -0.111868577110724, 0.295269818132457, -1.16011698473022, 1.15179701754742, -1.26360720418929], a = 0.2, v = 0.2, t = 0.2)
movej(p[0.408433762896026, -0.111876153135147, 0.295333602509621, -1.15507345578907, 1.15883553116008, -1.25035655086697], a = 0.2, v = 0.2, t = 0.2)
movej(p[0.40927557838757, -0.111932290198691, 0.29541617701412, -1.16727684626252, 1.16455937751466, -1.25605584805912], a = 0.2, v = 0.2, t = 0.2)
movej(p[0.409850809898145, -0.111966292382398, 0.295408156456473, -1.17016466636071, 1.17133684950023, -1.25510411763246], a = 0.2, v = 0.2, t = 0.2)
movej(p[0.41008872680899, -0.111956515007753, 0.295335788268684, -1.17541163694096, 1.17564260826666, -1.2585257848565], a = 0.2, v = 0.2, t = 0.2)
movej(p[0.4101546575215, -0.11209654559529, 0.295309450453425, -1.1610786585095, 1.1826855607423, -1.24027169099272], a = 0.2, v = 0.2, t = 0.2)
movej(p[0.410083656335872, -0.112136274033096, 0.29522734202632, -1.15122978731607, 1.18550161477862, -1.2393595208416], a = 0.2, v = 0.2, t = 0.2)
movej(p[0.410119263889187, -0.112085431449888, 0.29514646087042, -1.14959501620538, 1.18653905706284, -1.24107455641904], a = 0.2, v = 0.2, t = 0.2)
movej(p[0.410076947436539, -0.11207860159454, 0.295067005272346, -1.14897958051494, 1.18582255098747, -1.24008451734525], a = 0.2, v = 0.2, t = 0.2)
movej(p[0.409788437879417, -0.112246122922066, 0.295051908130654, -1.14803637187048, 1.18436196536177, -1.24369482593425], a = 0.2, v = 0.2, t = 0.2)
movej(p[0.409298582495035, -0.112225425426901, 0.294902674822088, -1.14867330100498, 1.18046829343361, -1.25594608325155], a = 0.2, v = 0.2, t = 0.2)
movej(p[0.408618418766271, -0.112115931291262, 0.294756963456179, -1.15008718854232, 1.17459227482247, -1.26675679504677], a = 0.2, v = 0.2, t = 0.2)
movej(p[0.407882229556584, -0.112064831136905, 0.294743828829185, -1.15170609550633, 1.16867697149559, -1.27042129350237], a = 0.2, v = 0.2, t = 0.2)
movej(p[0.407198901350055, -0.112000910286842, 0.294781498989669, -1.14591348588596, 1.16502608030504, -1.2670187360529], a = 0.2, v = 0.2, t = 0.2)
movej(p[0.406731545975756, -0.111805564303675, 0.294746463672703, -1.14357122711983, 1.16154205096711, -1.26188341611359], a = 0.2, v = 0.2, t = 0.2)
movej(p[0.406544717290847, -0.111654444601542, 0.294790230839878, -1.14173109467738, 1.15748953792746, -1.25550333147146], a = 0.2, v = 0.2, t = 0.2)
movej(p[0.406697628664492, -0.111714057034048, 0.294972740035813, -1.14551555726528, 1.15405831699945, -1.25267084685214], a = 0.2, v = 0.2, t = 0.2)
movej(p[0.407357302165549, -0.111763186056401, 0.295126734994386, -1.15506874319371, 1.15332252202561, -1.26320661118492], a = 0.2, v = 0.2, t = 0.2)
movej(p[0.408338901334327, -0.111734380063728, 0.295204878598352, -1.16227345398055, 1.15876221776913, -1.26186883932249], a = 0.2, v = 0.2, t = 0.2)
movej(p[0.409259217276874, -0.11184614489276, 0.295293298707969, -1.16139056082662, 1.16695979995474, -1.24935469214318], a = 0.2, v = 0.2, t = 0.2)
movej(p[0.409717142425269, -0.111969960667515, 0.295351808038755, -1.15718699398927, 1.17413724807846, -1.24467879587281], a = 0.2, v = 0.2, t = 0.2)
movej(p[0.410028617477516, -0.112021588165891, 0.295326493833113, -1.15884277391386, 1.17720782481992, -1.24620041832005], a = 0.2, v = 0.2, t = 0.2)
movej(p[0.410108353164606, -0.112019490093534, 0.295227149582365, -1.16025971510963, 1.17931070180401, -1.24606129687566], a = 0.2, v = 0.2, t = 0.2)
movej(p[0.410196545789087, -0.112186600512413, 0.295255347265569, -1.16038531286048, 1.18137239654414, -1.23931421425353], a = 0.2, v = 0.2, t = 0.2)
movej(p[0.410085497337751, -0.112272288233721, 0.295223536132391, -1.15066912839881, 1.18370573856787, -1.23513452889142], a = 0.2, v = 0.2, t = 0.2)
movej(p[0.409830097087717, -0.112257488628551, 0.29509678931914, -1.14794400133022, 1.18357961328814, -1.23596285746872], a = 0.2, v = 0.2, t = 0.2)
movej(p[0.409253419472851, -0.112277862294142, 0.294971865051031, -1.14282628917405, 1.18106520432265, -1.23691538145835], a = 0.2, v = 0.2, t = 0.2)
movej(p[0.408382925404992, -0.112352600593336, 0.294926118827628, -1.15069461513753, 1.17359873351215, -1.2561563729852], a = 0.2, v = 0.2, t = 0.2)
movej(p[0.407580278884975, -0.112222472434976, 0.294851273880525, -1.14852489997189, 1.16811195500007, -1.26442008437097], a = 0.2, v = 0.2, t = 0.2)
movej(p[0.406925312494154, -0.111954473637523, 0.29479161279053, -1.15084209265501, 1.1604300183274, -1.27015865680981], a = 0.2, v = 0.2, t = 0.2)
movej(p[0.406380263296675, -0.11184000558893, 0.294820952693017, -1.13913167100817, 1.15851937226837, -1.24861371536121], a = 0.2, v = 0.2, t = 0.2)
movej(p[0.40608236572599, -0.111822217582381, 0.294943759347574, -1.13956905537562, 1.15337040450291, -1.25157991375682], a = 0.2, v = 0.2, t = 0.2)
movej(p[0.406456613061075, -0.111802250979521, 0.295036307749248, -1.1479852084168, 1.15006859248449, -1.25481223737791], a = 0.2, v = 0.2, t = 0.2)
movej(p[0.407335103751878, -0.111799093876282, 0.295153167690083, -1.15522616472489, 1.14967130236993, -1.2585207528646], a = 0.2, v = 0.2, t = 0.2)
movej(p[0.408467330552392, -0.111959659920559, 0.295319772403466, -1.15031571526822, 1.15806199630567, -1.24411925006617], a = 0.2, v = 0.2, t = 0.2)
movej(p[0.409402206464443, -0.111987463925783, 0.295356739643836, -1.14700391783916, 1.16781469627179, -1.23668350426783], a = 0.2, v = 0.2, t = 0.2)
movej(p[0.4100500737002, -0.112027641000611, 0.295386027326257, -1.14610407302999, 1.1785930968811, -1.22492315579685], a = 0.2, v = 0.2, t = 0.2)
movej(p[0.410236564201204, -0.112150574389229, 0.295409219144381, -1.15057837275932, 1.18335106255077, -1.22333779327035], a = 0.2, v = 0.2, t = 0.2)
movej(p[0.41020071979604, -0.112297873974466, 0.295459066200698, -1.15283963483275, 1.18645987722009, -1.22710854289498], a = 0.2, v = 0.2, t = 0.2)
movej(p[0.410217658948274, -0.112309825854904, 0.29540316836196, -1.15123914472166, 1.18816718605522, -1.22462146138758], a = 0.2, v = 0.2, t = 0.2)
movej(p[0.41018125346577, -0.112375855166603, 0.295353839957969, -1.14969762268199, 1.18878647803495, -1.22225461774744], a = 0.2, v = 0.2, t = 0.2)
movej(p[0.409904872651944, -0.1125204286866, 0.295282599132842, -1.14512498264535, 1.18800148814135, -1.22147836820116], a = 0.2, v = 0.2, t = 0.2)
movej(p[0.409344979374632, -0.112516539065927, 0.295115475184015, -1.14373053384008, 1.1857023419331, -1.23157628485465], a = 0.2, v = 0.2, t = 0.2)
movej(p[0.408494934415939, -0.112453414513823, 0.294936668718744, -1.1460440535852, 1.17994644605033, -1.24481467235804], a = 0.2, v = 0.2, t = 0.2)
movej(p[0.407578138829626, -0.112410321477231, 0.29491241647114, -1.1456478126664, 1.17478258911277, -1.2456797026744], a = 0.2, v = 0.2, t = 0.2)
movej(p[0.406728189954815, -0.112349309769143, 0.294936286983984, -1.14155497327528, 1.16775812839685, -1.24859470313013], a = 0.2, v = 0.2, t = 0.2)
movej(p[0.406209487164959, -0.11209422643372, 0.294923414522455, -1.14080856483632, 1.16185639516307, -1.2454526223826], a = 0.2, v = 0.2, t = 0.2)
movej(p[0.406071723515587, -0.111939593841431, 0.294935296152604, -1.14168588787248, 1.15511894164009, -1.24385100038235], a = 0.2, v = 0.2, t = 0.2)
movej(p[0.406361115464397, -0.111953866630987, 0.29507473573071, -1.15129039413465, 1.15130329327278, -1.24991104517531], a = 0.2, v = 0.2, t = 0.2)
movej(p[0.407190376029439, -0.112023683475417, 0.295214476106491, -1.1581444126484, 1.1521964430649, -1.25659237071131], a = 0.2, v = 0.2, t = 0.2)
movej(p[0.4083068839213, -0.112015936725861, 0.295343457125966, -1.16230803336274, 1.15910628816393, -1.24973959339227], a = 0.2, v = 0.2, t = 0.2)
movej(p[0.409303552170094, -0.112112531358403, 0.295499449640698, -1.15717804474467, 1.17128569654562, -1.22875756270327], a = 0.2, v = 0.2, t = 0.2)
movej(p[0.409860675322488, -0.11218975385551, 0.295593814742704, -1.1518168358132, 1.18035343539974, -1.21852906978453], a = 0.2, v = 0.2, t = 0.2)
movej(p[0.410173387417881, -0.112228002435962, 0.295554487163862, -1.14827672071835, 1.18729645320063, -1.21343637074207], a = 0.2, v = 0.2, t = 0.2)
movej(p[0.41023278055378, -0.11231617107409, 0.29548194323194, -1.14819338984328, 1.18784162380925, -1.2143036627673], a = 0.2, v = 0.2, t = 0.2)
movej(p[0.410225638982789, -0.112482529487983, 0.295486869395828, -1.15494698545837, 1.18700666175568, -1.22133826974225], a = 0.2, v = 0.2, t = 0.2)
movej(p[0.410172674689059, -0.112549072806987, 0.295460006633766, -1.15822293826091, 1.1867307974329, -1.22887616392492], a = 0.2, v = 0.2, t = 0.2)
movej(p[0.410042041214402, -0.112534917597982, 0.295346128369177, -1.15726848236555, 1.1878167005708, -1.22656361466493], a = 0.2, v = 0.2, t = 0.2)
movej(p[0.409601034502949, -0.112642266300402, 0.29526072619115, -1.14845581652325, 1.18951334510305, -1.2192846433148], a = 0.2, v = 0.2, t = 0.2)
movej(p[0.408886890720272, -0.112652171367852, 0.295163047826592, -1.1436041006662, 1.18554097884312, -1.22939065291618], a = 0.2, v = 0.2, t = 0.2)
movej(p[0.408147265697887, -0.112523748089449, 0.295068424319868, -1.14042516404087, 1.18023555702554, -1.23663889245012], a = 0.2, v = 0.2, t = 0.2)
movej(p[0.407386310377378, -0.112346023560141, 0.295003064326967, -1.13803494558587, 1.17381123146245, -1.2395746910153], a = 0.2, v = 0.2, t = 0.2)
movej(p[0.406663104711786, -0.112314921026293, 0.295041900935265, -1.13949649823709, 1.16700390935629, -1.24202945633478], a = 0.2, v = 0.2, t = 0.2)
movej(p[0.406166479064987, -0.112176060000928, 0.2950439603915, -1.13834864499196, 1.16229772370314, -1.24178531872203], a = 0.2, v = 0.2, t = 0.2)
movej(p[0.406094479249726, -0.111989027550153, 0.295087863724868, -1.14431755260543, 1.15595251147686, -1.24401576734628], a = 0.2, v = 0.2, t = 0.2)
movej(p[0.40653025973098, -0.111986846291246, 0.295217746160774, -1.14059365242675, 1.15606945255163, -1.2312514517001], a = 0.2, v = 0.2, t = 0.2)
movej(p[0.407330683629085, -0.112033845594085, 0.295382317627545, -1.14544928769935, 1.15783174693981, -1.2371959286938], a = 0.2, v = 0.2, t = 0.2)
movej(p[0.408486277083639, -0.112001032171307, 0.29545607123547, -1.15472416623534, 1.16318982401889, -1.23632104045629], a = 0.2, v = 0.2, t = 0.2)
movej(p[0.409421736269492, -0.111993590226659, 0.295523412477112, -1.16262783041244, 1.17059494149714, -1.23559463531362], a = 0.2, v = 0.2, t = 0.2)
movej(p[0.409942720672158, -0.112202404726809, 0.295641489318852, -1.16701092199093, 1.17467183518449, -1.23282932517654], a = 0.2, v = 0.2, t = 0.2)
movej(p[0.410143721754817, -0.11228215365786, 0.295612967227148, -1.16070747199743, 1.18024917423716, -1.22853363813247], a = 0.2, v = 0.2, t = 0.2)
movej(p[0.410250979813341, -0.112335996237828, 0.295548771481462, -1.16119577620263, 1.18209687068544, -1.22936730268204], a = 0.2, v = 0.2, t = 0.2)
movej(p[0.410246389898391, -0.112398113496824, 0.295514217193515, -1.16080526390242, 1.18413323477923, -1.22630982589925], a = 0.2, v = 0.2, t = 0.2)
movej(p[0.410135278094942, -0.112503822150632, 0.295499600482377, -1.16181362009493, 1.18538993091756, -1.22911845699816], a = 0.2, v = 0.2, t = 0.2)
movej(p[0.409845659509066, -0.112513786457217, 0.295349869140269, -1.15712166253984, 1.1867467541348, -1.22756570450442], a = 0.2, v = 0.2, t = 0.2)
movej(p[0.409243044219062, -0.112574162440188, 0.295237402858059, -1.15338202849525, 1.18503140382731, -1.23060659395784], a = 0.2, v = 0.2, t = 0.2)
movej(p[0.408397955515174, -0.112665876954735, 0.295204517808547, -1.14134681469604, 1.18310117598917, -1.22833236141992], a = 0.2, v = 0.2, t = 0.2)
movej(p[0.407672619399646, -0.112549731534106, 0.295185300075138, -1.13930832475671, 1.17691974136915, -1.23843396323179], a = 0.2, v = 0.2, t = 0.2)
movej(p[0.407209616761906, -0.112317426537594, 0.29516040048795, -1.13833903002578, 1.1718590810864, -1.23911046480775], a = 0.2, v = 0.2, t = 0.2)
movej(p[0.407246541684279, -0.11228652409338, 0.295268209337074, -1.14392149018846, 1.16704596579303, -1.23953064875692], a = 0.2, v = 0.2, t = 0.2)
movej(p[0.407655517080102, -0.11235080632355, 0.295459672997584, -1.14313353958423, 1.16668996991277, -1.23686340094748], a = 0.2, v = 0.2, t = 0.2)
movej(p[0.408592020632045, -0.112319716654498, 0.295557633792685, -1.13967208296634, 1.17220346384967, -1.22629699894347], a = 0.2, v = 0.2, t = 0.2)
movej(p[0.409432636955322, -0.112308176336177, 0.295626116715325, -1.13714416577772, 1.17929695350891, -1.21413950332731], a = 0.2, v = 0.2, t = 0.2)
movej(p[0.410050819094499, -0.112390408555781, 0.295682391434208, -1.14298560594716, 1.18353488172873, -1.2112134388831], a = 0.2, v = 0.2, t = 0.2)
movej(p[0.410287526309285, -0.112478158302578, 0.295694804196565, -1.1470377535362, 1.18638012722459, -1.21245686044814], a = 0.2, v = 0.2, t = 0.2)
movej(p[0.410385756138809, -0.1124533125111, 0.295612944346592, -1.15142834012371, 1.18727163677096, -1.21483702148313], a = 0.2, v = 0.2, t = 0.2)
movej(p[0.410340547423939, -0.112568205703777, 0.295569547201797, -1.14826837357054, 1.18874180381036, -1.20703222622461], a = 0.2, v = 0.2, t = 0.2)
movej(p[0.409967908558606, -0.112651299471518, 0.295468180615555, -1.14514927477446, 1.18725190237179, -1.21519275044478], a = 0.2, v = 0.2, t = 0.2)
movej(p[0.409361440751828, -0.112654325575289, 0.295324518338887, -1.14528630221076, 1.18378969489323, -1.22496429551238], a = 0.2, v = 0.2, t = 0.2)
movej(p[0.408355737721672, -0.112588317556905, 0.29518244079969, -1.1423941777173, 1.179985721119, -1.23170292799477], a = 0.2, v = 0.2, t = 0.2)
movej(p[0.407280404573611, -0.112597783327983, 0.295195388322934, -1.14560353597661, 1.17218100855473, -1.2407919353725], a = 0.2, v = 0.2, t = 0.2)
movej(p[0.406388385670491, -0.112434457918909, 0.295185281610928, -1.1421661545312, 1.16470015870151, -1.24557140973519], a = 0.2, v = 0.2, t = 0.2)
movej(p[0.405860453762252, -0.112177728972914, 0.29514058907742, -1.14298112344776, 1.15691521415552, -1.2467461360741], a = 0.2, v = 0.2, t = 0.2)
movej(p[0.405660558405862, -0.11208814625243, 0.295164379813208, -1.13934329107781, 1.15275251623647, -1.23843371330086], a = 0.2, v = 0.2, t = 0.2)
movej(p[0.405847625947971, -0.112159061061545, 0.295292515027655, -1.1413104118087, 1.15114535665026, -1.23989006617985], a = 0.2, v = 0.2, t = 0.2)
movej(p[0.406618265222112, -0.112181325829421, 0.29542791441352, -1.14787840209585, 1.15292842407386, -1.24086874368495], a = 0.2, v = 0.2, t = 0.2)
movej(p[0.407672317719006, -0.112119209129243, 0.295510058859316, -1.15254576340625, 1.1573733787556, -1.24001238619367], a = 0.2, v = 0.2, t = 0.2)
movej(p[0.408749426888064, -0.112184952651986, 0.295623560681651, -1.15660749409595, 1.1638338210127, -1.23524378872984], a = 0.2, v = 0.2, t = 0.2)
movej(p[0.409573414081056, -0.112175806898672, 0.295618827546262, -1.15123114989758, 1.17286477192763, -1.22556403205995], a = 0.2, v = 0.2, t = 0.2)
movej(p[0.410140863173044, -0.112176668811548, 0.29559453989818, -1.15464608108978, 1.17940194151968, -1.22348480908417], a = 0.2, v = 0.2, t = 0.2)
movej(p[0.410304091200062, -0.112285067701854, 0.2955605742364, -1.15204311308421, 1.18473177747428, -1.21702295265849], a = 0.2, v = 0.2, t = 0.2)
movej(p[0.410158627816066, -0.112392674160837, 0.295537872956664, -1.15731445055543, 1.18591962034237, -1.22897153704903], a = 0.2, v = 0.2, t = 0.2)
movej(p[0.409732078579785, -0.112452217802716, 0.295396058943111, -1.15859422529432, 1.18486122740354, -1.23495128062304], a = 0.2, v = 0.2, t = 0.2)
movej(p[0.40888444043778, -0.112476586663462, 0.295280852506466, -1.15650349672786, 1.18368066534882, -1.23713380837278], a = 0.2, v = 0.2, t = 0.2)
movej(p[0.407748503899642, -0.112604926265118, 0.295254650495675, -1.14934137004822, 1.17871642822078, -1.23742636329111], a = 0.2, v = 0.2, t = 0.2)
movej(p[0.406571586446222, -0.112466772662361, 0.295183342532017, -1.14050007091615, 1.17234528638744, -1.23710843651049], a = 0.2, v = 0.2, t = 0.2)
movej(p[0.405591057126675, -0.112244665931448, 0.295113868620423, -1.1421253250911, 1.15994179124998, -1.24326933010764], a = 0.2, v = 0.2, t = 0.2)
movej(p[0.405058618942054, -0.112100941410398, 0.295121361725935, -1.14679747434897, 1.15029654590954, -1.24378815723149], a = 0.2, v = 0.2, t = 0.2)
movej(p[0.404982914962101, -0.112094756073077, 0.295216839458656, -1.1562236224921, 1.14101672716667, -1.2584592821385], a = 0.2, v = 0.2, t = 0.2)
movej(p[0.405765524494046, -0.11206306207557, 0.295287866660291, -1.15897245190358, 1.14218528658369, -1.25369674586639], a = 0.2, v = 0.2, t = 0.2)
movej(p[0.406933619578735, -0.112041154861657, 0.29539888733341, -1.16017945805855, 1.14643400745119, -1.2492370034809], a = 0.2, v = 0.2, t = 0.2)
movej(p[0.408184265451637, -0.112093121793459, 0.295540367393137, -1.15397509042656, 1.15754219889209, -1.23490617533691], a = 0.2, v = 0.2, t = 0.2)
movej(p[0.409197645806202, -0.112056798634182, 0.295590787849801, -1.15986252683844, 1.16692104454504, -1.2404338033809], a = 0.2, v = 0.2, t = 0.2)
movej(p[0.409896045036796, -0.112049745507653, 0.295551343369885, -1.16068440889848, 1.17695806567675, -1.23301755650932], a = 0.2, v = 0.2, t = 0.2)
movej(p[0.410233372438758, -0.112180470857695, 0.295556214736378, -1.16593229678776, 1.18287156766067, -1.22838521999002], a = 0.2, v = 0.2, t = 0.2)
movej(p[0.410256106738758, -0.112321692097638, 0.295560545831091, -1.15908203018461, 1.18651959101805, -1.22216284521786], a = 0.2, v = 0.2, t = 0.2)
movej(p[0.410270678961541, -0.112348179138185, 0.295496913215978, -1.15347896961163, 1.19033464872141, -1.21843448331176], a = 0.2, v = 0.2, t = 0.2)
movej(p[0.410013049035236, -0.112446722657963, 0.295436559772076, -1.15130634568983, 1.18976413614554, -1.21906702573742], a = 0.2, v = 0.2, t = 0.2)
movej(p[0.409382033353112, -0.11257368513536, 0.29538527925001, -1.14987377024547, 1.18882410930749, -1.22635029513159], a = 0.2, v = 0.2, t = 0.2)
movej(p[0.40842913069387, -0.11255560708956, 0.295255915209917, -1.15485665069268, 1.18156173129458, -1.24897472823731], a = 0.2, v = 0.2, t = 0.2)
movej(p[0.407359649427409, -0.112388492515244, 0.295128697260942, -1.15418676386042, 1.17340352482095, -1.25947769603141], a = 0.2, v = 0.2, t = 0.2)
movej(p[0.406353823407955, -0.112318376509708, 0.295141239687194, -1.14852160941761, 1.16687027641476, -1.25047733006554], a = 0.2, v = 0.2, t = 0.2)
movej(p[0.405521003597721, -0.112221142312222, 0.295206348112309, -1.14585190013568, 1.15588757084323, -1.25333638069473], a = 0.2, v = 0.2, t = 0.2)
movej(p[0.405302483807635, -0.112040377440942, 0.295223369649133, -1.14876493173204, 1.14808543264968, -1.25372397654361], a = 0.2, v = 0.2, t = 0.2)
movej(p[0.405675159005583, -0.111915852915763, 0.295245288445336, -1.14952154099959, 1.14357321074474, -1.25095729760786], a = 0.2, v = 0.2, t = 0.2)
movej(p[0.406551325531404, -0.111981166963576, 0.295384680812377, -1.15547224754299, 1.14387859289804, -1.24998942386982], a = 0.2, v = 0.2, t = 0.2)
movej(p[0.407685700487098, -0.111989435265091, 0.295465806544232, -1.15418923387905, 1.15225068147953, -1.24407999620685], a = 0.2, v = 0.2, t = 0.2)
movej(p[0.408909474000791, -0.111926005295975, 0.295495219142627, -1.15973337563569, 1.16261480907693, -1.24006817619492], a = 0.2, v = 0.2, t = 0.2)
movej(p[0.409830238294856, -0.112007864623477, 0.295534046755884, -1.15259685663453, 1.17563092857857, -1.22055431961989], a = 0.2, v = 0.2, t = 0.2)
movej(p[0.410169278090485, -0.112135444215768, 0.29558838970033, -1.15954031587296, 1.18171086927454, -1.22750242097213], a = 0.2, v = 0.2, t = 0.2)
movej(p[0.410329687300595, -0.112192738217612, 0.295526214147953, -1.16426511788594, 1.1833749339276, -1.23495487310786], a = 0.2, v = 0.2, t = 0.2)
movej(p[0.410252929528148, -0.112183786138102, 0.295437615170631, -1.17052977057103, 1.18335101680465, -1.24308216698786], a = 0.2, v = 0.2, t = 0.2)
movej(p[0.409921350146091, -0.112430819785444, 0.295405682394991, -1.16030296121482, 1.18391569827124, -1.23375184338648], a = 0.2, v = 0.2, t = 0.2)
movej(p[0.409253563650409, -0.112480157098108, 0.295294068303654, -1.15128021205673, 1.18276164232779, -1.2377201045037], a = 0.2, v = 0.2, t = 0.2)
movej(p[0.408334866029444, -0.112409762927468, 0.295123845789064, -1.1461038543551, 1.17834455952233, -1.24203407422337], a = 0.2, v = 0.2, t = 0.2)
movej(p[0.407329029684334, -0.11227059719959, 0.295057537153573, -1.14484152489114, 1.17132459767843, -1.24827664538699], a = 0.2, v = 0.2, t = 0.2)
movej(p[0.406379976096883, -0.112158220840516, 0.295106410798732, -1.14086029045986, 1.16460784349361, -1.25134943655228], a = 0.2, v = 0.2, t = 0.2)
movej(p[0.405842364522599, -0.111930090483793, 0.295115388977916, -1.14437723314289, 1.15700027772109, -1.25526334004077], a = 0.2, v = 0.2, t = 0.2)
movej(p[0.405723799285883, -0.111769997373842, 0.295126418329145, -1.14802885544535, 1.14971916468303, -1.25647320665892], a = 0.2, v = 0.2, t = 0.2)
movej(p[0.406025588872333, -0.111850775503242, 0.295214495133248, -1.143539248073, 1.14866097600004, -1.24194577186257], a = 0.2, v = 0.2, t = 0.2)
movej(p[0.406740890369418, -0.111936058980671, 0.295343299350744, -1.14542240215532, 1.14997634767133, -1.24168278889214], a = 0.2, v = 0.2, t = 0.2)
movej(p[0.40774253349792, -0.11194831062406, 0.295447716329059, -1.14868857498754, 1.15644635772888, -1.23798856211316], a = 0.2, v = 0.2, t = 0.2)
movej(p[0.408783568677536, -0.111996718207368, 0.295549979524313, -1.15511527152831, 1.16402723654844, -1.23522767058779], a = 0.2, v = 0.2, t = 0.2)
movej(p[0.409486218965775, -0.112104526446349, 0.295618277986649, -1.1538511721153, 1.17185202780157, -1.22960383440477], a = 0.2, v = 0.2, t = 0.2)
movej(p[0.409994154479134, -0.112114823032641, 0.295578538017328, -1.15368414373438, 1.1783477974279, -1.22444616606883], a = 0.2, v = 0.2, t = 0.2)
movej(p[0.410178321727368, -0.112176595202946, 0.295528350826464, -1.1587909199441, 1.18042637290339, -1.22871254593612], a = 0.2, v = 0.2, t = 0.2)
movej(p[0.410128805387395, -0.112290707402481, 0.295487145106931, -1.16137192496028, 1.18146216846618, -1.23320563811477], a = 0.2, v = 0.2, t = 0.2)
movej(p[0.409781902229096, -0.112379552667919, 0.29534404652388, -1.16406864984425, 1.17915832077421, -1.24950834885891], a = 0.2, v = 0.2, t = 0.2)
movej(p[0.409157428727125, -0.112370949292771, 0.295169571187307, -1.16308798038695, 1.17566427736602, -1.2584905896272], a = 0.2, v = 0.2, t = 0.2)
movej(p[0.408258940448597, -0.11240633877507, 0.295065665941578, -1.15912845136798, 1.17226262863283, -1.25971979433825], a = 0.2, v = 0.2, t = 0.2)
movej(p[0.407270838482436, -0.112339679736004, 0.2950551161653, -1.15110457802766, 1.16775296704865, -1.26310235737934], a = 0.2, v = 0.2, t = 0.2)
movej(p[0.406606634702622, -0.112079626876298, 0.295004677139649, -1.14792825000515, 1.16283816292701, -1.26287098377589], a = 0.2, v = 0.2, t = 0.2)
movej(p[0.406137104111659, -0.111846263639256, 0.294985929460013, -1.14369336134344, 1.15856223295585, -1.25725700696511], a = 0.2, v = 0.2, t = 0.2)
movej(p[0.405990003618325, -0.111801170966012, 0.295086847861113, -1.14914676978715, 1.15314848893397, -1.25630195776825], a = 0.2, v = 0.2, t = 0.2)
movej(p[0.406344829692775, -0.111869292543557, 0.295199600668455, -1.1536515278458, 1.15071665127226, -1.2607630047101], a = 0.2, v = 0.2, t = 0.2)
movej(p[0.407288178067225, -0.11184764346069, 0.295301713648203, -1.15699207946507, 1.15415818084027, -1.25617556208305], a = 0.2, v = 0.2, t = 0.2)
movej(p[0.408565145098157, -0.111953510187081, 0.295432798490787, -1.14893473345065, 1.16382496679984, -1.23481897778467], a = 0.2, v = 0.2, t = 0.2)
movej(p[0.409433482273285, -0.112010240593873, 0.295512762859724, -1.14623326531148, 1.17310147781761, -1.22844861138813], a = 0.2, v = 0.2, t = 0.2)
movej(p[0.410093097501328, -0.112055292232697, 0.295525543057688, -1.15521355423648, 1.17855074919828, -1.23238397886264], a = 0.2, v = 0.2, t = 0.2)
movej(p[0.410280342038094, -0.112082524710312, 0.295466671299236, -1.16224891637388, 1.18221672047538, -1.23667435562812], a = 0.2, v = 0.2, t = 0.2)
movej(p[0.410354103236441, -0.11229677072155, 0.295486535289574, -1.16144852827437, 1.18562154168393, -1.22715176468007], a = 0.2, v = 0.2, t = 0.2)
movej(p[0.410171218277389, -0.112417324187625, 0.295406602885196, -1.15152980151816, 1.18789182501834, -1.22060025934307], a = 0.2, v = 0.2, t = 0.2)
movej(p[0.409731017173721, -0.112445754935932, 0.295247787619619, -1.14799983822789, 1.18690849706536, -1.22173776960259], a = 0.2, v = 0.2, t = 0.2)
movej(p[0.408903650611389, -0.112493871400948, 0.295127660527629, -1.14400650610447, 1.18336343388986, -1.22554629089241], a = 0.2, v = 0.2, t = 0.2)
movej(p[0.407907622829982, -0.112474217085285, 0.295061764358239, -1.14375120707453, 1.17717644851123, -1.2420004919301], a = 0.2, v = 0.2, t = 0.2)
movej(p[0.407051521384808, -0.112280590550652, 0.2949848325985, -1.14638897461607, 1.16864180162665, -1.25361444609124], a = 0.2, v = 0.2, t = 0.2)
movej(p[0.406375893700611, -0.111991900556215, 0.294940996188737, -1.15203763226866, 1.15909823467937, -1.26444300790278], a = 0.2, v = 0.2, t = 0.2)
movej(p[0.405831937556652, -0.111971375081031, 0.295014956096786, -1.14785364549764, 1.15529533388763, -1.25409415950615], a = 0.2, v = 0.2, t = 0.2)
movej(p[0.405578256059073, -0.111930821013059, 0.295081879083545, -1.14701257872407, 1.15065227417387, -1.25487154812037], a = 0.2, v = 0.2, t = 0.2)
movej(p[0.405952699505787, -0.111865866974007, 0.295102723308737, -1.14861455860929, 1.14806587847687, -1.2528854200524], a = 0.2, v = 0.2, t = 0.2)
movej(p[0.406869354385181, -0.111861220404172, 0.295191034191822, -1.15683208159401, 1.14726997887159, -1.25712735597054], a = 0.2, v = 0.2, t = 0.2)
movej(p[0.407961429461932, -0.111951674059253, 0.295350761459441, -1.16381803080654, 1.15243314398331, -1.26155002519651], a = 0.2, v = 0.2, t = 0.2)
movej(p[0.409066828722212, -0.111972287785428, 0.29542875165797, -1.1652995616229, 1.16379823318455, -1.25337703352962], a = 0.2, v = 0.2, t = 0.2)
movej(p[0.40981734574672, -0.112013737040999, 0.295460102857393, -1.16694009756483, 1.17269130372693, -1.24666771066988], a = 0.2, v = 0.2, t = 0.2)
movej(p[0.410171305967662, -0.112183511445665, 0.295478072928621, -1.15560166753602, 1.18175911971297, -1.22668118906793], a = 0.2, v = 0.2, t = 0.2)
movej(p[0.410242748647232, -0.112274542348817, 0.295449075964863, -1.1593246375882, 1.18364821360577, -1.23715853279426], a = 0.2, v = 0.2, t = 0.2)
movej(p[0.410275142605076, -0.112289898671822, 0.295389574231788, -1.16256615708539, 1.18413599131233, -1.24063157893959], a = 0.2, v = 0.2, t = 0.2)
movej(p[0.410175086362517, -0.112377929775527, 0.295323047325161, -1.16010839006195, 1.18473201700917, -1.23550261712208], a = 0.2, v = 0.2, t = 0.2)
movej(p[0.409670648817251, -0.112543332293004, 0.29526710830087, -1.1531130234485, 1.18361477546197, -1.23602001308467], a = 0.2, v = 0.2, t = 0.2)
movej(p[0.40898455938403, -0.112481110061889, 0.295087153931436, -1.14417213068315, 1.18212113176307, -1.23850740419824], a = 0.2, v = 0.2, t = 0.2)
movej(p[0.408029810861577, -0.112334928299021, 0.294971816022758, -1.14328199983807, 1.17665400014144, -1.24719890992538], a = 0.2, v = 0.2, t = 0.2)
movej(p[0.407074630211574, -0.112210543361003, 0.294959492230551, -1.14543775912297, 1.17016724807587, -1.25269641764086], a = 0.2, v = 0.2, t = 0.2)
movej(p[0.406289376366807, -0.112059946132216, 0.294970694961676, -1.14500707186478, 1.16297267885276, -1.25848200559773], a = 0.2, v = 0.2, t = 0.2)
movej(p[0.40581318148407, -0.111813937603486, 0.294933275953509, -1.14684112620817, 1.15732510046013, -1.25642930584918], a = 0.2, v = 0.2, t = 0.2)
movej(p[0.405879334423443, -0.111764541443569, 0.294993674152967, -1.14333602280625, 1.1540915608059, -1.24270225641565], a = 0.2, v = 0.2, t = 0.2)
movej(p[0.406374331619247, -0.111849658001662, 0.295160393822126, -1.14627937298911, 1.15336144216093, -1.24104352627608], a = 0.2, v = 0.2, t = 0.2)
movej(p[0.407490462273937, -0.111882967808782, 0.295288924346165, -1.15506019704606, 1.15564676053067, -1.24962468579796], a = 0.2, v = 0.2, t = 0.2)
movej(p[0.40873957971507, -0.111836335061394, 0.295367887933533, -1.16170616641707, 1.16366078945137, -1.2503547534798], a = 0.2, v = 0.2, t = 0.2)
movej(p[0.409791497101263, -0.111988180388853, 0.295482456585675, -1.16092389862691, 1.17386942117959, -1.23710557685277], a = 0.2, v = 0.2, t = 0.2)
movej(p[0.410201340879114, -0.112099928331354, 0.295535136259372, -1.15846988605858, 1.18049606301651, -1.23665448275785], a = 0.2, v = 0.2, t = 0.2)
movej(p[0.410429701699917, -0.112140026963397, 0.295494369019544, -1.15626170864582, 1.18503286247777, -1.23224455766658], a = 0.2, v = 0.2, t = 0.2)
movej(p[0.410401937053365, -0.112185697506928, 0.295419418594385, -1.15478985548914, 1.18636874266827, -1.22969368434489], a = 0.2, v = 0.2, t = 0.2)
movej(p[0.410159599091657, -0.112354125663347, 0.295406060804094, -1.15850219217804, 1.18468374786757, -1.23564084779196], a = 0.2, v = 0.2, t = 0.2)
movej(p[0.409601142621287, -0.112434977297912, 0.295288715009579, -1.15435493808759, 1.18300104282631, -1.23960481903861], a = 0.2, v = 0.2, t = 0.2)
movej(p[0.408654091314134, -0.112379107172018, 0.295144185608926, -1.1523850904254, 1.17914301692778, -1.24766960740966], a = 0.2, v = 0.2, t = 0.2)
movej(p[0.407538025960485, -0.112417502514867, 0.295112205939901, -1.14214885163064, 1.1750532984842, -1.24020240710695], a = 0.2, v = 0.2, t = 0.2)
movej(p[0.406423419270106, -0.112345158076907, 0.295146381771386, -1.14651678584954, 1.16417371174451, -1.25631760532978], a = 0.2, v = 0.2, t = 0.2)
movej(p[0.405668236858192, -0.112132856512038, 0.295138062365466, -1.15231928452943, 1.15326316651541, -1.26367992232835], a = 0.2, v = 0.2, t = 0.2)
movej(p[0.405249139635616, -0.111980620183582, 0.295118197531414, -1.15117748113104, 1.14617855803563, -1.25827396916984], a = 0.2, v = 0.2, t = 0.2)
movej(p[0.405204909478604, -0.112088094774543, 0.295267134254664, -1.14582534254733, 1.14449061021698, -1.24652274088761], a = 0.2, v = 0.2, t = 0.2)
movej(p[0.405918334858009, -0.11209911013732, 0.295370039481745, -1.13975697359524, 1.14745819496965, -1.23917238500757], a = 0.2, v = 0.2, t = 0.2)
movej(p[0.407106176563799, -0.112029920830426, 0.29546229665819, -1.14543668781908, 1.151823558765, -1.24077242483771], a = 0.2, v = 0.2, t = 0.2)
movej(p[0.40850704668367, -0.11200688292604, 0.295536409314888, -1.14588428254722, 1.16277797154136, -1.22968275221247], a = 0.2, v = 0.2, t = 0.2)
movej(p[0.409473337205401, -0.11210363320914, 0.295616532789741, -1.14841079049752, 1.17232101434463, -1.22721545654911], a = 0.2, v = 0.2, t = 0.2)
movej(p[0.410061465753246, -0.112120704174976, 0.295562402180217, -1.15091117959026, 1.18081726807439, -1.22306275348161], a = 0.2, v = 0.2, t = 0.2)
movej(p[0.410314371623181, -0.112176579255731, 0.295489815840296, -1.15258427314508, 1.1849035368684, -1.22239267349229], a = 0.2, v = 0.2, t = 0.2)
movej(p[0.410282093212856, -0.112304267379671, 0.295440063845435, -1.15001436390858, 1.18815390565164, -1.21918659165242], a = 0.2, v = 0.2, t = 0.2)
movej(p[0.410003473101108, -0.112407976593992, 0.29538258312523, -1.15361737073089, 1.18681376838332, -1.23153146842604], a = 0.2, v = 0.2, t = 0.2)
movej(p[0.409429890826106, -0.11240171387343, 0.295240759740432, -1.15191177582935, 1.18526500693253, -1.23565511244367], a = 0.2, v = 0.2, t = 0.2)
movej(p[0.408580130065126, -0.11246327841207, 0.295203938533484, -1.15211753362354, 1.1811459793806, -1.2407098612585], a = 0.2, v = 0.2, t = 0.2)
movej(p[0.407578703694915, -0.112440429137312, 0.295181841540745, -1.14654661468425, 1.17521395927226, -1.24866353086714], a = 0.2, v = 0.2, t = 0.2)
movej(p[0.406805162099392, -0.112225437441197, 0.295136430616979, -1.14799372156133, 1.16695553255261, -1.25877303991459], a = 0.2, v = 0.2, t = 0.2)
movej(p[0.40617310749578, -0.111990606334963, 0.29506078813649, -1.14590605668805, 1.15923220269332, -1.25786150387143], a = 0.2, v = 0.2, t = 0.2)
movej(p[0.40580108106484, -0.1119381285807, 0.295101839530931, -1.15047687643229, 1.15176759981342, -1.25762061333993], a = 0.2, v = 0.2, t = 0.2)
movej(p[0.405668806949277, -0.111953458650721, 0.295138185962737, -1.1470075362206, 1.14899407303578, -1.25556553757429], a = 0.2, v = 0.2, t = 0.2)
movej(p[0.406131600022608, -0.111912092575064, 0.295165844669526, -1.15307487467125, 1.14807987152634, -1.25826111163102], a = 0.2, v = 0.2, t = 0.2)
movej(p[0.406969139936045, -0.11195072221397, 0.295244527758553, -1.14890522830946, 1.15305466552723, -1.24528432443902], a = 0.2, v = 0.2, t = 0.2)
movej(p[0.407918691492629, -0.112072126901356, 0.295422729578065, -1.15796697731311, 1.15661996007484, -1.25227091322166], a = 0.2, v = 0.2, t = 0.2)
movej(p[0.408900976205668, -0.112100186519545, 0.295495894486529, -1.15803778897098, 1.16569672291488, -1.2444147576573], a = 0.2, v = 0.2, t = 0.2)
movej(p[0.409635274936993, -0.112107572840475, 0.295496710189966, -1.16071751339202, 1.17398971068033, -1.23895607050423], a = 0.2, v = 0.2, t = 0.2)
movej(p[0.410071100441465, -0.112270910717294, 0.295527416154482, -1.15247985546677, 1.18264544031724, -1.22073093227697], a = 0.2, v = 0.2, t = 0.2)
movej(p[0.410156231227293, -0.112399064458072, 0.295492719298301, -1.15543718934981, 1.18395202184994, -1.23055860992522], a = 0.2, v = 0.2, t = 0.2)
movej(p[0.410070284076537, -0.112408599466105, 0.295418119780342, -1.15683565945243, 1.18509401895817, -1.23419541821807], a = 0.2, v = 0.2, t = 0.2)
movej(p[0.409683671567963, -0.112440787213626, 0.295316593754887, -1.16185981102034, 1.18218728813197, -1.24259489522953], a = 0.2, v = 0.2, t = 0.2)
movej(p[0.408896534752774, -0.112602589035047, 0.295332263204767, -1.15423742811997, 1.18197410331991, -1.23951866664322], a = 0.2, v = 0.2, t = 0.2)
movej(p[0.408053672897297, -0.112543845327155, 0.295231034984076, -1.14497256876321, 1.17923514570194, -1.24317088767206], a = 0.2, v = 0.2, t = 0.2)
movej(p[0.407249219559485, -0.11231090758219, 0.295112634389676, -1.13822964879731, 1.175176304136, -1.24407788323654], a = 0.2, v = 0.2, t = 0.2)
movej(p[0.406534845462404, -0.112174474912842, 0.295107702844001, -1.13782974705667, 1.16796165354649, -1.24139682093247], a = 0.2, v = 0.2, t = 0.2)
movej(p[0.405898146662805, -0.11212307323219, 0.295179072442265, -1.13930562634723, 1.1593499974808, -1.24697632083006], a = 0.2, v = 0.2, t = 0.2)
movej(p[0.405805966852525, -0.111984662679516, 0.295202361669418, -1.14457514211891, 1.15364811674349, -1.25030119379905], a = 0.2, v = 0.2, t = 0.2)
movej(p[0.406261675875179, -0.111893255584367, 0.295236066862311, -1.14698181365776, 1.15111475636832, -1.2503692276308], a = 0.2, v = 0.2, t = 0.2)
movej(p[0.407219755550141, -0.111894800375211, 0.295332029272372, -1.15285456918106, 1.1532250096819, -1.2506045823092], a = 0.2, v = 0.2, t = 0.2)
movej(p[0.408293329117805, -0.111906152122104, 0.295407481946653, -1.15650354881451, 1.15936931236242, -1.25258709989417], a = 0.2, v = 0.2, t = 0.2)
movej(p[0.409382918004523, -0.111847538047934, 0.295376004633379, -1.15675060719089, 1.17008649733092, -1.24018862518939], a = 0.2, v = 0.2, t = 0.2)
movej(p[0.410069941606604, -0.111973555554374, 0.295415705048719, -1.15734657207762, 1.17874210209016, -1.22766417104415], a = 0.2, v = 0.2, t = 0.2)
movej(p[0.410303378452638, -0.112153156294321, 0.295479982377571, -1.15695158145585, 1.18538728995031, -1.22439606633769], a = 0.2, v = 0.2, t = 0.2)
movej(p[0.4103735589759, -0.11223024285285, 0.295452095562681, -1.16736883819884, 1.18443767451861, -1.24020675174964], a = 0.2, v = 0.2, t = 0.2)
movej(p[0.410213751837829, -0.11224559589255, 0.295342314510611, -1.1666319743685, 1.18385720399002, -1.24115425866834], a = 0.2, v = 0.2, t = 0.2)
movej(p[0.409825551789497, -0.112461240098174, 0.295294159166611, -1.16259129468668, 1.18148103875012, -1.23717756873764], a = 0.2, v = 0.2, t = 0.2)
movej(p[0.409039030031432, -0.112540428928123, 0.29523442787747, -1.15181312752318, 1.17959561925996, -1.24118415658868], a = 0.2, v = 0.2, t = 0.2)
movej(p[0.40818580003002, -0.112420337487631, 0.295122055902715, -1.14712999305251, 1.17677020038067, -1.24601444923969], a = 0.2, v = 0.2, t = 0.2)
movej(p[0.407253867073001, -0.112195245097207, 0.295056118201857, -1.14421432347193, 1.17099571074445, -1.24986916049759], a = 0.2, v = 0.2, t = 0.2)
movej(p[0.406389652809559, -0.112150318312561, 0.295179998575161, -1.1490208785523, 1.16345096486706, -1.25621991686448], a = 0.2, v = 0.2, t = 0.2)
movej(p[0.405779844498688, -0.11200175491963, 0.295230888856836, -1.14937684460544, 1.15496351883388, -1.26100289390322], a = 0.2, v = 0.2, t = 0.2)
movej(p[0.405769634320123, -0.111820762465467, 0.295247588663833, -1.15343029604576, 1.14832011561757, -1.26153544022434], a = 0.2, v = 0.2, t = 0.2)
movej(p[0.406342885032006, -0.111770508174023, 0.295302597343305, -1.1500597548617, 1.14896558465665, -1.25016453927046], a = 0.2, v = 0.2, t = 0.2)
movej(p[0.407259152350373, -0.111859808512901, 0.29542562619061, -1.15543841358584, 1.15126839402637, -1.25416495376779], a = 0.2, v = 0.2, t = 0.2)
movej(p[0.408477425513647, -0.111869281069867, 0.29548232033149, -1.15512496031857, 1.1629510870486, -1.24685073664922], a = 0.2, v = 0.2, t = 0.2)
movej(p[0.409487444438861, -0.111899121580865, 0.295507556880622, -1.15746731606814, 1.17154241774214, -1.24200360702062], a = 0.2, v = 0.2, t = 0.2)
movej(p[0.410113143604312, -0.112037747468883, 0.295576671289213, -1.14807260086334, 1.18399587956414, -1.22227402472625], a = 0.2, v = 0.2, t = 0.2)
movej(p[0.410374129110655, -0.112106195148822, 0.295576967942326, -1.15249358070921, 1.18738603177682, -1.2320384981227], a = 0.2, v = 0.2, t = 0.2)
movej(p[0.410486542921888, -0.112121960349488, 0.295511962406247, -1.15615707667333, 1.18895692713727, -1.23566100718487], a = 0.2, v = 0.2, t = 0.2)
movej(p[0.410491795132944, -0.112219112078462, 0.295478369207822, -1.15661811540061, 1.18990776564648, -1.23331013499436], a = 0.2, v = 0.2, t = 0.2)
movej(p[0.410193797620557, -0.112431098417235, 0.295460625121921, -1.15124445874784, 1.18911144471453, -1.23202719161713], a = 0.2, v = 0.2, t = 0.2)
movej(p[0.409664704844207, -0.112434186542531, 0.295321576327621, -1.14785372419278, 1.18713890495261, -1.23901204964233], a = 0.2, v = 0.2, t = 0.2)
movej(p[0.408748557712496, -0.112383754429422, 0.295175386036476, -1.14647929067267, 1.18275391968825, -1.24794062765325], a = 0.2, v = 0.2, t = 0.2)
movej(p[0.40767504499644, -0.112353806778577, 0.295184052216522, -1.14749406234696, 1.17772425476843, -1.25428301443663], a = 0.2, v = 0.2, t = 0.2)
movej(p[0.406777958864082, -0.112261113473414, 0.295257785253949, -1.14324581783914, 1.17221608361546, -1.25540722220715], a = 0.2, v = 0.2, t = 0.2)
movej(p[0.406111597306309, -0.112009149996378, 0.29532536408119, -1.14405496040066, 1.16461046923931, -1.25448785056264], a = 0.2, v = 0.2, t = 0.2)
movej(p[0.40555659928463, -0.111857868162645, 0.295520180532908, -1.1469709405586, 1.156346819035, -1.24971094640347], a = 0.2, v = 0.2, t = 0.2)
movej(p[0.405037294460415, -0.111847728755072, 0.295794135184916, -1.1499288921636, 1.1495320558884, -1.2480572733366], a = 0.2, v = 0.2, t = 0.2)
movej(p[0.405048282528448, -0.11178906665646, 0.295982380190553, -1.15359670751323, 1.14469991417374, -1.25517080174584], a = 0.2, v = 0.2, t = 0.2)
movej(p[0.405779673179916, -0.111635702706737, 0.29600481941228, -1.15611269614497, 1.14294921339019, -1.25784403843185], a = 0.2, v = 0.2, t = 0.2)
movej(p[0.406903792351216, -0.111666422788619, 0.296050471479976, -1.15315275056444, 1.14665942027385, -1.2497595883275], a = 0.2, v = 0.2, t = 0.2)
movej(p[0.407931542417669, -0.111724722786591, 0.296115103976002, -1.15459540023716, 1.15326759413436, -1.25500395217258], a = 0.2, v = 0.2, t = 0.2)
movej(p[0.408901540034322, -0.111791290727832, 0.296127162470313, -1.16106670720673, 1.16187977980715, -1.25576367659662], a = 0.2, v = 0.2, t = 0.2)
movej(p[0.40964489664434, -0.111833992289753, 0.296078084178241, -1.16418467415201, 1.17135875505419, -1.25331157138278], a = 0.2, v = 0.2, t = 0.2)
movej(p[0.41010735874564, -0.112052711883906, 0.296089048238201, -1.16526567605412, 1.17870771600594, -1.24569960491593], a = 0.2, v = 0.2, t = 0.2)
movej(p[0.410265642446407, -0.112121390318669, 0.296012953380483, -1.15792376185201, 1.18467329663252, -1.2384088881158], a = 0.2, v = 0.2, t = 0.2)
movej(p[0.410364530274686, -0.112119849708971, 0.295898037579612, -1.15959413768235, 1.18686819914639, -1.24000518975892], a = 0.2, v = 0.2, t = 0.2)
movej(p[0.410364683838696, -0.112175987128214, 0.295833336446176, -1.15546327001134, 1.18953903408012, -1.23188417582229], a = 0.2, v = 0.2, t = 0.2)
movej(p[0.410285940556168, -0.11233524026245, 0.295826986979929, -1.15825613673462, 1.18892702046291, -1.23604432588617], a = 0.2, v = 0.2, t = 0.2)
movej(p[0.410046605555265, -0.112376533600184, 0.29571133690569, -1.1559402069195, 1.18987538113729, -1.23579714403146], a = 0.2, v = 0.2, t = 0.2)
movej(p[0.409466642147856, -0.112412856811356, 0.295575633494381, -1.1551226419373, 1.18669933892093, -1.24154090816463], a = 0.2, v = 0.2, t = 0.2)
movej(p[0.408500128456673, -0.112513536891336, 0.295544671358593, -1.15001310832392, 1.18385568673678, -1.24167031644612], a = 0.2, v = 0.2, t = 0.2)
movej(p[0.407525033532141, -0.112433683106945, 0.295539354379258, -1.15030704418994, 1.17551294181695, -1.25791870307879], a = 0.2, v = 0.2, t = 0.2)
movej(p[0.406789762791739, -0.112158283043705, 0.295506810317181, -1.15424888653341, 1.16755903036113, -1.26588982387478], a = 0.2, v = 0.2, t = 0.2)
movej(p[0.406233696011143, -0.111946558471057, 0.295530016195297, -1.15411725853479, 1.15971023618699, -1.2656850058551], a = 0.2, v = 0.2, t = 0.2)
movej(p[0.405873323370311, -0.11193264401592, 0.295646532334895, -1.15004672004799, 1.15586638026115, -1.25516706904281], a = 0.2, v = 0.2, t = 0.2)
movej(p[0.406094507711976, -0.111927437013236, 0.2957405372698, -1.15240872194134, 1.15293196514904, -1.25870065312615], a = 0.2, v = 0.2, t = 0.2)
movej(p[0.406861577974938, -0.111877984171906, 0.295790757317218, -1.15717895890113, 1.152603501075, -1.25786452138027], a = 0.2, v = 0.2, t = 0.2)
movej(p[0.407982775802297, -0.111970508670223, 0.295910759007367, -1.16051836269779, 1.15640919061296, -1.25375459987619], a = 0.2, v = 0.2, t = 0.2)
movej(p[0.408885076488886, -0.112015801348807, 0.295960909011266, -1.15911955971422, 1.16405874862907, -1.25302794827505], a = 0.2, v = 0.2, t = 0.2)
movej(p[0.409749866399252, -0.111996774461878, 0.295932680224058, -1.16748714232114, 1.17173690756954, -1.25734766774858], a = 0.2, v = 0.2, t = 0.2)
movej(p[0.410198202299423, -0.112000091432043, 0.295848094811085, -1.16642348755668, 1.17992511920853, -1.24902700517852], a = 0.2, v = 0.2, t = 0.2)
movej(p[0.41034490349815, -0.112191858338782, 0.295839700852196, -1.16804226156408, 1.18371105341454, -1.24320179464043], a = 0.2, v = 0.2, t = 0.2)
movej(p[0.410018546645223, -0.112297645087475, 0.295712889464811, -1.15348918922182, 1.18636973881495, -1.23333977904302], a = 0.2, v = 0.2, t = 0.2)
movej(p[0.409318018772928, -0.112276402590876, 0.295506544502942, -1.15018880835829, 1.18309731006304, -1.23963201217133], a = 0.2, v = 0.2, t = 0.2)
movej(p[0.408240530258081, -0.112259538474197, 0.295386590248151, -1.1415294554876, 1.1787244251029, -1.23786835394516], a = 0.2, v = 0.2, t = 0.2)
movej(p[0.407079377916893, -0.112196829187493, 0.29543279457709, -1.14809204787508, 1.17016614199763, -1.25802537177373], a = 0.2, v = 0.2, t = 0.2)
movej(p[0.40625178074205, -0.111945284312798, 0.295485332760416, -1.15560508998499, 1.1614578037664, -1.26939445083231], a = 0.2, v = 0.2, t = 0.2)
movej(p[0.405758342118299, -0.111656551447504, 0.295513009382878, -1.16356436690753, 1.1513969130018, -1.27888162786446], a = 0.2, v = 0.2, t = 0.2)
movej(p[0.405680352523109, -0.111685294225816, 0.295629600310746, -1.15783610721606, 1.14814529561098, -1.26120208038766], a = 0.2, v = 0.2, t = 0.2)
movej(p[0.40590800392801, -0.111752940058759, 0.295713851446888, -1.15525255112998, 1.1463676957, -1.26157483817346], a = 0.2, v = 0.2, t = 0.2)
movej(p[0.406643245421125, -0.111764277355948, 0.295765732027014, -1.15899809990334, 1.14829516685314, -1.26033236400988], a = 0.2, v = 0.2, t = 0.2)
movej(p[0.407460933674473, -0.111815245805558, 0.295834230473577, -1.16272592842746, 1.15308106106175, -1.26084315833621], a = 0.2, v = 0.2, t = 0.2)
movej(p[0.408108387006567, -0.111999730917565, 0.295933961770607, -1.15837444822648, 1.16049025128504, -1.25037285413862], a = 0.2, v = 0.2, t = 0.2)
movej(p[0.408522522830529, -0.112066513032166, 0.295894423982333, -1.15343827778466, 1.16714008888471, -1.24624964029817], a = 0.2, v = 0.2, t = 0.2)
movej(p[0.408589321030095, -0.11210590715199, 0.295784347860476, -1.15282600551955, 1.1695812057485, -1.24511007243923], a = 0.2, v = 0.2, t = 0.2)
movej(p[0.40805353788364, -0.112212085169472, 0.295706778351346, -1.15076597138846, 1.17176865176849, -1.23925262291693], a = 0.2, v = 0.2, t = 0.2)
movej(p[0.407022540220082, -0.112237104629471, 0.295635239675696, -1.14887044670803, 1.16806581387973, -1.24815614923764], a = 0.2, v = 0.2, t = 0.2)
movej(p[0.405938299333181, -0.112039924043692, 0.295528638203802, -1.14786671112673, 1.16246401389948, -1.25074154885393], a = 0.2, v = 0.2, t = 0.2)
movej(p[0.404966144683224, -0.111835457807381, 0.295560769849126, -1.14955971237485, 1.15172950976586, -1.25312305522765], a = 0.2, v = 0.2, t = 0.2)
movej(p[0.403958653398601, -0.111752833953293, 0.295799729678897, -1.14976691998309, 1.14429338255538, -1.24584809795696], a = 0.2, v = 0.2, t = 0.2)
movej(p[0.403123347077262, -0.111664520446296, 0.296152312357023, -1.15392838549915, 1.13414204845513, -1.25120417850469], a = 0.2, v = 0.2, t = 0.2)
movej(p[0.402589754982449, -0.111495116927939, 0.296427117403594, -1.16131972880789, 1.12355514688137, -1.25850589165518], a = 0.2, v = 0.2, t = 0.2)
movej(p[0.402757767297518, -0.111420780469845, 0.29655976537336, -1.16800141344456, 1.11382614925599, -1.26151709935111], a = 0.2, v = 0.2, t = 0.2)
movej(p[0.403264843121447, -0.111410768861281, 0.29643791258931, -1.1697328054382, 1.11111329228316, -1.26684417844968], a = 0.2, v = 0.2, t = 0.2)
movej(p[0.404216128669559, -0.111362300380971, 0.29620972009651, -1.17003383774872, 1.11461372829179, -1.26695172350827], a = 0.2, v = 0.2, t = 0.2)
movej(p[0.405075022265091, -0.111354464398765, 0.29604920740126, -1.16440603924239, 1.12323547300554, -1.2589829905832], a = 0.2, v = 0.2, t = 0.2)
movej(p[0.405892572267808, -0.11158704132443, 0.296099694662082, -1.16450600625107, 1.13134927817668, -1.25385835064453], a = 0.2, v = 0.2, t = 0.2)
movej(p[0.406601141329958, -0.111728062038646, 0.296056671269296, -1.16367112639268, 1.1376684135114, -1.25719118460541], a = 0.2, v = 0.2, t = 0.2)
movej(p[0.407377213987383, -0.111789762448148, 0.295952469562666, -1.17101991808388, 1.14244593073274, -1.26377445310951], a = 0.2, v = 0.2, t = 0.2)
movej(p[0.408073033197619, -0.111868825198173, 0.295847439215032, -1.16658052247193, 1.14870119625496, -1.256063504652], a = 0.2, v = 0.2, t = 0.2)
movej(p[0.408618891882055, -0.111984704390901, 0.295806416842597, -1.17318714141068, 1.15430870715955, -1.26095124462125], a = 0.2, v = 0.2, t = 0.2)
movej(p[0.408994904412266, -0.112067741333511, 0.295715431564929, -1.1768332127444, 1.15891709978406, -1.26290002613793], a = 0.2, v = 0.2, t = 0.2)
movej(p[0.40909817411819, -0.112081495916799, 0.295598798944377, -1.18284229221545, 1.16143881481541, -1.26780648521933], a = 0.2, v = 0.2, t = 0.2)
movej(p[0.408765697686632, -0.112259799351567, 0.295543554662055, -1.17404661077215, 1.16393926388797, -1.25953214572129], a = 0.2, v = 0.2, t = 0.2)
movej(p[0.408154729533168, -0.112182897405472, 0.295440798080102, -1.1658618520189, 1.16345136343129, -1.26488183244637], a = 0.2, v = 0.2, t = 0.2)
movej(p[0.407409586906609, -0.111908103473799, 0.295320055072202, -1.16360419988819, 1.16022203292855, -1.27285926882907], a = 0.2, v = 0.2, t = 0.2)
movej(p[0.406782600602392, -0.111668160465758, 0.295308284765601, -1.16309657786493, 1.15500769266026, -1.27489548189057], a = 0.2, v = 0.2, t = 0.2)
movej(p[0.406243050679542, -0.111731366807484, 0.29543714342312, -1.16142411203425, 1.15067093252975, -1.27235371411364], a = 0.2, v = 0.2, t = 0.2)
movej(p[0.406436237787934, -0.111765569119081, 0.295507710145677, -1.15626584852353, 1.14875178321722, -1.26423990287715], a = 0.2, v = 0.2, t = 0.2)
movej(p[0.407119372099371, -0.111776151720844, 0.295535626155031, -1.15525176334632, 1.15027504803406, -1.25686893844388], a = 0.2, v = 0.2, t = 0.2)
movej(p[0.408238186374794, -0.111812165514146, 0.295609222050296, -1.15457601447595, 1.15745764386446, -1.24408302837397], a = 0.2, v = 0.2, t = 0.2)
movej(p[0.409132181159855, -0.111856479478323, 0.295650999208687, -1.16006875405054, 1.16541944542603, -1.24583340687872], a = 0.2, v = 0.2, t = 0.2)
movej(p[0.409780047797337, -0.111850993961017, 0.295608406704204, -1.16261207162627, 1.1739051195585, -1.24198880374057], a = 0.2, v = 0.2, t = 0.2)
movej(p[0.410080859133684, -0.111953850402509, 0.295556673887802, -1.16172362489487, 1.17888546021789, -1.23742478669496], a = 0.2, v = 0.2, t = 0.2)
movej(p[0.410046197538639, -0.112135069070492, 0.295547168118989, -1.15817521190363, 1.18339899083906, -1.23537739811994], a = 0.2, v = 0.2, t = 0.2)
movej(p[0.409739534998038, -0.112228468285302, 0.295466056587241, -1.16217380759601, 1.18151425056658, -1.24845204127788], a = 0.2, v = 0.2, t = 0.2)
movej(p[0.409091332749466, -0.112201780299796, 0.295335896760967, -1.16347194894583, 1.17859076443682, -1.25936697943724], a = 0.2, v = 0.2, t = 0.2)
movej(p[0.408234135195288, -0.112231268744542, 0.295318690110028, -1.165477334916, 1.1747069421219, -1.26597694140058], a = 0.2, v = 0.2, t = 0.2)
movej(p[0.407334035771784, -0.11213023290141, 0.295342100157025, -1.16021654295548, 1.17013685017769, -1.27212915468056], a = 0.2, v = 0.2, t = 0.2)
movej(p[0.406675151459396, -0.111876175272855, 0.295344044567023, -1.15846772219597, 1.16501160135557, -1.27292218141498], a = 0.2, v = 0.2, t = 0.2)
movej(p[0.406281019554717, -0.111674160403074, 0.295341509256044, -1.15395708605019, 1.15762731663726, -1.26578199545342], a = 0.2, v = 0.2, t = 0.2)
movej(p[0.40622787948419, -0.111748150335048, 0.295489703754494, -1.15663149648937, 1.15286049418706, -1.25893975423903], a = 0.2, v = 0.2, t = 0.2)
movej(p[0.406634633152182, -0.111851917974173, 0.295620895525658, -1.15963739748818, 1.15137146859177, -1.26304585925585], a = 0.2, v = 0.2, t = 0.2)
movej(p[0.407636663450089, -0.11185606560686, 0.295669352515643, -1.16603887665385, 1.15442179171065, -1.26441814555357], a = 0.2, v = 0.2, t = 0.2)
movej(p[0.408726543668437, -0.111906822994211, 0.295688291933784, -1.16188075714953, 1.16250657777387, -1.25156814244082], a = 0.2, v = 0.2, t = 0.2)
movej(p[0.409466537295656, -0.11205749484049, 0.295761141383032, -1.17011305448835, 1.1676501396252, -1.25488881871229], a = 0.2, v = 0.2, t = 0.2)
movej(p[0.409889105875478, -0.112138101963124, 0.295726759977453, -1.17182801051324, 1.17386244969237, -1.25044855966314], a = 0.2, v = 0.2, t = 0.2)
movej(p[0.410059019430355, -0.112172110908809, 0.295640082445478, -1.17529562055765, 1.17662023905066, -1.2512297511505], a = 0.2, v = 0.2, t = 0.2)
movej(p[0.410009692732499, -0.112330503573339, 0.295583743375424, -1.16813679671055, 1.17874833501553, -1.24236588714889], a = 0.2, v = 0.2, t = 0.2)
movej(p[0.409671890970414, -0.11242438887837, 0.295468769765882, -1.17003820061858, 1.17667746489328, -1.2579178833246], a = 0.2, v = 0.2, t = 0.2)
movej(p[0.409090419160103, -0.11235835110954, 0.295314590804279, -1.17225929476932, 1.1729596540777, -1.27088610159821], a = 0.2, v = 0.2, t = 0.2)
movej(p[0.408313653127984, -0.112254358250239, 0.295219582955864, -1.16876509674985, 1.17056703494795, -1.27443500422429], a = 0.2, v = 0.2, t = 0.2)
movej(p[0.407379930874019, -0.112244493472279, 0.29530054076838, -1.1543565253034, 1.16944394196338, -1.26034563300932], a = 0.2, v = 0.2, t = 0.2)
movej(p[0.406744441292808, -0.112046667762628, 0.295320780376502, -1.14741433995081, 1.16542271538472, -1.26139971240273], a = 0.2, v = 0.2, t = 0.2)
movej(p[0.406490816158693, -0.111782972349693, 0.295310478921958, -1.15227312618106, 1.15932236085878, -1.26447477395188], a = 0.2, v = 0.2, t = 0.2)
movej(p[0.406744819782127, -0.111739872753004, 0.295381918841803, -1.15751999283642, 1.15516621395714, -1.26399451642753], a = 0.2, v = 0.2, t = 0.2)
movej(p[0.407314650505699, -0.111834792858317, 0.295522498188014, -1.16140363846877, 1.15436159286991, -1.26626841734866], a = 0.2, v = 0.2, t = 0.2)
movej(p[0.408228661322334, -0.111871142544734, 0.295567899551115, -1.16340390395656, 1.15902425388289, -1.26620976294083], a = 0.2, v = 0.2, t = 0.2)
movej(p[0.409183611249948, -0.111841595229637, 0.295549687768691, -1.16560261332038, 1.16616965497826, -1.26019558624132], a = 0.2, v = 0.2, t = 0.2)
movej(p[0.409909432393408, -0.111999298466068, 0.295593832878169, -1.16684092940884, 1.17426749648556, -1.24796264021474], a = 0.2, v = 0.2, t = 0.2)
movej(p[0.410106603747586, -0.112098883679388, 0.295594524973521, -1.16599931580487, 1.17795674208239, -1.24901999376076], a = 0.2, v = 0.2, t = 0.2)
movej(p[0.410298720013594, -0.112115384845455, 0.295518458827995, -1.170812825609, 1.17858147834704, -1.25524096642817], a = 0.2, v = 0.2, t = 0.2)
movej(p[0.410346864600618, -0.112121957591201, 0.295430176336556, -1.17069368620716, 1.17989638898663, -1.25539070063922], a = 0.2, v = 0.2, t = 0.2)
movej(p[0.410391417623021, -0.112342646911777, 0.295461924009144, -1.16351528684111, 1.18359022197773, -1.24497662119806], a = 0.2, v = 0.2, t = 0.2)
movej(p[0.410316405878699, -0.112417455268214, 0.295408785943494, -1.15612538767176, 1.18599033034351, -1.2442373285159], a = 0.2, v = 0.2, t = 0.2)
movej(p[0.41017554934205, -0.112397412378982, 0.295311702836959, -1.1589538085683, 1.18465230640633, -1.24668759506042], a = 0.2, v = 0.2, t = 0.2)
movej(p[0.409698185610322, -0.112460166065697, 0.295251875012882, -1.16204860769459, 1.18210021065949, -1.2518072510176], a = 0.2, v = 0.2, t = 0.2)
movej(p[0.408864401069461, -0.112642759377499, 0.295296044771835, -1.15997452965134, 1.17974319909685, -1.25757320543037], a = 0.2, v = 0.2, t = 0.2)
movej(p[0.408012421838545, -0.112530320466176, 0.295245453801204, -1.15563725866165, 1.17646990231855, -1.26449495734177], a = 0.2, v = 0.2, t = 0.2)
movej(p[0.407241178174972, -0.112270706746263, 0.295187190107269, -1.1539179406597, 1.1701673091595, -1.2695749057911], a = 0.2, v = 0.2, t = 0.2)
movej(p[0.406623618101799, -0.112107130951893, 0.295221260512362, -1.15273934686126, 1.16329750787831, -1.26382104913923], a = 0.2, v = 0.2, t = 0.2)
movej(p[0.406022204785917, -0.11206292385823, 0.295325456841592, -1.15272230451963, 1.15504391364438, -1.26705067533309], a = 0.2, v = 0.2, t = 0.2)
movej(p[0.406046691637739, -0.11193056504894, 0.295357615245704, -1.15350667824382, 1.15075996375499, -1.26293481273235], a = 0.2, v = 0.2, t = 0.2)
movej(p[0.406603996463304, -0.111828318919113, 0.295376116611511, -1.15996807090083, 1.14650602200636, -1.26815626555788], a = 0.2, v = 0.2, t = 0.2)
movej(p[0.407668611902586, -0.111917935937282, 0.295477460080447, -1.1617486812525, 1.15053165373406, -1.25905630336283], a = 0.2, v = 0.2, t = 0.2)
movej(p[0.408713982170491, -0.111955287802193, 0.295515636576735, -1.15669885301853, 1.15939103437163, -1.25676127548851], a = 0.2, v = 0.2, t = 0.2)
movej(p[0.409656385790524, -0.111906009638916, 0.295434669545955, -1.15622525152308, 1.16988760706905, -1.24764111498221], a = 0.2, v = 0.2, t = 0.2)
movej(p[0.410206362979119, -0.111910764626849, 0.295359843246334, -1.15405149547586, 1.18011875057546, -1.23754316900407], a = 0.2, v = 0.2, t = 0.2)
movej(p[0.410368978710535, -0.112096813832597, 0.295368646211835, -1.16310871432851, 1.1824977662336, -1.24234889197025], a = 0.2, v = 0.2, t = 0.2)
movej(p[0.410376068649759, -0.112192723328478, 0.295345893640999, -1.16212054049837, 1.18465248176674, -1.24509237389347], a = 0.2, v = 0.2, t = 0.2)
movej(p[0.410397199405541, -0.112164844179195, 0.295251994622925, -1.1626913573651, 1.18424319985828, -1.24852470565018], a = 0.2, v = 0.2, t = 0.2)
movej(p[0.410374176810116, -0.112248844002661, 0.295188579000571, -1.15557286774378, 1.1865474540735, -1.23833366035301], a = 0.2, v = 0.2, t = 0.2)
movej(p[0.410137393225101, -0.112392797882648, 0.295192555293288, -1.16010145422065, 1.18408317120106, -1.25093487141976], a = 0.2, v = 0.2, t = 0.2)
movej(p[0.409672048543629, -0.112372403174737, 0.295083237935953, -1.1564789660129, 1.18276034857226, -1.25221269764169], a = 0.2, v = 0.2, t = 0.2)
movej(p[0.408929661128366, -0.112320800281853, 0.295011277009716, -1.15766847555579, 1.17799125892899, -1.26265537795024], a = 0.2, v = 0.2, t = 0.2)
movej(p[0.408030985118046, -0.112306865894607, 0.295075575852077, -1.15023120144669, 1.17599906376752, -1.2587051932208], a = 0.2, v = 0.2, t = 0.2)
movej(p[0.407209038128384, -0.112198474692318, 0.295171006155707, -1.15425436824989, 1.16899009544782, -1.27623278287435], a = 0.2, v = 0.2, t = 0.2)
movej(p[0.406702169932493, -0.111907336763827, 0.2951839196327, -1.16123214418333, 1.16118606918871, -1.28341587035208], a = 0.2, v = 0.2, t = 0.2)
movej(p[0.406530307953461, -0.111738138685541, 0.295205707725035, -1.16260805130582, 1.1545183826569, -1.28243372806045], a = 0.2, v = 0.2, t = 0.2)
movej(p[0.406545647385484, -0.111788631202995, 0.295354491919445, -1.16486361311337, 1.15130234562627, -1.27748001548081], a = 0.2, v = 0.2, t = 0.2)
movej(p[0.407144062907685, -0.11180631020612, 0.295455808852078, -1.16712140529927, 1.15185801022041, -1.27923655264121], a = 0.2, v = 0.2, t = 0.2)
movej(p[0.408100741057814, -0.111770529429188, 0.295503954392539, -1.17308797094295, 1.155914531838, -1.27668160529173], a = 0.2, v = 0.2, t = 0.2)
movej(p[0.409189509700925, -0.111857613509287, 0.295554085574183, -1.17173060934102, 1.16348643280415, -1.26216720119039], a = 0.2, v = 0.2, t = 0.2)
movej(p[0.409799259563317, -0.111962380199853, 0.295565328654736, -1.16534347231923, 1.17174550763957, -1.25219014888119], a = 0.2, v = 0.2, t = 0.2)
movej(p[0.410231004555726, -0.111995698652531, 0.29550697042018, -1.15875711430841, 1.17935638215504, -1.24048238019697], a = 0.2, v = 0.2, t = 0.2)
movej(p[0.410378734915363, -0.112044621111035, 0.295439135831772, -1.16035856948258, 1.18251844606099, -1.23968105089044], a = 0.2, v = 0.2, t = 0.2)
movej(p[0.410468281550788, -0.11222036197223, 0.29545092282883, -1.16084291544397, 1.18585421815714, -1.23424044636945], a = 0.2, v = 0.2, t = 0.2)
movej(p[0.410432490212694, -0.112299995387381, 0.295434260163709, -1.15903470506717, 1.18756997139562, -1.2356455728652], a = 0.2, v = 0.2, t = 0.2)
movej(p[0.410414010747336, -0.112276474954247, 0.295347073587418, -1.1538943178225, 1.18982241259931, -1.23023255700403], a = 0.2, v = 0.2, t = 0.2)
movej(p[0.410142479676342, -0.112380868087538, 0.295291274145603, -1.14776638863499, 1.18944752697001, -1.22448020560567], a = 0.2, v = 0.2, t = 0.2)
movej(p[0.409517015256398, -0.112526556849226, 0.295257052552979, -1.15212434654666, 1.18551081936375, -1.243574754077], a = 0.2, v = 0.2, t = 0.2)
movej(p[0.408826268035935, -0.112506142180011, 0.295154517003518, -1.15018344215702, 1.18257789234486, -1.25128837445545], a = 0.2, v = 0.2, t = 0.2)
movej(p[0.408082311022993, -0.112346535569387, 0.295065175328807, -1.1482683530098, 1.1778422179863, -1.2587797094037], a = 0.2, v = 0.2, t = 0.2)
movej(p[0.407340685299723, -0.112330511283803, 0.295136684598527, -1.14070479163199, 1.17389003685254, -1.24722105870592], a = 0.2, v = 0.2, t = 0.2)
movej(p[0.406686847683349, -0.112211870430722, 0.295189883902034, -1.13909629919369, 1.16751123788882, -1.25261561986993], a = 0.2, v = 0.2, t = 0.2)
movej(p[0.406433507329816, -0.111973871757881, 0.295205979510064, -1.1459538209948, 1.16056443811261, -1.25688533593153], a = 0.2, v = 0.2, t = 0.2)
movej(p[0.406647963118783, -0.111825410008738, 0.295260459945268, -1.14994856671316, 1.15609690594673, -1.25737541007978], a = 0.2, v = 0.2, t = 0.2)
movej(p[0.407227212769245, -0.111919775383298, 0.295397183971775, -1.14770274801929, 1.15711768570303, -1.25009785527736], a = 0.2, v = 0.2, t = 0.2)
movej(p[0.408228502386946, -0.111937777433109, 0.295467895491243, -1.15046010524666, 1.16123504608803, -1.25135311643601], a = 0.2, v = 0.2, t = 0.2)
movej(p[0.40927022512821, -0.111910979774142, 0.295471999100428, -1.15229081903991, 1.16998670702335, -1.2434282462656], a = 0.2, v = 0.2, t = 0.2)
movej(p[0.409981657828842, -0.11202832409011, 0.295522720503245, -1.1590975472591, 1.17671332615173, -1.23851846176915], a = 0.2, v = 0.2, t = 0.2)
movej(p[0.410233768768549, -0.11221773985719, 0.2955693600408, -1.158974519374, 1.18250106852472, -1.23533055131248], a = 0.2, v = 0.2, t = 0.2)
movej(p[0.410350410505643, -0.112273427969904, 0.295498526819286, -1.15926388877613, 1.18564816094469, -1.23270580346973], a = 0.2, v = 0.2, t = 0.2)
movej(p[0.410290828778809, -0.112337326582831, 0.295422884466114, -1.15795436421497, 1.18554591302531, -1.23282186125568], a = 0.2, v = 0.2, t = 0.2)
movej(p[0.409967690806744, -0.112430975933739, 0.295350054731936, -1.15790175946954, 1.18501301759517, -1.2366944875759], a = 0.2, v = 0.2, t = 0.2)
movej(p[0.409359916554061, -0.112389372058584, 0.295220187446975, -1.16148512695321, 1.18051076650696, -1.25752437091708], a = 0.2, v = 0.2, t = 0.2)
movej(p[0.408603954010683, -0.112201498396338, 0.29505558957231, -1.16309507346414, 1.17609699297101, -1.26968299058779], a = 0.2, v = 0.2, t = 0.2)
movej(p[0.407796834581672, -0.112081384778529, 0.295020957434891, -1.1542641515149, 1.17228678590524, -1.26254864080907], a = 0.2, v = 0.2, t = 0.2)
movej(p[0.406954465900697, -0.111970096544406, 0.295069054476237, -1.14624193716934, 1.1673356321267, -1.26258248524878], a = 0.2, v = 0.2, t = 0.2)
movej(p[0.406544451115311, -0.111754105979347, 0.295051876814288, -1.14343321838503, 1.16073858891712, -1.26293076835988], a = 0.2, v = 0.2, t = 0.2)
movej(p[0.406623712375119, -0.111566050067175, 0.295060758570351, -1.15057242395616, 1.15373101546458, -1.26848840705986], a = 0.2, v = 0.2, t = 0.2)
movej(p[0.407271153273376, -0.111656306237087, 0.295192246657477, -1.15416206135677, 1.15218081245778, -1.26326523508928], a = 0.2, v = 0.2, t = 0.2)
movej(p[0.408166275053605, -0.111718645231302, 0.295287696108292, -1.15484037807278, 1.15539433603242, -1.26390115596511], a = 0.2, v = 0.2, t = 0.2)
movej(p[0.409192627288904, -0.111698926836626, 0.295302897147967, -1.15533326030537, 1.16475841085774, -1.25756272896777], a = 0.2, v = 0.2, t = 0.2)
movej(p[0.409938577222233, -0.11172076615472, 0.295264683130225, -1.15357335228683, 1.17366348685702, -1.24657118127029], a = 0.2, v = 0.2, t = 0.2)
movej(p[0.410209939735407, -0.111893552185425, 0.295309187545029, -1.16113753740733, 1.17974404538447, -1.24672053405369], a = 0.2, v = 0.2, t = 0.2)
movej(p[0.410306717007446, -0.112013444642645, 0.295275822635508, -1.16270290112901, 1.18292212038531, -1.24572549655656], a = 0.2, v = 0.2, t = 0.2)
movej(p[0.410354114987766, -0.112033933283887, 0.2951969892517, -1.16530511274569, 1.18326351817129, -1.24902374533054], a = 0.2, v = 0.2, t = 0.2)
movej(p[0.41024577957601, -0.112201123005406, 0.295168840467319, -1.15866542748087, 1.18340817060967, -1.23958505985215], a = 0.2, v = 0.2, t = 0.2)
movej(p[0.409820532710078, -0.112290367484174, 0.295085595283528, -1.15890884030561, 1.18091436926227, -1.25328419619586], a = 0.2, v = 0.2, t = 0.2)
movej(p[0.40914751007655, -0.112229926851363, 0.294938543820551, -1.15764817292834, 1.17825502861741, -1.26192588987835], a = 0.2, v = 0.2, t = 0.2)
movej(p[0.408260836417895, -0.112143743944629, 0.294845185109708, -1.15166779990724, 1.17571963411574, -1.26290060486833], a = 0.2, v = 0.2, t = 0.2)
movej(p[0.407370870223335, -0.112127673178845, 0.294894536380488, -1.14440248592453, 1.17125625940459, -1.25985234971708], a = 0.2, v = 0.2, t = 0.2)
movej(p[0.406679838860057, -0.111942932228469, 0.294924273322114, -1.14564106468312, 1.16346221585144, -1.26665707536952], a = 0.2, v = 0.2, t = 0.2)
movej(p[0.406364445145909, -0.111722475315631, 0.294953297580203, -1.15603249675652, 1.15378501114088, -1.27452928995049], a = 0.2, v = 0.2, t = 0.2)
movej(p[0.40654244341393, -0.111657716294504, 0.29503811889689, -1.16082787371774, 1.150503720123, -1.27254237555198], a = 0.2, v = 0.2, t = 0.2)
movej(p[0.407104528156068, -0.111756277039989, 0.295175230331514, -1.16254210072013, 1.15007201554299, -1.27407646109119], a = 0.2, v = 0.2, t = 0.2)
movej(p[0.408198501610485, -0.111775182977338, 0.295241032859318, -1.16312341828453, 1.15796747289977, -1.26652581692228], a = 0.2, v = 0.2, t = 0.2)
movej(p[0.409228831826475, -0.111844804486718, 0.295284364021869, -1.1617348532692, 1.16554298792672, -1.25588278112292], a = 0.2, v = 0.2, t = 0.2)
movej(p[0.409946343222867, -0.112006907667999, 0.29536308007108, -1.16538907093549, 1.17423866128991, -1.24764909464593], a = 0.2, v = 0.2, t = 0.2)
movej(p[0.410201516870403, -0.112128321725363, 0.295367955731306, -1.17130076245644, 1.17760118942804, -1.25450275125691], a = 0.2, v = 0.2, t = 0.2)
movej(p[0.410290869105372, -0.112166088216332, 0.295313429701972, -1.17529441724169, 1.18014277304281, -1.25708527150323], a = 0.2, v = 0.2, t = 0.2)
movej(p[0.410320029491379, -0.112279589457917, 0.295307283660355, -1.16750914007187, 1.18475340148852, -1.24372649147043], a = 0.2, v = 0.2, t = 0.2)
movej(p[0.410230846887649, -0.112371766246019, 0.295305342725731, -1.15439614082623, 1.18830037156429, -1.23408364463849], a = 0.2, v = 0.2, t = 0.2)
movej(p[0.41022706142574, -0.112364426422689, 0.295262542834707, -1.14251369009977, 1.1936431974577, -1.22179614722469], a = 0.2, v = 0.2, t = 0.2)
movej(p[0.409960118443984, -0.112395482842226, 0.295172096333073, -1.14250552237994, 1.19286899535988, -1.22293161385659], a = 0.2, v = 0.2, t = 0.2)
movej(p[0.409441602956969, -0.112520155614256, 0.295179162210281, -1.14610611699889, 1.1913305411027, -1.2273444516519], a = 0.2, v = 0.2, t = 0.2)
movej(p[0.408703704269684, -0.112512112149003, 0.295113940296251, -1.14284211021286, 1.18720988134767, -1.23692024274097], a = 0.2, v = 0.2, t = 0.2)
movej(p[0.408015471252234, -0.112352655107264, 0.295042699628574, -1.14316288332043, 1.18225480958158, -1.24532201241147], a = 0.2, v = 0.2, t = 0.2)
movej(p[0.407366085032773, -0.112260151128913, 0.294997676508242, -1.1336201905981, 1.17856220622298, -1.23507704609413], a = 0.2, v = 0.2, t = 0.2)
movej(p[0.40677681958367, -0.112151631916707, 0.295018003071614, -1.13760103977181, 1.17219117256709, -1.24438029024962], a = 0.2, v = 0.2, t = 0.2)
movej(p[0.406560048775293, -0.111976268511988, 0.295029842618283, -1.14188943718068, 1.16614747993836, -1.24693026773925], a = 0.2, v = 0.2, t = 0.2)
movej(p[0.406788959918572, -0.111835593274277, 0.295100023880582, -1.15043830841249, 1.16006061963754, -1.2548917151836], a = 0.2, v = 0.2, t = 0.2)
movej(p[0.407500403485888, -0.111948427683967, 0.295265248370035, -1.15492933616975, 1.15886717067181, -1.25233019333415], a = 0.2, v = 0.2, t = 0.2)
movej(p[0.408361876481179, -0.112018676532137, 0.29534860362424, -1.15682314806778, 1.16245139209059, -1.25608755294703], a = 0.2, v = 0.2, t = 0.2)
movej(p[0.409311010429301, -0.11202365493429, 0.295364177646155, -1.16281580384133, 1.17038362939828, -1.25394243056145], a = 0.2, v = 0.2, t = 0.2)
movej(p[0.409905341798802, -0.112099958921164, 0.295385216163054, -1.16139725235229, 1.17909735244534, -1.23999646324964], a = 0.2, v = 0.2, t = 0.2)
movej(p[0.410168129870766, -0.112302959414219, 0.295484880616692, -1.16416866096955, 1.1835060475667, -1.23642461850294], a = 0.2, v = 0.2, t = 0.2)
movej(p[0.410295550331868, -0.112353399263363, 0.295435731819041, -1.15329495867224, 1.18922859001349, -1.2219641857451], a = 0.2, v = 0.2, t = 0.2)
movej(p[0.410362000881549, -0.112396115892064, 0.295388335267694, -1.15745374463212, 1.18907027552391, -1.22665849117976], a = 0.2, v = 0.2, t = 0.2)
movej(p[0.410330907267315, -0.112494299307124, 0.295350183298399, -1.14742062857638, 1.19270341030603, -1.21707044829089], a = 0.2, v = 0.2, t = 0.2)
movej(p[0.410177504588921, -0.112554343196568, 0.295288563011951, -1.15704121066748, 1.18908662167457, -1.23908428053551], a = 0.2, v = 0.2, t = 0.2)
movej(p[0.409833474092937, -0.112651824572253, 0.295151525477575, -1.15726591828608, 1.18798735791361, -1.24168689662686], a = 0.2, v = 0.2, t = 0.2)
movej(p[0.409211784758027, -0.112569927928125, 0.295074223948872, -1.15831853971016, 1.18462262373265, -1.24708668832012], a = 0.2, v = 0.2, t = 0.2)
movej(p[0.408360502599093, -0.112659990575316, 0.295110130974113, -1.1482626236695, 1.18292872735275, -1.24404256346028], a = 0.2, v = 0.2, t = 0.2)
movej(p[0.407727028570983, -0.112467457369329, 0.295049887003447, -1.14025974646973, 1.18026754130369, -1.24454866326525], a = 0.2, v = 0.2, t = 0.2)
movej(p[0.407182514074711, -0.112216780658369, 0.294996266742055, -1.13854147370513, 1.17514004276392, -1.24590641875723], a = 0.2, v = 0.2, t = 0.2)
movej(p[0.40676684641713, -0.112111413242296, 0.295011462547642, -1.14477852683683, 1.16691641912771, -1.24893460111592], a = 0.2, v = 0.2, t = 0.2)
