def moving():
set_payload_mass(0)
set_tcp(p[0,0,0,0,0,0])
movej(p[0.3588, 0.1609, 0.3472, -1.337, 0.655, -0.721], a = 0.2, v = 0.2, t = 0.2)
movej(p[0.358803782196072, 0.160903733681864, 0.347157175520767, -1.337, 0.655, -0.721], a = 0.2, v = 0.2, t = 0.2)
movej(p[0.35881259037531, 0.160912428878636, 0.347057443597389, -1.337, 0.655, -0.721], a = 0.2, v = 0.2, t = 0.2)
movej(p[0.358844895008318, 0.160944319140296, 0.346691669571114, -1.337, 0.655, -0.721], a = 0.2, v = 0.2, t = 0.2)
movej(p[0.358902581101722, 0.161001265294501, 0.346038510173226, -1.337, 0.655, -0.721], a = 0.2, v = 0.2, t = 0.2)
movej(p[0.358979253989441, 0.161076954699515, 0.345170369964356, -1.337, 0.655, -0.721], a = 0.2, v = 0.2, t = 0.2)
movej(p[0.359059336313982, 0.161156009808526, 0.344263625898461, -1.337, 0.655, -0.721], a = 0.2, v = 0.2, t = 0.2)
movej(p[0.359113107252043, 0.161209091027063, 0.343654796430992, -1.337, 0.655, -0.721], a = 0.2, v = 0.2, t = 0.2)
movej(p[0.359163179520851, 0.161258521019158, 0.343087845697879, -1.337, 0.655, -0.721], a = 0.2, v = 0.2, t = 0.2)
movej(p[0.359200297682658, 0.16129516306651, 0.342667569773717, -1.337, 0.655, -0.721], a = 0.2, v = 0.2, t = 0.2)
movej(p[0.359239887467046, 0.161334245032954, 0.34221930853418, -1.337, 0.655, -0.721], a = 0.2, v = 0.2, t = 0.2)
movej(p[0.359232779360972, 0.161327228102517, 0.34229979112556, -1.337, 0.655, -0.721], a = 0.2, v = 0.2, t = 0.2)
movej(p[0.359193066871917, 0.161288025005338, 0.342749441706995, -1.337, 0.655, -0.721], a = 0.2, v = 0.2, t = 0.2)
movej(p[0.359124063025894, 0.161219906271264, 0.343530748047237, -1.337, 0.655, -0.721], a = 0.2, v = 0.2, t = 0.2)
movej(p[0.359053008259006, 0.161149762923475, 0.344335276244918, -1.337, 0.655, -0.721], a = 0.2, v = 0.2, t = 0.2)
movej(p[0.358978395056771, 0.16107610678437, 0.345180095357642, -1.337, 0.655, -0.721], a = 0.2, v = 0.2, t = 0.2)
movej(p[0.358906569003404, 0.16100520204339, 0.345993356561539, -1.337, 0.655, -0.721], a = 0.2, v = 0.2, t = 0.2)
movej(p[0.358849831241784, 0.160949192056723, 0.346635778331329, -1.337, 0.655, -0.721], a = 0.2, v = 0.2, t = 0.2)
movej(p[0.358810839204417, 0.160910700170003, 0.347077271491048, -1.337, 0.655, -0.721], a = 0.2, v = 0.2, t = 0.2)
movej(p[0.358804197200785, 0.160904143363314, 0.34715247656799, -1.337, 0.655, -0.721], a = 0.2, v = 0.2, t = 0.2)
movej(p[0.358795453792083, 0.160895512106266, 0.347251475117323, -1.337, 0.655, -0.721], a = 0.2, v = 0.2, t = 0.2)
movej(p[0.358815257448896, 0.160915061741684, 0.347027245258848, -1.337, 0.655, -0.721], a = 0.2, v = 0.2, t = 0.2)
movej(p[0.358854916473775, 0.160954212060471, 0.346578200033526, -1.337, 0.655, -0.721], a = 0.2, v = 0.2, t = 0.2)
movej(p[0.35893635117904, 0.161034602203225, 0.34565614343514, -1.337, 0.655, -0.721], a = 0.2, v = 0.2, t = 0.2)
movej(p[0.359016310798914, 0.1611135361815, 0.344750788711143, -1.337, 0.655, -0.721], a = 0.2, v = 0.2, t = 0.2)
movej(p[0.359097103057601, 0.161193292118334, 0.343836006309981, -1.337, 0.655, -0.721], a = 0.2, v = 0.2, t = 0.2)
movej(p[0.359166387371435, 0.16126168772266, 0.343051524331115, -1.337, 0.655, -0.721], a = 0.2, v = 0.2, t = 0.2)
movej(p[0.359233094887259, 0.16132753958155, 0.342296218532108, -1.337, 0.655, -0.721], a = 0.2, v = 0.2, t = 0.2)
movej(p[0.359267653780294, 0.161361655187857, 0.341904920310392, -1.337, 0.655, -0.721], a = 0.2, v = 0.2, t = 0.2)
movej(p[0.359248397912174, 0.16134264631465, 0.342122947749679, -1.337, 0.655, -0.721], a = 0.2, v = 0.2, t = 0.2)
movej(p[0.359194863618828, 0.161289798705387, 0.342729097772059, -1.337, 0.655, -0.721], a = 0.2, v = 0.2, t = 0.2)
movej(p[0.359113878538522, 0.161209852420255, 0.343646063424776, -1.337, 0.655, -0.721], a = 0.2, v = 0.2, t = 0.2)
movej(p[0.359039729861098, 0.161136654847504, 0.344485622886029, -1.337, 0.655, -0.721], a = 0.2, v = 0.2, t = 0.2)
movej(p[0.358946877486556, 0.161044993489853, 0.345536957748028, -1.337, 0.655, -0.721], a = 0.2, v = 0.2, t = 0.2)
movej(p[0.358877190876707, 0.160976200749761, 0.346325994783546, -1.337, 0.655, -0.721], a = 0.2, v = 0.2, t = 0.2)
movej(p[0.358820169141429, 0.160919910431964, 0.346971631887443, -1.337, 0.655, -0.721], a = 0.2, v = 0.2, t = 0.2)
movej(p[0.358796648059079, 0.160896691054406, 0.347237952851107, -1.337, 0.655, -0.721], a = 0.2, v = 0.2, t = 0.2)
movej(p[0.358783668008805, 0.160883877499165, 0.347384921406631, -1.337, 0.655, -0.721], a = 0.2, v = 0.2, t = 0.2)
movej(p[0.358800541574578, 0.160900534627804, 0.347193867941056, -1.337, 0.655, -0.721], a = 0.2, v = 0.2, t = 0.2)
movej(p[0.358854021606166, 0.160953328671325, 0.346588332305511, -1.337, 0.655, -0.721], a = 0.2, v = 0.2, t = 0.2)
movej(p[0.358941557362774, 0.161039741607269, 0.34559719564318, -1.337, 0.655, -0.721], a = 0.2, v = 0.2, t = 0.2)
movej(p[0.359024400542326, 0.161121522157818, 0.344659191384579, -1.337, 0.655, -0.721], a = 0.2, v = 0.2, t = 0.2)
movej(p[0.359089249958905, 0.161185539751291, 0.343924924191457, -1.337, 0.655, -0.721], a = 0.2, v = 0.2, t = 0.2)
movej(p[0.359145466225689, 0.161241034932334, 0.343288407124733, -1.337, 0.655, -0.721], a = 0.2, v = 0.2, t = 0.2)
movej(p[0.359191164949576, 0.161286147478945, 0.342770976506415, -1.337, 0.655, -0.721], a = 0.2, v = 0.2, t = 0.2)
movej(p[0.359230430443058, 0.16132490931416, 0.342326387099037, -1.337, 0.655, -0.721], a = 0.2, v = 0.2, t = 0.2)
movej(p[0.359208545189214, 0.161303304782345, 0.342574186150426, -1.337, 0.655, -0.721], a = 0.2, v = 0.2, t = 0.2)
movej(p[0.359155580596108, 0.161251019565781, 0.343173885656851, -1.337, 0.655, -0.721], a = 0.2, v = 0.2, t = 0.2)
movej(p[0.359074332577229, 0.161170813714788, 0.344093828470777, -1.337, 0.655, -0.721], a = 0.2, v = 0.2, t = 0.2)
movej(p[0.358994259017307, 0.161091767257973, 0.345000473297965, -1.337, 0.655, -0.721], a = 0.2, v = 0.2, t = 0.2)
movej(p[0.358909917087892, 0.161008507182018, 0.345955447375464, -1.337, 0.655, -0.721], a = 0.2, v = 0.2, t = 0.2)
movej(p[0.358840191037257, 0.160939675507046, 0.346744930985163, -1.337, 0.655, -0.721], a = 0.2, v = 0.2, t = 0.2)
movej(p[0.358793708055254, 0.160893788761995, 0.347271241482984, -1.337, 0.655, -0.721], a = 0.2, v = 0.2, t = 0.2)
movej(p[0.358773595708557, 0.160873934396257, 0.34749896652872, -1.337, 0.655, -0.721], a = 0.2, v = 0.2, t = 0.2)
movej(p[0.358771622792802, 0.160871986787081, 0.347521305161667, -1.337, 0.655, -0.721], a = 0.2, v = 0.2, t = 0.2)
movej(p[0.358776196171038, 0.16087650150262, 0.347469522404352, -1.337, 0.655, -0.721], a = 0.2, v = 0.2, t = 0.2)
movej(p[0.358809109945073, 0.160908993091858, 0.34709685128794, -1.337, 0.655, -0.721], a = 0.2, v = 0.2, t = 0.2)
movej(p[0.358868519162588, 0.160967640267671, 0.346424181560255, -1.337, 0.655, -0.721], a = 0.2, v = 0.2, t = 0.2)
movej(p[0.35895704444469, 0.161055030036472, 0.345421840847904, -1.337, 0.655, -0.721], a = 0.2, v = 0.2, t = 0.2)
movej(p[0.359031613823829, 0.1611286429146, 0.344577517928714, -1.337, 0.655, -0.721], a = 0.2, v = 0.2, t = 0.2)
movej(p[0.359095735777025, 0.161191942375858, 0.343851487548274, -1.337, 0.655, -0.721], a = 0.2, v = 0.2, t = 0.2)
movej(p[0.359147569734268, 0.161243111459221, 0.343264589835053, -1.337, 0.655, -0.721], a = 0.2, v = 0.2, t = 0.2)
movej(p[0.359192821462583, 0.161287782743868, 0.342752220390791, -1.337, 0.655, -0.721], a = 0.2, v = 0.2, t = 0.2)
movej(p[0.359191541828197, 0.161286519523345, 0.342766709242014, -1.337, 0.655, -0.721], a = 0.2, v = 0.2, t = 0.2)
movej(p[0.359149629419752, 0.161245144725131, 0.343241268738907, -1.337, 0.655, -0.721], a = 0.2, v = 0.2, t = 0.2)
movej(p[0.35906517355029, 0.161161772170636, 0.344197532919596, -1.337, 0.655, -0.721], a = 0.2, v = 0.2, t = 0.2)
movej(p[0.358981488967306, 0.161079161009332, 0.34514506409407, -1.337, 0.655, -0.721], a = 0.2, v = 0.2, t = 0.2)
movej(p[0.358893658719497, 0.160992457359624, 0.346139535176956, -1.337, 0.655, -0.721], a = 0.2, v = 0.2, t = 0.2)
movej(p[0.358821459293357, 0.160921184035121, 0.346957023949772, -1.337, 0.655, -0.721], a = 0.2, v = 0.2, t = 0.2)
movej(p[0.358776875429017, 0.160877172047761, 0.347461831404559, -1.337, 0.655, -0.721], a = 0.2, v = 0.2, t = 0.2)
movej(p[0.35875814017927, 0.160858677114958, 0.347673964064651, -1.337, 0.655, -0.721], a = 0.2, v = 0.2, t = 0.2)
movej(p[0.358755410876888, 0.160855982821322, 0.347704866998012, -1.337, 0.655, -0.721], a = 0.2, v = 0.2, t = 0.2)
movej(p[0.358750181028683, 0.160850820056351, 0.347764082734481, -1.337, 0.655, -0.721], a = 0.2, v = 0.2, t = 0.2)
movej(p[0.358748244924328, 0.160848908786396, 0.347786004564858, -1.337, 0.655, -0.721], a = 0.2, v = 0.2, t = 0.2)
movej(p[0.358754737754143, 0.160855318332719, 0.34771248853071, -1.337, 0.655, -0.721], a = 0.2, v = 0.2, t = 0.2)
movej(p[0.358778789621824, 0.160879061687227, 0.347440157670949, -1.337, 0.655, -0.721], a = 0.2, v = 0.2, t = 0.2)
movej(p[0.358804339012322, 0.160904283355835, 0.347150870885711, -1.337, 0.655, -0.721], a = 0.2, v = 0.2, t = 0.2)
movej(p[0.358850429865267, 0.160949783001666, 0.346629000327641, -1.337, 0.655, -0.721], a = 0.2, v = 0.2, t = 0.2)
movej(p[0.358905105312017, 0.161003757126765, 0.346009929425609, -1.337, 0.655, -0.721], a = 0.2, v = 0.2, t = 0.2)
movej(p[0.3589672464613, 0.161065101191871, 0.345306326992951, -1.337, 0.655, -0.721], a = 0.2, v = 0.2, t = 0.2)
movej(p[0.359001638826573, 0.161099052406467, 0.344916914306668, -1.337, 0.655, -0.721], a = 0.2, v = 0.2, t = 0.2)
movej(p[0.359032972339787, 0.161129984004881, 0.344562135929129, -1.337, 0.655, -0.721], a = 0.2, v = 0.2, t = 0.2)
movej(p[0.35905792521031, 0.161154616805072, 0.344279603330289, -1.337, 0.655, -0.721], a = 0.2, v = 0.2, t = 0.2)
movej(p[0.359094657728878, 0.161190878155829, 0.343863693909235, -1.337, 0.655, -0.721], a = 0.2, v = 0.2, t = 0.2)
movej(p[0.359091800463057, 0.161188057540141, 0.343896045727718, -1.337, 0.655, -0.721], a = 0.2, v = 0.2, t = 0.2)
movej(p[0.359059388901696, 0.161156061721698, 0.344263030466219, -1.337, 0.655, -0.721], a = 0.2, v = 0.2, t = 0.2)
movej(p[0.358995933059551, 0.161093419827287, 0.344981518704927, -1.337, 0.655, -0.721], a = 0.2, v = 0.2, t = 0.2)
movej(p[0.358937569461092, 0.16103580485838, 0.345642349254866, -1.337, 0.655, -0.721], a = 0.2, v = 0.2, t = 0.2)
movej(p[0.358891081921488, 0.160989913614188, 0.346168711356815, -1.337, 0.655, -0.721], a = 0.2, v = 0.2, t = 0.2)
movej(p[0.358847406071684, 0.160946797994267, 0.346663237681557, -1.337, 0.655, -0.721], a = 0.2, v = 0.2, t = 0.2)
movej(p[0.358817521350004, 0.160917296603745, 0.347001611900828, -1.337, 0.655, -0.721], a = 0.2, v = 0.2, t = 0.2)
movej(p[0.35879802857423, 0.160898053861698, 0.347222321762366, -1.337, 0.655, -0.721], a = 0.2, v = 0.2, t = 0.2)
movej(p[0.358792199401372, 0.160892299459607, 0.347288323441621, -1.337, 0.655, -0.721], a = 0.2, v = 0.2, t = 0.2)
movej(p[0.35877894387912, 0.160879213965866, 0.347438411069706, -1.337, 0.655, -0.721], a = 0.2, v = 0.2, t = 0.2)
movej(p[0.358772724505421, 0.160873074368038, 0.347508830856196, -1.337, 0.655, -0.721], a = 0.2, v = 0.2, t = 0.2)
movej(p[0.358768911019658, 0.160869309797836, 0.347552009617614, -1.337, 0.655, -0.721], a = 0.2, v = 0.2, t = 0.2)
movej(p[0.358782777523506, 0.160882998436116, 0.347395004059263, -1.337, 0.655, -0.721], a = 0.2, v = 0.2, t = 0.2)
movej(p[0.358788573566104, 0.160888720132908, 0.347329377502321, -1.337, 0.655, -0.721], a = 0.2, v = 0.2, t = 0.2)
movej(p[0.358806447779673, 0.160906365074039, 0.347126994052806, -1.337, 0.655, -0.721], a = 0.2, v = 0.2, t = 0.2)
movej(p[0.35882626055169, 0.16092592370774, 0.346902660986075, -1.337, 0.655, -0.721], a = 0.2, v = 0.2, t = 0.2)
movej(p[0.358861146365017, 0.160960362040933, 0.346507661160587, -1.337, 0.655, -0.721], a = 0.2, v = 0.2, t = 0.2)
movej(p[0.358881879071453, 0.160980828809059, 0.346272911999169, -1.337, 0.655, -0.721], a = 0.2, v = 0.2, t = 0.2)
movej(p[0.358911775187138, 0.161010341447434, 0.345934408769579, -1.337, 0.655, -0.721], a = 0.2, v = 0.2, t = 0.2)
movej(p[0.358951286089954, 0.16104934554412, 0.345487040678405, -1.337, 0.655, -0.721], a = 0.2, v = 0.2, t = 0.2)
movej(p[0.359009167634363, 0.161106484642281, 0.344831668257351, -1.337, 0.655, -0.721], a = 0.2, v = 0.2, t = 0.2)
movej(p[0.359061474881038, 0.161158120944194, 0.344239411653952, -1.337, 0.655, -0.721], a = 0.2, v = 0.2, t = 0.2)
movej(p[0.359072518301079, 0.161169022710348, 0.344114370883127, -1.337, 0.655, -0.721], a = 0.2, v = 0.2, t = 0.2)
movej(p[0.359058617615217, 0.161155300328506, 0.344271763472435, -1.337, 0.655, -0.721], a = 0.2, v = 0.2, t = 0.2)
movej(p[0.359022007801317, 0.161119160108485, 0.344686283551591, -1.337, 0.655, -0.721], a = 0.2, v = 0.2, t = 0.2)
movej(p[0.358986958089613, 0.161084559979237, 0.345083139140899, -1.337, 0.655, -0.721], a = 0.2, v = 0.2, t = 0.2)
movej(p[0.358937762282712, 0.161035995206678, 0.345640166003312, -1.337, 0.655, -0.721], a = 0.2, v = 0.2, t = 0.2)
movej(p[0.358897892030514, 0.160996636369983, 0.346091602881473, -1.337, 0.655, -0.721], a = 0.2, v = 0.2, t = 0.2)
movej(p[0.358859874618789, 0.160959106607387, 0.346522060696973, -1.337, 0.655, -0.721], a = 0.2, v = 0.2, t = 0.2)
movej(p[0.358842592542885, 0.160942046208574, 0.346717739579444, -1.337, 0.655, -0.721], a = 0.2, v = 0.2, t = 0.2)
movej(p[0.358820224358529, 0.160919964940795, 0.346971006683588, -1.337, 0.655, -0.721], a = 0.2, v = 0.2, t = 0.2)
movej(p[0.358802227527939, 0.160902198955451, 0.347174778482615, -1.337, 0.655, -0.721], a = 0.2, v = 0.2, t = 0.2)
movej(p[0.358788284333675, 0.160888434610461, 0.347332652379652, -1.337, 0.655, -0.721], a = 0.2, v = 0.2, t = 0.2)
movej(p[0.35878453395317, 0.160884732336067, 0.347375116622379, -1.337, 0.655, -0.721], a = 0.2, v = 0.2, t = 0.2)
movej(p[0.358783286747875, 0.160883501128667, 0.347389238290386, -1.337, 0.655, -0.721], a = 0.2, v = 0.2, t = 0.2)
movej(p[0.358781552229759, 0.160881788859205, 0.347408877630502, -1.337, 0.655, -0.721], a = 0.2, v = 0.2, t = 0.2)
movej(p[0.358796839653652, 0.160896880191397, 0.347235783492971, -1.337, 0.655, -0.721], a = 0.2, v = 0.2, t = 0.2)
movej(p[0.358825222820791, 0.160924899287809, 0.346914410848984, -1.337, 0.655, -0.721], a = 0.2, v = 0.2, t = 0.2)
movej(p[0.358865417363895, 0.160964578255733, 0.346459302138664, -1.337, 0.655, -0.721], a = 0.2, v = 0.2, t = 0.2)
movej(p[0.358883509290602, 0.160982438117396, 0.346254453599667, -1.337, 0.655, -0.721], a = 0.2, v = 0.2, t = 0.2)
movej(p[0.358907866167027, 0.161006482568303, 0.345978669232903, -1.337, 0.655, -0.721], a = 0.2, v = 0.2, t = 0.2)
movej(p[0.358934615784462, 0.161032889068544, 0.345675792699127, -1.337, 0.655, -0.721], a = 0.2, v = 0.2, t = 0.2)
movej(p[0.358980288214492, 0.161077975658568, 0.345158659796929, -1.337, 0.655, -0.721], a = 0.2, v = 0.2, t = 0.2)
movej(p[0.358999368790231, 0.161096811487868, 0.344942617131782, -1.337, 0.655, -0.721], a = 0.2, v = 0.2, t = 0.2)
movej(p[0.359010140507081, 0.161107445035966, 0.344820652760874, -1.337, 0.655, -0.721], a = 0.2, v = 0.2, t = 0.2)
movej(p[0.358995713944074, 0.161093203522403, 0.344983999672602, -1.337, 0.655, -0.721], a = 0.2, v = 0.2, t = 0.2)
movej(p[0.358974608741328, 0.161072369035974, 0.345222966479068, -1.337, 0.655, -0.721], a = 0.2, v = 0.2, t = 0.2)
movej(p[0.358933003094551, 0.161031297064597, 0.345694052621216, -1.337, 0.655, -0.721], a = 0.2, v = 0.2, t = 0.2)
movej(p[0.358887127325358, 0.160986009743641, 0.346213487861415, -1.337, 0.655, -0.721], a = 0.2, v = 0.2, t = 0.2)
movej(p[0.358849855782717, 0.16094921628287, 0.34663550046295, -1.337, 0.655, -0.721], a = 0.2, v = 0.2, t = 0.2)
movej(p[0.358825439306882, 0.160925112997034, 0.346911959652921, -1.337, 0.655, -0.721], a = 0.2, v = 0.2, t = 0.2)
movej(p[0.358813316962231, 0.160913146145631, 0.347049216708578, -1.337, 0.655, -0.721], a = 0.2, v = 0.2, t = 0.2)
movej(p[0.358794272759662, 0.160894346222942, 0.347264847533092, -1.337, 0.655, -0.721], a = 0.2, v = 0.2, t = 0.2)
movej(p[0.358782845011073, 0.160883065058021, 0.347394239921219, -1.337, 0.655, -0.721], a = 0.2, v = 0.2, t = 0.2)
movej(p[0.35877713836759, 0.160877431613621, 0.347458854243349, -1.337, 0.655, -0.721], a = 0.2, v = 0.2, t = 0.2)
movej(p[0.358782697765473, 0.160882919701139, 0.347395907131496, -1.337, 0.655, -0.721], a = 0.2, v = 0.2, t = 0.2)
movej(p[0.358786101943524, 0.160886280213817, 0.347357362817696, -1.337, 0.655, -0.721], a = 0.2, v = 0.2, t = 0.2)
movej(p[0.358805986760709, 0.160905909968563, 0.347132214008794, -1.337, 0.655, -0.721], a = 0.2, v = 0.2, t = 0.2)
movej(p[0.358834749961732, 0.160934304224166, 0.346806538374471, -1.337, 0.655, -0.721], a = 0.2, v = 0.2, t = 0.2)
movej(p[0.358878629150698, 0.160977620575019, 0.346309709711726, -1.337, 0.655, -0.721], a = 0.2, v = 0.2, t = 0.2)
movej(p[0.35890889162746, 0.16100749487516, 0.345967058304183, -1.337, 0.655, -0.721], a = 0.2, v = 0.2, t = 0.2)
movej(p[0.358932161691119, 0.161030466453843, 0.345703579537088, -1.337, 0.655, -0.721], a = 0.2, v = 0.2, t = 0.2)
movej(p[0.35895399435725, 0.161052019072486, 0.345456375917941, -1.337, 0.655, -0.721], a = 0.2, v = 0.2, t = 0.2)
movej(p[0.358984986050319, 0.161082613235281, 0.345105467849975, -1.337, 0.655, -0.721], a = 0.2, v = 0.2, t = 0.2)
movej(p[0.359019807881928, 0.161116988407449, 0.344711192467049, -1.337, 0.655, -0.721], a = 0.2, v = 0.2, t = 0.2)
movej(p[0.359030640951111, 0.161127682520915, 0.344588533425192, -1.337, 0.655, -0.721], a = 0.2, v = 0.2, t = 0.2)
movej(p[0.359026311229285, 0.161123408336407, 0.344637557346452, -1.337, 0.655, -0.721], a = 0.2, v = 0.2, t = 0.2)
movej(p[0.358997642160272, 0.161095107005382, 0.344962167157062, -1.337, 0.655, -0.721], a = 0.2, v = 0.2, t = 0.2)
movej(p[0.358969577849975, 0.161067402675837, 0.345279929496888, -1.337, 0.655, -0.721], a = 0.2, v = 0.2, t = 0.2)
movej(p[0.358923344484324, 0.16102176234531, 0.345803413676334, -1.337, 0.655, -0.721], a = 0.2, v = 0.2, t = 0.2)
movej(p[0.35889506105855, 0.160993841710881, 0.346123656983835, -1.337, 0.655, -0.721], a = 0.2, v = 0.2, t = 0.2)
movej(p[0.35887702259602, 0.16097603462761, 0.34632790016672, -1.337, 0.655, -0.721], a = 0.2, v = 0.2, t = 0.2)
movej(p[0.358878701897036, 0.160977692388241, 0.346308886030458, -1.337, 0.655, -0.721], a = 0.2, v = 0.2, t = 0.2)
movej(p[0.358868977552166, 0.160968092777488, 0.346418991375879, -1.337, 0.655, -0.721], a = 0.2, v = 0.2, t = 0.2)
movej(p[0.35884370652597, 0.160943145902605, 0.346705126339784, -1.337, 0.655, -0.721], a = 0.2, v = 0.2, t = 0.2)
movej(p[0.35881922343903, 0.160918976860084, 0.346982339743928, -1.337, 0.655, -0.721], a = 0.2, v = 0.2, t = 0.2)
movej(p[0.358804590293951, 0.160904531414276, 0.347148025711981, -1.337, 0.655, -0.721], a = 0.2, v = 0.2, t = 0.2)
movej(p[0.358800685437035, 0.160900676644938, 0.347192239036919, -1.337, 0.655, -0.721], a = 0.2, v = 0.2, t = 0.2)
movej(p[0.358787178238747, 0.160887342703407, 0.347345176304476, -1.337, 0.655, -0.721], a = 0.2, v = 0.2, t = 0.2)
movej(p[0.358786356117477, 0.160886531127482, 0.347354484895193, -1.337, 0.655, -0.721], a = 0.2, v = 0.2, t = 0.2)
movej(p[0.35879885875895, 0.160898873397642, 0.347212921872039, -1.337, 0.655, -0.721], a = 0.2, v = 0.2, t = 0.2)
movej(p[0.358832923415115, 0.160932501106653, 0.34682721972101, -1.337, 0.655, -0.721], a = 0.2, v = 0.2, t = 0.2)
movej(p[0.358853926071818, 0.160953234362395, 0.346589414007417, -1.337, 0.655, -0.721], a = 0.2, v = 0.2, t = 0.2)
movej(p[0.358879987666655, 0.1609789616653, 0.346294327712141, -1.337, 0.655, -0.721], a = 0.2, v = 0.2, t = 0.2)
movej(p[0.358911775187138, 0.161010341447434, 0.345934408769579, -1.337, 0.655, -0.721], a = 0.2, v = 0.2, t = 0.2)
movej(p[0.358966930935013, 0.161064789712838, 0.345309899586403, -1.337, 0.655, -0.721], a = 0.2, v = 0.2, t = 0.2)
movej(p[0.35902321731875, 0.161120354111444, 0.344672588610024, -1.337, 0.655, -0.721], a = 0.2, v = 0.2, t = 0.2)
movej(p[0.35906335927414, 0.161159981166196, 0.344218075331946, -1.337, 0.655, -0.721], a = 0.2, v = 0.2, t = 0.2)
movej(p[0.359096410652694, 0.161192608594901, 0.343843846167834, -1.337, 0.655, -0.721], a = 0.2, v = 0.2, t = 0.2)
movej(p[0.359106314672255, 0.161202385575658, 0.34373170642892, -1.337, 0.655, -0.721], a = 0.2, v = 0.2, t = 0.2)
movej(p[0.359083272488692, 0.161179638954055, 0.343992604989633, -1.337, 0.655, -0.721], a = 0.2, v = 0.2, t = 0.2)
movej(p[0.359005600434398, 0.16110296319877, 0.344872058411102, -1.337, 0.655, -0.721], a = 0.2, v = 0.2, t = 0.2)
movej(p[0.358918760588545, 0.161017237247136, 0.345855315520097, -1.337, 0.655, -0.721], a = 0.2, v = 0.2, t = 0.2)
movej(p[0.358834966447823, 0.160934517933391, 0.346804087178408, -1.337, 0.655, -0.721], a = 0.2, v = 0.2, t = 0.2)
movej(p[0.358794099658435, 0.160894175342083, 0.347266807497555, -1.337, 0.655, -0.721], a = 0.2, v = 0.2, t = 0.2)
movej(p[0.358764204419212, 0.160864663568928, 0.347605300803275, -1.337, 0.655, -0.721], a = 0.2, v = 0.2, t = 0.2)
movej(p[0.358753232869047, 0.160853832750775, 0.347729527816702, -1.337, 0.655, -0.721], a = 0.2, v = 0.2, t = 0.2)
movej(p[0.358751401940121, 0.160852025307164, 0.347750258782595, -1.337, 0.655, -0.721], a = 0.2, v = 0.2, t = 0.2)
movej(p[0.358765919655166, 0.16086635680356, 0.347585879788314, -1.337, 0.655, -0.721], a = 0.2, v = 0.2, t = 0.2)
movej(p[0.358794961834014, 0.160895026458541, 0.347257045385947, -1.337, 0.655, -0.721], a = 0.2, v = 0.2, t = 0.2)
movej(p[0.358847144009574, 0.160946539293625, 0.346666204918897, -1.337, 0.655, -0.721], a = 0.2, v = 0.2, t = 0.2)
movej(p[0.358916394141393, 0.161014901154389, 0.345882109970988, -1.337, 0.655, -0.721], a = 0.2, v = 0.2, t = 0.2)
movej(p[0.359000341662949, 0.161097771881553, 0.344931601635304, -1.337, 0.655, -0.721], a = 0.2, v = 0.2, t = 0.2)
movej(p[0.359072053776268, 0.161168564143994, 0.344119630534598, -1.337, 0.655, -0.721], a = 0.2, v = 0.2, t = 0.2)
movej(p[0.359113335132139, 0.161209315984142, 0.34365221622461, -1.337, 0.655, -0.721], a = 0.2, v = 0.2, t = 0.2)
movej(p[0.359138393178091, 0.161234052610678, 0.343368492761286, -1.337, 0.655, -0.721], a = 0.2, v = 0.2, t = 0.2)
movej(p[0.359140049691097, 0.161235687875601, 0.343349736645662, -1.337, 0.655, -0.721], a = 0.2, v = 0.2, t = 0.2)
movej(p[0.359107480366593, 0.161203536317641, 0.343718507680888, -1.337, 0.655, -0.721], a = 0.2, v = 0.2, t = 0.2)
movej(p[0.359024908890233, 0.161122023985149, 0.344653435539572, -1.337, 0.655, -0.721], a = 0.2, v = 0.2, t = 0.2)
movej(p[0.358934370375128, 0.161032646807074, 0.345678571382923, -1.337, 0.655, -0.721], a = 0.2, v = 0.2, t = 0.2)
movej(p[0.358858532755607, 0.160957781956277, 0.346537254143016, -1.337, 0.655, -0.721], a = 0.2, v = 0.2, t = 0.2)
movej(p[0.358812677145039, 0.16091251453537, 0.34705646113419, -1.337, 0.655, -0.721], a = 0.2, v = 0.2, t = 0.2)
movej(p[0.358783596138928, 0.160883806551163, 0.347385735164029, -1.337, 0.655, -0.721], a = 0.2, v = 0.2, t = 0.2)
movej(p[0.358774487070318, 0.160874814324525, 0.347488873952218, -1.337, 0.655, -0.721], a = 0.2, v = 0.2, t = 0.2)
movej(p[0.358774473923389, 0.160874801346232, 0.347489022810278, -1.337, 0.655, -0.721], a = 0.2, v = 0.2, t = 0.2)
movej(p[0.358794446912643, 0.160894518142063, 0.347262875659984, -1.337, 0.655, -0.721], a = 0.2, v = 0.2, t = 0.2)
movej(p[0.358827526162685, 0.16092717308475, 0.346888330916784, -1.337, 0.655, -0.721], a = 0.2, v = 0.2, t = 0.2)
movej(p[0.358874930481446, 0.160973969348577, 0.346351588446082, -1.337, 0.655, -0.721], a = 0.2, v = 0.2, t = 0.2)
movej(p[0.358934861193796, 0.161033131330014, 0.345673014015331, -1.337, 0.655, -0.721], a = 0.2, v = 0.2, t = 0.2)
movej(p[0.359005600434398, 0.16110296319877, 0.344872058411102, -1.337, 0.655, -0.721], a = 0.2, v = 0.2, t = 0.2)
movej(p[0.35907451663423, 0.16117099541089, 0.34409174445793, -1.337, 0.655, -0.721], a = 0.2, v = 0.2, t = 0.2)
movej(p[0.359113782127712, 0.161209757246106, 0.343647155050553, -1.337, 0.655, -0.721], a = 0.2, v = 0.2, t = 0.2)
movej(p[0.359135010035126, 0.161230712863269, 0.343406798902189, -1.337, 0.655, -0.721], a = 0.2, v = 0.2, t = 0.2)
movej(p[0.35912648206076, 0.161222294277183, 0.343503358164104, -1.337, 0.655, -0.721], a = 0.2, v = 0.2, t = 0.2)
movej(p[0.359097313408459, 0.161193499771023, 0.343833624581013, -1.337, 0.655, -0.721], a = 0.2, v = 0.2, t = 0.2)
movej(p[0.359015530747816, 0.161112766136113, 0.344759620956067, -1.337, 0.655, -0.721], a = 0.2, v = 0.2, t = 0.2)
movej(p[0.358927761852341, 0.161026123051772, 0.345753397368004, -1.337, 0.655, -0.721], a = 0.2, v = 0.2, t = 0.2)
movej(p[0.358850102944975, 0.160949460274779, 0.346632701931412, -1.337, 0.655, -0.721], a = 0.2, v = 0.2, t = 0.2)
movej(p[0.358805750554225, 0.160905676791898, 0.347134888491948, -1.337, 0.655, -0.721], a = 0.2, v = 0.2, t = 0.2)
movej(p[0.358782050060123, 0.160882280303901, 0.347403240871944, -1.337, 0.655, -0.721], a = 0.2, v = 0.2, t = 0.2)
movej(p[0.358764017732826, 0.160864479277167, 0.347607414587734, -1.337, 0.655, -0.721], a = 0.2, v = 0.2, t = 0.2)
movej(p[0.358760719606666, 0.160861223456052, 0.347644758113179, -1.337, 0.655, -0.721], a = 0.2, v = 0.2, t = 0.2)
movej(p[0.358760842311333, 0.160861344586787, 0.347643368771281, -1.337, 0.655, -0.721], a = 0.2, v = 0.2, t = 0.2)
movej(p[0.35877361060841, 0.160873949104989, 0.347498797822918, -1.337, 0.655, -0.721], a = 0.2, v = 0.2, t = 0.2)
movej(p[0.358779001725606, 0.160879271070355, 0.34743775609424, -1.337, 0.655, -0.721], a = 0.2, v = 0.2, t = 0.2)
movej(p[0.358807078218723, 0.160906987426451, 0.347119855812611, -1.337, 0.655, -0.721], a = 0.2, v = 0.2, t = 0.2)
movej(p[0.358850116091904, 0.160949473253072, 0.346632553073352, -1.337, 0.655, -0.721], a = 0.2, v = 0.2, t = 0.2)
movej(p[0.358910942548325, 0.161009519488875, 0.345943836446744, -1.337, 0.655, -0.721], a = 0.2, v = 0.2, t = 0.2)
movej(p[0.358950400863427, 0.161048471672388, 0.345497063787813, -1.337, 0.655, -0.721], a = 0.2, v = 0.2, t = 0.2)
movej(p[0.358986809091088, 0.161084412891916, 0.345084826198918, -1.337, 0.655, -0.721], a = 0.2, v = 0.2, t = 0.2)
movej(p[0.359018966478496, 0.161116157796694, 0.344720719382921, -1.337, 0.655, -0.721], a = 0.2, v = 0.2, t = 0.2)
movej(p[0.359046496147029, 0.161143334342322, 0.344409010604222, -1.337, 0.655, -0.721], a = 0.2, v = 0.2, t = 0.2)
movej(p[0.35904619814998, 0.16114304016768, 0.34441238472026, -1.337, 0.655, -0.721], a = 0.2, v = 0.2, t = 0.2)
movej(p[0.359002611699291, 0.161100012800152, 0.34490589881019, -1.337, 0.655, -0.721], a = 0.2, v = 0.2, t = 0.2)
movej(p[0.358942968466446, 0.161041134610723, 0.345581218211352, -1.337, 0.655, -0.721], a = 0.2, v = 0.2, t = 0.2)
movej(p[0.358880204152747, 0.160979175374526, 0.346291876516078, -1.337, 0.655, -0.721], a = 0.2, v = 0.2, t = 0.2)
movej(p[0.358843461116636, 0.160942903641135, 0.34670790502358, -1.337, 0.655, -0.721], a = 0.2, v = 0.2, t = 0.2)
movej(p[0.358803308205472, 0.160903265771139, 0.347162542350041, -1.337, 0.655, -0.721], a = 0.2, v = 0.2, t = 0.2)
movej(p[0.358783459410871, 0.160883671576915, 0.347387283287858, -1.337, 0.655, -0.721], a = 0.2, v = 0.2, t = 0.2)
movej(p[0.358769057388797, 0.160869454289499, 0.347550352331207, -1.337, 0.655, -0.721], a = 0.2, v = 0.2, t = 0.2)
movej(p[0.358780869465932, 0.160881114853186, 0.347416608325777, -1.337, 0.655, -0.721], a = 0.2, v = 0.2, t = 0.2)
movej(p[0.358807765364859, 0.160907665758568, 0.347112075497982, -1.337, 0.655, -0.721], a = 0.2, v = 0.2, t = 0.2)
movej(p[0.358847356113356, 0.160946748676753, 0.346663803342187, -1.337, 0.655, -0.721], a = 0.2, v = 0.2, t = 0.2)
movej(p[0.358905850304639, 0.16100449256337, 0.346001494135514, -1.337, 0.655, -0.721], a = 0.2, v = 0.2, t = 0.2)
movej(p[0.358969656731547, 0.161067480545596, 0.345279036348525, -1.337, 0.655, -0.721], a = 0.2, v = 0.2, t = 0.2)
movej(p[0.359048056249225, 0.161144874433096, 0.344391346114375, -1.337, 0.655, -0.721], a = 0.2, v = 0.2, t = 0.2)
movej(p[0.359102677355337, 0.161198794914584, 0.343772890492327, -1.337, 0.655, -0.721], a = 0.2, v = 0.2, t = 0.2)
movej(p[0.359147920319032, 0.161243457547035, 0.343260620286772, -1.337, 0.655, -0.721], a = 0.2, v = 0.2, t = 0.2)
movej(p[0.359169735455924, 0.161264992861288, 0.34301361514504, -1.337, 0.655, -0.721], a = 0.2, v = 0.2, t = 0.2)
movej(p[0.359170857327166, 0.161266100342294, 0.343000912590543, -1.337, 0.655, -0.721], a = 0.2, v = 0.2, t = 0.2)
movej(p[0.359125474129566, 0.161221299274717, 0.343514770615409, -1.337, 0.655, -0.721], a = 0.2, v = 0.2, t = 0.2)
movej(p[0.35904495357407, 0.161141811555939, 0.344426476616654, -1.337, 0.655, -0.721], a = 0.2, v = 0.2, t = 0.2)
movej(p[0.358951075739096, 0.161049137891431, 0.345489422407373, -1.337, 0.655, -0.721], a = 0.2, v = 0.2, t = 0.2)
movej(p[0.358874727142283, 0.160973768617645, 0.346353890784085, -1.337, 0.655, -0.721], a = 0.2, v = 0.2, t = 0.2)
movej(p[0.358824315682716, 0.160924003785589, 0.346924682055159, -1.337, 0.655, -0.721], a = 0.2, v = 0.2, t = 0.2)
movej(p[0.358786431493201, 0.160886605536362, 0.347353631442313, -1.337, 0.655, -0.721], a = 0.2, v = 0.2, t = 0.2)
movej(p[0.358768624416615, 0.160869026871048, 0.347555254723333, -1.337, 0.655, -0.721], a = 0.2, v = 0.2, t = 0.2)
movej(p[0.358760778329613, 0.160861281425761, 0.347644093213843, -1.337, 0.655, -0.721], a = 0.2, v = 0.2, t = 0.2)
movej(p[0.358771032057476, 0.160871403629114, 0.347527993850519, -1.337, 0.655, -0.721], a = 0.2, v = 0.2, t = 0.2)
movej(p[0.358788684000305, 0.16088882915057, 0.347328127094613, -1.337, 0.655, -0.721], a = 0.2, v = 0.2, t = 0.2)
movej(p[0.358829600748022, 0.160929221059391, 0.346864841114836, -1.337, 0.655, -0.721], a = 0.2, v = 0.2, t = 0.2)
movej(p[0.358887334170369, 0.160986213935451, 0.34621114582793, -1.337, 0.655, -0.721], a = 0.2, v = 0.2, t = 0.2)
movej(p[0.358963433852, 0.16106133748689, 0.345349495830498, -1.337, 0.655, -0.721], a = 0.2, v = 0.2, t = 0.2)
movej(p[0.359022086682888, 0.161119237978243, 0.344685390403228, -1.337, 0.655, -0.721], a = 0.2, v = 0.2, t = 0.2)
movej(p[0.359064454851525, 0.161161062690616, 0.344205670493571, -1.337, 0.655, -0.721], a = 0.2, v = 0.2, t = 0.2)
movej(p[0.359094929432069, 0.161191146373885, 0.343860617509318, -1.337, 0.655, -0.721], a = 0.2, v = 0.2, t = 0.2)
movej(p[0.359115666520814, 0.161211617468108, 0.343625818728547, -1.337, 0.655, -0.721], a = 0.2, v = 0.2, t = 0.2)
movej(p[0.359104868510107, 0.161200957963424, 0.343748080815576, -1.337, 0.655, -0.721], a = 0.2, v = 0.2, t = 0.2)
movej(p[0.359039037456191, 0.16113597132407, 0.344493462743882, -1.337, 0.655, -0.721], a = 0.2, v = 0.2, t = 0.2)
movej(p[0.358958394196028, 0.161056362474557, 0.345406558087025, -1.337, 0.655, -0.721], a = 0.2, v = 0.2, t = 0.2)
movej(p[0.358878650185784, 0.160977641340288, 0.34630947153883, -1.337, 0.655, -0.721], a = 0.2, v = 0.2, t = 0.2)
movej(p[0.358834281054611, 0.160933841331714, 0.346811847645296, -1.337, 0.655, -0.721], a = 0.2, v = 0.2, t = 0.2)
movej(p[0.35879546281964, 0.160895521018028, 0.347251372901455, -1.337, 0.655, -0.721], a = 0.2, v = 0.2, t = 0.2)
movej(p[0.358771273960963, 0.160871642429706, 0.347525254862205, -1.337, 0.655, -0.721], a = 0.2, v = 0.2, t = 0.2)
movej(p[0.358758226072537, 0.160858761906472, 0.347672991525322, -1.337, 0.655, -0.721], a = 0.2, v = 0.2, t = 0.2)
movej(p[0.358761781002036, 0.16086227123691, 0.347632740305761, -1.337, 0.655, -0.721], a = 0.2, v = 0.2, t = 0.2)
movej(p[0.358766768070293, 0.160867194336071, 0.347576273481476, -1.337, 0.655, -0.721], a = 0.2, v = 0.2, t = 0.2)
movej(p[0.35876322979357, 0.160863701444804, 0.347616336147494, -1.337, 0.655, -0.721], a = 0.2, v = 0.2, t = 0.2)
movej(p[0.358762548782668, 0.160863029169224, 0.347624046995028, -1.337, 0.655, -0.721], a = 0.2, v = 0.2, t = 0.2)
movej(p[0.358762422572153, 0.160862904577611, 0.347625476032409, -1.337, 0.655, -0.721], a = 0.2, v = 0.2, t = 0.2)
movej(p[0.358777603768863, 0.160877891045195, 0.347453584668007, -1.337, 0.655, -0.721], a = 0.2, v = 0.2, t = 0.2)
movej(p[0.358786087920133, 0.160886266370304, 0.347357521599627, -1.337, 0.655, -0.721], a = 0.2, v = 0.2, t = 0.2)
movej(p[0.358817095389517, 0.160916876107051, 0.347006434901989, -1.337, 0.655, -0.721], a = 0.2, v = 0.2, t = 0.2)
movej(p[0.358847550687899, 0.16094694075549, 0.346661600242892, -1.337, 0.655, -0.721], a = 0.2, v = 0.2, t = 0.2)
movej(p[0.358891081921488, 0.160989913614188, 0.346168711356815, -1.337, 0.655, -0.721], a = 0.2, v = 0.2, t = 0.2)
movej(p[0.358914623688339, 0.161013153410926, 0.345902156189803, -1.337, 0.655, -0.721], a = 0.2, v = 0.2, t = 0.2)
movej(p[0.358942372472349, 0.161040546261438, 0.345587966443428, -1.337, 0.655, -0.721], a = 0.2, v = 0.2, t = 0.2)
movej(p[0.358972864582131, 0.161070647249098, 0.345242714981762, -1.337, 0.655, -0.721], a = 0.2, v = 0.2, t = 0.2)
movej(p[0.359014277407288, 0.161111528872177, 0.344773812091168, -1.337, 0.655, -0.721], a = 0.2, v = 0.2, t = 0.2)
movej(p[0.359028309562436, 0.161125381036949, 0.344614930921255, -1.337, 0.655, -0.721], a = 0.2, v = 0.2, t = 0.2)
movej(p[0.358998746502276, 0.161096197181998, 0.344949663079979, -1.337, 0.655, -0.721], a = 0.2, v = 0.2, t = 0.2)
movej(p[0.358945667969123, 0.161043799486894, 0.345550652689595, -1.337, 0.655, -0.721], a = 0.2, v = 0.2, t = 0.2)
movej(p[0.358889469231577, 0.160988321610241, 0.346186971278904, -1.337, 0.655, -0.721], a = 0.2, v = 0.2, t = 0.2)
movej(p[0.358852585085099, 0.160951910576505, 0.346604597529589, -1.337, 0.655, -0.721], a = 0.2, v = 0.2, t = 0.2)
movej(p[0.358812734991524, 0.160912571639859, 0.347055806158723, -1.337, 0.655, -0.721], a = 0.2, v = 0.2, t = 0.2)
movej(p[0.358788803199124, 0.160888946820427, 0.347326777448198, -1.337, 0.655, -0.721], a = 0.2, v = 0.2, t = 0.2)
movej(p[0.358770067949377, 0.160870451887624, 0.347538910108289, -1.337, 0.655, -0.721], a = 0.2, v = 0.2, t = 0.2)
movej(p[0.358772295039086, 0.160872650410465, 0.347513693552839, -1.337, 0.655, -0.721], a = 0.2, v = 0.2, t = 0.2)
movej(p[0.358768926795973, 0.160869325371788, 0.347551830987941, -1.337, 0.655, -0.721], a = 0.2, v = 0.2, t = 0.2)
movej(p[0.358781011452761, 0.160881255018751, 0.347415000658724, -1.337, 0.655, -0.721], a = 0.2, v = 0.2, t = 0.2)
movej(p[0.358806338747812, 0.160906257440729, 0.347128228582321, -1.337, 0.655, -0.721], a = 0.2, v = 0.2, t = 0.2)
movej(p[0.358853325695411, 0.160952641687013, 0.346596211858847, -1.337, 0.655, -0.721], a = 0.2, v = 0.2, t = 0.2)
movej(p[0.358886856498629, 0.160985742390804, 0.346216554337462, -1.337, 0.655, -0.721], a = 0.2, v = 0.2, t = 0.2)
movej(p[0.358917288132539, 0.161015783678316, 0.345871987622874, -1.337, 0.655, -0.721], a = 0.2, v = 0.2, t = 0.2)
movej(p[0.358945308619741, 0.161043444746884, 0.345554721476582, -1.337, 0.655, -0.721], a = 0.2, v = 0.2, t = 0.2)
movej(p[0.358989438476813, 0.161087008550525, 0.345055054586817, -1.337, 0.655, -0.721], a = 0.2, v = 0.2, t = 0.2)
movej(p[0.359025995702999, 0.161123096857374, 0.344641129939904, -1.337, 0.655, -0.721], a = 0.2, v = 0.2, t = 0.2)
movej(p[0.359042928947063, 0.16113981289881, 0.344449400757972, -1.337, 0.655, -0.721], a = 0.2, v = 0.2, t = 0.2)
movej(p[0.359044532872354, 0.161141396250561, 0.344431240074591, -1.337, 0.655, -0.721], a = 0.2, v = 0.2, t = 0.2)
movej(p[0.35902589052757, 0.161122993031029, 0.344642320804388, -1.337, 0.655, -0.721], a = 0.2, v = 0.2, t = 0.2)
movej(p[0.3589948988345, 0.161092398868234, 0.344993228872354, -1.337, 0.655, -0.721], a = 0.2, v = 0.2, t = 0.2)
movej(p[0.358938717626192, 0.161036938295973, 0.345629348984249, -1.337, 0.655, -0.721], a = 0.2, v = 0.2, t = 0.2)
movej(p[0.358893308134734, 0.160992111271809, 0.346143504725236, -1.337, 0.655, -0.721], a = 0.2, v = 0.2, t = 0.2)
movej(p[0.358855707918878, 0.160954993353712, 0.346569238778283, -1.337, 0.655, -0.721], a = 0.2, v = 0.2, t = 0.2)
movej(p[0.358838195333492, 0.160937705402162, 0.346767527638748, -1.337, 0.655, -0.721], a = 0.2, v = 0.2, t = 0.2)
movej(p[0.358813836704143, 0.160913659220816, 0.347043331853253, -1.337, 0.655, -0.721], a = 0.2, v = 0.2, t = 0.2)
movej(p[0.358798687585939, 0.160898704420267, 0.347214860003987, -1.337, 0.655, -0.721], a = 0.2, v = 0.2, t = 0.2)
movej(p[0.358786728613788, 0.160886898845785, 0.347350267250145, -1.337, 0.655, -0.721], a = 0.2, v = 0.2, t = 0.2)
movej(p[0.358792206325421, 0.160892306294841, 0.347288245043042, -1.337, 0.655, -0.721], a = 0.2, v = 0.2, t = 0.2)
movej(p[0.358799938297082, 0.160899939088545, 0.347200698640497, -1.337, 0.655, -0.721], a = 0.2, v = 0.2, t = 0.2)
movej(p[0.358824947611752, 0.160924627608874, 0.346917526944384, -1.337, 0.655, -0.721], a = 0.2, v = 0.2, t = 0.2)
movej(p[0.358868243077087, 0.160967367723517, 0.346427307579526, -1.337, 0.655, -0.721], a = 0.2, v = 0.2, t = 0.2)
movej(p[0.358928638314249, 0.161026988271308, 0.345743473497303, -1.337, 0.655, -0.721], a = 0.2, v = 0.2, t = 0.2)
movej(p[0.358987194734328, 0.161084793588512, 0.34508045969581, -1.337, 0.655, -0.721], a = 0.2, v = 0.2, t = 0.2)
movej(p[0.359024698539375, 0.16112181633246, 0.344655817268541, -1.337, 0.655, -0.721], a = 0.2, v = 0.2, t = 0.2)
movej(p[0.359052911848196, 0.161149667749326, 0.344336367870695, -1.337, 0.655, -0.721], a = 0.2, v = 0.2, t = 0.2)
movej(p[0.35908080963073, 0.161177207687159, 0.344020491066301, -1.337, 0.655, -0.721], a = 0.2, v = 0.2, t = 0.2)
movej(p[0.359091283350531, 0.161187547060615, 0.343901900811432, -1.337, 0.655, -0.721], a = 0.2, v = 0.2, t = 0.2)
movej(p[0.35905611093416, 0.161152825800633, 0.344300145742638, -1.337, 0.655, -0.721], a = 0.2, v = 0.2, t = 0.2)
movej(p[0.35899652028903, 0.161093999524376, 0.344974869711558, -1.337, 0.655, -0.721], a = 0.2, v = 0.2, t = 0.2)
movej(p[0.35893206528031, 0.161030371279694, 0.345704671162865, -1.337, 0.655, -0.721], a = 0.2, v = 0.2, t = 0.2)
movej(p[0.358896033931268, 0.160994802104566, 0.346112641487358, -1.337, 0.655, -0.721], a = 0.2, v = 0.2, t = 0.2)
movej(p[0.3588566553742, 0.160955928656031, 0.346558511074056, -1.337, 0.655, -0.721], a = 0.2, v = 0.2, t = 0.2)
movej(p[0.35882935183284, 0.160928975337043, 0.346867659494115, -1.337, 0.655, -0.721], a = 0.2, v = 0.2, t = 0.2)
movej(p[0.35880494052813, 0.160904877156003, 0.347144060133249, -1.337, 0.655, -0.721], a = 0.2, v = 0.2, t = 0.2)
movej(p[0.358793438630864, 0.160893522793509, 0.347274292080837, -1.337, 0.655, -0.721], a = 0.2, v = 0.2, t = 0.2)
movej(p[0.358782152606166, 0.160882381534587, 0.347402079779072, -1.337, 0.655, -0.721], a = 0.2, v = 0.2, t = 0.2)
movej(p[0.358771779679484, 0.160872141661378, 0.347519528788811, -1.337, 0.655, -0.721], a = 0.2, v = 0.2, t = 0.2)
movej(p[0.358768003005122, 0.160868413430397, 0.347562290747659, -1.337, 0.655, -0.721], a = 0.2, v = 0.2, t = 0.2)
movej(p[0.358776523967792, 0.160876825094727, 0.34746581087671, -1.337, 0.655, -0.721], a = 0.2, v = 0.2, t = 0.2)
movej(p[0.358796863668708, 0.160896903898412, 0.347235511578914, -1.337, 0.655, -0.721], a = 0.2, v = 0.2, t = 0.2)
movej(p[0.358808494668813, 0.160908385707744, 0.347103817845172, -1.337, 0.655, -0.721], a = 0.2, v = 0.2, t = 0.2)
movej(p[0.358833252088331, 0.160932825563979, 0.346823498269498, -1.337, 0.655, -0.721], a = 0.2, v = 0.2, t = 0.2)
movej(p[0.358864287604496, 0.160963462987751, 0.346472094007997, -1.337, 0.655, -0.721], a = 0.2, v = 0.2, t = 0.2)
movej(p[0.358918024360542, 0.161016510462726, 0.345863651571485, -1.337, 0.655, -0.721], a = 0.2, v = 0.2, t = 0.2)
movej(p[0.358955694693351, 0.161053697598386, 0.345437123608782, -1.337, 0.655, -0.721], a = 0.2, v = 0.2, t = 0.2)
movej(p[0.358991112519057, 0.161088661119838, 0.34503609999378, -1.337, 0.655, -0.721], a = 0.2, v = 0.2, t = 0.2)
movej(p[0.359016564972868, 0.161113787095166, 0.34474791078864, -1.337, 0.655, -0.721], a = 0.2, v = 0.2, t = 0.2)
movej(p[0.359051737389239, 0.161148508355148, 0.344349665857433, -1.337, 0.655, -0.721], a = 0.2, v = 0.2, t = 0.2)
movej(p[0.359058082973453, 0.161154772544589, 0.344277817033563, -1.337, 0.655, -0.721], a = 0.2, v = 0.2, t = 0.2)
movej(p[0.359038301228188, 0.16113524453966, 0.34450179879527, -1.337, 0.655, -0.721], a = 0.2, v = 0.2, t = 0.2)
movej(p[0.35899575776717, 0.16109324678338, 0.344983503479067, -1.337, 0.655, -0.721], a = 0.2, v = 0.2, t = 0.2)
movej(p[0.35895494970073, 0.16105296216178, 0.345445558898878, -1.337, 0.655, -0.721], a = 0.2, v = 0.2, t = 0.2)
movej(p[0.358919084879451, 0.161017557378365, 0.345851643687938, -1.337, 0.655, -0.721], a = 0.2, v = 0.2, t = 0.2)
movej(p[0.358874248594081, 0.160973296207778, 0.346359309217487, -1.337, 0.655, -0.721], a = 0.2, v = 0.2, t = 0.2)
movej(p[0.358838090158063, 0.160937601575818, 0.346768718503232, -1.337, 0.655, -0.721], a = 0.2, v = 0.2, t = 0.2)
movej(p[0.358811067084513, 0.160910925127082, 0.347074691284666, -1.337, 0.655, -0.721], a = 0.2, v = 0.2, t = 0.2)
movej(p[0.358804894601526, 0.160904831818499, 0.347144580144074, -1.337, 0.655, -0.721], a = 0.2, v = 0.2, t = 0.2)
movej(p[0.358791363607296, 0.160891474386258, 0.34729778684472, -1.337, 0.655, -0.721], a = 0.2, v = 0.2, t = 0.2)
movej(p[0.358785597101465, 0.160885781847364, 0.34736307896722, -1.337, 0.655, -0.721], a = 0.2, v = 0.2, t = 0.2)
movej(p[0.358780257695521, 0.16088051092995, 0.347423535187526, -1.337, 0.655, -0.721], a = 0.2, v = 0.2, t = 0.2)
movej(p[0.358796002895468, 0.160896054166306, 0.347245257812329, -1.337, 0.655, -0.721], a = 0.2, v = 0.2, t = 0.2)
movej(p[0.358805395061275, 0.160905325858854, 0.347138913613904, -1.337, 0.655, -0.721], a = 0.2, v = 0.2, t = 0.2)
movej(p[0.358825157086148, 0.160924834396344, 0.346915155139287, -1.337, 0.655, -0.721], a = 0.2, v = 0.2, t = 0.2)
movej(p[0.358844768797803, 0.160944194548683, 0.346693098608495, -1.337, 0.655, -0.721], a = 0.2, v = 0.2, t = 0.2)
movej(p[0.358886258751608, 0.160985152311081, 0.34622332241728, -1.337, 0.655, -0.721], a = 0.2, v = 0.2, t = 0.2)
movej(p[0.358920829038648, 0.161019279165242, 0.345831895185244, -1.337, 0.655, -0.721], a = 0.2, v = 0.2, t = 0.2)
movej(p[0.358946877486556, 0.161044993489853, 0.345536957748028, -1.337, 0.655, -0.721], a = 0.2, v = 0.2, t = 0.2)
movej(p[0.358969814494691, 0.161067636285112, 0.345277250051799, -1.337, 0.655, -0.721], a = 0.2, v = 0.2, t = 0.2)
movej(p[0.358997177635461, 0.161094648439028, 0.344967426808533, -1.337, 0.655, -0.721], a = 0.2, v = 0.2, t = 0.2)
movej(p[0.359034462325031, 0.161131454878092, 0.344545265348938, -1.337, 0.655, -0.721], a = 0.2, v = 0.2, t = 0.2)
movej(p[0.359045926446788, 0.161142771949624, 0.344415461120177, -1.337, 0.655, -0.721], a = 0.2, v = 0.2, t = 0.2)
movej(p[0.359042306659108, 0.16113919859294, 0.34445644670617, -1.337, 0.655, -0.721], a = 0.2, v = 0.2, t = 0.2)
movej(p[0.359012401778804, 0.161109677302369, 0.344795049174467, -1.337, 0.655, -0.721], a = 0.2, v = 0.2, t = 0.2)
movej(p[0.358968052806255, 0.161065897193845, 0.345297197031907, -1.337, 0.655, -0.721], a = 0.2, v = 0.2, t = 0.2)
movej(p[0.358910311495751, 0.161008896530809, 0.345950981633649, -1.337, 0.655, -0.721], a = 0.2, v = 0.2, t = 0.2)
movej(p[0.358858486303126, 0.160957736099641, 0.346537780108163, -1.337, 0.655, -0.721], a = 0.2, v = 0.2, t = 0.2)
movej(p[0.358834159226406, 0.160933721066199, 0.346813227063323, -1.337, 0.655, -0.721], a = 0.2, v = 0.2, t = 0.2)
movej(p[0.358824791601532, 0.160924473599797, 0.346919293393369, -1.337, 0.655, -0.721], a = 0.2, v = 0.2, t = 0.2)
movej(p[0.358823368227393, 0.160923068483271, 0.346935409759386, -1.337, 0.655, -0.721], a = 0.2, v = 0.2, t = 0.2)
movej(p[0.358815262707667, 0.160915066933001, 0.347027185715623, -1.337, 0.655, -0.721], a = 0.2, v = 0.2, t = 0.2)
movej(p[0.358808742532241, 0.160908630391828, 0.347101011374538, -1.337, 0.655, -0.721], a = 0.2, v = 0.2, t = 0.2)
movej(p[0.358808198512334, 0.160908093350062, 0.347107171121081, -1.337, 0.655, -0.721], a = 0.2, v = 0.2, t = 0.2)
movej(p[0.358825899449384, 0.160925567237291, 0.346906749620803, -1.337, 0.655, -0.721], a = 0.2, v = 0.2, t = 0.2)
movej(p[0.358840913241869, 0.160940388447943, 0.346736753715706, -1.337, 0.655, -0.721], a = 0.2, v = 0.2, t = 0.2)
movej(p[0.358871252847279, 0.160970338887404, 0.346393229007541, -1.337, 0.655, -0.721], a = 0.2, v = 0.2, t = 0.2)
movej(p[0.358904439200967, 0.161003099559917, 0.346017471567341, -1.337, 0.655, -0.721], a = 0.2, v = 0.2, t = 0.2)
movej(p[0.358952635841292, 0.161050677982205, 0.345471757917527, -1.337, 0.655, -0.721], a = 0.2, v = 0.2, t = 0.2)
movej(p[0.358978868346201, 0.16107657400292, 0.345174736467464, -1.337, 0.655, -0.721], a = 0.2, v = 0.2, t = 0.2)
movej(p[0.359006862539545, 0.161104209114901, 0.344857768037293, -1.337, 0.655, -0.721], a = 0.2, v = 0.2, t = 0.2)
movej(p[0.359027687274481, 0.161124766731078, 0.344621976869452, -1.337, 0.655, -0.721], a = 0.2, v = 0.2, t = 0.2)
movej(p[0.359060747417654, 0.161157402811979, 0.344247648466633, -1.337, 0.655, -0.721], a = 0.2, v = 0.2, t = 0.2)
movej(p[0.359079494937868, 0.161175909857855, 0.344035376872352, -1.337, 0.655, -0.721], a = 0.2, v = 0.2, t = 0.2)
movej(p[0.359070555026405, 0.161167084618587, 0.344136600353496, -1.337, 0.655, -0.721], a = 0.2, v = 0.2, t = 0.2)
movej(p[0.359033682273932, 0.161130684832705, 0.344554097593861, -1.337, 0.655, -0.721], a = 0.2, v = 0.2, t = 0.2)
movej(p[0.358980743974684, 0.161078425572727, 0.345153499384165, -1.337, 0.655, -0.721], a = 0.2, v = 0.2, t = 0.2)
movej(p[0.358934843664558, 0.161033114025623, 0.345673212492745, -1.337, 0.655, -0.721], a = 0.2, v = 0.2, t = 0.2)
movej(p[0.35888701776762, 0.160985901591199, 0.346214728345253, -1.337, 0.655, -0.721], a = 0.2, v = 0.2, t = 0.2)
movej(p[0.358853239802144, 0.160952556895499, 0.346597184398175, -1.337, 0.655, -0.721], a = 0.2, v = 0.2, t = 0.2)
movej(p[0.358827033591093, 0.16092668683137, 0.346893908132117, -1.337, 0.655, -0.721], a = 0.2, v = 0.2, t = 0.2)
movej(p[0.358816430154929, 0.160916219405423, 0.34701396711985, -1.337, 0.655, -0.721], a = 0.2, v = 0.2, t = 0.2)
movej(p[0.358801376746365, 0.160901359086847, 0.347184411583904, -1.337, 0.655, -0.721], a = 0.2, v = 0.2, t = 0.2)
movej(p[0.358792882252845, 0.160892973552148, 0.347280591753958, -1.337, 0.655, -0.721], a = 0.2, v = 0.2, t = 0.2)
movej(p[0.358783902900596, 0.160884109378001, 0.347382261809283, -1.337, 0.655, -0.721], a = 0.2, v = 0.2, t = 0.2)
movej(p[0.358790728785936, 0.160890847707748, 0.347304974704269, -1.337, 0.655, -0.721], a = 0.2, v = 0.2, t = 0.2)
movej(p[0.358802070728904, 0.160902044167676, 0.347176553863083, -1.337, 0.655, -0.721], a = 0.2, v = 0.2, t = 0.2)
movej(p[0.358822652158014, 0.16092236159891, 0.346943517561748, -1.337, 0.655, -0.721], a = 0.2, v = 0.2, t = 0.2)
movej(p[0.358858273322883, 0.160957525851294, 0.346540191608743, -1.337, 0.655, -0.721], a = 0.2, v = 0.2, t = 0.2)
movej(p[0.358910425435799, 0.161009009009349, 0.345949691530458, -1.337, 0.655, -0.721], a = 0.2, v = 0.2, t = 0.2)
movej(p[0.35897525732314, 0.161073009298431, 0.34521562281475, -1.337, 0.655, -0.721], a = 0.2, v = 0.2, t = 0.2)
movej(p[0.359014514052003, 0.161111762481451, 0.344771132646079, -1.337, 0.655, -0.721], a = 0.2, v = 0.2, t = 0.2)
movej(p[0.359049966936185, 0.161146760611685, 0.344369712076248, -1.337, 0.655, -0.721], a = 0.2, v = 0.2, t = 0.2)
movej(p[0.359076190676474, 0.161172647980204, 0.344072789864892, -1.337, 0.655, -0.721], a = 0.2, v = 0.2, t = 0.2)
movej(p[0.359115017939002, 0.161210977205652, 0.343633162392865, -1.337, 0.655, -0.721], a = 0.2, v = 0.2, t = 0.2)
movej(p[0.359116236221054, 0.161212179860807, 0.343619368212592, -1.337, 0.655, -0.721], a = 0.2, v = 0.2, t = 0.2)
movej(p[0.359091274585912, 0.16118753840842, 0.343902000050139, -1.337, 0.655, -0.721], a = 0.2, v = 0.2, t = 0.2)
movej(p[0.359033577098503, 0.161130581006361, 0.344555288458346, -1.337, 0.655, -0.721], a = 0.2, v = 0.2, t = 0.2)
movej(p[0.358973329106942, 0.161071105815452, 0.34523745533029, -1.337, 0.655, -0.721], a = 0.2, v = 0.2, t = 0.2)
movej(p[0.358912581532093, 0.161011137449407, 0.345925278808535, -1.337, 0.655, -0.721], a = 0.2, v = 0.2, t = 0.2)
movej(p[0.358859767690436, 0.160959001050603, 0.346523271409199, -1.337, 0.655, -0.721], a = 0.2, v = 0.2, t = 0.2)
movej(p[0.358819143680996, 0.160918898125107, 0.346983242816162, -1.337, 0.655, -0.721], a = 0.2, v = 0.2, t = 0.2)
movej(p[0.358790979454042, 0.160891095160535, 0.347302136477248, -1.337, 0.655, -0.721], a = 0.2, v = 0.2, t = 0.2)
movej(p[0.358784204403493, 0.160884407013521, 0.347378847997762, -1.337, 0.655, -0.721], a = 0.2, v = 0.2, t = 0.2)
movej(p[0.35877190676646, 0.160872267118211, 0.34751808982756, -1.337, 0.655, -0.721], a = 0.2, v = 0.2, t = 0.2)
movej(p[0.358772937485664, 0.160873284616385, 0.347506419355616, -1.337, 0.655, -0.721], a = 0.2, v = 0.2, t = 0.2)
movej(p[0.358776803559141, 0.160877101099759, 0.347462645161957, -1.337, 0.655, -0.721], a = 0.2, v = 0.2, t = 0.2)
movej(p[0.358805948021093, 0.16090587172586, 0.347132652643879, -1.337, 0.655, -0.721], a = 0.2, v = 0.2, t = 0.2)
movej(p[0.358824567227284, 0.160924252103596, 0.346921833904268, -1.337, 0.655, -0.721], a = 0.2, v = 0.2, t = 0.2)
movej(p[0.358857593188442, 0.160956854440934, 0.346547892532407, -1.337, 0.655, -0.721], a = 0.2, v = 0.2, t = 0.2)
movej(p[0.358889574407006, 0.160988425436586, 0.34618578041442, -1.337, 0.655, -0.721], a = 0.2, v = 0.2, t = 0.2)
movej(p[0.358938244336762, 0.161036471077423, 0.345634707874427, -1.337, 0.655, -0.721], a = 0.2, v = 0.2, t = 0.2)
movej(p[0.358970059904025, 0.161067878546582, 0.345274471368003, -1.337, 0.655, -0.721], a = 0.2, v = 0.2, t = 0.2)
movej(p[0.358994031137211, 0.161091542300894, 0.345003053504347, -1.337, 0.655, -0.721], a = 0.2, v = 0.2, t = 0.2)
movej(p[0.359010675148845, 0.161107972819883, 0.344814599199747, -1.337, 0.655, -0.721], a = 0.2, v = 0.2, t = 0.2)
movej(p[0.359044787046308, 0.161141647164227, 0.344428362152088, -1.337, 0.655, -0.721], a = 0.2, v = 0.2, t = 0.2)
movej(p[0.359066172716865, 0.161162758520907, 0.344186219706998, -1.337, 0.655, -0.721], a = 0.2, v = 0.2, t = 0.2)
movej(p[0.359049099238896, 0.161145904044344, 0.344379536708242, -1.337, 0.655, -0.721], a = 0.2, v = 0.2, t = 0.2)
movej(p[0.358993663023209, 0.161091178908688, 0.345007221530041, -1.337, 0.655, -0.721], a = 0.2, v = 0.2, t = 0.2)
movej(p[0.358925710931476, 0.161024098438057, 0.345776619225443, -1.337, 0.655, -0.721], a = 0.2, v = 0.2, t = 0.2)
movej(p[0.35887637489067, 0.160975395230372, 0.346335233907168, -1.337, 0.655, -0.721], a = 0.2, v = 0.2, t = 0.2)
movej(p[0.358829479796278, 0.160929101659095, 0.346866210608992, -1.337, 0.655, -0.721], a = 0.2, v = 0.2, t = 0.2)
movej(p[0.358801462113755, 0.16090144335923, 0.347183444998898, -1.337, 0.655, -0.721], a = 0.2, v = 0.2, t = 0.2)
movej(p[0.358783377899913, 0.160883591111499, 0.347388206207833, -1.337, 0.655, -0.721], a = 0.2, v = 0.2, t = 0.2)
movej(p[0.358785361333211, 0.160885549103309, 0.347365748488438, -1.337, 0.655, -0.721], a = 0.2, v = 0.2, t = 0.2)
movej(p[0.358782708283016, 0.160882930083773, 0.347395788045048, -1.337, 0.655, -0.721], a = 0.2, v = 0.2, t = 0.2)
movej(p[0.358790091598129, 0.160890218693145, 0.347312189358268, -1.337, 0.655, -0.721], a = 0.2, v = 0.2, t = 0.2)
movej(p[0.358818481952256, 0.160918244884357, 0.346990735338541, -1.337, 0.655, -0.721], a = 0.2, v = 0.2, t = 0.2)
movej(p[0.358874616708083, 0.160973659599983, 0.346355141191793, -1.337, 0.655, -0.721], a = 0.2, v = 0.2, t = 0.2)
movej(p[0.358943739752925, 0.161041896003914, 0.345572485205136, -1.337, 0.655, -0.721], a = 0.2, v = 0.2, t = 0.2)
movej(p[0.358987983550045, 0.161085572286095, 0.34507152821218, -1.337, 0.655, -0.721], a = 0.2, v = 0.2, t = 0.2)
movej(p[0.359023927252896, 0.161121054939269, 0.344664550274757, -1.337, 0.655, -0.721], a = 0.2, v = 0.2, t = 0.2)
movej(p[0.359052307089479, 0.161149070747846, 0.344343215341478, -1.337, 0.655, -0.721], a = 0.2, v = 0.2, t = 0.2)
movej(p[0.359086199871465, 0.161182528787306, 0.343959459261494, -1.337, 0.655, -0.721], a = 0.2, v = 0.2, t = 0.2)
movej(p[0.35909606883255, 0.161192271159282, 0.343847716477408, -1.337, 0.655, -0.721], a = 0.2, v = 0.2, t = 0.2)
movej(p[0.359098014577986, 0.161194191946652, 0.343825685484453, -1.337, 0.655, -0.721], a = 0.2, v = 0.2, t = 0.2)
movej(p[0.359086305046894, 0.16118263261365, 0.34395826839701, -1.337, 0.655, -0.721], a = 0.2, v = 0.2, t = 0.2)
movej(p[0.359083219900977, 0.161179587040883, 0.343993200421875, -1.337, 0.655, -0.721], a = 0.2, v = 0.2, t = 0.2)
movej(p[0.359059502841744, 0.161156174200237, 0.344261740363028, -1.337, 0.655, -0.721], a = 0.2, v = 0.2, t = 0.2)
movej(p[0.359010850441227, 0.161108145863791, 0.344812614425607, -1.337, 0.655, -0.721], a = 0.2, v = 0.2, t = 0.2)
movej(p[0.358945334913598, 0.16104347070347, 0.345554423760461, -1.337, 0.655, -0.721], a = 0.2, v = 0.2, t = 0.2)
movej(p[0.358891748032538, 0.160990571181035, 0.346161169215083, -1.337, 0.655, -0.721], a = 0.2, v = 0.2, t = 0.2)
movej(p[0.35885945742292, 0.160958694762887, 0.346526784459427, -1.337, 0.655, -0.721], a = 0.2, v = 0.2, t = 0.2)
movej(p[0.358830698954792, 0.16093030517947, 0.346852406504848, -1.337, 0.655, -0.721], a = 0.2, v = 0.2, t = 0.2)
movej(p[0.358811849764997, 0.160911697768128, 0.347065829268131, -1.337, 0.655, -0.721], a = 0.2, v = 0.2, t = 0.2)
movej(p[0.358796916869946, 0.160896956417238, 0.347234909199963, -1.337, 0.655, -0.721], a = 0.2, v = 0.2, t = 0.2)
movej(p[0.358798810553545, 0.160898825810568, 0.347213467684928, -1.337, 0.655, -0.721], a = 0.2, v = 0.2, t = 0.2)
movej(p[0.35880149857457, 0.160901479352363, 0.347183032165876, -1.337, 0.655, -0.721], a = 0.2, v = 0.2, t = 0.2)
movej(p[0.358818354865279, 0.160918119427524, 0.346992174299792, -1.337, 0.655, -0.721], a = 0.2, v = 0.2, t = 0.2)
movej(p[0.358836416992281, 0.160935949871723, 0.346787663172399, -1.337, 0.655, -0.721], a = 0.2, v = 0.2, t = 0.2)
movej(p[0.358866422665704, 0.16096557066254, 0.346447919458971, -1.337, 0.655, -0.721], a = 0.2, v = 0.2, t = 0.2)
movej(p[0.358886836340005, 0.160985722490755, 0.346216782586488, -1.337, 0.655, -0.721], a = 0.2, v = 0.2, t = 0.2)
movej(p[0.35890383444225, 0.161002502558437, 0.346024319038125, -1.337, 0.655, -0.721], a = 0.2, v = 0.2, t = 0.2)
movej(p[0.358921433797365, 0.161019876166721, 0.345825047714461, -1.337, 0.655, -0.721], a = 0.2, v = 0.2, t = 0.2)
movej(p[0.358953082836865, 0.161051119244169, 0.34546669674347, -1.337, 0.655, -0.721], a = 0.2, v = 0.2, t = 0.2)
movej(p[0.359001840412812, 0.16109925140696, 0.344914631816407, -1.337, 0.655, -0.721], a = 0.2, v = 0.2, t = 0.2)
movej(p[0.359025250710377, 0.161122361420768, 0.344649565229999, -1.337, 0.655, -0.721], a = 0.2, v = 0.2, t = 0.2)
movej(p[0.35903199070245, 0.161129014959, 0.344573250664313, -1.337, 0.655, -0.721], a = 0.2, v = 0.2, t = 0.2)
movej(p[0.359002348760719, 0.161099753234291, 0.344908875971401, -1.337, 0.655, -0.721], a = 0.2, v = 0.2, t = 0.2)
movej(p[0.358971795298603, 0.161069591681264, 0.345254822104016, -1.337, 0.655, -0.721], a = 0.2, v = 0.2, t = 0.2)
movej(p[0.358928094907866, 0.161026451835196, 0.345749626297138, -1.337, 0.655, -0.721], a = 0.2, v = 0.2, t = 0.2)
movej(p[0.358888548946573, 0.160987413129728, 0.346197391343139, -1.337, 0.655, -0.721], a = 0.2, v = 0.2, t = 0.2)
movej(p[0.358857857003476, 0.160957114872015, 0.346544905447326, -1.337, 0.655, -0.721], a = 0.2, v = 0.2, t = 0.2)
movej(p[0.358843810824937, 0.16094324886373, 0.34670394539917, -1.337, 0.655, -0.721], a = 0.2, v = 0.2, t = 0.2)
movej(p[0.358847438500775, 0.160946830007389, 0.346662870498341, -1.337, 0.655, -0.721], a = 0.2, v = 0.2, t = 0.2)
movej(p[0.358834798167137, 0.16093435181124, 0.346805992561582, -1.337, 0.655, -0.721], a = 0.2, v = 0.2, t = 0.2)
movej(p[0.358819403113721, 0.160919154230089, 0.346980305350435, -1.337, 0.655, -0.721], a = 0.2, v = 0.2, t = 0.2)
movej(p[0.358798763750479, 0.160898779607844, 0.347213997619623, -1.337, 0.655, -0.721], a = 0.2, v = 0.2, t = 0.2)
movej(p[0.358791474216789, 0.160891583576963, 0.347296534452238, -1.337, 0.655, -0.721], a = 0.2, v = 0.2, t = 0.2)
movej(p[0.358782670595153, 0.160882892879333, 0.347396214771488, -1.337, 0.655, -0.721], a = 0.2, v = 0.2, t = 0.2)
movej(p[0.358789538550665, 0.160889672739618, 0.34731845132068, -1.337, 0.655, -0.721], a = 0.2, v = 0.2, t = 0.2)
movej(p[0.358814575561531, 0.160914388600885, 0.347034966030252, -1.337, 0.655, -0.721], a = 0.2, v = 0.2, t = 0.2)
movej(p[0.358853465052855, 0.160952779256919, 0.346594633963405, -1.337, 0.655, -0.721], a = 0.2, v = 0.2, t = 0.2)
movej(p[0.35889010904877, 0.160988953220503, 0.346179726853293, -1.337, 0.655, -0.721], a = 0.2, v = 0.2, t = 0.2)
movej(p[0.358909417504605, 0.161008014006882, 0.345961103981763, -1.337, 0.655, -0.721], a = 0.2, v = 0.2, t = 0.2)
movej(p[0.358935816537276, 0.161034074419308, 0.345662196996267, -1.337, 0.655, -0.721], a = 0.2, v = 0.2, t = 0.2)
movej(p[0.358987098323518, 0.161084698414363, 0.345081551321587, -1.337, 0.655, -0.721], a = 0.2, v = 0.2, t = 0.2)
movej(p[0.359069994090784, 0.161166530878084, 0.344142951630744, -1.337, 0.655, -0.721], a = 0.2, v = 0.2, t = 0.2)
movej(p[0.359111555914465, 0.161207559588484, 0.343672361682132, -1.337, 0.655, -0.721], a = 0.2, v = 0.2, t = 0.2)
movej(p[0.359108865176408, 0.161204903364508, 0.343702827965182, -1.337, 0.655, -0.721], a = 0.2, v = 0.2, t = 0.2)
movej(p[0.359052736555814, 0.161149494705419, 0.344338352644835, -1.337, 0.655, -0.721], a = 0.2, v = 0.2, t = 0.2)
movej(p[0.358995687650217, 0.161093177565817, 0.344984297388723, -1.337, 0.655, -0.721], a = 0.2, v = 0.2, t = 0.2)
movej(p[0.358940190082197, 0.161038391864793, 0.345612676881472, -1.337, 0.655, -0.721], a = 0.2, v = 0.2, t = 0.2)
movej(p[0.358891599034014, 0.160990424093714, 0.346162856273102, -1.337, 0.655, -0.721], a = 0.2, v = 0.2, t = 0.2)
movej(p[0.35885372010327, 0.160953031035804, 0.346591746117032, -1.337, 0.655, -0.721], a = 0.2, v = 0.2, t = 0.2)
movej(p[0.358826264057538, 0.160925927168618, 0.346902621290592, -1.337, 0.655, -0.721], a = 0.2, v = 0.2, t = 0.2)
movej(p[0.358811448345443, 0.16091130149758, 0.347070374400911, -1.337, 0.655, -0.721], a = 0.2, v = 0.2, t = 0.2)
movej(p[0.358790055663191, 0.160890183219144, 0.347312596236967, -1.337, 0.655, -0.721], a = 0.2, v = 0.2, t = 0.2)
movej(p[0.358779714289137, 0.160879974493838, 0.347429687987361, -1.337, 0.655, -0.721], a = 0.2, v = 0.2, t = 0.2)
movej(p[0.358772454555153, 0.160872807880421, 0.347511887408372, -1.337, 0.655, -0.721], a = 0.2, v = 0.2, t = 0.2)
movej(p[0.358780042085891, 0.160880298085944, 0.347425976459719, -1.337, 0.655, -0.721], a = 0.2, v = 0.2, t = 0.2)
movej(p[0.358778872885706, 0.160879143883083, 0.347439214903233, -1.337, 0.655, -0.721], a = 0.2, v = 0.2, t = 0.2)
movej(p[0.35879216355408, 0.160892264072128, 0.347288729327932, -1.337, 0.655, -0.721], a = 0.2, v = 0.2, t = 0.2)
movej(p[0.358819560876865, 0.160919309969606, 0.346978519053709, -1.337, 0.655, -0.721], a = 0.2, v = 0.2, t = 0.2)
movej(p[0.3588665217059, 0.160965668432348, 0.346446798061582, -1.337, 0.655, -0.721], a = 0.2, v = 0.2, t = 0.2)
movej(p[0.358903948382298, 0.161002615036977, 0.346023028934934, -1.337, 0.655, -0.721], a = 0.2, v = 0.2, t = 0.2)
movej(p[0.358934142495032, 0.161032421849994, 0.345681151589305, -1.337, 0.655, -0.721], a = 0.2, v = 0.2, t = 0.2)
movej(p[0.358956676330688, 0.161054666644267, 0.345426008873598, -1.337, 0.655, -0.721], a = 0.2, v = 0.2, t = 0.2)
movej(p[0.35898850942719, 0.161086091417816, 0.34506557388976, -1.337, 0.655, -0.721], a = 0.2, v = 0.2, t = 0.2)
movej(p[0.359013532414666, 0.161110793435571, 0.344782247381264, -1.337, 0.655, -0.721], a = 0.2, v = 0.2, t = 0.2)
movej(p[0.359014400111955, 0.161111650002912, 0.34477242274927, -1.337, 0.655, -0.721], a = 0.2, v = 0.2, t = 0.2)
movej(p[0.359010315799463, 0.161107618079874, 0.344818667986734, -1.337, 0.655, -0.721], a = 0.2, v = 0.2, t = 0.2)
movej(p[0.358989806590814, 0.16108737194273, 0.345050886561123, -1.337, 0.655, -0.721], a = 0.2, v = 0.2, t = 0.2)
movej(p[0.358967167579728, 0.161065023322113, 0.345307220141314, -1.337, 0.655, -0.721], a = 0.2, v = 0.2, t = 0.2)
movej(p[0.358918918351688, 0.161017392986653, 0.345853529223371, -1.337, 0.655, -0.721], a = 0.2, v = 0.2, t = 0.2)
movej(p[0.358877355651545, 0.160976363411033, 0.346324129095854, -1.337, 0.655, -0.721], a = 0.2, v = 0.2, t = 0.2)
movej(p[0.358844533906012, 0.160943962669847, 0.346695758205842, -1.337, 0.655, -0.721], a = 0.2, v = 0.2, t = 0.2)
movej(p[0.358830727001573, 0.160930332866495, 0.346852088940986, -1.337, 0.655, -0.721], a = 0.2, v = 0.2, t = 0.2)
movej(p[0.358819084958048, 0.160918840155398, 0.346983907715499, -1.337, 0.655, -0.721], a = 0.2, v = 0.2, t = 0.2)
movej(p[0.358805198558515, 0.160905131876634, 0.347141138545715, -1.337, 0.655, -0.721], a = 0.2, v = 0.2, t = 0.2)
movej(p[0.358790054786729, 0.160890182353924, 0.347312606160837, -1.337, 0.655, -0.721], a = 0.2, v = 0.2, t = 0.2)
movej(p[0.358776417039439, 0.160876719537943, 0.347467021588935, -1.337, 0.655, -0.721], a = 0.2, v = 0.2, t = 0.2)
movej(p[0.358789447398627, 0.160889582756786, 0.347319483403233, -1.337, 0.655, -0.721], a = 0.2, v = 0.2, t = 0.2)
movej(p[0.358790294937292, 0.160890419424077, 0.347309887020265, -1.337, 0.655, -0.721], a = 0.2, v = 0.2, t = 0.2)
movej(p[0.358808431826494, 0.160908323671503, 0.347104529386701, -1.337, 0.655, -0.721], a = 0.2, v = 0.2, t = 0.2)
movej(p[0.358815309160148, 0.160915112789636, 0.347026659750476, -1.337, 0.655, -0.721], a = 0.2, v = 0.2, t = 0.2)
movej(p[0.358840043791656, 0.160939530150164, 0.346746598195441, -1.337, 0.655, -0.721], a = 0.2, v = 0.2, t = 0.2)
movej(p[0.358873766540032, 0.160972820337033, 0.346364767346372, -1.337, 0.655, -0.721], a = 0.2, v = 0.2, t = 0.2)
movej(p[0.358898058558276, 0.160996800761695, 0.34608971734604, -1.337, 0.655, -0.721], a = 0.2, v = 0.2, t = 0.2)
movej(p[0.358906428769498, 0.161005063608264, 0.345994944380851, -1.337, 0.655, -0.721], a = 0.2, v = 0.2, t = 0.2)
movej(p[0.358933984731888, 0.161032266110478, 0.345682937886031, -1.337, 0.655, -0.721], a = 0.2, v = 0.2, t = 0.2)
movej(p[0.358969034443592, 0.161066866239725, 0.345286082296722, -1.337, 0.655, -0.721], a = 0.2, v = 0.2, t = 0.2)
movej(p[0.359021043693218, 0.161118208366995, 0.344697199809361, -1.337, 0.655, -0.721], a = 0.2, v = 0.2, t = 0.2)
movej(p[0.359059169786219, 0.161155845416814, 0.344265511433894, -1.337, 0.655, -0.721], a = 0.2, v = 0.2, t = 0.2)
movej(p[0.35908519194027, 0.161181533784839, 0.343970871712799, -1.337, 0.655, -0.721], a = 0.2, v = 0.2, t = 0.2)
movej(p[0.359091195704341, 0.161187460538661, 0.343902893198502, -1.337, 0.655, -0.721], a = 0.2, v = 0.2, t = 0.2)
movej(p[0.359047618018271, 0.161144441823328, 0.344396308049725, -1.337, 0.655, -0.721], a = 0.2, v = 0.2, t = 0.2)
movej(p[0.358977211833195, 0.161074938737996, 0.345193492583088, -1.337, 0.655, -0.721], a = 0.2, v = 0.2, t = 0.2)
movej(p[0.358901599464385, 0.16100029624862, 0.346049624908411, -1.337, 0.655, -0.721], a = 0.2, v = 0.2, t = 0.2)
movej(p[0.358848698852999, 0.160948074193082, 0.346648599972274, -1.337, 0.655, -0.721], a = 0.2, v = 0.2, t = 0.2)
movej(p[0.358802567770452, 0.160902534833675, 0.347170926036009, -1.337, 0.655, -0.721], a = 0.2, v = 0.2, t = 0.2)
movej(p[0.358778073552446, 0.160878354802866, 0.347448265473312, -1.337, 0.655, -0.721], a = 0.2, v = 0.2, t = 0.2)
movej(p[0.358764320988646, 0.160864778643126, 0.347603980928472, -1.337, 0.655, -0.721], a = 0.2, v = 0.2, t = 0.2)
movej(p[0.35876679874646, 0.160867224618754, 0.347575926146002, -1.337, 0.655, -0.721], a = 0.2, v = 0.2, t = 0.2)
movej(p[0.35877202158297, 0.16087238046197, 0.347516789800498, -1.337, 0.655, -0.721], a = 0.2, v = 0.2, t = 0.2)
movej(p[0.358785823228637, 0.160886005074004, 0.347360518608579, -1.337, 0.655, -0.721], a = 0.2, v = 0.2, t = 0.2)
movej(p[0.358822698610495, 0.160922407455545, 0.346942991596601, -1.337, 0.655, -0.721], a = 0.2, v = 0.2, t = 0.2)
movej(p[0.358877231193954, 0.160976240549859, 0.346325538285494, -1.337, 0.655, -0.721], a = 0.2, v = 0.2, t = 0.2)
movej(p[0.358936307355945, 0.161034558942248, 0.345656639628675, -1.337, 0.655, -0.721], a = 0.2, v = 0.2, t = 0.2)
movej(p[0.358972426351177, 0.16107021463933, 0.345247676917112, -1.337, 0.655, -0.721], a = 0.2, v = 0.2, t = 0.2)
movej(p[0.359007318299737, 0.16110465902906, 0.344852607624529, -1.337, 0.655, -0.721], a = 0.2, v = 0.2, t = 0.2)
movej(p[0.359037854232615, 0.161134803277697, 0.344506859969328, -1.337, 0.655, -0.721], a = 0.2, v = 0.2, t = 0.2)
movej(p[0.359079249528534, 0.161175667596385, 0.344038155556148, -1.337, 0.655, -0.721], a = 0.2, v = 0.2, t = 0.2)
movej(p[0.359094613905782, 0.161190834894852, 0.34386419010277, -1.337, 0.655, -0.721], a = 0.2, v = 0.2, t = 0.2)
movej(p[0.359100416083614, 0.161196562648181, 0.343798494078734, -1.337, 0.655, -0.721], a = 0.2, v = 0.2, t = 0.2)
movej(p[0.359088566318616, 0.161184864880053, 0.343932664810603, -1.337, 0.655, -0.721], a = 0.2, v = 0.2, t = 0.2)
movej(p[0.359063183981758, 0.161159808122289, 0.344220060106086, -1.337, 0.655, -0.721], a = 0.2, v = 0.2, t = 0.2)
movej(p[0.359018282838207, 0.161115482925456, 0.344728460002067, -1.337, 0.655, -0.721], a = 0.2, v = 0.2, t = 0.2)
movej(p[0.358956904210785, 0.161054891601346, 0.345423428667216, -1.337, 0.655, -0.721], a = 0.2, v = 0.2, t = 0.2)
movej(p[0.358914474689814, 0.161013006323605, 0.345903843247822, -1.337, 0.655, -0.721], a = 0.2, v = 0.2, t = 0.2)
movej(p[0.35888638408566, 0.160985276037474, 0.346221903303769, -1.337, 0.655, -0.721], a = 0.2, v = 0.2, t = 0.2)
movej(p[0.358875622886353, 0.160974652872011, 0.346343748588229, -1.337, 0.655, -0.721], a = 0.2, v = 0.2, t = 0.2)
movej(p[0.358849369346358, 0.160948736086027, 0.346641008211188, -1.337, 0.655, -0.721], a = 0.2, v = 0.2, t = 0.2)
movej(p[0.358836896416945, 0.16093642314681, 0.346782234815126, -1.337, 0.655, -0.721], a = 0.2, v = 0.2, t = 0.2)
movej(p[0.358816657158563, 0.160916443497283, 0.347011396837339, -1.337, 0.655, -0.721], a = 0.2, v = 0.2, t = 0.2)
movej(p[0.358802146630505, 0.160902119095688, 0.347175694455881, -1.337, 0.655, -0.721], a = 0.2, v = 0.2, t = 0.2)
movej(p[0.358766924080513, 0.160867348345148, 0.347574507032491, -1.337, 0.655, -0.721], a = 0.2, v = 0.2, t = 0.2)
movej(p[0.358738367198624, 0.160839157762224, 0.347897846587652, -1.337, 0.655, -0.721], a = 0.2, v = 0.2, t = 0.2)
movej(p[0.358699049117427, 0.160800344013836, 0.348343031427271, -1.337, 0.655, -0.721], a = 0.2, v = 0.2, t = 0.2)
movej(p[0.358672851670995, 0.160774482601903, 0.348639655922506, -1.337, 0.655, -0.721], a = 0.2, v = 0.2, t = 0.2)
movej(p[0.3586592577468, 0.160761063046899, 0.348793575157069, -1.337, 0.655, -0.721], a = 0.2, v = 0.2, t = 0.2)
movej(p[0.358666549909876, 0.160768261673439, 0.348711008552842, -1.337, 0.655, -0.721], a = 0.2, v = 0.2, t = 0.2)
movej(p[0.358707524504078, 0.16080871068675, 0.348247067597598, -1.337, 0.655, -0.721], a = 0.2, v = 0.2, t = 0.2)
movej(p[0.358752941883693, 0.160853545497889, 0.347732822541775, -1.337, 0.655, -0.721], a = 0.2, v = 0.2, t = 0.2)
movej(p[0.358807854676328, 0.160907753924438, 0.347111064255557, -1.337, 0.655, -0.721], a = 0.2, v = 0.2, t = 0.2)
movej(p[0.358832189816498, 0.160931776917901, 0.346835526000787, -1.337, 0.655, -0.721], a = 0.2, v = 0.2, t = 0.2)
movej(p[0.358855950698826, 0.160955233019524, 0.346566489866099, -1.337, 0.655, -0.721], a = 0.2, v = 0.2, t = 0.2)
movej(p[0.358862918570995, 0.160962111514835, 0.346487595094031, -1.337, 0.655, -0.721], a = 0.2, v = 0.2, t = 0.2)
movej(p[0.35886403693639, 0.160963215534963, 0.346474932235017, -1.337, 0.655, -0.721], a = 0.2, v = 0.2, t = 0.2)
movej(p[0.358825458589044, 0.160925132031864, 0.346911741327766, -1.337, 0.655, -0.721], a = 0.2, v = 0.2, t = 0.2)
movej(p[0.358698041186233, 0.16079934901137, 0.348354443878577, -1.337, 0.655, -0.721], a = 0.2, v = 0.2, t = 0.2)
movej(p[0.358499049274622, 0.160602909567902, 0.350607559482394, -1.337, 0.655, -0.721], a = 0.2, v = 0.2, t = 0.2)
movej(p[0.358308576572758, 0.160414880058325, 0.352764215063003, -1.337, 0.655, -0.721], a = 0.2, v = 0.2, t = 0.2)
movej(p[0.358189482928688, 0.160297314027765, 0.354112670613772, -1.337, 0.655, -0.721], a = 0.2, v = 0.2, t = 0.2)
movej(p[0.358150699489256, 0.160259028063294, 0.354551801892264, -1.337, 0.655, -0.721], a = 0.2, v = 0.2, t = 0.2)
movej(p[0.358179990846224, 0.160287943700189, 0.354220146133457, -1.337, 0.655, -0.721], a = 0.2, v = 0.2, t = 0.2)
movej(p[0.358249301453915, 0.160356365261101, 0.35343536643847, -1.337, 0.655, -0.721], a = 0.2, v = 0.2, t = 0.2)
movej(p[0.358368473979557, 0.16047400916142, 0.352086017739338, -1.337, 0.655, -0.721], a = 0.2, v = 0.2, t = 0.2)
movej(p[0.358487979560723, 0.160591981845162, 0.35073289796934, -1.337, 0.655, -0.721], a = 0.2, v = 0.2, t = 0.2)
movej(p[0.358606450916839, 0.160708933569851, 0.349391488366768, -1.337, 0.655, -0.721], a = 0.2, v = 0.2, t = 0.2)
movej(p[0.358725735629605, 0.16082668821827, 0.348040869412186, -1.337, 0.655, -0.721], a = 0.2, v = 0.2, t = 0.2)
movej(p[0.358880722141734, 0.160979686719271, 0.346286011508494, -1.337, 0.655, -0.721], a = 0.2, v = 0.2, t = 0.2)
movej(p[0.359029685607632, 0.161126739431621, 0.344599350444255, -1.337, 0.655, -0.721], a = 0.2, v = 0.2, t = 0.2)
movej(p[0.35914612357212, 0.161241683846986, 0.343280964221708, -1.337, 0.655, -0.721], a = 0.2, v = 0.2, t = 0.2)
movej(p[0.359212182506132, 0.161306895443419, 0.34253300208702, -1.337, 0.655, -0.721], a = 0.2, v = 0.2, t = 0.2)
movej(p[0.35925997597398, 0.161354075864721, 0.341991853417727, -1.337, 0.655, -0.721], a = 0.2, v = 0.2, t = 0.2)
movej(p[0.359310065772027, 0.161403523161207, 0.3414247042072, -1.337, 0.655, -0.721], a = 0.2, v = 0.2, t = 0.2)
movej(p[0.359325281150751, 0.161418543372353, 0.341252425811841, -1.337, 0.655, -0.721], a = 0.2, v = 0.2, t = 0.2)
movej(p[0.359333090426352, 0.161426252478419, 0.341164004123901, -1.337, 0.655, -0.721], a = 0.2, v = 0.2, t = 0.2)
movej(p[0.359332985250923, 0.161426148652075, 0.341165194988385, -1.337, 0.655, -0.721], a = 0.2, v = 0.2, t = 0.2)
movej(p[0.359348963151507, 0.161441921604217, 0.340984282825516, -1.337, 0.655, -0.721], a = 0.2, v = 0.2, t = 0.2)
movej(p[0.359345317069969, 0.161438322290947, 0.34102556612763, -1.337, 0.655, -0.721], a = 0.2, v = 0.2, t = 0.2)
movej(p[0.359317577050579, 0.161410938092631, 0.341339656635297, -1.337, 0.655, -0.721], a = 0.2, v = 0.2, t = 0.2)
movej(p[0.359271203451022, 0.161365159326978, 0.341864728634055, -1.337, 0.655, -0.721], a = 0.2, v = 0.2, t = 0.2)
movej(p[0.359230474266154, 0.161324952575137, 0.342325890905502, -1.337, 0.655, -0.721], a = 0.2, v = 0.2, t = 0.2)
movej(p[0.359202865716049, 0.161297698159751, 0.342638492832565, -1.337, 0.655, -0.721], a = 0.2, v = 0.2, t = 0.2)
movej(p[0.359175309753659, 0.161270495657537, 0.342950499327385, -1.337, 0.655, -0.721], a = 0.2, v = 0.2, t = 0.2)
movej(p[0.359156597291922, 0.161252023220442, 0.343162373966839, -1.337, 0.655, -0.721], a = 0.2, v = 0.2, t = 0.2)
movej(p[0.359142573901392, 0.161238179707865, 0.343321155898045, -1.337, 0.655, -0.721], a = 0.2, v = 0.2, t = 0.2)
movej(p[0.359139050524522, 0.16123470152533, 0.34336104985826, -1.337, 0.655, -0.721], a = 0.2, v = 0.2, t = 0.2)
movej(p[0.359133423639072, 0.161229146815909, 0.343424761108157, -1.337, 0.655, -0.721], a = 0.2, v = 0.2, t = 0.2)
movej(p[0.359125298837184, 0.16122112623081, 0.34351675538955, -1.337, 0.655, -0.721], a = 0.2, v = 0.2, t = 0.2)
movej(p[0.359121573874075, 0.161217449047781, 0.343558931840026, -1.337, 0.655, -0.721], a = 0.2, v = 0.2, t = 0.2)
movej(p[0.35912286227308, 0.161218720920499, 0.343544343750097, -1.337, 0.655, -0.721], a = 0.2, v = 0.2, t = 0.2)
movej(p[0.35910721742802, 0.161203276751781, 0.343721484842099, -1.337, 0.655, -0.721], a = 0.2, v = 0.2, t = 0.2)
movej(p[0.359059012023076, 0.161155689677297, 0.34426729773062, -1.337, 0.655, -0.721], a = 0.2, v = 0.2, t = 0.2)
movej(p[0.359026319993905, 0.161123416988602, 0.344637458107745, -1.337, 0.655, -0.721], a = 0.2, v = 0.2, t = 0.2)
movej(p[0.359023366317274, 0.161120501198766, 0.344670901552005, -1.337, 0.655, -0.721], a = 0.2, v = 0.2, t = 0.2)
movej(p[0.359078408125102, 0.16117483698563, 0.34404768247202, -1.337, 0.655, -0.721], a = 0.2, v = 0.2, t = 0.2)
movej(p[0.359130312199298, 0.161226075286556, 0.343459990849143, -1.337, 0.655, -0.721], a = 0.2, v = 0.2, t = 0.2)
movej(p[0.359187957098993, 0.161282980775443, 0.342807297873178, -1.337, 0.655, -0.721], a = 0.2, v = 0.2, t = 0.2)
movej(p[0.359225715077993, 0.161320254433056, 0.342379777523406, -1.337, 0.655, -0.721], a = 0.2, v = 0.2, t = 0.2)
movej(p[0.359257127472778, 0.161351263901229, 0.342024105997504, -1.337, 0.655, -0.721], a = 0.2, v = 0.2, t = 0.2)
movej(p[0.35927113333407, 0.161365090109415, 0.341865522543711, -1.337, 0.655, -0.721], a = 0.2, v = 0.2, t = 0.2)
movej(p[0.359265348685476, 0.161359379660477, 0.341931020090334, -1.337, 0.655, -0.721], a = 0.2, v = 0.2, t = 0.2)
movej(p[0.359233427942784, 0.161327868364974, 0.342292447461242, -1.337, 0.655, -0.721], a = 0.2, v = 0.2, t = 0.2)
movej(p[0.359185362771745, 0.161280419725616, 0.342836672530452, -1.337, 0.655, -0.721], a = 0.2, v = 0.2, t = 0.2)
movej(p[0.359132845174213, 0.161228575771015, 0.343431310862819, -1.337, 0.655, -0.721], a = 0.2, v = 0.2, t = 0.2)
movej(p[0.3590692666274, 0.161165812745869, 0.344151188443426, -1.337, 0.655, -0.721], a = 0.2, v = 0.2, t = 0.2)
movej(p[0.359023708137418, 0.161120838634385, 0.344667031242432, -1.337, 0.655, -0.721], a = 0.2, v = 0.2, t = 0.2)
movej(p[0.35898946477067, 0.161087034507111, 0.345054756870696, -1.337, 0.655, -0.721], a = 0.2, v = 0.2, t = 0.2)
movej(p[0.358977869179626, 0.161075587652649, 0.345186049680062, -1.337, 0.655, -0.721], a = 0.2, v = 0.2, t = 0.2)
movej(p[0.358961163815658, 0.161059096568291, 0.345375198655612, -1.337, 0.655, -0.721], a = 0.2, v = 0.2, t = 0.2)
movej(p[0.358948236002514, 0.161046334580134, 0.345521575748443, -1.337, 0.655, -0.721], a = 0.2, v = 0.2, t = 0.2)
movej(p[0.358935939241943, 0.161034195550043, 0.345660807654369, -1.337, 0.655, -0.721], a = 0.2, v = 0.2, t = 0.2)
movej(p[0.358955414225541, 0.161053420728135, 0.345440299247406, -1.337, 0.655, -0.721], a = 0.2, v = 0.2, t = 0.2)
movej(p[0.35898240925231, 0.161080069489845, 0.345134644029834, -1.337, 0.655, -0.721], a = 0.2, v = 0.2, t = 0.2)
movej(p[0.359016056624961, 0.161113285267835, 0.344753666633646, -1.337, 0.655, -0.721], a = 0.2, v = 0.2, t = 0.2)
movej(p[0.359047048318031, 0.16114387943063, 0.34440275856568, -1.337, 0.655, -0.721], a = 0.2, v = 0.2, t = 0.2)
movej(p[0.359085507466557, 0.161181845263872, 0.343967299119347, -1.337, 0.655, -0.721], a = 0.2, v = 0.2, t = 0.2)
movej(p[0.359119058428399, 0.161214965867713, 0.343587413348936, -1.337, 0.655, -0.721], a = 0.2, v = 0.2, t = 0.2)
movej(p[0.359129707440582, 0.161225478285076, 0.343466838319927, -1.337, 0.655, -0.721], a = 0.2, v = 0.2, t = 0.2)
movej(p[0.359141136503863, 0.161236760747826, 0.343337431045993, -1.337, 0.655, -0.721], a = 0.2, v = 0.2, t = 0.2)
movej(p[0.359155422832965, 0.161250863826264, 0.343175671953577, -1.337, 0.655, -0.721], a = 0.2, v = 0.2, t = 0.2)
movej(p[0.359188965030187, 0.161283975777909, 0.342795885421873, -1.337, 0.655, -0.721], a = 0.2, v = 0.2, t = 0.2)
movej(p[0.359176677034236, 0.161271845400014, 0.342935018089092, -1.337, 0.655, -0.721], a = 0.2, v = 0.2, t = 0.2)
movej(p[0.359147061386362, 0.16124260963189, 0.343270345680059, -1.337, 0.655, -0.721], a = 0.2, v = 0.2, t = 0.2)
movej(p[0.359088224498472, 0.161184527444434, 0.343936535120176, -1.337, 0.655, -0.721], a = 0.2, v = 0.2, t = 0.2)
movej(p[0.359050729458045, 0.161147513352681, 0.344361078308739, -1.337, 0.655, -0.721], a = 0.2, v = 0.2, t = 0.2)
movej(p[0.35901692432225, 0.161114141835175, 0.344743842001653, -1.337, 0.655, -0.721], a = 0.2, v = 0.2, t = 0.2)
movej(p[0.358989605004575, 0.161087172942236, 0.345053169051384, -1.337, 0.655, -0.721], a = 0.2, v = 0.2, t = 0.2)
movej(p[0.358972172177223, 0.161069963725664, 0.345250554839615, -1.337, 0.655, -0.721], a = 0.2, v = 0.2, t = 0.2)
movej(p[0.358956746447641, 0.161054735861829, 0.345425214963942, -1.337, 0.655, -0.721], a = 0.2, v = 0.2, t = 0.2)
movej(p[0.358951575322383, 0.161049631066567, 0.345483765801074, -1.337, 0.655, -0.721], a = 0.2, v = 0.2, t = 0.2)
movej(p[0.358945711792218, 0.16104384274787, 0.34555015649606, -1.337, 0.655, -0.721], a = 0.2, v = 0.2, t = 0.2)
movej(p[0.358967746044588, 0.161065594367007, 0.345300670386652, -1.337, 0.655, -0.721], a = 0.2, v = 0.2, t = 0.2)
movej(p[0.359002182232956, 0.161099588842579, 0.344910761506834, -1.337, 0.655, -0.721], a = 0.2, v = 0.2, t = 0.2)
movej(p[0.359053078375958, 0.161149832141038, 0.344334482335262, -1.337, 0.655, -0.721], a = 0.2, v = 0.2, t = 0.2)
movej(p[0.359079740347202, 0.161176152119325, 0.344032598188556, -1.337, 0.655, -0.721], a = 0.2, v = 0.2, t = 0.2)
movej(p[0.359109101821123, 0.161205136973783, 0.343700148520093, -1.337, 0.655, -0.721], a = 0.2, v = 0.2, t = 0.2)
movej(p[0.359135229150603, 0.161230929168153, 0.343404317934514, -1.337, 0.655, -0.721], a = 0.2, v = 0.2, t = 0.2)
movej(p[0.359177886551669, 0.161273039402973, 0.342921323147526, -1.337, 0.655, -0.721], a = 0.2, v = 0.2, t = 0.2)
movej(p[0.359206634502254, 0.161301418603756, 0.342595820188553, -1.337, 0.655, -0.721], a = 0.2, v = 0.2, t = 0.2)
movej(p[0.359220719245117, 0.161315322681701, 0.342436343586398, -1.337, 0.655, -0.721], a = 0.2, v = 0.2, t = 0.2)
movej(p[0.359232770596353, 0.161327219450322, 0.342299890364267, -1.337, 0.655, -0.721], a = 0.2, v = 0.2, t = 0.2)
movej(p[0.359246162934308, 0.161340440004833, 0.342148253619965, -1.337, 0.655, -0.721], a = 0.2, v = 0.2, t = 0.2)
movej(p[0.359239273943711, 0.161333639379279, 0.342226255243671, -1.337, 0.655, -0.721], a = 0.2, v = 0.2, t = 0.2)
movej(p[0.359209518061932, 0.16130426517603, 0.342563170653949, -1.337, 0.655, -0.721], a = 0.2, v = 0.2, t = 0.2)
movej(p[0.359151215815806, 0.161246710772491, 0.343223306532939, -1.337, 0.655, -0.721], a = 0.2, v = 0.2, t = 0.2)
movej(p[0.359088934432618, 0.161185228272258, 0.343928496784909, -1.337, 0.655, -0.721], a = 0.2, v = 0.2, t = 0.2)
movej(p[0.359054086307153, 0.161150827143505, 0.344323069883956, -1.337, 0.655, -0.721], a = 0.2, v = 0.2, t = 0.2)
movej(p[0.359018309132065, 0.161115508882042, 0.344728162285946, -1.337, 0.655, -0.721], a = 0.2, v = 0.2, t = 0.2)
movej(p[0.358992996912159, 0.161090521341841, 0.345014763671774, -1.337, 0.655, -0.721], a = 0.2, v = 0.2, t = 0.2)
movej(p[0.358970980189028, 0.161068787027095, 0.345264051303768, -1.337, 0.655, -0.721], a = 0.2, v = 0.2, t = 0.2)
movej(p[0.358960848289371, 0.161058785089258, 0.345378771249064, -1.337, 0.655, -0.721], a = 0.2, v = 0.2, t = 0.2)
movej(p[0.358952697193626, 0.161050738547573, 0.345471063246578, -1.337, 0.655, -0.721], a = 0.2, v = 0.2, t = 0.2)
movej(p[0.358942539000111, 0.16104071065315, 0.345586080907995, -1.337, 0.655, -0.721], a = 0.2, v = 0.2, t = 0.2)
movej(p[0.358942118298395, 0.161040295347773, 0.345590844365931, -1.337, 0.655, -0.721], a = 0.2, v = 0.2, t = 0.2)
movej(p[0.358961181344896, 0.161059113872682, 0.345375000178198, -1.337, 0.655, -0.721], a = 0.2, v = 0.2, t = 0.2)
movej(p[0.358995582474788, 0.161093073739472, 0.344985488253208, -1.337, 0.655, -0.721], a = 0.2, v = 0.2, t = 0.2)
movej(p[0.359023462728084, 0.161120596372914, 0.344669809926228, -1.337, 0.655, -0.721], a = 0.2, v = 0.2, t = 0.2)
movej(p[0.359058582556741, 0.161155265719724, 0.344272160427263, -1.337, 0.655, -0.721], a = 0.2, v = 0.2, t = 0.2)
movej(p[0.359094000382446, 0.161190229241177, 0.343871136812261, -1.337, 0.655, -0.721], a = 0.2, v = 0.2, t = 0.2)
movej(p[0.359140189925002, 0.161235826310727, 0.34334814882635, -1.337, 0.655, -0.721], a = 0.2, v = 0.2, t = 0.2)
movej(p[0.359151478754378, 0.161246970338352, 0.343220329371729, -1.337, 0.655, -0.721], a = 0.2, v = 0.2, t = 0.2)
movej(p[0.359134080985503, 0.161229795730561, 0.343417318205132, -1.337, 0.655, -0.721], a = 0.2, v = 0.2, t = 0.2)
movej(p[0.359091274585912, 0.16118753840842, 0.343902000050139, -1.337, 0.655, -0.721], a = 0.2, v = 0.2, t = 0.2)
movej(p[0.359049257002039, 0.161146059783861, 0.344377750411516, -1.337, 0.655, -0.721], a = 0.2, v = 0.2, t = 0.2)
movej(p[0.359013243182236, 0.161110507913124, 0.344785522258595, -1.337, 0.655, -0.721], a = 0.2, v = 0.2, t = 0.2)
movej(p[0.358971146716791, 0.161068951418807, 0.345262165768334, -1.337, 0.655, -0.721], a = 0.2, v = 0.2, t = 0.2)
movej(p[0.358948604116515, 0.161046697972339, 0.345517407722749, -1.337, 0.655, -0.721], a = 0.2, v = 0.2, t = 0.2)
movej(p[0.358936675469946, 0.161034922334454, 0.345652471602981, -1.337, 0.655, -0.721], a = 0.2, v = 0.2, t = 0.2)
movej(p[0.358957351206358, 0.161055332863309, 0.345418367493159, -1.337, 0.655, -0.721], a = 0.2, v = 0.2, t = 0.2)
movej(p[0.358985625867512, 0.161083244845543, 0.345098223424364, -1.337, 0.655, -0.721], a = 0.2, v = 0.2, t = 0.2)
movej(p[0.359047390138175, 0.161144216866249, 0.344398888256107, -1.337, 0.655, -0.721], a = 0.2, v = 0.2, t = 0.2)
movej(p[0.359130215788488, 0.161225980112407, 0.34346108247492, -1.337, 0.655, -0.721], a = 0.2, v = 0.2, t = 0.2)
movej(p[0.3592212626515, 0.161315859117813, 0.342430190786564, -1.337, 0.655, -0.721], a = 0.2, v = 0.2, t = 0.2)
movej(p[0.359279906717769, 0.161373750956971, 0.341766184598, -1.337, 0.655, -0.721], a = 0.2, v = 0.2, t = 0.2)
movej(p[0.359314430552329, 0.161407831954496, 0.341375283331112, -1.337, 0.655, -0.721], a = 0.2, v = 0.2, t = 0.2)
movej(p[0.359336797860223, 0.161429912357057, 0.341122026150838, -1.337, 0.655, -0.721], a = 0.2, v = 0.2, t = 0.2)
movej(p[0.359348779094506, 0.161441739908115, 0.340986366838364, -1.337, 0.655, -0.721], a = 0.2, v = 0.2, t = 0.2)
movej(p[0.359327910536475, 0.161421139030961, 0.34122265419974, -1.337, 0.655, -0.721], a = 0.2, v = 0.2, t = 0.2)
movej(p[0.359251071120994, 0.161345285234235, 0.342092679944043, -1.337, 0.655, -0.721], a = 0.2, v = 0.2, t = 0.2)
movej(p[0.359159156560693, 0.161254549661488, 0.343133396264393, -1.337, 0.655, -0.721], a = 0.2, v = 0.2, t = 0.2)
movej(p[0.359075042511375, 0.161171514542612, 0.34408579013551, -1.337, 0.655, -0.721], a = 0.2, v = 0.2, t = 0.2)
movej(p[0.359018054958111, 0.161115257968377, 0.344731040208449, -1.337, 0.655, -0.721], a = 0.2, v = 0.2, t = 0.2)
movej(p[0.358964187609241, 0.161062081575691, 0.345340961301696, -1.337, 0.655, -0.721], a = 0.2, v = 0.2, t = 0.2)
movej(p[0.358935141661607, 0.161033408200265, 0.345669838376707, -1.337, 0.655, -0.721], a = 0.2, v = 0.2, t = 0.2)
movej(p[0.358920495983123, 0.161018950381818, 0.34583566625611, -1.337, 0.655, -0.721], a = 0.2, v = 0.2, t = 0.2)
movej(p[0.358937332816377, 0.161035571249106, 0.345645028699956, -1.337, 0.655, -0.721], a = 0.2, v = 0.2, t = 0.2)
movej(p[0.358967018581204, 0.161064876234792, 0.345308907199333, -1.337, 0.655, -0.721], a = 0.2, v = 0.2, t = 0.2)
movej(p[0.359029484021393, 0.161126540431127, 0.344601632934516, -1.337, 0.655, -0.721], a = 0.2, v = 0.2, t = 0.2)
movej(p[0.359109294642742, 0.161205327322081, 0.343697965268539, -1.337, 0.655, -0.721], a = 0.2, v = 0.2, t = 0.2)
movej(p[0.359196099430119, 0.161291018664933, 0.342715105114372, -1.337, 0.655, -0.721], a = 0.2, v = 0.2, t = 0.2)
movej(p[0.359258266873259, 0.161352388686626, 0.342011204965593, -1.337, 0.655, -0.721], a = 0.2, v = 0.2, t = 0.2)
movej(p[0.359299951401607, 0.161393538527761, 0.341539225675082, -1.337, 0.655, -0.721], a = 0.2, v = 0.2, t = 0.2)
movej(p[0.359319706853015, 0.161413040576104, 0.341315541629496, -1.337, 0.655, -0.721], a = 0.2, v = 0.2, t = 0.2)
movej(p[0.359324553687367, 0.161417825240138, 0.341260662624522, -1.337, 0.655, -0.721], a = 0.2, v = 0.2, t = 0.2)
movej(p[0.359287198880845, 0.161380949583511, 0.341683617993773, -1.337, 0.655, -0.721], a = 0.2, v = 0.2, t = 0.2)
movej(p[0.359198860285129, 0.161293744106471, 0.342683844921666, -1.337, 0.655, -0.721], a = 0.2, v = 0.2, t = 0.2)
movej(p[0.359090985353483, 0.161187252885973, 0.34390527492747, -1.337, 0.655, -0.721], a = 0.2, v = 0.2, t = 0.2)
movej(p[0.359002760697815, 0.161100159887473, 0.344904211752171, -1.337, 0.655, -0.721], a = 0.2, v = 0.2, t = 0.2)
movej(p[0.35895494093611, 0.161052953509585, 0.345445658137585, -1.337, 0.655, -0.721], a = 0.2, v = 0.2, t = 0.2)
movej(p[0.358926096574716, 0.161024479134653, 0.345772252722335, -1.337, 0.655, -0.721], a = 0.2, v = 0.2, t = 0.2)
movej(p[0.358914194222004, 0.161012729453354, 0.345907018886446, -1.337, 0.655, -0.721], a = 0.2, v = 0.2, t = 0.2)
movej(p[0.35891508821315, 0.16101361197728, 0.345896896538332, -1.337, 0.655, -0.721], a = 0.2, v = 0.2, t = 0.2)
movej(p[0.358921328621936, 0.161019772340377, 0.345826238578945, -1.337, 0.655, -0.721], a = 0.2, v = 0.2, t = 0.2)
movej(p[0.358915096977769, 0.161013620629476, 0.345896797299625, -1.337, 0.655, -0.721], a = 0.2, v = 0.2, t = 0.2)
movej(p[0.358907489288407, 0.161006110523903, 0.345982936497304, -1.337, 0.655, -0.721], a = 0.2, v = 0.2, t = 0.2)
movej(p[0.358904903725778, 0.161003558126271, 0.34601221191587, -1.337, 0.655, -0.721], a = 0.2, v = 0.2, t = 0.2)
movej(p[0.358912888293761, 0.161011440276245, 0.34592180545379, -1.337, 0.655, -0.721], a = 0.2, v = 0.2, t = 0.2)
movej(p[0.3589106094928, 0.161009190705451, 0.345947607517611, -1.337, 0.655, -0.721], a = 0.2, v = 0.2, t = 0.2)
movej(p[0.35891537744558, 0.161013897499727, 0.345893621661, -1.337, 0.655, -0.721], a = 0.2, v = 0.2, t = 0.2)
movej(p[0.358950339511093, 0.161048411107021, 0.345497758458762, -1.337, 0.655, -0.721], a = 0.2, v = 0.2, t = 0.2)
movej(p[0.359022507384604, 0.16111965328362, 0.344680626945292, -1.337, 0.655, -0.721], a = 0.2, v = 0.2, t = 0.2)
movej(p[0.359105017508631, 0.161201105050745, 0.343746393757557, -1.337, 0.655, -0.721], a = 0.2, v = 0.2, t = 0.2)
movej(p[0.359191611945149, 0.161286588740908, 0.342765915332358, -1.337, 0.655, -0.721], a = 0.2, v = 0.2, t = 0.2)
movej(p[0.359264156697281, 0.161358202961908, 0.341944516554486, -1.337, 0.655, -0.721], a = 0.2, v = 0.2, t = 0.2)
movej(p[0.359326061201849, 0.16141931341774, 0.341243593566918, -1.337, 0.655, -0.721], a = 0.2, v = 0.2, t = 0.2)
movej(p[0.359349042033079, 0.161441999473976, 0.340983389677153, -1.337, 0.655, -0.721], a = 0.2, v = 0.2, t = 0.2)
movej(p[0.359331162210154, 0.16142434899544, 0.341185836639441, -1.337, 0.655, -0.721], a = 0.2, v = 0.2, t = 0.2)
movej(p[0.359269292764063, 0.161363273148389, 0.341886362672182, -1.337, 0.655, -0.721], a = 0.2, v = 0.2, t = 0.2)
movej(p[0.359186046412033, 0.161281094596854, 0.342828931911305, -1.337, 0.655, -0.721], a = 0.2, v = 0.2, t = 0.2)
movej(p[0.359089048372666, 0.161185340750798, 0.343927206681718, -1.337, 0.655, -0.721], a = 0.2, v = 0.2, t = 0.2)
movej(p[0.359017415140918, 0.161114626358116, 0.344738284634061, -1.337, 0.655, -0.721], a = 0.2, v = 0.2, t = 0.2)
movej(p[0.358971646300079, 0.161069444593942, 0.345256509162035, -1.337, 0.655, -0.721], a = 0.2, v = 0.2, t = 0.2)
movej(p[0.358957289854024, 0.161055272297942, 0.345419062164108, -1.337, 0.655, -0.721], a = 0.2, v = 0.2, t = 0.2)
movej(p[0.358940286493007, 0.161038487038942, 0.345611585255695, -1.337, 0.655, -0.721], a = 0.2, v = 0.2, t = 0.2)
movej(p[0.358937420462568, 0.161035657771059, 0.345644036312886, -1.337, 0.655, -0.721], a = 0.2, v = 0.2, t = 0.2)
movej(p[0.358936947173138, 0.16103519055251, 0.345649395203064, -1.337, 0.655, -0.721], a = 0.2, v = 0.2, t = 0.2)
movej(p[0.358964511900147, 0.161062401706919, 0.345337289469536, -1.337, 0.655, -0.721], a = 0.2, v = 0.2, t = 0.2)
movej(p[0.358999920961233, 0.161097356576176, 0.344936365093241, -1.337, 0.655, -0.721], a = 0.2, v = 0.2, t = 0.2)
movej(p[0.35906498072867, 0.161161581822338, 0.34419971617115, -1.337, 0.655, -0.721], a = 0.2, v = 0.2, t = 0.2)
movej(p[0.35914774502665, 0.161243284503128, 0.343262605060912, -1.337, 0.655, -0.721], a = 0.2, v = 0.2, t = 0.2)
movej(p[0.359236583205653, 0.161330983155303, 0.342256721526721, -1.337, 0.655, -0.721], a = 0.2, v = 0.2, t = 0.2)
movej(p[0.359304149654147, 0.161397682929338, 0.341491690334428, -1.337, 0.655, -0.721], a = 0.2, v = 0.2, t = 0.2)
movej(p[0.359348989445364, 0.161441947560803, 0.340983985109395, -1.337, 0.655, -0.721], a = 0.2, v = 0.2, t = 0.2)
movej(p[0.35937239097831, 0.161465048922416, 0.340719017761695, -1.337, 0.655, -0.721], a = 0.2, v = 0.2, t = 0.2)
movej(p[0.359377991569903, 0.161470577675252, 0.340655604227919, -1.337, 0.655, -0.721], a = 0.2, v = 0.2, t = 0.2)
movej(p[0.359348016572646, 0.161440987167118, 0.340995000605873, -1.337, 0.655, -0.721], a = 0.2, v = 0.2, t = 0.2)
movej(p[0.359264910454522, 0.161358947050709, 0.341935982025684, -1.337, 0.655, -0.721], a = 0.2, v = 0.2, t = 0.2)
movej(p[0.359162969169993, 0.16125831336647, 0.343090227426847, -1.337, 0.655, -0.721], a = 0.2, v = 0.2, t = 0.2)
movej(p[0.359063867622047, 0.161160482993527, 0.34421231948694, -1.337, 0.655, -0.721], a = 0.2, v = 0.2, t = 0.2)
movej(p[0.359002874637863, 0.161100272366012, 0.34490292164898, -1.337, 0.655, -0.721], a = 0.2, v = 0.2, t = 0.2)
movej(p[0.358947359540606, 0.161045469360598, 0.345531499619143, -1.337, 0.655, -0.721], a = 0.2, v = 0.2, t = 0.2)
movej(p[0.358925185054331, 0.161023579306336, 0.345782573547863, -1.337, 0.655, -0.721], a = 0.2, v = 0.2, t = 0.2)
movej(p[0.358914842803816, 0.16101336971581, 0.345899675222128, -1.337, 0.655, -0.721], a = 0.2, v = 0.2, t = 0.2)
movej(p[0.358940698430104, 0.161038893692124, 0.345606921036466, -1.337, 0.655, -0.721], a = 0.2, v = 0.2, t = 0.2)
movej(p[0.35898288254174, 0.161080536708395, 0.345129285139656, -1.337, 0.655, -0.721], a = 0.2, v = 0.2, t = 0.2)
movej(p[0.359053052082101, 0.161149806184452, 0.344334780051383, -1.337, 0.655, -0.721], a = 0.2, v = 0.2, t = 0.2)
movej(p[0.359133414874453, 0.161229138163714, 0.343424860346864, -1.337, 0.655, -0.721], a = 0.2, v = 0.2, t = 0.2)
movej(p[0.359218089859393, 0.161312727023092, 0.342466115198499, -1.337, 0.655, -0.721], a = 0.2, v = 0.2, t = 0.2)
movej(p[0.359280327419485, 0.161374166262348, 0.341761421140064, -1.337, 0.655, -0.721], a = 0.2, v = 0.2, t = 0.2)
movej(p[0.359317401758197, 0.161410765048724, 0.341341641409438, -1.337, 0.655, -0.721], a = 0.2, v = 0.2, t = 0.2)
movej(p[0.35933444017769, 0.161427584916505, 0.341148721363022, -1.337, 0.655, -0.721], a = 0.2, v = 0.2, t = 0.2)
movej(p[0.359323274052981, 0.161416562019615, 0.341275151475745, -1.337, 0.655, -0.721], a = 0.2, v = 0.2, t = 0.2)
movej(p[0.359280932178202, 0.161374763263828, 0.341754573669281, -1.337, 0.655, -0.721], a = 0.2, v = 0.2, t = 0.2)
movej(p[0.359188202508327, 0.161283223036913, 0.342804519189382, -1.337, 0.655, -0.721], a = 0.2, v = 0.2, t = 0.2)
movej(p[0.359089924834574, 0.161186205970334, 0.343917282811017, -1.337, 0.655, -0.721], a = 0.2, v = 0.2, t = 0.2)
movej(p[0.359006731070259, 0.161104079331971, 0.344859256617899, -1.337, 0.655, -0.721], a = 0.2, v = 0.2, t = 0.2)
movej(p[0.358962539860854, 0.161060454962963, 0.345359618178612, -1.337, 0.655, -0.721], a = 0.2, v = 0.2, t = 0.2)
movej(p[0.358926797744242, 0.161025171310282, 0.345764313625774, -1.337, 0.655, -0.721], a = 0.2, v = 0.2, t = 0.2)
movej(p[0.358912853235284, 0.161011405667463, 0.345922202408618, -1.337, 0.655, -0.721], a = 0.2, v = 0.2, t = 0.2)
movej(p[0.358906498886451, 0.161005132825827, 0.345994150471195, -1.337, 0.655, -0.721], a = 0.2, v = 0.2, t = 0.2)
movej(p[0.358922643314798, 0.161021070169681, 0.345811352772894, -1.337, 0.655, -0.721], a = 0.2, v = 0.2, t = 0.2)
movej(p[0.358949953867854, 0.161048030410425, 0.34550212496187, -1.337, 0.655, -0.721], a = 0.2, v = 0.2, t = 0.2)
movej(p[0.358995836648742, 0.161093324653138, 0.344982610330704, -1.337, 0.655, -0.721], a = 0.2, v = 0.2, t = 0.2)
movej(p[0.359062780809281, 0.161159410121302, 0.344224625086608, -1.337, 0.655, -0.721], a = 0.2, v = 0.2, t = 0.2)
movej(p[0.359142416138249, 0.161238023968349, 0.343322942194771, -1.337, 0.655, -0.721], a = 0.2, v = 0.2, t = 0.2)
movej(p[0.359219509727684, 0.161314128678741, 0.342450038527964, -1.337, 0.655, -0.721], a = 0.2, v = 0.2, t = 0.2)
movej(p[0.359261746427034, 0.161355823608184, 0.341971807198912, -1.337, 0.655, -0.721], a = 0.2, v = 0.2, t = 0.2)
movej(p[0.359286226008127, 0.161379989189826, 0.341694633490251, -1.337, 0.655, -0.721], a = 0.2, v = 0.2, t = 0.2)
movej(p[0.359284630847454, 0.16137841449027, 0.341712694934925, -1.337, 0.655, -0.721], a = 0.2, v = 0.2, t = 0.2)
movej(p[0.359256373715537, 0.161350519812428, 0.342032640526306, -1.337, 0.655, -0.721], a = 0.2, v = 0.2, t = 0.2)
movej(p[0.359174503408704, 0.161269699655564, 0.342959629288429, -1.337, 0.655, -0.721], a = 0.2, v = 0.2, t = 0.2)
movej(p[0.35908385971817, 0.161180218651145, 0.343985955996264, -1.337, 0.655, -0.721], a = 0.2, v = 0.2, t = 0.2)
movej(p[0.358997352927842, 0.161094821482935, 0.344965442034393, -1.337, 0.655, -0.721], a = 0.2, v = 0.2, t = 0.2)
movej(p[0.358953363304676, 0.16105139611442, 0.345463521104845, -1.337, 0.655, -0.721], a = 0.2, v = 0.2, t = 0.2)
movej(p[0.358923703833706, 0.16102211708532, 0.345799344889347, -1.337, 0.655, -0.721], a = 0.2, v = 0.2, t = 0.2)
movej(p[0.358912257241187, 0.161010817318179, 0.345928950640694, -1.337, 0.655, -0.721], a = 0.2, v = 0.2, t = 0.2)
movej(p[0.358907909990123, 0.16100652582928, 0.345978173039368, -1.337, 0.655, -0.721], a = 0.2, v = 0.2, t = 0.2)
movej(p[0.358912055654948, 0.161010618317686, 0.345931233130955, -1.337, 0.655, -0.721], a = 0.2, v = 0.2, t = 0.2)
movej(p[0.358917919185113, 0.161016406636382, 0.345864842435969, -1.337, 0.655, -0.721], a = 0.2, v = 0.2, t = 0.2)
movej(p[0.358915903322725, 0.161014416631449, 0.34588766733858, -1.337, 0.655, -0.721], a = 0.2, v = 0.2, t = 0.2)
movej(p[0.358919707167406, 0.161018171684235, 0.34584459773974, -1.337, 0.655, -0.721], a = 0.2, v = 0.2, t = 0.2)
movej(p[0.358947683831512, 0.161045789491827, 0.345527827786984, -1.337, 0.655, -0.721], a = 0.2, v = 0.2, t = 0.2)
movej(p[0.359005249849634, 0.161102617110955, 0.344876027959382, -1.337, 0.655, -0.721], a = 0.2, v = 0.2, t = 0.2)
movej(p[0.359047933544558, 0.161144753302361, 0.344392735456273, -1.337, 0.655, -0.721], a = 0.2, v = 0.2, t = 0.2)
movej(p[0.359085568818891, 0.16118190582924, 0.343966604448398, -1.337, 0.655, -0.721], a = 0.2, v = 0.2, t = 0.2)
movej(p[0.359106761667828, 0.161202826837622, 0.343726645254863, -1.337, 0.655, -0.721], a = 0.2, v = 0.2, t = 0.2)
movej(p[0.359146903623218, 0.161242453892374, 0.343272131976785, -1.337, 0.655, -0.721], a = 0.2, v = 0.2, t = 0.2)
movej(p[0.359184801836124, 0.161279865985113, 0.3428430238077, -1.337, 0.655, -0.721], a = 0.2, v = 0.2, t = 0.2)
movej(p[0.359222857812173, 0.161317433817369, 0.342412129341889, -1.337, 0.655, -0.721], a = 0.2, v = 0.2, t = 0.2)
movej(p[0.359263779818661, 0.161357830917507, 0.341948783818888, -1.337, 0.655, -0.721], a = 0.2, v = 0.2, t = 0.2)
movej(p[0.359301713090043, 0.161395277619028, 0.341519278694975, -1.337, 0.655, -0.721], a = 0.2, v = 0.2, t = 0.2)
movej(p[0.359314176378375, 0.161407581040831, 0.341378161253615, -1.337, 0.655, -0.721], a = 0.2, v = 0.2, t = 0.2)
movej(p[0.359271080746355, 0.161365038196243, 0.341866117975953, -1.337, 0.655, -0.721], a = 0.2, v = 0.2, t = 0.2)
movej(p[0.359197685826172, 0.161292584712293, 0.342697142908404, -1.337, 0.655, -0.721], a = 0.2, v = 0.2, t = 0.2)
movej(p[0.359112239554754, 0.161208234459722, 0.343664621062985, -1.337, 0.655, -0.721], a = 0.2, v = 0.2, t = 0.2)
movej(p[0.359050264933233, 0.161147054786327, 0.34436633796021, -1.337, 0.655, -0.721], a = 0.2, v = 0.2, t = 0.2)
movej(p[0.358998650091466, 0.161096102007849, 0.344950754705756, -1.337, 0.655, -0.721], a = 0.2, v = 0.2, t = 0.2)
movej(p[0.358963591615143, 0.161061493226406, 0.345347709533772, -1.337, 0.655, -0.721], a = 0.2, v = 0.2, t = 0.2)
movej(p[0.358945212208931, 0.161043349572735, 0.345555813102359, -1.337, 0.655, -0.721], a = 0.2, v = 0.2, t = 0.2)
movej(p[0.358940041083673, 0.161038244777472, 0.345614363939491, -1.337, 0.655, -0.721], a = 0.2, v = 0.2, t = 0.2)
movej(p[0.358947920476227, 0.161046023101101, 0.345525148341895, -1.337, 0.655, -0.721], a = 0.2, v = 0.2, t = 0.2)
movej(p[0.358940900016343, 0.161039092692617, 0.345604638546205, -1.337, 0.655, -0.721], a = 0.2, v = 0.2, t = 0.2)
movej(p[0.358951592851622, 0.161049648370957, 0.34548356732366, -1.337, 0.655, -0.721], a = 0.2, v = 0.2, t = 0.2)
movej(p[0.358980516094588, 0.161078200615647, 0.345156079590547, -1.337, 0.655, -0.721], a = 0.2, v = 0.2, t = 0.2)
movej(p[0.359038958574619, 0.161135893454312, 0.344494355892245, -1.337, 0.655, -0.721], a = 0.2, v = 0.2, t = 0.2)
movej(p[0.359081808797305, 0.16117819403743, 0.344009177853703, -1.337, 0.655, -0.721], a = 0.2, v = 0.2, t = 0.2)
movej(p[0.359120714941405, 0.161216601132636, 0.343568657233313, -1.337, 0.655, -0.721], a = 0.2, v = 0.2, t = 0.2)
movej(p[0.359152556802525, 0.161248034558381, 0.343208123010767, -1.337, 0.655, -0.721], a = 0.2, v = 0.2, t = 0.2)
movej(p[0.359197151184408, 0.161292056928376, 0.342703196469531, -1.337, 0.655, -0.721], a = 0.2, v = 0.2, t = 0.2)
movej(p[0.359244883299923, 0.16133917678431, 0.342162742471188, -1.337, 0.655, -0.721], a = 0.2, v = 0.2, t = 0.2)
movej(p[0.359275068648037, 0.161368974945132, 0.341820964364267, -1.337, 0.655, -0.721], a = 0.2, v = 0.2, t = 0.2)
movej(p[0.359294675100921, 0.161388329906154, 0.341598967376699, -1.337, 0.655, -0.721], a = 0.2, v = 0.2, t = 0.2)
movej(p[0.359286979765368, 0.161380733278627, 0.341686098961448, -1.337, 0.655, -0.721], a = 0.2, v = 0.2, t = 0.2)
movej(p[0.359260677143506, 0.16135476804035, 0.341983914321167, -1.337, 0.655, -0.721], a = 0.2, v = 0.2, t = 0.2)
movej(p[0.359190253429192, 0.161285247650627, 0.342781297331943, -1.337, 0.655, -0.721], a = 0.2, v = 0.2, t = 0.2)
movej(p[0.359112239554754, 0.161208234459722, 0.343664621062985, -1.337, 0.655, -0.721], a = 0.2, v = 0.2, t = 0.2)
movej(p[0.359037985701901, 0.161134933060627, 0.344505371388723, -1.337, 0.655, -0.721], a = 0.2, v = 0.2, t = 0.2)
movej(p[0.358989754003099, 0.161087320029558, 0.345051481993365, -1.337, 0.655, -0.721], a = 0.2, v = 0.2, t = 0.2)
movej(p[0.358958525665315, 0.161056492257488, 0.34540506950642, -1.337, 0.655, -0.721], a = 0.2, v = 0.2, t = 0.2)
movej(p[0.358934756018367, 0.16103302750367, 0.345674204879815, -1.337, 0.655, -0.721], a = 0.2, v = 0.2, t = 0.2)
movej(p[0.358934422962842, 0.161032698720246, 0.345677975950681, -1.337, 0.655, -0.721], a = 0.2, v = 0.2, t = 0.2)
movej(p[0.358962022748328, 0.161059944483436, 0.345365473262326, -1.337, 0.655, -0.721], a = 0.2, v = 0.2, t = 0.2)
movej(p[0.359020491522216, 0.161117663278687, 0.344703451847902, -1.337, 0.655, -0.721], a = 0.2, v = 0.2, t = 0.2)
movej(p[0.359082229499021, 0.161178609342807, 0.344004414395767, -1.337, 0.655, -0.721], a = 0.2, v = 0.2, t = 0.2)
movej(p[0.359152328922429, 0.161247809601302, 0.343210703217149, -1.337, 0.655, -0.721], a = 0.2, v = 0.2, t = 0.2)
movej(p[0.359219281847588, 0.161313903721662, 0.342452618734346, -1.337, 0.655, -0.721], a = 0.2, v = 0.2, t = 0.2)
movej(p[0.359286410065127, 0.161380170885929, 0.341692549477403, -1.337, 0.655, -0.721], a = 0.2, v = 0.2, t = 0.2)
movej(p[0.359315061604903, 0.161408454912562, 0.341368138144208, -1.337, 0.655, -0.721], a = 0.2, v = 0.2, t = 0.2)
movej(p[0.359317252759673, 0.161410617961403, 0.341343328467457, -1.337, 0.655, -0.721], a = 0.2, v = 0.2, t = 0.2)
movej(p[0.35927513876499, 0.161369044162695, 0.34182017045461, -1.337, 0.655, -0.721], a = 0.2, v = 0.2, t = 0.2)
movej(p[0.359215486767526, 0.16131015732107, 0.342495589094479, -1.337, 0.655, -0.721], a = 0.2, v = 0.2, t = 0.2)
movej(p[0.359125894831282, 0.161221714580094, 0.343510007157473, -1.337, 0.655, -0.721], a = 0.2, v = 0.2, t = 0.2)
movej(p[0.359047100905745, 0.161143931343802, 0.344402163133438, -1.337, 0.655, -0.721], a = 0.2, v = 0.2, t = 0.2)
movej(p[0.358990691817341, 0.161088245814461, 0.345040863451716, -1.337, 0.655, -0.721], a = 0.2, v = 0.2, t = 0.2)
movej(p[0.358962680094759, 0.161060593398089, 0.3453580303593, -1.337, 0.655, -0.721], a = 0.2, v = 0.2, t = 0.2)
movej(p[0.358949314050661, 0.161047398800164, 0.345509369387481, -1.337, 0.655, -0.721], a = 0.2, v = 0.2, t = 0.2)
movej(p[0.358938261866, 0.161036488381814, 0.345634509397013, -1.337, 0.655, -0.721], a = 0.2, v = 0.2, t = 0.2)
