def moving():
set_payload_mass(0)
set_tcp(p[0,0,0,0,0,0])
movej(p[0.4338, -0.0885, 0.4362, -1.175, 1.18, -1.248], a = 0.2, v = 0.2, t = 0.2)
movej(p[0.433883481960053, -0.0883597265637055, 0.436059142765838, -1.17443984516994, 1.18214333555876, -1.25633099397802], a = 0.2, v = 0.2, t = 0.2)
movej(p[0.434147178536322, -0.0883075985636036, 0.435935946502219, -1.17807034715815, 1.18549288649705, -1.26030294075972], a = 0.2, v = 0.2, t = 0.2)
movej(p[0.434176984044915, -0.088304751059726, 0.435848574003805, -1.17651223825729, 1.1883007315099, -1.25818773248882], a = 0.2, v = 0.2, t = 0.2)
movej(p[0.43416341522689, -0.0884565688415302, 0.435876227904967, -1.18078620214786, 1.18870794713838, -1.26325630692103], a = 0.2, v = 0.2, t = 0.2)
movej(p[0.434106301270798, -0.088481706363429, 0.435831048584107, -1.17752665442079, 1.19025905478702, -1.2638706921942], a = 0.2, v = 0.2, t = 0.2)
movej(p[0.433978874274483, -0.0884490419288297, 0.43569137291784, -1.17784334495446, 1.18900215294132, -1.26746329129391], a = 0.2, v = 0.2, t = 0.2)
movej(p[0.433501340979395, -0.088534206255901, 0.435580663948115, -1.17048530030869, 1.18823994053674, -1.2608883200501], a = 0.2, v = 0.2, t = 0.2)
movej(p[0.432607904091439, -0.0886011850029442, 0.435501721786126, -1.16600248993785, 1.18440372019863, -1.27440656093596], a = 0.2, v = 0.2, t = 0.2)
movej(p[0.431663695291426, -0.0884447004340414, 0.435390526238305, -1.16524711368411, 1.17830945756846, -1.28436144325363], a = 0.2, v = 0.2, t = 0.2)
movej(p[0.430712433561545, -0.0881282196631231, 0.435336598407611, -1.16642130713556, 1.16968430415879, -1.29612260037213], a = 0.2, v = 0.2, t = 0.2)
movej(p[0.429860454730958, -0.0879961381867783, 0.435418240609556, -1.15936459921905, 1.16259665368755, -1.28389463125693], a = 0.2, v = 0.2, t = 0.2)
movej(p[0.429337084530363, -0.087841855478529, 0.435493081980897, -1.15744663839196, 1.15406439541743, -1.28974410745339], a = 0.2, v = 0.2, t = 0.2)
movej(p[0.429520954823677, -0.0876887528718871, 0.435505874794353, -1.1637197667988, 1.1475633244054, -1.29109916080203], a = 0.2, v = 0.2, t = 0.2)
movej(p[0.430411798423254, -0.0876680821288795, 0.435582466579006, -1.17023304782208, 1.14525699407473, -1.29231741380824], a = 0.2, v = 0.2, t = 0.2)
movej(p[0.431503567008831, -0.0877448546772435, 0.435701848794452, -1.17171418125094, 1.14909814306133, -1.2875734837455], a = 0.2, v = 0.2, t = 0.2)
movej(p[0.432681764769118, -0.0877195490417527, 0.435724136079342, -1.17299514571381, 1.15914444233124, -1.28651250926885], a = 0.2, v = 0.2, t = 0.2)
movej(p[0.43359994683158, -0.0877121802477669, 0.435682632933115, -1.17450886414408, 1.17076123132552, -1.28044353617329], a = 0.2, v = 0.2, t = 0.2)
movej(p[0.434109170605037, -0.0878720653980635, 0.435687765696608, -1.18144678216641, 1.17964971375004, -1.27630249109095], a = 0.2, v = 0.2, t = 0.2)
movej(p[0.434168405517935, -0.0880507691558237, 0.43566712620397, -1.17978375793496, 1.18419513151518, -1.27386081104178], a = 0.2, v = 0.2, t = 0.2)
movej(p[0.434117989141235, -0.0880940631060453, 0.43556820683006, -1.17778472983066, 1.18696995933658, -1.2698530735092], a = 0.2, v = 0.2, t = 0.2)
movej(p[0.43379238402104, -0.0882012227859681, 0.435472903828393, -1.17091829441307, 1.18610182854378, -1.26379807676279], a = 0.2, v = 0.2, t = 0.2)
movej(p[0.433091398044631, -0.0883520643637697, 0.435466806705376, -1.16869469808258, 1.18504664166325, -1.26909358904684], a = 0.2, v = 0.2, t = 0.2)
movej(p[0.432166766332035, -0.0883619441288766, 0.435384941296301, -1.16770213843177, 1.17884935386306, -1.28403482243239], a = 0.2, v = 0.2, t = 0.2)
movej(p[0.43113654067059, -0.0881475137508223, 0.435326801671544, -1.16820036706463, 1.17211090315139, -1.29489342415484], a = 0.2, v = 0.2, t = 0.2)
movej(p[0.430291646658761, -0.0880330302585684, 0.435386883309972, -1.16516085389047, 1.16386218185326, -1.29085741590982], a = 0.2, v = 0.2, t = 0.2)
movej(p[0.429539959798058, -0.0878822954918974, 0.435495739268303, -1.1678252987261, 1.15433216831751, -1.2975284898291], a = 0.2, v = 0.2, t = 0.2)
movej(p[0.429393515573651, -0.0877395085094051, 0.435525197884505, -1.17089593676428, 1.14712888999099, -1.29815065869114], a = 0.2, v = 0.2, t = 0.2)
movej(p[0.429819838665597, -0.0876273457579337, 0.435516428063751, -1.17058105758817, 1.14473406059551, -1.29414528249619], a = 0.2, v = 0.2, t = 0.2)
movej(p[0.430790309925552, -0.0877388117101423, 0.435616379182298, -1.17221074452814, 1.14667972669832, -1.28971197459812], a = 0.2, v = 0.2, t = 0.2)
movej(p[0.431966233443855, -0.0877764020695728, 0.435658448887319, -1.17103389819118, 1.15448986908024, -1.28720384637344], a = 0.2, v = 0.2, t = 0.2)
movej(p[0.433064386214992, -0.0877576350457543, 0.435647334537976, -1.18026444645439, 1.16319272132333, -1.28801328083214], a = 0.2, v = 0.2, t = 0.2)
movej(p[0.433724776001001, -0.0878610795730136, 0.435654183407586, -1.1754453613685, 1.17572012014054, -1.2713393624211], a = 0.2, v = 0.2, t = 0.2)
movej(p[0.433947270720539, -0.087995275362193, 0.43567745142306, -1.18012440657769, 1.18084119791421, -1.27510859676565], a = 0.2, v = 0.2, t = 0.2)
movej(p[0.433985705386879, -0.088070041735167, 0.435607142902981, -1.18201810988545, 1.18308706330916, -1.27720325729282], a = 0.2, v = 0.2, t = 0.2)
movej(p[0.433875302516232, -0.0881021289550695, 0.435492357176639, -1.18436181813834, 1.1820342660353, -1.28003517957174], a = 0.2, v = 0.2, t = 0.2)
movej(p[0.433434716706886, -0.0883162441646138, 0.435448077464074, -1.17730437065135, 1.1805858952037, -1.27601963978906], a = 0.2, v = 0.2, t = 0.2)
movej(p[0.432691911121905, -0.0883162091915185, 0.435340087568726, -1.16890320106874, 1.17745846918234, -1.28177421009032], a = 0.2, v = 0.2, t = 0.2)
movej(p[0.431756275159314, -0.0881737947221186, 0.435229932424444, -1.16522629664969, 1.17241017093997, -1.29078895614917], a = 0.2, v = 0.2, t = 0.2)
movej(p[0.430760104940737, -0.0880019090653259, 0.435216845590985, -1.16119441125286, 1.16716296036361, -1.28973981724772], a = 0.2, v = 0.2, t = 0.2)
movej(p[0.429856060293728, -0.0879064010870296, 0.435307298655588, -1.15961090687026, 1.16102552901629, -1.29224674436843], a = 0.2, v = 0.2, t = 0.2)
movej(p[0.429450078198879, -0.0877131554555643, 0.435347504390025, -1.16392513366842, 1.15346357861988, -1.29221252313814], a = 0.2, v = 0.2, t = 0.2)
movej(p[0.429544460320156, -0.0876283717265047, 0.435410694700754, -1.17152696530233, 1.14603548528861, -1.29505249656418], a = 0.2, v = 0.2, t = 0.2)
movej(p[0.430065330431875, -0.0876949226098821, 0.43555041226994, -1.17211027248337, 1.14497444722845, -1.2881161373097], a = 0.2, v = 0.2, t = 0.2)
movej(p[0.431068654902248, -0.0877641970894688, 0.435649326902472, -1.17572765036, 1.14887269112064, -1.28962208793494], a = 0.2, v = 0.2, t = 0.2)
movej(p[0.432277546377484, -0.0877975512500203, 0.43570690631525, -1.17472322832691, 1.16002397243036, -1.27938908966896], a = 0.2, v = 0.2, t = 0.2)
movej(p[0.433301687244949, -0.0879285398851435, 0.435752599264996, -1.17718565899759, 1.17048916628003, -1.26948372466356], a = 0.2, v = 0.2, t = 0.2)
movej(p[0.433738031460105, -0.0881008735032376, 0.435809511258459, -1.17457238188141, 1.17846708179926, -1.26212231928446], a = 0.2, v = 0.2, t = 0.2)
movej(p[0.433948904274812, -0.088191940232416, 0.435780612886895, -1.17102096049083, 1.18487876862387, -1.25511693037513], a = 0.2, v = 0.2, t = 0.2)
movej(p[0.433982342080543, -0.0883170666384203, 0.435742811059315, -1.16905844771493, 1.18686147119194, -1.25266593361457], a = 0.2, v = 0.2, t = 0.2)
movej(p[0.433745817561163, -0.0884876805288183, 0.43568581411108, -1.16346086358399, 1.18802316711632, -1.25099696934545], a = 0.2, v = 0.2, t = 0.2)
movej(p[0.433167320684975, -0.088541799304387, 0.435543818334117, -1.16864078033168, 1.18213040700718, -1.27066160739323], a = 0.2, v = 0.2, t = 0.2)
movej(p[0.432221754040689, -0.0884492373991878, 0.435378723835055, -1.1664981155559, 1.17725844269815, -1.27746849938895], a = 0.2, v = 0.2, t = 0.2)
movej(p[0.431186424940459, -0.0883729637456345, 0.435362036378295, -1.17047246919068, 1.17032636063037, -1.28537285003121], a = 0.2, v = 0.2, t = 0.2)
movej(p[0.430176463459743, -0.0882454373738809, 0.435397524105467, -1.16203772693617, 1.16468187437111, -1.28252828793082], a = 0.2, v = 0.2, t = 0.2)
movej(p[0.429529712859187, -0.0879963220161221, 0.435382987709481, -1.16068959827649, 1.15855113383541, -1.28058823336148], a = 0.2, v = 0.2, t = 0.2)
movej(p[0.429388645282006, -0.0878679457786725, 0.435419617447764, -1.15860958890477, 1.15359629849077, -1.27322733062044], a = 0.2, v = 0.2, t = 0.2)
movej(p[0.429683722911819, -0.0878786283857346, 0.435558736004364, -1.16357863704602, 1.14964860851395, -1.27392849781211], a = 0.2, v = 0.2, t = 0.2)
movej(p[0.430646108838609, -0.0879114326190223, 0.435689142727715, -1.16984123955443, 1.15036304735838, -1.27967135737236], a = 0.2, v = 0.2, t = 0.2)
movej(p[0.431925060163609, -0.0878990658068273, 0.435758147240147, -1.17135460079834, 1.15908301895031, -1.2727594201082], a = 0.2, v = 0.2, t = 0.2)
movej(p[0.433096872599252, -0.0880122781827886, 0.435830950593099, -1.17276572488893, 1.17019090679106, -1.26037806969989], a = 0.2, v = 0.2, t = 0.2)
movej(p[0.433669937120349, -0.0881331086911677, 0.435864812418279, -1.17074133300429, 1.17900755199646, -1.25225545341811], a = 0.2, v = 0.2, t = 0.2)
movej(p[0.433933940154279, -0.0882208191598364, 0.435806584992079, -1.17312500339375, 1.18327983005883, -1.2526892651246], a = 0.2, v = 0.2, t = 0.2)
movej(p[0.43397251322042, -0.0883552462260317, 0.435758052427315, -1.17270685778384, 1.18461817455292, -1.252656017348], a = 0.2, v = 0.2, t = 0.2)
movej(p[0.433725089684802, -0.0884781881331071, 0.435689975450554, -1.17084979745105, 1.18490180003244, -1.25957388683442], a = 0.2, v = 0.2, t = 0.2)
movej(p[0.433254875117635, -0.0885033408546747, 0.435553091172486, -1.17053900253768, 1.18169721789919, -1.2710967933073], a = 0.2, v = 0.2, t = 0.2)
movej(p[0.432400833226974, -0.0884094849980722, 0.435418493818574, -1.16672814833988, 1.1778645403129, -1.27653309552719], a = 0.2, v = 0.2, t = 0.2)
movej(p[0.431403951571244, -0.0884244296975284, 0.435443898285821, -1.1635023746116, 1.17403606058936, -1.27585357114828], a = 0.2, v = 0.2, t = 0.2)
movej(p[0.430461974538791, -0.0882684775363532, 0.435476777342968, -1.15586471871961, 1.16824591718481, -1.27658928590077], a = 0.2, v = 0.2, t = 0.2)
movej(p[0.429851775662814, -0.0880037052584083, 0.435460146387237, -1.15993379357989, 1.16045159190602, -1.28174780352904], a = 0.2, v = 0.2, t = 0.2)
movej(p[0.429508810499995, -0.0878558592952255, 0.435460942102676, -1.16123367344484, 1.15285773106483, -1.28033585554092], a = 0.2, v = 0.2, t = 0.2)
movej(p[0.429605456841565, -0.0878819974306331, 0.43554867331171, -1.17329707077549, 1.14677072016356, -1.2934324830882], a = 0.2, v = 0.2, t = 0.2)
movej(p[0.43034522710045, -0.0879210596496944, 0.435646411755074, -1.1789592835155, 1.14751537092256, -1.29608373226229], a = 0.2, v = 0.2, t = 0.2)
movej(p[0.431589912523067, -0.0878944685110154, 0.435694448671793, -1.18049861534435, 1.15469334641658, -1.28918655482278], a = 0.2, v = 0.2, t = 0.2)
movej(p[0.432780624665275, -0.08803161992561, 0.43583013337827, -1.18304219521229, 1.16408155317257, -1.28025551249738], a = 0.2, v = 0.2, t = 0.2)
movej(p[0.433507606687463, -0.0881348150630604, 0.435840401368445, -1.17550775206295, 1.1744147134508, -1.26675292377608], a = 0.2, v = 0.2, t = 0.2)
movej(p[0.433887151710345, -0.0882384115761031, 0.435804644644666, -1.17896064979359, 1.17961777929331, -1.26596592678309], a = 0.2, v = 0.2, t = 0.2)
movej(p[0.433945627753749, -0.0883792518548871, 0.435761923365848, -1.17513725274897, 1.18372227182341, -1.25590809101935], a = 0.2, v = 0.2, t = 0.2)
movej(p[0.433750619038619, -0.088522018677836, 0.435749037708955, -1.18259747594673, 1.1822981439735, -1.26938880983252], a = 0.2, v = 0.2, t = 0.2)
movej(p[0.433237968150956, -0.0885522594341849, 0.435595507488212, -1.18517671565376, 1.17906285411319, -1.28054703962704], a = 0.2, v = 0.2, t = 0.2)
movej(p[0.432402567533742, -0.0885079289824607, 0.435445090002844, -1.18175869470337, 1.17551226105863, -1.28585966049885], a = 0.2, v = 0.2, t = 0.2)
movej(p[0.431392637914704, -0.088511938918097, 0.435406142809991, -1.17083582332699, 1.1723609517681, -1.28172554298921], a = 0.2, v = 0.2, t = 0.2)
movej(p[0.43048153731257, -0.0883267421956019, 0.435397533386955, -1.1604857495755, 1.16779787399841, -1.2790187013768], a = 0.2, v = 0.2, t = 0.2)
movej(p[0.429830613154183, -0.0880816276678066, 0.43538757603832, -1.16254066593425, 1.15849584401812, -1.28330964427283], a = 0.2, v = 0.2, t = 0.2)
movej(p[0.429468223222419, -0.087986020453164, 0.435435267851703, -1.16339354379773, 1.15200976590688, -1.27675622685378], a = 0.2, v = 0.2, t = 0.2)
movej(p[0.429345334515168, -0.0880359657816303, 0.435541195170155, -1.1695986261428, 1.14503855804155, -1.28525909373374], a = 0.2, v = 0.2, t = 0.2)
movej(p[0.430004753675837, -0.0880707184899724, 0.435622170402824, -1.17673010568884, 1.14465530815731, -1.28711597646875], a = 0.2, v = 0.2, t = 0.2)
movej(p[0.43115844085279, -0.0880631411469872, 0.435705033208756, -1.18194594149891, 1.14843945335742, -1.28922758210554], a = 0.2, v = 0.2, t = 0.2)
movej(p[0.432473086236445, -0.0881910601534621, 0.435843663013696, -1.18043828271479, 1.15973419217807, -1.27801083981973], a = 0.2, v = 0.2, t = 0.2)
movej(p[0.433411710399183, -0.0882307851288528, 0.435882490271565, -1.17943125803424, 1.17055411782775, -1.27187884214013], a = 0.2, v = 0.2, t = 0.2)
movej(p[0.433957426322733, -0.0883412795238333, 0.435876614962071, -1.17619696490222, 1.17948012706688, -1.26059928865127], a = 0.2, v = 0.2, t = 0.2)
movej(p[0.434083555095876, -0.0884631020357868, 0.435869355236472, -1.18039896955876, 1.18334933982196, -1.26150602801572], a = 0.2, v = 0.2, t = 0.2)
movej(p[0.434006205880485, -0.088600060164066, 0.435862788366853, -1.17998388698754, 1.18490008879293, -1.26274194711218], a = 0.2, v = 0.2, t = 0.2)
movej(p[0.433752915379091, -0.0886654560139517, 0.435756158757296, -1.1814524195078, 1.18400490843804, -1.26664272890459], a = 0.2, v = 0.2, t = 0.2)
movej(p[0.433123219560326, -0.0887431065624567, 0.435627551885351, -1.17732897171452, 1.18056149351512, -1.26689493798312], a = 0.2, v = 0.2, t = 0.2)
movej(p[0.432102602063306, -0.0888374163878782, 0.435551436528781, -1.16664932714544, 1.17850571210258, -1.2664000234198], a = 0.2, v = 0.2, t = 0.2)
movej(p[0.431070089318034, -0.0886392362313569, 0.435462764101209, -1.16046558981721, 1.17241738860308, -1.27372027534905], a = 0.2, v = 0.2, t = 0.2)
movej(p[0.430187697764785, -0.088351372762928, 0.43542861359465, -1.15903109217374, 1.16493608931027, -1.27759255506288], a = 0.2, v = 0.2, t = 0.2)
movej(p[0.429485482459541, -0.0882048341644102, 0.435480621711567, -1.16030986511386, 1.15678165426591, -1.2728122670348], a = 0.2, v = 0.2, t = 0.2)
movej(p[0.429185519270161, -0.0881458970819149, 0.43558063533726, -1.16274822143322, 1.1502684807469, -1.27833283419499], a = 0.2, v = 0.2, t = 0.2)
movej(p[0.42952587656787, -0.0880602820353438, 0.435640189167505, -1.16857563265828, 1.14714640794281, -1.28001867413602], a = 0.2, v = 0.2, t = 0.2)
movej(p[0.430629602705212, -0.0880429077041413, 0.435734399944302, -1.17035599980562, 1.14949850244144, -1.27830909879259], a = 0.2, v = 0.2, t = 0.2)
movej(p[0.431926618418666, -0.0880697194394497, 0.435844561153459, -1.17180096789681, 1.15850975069232, -1.27304640118672], a = 0.2, v = 0.2, t = 0.2)
movej(p[0.433063776003841, -0.0881069653889883, 0.435900568530833, -1.17671279981904, 1.1687432856951, -1.27175545781299], a = 0.2, v = 0.2, t = 0.2)
movej(p[0.433819810042578, -0.0881734294529752, 0.435916102788991, -1.17634792848385, 1.18044159927241, -1.25932906135555], a = 0.2, v = 0.2, t = 0.2)
movej(p[0.434149373552166, -0.088391186624321, 0.435977856225565, -1.18107736874054, 1.18652812940186, -1.25424832174022], a = 0.2, v = 0.2, t = 0.2)
movej(p[0.434134047920215, -0.0885486134984556, 0.435947136022091, -1.17025269468366, 1.19106621455831, -1.24362395077907], a = 0.2, v = 0.2, t = 0.2)
movej(p[0.434094700319741, -0.0885745084198118, 0.435859667487121, -1.16956581348065, 1.19176866828875, -1.24432860823831], a = 0.2, v = 0.2, t = 0.2)
movej(p[0.4338422213949, -0.0886849823658794, 0.435776113957736, -1.16507092808456, 1.19049382348949, -1.23948330911021], a = 0.2, v = 0.2, t = 0.2)
movej(p[0.43326620261678, -0.088762659306862, 0.435677724930437, -1.16354734295419, 1.18698346326466, -1.24925936369937], a = 0.2, v = 0.2, t = 0.2)
movej(p[0.432480107001294, -0.0887274526046461, 0.435545445913459, -1.16640900743661, 1.18093714561143, -1.26519606581407], a = 0.2, v = 0.2, t = 0.2)
movej(p[0.431475585438673, -0.0885702346118401, 0.435416158808163, -1.16223753629707, 1.17555239699887, -1.27083319139976], a = 0.2, v = 0.2, t = 0.2)
movej(p[0.430598633014294, -0.0885013601991796, 0.435499863480106, -1.16446689590045, 1.16876471399953, -1.2731763552904], a = 0.2, v = 0.2, t = 0.2)
movej(p[0.429924412349875, -0.0883460134580336, 0.435538170239116, -1.15959033962881, 1.16292111939929, -1.27427880856194], a = 0.2, v = 0.2, t = 0.2)
movej(p[0.429884503622314, -0.0881587181499554, 0.435569502585604, -1.16569620340127, 1.15645624715843, -1.27657274464357], a = 0.2, v = 0.2, t = 0.2)
movej(p[0.430391790165871, -0.0880982238412704, 0.43559781191699, -1.16317006062886, 1.15489199389921, -1.2682592484996], a = 0.2, v = 0.2, t = 0.2)
movej(p[0.431335624526875, -0.0881617569243263, 0.435749896001777, -1.16772796849873, 1.15807021633745, -1.26916829937709], a = 0.2, v = 0.2, t = 0.2)
movej(p[0.432482182142277, -0.0882096729220368, 0.435832278192965, -1.1722636413648, 1.16553506958675, -1.2673936065253], a = 0.2, v = 0.2, t = 0.2)
movej(p[0.433366196919823, -0.0882213335253663, 0.435878141882433, -1.17980862211772, 1.17481660707479, -1.2656767549379], a = 0.2, v = 0.2, t = 0.2)
movej(p[0.433880497262321, -0.0884475133860802, 0.435954102935255, -1.18055932005459, 1.18238627092848, -1.25685153443545], a = 0.2, v = 0.2, t = 0.2)
movej(p[0.434003811680835, -0.0885650945474594, 0.435924984875014, -1.17509291967342, 1.18883752901325, -1.25168842329464], a = 0.2, v = 0.2, t = 0.2)
movej(p[0.434070505817527, -0.0886026475812759, 0.435842170451523, -1.17268448192402, 1.19118350580431, -1.25129805741912], a = 0.2, v = 0.2, t = 0.2)
movej(p[0.43401061612664, -0.0886625014248249, 0.435768388589667, -1.16871406509383, 1.19206382335919, -1.24602336698713], a = 0.2, v = 0.2, t = 0.2)
movej(p[0.433764715622208, -0.0887781516665143, 0.435760880799214, -1.1789076488372, 1.18707539947622, -1.26243854402561], a = 0.2, v = 0.2, t = 0.2)
movej(p[0.433271484905465, -0.088749956381665, 0.435627970821886, -1.18079719035389, 1.18287182517715, -1.27224469561627], a = 0.2, v = 0.2, t = 0.2)
movej(p[0.432497098578104, -0.0886591760099394, 0.435529333997596, -1.1856863845815, 1.17686172149571, -1.28697058581159], a = 0.2, v = 0.2, t = 0.2)
movej(p[0.431498654792126, -0.0886580641725189, 0.4355520849725, -1.16922724736353, 1.1759362659294, -1.27404618031371], a = 0.2, v = 0.2, t = 0.2)
movej(p[0.43067834974809, -0.0884958255078788, 0.435581925277803, -1.16358956623447, 1.17044263543293, -1.2787882226154], a = 0.2, v = 0.2, t = 0.2)
movej(p[0.430191201385722, -0.0882452206111423, 0.435552649519734, -1.16475786710183, 1.16289173095118, -1.28204766019246], a = 0.2, v = 0.2, t = 0.2)
movej(p[0.430024666413064, -0.0880882690465593, 0.43556840307669, -1.17050213899832, 1.15525381176349, -1.28424260572533], a = 0.2, v = 0.2, t = 0.2)
movej(p[0.43014186910965, -0.0881620724208154, 0.435699363172756, -1.17461302761734, 1.15098833660787, -1.28650471766988], a = 0.2, v = 0.2, t = 0.2)
movej(p[0.430853730476613, -0.0881752494984732, 0.435750718294696, -1.17354108095485, 1.15371147511916, -1.2810187178041], a = 0.2, v = 0.2, t = 0.2)
movej(p[0.431906663921718, -0.0881664359946998, 0.435785657146022, -1.17109922118484, 1.16077905146497, -1.27085691920662], a = 0.2, v = 0.2, t = 0.2)
movej(p[0.432940844486304, -0.0882384408793777, 0.435865701523179, -1.17094149695618, 1.17158771629513, -1.25791613842626], a = 0.2, v = 0.2, t = 0.2)
movej(p[0.43353609088623, -0.0883133937714042, 0.435905939630147, -1.16930943013156, 1.180243204446, -1.25172000370066], a = 0.2, v = 0.2, t = 0.2)
movej(p[0.433909913416515, -0.0882958596053019, 0.435825937523509, -1.1701225748694, 1.18680436028352, -1.24773470932908], a = 0.2, v = 0.2, t = 0.2)
movej(p[0.434038229322503, -0.0883729293734684, 0.435731752215838, -1.16631001410477, 1.18795246550953, -1.24117433700022], a = 0.2, v = 0.2, t = 0.2)
movej(p[0.433988469464559, -0.0884482136309028, 0.435667246405992, -1.16716296384145, 1.18832181325978, -1.24836434432316], a = 0.2, v = 0.2, t = 0.2)
movej(p[0.4339385840766, -0.088441967288992, 0.435576495848545, -1.17356989857112, 1.18621836844483, -1.26429615817228], a = 0.2, v = 0.2, t = 0.2)
movej(p[0.433872895761175, -0.0883566807889221, 0.435455226083086, -1.17680290390316, 1.18557466091175, -1.27203810180669], a = 0.2, v = 0.2, t = 0.2)
movej(p[0.433700160724711, -0.0884714780533861, 0.435408720689478, -1.17290559110988, 1.18532385308167, -1.26511530443166], a = 0.2, v = 0.2, t = 0.2)
movej(p[0.43311397050729, -0.0885094428497841, 0.435325273470504, -1.16773348154849, 1.18161731416267, -1.27678435107698], a = 0.2, v = 0.2, t = 0.2)
movej(p[0.432499226180108, -0.0883688312060699, 0.435177135709304, -1.16645505435487, 1.17721322802873, -1.28659710222079], a = 0.2, v = 0.2, t = 0.2)
movej(p[0.431814386013072, -0.088114167143153, 0.43504583806548, -1.16922450348472, 1.17027602752493, -1.29964769216615], a = 0.2, v = 0.2, t = 0.2)
movej(p[0.431202575171548, -0.0880698140007963, 0.435126262381804, -1.1687746564834, 1.16635645614029, -1.2985640358807], a = 0.2, v = 0.2, t = 0.2)
movej(p[0.430623061086578, -0.0878907450638871, 0.435141654365292, -1.16572853487222, 1.16005163946465, -1.30370960919462], a = 0.2, v = 0.2, t = 0.2)
movej(p[0.430372214390752, -0.08763667547123, 0.435136375067961, -1.16776567907815, 1.15484601313135, -1.30538854767692], a = 0.2, v = 0.2, t = 0.2)
movej(p[0.43046737368633, -0.0874967137468189, 0.435162568787914, -1.16692659173005, 1.15028753364248, -1.2989453894362], a = 0.2, v = 0.2, t = 0.2)
movej(p[0.430927070783877, -0.0875805222358679, 0.435284581242485, -1.17681195260279, 1.14734131208199, -1.3053119988871], a = 0.2, v = 0.2, t = 0.2)
movej(p[0.431872754089588, -0.0876428319490196, 0.435372116021547, -1.17750307250823, 1.15223447233167, -1.30021273876664], a = 0.2, v = 0.2, t = 0.2)
movej(p[0.432839777195906, -0.0876652268117801, 0.435413225646562, -1.1846228609362, 1.1587117284714, -1.30141062255001], a = 0.2, v = 0.2, t = 0.2)
movej(p[0.433580723097015, -0.0878429321200104, 0.435499204086054, -1.17365965865381, 1.17102237155384, -1.2760779083205], a = 0.2, v = 0.2, t = 0.2)
movej(p[0.433844865219353, -0.0879882578840877, 0.435521179480478, -1.17557089821563, 1.17546334471411, -1.28008487532494], a = 0.2, v = 0.2, t = 0.2)
movej(p[0.433960891186949, -0.0880213880359611, 0.435450294946235, -1.17166067086305, 1.17922492188387, -1.27533954370197], a = 0.2, v = 0.2, t = 0.2)
movej(p[0.433988827100416, -0.0880806757429259, 0.435395400889711, -1.16849373153216, 1.18075579359451, -1.27089405404281], a = 0.2, v = 0.2, t = 0.2)
movej(p[0.433922895657997, -0.088220621392729, 0.435367102965091, -1.16079507781893, 1.1830958607992, -1.26582639071823], a = 0.2, v = 0.2, t = 0.2)
movej(p[0.433878759360487, -0.0882348360353555, 0.435313194206497, -1.16537993104634, 1.18128838970787, -1.27647624105384], a = 0.2, v = 0.2, t = 0.2)
movej(p[0.433748819088925, -0.0882342224457735, 0.435201226622196, -1.16423846018647, 1.18064099686615, -1.27826011911797], a = 0.2, v = 0.2, t = 0.2)
movej(p[0.433325596639262, -0.0883112992169749, 0.435186420851632, -1.16724681231307, 1.17889936881686, -1.27929947351828], a = 0.2, v = 0.2, t = 0.2)
movej(p[0.432573374413562, -0.0883684099462716, 0.435139770214314, -1.16165184459891, 1.17569264471219, -1.28603924662731], a = 0.2, v = 0.2, t = 0.2)
movej(p[0.431822295106072, -0.0882034291032628, 0.435050187907464, -1.16323369929315, 1.1712578586131, -1.29359821146037], a = 0.2, v = 0.2, t = 0.2)
movej(p[0.43110272791739, -0.0879904578045065, 0.435019578195312, -1.16084961522837, 1.16487714742991, -1.29453333538009], a = 0.2, v = 0.2, t = 0.2)
movej(p[0.43046183239815, -0.0879256347323313, 0.435145252081749, -1.16278277438087, 1.15974385588302, -1.29191281766362], a = 0.2, v = 0.2, t = 0.2)
movej(p[0.430064419237176, -0.0878102572300158, 0.435221623329246, -1.15829141751411, 1.15559941768364, -1.29093672365811], a = 0.2, v = 0.2, t = 0.2)
movej(p[0.43031019303133, -0.0876757484445347, 0.435271078424388, -1.16308902864576, 1.1517004297565, -1.29128023153703], a = 0.2, v = 0.2, t = 0.2)
movej(p[0.430990899526131, -0.0877108395675322, 0.435310165638709, -1.15542383070401, 1.15224281017922, -1.27497009438302], a = 0.2, v = 0.2, t = 0.2)
movej(p[0.431858928322519, -0.0878490456806231, 0.43544125834768, -1.16467956938988, 1.15395759834818, -1.2824801134095], a = 0.2, v = 0.2, t = 0.2)
movej(p[0.432807653148251, -0.0879447739224773, 0.4355056664842, -1.17197515825256, 1.16035056123639, -1.28406527109265], a = 0.2, v = 0.2, t = 0.2)
movej(p[0.433500908509542, -0.0879771072931162, 0.435525221823246, -1.1778546833416, 1.16835555071445, -1.28084081925516], a = 0.2, v = 0.2, t = 0.2)
movej(p[0.433905477417132, -0.0882196540400133, 0.435598142458056, -1.17169813414645, 1.17794419918237, -1.26344719220721], a = 0.2, v = 0.2, t = 0.2)
movej(p[0.43397533859098, -0.088352220828778, 0.435582714373109, -1.16383206793881, 1.18348295118414, -1.25842995431589], a = 0.2, v = 0.2, t = 0.2)
movej(p[0.434030880722481, -0.0883861582176973, 0.435546275500162, -1.16042731510238, 1.18807284164844, -1.25655434380247], a = 0.2, v = 0.2, t = 0.2)
movej(p[0.433984382629943, -0.0884113487899396, 0.43554574480584, -1.16226375108901, 1.18838541360639, -1.25805842446354], a = 0.2, v = 0.2, t = 0.2)
movej(p[0.433846075886703, -0.0885253527282404, 0.435560914060737, -1.17292881300147, 1.18521786283026, -1.27202837536409], a = 0.2, v = 0.2, t = 0.2)
movej(p[0.433468346408293, -0.0885647566571301, 0.43544680536045, -1.17702986253566, 1.18104262981284, -1.28046693459212], a = 0.2, v = 0.2, t = 0.2)
movej(p[0.432852111782777, -0.0885908419686911, 0.435322838779793, -1.1782714055383, 1.17682453136046, -1.28783803700458], a = 0.2, v = 0.2, t = 0.2)
movej(p[0.431905755627214, -0.0886993405947154, 0.435295014412067, -1.15751478867028, 1.17794850012667, -1.26849201233385], a = 0.2, v = 0.2, t = 0.2)
movej(p[0.43104696888912, -0.0886129610537794, 0.435278403214603, -1.14919904431014, 1.1740039696535, -1.26984648213866], a = 0.2, v = 0.2, t = 0.2)
movej(p[0.430466427463735, -0.0883450105247616, 0.435243038149753, -1.14993399896315, 1.16766110113753, -1.27390722738188], a = 0.2, v = 0.2, t = 0.2)
movej(p[0.429992451321889, -0.0881063596581077, 0.435268789182863, -1.15536850071941, 1.15892644571401, -1.27800973872364], a = 0.2, v = 0.2, t = 0.2)
movej(p[0.429685986917789, -0.0880604260079649, 0.435392643134775, -1.15708353094817, 1.1522628105915, -1.28144342984145], a = 0.2, v = 0.2, t = 0.2)
movej(p[0.430017277227718, -0.0880104200165429, 0.435432578916596, -1.15658958863384, 1.15058852961344, -1.27680401677097], a = 0.2, v = 0.2, t = 0.2)
movej(p[0.43094063405702, -0.0879750530048717, 0.435509649428888, -1.15923139585672, 1.15302629909162, -1.27328065342208], a = 0.2, v = 0.2, t = 0.2)
movej(p[0.432117890828019, -0.0880111833047234, 0.435591933275244, -1.15697488530464, 1.162045546611, -1.26183128276883], a = 0.2, v = 0.2, t = 0.2)
movej(p[0.433085954360367, -0.0880439942802285, 0.435652666126522, -1.16354939487453, 1.16905147479683, -1.26573381573464], a = 0.2, v = 0.2, t = 0.2)
movej(p[0.433810136239155, -0.0880991389549953, 0.43565366161386, -1.17092884729115, 1.17507351993325, -1.26639566519569], a = 0.2, v = 0.2, t = 0.2)
movej(p[0.43410021517736, -0.0882401093552323, 0.435678241600503, -1.17794529245874, 1.1795231066531, -1.266301622164], a = 0.2, v = 0.2, t = 0.2)
movej(p[0.434099964173664, -0.0884277241498442, 0.435698831653949, -1.17759541987992, 1.18110696846156, -1.26778691294092], a = 0.2, v = 0.2, t = 0.2)
movej(p[0.434089579803787, -0.0884735412595416, 0.435634460724593, -1.1676039425884, 1.18590022591043, -1.25912845869183], a = 0.2, v = 0.2, t = 0.2)
movej(p[0.434077567957053, -0.0885314671400919, 0.435610418401566, -1.16540465665116, 1.18597503142551, -1.25724148273257], a = 0.2, v = 0.2, t = 0.2)
movej(p[0.434005543344344, -0.088673641377759, 0.435664811694423, -1.16291312907794, 1.18789783282901, -1.25025748490786], a = 0.2, v = 0.2, t = 0.2)
movej(p[0.433596589492819, -0.0887438621826469, 0.435595694599691, -1.16934490525268, 1.18383848592706, -1.26648053329295], a = 0.2, v = 0.2, t = 0.2)
movej(p[0.432968730841106, -0.0887293834351501, 0.435450932570691, -1.17067786492686, 1.18077110946833, -1.27480627342801], a = 0.2, v = 0.2, t = 0.2)
movej(p[0.432133329653008, -0.0887590115759703, 0.435388690623454, -1.16786923002269, 1.17751336324438, -1.27717540494419], a = 0.2, v = 0.2, t = 0.2)
movej(p[0.431325830413985, -0.0887187598911146, 0.435426514817349, -1.1632664685253, 1.17297255045847, -1.28143517034892], a = 0.2, v = 0.2, t = 0.2)
movej(p[0.430768414990014, -0.088514310276177, 0.435422049988658, -1.16039176090427, 1.16778835601436, -1.28273909930008], a = 0.2, v = 0.2, t = 0.2)
movej(p[0.430374570120632, -0.0882677523401804, 0.435376873875676, -1.16036774115224, 1.16105057794654, -1.28192871029093], a = 0.2, v = 0.2, t = 0.2)
movej(p[0.430267176400272, -0.088255279944782, 0.435475556766697, -1.16425262212729, 1.15597126316767, -1.27707681143826], a = 0.2, v = 0.2, t = 0.2)
movej(p[0.430440759764928, -0.0882952174326952, 0.435590336102267, -1.16561424072968, 1.15310475244335, -1.28081356390617], a = 0.2, v = 0.2, t = 0.2)
movej(p[0.431253038263213, -0.0882532880008985, 0.43568090741159, -1.17230890975122, 1.15444704141423, -1.27951665652353], a = 0.2, v = 0.2, t = 0.2)
movej(p[0.432233163043453, -0.0882690266492356, 0.435739124781927, -1.16720249241664, 1.16159005795154, -1.26629892314002], a = 0.2, v = 0.2, t = 0.2)
movej(p[0.433074897107297, -0.0883317191615778, 0.435817716480981, -1.17938249939118, 1.16734584041531, -1.27201380224253], a = 0.2, v = 0.2, t = 0.2)
movej(p[0.433649730129345, -0.0883712420328283, 0.435806913332758, -1.18222332433069, 1.17416539243339, -1.27109749591905], a = 0.2, v = 0.2, t = 0.2)
movej(p[0.433887292936785, -0.088364866974288, 0.435733018276938, -1.18744633822469, 1.17848206564747, -1.27454069187952], a = 0.2, v = 0.2, t = 0.2)
movej(p[0.433951762442134, -0.0885059169549169, 0.435708570564256, -1.17303420223199, 1.1856222078424, -1.25633553511131], a = 0.2, v = 0.2, t = 0.2)
movej(p[0.433879908219329, -0.0885462978947079, 0.435627529455555, -1.1631483931892, 1.18840182853024, -1.25547031692107], a = 0.2, v = 0.2, t = 0.2)
movej(p[0.433915504734505, -0.0884971040510892, 0.435545630240923, -1.16150349077318, 1.18941920264501, -1.25720132494432], a = 0.2, v = 0.2, t = 0.2)
movej(p[0.433872781691594, -0.088491161122154, 0.435466321071503, -1.16089238549387, 1.18870573350009, -1.2562059815767], a = 0.2, v = 0.2, t = 0.2)
movej(p[0.433582644021457, -0.0886561900274216, 0.435455612373742, -1.15995953531231, 1.18720599101892, -1.25981753125659], a = 0.2, v = 0.2, t = 0.2)
movej(p[0.433092123029471, -0.088633309354603, 0.435308905538414, -1.16062912411413, 1.18320246171008, -1.27206862254146], a = 0.2, v = 0.2, t = 0.2)
movej(p[0.432412150919575, -0.0885198050891908, 0.435165384887223, -1.16209132136997, 1.17722697387182, -1.2828599405488], a = 0.2, v = 0.2, t = 0.2)
movej(p[0.431676402956584, -0.0884620185775494, 0.435155692070918, -1.16375809168264, 1.1712729250125, -1.28648757805184], a = 0.2, v = 0.2, t = 0.2)
movej(p[0.430993934038138, -0.0883910893575891, 0.43519628240243, -1.15798375294078, 1.16761005171025, -1.28306938601472], a = 0.2, v = 0.2, t = 0.2)
movej(p[0.430528212987134, -0.0881919580847107, 0.435160797035384, -1.15566363615333, 1.16414718911638, -1.27790534225303], a = 0.2, v = 0.2, t = 0.2)
movej(p[0.430343059521795, -0.0880384052056138, 0.435203192723771, -1.15385043399669, 1.1601273816225, -1.27148832029102], a = 0.2, v = 0.2, t = 0.2)
movej(p[0.430496493494197, -0.0880964954202253, 0.435385754165426, -1.15766622432013, 1.15673026052359, -1.26861447222204], a = 0.2, v = 0.2, t = 0.2)
movej(p[0.431156586537124, -0.0881493191125315, 0.435536698089817, -1.16724127614, 1.15595384826738, -1.2791407721789], a = 0.2, v = 0.2, t = 0.2)
movej(p[0.432138858335079, -0.0881284664382904, 0.435608673204407, -1.17441599278293, 1.1614575575331, -1.27781565128243], a = 0.2, v = 0.2, t = 0.2)
movej(p[0.433058606198901, -0.0882474191758236, 0.435693555712195, -1.17346778064162, 1.16977834474253, -1.26533132436457], a = 0.2, v = 0.2, t = 0.2)
movej(p[0.433515701560109, -0.0883745652561788, 0.435751407543735, -1.1692024082068, 1.17699286040525, -1.26070638670083], a = 0.2, v = 0.2, t = 0.2)
movej(p[0.433826527608, -0.0884295148629959, 0.435725127809507, -1.17083769397692, 1.18006794154088, -1.26224748605429], a = 0.2, v = 0.2, t = 0.2)
movej(p[0.433905687038526, -0.0884297691425456, 0.435625302052507, -1.17224080766276, 1.18218527878778, -1.26211809419371], a = 0.2, v = 0.2, t = 0.2)
movej(p[0.433992489969986, -0.0885972226576797, 0.435655691389587, -1.17234959433967, 1.18430974174799, -1.25536899510488], a = 0.2, v = 0.2, t = 0.2)
movej(p[0.433880463232772, -0.0886823670982847, 0.435625916791279, -1.16259971680902, 1.18663329369225, -1.25122503222556], a = 0.2, v = 0.2, t = 0.2)
movej(p[0.433624462086744, -0.0886672200366646, 0.435500429539112, -1.1598715083415, 1.18648554386596, -1.25206267257924], a = 0.2, v = 0.2, t = 0.2)
movej(p[0.433046887282736, -0.0886841962939878, 0.435379196775545, -1.15476525030918, 1.1839292789204, -1.2530157319957], a = 0.2, v = 0.2, t = 0.2)
movej(p[0.432175479926948, -0.0887514926738684, 0.435339714247333, -1.16270592141206, 1.17632269791163, -1.27222640949192], a = 0.2, v = 0.2, t = 0.2)
movej(p[0.431373645623566, -0.0886150646815984, 0.435267425294891, -1.16057556002832, 1.17074000950135, -1.28047812602383], a = 0.2, v = 0.2, t = 0.2)
movej(p[0.430720853261062, -0.0883419305662015, 0.435207228445621, -1.1629551845468, 1.16300064829022, -1.28617032257173], a = 0.2, v = 0.2, t = 0.2)
movej(p[0.430177074853543, -0.0882218948558896, 0.435237869324629, -1.15123815322008, 1.16120421328021, -1.26459780663327], a = 0.2, v = 0.2, t = 0.2)
movej(p[0.429880091053911, -0.0881993322649672, 0.435362096545668, -1.15171554565351, 1.15601851112383, -1.26753411143566], a = 0.2, v = 0.2, t = 0.2)
movej(p[0.43025505153986, -0.0881813863830753, 0.435452138308202, -1.16017007618053, 1.15272443957308, -1.27072594248667], a = 0.2, v = 0.2, t = 0.2)
movej(p[0.431134213197654, -0.0881845856517166, 0.435563837238566, -1.16742578481339, 1.15233265950075, -1.27441852464476], a = 0.2, v = 0.2, t = 0.2)
movej(p[0.432265870823881, -0.0883530571047237, 0.435726454886511, -1.16244212839713, 1.16084178574948, -1.26005631172646], a = 0.2, v = 0.2, t = 0.2)
movej(p[0.43320065152413, -0.0883890309476602, 0.435758447628933, -1.15905000520237, 1.17066624707624, -1.25268027085965], a = 0.2, v = 0.2, t = 0.2)
movej(p[0.433848280410936, -0.0884348068174699, 0.435784626161487, -1.15806428611457, 1.18156771454167, -1.24096918523912], a = 0.2, v = 0.2, t = 0.2)
movej(p[0.434033755762441, -0.0885590941049368, 0.435808724908098, -1.16250882661732, 1.18637552544109, -1.23939892298107], a = 0.2, v = 0.2, t = 0.2)
movej(p[0.433996841971427, -0.0887052269407724, 0.435861158528415, -1.1647507641585, 1.18947339700631, -1.24319262355313], a = 0.2, v = 0.2, t = 0.2)
movej(p[0.434013336613059, -0.0887182381122711, 0.43580536438075, -1.16313417108861, 1.19119768760376, -1.24071627455464], a = 0.2, v = 0.2, t = 0.2)
movej(p[0.433976026691866, -0.0887847107184393, 0.435757323949759, -1.16158496057805, 1.19183025687125, -1.23835287351803], a = 0.2, v = 0.2, t = 0.2)
movej(p[0.433697896217468, -0.0889278160273498, 0.43569003783029, -1.15701109348695, 1.19102543061626, -1.23758344483288], a = 0.2, v = 0.2, t = 0.2)
movej(p[0.433137079075883, -0.0889213720012204, 0.435526121285575, -1.15563440256581, 1.18862847547366, -1.24769319828731], a = 0.2, v = 0.2, t = 0.2)
movej(p[0.43228660856079, -0.0888531696224696, 0.43535124638346, -1.15799800343511, 1.18275841437621, -1.26091586945429], a = 0.2, v = 0.2, t = 0.2)
movej(p[0.43137012471227, -0.0888018737758693, 0.435331614268876, -1.15764061165135, 1.17757098499573, -1.26174884239347], a = 0.2, v = 0.2, t = 0.2)
movej(p[0.430520936161234, -0.0887325126553585, 0.435359420013804, -1.15359526615831, 1.17048125165928, -1.26463479792817], a = 0.2, v = 0.2, t = 0.2)
movej(p[0.430004557454716, -0.0884728148686134, 0.435345424175276, -1.15289187699183, 1.16458568131453, -1.26144735245885], a = 0.2, v = 0.2, t = 0.2)
movej(p[0.429868309013878, -0.0883167248422308, 0.435355597712228, -1.15382115704249, 1.15784773759869, -1.25979323651869], a = 0.2, v = 0.2, t = 0.2)
movej(p[0.430158380179851, -0.0883314591899203, 0.435493570268084, -1.16347028587236, 1.15402093905753, -1.26581207076648], a = 0.2, v = 0.2, t = 0.2)
movej(p[0.430987773047876, -0.0884067883864978, 0.435629613760159, -1.17032926491802, 1.15489622879393, -1.27249428761223], a = 0.2, v = 0.2, t = 0.2)
movej(p[0.432105052152447, -0.0884074363242628, 0.435751977851158, -1.17444611467612, 1.16190452368165, -1.26566053106129], a = 0.2, v = 0.2, t = 0.2)
movej(p[0.433101690488948, -0.088510846965401, 0.435903734404097, -1.1692117056114, 1.17426640687021, -1.24472886167601], a = 0.2, v = 0.2, t = 0.2)
movej(p[0.433658623826251, -0.0885917597466841, 0.435996106873452, -1.16377079323049, 1.18341624810201, -1.2345549315728], a = 0.2, v = 0.2, t = 0.2)
movej(p[0.433970727748865, -0.0886335706137696, 0.435955591939772, -1.16017093706064, 1.19040203209832, -1.22950851839469], a = 0.2, v = 0.2, t = 0.2)
movej(p[0.434028866914982, -0.0887234523230354, 0.435884142719323, -1.16008355445504, 1.19094104062682, -1.23038176432947], a = 0.2, v = 0.2, t = 0.2)
movej(p[0.434020210016049, -0.0888896351952544, 0.435891804447711, -1.1668557596015, 1.19008086365055, -1.2374062703062], a = 0.2, v = 0.2, t = 0.2)
movej(p[0.433966471141011, -0.0889561036589297, 0.435866330650461, -1.17014071993535, 1.18975870495253, -1.24494974915347], a = 0.2, v = 0.2, t = 0.2)
movej(p[0.433835299738433, -0.0889425637530694, 0.435752997213717, -1.1691759488439, 1.19086185271763, -1.24264212851646], a = 0.2, v = 0.2, t = 0.2)
movej(p[0.433392814875706, -0.0890471347549294, 0.435671903149221, -1.16033493549879, 1.19257728519515, -1.23538477200816], a = 0.2, v = 0.2, t = 0.2)
movej(p[0.432678041549092, -0.0890519145870875, 0.435578539556934, -1.15550852864334, 1.18848422465059, -1.24550182596399], a = 0.2, v = 0.2, t = 0.2)
movej(p[0.431939091434644, -0.0889181017937362, 0.43548613725776, -1.15236668301913, 1.18308699922256, -1.25274019578844], a = 0.2, v = 0.2, t = 0.2)
movej(p[0.431179444264857, -0.0887343237682676, 0.435422319144421, -1.15002224497601, 1.17660793271826, -1.25564608615868], a = 0.2, v = 0.2, t = 0.2)
movej(p[0.430456802448763, -0.0886958141592754, 0.435464838553492, -1.15153819265478, 1.16976909986808, -1.25805554644097], a = 0.2, v = 0.2, t = 0.2)
movej(p[0.429961508935615, -0.0885522844899298, 0.435467527165493, -1.15042416677007, 1.16504602663424, -1.25778208205191], a = 0.2, v = 0.2, t = 0.2)
movej(p[0.429891511707524, -0.0883639003109143, 0.435508811579952, -1.15645061828911, 1.15869598511069, -1.25995619089629], a = 0.2, v = 0.2, t = 0.2)
movej(p[0.430328058475191, -0.0883637112693514, 0.435636113256262, -1.15271753456298, 1.15890063988526, -1.24717477198117], a = 0.2, v = 0.2, t = 0.2)
movej(p[0.43112897604296, -0.0884155554561097, 0.43579678169977, -1.15756858978517, 1.16064342597533, -1.2531302310288], a = 0.2, v = 0.2, t = 0.2)
movej(p[0.432285242652154, -0.0883923994317222, 0.435863293913691, -1.16681706984415, 1.16607211528984, -1.25226194109264], a = 0.2, v = 0.2, t = 0.2)
movej(p[0.433221114601938, -0.0883926485695025, 0.435925081819479, -1.174676687874, 1.17354518907647, -1.25156042010668], a = 0.2, v = 0.2, t = 0.2)
movej(p[0.433740830255463, -0.0886044085230784, 0.436043503715223, -1.17903498186986, 1.17767947549495, -1.24880310160362], a = 0.2, v = 0.2, t = 0.2)
movej(p[0.433940908793186, -0.0886864899236673, 0.436015112530512, -1.17267840937169, 1.18327506562085, -1.2445547330508], a = 0.2, v = 0.2, t = 0.2)
movej(p[0.434047278430357, -0.0887423658765023, 0.435951176730816, -1.17315359606521, 1.1851234947883, -1.24540141852805], a = 0.2, v = 0.2, t = 0.2)
movej(p[0.434041906350551, -0.0888049871018805, 0.435917660422984, -1.17274622495883, 1.18718893587615, -1.24235188491885], a = 0.2, v = 0.2, t = 0.2)
movej(p[0.433929732590859, -0.0889098707944774, 0.435905402394437, -1.17374723223216, 1.18843100925675, -1.24517250596985], a = 0.2, v = 0.2, t = 0.2)
movej(p[0.433639148483533, -0.08891953334608, 0.435757533536438, -1.16903731291518, 1.18977982517582, -1.24363972164992], a = 0.2, v = 0.2, t = 0.2)
movej(p[0.433035340157499, -0.088976060457188, 0.435649555284821, -1.16530570755588, 1.18801468296843, -1.24668740257117], a = 0.2, v = 0.2, t = 0.2)
movej(p[0.43218925545041, -0.089060360821947, 0.435623059756307, -1.15326614974765, 1.18603464142576, -1.24443134477035], a = 0.2, v = 0.2, t = 0.2)
movej(p[0.431464927851016, -0.0889377404231381, 0.43560616812961, -1.1512737256457, 1.17974120658084, -1.25452013466859], a = 0.2, v = 0.2, t = 0.2)
movej(p[0.431003962817324, -0.0887015337842334, 0.435580193048277, -1.1503415479074, 1.17465591284152, -1.25516655286678], a = 0.2, v = 0.2, t = 0.2)
movej(p[0.431041813741901, -0.0886692426570431, 0.435687271288425, -1.15596922255098, 1.16985541429435, -1.25553799537985], a = 0.2, v = 0.2, t = 0.2)
movej(p[0.431451306052193, -0.0887342598186241, 0.435877377125558, -1.15518222599686, 1.16951661188061, -1.25286458047203], a = 0.2, v = 0.2, t = 0.2)
movej(p[0.432388624057136, -0.0887103808164198, 0.435969390921066, -1.15167132717257, 1.17511528190794, -1.24232213893728], a = 0.2, v = 0.2, t = 0.2)
movej(p[0.43322970376721, -0.088705623997032, 0.436032803747621, -1.14908255148411, 1.18231612612737, -1.23019288930811], a = 0.2, v = 0.2, t = 0.2)
movej(p[0.433847419290548, -0.0887927334655152, 0.436086818670111, -1.15489981416803, 1.18662075868735, -1.22727112614979], a = 0.2, v = 0.2, t = 0.2)
movej(p[0.434083370958521, -0.0888824884279678, 0.43609927890123, -1.15893679673749, 1.18948480881662, -1.22852432721663], a = 0.2, v = 0.2, t = 0.2)
movej(p[0.434181338673391, -0.0888598901994814, 0.436016459249501, -1.16332795992391, 1.19038212436958, -1.23090257145144], a = 0.2, v = 0.2, t = 0.2)
movej(p[0.434134807508037, -0.0889750398131973, 0.435975191793657, -1.1601496956622, 1.19190453645609, -1.22309945619884], a = 0.2, v = 0.2, t = 0.2)
movej(p[0.433760816647072, -0.089056259310239, 0.435877346445199, -1.15703952188623, 1.19032623743878, -1.23127820555784], a = 0.2, v = 0.2, t = 0.2)
movej(p[0.433153503126989, -0.0890559140387436, 0.435737270120249, -1.15720566897925, 1.18677390790659, -1.24104827395071], a = 0.2, v = 0.2, t = 0.2)
movej(p[0.432147629249134, -0.0889827752593983, 0.435599974339886, -1.15433962181493, 1.182888058741, -1.2477852628893], a = 0.2, v = 0.2, t = 0.2)
movej(p[0.431072350600126, -0.0889819410011291, 0.435619306941922, -1.15761514936887, 1.17500287253899, -1.25683220408335], a = 0.2, v = 0.2, t = 0.2)
movej(p[0.43018184272926, -0.08881043784039, 0.435611726956297, -1.15423006061484, 1.1674433895114, -1.26158181667728], a = 0.2, v = 0.2, t = 0.2)
movej(p[0.429656061485704, -0.0885495218567127, 0.43556594259886, -1.15510535011454, 1.15963145962528, -1.26270342240141], a = 0.2, v = 0.2, t = 0.2)
movej(p[0.429457151797063, -0.0884576951411449, 0.435589437417388, -1.15149176727342, 1.15550796316962, -1.25435440280166], a = 0.2, v = 0.2, t = 0.2)
movej(p[0.429644311476289, -0.0885282840739575, 0.435717618015297, -1.15347429675486, 1.15389448581385, -1.25579711922718], a = 0.2, v = 0.2, t = 0.2)
movej(p[0.430415502441338, -0.0885555895518435, 0.43584889067328, -1.16003914212021, 1.15570856259492, -1.25677048288395], a = 0.2, v = 0.2, t = 0.2)
movej(p[0.43147055633253, -0.0885020471820075, 0.435923906417875, -1.16468000818712, 1.1601973246525, -1.25592854710209], a = 0.2, v = 0.2, t = 0.2)
movej(p[0.432547664496412, -0.08857605282293, 0.436032212488509, -1.16869819189169, 1.16673675666856, -1.25118088662194], a = 0.2, v = 0.2, t = 0.2)
movej(p[0.433371658363695, -0.0885747161645069, 0.436022555283285, -1.16324292950376, 1.17584528053681, -1.2415568814969], a = 0.2, v = 0.2, t = 0.2)
movej(p[0.433938920476975, -0.0885812941483383, 0.435994995716759, -1.16661290247717, 1.18243572622555, -1.23950698104586], a = 0.2, v = 0.2, t = 0.2)
movej(p[0.434100929790376, -0.0886917539897854, 0.435961844846443, -1.16396365184408, 1.18782034438683, -1.23307441470654], a = 0.2, v = 0.2, t = 0.2)
movej(p[0.433954340826961, -0.0887983433732001, 0.435941733323674, -1.16923704411956, 1.18893970299043, -1.24504260442118], a = 0.2, v = 0.2, t = 0.2)
movej(p[0.433526421018349, -0.0888561640382264, 0.435803377554754, -1.17052821918174, 1.18783525221327, -1.25102512963702], a = 0.2, v = 0.2, t = 0.2)
movej(p[0.432677922862481, -0.0888744356087694, 0.435693496649228, -1.16844372214861, 1.1866221982594, -1.25321105249647], a = 0.2, v = 0.2, t = 0.2)
movej(p[0.431540707603335, -0.0889925178914847, 0.435675962503309, -1.1613084029313, 1.1816040900882, -1.2534921916595], a = 0.2, v = 0.2, t = 0.2)
movej(p[0.430364720704251, -0.0888444971422475, 0.435609249635138, -1.15250184136514, 1.17517155559514, -1.25315676377006], a = 0.2, v = 0.2, t = 0.2)
movej(p[0.429385900622737, -0.0886143509104748, 0.435541872110516, -1.15422475580847, 1.16269100597155, -1.25924199635447], a = 0.2, v = 0.2, t = 0.2)
movej(p[0.428854874238853, -0.0884655348575695, 0.43555012238575, -1.1589769240408, 1.15303932602158, -1.25968175987691], a = 0.2, v = 0.2, t = 0.2)
movej(p[0.428779800205081, -0.0884570988632131, 0.435645924639775, -1.16848974959173, 1.14365973894331, -1.27429430228248], a = 0.2, v = 0.2, t = 0.2)
movej(p[0.429563078963393, -0.0884316065518143, 0.435711891155346, -1.17123331538715, 1.1448858624234, -1.26952058343035], a = 0.2, v = 0.2, t = 0.2)
movej(p[0.430731966812389, -0.0884188704734856, 0.435815769119976, -1.17240954105526, 1.14919011818211, -1.26507616868511], a = 0.2, v = 0.2, t = 0.2)
movej(p[0.431982895489116, -0.0884802784444251, 0.435950820130903, -1.16610918014245, 1.16041682649759, -1.25080741546945], a = 0.2, v = 0.2, t = 0.2)
movej(p[0.43299685146058, -0.0884526556786263, 0.435994770194743, -1.17193598030222, 1.16980615375066, -1.25639412246862], a = 0.2, v = 0.2, t = 0.2)
movej(p[0.433695039107592, -0.0884527933464347, 0.435951168709765, -1.17268138987675, 1.17993730120085, -1.24902671092495], a = 0.2, v = 0.2, t = 0.2)
movej(p[0.434031160849042, -0.0885865822433835, 0.435956201546621, -1.17789128148762, 1.18593342592022, -1.24440780482149], a = 0.2, v = 0.2, t = 0.2)
movej(p[0.434052607927479, -0.08872792224282, 0.435962687899587, -1.17100109251604, 1.18960736985267, -1.23821677470462], a = 0.2, v = 0.2, t = 0.2)
movej(p[0.434066554781594, -0.0887555687064918, 0.435899409301256, -1.16535930582049, 1.19343443966682, -1.2345228529151], a = 0.2, v = 0.2, t = 0.2)
movej(p[0.433807666317827, -0.0888526522001336, 0.435842154598394, -1.16318787108388, 1.19284562693712, -1.23515963951518], a = 0.2, v = 0.2, t = 0.2)
movej(p[0.43317520483014, -0.088974499914849, 0.435796596342199, -1.16176208651203, 1.1918348126467, -1.24245772792106], a = 0.2, v = 0.2, t = 0.2)
movej(p[0.4322217585787, -0.088949572899378, 0.435672482531059, -1.16681270151396, 1.18438980386351, -1.26506998969], a = 0.2, v = 0.2, t = 0.2)
movej(p[0.431153137760015, -0.0887745068903689, 0.435548776002682, -1.16620546455024, 1.17611746336057, -1.27554360147052], a = 0.2, v = 0.2, t = 0.2)
movej(p[0.430148098722757, -0.0886947634238016, 0.435566011466887, -1.16057973949977, 1.16961174945231, -1.2664947650874], a = 0.2, v = 0.2, t = 0.2)
movej(p[0.429316619893197, -0.0885886810778485, 0.435634362943616, -1.15798939478802, 1.15856073873934, -1.26929308705491], a = 0.2, v = 0.2, t = 0.2)
movej(p[0.429099893500025, -0.0884056226504254, 0.43564972044068, -1.16096575335047, 1.15074900325227, -1.2696192071876], a = 0.2, v = 0.2, t = 0.2)
movej(p[0.429473832931637, -0.0882842626054559, 0.435667458398148, -1.161756968572, 1.14625149289493, -1.26681285791093], a = 0.2, v = 0.2, t = 0.2)
movej(p[0.430350168657648, -0.0883555355056008, 0.43580280907905, -1.1677143857538, 1.14659681472713, -1.26582695208684], a = 0.2, v = 0.2, t = 0.2)
movej(p[0.431484880358655, -0.0883731359402443, 0.435877480824593, -1.16636540787634, 1.15503497420089, -1.25996538570715], a = 0.2, v = 0.2, t = 0.2)
movej(p[0.43270934349573, -0.0883207242727324, 0.435898767388376, -1.17183912741056, 1.16549035573487, -1.25599857316427], a = 0.2, v = 0.2, t = 0.2)
movej(p[0.433629522459901, -0.0884105815757043, 0.435933577692536, -1.16458845794694, 1.17866799732594, -1.23655031278302], a = 0.2, v = 0.2, t = 0.2)
movej(p[0.433967679960918, -0.0885404426359698, 0.43598801389862, -1.1714980780087, 1.18474327085158, -1.24353464358986], a = 0.2, v = 0.2, t = 0.2)
movej(p[0.434127177477723, -0.0886002354862767, 0.435925845789158, -1.17621921987585, 1.1863746329397, -1.25100130892492], a = 0.2, v = 0.2, t = 0.2)
movej(p[0.4340499805358, -0.0885919951717176, 0.435837559870039, -1.18249547536044, 1.1863157153016, -1.25912829470503], a = 0.2, v = 0.2, t = 0.2)
movej(p[0.433715937048028, -0.0888363902324589, 0.435811555750212, -1.17224654704261, 1.18690609935207, -1.24981125957675], a = 0.2, v = 0.2, t = 0.2)
movej(p[0.433047069071062, -0.0888812553687738, 0.435704628538742, -1.16321947914958, 1.18566823073658, -1.25380830213903], a = 0.2, v = 0.2, t = 0.2)
movej(p[0.432128068642904, -0.0888050019195631, 0.435538616530051, -1.15806960013976, 1.18117565998144, -1.25811776316049], a = 0.2, v = 0.2, t = 0.2)
movej(p[0.431123191582792, -0.0886574936839771, 0.435475894105069, -1.15685979306369, 1.17407748339879, -1.26433054871571], a = 0.2, v = 0.2, t = 0.2)
movej(p[0.430175530115626, -0.0885354433518352, 0.435528441713921, -1.1529238212227, 1.16729556887535, -1.26737634611874], a = 0.2, v = 0.2, t = 0.2)
movej(p[0.429640123413621, -0.088302163664452, 0.435536839515178, -1.15650433427064, 1.15965263626048, -1.2712365144593], a = 0.2, v = 0.2, t = 0.2)
movej(p[0.429523117863344, -0.0881408079618066, 0.435545961150352, -1.16021666847625, 1.15236032463549, -1.27238818377972], a = 0.2, v = 0.2, t = 0.2)
movej(p[0.42982466273862, -0.088222981601538, 0.435633584008258, -1.15572564365408, 1.15139770179991, -1.25783373515421], a = 0.2, v = 0.2, t = 0.2)
movej(p[0.430539894774961, -0.0883128820686844, 0.435759604125299, -1.15760174672565, 1.15272872117099, -1.25757352124533], a = 0.2, v = 0.2, t = 0.2)
movej(p[0.431541984260823, -0.0883328437645017, 0.435858397637356, -1.16082346818963, 1.15926453551705, -1.25390539204426], a = 0.2, v = 0.2, t = 0.2)
movej(p[0.43258311479116, -0.0883893594652535, 0.435955395033164, -1.16720220833004, 1.16692303227034, -1.25117059236323], a = 0.2, v = 0.2, t = 0.2)
movej(p[0.433285127303954, -0.0885026389015986, 0.436021356575695, -1.16587562504167, 1.17480978242692, -1.24559110049939], a = 0.2, v = 0.2, t = 0.2)
movej(p[0.433792699923811, -0.0885183409958561, 0.435978844808022, -1.16565774878321, 1.18136560555051, -1.24046632145899], a = 0.2, v = 0.2, t = 0.2)
movej(p[0.433975983748516, -0.0885826405982632, 0.435928598104602, -1.1707575991055, 1.18344118906128, -1.24474112461192], a = 0.2, v = 0.2, t = 0.2)
movej(p[0.433925165508018, -0.0886969335591055, 0.435889534069179, -1.17333573800608, 1.18445593963485, -1.24924381836285], a = 0.2, v = 0.2, t = 0.2)
movej(p[0.433576607152351, -0.0887848187594553, 0.435749906882877, -1.17605744090738, 1.18202365627009, -1.26556058309096], a = 0.2, v = 0.2, t = 0.2)
movej(p[0.432951213767571, -0.0887731745591825, 0.435578938047491, -1.17510325781694, 1.17843951456822, -1.27454287399669], a = 0.2, v = 0.2, t = 0.2)
movej(p[0.432051833432003, -0.0888018052746599, 0.435480829962578, -1.17116356837846, 1.17499728461238, -1.27576360907876], a = 0.2, v = 0.2, t = 0.2)
movej(p[0.431064347912412, -0.0887260572804387, 0.435474929897435, -1.16316183346117, 1.17040460917757, -1.27914719519938], a = 0.2, v = 0.2, t = 0.2)
movej(p[0.43040229977663, -0.0884606321616502, 0.435424136014994, -1.16001775942992, 1.16546143616562, -1.27889108053087], a = 0.2, v = 0.2, t = 0.2)
movej(p[0.429934853606348, -0.0882232068985085, 0.435404332630049, -1.15580788817835, 1.1611985970396, -1.27324751443446], a = 0.2, v = 0.2, t = 0.2)
movej(p[0.429788781116265, -0.0881751126349131, 0.435505358356724, -1.16131046645064, 1.15580641289458, -1.27223677579604], a = 0.2, v = 0.2, t = 0.2)
movej(p[0.430143623573491, -0.088244731164263, 0.435617141087594, -1.16584115766392, 1.1533538675536, -1.27667785616705], a = 0.2, v = 0.2, t = 0.2)
movej(p[0.4310877230016, -0.0882302882890544, 0.435713419705157, -1.16916030696413, 1.15686091565172, -1.27209346874122], a = 0.2, v = 0.2, t = 0.2)
movej(p[0.432364408808178, -0.0883460014416697, 0.435838797595529, -1.16101360877306, 1.16669125694865, -1.25077833201286], a = 0.2, v = 0.2, t = 0.2)
movej(p[0.433232641906934, -0.0884095781736918, 0.435914635412176, -1.1582362602469, 1.1760323011461, -1.24446491248174], a = 0.2, v = 0.2, t = 0.2)
movej(p[0.433891874613316, -0.0884606044886302, 0.435924319765841, -1.16718984193734, 1.18151094028699, -1.24841920152313], a = 0.2, v = 0.2, t = 0.2)
movej(p[0.434078504673432, -0.0884905395012461, 0.435864812421673, -1.17420909887103, 1.18518824936764, -1.25272306792451], a = 0.2, v = 0.2, t = 0.2)
movej(p[0.43415038971386, -0.088705119530482, 0.435887716522633, -1.17337933730661, 1.18867773303812, -1.24320393043058], a = 0.2, v = 0.2, t = 0.2)
movej(p[0.433965920798423, -0.088825226522521, 0.435810809010639, -1.16342637396794, 1.19095658714427, -1.23668302136417], a = 0.2, v = 0.2, t = 0.2)
movej(p[0.433524537793104, -0.0888520861062881, 0.435655029637567, -1.15989878336234, 1.18994246088641, -1.23782725728112], a = 0.2, v = 0.2, t = 0.2)
movej(p[0.432696060159096, -0.0888943707808944, 0.435540495986864, -1.15592729381046, 1.18633487683555, -1.24163259651735], a = 0.2, v = 0.2, t = 0.2)
movej(p[0.431699883550729, -0.0888664384903786, 0.435480065111576, -1.15572219624312, 1.17999222189618, -1.258083222634], a = 0.2, v = 0.2, t = 0.2)
movej(p[0.430845174905715, -0.0886660553410135, 0.435404970900151, -1.15843085009136, 1.17135070543607, -1.26965762375313], a = 0.2, v = 0.2, t = 0.2)
movej(p[0.430172008801216, -0.0883717842993893, 0.435360380977798, -1.16416202167472, 1.1617194232908, -1.2804287816278], a = 0.2, v = 0.2, t = 0.2)
movej(p[0.429628716280817, -0.0883449646710919, 0.435437150727685, -1.15999882321275, 1.15797097283492, -1.27004253740138], a = 0.2, v = 0.2, t = 0.2)
movej(p[0.429375824913756, -0.088300957060806, 0.435504877439572, -1.1591915579531, 1.15330416009465, -1.27079231715952], a = 0.2, v = 0.2, t = 0.2)
movej(p[0.429750972830991, -0.088239191054698, 0.435522495736411, -1.16081516230719, 1.1507356524361, -1.26877904603649], a = 0.2, v = 0.2, t = 0.2)
movej(p[0.430668140381833, -0.0882417201034798, 0.435605404470545, -1.16905203224315, 1.14994473101099, -1.27300056474734], a = 0.2, v = 0.2, t = 0.2)
movej(p[0.431760258992357, -0.0883398256997475, 0.435760242674903, -1.17601063823946, 1.155121509567, -1.27744795514401], a = 0.2, v = 0.2, t = 0.2)
movej(p[0.432865863451511, -0.088369548162817, 0.435832147309576, -1.1774074617602, 1.16659469301337, -1.26932952231328], a = 0.2, v = 0.2, t = 0.2)
movej(p[0.433616136342109, -0.0884175257920305, 0.435859814606111, -1.17898198756325, 1.17557738564074, -1.26266044236305], a = 0.2, v = 0.2, t = 0.2)
movej(p[0.433968605130941, -0.0885903015211485, 0.435878480357523, -1.16755279940923, 1.18477778317331, -1.24272387842271], a = 0.2, v = 0.2, t = 0.2)
movej(p[0.434039025538899, -0.0886824550075004, 0.435850548175435, -1.17126948419929, 1.18660429850655, -1.25322703036136], a = 0.2, v = 0.2, t = 0.2)
movej(p[0.434070920991508, -0.0886990732162762, 0.435791116225779, -1.17451302187939, 1.18708149398156, -1.25670161129634], a = 0.2, v = 0.2, t = 0.2)
movej(p[0.433969657543123, -0.0887872242343302, 0.435726605232628, -1.17204583192426, 1.18770905361694, -1.25157225355173], a = 0.2, v = 0.2, t = 0.2)
movej(p[0.433463381771377, -0.0889487681195799, 0.43567627809898, -1.16504827152639, 1.18654756667168, -1.25210452824226], a = 0.2, v = 0.2, t = 0.2)
movej(p[0.432776841601946, -0.0888830247547955, 0.435499319637063, -1.1561054338063, 1.18498191625368, -1.25461454732491], a = 0.2, v = 0.2, t = 0.2)
movej(p[0.431822822796275, -0.0887297725938255, 0.435387165387551, -1.15525714705938, 1.17942240178034, -1.26329142952862], a = 0.2, v = 0.2, t = 0.2)
movej(p[0.43086878217125, -0.0885966462912767, 0.435378365605028, -1.15746644119778, 1.17288306528885, -1.26875077390767], a = 0.2, v = 0.2, t = 0.2)
movej(p[0.430085041398756, -0.0884385267878437, 0.43539167918414, -1.15709045174462, 1.16561784258649, -1.27450165977673], a = 0.2, v = 0.2, t = 0.2)
movej(p[0.429610937730036, -0.0881886973491389, 0.435353041021814, -1.15896976459577, 1.15998146410233, -1.27240001302805], a = 0.2, v = 0.2, t = 0.2)
movej(p[0.429677904659961, -0.0881389553848301, 0.435412246610935, -1.15548136625296, 1.15683579388666, -1.25862985896391], a = 0.2, v = 0.2, t = 0.2)
movej(p[0.430173072862812, -0.0882260098235038, 0.4355774509571, -1.15843442793233, 1.15613295387182, -1.25695346189686], a = 0.2, v = 0.2, t = 0.2)
movej(p[0.431289590758644, -0.0882677108931686, 0.435700031894755, -1.16721314422074, 1.15839851038154, -1.26554352827398], a = 0.2, v = 0.2, t = 0.2)
movej(p[0.432539535002613, -0.0882315313328908, 0.435770987298974, -1.17380901627056, 1.16646341502504, -1.26631015992994], a = 0.2, v = 0.2, t = 0.2)
movej(p[0.43359065958605, -0.0883913701802226, 0.435881900868372, -1.17294561371329, 1.17680720235271, -1.25310242218132], a = 0.2, v = 0.2, t = 0.2)
movej(p[0.433999753907264, -0.0885060935243096, 0.435934007140448, -1.17043732416438, 1.18344311244642, -1.25270294348638], a = 0.2, v = 0.2, t = 0.2)
movej(p[0.434227485940083, -0.0885489859345023, 0.435892571708886, -1.16819019197835, 1.18801765769108, -1.24832039890438], a = 0.2, v = 0.2, t = 0.2)
movej(p[0.434198853014392, -0.0885955980498226, 0.435818533160496, -1.16670529221705, 1.18937074547371, -1.24577718394073], a = 0.2, v = 0.2, t = 0.2)
movej(p[0.43395488605483, -0.0887619387513822, 0.435809310592102, -1.1704375458669, 1.18765104276018, -1.25171537155906], a = 0.2, v = 0.2, t = 0.2)
movej(p[0.433395014670946, -0.0888394310429137, 0.435696529255609, -1.16629751932991, 1.18590875288007, -1.25568968783083], a = 0.2, v = 0.2, t = 0.2)
movej(p[0.432447680209154, -0.0887770182742291, 0.435556606202447, -1.16435550626557, 1.18196227963928, -1.26375280676773], a = 0.2, v = 0.2, t = 0.2)
movej(p[0.431331135922982, -0.0888054516996845, 0.435531723024734, -1.15413318220362, 1.17786982182947, -1.25627134535665], a = 0.2, v = 0.2, t = 0.2)
movej(p[0.430217472201595, -0.0887221102905493, 0.435571183189325, -1.15859312058706, 1.16684826561913, -1.27233600986046], a = 0.2, v = 0.2, t = 0.2)
movej(p[0.429464257999001, -0.0885028945307722, 0.435563803629698, -1.16448804893278, 1.15587600305966, -1.2796229943676], a = 0.2, v = 0.2, t = 0.2)
movej(p[0.42904648201442, -0.0883470732600385, 0.435543905097124, -1.16339704916022, 1.14881120003001, -1.2741592748363], a = 0.2, v = 0.2, t = 0.2)
movej(p[0.429002142237116, -0.0884517096123071, 0.435694817190598, -1.15804742801495, 1.14718940217504, -1.26238558785101], a = 0.2, v = 0.2, t = 0.2)
movej(p[0.429716033993552, -0.0884677554372889, 0.435793749933154, -1.15194606979034, 1.15019513042274, -1.25505714303277], a = 0.2, v = 0.2, t = 0.2)
movej(p[0.430904994793629, -0.0884082337103996, 0.435877986770203, -1.15760197622288, 1.15458871295877, -1.25667372250252], a = 0.2, v = 0.2, t = 0.2)
movej(p[0.432306434495322, -0.0883971470194968, 0.435943594479159, -1.15796525414702, 1.16566834481196, -1.24563241386823], a = 0.2, v = 0.2, t = 0.2)
movej(p[0.433272244242725, -0.0885016531319361, 0.436019671842239, -1.16042276663799, 1.17527143230797, -1.24321698371867], a = 0.2, v = 0.2, t = 0.2)
movej(p[0.433859856507729, -0.0885251131680298, 0.435962416429602, -1.16286138473286, 1.18383881147397, -1.23910499538787], a = 0.2, v = 0.2, t = 0.2)
movej(p[0.434111796314334, -0.0885845232744913, 0.435889279889229, -1.16450573359092, 1.18795071374507, -1.23845605033017], a = 0.2, v = 0.2, t = 0.2)
movej(p[0.434078038035259, -0.0887126895035135, 0.435841790836878, -1.1619062408541, 1.19122315900717, -1.23527250209868], a = 0.2, v = 0.2, t = 0.2)
movej(p[0.433798129772777, -0.0888146944712608, 0.435787613792388, -1.16552801452065, 1.18979549928857, -1.24762582308434], a = 0.2, v = 0.2, t = 0.2)
movej(p[0.433223796992433, -0.0888053408565321, 0.435649034978512, -1.16383249628531, 1.18819907479114, -1.25175366128661], a = 0.2, v = 0.2, t = 0.2)
movej(p[0.432373297119941, -0.088859516213719, 0.435618142549584, -1.16407100588089, 1.18402754486575, -1.25679142844365], a = 0.2, v = 0.2, t = 0.2)
movej(p[0.431372012439055, -0.0888276317528281, 0.435601483906869, -1.1585380316295, 1.17798331494188, -1.26473978084257], a = 0.2, v = 0.2, t = 0.2)
movej(p[0.430600244536321, -0.0886061528993004, 0.435557081168789, -1.16005161589487, 1.16962495117747, -1.27481173568486], a = 0.2, v = 0.2, t = 0.2)
movej(p[0.42996995946455, -0.0883666536743834, 0.435481309770337, -1.15801904029666, 1.16187693133116, -1.27385138586659], a = 0.2, v = 0.2, t = 0.2)
movej(p[0.429598687221258, -0.0883100317656007, 0.435523661603857, -1.1626532285831, 1.1544175696639, -1.27354498024906], a = 0.2, v = 0.2, t = 0.2)
movej(p[0.429466494957924, -0.0883235313016051, 0.435561017779283, -1.15919908981064, 1.15163552276179, -1.27147650448864], a = 0.2, v = 0.2, t = 0.2)
movej(p[0.429929808585935, -0.0882860680730286, 0.435585319499482, -1.16528309076574, 1.15072778008229, -1.27415379016966], a = 0.2, v = 0.2, t = 0.2)
movej(p[0.430767406786988, -0.0883312789224324, 0.435659761535912, -1.16106743705801, 1.1558035038473, -1.26119394989552], a = 0.2, v = 0.2, t = 0.2)
movej(p[0.43171683297166, -0.0884586946606528, 0.435834399145617, -1.17011753238521, 1.15936739210056, -1.26819377228777], a = 0.2, v = 0.2, t = 0.2)
movej(p[0.432699232516786, -0.0884947844932488, 0.435902313512213, -1.17011847599995, 1.1685355693936, -1.2603814542959], a = 0.2, v = 0.2, t = 0.2)
movej(p[0.433433422838856, -0.0885090459385428, 0.435898992052776, -1.17273838634714, 1.1769112800318, -1.25495866092479], a = 0.2, v = 0.2, t = 0.2)
movej(p[0.433867887464007, -0.0886759487510295, 0.435929812975623, -1.16441794846009, 1.1856996985614, -1.23677543671468], a = 0.2, v = 0.2, t = 0.2)
movej(p[0.433951616462762, -0.0888054390535266, 0.435896703760491, -1.16737226387407, 1.18694354548762, -1.24662570282825], a = 0.2, v = 0.2, t = 0.2)
movej(p[0.433865142269453, -0.0888153703692832, 0.435822767977274, -1.16876499284733, 1.18806573476583, -1.25027445292489], a = 0.2, v = 0.2, t = 0.2)
movej(p[0.433477650459214, -0.0888455641876659, 0.435724019574501, -1.17382082399333, 1.18510725292208, -1.25865837750587], a = 0.2, v = 0.2, t = 0.2)
movej(p[0.43268915197545, -0.0889996994865529, 0.43574687078102, -1.16618764013639, 1.18487906921925, -1.25559669700666], a = 0.2, v = 0.2, t = 0.2)
movej(p[0.431846284869601, -0.0889346921217588, 0.435649591966781, -1.15692998459604, 1.18205324400674, -1.25926667547298], a = 0.2, v = 0.2, t = 0.2)
movej(p[0.431043339641835, -0.0886961586998224, 0.435532098842191, -1.15020767799278, 1.17794012957543, -1.26016831419494], a = 0.2, v = 0.2, t = 0.2)
movej(p[0.430330246786392, -0.08855312679755, 0.435529099102468, -1.14986149000252, 1.17072600476477, -1.25743302127705], a = 0.2, v = 0.2, t = 0.2)
movej(p[0.429694488608417, -0.088494608005494, 0.435603316377105, -1.1514058292685, 1.16205175454544, -1.26296185315433], a = 0.2, v = 0.2, t = 0.2)
movej(p[0.42960373842281, -0.0883549807122085, 0.435624894361212, -1.15672706928267, 1.15633389418218, -1.26623939709409], a = 0.2, v = 0.2, t = 0.2)
movej(p[0.430060469153774, -0.0882673211051335, 0.435654472107578, -1.15915655096444, 1.15380555013405, -1.26628295865457], a = 0.2, v = 0.2, t = 0.2)
movej(p[0.431019046988897, -0.0882763055744836, 0.435744891394355, -1.1650225249305, 1.15595031686186, -1.2665156974955], a = 0.2, v = 0.2, t = 0.2)
movej(p[0.432092898619188, -0.0882965100346182, 0.435814293334619, -1.16863114192831, 1.16211409216449, -1.26853397017067], a = 0.2, v = 0.2, t = 0.2)
movej(p[0.433182778393388, -0.088248637468139, 0.435775554876094, -1.16879522109016, 1.17296613364661, -1.25617946991435], a = 0.2, v = 0.2, t = 0.2)
movej(p[0.433868825951603, -0.0883804380804406, 0.435813308169829, -1.16932359436836, 1.18175341434554, -1.24368326430436], a = 0.2, v = 0.2, t = 0.2)
movej(p[0.434100962865639, -0.0885611600095452, 0.435879132172765, -1.1688765713571, 1.18844211950309, -1.24045401098723], a = 0.2, v = 0.2, t = 0.2)
movej(p[0.434170257306002, -0.0886393418174993, 0.435852091402883, -1.17932076845144, 1.18741281676475, -1.25626320214105], a = 0.2, v = 0.2, t = 0.2)
movej(p[0.434009664324846, -0.0886549651451879, 0.435743501704314, -1.17858738035374, 1.18681894170441, -1.25721122066076], a = 0.2, v = 0.2, t = 0.2)
movej(p[0.433619198654862, -0.0888677068971515, 0.43570109715697, -1.17455771899158, 1.18444812095795, -1.25322139760053], a = 0.2, v = 0.2, t = 0.2)
movej(p[0.432831633984876, -0.0889404666866263, 0.435647216945154, -1.16377803157121, 1.18246733058661, -1.257257173692], a = 0.2, v = 0.2, t = 0.2)
movej(p[0.431978902851769, -0.0888142049163318, 0.435537862338061, -1.15911002788904, 1.17956908344316, -1.26209347015416], a = 0.2, v = 0.2, t = 0.2)
movej(p[0.431048724939765, -0.0885814724121716, 0.435473690424209, -1.15623437492274, 1.17373106210095, -1.26592635498449], a = 0.2, v = 0.2, t = 0.2)
movej(p[0.430185717330116, -0.0885264449557678, 0.435601834486625, -1.16110656266269, 1.16613745925646, -1.27222564386582], a = 0.2, v = 0.2, t = 0.2)
movej(p[0.429577628590443, -0.0883713643211699, 0.435653845638821, -1.16152787092868, 1.15758820132988, -1.27696029565065], a = 0.2, v = 0.2, t = 0.2)
movej(p[0.429569199339434, -0.0881900380163015, 0.435667670205873, -1.16563771581679, 1.15094302622303, -1.27743623809822], a = 0.2, v = 0.2, t = 0.2)
movej(p[0.43014320911355, -0.088144282942264, 0.435718533549445, -1.16225537716727, 1.15166822211895, -1.26605377694373], a = 0.2, v = 0.2, t = 0.2)
movej(p[0.431059323090067, -0.0882401783792243, 0.435837679232121, -1.16762568064669, 1.15397187410667, -1.27006303801165], a = 0.2, v = 0.2, t = 0.2)
movej(p[0.432277771393889, -0.088260164472839, 0.435887456157236, -1.16722236628505, 1.16574667574469, -1.26281307671923], a = 0.2, v = 0.2, t = 0.2)
movej(p[0.433287601849565, -0.0882990688843708, 0.435907317334298, -1.16950235477907, 1.17441467065629, -1.25800642621387], a = 0.2, v = 0.2, t = 0.2)
movej(p[0.433912386552356, -0.0884424254271689, 0.435975040009553, -1.15999402194576, 1.18701776812867, -1.23834473033365], a = 0.2, v = 0.2, t = 0.2)
movej(p[0.434172722238459, -0.0885133050885462, 0.435974932504268, -1.16439822884445, 1.19035919010795, -1.24814133700531], a = 0.2, v = 0.2, t = 0.2)
movej(p[0.434284596143912, -0.0885311717486862, 0.435909540318472, -1.16805617112521, 1.19192354620353, -1.25177178051382], a = 0.2, v = 0.2, t = 0.2)
movej(p[0.43428874592347, -0.0886288981634052, 0.435877495438385, -1.16851015015633, 1.19289905207119, -1.24942050705649], a = 0.2, v = 0.2, t = 0.2)
movej(p[0.433988692160076, -0.0888383380398371, 0.435864915492711, -1.16313398639541, 1.19208287034969, -1.24814553026762], a = 0.2, v = 0.2, t = 0.2)
movej(p[0.433458775829118, -0.0888387062703735, 0.435729004432488, -1.15975451876318, 1.19002873326041, -1.25514339787057], a = 0.2, v = 0.2, t = 0.2)
movej(p[0.432542283278467, -0.0887820473400005, 0.435587329676763, -1.15841303719745, 1.18554981333084, -1.26406686212615], a = 0.2, v = 0.2, t = 0.2)
movej(p[0.431469165539895, -0.0887418927320965, 0.435601732545472, -1.15946871843866, 1.18045852057296, -1.27038651549203], a = 0.2, v = 0.2, t = 0.2)
movej(p[0.430573433421734, -0.0886396082658518, 0.435679153466152, -1.15525592310669, 1.17490333928875, -1.27148838264715], a = 0.2, v = 0.2, t = 0.2)
movej(p[0.429909854470981, -0.0883803455344229, 0.435746503518412, -1.15612389889085, 1.16728866119922, -1.27051241284221], a = 0.2, v = 0.2, t = 0.2)
movej(p[0.429357453997877, -0.0882207375759251, 0.435942057766749, -1.15910612086986, 1.15905751558121, -1.26565914070319], a = 0.2, v = 0.2, t = 0.2)
movej(p[0.428839904392182, -0.0882013046806173, 0.436218818001649, -1.16211968894393, 1.15225325901745, -1.26394596835622], a = 0.2, v = 0.2, t = 0.2)
movej(p[0.428852556288103, -0.0881397167839595, 0.43640602115898, -1.16583065152665, 1.14736713022732, -1.27103153887694], a = 0.2, v = 0.2, t = 0.2)
movej(p[0.429585460299285, -0.0879928795999046, 0.436421732828888, -1.16836407364324, 1.14560219101494, -1.27369129882973], a = 0.2, v = 0.2, t = 0.2)
movej(p[0.430709497322536, -0.0880334043797878, 0.436461359317204, -1.16537040343828, 1.14937519861325, -1.26562272236887], a = 0.2, v = 0.2, t = 0.2)
movej(p[0.431737027846481, -0.0881002936513285, 0.43652096884761, -1.16676644257051, 1.15596518524592, -1.27092024771517], a = 0.2, v = 0.2, t = 0.2)
movej(p[0.432706419937504, -0.0881757563414693, 0.43652848088181, -1.17318292243003, 1.16462875582359, -1.27172135399875], a = 0.2, v = 0.2, t = 0.2)
movej(p[0.433449042828985, -0.0882262173699675, 0.436475792387324, -1.1762335626968, 1.17417106830789, -1.26931903953931], a = 0.2, v = 0.2, t = 0.2)
movej(p[0.433909510646686, -0.0884490608857271, 0.43648761706329, -1.17725906795454, 1.181609922783, -1.26173624530744], a = 0.2, v = 0.2, t = 0.2)
movej(p[0.434066694258783, -0.0885204409616309, 0.436411728450486, -1.16985887809628, 1.18761441804796, -1.25449153176111], a = 0.2, v = 0.2, t = 0.2)
movej(p[0.434164906869653, -0.0885216836971455, 0.436296231454748, -1.17151541322891, 1.18981089138039, -1.25610140335018], a = 0.2, v = 0.2, t = 0.2)
movej(p[0.434164154206965, -0.0885788573370314, 0.43623244839673, -1.16735602241516, 1.19253509431448, -1.24799225026059], a = 0.2, v = 0.2, t = 0.2)
movej(p[0.434083898875293, -0.0887374464025118, 0.43622913613507, -1.17015879384306, 1.19190142699988, -1.25214939818126], a = 0.2, v = 0.2, t = 0.2)
movej(p[0.433843507037722, -0.0887783540851749, 0.436115559517765, -1.16783197180951, 1.19284226668569, -1.25191513599459], a = 0.2, v = 0.2, t = 0.2)
movej(p[0.433262434395117, -0.0888114203020651, 0.435983826626042, -1.1670385642824, 1.18960518399827, -1.25765311709144], a = 0.2, v = 0.2, t = 0.2)
movej(p[0.432294860255006, -0.088903514350768, 0.435960102857742, -1.16194283414238, 1.18672564198535, -1.2577789295885], a = 0.2, v = 0.2, t = 0.2)
movej(p[0.431320534657194, -0.088814611469855, 0.435959145667763, -1.16230343527254, 1.1782254272484, -1.27400705882036], a = 0.2, v = 0.2, t = 0.2)
movej(p[0.430587672859163, -0.0885328861300667, 0.435926407457536, -1.16631285838124, 1.1702032293216, -1.28193037420442], a = 0.2, v = 0.2, t = 0.2)
movej(p[0.430033744329091, -0.0883156065106709, 0.435949403598338, -1.16624041527375, 1.16233357250804, -1.2816716312868], a = 0.2, v = 0.2, t = 0.2)
movej(p[0.429674215867671, -0.0882964321786818, 0.436067766149553, -1.16219115090394, 1.15854605821234, -1.27111525627321], a = 0.2, v = 0.2, t = 0.2)
movej(p[0.429895994252288, -0.0882917836901434, 0.436160390624353, -1.1645794542339, 1.15558617666218, -1.27462971902548], a = 0.2, v = 0.2, t = 0.2)
movej(p[0.430663775863376, -0.0882487257546986, 0.436205355464735, -1.16935944221646, 1.15528870446751, -1.27377507879185], a = 0.2, v = 0.2, t = 0.2)
movej(p[0.431784759935098, -0.0883498164279513, 0.436320338694934, -1.17267470377583, 1.15915690361095, -1.26967174150215], a = 0.2, v = 0.2, t = 0.2)
movej(p[0.432686883374312, -0.0884027574277856, 0.436365984391343, -1.17121583763276, 1.16682655556435, -1.26900009723164], a = 0.2, v = 0.2, t = 0.2)
movej(p[0.433551629498334, -0.0883923035169594, 0.436332438413018, -1.17953894669012, 1.17453376473703, -1.27335713916491], a = 0.2, v = 0.2, t = 0.2)
movej(p[0.433999404215708, -0.0884011920240951, 0.436245320270922, -1.17841002216732, 1.18280898692828, -1.26507619866298], a = 0.2, v = 0.2, t = 0.2)
movej(p[0.434144265519796, -0.0885944374405522, 0.436239183629317, -1.18000138078455, 1.18666269439838, -1.25925824697538], a = 0.2, v = 0.2, t = 0.2)
movej(p[0.433816191750084, -0.0886991909980498, 0.436115996562462, -1.16540342327334, 1.18933448834476, -1.24943569209887], a = 0.2, v = 0.2, t = 0.2)
movej(p[0.433114676448733, -0.0886747108166751, 0.435913398957582, -1.16212420355668, 1.18598311436414, -1.25573021887193], a = 0.2, v = 0.2, t = 0.2)
movej(p[0.432036696613362, -0.0886496766716005, 0.435799435422124, -1.15348443762111, 1.18156727392242, -1.25395884859978], a = 0.2, v = 0.2, t = 0.2)
movej(p[0.43087647212979, -0.0885753378236387, 0.435851348209617, -1.16012563586812, 1.17285124989807, -1.27408403624177], a = 0.2, v = 0.2, t = 0.2)
movej(p[0.4300515740198, -0.0883152236469411, 0.435904601300756, -1.16771777771301, 1.1640626388092, -1.28539720427532], a = 0.2, v = 0.2, t = 0.2)
movej(p[0.429561011647903, -0.0880214645943167, 0.435930456989119, -1.17576634618885, 1.15393527482336, -1.29481341333628], a = 0.2, v = 0.2, t = 0.2)
movej(p[0.429483453321016, -0.0880475883188679, 0.436047948374633, -1.17005163070258, 1.15079346840332, -1.27708769346724], a = 0.2, v = 0.2, t = 0.2)
movej(p[0.429710963735935, -0.0881159981114522, 0.436131963172086, -1.16747747568255, 1.14899433683714, -1.2774568209328], a = 0.2, v = 0.2, t = 0.2)
movej(p[0.430446363798036, -0.0881333942726204, 0.436179757568602, -1.17121417632627, 1.15095711592664, -1.27621350999414], a = 0.2, v = 0.2, t = 0.2)
movej(p[0.431263936371433, -0.0881909199485587, 0.436244331429701, -1.17491186020315, 1.15577148844587, -1.27674719439593], a = 0.2, v = 0.2, t = 0.2)
movej(p[0.431910230104962, -0.0883798375343675, 0.43634328324208, -1.1704961019903, 1.16326648695696, -1.26631664822661], a = 0.2, v = 0.2, t = 0.2)
movej(p[0.432323485330484, -0.0884511319657796, 0.436302432405498, -1.16550125836017, 1.16994348807338, -1.26224436846094], a = 0.2, v = 0.2, t = 0.2)
movej(p[0.432389258866905, -0.0884929230775224, 0.436192623509543, -1.16486932728804, 1.17239769395791, -1.26112071780061], a = 0.2, v = 0.2, t = 0.2)
movej(p[0.431852060794485, -0.0885953079010865, 0.436119891404806, -1.16278839181436, 1.17462936820928, -1.25527093738343], a = 0.2, v = 0.2, t = 0.2)
movej(p[0.430820467959474, -0.0886118045866142, 0.43605474526235, -1.16091966959678, 1.1708318619106, -1.26417537584162], a = 0.2, v = 0.2, t = 0.2)
movej(p[0.429737490283176, -0.0884062064828917, 0.435951250671038, -1.15995723236343, 1.16518765551862, -1.26673137617679], a = 0.2, v = 0.2, t = 0.2)
movej(p[0.428767484867941, -0.0881921358745111, 0.435985700880005, -1.16173425027399, 1.15441234788389, -1.269039585332], a = 0.2, v = 0.2, t = 0.2)
movej(p[0.427762243549759, -0.0880962157195246, 0.436229127267623, -1.16199642211995, 1.14701782652468, -1.26169618343917], a = 0.2, v = 0.2, t = 0.2)
movej(p[0.426929905386648, -0.0879943880502463, 0.436585069368108, -1.16624123745952, 1.13681509314858, -1.26698201578102], a = 0.2, v = 0.2, t = 0.2)
movej(p[0.426399553611462, -0.0878155710324596, 0.43686018272294, -1.1737240417604, 1.12617561732355, -1.27420501365592], a = 0.2, v = 0.2, t = 0.2)
movej(p[0.426569035093178, -0.0877406823806834, 0.436990632897684, -1.18048862732316, 1.11642853858992, -1.27713553048576], a = 0.2, v = 0.2, t = 0.2)
movej(p[0.427075448287796, -0.0877373974253399, 0.43686569647431, -1.18224353380802, 1.11367201807537, -1.28245081616925], a = 0.2, v = 0.2, t = 0.2)
movej(p[0.428025768858473, -0.0877015469169386, 0.436631238044317, -1.18251915130021, 1.11718289465618, -1.28258202805971], a = 0.2, v = 0.2, t = 0.2)
movej(p[0.428883728274263, -0.0877043622951332, 0.436465643204715, -1.17681755145159, 1.12586696273376, -1.27467169347591], a = 0.2, v = 0.2, t = 0.2)
movej(p[0.429699368777536, -0.0879437542675153, 0.436515151282634, -1.17685642356187, 1.1340470384822, -1.26959107548137], a = 0.2, v = 0.2, t = 0.2)
movej(p[0.430406329106613, -0.088092093157393, 0.436470311157056, -1.17597362606778, 1.14035142164948, -1.2729777579133], a = 0.2, v = 0.2, t = 0.2)
movej(p[0.43118116173248, -0.088162746620398, 0.43636262552265, -1.18329902770367, 1.14512502415035, -1.2795870474509], a = 0.2, v = 0.2, t = 0.2)
movej(p[0.431875579609803, -0.0882500197942024, 0.436254857853624, -1.17880464210964, 1.15143958826274, -1.27191469606781], a = 0.2, v = 0.2, t = 0.2)
movej(p[0.432420084862413, -0.0883716626053097, 0.436212554400961, -1.18538010386638, 1.15705612563977, -1.27683237171352], a = 0.2, v = 0.2, t = 0.2)
movej(p[0.432794762139009, -0.0884596819317219, 0.436120748006596, -1.18899741006568, 1.16168010886228, -1.27880631784539], a = 0.2, v = 0.2, t = 0.2)
movej(p[0.432897204094556, -0.0884762860237565, 0.436003756815596, -1.19499752744601, 1.16419903312217, -1.28372338675047], a = 0.2, v = 0.2, t = 0.2)
movej(p[0.432562763292129, -0.0886523307913597, 0.435953336456686, -1.1861680354542, 1.16673017191913, -1.27547345412867], a = 0.2, v = 0.2, t = 0.2)
movej(p[0.431951935339516, -0.0885713687790207, 0.435852891079186, -1.17797495612986, 1.1661532852837, -1.28085702804572], a = 0.2, v = 0.2, t = 0.2)
movej(p[0.431208672024801, -0.0882915807698991, 0.435732034024341, -1.17573911206841, 1.16283608446285, -1.28883764818513], a = 0.2, v = 0.2, t = 0.2)
movej(p[0.430583882328674, -0.0880459869034881, 0.435720013155202, -1.17527025666951, 1.15758732010881, -1.29084426464364], a = 0.2, v = 0.2, t = 0.2)
movej(p[0.430044544631714, -0.0881020395216885, 0.43585300438473, -1.17362758806391, 1.15325106096481, -1.28827175001129], a = 0.2, v = 0.2, t = 0.2)
movej(p[0.430237822060785, -0.0881369091896064, 0.435922994819585, -1.16847478092779, 1.15136793141447, -1.28014140880231], a = 0.2, v = 0.2, t = 0.2)
movej(p[0.430920982579976, -0.0881534487856989, 0.435947118029971, -1.16744663622323, 1.1529520914164, -1.27276698185272], a = 0.2, v = 0.2, t = 0.2)
movej(p[0.43203983207239, -0.0881987654414844, 0.436014800716338, -1.16671355005945, 1.16025833285061, -1.26000299130566], a = 0.2, v = 0.2, t = 0.2)
movej(p[0.432933609403977, -0.0882507851425905, 0.436052107101018, -1.17215494813895, 1.16825627299899, -1.26179533466532], a = 0.2, v = 0.2, t = 0.2)
movej(p[0.433581234247779, -0.088252066845922, 0.436005676386756, -1.17463713470261, 1.17681103876126, -1.25799209717802], a = 0.2, v = 0.2, t = 0.2)
movej(p[0.433880764300614, -0.088358562926565, 0.435953873643775, -1.17370851881437, 1.18183870397034, -1.25345414997139], a = 0.2, v = 0.2, t = 0.2)
movej(p[0.433844365195808, -0.0885395782507963, 0.435947505834123, -1.17011980164685, 1.18636319982202, -1.25144356131287], a = 0.2, v = 0.2, t = 0.2)
movej(p[0.433536371410203, -0.0886313934153201, 0.435869697021581, -1.17414152133771, 1.18438504434722, -1.26452362774607], a = 0.2, v = 0.2, t = 0.2)
movej(p[0.432887682269512, -0.0886007296702338, 0.435742881732731, -1.17546568680653, 1.18136887634042, -1.27544014308994], a = 0.2, v = 0.2, t = 0.2)
movej(p[0.432030160630662, -0.0886224480829192, 0.435731124456031, -1.17750463057997, 1.17742928557027, -1.28203294916652], a = 0.2, v = 0.2, t = 0.2)
movej(p[0.431131193568602, -0.0885126067005822, 0.43575811215962, -1.17227098072588, 1.1727671670676, -1.2881840009669], a = 0.2, v = 0.2, t = 0.2)
movej(p[0.430474720468868, -0.0882523799732395, 0.435759760240911, -1.17055835490593, 1.16761172219135, -1.28894895340006], a = 0.2, v = 0.2, t = 0.2)
movej(p[0.430082473679541, -0.0880467433016216, 0.435756237564604, -1.16609573812944, 1.16024319492175, -1.28175501610999], a = 0.2, v = 0.2, t = 0.2)
movej(p[0.430029531106506, -0.0881178292183761, 0.435905916764561, -1.16880935296663, 1.1555345284644, -1.27485620570258], a = 0.2, v = 0.2, t = 0.2)
movej(p[0.430436076608031, -0.0882232771187015, 0.436036412150237, -1.17183170525668, 1.15402252324304, -1.27895252573439], a = 0.2, v = 0.2, t = 0.2)
movej(p[0.431438295659905, -0.0882360432955607, 0.436079120433373, -1.17822035804665, 1.15710319551082, -1.28032971965828], a = 0.2, v = 0.2, t = 0.2)
movej(p[0.43252775083, -0.0882967119016924, 0.43609256129868, -1.1739928130246, 1.16529673038507, -1.26751792624232], a = 0.2, v = 0.2, t = 0.2)
movej(p[0.433266733381437, -0.0884531243735649, 0.436163551038465, -1.18219953796509, 1.17046986913641, -1.270856622615], a = 0.2, v = 0.2, t = 0.2)
movej(p[0.433688323119247, -0.0885382372759395, 0.436128030892849, -1.18386929746489, 1.17674576663184, -1.26644325316785], a = 0.2, v = 0.2, t = 0.2)
movej(p[0.433857394927842, -0.0885752338770017, 0.43604093213215, -1.18732149808017, 1.17952292207857, -1.26723454732128], a = 0.2, v = 0.2, t = 0.2)
movej(p[0.433806265048545, -0.0887340456821136, 0.435987453200661, -1.18013368767229, 1.18169358334675, -1.25838627530651], a = 0.2, v = 0.2, t = 0.2)
movej(p[0.433466928011373, -0.0888266013737528, 0.435875975709622, -1.18205654703549, 1.17949678387338, -1.2739547378343], a = 0.2, v = 0.2, t = 0.2)
movej(p[0.432885187849416, -0.0887576085835716, 0.435724120567565, -1.18431108478379, 1.17567141493096, -1.28692122406954], a = 0.2, v = 0.2, t = 0.2)
movej(p[0.432108869799275, -0.0886478796780836, 0.435631945044642, -1.18082993069964, 1.17322396210295, -1.29047256600811], a = 0.2, v = 0.2, t = 0.2)
movej(p[0.431175777485766, -0.0886279489176084, 0.435718143815262, -1.1664056760428, 1.17214046409568, -1.27638594254537], a = 0.2, v = 0.2, t = 0.2)
movej(p[0.430542284255964, -0.0884238684398796, 0.435738859687648, -1.15948329172924, 1.16806281363709, -1.27743568167231], a = 0.2, v = 0.2, t = 0.2)
movej(p[0.430291062360443, -0.0881580056691212, 0.43572575832285, -1.16439619302501, 1.16194513799782, -1.28046145622455], a = 0.2, v = 0.2, t = 0.2)
movej(p[0.43054587574507, -0.0881161434221826, 0.435795017036351, -1.169682544419, 1.15780884913732, -1.27993582684837], a = 0.2, v = 0.2, t = 0.2)
movej(p[0.431115626392427, -0.0882141238492579, 0.435933809933312, -1.17357859117784, 1.15700312634539, -1.28219780898458], a = 0.2, v = 0.2, t = 0.2)
movej(p[0.432029514063401, -0.0882583099512806, 0.435974494938296, -1.1755467960683, 1.16168977272595, -1.28216505506268], a = 0.2, v = 0.2, t = 0.2)
movej(p[0.432984572010651, -0.0882380216562504, 0.435950271404735, -1.1776941009758, 1.16891716779708, -1.27617928150911], a = 0.2, v = 0.2, t = 0.2)
movej(p[0.433709146904383, -0.0884017947358188, 0.435992757114651, -1.17887094001866, 1.17714663093666, -1.26396946209569], a = 0.2, v = 0.2, t = 0.2)
movej(p[0.433905385480041, -0.0885032013790944, 0.435993919327821, -1.17800016860169, 1.18083293576435, -1.26505702930059], a = 0.2, v = 0.2, t = 0.2)
movej(p[0.434096884369667, -0.0885227302551796, 0.43591701806052, -1.18281748093174, 1.18143262149641, -1.27128220273924], a = 0.2, v = 0.2, t = 0.2)
movej(p[0.434144439885417, -0.0885311788499419, 0.435828576018994, -1.18268817206048, 1.18274935052214, -1.2714416248965], a = 0.2, v = 0.2, t = 0.2)
movej(p[0.434187129367112, -0.0887517351623231, 0.435863635738864, -1.1754686317761, 1.18650290601649, -1.26105018042615], a = 0.2, v = 0.2, t = 0.2)
movej(p[0.434111111336671, -0.0888266845631767, 0.435812152223448, -1.16804878873352, 1.1888769772059, -1.26034793335], a = 0.2, v = 0.2, t = 0.2)
movej(p[0.433969872072502, -0.088806890935957, 0.435715575344856, -1.17089226750814, 1.1875296590404, -1.26278621704932], a = 0.2, v = 0.2, t = 0.2)
movej(p[0.433491598693919, -0.0888661206912982, 0.43565954019945, -1.17401223070119, 1.18494392906024, -1.26789103279271], a = 0.2, v = 0.2, t = 0.2)
movej(p[0.432656431737451, -0.0890401460584161, 0.435711494719202, -1.1719537662725, 1.18252118464518, -1.27366060273816], a = 0.2, v = 0.2, t = 0.2)
movej(p[0.431805247694789, -0.088920549794886, 0.435664028686424, -1.1676355445193, 1.17915796966869, -1.2805891152406], a = 0.2, v = 0.2, t = 0.2)
movej(p[0.431036115566287, -0.0886546857595683, 0.435606038912918, -1.16596200654815, 1.17278613148562, -1.28564284906937], a = 0.2, v = 0.2, t = 0.2)
movej(p[0.430420314920763, -0.0884847941583735, 0.435641034424056, -1.16483299867271, 1.16593928105103, -1.27983211242197], a = 0.2, v = 0.2, t = 0.2)
movej(p[0.42981996851153, -0.0884332697948562, 0.435747985569729, -1.16487867512122, 1.15763548328839, -1.28301255409493], a = 0.2, v = 0.2, t = 0.2)
movej(p[0.429845874439723, -0.0883006446300505, 0.435777853140919, -1.1656960466731, 1.15337829445303, -1.2788553964476], a = 0.2, v = 0.2, t = 0.2)
movej(p[0.430404205031298, -0.0882033465622098, 0.435791464779501, -1.17220012263746, 1.14910223164066, -1.28404025321347], a = 0.2, v = 0.2, t = 0.2)
movej(p[0.431468526181815, -0.0883013006038721, 0.435888073456569, -1.17395202138387, 1.15322488136338, -1.27494161164363], a = 0.2, v = 0.2, t = 0.2)
movej(p[0.432513713033944, -0.088347837835783, 0.435920789414176, -1.16882723998981, 1.1621018835569, -1.27271735047425], a = 0.2, v = 0.2, t = 0.2)
movej(p[0.433456035423964, -0.088308717568826, 0.435833573025343, -1.16827197057753, 1.17270158786064, -1.26364943385839], a = 0.2, v = 0.2, t = 0.2)
movej(p[0.434005489938814, -0.0883198399396183, 0.435755646637135, -1.1660151577754, 1.18303409699873, -1.25360454816491], a = 0.2, v = 0.2, t = 0.2)
movej(p[0.434166420197286, -0.088507240334816, 0.435766519495678, -1.17506925179692, 1.18542721632688, -1.2584101176639], a = 0.2, v = 0.2, t = 0.2)
movej(p[0.43417248360988, -0.0886035669590383, 0.43574528286196, -1.17406363544431, 1.18755982662982, -1.26117767642703], a = 0.2, v = 0.2, t = 0.2)
movej(p[0.434193313504489, -0.0885774068834741, 0.435650823625582, -1.17463908264297, 1.18712372714144, -1.26461349215555], a = 0.2, v = 0.2, t = 0.2)
movej(p[0.434169134964486, -0.0886621998646787, 0.435588911591673, -1.16749001791035, 1.18948201897321, -1.25443602712355], a = 0.2, v = 0.2, t = 0.2)
movej(p[0.43393105245194, -0.0888038428209628, 0.435596591875187, -1.17204677306141, 1.18692948065621, -1.26703602946392], a = 0.2, v = 0.2, t = 0.2)
movej(p[0.433465275277387, -0.0887808504319003, 0.435489657900183, -1.16842893307926, 1.18557322100401, -1.26831875237225], a = 0.2, v = 0.2, t = 0.2)
movej(p[0.432722984260095, -0.0887234528358364, 0.435421175278927, -1.1696581355506, 1.1807096669882, -1.27874956974116], a = 0.2, v = 0.2, t = 0.2)
movej(p[0.431824874768985, -0.0887000509489076, 0.435490448458919, -1.16222388149914, 1.1787059142571, -1.27479891620652], a = 0.2, v = 0.2, t = 0.2)
movej(p[0.431004552072512, -0.0885824260263694, 0.435588873560643, -1.16630851238835, 1.17155148343547, -1.29230708133382], a = 0.2, v = 0.2, t = 0.2)
movej(p[0.430500495472211, -0.0882863746701232, 0.435600007179011, -1.17335692831327, 1.16370165659205, -1.29943251145225], a = 0.2, v = 0.2, t = 0.2)
movej(p[0.430330344976297, -0.0881152418337199, 0.435620047427132, -1.17478528804642, 1.15703063740968, -1.29839811631968], a = 0.2, v = 0.2, t = 0.2)
movej(p[0.430346099481864, -0.0881634674235886, 0.435769538620974, -1.17706821662319, 1.15385900584906, -1.29340401162132], a = 0.2, v = 0.2, t = 0.2)
movej(p[0.43094491704002, -0.0881851222856486, 0.43586765795746, -1.17932551882484, 1.15441319582076, -1.29516171235831], a = 0.2, v = 0.2, t = 0.2)
movej(p[0.431902155687229, -0.0881575465247727, 0.435909670928104, -1.18527064105068, 1.15853372800716, -1.2926108404459], a = 0.2, v = 0.2, t = 0.2)
movej(p[0.432990347490097, -0.0882540214850794, 0.435954893851557, -1.18385223778958, 1.16624187552899, -1.27811858688647], a = 0.2, v = 0.2, t = 0.2)
movej(p[0.433599154114195, -0.0883643093928328, 0.435964297726185, -1.17739104260875, 1.17457436217432, -1.26819413924472], a = 0.2, v = 0.2, t = 0.2)
movej(p[0.434030216289985, -0.0884026150621534, 0.435903985060839, -1.17073446165494, 1.18226981093246, -1.25653108628799], a = 0.2, v = 0.2, t = 0.2)
movej(p[0.434177079819039, -0.088454010231329, 0.43583609663835, -1.17231415125449, 1.18545577332795, -1.25574457348273], a = 0.2, v = 0.2, t = 0.2)
movej(p[0.434265058913722, -0.0886303703304378, 0.43585020967665, -1.17277265713737, 1.18884876606506, -1.25031254079669], a = 0.2, v = 0.2, t = 0.2)
movej(p[0.434228431044379, -0.088709923058272, 0.435835046966421, -1.17094885255867, 1.19054804017357, -1.25173811963735], a = 0.2, v = 0.2, t = 0.2)
movej(p[0.43420965257029, -0.0886876409257037, 0.435747599405111, -1.16578210693163, 1.19282474341008, -1.2463435065884], a = 0.2, v = 0.2, t = 0.2)
movej(p[0.433936836565603, -0.0887903690629253, 0.435695073374331, -1.15964624507435, 1.19246439260545, -1.24059397425373], a = 0.2, v = 0.2, t = 0.2)
movej(p[0.433309853546463, -0.0889307164739082, 0.435666842695268, -1.16404506807561, 1.18838058236658, -1.25969266306717], a = 0.2, v = 0.2, t = 0.2)
movej(p[0.432618728065066, -0.088905479791583, 0.435567995848942, -1.16212483838481, 1.18536483425643, -1.26741000360291], a = 0.2, v = 0.2, t = 0.2)
movej(p[0.431875767256408, -0.0887403631853496, 0.435480394563308, -1.16024394322662, 1.18054324031769, -1.2748920751065], a = 0.2, v = 0.2, t = 0.2)
movej(p[0.431134760797713, -0.088716228885043, 0.435555932835205, -1.1526969726869, 1.17663706964867, -1.26330248306349], a = 0.2, v = 0.2, t = 0.2)
movej(p[0.430482381257103, -0.0885906151888173, 0.435610992628285, -1.15113527497523, 1.17018708620839, -1.26867058173946], a = 0.2, v = 0.2, t = 0.2)
movej(p[0.430231362472949, -0.0883500211823636, 0.435624699037738, -1.1580566721885, 1.16322129289931, -1.27288197744049], a = 0.2, v = 0.2, t = 0.2)
movej(p[0.430447508111231, -0.0882027178968594, 0.435675523237988, -1.16209143169549, 1.15875817590651, -1.2733305507439], a = 0.2, v = 0.2, t = 0.2)
movej(p[0.431026659333524, -0.0883002943055007, 0.435810397798572, -1.15983330679607, 1.15983109321557, -1.26605002978854], a = 0.2, v = 0.2, t = 0.2)
movej(p[0.432028141445051, -0.0883265462461621, 0.435875586042944, -1.16256403703199, 1.16396374146142, -1.26732813221394], a = 0.2, v = 0.2, t = 0.2)
movej(p[0.433070074121299, -0.0883094610056597, 0.435873216122432, -1.16432992580901, 1.17281558178415, -1.25943940031858], a = 0.2, v = 0.2, t = 0.2)
movej(p[0.433780675398327, -0.0884326410304828, 0.435921706774035, -1.17109512996743, 1.17963761196716, -1.25454355065148], a = 0.2, v = 0.2, t = 0.2)
movej(p[0.43403128920427, -0.0886236362390751, 0.435969946340444, -1.17092718023737, 1.18546738380098, -1.25138805755503], a = 0.2, v = 0.2, t = 0.2)
movej(p[0.434146985329546, -0.0886815526042875, 0.435899349547055, -1.17119242021123, 1.18864662347432, -1.24877774587556], a = 0.2, v = 0.2, t = 0.2)
movej(p[0.434086363848968, -0.0887461022569352, 0.43582509889766, -1.16988167734134, 1.18853622872991, -1.24889737252805], a = 0.2, v = 0.2, t = 0.2)
movej(p[0.433761942570364, -0.0888378792271837, 0.435755670216142, -1.16983389450967, 1.18796927317471, -1.25277552783749], a = 0.2, v = 0.2, t = 0.2)
movej(p[0.433153819238875, -0.088792676787118, 0.43562867143872, -1.17346086986354, 1.18329924632284, -1.27361233934958], a = 0.2, v = 0.2, t = 0.2)
movej(p[0.432398668542867, -0.0886004003893324, 0.435465436781025, -1.17510848694813, 1.17877967307019, -1.28576431832739], a = 0.2, v = 0.2, t = 0.2)
movej(p[0.43159250777506, -0.088473294008539, 0.435433542843933, -1.16629185967553, 1.17497227906326, -1.27861378683645], a = 0.2, v = 0.2, t = 0.2)
movej(p[0.430751510000572, -0.0883533451240569, 0.435484713143382, -1.15829470377512, 1.16996496601282, -1.27863778506755], a = 0.2, v = 0.2, t = 0.2)
movej(p[0.430343424004835, -0.0881338225657045, 0.435466415958964, -1.15553161754082, 1.16333198821624, -1.27894999255338], a = 0.2, v = 0.2, t = 0.2)
movej(p[0.430424479851536, -0.0879463997215371, 0.435471790547301, -1.16273550365939, 1.15629561719982, -1.2844509793533], a = 0.2, v = 0.2, t = 0.2)
movej(p[0.431071825195667, -0.0880405919801832, 0.435600968075702, -1.1663417928956, 1.15480373759616, -1.279194393772], a = 0.2, v = 0.2, t = 0.2)
movej(p[0.431966881284656, -0.0881097776302256, 0.43569222426832, -1.16699702613047, 1.15802440623433, -1.27985184758746], a = 0.2, v = 0.2, t = 0.2)
movej(p[0.432993444647503, -0.0880994470429661, 0.435701153917054, -1.16741905713173, 1.16747033550311, -1.27356157195113], a = 0.2, v = 0.2, t = 0.2)
movej(p[0.43373891908377, -0.0881288983986839, 0.43565897510106, -1.1655871060967, 1.17648298479845, -1.26261084546464], a = 0.2, v = 0.2, t = 0.2)
movej(p[0.434008925042307, -0.0883034818693534, 0.435704698869753, -1.17311681461844, 1.18261893094936, -1.26277915875971], a = 0.2, v = 0.2, t = 0.2)
movej(p[0.434104384468382, -0.0884248000985906, 0.435672720062752, -1.17466021614685, 1.1858224119869, -1.26179871855371], a = 0.2, v = 0.2, t = 0.2)
movej(p[0.434151120380865, -0.0884470026063613, 0.43559395548636, -1.17726446984808, 1.1861508789341, -1.26509908969107], a = 0.2, v = 0.2, t = 0.2)
movej(p[0.434041071347385, -0.0886136011653914, 0.43556914724492, -1.17061158202931, 1.18633986473327, -1.25565956799132], a = 0.2, v = 0.2, t = 0.2)
movej(p[0.433614526345279, -0.0887001841437929, 0.435489825220049, -1.1708768419376, 1.18372591545602, -1.26937281924295], a = 0.2, v = 0.2, t = 0.2)
movej(p[0.432941231338422, -0.0886358134653068, 0.435345717907285, -1.16963569951464, 1.18098017881247, -1.27802024889327], a = 0.2, v = 0.2, t = 0.2)
movej(p[0.432054856744402, -0.0885428335708321, 0.435256116916462, -1.16366538824458, 1.17839810961515, -1.27899781992387], a = 0.2, v = 0.2, t = 0.2)
movej(p[0.43116538747389, -0.0885176187190764, 0.435310359639158, -1.15642228186704, 1.17390969432987, -1.27593370560103], a = 0.2, v = 0.2, t = 0.2)
movej(p[0.430476290804177, -0.08832594626698, 0.435341105376647, -1.15772271522772, 1.16604345246887, -1.28269697568382], a = 0.2, v = 0.2, t = 0.2)
movej(p[0.430163136412204, -0.0881021000178011, 0.435368382407576, -1.16820430424645, 1.15632745446014, -1.29048989672307], a = 0.2, v = 0.2, t = 0.2)
movej(p[0.43034222981881, -0.0880376529641575, 0.435451110268584, -1.17303169681437, 1.15307868772611, -1.28846148033095], a = 0.2, v = 0.2, t = 0.2)
movej(p[0.430904180516295, -0.0881392567074333, 0.4355865396463, -1.17475200679874, 1.1526417861304, -1.28999102145535], a = 0.2, v = 0.2, t = 0.2)
movej(p[0.431998303234232, -0.0881673612403235, 0.435646296984131, -1.17527388957657, 1.16062591100133, -1.28247542670937], a = 0.2, v = 0.2, t = 0.2)
movej(p[0.433028181902725, -0.0882459381570854, 0.435684776777995, -1.17382441675594, 1.16830468398326, -1.27186382609388], a = 0.2, v = 0.2, t = 0.2)
movej(p[0.43374461231571, -0.0884134743172802, 0.435761947757732, -1.17741698833156, 1.17711272981966, -1.26365940059472], a = 0.2, v = 0.2, t = 0.2)
movej(p[0.433998671804012, -0.0885371826654623, 0.435767310292501, -1.183313516086, 1.18045831369225, -1.270534082671], a = 0.2, v = 0.2, t = 0.2)
movej(p[0.434087343529041, -0.0885766612175041, 0.435712886155226, -1.18729448667183, 1.18300637052418, -1.2731278811397], a = 0.2, v = 0.2, t = 0.2)
movej(p[0.434115411436327, -0.0886905154927721, 0.435708410625677, -1.17945958517504, 1.18770077343743, -1.25979289547341], a = 0.2, v = 0.2, t = 0.2)
movej(p[0.434025366615229, -0.0887818707863089, 0.435708480167678, -1.16629719045778, 1.19126903943346, -1.25019165092578], a = 0.2, v = 0.2, t = 0.2)
movej(p[0.434021394981657, -0.0887751877084183, 0.435665589655945, -1.15435269156217, 1.19666613821078, -1.23794819230943], a = 0.2, v = 0.2, t = 0.2)
movej(p[0.433753641827459, -0.0888051943258339, 0.435577207091548, -1.1543507171572, 1.19588032390442, -1.23908104396999], a = 0.2, v = 0.2, t = 0.2)
movej(p[0.433234041998864, -0.0889248662975101, 0.435589297347975, -1.15796968057203, 1.19431995361134, -1.24348266214256], a = 0.2, v = 0.2, t = 0.2)
movej(p[0.432495874959196, -0.0889109538519706, 0.435528232353862, -1.15473418540718, 1.19009089458385, -1.25306238860153], a = 0.2, v = 0.2, t = 0.2)
movej(p[0.431808741031344, -0.0887462173889671, 0.435458408789415, -1.15509484309981, 1.18505371966298, -1.26144878071878], a = 0.2, v = 0.2, t = 0.2)
movej(p[0.431159985648835, -0.088648363527918, 0.43541565829301, -1.14556364344561, 1.18138620659328, -1.25118384941151], a = 0.2, v = 0.2, t = 0.2)
movej(p[0.430571884818049, -0.0885340062722692, 0.435437639853778, -1.14960084764612, 1.17494096334256, -1.26045290606852], a = 0.2, v = 0.2, t = 0.2)
movej(p[0.430356826311668, -0.0883564484401699, 0.435447893489095, -1.15394218329107, 1.16888186255462, -1.26295452440278], a = 0.2, v = 0.2, t = 0.2)
movej(p[0.430587447494913, -0.0882168124542786, 0.435514458531594, -1.16255163784346, 1.16275627684171, -1.27086688447473], a = 0.2, v = 0.2, t = 0.2)
movej(p[0.431298782580699, -0.0883336348657732, 0.435677362200374, -1.16705823979297, 1.16160448366995, -1.26827776970802], a = 0.2, v = 0.2, t = 0.2)
movej(p[0.432160046532601, -0.0884106085346421, 0.435756849181343, -1.16892849867897, 1.16517706119836, -1.27206268885011], a = 0.2, v = 0.2, t = 0.2)
movej(p[0.433109169150332, -0.0884242399135747, 0.435766999459409, -1.17487006234909, 1.1731807639718, -1.26994883859374], a = 0.2, v = 0.2, t = 0.2)
movej(p[0.4337028808308, -0.0885057672732662, 0.435785825624083, -1.17338056304536, 1.18202799198401, -1.25603424563955], a = 0.2, v = 0.2, t = 0.2)
movej(p[0.433964360339407, -0.0887095889569505, 0.435887240426278, -1.1761219355317, 1.18649333974863, -1.25247566831955], a = 0.2, v = 0.2, t = 0.2)
movej(p[0.43409101225417, -0.0887620090211429, 0.435838177344873, -1.16518437993306, 1.19229498851428, -1.23805378106805], a = 0.2, v = 0.2, t = 0.2)
movej(p[0.434156780117781, -0.0888061068701756, 0.435791094579166, -1.1693519434122, 1.19211907953807, -1.24274517481878], a = 0.2, v = 0.2, t = 0.2)
movej(p[0.434124549585502, -0.0889045973743207, 0.435754719010687, -1.1592731758902, 1.19578904878949, -1.23319027568747], a = 0.2, v = 0.2, t = 0.2)
movej(p[0.433970232062839, -0.0889641863182064, 0.435694969784199, -1.16894138836583, 1.19202970852718, -1.25520120108914], a = 0.2, v = 0.2, t = 0.2)
movej(p[0.433624502037144, -0.0890606352232979, 0.435561525995885, -1.16917535767907, 1.19090685791629, -1.25780170860609], a = 0.2, v = 0.2, t = 0.2)
movej(p[0.433003151348641, -0.0889741678327816, 0.435486513143161, -1.17025630693432, 1.18749321495765, -1.26318796039993], a = 0.2, v = 0.2, t = 0.2)
movej(p[0.432151298075682, -0.0890556478941065, 0.435528808650664, -1.16019713978034, 1.18576707857975, -1.26015562541255], a = 0.2, v = 0.2, t = 0.2)
movej(p[0.431519292411011, -0.0888581772755741, 0.435469126908562, -1.15220222433163, 1.18305212737487, -1.26066882431841], a = 0.2, v = 0.2, t = 0.2)
movej(p[0.430976820275984, -0.0886033010187629, 0.435414610315367, -1.15052057277851, 1.17789011979973, -1.26199985256163], a = 0.2, v = 0.2, t = 0.2)
movej(p[0.430562246888597, -0.0884938066300796, 0.435430506596478, -1.15683025252257, 1.1696513017721, -1.26496004760739], a = 0.2, v = 0.2, t = 0.2)
movej(p[0.43041334500028, -0.0884750311458708, 0.435559929625435, -1.16146233541056, 1.16404680397408, -1.27300164849095], a = 0.2, v = 0.2, t = 0.2)
movej(p[0.430856056180075, -0.0883998759460206, 0.435666942165151, -1.1680731999398, 1.16135944124295, -1.27585075804451], a = 0.2, v = 0.2, t = 0.2)
movej(p[0.431749192972921, -0.0884215013250769, 0.435770006024221, -1.16225526642224, 1.16590496040753, -1.26050172813724], a = 0.2, v = 0.2, t = 0.2)
movej(p[0.432673026999792, -0.088485235298906, 0.435864019254836, -1.15991038381549, 1.17280526043082, -1.25046289360195], a = 0.2, v = 0.2, t = 0.2)
