def moving():
set_payload_mass(0.62)
set_tcp(p[0,0.005,0.058,0,0,0])
movej(p[0.4431, -0.1036, 0.3786, -1.201, 1.094, -1.2], a = 0.2, v = 0.2, t = 0.2)
movej(p[0.444342861276817, -0.104737080408716, 0.379960089699507, -1.201, 1.094, -1.2], a = 0.2, v = 0.2, t = 0.2)
movej(p[0.445585722553633, -0.105874160817432, 0.381320179399014, -1.201, 1.094, -1.2], a = 0.2, v = 0.2, t = 0.2)
movej(p[0.446828583830449, -0.107011241226148, 0.38268026909852, -1.201, 1.094, -1.2], a = 0.2, v = 0.2, t = 0.2)
movej(p[0.448071445107266, -0.108148321634864, 0.384040358798027, -1.201, 1.094, -1.2], a = 0.2, v = 0.2, t = 0.2)
movej(p[0.446828583830449, -0.107011241226148, 0.38268026909852, -1.201, 1.094, -1.2], a = 0.2, v = 0.2, t = 0.2)
movej(p[0.445585722553633, -0.105874160817432, 0.381320179399014, -1.201, 1.094, -1.2], a = 0.2, v = 0.2, t = 0.2)
movej(p[0.444342861276817, -0.104737080408716, 0.379960089699507, -1.201, 1.094, -1.2], a = 0.2, v = 0.2, t = 0.2)
movej(p[0.4431, -0.1036, 0.3786, -1.201, 1.094, -1.2], a = 0.2, v = 0.2, t = 0.2)
movej(p[0.443235564887483, -0.103615826957415, 0.378606076898934, -1.20081670824708, 1.09411991364388, -1.19974891973307], a = 0.2, v = 0.2, t = 0.2)
movej(p[0.443371229237249, -0.103631646492038, 0.378612161019812, -1.20063341706299, 1.09423980728658, -1.1994978325531], a = 0.2, v = 0.2, t = 0.2)
movej(p[0.443380280304987, -0.103630971018038, 0.378612818216648, -1.20043279000685, 1.0943830132499, -1.19927128453633], a = 0.2, v = 0.2, t = 0.2)
movej(p[0.443374533202502, -0.103608580902555, 0.378668955847001, -1.20037935754738, 1.09443500174874, -1.19925504195195], a = 0.2, v = 0.2, t = 0.2)
movej(p[0.442748915350808, -0.103382394511278, 0.379031246890284, -1.20080199172901, 1.10060101547985, -1.19535988125447], a = 0.2, v = 0.2, t = 0.2)
movej(p[0.442748915350808, -0.103382394511278, 0.379031246890284, -1.20046387775098, 1.10091106059452, -1.19520284497248], a = 0.2, v = 0.2, t = 0.2)
movej(p[0.442952981949968, -0.103430622517591, 0.378982929786537, -1.2004558837767, 1.10090356225824, -1.19520726281873], a = 0.2, v = 0.2, t = 0.2)
movej(p[0.442955335598977, -0.10343813221633, 0.378958233334136, -1.19943343457671, 1.09867364676907, -1.1963814289719], a = 0.2, v = 0.2, t = 0.2)
movej(p[0.44296042656565, -0.10344731721701, 0.378897559799372, -1.19772867861502, 1.09550021957829, -1.19787387627941], a = 0.2, v = 0.2, t = 0.2)
movej(p[0.443268630680459, -0.103528309413502, 0.378689375295332, -1.19683307631584, 1.09181493270689, -1.20099710823579], a = 0.2, v = 0.2, t = 0.2)
movej(p[0.443939980347326, -0.103669003004368, 0.378740659096736, -1.19737515655865, 1.0914270703405, -1.20160743218472], a = 0.2, v = 0.2, t = 0.2)
movej(p[0.444090501423987, -0.103693064378127, 0.378810921716768, -1.19741213153546, 1.0911857699883, -1.20163120089787], a = 0.2, v = 0.2, t = 0.2)
movej(p[0.444104567054794, -0.103698585989553, 0.378830582078851, -1.19814015774079, 1.08990844708763, -1.20326768593438], a = 0.2, v = 0.2, t = 0.2)
movej(p[0.444106822891432, -0.1037001679481, 0.378812217476808, -1.1972573728355, 1.08871551064276, -1.20411242686555], a = 0.2, v = 0.2, t = 0.2)
movej(p[0.444367328381812, -0.103768809799902, 0.378850855743625, -1.19738629685839, 1.08804512057391, -1.20507782720668], a = 0.2, v = 0.2, t = 0.2)
movej(p[0.444432183878481, -0.10380012355511, 0.378906486160545, -1.19641739053619, 1.0884217594089, -1.20476067827369], a = 0.2, v = 0.2, t = 0.2)
movej(p[0.444431148976951, -0.10379993657654, 0.378920546886623, -1.19537011875507, 1.08951095975427, -1.20466140218574], a = 0.2, v = 0.2, t = 0.2)
movej(p[0.444378739446596, -0.103786201996122, 0.378916506784068, -1.1956809003049, 1.08997995061125, -1.20431474942533], a = 0.2, v = 0.2, t = 0.2)
movej(p[0.443776985393841, -0.103643995536671, 0.379091842270732, -1.19825605043921, 1.09502572252976, -1.19915344838903], a = 0.2, v = 0.2, t = 0.2)
movej(p[0.442052132354066, -0.103229935550091, 0.379553537959139, -1.20187168459582, 1.10607247963693, -1.18915309612852], a = 0.2, v = 0.2, t = 0.2)
movej(p[0.440445981434482, -0.102790751691549, 0.379735132705527, -1.19748016929, 1.11456100968472, -1.1785209479885], a = 0.2, v = 0.2, t = 0.2)
movej(p[0.438310625267669, -0.102339193756034, 0.380507165737024, -1.19340144835025, 1.12105101971521, -1.17333734112315], a = 0.2, v = 0.2, t = 0.2)
movej(p[0.433909203754517, -0.10120311938911, 0.381436636982616, -1.18240396841623, 1.14242555273853, -1.15160513538279], a = 0.2, v = 0.2, t = 0.2)
movej(p[0.431414286648111, -0.100628172938447, 0.382150079784131, -1.17839421140736, 1.14518928165295, -1.14737203084215], a = 0.2, v = 0.2, t = 0.2)
movej(p[0.431412671908135, -0.100627881198834, 0.382172018505671, -1.17632588370537, 1.14773420683626, -1.15009665642604], a = 0.2, v = 0.2, t = 0.2)
movej(p[0.432296408112038, -0.101009792677898, 0.382242142139852, -1.17380563914515, 1.14372960814726, -1.15346288998263], a = 0.2, v = 0.2, t = 0.2)
movej(p[0.434667684695772, -0.101422216738461, 0.381297625640418, -1.17461926571083, 1.13212913255824, -1.1634799061888], a = 0.2, v = 0.2, t = 0.2)
movej(p[0.437102924940953, -0.101902770981102, 0.380492094493825, -1.18535786811632, 1.11961153277516, -1.17810757407927], a = 0.2, v = 0.2, t = 0.2)
movej(p[0.43926223573501, -0.102349378957878, 0.379821235835279, -1.18813492400702, 1.10877660866173, -1.18894898523194], a = 0.2, v = 0.2, t = 0.2)
movej(p[0.441179273732054, -0.102843222279716, 0.379375749144829, -1.19078761939219, 1.10190235517844, -1.19568012232034], a = 0.2, v = 0.2, t = 0.2)
movej(p[0.441941281817869, -0.103095328908524, 0.379265013175679, -1.19513155541571, 1.09755922216122, -1.19901954271555], a = 0.2, v = 0.2, t = 0.2)
movej(p[0.442548221322777, -0.103220342081318, 0.379087825128652, -1.19505562322455, 1.09748788838288, -1.19906136295953], a = 0.2, v = 0.2, t = 0.2)
movej(p[0.44322453147974, -0.103444209445154, 0.378994272549862, -1.19388716517989, 1.09457299831678, -1.20126519651916], a = 0.2, v = 0.2, t = 0.2)
movej(p[0.443697366897344, -0.103616962621457, 0.378924072707013, -1.19619997831764, 1.0926693297332, -1.20304990315421], a = 0.2, v = 0.2, t = 0.2)
movej(p[0.443925906119116, -0.103660797719226, 0.37884851770509, -1.19625983763722, 1.09181176072616, -1.20266748113465], a = 0.2, v = 0.2, t = 0.2)
movej(p[0.444102268749704, -0.103856679225195, 0.378864103216035, -1.19877861285551, 1.09172119499844, -1.20035126094974], a = 0.2, v = 0.2, t = 0.2)
movej(p[0.444098855776574, -0.103856062593739, 0.378910473695654, -1.1978374489593, 1.09392005242066, -1.19742995858156], a = 0.2, v = 0.2, t = 0.2)
movej(p[0.443790652096155, -0.103691494861276, 0.378927517545235, -1.19805425182645, 1.09452051531086, -1.19690759867391], a = 0.2, v = 0.2, t = 0.2)
movej(p[0.442557149874659, -0.103463899611845, 0.379274730854313, -1.1962253113687, 1.10091721059225, -1.19105993530294], a = 0.2, v = 0.2, t = 0.2)
movej(p[0.440925628877812, -0.102938762407781, 0.379625996286363, -1.19207323051236, 1.11031739224245, -1.17964826845071], a = 0.2, v = 0.2, t = 0.2)
movej(p[0.440073122298801, -0.102758147250212, 0.379856070356173, -1.18885582045431, 1.11736105932076, -1.17094475155574], a = 0.2, v = 0.2, t = 0.2)
movej(p[0.437408089966278, -0.102110083623352, 0.380560833388794, -1.18893013486653, 1.12370858427075, -1.16974657860811], a = 0.2, v = 0.2, t = 0.2)
movej(p[0.435019819773083, -0.10141724175511, 0.381143776893697, -1.18158341159249, 1.13598541220932, -1.15455694454615], a = 0.2, v = 0.2, t = 0.2)
movej(p[0.432350486267804, -0.100890807952375, 0.381898476243724, -1.18130758009195, 1.14571152962104, -1.14377372057141], a = 0.2, v = 0.2, t = 0.2)
movej(p[0.432350486267804, -0.100890807952375, 0.381898476243724, -1.18166776112524, 1.14520256926497, -1.14327743085307], a = 0.2, v = 0.2, t = 0.2)
movej(p[0.433340522336896, -0.101107782397751, 0.38165744810854, -1.1798065846129, 1.13825427182152, -1.15015780039333], a = 0.2, v = 0.2, t = 0.2)
movej(p[0.436571428170377, -0.101815323217379, 0.380783536222971, -1.19229285695585, 1.12011952184834, -1.1790188461938], a = 0.2, v = 0.2, t = 0.2)
movej(p[0.438483737004473, -0.10211198816309, 0.380244828006006, -1.18695422252857, 1.11663251700037, -1.18414318281986], a = 0.2, v = 0.2, t = 0.2)
movej(p[0.44012691076314, -0.10268300704501, 0.379839776471856, -1.18556795766178, 1.11258859318594, -1.18815692704537], a = 0.2, v = 0.2, t = 0.2)
movej(p[0.441292312480239, -0.102941776789373, 0.379540311169716, -1.18681157807331, 1.10550982893805, -1.19560380742588], a = 0.2, v = 0.2, t = 0.2)
movej(p[0.44241096509183, -0.103304553645518, 0.37924109453043, -1.19644450259972, 1.09658973955311, -1.1995910938351], a = 0.2, v = 0.2, t = 0.2)
movej(p[0.442929917870524, -0.103413594330568, 0.379104449616549, -1.20078845933298, 1.09318350152114, -1.20193489081097], a = 0.2, v = 0.2, t = 0.2)
movej(p[0.443316295435497, -0.103497086498047, 0.379003334210921, -1.20078845933298, 1.09318350152114, -1.20193489081097], a = 0.2, v = 0.2, t = 0.2)
movej(p[0.443577726632947, -0.10356531797121, 0.378920797461106, -1.19799533700828, 1.09425924130023, -1.20058924281218], a = 0.2, v = 0.2, t = 0.2)
movej(p[0.443605458260934, -0.103596745711916, 0.378917340016486, -1.19709482428921, 1.09461492560311, -1.20154018494009], a = 0.2, v = 0.2, t = 0.2)
movej(p[0.443659038135186, -0.103610618739324, 0.378904019499017, -1.19565497315298, 1.09502599429487, -1.20475808167903], a = 0.2, v = 0.2, t = 0.2)
movej(p[0.443659038135186, -0.103610618739324, 0.378904019499017, -1.19560610117768, 1.09510088516448, -1.20483086559531], a = 0.2, v = 0.2, t = 0.2)
movej(p[0.442754878948341, -0.103300191375748, 0.379145713348312, -1.19399353127522, 1.10482592295303, -1.1996565439528], a = 0.2, v = 0.2, t = 0.2)
movej(p[0.439973114238042, -0.10233872467556, 0.379857973420874, -1.1941283851864, 1.11463783875514, -1.1895950654546], a = 0.2, v = 0.2, t = 0.2)
movej(p[0.437935489512955, -0.101893679615995, 0.380408148079203, -1.1938076857693, 1.12352221912138, -1.1799351749382], a = 0.2, v = 0.2, t = 0.2)
movej(p[0.435475300600261, -0.101304033330484, 0.381128062929614, -1.18126725961977, 1.13392787280106, -1.16270577437651], a = 0.2, v = 0.2, t = 0.2)
movej(p[0.432928420665357, -0.100644940710174, 0.381830946536647, -1.1779482095691, 1.13971407823436, -1.14991646387848], a = 0.2, v = 0.2, t = 0.2)
movej(p[0.431122502767782, -0.100403916052735, 0.382355963261835, -1.18062956006765, 1.13977233817364, -1.14752509908157], a = 0.2, v = 0.2, t = 0.2)
movej(p[0.431122502767782, -0.100403916052735, 0.382355963261835, -1.18368554185708, 1.13772607887847, -1.15101648132782], a = 0.2, v = 0.2, t = 0.2)
movej(p[0.432266506130878, -0.100690299954709, 0.382090187405303, -1.18755533012127, 1.13173337481859, -1.1600001586568], a = 0.2, v = 0.2, t = 0.2)
movej(p[0.434984120651062, -0.10125106470544, 0.381348322758603, -1.18482786348859, 1.125006970465, -1.16660117990482], a = 0.2, v = 0.2, t = 0.2)
movej(p[0.437887185374858, -0.102021591931245, 0.380530539826679, -1.19007440715855, 1.11661319699636, -1.18169133051006], a = 0.2, v = 0.2, t = 0.2)
movej(p[0.440413819899482, -0.102732642440083, 0.37982063972606, -1.19264593149696, 1.10915121273425, -1.1905046285972], a = 0.2, v = 0.2, t = 0.2)
movej(p[0.44137928352349, -0.103060937964221, 0.379520118546193, -1.20157243926269, 1.10285915865458, -1.20047855688138], a = 0.2, v = 0.2, t = 0.2)
movej(p[0.442278960184335, -0.103405517574081, 0.379234024910474, -1.20281132601579, 1.10198528098199, -1.20187737975128], a = 0.2, v = 0.2, t = 0.2)
movej(p[0.442863433353387, -0.103560237275084, 0.379068614636367, -1.20172514029875, 1.09698240433646, -1.20651098439757], a = 0.2, v = 0.2, t = 0.2)
movej(p[0.443204922074596, -0.103596753364118, 0.378979414756721, -1.20196176844372, 1.09534464811127, -1.2056789932709], a = 0.2, v = 0.2, t = 0.2)
movej(p[0.443789157289503, -0.103784275066882, 0.378798378476782, -1.20117422328846, 1.09415641232779, -1.20594244873329], a = 0.2, v = 0.2, t = 0.2)
movej(p[0.443789157289503, -0.103784275066882, 0.378798378476782, -1.19913333109182, 1.09560998827438, -1.20364459238926], a = 0.2, v = 0.2, t = 0.2)
movej(p[0.443555578435471, -0.103618950787296, 0.378896014031415, -1.19649198219768, 1.0987871539593, -1.20415424339608], a = 0.2, v = 0.2, t = 0.2)
movej(p[0.443047129744629, -0.103391368807211, 0.379072168001343, -1.19537600744146, 1.10245336552236, -1.20092444255321], a = 0.2, v = 0.2, t = 0.2)
movej(p[0.442412767148318, -0.103128291380205, 0.379280198320771, -1.19178654022124, 1.10714682919961, -1.1977496888041], a = 0.2, v = 0.2, t = 0.2)
movej(p[0.44018872097815, -0.102468496511911, 0.379940850101009, -1.19179520001256, 1.11694323463737, -1.18762163182456], a = 0.2, v = 0.2, t = 0.2)
movej(p[0.43821475508109, -0.101901909336785, 0.380541726610974, -1.19163072864348, 1.12593805162515, -1.18120543681083], a = 0.2, v = 0.2, t = 0.2)
movej(p[0.435892353333011, -0.101357121393554, 0.381186640618755, -1.18426664515245, 1.1332661785412, -1.16842660689596], a = 0.2, v = 0.2, t = 0.2)
movej(p[0.433324263913823, -0.100862195798645, 0.38185464736315, -1.17709206052276, 1.14092731564743, -1.15719407434012], a = 0.2, v = 0.2, t = 0.2)
movej(p[0.432243980752622, -0.100712311456385, 0.382111485319013, -1.1763175032702, 1.14399732313779, -1.15172127096073], a = 0.2, v = 0.2, t = 0.2)
movej(p[0.432243980752622, -0.100712311456385, 0.382111485319013, -1.1772226861623, 1.1427173011921, -1.15046810451919], a = 0.2, v = 0.2, t = 0.2)
movej(p[0.435519614261602, -0.101392437760366, 0.38127880763498, -1.18257817719014, 1.12635773547484, -1.1655284687857], a = 0.2, v = 0.2, t = 0.2)
movej(p[0.437578830802025, -0.102050711856172, 0.380621346530096, -1.19459358725817, 1.11551446596164, -1.17898015114445], a = 0.2, v = 0.2, t = 0.2)
movej(p[0.439647214562257, -0.102689407828776, 0.379955976621707, -1.19871098550493, 1.10860040676246, -1.18787085001783], a = 0.2, v = 0.2, t = 0.2)
movej(p[0.441073342423691, -0.103134263999972, 0.379522041027648, -1.20061640230302, 1.10320435592999, -1.19591199386172], a = 0.2, v = 0.2, t = 0.2)
movej(p[0.441999642315702, -0.103478968682059, 0.379189273117225, -1.19781934159214, 1.10245491402576, -1.19849695036174], a = 0.2, v = 0.2, t = 0.2)
movej(p[0.443144391892823, -0.103600859344808, 0.378980930677917, -1.20041712627275, 1.09726687370169, -1.2048322092741], a = 0.2, v = 0.2, t = 0.2)
movej(p[0.443457197783906, -0.103715918281232, 0.378869003801552, -1.20206441964684, 1.09421215619332, -1.20426211093315], a = 0.2, v = 0.2, t = 0.2)
movej(p[0.443585711879865, -0.103717042043826, 0.378825530196947, -1.20037637892333, 1.09261855296225, -1.20518496607323], a = 0.2, v = 0.2, t = 0.2)
movej(p[0.443657424185788, -0.103711690211365, 0.378830737218029, -1.20076374575146, 1.09216368724292, -1.20505816700558], a = 0.2, v = 0.2, t = 0.2)
movej(p[0.443653237144524, -0.10367767613069, 0.378853442085377, -1.19997135310127, 1.09362520493943, -1.20536876257301], a = 0.2, v = 0.2, t = 0.2)
movej(p[0.44361004865018, -0.103410373166598, 0.379057195022397, -1.20298415170703, 1.09647103844789, -1.20371785881678], a = 0.2, v = 0.2, t = 0.2)
movej(p[0.442380646963437, -0.102981989278427, 0.379469728605261, -1.19635063839766, 1.1094258598955, -1.20006047494788], a = 0.2, v = 0.2, t = 0.2)
movej(p[0.44048307893284, -0.102522546943314, 0.379962131204728, -1.19184219928853, 1.11883979497892, -1.19108635927016], a = 0.2, v = 0.2, t = 0.2)
movej(p[0.438692637706962, -0.102045233708619, 0.380475618363925, -1.18786430225473, 1.13074107770336, -1.17856206812151], a = 0.2, v = 0.2, t = 0.2)
movej(p[0.436393456179242, -0.10153109972953, 0.38106348427052, -1.18629371011296, 1.13669138969497, -1.17155455183639], a = 0.2, v = 0.2, t = 0.2)
movej(p[0.433920610084873, -0.101036749520645, 0.381627800427068, -1.1842145097865, 1.14072737199078, -1.16004941251563], a = 0.2, v = 0.2, t = 0.2)
movej(p[0.433612007050913, -0.10103771843472, 0.381675094386892, -1.18583166934331, 1.13833967615999, -1.15756918681723], a = 0.2, v = 0.2, t = 0.2)
movej(p[0.433612007050913, -0.10103771843472, 0.381675094386892, -1.18053607900569, 1.1351029884438, -1.15890901032348], a = 0.2, v = 0.2, t = 0.2)
movej(p[0.435563565594845, -0.101529526959813, 0.381149491272129, -1.17388426991218, 1.12901651048016, -1.16276881194224], a = 0.2, v = 0.2, t = 0.2)
movej(p[0.437572287845007, -0.102145443008469, 0.380504196205735, -1.18754393130362, 1.11645957390344, -1.17592232885695], a = 0.2, v = 0.2, t = 0.2)
movej(p[0.439541105917955, -0.102756723838341, 0.379860916427826, -1.195173673679, 1.10663014557369, -1.18716336967372], a = 0.2, v = 0.2, t = 0.2)
movej(p[0.441718576580948, -0.103329235439675, 0.379245213879398, -1.20209058307503, 1.09951250947303, -1.19729203730056], a = 0.2, v = 0.2, t = 0.2)
movej(p[0.442339447769168, -0.103562343797377, 0.37898725684575, -1.20423864406007, 1.09694650859207, -1.2007806569669], a = 0.2, v = 0.2, t = 0.2)
movej(p[0.442833462755193, -0.103643860875684, 0.378897146194179, -1.20999405022552, 1.09204393413756, -1.20481085377853], a = 0.2, v = 0.2, t = 0.2)
movej(p[0.443243418940154, -0.103696971409396, 0.378837473942497, -1.21066413426172, 1.09145883361006, -1.20567475396491], a = 0.2, v = 0.2, t = 0.2)
movej(p[0.443587582317139, -0.103693901576657, 0.378838296176878, -1.20862692108101, 1.09056618277894, -1.20717567505575], a = 0.2, v = 0.2, t = 0.2)
movej(p[0.443899297111539, -0.103670638549012, 0.37886092974702, -1.20751404298193, 1.09077980452738, -1.20823611436009], a = 0.2, v = 0.2, t = 0.2)
movej(p[0.443901948121148, -0.103654155413354, 0.37887394198691, -1.20609598280108, 1.09179675819981, -1.20663509879821], a = 0.2, v = 0.2, t = 0.2)
movej(p[0.443893101989294, -0.103627406089757, 0.378901815623887, -1.20618441955913, 1.09154997588176, -1.20615918189739], a = 0.2, v = 0.2, t = 0.2)
movej(p[0.443609640775831, -0.103487489001099, 0.379058992717521, -1.20581544405913, 1.09186975641207, -1.2056867787968], a = 0.2, v = 0.2, t = 0.2)
movej(p[0.442456385761892, -0.103014456721296, 0.379549741039058, -1.20144118753097, 1.10662188804154, -1.19890857738339], a = 0.2, v = 0.2, t = 0.2)
movej(p[0.441480975736656, -0.10265398541203, 0.379952791082929, -1.20101137104739, 1.11699349710741, -1.1949593262324], a = 0.2, v = 0.2, t = 0.2)
movej(p[0.43948687877822, -0.102195947777994, 0.380442620181861, -1.19547194805726, 1.12866900015453, -1.18334399943024], a = 0.2, v = 0.2, t = 0.2)
movej(p[0.437834851976121, -0.101792553477783, 0.380869104476653, -1.19475438657613, 1.13451358767581, -1.17683324069041], a = 0.2, v = 0.2, t = 0.2)
movej(p[0.437429645049543, -0.101661254601394, 0.381015630384644, -1.19319130925674, 1.13675498540274, -1.17378181062636], a = 0.2, v = 0.2, t = 0.2)
movej(p[0.435926631263807, -0.101368287949312, 0.381318672363017, -1.19092900860338, 1.13968827131314, -1.16876558511408], a = 0.2, v = 0.2, t = 0.2)
movej(p[0.433312944197735, -0.100725114189749, 0.38202196474578, -1.18017475698545, 1.14645549892162, -1.15529596287628], a = 0.2, v = 0.2, t = 0.2)
movej(p[0.433312944197735, -0.100725114189749, 0.38202196474578, -1.17865082850855, 1.13996808070299, -1.1544551596918], a = 0.2, v = 0.2, t = 0.2)
movej(p[0.436481679779641, -0.101764851174124, 0.380879346500133, -1.18009253302379, 1.12426828072235, -1.1693312017886], a = 0.2, v = 0.2, t = 0.2)
movej(p[0.438684475824659, -0.10245873670892, 0.380076992395855, -1.18788043231728, 1.11620622925936, -1.18100593369995], a = 0.2, v = 0.2, t = 0.2)
movej(p[0.440501162441873, -0.103011261740727, 0.37946074271913, -1.19611132335062, 1.10939873425336, -1.19144529665085], a = 0.2, v = 0.2, t = 0.2)
movej(p[0.44168486940385, -0.103331956868572, 0.379102979776466, -1.19931124869868, 1.10316597446832, -1.19775943699643], a = 0.2, v = 0.2, t = 0.2)
movej(p[0.442699140564221, -0.103446563512262, 0.37904468191663, -1.20345375864439, 1.10024093046545, -1.20243704267735], a = 0.2, v = 0.2, t = 0.2)
movej(p[0.442997455292195, -0.103474552591436, 0.379049762715869, -1.20542889055531, 1.09940048522022, -1.20410039298914], a = 0.2, v = 0.2, t = 0.2)
movej(p[0.443220458333867, -0.10354600146815, 0.378983292862391, -1.20829378114758, 1.0970289518653, -1.20628345524673], a = 0.2, v = 0.2, t = 0.2)
movej(p[0.443285606129122, -0.103541139539909, 0.378988023235219, -1.20801464321266, 1.09676431647516, -1.20643656683223], a = 0.2, v = 0.2, t = 0.2)
movej(p[0.44330986888859, -0.103546338725522, 0.379038613915903, -1.2078705326663, 1.09670539754599, -1.20654475166436], a = 0.2, v = 0.2, t = 0.2)
movej(p[0.443861759723798, -0.103540973651543, 0.379093703497443, -1.20724805742874, 1.09675331928879, -1.20699786164628], a = 0.2, v = 0.2, t = 0.2)
movej(p[0.443860181682458, -0.103540688542375, 0.379115143611675, -1.20447166159115, 1.09920051779931, -1.20535360009059], a = 0.2, v = 0.2, t = 0.2)
movej(p[0.443285397430424, -0.103310837619259, 0.379388369025493, -1.20467936142376, 1.10358877811001, -1.20138831842138], a = 0.2, v = 0.2, t = 0.2)
movej(p[0.442054966070679, -0.102926336084165, 0.379839416227532, -1.20693085706679, 1.11424674730742, -1.19573606022634], a = 0.2, v = 0.2, t = 0.2)
movej(p[0.440466920637783, -0.102538792418374, 0.380240135006934, -1.2024942139037, 1.12705206237599, -1.18622279587443], a = 0.2, v = 0.2, t = 0.2)
movej(p[0.439115171086588, -0.102174911221522, 0.38065374695722, -1.19958386999112, 1.13237164961311, -1.17968395618373], a = 0.2, v = 0.2, t = 0.2)
movej(p[0.438689570243431, -0.102060578164909, 0.380777337104358, -1.19713633710938, 1.13415663393386, -1.17732203530932], a = 0.2, v = 0.2, t = 0.2)
movej(p[0.438217251145173, -0.101925914686956, 0.380937731172598, -1.19475528310238, 1.13575968766537, -1.17461325230158], a = 0.2, v = 0.2, t = 0.2)
movej(p[0.436214503455522, -0.101452507093634, 0.381371665824569, -1.19076306202813, 1.14119941349188, -1.1668435582285], a = 0.2, v = 0.2, t = 0.2)
movej(p[0.435955901520155, -0.101471806350774, 0.381352888772122, -1.19151318342218, 1.14011549013521, -1.16579970366117], a = 0.2, v = 0.2, t = 0.2)
movej(p[0.435983897856504, -0.101577326082856, 0.381075771033079, -1.18711919259187, 1.12851537428714, -1.16883244522264], a = 0.2, v = 0.2, t = 0.2)
movej(p[0.439561971193981, -0.102566521415944, 0.379954085139155, -1.19285008976386, 1.11216239127696, -1.18667945983722], a = 0.2, v = 0.2, t = 0.2)
movej(p[0.440876308996631, -0.10298814649621, 0.379377037773493, -1.19808266021156, 1.10848517630279, -1.1926053458469], a = 0.2, v = 0.2, t = 0.2)
movej(p[0.441879366564709, -0.103243000556721, 0.37911330445561, -1.20091736470798, 1.10469732167037, -1.19745611346731], a = 0.2, v = 0.2, t = 0.2)
movej(p[0.442541291731373, -0.103385870197833, 0.379009994778493, -1.20319286674783, 1.10287406472007, -1.1994588333248], a = 0.2, v = 0.2, t = 0.2)
movej(p[0.442857904467267, -0.103460363848772, 0.378977029320214, -1.20500270114128, 1.10155166182052, -1.20153018466782], a = 0.2, v = 0.2, t = 0.2)
movej(p[0.44348837235841, -0.103551742370819, 0.379004793036561, -1.20414030938266, 1.09823749373484, -1.2045455272109], a = 0.2, v = 0.2, t = 0.2)
movej(p[0.44371141637547, -0.103592302485042, 0.379034785262021, -1.20438626710932, 1.09803949300017, -1.20496917040741], a = 0.2, v = 0.2, t = 0.2)
movej(p[0.44375672858508, -0.103598689226032, 0.379025168963367, -1.20472669580108, 1.09785878307574, -1.20554490128624], a = 0.2, v = 0.2, t = 0.2)
movej(p[0.443778547017188, -0.103615866843813, 0.379040039587688, -1.20480164640982, 1.09818473157265, -1.20606952609973], a = 0.2, v = 0.2, t = 0.2)
movej(p[0.443834024818305, -0.103612114504947, 0.379044774937336, -1.20561498665688, 1.09973934836412, -1.20591446582633], a = 0.2, v = 0.2, t = 0.2)
movej(p[0.443867818777049, -0.103621781219923, 0.37907115699514, -1.20569659803879, 1.09968154415689, -1.20600659193695], a = 0.2, v = 0.2, t = 0.2)
movej(p[0.444039233249326, -0.103650496574014, 0.379084155346323, -1.2046261932769, 1.09862981260129, -1.2068951284723], a = 0.2, v = 0.2, t = 0.2)
movej(p[0.444027629140683, -0.103648400027064, 0.379241814977026, -1.2046261932769, 1.09862981260129, -1.2068951284723], a = 0.2, v = 0.2, t = 0.2)
movej(p[0.442915721256041, -0.103320899112439, 0.37971979236874, -1.20495866875678, 1.10610051955175, -1.19980356401938], a = 0.2, v = 0.2, t = 0.2)
movej(p[0.441556768188311, -0.102962962855293, 0.380042100118457, -1.20529975732329, 1.11629477625244, -1.18971270616786], a = 0.2, v = 0.2, t = 0.2)
movej(p[0.440428293835455, -0.102672001728608, 0.380266539927102, -1.20685776416315, 1.12702663707487, -1.17877743584862], a = 0.2, v = 0.2, t = 0.2)
movej(p[0.439150817684448, -0.102346687273969, 0.380541528652713, -1.20284983453884, 1.13040708971088, -1.17338467433486], a = 0.2, v = 0.2, t = 0.2)
movej(p[0.438211785796907, -0.102098353759687, 0.380924379537347, -1.20173792496944, 1.13388844664676, -1.16915421690546], a = 0.2, v = 0.2, t = 0.2)
movej(p[0.43645127434917, -0.101642337119398, 0.381393722915021, -1.19541936002114, 1.13835078867468, -1.16154337714345], a = 0.2, v = 0.2, t = 0.2)
movej(p[0.436098578909001, -0.101553008521371, 0.381438977506592, -1.19417694959376, 1.13918422767233, -1.16012119155848], a = 0.2, v = 0.2, t = 0.2)
movej(p[0.436098578909001, -0.101553008521371, 0.381438977506592, -1.19327599856739, 1.13856165440852, -1.16071743659623], a = 0.2, v = 0.2, t = 0.2)
movej(p[0.436687473743893, -0.101731640489846, 0.381168014864745, -1.18938035389416, 1.13316824418891, -1.16630211257186], a = 0.2, v = 0.2, t = 0.2)
movej(p[0.438490113989559, -0.102225050582353, 0.380383982967871, -1.1911893457483, 1.11986087450632, -1.18119469941802], a = 0.2, v = 0.2, t = 0.2)
movej(p[0.440759127184036, -0.102835570154163, 0.379672336169433, -1.1938458540365, 1.10949192669821, -1.19250288877033], a = 0.2, v = 0.2, t = 0.2)
movej(p[0.44155343045645, -0.10302868813814, 0.379237585832232, -1.19769419349148, 1.1063217204887, -1.19531327811983], a = 0.2, v = 0.2, t = 0.2)
movej(p[0.441886596235091, -0.10309512673828, 0.379141452558314, -1.19947151200638, 1.10564433487297, -1.19541863790439], a = 0.2, v = 0.2, t = 0.2)
movej(p[0.442187958513939, -0.103337206550487, 0.378856588465439, -1.20416043561473, 1.09859374944965, -1.20222551115804], a = 0.2, v = 0.2, t = 0.2)
movej(p[0.442729383613646, -0.103460610138614, 0.378818457823639, -1.20448533542033, 1.09754253191783, -1.20368458532241], a = 0.2, v = 0.2, t = 0.2)
movej(p[0.443667615898497, -0.103669951952555, 0.378759633724842, -1.2050961982534, 1.0941519521031, -1.20751886270237], a = 0.2, v = 0.2, t = 0.2)
movej(p[0.443839982395642, -0.103701908604617, 0.378772544691153, -1.20497172175273, 1.09446510439068, -1.20808184737317], a = 0.2, v = 0.2, t = 0.2)
movej(p[0.444012086491055, -0.103741400635309, 0.378785737107679, -1.20504331799795, 1.09504458613129, -1.20823581234017], a = 0.2, v = 0.2, t = 0.2)
movej(p[0.444004431155625, -0.103740017524323, 0.378889746592071, -1.20331522267434, 1.09674691771966, -1.20777045837088], a = 0.2, v = 0.2, t = 0.2)
movej(p[0.443757937146628, -0.103584859145567, 0.379298936818042, -1.2004781246905, 1.09948252247016, -1.20685439751281], a = 0.2, v = 0.2, t = 0.2)
movej(p[0.443273338284313, -0.103405930509945, 0.379638341202217, -1.19828586298318, 1.10503271027369, -1.20275150893338], a = 0.2, v = 0.2, t = 0.2)
movej(p[0.442065599085812, -0.103069159111793, 0.380011469858032, -1.19771138513587, 1.11509561305587, -1.19414397377872], a = 0.2, v = 0.2, t = 0.2)
movej(p[0.440266851764831, -0.10260770414266, 0.380369023331973, -1.19843769235109, 1.12626676575365, -1.18275744489026], a = 0.2, v = 0.2, t = 0.2)
movej(p[0.438770711621777, -0.102230664276491, 0.380630840103137, -1.19492288927186, 1.13107618164045, -1.17604296243078], a = 0.2, v = 0.2, t = 0.2)
movej(p[0.436977049610309, -0.10179723438904, 0.380949931330342, -1.19058983444742, 1.134002784731, -1.17111672445294], a = 0.2, v = 0.2, t = 0.2)
movej(p[0.435823233714594, -0.101487811437223, 0.381606870997042, -1.16735757064742, 1.11539960545081, -1.18257691930862], a = 0.2, v = 0.2, t = 0.2)
movej(p[0.435669579403583, -0.101445666404335, 0.381652561574962, -1.16734626261886, 1.1154160466051, -1.18259327288208], a = 0.2, v = 0.2, t = 0.2)
movej(p[0.435669579403583, -0.101445666404335, 0.381652561574962, -1.16740781343605, 1.11538453022534, -1.18265075127917], a = 0.2, v = 0.2, t = 0.2)
movej(p[0.436962357251581, -0.101817350513812, 0.381015101232284, -1.1775189840472, 1.11713248385277, -1.18242054614454], a = 0.2, v = 0.2, t = 0.2)
movej(p[0.438124545431459, -0.102183892115966, 0.380322333718292, -1.18658206450634, 1.11561396487421, -1.18492910317455], a = 0.2, v = 0.2, t = 0.2)
movej(p[0.439138372356352, -0.102470543767345, 0.379919424848788, -1.19114887118031, 1.11187871049291, -1.18822534244438], a = 0.2, v = 0.2, t = 0.2)
movej(p[0.440528866206525, -0.102853467103048, 0.379483346562691, -1.19610795152478, 1.10514215485548, -1.19511421801242], a = 0.2, v = 0.2, t = 0.2)
movej(p[0.440742898523877, -0.102900864290613, 0.379467239615745, -1.19716817176026, 1.10420054900132, -1.19568227193227], a = 0.2, v = 0.2, t = 0.2)
movej(p[0.441314708196367, -0.103049611058785, 0.379290087964877, -1.19970594480438, 1.10372858526154, -1.19716061159576], a = 0.2, v = 0.2, t = 0.2)
movej(p[0.442061462950014, -0.103225041651415, 0.379183226441988, -1.20285568532253, 1.10380160998517, -1.1984159066051], a = 0.2, v = 0.2, t = 0.2)
movej(p[0.442510926203255, -0.103351865397475, 0.378979229404211, -1.20592522000769, 1.10429892541646, -1.19954243206525], a = 0.2, v = 0.2, t = 0.2)
movej(p[0.443197389865782, -0.103497501907345, 0.3790019084038, -1.20665064890584, 1.1041350655427, -1.20121755544116], a = 0.2, v = 0.2, t = 0.2)
movej(p[0.443743964397917, -0.103608244551419, 0.379030774432375, -1.20751745025792, 1.10369874559545, -1.20274601471425], a = 0.2, v = 0.2, t = 0.2)
movej(p[0.444113241359319, -0.103700867212006, 0.379055475414602, -1.20703821607831, 1.10333318879574, -1.20304409479333], a = 0.2, v = 0.2, t = 0.2)
movej(p[0.444113241359319, -0.103700867212006, 0.379055475414602, -1.20645660418017, 1.10393902643178, -1.20354629595336], a = 0.2, v = 0.2, t = 0.2)
movej(p[0.443470868230592, -0.103484937031232, 0.379487366535743, -1.20317822290492, 1.1067636085038, -1.2015127070422], a = 0.2, v = 0.2, t = 0.2)
movej(p[0.442687517087434, -0.103263120659157, 0.379831788564062, -1.19903352298377, 1.10959903255694, -1.19846253064883], a = 0.2, v = 0.2, t = 0.2)
movej(p[0.442102837048035, -0.103100552221459, 0.380101369729194, -1.19550857079089, 1.11238613557431, -1.1961077861277], a = 0.2, v = 0.2, t = 0.2)
movej(p[0.440355461259809, -0.102665886508849, 0.380219281488574, -1.18908735704364, 1.11680622875334, -1.18930186042138], a = 0.2, v = 0.2, t = 0.2)
movej(p[0.438959764213991, -0.102289973961551, 0.38098208088755, -1.17825086175586, 1.11484369086452, -1.19032194699654], a = 0.2, v = 0.2, t = 0.2)
movej(p[0.436482235949991, -0.10167501817364, 0.381294452285083, -1.16998270756367, 1.11896075228427, -1.18278730869277], a = 0.2, v = 0.2, t = 0.2)
movej(p[0.434359958928606, -0.101154744052353, 0.381281246861226, -1.16691425679994, 1.12027998722485, -1.18008100781065], a = 0.2, v = 0.2, t = 0.2)
movej(p[0.434370931820712, -0.101156726555636, 0.381132163276215, -1.16748774126718, 1.1194503860623, -1.17925694199634], a = 0.2, v = 0.2, t = 0.2)
movej(p[0.436273529930587, -0.101653889923872, 0.381273896397208, -1.17199325422482, 1.11641469780842, -1.18406440684855], a = 0.2, v = 0.2, t = 0.2)
movej(p[0.437500588409929, -0.10199093961405, 0.380745757651587, -1.17804034501642, 1.11437562170785, -1.18664307172023], a = 0.2, v = 0.2, t = 0.2)
movej(p[0.438506624790522, -0.102266798152139, 0.380290889123453, -1.18538128878507, 1.11273408106125, -1.18824098667343], a = 0.2, v = 0.2, t = 0.2)
movej(p[0.439593649835619, -0.102559485099637, 0.379841503373683, -1.19279222960047, 1.11110876023028, -1.19005178041128], a = 0.2, v = 0.2, t = 0.2)
movej(p[0.44082563768753, -0.102884538717338, 0.379399306733757, -1.20001048631934, 1.10948587086965, -1.19253529317646], a = 0.2, v = 0.2, t = 0.2)
movej(p[0.441834409890642, -0.1031439230347, 0.379096143101148, -1.20357369368843, 1.10675870382784, -1.19583531253417], a = 0.2, v = 0.2, t = 0.2)
movej(p[0.442332072746903, -0.10328222259645, 0.378947690675377, -1.20508684228925, 1.10454311803378, -1.19837079442785], a = 0.2, v = 0.2, t = 0.2)
movej(p[0.442897182526859, -0.103435703866564, 0.378838599629351, -1.20665827342814, 1.10230300518538, -1.20130691132884], a = 0.2, v = 0.2, t = 0.2)
movej(p[0.443276677230594, -0.103566715278018, 0.378867270693253, -1.20556874655749, 1.10091629978957, -1.20310443623746], a = 0.2, v = 0.2, t = 0.2)
movej(p[0.443428524298176, -0.103571324484115, 0.378878508276891, -1.20662601600037, 1.09994961929097, -1.20527672142782], a = 0.2, v = 0.2, t = 0.2)
movej(p[0.444355315673219, -0.103777824780384, 0.378952175805603, -1.20612509211829, 1.10072156447056, -1.20601699189706], a = 0.2, v = 0.2, t = 0.2)
movej(p[0.444343227142584, -0.10377564071155, 0.379116417052768, -1.20641449605326, 1.10458958948503, -1.20423124618135], a = 0.2, v = 0.2, t = 0.2)
movej(p[0.443985732393665, -0.103648480009137, 0.37947689572101, -1.20421559760417, 1.10761393997169, -1.2014533898964], a = 0.2, v = 0.2, t = 0.2)
movej(p[0.443186122685769, -0.103439634571663, 0.379770555027494, -1.2027243845313, 1.11323082423739, -1.1954583577718], a = 0.2, v = 0.2, t = 0.2)
movej(p[0.442213405477431, -0.103172871455317, 0.37998913154124, -1.20134119229667, 1.119881000075, -1.18796857665311], a = 0.2, v = 0.2, t = 0.2)
movej(p[0.440819058802467, -0.102809039142701, 0.380137879880101, -1.20057376929394, 1.12149021083068, -1.18559416061745], a = 0.2, v = 0.2, t = 0.2)
movej(p[0.43967016500787, -0.102516169551641, 0.380324490280045, -1.19802885373352, 1.12207101202351, -1.18392988946706], a = 0.2, v = 0.2, t = 0.2)
movej(p[0.437993861264933, -0.102121221893237, 0.380678603141345, -1.17982972400773, 1.11643904870008, -1.18648973828624], a = 0.2, v = 0.2, t = 0.2)
movej(p[0.436218786181808, -0.101659641256513, 0.381180795300852, -1.1721641125312, 1.12047836422956, -1.182444589206], a = 0.2, v = 0.2, t = 0.2)
movej(p[0.435571527045672, -0.101477082672652, 0.381434574228556, -1.16981932714656, 1.12194910767365, -1.18002489553342], a = 0.2, v = 0.2, t = 0.2)
movej(p[0.435571527045672, -0.101477082672652, 0.381434574228556, -1.16978868825069, 1.12199346579362, -1.18006879494391], a = 0.2, v = 0.2, t = 0.2)
movej(p[0.437503262416825, -0.101993406373401, 0.381027170470743, -1.17571560080415, 1.11806395082304, -1.1865782866575], a = 0.2, v = 0.2, t = 0.2)
movej(p[0.439079545710104, -0.102407356536078, 0.38047772429308, -1.18334432465685, 1.11233756345502, -1.19213848429027], a = 0.2, v = 0.2, t = 0.2)
movej(p[0.439955725923319, -0.102632959210992, 0.379754611074391, -1.19044871801627, 1.11104290566088, -1.1915872965439], a = 0.2, v = 0.2, t = 0.2)
movej(p[0.440770943766789, -0.102841863194224, 0.379257130418005, -1.20034883600793, 1.10634603591472, -1.19357685399039], a = 0.2, v = 0.2, t = 0.2)
movej(p[0.441417792578694, -0.103009353447729, 0.37905997928431, -1.20254226522631, 1.10456527768156, -1.19449259980138], a = 0.2, v = 0.2, t = 0.2)
movej(p[0.442112266870376, -0.103190774102153, 0.37884295310077, -1.20550830026807, 1.10205392416677, -1.19733715729141], a = 0.2, v = 0.2, t = 0.2)
movej(p[0.442748649924516, -0.10335645285149, 0.378735459517605, -1.20727576070398, 1.1005707025341, -1.19929691261232], a = 0.2, v = 0.2, t = 0.2)
movej(p[0.443031421474748, -0.103433929320497, 0.378707764443504, -1.20744570225939, 1.10045023615253, -1.19948956427718], a = 0.2, v = 0.2, t = 0.2)
movej(p[0.443180069910673, -0.103476775997715, 0.378719275079818, -1.20814607311454, 1.10124487884757, -1.1998669135813], a = 0.2, v = 0.2, t = 0.2)
movej(p[0.443633075138556, -0.103588867620729, 0.378876448651264, -1.20772838199075, 1.10266218316503, -1.2014071949357], a = 0.2, v = 0.2, t = 0.2)
movej(p[0.443983688950065, -0.103692287311293, 0.379083430710347, -1.2089690083047, 1.10341926402689, -1.20117204197314], a = 0.2, v = 0.2, t = 0.2)
movej(p[0.444432719721674, -0.10381107232214, 0.379118059994874, -1.20911108704546, 1.10386743151614, -1.20120907203134], a = 0.2, v = 0.2, t = 0.2)
movej(p[0.44442623874259, -0.103809901385418, 0.379206114045418, -1.20941238472891, 1.10550996704376, -1.20092538903142], a = 0.2, v = 0.2, t = 0.2)
movej(p[0.443821114708636, -0.103652780706972, 0.379307297867918, -1.20695280012361, 1.1072823924184, -1.1982734872195], a = 0.2, v = 0.2, t = 0.2)
movej(p[0.442403699147745, -0.103303627874207, 0.379909310190979, -1.19652965994057, 1.10741544012199, -1.19928800350568], a = 0.2, v = 0.2, t = 0.2)
movej(p[0.441238455502326, -0.102984456213097, 0.379957586453816, -1.19356207336068, 1.10962936288621, -1.19640230936688], a = 0.2, v = 0.2, t = 0.2)
movej(p[0.440571423676147, -0.102813836899483, 0.380213478330761, -1.19072963483997, 1.11205153834155, -1.19349660632499], a = 0.2, v = 0.2, t = 0.2)
movej(p[0.439148291776128, -0.102407582014772, 0.380464436043925, -1.19129872435143, 1.12254655338496, -1.18278461010396], a = 0.2, v = 0.2, t = 0.2)
movej(p[0.437405915710254, -0.101920320999974, 0.380838831715011, -1.1853996202621, 1.12657035567661, -1.17611181525996], a = 0.2, v = 0.2, t = 0.2)
movej(p[0.436492262532546, -0.101721625049599, 0.380945333828459, -1.17423573099439, 1.11964647050445, -1.1837472848513], a = 0.2, v = 0.2, t = 0.2)
movej(p[0.436492262532546, -0.101721625049599, 0.380945333828459, -1.17481785819672, 1.11924840857343, -1.18439921497825], a = 0.2, v = 0.2, t = 0.2)
movej(p[0.437710837445548, -0.102038589719788, 0.380521697145374, -1.18073630292422, 1.11455616069682, -1.18893685414394], a = 0.2, v = 0.2, t = 0.2)
movej(p[0.43926013663187, -0.102447439302219, 0.380173864340414, -1.18765444421431, 1.1120275109601, -1.19144468574466], a = 0.2, v = 0.2, t = 0.2)
movej(p[0.44028220689571, -0.102701906833046, 0.37979189203575, -1.19248831465027, 1.10873453517634, -1.19272821816158], a = 0.2, v = 0.2, t = 0.2)
movej(p[0.441110697056903, -0.102885496168001, 0.379196376772389, -1.1983427682986, 1.10484692475121, -1.19473762385656], a = 0.2, v = 0.2, t = 0.2)
movej(p[0.441886335489534, -0.103088988726265, 0.378950419925447, -1.20385422240057, 1.10222763613502, -1.1970520046153], a = 0.2, v = 0.2, t = 0.2)
movej(p[0.442180323250694, -0.103167542536661, 0.378965982867342, -1.20513120379134, 1.10341927414662, -1.1963549865704], a = 0.2, v = 0.2, t = 0.2)
movej(p[0.4425378630111, -0.103262875612101, 0.378880952670025, -1.20480901566566, 1.10396621494047, -1.19700020098236], a = 0.2, v = 0.2, t = 0.2)
movej(p[0.442892771069972, -0.103357856998799, 0.378830420740231, -1.20446318582301, 1.10447935335105, -1.19767036030593], a = 0.2, v = 0.2, t = 0.2)
movej(p[0.443308383370595, -0.103500370575685, 0.378831819301764, -1.20640294283699, 1.1026267743439, -1.20036268025547], a = 0.2, v = 0.2, t = 0.2)
movej(p[0.443741176350991, -0.103607734566933, 0.378865101571863, -1.20897969139914, 1.10018779936696, -1.20173446472317], a = 0.2, v = 0.2, t = 0.2)
movej(p[0.443825195429194, -0.103616851678225, 0.3787239962113, -1.2072898250148, 1.09609016660969, -1.20519961015622], a = 0.2, v = 0.2, t = 0.2)
movej(p[0.444088534171234, -0.103712699105002, 0.37874465311623, -1.20693732113195, 1.09663555137732, -1.20572325929294], a = 0.2, v = 0.2, t = 0.2)
movej(p[0.444060650547746, -0.10370766129231, 0.379123494948641, -1.20292266463144, 1.10191658575114, -1.20222653933273], a = 0.2, v = 0.2, t = 0.2)
movej(p[0.443543996722758, -0.103627992628794, 0.379509292083389, -1.20537982859085, 1.10810026367711, -1.19690682272532], a = 0.2, v = 0.2, t = 0.2)
movej(p[0.442136275807619, -0.103219992639259, 0.37976637483975, -1.2054419935679, 1.11768942906748, -1.18698890669993], a = 0.2, v = 0.2, t = 0.2)
movej(p[0.440717295484305, -0.102818249012171, 0.380097721003363, -1.20198940816178, 1.12310366575391, -1.182151264322], a = 0.2, v = 0.2, t = 0.2)
movej(p[0.439569823166637, -0.102496047822446, 0.380270608549261, -1.19890704963041, 1.12825642996734, -1.17541407001168], a = 0.2, v = 0.2, t = 0.2)
movej(p[0.438239699715139, -0.102135267579105, 0.380594499008814, -1.19504355804355, 1.13088179454452, -1.17100984470393], a = 0.2, v = 0.2, t = 0.2)
movej(p[0.436992697300273, -0.101824863291513, 0.381138070251213, -1.18894433365412, 1.13492426042991, -1.16794649990715], a = 0.2, v = 0.2, t = 0.2)
movej(p[0.43563918613125, -0.101474566340883, 0.381067885482869, -1.18241594624225, 1.13863768521973, -1.16876140386849], a = 0.2, v = 0.2, t = 0.2)
movej(p[0.43563918613125, -0.101474566340883, 0.381067885482869, -1.18009247047187, 1.13648658628333, -1.17011915748944], a = 0.2, v = 0.2, t = 0.2)
movej(p[0.437087245547824, -0.101853057603796, 0.380562781315426, -1.18116234255455, 1.12120864733778, -1.18519069619732], a = 0.2, v = 0.2, t = 0.2)
movej(p[0.438773367399688, -0.102265630292889, 0.380074950343795, -1.18453274741672, 1.1180335580212, -1.18721571462363], a = 0.2, v = 0.2, t = 0.2)
movej(p[0.440294097248395, -0.102639079361665, 0.37945278706918, -1.18950420129901, 1.1133308890271, -1.18987317104225], a = 0.2, v = 0.2, t = 0.2)
movej(p[0.441111280733288, -0.102850509420145, 0.379177302528069, -1.19566475928519, 1.10711350023157, -1.19573672676835], a = 0.2, v = 0.2, t = 0.2)
movej(p[0.441947229021293, -0.103064275878748, 0.378896411195064, -1.20308699910303, 1.10046091780489, -1.19957700087797], a = 0.2, v = 0.2, t = 0.2)
movej(p[0.44243695698439, -0.103168401612605, 0.378777806331298, -1.20479836202164, 1.10037160780405, -1.20036836437114], a = 0.2, v = 0.2, t = 0.2)
movej(p[0.442968685878848, -0.103341996617999, 0.378726793716178, -1.20535727470016, 1.10016827633807, -1.20160725766222], a = 0.2, v = 0.2, t = 0.2)
movej(p[0.443189763860851, -0.10340186157112, 0.378708162203594, -1.20419312623429, 1.09909605020797, -1.20225902683299], a = 0.2, v = 0.2, t = 0.2)
movej(p[0.443602791152934, -0.103538372580047, 0.378740377268963, -1.20233242710327, 1.09852264420574, -1.20373564686993], a = 0.2, v = 0.2, t = 0.2)
movej(p[0.443763859816476, -0.103610829748654, 0.378803736596154, -1.20287311603568, 1.09843014243989, -1.20526162181318], a = 0.2, v = 0.2, t = 0.2)
movej(p[0.444166948465519, -0.103723603010208, 0.37886258158312, -1.20361212813049, 1.09912986905772, -1.20485464880382], a = 0.2, v = 0.2, t = 0.2)
movej(p[0.444162060207229, -0.103722719834832, 0.378928996076509, -1.20464920071577, 1.10049706296429, -1.20412493086004], a = 0.2, v = 0.2, t = 0.2)
movej(p[0.44389140138551, -0.103726779471763, 0.379273844828245, -1.20248145371145, 1.10318695596136, -1.19994647406737], a = 0.2, v = 0.2, t = 0.2)
movej(p[0.442258940441573, -0.103264480330159, 0.379684640373731, -1.20600683194552, 1.11353369713213, -1.19232132542209], a = 0.2, v = 0.2, t = 0.2)
movej(p[0.440732477974972, -0.102834373774538, 0.380033971618928, -1.20107540192657, 1.12180270943375, -1.18117563847004], a = 0.2, v = 0.2, t = 0.2)
movej(p[0.439035607859034, -0.102348202120517, 0.380380945367879, -1.19668624536295, 1.13022666575862, -1.17041284015628], a = 0.2, v = 0.2, t = 0.2)
movej(p[0.43756416466687, -0.101924426858295, 0.380696304210095, -1.19353801276888, 1.13292532089614, -1.1662133649367], a = 0.2, v = 0.2, t = 0.2)
movej(p[0.436417676492732, -0.101656990533866, 0.38112239549015, -1.18788636120368, 1.13797541672985, -1.16384873334819], a = 0.2, v = 0.2, t = 0.2)
movej(p[0.436417676492732, -0.101656990533866, 0.38112239549015, -1.18512197952891, 1.13797735346161, -1.16634052904772], a = 0.2, v = 0.2, t = 0.2)
movej(p[0.436783214320583, -0.101803756534439, 0.38114623762692, -1.18169662487102, 1.13438584063315, -1.16879706482034], a = 0.2, v = 0.2, t = 0.2)
movej(p[0.437947176122361, -0.102060542749795, 0.380566860673974, -1.18676264425207, 1.12645437410928, -1.17706055539271], a = 0.2, v = 0.2, t = 0.2)
movej(p[0.43894345716298, -0.102235250137627, 0.379901448330581, -1.18952280949861, 1.1178799908852, -1.18375931391157], a = 0.2, v = 0.2, t = 0.2)
movej(p[0.440519770306149, -0.102643470180699, 0.379395549653859, -1.19095829321506, 1.11087802840945, -1.19132050162978], a = 0.2, v = 0.2, t = 0.2)
movej(p[0.441358635199586, -0.102841042750143, 0.379046768547201, -1.19302402825166, 1.10711500960227, -1.19529028006231], a = 0.2, v = 0.2, t = 0.2)
movej(p[0.441839879250852, -0.102951939027438, 0.378899651353091, -1.19663964178937, 1.10419779672706, -1.19814008490199], a = 0.2, v = 0.2, t = 0.2)
movej(p[0.442453195783337, -0.103132596212766, 0.378853835172872, -1.19978187496399, 1.10213314333518, -1.19828038730472], a = 0.2, v = 0.2, t = 0.2)
movej(p[0.442948785157845, -0.103316036862137, 0.378852338498543, -1.20323053272029, 1.09949176608134, -1.20153294454333], a = 0.2, v = 0.2, t = 0.2)
movej(p[0.443674538662296, -0.103558105136565, 0.37892181037265, -1.20112177549258, 1.09750155372337, -1.20269398547526], a = 0.2, v = 0.2, t = 0.2)
movej(p[0.44387417825376, -0.103657495582415, 0.37884165812506, -1.20002067336252, 1.09945267523404, -1.20515255494279], a = 0.2, v = 0.2, t = 0.2)
movej(p[0.444064341767087, -0.103690728187456, 0.378947250417209, -1.20112097013819, 1.10049435421571, -1.20454515973568], a = 0.2, v = 0.2, t = 0.2)
movej(p[0.444064341767087, -0.103690728187456, 0.378947250417209, -1.20268591583517, 1.10145933580942, -1.20348792487414], a = 0.2, v = 0.2, t = 0.2)
movej(p[0.443880542953681, -0.103689030456103, 0.379120119078044, -1.2029283069748, 1.10606869897965, -1.19888047429711], a = 0.2, v = 0.2, t = 0.2)
movej(p[0.443003153252591, -0.103487449599848, 0.379437331484504, -1.20211398089388, 1.10653290451613, -1.19714407303672], a = 0.2, v = 0.2, t = 0.2)
movej(p[0.442139407675767, -0.103268134176641, 0.379769953076799, -1.20455042507931, 1.11546627760313, -1.18944106015315], a = 0.2, v = 0.2, t = 0.2)
movej(p[0.440549298874005, -0.102803872546227, 0.380060696738956, -1.19977250767691, 1.11911635622075, -1.18365032185916], a = 0.2, v = 0.2, t = 0.2)
movej(p[0.438924557591943, -0.102348135439683, 0.380454999967553, -1.19192427906839, 1.12826738680638, -1.17439295942772], a = 0.2, v = 0.2, t = 0.2)
movej(p[0.437062724942947, -0.10182496175012, 0.380874376907408, -1.19026579841992, 1.13186657952057, -1.16986471938214], a = 0.2, v = 0.2, t = 0.2)
movej(p[0.434409341198754, -0.101122768100376, 0.381666319932071, -1.18433572389643, 1.14425480659058, -1.15398721436617], a = 0.2, v = 0.2, t = 0.2)
movej(p[0.434409341198754, -0.101122768100376, 0.381666319932071, -1.18384686558468, 1.14495092500801, -1.15466285455471], a = 0.2, v = 0.2, t = 0.2)
movej(p[0.435657936753664, -0.101518937039547, 0.381410504447988, -1.17798984827512, 1.13560680280521, -1.16515548333847], a = 0.2, v = 0.2, t = 0.2)
movej(p[0.436926225760606, -0.101755778609643, 0.380791710552136, -1.18185893860178, 1.12919248870538, -1.17361265512007], a = 0.2, v = 0.2, t = 0.2)
movej(p[0.438082118275355, -0.102004574757273, 0.380295868055701, -1.18329186575854, 1.12367405559896, -1.18004795292088], a = 0.2, v = 0.2, t = 0.2)
movej(p[0.43903619693626, -0.10218013536331, 0.379798537660075, -1.18152941524826, 1.11782378636903, -1.18625694431682], a = 0.2, v = 0.2, t = 0.2)
movej(p[0.43961019695934, -0.102307132583072, 0.379579942921627, -1.18301298517627, 1.11483006921029, -1.18997704080527], a = 0.2, v = 0.2, t = 0.2)
movej(p[0.440950688107248, -0.102682970895848, 0.379257517185947, -1.1901491389325, 1.10747242214294, -1.19615609563768], a = 0.2, v = 0.2, t = 0.2)
movej(p[0.441624765811948, -0.102846001226758, 0.379036639348148, -1.19474439759771, 1.10366282849585, -1.19942985742314], a = 0.2, v = 0.2, t = 0.2)
movej(p[0.442152948203894, -0.102987380146574, 0.378941817188977, -1.19443854396847, 1.1033746456062, -1.19959979746844], a = 0.2, v = 0.2, t = 0.2)
movej(p[0.442397227412865, -0.103096079677281, 0.37896124217517, -1.19396775918227, 1.10395806053672, -1.19987672201562], a = 0.2, v = 0.2, t = 0.2)
movej(p[0.442397494921116, -0.10309836570669, 0.37896129226385, -1.19386271363154, 1.10403100179092, -1.19976527308327], a = 0.2, v = 0.2, t = 0.2)
movej(p[0.443022426018174, -0.103294750603494, 0.378897687576625, -1.19383205723488, 1.10407744377877, -1.1998103426749], a = 0.2, v = 0.2, t = 0.2)
movej(p[0.44373723910541, -0.103579583606248, 0.378954087140973, -1.19704415281596, 1.10253553783729, -1.20269227680243], a = 0.2, v = 0.2, t = 0.2)
movej(p[0.44373605006961, -0.103579368779805, 0.378970242017743, -1.19928453711686, 1.10127837547104, -1.20124872435503], a = 0.2, v = 0.2, t = 0.2)
movej(p[0.443225408288567, -0.103494031997342, 0.379206488700283, -1.20390648623979, 1.10530373828124, -1.19856150809861], a = 0.2, v = 0.2, t = 0.2)
movej(p[0.442044967178808, -0.103208489010528, 0.379639868117278, -1.20331769680132, 1.11379715979016, -1.18922233586938], a = 0.2, v = 0.2, t = 0.2)
movej(p[0.440994264422364, -0.102914492762983, 0.379888142288365, -1.19955315221928, 1.11899810325387, -1.1822339243686], a = 0.2, v = 0.2, t = 0.2)
movej(p[0.439590774752746, -0.102514167073216, 0.380227767286545, -1.19473721725591, 1.12464143084988, -1.175354263453], a = 0.2, v = 0.2, t = 0.2)
movej(p[0.43758337206736, -0.101905158187541, 0.380643210574943, -1.19263569185588, 1.13209040444128, -1.16687227219594], a = 0.2, v = 0.2, t = 0.2)
movej(p[0.435364171135487, -0.101318927441052, 0.381271202538142, -1.17887793632509, 1.14368364293307, -1.15652430737013], a = 0.2, v = 0.2, t = 0.2)
movej(p[0.434696497478554, -0.101203258605122, 0.381567488511878, -1.17792291281349, 1.14466078543759, -1.15658806728156], a = 0.2, v = 0.2, t = 0.2)
movej(p[0.434696497478554, -0.101203258605122, 0.381567488511878, -1.17709943215918, 1.14459740042428, -1.15730923239976], a = 0.2, v = 0.2, t = 0.2)
movej(p[0.436492074810526, -0.101673590056981, 0.381042553858517, -1.17299220841308, 1.13749701221916, -1.16597992282362], a = 0.2, v = 0.2, t = 0.2)
movej(p[0.437642741112549, -0.101887733691242, 0.380511068971342, -1.17640428143906, 1.12918139680458, -1.17627578432942], a = 0.2, v = 0.2, t = 0.2)
movej(p[0.438701266776958, -0.102054804185947, 0.379994137517873, -1.1792405074895, 1.12274545564413, -1.18145638200975], a = 0.2, v = 0.2, t = 0.2)
movej(p[0.439669453164134, -0.102276293165064, 0.379629421022746, -1.18641888086723, 1.1137001704917, -1.1906160808586], a = 0.2, v = 0.2, t = 0.2)
movej(p[0.440748899363625, -0.10258559807573, 0.379377649807865, -1.18863205417524, 1.11189072433612, -1.19315332823026], a = 0.2, v = 0.2, t = 0.2)
movej(p[0.441770881222972, -0.102881134362238, 0.379159572132435, -1.19549021531149, 1.10556259232326, -1.19591610322286], a = 0.2, v = 0.2, t = 0.2)
movej(p[0.441988495394277, -0.10293983075535, 0.379147288570934, -1.19955615389125, 1.10248844954748, -1.19889676030217], a = 0.2, v = 0.2, t = 0.2)
movej(p[0.442173558971592, -0.102998762732891, 0.379083676037779, -1.20053828351157, 1.10179562186541, -1.20000521468144], a = 0.2, v = 0.2, t = 0.2)
movej(p[0.442286733134238, -0.103022624843178, 0.379058829939453, -1.199859021578, 1.10120332921194, -1.20039897319789], a = 0.2, v = 0.2, t = 0.2)
movej(p[0.442789314042656, -0.103193080382215, 0.379000315413856, -1.19873489109641, 1.10292161895911, -1.20206500011152], a = 0.2, v = 0.2, t = 0.2)
movej(p[0.443634162251568, -0.103512096652557, 0.378950115581641, -1.19895962416113, 1.10337036229135, -1.20169927820825], a = 0.2, v = 0.2, t = 0.2)
movej(p[0.443912266970916, -0.103598017223239, 0.378928908021423, -1.19972491720608, 1.10362132694745, -1.20109942512015], a = 0.2, v = 0.2, t = 0.2)
movej(p[0.443912266970916, -0.103598017223239, 0.378928908021423, -1.19922460992288, 1.10405175907969, -1.19970149957671], a = 0.2, v = 0.2, t = 0.2)
movej(p[0.443632609565188, -0.103527949769711, 0.378993332220121, -1.20017599349261, 1.10347933126644, -1.19855769034362], a = 0.2, v = 0.2, t = 0.2)
movej(p[0.442831438111717, -0.103350787956446, 0.379277370252897, -1.20430386816783, 1.1064502583558, -1.19510074793408], a = 0.2, v = 0.2, t = 0.2)
movej(p[0.441905722790833, -0.103050517615139, 0.37947328913104, -1.20384759404177, 1.11220331278232, -1.18896626565622], a = 0.2, v = 0.2, t = 0.2)
movej(p[0.440758555585188, -0.102704226577703, 0.379726603638486, -1.1947711658988, 1.12080077898584, -1.18005261004592], a = 0.2, v = 0.2, t = 0.2)
movej(p[0.439167169628126, -0.102246421863885, 0.380132961214609, -1.19243756838853, 1.1272756204166, -1.17384892776407], a = 0.2, v = 0.2, t = 0.2)
movej(p[0.438739939221057, -0.102136530067338, 0.380261404168202, -1.19099586105084, 1.12939331634072, -1.17099688004518], a = 0.2, v = 0.2, t = 0.2)
movej(p[0.437537425141716, -0.10183759139745, 0.38061807217999, -1.18649216954766, 1.13307463898749, -1.16779744134534], a = 0.2, v = 0.2, t = 0.2)
movej(p[0.436908184674952, -0.101710320272923, 0.380842525105672, -1.18230569560165, 1.13687053668816, -1.16628064378755], a = 0.2, v = 0.2, t = 0.2)
movej(p[0.436908184674952, -0.101710320272923, 0.380842525105672, -1.1777636974718, 1.13336919802645, -1.16916672686066], a = 0.2, v = 0.2, t = 0.2)
movej(p[0.438250108481091, -0.102032468277592, 0.38040918359877, -1.18105289783825, 1.12752458772004, -1.17674608538914], a = 0.2, v = 0.2, t = 0.2)
movej(p[0.439081721031987, -0.102211279682107, 0.380116076473632, -1.18472238404639, 1.12311800169215, -1.18032631364871], a = 0.2, v = 0.2, t = 0.2)
movej(p[0.440326847567571, -0.102491778807839, 0.37969360829631, -1.18786510632378, 1.11777205812231, -1.18721849021779], a = 0.2, v = 0.2, t = 0.2)
movej(p[0.441052928496213, -0.102668606804546, 0.379458891776562, -1.18805518510247, 1.11207301129363, -1.19321630296299], a = 0.2, v = 0.2, t = 0.2)
movej(p[0.44231775929271, -0.103083690224198, 0.379184466903486, -1.19259908007468, 1.10586924137732, -1.20196350977485], a = 0.2, v = 0.2, t = 0.2)
movej(p[0.442863130189664, -0.103252236951375, 0.379087159681175, -1.19529212336512, 1.10321652228357, -1.2025547721076], a = 0.2, v = 0.2, t = 0.2)
movej(p[0.443142277306381, -0.103347620401803, 0.379059937362887, -1.19669773351666, 1.10357758473984, -1.20276033481377], a = 0.2, v = 0.2, t = 0.2)
movej(p[0.443494006632794, -0.103454628460518, 0.378968617998506, -1.20113092394233, 1.09915540262753, -1.20329590917616], a = 0.2, v = 0.2, t = 0.2)
movej(p[0.443708433775389, -0.103493562006548, 0.378894065000496, -1.20113092394233, 1.09915540262753, -1.20329590917616], a = 0.2, v = 0.2, t = 0.2)
movej(p[0.444146900907871, -0.103719311327506, 0.378929339181129, -1.1983416062328, 1.10206423136804, -1.20312171410155], a = 0.2, v = 0.2, t = 0.2)
movej(p[0.444142019989309, -0.103718429478219, 0.378995653953057, -1.19609855445848, 1.10431453332018, -1.200252462253], a = 0.2, v = 0.2, t = 0.2)
movej(p[0.442638213670424, -0.103244313568903, 0.379266044614534, -1.19290262122547, 1.11169215877956, -1.19197533075924], a = 0.2, v = 0.2, t = 0.2)
movej(p[0.441043709007838, -0.102822862668959, 0.379719486518121, -1.19242540118357, 1.1196489729653, -1.18421317812138], a = 0.2, v = 0.2, t = 0.2)
movej(p[0.43925339870523, -0.102220347674853, 0.380090024832274, -1.18647499114078, 1.12472455350582, -1.17771088419492], a = 0.2, v = 0.2, t = 0.2)
movej(p[0.43731722145279, -0.101709420310912, 0.380649999095885, -1.1704671654475, 1.13862670497896, -1.16876145825135], a = 0.2, v = 0.2, t = 0.2)
movej(p[0.435670418124856, -0.10131204179662, 0.381174118505454, -1.16855238230635, 1.14484955537645, -1.16123567132274], a = 0.2, v = 0.2, t = 0.2)
movej(p[0.433680412688734, -0.100825735736639, 0.381802859970789, -1.16699227295184, 1.14990143532523, -1.15293188013941], a = 0.2, v = 0.2, t = 0.2)
movej(p[0.433680412688734, -0.100825735736639, 0.381802859970789, -1.16699227295184, 1.14990143532523, -1.15293188013941], a = 0.2, v = 0.2, t = 0.2)
movej(p[0.434803645991342, -0.101106243762552, 0.381487543740139, -1.16430757708825, 1.14716769413548, -1.15759874668904], a = 0.2, v = 0.2, t = 0.2)
movej(p[0.43604050038407, -0.101379462112579, 0.381052436656309, -1.16529949073302, 1.13887570928001, -1.16701410399176], a = 0.2, v = 0.2, t = 0.2)
movej(p[0.437956768662986, -0.101898381001046, 0.380513164767175, -1.17359586114851, 1.12930402772122, -1.17683960191146], a = 0.2, v = 0.2, t = 0.2)
movej(p[0.438835730119109, -0.102085283380566, 0.380213221173843, -1.1821812842837, 1.12189631631814, -1.18420708416201], a = 0.2, v = 0.2, t = 0.2)
movej(p[0.439509527339978, -0.102329708913798, 0.380081249760826, -1.18343643007265, 1.12085437646235, -1.18501922464973], a = 0.2, v = 0.2, t = 0.2)
movej(p[0.439997529355616, -0.102375088758728, 0.379860955951547, -1.18728515344074, 1.117799880807, -1.18800608045518], a = 0.2, v = 0.2, t = 0.2)
movej(p[0.441162757612371, -0.102727502659671, 0.379568739914885, -1.19013526975494, 1.11180712624784, -1.19449720470792], a = 0.2, v = 0.2, t = 0.2)
movej(p[0.442331253018831, -0.103122029624772, 0.379317736929069, -1.19374829650167, 1.10695899953778, -1.1994724660503], a = 0.2, v = 0.2, t = 0.2)
movej(p[0.442809974600261, -0.103202656416647, 0.379131323737729, -1.19568435620824, 1.10487695912258, -1.19933617464899], a = 0.2, v = 0.2, t = 0.2)
movej(p[0.443075349547052, -0.103354595208847, 0.379126202112927, -1.19784697733945, 1.10360607351618, -1.2004465263729], a = 0.2, v = 0.2, t = 0.2)
movej(p[0.443373387745824, -0.103398160169244, 0.379055558243426, -1.19913630566406, 1.10293941457089, -1.19929232795601], a = 0.2, v = 0.2, t = 0.2)
movej(p[0.443433491426373, -0.103466570650058, 0.379044445921469, -1.20021964891947, 1.10232172718338, -1.19808237326277], a = 0.2, v = 0.2, t = 0.2)
movej(p[0.443541030609942, -0.103483656999261, 0.379007161733557, -1.20258564290396, 1.10026211412074, -1.19770667970913], a = 0.2, v = 0.2, t = 0.2)
movej(p[0.443541030609942, -0.103483656999261, 0.379007161733557, -1.20387581517091, 1.10147540975062, -1.19699417199961], a = 0.2, v = 0.2, t = 0.2)
movej(p[0.443166151004737, -0.10344590740307, 0.379164484203627, -1.1992581920989, 1.10691444783325, -1.19736136460469], a = 0.2, v = 0.2, t = 0.2)
movej(p[0.441149663416666, -0.102766494702931, 0.379647916442981, -1.18399748340347, 1.12085091461982, -1.18495420172215], a = 0.2, v = 0.2, t = 0.2)
movej(p[0.438680933264451, -0.102068162362904, 0.380314213770315, -1.18380858862301, 1.13028475029825, -1.17571303437306], a = 0.2, v = 0.2, t = 0.2)
movej(p[0.43657045378506, -0.101515961920698, 0.380943440302416, -1.17585311551479, 1.13955573448172, -1.16276715105863], a = 0.2, v = 0.2, t = 0.2)
movej(p[0.434741554604956, -0.101065885011605, 0.38151332301396, -1.16943065096994, 1.14824310800453, -1.15320531747702], a = 0.2, v = 0.2, t = 0.2)
movej(p[0.433956891273324, -0.100920056213627, 0.381794680735858, -1.16859450460207, 1.15107184068115, -1.14974282473846], a = 0.2, v = 0.2, t = 0.2)
movej(p[0.433956891273324, -0.100920056213627, 0.381794680735858, -1.16898682504022, 1.15052461648621, -1.14920457717437], a = 0.2, v = 0.2, t = 0.2)
movej(p[0.435951476333289, -0.101356443072935, 0.381178949668274, -1.17426495025552, 1.13870241564469, -1.1598422352954], a = 0.2, v = 0.2, t = 0.2)
movej(p[0.437308582544716, -0.101710170195363, 0.380772516225057, -1.17745853035641, 1.13189378728939, -1.16718080473203], a = 0.2, v = 0.2, t = 0.2)
movej(p[0.438845925322816, -0.102091749861021, 0.380294080449451, -1.19156064541328, 1.121769653208, -1.18136134957185], a = 0.2, v = 0.2, t = 0.2)
movej(p[0.439819427493128, -0.102287391204132, 0.380078827669528, -1.18101601262797, 1.12424141589243, -1.18240158998607], a = 0.2, v = 0.2, t = 0.2)
movej(p[0.439837427560893, -0.102289395823291, 0.380078073307239, -1.18011815794289, 1.1246761112344, -1.18232703931731], a = 0.2, v = 0.2, t = 0.2)
movej(p[0.44015521192158, -0.102576409656861, 0.379996777431314, -1.17993075986923, 1.1245013728875, -1.18243466046838], a = 0.2, v = 0.2, t = 0.2)
movej(p[0.440961472392122, -0.102883153830431, 0.379756453055475, -1.18352234369653, 1.12102756036752, -1.18379694147139], a = 0.2, v = 0.2, t = 0.2)
movej(p[0.441744047549349, -0.103057863664984, 0.379515537703117, -1.18713901453809, 1.11820189859435, -1.18718245467969], a = 0.2, v = 0.2, t = 0.2)
movej(p[0.44221337502647, -0.103204793903624, 0.379381259468871, -1.19291215288245, 1.11184495465613, -1.19032121060134], a = 0.2, v = 0.2, t = 0.2)
movej(p[0.443150888021758, -0.103513270839772, 0.379118529239299, -1.20042234571334, 1.10520251352647, -1.19435255721662], a = 0.2, v = 0.2, t = 0.2)
movej(p[0.443365467805549, -0.103542567012447, 0.379027814628266, -1.20174205061129, 1.10335007927503, -1.19247397745516], a = 0.2, v = 0.2, t = 0.2)
movej(p[0.443526271426923, -0.103531879932703, 0.378969212224907, -1.19596785314854, 1.10741116392872, -1.18592961282312], a = 0.2, v = 0.2, t = 0.2)
movej(p[0.443791692226044, -0.10373032674525, 0.378911564397681, -1.18274474927531, 1.11326159703482, -1.1856218075651], a = 0.2, v = 0.2, t = 0.2)
movej(p[0.44387788105537, -0.103724441704712, 0.378888548272955, -1.17818107050689, 1.11544089259612, -1.18467238127764], a = 0.2, v = 0.2, t = 0.2)
movej(p[0.44386990252502, -0.103615552582853, 0.378886513034842, -1.17818107050689, 1.11544089259612, -1.18467238127764], a = 0.2, v = 0.2, t = 0.2)
movej(p[0.443079021818455, -0.10329414884524, 0.379110426132786, -1.1821957638547, 1.11454627885706, -1.18556111833334], a = 0.2, v = 0.2, t = 0.2)
movej(p[0.442445500455763, -0.103105492820723, 0.379287819755632, -1.18478913423739, 1.11696251153353, -1.18409136807227], a = 0.2, v = 0.2, t = 0.2)
movej(p[0.441827396856804, -0.102923221642175, 0.379460215748698, -1.18739972054158, 1.11941568365971, -1.18261531890863], a = 0.2, v = 0.2, t = 0.2)
movej(p[0.439794019128657, -0.102228648439297, 0.38004298394491, -1.19131825874027, 1.12470292176859, -1.17879187930232], a = 0.2, v = 0.2, t = 0.2)
movej(p[0.437653903557726, -0.101670033596537, 0.380691604227133, -1.18018360512944, 1.1353869242331, -1.17323734711521], a = 0.2, v = 0.2, t = 0.2)
movej(p[0.436587528723914, -0.10159339234289, 0.381031565816215, -1.18039205403597, 1.13696176812834, -1.17163406922413], a = 0.2, v = 0.2, t = 0.2)
movej(p[0.436587528723914, -0.10159339234289, 0.381031565816215, -1.18372719722512, 1.13215173873926, -1.16694891183583], a = 0.2, v = 0.2, t = 0.2)
movej(p[0.437416802439776, -0.101658398048491, 0.38079493517065, -1.18654622151752, 1.12844608491859, -1.1707086749919], a = 0.2, v = 0.2, t = 0.2)
movej(p[0.437952483132281, -0.101775117242892, 0.38063796324534, -1.18571187128649, 1.12652336842347, -1.17085167559519], a = 0.2, v = 0.2, t = 0.2)
movej(p[0.43890469377505, -0.102192773588217, 0.380351493475546, -1.18794619328679, 1.12328259196172, -1.17496150073742], a = 0.2, v = 0.2, t = 0.2)
movej(p[0.440616562002465, -0.102722435061732, 0.379850969564587, -1.19812174950692, 1.11189807586679, -1.18610287241371], a = 0.2, v = 0.2, t = 0.2)
movej(p[0.441050222361503, -0.10287034234486, 0.379707661265465, -1.20554011295944, 1.10615476603414, -1.1927706102004], a = 0.2, v = 0.2, t = 0.2)
movej(p[0.441608391833833, -0.103056627228117, 0.379534016016672, -1.20793142264328, 1.10447016862953, -1.19548708574724], a = 0.2, v = 0.2, t = 0.2)
movej(p[0.442260312620481, -0.103336839447003, 0.379333021239817, -1.20480386503766, 1.10429354323179, -1.19928866045249], a = 0.2, v = 0.2, t = 0.2)
movej(p[0.442751710724937, -0.103388346127963, 0.3791954884628, -1.20351751612484, 1.10266394513435, -1.20042612754082], a = 0.2, v = 0.2, t = 0.2)
movej(p[0.443437783212968, -0.103600620917871, 0.378954187147562, -1.20289918479337, 1.10075053513, -1.20027321917652], a = 0.2, v = 0.2, t = 0.2)
movej(p[0.443447139950533, -0.103658456999329, 0.37895123263512, -1.20342688486541, 1.10031910778466, -1.20068647299096], a = 0.2, v = 0.2, t = 0.2)
movej(p[0.443538810590972, -0.103652140369413, 0.378929817596754, -1.20088957085739, 1.10063898837604, -1.19932373301289], a = 0.2, v = 0.2, t = 0.2)
movej(p[0.443590843292415, -0.10364831155178, 0.378930688306802, -1.19925257737042, 1.10203256813469, -1.200656554792], a = 0.2, v = 0.2, t = 0.2)
movej(p[0.443579964142516, -0.103499835450636, 0.378927913151536, -1.19749708573255, 1.10330498893951, -1.19906716575521], a = 0.2, v = 0.2, t = 0.2)
movej(p[0.443333499673189, -0.103233657731823, 0.379025966694904, -1.19436702931777, 1.1059511646773, -1.19697122341928], a = 0.2, v = 0.2, t = 0.2)
movej(p[0.443124383934715, -0.103228119324013, 0.379079694378282, -1.19327621818174, 1.1068008050217, -1.195695460106], a = 0.2, v = 0.2, t = 0.2)
movej(p[0.44126511435783, -0.10271730495285, 0.379621865364857, -1.19318191781957, 1.11567909258026, -1.18924214268864], a = 0.2, v = 0.2, t = 0.2)
movej(p[0.439190931990277, -0.102200244459957, 0.380219333533736, -1.18359885474336, 1.12760950062345, -1.17711718140229], a = 0.2, v = 0.2, t = 0.2)
movej(p[0.437571922381152, -0.101688162502471, 0.380719104035444, -1.18066773838609, 1.13425388591794, -1.17084852726728], a = 0.2, v = 0.2, t = 0.2)
movej(p[0.436936336534624, -0.101589377849806, 0.380903758128524, -1.177175296858, 1.13662128178182, -1.1668711715159], a = 0.2, v = 0.2, t = 0.2)
movej(p[0.436936336534624, -0.101589377849806, 0.380903758128524, -1.17739569568795, 1.13636201869184, -1.1665819286376], a = 0.2, v = 0.2, t = 0.2)
movej(p[0.436961233873472, -0.101655001680637, 0.380890017482786, -1.18182820742326, 1.13180183224854, -1.16635919182298], a = 0.2, v = 0.2, t = 0.2)
movej(p[0.438300741419832, -0.102067579599591, 0.380499817977358, -1.18363407527201, 1.12135607785814, -1.17205182733252], a = 0.2, v = 0.2, t = 0.2)
movej(p[0.439158483020447, -0.102377901928834, 0.380225725568583, -1.18622482082881, 1.11793962887014, -1.17624236708833], a = 0.2, v = 0.2, t = 0.2)
movej(p[0.440297255165846, -0.102748100374187, 0.379874439030382, -1.18854088832501, 1.11458837710486, -1.18070085282186], a = 0.2, v = 0.2, t = 0.2)
movej(p[0.441070937239459, -0.102956508382348, 0.379652169754268, -1.19218789013199, 1.11148287825205, -1.18542358566229], a = 0.2, v = 0.2, t = 0.2)
movej(p[0.441671694863203, -0.103225131501217, 0.379429405422468, -1.20110278624775, 1.10499794918566, -1.19471520761795], a = 0.2, v = 0.2, t = 0.2)
movej(p[0.442134793696987, -0.103363734536742, 0.379276808572269, -1.20677100003703, 1.1003037479898, -1.19894722334443], a = 0.2, v = 0.2, t = 0.2)
movej(p[0.442507565250791, -0.103498622529308, 0.379145893072282, -1.20590850111896, 1.0994910895191, -1.19942252083557], a = 0.2, v = 0.2, t = 0.2)
movej(p[0.443289913469164, -0.103666162452316, 0.378935350583917, -1.20300830224773, 1.09885789420766, -1.20139873081819], a = 0.2, v = 0.2, t = 0.2)
movej(p[0.443641893221522, -0.103752238526841, 0.378809375493823, -1.20058692719616, 1.09960723483632, -1.20135040561527], a = 0.2, v = 0.2, t = 0.2)
movej(p[0.443680981898676, -0.103749321369896, 0.37881221371752, -1.20050832241164, 1.09957286743513, -1.20140867198513], a = 0.2, v = 0.2, t = 0.2)
movej(p[0.443667539018276, -0.103585130807844, 0.378828595362724, -1.19721077879831, 1.10225196923082, -1.19836884927042], a = 0.2, v = 0.2, t = 0.2)
movej(p[0.442898448910524, -0.103266689467509, 0.379082229900838, -1.1980154726858, 1.10599736881356, -1.195654913305], a = 0.2, v = 0.2, t = 0.2)
movej(p[0.442133342942977, -0.103010207900181, 0.379321137485573, -1.19629675731984, 1.11043346247495, -1.19276382374896], a = 0.2, v = 0.2, t = 0.2)
movej(p[0.44106430533935, -0.102650710103763, 0.379674289444937, -1.18505121099684, 1.12161824556603, -1.18711861900763], a = 0.2, v = 0.2, t = 0.2)
movej(p[0.438942358923606, -0.102056571993117, 0.380317256476899, -1.17980567109313, 1.13299617244577, -1.17875886397526], a = 0.2, v = 0.2, t = 0.2)
movej(p[0.436425532089405, -0.101604673311719, 0.380982588881337, -1.17076387421401, 1.14298719217347, -1.16430803764761], a = 0.2, v = 0.2, t = 0.2)
movej(p[0.433982200595098, -0.101061750611689, 0.381663752680083, -1.16866315704266, 1.1511378753259, -1.1538441356523], a = 0.2, v = 0.2, t = 0.2)
movej(p[0.432170154689585, -0.100584092239806, 0.382146263256217, -1.16475657805757, 1.1540811753672, -1.14454992743606], a = 0.2, v = 0.2, t = 0.2)
movej(p[0.432170154689585, -0.100584092239806, 0.382146263256217, -1.1681789257081, 1.14933575145128, -1.13986575098483], a = 0.2, v = 0.2, t = 0.2)
movej(p[0.434541661121724, -0.101112099175761, 0.381487692828772, -1.16417244867299, 1.14213518368462, -1.14527293235745], a = 0.2, v = 0.2, t = 0.2)
movej(p[0.436059906174709, -0.101489355624259, 0.381073978276028, -1.17313386157116, 1.1309272277706, -1.15915862350541], a = 0.2, v = 0.2, t = 0.2)
movej(p[0.437289254023309, -0.101896892189265, 0.380687837802459, -1.1795877658751, 1.12349920877659, -1.16940302958148], a = 0.2, v = 0.2, t = 0.2)
movej(p[0.438071926792791, -0.102083544525598, 0.380467545425712, -1.18210871615051, 1.12177562192649, -1.17225403761971], a = 0.2, v = 0.2, t = 0.2)
movej(p[0.438955034194526, -0.102443879692698, 0.380159984790469, -1.18531413548199, 1.11962995186648, -1.17605407429696], a = 0.2, v = 0.2, t = 0.2)
movej(p[0.439975670740221, -0.102674089221143, 0.379884983527554, -1.18791234971211, 1.11718022513385, -1.17968816855031], a = 0.2, v = 0.2, t = 0.2)
movej(p[0.440300425297498, -0.102809925820768, 0.379762780558154, -1.1914395671026, 1.11241233628628, -1.18763398670406], a = 0.2, v = 0.2, t = 0.2)
movej(p[0.44087992615449, -0.102899977505702, 0.37961599966435, -1.1914395671026, 1.11241233628628, -1.18763398670406], a = 0.2, v = 0.2, t = 0.2)
movej(p[0.44139607551453, -0.102992320905141, 0.379509110447354, -1.18793343457035, 1.11283636929291, -1.1909637485899], a = 0.2, v = 0.2, t = 0.2)
movej(p[0.441773787846812, -0.103104258127521, 0.379384871837059, -1.18827230145121, 1.11112862605399, -1.19286884223027], a = 0.2, v = 0.2, t = 0.2)
movej(p[0.442261655932732, -0.103219867986982, 0.379238605705859, -1.1888482271322, 1.11052635897036, -1.19286431461225], a = 0.2, v = 0.2, t = 0.2)
movej(p[0.442261655932732, -0.103219867986982, 0.379238605705859, -1.18995446312407, 1.11128861928994, -1.19252700586243], a = 0.2, v = 0.2, t = 0.2)
movej(p[0.441981402364446, -0.103125379647304, 0.379345681105125, -1.18985040454333, 1.11144424231791, -1.19267832792256], a = 0.2, v = 0.2, t = 0.2)
movej(p[0.441885338648597, -0.103131581842479, 0.37935824753947, -1.1894260965755, 1.111730800303, -1.19221203677776], a = 0.2, v = 0.2, t = 0.2)
movej(p[0.441789274932747, -0.103137784037654, 0.379370813973814, -1.18900675006337, 1.11202176952571, -1.19174014360476], a = 0.2, v = 0.2, t = 0.2)
movej(p[0.440774200115902, -0.102802598050939, 0.379692561577562, -1.18599064518922, 1.11692552828593, -1.18606038073919], a = 0.2, v = 0.2, t = 0.2)
movej(p[0.440770662675885, -0.102757779462256, 0.379695214995462, -1.18659190498483, 1.11767315559798, -1.18578651932894], a = 0.2, v = 0.2, t = 0.2)
movej(p[0.440771657298713, -0.102757705234344, 0.379695287214895, -1.18711021087747, 1.11731641103173, -1.18637055438076], a = 0.2, v = 0.2, t = 0.2)
movej(p[0.441472890325717, -0.102964374453678, 0.379506671055409, -1.18823906934495, 1.1127502645906, -1.18814978068835], a = 0.2, v = 0.2, t = 0.2)
movej(p[0.442905209448351, -0.103329852295532, 0.379094197034349, -1.19291737496458, 1.10653941783523, -1.19581789730735], a = 0.2, v = 0.2, t = 0.2)
movej(p[0.443730437124814, -0.103591914271053, 0.378836122833805, -1.19287055946169, 1.1027694455002, -1.19965912310425], a = 0.2, v = 0.2, t = 0.2)
movej(p[0.443730437124814, -0.103591914271053, 0.378836122833805, -1.19287055946169, 1.1027694455002, -1.19965912310425], a = 0.2, v = 0.2, t = 0.2)
movej(p[0.443535814740469, -0.103329919471273, 0.37898467757927, -1.19421100077643, 1.10642352377028, -1.19720042222626], a = 0.2, v = 0.2, t = 0.2)
movej(p[0.441255845338303, -0.102676773715164, 0.37964832125359, -1.18725705344923, 1.11879277017877, -1.18610091093852], a = 0.2, v = 0.2, t = 0.2)
movej(p[0.439301461331192, -0.101993307517939, 0.380298321930511, -1.18218299284744, 1.12828286778069, -1.17487649316959], a = 0.2, v = 0.2, t = 0.2)
movej(p[0.437438232268688, -0.101500317376902, 0.380841341029146, -1.17889289632211, 1.13612325462634, -1.16610797537243], a = 0.2, v = 0.2, t = 0.2)
movej(p[0.433809806225783, -0.100816861462585, 0.381732844402305, -1.16535614763617, 1.1497650999266, -1.14800983485551], a = 0.2, v = 0.2, t = 0.2)
movej(p[0.43105904072038, -0.100185988612915, 0.382454890960246, -1.16002187951202, 1.15761050093415, -1.13709027551486], a = 0.2, v = 0.2, t = 0.2)
movej(p[0.43105904072038, -0.100185988612915, 0.382454890960246, -1.16557568305861, 1.14997661858853, -1.12951941872157], a = 0.2, v = 0.2, t = 0.2)
movej(p[0.431948106472555, -0.100388736225506, 0.382206542829797, -1.1705876463687, 1.14076616280938, -1.13850992646336], a = 0.2, v = 0.2, t = 0.2)
movej(p[0.434545801952411, -0.101037943073803, 0.381484604777011, -1.17259147467832, 1.13145065905517, -1.14952920331702], a = 0.2, v = 0.2, t = 0.2)
movej(p[0.436011248779447, -0.101577677866558, 0.380981921774891, -1.1730121765177, 1.12894690691388, -1.15785846357732], a = 0.2, v = 0.2, t = 0.2)
movej(p[0.437375563772111, -0.101956385716919, 0.380605732946154, -1.17946511523606, 1.1250146169068, -1.1666789438657], a = 0.2, v = 0.2, t = 0.2)
movej(p[0.438460354467226, -0.102251316083644, 0.380291890491129, -1.18948762824546, 1.11814525790214, -1.17802942057515], a = 0.2, v = 0.2, t = 0.2)
movej(p[0.439900984826377, -0.102649442365736, 0.379876050062839, -1.19138908142377, 1.11406951264662, -1.18193678440473], a = 0.2, v = 0.2, t = 0.2)
movej(p[0.441295144732715, -0.102989188151823, 0.379482185864929, -1.19296655342485, 1.10948993593281, -1.18734594859843], a = 0.2, v = 0.2, t = 0.2)
movej(p[0.441758186907441, -0.103174674249162, 0.37932178482965, -1.19574307562926, 1.10778067066294, -1.19468721925817], a = 0.2, v = 0.2, t = 0.2)
movej(p[0.442542902057543, -0.103323610234579, 0.379131525860218, -1.19482344762663, 1.10694134150821, -1.19554404708319], a = 0.2, v = 0.2, t = 0.2)
movej(p[0.442849627744206, -0.10340395121198, 0.379055191461085, -1.19227586940989, 1.10928458686315, -1.19871571895154], a = 0.2, v = 0.2, t = 0.2)
movej(p[0.443069224885987, -0.103445272511577, 0.378993585653554, -1.18629182182672, 1.11183874587223, -1.1985055723076], a = 0.2, v = 0.2, t = 0.2)
movej(p[0.443725566034368, -0.103469112910276, 0.378879457557401, -1.17871524927195, 1.11367906721591, -1.1989370040964], a = 0.2, v = 0.2, t = 0.2)
movej(p[0.443725566034368, -0.103469112910276, 0.378879457557401, -1.17871524927195, 1.11367906721591, -1.1989370040964], a = 0.2, v = 0.2, t = 0.2)
movej(p[0.443403822891242, -0.103261683908163, 0.379037532093407, -1.18324311447821, 1.11331621709932, -1.19596720793357], a = 0.2, v = 0.2, t = 0.2)
movej(p[0.442255488084726, -0.102849983868993, 0.379430783297972, -1.19204000992664, 1.11455829197696, -1.18937542635388], a = 0.2, v = 0.2, t = 0.2)
movej(p[0.440814548377494, -0.102359909983217, 0.379911462314159, -1.1960870587192, 1.11834943946126, -1.18708523541733], a = 0.2, v = 0.2, t = 0.2)
movej(p[0.439856165053937, -0.102062069421105, 0.380228854019611, -1.18601509255504, 1.12934071746911, -1.18284242548341], a = 0.2, v = 0.2, t = 0.2)
movej(p[0.437474601571501, -0.101455852670204, 0.380883237492853, -1.17673178406549, 1.14003646343764, -1.16771364036458], a = 0.2, v = 0.2, t = 0.2)
movej(p[0.435005998001134, -0.100952143732511, 0.381491663797726, -1.17691888975933, 1.14726399560773, -1.15993640705611], a = 0.2, v = 0.2, t = 0.2)
movej(p[0.432249394313109, -0.100463257519369, 0.382140962086471, -1.16749758774204, 1.15230394673725, -1.1444688791346], a = 0.2, v = 0.2, t = 0.2)
movej(p[0.432249394313109, -0.100463257519369, 0.382140962086471, -1.16897730135082, 1.15024712374605, -1.14244233875667], a = 0.2, v = 0.2, t = 0.2)
movej(p[0.433499750611173, -0.100688032095858, 0.381835665169261, -1.16376024588697, 1.14276677429882, -1.14610414706279], a = 0.2, v = 0.2, t = 0.2)
movej(p[0.436150219052725, -0.101339904640775, 0.381129078617225, -1.1668969791316, 1.13248027211254, -1.15733697112985], a = 0.2, v = 0.2, t = 0.2)
movej(p[0.437211319212617, -0.101735399884438, 0.380764389293393, -1.17811924655564, 1.12378710339316, -1.16633877307793], a = 0.2, v = 0.2, t = 0.2)
movej(p[0.438678542991122, -0.102139333718766, 0.380341357732778, -1.18793225048531, 1.11673322296357, -1.17640273760954], a = 0.2, v = 0.2, t = 0.2)
movej(p[0.439995451742947, -0.102618200501091, 0.379868047090439, -1.19170251538941, 1.11335528640092, -1.18147706462303], a = 0.2, v = 0.2, t = 0.2)
movej(p[0.441483028261182, -0.10300536739591, 0.379452106772662, -1.18732703727026, 1.11309612412104, -1.18533802616958], a = 0.2, v = 0.2, t = 0.2)
movej(p[0.442643724113057, -0.103216784042921, 0.379188167081053, -1.17802746726663, 1.11600539879982, -1.19447227158291], a = 0.2, v = 0.2, t = 0.2)
movej(p[0.443189008965031, -0.103341459509782, 0.37904003019108, -1.17501442369707, 1.11701360719215, -1.19700197687424], a = 0.2, v = 0.2, t = 0.2)
movej(p[0.443478238046835, -0.103355183971852, 0.378990803700454, -1.17330626455285, 1.11818302551627, -1.19522483693161], a = 0.2, v = 0.2, t = 0.2)
movej(p[0.443667530179643, -0.103369145125349, 0.378961199905931, -1.17109467916263, 1.11933926859944, -1.19766188350679], a = 0.2, v = 0.2, t = 0.2)
movej(p[0.443826543839118, -0.103357576003878, 0.378956805417481, -1.166965050148, 1.11940881647975, -1.19776370782019], a = 0.2, v = 0.2, t = 0.2)
movej(p[0.443925964683142, -0.103315466144572, 0.378963563044488, -1.166965050148, 1.11940881647975, -1.19776370782019], a = 0.2, v = 0.2, t = 0.2)
movej(p[0.443920020780656, -0.103267359311153, 0.378995979130026, -1.17556118137598, 1.11641366320703, -1.19651652091513], a = 0.2, v = 0.2, t = 0.2)
movej(p[0.442640465416976, -0.102897038954547, 0.379395966598282, -1.18244919004323, 1.12290031889715, -1.19258545524387], a = 0.2, v = 0.2, t = 0.2)
movej(p[0.441451098228091, -0.102527212250808, 0.379770108188066, -1.18022788965058, 1.12773589763738, -1.18648167238362], a = 0.2, v = 0.2, t = 0.2)
movej(p[0.439979851269854, -0.102127649069008, 0.380200422702843, -1.1818143121848, 1.13221460132062, -1.18240139205258], a = 0.2, v = 0.2, t = 0.2)
movej(p[0.439686737307385, -0.102073096490684, 0.380270881777518, -1.18355588006366, 1.13280447399783, -1.17831543313611], a = 0.2, v = 0.2, t = 0.2)
movej(p[0.438552543564004, -0.101761410250388, 0.380617868304756, -1.18630318186971, 1.1352523860414, -1.1755471143232], a = 0.2, v = 0.2, t = 0.2)
movej(p[0.436116338507071, -0.101161671062023, 0.381274032092629, -1.17386276717378, 1.14533560394531, -1.15896067436655], a = 0.2, v = 0.2, t = 0.2)
movej(p[0.432621081942044, -0.100431115645681, 0.382119155976025, -1.16281257442884, 1.15252994272899, -1.1462923300044], a = 0.2, v = 0.2, t = 0.2)
movej(p[0.432621081942044, -0.100431115645681, 0.382119155976025, -1.16445510786823, 1.14944420520449, -1.14376660581063], a = 0.2, v = 0.2, t = 0.2)
movej(p[0.434299105057337, -0.100878050570925, 0.381632790334622, -1.16156468872278, 1.1420801559499, -1.14910905635717], a = 0.2, v = 0.2, t = 0.2)
movej(p[0.437000117494247, -0.101687390467738, 0.380812886098087, -1.17822234296479, 1.12747509695259, -1.1667587002966], a = 0.2, v = 0.2, t = 0.2)
movej(p[0.437719340401823, -0.102064305794067, 0.380475333115585, -1.17902364371343, 1.12269833832458, -1.17173759192181], a = 0.2, v = 0.2, t = 0.2)
movej(p[0.438772838907591, -0.102491520251049, 0.380063775931113, -1.18306195305967, 1.11976356485564, -1.17647742224213], a = 0.2, v = 0.2, t = 0.2)
movej(p[0.439644455840702, -0.102818683381478, 0.37975713459665, -1.18997346532124, 1.11440568112697, -1.18490571757412], a = 0.2, v = 0.2, t = 0.2)
movej(p[0.44067089052517, -0.103072342829763, 0.379481768852925, -1.1850015445172, 1.11656153273632, -1.19019256528021], a = 0.2, v = 0.2, t = 0.2)
movej(p[0.44181098882709, -0.10321090434954, 0.379274308550224, -1.1714610868142, 1.12053842611798, -1.19300353829782], a = 0.2, v = 0.2, t = 0.2)
movej(p[0.44204375599663, -0.103286113757558, 0.379199080831066, -1.16326814539817, 1.12765118650134, -1.19541521539212], a = 0.2, v = 0.2, t = 0.2)
movej(p[0.442346652850885, -0.103314057832278, 0.37916177929798, -1.16069059834135, 1.12830185511131, -1.19645232217086], a = 0.2, v = 0.2, t = 0.2)
movej(p[0.442690020049585, -0.103312440710869, 0.379136289068965, -1.15665185965382, 1.13033790576898, -1.19695940025807], a = 0.2, v = 0.2, t = 0.2)
movej(p[0.443085269756113, -0.103299683210629, 0.3791117618254, -1.15447217166964, 1.12827819445958, -1.19822781902319], a = 0.2, v = 0.2, t = 0.2)
movej(p[0.443697526240767, -0.103295873527661, 0.379072339454649, -1.15415555542145, 1.127732320311, -1.19832378648215], a = 0.2, v = 0.2, t = 0.2)
movej(p[0.443697526240767, -0.103295873527661, 0.379072339454649, -1.15452242339012, 1.12701540264295, -1.19910686388902], a = 0.2, v = 0.2, t = 0.2)
movej(p[0.443682947029563, -0.103251865899692, 0.379096352686027, -1.15594188515481, 1.12497801979066, -1.19707353310847], a = 0.2, v = 0.2, t = 0.2)
movej(p[0.443263695751732, -0.103147462588983, 0.379184241108186, -1.18196680738814, 1.11110625001695, -1.19397294990492], a = 0.2, v = 0.2, t = 0.2)
movej(p[0.442922310530135, -0.103094707765968, 0.379251171214449, -1.18822239351772, 1.11008349370436, -1.19247293926882], a = 0.2, v = 0.2, t = 0.2)
movej(p[0.442090366227789, -0.102792613762486, 0.379563372336889, -1.19241589297824, 1.11401403118392, -1.19011231239171], a = 0.2, v = 0.2, t = 0.2)
movej(p[0.440552109916894, -0.102324700158865, 0.380050119346677, -1.18475497108438, 1.12327109589987, -1.18252700969639], a = 0.2, v = 0.2, t = 0.2)
movej(p[0.438007005693193, -0.101787335492756, 0.380661191777834, -1.17868997840536, 1.13594735121717, -1.17143868329922], a = 0.2, v = 0.2, t = 0.2)
movej(p[0.435826783057469, -0.10131567388996, 0.38120382617697, -1.17472287688779, 1.14173933829893, -1.16355896887365], a = 0.2, v = 0.2, t = 0.2)
movej(p[0.434575032989235, -0.101105571885646, 0.381427086864193, -1.16847877820687, 1.14582770156042, -1.15637824532701], a = 0.2, v = 0.2, t = 0.2)
movej(p[0.434575032989235, -0.101105571885646, 0.381427086864193, -1.16822583489475, 1.14020139279797, -1.15467321902053], a = 0.2, v = 0.2, t = 0.2)
movej(p[0.436636913120478, -0.101575281217653, 0.380889454491829, -1.17623514920065, 1.12506889681502, -1.16597849525675], a = 0.2, v = 0.2, t = 0.2)
movej(p[0.437812420756108, -0.102095684880881, 0.380384628426859, -1.17705163770841, 1.12036626823495, -1.17115035064956], a = 0.2, v = 0.2, t = 0.2)
movej(p[0.438785133589957, -0.102416317094838, 0.380052549797257, -1.18249473888151, 1.11458714879174, -1.1789216430058], a = 0.2, v = 0.2, t = 0.2)
movej(p[0.439891744122468, -0.10272752073589, 0.379742936436544, -1.18691211719701, 1.11150736332705, -1.18384678373929], a = 0.2, v = 0.2, t = 0.2)
movej(p[0.44065820812686, -0.103064703310394, 0.379409034098392, -1.19300196563402, 1.10708300516837, -1.19014640692827], a = 0.2, v = 0.2, t = 0.2)
movej(p[0.441790462313445, -0.103262716268572, 0.379179625303112, -1.19684440764975, 1.10340366206757, -1.19280498167015], a = 0.2, v = 0.2, t = 0.2)
movej(p[0.442367551076309, -0.103413594354416, 0.379023347528018, -1.19960363783795, 1.10103822055249, -1.19567741818288], a = 0.2, v = 0.2, t = 0.2)
movej(p[0.442621513277535, -0.103490398477201, 0.378951405766352, -1.20279995087931, 1.09863336499177, -1.198845244293], a = 0.2, v = 0.2, t = 0.2)
movej(p[0.44304000773471, -0.103579804191073, 0.378864064437983, -1.20655160781812, 1.09650554176272, -1.20167185676239], a = 0.2, v = 0.2, t = 0.2)
movej(p[0.443368202650141, -0.103644332188003, 0.378798425919587, -1.207961625153, 1.0953787085727, -1.20288704488098], a = 0.2, v = 0.2, t = 0.2)
movej(p[0.443637360950838, -0.103629200037918, 0.378810414130468, -1.2070516884584, 1.09445898256349, -1.20344614568132], a = 0.2, v = 0.2, t = 0.2)
movej(p[0.44417156028999, -0.103651182543928, 0.378764787323887, -1.20828959390097, 1.09360473457951, -1.20494347140104], a = 0.2, v = 0.2, t = 0.2)
movej(p[0.444225454530826, -0.103662296986556, 0.378763687337654, -1.20894322242582, 1.09422896217778, -1.20458893094622], a = 0.2, v = 0.2, t = 0.2)
movej(p[0.444223976913043, -0.103647270732962, 0.37876859328798, -1.20526588896663, 1.0980824606674, -1.20429832133449], a = 0.2, v = 0.2, t = 0.2)
movej(p[0.4439002277596, -0.103410497113578, 0.378975367098722, -1.19865711558094, 1.10385387638907, -1.19904965174767], a = 0.2, v = 0.2, t = 0.2)
movej(p[0.442482369473609, -0.102884343234209, 0.379498479969976, -1.1865303066178, 1.11850442246871, -1.19046082401532], a = 0.2, v = 0.2, t = 0.2)
movej(p[0.441115505675584, -0.10247086664878, 0.379947423308216, -1.18568270864198, 1.12506658041669, -1.18521635724769], a = 0.2, v = 0.2, t = 0.2)
movej(p[0.439578138294509, -0.102029870825608, 0.3804177467709, -1.17567618964773, 1.13583148320076, -1.17574565262989], a = 0.2, v = 0.2, t = 0.2)
movej(p[0.437721657614902, -0.101643309909883, 0.380847055802576, -1.1782168665213, 1.1411078314167, -1.17112727292897], a = 0.2, v = 0.2, t = 0.2)
movej(p[0.435674745864111, -0.101127503976096, 0.381383171306127, -1.16986838925804, 1.14749940929786, -1.15990522683606], a = 0.2, v = 0.2, t = 0.2)
movej(p[0.435510732559719, -0.101139744158798, 0.38137126232171, -1.17048979766048, 1.14662523627765, -1.15904697866251], a = 0.2, v = 0.2, t = 0.2)
movej(p[0.435517427384263, -0.101181295786085, 0.381321766851269, -1.16919690811636, 1.13889208317049, -1.15883141996233], a = 0.2, v = 0.2, t = 0.2)
movej(p[0.437460178802606, -0.101628774658717, 0.380846970984528, -1.17967090120071, 1.12410846750161, -1.16831475167669], a = 0.2, v = 0.2, t = 0.2)
movej(p[0.438307775584526, -0.102078134576621, 0.380352864913467, -1.18033281820156, 1.12067364563186, -1.17222900935443], a = 0.2, v = 0.2, t = 0.2)
movej(p[0.439162132109104, -0.102406134181931, 0.380036941951611, -1.18718254120051, 1.11444840022091, -1.18155233350001], a = 0.2, v = 0.2, t = 0.2)
movej(p[0.440017586205368, -0.102697830606941, 0.379705976236133, -1.18900304853217, 1.11172599470541, -1.18301275869964], a = 0.2, v = 0.2, t = 0.2)
movej(p[0.440858431886235, -0.102961311312104, 0.379450273774325, -1.19395579044265, 1.10709036715756, -1.18916439429021], a = 0.2, v = 0.2, t = 0.2)
movej(p[0.441902183263342, -0.103262358166474, 0.379147130055503, -1.19955950496331, 1.10166427045652, -1.19580733876275], a = 0.2, v = 0.2, t = 0.2)
movej(p[0.4421639623402, -0.103370677181301, 0.379011001160898, -1.19878881132491, 1.1006528488948, -1.19652798242009], a = 0.2, v = 0.2, t = 0.2)
movej(p[0.442629363189037, -0.103475422796813, 0.378890212891878, -1.19967874639491, 1.10023630043467, -1.19821115105659], a = 0.2, v = 0.2, t = 0.2)
movej(p[0.442903891727583, -0.103534416205031, 0.378864272589057, -1.19979835065947, 1.10026489125199, -1.19870611285667], a = 0.2, v = 0.2, t = 0.2)
movej(p[0.443044894577866, -0.103528680416854, 0.378838373613287, -1.1996993873533, 1.10014838322906, -1.19878461743478], a = 0.2, v = 0.2, t = 0.2)
movej(p[0.443380992554976, -0.103611979202888, 0.378767649911262, -1.19923392110205, 1.09880942978418, -1.19983965257146], a = 0.2, v = 0.2, t = 0.2)
movej(p[0.44365739823897, -0.103591351266121, 0.378787719691551, -1.2012282180258, 1.09650790761135, -1.19927816911417], a = 0.2, v = 0.2, t = 0.2)
movej(p[0.443629794992677, -0.103408957465403, 0.378980411705536, -1.20200624938895, 1.09723939348348, -1.19885077897998], a = 0.2, v = 0.2, t = 0.2)
movej(p[0.442735890956674, -0.102986926643181, 0.379449411427829, -1.18865730316617, 1.11249069833075, -1.19217955874715], a = 0.2, v = 0.2, t = 0.2)
movej(p[0.441444463639666, -0.102624986537339, 0.379855355247427, -1.18863499903842, 1.12026761808018, -1.18689337678258], a = 0.2, v = 0.2, t = 0.2)
movej(p[0.440144532494566, -0.102175080869983, 0.380354467918554, -1.18508886431038, 1.13142224588001, -1.17980875766295], a = 0.2, v = 0.2, t = 0.2)
movej(p[0.439209939156842, -0.101937645949182, 0.38058215692019, -1.18123527802194, 1.13710564043118, -1.17407504512623], a = 0.2, v = 0.2, t = 0.2)
movej(p[0.437368710457679, -0.101612211235775, 0.380911317040325, -1.17435605075724, 1.14498786580642, -1.16577077742659], a = 0.2, v = 0.2, t = 0.2)
movej(p[0.435321917180792, -0.101102028883667, 0.381462658222615, -1.16870591265606, 1.15132497478541, -1.15651387905781], a = 0.2, v = 0.2, t = 0.2)
movej(p[0.435321917180792, -0.101102028883667, 0.381462658222615, -1.16997474020261, 1.14954906266751, -1.15477023224546], a = 0.2, v = 0.2, t = 0.2)
movej(p[0.435588984043278, -0.101240840892653, 0.381251813689551, -1.16603384330423, 1.13787311308898, -1.15850833588582], a = 0.2, v = 0.2, t = 0.2)
movej(p[0.437422827308797, -0.101810586879005, 0.380628832880419, -1.17309228993709, 1.12317480543707, -1.16838339137905], a = 0.2, v = 0.2, t = 0.2)
movej(p[0.438826775074844, -0.102301373075363, 0.380115557408888, -1.18364327090829, 1.11593749010222, -1.18028020517478], a = 0.2, v = 0.2, t = 0.2)
movej(p[0.440011622099181, -0.102738348929121, 0.379659446192021, -1.18996864807484, 1.11063127420516, -1.18405949013761], a = 0.2, v = 0.2, t = 0.2)
movej(p[0.440767520195495, -0.102991402196854, 0.379361051618211, -1.19634193874988, 1.10804450824385, -1.19029917809495], a = 0.2, v = 0.2, t = 0.2)
movej(p[0.441581064846042, -0.103277186978932, 0.37906532963746, -1.19968208668968, 1.10570273796184, -1.19407733704559], a = 0.2, v = 0.2, t = 0.2)
movej(p[0.442076245495901, -0.103360736561434, 0.378958484884344, -1.19831997500468, 1.10366029579071, -1.19704169681709], a = 0.2, v = 0.2, t = 0.2)
movej(p[0.443091863398245, -0.103470482658726, 0.378897413691718, -1.20128102418025, 1.10113832527376, -1.20082718267036], a = 0.2, v = 0.2, t = 0.2)
movej(p[0.443344709116191, -0.103529012082222, 0.378809603444586, -1.20149661440385, 1.09932075008883, -1.20180893323645], a = 0.2, v = 0.2, t = 0.2)
movej(p[0.44357090393988, -0.103575937270817, 0.378776435411608, -1.20269265577481, 1.09832430736157, -1.20279969946489], a = 0.2, v = 0.2, t = 0.2)
movej(p[0.443676453817798, -0.103605249288433, 0.378752805369399, -1.20350059856026, 1.0974745151518, -1.20297845380661], a = 0.2, v = 0.2, t = 0.2)
movej(p[0.44376288654158, -0.103598798882874, 0.378759081238082, -1.20320700894872, 1.09792623171293, -1.20341372085428], a = 0.2, v = 0.2, t = 0.2)
movej(p[0.443753003408733, -0.103543486250802, 0.378838343123112, -1.20193404748524, 1.09926281661648, -1.20334589770097], a = 0.2, v = 0.2, t = 0.2)
movej(p[0.443355713010319, -0.103124592398536, 0.379333507408841, -1.19082185642116, 1.10883245651624, -1.1942847719028], a = 0.2, v = 0.2, t = 0.2)
movej(p[0.441605911248394, -0.102503505149501, 0.380050638047604, -1.18244808339412, 1.12559427212279, -1.1838776360879], a = 0.2, v = 0.2, t = 0.2)
movej(p[0.439645339851528, -0.102044639977723, 0.380544528168905, -1.18004084785008, 1.13535574986609, -1.17454547117243], a = 0.2, v = 0.2, t = 0.2)
movej(p[0.437886940641606, -0.101688784176828, 0.380904951416651, -1.17746673333344, 1.1418058698898, -1.16654242720312], a = 0.2, v = 0.2, t = 0.2)
movej(p[0.435967658661368, -0.101165004108977, 0.381458577627063, -1.1737863739021, 1.14577087293561, -1.15899671685436], a = 0.2, v = 0.2, t = 0.2)
movej(p[0.435967658661368, -0.101165004108977, 0.381458577627063, -1.17413149158587, 1.14528328708224, -1.15851937334543], a = 0.2, v = 0.2, t = 0.2)
movej(p[0.436006145838027, -0.101277548379948, 0.381322515934055, -1.17507924831531, 1.14005422275416, -1.15899066151716], a = 0.2, v = 0.2, t = 0.2)
movej(p[0.437329854122081, -0.101690684019595, 0.38086246965162, -1.17911458556797, 1.12931186522364, -1.16833034546663], a = 0.2, v = 0.2, t = 0.2)
movej(p[0.438356978423434, -0.102087928492782, 0.380381786701961, -1.18567902663894, 1.11747171725242, -1.17545740401351], a = 0.2, v = 0.2, t = 0.2)
movej(p[0.439212467856324, -0.102390121514316, 0.380041737473245, -1.18587963493845, 1.11424341249979, -1.17892929200697], a = 0.2, v = 0.2, t = 0.2)
movej(p[0.440299574287519, -0.102613003661926, 0.379833804562119, -1.18763641338237, 1.11196456344279, -1.18379916823942], a = 0.2, v = 0.2, t = 0.2)
movej(p[0.441130684342887, -0.102966982239996, 0.379399490111364, -1.19364635554057, 1.10748595436676, -1.19088273177611], a = 0.2, v = 0.2, t = 0.2)
movej(p[0.441446071477595, -0.10311854563024, 0.379202299279938, -1.19390455353997, 1.10600850222036, -1.1925106905124], a = 0.2, v = 0.2, t = 0.2)
movej(p[0.441895914372835, -0.103200693445109, 0.379117469591063, -1.19294517620648, 1.10531373032798, -1.19422418016838], a = 0.2, v = 0.2, t = 0.2)
movej(p[0.442410266202228, -0.103332774849059, 0.379005561421878, -1.19437284064439, 1.10472934720851, -1.19786073808925], a = 0.2, v = 0.2, t = 0.2)
movej(p[0.443100038987298, -0.103458412891883, 0.378931649060446, -1.19701025548779, 1.10287604602245, -1.20082976569921], a = 0.2, v = 0.2, t = 0.2)
movej(p[0.443492182882873, -0.103534745113097, 0.378847609503285, -1.20076311380296, 1.09977733155333, -1.20339958593939], a = 0.2, v = 0.2, t = 0.2)
movej(p[0.443551381924263, -0.103538187738824, 0.378844491518906, -1.20235269997536, 1.09998680367659, -1.20305837330682], a = 0.2, v = 0.2, t = 0.2)
movej(p[0.443557846972647, -0.103537705257395, 0.378844960945217, -1.20235269997536, 1.09998680367659, -1.20305837330682], a = 0.2, v = 0.2, t = 0.2)
movej(p[0.443525350531747, -0.103347342931091, 0.379096853037298, -1.19686783948487, 1.10387775957629, -1.1969397133334], a = 0.2, v = 0.2, t = 0.2)
movej(p[0.442474099347579, -0.10295442053329, 0.379575015433448, -1.18717782168968, 1.11379483105441, -1.19190919416648], a = 0.2, v = 0.2, t = 0.2)
movej(p[0.441271255098373, -0.102530904474119, 0.380105892443474, -1.18763499504203, 1.12291469731701, -1.18394603949723], a = 0.2, v = 0.2, t = 0.2)
movej(p[0.439624239760529, -0.102120112290662, 0.380522218168018, -1.18874411989985, 1.13123076055067, -1.1768377317092], a = 0.2, v = 0.2, t = 0.2)
movej(p[0.437583445467132, -0.101712979919319, 0.380918233551866, -1.17966602554727, 1.14251010681788, -1.16819374867943], a = 0.2, v = 0.2, t = 0.2)
movej(p[0.43578630754219, -0.101186646208587, 0.38145694940803, -1.16964596032094, 1.1500251797345, -1.15586142890488], a = 0.2, v = 0.2, t = 0.2)
movej(p[0.435037605003612, -0.101037366949956, 0.381599514206175, -1.17159169395679, 1.14594679438255, -1.1527240921647], a = 0.2, v = 0.2, t = 0.2)
movej(p[0.435037605003612, -0.101037366949956, 0.381599514206175, -1.1694132773717, 1.14294520384229, -1.15512226726297], a = 0.2, v = 0.2, t = 0.2)
movej(p[0.435943218122977, -0.101228354314735, 0.381437966428321, -1.16735675603211, 1.13852880437156, -1.15890221739953], a = 0.2, v = 0.2, t = 0.2)
movej(p[0.437516022973636, -0.101726375347394, 0.380884368232179, -1.17329012506279, 1.12602548287427, -1.17109379071813], a = 0.2, v = 0.2, t = 0.2)
movej(p[0.438760770853785, -0.102255000372137, 0.380220891331239, -1.18023672594088, 1.12031254646009, -1.17994889786094], a = 0.2, v = 0.2, t = 0.2)
movej(p[0.439785463499685, -0.102541663029767, 0.379898203568595, -1.18193820088048, 1.1193763934302, -1.18322203134304], a = 0.2, v = 0.2, t = 0.2)
movej(p[0.440482083636379, -0.102751355335826, 0.379657142846096, -1.18347469542818, 1.11631639069439, -1.1870449530912], a = 0.2, v = 0.2, t = 0.2)
movej(p[0.441737388797603, -0.103114158508899, 0.379303705454453, -1.19227122130628, 1.10841772549358, -1.19317734783949], a = 0.2, v = 0.2, t = 0.2)
movej(p[0.442069907995755, -0.10319868660664, 0.379186606207861, -1.19257790444932, 1.10669380342814, -1.1950767889221], a = 0.2, v = 0.2, t = 0.2)
movej(p[0.442702537495319, -0.103352860573307, 0.379038671917436, -1.19397837768379, 1.10571325027014, -1.19665371002906], a = 0.2, v = 0.2, t = 0.2)
movej(p[0.442931303350885, -0.103496579324657, 0.378854956828677, -1.19821543405953, 1.10619914202319, -1.19794343392386], a = 0.2, v = 0.2, t = 0.2)
movej(p[0.443292487452221, -0.10351327051819, 0.378842453269152, -1.20039241400683, 1.10436554415228, -1.19943189434671], a = 0.2, v = 0.2, t = 0.2)
movej(p[0.443756685852861, -0.103488821615184, 0.378915603703086, -1.19913388640271, 1.10364152074592, -1.19766198539587], a = 0.2, v = 0.2, t = 0.2)
movej(p[0.443744780815405, -0.103486670698578, 0.379077351913712, -1.19850857861134, 1.10305297544108, -1.19800894736092], a = 0.2, v = 0.2, t = 0.2)
movej(p[0.443257814793212, -0.10308399506626, 0.37962509577572, -1.18805042370191, 1.11239800260546, -1.19276106561972], a = 0.2, v = 0.2, t = 0.2)
movej(p[0.44205825446788, -0.102770802201831, 0.379933356729394, -1.18467423269874, 1.11785911435161, -1.18767010532657], a = 0.2, v = 0.2, t = 0.2)
movej(p[0.440761697289437, -0.102508657236534, 0.380187123532182, -1.18386154763167, 1.12114502137613, -1.18390052146158], a = 0.2, v = 0.2, t = 0.2)
movej(p[0.43916979281584, -0.102142466468989, 0.380517546425919, -1.18011286996269, 1.12368494546242, -1.1791805317304], a = 0.2, v = 0.2, t = 0.2)
movej(p[0.437681744420489, -0.101722610548688, 0.380967312842274, -1.17655529456854, 1.12712039836123, -1.17118268038021], a = 0.2, v = 0.2, t = 0.2)
movej(p[0.43538728968098, -0.101270792794999, 0.381314581896178, -1.17379291515727, 1.1281888782848, -1.16140913860938], a = 0.2, v = 0.2, t = 0.2)
movej(p[0.433657588612118, -0.100675929893509, 0.382062922561122, -1.16818253659702, 1.13169767755262, -1.15398439141557], a = 0.2, v = 0.2, t = 0.2)
movej(p[0.433657588612118, -0.100675929893509, 0.382062922561122, -1.16816514863688, 1.13168190322745, -1.15399449443627], a = 0.2, v = 0.2, t = 0.2)
movej(p[0.434751634568211, -0.101022675934147, 0.381655485843018, -1.17229703490719, 1.12815473352471, -1.15962306711998], a = 0.2, v = 0.2, t = 0.2)
movej(p[0.436608689674748, -0.101580767550489, 0.381012398166994, -1.1781512135459, 1.12355048895838, -1.16822579966459], a = 0.2, v = 0.2, t = 0.2)
movej(p[0.437891529241199, -0.102036831360032, 0.380417144894537, -1.18276309305919, 1.12068018937491, -1.17504646028882], a = 0.2, v = 0.2, t = 0.2)
movej(p[0.438920626636369, -0.10242417699463, 0.379894959897996, -1.18654664703111, 1.11847270696897, -1.18065903024767], a = 0.2, v = 0.2, t = 0.2)
movej(p[0.439897111010955, -0.102798287692914, 0.379380358866496, -1.19028876205313, 1.11620571859422, -1.18609334690809], a = 0.2, v = 0.2, t = 0.2)
movej(p[0.440504017277588, -0.102998433987099, 0.379127152973109, -1.19201773101214, 1.11507862672422, -1.18892813176992], a = 0.2, v = 0.2, t = 0.2)
movej(p[0.441157869103008, -0.103162437897572, 0.378965668956119, -1.1935455140503, 1.11396327054875, -1.19141515363152], a = 0.2, v = 0.2, t = 0.2)
movej(p[0.442603302136536, -0.103523936873252, 0.378628815328902, -1.19800879324337, 1.11086640139266, -1.19743186655044], a = 0.2, v = 0.2, t = 0.2)
movej(p[0.442831017220529, -0.103540329450414, 0.378645793666159, -1.19784165904226, 1.11087447738915, -1.19812611652015], a = 0.2, v = 0.2, t = 0.2)
movej(p[0.443059725765509, -0.103521241106024, 0.378770474404694, -1.19698252264699, 1.11062273545325, -1.19881767883951], a = 0.2, v = 0.2, t = 0.2)
movej(p[0.443394546113716, -0.103485006215599, 0.379020966514635, -1.19563080795092, 1.10934172777716, -1.19957940860158], a = 0.2, v = 0.2, t = 0.2)
movej(p[0.443555177700492, -0.103473018407798, 0.379032629952982, -1.19499225175708, 1.10803722256617, -1.19967936470112], a = 0.2, v = 0.2, t = 0.2)
movej(p[0.443553696243929, -0.103469306914953, 0.379049218205069, -1.19466692609277, 1.1082642733363, -1.19931338151298], a = 0.2, v = 0.2, t = 0.2)
movej(p[0.443396858045501, -0.103238505476288, 0.379457182413578, -1.18582900194618, 1.11737164937122, -1.19414615332633], a = 0.2, v = 0.2, t = 0.2)
movej(p[0.44229143734813, -0.102835640882702, 0.379998212182683, -1.18111825543088, 1.12128560663041, -1.18814502393671], a = 0.2, v = 0.2, t = 0.2)
movej(p[0.441020371427252, -0.102553445393935, 0.380237543879087, -1.18260789417217, 1.12279201765732, -1.18426041516808], a = 0.2, v = 0.2, t = 0.2)
movej(p[0.439432890958045, -0.10221403028953, 0.380491633935535, -1.18243844377851, 1.12964214172606, -1.17610155221932], a = 0.2, v = 0.2, t = 0.2)
movej(p[0.437435009568778, -0.101680941102031, 0.381051986451897, -1.17758493806108, 1.13883704225105, -1.16424691274803], a = 0.2, v = 0.2, t = 0.2)
movej(p[0.435360291713432, -0.101264175794238, 0.381280818527727, -1.17518423068351, 1.14453759741144, -1.15597721379528], a = 0.2, v = 0.2, t = 0.2)
