def moving():
set_payload_mass(0.62)
set_tcp(p[0,0.005,0.058,0,0,0])
movej(p[0.4431, -0.1037, 0.3786, -1.201, 1.094, -1.2], a = 0.2, v = 0.2, t = 0.2)
movej(p[0.444342861276817, -0.104837080408716, 0.379960089699507, -1.201, 1.094, -1.2], a = 0.2, v = 0.2, t = 0.2)
movej(p[0.445585722553633, -0.105974160817432, 0.381320179399014, -1.201, 1.094, -1.2], a = 0.2, v = 0.2, t = 0.2)
movej(p[0.446828583830449, -0.107111241226148, 0.38268026909852, -1.201, 1.094, -1.2], a = 0.2, v = 0.2, t = 0.2)
movej(p[0.448071445107266, -0.108248321634864, 0.384040358798027, -1.201, 1.094, -1.2], a = 0.2, v = 0.2, t = 0.2)
movej(p[0.446828583830449, -0.107111241226148, 0.38268026909852, -1.201, 1.094, -1.2], a = 0.2, v = 0.2, t = 0.2)
movej(p[0.445585722553633, -0.105974160817432, 0.381320179399014, -1.201, 1.094, -1.2], a = 0.2, v = 0.2, t = 0.2)
movej(p[0.444342861276817, -0.104837080408716, 0.379960089699507, -1.201, 1.094, -1.2], a = 0.2, v = 0.2, t = 0.2)
movej(p[0.4431, -0.1037, 0.3786, -1.201, 1.094, -1.2], a = 0.2, v = 0.2, t = 0.2)
movej(p[0.443061029601443, -0.103817425681981, 0.378659874622151, -1.20028266601305, 1.0956429466356, -1.20600668713978], a = 0.2, v = 0.2, t = 0.2)
movej(p[0.442967520791599, -0.103877983322251, 0.378618390830623, -1.20527229873283, 1.09525546256535, -1.21946169235099], a = 0.2, v = 0.2, t = 0.2)
movej(p[0.44260696285645, -0.103806719785115, 0.37840722065374, -1.2032583233311, 1.09551078340495, -1.22249243361549], a = 0.2, v = 0.2, t = 0.2)
movej(p[0.441959935152661, -0.103845541100207, 0.37824466260419, -1.20186040467097, 1.09084065719739, -1.2290823951301], a = 0.2, v = 0.2, t = 0.2)
movej(p[0.441096650418336, -0.104055002258847, 0.378236223997, -1.19057540550451, 1.08760380750729, -1.22135230657635], a = 0.2, v = 0.2, t = 0.2)
movej(p[0.440176590097177, -0.104097389105858, 0.378299355011235, -1.19088479947364, 1.08207405528934, -1.23996391610594], a = 0.2, v = 0.2, t = 0.2)
movej(p[0.439547239005043, -0.103860743809386, 0.378228754581229, -1.19699289530699, 1.07580023182784, -1.248156393059], a = 0.2, v = 0.2, t = 0.2)
movej(p[0.438960298725895, -0.103576295018944, 0.378109259882896, -1.20008360718664, 1.06768071707648, -1.25424060892607], a = 0.2, v = 0.2, t = 0.2)
movej(p[0.438531166024592, -0.10353247547003, 0.37811026442521, -1.20402910870921, 1.0589476642376, -1.25269282290803], a = 0.2, v = 0.2, t = 0.2)
movej(p[0.438081121883698, -0.10365172425556, 0.378176392951747, -1.20019283347079, 1.05512482042807, -1.25014799738644], a = 0.2, v = 0.2, t = 0.2)
movej(p[0.438156808209981, -0.103585531756045, 0.378188956343917, -1.20499477565135, 1.05177258021296, -1.25763057974215], a = 0.2, v = 0.2, t = 0.2)
movej(p[0.438602498501463, -0.103387615226065, 0.378121319852023, -1.20688435535428, 1.05330682235535, -1.25433985828124], a = 0.2, v = 0.2, t = 0.2)
movej(p[0.439383322167394, -0.103308904360255, 0.378188232780701, -1.2086600336543, 1.05479187210706, -1.25080862568668], a = 0.2, v = 0.2, t = 0.2)
movej(p[0.440190595514748, -0.103396085752875, 0.378385392911619, -1.2036658445361, 1.06347732771061, -1.23795571781258], a = 0.2, v = 0.2, t = 0.2)
movej(p[0.441036116546715, -0.103403946157411, 0.378536445624324, -1.20254461547146, 1.07151714056654, -1.24061177297933], a = 0.2, v = 0.2, t = 0.2)
movej(p[0.44185261095269, -0.103301856547703, 0.378533927272193, -1.20925274157428, 1.08120863543687, -1.23699623417848], a = 0.2, v = 0.2, t = 0.2)
movej(p[0.442505305795715, -0.10329080229553, 0.378497154276698, -1.2159665660179, 1.08747281449367, -1.23853784199885], a = 0.2, v = 0.2, t = 0.2)
movej(p[0.442961802409656, -0.103508158600664, 0.378593692717731, -1.21555181557263, 1.09392471749709, -1.22443804854776], a = 0.2, v = 0.2, t = 0.2)
movej(p[0.443044125468144, -0.103644237278217, 0.378649113297825, -1.20571374274379, 1.09944937008232, -1.22129193207994], a = 0.2, v = 0.2, t = 0.2)
movej(p[0.443146202057364, -0.103617384858704, 0.378597009524903, -1.20733031883753, 1.10316935782836, -1.22154854626758], a = 0.2, v = 0.2, t = 0.2)
movej(p[0.44292893928807, -0.103613141448013, 0.378456182200752, -1.20909246890238, 1.10140478805847, -1.22697277300396], a = 0.2, v = 0.2, t = 0.2)
movej(p[0.442494624605176, -0.103836636178509, 0.378401887194912, -1.21212576244006, 1.09840900077954, -1.23019316832074], a = 0.2, v = 0.2, t = 0.2)
movej(p[0.441578588895396, -0.104089280919516, 0.378412041250566, -1.19963509607394, 1.09660503994161, -1.23034306315772], a = 0.2, v = 0.2, t = 0.2)
movej(p[0.440661854939323, -0.103996629613415, 0.378309952483998, -1.19636186038176, 1.09186164670243, -1.23949866719182], a = 0.2, v = 0.2, t = 0.2)
movej(p[0.439724259520895, -0.103725224730746, 0.378179904233307, -1.19573965984283, 1.08423220649151, -1.2449252415368], a = 0.2, v = 0.2, t = 0.2)
movej(p[0.438920629484509, -0.103582357485027, 0.378155036167071, -1.19912476630563, 1.07265095231496, -1.24836748798273], a = 0.2, v = 0.2, t = 0.2)
movej(p[0.438152254255177, -0.103664998577517, 0.37828350324644, -1.19753735870053, 1.06445458356454, -1.24298603279501], a = 0.2, v = 0.2, t = 0.2)
movej(p[0.437746946666088, -0.103594453984356, 0.378333237820953, -1.19366730565151, 1.05762962310126, -1.24466318219544], a = 0.2, v = 0.2, t = 0.2)
movej(p[0.437952421440903, -0.103348161858434, 0.378292367215291, -1.19883922352632, 1.05177794822031, -1.24694289958998], a = 0.2, v = 0.2, t = 0.2)
movej(p[0.438552192766236, -0.103132469773426, 0.378268043774686, -1.2017291880325, 1.04950301658333, -1.2494704381475], a = 0.2, v = 0.2, t = 0.2)
movej(p[0.439477581249292, -0.103234064926245, 0.378422139221907, -1.20075939019873, 1.0556798366074, -1.23711698625616], a = 0.2, v = 0.2, t = 0.2)
movej(p[0.440324629466092, -0.103308281314597, 0.378546973135879, -1.19610263203007, 1.06630966494969, -1.23530523433187], a = 0.2, v = 0.2, t = 0.2)
movej(p[0.441383929390361, -0.103223423348693, 0.378540012178922, -1.2037241347948, 1.07591500783511, -1.23690226505646], a = 0.2, v = 0.2, t = 0.2)
movej(p[0.442180764824283, -0.103159245168727, 0.37850920986954, -1.2117456277057, 1.08333774508345, -1.23770329232912], a = 0.2, v = 0.2, t = 0.2)
movej(p[0.442839752880163, -0.103256287360566, 0.378541731245388, -1.21909191455126, 1.0890594493641, -1.23382938926175], a = 0.2, v = 0.2, t = 0.2)
movej(p[0.4431233319522, -0.103508478111596, 0.378611371424435, -1.21210298411047, 1.09583556568713, -1.22445581238083], a = 0.2, v = 0.2, t = 0.2)
movej(p[0.443279258428134, -0.103525030072216, 0.378531567210673, -1.20904682298021, 1.09833427963753, -1.2279545598064], a = 0.2, v = 0.2, t = 0.2)
movej(p[0.443097174273925, -0.103509522318977, 0.378357581466713, -1.21002607044979, 1.09746429044488, -1.23223250526461], a = 0.2, v = 0.2, t = 0.2)
movej(p[0.442499530384749, -0.103608902226393, 0.378241630935202, -1.20728034489722, 1.09324558060358, -1.23529178858379], a = 0.2, v = 0.2, t = 0.2)
movej(p[0.441514086398873, -0.103909807463974, 0.378293426577806, -1.20080469663141, 1.09069775283451, -1.23418669069458], a = 0.2, v = 0.2, t = 0.2)
movej(p[0.440562537955163, -0.103883000792266, 0.378282930803091, -1.19206298975379, 1.08551593927433, -1.24120012295166], a = 0.2, v = 0.2, t = 0.2)
movej(p[0.439803213704288, -0.103597649770382, 0.378202069235294, -1.19340010805617, 1.0780241454306, -1.24540878461972], a = 0.2, v = 0.2, t = 0.2)
movej(p[0.439143353557444, -0.103331857943734, 0.378135366872554, -1.19461067635726, 1.06754860063297, -1.25012625383865], a = 0.2, v = 0.2, t = 0.2)
movej(p[0.438613268031681, -0.103339103770957, 0.37822361192377, -1.19832173603582, 1.05895175750179, -1.24737398410375], a = 0.2, v = 0.2, t = 0.2)
movej(p[0.438162290788236, -0.103412366356369, 0.378306558991217, -1.20154624633266, 1.05072177642726, -1.25962881473291], a = 0.2, v = 0.2, t = 0.2)
movej(p[0.438403351378998, -0.103218973615038, 0.378245363467643, -1.20552316857663, 1.04776961123864, -1.26092437366114], a = 0.2, v = 0.2, t = 0.2)
movej(p[0.439000977413939, -0.103006669811793, 0.378164064501465, -1.20737172584516, 1.04654645655106, -1.26227746822878], a = 0.2, v = 0.2, t = 0.2)
movej(p[0.439925447825216, -0.102934240373953, 0.378193479560677, -1.2060301189435, 1.05239267444734, -1.25098461090439], a = 0.2, v = 0.2, t = 0.2)
movej(p[0.440844542813519, -0.103105035262584, 0.378361369154748, -1.20851117959453, 1.0603598945265, -1.25207370572162], a = 0.2, v = 0.2, t = 0.2)
movej(p[0.44181138888959, -0.103122077716127, 0.378387924985133, -1.21120957011662, 1.07075109657557, -1.25295610516918], a = 0.2, v = 0.2, t = 0.2)
movej(p[0.442612974294549, -0.103115142014, 0.378356770415775, -1.21276144131729, 1.08156550272596, -1.24416162998896], a = 0.2, v = 0.2, t = 0.2)
movej(p[0.443153121519751, -0.103202826263778, 0.378351423626839, -1.2119791332744, 1.08854536290228, -1.23418297216382], a = 0.2, v = 0.2, t = 0.2)
movej(p[0.443395250345393, -0.103464340762744, 0.378462983875618, -1.21395298296468, 1.09448542205246, -1.22687623499934], a = 0.2, v = 0.2, t = 0.2)
movej(p[0.443423716098087, -0.10357947865554, 0.378500975837531, -1.21278157719347, 1.09735681778425, -1.22807499969015], a = 0.2, v = 0.2, t = 0.2)
movej(p[0.443376336923217, -0.10352705207569, 0.37837708803701, -1.20752408900767, 1.09999403444434, -1.22007860660207], a = 0.2, v = 0.2, t = 0.2)
movej(p[0.44301304811055, -0.103591802413329, 0.37824709018254, -1.20080072181, 1.09807746686558, -1.21792223641037], a = 0.2, v = 0.2, t = 0.2)
movej(p[0.442350888810449, -0.103813567283198, 0.378208733458194, -1.19047810334294, 1.09627525076396, -1.21205857248779], a = 0.2, v = 0.2, t = 0.2)
movej(p[0.441340471936397, -0.103933563112701, 0.378262191770077, -1.19398374015147, 1.08951540848591, -1.23695793105498], a = 0.2, v = 0.2, t = 0.2)
movej(p[0.440469801920011, -0.10367520622075, 0.378206957073806, -1.18789350601176, 1.08518616956968, -1.23875248061011], a = 0.2, v = 0.2, t = 0.2)
movej(p[0.439715615776004, -0.103368273252909, 0.378148077661947, -1.19162784806603, 1.07644549716, -1.25028577498602], a = 0.2, v = 0.2, t = 0.2)
movej(p[0.439111658231053, -0.103291795150915, 0.378198384782837, -1.18651095976546, 1.0698042510718, -1.23760850625807], a = 0.2, v = 0.2, t = 0.2)
movej(p[0.43859210776076, -0.103332651105731, 0.378246701563048, -1.18992508011071, 1.06214266613382, -1.24695694651531], a = 0.2, v = 0.2, t = 0.2)
movej(p[0.438600380071489, -0.103215965281285, 0.378215004080346, -1.19318592860411, 1.05653144910129, -1.2473967090751], a = 0.2, v = 0.2, t = 0.2)
movej(p[0.439070221736856, -0.102999744370424, 0.378143487693994, -1.19758631678714, 1.05334254676576, -1.25162321481977], a = 0.2, v = 0.2, t = 0.2)
movej(p[0.44002744959745, -0.102889629078402, 0.378189814418076, -1.2011824172616, 1.05470289678469, -1.24684148765348], a = 0.2, v = 0.2, t = 0.2)
movej(p[0.440984303185159, -0.103000521628944, 0.378346599100466, -1.19911794550338, 1.06383968569581, -1.24139074233163], a = 0.2, v = 0.2, t = 0.2)
movej(p[0.441990176891013, -0.103009392378081, 0.378378356576894, -1.19817636663475, 1.07478097601562, -1.23658265108385], a = 0.2, v = 0.2, t = 0.2)
movej(p[0.442819089474617, -0.102993045218098, 0.378351926101988, -1.20497067776049, 1.08389439002771, -1.23225727035627], a = 0.2, v = 0.2, t = 0.2)
movej(p[0.443338933454795, -0.10310924815487, 0.378355482091137, -1.21012418483683, 1.09059103402963, -1.22740196753759], a = 0.2, v = 0.2, t = 0.2)
movej(p[0.44356789397568, -0.103425280363573, 0.37848687401455, -1.21365656960177, 1.09616791036706, -1.22274874020811], a = 0.2, v = 0.2, t = 0.2)
movej(p[0.443611486806009, -0.103581725053001, 0.378478484838333, -1.20872651273778, 1.10056769745946, -1.22174965673219], a = 0.2, v = 0.2, t = 0.2)
movej(p[0.443675467103393, -0.103544581782955, 0.378385388956894, -1.20849345018243, 1.10202013517495, -1.2232191394691], a = 0.2, v = 0.2, t = 0.2)
movej(p[0.443708269302125, -0.10360428147236, 0.378300862781988, -1.20350302979844, 1.10258612031422, -1.21666869206156], a = 0.2, v = 0.2, t = 0.2)
movej(p[0.44364502029563, -0.103786797903007, 0.378333772474216, -1.20211149155903, 1.10388809721802, -1.21321140520007], a = 0.2, v = 0.2, t = 0.2)
movej(p[0.443377431043635, -0.103918239345889, 0.378354362535159, -1.20460140959147, 1.1023103258848, -1.22637640443703], a = 0.2, v = 0.2, t = 0.2)
movej(p[0.443084715674336, -0.103776703571707, 0.378203841877229, -1.20401176131737, 1.10089531055789, -1.23265120110052], a = 0.2, v = 0.2, t = 0.2)
movej(p[0.442559004403327, -0.103676588177552, 0.378059546566969, -1.20112036320357, 1.0974229357109, -1.24015620409722], a = 0.2, v = 0.2, t = 0.2)
movej(p[0.441941583337091, -0.103786882063506, 0.378038333052731, -1.19071307184894, 1.09538413223943, -1.22972263173928], a = 0.2, v = 0.2, t = 0.2)
movej(p[0.441230956014652, -0.103870766439401, 0.378094172863082, -1.18735911065326, 1.09206587787541, -1.23850473679722], a = 0.2, v = 0.2, t = 0.2)
movej(p[0.440826197747792, -0.103646033069597, 0.378004173863969, -1.18693031447773, 1.0879154466062, -1.24133752540541], a = 0.2, v = 0.2, t = 0.2)
movej(p[0.440453366079696, -0.103363738161254, 0.377898561383228, -1.18695853683176, 1.08149116082516, -1.24178014934985], a = 0.2, v = 0.2, t = 0.2)
movej(p[0.440159862462242, -0.103251508266325, 0.377883258124574, -1.18572602829615, 1.07540058971296, -1.23542450502707], a = 0.2, v = 0.2, t = 0.2)
movej(p[0.439734218900484, -0.103358140142513, 0.378051770453841, -1.18559292630055, 1.07099105369542, -1.23427514828002], a = 0.2, v = 0.2, t = 0.2)
movej(p[0.439751783739595, -0.103300679423827, 0.378202206707566, -1.19223624937668, 1.0672295025109, -1.24337018038492], a = 0.2, v = 0.2, t = 0.2)
movej(p[0.440102960406646, -0.103093319647155, 0.378273098803025, -1.20094597188904, 1.06459243205471, -1.24986175579774], a = 0.2, v = 0.2, t = 0.2)
movej(p[0.440815133387725, -0.102922383172979, 0.378314199066753, -1.20620187858474, 1.06263140517658, -1.25158617370887], a = 0.2, v = 0.2, t = 0.2)
movej(p[0.441482800257887, -0.102979430191209, 0.378398079125913, -1.20517313163376, 1.0659748095365, -1.24623636680284], a = 0.2, v = 0.2, t = 0.2)
movej(p[0.442019951817779, -0.103000369513426, 0.378366108207633, -1.2047357431772, 1.07082291780582, -1.24988070804646], a = 0.2, v = 0.2, t = 0.2)
movej(p[0.442529288055711, -0.103005212819161, 0.378256470942441, -1.20953582591924, 1.07608974844351, -1.24711605513517], a = 0.2, v = 0.2, t = 0.2)
movej(p[0.442885790115462, -0.103092043067603, 0.378157192137811, -1.20990958055949, 1.08055337819383, -1.24157171783439], a = 0.2, v = 0.2, t = 0.2)
movej(p[0.443126306306465, -0.10338702001175, 0.378227472785901, -1.20714702495676, 1.08664841673459, -1.22693655651714], a = 0.2, v = 0.2, t = 0.2)
movej(p[0.443204866259323, -0.103618611324657, 0.378304474458648, -1.20031598925995, 1.09310164155762, -1.22308479360942], a = 0.2, v = 0.2, t = 0.2)
movej(p[0.443360140154296, -0.103611654747637, 0.378253015555646, -1.19766164259874, 1.0983258277089, -1.21694426563868], a = 0.2, v = 0.2, t = 0.2)
movej(p[0.443434168822988, -0.103614876614936, 0.378219348005709, -1.19692358950862, 1.09927600219952, -1.21512374664174], a = 0.2, v = 0.2, t = 0.2)
movej(p[0.443485225281898, -0.103746279843904, 0.378253713656008, -1.19151422629633, 1.10168799120889, -1.19923594489536], a = 0.2, v = 0.2, t = 0.2)
movej(p[0.443337382511089, -0.10397447078068, 0.378333691183432, -1.19359368373626, 1.10033442306588, -1.20909708841705], a = 0.2, v = 0.2, t = 0.2)
movej(p[0.443278933006698, -0.103968147648857, 0.378216490850922, -1.18809957228691, 1.10126854101473, -1.20501127391971], a = 0.2, v = 0.2, t = 0.2)
movej(p[0.44308122059262, -0.103962023569528, 0.378109299519334, -1.18723744073506, 1.09946502210971, -1.20933600041959], a = 0.2, v = 0.2, t = 0.2)
movej(p[0.442867632406965, -0.1041454116096, 0.378109274548611, -1.17925633715994, 1.10093592406249, -1.19685551979369], a = 0.2, v = 0.2, t = 0.2)
movej(p[0.442475356471366, -0.10442311288297, 0.378285816869934, -1.17967703850793, 1.10283860720505, -1.20002908514593], a = 0.2, v = 0.2, t = 0.2)
movej(p[0.442240507290646, -0.104409843027425, 0.378231141318276, -1.17730674468326, 1.10345262982776, -1.20455797615694], a = 0.2, v = 0.2, t = 0.2)
movej(p[0.441890857817653, -0.104204290852571, 0.378112220956905, -1.17575168074066, 1.10273711934021, -1.20582359881351], a = 0.2, v = 0.2, t = 0.2)
movej(p[0.441432639959777, -0.104056541047138, 0.378028957802283, -1.17956003162371, 1.09493387765395, -1.21565012929248], a = 0.2, v = 0.2, t = 0.2)
movej(p[0.44076142865639, -0.104064050944005, 0.378136401584113, -1.18220703974406, 1.08771764396357, -1.2205923219979], a = 0.2, v = 0.2, t = 0.2)
movej(p[0.440145342249936, -0.103920069157667, 0.378209597073533, -1.1904057496788, 1.07754060754564, -1.24543126195687], a = 0.2, v = 0.2, t = 0.2)
movej(p[0.439992858567429, -0.103523948582771, 0.378157818050805, -1.19505585661832, 1.07223486987928, -1.2466508516888], a = 0.2, v = 0.2, t = 0.2)
movej(p[0.440132610708825, -0.103239164390767, 0.378136499604335, -1.2012731648016, 1.06615175815368, -1.25184049065977], a = 0.2, v = 0.2, t = 0.2)
movej(p[0.440544844983063, -0.103224127764913, 0.378227420325439, -1.19564447129479, 1.06792710689876, -1.23399937485986], a = 0.2, v = 0.2, t = 0.2)
movej(p[0.440942353475753, -0.103228130342237, 0.378294245576011, -1.19149591646862, 1.07056839498128, -1.23380729886843], a = 0.2, v = 0.2, t = 0.2)
movej(p[0.441500642785347, -0.103099407451609, 0.378245198893948, -1.19604710534533, 1.0738893031024, -1.23475277543702], a = 0.2, v = 0.2, t = 0.2)
movej(p[0.441953547022256, -0.102975877826356, 0.378179589970198, -1.20248519114552, 1.07560830662598, -1.237228544354], a = 0.2, v = 0.2, t = 0.2)
movej(p[0.44239661426657, -0.103107142073343, 0.378218619289678, -1.21106699857331, 1.07710201774782, -1.23801465755814], a = 0.2, v = 0.2, t = 0.2)
movej(p[0.442606111046416, -0.103359861746304, 0.378323418977332, -1.20350164452434, 1.08329393446329, -1.22997294170155], a = 0.2, v = 0.2, t = 0.2)
movej(p[0.442870472658655, -0.103454675152888, 0.37831383300808, -1.20873931629995, 1.08615950864377, -1.23857809884664], a = 0.2, v = 0.2, t = 0.2)
movej(p[0.443081608822523, -0.103440474531867, 0.378234630905239, -1.2111064478183, 1.08993277487476, -1.23533037399122], a = 0.2, v = 0.2, t = 0.2)
movej(p[0.443250664610396, -0.103551431681184, 0.378223198686416, -1.21548372173503, 1.09012773510103, -1.23549018540249], a = 0.2, v = 0.2, t = 0.2)
movej(p[0.443306597109181, -0.103826601345192, 0.378328205458528, -1.20393145088864, 1.09477125159957, -1.21909961247054], a = 0.2, v = 0.2, t = 0.2)
movej(p[0.443326643372888, -0.103911829877556, 0.378336760835929, -1.19535875001414, 1.09731900646379, -1.21884856589979], a = 0.2, v = 0.2, t = 0.2)
movej(p[0.443348075569477, -0.103834105646257, 0.378235731803378, -1.19579429296337, 1.0968791476704, -1.22074979230009], a = 0.2, v = 0.2, t = 0.2)
movej(p[0.443181559959565, -0.103852178577897, 0.378132431945286, -1.19459117733403, 1.09449224136496, -1.2216757423253], a = 0.2, v = 0.2, t = 0.2)
movej(p[0.442870420274935, -0.104104662544052, 0.378192941847176, -1.19653941582571, 1.09328537143098, -1.22225709333784], a = 0.2, v = 0.2, t = 0.2)
movej(p[0.442420217146122, -0.104281385467799, 0.37822479037978, -1.18998344639004, 1.09443700511975, -1.22539977609455], a = 0.2, v = 0.2, t = 0.2)
movej(p[0.442208101969393, -0.104121623515116, 0.378123651407685, -1.19190790583655, 1.09508548406208, -1.2295899401597], a = 0.2, v = 0.2, t = 0.2)
movej(p[0.441926626026991, -0.103970344120089, 0.377996722195172, -1.18899474227018, 1.09281908552849, -1.22768944118105], a = 0.2, v = 0.2, t = 0.2)
movej(p[0.441624620143002, -0.103991360356845, 0.377951608823221, -1.18737452146727, 1.09085067837886, -1.22278253353009], a = 0.2, v = 0.2, t = 0.2)
movej(p[0.441108823529483, -0.104156084149722, 0.378009075209413, -1.18597247640448, 1.08889199469342, -1.23094656501783], a = 0.2, v = 0.2, t = 0.2)
movej(p[0.440883746125293, -0.103980806169955, 0.377914316861327, -1.18653071026716, 1.08640836465994, -1.23729897271792], a = 0.2, v = 0.2, t = 0.2)
movej(p[0.440743314676236, -0.103712040448368, 0.377870373102771, -1.19073700620656, 1.0826344289835, -1.23880393201663], a = 0.2, v = 0.2, t = 0.2)
movej(p[0.440893040497316, -0.103572726691943, 0.377944291034782, -1.19317419110248, 1.07821878389132, -1.23801806706057], a = 0.2, v = 0.2, t = 0.2)
movej(p[0.441123017481393, -0.103621653580789, 0.378161564722887, -1.20081543536155, 1.0751405856369, -1.24331609173418], a = 0.2, v = 0.2, t = 0.2)
movej(p[0.441589047576287, -0.103528174225463, 0.378220233856852, -1.2000791782539, 1.07694204259937, -1.24610457973991], a = 0.2, v = 0.2, t = 0.2)
movej(p[0.442105007653783, -0.103326484605993, 0.378154646649042, -1.20529688532304, 1.07970501512748, -1.24614839663211], a = 0.2, v = 0.2, t = 0.2)
movej(p[0.442533430959118, -0.103306945598069, 0.378122523169844, -1.20540372079685, 1.08274087785372, -1.23798442136608], a = 0.2, v = 0.2, t = 0.2)
movej(p[0.442823143020674, -0.103548666785922, 0.378238395431977, -1.21015373240922, 1.08516362984565, -1.23566557385169], a = 0.2, v = 0.2, t = 0.2)
movej(p[0.442969518603775, -0.103738998295278, 0.378333237136526, -1.20855949725978, 1.08817205304059, -1.23583737763669], a = 0.2, v = 0.2, t = 0.2)
movej(p[0.443187038727879, -0.10369519169881, 0.37830115223685, -1.20624581868372, 1.09247421725491, -1.22708143114595], a = 0.2, v = 0.2, t = 0.2)
movej(p[0.443321679867437, -0.103703983606237, 0.378261280058322, -1.20622572473938, 1.09323355688889, -1.22488050118597], a = 0.2, v = 0.2, t = 0.2)
movej(p[0.443397426019181, -0.103878949546188, 0.378299476214529, -1.20133807178058, 1.09585674645679, -1.2139066762153], a = 0.2, v = 0.2, t = 0.2)
movej(p[0.443343150990282, -0.10408758041686, 0.378383102137189, -1.20569071004226, 1.09474814744598, -1.22671902894082], a = 0.2, v = 0.2, t = 0.2)
movej(p[0.443308558092244, -0.104065423314169, 0.378298944879596, -1.20186079808971, 1.09673479680704, -1.22310269271734], a = 0.2, v = 0.2, t = 0.2)
movej(p[0.443086098408848, -0.103987899760837, 0.378141550510515, -1.19850020570871, 1.09537984339419, -1.22216665554212], a = 0.2, v = 0.2, t = 0.2)
movej(p[0.442771177150271, -0.10409019775934, 0.378039739128172, -1.18812246615415, 1.09568035345596, -1.2095285224043], a = 0.2, v = 0.2, t = 0.2)
movej(p[0.442282709788586, -0.104350087531447, 0.378101936570422, -1.18086364279336, 1.0974288733623, -1.20607091905829], a = 0.2, v = 0.2, t = 0.2)
movej(p[0.441935741004442, -0.104332766425411, 0.378081683903555, -1.17612388994028, 1.0979060045943, -1.21196729095467], a = 0.2, v = 0.2, t = 0.2)
movej(p[0.441660792699182, -0.104099355060509, 0.377952137368405, -1.17469686088867, 1.09771351552052, -1.21051864555426], a = 0.2, v = 0.2, t = 0.2)
movej(p[0.441410547824529, -0.10401304821505, 0.37786065074623, -1.17481861470047, 1.09264046742809, -1.21333088177314], a = 0.2, v = 0.2, t = 0.2)
movej(p[0.441058904280111, -0.104112747375855, 0.377909850208667, -1.17597624540373, 1.08905232231553, -1.21121041505563], a = 0.2, v = 0.2, t = 0.2)
movej(p[0.440656857715083, -0.104138003353901, 0.377971597995848, -1.17920784439915, 1.08427929060614, -1.22918861634689], a = 0.2, v = 0.2, t = 0.2)
movej(p[0.440515446998382, -0.103848287154103, 0.377909915129463, -1.18184570558299, 1.08090390897938, -1.23180052192468], a = 0.2, v = 0.2, t = 0.2)
movej(p[0.440549332293846, -0.103576565028569, 0.377847986444864, -1.18679222568134, 1.07521683820036, -1.23570451571533], a = 0.2, v = 0.2, t = 0.2)
movej(p[0.440868451530016, -0.10353819245739, 0.377942814203388, -1.18451409264459, 1.07392670268543, -1.22102075687305], a = 0.2, v = 0.2, t = 0.2)
movej(p[0.441182489497705, -0.103588540592398, 0.378103268320978, -1.18942952496119, 1.07449487806208, -1.22879892739784], a = 0.2, v = 0.2, t = 0.2)
movej(p[0.441705890301013, -0.103470008083204, 0.378077169971216, -1.19164078705768, 1.07781088340786, -1.23152144468526], a = 0.2, v = 0.2, t = 0.2)
movej(p[0.442028882122983, -0.103323682725193, 0.377946783107447, -1.19619876577812, 1.08068766473727, -1.23123761287486], a = 0.2, v = 0.2, t = 0.2)
movej(p[0.442247896293256, -0.10342178451641, 0.377881086075706, -1.19499600533741, 1.08164765202128, -1.22027536299169], a = 0.2, v = 0.2, t = 0.2)
movej(p[0.44223926896301, -0.103687413809654, 0.378007617773886, -1.19572058493271, 1.08239459213041, -1.21819556599543], a = 0.2, v = 0.2, t = 0.2)
movej(p[0.442352290167283, -0.103795533426019, 0.378098480070857, -1.1986631865563, 1.08235136503643, -1.22769556592735], a = 0.2, v = 0.2, t = 0.2)
movej(p[0.442635228016238, -0.103695308407906, 0.378091197579374, -1.20037941897223, 1.08651381525204, -1.22805634601144], a = 0.2, v = 0.2, t = 0.2)
movej(p[0.442915613744314, -0.103681678530391, 0.378083585179026, -1.19707256089952, 1.08987283409832, -1.21988543751732], a = 0.2, v = 0.2, t = 0.2)
movej(p[0.44309094597031, -0.103869223539486, 0.378173431356217, -1.18874156369549, 1.09464285940669, -1.20311584752941], a = 0.2, v = 0.2, t = 0.2)
movej(p[0.44313812916875, -0.104003627583153, 0.378278659893634, -1.1946842257562, 1.093177761332, -1.21688138489957], a = 0.2, v = 0.2, t = 0.2)
movej(p[0.443289886752383, -0.103919858049032, 0.378236440028956, -1.19754403191141, 1.09544526895502, -1.21744231806983], a = 0.2, v = 0.2, t = 0.2)
movej(p[0.443299913586911, -0.103856550954866, 0.378163162356248, -1.20136903715761, 1.09395426589767, -1.22260623346822], a = 0.2, v = 0.2, t = 0.2)
movej(p[0.443170718042206, -0.104054247388415, 0.378170451690321, -1.19226353404845, 1.09515807195096, -1.20756492821394], a = 0.2, v = 0.2, t = 0.2)
movej(p[0.442793889856741, -0.104298561817375, 0.378229658269872, -1.18292209299094, 1.09649536519459, -1.20912419349923], a = 0.2, v = 0.2, t = 0.2)
movej(p[0.442552219699864, -0.104255529752436, 0.378195685067748, -1.18156058435455, 1.09704778877149, -1.21512616524921], a = 0.2, v = 0.2, t = 0.2)
movej(p[0.442246487550354, -0.10406089304124, 0.378088936770757, -1.18163596242748, 1.09662544579804, -1.22007301817898], a = 0.2, v = 0.2, t = 0.2)
movej(p[0.441882317573411, -0.103994277836089, 0.378013985543043, -1.18841268238227, 1.09115788335559, -1.22938790843286], a = 0.2, v = 0.2, t = 0.2)
movej(p[0.441258932884147, -0.104123705259632, 0.378018690235084, -1.18345495125589, 1.08931959514901, -1.22502944889062], a = 0.2, v = 0.2, t = 0.2)
movej(p[0.440613595191654, -0.104065855137375, 0.377954628628779, -1.17955792489788, 1.08462196506052, -1.23395397564662], a = 0.2, v = 0.2, t = 0.2)
movej(p[0.440134391305095, -0.103707366965642, 0.377844094618474, -1.18307870256728, 1.08005477244416, -1.23462763061539], a = 0.2, v = 0.2, t = 0.2)
movej(p[0.43973675475325, -0.103427682999797, 0.377811389224641, -1.18837234367336, 1.07120298291077, -1.24109534119153], a = 0.2, v = 0.2, t = 0.2)
movej(p[0.439609650291121, -0.103432231937468, 0.378001901075645, -1.19367274872588, 1.06709258961127, -1.23744803108482], a = 0.2, v = 0.2, t = 0.2)
movej(p[0.439862942134772, -0.103462254836052, 0.378184659187915, -1.18836716021115, 1.06608700747288, -1.23920029862386], a = 0.2, v = 0.2, t = 0.2)
movej(p[0.440738128878394, -0.103327383612845, 0.378263697145497, -1.19375927486738, 1.06832596215203, -1.23913229007564], a = 0.2, v = 0.2, t = 0.2)
movej(p[0.441721806098475, -0.103187963356919, 0.378292267111053, -1.19848696113024, 1.07218957086132, -1.23973089531064], a = 0.2, v = 0.2, t = 0.2)
movej(p[0.442680552871744, -0.103258282660934, 0.378398585141645, -1.20709853959918, 1.07929611405685, -1.23365208762082], a = 0.2, v = 0.2, t = 0.2)
movej(p[0.443155104052614, -0.103476952581549, 0.378544002705496, -1.20553931108703, 1.08782189987565, -1.22704123725568], a = 0.2, v = 0.2, t = 0.2)
movej(p[0.44350311335674, -0.103516257524878, 0.378514502688616, -1.20753940702185, 1.09403227589841, -1.22459723910022], a = 0.2, v = 0.2, t = 0.2)
movej(p[0.443634060746441, -0.103488971742701, 0.378416348639175, -1.20901133599432, 1.09698212737638, -1.22148051821974], a = 0.2, v = 0.2, t = 0.2)
movej(p[0.443665473388111, -0.103600331435267, 0.378387440449747, -1.21185170964431, 1.09747101578484, -1.21964962602775], a = 0.2, v = 0.2, t = 0.2)
movej(p[0.443514292379863, -0.103878955351141, 0.37846234762303, -1.20532592494626, 1.09939258519086, -1.21410919686928], a = 0.2, v = 0.2, t = 0.2)
movej(p[0.443191407507579, -0.103925796961826, 0.378369140297633, -1.19831583083432, 1.09891063594084, -1.22188816645249], a = 0.2, v = 0.2, t = 0.2)
movej(p[0.442599748188568, -0.103810793681367, 0.378155463900929, -1.19727333278318, 1.09585819690037, -1.23201014617381], a = 0.2, v = 0.2, t = 0.2)
movej(p[0.441811103462264, -0.103760288041031, 0.378024545120778, -1.19623082979101, 1.08960804498251, -1.24266841592794], a = 0.2, v = 0.2, t = 0.2)
movej(p[0.440851737289219, -0.103875640769641, 0.378093361621634, -1.19548600585584, 1.08332987966606, -1.24299516958522], a = 0.2, v = 0.2, t = 0.2)
movej(p[0.44002160736536, -0.103844086463049, 0.378164311534689, -1.19215502682225, 1.07647663677221, -1.2507690709836], a = 0.2, v = 0.2, t = 0.2)
movej(p[0.439531823002406, -0.103553977224128, 0.378089767959096, -1.19154647001678, 1.07161098437967, -1.24715721732574], a = 0.2, v = 0.2, t = 0.2)
movej(p[0.439234179264444, -0.103349471745653, 0.378020025536382, -1.18965008363822, 1.06445393591193, -1.24448034278346], a = 0.2, v = 0.2, t = 0.2)
movej(p[0.439211036285187, -0.103402672124891, 0.37813173353905, -1.18824708988269, 1.06176401164247, -1.23225811295058], a = 0.2, v = 0.2, t = 0.2)
movej(p[0.439581759645814, -0.103479551272585, 0.378250491895975, -1.18910279728009, 1.06101902070473, -1.23946736483496], a = 0.2, v = 0.2, t = 0.2)
movej(p[0.440518296014238, -0.103361986630863, 0.378276426335614, -1.19313674554534, 1.06811883826329, -1.23665251156641], a = 0.2, v = 0.2, t = 0.2)
movej(p[0.441546143130589, -0.103224061857376, 0.378282545548494, -1.1968846601245, 1.07578772050177, -1.23445292953204], a = 0.2, v = 0.2, t = 0.2)
movej(p[0.442418118487848, -0.103350599024359, 0.378384678636205, -1.20062678713034, 1.08307544486115, -1.22474341222772], a = 0.2, v = 0.2, t = 0.2)
movej(p[0.442949359662162, -0.103569751088221, 0.378537997492691, -1.20703664509728, 1.08789465531758, -1.23067079251167], a = 0.2, v = 0.2, t = 0.2)
movej(p[0.443288460894269, -0.103626686277469, 0.37852066633536, -1.21286867354281, 1.09276561750324, -1.23377234689332], a = 0.2, v = 0.2, t = 0.2)
movej(p[0.44339551182247, -0.103597552775339, 0.378455478672494, -1.21356819016891, 1.09777625853897, -1.22932071519947], a = 0.2, v = 0.2, t = 0.2)
movej(p[0.443404972730932, -0.103692402353376, 0.378424745262964, -1.21453517325244, 1.09973033023742, -1.22557872209522], a = 0.2, v = 0.2, t = 0.2)
movej(p[0.443190729290443, -0.103933658055328, 0.378467909874707, -1.20406375100186, 1.10187883557213, -1.21647380991031], a = 0.2, v = 0.2, t = 0.2)
movej(p[0.442823043839018, -0.103980185521846, 0.378353591340367, -1.19978904760244, 1.10108011760752, -1.2290234370364], a = 0.2, v = 0.2, t = 0.2)
movej(p[0.442282311654048, -0.103827198730509, 0.378154319282759, -1.19587392591963, 1.09834507854385, -1.23135741553923], a = 0.2, v = 0.2, t = 0.2)
movej(p[0.441598701755831, -0.103754647426678, 0.378026496049551, -1.19622435853984, 1.09187151052674, -1.23981713950646], a = 0.2, v = 0.2, t = 0.2)
movej(p[0.440791629605868, -0.103884106103577, 0.378099078062033, -1.19529758689459, 1.08588414338082, -1.23719000985082], a = 0.2, v = 0.2, t = 0.2)
movej(p[0.439997443316589, -0.103884789426027, 0.378149847428919, -1.19419661914777, 1.08007406020305, -1.24848893577511], a = 0.2, v = 0.2, t = 0.2)
movej(p[0.439532052902792, -0.10362162236215, 0.378085510007963, -1.19990669447034, 1.07439257899569, -1.25427621813175], a = 0.2, v = 0.2, t = 0.2)
movej(p[0.439275094549413, -0.103368168139706, 0.378010229251098, -1.20119035499733, 1.06712384190466, -1.25707910698929], a = 0.2, v = 0.2, t = 0.2)
movej(p[0.439363929532321, -0.103323419513717, 0.378088062886397, -1.20095246398154, 1.06340903559468, -1.24824555210194], a = 0.2, v = 0.2, t = 0.2)
movej(p[0.439692636485432, -0.103428398486401, 0.378277110765728, -1.19782924483736, 1.06362561733484, -1.24909517672171], a = 0.2, v = 0.2, t = 0.2)
movej(p[0.440615844302773, -0.103307601810754, 0.378358666994503, -1.20078604248135, 1.06786123031392, -1.24952274438613], a = 0.2, v = 0.2, t = 0.2)
movej(p[0.441610055772746, -0.10313758923499, 0.378357488603211, -1.20686654875809, 1.07476998565756, -1.24756439322996], a = 0.2, v = 0.2, t = 0.2)
movej(p[0.442502902851634, -0.103179968691411, 0.37837340747232, -1.2063130423907, 1.08244580280286, -1.23074293818006], a = 0.2, v = 0.2, t = 0.2)
movej(p[0.443023253837562, -0.103451089703231, 0.378492638224795, -1.2075527077027, 1.08961179976498, -1.22203909941434], a = 0.2, v = 0.2, t = 0.2)
movej(p[0.443306036995638, -0.103591038610003, 0.37848622070908, -1.2038982922324, 1.09437170897568, -1.21896370117704], a = 0.2, v = 0.2, t = 0.2)
movej(p[0.443518891765373, -0.103594597398571, 0.378407210788126, -1.20682791572856, 1.09737156859168, -1.21933963721792], a = 0.2, v = 0.2, t = 0.2)
movej(p[0.443566783334552, -0.103667122008852, 0.378343229426932, -1.20708116353574, 1.09787642255148, -1.21731496095774], a = 0.2, v = 0.2, t = 0.2)
movej(p[0.443576458274832, -0.103876362476049, 0.378405658144275, -1.20416328715009, 1.0995330500537, -1.21031753037655], a = 0.2, v = 0.2, t = 0.2)
movej(p[0.443440110828158, -0.104070771508143, 0.378466096996228, -1.19969333465015, 1.10147184137464, -1.21580489100559], a = 0.2, v = 0.2, t = 0.2)
movej(p[0.443379706908168, -0.103960059714117, 0.378332493238372, -1.20002008196758, 1.10150734052011, -1.22098048527028], a = 0.2, v = 0.2, t = 0.2)
movej(p[0.443066766889273, -0.103939670451268, 0.378185785276914, -1.19834134987132, 1.09935419680829, -1.22406186869719], a = 0.2, v = 0.2, t = 0.2)
movej(p[0.442586005531837, -0.104070404400427, 0.37814202045183, -1.19764441854924, 1.09584142872216, -1.22393298861896], a = 0.2, v = 0.2, t = 0.2)
movej(p[0.441897730880229, -0.10429500178958, 0.378242340762537, -1.19065751470057, 1.09688882885918, -1.22822281734063], a = 0.2, v = 0.2, t = 0.2)
movej(p[0.44143914631324, -0.104165846544984, 0.378191547714655, -1.18911542016889, 1.09522127981387, -1.23644403068034], a = 0.2, v = 0.2, t = 0.2)
movej(p[0.44101009453882, -0.103883150364048, 0.378058075911341, -1.19205493801249, 1.09019547506077, -1.24198149490704], a = 0.2, v = 0.2, t = 0.2)
movej(p[0.44063361660842, -0.103711612439955, 0.377986358953314, -1.19366306680279, 1.08089373512489, -1.2439340687121], a = 0.2, v = 0.2, t = 0.2)
movej(p[0.440315968995417, -0.103832148296922, 0.37813571892306, -1.19309933216106, 1.07638352636529, -1.23770966772543], a = 0.2, v = 0.2, t = 0.2)
movej(p[0.440310619957361, -0.103830761290481, 0.378255040281186, -1.18976717342344, 1.07526194280083, -1.24110611150882], a = 0.2, v = 0.2, t = 0.2)
movej(p[0.440794933027709, -0.103636089022045, 0.37827084001967, -1.19412961958219, 1.07767850520553, -1.24010608328519], a = 0.2, v = 0.2, t = 0.2)
movej(p[0.441466199893584, -0.103440145308128, 0.378247275150594, -1.19921444815559, 1.07893505881508, -1.24168542156992], a = 0.2, v = 0.2, t = 0.2)
movej(p[0.4421831702274, -0.103497168071764, 0.378347353746986, -1.20476957834143, 1.0817817600198, -1.23372125720956], a = 0.2, v = 0.2, t = 0.2)
movej(p[0.442607553914542, -0.103648014629632, 0.378462493419848, -1.19846856278668, 1.08779676701998, -1.22647484405131], a = 0.2, v = 0.2, t = 0.2)
movej(p[0.443067415587694, -0.103624923183729, 0.378448952080983, -1.20137563490232, 1.09411909274854, -1.22598004376371], a = 0.2, v = 0.2, t = 0.2)
movej(p[0.443297048277283, -0.103572075159877, 0.378367869836731, -1.20128474804984, 1.09992407324173, -1.22035611755497], a = 0.2, v = 0.2, t = 0.2)
movej(p[0.443468510532945, -0.103665429274819, 0.378377690010234, -1.2080808376156, 1.10004490659082, -1.2217355511777], a = 0.2, v = 0.2, t = 0.2)
movej(p[0.443348291955761, -0.103945941066007, 0.378455563037433, -1.20666012160133, 1.09965993021506, -1.2199851306661], a = 0.2, v = 0.2, t = 0.2)
movej(p[0.443052360977674, -0.104058382425354, 0.378397642252063, -1.20647352682948, 1.09847928783274, -1.23504149069518], a = 0.2, v = 0.2, t = 0.2)
movej(p[0.44260485002617, -0.103923346367653, 0.378167374085297, -1.20002332525979, 1.0990900431527, -1.23429067357218], a = 0.2, v = 0.2, t = 0.2)
movej(p[0.441941207978084, -0.103822739337878, 0.377962660223902, -1.19423815218706, 1.09503095892735, -1.23650121587014], a = 0.2, v = 0.2, t = 0.2)
movej(p[0.441216480719211, -0.103939778899013, 0.377983677811423, -1.18367761741699, 1.09136551116327, -1.22417265794749], a = 0.2, v = 0.2, t = 0.2)
movej(p[0.440316791858947, -0.104046489322587, 0.378098217215412, -1.18882810381505, 1.08249802227522, -1.24261357631514], a = 0.2, v = 0.2, t = 0.2)
movej(p[0.439676383956881, -0.103852166815989, 0.378089080684244, -1.19304485002733, 1.07577555878056, -1.24835561246417], a = 0.2, v = 0.2, t = 0.2)
movej(p[0.439140285594044, -0.103564535799471, 0.378029061105777, -1.20000988191156, 1.06701687332442, -1.25634496036219], a = 0.2, v = 0.2, t = 0.2)
movej(p[0.438879127546512, -0.103408402284383, 0.378018873972937, -1.19472368228717, 1.06198570478331, -1.24280615693774], a = 0.2, v = 0.2, t = 0.2)
movej(p[0.438861430045926, -0.103491461358162, 0.378170739465845, -1.19256478496232, 1.05929631720073, -1.24069427068474], a = 0.2, v = 0.2, t = 0.2)
movej(p[0.439370731087596, -0.103437559077908, 0.378270941080472, -1.19609486674667, 1.05977176211102, -1.24902995074575], a = 0.2, v = 0.2, t = 0.2)
movej(p[0.440277784487154, -0.103227498179227, 0.378283840660711, -1.1998005373793, 1.06515560584311, -1.24858271963695], a = 0.2, v = 0.2, t = 0.2)
movej(p[0.441345031649683, -0.103129484611782, 0.378315913277868, -1.2017947682624, 1.07146168708023, -1.24346742301195], a = 0.2, v = 0.2, t = 0.2)
movej(p[0.442221866827697, -0.103268850361213, 0.378445027333975, -1.19867636927735, 1.08016523413601, -1.2274521514664], a = 0.2, v = 0.2, t = 0.2)
movej(p[0.442802899446792, -0.103412797128874, 0.378555060891179, -1.20056575403434, 1.08603103606255, -1.23111153194667], a = 0.2, v = 0.2, t = 0.2)
movej(p[0.443241515944403, -0.103399179306116, 0.378485428608234, -1.20249230992238, 1.0941274127353, -1.22512454784031], a = 0.2, v = 0.2, t = 0.2)
movej(p[0.443453985683011, -0.10342738073584, 0.378401463408079, -1.20042556492884, 1.09953121467371, -1.21738968918165], a = 0.2, v = 0.2, t = 0.2)
movej(p[0.443559473537448, -0.103641761504147, 0.378408558571657, -1.1971276954225, 1.10371165687769, -1.20579785700288], a = 0.2, v = 0.2, t = 0.2)
movej(p[0.443451169333354, -0.103855559556521, 0.37849996910484, -1.20040916967276, 1.10218099171796, -1.21401166579801], a = 0.2, v = 0.2, t = 0.2)
movej(p[0.443255393703009, -0.103829285274429, 0.378380508543718, -1.20070812314201, 1.10156681783747, -1.22438362905612], a = 0.2, v = 0.2, t = 0.2)
movej(p[0.442793807284804, -0.10372547359371, 0.378166697177694, -1.19621700827163, 1.09962927700073, -1.22766969566783], a = 0.2, v = 0.2, t = 0.2)
movej(p[0.442143683943646, -0.103752190461244, 0.378026854672567, -1.18708966875245, 1.09746111094279, -1.22585659526493], a = 0.2, v = 0.2, t = 0.2)
movej(p[0.441277216814019, -0.10393680668883, 0.378127266209819, -1.18200163729867, 1.09346846867189, -1.22645567472255], a = 0.2, v = 0.2, t = 0.2)
movej(p[0.440596390071273, -0.103872474706883, 0.378171445340892, -1.18606117066301, 1.08696921860903, -1.24327606759779], a = 0.2, v = 0.2, t = 0.2)
movej(p[0.440092620066707, -0.103571301944563, 0.378106445127111, -1.19382901356706, 1.08037697126589, -1.25131947836468], a = 0.2, v = 0.2, t = 0.2)
movej(p[0.439732688397343, -0.103368067228669, 0.378040127330523, -1.19901968244902, 1.07223750259255, -1.25630887319424], a = 0.2, v = 0.2, t = 0.2)
movej(p[0.439491721275676, -0.103409140610588, 0.378124871716609, -1.19854076281568, 1.06850867385116, -1.24762113622107], a = 0.2, v = 0.2, t = 0.2)
movej(p[0.439611209520759, -0.103494848847633, 0.378273255701882, -1.19836791560565, 1.06648343851793, -1.25381470746537], a = 0.2, v = 0.2, t = 0.2)
movej(p[0.440353305237131, -0.103372264473527, 0.378327195166807, -1.20050968662315, 1.06978937582939, -1.24927885825346], a = 0.2, v = 0.2, t = 0.2)
movej(p[0.441266703210575, -0.103209545161042, 0.378320759356599, -1.20123637089237, 1.07388599849336, -1.24371163017503], a = 0.2, v = 0.2, t = 0.2)
movej(p[0.442183932355172, -0.103278528255957, 0.378357638974518, -1.19776464062459, 1.0811525029316, -1.22485234062925], a = 0.2, v = 0.2, t = 0.2)
movej(p[0.442702999400048, -0.103495782738243, 0.378441832579087, -1.19319345196585, 1.08875653780103, -1.21473763235866], a = 0.2, v = 0.2, t = 0.2)
movej(p[0.443156484816876, -0.103609365346095, 0.378445724217753, -1.19880042115483, 1.09406649247011, -1.21787520646741], a = 0.2, v = 0.2, t = 0.2)
movej(p[0.443437856422524, -0.103602492634068, 0.378384995835732, -1.20356243847975, 1.09755345894734, -1.21775656972119], a = 0.2, v = 0.2, t = 0.2)
movej(p[0.443597401330285, -0.10373468230715, 0.378384928762754, -1.20837840432462, 1.09831833076996, -1.21812015621017], a = 0.2, v = 0.2, t = 0.2)
movej(p[0.443567604332558, -0.103959002859973, 0.378464237339822, -1.20294075358396, 1.09967225407157, -1.21154579367975], a = 0.2, v = 0.2, t = 0.2)
movej(p[0.443517253799667, -0.104069381555037, 0.378483248421158, -1.20530375314367, 1.10019137859175, -1.22490594808668], a = 0.2, v = 0.2, t = 0.2)
movej(p[0.443557988466615, -0.103959190053982, 0.378367975918783, -1.206680726516, 1.10241336312254, -1.22313980789007], a = 0.2, v = 0.2, t = 0.2)
movej(p[0.443570935614436, -0.10393030331231, 0.378267563452829, -1.2063889434196, 1.10231651457533, -1.22173807325723], a = 0.2, v = 0.2, t = 0.2)
movej(p[0.443583142175516, -0.104102120850785, 0.378295987005373, -1.19819821260185, 1.10461489560911, -1.20570333190665], a = 0.2, v = 0.2, t = 0.2)
movej(p[0.44341575964191, -0.104216107542834, 0.378319990006838, -1.19265387114433, 1.10374057882135, -1.21240856873486], a = 0.2, v = 0.2, t = 0.2)
movej(p[0.443318618161432, -0.104096394138619, 0.378194442883726, -1.19120328826487, 1.10355678432491, -1.21725256563431], a = 0.2, v = 0.2, t = 0.2)
movej(p[0.44296327649354, -0.103993357163247, 0.378083706970555, -1.19033500555872, 1.10143112707974, -1.22182473053331], a = 0.2, v = 0.2, t = 0.2)
movej(p[0.442620886274011, -0.104102196946358, 0.378099604054664, -1.18679928893575, 1.10013063362203, -1.21601266807322], a = 0.2, v = 0.2, t = 0.2)
movej(p[0.44212634200577, -0.104282760091638, 0.378218932659015, -1.18195832243203, 1.09981324808557, -1.21676745075008], a = 0.2, v = 0.2, t = 0.2)
movej(p[0.441850173402418, -0.104176943706678, 0.378194411115491, -1.1832460182624, 1.09785281461775, -1.22373839796481], a = 0.2, v = 0.2, t = 0.2)
movej(p[0.441522567710242, -0.103934498169142, 0.378073223152465, -1.18491138160685, 1.09461147204927, -1.22938205815101], a = 0.2, v = 0.2, t = 0.2)
movej(p[0.441168646485332, -0.103790500593104, 0.377982243350218, -1.18915644047224, 1.08847118835098, -1.2362777994589], a = 0.2, v = 0.2, t = 0.2)
movej(p[0.440695918199335, -0.103886350650857, 0.378048722611335, -1.1866152129553, 1.08550229226425, -1.23391785289912], a = 0.2, v = 0.2, t = 0.2)
movej(p[0.44052372728263, -0.103816836826297, 0.378131874061328, -1.18740760715872, 1.08243336325991, -1.24261296961215], a = 0.2, v = 0.2, t = 0.2)
movej(p[0.440838221662952, -0.103531807489217, 0.378178116149659, -1.18961814632874, 1.08192779314763, -1.23935287576971], a = 0.2, v = 0.2, t = 0.2)
movej(p[0.441425863538793, -0.103279359624917, 0.378211061541875, -1.19368762584026, 1.08028311300602, -1.23869878767685], a = 0.2, v = 0.2, t = 0.2)
movej(p[0.442067418259746, -0.103317268417236, 0.378292880509658, -1.19648744765082, 1.08234781953324, -1.22827107603392], a = 0.2, v = 0.2, t = 0.2)
movej(p[0.442494561674061, -0.10343956189804, 0.378362958585832, -1.19792053318587, 1.08487549593359, -1.23204829287064], a = 0.2, v = 0.2, t = 0.2)
movej(p[0.442957719413596, -0.103455224265289, 0.378296014331704, -1.20095138839066, 1.08828841361102, -1.2318130987564], a = 0.2, v = 0.2, t = 0.2)
movej(p[0.443240268973028, -0.103516864382025, 0.378248868782882, -1.2008198187371, 1.09163366204073, -1.22752288563786], a = 0.2, v = 0.2, t = 0.2)
movej(p[0.443466407405019, -0.103689704740829, 0.378271953042588, -1.19937778119296, 1.0953997915927, -1.21577690475846], a = 0.2, v = 0.2, t = 0.2)
movej(p[0.443449861067231, -0.103950135672536, 0.378415662418751, -1.19763511882122, 1.09937334496306, -1.21419707470644], a = 0.2, v = 0.2, t = 0.2)
movej(p[0.443490963985345, -0.103960230673282, 0.378392087464192, -1.19556276682533, 1.1012133057922, -1.21412170640014], a = 0.2, v = 0.2, t = 0.2)
movej(p[0.443356489221173, -0.103894503226189, 0.378267368388267, -1.19322178337035, 1.10063874828722, -1.21372012784705], a = 0.2, v = 0.2, t = 0.2)
movej(p[0.443081001923709, -0.103986975433613, 0.378155182154378, -1.18694161903809, 1.09852681839289, -1.2097247225068], a = 0.2, v = 0.2, t = 0.2)
movej(p[0.442555324562803, -0.104198905575496, 0.378189575050401, -1.18893486751976, 1.09636212237385, -1.22435405847498], a = 0.2, v = 0.2, t = 0.2)
movej(p[0.442171642710077, -0.104137151356115, 0.37811293145134, -1.18489521869268, 1.09642492566815, -1.22953713193622], a = 0.2, v = 0.2, t = 0.2)
movej(p[0.441812132192151, -0.103912693646668, 0.37802578511481, -1.18751979334481, 1.09463472742019, -1.23525517603879], a = 0.2, v = 0.2, t = 0.2)
movej(p[0.441488380617822, -0.103794367533897, 0.377936163893261, -1.18554761194028, 1.09007206505435, -1.23422740484233], a = 0.2, v = 0.2, t = 0.2)
movej(p[0.440985771222572, -0.103872450454818, 0.377966664139018, -1.18196933509095, 1.08615533488805, -1.23104733848285], a = 0.2, v = 0.2, t = 0.2)
movej(p[0.440563703420045, -0.103789236300243, 0.377918497858383, -1.18056322609834, 1.08095398099601, -1.24268169438965], a = 0.2, v = 0.2, t = 0.2)
movej(p[0.44035520979094, -0.103482996572075, 0.377799983876026, -1.18486211818017, 1.07699037872038, -1.24367990662015], a = 0.2, v = 0.2, t = 0.2)
movej(p[0.440320606785121, -0.103250054570568, 0.377783729817391, -1.19164304828547, 1.07119488792818, -1.24934442532302], a = 0.2, v = 0.2, t = 0.2)
movej(p[0.440524285453918, -0.103310368645617, 0.37798580194295, -1.1937211566883, 1.068678909589, -1.24224100341252], a = 0.2, v = 0.2, t = 0.2)
movej(p[0.440869429975856, -0.103340567607174, 0.378159619222291, -1.19490166662136, 1.06894691748253, -1.24833178255807], a = 0.2, v = 0.2, t = 0.2)
movej(p[0.441497505681204, -0.103173673175317, 0.378213806027565, -1.20723008375698, 1.0699822568776, -1.25705108566621], a = 0.2, v = 0.2, t = 0.2)
movej(p[0.442012330575474, -0.103064814061035, 0.378185600638403, -1.21605751484651, 1.07170478700832, -1.25981348595763], a = 0.2, v = 0.2, t = 0.2)
movej(p[0.442447987258225, -0.103172421818643, 0.37823646530273, -1.22047142704412, 1.0750969609519, -1.25423734868051], a = 0.2, v = 0.2, t = 0.2)
movej(p[0.442663303332778, -0.103428732731419, 0.378301228215968, -1.2194325576143, 1.07863858237391, -1.25314668730777], a = 0.2, v = 0.2, t = 0.2)
movej(p[0.442951030403808, -0.103484345044622, 0.378244014705176, -1.21620279234803, 1.08360571533595, -1.248117379545], a = 0.2, v = 0.2, t = 0.2)
movej(p[0.443132410089892, -0.103512799852773, 0.378168574685922, -1.21772510587752, 1.08618867251572, -1.24698071004114], a = 0.2, v = 0.2, t = 0.2)
movej(p[0.443280263102598, -0.103672566183256, 0.378185843437748, -1.21119215858992, 1.09107915952467, -1.23242805949757], a = 0.2, v = 0.2, t = 0.2)
movej(p[0.443228594106353, -0.103919917551146, 0.378286280931097, -1.21235722610342, 1.09359935190925, -1.23688082765862], a = 0.2, v = 0.2, t = 0.2)
movej(p[0.443146459776373, -0.103943940764455, 0.378220618168552, -1.209415730584, 1.09442636930377, -1.23993635627156], a = 0.2, v = 0.2, t = 0.2)
movej(p[0.442862396039418, -0.103835636390532, 0.378070424104515, -1.20455005962465, 1.09344936859731, -1.24006906552362], a = 0.2, v = 0.2, t = 0.2)
movej(p[0.442374867875415, -0.103867931743915, 0.37797798164482, -1.19754565644925, 1.09183759919246, -1.23668275473808], a = 0.2, v = 0.2, t = 0.2)
movej(p[0.441688613271141, -0.104022394188566, 0.378046521649224, -1.19105329910346, 1.09146094074036, -1.23408828164678], a = 0.2, v = 0.2, t = 0.2)
movej(p[0.441015046412728, -0.104007376115827, 0.378056632689667, -1.1916124571387, 1.08727485362282, -1.25023057744185], a = 0.2, v = 0.2, t = 0.2)
movej(p[0.440572966629191, -0.103705296745354, 0.377909579799104, -1.18997261106623, 1.08407889367157, -1.24693795165631], a = 0.2, v = 0.2, t = 0.2)
movej(p[0.440236696851772, -0.103456619717937, 0.377827923391332, -1.19063022496376, 1.07751395115989, -1.24942572339897], a = 0.2, v = 0.2, t = 0.2)
movej(p[0.439911171273489, -0.103442678139433, 0.37788940708, -1.18522405426099, 1.07449328826026, -1.23413703272978], a = 0.2, v = 0.2, t = 0.2)
movej(p[0.439779048284729, -0.103457033108661, 0.378069110515971, -1.18473322142931, 1.06975880716402, -1.24214338703919], a = 0.2, v = 0.2, t = 0.2)
movej(p[0.440163990167978, -0.103303781597349, 0.378166763950632, -1.18821288649485, 1.06904666189144, -1.24100577448323], a = 0.2, v = 0.2, t = 0.2)
movej(p[0.440827212367461, -0.103059740005231, 0.378196248567465, -1.19459511259992, 1.06900342973393, -1.24649434354488], a = 0.2, v = 0.2, t = 0.2)
movej(p[0.441561970632301, -0.10303539779241, 0.378234822463091, -1.19955803148859, 1.07205635676285, -1.24259341741899], a = 0.2, v = 0.2, t = 0.2)
movej(p[0.441978759702979, -0.103108355664241, 0.378262067016702, -1.19803052439331, 1.07629480242144, -1.24307686458993], a = 0.2, v = 0.2, t = 0.2)
movej(p[0.442437790677724, -0.103109377472438, 0.378162414617672, -1.20102845108855, 1.07818279092225, -1.24455433646205], a = 0.2, v = 0.2, t = 0.2)
movej(p[0.442758201109365, -0.103101170749657, 0.378054733106273, -1.20372383515875, 1.081519157711, -1.24265434355307], a = 0.2, v = 0.2, t = 0.2)
movej(p[0.443049806842339, -0.103235112669154, 0.378032931635247, -1.21194473922708, 1.08194213812935, -1.2443598162801], a = 0.2, v = 0.2, t = 0.2)
movej(p[0.443196549914723, -0.103553232418055, 0.378156033614222, -1.20660823998155, 1.08663745789201, -1.2348330960061], a = 0.2, v = 0.2, t = 0.2)
movej(p[0.44333018224001, -0.103659642220701, 0.378207997691085, -1.20788160047041, 1.08790812928512, -1.24381948174334], a = 0.2, v = 0.2, t = 0.2)
movej(p[0.443449555518173, -0.103611759743852, 0.378153502609917, -1.20996743665181, 1.08928783886187, -1.24313874351672], a = 0.2, v = 0.2, t = 0.2)
movej(p[0.44349747635531, -0.103639875140364, 0.378119076814762, -1.21072031605672, 1.08971575665845, -1.24054590276097], a = 0.2, v = 0.2, t = 0.2)
movej(p[0.443419685247838, -0.103957683610987, 0.378170905947439, -1.20361723162764, 1.09162484783244, -1.22663001775633], a = 0.2, v = 0.2, t = 0.2)
movej(p[0.443200509111781, -0.104155216425591, 0.378179131389295, -1.19176439173054, 1.09495205096373, -1.22720501150367], a = 0.2, v = 0.2, t = 0.2)
movej(p[0.443068439717282, -0.104081947867024, 0.378085204627516, -1.18702513800292, 1.09668534230628, -1.22831133972678], a = 0.2, v = 0.2, t = 0.2)
movej(p[0.44278248053671, -0.10398136778119, 0.378008849543991, -1.18227512773179, 1.09755047077562, -1.22771571740786], a = 0.2, v = 0.2, t = 0.2)
movej(p[0.442428474451826, -0.10403160879043, 0.378032829497189, -1.17839671984672, 1.09709689836564, -1.21895829569409], a = 0.2, v = 0.2, t = 0.2)
movej(p[0.441821169798313, -0.104238172627194, 0.378119535723396, -1.17672215961895, 1.09532402813328, -1.22228810321981], a = 0.2, v = 0.2, t = 0.2)
movej(p[0.441389025530846, -0.104127978456038, 0.37800656156379, -1.1733162847039, 1.09318849521633, -1.22567462350498], a = 0.2, v = 0.2, t = 0.2)
movej(p[0.440975096171841, -0.103893328256655, 0.377870670097365, -1.17572726339013, 1.08850338246451, -1.23082354398393], a = 0.2, v = 0.2, t = 0.2)
movej(p[0.44067517062732, -0.103738433993968, 0.377821034089323, -1.17712028372173, 1.08266971895566, -1.23228341836625], a = 0.2, v = 0.2, t = 0.2)
movej(p[0.440263041778302, -0.103756616316533, 0.37795898030331, -1.18785776637286, 1.07534198110331, -1.24791215368277], a = 0.2, v = 0.2, t = 0.2)
movej(p[0.440173250700622, -0.103611352374811, 0.378043799808758, -1.19225290277944, 1.07244132423666, -1.25455161191177], a = 0.2, v = 0.2, t = 0.2)
movej(p[0.44037606079022, -0.103339322301938, 0.378096254260522, -1.19854461136416, 1.06912445075477, -1.2585669628666], a = 0.2, v = 0.2, t = 0.2)
movej(p[0.440843777986807, -0.103124913632893, 0.378155555352883, -1.19876759473914, 1.0693513212568, -1.25057159382297], a = 0.2, v = 0.2, t = 0.2)
movej(p[0.44130756455286, -0.103148176790749, 0.378239107235781, -1.20062301567648, 1.06905452012351, -1.24776421211897], a = 0.2, v = 0.2, t = 0.2)
movej(p[0.44172252166262, -0.103174164654993, 0.378216996992193, -1.20014659200575, 1.07339752259398, -1.24868306919085], a = 0.2, v = 0.2, t = 0.2)
movej(p[0.442240711034466, -0.103120737063629, 0.37810887100833, -1.19884700795042, 1.07993834484403, -1.23885372693376], a = 0.2, v = 0.2, t = 0.2)
movej(p[0.442660052899258, -0.103156742145125, 0.378083055109354, -1.1974624050579, 1.0840565086674, -1.23125851588051], a = 0.2, v = 0.2, t = 0.2)
movej(p[0.442981097029523, -0.103398756705733, 0.378179516884559, -1.19532941985185, 1.0879400919256, -1.21984809772463], a = 0.2, v = 0.2, t = 0.2)
movej(p[0.443062623927516, -0.103629249855066, 0.378268765873842, -1.20002200464146, 1.08785781848869, -1.23064397246097], a = 0.2, v = 0.2, t = 0.2)
movej(p[0.443225135420145, -0.10367947749851, 0.378219923793363, -1.2022665455115, 1.09044692472381, -1.2296492090591], a = 0.2, v = 0.2, t = 0.2)
movej(p[0.443295972611987, -0.103676739991827, 0.378152539055787, -1.20308849474661, 1.0915959054834, -1.22818391204241], a = 0.2, v = 0.2, t = 0.2)
movej(p[0.443368536603296, -0.103827675851752, 0.378151844664687, -1.19926166629308, 1.09209753643799, -1.22002233866437], a = 0.2, v = 0.2, t = 0.2)
movej(p[0.443200940582458, -0.104080972005711, 0.378232868188517, -1.19235911613677, 1.09481137789125, -1.21777092321453], a = 0.2, v = 0.2, t = 0.2)
movej(p[0.44309923244125, -0.104105363454355, 0.378174875007496, -1.18802598197349, 1.09665840889224, -1.22241887937156], a = 0.2, v = 0.2, t = 0.2)
movej(p[0.442873562852248, -0.104020105091403, 0.378073137495379, -1.18452223528916, 1.09822615251023, -1.22004576556748], a = 0.2, v = 0.2, t = 0.2)
movej(p[0.44265318036618, -0.104034086434834, 0.378024331483757, -1.18528250088894, 1.09589635124187, -1.22189446874663], a = 0.2, v = 0.2, t = 0.2)
movej(p[0.442184631291927, -0.104217082657444, 0.378110638350961, -1.18122682302889, 1.09517164966222, -1.21763610544422], a = 0.2, v = 0.2, t = 0.2)
movej(p[0.441787391015509, -0.104183805133832, 0.378085771444968, -1.17939908875057, 1.09265483295695, -1.22937020228027], a = 0.2, v = 0.2, t = 0.2)
movej(p[0.441477353480862, -0.103902534093802, 0.377951351219054, -1.17842999587621, 1.09138161066717, -1.22875705623587], a = 0.2, v = 0.2, t = 0.2)
movej(p[0.441208559927507, -0.103711961527408, 0.377833687605066, -1.17679617867182, 1.08749843391242, -1.22881162020852], a = 0.2, v = 0.2, t = 0.2)
movej(p[0.440896676725678, -0.10378723175314, 0.377883442967104, -1.17582551108494, 1.08591171457126, -1.22238043175408], a = 0.2, v = 0.2, t = 0.2)
movej(p[0.440465570824184, -0.103834083447561, 0.377978507055437, -1.17542617878919, 1.08172159602623, -1.2318165086624], a = 0.2, v = 0.2, t = 0.2)
movej(p[0.440316257400331, -0.103608916520213, 0.377992310390908, -1.18031177424181, 1.07817245159191, -1.23351875930953], a = 0.2, v = 0.2, t = 0.2)
movej(p[0.44033698871649, -0.10341655218044, 0.378080947980078, -1.18219831856325, 1.07397759483196, -1.23396457787804], a = 0.2, v = 0.2, t = 0.2)
movej(p[0.440663296288419, -0.103346664713925, 0.378239623267146, -1.1841208900359, 1.07237002403983, -1.22805024196337], a = 0.2, v = 0.2, t = 0.2)
movej(p[0.441165738802115, -0.10348100817547, 0.37846437220308, -1.18486968822009, 1.07290292052169, -1.23335089898202], a = 0.2, v = 0.2, t = 0.2)
movej(p[0.441825570784639, -0.103406278033582, 0.378422402680758, -1.19107269440416, 1.07657032445304, -1.24084457454125], a = 0.2, v = 0.2, t = 0.2)
movej(p[0.442422371384923, -0.1033617512775, 0.37834490789927, -1.19636890414642, 1.08094875570905, -1.23525326236469], a = 0.2, v = 0.2, t = 0.2)
movej(p[0.44271814660223, -0.103557311851973, 0.378315708970553, -1.19986343397517, 1.08516294828313, -1.2282965110037], a = 0.2, v = 0.2, t = 0.2)
movej(p[0.442844421905729, -0.103916202655518, 0.378425422038402, -1.200373065203, 1.08800198674291, -1.22321037211629], a = 0.2, v = 0.2, t = 0.2)
movej(p[0.442872889505023, -0.104078511668101, 0.378425052816304, -1.19856902750895, 1.08962525471695, -1.22864255443291], a = 0.2, v = 0.2, t = 0.2)
movej(p[0.442964820806087, -0.104017667983633, 0.378376959523163, -1.19965813504956, 1.09175375656891, -1.22919310571968], a = 0.2, v = 0.2, t = 0.2)
movej(p[0.443039642927364, -0.104012246806869, 0.378371002781268, -1.19959138869855, 1.09247583018137, -1.2261712771418], a = 0.2, v = 0.2, t = 0.2)
movej(p[0.443053688106585, -0.104202323930156, 0.378458879020334, -1.19843334296789, 1.09377849638102, -1.22070610248949], a = 0.2, v = 0.2, t = 0.2)
movej(p[0.442864545638754, -0.104407034712009, 0.378477733644099, -1.19135474858188, 1.09499009269893, -1.22120159723045], a = 0.2, v = 0.2, t = 0.2)
movej(p[0.442696983265089, -0.104330778176571, 0.378335126577883, -1.185632714478, 1.09517782320816, -1.22301917826848], a = 0.2, v = 0.2, t = 0.2)
movej(p[0.442352613547838, -0.104286884783842, 0.378239582587936, -1.18307526039074, 1.09485471745369, -1.22805692030012], a = 0.2, v = 0.2, t = 0.2)
movej(p[0.441973123871539, -0.104322261979186, 0.378259453562544, -1.17994469941168, 1.09468380829077, -1.22531565672019], a = 0.2, v = 0.2, t = 0.2)
movej(p[0.44141835525219, -0.104374378715165, 0.378339128098108, -1.1842794835521, 1.09334882052755, -1.23984455317829], a = 0.2, v = 0.2, t = 0.2)
movej(p[0.441104654256443, -0.104121797040918, 0.378255571104373, -1.18094247916257, 1.09260414068473, -1.23725549999471], a = 0.2, v = 0.2, t = 0.2)
movej(p[0.440768213550079, -0.103797137660393, 0.378132790009071, -1.18156780122955, 1.08809746926572, -1.23867890188426], a = 0.2, v = 0.2, t = 0.2)
movej(p[0.440518329609502, -0.103620684489547, 0.378102916072853, -1.18141953535577, 1.08295448609199, -1.23232576389342], a = 0.2, v = 0.2, t = 0.2)
movej(p[0.440134149378172, -0.103680844597389, 0.378232797839394, -1.18474882647715, 1.07859351831499, -1.23332555825819], a = 0.2, v = 0.2, t = 0.2)
movej(p[0.439909219145297, -0.103618540463039, 0.378304745768278, -1.18630661759083, 1.07619291114545, -1.23688674431452], a = 0.2, v = 0.2, t = 0.2)
movej(p[0.439993339621592, -0.103399633606712, 0.378333586413937, -1.18936660971977, 1.07361685773388, -1.23692325416297], a = 0.2, v = 0.2, t = 0.2)
movej(p[0.440403163504163, -0.103263544440987, 0.378374824569217, -1.19107197992617, 1.0697986932839, -1.23780901796911], a = 0.2, v = 0.2, t = 0.2)
movej(p[0.441000952383197, -0.103296399620304, 0.37853910591764, -1.19324944829548, 1.06830198635942, -1.23643898733698], a = 0.2, v = 0.2, t = 0.2)
movej(p[0.441521758926999, -0.103332578212955, 0.378655132636418, -1.19463232710254, 1.07007152720737, -1.2443451641743], a = 0.2, v = 0.2, t = 0.2)
movej(p[0.442066511807181, -0.103251083167094, 0.378624630353979, -1.19828029588764, 1.07517861116363, -1.24129234357983], a = 0.2, v = 0.2, t = 0.2)
movej(p[0.442457814945227, -0.10322084929314, 0.378540813145407, -1.20251546737547, 1.07857984414626, -1.24040818290958], a = 0.2, v = 0.2, t = 0.2)
movej(p[0.442774637392463, -0.1033920881812, 0.378493621782849, -1.19835521538855, 1.08439388681972, -1.22299991775717], a = 0.2, v = 0.2, t = 0.2)
movej(p[0.442911071326841, -0.103623348066061, 0.378527485697661, -1.20020432476867, 1.08665692357477, -1.22489813991124], a = 0.2, v = 0.2, t = 0.2)
movej(p[0.44309005567789, -0.103664686732176, 0.378483156374045, -1.19758711918064, 1.0914736341391, -1.22087552753982], a = 0.2, v = 0.2, t = 0.2)
movej(p[0.443191614754836, -0.103620432024733, 0.378380969045319, -1.1982691548476, 1.09405457665614, -1.22065512564438], a = 0.2, v = 0.2, t = 0.2)
movej(p[0.443306710545581, -0.103731826761032, 0.378328929004324, -1.19767271535451, 1.09606795331958, -1.21512216636831], a = 0.2, v = 0.2, t = 0.2)
movej(p[0.443246159296139, -0.104009648863978, 0.378370023340121, -1.19817466839251, 1.09561984853196, -1.21837894757975], a = 0.2, v = 0.2, t = 0.2)
movej(p[0.44312884096808, -0.104147258522058, 0.37833535074517, -1.19691485506275, 1.0956240872885, -1.22524890051299], a = 0.2, v = 0.2, t = 0.2)
movej(p[0.442896632102443, -0.104089995541277, 0.378222994935674, -1.19115556083321, 1.0964279678161, -1.22188727522911], a = 0.2, v = 0.2, t = 0.2)
movej(p[0.442497831514493, -0.104130718887634, 0.378129654098352, -1.18977734424791, 1.09555699819771, -1.22567540915205], a = 0.2, v = 0.2, t = 0.2)
movej(p[0.441905586972988, -0.104242350404895, 0.378161724627072, -1.18269987604281, 1.09525981672071, -1.2181034435654], a = 0.2, v = 0.2, t = 0.2)
movej(p[0.441159824265993, -0.104248400028761, 0.378196364387564, -1.1846150026348, 1.09021746186563, -1.23712659635435], a = 0.2, v = 0.2, t = 0.2)
movej(p[0.440693240818297, -0.103927138565155, 0.378090132324955, -1.18255005844936, 1.08619661696663, -1.2364855750291], a = 0.2, v = 0.2, t = 0.2)
movej(p[0.440269667905497, -0.103576822268341, 0.377962632586611, -1.18547430485722, 1.07809329914213, -1.24278208182514], a = 0.2, v = 0.2, t = 0.2)
movej(p[0.439962407890172, -0.10346602508856, 0.377937481214182, -1.18033926481513, 1.07375381188627, -1.23085231451084], a = 0.2, v = 0.2, t = 0.2)
movej(p[0.439512266289467, -0.103504832693459, 0.378042739858088, -1.18084385554672, 1.0682315819553, -1.23619628660236], a = 0.2, v = 0.2, t = 0.2)
movej(p[0.439486868358507, -0.1034089500868, 0.378101507922061, -1.18584177347353, 1.06421919622157, -1.24167293190139], a = 0.2, v = 0.2, t = 0.2)
movej(p[0.439754490290733, -0.103200550987539, 0.378145098500385, -1.1946042031509, 1.06018175758528, -1.24924008368283], a = 0.2, v = 0.2, t = 0.2)
movej(p[0.440401395508386, -0.103083240722206, 0.378230471736946, -1.19996118582908, 1.05879681412306, -1.2505267189552], a = 0.2, v = 0.2, t = 0.2)
movej(p[0.441087243654431, -0.103127033818842, 0.37834803631768, -1.19871783129543, 1.06410224620913, -1.24614589127279], a = 0.2, v = 0.2, t = 0.2)
movej(p[0.441784071518652, -0.103124409039881, 0.378345602997058, -1.19803952868173, 1.07145636613287, -1.24782717386812], a = 0.2, v = 0.2, t = 0.2)
movej(p[0.442390108283593, -0.103078214388865, 0.378295381974989, -1.2045738501575, 1.07869969601596, -1.24391606628254], a = 0.2, v = 0.2, t = 0.2)
movej(p[0.442863592656999, -0.103169707428035, 0.378286422760562, -1.21007590686839, 1.08128670851594, -1.24148965374425], a = 0.2, v = 0.2, t = 0.2)
movej(p[0.443201865643204, -0.103505132022088, 0.37842189645029, -1.20935448908988, 1.08568212454788, -1.22623782767787], a = 0.2, v = 0.2, t = 0.2)
movej(p[0.443292303538758, -0.103706046570935, 0.378453215887791, -1.20603743307371, 1.08860500498876, -1.229269133638], a = 0.2, v = 0.2, t = 0.2)
movej(p[0.443439690352805, -0.103715171942785, 0.378375578438228, -1.21170009487439, 1.09033588895071, -1.23295369754495], a = 0.2, v = 0.2, t = 0.2)
movej(p[0.443434130293017, -0.103719871275667, 0.378294145841256, -1.21135814952365, 1.09174227233826, -1.23247766245153], a = 0.2, v = 0.2, t = 0.2)
movej(p[0.44340078082456, -0.103895499803021, 0.378323177937665, -1.20870293524548, 1.09276630589943, -1.22290574626925], a = 0.2, v = 0.2, t = 0.2)
movej(p[0.443081714892854, -0.104154188759064, 0.378378955176055, -1.19801159101793, 1.09470735301129, -1.22206386939158], a = 0.2, v = 0.2, t = 0.2)
movej(p[0.442873324533721, -0.104097689184115, 0.378249349656317, -1.19590458829563, 1.09274274862785, -1.23016413549298], a = 0.2, v = 0.2, t = 0.2)
movej(p[0.442500208269437, -0.104030831754657, 0.378101706107343, -1.19424185349904, 1.09088517522443, -1.23737190576843], a = 0.2, v = 0.2, t = 0.2)
movej(p[0.442137882060786, -0.104034646778507, 0.378043149841091, -1.18966278753015, 1.08876926886564, -1.23229122083352], a = 0.2, v = 0.2, t = 0.2)
movej(p[0.441583985155441, -0.104182781190544, 0.378134734813217, -1.18642946758757, 1.08874815005117, -1.23307265002573], a = 0.2, v = 0.2, t = 0.2)
movej(p[0.441210640539724, -0.104030933989242, 0.378094105539634, -1.18505498451682, 1.08761870152218, -1.23931038282373], a = 0.2, v = 0.2, t = 0.2)
movej(p[0.440922062563976, -0.103722980241182, 0.377964881022343, -1.18586780848167, 1.08425579782006, -1.24193021445014], a = 0.2, v = 0.2, t = 0.2)
movej(p[0.440727759132867, -0.103577463221962, 0.377861822938833, -1.18489447961804, 1.07962316796751, -1.23910514296932], a = 0.2, v = 0.2, t = 0.2)
movej(p[0.440337926956515, -0.103665645353935, 0.377932185681684, -1.18591123165231, 1.07424878823265, -1.23747708424656], a = 0.2, v = 0.2, t = 0.2)
movej(p[0.4400855563796, -0.103692939293492, 0.37805735295085, -1.188000651148, 1.0688844669387, -1.2435562660926], a = 0.2, v = 0.2, t = 0.2)
movej(p[0.440262776831517, -0.103532918075385, 0.378149495075731, -1.19516427484658, 1.06608590713837, -1.24660582413979], a = 0.2, v = 0.2, t = 0.2)
movej(p[0.440881234920762, -0.103377189161944, 0.378229917114165, -1.19898141064306, 1.06426249208871, -1.24525971379038], a = 0.2, v = 0.2, t = 0.2)
movej(p[0.441658608846802, -0.103434227742892, 0.378317705145223, -1.19936749613445, 1.06834661642925, -1.23539905138442], a = 0.2, v = 0.2, t = 0.2)
movej(p[0.442226124326111, -0.103527475879792, 0.378391892426541, -1.20012463736547, 1.07305907282398, -1.23831407469682], a = 0.2, v = 0.2, t = 0.2)
movej(p[0.442767129627244, -0.103546405570973, 0.378369168469196, -1.19998915879573, 1.07958922890751, -1.2318767321035], a = 0.2, v = 0.2, t = 0.2)
movej(p[0.443091742470737, -0.103569270972891, 0.378348369448585, -1.20274988611706, 1.08439818915501, -1.22970704929937], a = 0.2, v = 0.2, t = 0.2)
movej(p[0.443310392646613, -0.103761281638846, 0.378391433958767, -1.1994138432015, 1.09022079490535, -1.21565942015439], a = 0.2, v = 0.2, t = 0.2)
movej(p[0.443297597571531, -0.103994073706043, 0.378493566343484, -1.20045121350779, 1.09456062566614, -1.21881579924519], a = 0.2, v = 0.2, t = 0.2)
movej(p[0.443332229991061, -0.104022212179415, 0.378464660897046, -1.20099980920569, 1.09789338415675, -1.22055358683156], a = 0.2, v = 0.2, t = 0.2)
movej(p[0.443252790981463, -0.103940655619773, 0.378308443652693, -1.1980520234935, 1.09835671117848, -1.2180728959249], a = 0.2, v = 0.2, t = 0.2)
movej(p[0.442942962442641, -0.104040894490974, 0.378193281569385, -1.19680282050925, 1.09619986324276, -1.21898348933673], a = 0.2, v = 0.2, t = 0.2)
movej(p[0.442318192243774, -0.104283179542099, 0.378178396596809, -1.18858111530649, 1.09415241674465, -1.21656013610273], a = 0.2, v = 0.2, t = 0.2)
movej(p[0.441532896040346, -0.104375783553402, 0.378168528523436, -1.1866413628499, 1.09121665183521, -1.23361393605888], a = 0.2, v = 0.2, t = 0.2)
movej(p[0.441013311954954, -0.104041818543522, 0.377991300146239, -1.18318342300997, 1.0884406646112, -1.23468523069279], a = 0.2, v = 0.2, t = 0.2)
movej(p[0.440588284934474, -0.103733252527093, 0.377849196649215, -1.18376971040728, 1.08435908515879, -1.23986910296148], a = 0.2, v = 0.2, t = 0.2)
movej(p[0.440252998677815, -0.103604815413915, 0.377851270137601, -1.18212676280017, 1.08076682806103, -1.23162373466637], a = 0.2, v = 0.2, t = 0.2)
movej(p[0.439856666588144, -0.103612442642736, 0.377962972722072, -1.18546607793092, 1.07597478018225, -1.24233720121869], a = 0.2, v = 0.2, t = 0.2)
movej(p[0.439727543154359, -0.103358621432846, 0.377921273370067, -1.18374124601885, 1.07224189035185, -1.24117277519773], a = 0.2, v = 0.2, t = 0.2)
movej(p[0.439685273890559, -0.103088297894576, 0.377918177567311, -1.19227999965153, 1.06402756806936, -1.24896951228333], a = 0.2, v = 0.2, t = 0.2)
movej(p[0.439811121351366, -0.103030952951957, 0.377975954914641, -1.19341718585921, 1.05818001281893, -1.24459068662091], a = 0.2, v = 0.2, t = 0.2)
movej(p[0.43984902911725, -0.103251551687101, 0.378168017545412, -1.2003335187608, 1.05322755229632, -1.24944713551818], a = 0.2, v = 0.2, t = 0.2)
movej(p[0.440124331814049, -0.103293957113813, 0.37816698346568, -1.19898143751006, 1.05614463703346, -1.2523193092951], a = 0.2, v = 0.2, t = 0.2)
movej(p[0.440674003181823, -0.103101953889066, 0.378085735403327, -1.20241724934811, 1.06044940983046, -1.25388836278581], a = 0.2, v = 0.2, t = 0.2)
movej(p[0.441415282439333, -0.102951237461859, 0.378072156822573, -1.20465943539899, 1.06342645072142, -1.25259209958212], a = 0.2, v = 0.2, t = 0.2)
movej(p[0.4420299738824, -0.103061494202728, 0.378185671782878, -1.20364231972898, 1.06686907231493, -1.24394636695824], a = 0.2, v = 0.2, t = 0.2)
movej(p[0.442404994030571, -0.103194822352148, 0.378259240205029, -1.20656962819427, 1.06919291504149, -1.25020029406433], a = 0.2, v = 0.2, t = 0.2)
movej(p[0.442739507638054, -0.103198320379966, 0.378199211775845, -1.2050447920617, 1.07435494566742, -1.24193639660582], a = 0.2, v = 0.2, t = 0.2)
movej(p[0.442960593627865, -0.103214688453784, 0.378149056237079, -1.2075227518015, 1.0773303096201, -1.24313796332086], a = 0.2, v = 0.2, t = 0.2)
movej(p[0.443143321879222, -0.103401002983567, 0.378183133607527, -1.20054280376549, 1.08233567413622, -1.22911995185381], a = 0.2, v = 0.2, t = 0.2)
movej(p[0.443132764616285, -0.103597033246858, 0.378230841153149, -1.19955701000427, 1.08507187962925, -1.23458416469282], a = 0.2, v = 0.2, t = 0.2)
movej(p[0.443113027161563, -0.103626173578828, 0.378107956623937, -1.19928998641952, 1.08654821731749, -1.23901233427836], a = 0.2, v = 0.2, t = 0.2)
movej(p[0.442933036694417, -0.103617384820277, 0.377914771172186, -1.19774819201575, 1.08505505538602, -1.24009957423568], a = 0.2, v = 0.2, t = 0.2)
movej(p[0.442744493025407, -0.103764420692153, 0.377809037900226, -1.19327071280184, 1.08367934425605, -1.2339031391581], a = 0.2, v = 0.2, t = 0.2)
movej(p[0.442414667658689, -0.104035870686464, 0.377890054950769, -1.18601623876246, 1.08545333983857, -1.2249662813231], a = 0.2, v = 0.2, t = 0.2)
movej(p[0.442179675018048, -0.10404783358659, 0.377913691607996, -1.18542432829239, 1.0854383509621, -1.23593359988122], a = 0.2, v = 0.2, t = 0.2)
movej(p[0.441974750767677, -0.103828133842508, 0.377824719491096, -1.18690356078301, 1.08695801868698, -1.23810924145986], a = 0.2, v = 0.2, t = 0.2)
movej(p[0.441766985497174, -0.103680202315981, 0.377753650428509, -1.18923230895831, 1.0832344661555, -1.24659510703428], a = 0.2, v = 0.2, t = 0.2)
movej(p[0.44140539274616, -0.103708317612055, 0.377762447845228, -1.18373814089905, 1.08287932629747, -1.23475677037902], a = 0.2, v = 0.2, t = 0.2)
movej(p[0.440840638035616, -0.103694812595805, 0.377823587599512, -1.18614486976721, 1.07768806494817, -1.25290844058066], a = 0.2, v = 0.2, t = 0.2)
movej(p[0.440554767542642, -0.103385673671662, 0.377744475670407, -1.18613987008756, 1.07460652725141, -1.2547494494199], a = 0.2, v = 0.2, t = 0.2)
movej(p[0.440451452395661, -0.103011501076164, 0.37771796692124, -1.19356786036492, 1.06872838769352, -1.26408110365719], a = 0.2, v = 0.2, t = 0.2)
movej(p[0.440775641204759, -0.102895126934554, 0.377816502730568, -1.19398684848842, 1.06701478550008, -1.25392301985912], a = 0.2, v = 0.2, t = 0.2)
movej(p[0.441115359374141, -0.102980814885805, 0.378052851738822, -1.20548344382681, 1.06414197594579, -1.26347926063879], a = 0.2, v = 0.2, t = 0.2)
movej(p[0.441612481790694, -0.102983675571658, 0.378113265378319, -1.20739597321939, 1.066760274496, -1.26458336103875], a = 0.2, v = 0.2, t = 0.2)
movej(p[0.442063731077086, -0.10287989483844, 0.378039514194305, -1.21082194238834, 1.06908076778264, -1.26283284975988], a = 0.2, v = 0.2, t = 0.2)
movej(p[0.442425642291767, -0.102948016602601, 0.377974038470286, -1.2071633163642, 1.07377632916667, -1.25240349569496], a = 0.2, v = 0.2, t = 0.2)
movej(p[0.442601107878103, -0.103216144163323, 0.378052140319769, -1.20913424737773, 1.07704017999084, -1.24624855828252], a = 0.2, v = 0.2, t = 0.2)
movej(p[0.442575704778964, -0.103507430562433, 0.378128270570969, -1.2104712943567, 1.07940633351693, -1.25177080008867], a = 0.2, v = 0.2, t = 0.2)
movej(p[0.442725033345421, -0.103535149181295, 0.378097141748178, -1.20914757509934, 1.08297648390747, -1.24742963069581], a = 0.2, v = 0.2, t = 0.2)
movej(p[0.442905916765232, -0.103568449689872, 0.378072370695197, -1.20677924797372, 1.08509927397778, -1.24214911219014], a = 0.2, v = 0.2, t = 0.2)
movej(p[0.443147999828393, -0.103702988082616, 0.378137313922432, -1.20072939774229, 1.0890019962027, -1.22572718277284], a = 0.2, v = 0.2, t = 0.2)
movej(p[0.443239549957794, -0.103953427082072, 0.378285497244086, -1.19813598665451, 1.09149845210802, -1.22405963045306], a = 0.2, v = 0.2, t = 0.2)
movej(p[0.443342892383706, -0.103939094610305, 0.378238340886247, -1.19665849304932, 1.09258769116767, -1.22706812356517], a = 0.2, v = 0.2, t = 0.2)
movej(p[0.443272586781972, -0.103908152192068, 0.378089776513941, -1.19852482858648, 1.09132986335536, -1.232044630417], a = 0.2, v = 0.2, t = 0.2)
movej(p[0.443001175282939, -0.10401804396679, 0.377985221687935, -1.19658844908354, 1.08900639257715, -1.23174835220999], a = 0.2, v = 0.2, t = 0.2)
movej(p[0.44257536337349, -0.104344658316386, 0.378041385891926, -1.19300790529626, 1.09029096080936, -1.22653774043515], a = 0.2, v = 0.2, t = 0.2)
movej(p[0.442162878601379, -0.104456658203018, 0.378048174763034, -1.18851189977587, 1.09109374406236, -1.23397093828164], a = 0.2, v = 0.2, t = 0.2)
movej(p[0.441936930009975, -0.10425511953004, 0.377902422193463, -1.18549215887333, 1.09307443767688, -1.23006821150503], a = 0.2, v = 0.2, t = 0.2)
movej(p[0.441630672975027, -0.104076311853015, 0.377765862241495, -1.18470299548762, 1.08854771695461, -1.23398895892397], a = 0.2, v = 0.2, t = 0.2)
movej(p[0.441037891049453, -0.104006884967727, 0.377756737587429, -1.1854409975561, 1.08358801877222, -1.23203397956083], a = 0.2, v = 0.2, t = 0.2)
movej(p[0.440075972789812, -0.103977721869969, 0.377878327357242, -1.18982380378336, 1.0733497234951, -1.2528615393878], a = 0.2, v = 0.2, t = 0.2)
movej(p[0.439569856580861, -0.103582073862479, 0.377875926475694, -1.19405681495276, 1.06557221438257, -1.26030736720886], a = 0.2, v = 0.2, t = 0.2)
movej(p[0.439569231597097, -0.10319936795257, 0.377916277976479, -1.19927361109039, 1.05744750768393, -1.26286895123095], a = 0.2, v = 0.2, t = 0.2)
movej(p[0.440192467601273, -0.10300312829617, 0.377998648920717, -1.2010415606009, 1.05580890326871, -1.25326147263987], a = 0.2, v = 0.2, t = 0.2)
movej(p[0.440840077596855, -0.103060626187883, 0.378151520005528, -1.20587078904273, 1.05719184731904, -1.25410979705791], a = 0.2, v = 0.2, t = 0.2)
movej(p[0.441476747394117, -0.103048793815201, 0.378138717263197, -1.20142502170006, 1.06413507372137, -1.24778384885061], a = 0.2, v = 0.2, t = 0.2)
movej(p[0.442037233752763, -0.103007223643896, 0.378053446663758, -1.20149086911972, 1.07078096604153, -1.24130506154779], a = 0.2, v = 0.2, t = 0.2)
movej(p[0.44248163597719, -0.103108981987558, 0.378021886072505, -1.1981723395822, 1.076110618219, -1.22955999896257], a = 0.2, v = 0.2, t = 0.2)
movej(p[0.442808089425078, -0.103392665351628, 0.378155079754834, -1.19606950933099, 1.0811631545994, -1.21755934032277], a = 0.2, v = 0.2, t = 0.2)
movej(p[0.442987346602102, -0.103605436086288, 0.378245640518731, -1.19526699280848, 1.08355557022239, -1.21920909244422], a = 0.2, v = 0.2, t = 0.2)
movej(p[0.443233364786226, -0.103592589454669, 0.378223916715279, -1.19606321967628, 1.08684734413873, -1.21938270952846], a = 0.2, v = 0.2, t = 0.2)
movej(p[0.443360876635229, -0.103648110851492, 0.378158630152131, -1.19830571773206, 1.08682154205764, -1.22016774009814], a = 0.2, v = 0.2, t = 0.2)
movej(p[0.443455374649589, -0.103829800331644, 0.378190845144188, -1.19470957199971, 1.09065657401788, -1.20858831482813], a = 0.2, v = 0.2, t = 0.2)
movej(p[0.443378193795298, -0.104069323178498, 0.378301274153809, -1.19591601626978, 1.09151045319954, -1.21328461490981], a = 0.2, v = 0.2, t = 0.2)
movej(p[0.443395977544494, -0.104066747958525, 0.378238420210364, -1.1913005626932, 1.09439546929485, -1.21166747487865], a = 0.2, v = 0.2, t = 0.2)
movej(p[0.443248925887188, -0.104051754767047, 0.378148527811948, -1.19268757585659, 1.09353018592837, -1.21829990715922], a = 0.2, v = 0.2, t = 0.2)
movej(p[0.442950869013203, -0.104221015515268, 0.378099068034533, -1.18385539860244, 1.0942057081685, -1.20678597014521], a = 0.2, v = 0.2, t = 0.2)
movej(p[0.442428323507505, -0.104554235681761, 0.378219117801367, -1.18288789998254, 1.09420590049202, -1.20792767709363], a = 0.2, v = 0.2, t = 0.2)
movej(p[0.442001641118389, -0.104564856587547, 0.378193590216699, -1.17940168979646, 1.09361300013712, -1.21600924596397], a = 0.2, v = 0.2, t = 0.2)
movej(p[0.441646923303364, -0.10433315763882, 0.378070519563159, -1.18128789529168, 1.09126829045668, -1.22266309774681], a = 0.2, v = 0.2, t = 0.2)
movej(p[0.441380233731592, -0.104159529923139, 0.378004990293703, -1.180410111259, 1.08678184511046, -1.22680992574305], a = 0.2, v = 0.2, t = 0.2)
movej(p[0.441010218032275, -0.104199802278856, 0.378113207625141, -1.17962999821094, 1.08429668084502, -1.22080677487163], a = 0.2, v = 0.2, t = 0.2)
movej(p[0.440717421425542, -0.104177984120766, 0.378170016058172, -1.17898151926694, 1.08242520411641, -1.23090539125525], a = 0.2, v = 0.2, t = 0.2)
movej(p[0.440691080132782, -0.10385779526138, 0.378066618687983, -1.1821275832481, 1.08165124611029, -1.23052772420586], a = 0.2, v = 0.2, t = 0.2)
movej(p[0.440726668683694, -0.103614481172756, 0.377971659731574, -1.18568621781789, 1.07678404691613, -1.23535115453619], a = 0.2, v = 0.2, t = 0.2)
movej(p[0.440956163359227, -0.103566150569544, 0.378001456102072, -1.18343242619137, 1.07598851351199, -1.22156212146932], a = 0.2, v = 0.2, t = 0.2)
movej(p[0.441209579414956, -0.103597806762916, 0.378120487486672, -1.18505977053888, 1.07551892234195, -1.226871167113], a = 0.2, v = 0.2, t = 0.2)
movej(p[0.441751433362317, -0.103447249286724, 0.378125806376818, -1.18913132688841, 1.07886549243702, -1.22816716524452], a = 0.2, v = 0.2, t = 0.2)
movej(p[0.442219825182442, -0.103272672673749, 0.378061811767338, -1.19882620280028, 1.08123843818833, -1.23456740274151], a = 0.2, v = 0.2, t = 0.2)
movej(p[0.442602050787094, -0.103355956164185, 0.378068619459235, -1.20121137761446, 1.0829963093194, -1.23061202900615], a = 0.2, v = 0.2, t = 0.2)
movej(p[0.442771425600064, -0.103601783570298, 0.378169883057015, -1.2044460003665, 1.08350568489766, -1.23357527345383], a = 0.2, v = 0.2, t = 0.2)
movej(p[0.442908763408179, -0.103698263437887, 0.378216853517273, -1.20444775427367, 1.08392714945901, -1.23973554878691], a = 0.2, v = 0.2, t = 0.2)
movej(p[0.443065866691496, -0.103623872970901, 0.37817055903779, -1.2053655075539, 1.08546166074116, -1.23848243641877], a = 0.2, v = 0.2, t = 0.2)
movej(p[0.443247295095899, -0.103664816781699, 0.378106439742206, -1.20325614193767, 1.08816466646487, -1.23513539577828], a = 0.2, v = 0.2, t = 0.2)
movej(p[0.443408447343017, -0.103782945107378, 0.37816297182797, -1.18782575666619, 1.09511328907941, -1.20740322936591], a = 0.2, v = 0.2, t = 0.2)
movej(p[0.443271091770351, -0.104029214853719, 0.3782491962282, -1.1927980341976, 1.09806423970265, -1.21911125839942], a = 0.2, v = 0.2, t = 0.2)
movej(p[0.443260808836709, -0.103966928095295, 0.378192898700716, -1.19158638248979, 1.10236331320297, -1.21195907392936], a = 0.2, v = 0.2, t = 0.2)
movej(p[0.443060450063712, -0.103991864952446, 0.378112579879588, -1.20041924922175, 1.09861222031413, -1.22514140291472], a = 0.2, v = 0.2, t = 0.2)
movej(p[0.442993638836154, -0.104147853100076, 0.378106537830247, -1.18809719376669, 1.09980470841967, -1.20112339537062], a = 0.2, v = 0.2, t = 0.2)
movej(p[0.442717811454074, -0.104359021944179, 0.378214664313937, -1.18736421556791, 1.09865209677272, -1.20692980035456], a = 0.2, v = 0.2, t = 0.2)
movej(p[0.442335413592639, -0.104427671881364, 0.378224043839191, -1.18643777220381, 1.09853270282084, -1.19732844406352], a = 0.2, v = 0.2, t = 0.2)
movej(p[0.442063426070252, -0.104432192798391, 0.378136817690156, -1.18750587585085, 1.09769543393104, -1.21225344802048], a = 0.2, v = 0.2, t = 0.2)
movej(p[0.441952416905047, -0.104224541716632, 0.378129876949202, -1.17381677571189, 1.10074628398714, -1.19585580626319], a = 0.2, v = 0.2, t = 0.2)
movej(p[0.441660898022354, -0.104602171744532, 0.378179476122196, -1.17445081842967, 1.0992726713322, -1.20332986673549], a = 0.2, v = 0.2, t = 0.2)
movej(p[0.441240057572122, -0.104391859702792, 0.378221936925856, -1.17512663423425, 1.09799287904731, -1.21461611886491], a = 0.2, v = 0.2, t = 0.2)
movej(p[0.440645053826715, -0.10428649298304, 0.378091544825558, -1.18760688558365, 1.08730044756597, -1.22937186012022], a = 0.2, v = 0.2, t = 0.2)
movej(p[0.440186249603994, -0.103893880501716, 0.377983462404772, -1.19020259298788, 1.07970497400066, -1.24234599298998], a = 0.2, v = 0.2, t = 0.2)
movej(p[0.439880832904404, -0.103779497706589, 0.377961086509003, -1.18575465608914, 1.07266851334619, -1.23132366092931], a = 0.2, v = 0.2, t = 0.2)
movej(p[0.439805939425077, -0.103793367439745, 0.378058294217835, -1.18986667806792, 1.06893995906419, -1.24681980284742], a = 0.2, v = 0.2, t = 0.2)
movej(p[0.44028615091116, -0.103560085538902, 0.378089513863449, -1.1921501355851, 1.07031032679345, -1.24284752842886], a = 0.2, v = 0.2, t = 0.2)
movej(p[0.441076541487676, -0.103365531520238, 0.378127151250134, -1.2014018925841, 1.07177714216367, -1.24690230543528], a = 0.2, v = 0.2, t = 0.2)
movej(p[0.441934610736625, -0.103348913243582, 0.378238079797363, -1.20068329164376, 1.07696393376087, -1.23039213725368], a = 0.2, v = 0.2, t = 0.2)
movej(p[0.442542753528063, -0.103519671488044, 0.378395548837396, -1.20328053354178, 1.08266388869388, -1.22744642175826], a = 0.2, v = 0.2, t = 0.2)
movej(p[0.443068684347895, -0.10358353005997, 0.378505910947142, -1.20543164210503, 1.09082117193686, -1.22219011700025], a = 0.2, v = 0.2, t = 0.2)
movej(p[0.443340659320995, -0.103599980445225, 0.378646808769507, -1.20685906606164, 1.09722704680878, -1.21478230210714], a = 0.2, v = 0.2, t = 0.2)
movej(p[0.443494485931552, -0.103735518628806, 0.378840264428578, -1.20666308423393, 1.09964997134573, -1.21066917373975], a = 0.2, v = 0.2, t = 0.2)
movej(p[0.443471075303048, -0.104031982556882, 0.379075943986509, -1.19815351798097, 1.1021428134386, -1.20134362742927], a = 0.2, v = 0.2, t = 0.2)
movej(p[0.44341769229915, -0.104149649771501, 0.379106962590582, -1.19748293491397, 1.10293721304732, -1.21252971939082], a = 0.2, v = 0.2, t = 0.2)
movej(p[0.443266394610426, -0.10406102239032, 0.37891913931489, -1.19517119192387, 1.10502489496307, -1.21041167780415], a = 0.2, v = 0.2, t = 0.2)
movej(p[0.442854250099728, -0.10407399117714, 0.378782901535363, -1.19261282871918, 1.10305424835002, -1.21512314837429], a = 0.2, v = 0.2, t = 0.2)
movej(p[0.442247281385615, -0.104293282406645, 0.378752334544172, -1.18174305909545, 1.1014345546734, -1.20627307654883], a = 0.2, v = 0.2, t = 0.2)
movej(p[0.441573649755046, -0.104371433290569, 0.378776986836923, -1.17744194154441, 1.09658565958483, -1.21994868461751], a = 0.2, v = 0.2, t = 0.2)
movej(p[0.441148004289646, -0.104135426476324, 0.378690284460864, -1.1836015544008, 1.09002383268236, -1.23250221977847], a = 0.2, v = 0.2, t = 0.2)
movej(p[0.440733072593018, -0.103826090861983, 0.378574515078147, -1.18289067118881, 1.08354114053652, -1.2347236485104], a = 0.2, v = 0.2, t = 0.2)
movej(p[0.440373303636483, -0.103693651066229, 0.378569027463442, -1.17901616284211, 1.0785294979345, -1.22704423562567], a = 0.2, v = 0.2, t = 0.2)
movej(p[0.439896045867277, -0.10372482557337, 0.378634182930112, -1.1716968221661, 1.07533482455492, -1.222656824851], a = 0.2, v = 0.2, t = 0.2)
movej(p[0.439705371122315, -0.103476493843595, 0.378577637322672, -1.17365296985343, 1.07167726609956, -1.22933182982136], a = 0.2, v = 0.2, t = 0.2)
movej(p[0.43962021122123, -0.103172597402916, 0.378521480462094, -1.18435230006313, 1.06607311022515, -1.23797757372576], a = 0.2, v = 0.2, t = 0.2)
movej(p[0.43973357113165, -0.102999740494865, 0.378654669516255, -1.19563214633362, 1.06000141000918, -1.2456145821275], a = 0.2, v = 0.2, t = 0.2)
movej(p[0.440007975184556, -0.103032140747948, 0.378918815429245, -1.20233359593432, 1.05760284342355, -1.24779908225562], a = 0.2, v = 0.2, t = 0.2)
movej(p[0.44050997213019, -0.102941279452866, 0.379005467091838, -1.20197698401131, 1.05973870615462, -1.25138380173246], a = 0.2, v = 0.2, t = 0.2)
movej(p[0.441210044425474, -0.102746614325281, 0.378860665727624, -1.20704112987348, 1.06299076833588, -1.25276481798712], a = 0.2, v = 0.2, t = 0.2)
movej(p[0.441707797829302, -0.102725228339374, 0.378686691286444, -1.20708606659582, 1.06659814600561, -1.24767007745201], a = 0.2, v = 0.2, t = 0.2)
movej(p[0.442050456942215, -0.102983395102082, 0.378670720567269, -1.20817859556033, 1.07160130379776, -1.23762715202525], a = 0.2, v = 0.2, t = 0.2)
movej(p[0.442190170572229, -0.103268021315132, 0.378739190278332, -1.19965861918284, 1.07866756775594, -1.22844606530292], a = 0.2, v = 0.2, t = 0.2)
movej(p[0.442499138827097, -0.103356006462253, 0.378722076799127, -1.20935942720256, 1.08279702644161, -1.23640733235125], a = 0.2, v = 0.2, t = 0.2)
movej(p[0.442649736647369, -0.103458914774, 0.378724301119795, -1.21180264608589, 1.08314593838576, -1.23971699849004], a = 0.2, v = 0.2, t = 0.2)
movej(p[0.442893324977012, -0.10362517017701, 0.3787379024183, -1.21332636382283, 1.083394927436, -1.23523205773559], a = 0.2, v = 0.2, t = 0.2)
movej(p[0.44307077554928, -0.103850549155704, 0.378818088882479, -1.20074122679152, 1.08781460098044, -1.2241457575738], a = 0.2, v = 0.2, t = 0.2)
movej(p[0.443474241324692, -0.103807120258781, 0.378781424138282, -1.19852133003434, 1.09064850972268, -1.22575109291458], a = 0.2, v = 0.2, t = 0.2)
movej(p[0.44380187703142, -0.103730351025248, 0.378701772817203, -1.20074859052869, 1.0919015331628, -1.2280033012422], a = 0.2, v = 0.2, t = 0.2)
movej(p[0.444258177315354, -0.103794556028661, 0.378695114282087, -1.19903522038667, 1.09078708808429, -1.22442048520966], a = 0.2, v = 0.2, t = 0.2)
movej(p[0.44457055847194, -0.104116241556405, 0.378862335418745, -1.18976694390636, 1.09403886071981, -1.20941568863063], a = 0.2, v = 0.2, t = 0.2)
movej(p[0.444727885198998, -0.104176500282775, 0.378905151113873, -1.17918979212891, 1.09546511319872, -1.21216661068722], a = 0.2, v = 0.2, t = 0.2)
movej(p[0.444633567495807, -0.103979014029661, 0.378849093465906, -1.18631073868338, 1.0935546912699, -1.22733725420005], a = 0.2, v = 0.2, t = 0.2)
movej(p[0.444157601235937, -0.103756445286432, 0.378702126020236, -1.19009696945609, 1.08747010088025, -1.24110435690671], a = 0.2, v = 0.2, t = 0.2)
movej(p[0.443635979680704, -0.103742811387599, 0.378696790762868, -1.19197463875951, 1.08388818156782, -1.24050974012318], a = 0.2, v = 0.2, t = 0.2)
movej(p[0.443005383414316, -0.103753405329395, 0.378717059659207, -1.18377866232867, 1.08142996592112, -1.23906110487145], a = 0.2, v = 0.2, t = 0.2)
movej(p[0.442710836755028, -0.103435812332289, 0.37860263846474, -1.18928838642335, 1.07631041372898, -1.24683737103136], a = 0.2, v = 0.2, t = 0.2)
movej(p[0.442423822014308, -0.103120752155118, 0.378477812699264, -1.19047209039574, 1.07015649337318, -1.24484738908511], a = 0.2, v = 0.2, t = 0.2)
movej(p[0.442329417506445, -0.102963676045814, 0.378515717275532, -1.19370540254122, 1.06432778179703, -1.24150239690782], a = 0.2, v = 0.2, t = 0.2)
movej(p[0.442305622018414, -0.103075692811772, 0.378781882566505, -1.1900377261398, 1.06301568074954, -1.23633669190581], a = 0.2, v = 0.2, t = 0.2)
movej(p[0.442729268069549, -0.102981486535901, 0.378945262848497, -1.19321774811717, 1.06249564558662, -1.24654049105964], a = 0.2, v = 0.2, t = 0.2)
movej(p[0.444165698896969, -0.102675488447142, 0.378977795761306, -1.20638046438721, 1.06062493816034, -1.26264630332573], a = 0.2, v = 0.2, t = 0.2)
movej(p[0.446429500072675, -0.102419999683441, 0.378975127149194, -1.20954625474249, 1.06226546400041, -1.26139758929175], a = 0.2, v = 0.2, t = 0.2)
movej(p[0.448607206235554, -0.102491946460977, 0.379148822727325, -1.20984131340392, 1.06670964929939, -1.24971697801116], a = 0.2, v = 0.2, t = 0.2)
movej(p[0.449972820760593, -0.102583657775757, 0.379250404224875, -1.20328911598882, 1.07508390278012, -1.24123853085909], a = 0.2, v = 0.2, t = 0.2)
movej(p[0.450419164573207, -0.102606447260921, 0.379253836411775, -1.21229365216361, 1.0785122311384, -1.2443127341238], a = 0.2, v = 0.2, t = 0.2)
movej(p[0.450092366072048, -0.102672353027377, 0.379194756702934, -1.21618714347666, 1.08103830937971, -1.24345714844177], a = 0.2, v = 0.2, t = 0.2)
movej(p[0.44931629544096, -0.102941051351746, 0.379209191622164, -1.21935441743625, 1.08205937999519, -1.23735751886029], a = 0.2, v = 0.2, t = 0.2)
movej(p[0.447975320342213, -0.103299143653639, 0.379218121204101, -1.2093402050375, 1.08853252597933, -1.22576840451091], a = 0.2, v = 0.2, t = 0.2)
movej(p[0.446625738627842, -0.103451556739526, 0.3790815663641, -1.20849908235608, 1.09151226072523, -1.22830330487364], a = 0.2, v = 0.2, t = 0.2)
movej(p[0.445284467257409, -0.10350258208321, 0.37888974304485, -1.20336170339994, 1.09567943384316, -1.2191102546717], a = 0.2, v = 0.2, t = 0.2)
movej(p[0.443941514349568, -0.103745773489706, 0.378790091332026, -1.20334481809088, 1.09370562765212, -1.21463930923488], a = 0.2, v = 0.2, t = 0.2)
movej(p[0.442194002713494, -0.104183262689002, 0.378821507749439, -1.1949043827127, 1.09617496484753, -1.20524192409693], a = 0.2, v = 0.2, t = 0.2)
movej(p[0.440507367530842, -0.104451987780174, 0.378792606361624, -1.19028565713713, 1.09626900258439, -1.21876213711675], a = 0.2, v = 0.2, t = 0.2)
movej(p[0.43917960918068, -0.104383479631563, 0.378613063947562, -1.18658473377627, 1.09830082122482, -1.2178573993764], a = 0.2, v = 0.2, t = 0.2)
movej(p[0.438429342910044, -0.104308241045273, 0.378432325292924, -1.18435675923516, 1.09446661245036, -1.22215536536896], a = 0.2, v = 0.2, t = 0.2)
movej(p[0.437891724067048, -0.104394473293066, 0.378374568177385, -1.177579391775, 1.09414889966496, -1.20690735836127], a = 0.2, v = 0.2, t = 0.2)
movej(p[0.437323677869779, -0.104504570715467, 0.378397609304729, -1.17819770634441, 1.09128220610347, -1.21587312758389], a = 0.2, v = 0.2, t = 0.2)
movej(p[0.437139971151291, -0.104289802340269, 0.378303134564204, -1.17589079561662, 1.09083315204955, -1.21584721847355], a = 0.2, v = 0.2, t = 0.2)
movej(p[0.437038176347054, -0.104010992089605, 0.378184772145967, -1.17858804015667, 1.08682564710518, -1.21974964232443], a = 0.2, v = 0.2, t = 0.2)
movej(p[0.437035164587248, -0.103887286916176, 0.378115721317016, -1.17808799745275, 1.08325029441137, -1.21808971652447], a = 0.2, v = 0.2, t = 0.2)
movej(p[0.436853481433736, -0.104037118989646, 0.378247651652842, -1.18174214753913, 1.07963595880965, -1.21961159278088], a = 0.2, v = 0.2, t = 0.2)
movej(p[0.436882143803659, -0.104018942662111, 0.378410247249547, -1.18706004254077, 1.07846169068881, -1.23108689000579], a = 0.2, v = 0.2, t = 0.2)
movej(p[0.437175360198886, -0.103755716549166, 0.378483933163625, -1.19542385309514, 1.0776293784544, -1.23545978764611], a = 0.2, v = 0.2, t = 0.2)
movej(p[0.437688473000567, -0.10356150629136, 0.378543895861309, -1.20022274538007, 1.07697801663589, -1.23522940005647], a = 0.2, v = 0.2, t = 0.2)
movej(p[0.438153544248294, -0.103585397364495, 0.378597938167534, -1.20332696813066, 1.07741232239176, -1.22795055452994], a = 0.2, v = 0.2, t = 0.2)
movej(p[0.438476965846225, -0.103733201063942, 0.378657321845609, -1.20753870505041, 1.07708518277232, -1.23662560398088], a = 0.2, v = 0.2, t = 0.2)
movej(p[0.438797333902601, -0.103742615923521, 0.378608214052204, -1.20797403225666, 1.080637551615, -1.2343540492856], a = 0.2, v = 0.2, t = 0.2)
movej(p[0.439017420758395, -0.103725184370949, 0.378515478364458, -1.20903819166339, 1.08278024773758, -1.23525078890921], a = 0.2, v = 0.2, t = 0.2)
movej(p[0.439191144438764, -0.103895543701097, 0.378513482766704, -1.1997763519433, 1.08790701236551, -1.21630807086648], a = 0.2, v = 0.2, t = 0.2)
movej(p[0.439243422247803, -0.104154613274998, 0.378616412006284, -1.20141606642533, 1.08989413273108, -1.22073852275486], a = 0.2, v = 0.2, t = 0.2)
movej(p[0.439312093359079, -0.104222123458627, 0.37862900259334, -1.19998709924771, 1.09256735199566, -1.22251053210313], a = 0.2, v = 0.2, t = 0.2)
movej(p[0.439404108423415, -0.104122304041118, 0.378542742285413, -1.20198171701145, 1.09426123425891, -1.22497447005328], a = 0.2, v = 0.2, t = 0.2)
movej(p[0.43945438520501, -0.104168573223266, 0.378486358985441, -1.20104584840586, 1.09434831511945, -1.22225120285592], a = 0.2, v = 0.2, t = 0.2)
movej(p[0.439451882536188, -0.104350254255168, 0.378504013724071, -1.19539299916075, 1.09626336105953, -1.21452489369585], a = 0.2, v = 0.2, t = 0.2)
movej(p[0.439641061437124, -0.10447937964961, 0.378502948289451, -1.19107821033097, 1.09465927000476, -1.22450621401315], a = 0.2, v = 0.2, t = 0.2)
movej(p[0.440195915633733, -0.104317384840586, 0.378310545963572, -1.18330878077182, 1.09627355859659, -1.21675892700388], a = 0.2, v = 0.2, t = 0.2)
movej(p[0.440575902751218, -0.104244742270644, 0.378167427034752, -1.18053872769637, 1.09400866287304, -1.21732157044248], a = 0.2, v = 0.2, t = 0.2)
movej(p[0.440620244625621, -0.104333125858603, 0.378114215437765, -1.1724200979745, 1.09665440817029, -1.2006005339668], a = 0.2, v = 0.2, t = 0.2)
movej(p[0.439994261885715, -0.104501495620496, 0.378212727138694, -1.17426171400822, 1.09498260805376, -1.21201269614431], a = 0.2, v = 0.2, t = 0.2)
movej(p[0.439383981711776, -0.104277302132994, 0.378187210158885, -1.17844907745895, 1.08952007751397, -1.22577314684255], a = 0.2, v = 0.2, t = 0.2)
movej(p[0.43869701976873, -0.103892422661286, 0.378145659446923, -1.18555887753305, 1.07950486259858, -1.24029580880519], a = 0.2, v = 0.2, t = 0.2)
movej(p[0.438244887944858, -0.10364428618167, 0.378152333282899, -1.18707818678986, 1.07082911689434, -1.2437938919714], a = 0.2, v = 0.2, t = 0.2)
movej(p[0.437873489008463, -0.103644095724304, 0.378304476867039, -1.19098891725877, 1.06617558715943, -1.24486098977955], a = 0.2, v = 0.2, t = 0.2)
movej(p[0.437702295233647, -0.103561675112213, 0.378364783718024, -1.19217537589209, 1.0631707498248, -1.24977815428679], a = 0.2, v = 0.2, t = 0.2)
movej(p[0.437746265622712, -0.103299049477833, 0.378403165281978, -1.19940218332451, 1.05997002870539, -1.25035713640971], a = 0.2, v = 0.2, t = 0.2)
movej(p[0.438094257080243, -0.103105298088567, 0.378454370214779, -1.20054033770603, 1.05676297436314, -1.2497347555836], a = 0.2, v = 0.2, t = 0.2)
movej(p[0.438631428850831, -0.10304198001948, 0.378584760690701, -1.20418567332216, 1.05530480425016, -1.24653763817114], a = 0.2, v = 0.2, t = 0.2)
movej(p[0.439227370556685, -0.103022262183081, 0.378653982519276, -1.2072258065947, 1.05650846460531, -1.25620148579243], a = 0.2, v = 0.2, t = 0.2)
movej(p[0.43995392091871, -0.102902962227814, 0.378569532082834, -1.20897896900803, 1.0636057731054, -1.25071293267225], a = 0.2, v = 0.2, t = 0.2)
movej(p[0.440484149360242, -0.102906076589549, 0.378467812374486, -1.21001213351923, 1.06997015822774, -1.24646523021823], a = 0.2, v = 0.2, t = 0.2)
movej(p[0.440889802853722, -0.103124462580854, 0.378515418829355, -1.2056627003779, 1.07627793910012, -1.23192629411952], a = 0.2, v = 0.2, t = 0.2)
movej(p[0.441034660710943, -0.103361994609123, 0.37859645761148, -1.2071752003594, 1.07915751502424, -1.23826553530526], a = 0.2, v = 0.2, t = 0.2)
movej(p[0.44123217642734, -0.10344952650626, 0.37860537030243, -1.20664058498361, 1.08215655616919, -1.23788534594443], a = 0.2, v = 0.2, t = 0.2)
movej(p[0.441386510789618, -0.103454734937509, 0.378527581420029, -1.20715635747173, 1.08453498663935, -1.23511021554479], a = 0.2, v = 0.2, t = 0.2)
movej(p[0.441540574546389, -0.103607770844886, 0.378505761896235, -1.20312100291123, 1.08617805865901, -1.22328631105113], a = 0.2, v = 0.2, t = 0.2)
movej(p[0.441334780967906, -0.103890441308185, 0.378553796466159, -1.19569216475647, 1.08902271608156, -1.21469788446496], a = 0.2, v = 0.2, t = 0.2)
movej(p[0.441035740376259, -0.103991238467144, 0.378511073362548, -1.19266075448561, 1.08941452421952, -1.22579405745165], a = 0.2, v = 0.2, t = 0.2)
movej(p[0.440656531475444, -0.103877149931907, 0.378300621358404, -1.18762035867047, 1.09149254815959, -1.22590184193273], a = 0.2, v = 0.2, t = 0.2)
movej(p[0.440307797998702, -0.103811699294131, 0.378139999946483, -1.18562289841655, 1.08838362463612, -1.23156580293785], a = 0.2, v = 0.2, t = 0.2)
movej(p[0.439877060193514, -0.103934385919206, 0.378122392858316, -1.17823071665124, 1.08820763272353, -1.2204637963239], a = 0.2, v = 0.2, t = 0.2)
movej(p[0.439491099445454, -0.103934153241198, 0.378137182501783, -1.17887789977198, 1.08451197221022, -1.23402912722377], a = 0.2, v = 0.2, t = 0.2)
movej(p[0.439355350484795, -0.103649266930129, 0.378031566871833, -1.17922560447232, 1.08427623741134, -1.23188794408791], a = 0.2, v = 0.2, t = 0.2)
movej(p[0.439212510606709, -0.103353721262339, 0.377889417675286, -1.18150091463006, 1.08042801021715, -1.23408515655287], a = 0.2, v = 0.2, t = 0.2)
movej(p[0.439044804676592, -0.103308008241806, 0.377895108172398, -1.17954742588979, 1.07796742032081, -1.22267319618289], a = 0.2, v = 0.2, t = 0.2)
movej(p[0.438654270156923, -0.103455427837085, 0.378126032131471, -1.18031666008962, 1.07609261024253, -1.22181336462174], a = 0.2, v = 0.2, t = 0.2)
movej(p[0.43877546110328, -0.1033965791272, 0.378337782636504, -1.18414241088788, 1.07529425148579, -1.22117974051182], a = 0.2, v = 0.2, t = 0.2)
movej(p[0.439088463424654, -0.103202702353922, 0.378506569309834, -1.19108736831579, 1.07455397555528, -1.22576008001142], a = 0.2, v = 0.2, t = 0.2)
movej(p[0.439747651802294, -0.103065743057246, 0.378582587475682, -1.19402470275805, 1.07316291395932, -1.22772815229677], a = 0.2, v = 0.2, t = 0.2)
movej(p[0.440178690026946, -0.103175556488184, 0.37868270960797, -1.19477837276472, 1.07472010706888, -1.23221220731988], a = 0.2, v = 0.2, t = 0.2)
movej(p[0.440571679886473, -0.10323355335686, 0.378670639461618, -1.19846404438881, 1.07662402918743, -1.23939517044578], a = 0.2, v = 0.2, t = 0.2)
movej(p[0.440890972413876, -0.103242426356302, 0.378598401114284, -1.20550522196277, 1.08130653917085, -1.23996668952836], a = 0.2, v = 0.2, t = 0.2)
movej(p[0.441101927767745, -0.103338288191799, 0.378545709107592, -1.21057079000236, 1.08267736401532, -1.24111404046121], a = 0.2, v = 0.2, t = 0.2)
movej(p[0.441295451084579, -0.103635751037515, 0.378623213693649, -1.20597528801549, 1.08685144902329, -1.22904399314002], a = 0.2, v = 0.2, t = 0.2)
movej(p[0.441366436598407, -0.103826834814554, 0.378658937281859, -1.19831562532881, 1.08999723470908, -1.22949656654178], a = 0.2, v = 0.2, t = 0.2)
movej(p[0.441439837584686, -0.10380822323913, 0.378555256115986, -1.20137064009631, 1.0892835823828, -1.23364882235814], a = 0.2, v = 0.2, t = 0.2)
movej(p[0.441201720818335, -0.103842414852389, 0.37838874059653, -1.19868613476134, 1.08747361110443, -1.23230156712766], a = 0.2, v = 0.2, t = 0.2)
movej(p[0.440827501423594, -0.104080004768505, 0.378346410662932, -1.19600397624332, 1.08593830569089, -1.22490003674086], a = 0.2, v = 0.2, t = 0.2)
movej(p[0.440259083787541, -0.104352775175325, 0.378414374844465, -1.18485075242077, 1.08821583615814, -1.22097951979762], a = 0.2, v = 0.2, t = 0.2)
movej(p[0.439949238568329, -0.104224380652904, 0.3783375073193, -1.18126494234902, 1.0883263745313, -1.22473151932397], a = 0.2, v = 0.2, t = 0.2)
movej(p[0.439601174195111, -0.103968777787872, 0.378229778756617, -1.17994418921101, 1.08592478612377, -1.2272307458031], a = 0.2, v = 0.2, t = 0.2)
