def moving():
set_payload_mass(0.62)
set_tcp(p[0,0.005,0.058,0,0,0])
movej(p[0.4431, -0.1037, 0.3787, -1.201, 1.094, -1.2], a = 0.2, v = 0.2, t = 0.2)
movej(p[0.444342861276817, -0.104837080408716, 0.380060089699507, -1.201, 1.094, -1.2], a = 0.2, v = 0.2, t = 0.2)
movej(p[0.445585722553633, -0.105974160817432, 0.381420179399013, -1.201, 1.094, -1.2], a = 0.2, v = 0.2, t = 0.2)
movej(p[0.446828583830449, -0.107111241226148, 0.38278026909852, -1.201, 1.094, -1.2], a = 0.2, v = 0.2, t = 0.2)
movej(p[0.448071445107266, -0.108248321634864, 0.384140358798027, -1.201, 1.094, -1.2], a = 0.2, v = 0.2, t = 0.2)
movej(p[0.446828583830449, -0.107111241226148, 0.38278026909852, -1.201, 1.094, -1.2], a = 0.2, v = 0.2, t = 0.2)
movej(p[0.445585722553633, -0.105974160817432, 0.381420179399013, -1.201, 1.094, -1.2], a = 0.2, v = 0.2, t = 0.2)
movej(p[0.444342861276817, -0.104837080408716, 0.380060089699507, -1.201, 1.094, -1.2], a = 0.2, v = 0.2, t = 0.2)
movej(p[0.4431, -0.1037, 0.3787, -1.201, 1.094, -1.2], a = 0.2, v = 0.2, t = 0.2)
movej(p[0.442404509455698, -0.103559613874454, 0.378861039804211, -1.19764670896594, 1.08537198458457, -1.21107242380177], a = 0.2, v = 0.2, t = 0.2)
movej(p[0.441708926755459, -0.103419334887013, 0.379022074250251, -1.19431953736535, 1.07666230447103, -1.22207233799858], a = 0.2, v = 0.2, t = 0.2)
movej(p[0.440657992875114, -0.103227786675671, 0.379316518611504, -1.19218163678492, 1.06860296270397, -1.23101606191474], a = 0.2, v = 0.2, t = 0.2)
movej(p[0.438815900908787, -0.102922186001068, 0.379907808519482, -1.19208880774124, 1.06299781974847, -1.23637420537245], a = 0.2, v = 0.2, t = 0.2)
movej(p[0.436553876518454, -0.102465397495043, 0.380286579701466, -1.19121249792871, 1.05617953065795, -1.23813630782938], a = 0.2, v = 0.2, t = 0.2)
movej(p[0.434023341012002, -0.101911884267699, 0.380529481796436, -1.18972943855785, 1.04874091618307, -1.23771871975803], a = 0.2, v = 0.2, t = 0.2)
movej(p[0.431544559399132, -0.101451668207307, 0.381029235119041, -1.19203379472709, 1.04229371080544, -1.23730754796423], a = 0.2, v = 0.2, t = 0.2)
movej(p[0.429165244926968, -0.101020528538624, 0.381541810351215, -1.19341034514603, 1.0351413162609, -1.23701513887649], a = 0.2, v = 0.2, t = 0.2)
movej(p[0.426952931540545, -0.100540304746763, 0.381761576522372, -1.18818977205863, 1.02491064348446, -1.23729205049327], a = 0.2, v = 0.2, t = 0.2)
movej(p[0.425036487843508, -0.100081581775613, 0.381919270947855, -1.1805754113441, 1.00989185646122, -1.23403203772047], a = 0.2, v = 0.2, t = 0.2)
movej(p[0.425036487843508, -0.100081581775613, 0.381919270947855, -1.17758595751952, 1.01007320200402, -1.22363638802742], a = 0.2, v = 0.2, t = 0.2)
movej(p[0.425432784374913, -0.100173369535587, 0.381931007911497, -1.17887090279286, 1.01190747340891, -1.22241634136577], a = 0.2, v = 0.2, t = 0.2)
movej(p[0.426382365181137, -0.100282522677584, 0.381666916423481, -1.1783826906752, 1.01643030559848, -1.21898630579112], a = 0.2, v = 0.2, t = 0.2)
movej(p[0.428250833609294, -0.100576961276736, 0.381279682832075, -1.1828307405689, 1.03246576255451, -1.22215108738402], a = 0.2, v = 0.2, t = 0.2)
movej(p[0.430266112135641, -0.100984549502738, 0.38102369072425, -1.18140060185704, 1.04791092686866, -1.23061173601748], a = 0.2, v = 0.2, t = 0.2)
movej(p[0.432667321512578, -0.101554827174631, 0.380803983361956, -1.19087919767417, 1.05832441047509, -1.23930759418216], a = 0.2, v = 0.2, t = 0.2)
movej(p[0.434834226946224, -0.101910563129216, 0.380404533061852, -1.18776772751591, 1.06465695358874, -1.24844062233315], a = 0.2, v = 0.2, t = 0.2)
movej(p[0.436894898354099, -0.102375648341008, 0.38026927140972, -1.18935323457543, 1.06555051531929, -1.25648402287991], a = 0.2, v = 0.2, t = 0.2)
movej(p[0.438683552210382, -0.1030761861646, 0.380364308192716, -1.18885849338473, 1.07239137135696, -1.25967922930559], a = 0.2, v = 0.2, t = 0.2)
movej(p[0.439477769969616, -0.103259867980339, 0.380305974913333, -1.19447997399505, 1.07869645383414, -1.25662776623906], a = 0.2, v = 0.2, t = 0.2)
movej(p[0.439842106926495, -0.103276906625721, 0.380251791277283, -1.19413305813968, 1.07924765242886, -1.25716215821428], a = 0.2, v = 0.2, t = 0.2)
movej(p[0.440194272635784, -0.103493155121177, 0.38028058713488, -1.19451806573959, 1.07915170831129, -1.25812746439311], a = 0.2, v = 0.2, t = 0.2)
movej(p[0.440192907446532, -0.103492908468594, 0.380299135326728, -1.19310982171428, 1.08315071442202, -1.26277475261932], a = 0.2, v = 0.2, t = 0.2)
movej(p[0.439510878930231, -0.103501401608474, 0.380452716704268, -1.1940579923069, 1.08409385600612, -1.26226182616946], a = 0.2, v = 0.2, t = 0.2)
movej(p[0.437667329089879, -0.103156950861848, 0.380708449766828, -1.19273353291895, 1.08521362588181, -1.26135358089958], a = 0.2, v = 0.2, t = 0.2)
movej(p[0.436024835261834, -0.102861825182419, 0.380927993084142, -1.19059194146261, 1.08284789876217, -1.26242223833958], a = 0.2, v = 0.2, t = 0.2)
movej(p[0.43463052855757, -0.10287549197271, 0.381295258986845, -1.19227230441644, 1.08066132444276, -1.26518862324395], a = 0.2, v = 0.2, t = 0.2)
movej(p[0.432945391845688, -0.102585675709512, 0.381505216139269, -1.195639985049, 1.07466020158795, -1.26423328443002], a = 0.2, v = 0.2, t = 0.2)
movej(p[0.431090767694326, -0.101970214704063, 0.381586456510725, -1.19412882527524, 1.06236058458137, -1.26920508555153], a = 0.2, v = 0.2, t = 0.2)
movej(p[0.429251888486558, -0.101500147639149, 0.381773374925345, -1.19081443595732, 1.05770556494228, -1.27070928403172], a = 0.2, v = 0.2, t = 0.2)
movej(p[0.427849285335661, -0.101454833673771, 0.382055813477305, -1.18841806603567, 1.05018558685293, -1.2699390030022], a = 0.2, v = 0.2, t = 0.2)
movej(p[0.426089513822366, -0.100999538044337, 0.382220772899028, -1.1908148731932, 1.04236503074779, -1.26677214996932], a = 0.2, v = 0.2, t = 0.2)
movej(p[0.424264860167175, -0.100561210504324, 0.382424402872911, -1.18702216229695, 1.02774667951049, -1.26396026256378], a = 0.2, v = 0.2, t = 0.2)
movej(p[0.422491985060687, -0.099988761443005, 0.382577413686223, -1.1839472876036, 1.01445763226974, -1.25663699787747], a = 0.2, v = 0.2, t = 0.2)
movej(p[0.421496480038256, -0.0997731731724155, 0.38270133260286, -1.17815650092819, 1.0061067083695, -1.25732072220074], a = 0.2, v = 0.2, t = 0.2)
movej(p[0.420736396719638, -0.0997151482748486, 0.382824417939192, -1.17594786716087, 0.996425868209661, -1.25370836161276], a = 0.2, v = 0.2, t = 0.2)
movej(p[0.419840303018059, -0.0994346588238887, 0.382908261101648, -1.1736860538747, 0.997283408205544, -1.24823061509867], a = 0.2, v = 0.2, t = 0.2)
movej(p[0.4198372124335, -0.0993924792464652, 0.382907472726444, -1.17630282486947, 0.999872070463188, -1.2468758857152], a = 0.2, v = 0.2, t = 0.2)
movej(p[0.420005129255046, -0.0993812744311695, 0.382848685030825, -1.18124895887416, 1.00409674051343, -1.24414037589142], a = 0.2, v = 0.2, t = 0.2)
movej(p[0.420794411592125, -0.0993321183281178, 0.382711783022414, -1.18324816610531, 1.01055745276342, -1.23892128483915], a = 0.2, v = 0.2, t = 0.2)
movej(p[0.422002291275462, -0.0993104133441828, 0.382523525899695, -1.18725132310702, 1.02261736651497, -1.22647427779146], a = 0.2, v = 0.2, t = 0.2)
movej(p[0.423608747223495, -0.0992468237873956, 0.382300069717643, -1.1877206014557, 1.02885823606822, -1.22080500635428], a = 0.2, v = 0.2, t = 0.2)
movej(p[0.425484527310067, -0.0995746538120133, 0.382072159358556, -1.18900390636648, 1.03251452368078, -1.21784023736955], a = 0.2, v = 0.2, t = 0.2)
movej(p[0.42680598927371, -0.0998632784500819, 0.381908322131571, -1.19508739325627, 1.04121720561925, -1.2090819631878], a = 0.2, v = 0.2, t = 0.2)
movej(p[0.428310769720594, -0.0999297344911499, 0.38174138519354, -1.19624161932246, 1.04474741430338, -1.20379037962188], a = 0.2, v = 0.2, t = 0.2)
movej(p[0.429986594373485, -0.100104729638961, 0.381556892860351, -1.19596634606941, 1.04541072856026, -1.20304183830733], a = 0.2, v = 0.2, t = 0.2)
movej(p[0.432436402376668, -0.100797449959071, 0.381238200491998, -1.19482504567993, 1.05577049400145, -1.20846432919902], a = 0.2, v = 0.2, t = 0.2)
movej(p[0.434872929030745, -0.10182082936842, 0.380857946670853, -1.19270963511681, 1.06108810205995, -1.21665705506525], a = 0.2, v = 0.2, t = 0.2)
movej(p[0.435971023457059, -0.102160257356998, 0.380697397732931, -1.19469840807041, 1.06236995450601, -1.21699244018311], a = 0.2, v = 0.2, t = 0.2)
movej(p[0.437530553382706, -0.10250554775605, 0.380485351201876, -1.1958236130038, 1.0618529071075, -1.21926122528603], a = 0.2, v = 0.2, t = 0.2)
movej(p[0.438827649813008, -0.103186735113635, 0.38022145263355, -1.19276253179046, 1.05946055148836, -1.22730672820549], a = 0.2, v = 0.2, t = 0.2)
movej(p[0.438828606944396, -0.103199797819646, 0.380221696787573, -1.19339899865073, 1.05749096900207, -1.23038639773431], a = 0.2, v = 0.2, t = 0.2)
movej(p[0.438241742098136, -0.103242392067349, 0.38024344793205, -1.19346248582312, 1.05729728312817, -1.23072114193546], a = 0.2, v = 0.2, t = 0.2)
movej(p[0.437639199032765, -0.103122629586008, 0.380315635828797, -1.1935639547906, 1.05704722823715, -1.23100054657626], a = 0.2, v = 0.2, t = 0.2)
movej(p[0.436250807622866, -0.102832936450754, 0.380493184639845, -1.19379701867746, 1.05678555614606, -1.23119603161097], a = 0.2, v = 0.2, t = 0.2)
movej(p[0.434275767919668, -0.102318885762161, 0.380793140837229, -1.1947542684068, 1.05596618331987, -1.23194470671594], a = 0.2, v = 0.2, t = 0.2)
movej(p[0.432111543886641, -0.101731760969788, 0.381183694742663, -1.19534903467427, 1.05518466728176, -1.23154672075669], a = 0.2, v = 0.2, t = 0.2)
movej(p[0.430132465520881, -0.101207185512161, 0.381536762882598, -1.19191834991667, 1.04601172421574, -1.23082500046676], a = 0.2, v = 0.2, t = 0.2)
movej(p[0.428300938981539, -0.100859336544143, 0.381771575086566, -1.18579291606275, 1.03580838056306, -1.23177147052906], a = 0.2, v = 0.2, t = 0.2)
movej(p[0.427016908002944, -0.100447627519633, 0.382048041151655, -1.18570861691673, 1.03298767900856, -1.22241403335038], a = 0.2, v = 0.2, t = 0.2)
movej(p[0.427016908002944, -0.100447627519633, 0.382048041151655, -1.18985099625536, 1.03762650460295, -1.21392556398174], a = 0.2, v = 0.2, t = 0.2)
movej(p[0.428450378922357, -0.100420652586242, 0.381970981654084, -1.19743717400959, 1.04580753619277, -1.20898932243332], a = 0.2, v = 0.2, t = 0.2)
movej(p[0.431103227154547, -0.101274525696813, 0.38146831647923, -1.19014476770455, 1.05199797229205, -1.20089539987325], a = 0.2, v = 0.2, t = 0.2)
movej(p[0.433320145741691, -0.101657617855364, 0.381276377775385, -1.18682613082707, 1.0572286166502, -1.20611521910913], a = 0.2, v = 0.2, t = 0.2)
movej(p[0.435698360763101, -0.102571511622971, 0.380667254673322, -1.1890142569976, 1.05398577612255, -1.21954798043376], a = 0.2, v = 0.2, t = 0.2)
movej(p[0.437539612295065, -0.103067482218218, 0.380319205072414, -1.1890142569976, 1.05398577612255, -1.21954798043376], a = 0.2, v = 0.2, t = 0.2)
movej(p[0.438958680103993, -0.103610378619861, 0.379936494070814, -1.1890142569976, 1.05398577612255, -1.21954798043376], a = 0.2, v = 0.2, t = 0.2)
movej(p[0.439389626117984, -0.103612265643566, 0.3799006495152, -1.18771644468328, 1.05156448215057, -1.22172732332218], a = 0.2, v = 0.2, t = 0.2)
movej(p[0.439389626117984, -0.103612265643566, 0.3799006495152, -1.18458168523586, 1.04503670724844, -1.2294869561462], a = 0.2, v = 0.2, t = 0.2)
movej(p[0.431318293147111, -0.103248642568138, 0.38006737813398, -1.1840323840912, 1.04484169333952, -1.23244163889062], a = 0.2, v = 0.2, t = 0.2)
movej(p[0.427701030200115, -0.103057098132573, 0.38013653347719, -1.18388572942612, 1.04507695890408, -1.23267704782947], a = 0.2, v = 0.2, t = 0.2)
movej(p[0.427701030200115, -0.103057098132573, 0.38013653347719, -1.18442533124493, 1.04602292180861, -1.23199019267834], a = 0.2, v = 0.2, t = 0.2)
movej(p[0.428576441028095, -0.103076102773653, 0.380114476825735, -1.18493988918756, 1.04694705329714, -1.23040311311996], a = 0.2, v = 0.2, t = 0.2)
movej(p[0.429451851856074, -0.103095107414732, 0.380092420174281, -1.18545538571135, 1.04787199753123, -1.22881298467431], a = 0.2, v = 0.2, t = 0.2)
movej(p[0.430327148575698, -0.103114018437201, 0.380070454158574, -1.18597246307852, 1.0487943154138, -1.22722051428879], a = 0.2, v = 0.2, t = 0.2)
movej(p[0.431202559403677, -0.103133023078281, 0.38004839750712, -1.18649069716256, 1.04971567932979, -1.2256295603046], a = 0.2, v = 0.2, t = 0.2)
movej(p[0.432077970231657, -0.103152027719361, 0.380026340855666, -1.18700933413713, 1.05063530167554, -1.22403496693344], a = 0.2, v = 0.2, t = 0.2)
movej(p[0.432953281597354, -0.103171039783232, 0.380004276982268, -1.18752912314043, 1.0515539706181, -1.22244189350614], a = 0.2, v = 0.2, t = 0.2)
movej(p[0.433828692425333, -0.103190044424312, 0.379982220330814, -1.18804931611901, 1.05247089392412, -1.22084518227321], a = 0.2, v = 0.2, t = 0.2)
movej(p[0.434704103253313, -0.103209049065392, 0.37996016367936, -1.18857065644171, 1.05338686439716, -1.2192499945185], a = 0.2, v = 0.2, t = 0.2)
movej(p[0.43557941461901, -0.103228061129263, 0.379938099805963, -1.189091594794, 1.05430236638916, -1.21765244462308], a = 0.2, v = 0.2, t = 0.2)
movej(p[0.43645482544699, -0.103247065770343, 0.379916043154509, -1.18961411472296, 1.05521523424636, -1.21605256542478], a = 0.2, v = 0.2, t = 0.2)
movej(p[0.43645482544699, -0.103247065770343, 0.379916043154509, -1.1894420078632, 1.05512463773231, -1.21515460069915], a = 0.2, v = 0.2, t = 0.2)
movej(p[0.43585735949043, -0.103040083754949, 0.379998977020066, -1.19013777497551, 1.05612715013859, -1.21445421499153], a = 0.2, v = 0.2, t = 0.2)
movej(p[0.433732457899346, -0.102494428573275, 0.380404308169769, -1.18819998680294, 1.05836231247872, -1.21478226169079], a = 0.2, v = 0.2, t = 0.2)
movej(p[0.431426051440283, -0.101946544315514, 0.38079805553254, -1.18831900752258, 1.06574109488274, -1.21307914247883], a = 0.2, v = 0.2, t = 0.2)
movej(p[0.429893065286157, -0.101581453831724, 0.381047892999516, -1.18819551821974, 1.06593460417101, -1.21327088142808], a = 0.2, v = 0.2, t = 0.2)
movej(p[0.429225061747933, -0.101357423965367, 0.381224885518851, -1.18726844655724, 1.06117867759324, -1.21764974382855], a = 0.2, v = 0.2, t = 0.2)
movej(p[0.427285401631314, -0.101083765167422, 0.381342819289693, -1.18692058293372, 1.05092500212427, -1.22727724819169], a = 0.2, v = 0.2, t = 0.2)
movej(p[0.424653747583655, -0.100896112199057, 0.381262149921885, -1.18743267331433, 1.0476672930467, -1.23068420940806], a = 0.2, v = 0.2, t = 0.2)
movej(p[0.423763701394802, -0.100326522017548, 0.381782519114705, -1.18813962670421, 1.04688425958894, -1.23162842275784], a = 0.2, v = 0.2, t = 0.2)
movej(p[0.423171004422176, -0.100270619528982, 0.381752892936883, -1.18778699419538, 1.04740155812287, -1.23107943864332], a = 0.2, v = 0.2, t = 0.2)
movej(p[0.423157652873713, -0.10018339055745, 0.381847118690683, -1.18772110169246, 1.04728192899384, -1.23108892761313], a = 0.2, v = 0.2, t = 0.2)
movej(p[0.423306150061983, -0.100172308330177, 0.381857901051954, -1.18749571396508, 1.04712449271892, -1.22979983354387], a = 0.2, v = 0.2, t = 0.2)
movej(p[0.423961599235253, -0.100320860736567, 0.381738847560548, -1.18679764526457, 1.04483458881827, -1.22000560932442], a = 0.2, v = 0.2, t = 0.2)
movej(p[0.424920544494741, -0.100557051787577, 0.381535898338506, -1.18532041353521, 1.04126557402904, -1.20229394654703], a = 0.2, v = 0.2, t = 0.2)
movej(p[0.425706775537141, -0.100693819325766, 0.381518570947921, -1.18551565977269, 1.04145291680426, -1.20218713203332], a = 0.2, v = 0.2, t = 0.2)
movej(p[0.426592449334209, -0.100686114938944, 0.381506340755342, -1.18611807287045, 1.04521669672207, -1.20328255298392], a = 0.2, v = 0.2, t = 0.2)
movej(p[0.428187194891675, -0.100987490749937, 0.381445417545556, -1.18462251646288, 1.04890876104021, -1.20999600029117], a = 0.2, v = 0.2, t = 0.2)
movej(p[0.429423027701221, -0.10138667047645, 0.381019531524664, -1.18462251646288, 1.04890876104021, -1.20999600029117], a = 0.2, v = 0.2, t = 0.2)
movej(p[0.430895029657763, -0.101787176249483, 0.380632405220076, -1.18361059678772, 1.04954802337711, -1.2084972905172], a = 0.2, v = 0.2, t = 0.2)
movej(p[0.432412787974518, -0.1020470606238, 0.380485541766806, -1.18062885262995, 1.04764463983489, -1.20919734327157], a = 0.2, v = 0.2, t = 0.2)
movej(p[0.433847523725969, -0.102377349575521, 0.380186394141243, -1.17755442591856, 1.0499668706253, -1.20578122502669], a = 0.2, v = 0.2, t = 0.2)
movej(p[0.433847523725969, -0.102377349575521, 0.380186394141243, -1.17927704379022, 1.05415086177105, -1.20599392095416], a = 0.2, v = 0.2, t = 0.2)
movej(p[0.433958392129945, -0.102395307198651, 0.380148464063844, -1.1798331475662, 1.05454072197322, -1.20647989518976], a = 0.2, v = 0.2, t = 0.2)
movej(p[0.434551832605585, -0.102750348528173, 0.379607121292393, -1.18430468185123, 1.0524243804921, -1.21024701904036], a = 0.2, v = 0.2, t = 0.2)
movej(p[0.434567975584495, -0.102763209306533, 0.379601561201396, -1.18430468185123, 1.0524243804921, -1.21024701904036], a = 0.2, v = 0.2, t = 0.2)
movej(p[0.434571924357708, -0.102763922742497, 0.379547911055084, -1.18376610550153, 1.05195447695418, -1.20971065419355], a = 0.2, v = 0.2, t = 0.2)
movej(p[0.434726428455118, -0.102836882585155, 0.379416953981037, -1.18287142536368, 1.05124087394908, -1.20880880666439], a = 0.2, v = 0.2, t = 0.2)
movej(p[0.434747194731957, -0.102836520833502, 0.379354900529223, -1.18253390818063, 1.05095113161802, -1.20873446570159], a = 0.2, v = 0.2, t = 0.2)
movej(p[0.434755783543435, -0.102842855848542, 0.379309588721691, -1.18247255562827, 1.050900086899, -1.20876039354441], a = 0.2, v = 0.2, t = 0.2)
movej(p[0.435273807651555, -0.102899417320557, 0.379285493218161, -1.18145067041878, 1.05247383871441, -1.21026002331157], a = 0.2, v = 0.2, t = 0.2)
movej(p[0.435909034836376, -0.102982390681463, 0.37926676529666, -1.18026184715016, 1.05434286881715, -1.21213723367473], a = 0.2, v = 0.2, t = 0.2)
movej(p[0.436880496609219, -0.103110713202099, 0.37933997352436, -1.18047257528511, 1.05475674971441, -1.2125847146144], a = 0.2, v = 0.2, t = 0.2)
movej(p[0.43687744328272, -0.103110161549011, 0.379381457652363, -1.18169022333186, 1.05655728043185, -1.21223128017587], a = 0.2, v = 0.2, t = 0.2)
movej(p[0.436664540325732, -0.102663305364918, 0.380268877249647, -1.18016041118248, 1.05895567806581, -1.21463396803135], a = 0.2, v = 0.2, t = 0.2)
movej(p[0.434762257901194, -0.102413520362906, 0.380154122903039, -1.17835012099341, 1.05777439972667, -1.21647490878813], a = 0.2, v = 0.2, t = 0.2)
movej(p[0.432114613726758, -0.10188418428834, 0.3804478918356, -1.17567897797631, 1.04840307894763, -1.2244523697398], a = 0.2, v = 0.2, t = 0.2)
movej(p[0.429612664375358, -0.101315451824148, 0.380953020657981, -1.17821406981401, 1.04649577577732, -1.22723862967077], a = 0.2, v = 0.2, t = 0.2)
movej(p[0.42767306546585, -0.101032193151065, 0.380919008390208, -1.17906109692762, 1.04614803324724, -1.22904867709571], a = 0.2, v = 0.2, t = 0.2)
movej(p[0.425288672577532, -0.100489949147334, 0.381359637139334, -1.18028014723715, 1.04522882971798, -1.23038796993625], a = 0.2, v = 0.2, t = 0.2)
movej(p[0.423136029487906, -0.100045631478899, 0.381677933539258, -1.17549500056815, 1.03946988470617, -1.23229563339824], a = 0.2, v = 0.2, t = 0.2)
movej(p[0.42154920376096, -0.0996512268803613, 0.38209218856331, -1.17940571669463, 1.0148006081848, -1.22006587501024], a = 0.2, v = 0.2, t = 0.2)
movej(p[0.420213720286838, -0.0992997906698279, 0.382532734452263, -1.18142023129035, 1.01187537230124, -1.21791619632139], a = 0.2, v = 0.2, t = 0.2)
movej(p[0.419179722336604, -0.0990695097116823, 0.382595663374298, -1.18308830579953, 1.01118459343607, -1.21909891533834], a = 0.2, v = 0.2, t = 0.2)
movej(p[0.418615105436659, -0.0990263138797916, 0.382693622071734, -1.18522180495654, 1.01305092857759, -1.21815805284109], a = 0.2, v = 0.2, t = 0.2)
movej(p[0.417747477695363, -0.0987506814639131, 0.383146446721957, -1.18570535579516, 1.02578541944652, -1.22350910381556], a = 0.2, v = 0.2, t = 0.2)
movej(p[0.417747477695363, -0.0987506814639131, 0.383146446721957, -1.18147467483667, 1.02906872146089, -1.21882798266529], a = 0.2, v = 0.2, t = 0.2)
movej(p[0.4182429876729, -0.0988404227614986, 0.38311481775314, -1.18264888331685, 1.02306525164385, -1.20335211183413], a = 0.2, v = 0.2, t = 0.2)
movej(p[0.41865809173225, -0.0989609183459803, 0.382858268549221, -1.18374526647004, 1.02290962160874, -1.19046002363076], a = 0.2, v = 0.2, t = 0.2)
movej(p[0.419045678562456, -0.0990918873976993, 0.382524824361173, -1.18903413023403, 1.02845553037229, -1.17635859911445], a = 0.2, v = 0.2, t = 0.2)
movej(p[0.419433280038735, -0.0992229574908206, 0.382191282315435, -1.19438901094097, 1.03391053296218, -1.16220274384471], a = 0.2, v = 0.2, t = 0.2)
movej(p[0.419959262532763, -0.099351379334077, 0.381966665338893, -1.19787490879068, 1.0383819861468, -1.15038300134407], a = 0.2, v = 0.2, t = 0.2)
movej(p[0.421180906833512, -0.0995560516295816, 0.382007057341825, -1.19678966305349, 1.03851059767529, -1.14072372557476], a = 0.2, v = 0.2, t = 0.2)
movej(p[0.423368325238592, -0.0999724516448938, 0.381924700324115, -1.19501695314125, 1.03870181940028, -1.13442913502469], a = 0.2, v = 0.2, t = 0.2)
movej(p[0.4250190747716, -0.100310185453642, 0.381571555844188, -1.19284971090943, 1.03916374736437, -1.13236436000009], a = 0.2, v = 0.2, t = 0.2)
movej(p[0.426488629597466, -0.100617525788777, 0.381269150450435, -1.18942193996314, 1.04096187821005, -1.12752268384959], a = 0.2, v = 0.2, t = 0.2)
movej(p[0.42861820938899, -0.101019740522049, 0.380975972910584, -1.18942193996314, 1.04096187821005, -1.12752268384959], a = 0.2, v = 0.2, t = 0.2)
movej(p[0.43052791289074, -0.101377876156205, 0.380533556836111, -1.19374522630916, 1.04408742157868, -1.12851860072826], a = 0.2, v = 0.2, t = 0.2)
movej(p[0.431874669898374, -0.101607961445463, 0.380027647108931, -1.19199149590438, 1.05035038399918, -1.13567000342781], a = 0.2, v = 0.2, t = 0.2)
movej(p[0.433343067558392, -0.101894718541564, 0.37973110014825, -1.18853176469125, 1.05731047695206, -1.14490865531006], a = 0.2, v = 0.2, t = 0.2)
movej(p[0.434755988759287, -0.102196518224789, 0.379571562468481, -1.19173405583192, 1.06239887716242, -1.15667672078115], a = 0.2, v = 0.2, t = 0.2)
movej(p[0.435992470099817, -0.102444451327163, 0.379337151715169, -1.19342593787215, 1.06501159711158, -1.15769516030487], a = 0.2, v = 0.2, t = 0.2)
movej(p[0.435992470099817, -0.102444451327163, 0.379337151715169, -1.19407010429202, 1.06480016574944, -1.15936297217875], a = 0.2, v = 0.2, t = 0.2)
movej(p[0.433669055134943, -0.102294121529663, 0.380268520107902, -1.17858364337216, 1.04331312350416, -1.19773382582105], a = 0.2, v = 0.2, t = 0.2)
movej(p[0.43024448099981, -0.102307990508684, 0.38187181541894, -1.17671015326546, 1.04690396283394, -1.20287788240126], a = 0.2, v = 0.2, t = 0.2)
movej(p[0.43024448099981, -0.102307990508684, 0.38187181541894, -1.17613163530794, 1.05098399211106, -1.20516109551829], a = 0.2, v = 0.2, t = 0.2)
movej(p[0.431701921620984, -0.102649688143681, 0.381527860753342, -1.1770101640281, 1.05232464806051, -1.2106920887458], a = 0.2, v = 0.2, t = 0.2)
movej(p[0.433622582292537, -0.103062838371723, 0.381248632989999, -1.1800652161479, 1.0511747214556, -1.21781381163497], a = 0.2, v = 0.2, t = 0.2)
movej(p[0.435266178352209, -0.103424656207318, 0.380992452923493, -1.1827770162079, 1.04967455855124, -1.22032141758522], a = 0.2, v = 0.2, t = 0.2)
movej(p[0.436173496291673, -0.103586439251947, 0.381023880510059, -1.18290099622736, 1.04963567645534, -1.22040639293718], a = 0.2, v = 0.2, t = 0.2)
movej(p[0.436807204165003, -0.103775840031266, 0.380677138753022, -1.18276779370658, 1.04997361717161, -1.22081811425845], a = 0.2, v = 0.2, t = 0.2)
movej(p[0.437195356859102, -0.103844582504567, 0.380692883543518, -1.18255917363032, 1.05037545128323, -1.22122670126546], a = 0.2, v = 0.2, t = 0.2)
movej(p[0.437605108033927, -0.103938309139479, 0.380607162293887, -1.18246901812245, 1.05054901294325, -1.22140224122049], a = 0.2, v = 0.2, t = 0.2)
movej(p[0.43791018533595, -0.104020113920946, 0.380485800901675, -1.18246901812245, 1.05054901294325, -1.22140224122049], a = 0.2, v = 0.2, t = 0.2)
movej(p[0.43791018533595, -0.104020113920946, 0.380485800901675, -1.18246901812245, 1.05054901294325, -1.22140224122049], a = 0.2, v = 0.2, t = 0.2)
movej(p[0.43791018533595, -0.104020113920946, 0.380485800901675, -1.18246901812245, 1.05054901294325, -1.22140224122049], a = 0.2, v = 0.2, t = 0.2)
movej(p[0.43716101323029, -0.103843237214526, 0.380668777831442, -1.18303152637274, 1.06027325284311, -1.22696615711415], a = 0.2, v = 0.2, t = 0.2)
movej(p[0.435937398306, -0.103561419158778, 0.380948710395659, -1.18366501336667, 1.07177840924357, -1.23350069060553], a = 0.2, v = 0.2, t = 0.2)
movej(p[0.434550102818547, -0.103263055711186, 0.381210258639074, -1.18378282872726, 1.07169272834204, -1.23363016716158], a = 0.2, v = 0.2, t = 0.2)
movej(p[0.432945834632592, -0.102975220250982, 0.381313781126403, -1.1833953200371, 1.06953970229165, -1.2355547011735], a = 0.2, v = 0.2, t = 0.2)
movej(p[0.431341987110433, -0.102619209297424, 0.381580986340823, -1.18047024287394, 1.06453433603638, -1.24382012351419], a = 0.2, v = 0.2, t = 0.2)
movej(p[0.430250761592239, -0.102411840413388, 0.381779897512895, -1.18192942572687, 1.06215469706221, -1.24665710113478], a = 0.2, v = 0.2, t = 0.2)
movej(p[0.428932352258073, -0.102144068544892, 0.381738964958285, -1.18351414246478, 1.05550863046693, -1.24244838770959], a = 0.2, v = 0.2, t = 0.2)
movej(p[0.428343670515869, -0.101975400402679, 0.381781840058259, -1.17998135849002, 1.05265001653801, -1.2210572520655], a = 0.2, v = 0.2, t = 0.2)
movej(p[0.428339413474115, -0.10197463127097, 0.381839678505955, -1.17749832871345, 1.0545065247322, -1.2183164720614], a = 0.2, v = 0.2, t = 0.2)
movej(p[0.428992023486504, -0.102092961629938, 0.381889285641298, -1.1785427079973, 1.05194426284262, -1.21568760305737], a = 0.2, v = 0.2, t = 0.2)
movej(p[0.428995142708845, -0.102106995809237, 0.38187736749281, -1.18016194582725, 1.0490515101417, -1.21297331112821], a = 0.2, v = 0.2, t = 0.2)
movej(p[0.429004586398868, -0.102109774808724, 0.381852628578513, -1.17999798042141, 1.04889879791379, -1.21305773626139], a = 0.2, v = 0.2, t = 0.2)
movej(p[0.429011703363902, -0.102118637085443, 0.381763720823733, -1.17860186547264, 1.05113413282764, -1.2153851509], a = 0.2, v = 0.2, t = 0.2)
movej(p[0.428985246396668, -0.102120611547904, 0.381761799786828, -1.17882008929328, 1.05307521269656, -1.21759989441475], a = 0.2, v = 0.2, t = 0.2)
movej(p[0.428064797323598, -0.101889486920372, 0.381988106769559, -1.18178573532542, 1.05412725874089, -1.21967973097525], a = 0.2, v = 0.2, t = 0.2)
movej(p[0.426614634717404, -0.101567643807813, 0.382223155565542, -1.18222893152362, 1.05379574097015, -1.22016983663582], a = 0.2, v = 0.2, t = 0.2)
movej(p[0.424777168433398, -0.101144230165668, 0.382387333008539, -1.18201180256847, 1.04780946792916, -1.22205089857278], a = 0.2, v = 0.2, t = 0.2)
movej(p[0.423787507717754, -0.100894040528851, 0.382633362160346, -1.17360076692003, 1.03138141560483, -1.2312254856573], a = 0.2, v = 0.2, t = 0.2)
movej(p[0.423257774034313, -0.100751689241368, 0.383097486212277, -1.17360076692003, 1.03138141560483, -1.2312254856573], a = 0.2, v = 0.2, t = 0.2)
movej(p[0.423257774034313, -0.100751689241368, 0.383097486212277, -1.17439646503637, 1.03224558134784, -1.22297118204639], a = 0.2, v = 0.2, t = 0.2)
movej(p[0.423394582335925, -0.100777186849975, 0.382967603917235, -1.17624905563559, 1.03590952569591, -1.19431755325573], a = 0.2, v = 0.2, t = 0.2)
movej(p[0.424663967740586, -0.101057177459522, 0.382761612502366, -1.17944252838678, 1.04077591845716, -1.19079325354909], a = 0.2, v = 0.2, t = 0.2)
movej(p[0.426393216919136, -0.101476560937296, 0.38253977817893, -1.18026617269202, 1.04586581815918, -1.19211433849533], a = 0.2, v = 0.2, t = 0.2)
movej(p[0.428262347446239, -0.101920067451795, 0.382077861937336, -1.18005488184529, 1.04908318499221, -1.19369690536163], a = 0.2, v = 0.2, t = 0.2)
movej(p[0.430617663506655, -0.10248090164602, 0.381615083856468, -1.17822593059782, 1.05314333466164, -1.20035197326162], a = 0.2, v = 0.2, t = 0.2)
movej(p[0.433017660671803, -0.103019762655536, 0.38139085832334, -1.17941615983477, 1.05502874539007, -1.21043397484421], a = 0.2, v = 0.2, t = 0.2)
movej(p[0.434938941265031, -0.103485917026593, 0.381320962011338, -1.18483126926527, 1.0553420754392, -1.21221451233059], a = 0.2, v = 0.2, t = 0.2)
movej(p[0.436359150209396, -0.103837326437023, 0.381102352563677, -1.1851139747063, 1.0550237993254, -1.21218294952377], a = 0.2, v = 0.2, t = 0.2)
movej(p[0.437489088164391, -0.104121842097964, 0.380798513549494, -1.18550212679987, 1.05419734328274, -1.21313338253671], a = 0.2, v = 0.2, t = 0.2)
movej(p[0.43815319143876, -0.104276925363173, 0.380741454528949, -1.18544022107346, 1.05444228998224, -1.2137082892759], a = 0.2, v = 0.2, t = 0.2)
movej(p[0.43815319143876, -0.104276925363173, 0.380741454528949, -1.18454241986412, 1.06385122362041, -1.22181418891241], a = 0.2, v = 0.2, t = 0.2)
movej(p[0.437691563237358, -0.104153547193454, 0.381098530768578, -1.18215628170505, 1.0692657093518, -1.23085907085257], a = 0.2, v = 0.2, t = 0.2)
movej(p[0.435869879331178, -0.103726316225875, 0.381303128560123, -1.18353656659512, 1.06767810543835, -1.23293543541841], a = 0.2, v = 0.2, t = 0.2)
movej(p[0.4335398162075, -0.103192243687066, 0.381683786284286, -1.17749679265976, 1.05475083943523, -1.24091006924228], a = 0.2, v = 0.2, t = 0.2)
movej(p[0.431169696386462, -0.10262833815391, 0.382224052916235, -1.17879914994959, 1.0472813442731, -1.24666697693182], a = 0.2, v = 0.2, t = 0.2)
movej(p[0.429103839039475, -0.102167880080459, 0.382427184337973, -1.17467105184187, 1.03922310816513, -1.24701748981621], a = 0.2, v = 0.2, t = 0.2)
movej(p[0.427099624819578, -0.101692950788484, 0.382454659024238, -1.17314499684675, 1.03422641016698, -1.24063986106952], a = 0.2, v = 0.2, t = 0.2)
movej(p[0.424917213401706, -0.101172223114496, 0.382701458097744, -1.1698702116812, 1.0273579986042, -1.23769969570573], a = 0.2, v = 0.2, t = 0.2)
movej(p[0.42462995498257, -0.101096500545627, 0.382953371640848, -1.17134818302611, 1.02189815381538, -1.22521305845343], a = 0.2, v = 0.2, t = 0.2)
movej(p[0.42462995498257, -0.101096500545627, 0.382953371640848, -1.171888879239, 1.02375326725618, -1.2113752771196], a = 0.2, v = 0.2, t = 0.2)
movej(p[0.425121773431115, -0.101206037994997, 0.382826769702254, -1.16522459425961, 1.02863502736193, -1.19812463010876], a = 0.2, v = 0.2, t = 0.2)
movej(p[0.428371905407591, -0.10189558934376, 0.382249757386175, -1.16637527604282, 1.02967989544935, -1.19754744851734], a = 0.2, v = 0.2, t = 0.2)
movej(p[0.432822442665663, -0.102968559391495, 0.381697805820203, -1.17019686484958, 1.03523902589588, -1.21082598943507], a = 0.2, v = 0.2, t = 0.2)
movej(p[0.435120589110639, -0.10353068509342, 0.381234447154935, -1.17648171213545, 1.04738052492406, -1.22122605903429], a = 0.2, v = 0.2, t = 0.2)
movej(p[0.436352121765439, -0.103849812920971, 0.381116441520138, -1.18283552402655, 1.05278072667324, -1.21916155384329], a = 0.2, v = 0.2, t = 0.2)
movej(p[0.436972607689992, -0.103986525801242, 0.380973799114802, -1.18230591307645, 1.05364938612409, -1.22010099923214], a = 0.2, v = 0.2, t = 0.2)
movej(p[0.437505841782288, -0.104129534743576, 0.380847080508333, -1.18224766958558, 1.05285264687984, -1.22087821193069], a = 0.2, v = 0.2, t = 0.2)
movej(p[0.437753070876123, -0.10417785433383, 0.380517348780471, -1.1813389469077, 1.05284392955083, -1.22170638562361], a = 0.2, v = 0.2, t = 0.2)
movej(p[0.437965205347294, -0.104227371782649, 0.380309396289735, -1.18079416081093, 1.05272573006229, -1.22215533318442], a = 0.2, v = 0.2, t = 0.2)
movej(p[0.43821407197794, -0.104290098916624, 0.380200390616422, -1.18059875162774, 1.05255786978437, -1.22225229456238], a = 0.2, v = 0.2, t = 0.2)
movej(p[0.43821407197794, -0.104290098916624, 0.380200390616422, -1.18064121503991, 1.05252607824799, -1.22229915576429], a = 0.2, v = 0.2, t = 0.2)
movej(p[0.437661643218629, -0.104172420009577, 0.380801658086624, -1.17975126982303, 1.05431760956966, -1.22407245737353], a = 0.2, v = 0.2, t = 0.2)
movej(p[0.435923581793659, -0.103739881460445, 0.38091948145674, -1.17902373766018, 1.0574891302209, -1.22812963414686], a = 0.2, v = 0.2, t = 0.2)
movej(p[0.434123446717914, -0.103329230378632, 0.380941271547969, -1.18167057460422, 1.05836421975371, -1.23498188114393], a = 0.2, v = 0.2, t = 0.2)
movej(p[0.43202207838984, -0.102818567519731, 0.381244008239347, -1.1816985443018, 1.05839095666122, -1.23496727509247], a = 0.2, v = 0.2, t = 0.2)
movej(p[0.430322105550467, -0.10242857379831, 0.381490249082115, -1.18251345633584, 1.05780763680653, -1.22798056983526], a = 0.2, v = 0.2, t = 0.2)
movej(p[0.428421194463079, -0.101928741025316, 0.381618857390122, -1.1829254070372, 1.05706919756975, -1.22705248111387], a = 0.2, v = 0.2, t = 0.2)
movej(p[0.427336868144713, -0.101655906693369, 0.381569615613045, -1.18214354209961, 1.04999254869931, -1.22349515143589], a = 0.2, v = 0.2, t = 0.2)
movej(p[0.426862378026195, -0.101521631835849, 0.381642612051768, -1.18237757432148, 1.04893564359554, -1.2227344314878], a = 0.2, v = 0.2, t = 0.2)
movej(p[0.42638788060133, -0.101387257263016, 0.38171560662672, -1.18260847724125, 1.04787867629951, -1.22197270471472], a = 0.2, v = 0.2, t = 0.2)
movej(p[0.425913390482811, -0.101252982405496, 0.381788603065443, -1.18284048554284, 1.04682366870687, -1.22121247394562], a = 0.2, v = 0.2, t = 0.2)
movej(p[0.424861758635838, -0.101132844469042, 0.382503915441022, -1.18186721195405, 1.03787625560914, -1.21556809113719], a = 0.2, v = 0.2, t = 0.2)
movej(p[0.423823877559187, -0.100835937151812, 0.382465994922779, -1.17904422651882, 1.03994736302735, -1.21215061021434], a = 0.2, v = 0.2, t = 0.2)
movej(p[0.423826982263776, -0.100836498087523, 0.382423812744545, -1.17759355741023, 1.03787411837783, -1.19715306015496], a = 0.2, v = 0.2, t = 0.2)
movej(p[0.424282122031735, -0.100869500604365, 0.38237752748226, -1.17928899350982, 1.04197953232235, -1.18078819843055], a = 0.2, v = 0.2, t = 0.2)
movej(p[0.427120608986857, -0.101564025898229, 0.382042842478436, -1.18165723440946, 1.04493262191952, -1.17753444483025], a = 0.2, v = 0.2, t = 0.2)
movej(p[0.429376166476992, -0.102068802493289, 0.381531062527896, -1.1823381680738, 1.04554380491675, -1.17718608647145], a = 0.2, v = 0.2, t = 0.2)
movej(p[0.432420446469377, -0.102853717405943, 0.38124100512348, -1.18182916546092, 1.04776877331683, -1.18285359572639], a = 0.2, v = 0.2, t = 0.2)
movej(p[0.435656669682792, -0.103608775546903, 0.380830103302212, -1.18339271479925, 1.0505507333931, -1.19490202737824], a = 0.2, v = 0.2, t = 0.2)
movej(p[0.436795100456452, -0.103920798763079, 0.380528959920827, -1.18406304954746, 1.0530406972229, -1.20555098877141], a = 0.2, v = 0.2, t = 0.2)
movej(p[0.437802106856572, -0.104274805865392, 0.380535684623765, -1.18307865772716, 1.05052599505907, -1.21160381535791], a = 0.2, v = 0.2, t = 0.2)
movej(p[0.43780300756055, -0.104279005942932, 0.38060790759851, -1.18299636347173, 1.05065409390995, -1.21174721141481], a = 0.2, v = 0.2, t = 0.2)
movej(p[0.437799844138143, -0.104278434398507, 0.380650887548436, -1.18080412177726, 1.05297310512712, -1.21527916508477], a = 0.2, v = 0.2, t = 0.2)
movej(p[0.436195840676919, -0.103910454504411, 0.380968864015996, -1.17877456525499, 1.05459389678857, -1.21866397015916], a = 0.2, v = 0.2, t = 0.2)
movej(p[0.433998998628731, -0.103378368820092, 0.381305804381428, -1.17792936955528, 1.052027022221, -1.2229054437668], a = 0.2, v = 0.2, t = 0.2)
movej(p[0.431715912165375, -0.102906802385077, 0.381790528816759, -1.17674206036765, 1.04076432540261, -1.23314493270767], a = 0.2, v = 0.2, t = 0.2)
movej(p[0.429629388137691, -0.102453808553009, 0.381975792574701, -1.17510890277606, 1.03488371494302, -1.23796542408521], a = 0.2, v = 0.2, t = 0.2)
movej(p[0.428047534396815, -0.101977767771046, 0.382032734706584, -1.17344056698626, 1.03288972045043, -1.23862515554498], a = 0.2, v = 0.2, t = 0.2)
movej(p[0.42594673590002, -0.101420885972199, 0.382155499025409, -1.17324501510038, 1.02694015297844, -1.23367845194278], a = 0.2, v = 0.2, t = 0.2)
movej(p[0.423823696595848, -0.100947494167931, 0.382652380140559, -1.17525735205922, 1.02270451534453, -1.22716685305069], a = 0.2, v = 0.2, t = 0.2)
movej(p[0.423823696595848, -0.100947494167931, 0.382652380140559, -1.17393238544898, 1.0280925942305, -1.20297367242732], a = 0.2, v = 0.2, t = 0.2)
movej(p[0.425489263346917, -0.101121096407569, 0.382190945042061, -1.17526537025211, 1.03369169827809, -1.19460131097892], a = 0.2, v = 0.2, t = 0.2)
movej(p[0.42827075325864, -0.101776640432354, 0.381788370586149, -1.17681032311447, 1.03509458910951, -1.19382240167983], a = 0.2, v = 0.2, t = 0.2)
movej(p[0.43139870624187, -0.102585769168371, 0.38132348869443, -1.17720653678737, 1.04397745108392, -1.21187465778626], a = 0.2, v = 0.2, t = 0.2)
movej(p[0.433359716339809, -0.103167669534404, 0.381059402421042, -1.18138939366439, 1.0532853803647, -1.21325799714375], a = 0.2, v = 0.2, t = 0.2)
movej(p[0.433996647079732, -0.103220448263576, 0.380728629964075, -1.18186995252109, 1.05373394795688, -1.2130089744714], a = 0.2, v = 0.2, t = 0.2)
movej(p[0.434397451484772, -0.103309295571917, 0.380702954592592, -1.18274893642189, 1.05499917774155, -1.21115646068546], a = 0.2, v = 0.2, t = 0.2)
movej(p[0.435731249390562, -0.103669409598311, 0.380716865901152, -1.18328024955861, 1.05416323811086, -1.21031902529832], a = 0.2, v = 0.2, t = 0.2)
movej(p[0.43692548304394, -0.103988762653466, 0.380421832517781, -1.18214260121001, 1.04894960356053, -1.21261665876498], a = 0.2, v = 0.2, t = 0.2)
movej(p[0.437569929426629, -0.104204952970669, 0.380375671423922, -1.18229796376479, 1.04543921679509, -1.21604919150829], a = 0.2, v = 0.2, t = 0.2)
movej(p[0.438014906941265, -0.104283561969351, 0.380188051390892, -1.18145306734552, 1.04632601717483, -1.21734354375443], a = 0.2, v = 0.2, t = 0.2)
movej(p[0.438014906941265, -0.104283561969351, 0.380188051390892, -1.17906139404244, 1.05027291813662, -1.22166532065225], a = 0.2, v = 0.2, t = 0.2)
movej(p[0.437273623384397, -0.10411745798432, 0.380445156650412, -1.18396638045239, 1.06034369396604, -1.22142628919927], a = 0.2, v = 0.2, t = 0.2)
movej(p[0.435922625958308, -0.103776838830014, 0.380652156786697, -1.18320198396167, 1.06319890406666, -1.22790741589557], a = 0.2, v = 0.2, t = 0.2)
movej(p[0.434037998544766, -0.103297151231905, 0.380905374500027, -1.18014185329781, 1.0601836450617, -1.23011470310838], a = 0.2, v = 0.2, t = 0.2)
movej(p[0.43239298558345, -0.103068275876748, 0.381625104670929, -1.1829019227184, 1.05644464219288, -1.25129313157847], a = 0.2, v = 0.2, t = 0.2)
movej(p[0.430702757596516, -0.102581857045109, 0.381572950932696, -1.18489164374867, 1.05470884853501, -1.25587384207538], a = 0.2, v = 0.2, t = 0.2)
movej(p[0.428966496613352, -0.102025180160825, 0.381484385392851, -1.18188840221179, 1.05178076501585, -1.25743013680634], a = 0.2, v = 0.2, t = 0.2)
movej(p[0.427019102813656, -0.10143279295407, 0.381606937774206, -1.17897264248683, 1.04037546048563, -1.25235901787505], a = 0.2, v = 0.2, t = 0.2)
movej(p[0.426246915598148, -0.101278309046458, 0.381771270474833, -1.17876861745483, 1.03531546848529, -1.23560369908876], a = 0.2, v = 0.2, t = 0.2)
movej(p[0.426246915598148, -0.101278309046458, 0.381771270474833, -1.17853774878383, 1.03593357183006, -1.2195583983072], a = 0.2, v = 0.2, t = 0.2)
movej(p[0.428914410124189, -0.10185879763042, 0.381442238610976, -1.17802700156845, 1.04066128964218, -1.21486929437988], a = 0.2, v = 0.2, t = 0.2)
movej(p[0.431990772249057, -0.102442497908981, 0.380695997013715, -1.17806998790035, 1.04173516591283, -1.21529823740174], a = 0.2, v = 0.2, t = 0.2)
movej(p[0.434139786220744, -0.102920760101974, 0.38048057091444, -1.17813638412707, 1.04846766027727, -1.22390304613659], a = 0.2, v = 0.2, t = 0.2)
movej(p[0.435357253447438, -0.103391560789609, 0.380318922671495, -1.18641419540317, 1.0542824034039, -1.22152458575713], a = 0.2, v = 0.2, t = 0.2)
movej(p[0.436127240102216, -0.103445306209292, 0.379999661036895, -1.19402219070519, 1.05969011920365, -1.21854279473036], a = 0.2, v = 0.2, t = 0.2)
movej(p[0.43636618684565, -0.103675554022738, 0.379986214914583, -1.19673726366305, 1.05966758360985, -1.21963159961739], a = 0.2, v = 0.2, t = 0.2)
movej(p[0.437010983850206, -0.103755063676408, 0.379793358444927, -1.19703916649106, 1.05918664477709, -1.21915832155717], a = 0.2, v = 0.2, t = 0.2)
movej(p[0.437426755888516, -0.103751343118313, 0.379725336172048, -1.1966727008807, 1.05594166431167, -1.20974436907974], a = 0.2, v = 0.2, t = 0.2)
movej(p[0.437505348844502, -0.103748259641352, 0.379651959408429, -1.19520310170954, 1.05545987163401, -1.20963720008548], a = 0.2, v = 0.2, t = 0.2)
movej(p[0.437615734074599, -0.103769976930864, 0.379565007178368, -1.19503331959011, 1.05558748652767, -1.20944692300952], a = 0.2, v = 0.2, t = 0.2)
movej(p[0.438036397566802, -0.103823784009472, 0.379587057679924, -1.1941988158752, 1.0567495084875, -1.21023478434609], a = 0.2, v = 0.2, t = 0.2)
movej(p[0.438177442817504, -0.103848850420246, 0.37959777226369, -1.18654111285688, 1.04965845459973, -1.21421648121647], a = 0.2, v = 0.2, t = 0.2)
movej(p[0.438583298719343, -0.104348699658201, 0.379792030509997, -1.1804900554001, 1.04402531721709, -1.21732627639794], a = 0.2, v = 0.2, t = 0.2)
movej(p[0.438843786171954, -0.104348309196585, 0.379811197788682, -1.18042781137135, 1.04407253651012, -1.2172574072116], a = 0.2, v = 0.2, t = 0.2)
movej(p[0.439072295728297, -0.104402841763847, 0.379828741783889, -1.18074864037485, 1.04481940789018, -1.21669906345876], a = 0.2, v = 0.2, t = 0.2)
movej(p[0.439079635890595, -0.104575966046652, 0.379905590366966, -1.1815678744476, 1.04606913105109, -1.21587375469003], a = 0.2, v = 0.2, t = 0.2)
movej(p[0.439016561983703, -0.104577952376168, 0.380046579965037, -1.18142355725175, 1.04786181904625, -1.21677520987944], a = 0.2, v = 0.2, t = 0.2)
movej(p[0.438515723062139, -0.104440580344573, 0.38015249308784, -1.18031756447984, 1.05022549368355, -1.21890402005093], a = 0.2, v = 0.2, t = 0.2)
movej(p[0.437405231059951, -0.104160574604245, 0.380385622233296, -1.18116317116317, 1.05546087570804, -1.22140027992516], a = 0.2, v = 0.2, t = 0.2)
movej(p[0.43613223945507, -0.103878348598987, 0.380655597539309, -1.18078581158318, 1.0592635455479, -1.22476537636533], a = 0.2, v = 0.2, t = 0.2)
movej(p[0.434165098131985, -0.103477939956499, 0.380971885942564, -1.18144843352425, 1.05984495764329, -1.22892891375051], a = 0.2, v = 0.2, t = 0.2)
movej(p[0.432251781169835, -0.102885757960758, 0.381137662588299, -1.18313863252253, 1.05667459456696, -1.23262377617228], a = 0.2, v = 0.2, t = 0.2)
movej(p[0.430072250878179, -0.102217719824432, 0.381351227089482, -1.17379817687301, 1.04363108669209, -1.2356813731911], a = 0.2, v = 0.2, t = 0.2)
movej(p[0.427983130832811, -0.101755686934887, 0.381837117802523, -1.17494133676848, 1.03760627309814, -1.23390195897853], a = 0.2, v = 0.2, t = 0.2)
movej(p[0.425793910681923, -0.101093341221591, 0.382207984728825, -1.17320240054104, 1.03596147466007, -1.23478271160989], a = 0.2, v = 0.2, t = 0.2)
movej(p[0.423655849671487, -0.100515936048526, 0.382464213672881, -1.16958954461217, 1.03140291855523, -1.23609958012063], a = 0.2, v = 0.2, t = 0.2)
movej(p[0.422488234044136, -0.100364417165138, 0.382678702028609, -1.16719606861423, 1.0178197896043, -1.22777152155959], a = 0.2, v = 0.2, t = 0.2)
movej(p[0.422479536467449, -0.100362845749492, 0.382796871960541, -1.16450532876401, 1.01400302598541, -1.22017088315], a = 0.2, v = 0.2, t = 0.2)
movej(p[0.422750460314504, -0.100421632254822, 0.382817594312921, -1.16360918484716, 1.01168539413292, -1.20897521782755], a = 0.2, v = 0.2, t = 0.2)
movej(p[0.423932342218376, -0.100607034184138, 0.382542533665236, -1.16698193818506, 1.01944105324816, -1.20291929163569], a = 0.2, v = 0.2, t = 0.2)
movej(p[0.425186885262415, -0.100787808000957, 0.38224097095566, -1.1697433948657, 1.02414507476584, -1.20255769330126], a = 0.2, v = 0.2, t = 0.2)
movej(p[0.426795079139883, -0.101283741466029, 0.38204664324097, -1.17072642671339, 1.03414367645303, -1.21765520073497], a = 0.2, v = 0.2, t = 0.2)
movej(p[0.430818996089236, -0.102180160990665, 0.381173743727533, -1.17255896495582, 1.03957637432555, -1.22872409732691], a = 0.2, v = 0.2, t = 0.2)
movej(p[0.43333002986683, -0.102927912783306, 0.380863197620834, -1.17349541438868, 1.04058564655989, -1.23531326677707], a = 0.2, v = 0.2, t = 0.2)
movej(p[0.434865106062169, -0.103322388459386, 0.38056216062064, -1.17303822237301, 1.04358539450641, -1.24332898135267], a = 0.2, v = 0.2, t = 0.2)
movej(p[0.436190680405162, -0.103941811913205, 0.380572296500295, -1.17795452991576, 1.04828994314214, -1.24080463099785], a = 0.2, v = 0.2, t = 0.2)
movej(p[0.436682216474659, -0.103986906572581, 0.380412426602943, -1.18053696215699, 1.05466526270512, -1.23551189938901], a = 0.2, v = 0.2, t = 0.2)
movej(p[0.437137840175751, -0.103994334438579, 0.380257033810931, -1.18032950042425, 1.05481953472585, -1.23528456407954], a = 0.2, v = 0.2, t = 0.2)
movej(p[0.437488821620104, -0.104168195485327, 0.380277958727757, -1.18135998738326, 1.05693979904553, -1.23470763748554], a = 0.2, v = 0.2, t = 0.2)
movej(p[0.437942831082173, -0.10440961084117, 0.380299443008392, -1.17978184505096, 1.05879280171291, -1.23515178226337], a = 0.2, v = 0.2, t = 0.2)
movej(p[0.438130638200438, -0.104413000779034, 0.380229577890842, -1.17989746013178, 1.05922137979905, -1.23522337956448], a = 0.2, v = 0.2, t = 0.2)
movej(p[0.438468762013923, -0.104455371298825, 0.380119350100303, -1.18001729702475, 1.0593359723209, -1.23516068439864], a = 0.2, v = 0.2, t = 0.2)
movej(p[0.438471450749426, -0.10449206653403, 0.380120035968093, -1.17740843213785, 1.06184810960446, -1.23417673886355], a = 0.2, v = 0.2, t = 0.2)
movej(p[0.437757248733864, -0.104536209372377, 0.380558121097708, -1.17425676551896, 1.0644136472603, -1.23813807412798], a = 0.2, v = 0.2, t = 0.2)
movej(p[0.436135823520396, -0.104257294207004, 0.380879409157952, -1.17120404617147, 1.06156279967525, -1.24356766138473], a = 0.2, v = 0.2, t = 0.2)
movej(p[0.433734136215264, -0.103640922371084, 0.381286792942918, -1.17209413831065, 1.05773549764818, -1.24753746897568], a = 0.2, v = 0.2, t = 0.2)
movej(p[0.431293420262593, -0.102990097851733, 0.381678411345691, -1.16338940598763, 1.04779121107088, -1.25188339976743], a = 0.2, v = 0.2, t = 0.2)
movej(p[0.429132228904935, -0.102429786161542, 0.382065834687038, -1.1616208481081, 1.04103171814217, -1.25614254090744], a = 0.2, v = 0.2, t = 0.2)
movej(p[0.426904828591333, -0.101683264235086, 0.382255678823854, -1.16472488759487, 1.0358608929834, -1.26060185226475], a = 0.2, v = 0.2, t = 0.2)
movej(p[0.424507200133057, -0.10093035479405, 0.382526369162923, -1.1622538390227, 1.03084917180444, -1.26069559266813], a = 0.2, v = 0.2, t = 0.2)
movej(p[0.42238289475424, -0.100423083085874, 0.382962940086843, -1.15782460438462, 1.02021014463025, -1.25420661949092], a = 0.2, v = 0.2, t = 0.2)
movej(p[0.422064016630807, -0.100396793749774, 0.383065572553457, -1.1566197565331, 1.01857989993208, -1.25022259931043], a = 0.2, v = 0.2, t = 0.2)
movej(p[0.422060531503539, -0.100349229545446, 0.38306468353461, -1.15620094328792, 1.01770177617039, -1.24584826956522], a = 0.2, v = 0.2, t = 0.2)
movej(p[0.422405957457573, -0.100325378869451, 0.382986603091897, -1.15419168328683, 1.02191892983213, -1.22830894987395], a = 0.2, v = 0.2, t = 0.2)
movej(p[0.424513329175692, -0.100528288991421, 0.382455189002816, -1.15685264316186, 1.02439867837492, -1.22698213336632], a = 0.2, v = 0.2, t = 0.2)
movej(p[0.428877900900059, -0.10180332121807, 0.381806337422051, -1.1571091667644, 1.03481642646729, -1.2371481849479], a = 0.2, v = 0.2, t = 0.2)
movej(p[0.43344918424557, -0.102948125975364, 0.380892091753352, -1.16369714254411, 1.04144788957469, -1.23601311037575], a = 0.2, v = 0.2, t = 0.2)
movej(p[0.435245796471296, -0.103384253563401, 0.380578066949677, -1.16597289905715, 1.0433649619796, -1.23507299535283], a = 0.2, v = 0.2, t = 0.2)
movej(p[0.435955546697569, -0.103685041977578, 0.380471352160625, -1.17179952094894, 1.04875259245548, -1.23201715959517], a = 0.2, v = 0.2, t = 0.2)
movej(p[0.436693095184326, -0.103867496655449, 0.380362803368803, -1.17632905915947, 1.05305238596628, -1.22965112324065], a = 0.2, v = 0.2, t = 0.2)
movej(p[0.436949943816954, -0.103850546880942, 0.380262751906739, -1.17723378459984, 1.05247171818751, -1.22425890689042], a = 0.2, v = 0.2, t = 0.2)
movej(p[0.437127893892884, -0.103843878067697, 0.380211682273821, -1.17659665175521, 1.05537703556704, -1.22102028619601], a = 0.2, v = 0.2, t = 0.2)
movej(p[0.437404500577644, -0.103823591161364, 0.380212718313097, -1.17693398447138, 1.05569440527301, -1.22084469247173], a = 0.2, v = 0.2, t = 0.2)
movej(p[0.437886736786937, -0.10396009708485, 0.380129491506718, -1.17930178477039, 1.05977551529376, -1.22038414411206], a = 0.2, v = 0.2, t = 0.2)
movej(p[0.438088416643178, -0.10402256115451, 0.380031750340425, -1.18387931709596, 1.06641952501702, -1.21571132783667], a = 0.2, v = 0.2, t = 0.2)
movej(p[0.438424829339233, -0.103998326281002, 0.380009558926803, -1.18463857862981, 1.06486521583212, -1.2067377471586], a = 0.2, v = 0.2, t = 0.2)
movej(p[0.438634041209036, -0.104171531744896, 0.380025756482527, -1.18398175019683, 1.06535096793214, -1.20600537155999], a = 0.2, v = 0.2, t = 0.2)
movej(p[0.43908411167089, -0.104439627428529, 0.38006244781371, -1.18330853808377, 1.06581569093364, -1.20514759391466], a = 0.2, v = 0.2, t = 0.2)
movej(p[0.439235209125752, -0.104430614752798, 0.379952311667009, -1.18409852660428, 1.06844287707392, -1.20339532258791], a = 0.2, v = 0.2, t = 0.2)
movej(p[0.43923011660226, -0.104361113179597, 0.379951012618506, -1.18278126235998, 1.06944648914123, -1.2020363725916], a = 0.2, v = 0.2, t = 0.2)
movej(p[0.438356368494219, -0.104279137473229, 0.380234384118943, -1.17114968850367, 1.06939535634721, -1.20733950168652], a = 0.2, v = 0.2, t = 0.2)
movej(p[0.437418713810036, -0.104273463879168, 0.380608128608615, -1.16929666779417, 1.07221652894471, -1.21019115003069], a = 0.2, v = 0.2, t = 0.2)
movej(p[0.436327959253201, -0.104143702858702, 0.380859549757905, -1.16984209117387, 1.07149510407559, -1.21507786714904], a = 0.2, v = 0.2, t = 0.2)
movej(p[0.43544787017565, -0.103782021368516, 0.38094830461824, -1.16678703590993, 1.0721935019887, -1.21946459151994], a = 0.2, v = 0.2, t = 0.2)
movej(p[0.432436947145578, -0.102770904116283, 0.381389732312456, -1.16748943441407, 1.07140518033003, -1.22050618643082], a = 0.2, v = 0.2, t = 0.2)
movej(p[0.429670355724761, -0.102230898402731, 0.381942651184978, -1.16718308420667, 1.06519707096441, -1.22400313323753], a = 0.2, v = 0.2, t = 0.2)
movej(p[0.427084575889813, -0.101513552132475, 0.382325214936172, -1.16903263489099, 1.05806636072853, -1.22502839190552], a = 0.2, v = 0.2, t = 0.2)
movej(p[0.424610087063519, -0.100647186838089, 0.382668260946537, -1.16641724405562, 1.05314871287174, -1.22535737263908], a = 0.2, v = 0.2, t = 0.2)
movej(p[0.422878334184662, -0.100417977596266, 0.382973265044922, -1.16239760252195, 1.04129033884994, -1.2219703013461], a = 0.2, v = 0.2, t = 0.2)
movej(p[0.422498786964309, -0.100239688764303, 0.383177812789765, -1.15893128604353, 1.02942440465892, -1.20985573223555], a = 0.2, v = 0.2, t = 0.2)
movej(p[0.422498786964309, -0.100239688764303, 0.383177812789765, -1.15930894474003, 1.02870604099849, -1.20881619741504], a = 0.2, v = 0.2, t = 0.2)
movej(p[0.422524796348307, -0.100240350478334, 0.383040447968655, -1.1568185104996, 1.02814090723078, -1.19658197805769], a = 0.2, v = 0.2, t = 0.2)
movej(p[0.42387583009748, -0.100162612128925, 0.382724198403236, -1.15681163390888, 1.03581989279102, -1.18919779999854], a = 0.2, v = 0.2, t = 0.2)
movej(p[0.42614336828312, -0.100726873217905, 0.382314871992987, -1.16892096029424, 1.05038652581134, -1.18459713509752], a = 0.2, v = 0.2, t = 0.2)
movej(p[0.427854815563448, -0.100961459986025, 0.38187687840299, -1.16685241792501, 1.05499241316249, -1.19050120101572], a = 0.2, v = 0.2, t = 0.2)
movej(p[0.429988516699502, -0.101348990337779, 0.38147861592864, -1.16655621220592, 1.05652708114244, -1.19464144368257], a = 0.2, v = 0.2, t = 0.2)
movej(p[0.432262979077565, -0.102052160596634, 0.381068236862607, -1.16596503757777, 1.05953325246591, -1.20265404616001], a = 0.2, v = 0.2, t = 0.2)
movej(p[0.434316785133221, -0.1029605237197, 0.380851723254709, -1.17107181808946, 1.06033113723797, -1.20382616186665], a = 0.2, v = 0.2, t = 0.2)
movej(p[0.435603721609852, -0.10322125113855, 0.380555914417495, -1.17553015761034, 1.06242999837231, -1.20395390142897], a = 0.2, v = 0.2, t = 0.2)
movej(p[0.436866363976562, -0.103489184178392, 0.38028639122749, -1.17608636474562, 1.06215473856554, -1.20502406227985], a = 0.2, v = 0.2, t = 0.2)
movej(p[0.437605842284353, -0.103734093986883, 0.380182224495702, -1.17757123610979, 1.0635333066518, -1.20424293725214], a = 0.2, v = 0.2, t = 0.2)
movej(p[0.438324895899034, -0.104281291309377, 0.380210335694002, -1.17871377896103, 1.06542452190241, -1.20426179838404], a = 0.2, v = 0.2, t = 0.2)
movej(p[0.438430586103185, -0.104273495551857, 0.380213097380286, -1.17991406494804, 1.06740542201374, -1.20111777754947], a = 0.2, v = 0.2, t = 0.2)
movej(p[0.438603436780872, -0.10412669518891, 0.380054997074588, -1.17987443125429, 1.06904755396097, -1.20113707694256], a = 0.2, v = 0.2, t = 0.2)
movej(p[0.438601697870411, -0.104102962944402, 0.380054553497051, -1.17634171567821, 1.07448058225667, -1.2065706380584], a = 0.2, v = 0.2, t = 0.2)
movej(p[0.436661546638514, -0.104094650816623, 0.380641676828132, -1.16990311138994, 1.07406400858956, -1.21681379824289], a = 0.2, v = 0.2, t = 0.2)
movej(p[0.434198516210282, -0.103410019107278, 0.381067704940074, -1.16958138913894, 1.07368004164651, -1.22107245900922], a = 0.2, v = 0.2, t = 0.2)
movej(p[0.43191664091449, -0.102567499091765, 0.381413411879422, -1.16660668813159, 1.07050023454756, -1.22301665034338], a = 0.2, v = 0.2, t = 0.2)
movej(p[0.42976169596254, -0.101800993886127, 0.381723042697972, -1.16288470945848, 1.06282587593228, -1.22479534572378], a = 0.2, v = 0.2, t = 0.2)
movej(p[0.427750858358834, -0.101394309493139, 0.382127887354623, -1.16402121400987, 1.06171694701872, -1.22513364919424], a = 0.2, v = 0.2, t = 0.2)
movej(p[0.42605211885406, -0.100862189163153, 0.38237583875982, -1.16652980302238, 1.05895779138547, -1.22166639206423], a = 0.2, v = 0.2, t = 0.2)
movej(p[0.424593858564137, -0.100316487489697, 0.382574021958953, -1.16757388593296, 1.05651062903263, -1.21730150774193], a = 0.2, v = 0.2, t = 0.2)
movej(p[0.42322834193762, -0.0999475512989493, 0.382845259843223, -1.16545660302686, 1.05115838522524, -1.21112112579976], a = 0.2, v = 0.2, t = 0.2)
movej(p[0.423085109061241, -0.0999038039713762, 0.38290362939397, -1.16742603887184, 1.04686445325599, -1.20386126958207], a = 0.2, v = 0.2, t = 0.2)
movej(p[0.423085109061241, -0.0999038039713762, 0.38290362939397, -1.16569564108223, 1.04685809973939, -1.18858776957898], a = 0.2, v = 0.2, t = 0.2)
movej(p[0.424066381845543, -0.0998370165228834, 0.382630104606223, -1.16475306061264, 1.05032563049202, -1.18109447528768], a = 0.2, v = 0.2, t = 0.2)
movej(p[0.425747722620145, -0.0999536124907164, 0.382248694223635, -1.16381004581051, 1.05309913453272, -1.17329895276519], a = 0.2, v = 0.2, t = 0.2)
movej(p[0.427839121284476, -0.100787045292866, 0.382046686572457, -1.16554449180278, 1.05465019795944, -1.17239612402582], a = 0.2, v = 0.2, t = 0.2)
movej(p[0.430063715187162, -0.101227108073172, 0.381566664273473, -1.16907013314651, 1.06522950236991, -1.18202659387202], a = 0.2, v = 0.2, t = 0.2)
movej(p[0.431897855801418, -0.101668238349434, 0.381224181023514, -1.17131933728504, 1.07068617357379, -1.18429249733335], a = 0.2, v = 0.2, t = 0.2)
movej(p[0.433738004505945, -0.102241948283443, 0.380911680388561, -1.17231594430002, 1.07051630212813, -1.18731126864315], a = 0.2, v = 0.2, t = 0.2)
movej(p[0.435377528659148, -0.102869453188946, 0.380653719743047, -1.1766880301393, 1.07065842466506, -1.18979235093152], a = 0.2, v = 0.2, t = 0.2)
movej(p[0.436472826213406, -0.103329586199734, 0.380463282929325, -1.177459242228, 1.07144273879104, -1.18959122215573], a = 0.2, v = 0.2, t = 0.2)
movej(p[0.436984483746812, -0.103434864851614, 0.380352625060344, -1.17816482999267, 1.07200493446388, -1.1893008564519], a = 0.2, v = 0.2, t = 0.2)
movej(p[0.43771927108388, -0.103643647684235, 0.380241315051422, -1.17900016073511, 1.07072795313201, -1.18801984114617], a = 0.2, v = 0.2, t = 0.2)
movej(p[0.438657056918674, -0.104164739429938, 0.3801379682536, -1.18177224254398, 1.06855812834168, -1.19070736787524], a = 0.2, v = 0.2, t = 0.2)
movej(p[0.439082014000356, -0.104223026340903, 0.380123491557187, -1.18448774468653, 1.07144265583192, -1.18942620358914], a = 0.2, v = 0.2, t = 0.2)
movej(p[0.439260754076737, -0.104210428285749, 0.380134373841025, -1.18035722940675, 1.07545268618031, -1.18804344435916], a = 0.2, v = 0.2, t = 0.2)
movej(p[0.439260702932312, -0.104209730278557, 0.380134360794627, -1.17793250920736, 1.07829659746717, -1.18966982887728], a = 0.2, v = 0.2, t = 0.2)
movej(p[0.438293602392047, -0.104112875826762, 0.380410061810561, -1.17300628396832, 1.07780828396433, -1.19395421249983], a = 0.2, v = 0.2, t = 0.2)
movej(p[0.436967162188925, -0.104141419274893, 0.38074551760364, -1.16851571781515, 1.07917383893558, -1.20174051028869], a = 0.2, v = 0.2, t = 0.2)
movej(p[0.43499686772562, -0.10351235112291, 0.381101452777556, -1.1678365120596, 1.08056301048627, -1.20401380572589], a = 0.2, v = 0.2, t = 0.2)
movej(p[0.432795715333276, -0.102595964059804, 0.381407394252759, -1.16815996107358, 1.07971983409622, -1.20497853621743], a = 0.2, v = 0.2, t = 0.2)
movej(p[0.430575310032635, -0.102133360605624, 0.381767791873544, -1.16589902149839, 1.07269316963592, -1.20851534940026], a = 0.2, v = 0.2, t = 0.2)
movej(p[0.428693578855717, -0.101829492189963, 0.382153522782053, -1.16502189270648, 1.06642951261809, -1.20999529344653], a = 0.2, v = 0.2, t = 0.2)
movej(p[0.426849484096912, -0.101266416566919, 0.3823900632295, -1.16359945633664, 1.05977482761051, -1.21042348045621], a = 0.2, v = 0.2, t = 0.2)
movej(p[0.425075703258875, -0.100670150849117, 0.382683382547631, -1.16256989076288, 1.05270044071108, -1.20835769143443], a = 0.2, v = 0.2, t = 0.2)
movej(p[0.423320483346604, -0.100458329816624, 0.382976361317785, -1.16087324123269, 1.04512295450729, -1.2066294530478], a = 0.2, v = 0.2, t = 0.2)
movej(p[0.423116708931295, -0.10036783191613, 0.383042288381057, -1.16252585872366, 1.04161608825703, -1.20186965153374], a = 0.2, v = 0.2, t = 0.2)
movej(p[0.4231094464229, -0.100268714894951, 0.383040435792517, -1.15939997850784, 1.04081736637792, -1.18746349769057], a = 0.2, v = 0.2, t = 0.2)
movej(p[0.424111112375653, -0.100201168176282, 0.382727588209991, -1.16198307823078, 1.04681960697357, -1.17537048621782], a = 0.2, v = 0.2, t = 0.2)
movej(p[0.425146363827896, -0.100158498560682, 0.382551015181093, -1.16399919147816, 1.05148040787314, -1.17149212564052], a = 0.2, v = 0.2, t = 0.2)
movej(p[0.427459562410124, -0.100612744164876, 0.382161335940889, -1.1657546084791, 1.05906355170739, -1.17316968809644], a = 0.2, v = 0.2, t = 0.2)
movej(p[0.430746525759101, -0.101412356834555, 0.381587595571931, -1.16897239865455, 1.06535177221545, -1.1806993919655], a = 0.2, v = 0.2, t = 0.2)
movej(p[0.433312434287473, -0.102050472453057, 0.381138336880917, -1.16624863971887, 1.07171804676097, -1.19251307393582], a = 0.2, v = 0.2, t = 0.2)
movej(p[0.434931602619793, -0.102596808679926, 0.380870979631491, -1.17019077672701, 1.0694814945672, -1.20234631767764], a = 0.2, v = 0.2, t = 0.2)
movej(p[0.436639999467678, -0.103532624890995, 0.380679247007142, -1.17270796405825, 1.0676353649597, -1.20513522524008], a = 0.2, v = 0.2, t = 0.2)
movej(p[0.437236809923939, -0.103669358051493, 0.38053175364418, -1.17769482226657, 1.06960753979949, -1.20139445734169], a = 0.2, v = 0.2, t = 0.2)
movej(p[0.437785464498956, -0.103790217688594, 0.38041359698786, -1.1768912829144, 1.06978441425433, -1.1991334295312], a = 0.2, v = 0.2, t = 0.2)
movej(p[0.438211527287219, -0.104000071269038, 0.380349974466435, -1.17591404080652, 1.06887951538966, -1.19965246762018], a = 0.2, v = 0.2, t = 0.2)
movej(p[0.438226198430938, -0.104200299617659, 0.380353716918937, -1.1745772276363, 1.0714708778251, -1.20349998579746], a = 0.2, v = 0.2, t = 0.2)
movej(p[0.438210801327339, -0.104200133250568, 0.380422977524788, -1.1739531831285, 1.07635220866607, -1.21043116491459], a = 0.2, v = 0.2, t = 0.2)
movej(p[0.43633461667037, -0.103832792599801, 0.380797241895586, -1.17138271624202, 1.08149391063335, -1.21831471484469], a = 0.2, v = 0.2, t = 0.2)
movej(p[0.434099170126706, -0.103344516975254, 0.381259478755749, -1.16416636584532, 1.07879843571101, -1.22646414161547], a = 0.2, v = 0.2, t = 0.2)
movej(p[0.432088294120561, -0.103084472709484, 0.381706181764192, -1.16816977640527, 1.07551359385896, -1.23122729860106], a = 0.2, v = 0.2, t = 0.2)
movej(p[0.429822278784535, -0.102296015380249, 0.382005340044818, -1.16742932133242, 1.07424061235715, -1.23139768901232], a = 0.2, v = 0.2, t = 0.2)
movej(p[0.427709443382865, -0.101367640025011, 0.382284530258181, -1.16308543506783, 1.06772778669211, -1.22852235114788], a = 0.2, v = 0.2, t = 0.2)
movej(p[0.425911648148543, -0.100993554345006, 0.382642613683469, -1.15928582276184, 1.06074276225956, -1.22545635606779], a = 0.2, v = 0.2, t = 0.2)
movej(p[0.425682513355893, -0.100885623000841, 0.382630029497211, -1.15325253813921, 1.06417710865198, -1.21560268428257], a = 0.2, v = 0.2, t = 0.2)
movej(p[0.42559977336702, -0.10040062123962, 0.382617490125054, -1.15263839758846, 1.0673553257339, -1.21174346868431], a = 0.2, v = 0.2, t = 0.2)
movej(p[0.425649538019748, -0.100397626900405, 0.382582605841034, -1.16446714439884, 1.06966116928485, -1.20183182773325], a = 0.2, v = 0.2, t = 0.2)
movej(p[0.425823300738731, -0.10046484869597, 0.382511452782827, -1.16993422893076, 1.06842983638434, -1.19632617121044], a = 0.2, v = 0.2, t = 0.2)
movej(p[0.427190692162437, -0.101017253100167, 0.382289422517775, -1.16937040416268, 1.06884391878859, -1.19569969898219], a = 0.2, v = 0.2, t = 0.2)
movej(p[0.429595773258802, -0.101398889246742, 0.381829428483535, -1.16100883220665, 1.0774691557353, -1.19721467589514], a = 0.2, v = 0.2, t = 0.2)
movej(p[0.431803819080044, -0.101751332827189, 0.381418020809935, -1.16022901986481, 1.07863965265685, -1.19840382078817], a = 0.2, v = 0.2, t = 0.2)
movej(p[0.434332443321027, -0.102697761459663, 0.380962797445479, -1.16607959523412, 1.07731096468026, -1.20200505738939], a = 0.2, v = 0.2, t = 0.2)
movej(p[0.435977009053203, -0.103564309677471, 0.380767551449958, -1.16515582227927, 1.08054784861108, -1.20448752464573], a = 0.2, v = 0.2, t = 0.2)
movej(p[0.436871378135837, -0.103727009955202, 0.380575317806557, -1.16858069726049, 1.08324568341031, -1.20322812678007], a = 0.2, v = 0.2, t = 0.2)
movej(p[0.437243754795178, -0.103891107111951, 0.380508940425431, -1.16882718312103, 1.08325417526661, -1.20331568613654], a = 0.2, v = 0.2, t = 0.2)
movej(p[0.437378539792702, -0.103910122758023, 0.380470879426406, -1.16911134014779, 1.08305294064105, -1.20363884649097], a = 0.2, v = 0.2, t = 0.2)
movej(p[0.43804672326768, -0.103994466955894, 0.380356923338141, -1.16959607081807, 1.08318397595436, -1.20369699906991], a = 0.2, v = 0.2, t = 0.2)
movej(p[0.438540380002539, -0.104292315959033, 0.380278086548141, -1.17011008144148, 1.08242670360129, -1.20292545575759], a = 0.2, v = 0.2, t = 0.2)
movej(p[0.439053907958246, -0.104535549463906, 0.380178225440528, -1.17640174029254, 1.08576660364437, -1.19754659686927], a = 0.2, v = 0.2, t = 0.2)
movej(p[0.439419849653472, -0.10453038364569, 0.380012654881497, -1.17640174029254, 1.08576660364437, -1.19754659686927], a = 0.2, v = 0.2, t = 0.2)
movej(p[0.439435287963571, -0.104741082102181, 0.380016593029971, -1.17306402107517, 1.0906437135478, -1.20584564442727], a = 0.2, v = 0.2, t = 0.2)
movej(p[0.438881003499123, -0.104777958173928, 0.380216556046063, -1.17125790104041, 1.09301418263367, -1.21030893815826], a = 0.2, v = 0.2, t = 0.2)
movej(p[0.436647047625144, -0.104223011335227, 0.380645124417887, -1.16845169901601, 1.09561996842198, -1.21395218702881], a = 0.2, v = 0.2, t = 0.2)
movej(p[0.434372968485074, -0.103383407473582, 0.381045695061107, -1.16421236311646, 1.08931762594138, -1.21855812912171], a = 0.2, v = 0.2, t = 0.2)
movej(p[0.431953969495836, -0.103107031403227, 0.381535546566976, -1.16528568792335, 1.07880669928102, -1.2239525451094], a = 0.2, v = 0.2, t = 0.2)
movej(p[0.429976721981984, -0.102564558197156, 0.38188931369329, -1.1669693465607, 1.07525702434345, -1.22630405899227], a = 0.2, v = 0.2, t = 0.2)
movej(p[0.427683195506629, -0.101689868652305, 0.382284877742431, -1.16208313062068, 1.06517409014742, -1.23040618007757], a = 0.2, v = 0.2, t = 0.2)
movej(p[0.425367954949812, -0.101069000967616, 0.38272804653892, -1.16236021209717, 1.0584686102204, -1.22735038241405], a = 0.2, v = 0.2, t = 0.2)
movej(p[0.425225193446896, -0.100615147878591, 0.382711503659249, -1.16033499596946, 1.05453040261628, -1.20704321661884], a = 0.2, v = 0.2, t = 0.2)
movej(p[0.425226837545781, -0.100615444922562, 0.382689166051863, -1.16435065363206, 1.0610512749517, -1.18871002920087], a = 0.2, v = 0.2, t = 0.2)
movej(p[0.428122513332913, -0.100898415168708, 0.382075744577171, -1.16062065414354, 1.06750420906434, -1.18088018219066], a = 0.2, v = 0.2, t = 0.2)
movej(p[0.431444418438298, -0.101636908164579, 0.381442592852963, -1.15532000876855, 1.07663455688023, -1.18950235550468], a = 0.2, v = 0.2, t = 0.2)
movej(p[0.433996412816417, -0.10252595086193, 0.380972081220444, -1.16261149489071, 1.07612085111835, -1.20284822480748], a = 0.2, v = 0.2, t = 0.2)
movej(p[0.435573163127857, -0.103408699213956, 0.38071249336948, -1.16576959976569, 1.07859323749464, -1.20169569875089], a = 0.2, v = 0.2, t = 0.2)
movej(p[0.436306836965609, -0.103554711014709, 0.380535385961843, -1.16837771920898, 1.08116626915127, -1.20034446608492], a = 0.2, v = 0.2, t = 0.2)
movej(p[0.437125867076543, -0.103687812374017, 0.380360277836581, -1.16904216640467, 1.08521743450334, -1.20187657594839], a = 0.2, v = 0.2, t = 0.2)
movej(p[0.437710812282859, -0.104001300373164, 0.380272624200037, -1.16966979622471, 1.0852154737852, -1.20212360189781], a = 0.2, v = 0.2, t = 0.2)
movej(p[0.438515556674245, -0.10443770952614, 0.380129679260529, -1.17386181000204, 1.08510213789852, -1.19825098435157], a = 0.2, v = 0.2, t = 0.2)
movej(p[0.438854902360009, -0.104414944102233, 0.380017371598155, -1.17520477153878, 1.08894539030405, -1.19490374799324], a = 0.2, v = 0.2, t = 0.2)
movej(p[0.439194740632448, -0.104390972636344, 0.379967658446891, -1.17465261687629, 1.09063164350007, -1.19483386632218], a = 0.2, v = 0.2, t = 0.2)
movej(p[0.439443645942433, -0.104497635475285, 0.379911585677647, -1.17440157017307, 1.09100872521449, -1.19520965647573], a = 0.2, v = 0.2, t = 0.2)
movej(p[0.43946445441719, -0.104781624686874, 0.379916893697929, -1.1730939921445, 1.09304885759922, -1.19956671262605], a = 0.2, v = 0.2, t = 0.2)
movej(p[0.439062743338125, -0.104808967562838, 0.380028783447639, -1.17022783618879, 1.09446800920025, -1.20319628913144], a = 0.2, v = 0.2, t = 0.2)
movej(p[0.438068951001459, -0.104689005160637, 0.380234323501259, -1.16913702733031, 1.09500481538412, -1.20446982085671], a = 0.2, v = 0.2, t = 0.2)
movej(p[0.435080069335879, -0.103650383498317, 0.380816095150376, -1.16562784717063, 1.08988021328879, -1.21799136609708], a = 0.2, v = 0.2, t = 0.2)
movej(p[0.43218471807115, -0.103113116881571, 0.381383841023425, -1.16628413146406, 1.08510204423712, -1.22297481536358], a = 0.2, v = 0.2, t = 0.2)
movej(p[0.430056508000908, -0.102346591820057, 0.381761423116473, -1.16461384733791, 1.07067742491699, -1.22058939653732], a = 0.2, v = 0.2, t = 0.2)
movej(p[0.428018214206781, -0.101589049457396, 0.382121475109386, -1.16195986396641, 1.06645464975669, -1.22140368239889], a = 0.2, v = 0.2, t = 0.2)
movej(p[0.42563096526873, -0.100885670251438, 0.382545210380985, -1.1550629227398, 1.0478654239794, -1.219880088412], a = 0.2, v = 0.2, t = 0.2)
movej(p[0.424537813521881, -0.100783569631521, 0.382683607569447, -1.15864744537646, 1.04185358910435, -1.21263699692979], a = 0.2, v = 0.2, t = 0.2)
movej(p[0.424528731733214, -0.10065962349739, 0.382681290901888, -1.16480639451604, 1.04390057945688, -1.18180998432279], a = 0.2, v = 0.2, t = 0.2)
movej(p[0.427486337180409, -0.100455099159552, 0.382029342971483, -1.16419975381794, 1.05721869480474, -1.16838191775712], a = 0.2, v = 0.2, t = 0.2)
movej(p[0.431389683882447, -0.101450180925387, 0.381313539854007, -1.16041949835456, 1.06935525450803, -1.17695827172244], a = 0.2, v = 0.2, t = 0.2)
movej(p[0.434196877220429, -0.102630318049335, 0.380874607260243, -1.16534816851127, 1.07392290087723, -1.19539255786519], a = 0.2, v = 0.2, t = 0.2)
movej(p[0.435968870235295, -0.103420416903137, 0.380594664379483, -1.16997153451832, 1.07469517527154, -1.19639904689441], a = 0.2, v = 0.2, t = 0.2)
movej(p[0.436680915577893, -0.103748678696062, 0.380441653414549, -1.17613880419905, 1.07851535815588, -1.19367273482023], a = 0.2, v = 0.2, t = 0.2)
movej(p[0.437272174175795, -0.103765744072235, 0.380333475166538, -1.18090288074202, 1.07863184757496, -1.18939058158387], a = 0.2, v = 0.2, t = 0.2)
movej(p[0.437773122373313, -0.104228770308148, 0.380268602843781, -1.18236723051305, 1.07813289832402, -1.19046341710917], a = 0.2, v = 0.2, t = 0.2)
movej(p[0.438149060661765, -0.104436719158538, 0.380219015154816, -1.1815548128591, 1.08198805455628, -1.19274088616181], a = 0.2, v = 0.2, t = 0.2)
movej(p[0.438511918114542, -0.104411828048386, 0.380128265049584, -1.17953029109066, 1.08474353826087, -1.18916583870668], a = 0.2, v = 0.2, t = 0.2)
movej(p[0.438841068285213, -0.104391169125074, 0.380050533305523, -1.17917152058748, 1.08493025253353, -1.18852506229855], a = 0.2, v = 0.2, t = 0.2)
movej(p[0.439041119487773, -0.104531125154928, 0.380046561396412, -1.17917152058748, 1.08493025253353, -1.18852506229855], a = 0.2, v = 0.2, t = 0.2)
movej(p[0.439041119487773, -0.104531125154928, 0.380046561396412, -1.17353020412912, 1.09429808299954, -1.2004251610181], a = 0.2, v = 0.2, t = 0.2)
movej(p[0.437556951507587, -0.104419154138362, 0.380341163260017, -1.17428401323939, 1.09303366635389, -1.20407458377134], a = 0.2, v = 0.2, t = 0.2)
movej(p[0.435898767491748, -0.103971004410961, 0.38064305509735, -1.17036769686072, 1.09748481117845, -1.21095293078084], a = 0.2, v = 0.2, t = 0.2)
movej(p[0.434259834064822, -0.103610993843235, 0.380955959353041, -1.16890645728405, 1.08681453178553, -1.22281554785097], a = 0.2, v = 0.2, t = 0.2)
movej(p[0.432811928463989, -0.103390016907524, 0.381226209431598, -1.168741133388, 1.08516446165239, -1.22437629015638], a = 0.2, v = 0.2, t = 0.2)
movej(p[0.4311767578091, -0.102686772389833, 0.381473756230662, -1.16796672679023, 1.0821555195238, -1.22390094066827], a = 0.2, v = 0.2, t = 0.2)
movej(p[0.430590054137618, -0.102451467094243, 0.381570442733016, -1.16714744868926, 1.08111099868353, -1.22424051762135], a = 0.2, v = 0.2, t = 0.2)
movej(p[0.430128734507643, -0.102300019606909, 0.381652102255302, -1.16631689310368, 1.08029052792775, -1.22465962255551], a = 0.2, v = 0.2, t = 0.2)
movej(p[0.428698958906555, -0.102069130017476, 0.381925560511758, -1.16330838007285, 1.07138958768572, -1.22368644489609], a = 0.2, v = 0.2, t = 0.2)
movej(p[0.428686107043108, -0.101893730781807, 0.381922282138276, -1.16638518973581, 1.06392148303573, -1.20984038947969], a = 0.2, v = 0.2, t = 0.2)
movej(p[0.429536214928219, -0.10183524048327, 0.381719035985426, -1.15963558823179, 1.07340155529688, -1.19792263515046], a = 0.2, v = 0.2, t = 0.2)
movej(p[0.434645850111858, -0.102605984645652, 0.380749088344429, -1.16209552154918, 1.07577330791947, -1.19664134276916], a = 0.2, v = 0.2, t = 0.2)
movej(p[0.436901807835812, -0.103927463678312, 0.380387185437597, -1.16957406768269, 1.07953333009682, -1.19576290388782], a = 0.2, v = 0.2, t = 0.2)
movej(p[0.437784484556055, -0.104113316902182, 0.380203925630992, -1.17259675209715, 1.08232319104789, -1.19413573093485], a = 0.2, v = 0.2, t = 0.2)
movej(p[0.438231068813276, -0.104163986212583, 0.380120543365575, -1.17485121522908, 1.08765684988624, -1.19419527512696], a = 0.2, v = 0.2, t = 0.2)
movej(p[0.438590419450416, -0.104411603697043, 0.380063242746237, -1.17531466173983, 1.08734704074711, -1.19468990533294], a = 0.2, v = 0.2, t = 0.2)
movej(p[0.438803492614132, -0.104396749696552, 0.380022671751999, -1.17623381933055, 1.08666087297764, -1.19361854355561], a = 0.2, v = 0.2, t = 0.2)
movej(p[0.438899376480341, -0.10452245041264, 0.379998609246401, -1.17760847909901, 1.08603994669542, -1.1947844510568], a = 0.2, v = 0.2, t = 0.2)
movej(p[0.439098138858996, -0.104528010031736, 0.379962872046356, -1.17774850840112, 1.08623971391666, -1.1947357528681], a = 0.2, v = 0.2, t = 0.2)
movej(p[0.439388842139002, -0.104690088913443, 0.379954434683127, -1.18010019190603, 1.09210122534454, -1.19147928719021], a = 0.2, v = 0.2, t = 0.2)
movej(p[0.439388842139002, -0.104690088913443, 0.379954434683127, -1.17752216739993, 1.09597535754116, -1.19531925711591], a = 0.2, v = 0.2, t = 0.2)
movej(p[0.438320990375761, -0.10454979844809, 0.38014823671375, -1.17273025516249, 1.09629603769116, -1.2025562079298], a = 0.2, v = 0.2, t = 0.2)
movej(p[0.436937456997397, -0.104223659405545, 0.380405581047049, -1.16824988095907, 1.09654074352293, -1.20920836643257], a = 0.2, v = 0.2, t = 0.2)
movej(p[0.435324586582546, -0.103928061289033, 0.380722062386801, -1.16819642328237, 1.0972680229095, -1.2221966171107], a = 0.2, v = 0.2, t = 0.2)
movej(p[0.434088333647277, -0.103752169423998, 0.380942907449805, -1.16857576464716, 1.09700267712449, -1.22261213009194], a = 0.2, v = 0.2, t = 0.2)
movej(p[0.43254803466143, -0.103309695020402, 0.381176536849418, -1.1708358458198, 1.09624366955158, -1.2202441242492], a = 0.2, v = 0.2, t = 0.2)
movej(p[0.432110475233256, -0.103111876161809, 0.381253010936534, -1.17114682848567, 1.09577494323724, -1.2197791286512], a = 0.2, v = 0.2, t = 0.2)
movej(p[0.430462937448718, -0.102601032713199, 0.381551543446542, -1.17012463736514, 1.0877035064163, -1.226999161106], a = 0.2, v = 0.2, t = 0.2)
movej(p[0.428846133881155, -0.10248133404734, 0.381862052050785, -1.17073680631337, 1.08349696022048, -1.22758164273122], a = 0.2, v = 0.2, t = 0.2)
movej(p[0.427215172136924, -0.101893664540635, 0.382149651963416, -1.1700885193696, 1.07552051314831, -1.22500149205863], a = 0.2, v = 0.2, t = 0.2)
movej(p[0.425877492999294, -0.101284315387731, 0.382340119978059, -1.16778549077103, 1.06968240035665, -1.21112748178743], a = 0.2, v = 0.2, t = 0.2)
movej(p[0.425877492999294, -0.101284315387731, 0.382340119978059, -1.1674540703669, 1.06735222110367, -1.20220841725773], a = 0.2, v = 0.2, t = 0.2)
movej(p[0.426977331274371, -0.101304299127186, 0.382126314578616, -1.16664928591731, 1.06832141377682, -1.19670476151965], a = 0.2, v = 0.2, t = 0.2)
movej(p[0.427376840393702, -0.101449632568004, 0.38205606904814, -1.1663726945733, 1.07352608780834, -1.19112893909547], a = 0.2, v = 0.2, t = 0.2)
movej(p[0.429689396852882, -0.101556407757019, 0.381565955161258, -1.16642618262757, 1.07984854974873, -1.18508844489788], a = 0.2, v = 0.2, t = 0.2)
movej(p[0.432975776414931, -0.102365345051646, 0.380951682699306, -1.16588761140967, 1.08332257624564, -1.18697734649151], a = 0.2, v = 0.2, t = 0.2)
movej(p[0.435463392390897, -0.103302095402708, 0.380504343056642, -1.17115461030422, 1.08832428089043, -1.19868668563851], a = 0.2, v = 0.2, t = 0.2)
movej(p[0.437039224535102, -0.10404078904495, 0.380213189598473, -1.17304392105417, 1.08938773134238, -1.20022892113376], a = 0.2, v = 0.2, t = 0.2)
movej(p[0.437796399684944, -0.104203590552398, 0.380075840511715, -1.17341267458942, 1.08979983690403, -1.20048822697003], a = 0.2, v = 0.2, t = 0.2)
movej(p[0.438323628353747, -0.104373750776761, 0.379979425581144, -1.17447903126259, 1.09227660329532, -1.2014466998863], a = 0.2, v = 0.2, t = 0.2)
movej(p[0.438965595110771, -0.104820439591689, 0.379881695465547, -1.17705094361001, 1.09468534267886, -1.20003142168447], a = 0.2, v = 0.2, t = 0.2)
movej(p[0.439233785046054, -0.10485014360436, 0.379832637130433, -1.1788660661419, 1.09430979894513, -1.19596531155621], a = 0.2, v = 0.2, t = 0.2)
movej(p[0.439475457625403, -0.104833753009429, 0.37976216158298, -1.17916273010971, 1.09490594093083, -1.19547754033651], a = 0.2, v = 0.2, t = 0.2)
movej(p[0.439475508769828, -0.104834451016621, 0.379762174629378, -1.17516190834256, 1.10090297239672, -1.20141370094647], a = 0.2, v = 0.2, t = 0.2)
movej(p[0.438805278493281, -0.104880875731223, 0.379905797233009, -1.17497521717012, 1.10290636884018, -1.20821455465265], a = 0.2, v = 0.2, t = 0.2)
movej(p[0.436975840577402, -0.104663980976781, 0.380235363231618, -1.17294686868924, 1.1023145674628, -1.21535085628682], a = 0.2, v = 0.2, t = 0.2)
movej(p[0.434741540722452, -0.104034705770589, 0.380639352232759, -1.16883957263958, 1.09729308754374, -1.221398106353], a = 0.2, v = 0.2, t = 0.2)
movej(p[0.432384469015483, -0.103371845412462, 0.381051908609309, -1.16788988087452, 1.09123718501547, -1.22702734903755], a = 0.2, v = 0.2, t = 0.2)
movej(p[0.43041459507824, -0.103136418560814, 0.381405087004587, -1.16494023095586, 1.08257077275466, -1.23159648767061], a = 0.2, v = 0.2, t = 0.2)
movej(p[0.428546468278729, -0.102657274380455, 0.381736240104191, -1.16238246970536, 1.07392737951066, -1.2327807648501], a = 0.2, v = 0.2, t = 0.2)
movej(p[0.425738700490367, -0.101717362383445, 0.382218135802983, -1.15977775616617, 1.06570993807022, -1.23182651132318], a = 0.2, v = 0.2, t = 0.2)
movej(p[0.423709368713424, -0.101292742482367, 0.38257124108289, -1.15849841131854, 1.05561487371515, -1.22873059934314], a = 0.2, v = 0.2, t = 0.2)
movej(p[0.423699607434535, -0.101159522824122, 0.382568751084612, -1.15574436487114, 1.055576264266, -1.21884672729716], a = 0.2, v = 0.2, t = 0.2)
movej(p[0.424434930454701, -0.101206602486837, 0.382436176836087, -1.15447934771669, 1.0629591197947, -1.21122178714152], a = 0.2, v = 0.2, t = 0.2)
movej(p[0.425952356248541, -0.101101059716325, 0.382134311346536, -1.15659901674767, 1.07102133035826, -1.20754144729183], a = 0.2, v = 0.2, t = 0.2)
movej(p[0.428309237202667, -0.101690146271076, 0.381720559332533, -1.15745698435242, 1.0755972324649, -1.20862896560837], a = 0.2, v = 0.2, t = 0.2)
movej(p[0.431349233263626, -0.102658099263061, 0.381188841630497, -1.15695622061541, 1.08658462958577, -1.2202683097429], a = 0.2, v = 0.2, t = 0.2)
movej(p[0.433883749361412, -0.103206047140047, 0.380734468871443, -1.16055323712169, 1.09018211222188, -1.22145152318156], a = 0.2, v = 0.2, t = 0.2)
movej(p[0.435607155312433, -0.103701193141371, 0.380420353310924, -1.15922192723446, 1.09322363906338, -1.22507972798673], a = 0.2, v = 0.2, t = 0.2)
movej(p[0.436744253990877, -0.104174981920177, 0.38022074011357, -1.16012241177112, 1.09357380821001, -1.22555364690398], a = 0.2, v = 0.2, t = 0.2)
movej(p[0.437507541612665, -0.104672012972817, 0.380071338275773, -1.16566114174736, 1.09762895695906, -1.22372581246621], a = 0.2, v = 0.2, t = 0.2)
movej(p[0.437745405963327, -0.104675479921242, 0.380021102920171, -1.16733984007026, 1.09534176821458, -1.22130486186759], a = 0.2, v = 0.2, t = 0.2)
movej(p[0.437980099032412, -0.104643110323937, 0.379958324639738, -1.16763663503792, 1.09611096601506, -1.21793196976584], a = 0.2, v = 0.2, t = 0.2)
movej(p[0.438108978949705, -0.104650972017775, 0.379907045494966, -1.16935728289386, 1.09810262753509, -1.21662521582468], a = 0.2, v = 0.2, t = 0.2)
movej(p[0.438107788015229, -0.104634718421746, 0.379906741700266, -1.16870031659918, 1.11017211013971, -1.21917430995862], a = 0.2, v = 0.2, t = 0.2)
movej(p[0.436584181704504, -0.104577195462105, 0.38015243469779, -1.16979646695725, 1.10945118291733, -1.22048045924335], a = 0.2, v = 0.2, t = 0.2)
movej(p[0.434400221410388, -0.10388282173232, 0.380531485759138, -1.16760729342995, 1.10187214404251, -1.23182510994018], a = 0.2, v = 0.2, t = 0.2)
movej(p[0.432071135871855, -0.103375092601505, 0.380936833343213, -1.1616519952666, 1.09191991390801, -1.23924872588354], a = 0.2, v = 0.2, t = 0.2)
movej(p[0.430306263699269, -0.10326887382583, 0.381219274693101, -1.16194182581243, 1.08523736540462, -1.23843291305175], a = 0.2, v = 0.2, t = 0.2)
movej(p[0.428212213110191, -0.102561767983605, 0.381589030150497, -1.16039339424565, 1.08107353753662, -1.23822229620812], a = 0.2, v = 0.2, t = 0.2)
movej(p[0.426281660434451, -0.101892424769055, 0.381921181934066, -1.1636388832659, 1.07435240836104, -1.22840741217105], a = 0.2, v = 0.2, t = 0.2)
movej(p[0.426246290411171, -0.101409702938541, 0.38191215941785, -1.16577275257388, 1.06573840068853, -1.20750873818497], a = 0.2, v = 0.2, t = 0.2)
movej(p[0.426848316917425, -0.101366775447081, 0.381848800785888, -1.15806483245018, 1.07122154680308, -1.19541487869085], a = 0.2, v = 0.2, t = 0.2)
movej(p[0.431017303297089, -0.101836836556705, 0.381155395039301, -1.16055554389027, 1.07351396668313, -1.19408030276853], a = 0.2, v = 0.2, t = 0.2)
movej(p[0.432960270792197, -0.102308470779682, 0.380814608621333, -1.16244667114266, 1.08166936557352, -1.19946626401789], a = 0.2, v = 0.2, t = 0.2)
movej(p[0.434216370513336, -0.102761131745565, 0.380581355903196, -1.16386400561058, 1.08664851720202, -1.2076898723762], a = 0.2, v = 0.2, t = 0.2)
movej(p[0.436023249639613, -0.103577253711992, 0.380247869518255, -1.17101671709407, 1.08944098786286, -1.20971920549624], a = 0.2, v = 0.2, t = 0.2)
movej(p[0.436832843651443, -0.104022442407179, 0.38007762090097, -1.17401826550348, 1.09227057268495, -1.20807196720777], a = 0.2, v = 0.2, t = 0.2)
movej(p[0.437403504767559, -0.10409503951013, 0.379976486875066, -1.17578730400237, 1.09349947063354, -1.2036880221675], a = 0.2, v = 0.2, t = 0.2)
movej(p[0.437725458131278, -0.104155773664241, 0.379923675663047, -1.17612260275018, 1.09292494322887, -1.20272555888684], a = 0.2, v = 0.2, t = 0.2)
movej(p[0.438283804995014, -0.104555735339143, 0.379788584366638, -1.1798960641578, 1.09646542840891, -1.20064656984339], a = 0.2, v = 0.2, t = 0.2)
movej(p[0.438553614194443, -0.104536759604177, 0.379746117704586, -1.1823360221096, 1.09963701437767, -1.19248012443671], a = 0.2, v = 0.2, t = 0.2)
movej(p[0.43887260434192, -0.104514201604919, 0.379702510107977, -1.1823360221096, 1.09963701437767, -1.19248012443671], a = 0.2, v = 0.2, t = 0.2)
movej(p[0.438879143522014, -0.104603446810106, 0.379704178183171, -1.17889909017414, 1.1021816079705, -1.19822565765717], a = 0.2, v = 0.2, t = 0.2)
movej(p[0.438531434374046, -0.104628408550328, 0.379731765135594, -1.17807217100657, 1.1012331483039, -1.20417077241296], a = 0.2, v = 0.2, t = 0.2)
movej(p[0.436598921576517, -0.104236642997622, 0.380093737039337, -1.1757527317816, 1.10233081886831, -1.20763371605274], a = 0.2, v = 0.2, t = 0.2)
movej(p[0.434653039301607, -0.103528273133652, 0.380465356075462, -1.17329238628658, 1.10294181980778, -1.21015265513084], a = 0.2, v = 0.2, t = 0.2)
movej(p[0.432843943627741, -0.103046656565975, 0.380799316933256, -1.16831864069785, 1.09274613396761, -1.21984079029401], a = 0.2, v = 0.2, t = 0.2)
movej(p[0.431419260605842, -0.102975868428662, 0.381034264792856, -1.16691390311496, 1.0874857964311, -1.22449265821658], a = 0.2, v = 0.2, t = 0.2)
movej(p[0.430101794756888, -0.102547561974293, 0.381288895914251, -1.16979337980986, 1.08364566674721, -1.22628659726439], a = 0.2, v = 0.2, t = 0.2)
movej(p[0.42854425808302, -0.102114710702631, 0.381563501861345, -1.16221065471195, 1.07743943730764, -1.22895770778379], a = 0.2, v = 0.2, t = 0.2)
movej(p[0.42735467330529, -0.101758699432979, 0.381816372900557, -1.16564669154292, 1.06173354955175, -1.21935063451685], a = 0.2, v = 0.2, t = 0.2)
movej(p[0.427350713265501, -0.101704653733301, 0.381815362736585, -1.16178975962944, 1.05877129510393, -1.1956251924692], a = 0.2, v = 0.2, t = 0.2)
movej(p[0.429909404754513, -0.101523965553508, 0.381451955395244, -1.16476471935626, 1.07390045029655, -1.1816970689041], a = 0.2, v = 0.2, t = 0.2)
movej(p[0.432717594397553, -0.10199326237368, 0.381026105993111, -1.16533919646128, 1.07584517964164, -1.18197173852109], a = 0.2, v = 0.2, t = 0.2)
movej(p[0.433666090336832, -0.102178120331349, 0.380874151135807, -1.1686978390252, 1.07426688377447, -1.18701629326695], a = 0.2, v = 0.2, t = 0.2)
movej(p[0.435826220495819, -0.10305129606098, 0.380460124661508, -1.17075887664392, 1.07850853633914, -1.19601150812315], a = 0.2, v = 0.2, t = 0.2)
movej(p[0.437374621767243, -0.103839106832798, 0.380159683318717, -1.17892429287144, 1.08431754307719, -1.19628512572781], a = 0.2, v = 0.2, t = 0.2)
movej(p[0.437973333904114, -0.104104963960934, 0.380023172423247, -1.18225865461226, 1.08741602777444, -1.19447294543403], a = 0.2, v = 0.2, t = 0.2)
movej(p[0.438290562412738, -0.104098605397055, 0.379999706448269, -1.17957958721083, 1.09132200718521, -1.18857531122384], a = 0.2, v = 0.2, t = 0.2)
movej(p[0.438530303200163, -0.104345527094016, 0.379949537429792, -1.18222060095484, 1.09376473174029, -1.18712640429196], a = 0.2, v = 0.2, t = 0.2)
movej(p[0.438625605180735, -0.104346360616828, 0.379928384469272, -1.18343294453186, 1.09312606484605, -1.18923006439845], a = 0.2, v = 0.2, t = 0.2)
movej(p[0.438628308528931, -0.10438325528266, 0.379929074064604, -1.1803533199758, 1.09251842264727, -1.19224571382027], a = 0.2, v = 0.2, t = 0.2)
movej(p[0.438337554284221, -0.104403728545076, 0.379973528813614, -1.17718379557846, 1.09855765382138, -1.20324912856279], a = 0.2, v = 0.2, t = 0.2)
movej(p[0.436703402801099, -0.104165325665127, 0.380237560548526, -1.17551913809478, 1.10072880864359, -1.20569431428354], a = 0.2, v = 0.2, t = 0.2)
movej(p[0.435127433591158, -0.103912410266045, 0.380470483604972, -1.17369149016889, 1.09776427274493, -1.21964966846883], a = 0.2, v = 0.2, t = 0.2)
movej(p[0.433626119864754, -0.103327389767118, 0.380757332364336, -1.1708466660054, 1.09624388681623, -1.22362531864121], a = 0.2, v = 0.2, t = 0.2)
movej(p[0.432329335642009, -0.103131845975064, 0.380989906664355, -1.17074401953892, 1.09431835348791, -1.22549580584668], a = 0.2, v = 0.2, t = 0.2)
movej(p[0.431866972120477, -0.103018523774769, 0.381015739644758, -1.1701528379828, 1.08981440660649, -1.22647988196987], a = 0.2, v = 0.2, t = 0.2)
movej(p[0.431594833579, -0.103036266087462, 0.381133328226614, -1.17309797378269, 1.08164006843239, -1.22056638309568], a = 0.2, v = 0.2, t = 0.2)
movej(p[0.431556351052122, -0.102511065533586, 0.381123511743882, -1.16673933748171, 1.07865292067616, -1.18930071817863], a = 0.2, v = 0.2, t = 0.2)
movej(p[0.433248318798523, -0.102389496806408, 0.38099482701397, -1.16541538948696, 1.07956182341871, -1.18765969563815], a = 0.2, v = 0.2, t = 0.2)
movej(p[0.434316573534248, -0.10256656786087, 0.380822201287981, -1.16541538948696, 1.07956182341871, -1.18765969563815], a = 0.2, v = 0.2, t = 0.2)
movej(p[0.435848243742991, -0.103176532828047, 0.38052508279232, -1.17389848806732, 1.08792135840611, -1.18620295271468], a = 0.2, v = 0.2, t = 0.2)
movej(p[0.437180147929954, -0.103550359479945, 0.380306389054222, -1.17391117799383, 1.08945768293, -1.19137292660263], a = 0.2, v = 0.2, t = 0.2)
movej(p[0.437801760806094, -0.10397498064831, 0.380149206785525, -1.17625461301523, 1.08780728546053, -1.19407247522426], a = 0.2, v = 0.2, t = 0.2)
movej(p[0.438036492476755, -0.104169419180435, 0.380104389043351, -1.17730215361426, 1.08877957819955, -1.19350060912712], a = 0.2, v = 0.2, t = 0.2)
movej(p[0.438538237927664, -0.104506697457316, 0.37997683310881, -1.17991400414436, 1.09051830928431, -1.18802138165199], a = 0.2, v = 0.2, t = 0.2)
movej(p[0.439041995084377, -0.104503189955006, 0.379922710244072, -1.18018618814138, 1.09010854084927, -1.18761449875158], a = 0.2, v = 0.2, t = 0.2)
movej(p[0.439184893701741, -0.104587787100606, 0.379906776063455, -1.18047912694713, 1.08989890190516, -1.18794326052606], a = 0.2, v = 0.2, t = 0.2)
movej(p[0.439184893701741, -0.104587787100606, 0.379906776063455, -1.17974560699175, 1.09831745121553, -1.19687560017249], a = 0.2, v = 0.2, t = 0.2)
movej(p[0.438097382858069, -0.104559289609388, 0.380012672795657, -1.17825677905346, 1.1005864517819, -1.19919996219384], a = 0.2, v = 0.2, t = 0.2)
movej(p[0.436348341379116, -0.10398482691995, 0.38030338979438, -1.17512695925094, 1.09828431114622, -1.20476890050357], a = 0.2, v = 0.2, t = 0.2)
movej(p[0.434188000817852, -0.103695570270554, 0.380623983868145, -1.17314164989971, 1.09269145661404, -1.21411313288783], a = 0.2, v = 0.2, t = 0.2)
movej(p[0.432479177041267, -0.103378351625035, 0.380874451913042, -1.17193777305171, 1.09142699499294, -1.21489743557912], a = 0.2, v = 0.2, t = 0.2)
movej(p[0.430322141198395, -0.102783819132825, 0.381198550074515, -1.17371288048152, 1.08638530124581, -1.21465504079848], a = 0.2, v = 0.2, t = 0.2)
movej(p[0.42849584590225, -0.102397430186073, 0.381457402123195, -1.17061219702183, 1.07863646860557, -1.21973420642398], a = 0.2, v = 0.2, t = 0.2)
movej(p[0.426738671071027, -0.102182999233406, 0.381720619901958, -1.16349169638359, 1.06864072314221, -1.22223100677087], a = 0.2, v = 0.2, t = 0.2)
movej(p[0.425109951952542, -0.102035701571734, 0.3819287026546, -1.15980945404201, 1.0633929349698, -1.22128307700271], a = 0.2, v = 0.2, t = 0.2)
movej(p[0.423522484423389, -0.101373888681805, 0.382165570408013, -1.15731432804903, 1.05455999584837, -1.21026028507314], a = 0.2, v = 0.2, t = 0.2)
movej(p[0.423498490381569, -0.101046423593722, 0.382159449783503, -1.15480468394256, 1.05520050958789, -1.20334806007373], a = 0.2, v = 0.2, t = 0.2)
movej(p[0.424356687976207, -0.100984595623573, 0.382103062190322, -1.15950088874313, 1.06455576193675, -1.19593915954582], a = 0.2, v = 0.2, t = 0.2)
movej(p[0.425931817865925, -0.101369275745455, 0.381857890731247, -1.15930705476126, 1.06620690253725, -1.19624742168314], a = 0.2, v = 0.2, t = 0.2)
movej(p[0.427866566812358, -0.101746098770548, 0.381572999502816, -1.1596990664497, 1.08073665962431, -1.20151570128905], a = 0.2, v = 0.2, t = 0.2)
movej(p[0.430278134986196, -0.102275392078733, 0.381219736956204, -1.15589246069622, 1.0870433094633, -1.20753276184892], a = 0.2, v = 0.2, t = 0.2)
movej(p[0.431908997974224, -0.10282532977237, 0.380944564051654, -1.15891810115524, 1.09167249212439, -1.22312370987336], a = 0.2, v = 0.2, t = 0.2)
movej(p[0.432559772529474, -0.103186828404474, 0.380804131764673, -1.16105076303275, 1.09023136673886, -1.22538757896898], a = 0.2, v = 0.2, t = 0.2)
movej(p[0.435525827979227, -0.104131522923837, 0.380298952515225, -1.16225504138592, 1.08841798131826, -1.22356788730928], a = 0.2, v = 0.2, t = 0.2)
movej(p[0.437215334716363, -0.104710868148764, 0.380028687542417, -1.17371284875159, 1.0876900759715, -1.20296583785071], a = 0.2, v = 0.2, t = 0.2)
movej(p[0.438342754249506, -0.105342356258274, 0.379740909583159, -1.17349272999178, 1.08821700950866, -1.20235029907834], a = 0.2, v = 0.2, t = 0.2)
movej(p[0.438683245749226, -0.105394175153731, 0.379663171364166, -1.17322837042238, 1.08861580420401, -1.20274797796133], a = 0.2, v = 0.2, t = 0.2)
movej(p[0.438683245749226, -0.105394175153731, 0.379663171364166, -1.1724414120864, 1.08885383673843, -1.20639806443438], a = 0.2, v = 0.2, t = 0.2)
movej(p[0.437229958851417, -0.105156412952868, 0.379854584290842, -1.16923344633168, 1.0934607735097, -1.23677931651549], a = 0.2, v = 0.2, t = 0.2)
movej(p[0.434950740458045, -0.104649723165827, 0.380218089222061, -1.16551234858981, 1.09690854899701, -1.24268277911994], a = 0.2, v = 0.2, t = 0.2)
movej(p[0.432858802602691, -0.104131051520486, 0.380504566592297, -1.16482173673278, 1.09623416381678, -1.24306620446295], a = 0.2, v = 0.2, t = 0.2)
movej(p[0.430143203223351, -0.103389860724637, 0.380927999580002, -1.16131275668967, 1.08776409425482, -1.24618035077447], a = 0.2, v = 0.2, t = 0.2)
movej(p[0.427582386350174, -0.10272107695802, 0.381324077167806, -1.15594046157789, 1.08128716119062, -1.24892230240869], a = 0.2, v = 0.2, t = 0.2)
movej(p[0.425325177453201, -0.102388644599737, 0.381592643905495, -1.1525767234431, 1.07227682374568, -1.25230138420117], a = 0.2, v = 0.2, t = 0.2)
movej(p[0.423157621731656, -0.101684652750667, 0.381928350742543, -1.15194304451406, 1.06651224118836, -1.25053379937147], a = 0.2, v = 0.2, t = 0.2)
movej(p[0.422074938602332, -0.10131337709999, 0.382095928076009, -1.1555688655936, 1.05462448687294, -1.23863057876484], a = 0.2, v = 0.2, t = 0.2)
movej(p[0.421938674847236, -0.100832004550374, 0.382195620941967, -1.1474836001227, 1.05887623378032, -1.22429304523688], a = 0.2, v = 0.2, t = 0.2)
movej(p[0.421934254507619, -0.100771676785974, 0.382194493360412, -1.14838148070608, 1.05904311633076, -1.21628118325774], a = 0.2, v = 0.2, t = 0.2)
movej(p[0.422671048681284, -0.100778346833086, 0.382195362915318, -1.15177756054558, 1.06577634750811, -1.2048877194511], a = 0.2, v = 0.2, t = 0.2)
movej(p[0.424039623821691, -0.100705720081568, 0.382030490267428, -1.15470404159689, 1.07033330554874, -1.20150745874324], a = 0.2, v = 0.2, t = 0.2)
movej(p[0.425845251717232, -0.100927714616805, 0.381811151330684, -1.15281230890699, 1.07749046505501, -1.20618732525064], a = 0.2, v = 0.2, t = 0.2)
movej(p[0.42711951509995, -0.101403199726936, 0.38158936638641, -1.15650276764869, 1.08386461306737, -1.20876855361956], a = 0.2, v = 0.2, t = 0.2)
movej(p[0.427654494557987, -0.101599587621147, 0.381486550315268, -1.15655194179499, 1.08622110480293, -1.21044448517315], a = 0.2, v = 0.2, t = 0.2)
movej(p[0.431933330180852, -0.102745845444291, 0.380825464197286, -1.16222310893617, 1.09266506541666, -1.2110206657066], a = 0.2, v = 0.2, t = 0.2)
movej(p[0.434909999477637, -0.103402289749679, 0.380435863451008, -1.16315921547965, 1.09354866742582, -1.21050391532471], a = 0.2, v = 0.2, t = 0.2)
movej(p[0.437039606317143, -0.104534281990063, 0.379949427096652, -1.17116499896225, 1.08537943555814, -1.19911671418945], a = 0.2, v = 0.2, t = 0.2)
movej(p[0.437645880023785, -0.104644358407208, 0.37986575257829, -1.17143842051099, 1.08573902024557, -1.19884512888055], a = 0.2, v = 0.2, t = 0.2)
movej(p[0.438186106021203, -0.10475499838547, 0.379790862279026, -1.17161425551439, 1.08588897997374, -1.19712949058112], a = 0.2, v = 0.2, t = 0.2)
movej(p[0.438444818022911, -0.104887079578354, 0.379742166913138, -1.17164547354622, 1.08588628582839, -1.19666766198139], a = 0.2, v = 0.2, t = 0.2)
movej(p[0.438444818022911, -0.104887079578354, 0.379742166913138, -1.17164547354622, 1.08588628582839, -1.19666766198139], a = 0.2, v = 0.2, t = 0.2)
movej(p[0.438162583731099, -0.104647652610643, 0.379836940652423, -1.16936883633914, 1.09309890447905, -1.20530409608037], a = 0.2, v = 0.2, t = 0.2)
movej(p[0.436608131843322, -0.104100026675911, 0.38010202447727, -1.16588882591905, 1.09998813901479, -1.21599633348616], a = 0.2, v = 0.2, t = 0.2)
movej(p[0.434854329266064, -0.10352410709812, 0.380382042905095, -1.16795305598442, 1.09516883905678, -1.22217628270652], a = 0.2, v = 0.2, t = 0.2)
movej(p[0.432949613261425, -0.103494817860217, 0.38050389294496, -1.1694771650089, 1.0838388021713, -1.23393961181768], a = 0.2, v = 0.2, t = 0.2)
movej(p[0.430595159823873, -0.102904255967422, 0.380831463519307, -1.16544452175326, 1.07111291594956, -1.23257169425452], a = 0.2, v = 0.2, t = 0.2)
movej(p[0.428039732569077, -0.10218336642736, 0.381220225344173, -1.16112657354456, 1.06437826701219, -1.23182242230914], a = 0.2, v = 0.2, t = 0.2)
movej(p[0.425570370177503, -0.101637899309676, 0.381538634393362, -1.15645101799081, 1.06435883047967, -1.22539778202094], a = 0.2, v = 0.2, t = 0.2)
movej(p[0.424004727430164, -0.100916269235456, 0.381885617510654, -1.15735907607383, 1.05554814136524, -1.2138355038694], a = 0.2, v = 0.2, t = 0.2)
movej(p[0.424004705511124, -0.100915970089517, 0.381885611919341, -1.16166515065986, 1.04810429012665, -1.20430250015578], a = 0.2, v = 0.2, t = 0.2)
movej(p[0.426634984722649, -0.100725225741552, 0.381795687322368, -1.1569220731597, 1.05717455042205, -1.19369031174523], a = 0.2, v = 0.2, t = 0.2)
movej(p[0.430182506016641, -0.101291028875651, 0.38141009473671, -1.1617050186211, 1.06599139880515, -1.19187399337769], a = 0.2, v = 0.2, t = 0.2)
movej(p[0.432839409470694, -0.102359634878775, 0.380917201973597, -1.16332315149274, 1.07195497934227, -1.19034947309566], a = 0.2, v = 0.2, t = 0.2)
movej(p[0.433661674786132, -0.102674314113894, 0.380763699367713, -1.16205632949519, 1.07691715444496, -1.18489080428969], a = 0.2, v = 0.2, t = 0.2)
movej(p[0.436161636153564, -0.10309916030555, 0.380511922254415, -1.16218541048822, 1.07721683566555, -1.18489542655874], a = 0.2, v = 0.2, t = 0.2)
movej(p[0.436877492291421, -0.103475711673918, 0.380394831405614, -1.16965648584598, 1.0809439255389, -1.19774173745958], a = 0.2, v = 0.2, t = 0.2)
movej(p[0.437928149091359, -0.104325449001678, 0.380052361111202, -1.16998017236184, 1.08191418653108, -1.19783453193016], a = 0.2, v = 0.2, t = 0.2)
movej(p[0.438225673262264, -0.104443152407011, 0.379992994065626, -1.17017526933443, 1.08288826426548, -1.19791926871545], a = 0.2, v = 0.2, t = 0.2)
movej(p[0.438319940179215, -0.104489647971377, 0.37995271738673, -1.17024070628132, 1.08323867368408, -1.19797725055827], a = 0.2, v = 0.2, t = 0.2)
movej(p[0.438707701007711, -0.104508363406556, 0.379958442102472, -1.17024652749647, 1.08371246302298, -1.19816052169361], a = 0.2, v = 0.2, t = 0.2)
movej(p[0.438925222395791, -0.104718102080195, 0.379849284855768, -1.17044401199184, 1.08376683627062, -1.19903133934551], a = 0.2, v = 0.2, t = 0.2)
movej(p[0.438925222395791, -0.104718102080195, 0.379849284855768, -1.17054025588282, 1.08376089806719, -1.19957635053514], a = 0.2, v = 0.2, t = 0.2)
movej(p[0.43802311762021, -0.104446832718959, 0.379983850369656, -1.16952225782603, 1.0852003381145, -1.20118988694711], a = 0.2, v = 0.2, t = 0.2)
movej(p[0.436158939040015, -0.1038155019086, 0.380307754937445, -1.16784044175794, 1.08809863364203, -1.20494291060414], a = 0.2, v = 0.2, t = 0.2)
movej(p[0.43438930004432, -0.103162661276459, 0.380628504425271, -1.16890878952142, 1.09554170591992, -1.20686069745878], a = 0.2, v = 0.2, t = 0.2)
movej(p[0.432746514657779, -0.103059214145285, 0.380734752600887, -1.16804942740636, 1.0968266355982, -1.20814204919849], a = 0.2, v = 0.2, t = 0.2)
movej(p[0.430874942706291, -0.10227106077893, 0.381123916681329, -1.16319070565642, 1.09082632405455, -1.21224156685495], a = 0.2, v = 0.2, t = 0.2)
movej(p[0.428703980150049, -0.101804484364473, 0.381427933537548, -1.16804879854049, 1.07219382383903, -1.22480180956105], a = 0.2, v = 0.2, t = 0.2)
movej(p[0.427332040577464, -0.10184037323009, 0.381419990710623, -1.17146083198745, 1.06165918504935, -1.21732850045484], a = 0.2, v = 0.2, t = 0.2)
movej(p[0.427283523792942, -0.101402407464332, 0.381638029215581, -1.16359558213789, 1.06135014498692, -1.18808744361163], a = 0.2, v = 0.2, t = 0.2)
movej(p[0.427911230259902, -0.10135556222902, 0.381683606899425, -1.16533936154, 1.06293822917534, -1.18716837218501], a = 0.2, v = 0.2, t = 0.2)
movej(p[0.431003872881103, -0.101617746741117, 0.381410113445845, -1.1671986201996, 1.06921369297991, -1.18643983493864], a = 0.2, v = 0.2, t = 0.2)
movej(p[0.434408929976674, -0.102811441839743, 0.380815508604446, -1.1650093245399, 1.07168535883478, -1.18660963330032], a = 0.2, v = 0.2, t = 0.2)
movej(p[0.435383440015191, -0.103094519651833, 0.380672089368875, -1.16748430643032, 1.07589121326198, -1.18608067705497], a = 0.2, v = 0.2, t = 0.2)
movej(p[0.436643461993068, -0.103372091716355, 0.380530257340528, -1.1741147164853, 1.08756625405862, -1.19467465823956], a = 0.2, v = 0.2, t = 0.2)
