def moving():
set_payload_mass(0)
set_tcp(p[0,0,0,0,0,0])
movej(p[-0.4025, -0.1161, 0.3402, -1.113, -1.287, 1.334], a = 0.2, v = 0.2, t = 0.2)
movej(p[-0.402554929322023, -0.116057477575295, 0.340251716660558, -1.11260983990136, -1.28658824067133, 1.33570893381171], a = 0.2, v = 0.2, t = 0.2)
movej(p[-0.4025, -0.1161, 0.3402, -1.113, -1.287, 1.334], a = 0.2, v = 0.2, t = 0.2)
movej(p[-0.402554929322023, -0.116057477575295, 0.340251716660558, -1.11260983990136, -1.28658824067133, 1.33570893381171], a = 0.2, v = 0.2, t = 0.2)
movej(p[-0.4025, -0.1161, 0.3402, -1.113, -1.287, 1.334], a = 0.2, v = 0.2, t = 0.2)
movej(p[-0.4025, -0.1161, 0.3402, -1.113, -1.287, 1.334], a = 0.2, v = 0.2, t = 0.2)
movej(p[-0.402636482597781, -0.11609388874429, 0.340200642694728, -1.11249702174386, -1.28678624616873, 1.33384828787861], a = 0.2, v = 0.2, t = 0.2)
movej(p[-0.40277306408074, -0.116087791951013, 0.34020128893342, -1.11199426396846, -1.28657526393481, 1.33369694608667], a = 0.2, v = 0.2, t = 0.2)
movej(p[-0.402909561151721, -0.116081581748226, 0.340201931580336, -1.11149119760679, -1.28636173856845, 1.33354526430348], a = 0.2, v = 0.2, t = 0.2)
movej(p[-0.402776937599096, -0.116110261912559, 0.340258286184965, -1.10988627965052, -1.28366610644239, 1.33570000580782], a = 0.2, v = 0.2, t = 0.2)
movej(p[-0.401976232992255, -0.116293419512667, 0.340641730634796, -1.12223337889866, -1.28658566410003, 1.33432429264401], a = 0.2, v = 0.2, t = 0.2)
movej(p[-0.402151006782451, -0.116285825838471, 0.340660716639445, -1.12208602550119, -1.28742797371064, 1.33370481135229], a = 0.2, v = 0.2, t = 0.2)
movej(p[-0.402359460438019, -0.116253589620361, 0.340591087624498, -1.11922405811035, -1.28718150986368, 1.33396611466709], a = 0.2, v = 0.2, t = 0.2)
movej(p[-0.402361659087189, -0.116238186756105, 0.340505124273501, -1.11586254334627, -1.28463263299547, 1.33564285502123], a = 0.2, v = 0.2, t = 0.2)
movej(p[-0.402355045290494, -0.116245679325888, 0.340565973012941, -1.11379356571589, -1.28276425271247, 1.33691196946926], a = 0.2, v = 0.2, t = 0.2)
movej(p[-0.402666457511932, -0.116182419357581, 0.340284040086966, -1.10917985518106, -1.28246994059947, 1.33683629838017], a = 0.2, v = 0.2, t = 0.2)
movej(p[-0.403348061502005, -0.116089788652481, 0.340295082423182, -1.10573905110415, -1.28273512992585, 1.33572025639016], a = 0.2, v = 0.2, t = 0.2)
movej(p[-0.403500318922666, -0.116075311574783, 0.340423010301595, -1.1100510749524, -1.28305373815027, 1.33489914468582], a = 0.2, v = 0.2, t = 0.2)
movej(p[-0.403518747293691, -0.11607105835605, 0.34037199936873, -1.10688558677695, -1.28289422667229, 1.33492308987788], a = 0.2, v = 0.2, t = 0.2)
movej(p[-0.403517511386465, -0.116069453759747, 0.340390458724191, -1.10491193886741, -1.28175099494462, 1.33519113120975], a = 0.2, v = 0.2, t = 0.2)
movej(p[-0.40378737428522, -0.116019816921406, 0.340331888337856, -1.10749979756768, -1.28046638778581, 1.33584543898599], a = 0.2, v = 0.2, t = 0.2)
movej(p[-0.403862460946804, -0.115993335648536, 0.340478059660076, -1.1060094174049, -1.28097907759672, 1.33472614165523], a = 0.2, v = 0.2, t = 0.2)
movej(p[-0.403854162984125, -0.115991426962577, 0.340452142277235, -1.10355023136633, -1.27981346108104, 1.33494918708931], a = 0.2, v = 0.2, t = 0.2)
movej(p[-0.403800193944968, -0.116002021598735, 0.340464420570973, -1.10633603978346, -1.2800648699488, 1.33505173173133], a = 0.2, v = 0.2, t = 0.2)
movej(p[-0.403197163018833, -0.116098160150738, 0.34066488061922, -1.11300094833367, -1.28401484688363, 1.33521920330965], a = 0.2, v = 0.2, t = 0.2)
movej(p[-0.401466587015446, -0.116380710222408, 0.341198733355, -1.12519938650173, -1.29096777849528, 1.33599431401326], a = 0.2, v = 0.2, t = 0.2)
movej(p[-0.399841542054865, -0.116700663615236, 0.34144861050984, -1.13822553765423, -1.28963902660928, 1.34079703328111], a = 0.2, v = 0.2, t = 0.2)
movej(p[-0.397711318853168, -0.116986854253828, 0.342308802092764, -1.14595675236953, -1.28634889392771, 1.34394936205345], a = 0.2, v = 0.2, t = 0.2)
movej(p[-0.393279868618932, -0.117790510342582, 0.343423915904218, -1.17457841661539, -1.28208644451292, 1.35504478931856], a = 0.2, v = 0.2, t = 0.2)
movej(p[-0.390780173622539, -0.11817467868881, 0.344241298939742, -1.1810109139474, -1.2814003056542, 1.35767802083865], a = 0.2, v = 0.2, t = 0.2)
movej(p[-0.390085990373457, -0.118239844287452, 0.344555066579004, -1.19252272994462, -1.26720825950052, 1.36400126676861], a = 0.2, v = 0.2, t = 0.2)
movej(p[-0.391690215928152, -0.1178563138822, 0.344293397230566, -1.17661710094471, -1.27243050182797, 1.35739089848956], a = 0.2, v = 0.2, t = 0.2)
movej(p[-0.394046018860863, -0.117628472613967, 0.343252513683421, -1.16347035628484, -1.26905439491934, 1.35463457985043], a = 0.2, v = 0.2, t = 0.2)
movej(p[-0.39647588622653, -0.117335399300478, 0.34234694177673, -1.14425139631798, -1.27742613029596, 1.34561933848624], a = 0.2, v = 0.2, t = 0.2)
movej(p[-0.398633598372543, -0.117054494917702, 0.341587004836789, -1.12868568880499, -1.27870177030127, 1.34065276994844], a = 0.2, v = 0.2, t = 0.2)
movej(p[-0.400562051683979, -0.116705985912101, 0.341060712523881, -1.12040692606233, -1.27884428197546, 1.33704764874026], a = 0.2, v = 0.2, t = 0.2)
movej(p[-0.401335182408014, -0.116510897297536, 0.340916886775076, -1.11777413829543, -1.27959823908714, 1.33604038493475], a = 0.2, v = 0.2, t = 0.2)
movej(p[-0.401942081597528, -0.116432304191945, 0.340714659285546, -1.11443518578345, -1.28223482733054, 1.33480481619644], a = 0.2, v = 0.2, t = 0.2)
movej(p[-0.402628457063623, -0.116258978470126, 0.340591732381661, -1.1222294189407, -1.27208300317549, 1.34129948464089], a = 0.2, v = 0.2, t = 0.2)
movej(p[-0.403109300746357, -0.116121669688208, 0.340500734243313, -1.10869711443325, -1.27959371260807, 1.33451974231925], a = 0.2, v = 0.2, t = 0.2)
movej(p[-0.403337247184851, -0.116095425098938, 0.340415811380006, -1.11376917126316, -1.27702005319568, 1.3386211862415], a = 0.2, v = 0.2, t = 0.2)
movej(p[-0.403687465916668, -0.115935943852806, 0.340394661391445, -1.11031854513978, -1.27946455408338, 1.33738858377341], a = 0.2, v = 0.2, t = 0.2)
movej(p[-0.403526352247391, -0.115909815410445, 0.340467922500308, -1.10709938518847, -1.2872700293611, 1.33306316698967], a = 0.2, v = 0.2, t = 0.2)
movej(p[-0.403207731502915, -0.116054003938422, 0.340499399151804, -1.10924386002838, -1.28885850786964, 1.33552620776664], a = 0.2, v = 0.2, t = 0.2)
movej(p[-0.401975695449747, -0.116187504421797, 0.340897078915726, -1.11884711417839, -1.28953507624497, 1.33866742201587], a = 0.2, v = 0.2, t = 0.2)
movej(p[-0.400325882147136, -0.11658904995638, 0.341318854330118, -1.13085374330251, -1.28566130430109, 1.34308388073875], a = 0.2, v = 0.2, t = 0.2)
movej(p[-0.399472336377354, -0.116704705472382, 0.341584197128222, -1.14409473440154, -1.28307378042059, 1.35085580202131], a = 0.2, v = 0.2, t = 0.2)
movej(p[-0.396797531576238, -0.11714967044132, 0.342400591752375, -1.1491256395751, -1.2837924872974, 1.34684837377975], a = 0.2, v = 0.2, t = 0.2)
movej(p[-0.39439059626331, -0.117660864931138, 0.343085449469685, -1.16772364117746, -1.27986774197422, 1.35569167760859], a = 0.2, v = 0.2, t = 0.2)
movej(p[-0.391722145059387, -0.117983538857235, 0.343949911573943, -1.17981586407188, -1.28290643658014, 1.35899015830189], a = 0.2, v = 0.2, t = 0.2)
movej(p[-0.390779586812575, -0.118163073471512, 0.344237310884384, -1.18417325217259, -1.28290156527175, 1.36230589863301], a = 0.2, v = 0.2, t = 0.2)
movej(p[-0.392714929358511, -0.117841667604766, 0.34366778434531, -1.16633999836444, -1.28324608015675, 1.35614379136922], a = 0.2, v = 0.2, t = 0.2)
movej(p[-0.395951340806108, -0.11738040507194, 0.342659832800011, -1.14401877091461, -1.28010150725675, 1.34193236842493], a = 0.2, v = 0.2, t = 0.2)
movej(p[-0.397857349955932, -0.117229470891552, 0.342043805443493, -1.13873466531289, -1.27735897532222, 1.34068024661087], a = 0.2, v = 0.2, t = 0.2)
movej(p[-0.3995199434529, -0.116783736046508, 0.341567095236182, -1.13536786714978, -1.27483333036614, 1.34264379409534], a = 0.2, v = 0.2, t = 0.2)
movej(p[-0.400688202880916, -0.116613595445525, 0.341219209486619, -1.12563970943219, -1.27325914268546, 1.33627155976644], a = 0.2, v = 0.2, t = 0.2)
movej(p[-0.401817302667616, -0.116336359402329, 0.340871653508356, -1.11510279684538, -1.28596668475665, 1.33218885885464], a = 0.2, v = 0.2, t = 0.2)
movej(p[-0.402336957033657, -0.116266813340714, 0.340713551088487, -1.11080373112692, -1.28868972328464, 1.33222076124238], a = 0.2, v = 0.2, t = 0.2)
movej(p[-0.402724046051051, -0.116212723989075, 0.340596421567647, -1.11102530639415, -1.28466717015708, 1.33393298720869], a = 0.2, v = 0.2, t = 0.2)
movej(p[-0.402991062504026, -0.116131661019448, 0.34050285352398, -1.112717978037, -1.28256742214805, 1.33523764923685], a = 0.2, v = 0.2, t = 0.2)
movej(p[-0.403011170707343, -0.116168259056546, 0.340497859143142, -1.11296711256552, -1.28104697966035, 1.33432317349208], a = 0.2, v = 0.2, t = 0.2)
movej(p[-0.403079254234155, -0.116126884575475, 0.340482600516304, -1.10347314103706, -1.29121575151419, 1.32736638056505], a = 0.2, v = 0.2, t = 0.2)
movej(p[-0.403070603623004, -0.116123806905146, 0.34046847164968, -1.11576569087296, -1.27388352813283, 1.3340139238616], a = 0.2, v = 0.2, t = 0.2)
movej(p[-0.402156022525446, -0.116366754844144, 0.340763310003573, -1.11799860040246, -1.28345102265158, 1.33136910658651], a = 0.2, v = 0.2, t = 0.2)
movej(p[-0.399342795262794, -0.117115778999493, 0.341596774287978, -1.13429991764072, -1.28286926947963, 1.33480578259756], a = 0.2, v = 0.2, t = 0.2)
movej(p[-0.39730174424321, -0.117405520915038, 0.342231464872303, -1.1449648333709, -1.28623760186447, 1.33846171210435], a = 0.2, v = 0.2, t = 0.2)
movej(p[-0.394835866523011, -0.117806760880383, 0.343054230439907, -1.16295881820342, -1.27788777737439, 1.3521151527264], a = 0.2, v = 0.2, t = 0.2)
movej(p[-0.392277960617401, -0.118271253435652, 0.343864421710006, -1.17577223549093, -1.27615360950871, 1.35930031184873], a = 0.2, v = 0.2, t = 0.2)
movej(p[-0.39048142389779, -0.118374538991842, 0.344461801663613, -1.18194569789609, -1.27674740585784, 1.36881959260103], a = 0.2, v = 0.2, t = 0.2)
movej(p[-0.390278679666119, -0.118361816614296, 0.344555593814851, -1.17388060661749, -1.2809858354966, 1.35937279131411], a = 0.2, v = 0.2, t = 0.2)
movej(p[-0.391631648287605, -0.118174860868734, 0.344147940643054, -1.15975515403611, -1.28590149005499, 1.35005951415519], a = 0.2, v = 0.2, t = 0.2)
movej(p[-0.394351174053213, -0.117821248323782, 0.34329389923993, -1.15597310448802, -1.27868417618546, 1.3547866297569], a = 0.2, v = 0.2, t = 0.2)
movej(p[-0.397267530643225, -0.117272813458218, 0.342353500729658, -1.13819206907412, -1.28319580758687, 1.3436442561341], a = 0.2, v = 0.2, t = 0.2)
movej(p[-0.399808692209769, -0.116755140906547, 0.34153622108231, -1.13002572335903, -1.27885707130754, 1.33656104070459], a = 0.2, v = 0.2, t = 0.2)
movej(p[-0.400782599363978, -0.116501287283282, 0.341193767971746, -1.11295882498989, -1.29561031886037, 1.32454143839785], a = 0.2, v = 0.2, t = 0.2)
movej(p[-0.40169266625666, -0.116226263057399, 0.340867972489854, -1.11412246787431, -1.28838908955826, 1.32277043657748], a = 0.2, v = 0.2, t = 0.2)
movej(p[-0.402279756135966, -0.116116266452814, 0.340677883430209, -1.11813288818884, -1.28072083916809, 1.32856823356217], a = 0.2, v = 0.2, t = 0.2)
movej(p[-0.402619219342501, -0.116105634820478, 0.340575139623569, -1.11012647898922, -1.28706465188875, 1.32865999046918], a = 0.2, v = 0.2, t = 0.2)
movej(p[-0.403238312724175, -0.115911300339561, 0.340346974213627, -1.10606423543372, -1.28739190361399, 1.32815061440685], a = 0.2, v = 0.2, t = 0.2)
movej(p[-0.403207800858886, -0.115963119422882, 0.340368910454881, -1.11179368970406, -1.28255734664884, 1.33221537954936], a = 0.2, v = 0.2, t = 0.2)
movej(p[-0.402967025010127, -0.116109864370684, 0.340478074601693, -1.11654785782008, -1.27948230537052, 1.33064049938176], a = 0.2, v = 0.2, t = 0.2)
movej(p[-0.402450927152176, -0.116297852667711, 0.340677190776824, -1.11747574225099, -1.28216126163523, 1.33053151693318], a = 0.2, v = 0.2, t = 0.2)
movej(p[-0.401808049828583, -0.116511746887983, 0.3409135385277, -1.12587261287284, -1.2773381538771, 1.33291551907514], a = 0.2, v = 0.2, t = 0.2)
movej(p[-0.399570199074606, -0.117000745751176, 0.34166923391919, -1.13905540499442, -1.27877387416434, 1.33422196400611], a = 0.2, v = 0.2, t = 0.2)
movej(p[-0.397585907398589, -0.117415595840509, 0.342354143342305, -1.14872982209179, -1.28086077904143, 1.33533158699691], a = 0.2, v = 0.2, t = 0.2)
movej(p[-0.395257620321473, -0.117783032341684, 0.343095984001839, -1.16154720524407, -1.27646663146265, 1.34428609832477], a = 0.2, v = 0.2, t = 0.2)
movej(p[-0.392688926644517, -0.118082746127609, 0.343869451558036, -1.17188229787758, -1.27528148233921, 1.35476141602708], a = 0.2, v = 0.2, t = 0.2)
movej(p[-0.39116621052115, -0.118217570306553, 0.344307991383378, -1.18244369229961, -1.27255599421319, 1.36088780585404], a = 0.2, v = 0.2, t = 0.2)
movej(p[-0.391611604135223, -0.11815099817018, 0.344169719154779, -1.17670352835144, -1.27673323135211, 1.35960416293754], a = 0.2, v = 0.2, t = 0.2)
movej(p[-0.394892254592379, -0.117719735212637, 0.343201709010508, -1.16198113404601, -1.26682799573943, 1.35827000377848], a = 0.2, v = 0.2, t = 0.2)
movej(p[-0.396965839854569, -0.117220347954127, 0.342455512537408, -1.13954336878812, -1.28679648343173, 1.34143665137054], a = 0.2, v = 0.2, t = 0.2)
movej(p[-0.399046854204504, -0.116741253380601, 0.341701384759785, -1.12726762514866, -1.28891392813428, 1.33851246704307], a = 0.2, v = 0.2, t = 0.2)
movej(p[-0.400482984301483, -0.11640611538889, 0.341206156871775, -1.12106730614192, -1.28692602916839, 1.33157298599852], a = 0.2, v = 0.2, t = 0.2)
movej(p[-0.401417764719084, -0.11613351631896, 0.340832709943896, -1.11652860791471, -1.28702224775822, 1.33059806341407], a = 0.2, v = 0.2, t = 0.2)
movej(p[-0.402559242791318, -0.116097163300428, 0.340578895506456, -1.1138324997763, -1.28320411639971, 1.32824106436853], a = 0.2, v = 0.2, t = 0.2)
movej(p[-0.402874833961234, -0.116006444311446, 0.340453253202635, -1.10743004212881, -1.28884975084316, 1.32728512175139], a = 0.2, v = 0.2, t = 0.2)
movej(p[-0.403003742622667, -0.115998440367407, 0.34040488943637, -1.10969609599047, -1.28360596887564, 1.33246317042559], a = 0.2, v = 0.2, t = 0.2)
movej(p[-0.403133655730461, -0.116034524007903, 0.340402536712013, -1.10851713245706, -1.28565564055917, 1.3297862460791], a = 0.2, v = 0.2, t = 0.2)
movej(p[-0.403066881986266, -0.116058902861977, 0.340430854172355, -1.10918202817671, -1.28773412415206, 1.32691813108282], a = 0.2, v = 0.2, t = 0.2)
movej(p[-0.403012745455049, -0.116319612429326, 0.340640451733124, -1.1107698317268, -1.2846807624939, 1.32902031899183], a = 0.2, v = 0.2, t = 0.2)
movej(p[-0.401773024622323, -0.116652770215168, 0.341106524009321, -1.12629194440155, -1.2811694771789, 1.32756938914966], a = 0.2, v = 0.2, t = 0.2)
movej(p[-0.399868271927628, -0.116967734470013, 0.341678386492986, -1.14442049907694, -1.27405782568732, 1.33356657708159], a = 0.2, v = 0.2, t = 0.2)
movej(p[-0.398069841226014, -0.117307944478166, 0.342267522242914, -1.15401231190803, -1.27486895237386, 1.33656946639416], a = 0.2, v = 0.2, t = 0.2)
movej(p[-0.395764648454182, -0.117647255237681, 0.342950976896252, -1.1620758512719, -1.27932632807825, 1.34041127650019], a = 0.2, v = 0.2, t = 0.2)
movej(p[-0.393286856856518, -0.117954657693701, 0.343617201474439, -1.17144446161841, -1.28044502748084, 1.34973904855853], a = 0.2, v = 0.2, t = 0.2)
movej(p[-0.392319845293358, -0.118007349614251, 0.343837592305062, -1.16769938284122, -1.28483907128166, 1.35497153601488], a = 0.2, v = 0.2, t = 0.2)
movej(p[-0.392981202691127, -0.117930840771241, 0.343676208045119, -1.16617700155353, -1.27958584537217, 1.35787797521988], a = 0.2, v = 0.2, t = 0.2)
movej(p[-0.394940775096516, -0.117587933562708, 0.34306858509923, -1.16040840551759, -1.26959257245666, 1.3578476099013], a = 0.2, v = 0.2, t = 0.2)
movej(p[-0.396961487198334, -0.117126991601487, 0.342337162861425, -1.14169489446938, -1.28036808569379, 1.34792039884973], a = 0.2, v = 0.2, t = 0.2)
movej(p[-0.398942175833894, -0.116667773387354, 0.341609351834597, -1.12689943995552, -1.28592545832623, 1.34146566477368], a = 0.2, v = 0.2, t = 0.2)
movej(p[-0.401129137758211, -0.116261861114808, 0.340901771154687, -1.11618509912253, -1.28669157755696, 1.33272537950947], a = 0.2, v = 0.2, t = 0.2)
movej(p[-0.401754471468877, -0.116077562764053, 0.340616544511097, -1.1142750338461, -1.28919646168771, 1.32860870131997], a = 0.2, v = 0.2, t = 0.2)
movej(p[-0.402249130851641, -0.116033039701462, 0.340506337605954, -1.10620506456431, -1.29345936423948, 1.32621041339178], a = 0.2, v = 0.2, t = 0.2)
movej(p[-0.402659176472468, -0.116010384273973, 0.340430213362473, -1.10505524838305, -1.2942296222865, 1.32355271824208], a = 0.2, v = 0.2, t = 0.2)
movej(p[-0.403002009603206, -0.116038201953378, 0.340417959743354, -1.10525865677702, -1.29074850848803, 1.32484130101417], a = 0.2, v = 0.2, t = 0.2)
movej(p[-0.40346056244996, -0.116079103335875, 0.340410732458713, -1.09925310174818, -1.29249427765516, 1.32521565724382], a = 0.2, v = 0.2, t = 0.2)
movej(p[-0.403309145073009, -0.116099285922828, 0.340442066005293, -1.10797064518392, -1.28797884158206, 1.32497677804352], a = 0.2, v = 0.2, t = 0.2)
movej(p[-0.40330900482105, -0.116126336597683, 0.340471030834298, -1.10406597113477, -1.29015181450695, 1.32662285367473], a = 0.2, v = 0.2, t = 0.2)
movej(p[-0.403017914236759, -0.116242649898868, 0.340641001825071, -1.10693599615556, -1.28899972680154, 1.32730811818261], a = 0.2, v = 0.2, t = 0.2)
movej(p[-0.40185396689479, -0.11662475357028, 0.341183047901911, -1.12340629951283, -1.2862987965657, 1.32703913292451], a = 0.2, v = 0.2, t = 0.2)
movej(p[-0.400871869912971, -0.11690858812716, 0.341628847276768, -1.13356972476179, -1.28731625390702, 1.32469109624408], a = 0.2, v = 0.2, t = 0.2)
movej(p[-0.398870908331793, -0.117215239833742, 0.342201796822104, -1.14819703759906, -1.28509968726904, 1.32862093979024], a = 0.2, v = 0.2, t = 0.2)
movej(p[-0.39721229727727, -0.117492871986226, 0.342697516629779, -1.15711683585378, -1.28563300976538, 1.33262304805641], a = 0.2, v = 0.2, t = 0.2)
movej(p[-0.396804809468001, -0.117592667823396, 0.34286151774618, -1.16115146122917, -1.28373130990794, 1.33374045990124], a = 0.2, v = 0.2, t = 0.2)
movej(p[-0.395297758707128, -0.117772569120014, 0.343226412070096, -1.16449056931922, -1.28544256820834, 1.33888744857828], a = 0.2, v = 0.2, t = 0.2)
movej(p[-0.391756060022766, -0.118263501137815, 0.344146690502469, -1.18490040611992, -1.27752984942585, 1.35502643336246], a = 0.2, v = 0.2, t = 0.2)
movej(p[-0.39267441998692, -0.118216372321927, 0.3440392991576, -1.17260545708437, -1.27709621430356, 1.35739495725537], a = 0.2, v = 0.2, t = 0.2)
movej(p[-0.395862044598165, -0.117422981550093, 0.342759809000954, -1.1527597543868, -1.27365226209936, 1.35208993790451], a = 0.2, v = 0.2, t = 0.2)
movej(p[-0.398075592915857, -0.116900379099182, 0.34186278604498, -1.13990055575773, -1.27899216678076, 1.34370135680504], a = 0.2, v = 0.2, t = 0.2)
movej(p[-0.39990152119372, -0.116488443816388, 0.341168744917315, -1.12911683463221, -1.2836100726786, 1.33445606160842], a = 0.2, v = 0.2, t = 0.2)
movej(p[-0.401090159550949, -0.116258653298844, 0.340760900542864, -1.12050960394249, -1.2854043496896, 1.3315896636662], a = 0.2, v = 0.2, t = 0.2)
movej(p[-0.402106956250296, -0.11621813694602, 0.34066209665959, -1.11659818974297, -1.28935500014709, 1.32478486919738], a = 0.2, v = 0.2, t = 0.2)
movej(p[-0.402406477131865, -0.116211621832284, 0.34065533834639, -1.11641497604267, -1.28734348199277, 1.32455120095656], a = 0.2, v = 0.2, t = 0.2)
movej(p[-0.402631233200798, -0.116157315804344, 0.340579252179401, -1.11198579240676, -1.28980411895976, 1.32277180257453], a = 0.2, v = 0.2, t = 0.2)
movej(p[-0.402697825323136, -0.116159080558084, 0.340562181886878, -1.11194280966315, -1.29151461278978, 1.3220251744051], a = 0.2, v = 0.2, t = 0.2)
movej(p[-0.402715606481682, -0.116206513598805, 0.340645622327006, -1.11470493138057, -1.29000954916882, 1.32206012486754], a = 0.2, v = 0.2, t = 0.2)
movej(p[-0.403276546501398, -0.116195683102983, 0.340650696244681, -1.10983582305465, -1.28937363068777, 1.32249838821887], a = 0.2, v = 0.2, t = 0.2)
movej(p[-0.403294585837301, -0.116209926379165, 0.340687430444601, -1.1130352463229, -1.2849762732397, 1.32480397936043], a = 0.2, v = 0.2, t = 0.2)
movej(p[-0.402695053529216, -0.11639101919776, 0.340985350085806, -1.12108460869917, -1.28696220327509, 1.32377324537322], a = 0.2, v = 0.2, t = 0.2)
movej(p[-0.401458949120515, -0.116679815227201, 0.341489224161513, -1.13050175744107, -1.29207895640934, 1.32217053232865], a = 0.2, v = 0.2, t = 0.2)
movej(p[-0.399864228041822, -0.116946593620666, 0.341956501274104, -1.14643701798651, -1.28999644568318, 1.32461401093959], a = 0.2, v = 0.2, t = 0.2)
movej(p[-0.398507212521424, -0.117206602671892, 0.342427261712841, -1.15301528970254, -1.28881915825816, 1.32917738380221], a = 0.2, v = 0.2, t = 0.2)
movej(p[-0.398079710273129, -0.117288322167118, 0.34256884702918, -1.1566235788677, -1.28788577549335, 1.33078202062151], a = 0.2, v = 0.2, t = 0.2)
movej(p[-0.397605636866721, -0.117386455558851, 0.342749318862893, -1.15989289510795, -1.28654915557693, 1.3328462309473], a = 0.2, v = 0.2, t = 0.2)
movej(p[-0.395592764399614, -0.117708572640965, 0.343267003473994, -1.16631431036031, -1.28724179640886, 1.34014913279716], a = 0.2, v = 0.2, t = 0.2)
movej(p[-0.393667899444868, -0.118009503645035, 0.343785750094978, -1.17650219568613, -1.28138763566605, 1.34862131986311], a = 0.2, v = 0.2, t = 0.2)
movej(p[-0.39536023232676, -0.117571512800909, 0.342978116151084, -1.15514978364602, -1.28164190805043, 1.34697025313911], a = 0.2, v = 0.2, t = 0.2)
movej(p[-0.398953047775161, -0.116857701080789, 0.341704756248329, -1.13357704976706, -1.28202515857111, 1.33867790498852], a = 0.2, v = 0.2, t = 0.2)
movej(p[-0.400270489183087, -0.116539630895255, 0.341071183266141, -1.12526452297463, -1.28317485910092, 1.33479509099092], a = 0.2, v = 0.2, t = 0.2)
movej(p[-0.401278065393274, -0.116361227227911, 0.340765254104171, -1.1216942114713, -1.28678027503441, 1.32950184656528], a = 0.2, v = 0.2, t = 0.2)
movej(p[-0.401943939149679, -0.11626777906652, 0.340634452224735, -1.11798632401858, -1.28595111768339, 1.328906647398], a = 0.2, v = 0.2, t = 0.2)
movej(p[-0.402264973939108, -0.116216949764004, 0.340546847795728, -1.11610955544081, -1.28835428706158, 1.32643552854815], a = 0.2, v = 0.2, t = 0.2)
movej(p[-0.402898817106002, -0.116170467430885, 0.340610210028089, -1.11192044303413, -1.28676405669988, 1.32603038039385], a = 0.2, v = 0.2, t = 0.2)
movej(p[-0.40312633943906, -0.11614584365155, 0.340598227229971, -1.11158497678679, -1.28858032287418, 1.32427386072444], a = 0.2, v = 0.2, t = 0.2)
movej(p[-0.403170670020727, -0.116142719860501, 0.34061277031969, -1.11236219220456, -1.28635340344612, 1.32521239985712], a = 0.2, v = 0.2, t = 0.2)
movej(p[-0.40319802088409, -0.116127159021808, 0.34051978193024, -1.11419074430685, -1.28912838737658, 1.3234879880659], a = 0.2, v = 0.2, t = 0.2)
movej(p[-0.403282982311088, -0.116139926147465, 0.34065351089653, -1.11373350315976, -1.28788196801553, 1.32302083501491], a = 0.2, v = 0.2, t = 0.2)
movej(p[-0.403251715188738, -0.116122232334496, 0.340616194063297, -1.11395330100317, -1.28631854680075, 1.32406393888065], a = 0.2, v = 0.2, t = 0.2)
movej(p[-0.403460656186152, -0.116097295445162, 0.340647086152091, -1.114086477917, -1.28871480690483, 1.32230527945381], a = 0.2, v = 0.2, t = 0.2)
movej(p[-0.403475418391462, -0.116113021665352, 0.340805890664914, -1.11291123664128, -1.28707471233898, 1.32283099500735], a = 0.2, v = 0.2, t = 0.2)
movej(p[-0.402340319441202, -0.116349879672574, 0.341330421681664, -1.12239008633456, -1.28893571323476, 1.32425532912856], a = 0.2, v = 0.2, t = 0.2)
movej(p[-0.400972968491983, -0.116604681561391, 0.341710134032169, -1.13460418018004, -1.2923782190837, 1.32677783235888], a = 0.2, v = 0.2, t = 0.2)
movej(p[-0.399836273917579, -0.116810603619454, 0.341982177264991, -1.1484101477705, -1.29632700043186, 1.32773985933458], a = 0.2, v = 0.2, t = 0.2)
movej(p[-0.398550602401784, -0.117039377425634, 0.342310970374831, -1.15434262291066, -1.29578819691406, 1.3322434196911], a = 0.2, v = 0.2, t = 0.2)
movej(p[-0.39761197546235, -0.117214267578452, 0.342733366069668, -1.15768737294632, -1.29526052834956, 1.33540379757881], a = 0.2, v = 0.2, t = 0.2)
movej(p[-0.395843164374016, -0.117535991650032, 0.343276906220486, -1.16556568614644, -1.29101203909432, 1.34206602863867], a = 0.2, v = 0.2, t = 0.2)
movej(p[-0.395487038548829, -0.117599084418987, 0.343337033993941, -1.16691643163069, -1.29020853563862, 1.34348311803708], a = 0.2, v = 0.2, t = 0.2)
movej(p[-0.39520016807529, -0.117650582706276, 0.343388515134351, -1.16849159829796, -1.28963834233471, 1.34456274141635], a = 0.2, v = 0.2, t = 0.2)
movej(p[-0.396076103436668, -0.117466991697603, 0.343040923658301, -1.16035710172126, -1.28301897837277, 1.3443059845055], a = 0.2, v = 0.2, t = 0.2)
movej(p[-0.397877233100241, -0.117115280810821, 0.342180747643107, -1.14243384654493, -1.2822100050895, 1.33995739270838], a = 0.2, v = 0.2, t = 0.2)
movej(p[-0.400154384428524, -0.116679353596582, 0.341373192392992, -1.12915063651944, -1.28080958533192, 1.33484940655458], a = 0.2, v = 0.2, t = 0.2)
movej(p[-0.400942786994149, -0.116549820466963, 0.340905364793501, -1.12248630853732, -1.28352816026988, 1.33243526820338], a = 0.2, v = 0.2, t = 0.2)
movej(p[-0.401275819014229, -0.116508841901066, 0.340795521447145, -1.12454257605365, -1.28648777705877, 1.33103821845492], a = 0.2, v = 0.2, t = 0.2)
movej(p[-0.40167505219343, -0.116438956345816, 0.340652312062703, -1.11963489915005, -1.28907836758865, 1.32915654125402], a = 0.2, v = 0.2, t = 0.2)
movej(p[-0.398817693497521, -0.116552655271224, 0.340332348053369, -1.11824508002987, -1.28686622363653, 1.32941573822377], a = 0.2, v = 0.2, t = 0.2)
movej(p[-0.398625555634956, -0.116621769256585, 0.340552449209197, -1.11928323336576, -1.28530882581597, 1.33136768654179], a = 0.2, v = 0.2, t = 0.2)
movej(p[-0.398433421272125, -0.11669088380215, 0.340772450427855, -1.12032284465557, -1.28374757893052, 1.3333189451578], a = 0.2, v = 0.2, t = 0.2)
movej(p[-0.398241286909294, -0.116759998347715, 0.340992451646512, -1.12136000107383, -1.28218249871164, 1.3352678133334], a = 0.2, v = 0.2, t = 0.2)
movej(p[-0.398049233458708, -0.116829225742586, 0.341212556394115, -1.12239846309151, -1.28061566886995, 1.33721380999937], a = 0.2, v = 0.2, t = 0.2)
movej(p[-0.397857099095877, -0.116898340288152, 0.341432557612772, -1.12343702690558, -1.27904570040719, 1.33915781447531], a = 0.2, v = 0.2, t = 0.2)
movej(p[-0.397664961233312, -0.116967454273513, 0.3416526587686, -1.12447448961054, -1.27747119775244, 1.34110069828093], a = 0.2, v = 0.2, t = 0.2)
movej(p[-0.397472826870481, -0.117036568819078, 0.341872659987258, -1.12551553403978, -1.27589296431971, 1.34304074394926], a = 0.2, v = 0.2, t = 0.2)
movej(p[-0.397280674534717, -0.117105781751517, 0.342092761190898, -1.12655439849177, -1.27431358806026, 1.34497874109214], a = 0.2, v = 0.2, t = 0.2)
movej(p[-0.397088540171886, -0.117174896297082, 0.342312762409555, -1.12759216097826, -1.27272967907126, 1.34691559784232], a = 0.2, v = 0.2, t = 0.2)
movej(p[-0.397349364227595, -0.11716491341793, 0.342369970574072, -1.12695594869138, -1.27286768791999, 1.34639338222796], a = 0.2, v = 0.2, t = 0.2)
movej(p[-0.398934881876438, -0.116847354046171, 0.341723374223465, -1.1216612332422, -1.27919605024207, 1.33909412519237], a = 0.2, v = 0.2, t = 0.2)
movej(p[-0.399815762129617, -0.116641720862187, 0.341220534782685, -1.1181455157997, -1.2834345524068, 1.33500319236764], a = 0.2, v = 0.2, t = 0.2)
movej(p[-0.400869856697502, -0.116414547639053, 0.340681914231049, -1.11748532946591, -1.28794482079709, 1.32976751688316], a = 0.2, v = 0.2, t = 0.2)
movej(p[-0.401582290599448, -0.116292968638256, 0.340495449269399, -1.11362497573703, -1.28795463798128, 1.32840556279898], a = 0.2, v = 0.2, t = 0.2)
movej(p[-0.402129230842878, -0.116209377290892, 0.340434684256746, -1.11308239847037, -1.28834130375364, 1.32659020529124], a = 0.2, v = 0.2, t = 0.2)
movej(p[-0.403076983184549, -0.1160689152664, 0.340336704623493, -1.10862015000424, -1.28781319175157, 1.32473703713671], a = 0.2, v = 0.2, t = 0.2)
movej(p[-0.403251564506208, -0.116049273178291, 0.34034250811404, -1.10716976995786, -1.28570247220625, 1.32563220838895], a = 0.2, v = 0.2, t = 0.2)
movej(p[-0.403426523101586, -0.116021601305106, 0.34034797961639, -1.1075401799987, -1.28600103121521, 1.32449141396626], a = 0.2, v = 0.2, t = 0.2)
movej(p[-0.403561914460519, -0.116041857589185, 0.340457700365938, -1.11186130963389, -1.2859033461881, 1.32382373523777], a = 0.2, v = 0.2, t = 0.2)
movej(p[-0.403182077259315, -0.116152953953559, 0.340873490683772, -1.11394061024736, -1.28261903902714, 1.32565997028741], a = 0.2, v = 0.2, t = 0.2)
movej(p[-0.402699624416632, -0.116291918406729, 0.34123401112056, -1.12122008399715, -1.2824270912027, 1.32651164626542], a = 0.2, v = 0.2, t = 0.2)
movej(p[-0.401486488597346, -0.116535803862169, 0.341658387496658, -1.13276562534825, -1.28273133212068, 1.32845042323553], a = 0.2, v = 0.2, t = 0.2)
movej(p[-0.399674796953242, -0.116861718532729, 0.342091781213958, -1.14724513558928, -1.28722956592518, 1.33027353329071], a = 0.2, v = 0.2, t = 0.2)
movej(p[-0.398166979026574, -0.117126521910161, 0.342416599134218, -1.15424890060284, -1.2857929193936, 1.3349724152985], a = 0.2, v = 0.2, t = 0.2)
movej(p[-0.396360848151402, -0.117425375151889, 0.342810911309602, -1.16012558899898, -1.28668754359634, 1.33951870040552], a = 0.2, v = 0.2, t = 0.2)
movej(p[-0.395214537507284, -0.117642011049008, 0.343516350325578, -1.14144081867533, -1.25951809779761, 1.35475420531457], a = 0.2, v = 0.2, t = 0.2)
movej(p[-0.394703302171705, -0.117757191690426, 0.343809187689141, -1.14382810189977, -1.25648906780895, 1.35697174582694], a = 0.2, v = 0.2, t = 0.2)
movej(p[-0.395060176803982, -0.117672364759457, 0.343568550953334, -1.14211445173939, -1.25868121835932, 1.35543336829112], a = 0.2, v = 0.2, t = 0.2)
movej(p[-0.39635019600312, -0.117403370510574, 0.342876256297915, -1.14196196915458, -1.26923972932243, 1.34790081621232], a = 0.2, v = 0.2, t = 0.2)
movej(p[-0.397507523576207, -0.117130858498352, 0.342133766545954, -1.13801657503005, -1.27690520655052, 1.34199575621118], a = 0.2, v = 0.2, t = 0.2)
movej(p[-0.398522645851068, -0.116923408079077, 0.341687850802091, -1.13405478942605, -1.2810265864939, 1.33785945938007], a = 0.2, v = 0.2, t = 0.2)
movej(p[-0.399918755306098, -0.116647501368773, 0.341192854259896, -1.12364018908125, -1.2823622511378, 1.33425360973041], a = 0.2, v = 0.2, t = 0.2)
movej(p[-0.40013482838232, -0.116615852788662, 0.341167823216994, -1.12193779543796, -1.28271782728596, 1.33409031629781], a = 0.2, v = 0.2, t = 0.2)
movej(p[-0.400708410062799, -0.116511061252213, 0.3409665835596, -1.12139774411244, -1.28562343998032, 1.33122300626462], a = 0.2, v = 0.2, t = 0.2)
movej(p[-0.401461016637076, -0.116391292466953, 0.340828465050949, -1.1208280280552, -1.28780307674003, 1.32809924168466], a = 0.2, v = 0.2, t = 0.2)
movej(p[-0.401910040742633, -0.116299925233911, 0.340605427719196, -1.12009496482088, -1.29084319671534, 1.32564596529426], a = 0.2, v = 0.2, t = 0.2)
movej(p[-0.402605957210405, -0.116203843887656, 0.340586732939584, -1.12055078888393, -1.29202347405136, 1.32300227459816], a = 0.2, v = 0.2, t = 0.2)
movej(p[-0.403158857132518, -0.116132196615847, 0.34061850154941, -1.11880197864334, -1.29090193219167, 1.32194713361734], a = 0.2, v = 0.2, t = 0.2)
movej(p[-0.403537798376413, -0.116066591627767, 0.340533042265455, -1.11574422393506, -1.29045261532469, 1.32135122536806], a = 0.2, v = 0.2, t = 0.2)
movej(p[-0.403620457070707, -0.116066311517682, 0.340617786774397, -1.11740899706608, -1.29050396307267, 1.3208999053501], a = 0.2, v = 0.2, t = 0.2)
movej(p[-0.40289621790954, -0.116229389738549, 0.341074340759497, -1.12326112309665, -1.28791651203329, 1.32330117353411], a = 0.2, v = 0.2, t = 0.2)
movej(p[-0.402113140544991, -0.116389559298936, 0.341451969681929, -1.12889225047666, -1.28640489847973, 1.32545473183068], a = 0.2, v = 0.2, t = 0.2)
movej(p[-0.401529368953713, -0.116505953701049, 0.341746276192854, -1.13093450643374, -1.28162504566248, 1.32904378826714], a = 0.2, v = 0.2, t = 0.2)
movej(p[-0.399761393678705, -0.116812103041008, 0.341937837197769, -1.14409656386612, -1.28551044444533, 1.33165335122322], a = 0.2, v = 0.2, t = 0.2)
movej(p[-0.398373410137681, -0.117076205422365, 0.342759357150058, -1.13736839785186, -1.26757918388077, 1.34233953550614], a = 0.2, v = 0.2, t = 0.2)
movej(p[-0.395867231315106, -0.117506137372486, 0.343325411730058, -1.1439741639888, -1.26076618493066, 1.35116672271268], a = 0.2, v = 0.2, t = 0.2)
movej(p[-0.393467216187183, -0.117836467341676, 0.343093622499947, -1.14513659570499, -1.26383377601112, 1.35715271846104], a = 0.2, v = 0.2, t = 0.2)
movej(p[-0.393694421979891, -0.117885378365888, 0.343904957855684, -1.15156907389983, -1.2561705783445, 1.35787589282758], a = 0.2, v = 0.2, t = 0.2)
movej(p[-0.395662136494867, -0.117513306357667, 0.343163772562891, -1.14272506850821, -1.26208663243526, 1.35098343204489], a = 0.2, v = 0.2, t = 0.2)
movej(p[-0.396888469033363, -0.117272639180117, 0.342583778291647, -1.13771873567808, -1.26820091822624, 1.34597808510486], a = 0.2, v = 0.2, t = 0.2)
movej(p[-0.397893018754229, -0.11707609803542, 0.342086421330553, -1.13466302760676, -1.27458735385426, 1.34141988475351], a = 0.2, v = 0.2, t = 0.2)
movej(p[-0.3989797043493, -0.116868527437119, 0.341591178446519, -1.13154290029516, -1.28094914626351, 1.33661648526283], a = 0.2, v = 0.2, t = 0.2)
movej(p[-0.400213463517534, -0.116639011484775, 0.341097060512803, -1.12833153853941, -1.28733117776472, 1.33136690487364], a = 0.2, v = 0.2, t = 0.2)
movej(p[-0.401225512625242, -0.116457036562195, 0.340751442947946, -1.1252477429076, -1.29041593394382, 1.3273874623696], a = 0.2, v = 0.2, t = 0.2)
movej(p[-0.401725573406566, -0.116356938474208, 0.340581876448415, -1.12118479607273, -1.28987943016776, 1.32645615761883], a = 0.2, v = 0.2, t = 0.2)
movej(p[-0.402295484206676, -0.116246018518012, 0.340448816825553, -1.11685243715372, -1.28905253867184, 1.32589516349886], a = 0.2, v = 0.2, t = 0.2)
movej(p[-0.402834005549085, -0.116164189874068, 0.340466216158878, -1.11438588309032, -1.28928352489253, 1.32489089645123], a = 0.2, v = 0.2, t = 0.2)
movej(p[-0.402700183199047, -0.116128737661546, 0.340069985179199, -1.09213920159956, -1.27907802650342, 1.33078831820224], a = 0.2, v = 0.2, t = 0.2)
movej(p[-0.403777648643397, -0.116008206158794, 0.340501089230533, -1.11441643676864, -1.28808402077984, 1.32220905206065], a = 0.2, v = 0.2, t = 0.2)
movej(p[-0.403935229324675, -0.115989838340416, 0.340671308184049, -1.11690615180688, -1.28748069666122, 1.32184757916691], a = 0.2, v = 0.2, t = 0.2)
movej(p[-0.40342063534664, -0.11610347965344, 0.341041568024897, -1.12314787800136, -1.28794824485868, 1.32282015644117], a = 0.2, v = 0.2, t = 0.2)
movej(p[-0.402620288838184, -0.116250232604673, 0.341368885802763, -1.13228089338794, -1.28740041351058, 1.32495388016825], a = 0.2, v = 0.2, t = 0.2)
movej(p[-0.401640331395694, -0.116443310127551, 0.341628734799426, -1.14032836941786, -1.28960155831493, 1.3262971945524], a = 0.2, v = 0.2, t = 0.2)
movej(p[-0.400230477938027, -0.116703802681634, 0.341836483511029, -1.14207091851755, -1.28863742720127, 1.33001151242769], a = 0.2, v = 0.2, t = 0.2)
movej(p[-0.39907181216008, -0.116910672466717, 0.342071539880935, -1.13840982117683, -1.28470353688879, 1.33451485598817], a = 0.2, v = 0.2, t = 0.2)
movej(p[-0.397386769943524, -0.117179116638188, 0.342495738260502, -1.13875710597331, -1.27014523519948, 1.3432139814686], a = 0.2, v = 0.2, t = 0.2)
movej(p[-0.395604334487974, -0.117504895520654, 0.343072745337183, -1.14551086418445, -1.2637346716501, 1.34917235650083], a = 0.2, v = 0.2, t = 0.2)
movej(p[-0.394512019940503, -0.117700836423111, 0.343552416289113, -1.14697632243576, -1.25539434630029, 1.35351542496607], a = 0.2, v = 0.2, t = 0.2)
movej(p[-0.39495614508916, -0.117636937614589, 0.343353976840921, -1.15315003251421, -1.26468586639864, 1.35009838807808], a = 0.2, v = 0.2, t = 0.2)
movej(p[-0.396902344985465, -0.117266548983361, 0.342864806364011, -1.14158354181461, -1.26567789592132, 1.34512062328586], a = 0.2, v = 0.2, t = 0.2)
movej(p[-0.398481396102312, -0.116974608751306, 0.342248946533131, -1.13313929511419, -1.27114813020889, 1.33982470278148], a = 0.2, v = 0.2, t = 0.2)
movej(p[-0.399342415211967, -0.116822487221694, 0.341489350460841, -1.13287043469425, -1.28009067639797, 1.33568549063464], a = 0.2, v = 0.2, t = 0.2)
movej(p[-0.400150329952789, -0.116679567651069, 0.340957790701365, -1.12448281714967, -1.28650444348212, 1.33244041883024], a = 0.2, v = 0.2, t = 0.2)
movej(p[-0.40079925524366, -0.116561754709086, 0.340733400377221, -1.12359708737626, -1.28991843882521, 1.33045243614659], a = 0.2, v = 0.2, t = 0.2)
movej(p[-0.401495862860443, -0.116433746044026, 0.340487107929285, -1.11929379181854, -1.29127458402284, 1.32839207920949], a = 0.2, v = 0.2, t = 0.2)
movej(p[-0.402137743496656, -0.116315768749235, 0.340352726692621, -1.11661185619591, -1.29225663124319, 1.32647864072998], a = 0.2, v = 0.2, t = 0.2)
movej(p[-0.402424020221873, -0.116259225789157, 0.340313003899857, -1.11646590078495, -1.29041560813264, 1.32616873648022], a = 0.2, v = 0.2, t = 0.2)
movej(p[-0.402577165123691, -0.11622727206691, 0.340275861219804, -1.11623625474151, -1.2881710923145, 1.32626529878482], a = 0.2, v = 0.2, t = 0.2)
movej(p[-0.40304134961712, -0.116145709464459, 0.34045606274017, -1.11819312445393, -1.29346671149084, 1.32388088079694], a = 0.2, v = 0.2, t = 0.2)
movej(p[-0.403406297290866, -0.116064987453092, 0.340647803195755, -1.11761891482389, -1.29089785507561, 1.32330131705599], a = 0.2, v = 0.2, t = 0.2)
movej(p[-0.404202482627487, -0.115905284245245, 0.340763145361303, -1.11942028634029, -1.29189969744713, 1.32104627297373], a = 0.2, v = 0.2, t = 0.2)
movej(p[-0.403864884425642, -0.115978558762823, 0.340628756376692, -1.1200863910517, -1.29390756265879, 1.32176106331341], a = 0.2, v = 0.2, t = 0.2)
movej(p[-0.403250221280049, -0.116089647696989, 0.340878323934993, -1.12375248501024, -1.29221253952364, 1.32376771123158], a = 0.2, v = 0.2, t = 0.2)
movej(p[-0.401836196808611, -0.116327683282571, 0.341539585807606, -1.12487179997037, -1.28117579076923, 1.32888601263285], a = 0.2, v = 0.2, t = 0.2)
movej(p[-0.400653933608426, -0.116561486938263, 0.341637481037689, -1.1277911518017, -1.27998262768735, 1.33226200646193], a = 0.2, v = 0.2, t = 0.2)
movej(p[-0.399986972328361, -0.11668017020585, 0.341921382416496, -1.13173116433423, -1.27773504699177, 1.33437202512464], a = 0.2, v = 0.2, t = 0.2)
movej(p[-0.398549408823185, -0.116979511594277, 0.342233044271334, -1.14466490808351, -1.28121047379565, 1.33675096645106], a = 0.2, v = 0.2, t = 0.2)
movej(p[-0.396792719447564, -0.117334990925945, 0.342681538030862, -1.15877118066672, -1.28599741500137, 1.34054361817316], a = 0.2, v = 0.2, t = 0.2)
movej(p[-0.395276243726657, -0.117580708803077, 0.342863055999003, -1.14240963994958, -1.26317344920233, 1.34854576295106], a = 0.2, v = 0.2, t = 0.2)
movej(p[-0.395872094046337, -0.117465956855238, 0.342826043068768, -1.14349971984481, -1.26557620574918, 1.34676167956216], a = 0.2, v = 0.2, t = 0.2)
movej(p[-0.397092635188318, -0.117243290781362, 0.342351112968358, -1.13611968746971, -1.26911403643757, 1.34294056070793], a = 0.2, v = 0.2, t = 0.2)
movej(p[-0.398652333395843, -0.116951756998934, 0.34193780537691, -1.13238346511199, -1.27533831037875, 1.33814979180332], a = 0.2, v = 0.2, t = 0.2)
movej(p[-0.399674195167517, -0.116776713112966, 0.341513020316467, -1.13012783756676, -1.28178952148623, 1.33486019579111], a = 0.2, v = 0.2, t = 0.2)
movej(p[-0.400489686954759, -0.116661326965071, 0.340883418377291, -1.12099906997206, -1.28716748776625, 1.33081032814513], a = 0.2, v = 0.2, t = 0.2)
movej(p[-0.401267630221245, -0.116517539505349, 0.340604763733411, -1.11893476118164, -1.28942861233619, 1.32949166790618], a = 0.2, v = 0.2, t = 0.2)
movej(p[-0.401566859031045, -0.116460141673265, 0.340607816315559, -1.12071646319644, -1.29118399918237, 1.32891358575225], a = 0.2, v = 0.2, t = 0.2)
movej(p[-0.401926682025965, -0.116391949446271, 0.340507664218703, -1.12104460138808, -1.29044218006706, 1.32821605036816], a = 0.2, v = 0.2, t = 0.2)
movej(p[-0.402286420608906, -0.116323643809767, 0.340407508530073, -1.12137243233057, -1.28970048945455, 1.32751833804397], a = 0.2, v = 0.2, t = 0.2)
movej(p[-0.402708584351071, -0.116211035410479, 0.340456282941508, -1.11291946446801, -1.28489415853042, 1.32655057299592], a = 0.2, v = 0.2, t = 0.2)
movej(p[-0.403149993554986, -0.116134826670066, 0.340440294114638, -1.11677921706872, -1.29329291370844, 1.3239657084452], a = 0.2, v = 0.2, t = 0.2)
movej(p[-0.4032322180528, -0.116134235943003, 0.340199817352765, -1.10827257433331, -1.29192573406984, 1.32385005357234], a = 0.2, v = 0.2, t = 0.2)
movej(p[-0.403498967145761, -0.116056777207543, 0.340304985007991, -1.10510461417369, -1.28947259116663, 1.3230563775446], a = 0.2, v = 0.2, t = 0.2)
movej(p[-0.403856984522681, -0.115932194604487, 0.3406969630212, -1.12188929472246, -1.28266598609322, 1.32473766773189], a = 0.2, v = 0.2, t = 0.2)
movej(p[-0.40298017503445, -0.116091683054727, 0.341091118137349, -1.12482301112527, -1.29051437435232, 1.32553816947396], a = 0.2, v = 0.2, t = 0.2)
movej(p[-0.401558086919888, -0.116393790695111, 0.341408340579878, -1.13645946467821, -1.29371814360177, 1.32841553528145], a = 0.2, v = 0.2, t = 0.2)
movej(p[-0.400128135416442, -0.116687839768305, 0.341800089505016, -1.14407275415024, -1.29116503886618, 1.33049111602496], a = 0.2, v = 0.2, t = 0.2)
movej(p[-0.398968254496745, -0.116924251084869, 0.342021860493925, -1.15111143483404, -1.28984415200319, 1.33493111111811], a = 0.2, v = 0.2, t = 0.2)
movej(p[-0.397629496435334, -0.117183942509682, 0.342402101242513, -1.1562231549152, -1.28999247349959, 1.33896571931767], a = 0.2, v = 0.2, t = 0.2)
movej(p[-0.396385793401729, -0.117396390972253, 0.342997839402239, -1.16501790771746, -1.28559765849303, 1.34230086097451], a = 0.2, v = 0.2, t = 0.2)
movej(p[-0.394443637096968, -0.117772777116642, 0.342965957617659, -1.14822421263547, -1.25821572813164, 1.35180702050269], a = 0.2, v = 0.2, t = 0.2)
movej(p[-0.394995148260159, -0.117647076350698, 0.343381215759441, -1.17117454447543, -1.27455209396887, 1.3491073565725], a = 0.2, v = 0.2, t = 0.2)
movej(p[-0.396459481967093, -0.117382890683984, 0.342418978980763, -1.1381670288356, -1.26358383415962, 1.34530153620245], a = 0.2, v = 0.2, t = 0.2)
movej(p[-0.398150324468336, -0.11709939167909, 0.341860514899365, -1.13976931562846, -1.27566022150663, 1.3401327144986], a = 0.2, v = 0.2, t = 0.2)
movej(p[-0.399668264201396, -0.11684483368856, 0.341174781849078, -1.13409671374361, -1.27787746765158, 1.33743163980205], a = 0.2, v = 0.2, t = 0.2)
movej(p[-0.400487023272143, -0.116696520858221, 0.340864910684839, -1.12486762609827, -1.28095009230529, 1.33320570704454], a = 0.2, v = 0.2, t = 0.2)
movej(p[-0.40132443957707, -0.116547301727242, 0.340548883529056, -1.11671474223892, -1.28591752315965, 1.33028414106194], a = 0.2, v = 0.2, t = 0.2)
movej(p[-0.401815322754012, -0.11648030925211, 0.340410000575202, -1.12227392558078, -1.29197017097427, 1.32864440146765], a = 0.2, v = 0.2, t = 0.2)
movej(p[-0.402355676723684, -0.116346138467788, 0.340335913342201, -1.11432702945846, -1.28747721710096, 1.32748227137702], a = 0.2, v = 0.2, t = 0.2)
movej(p[-0.402579563059551, -0.116302596924682, 0.340307887235872, -1.11587062835196, -1.28895792447497, 1.32659389658507], a = 0.2, v = 0.2, t = 0.2)
movej(p[-0.403002894544323, -0.116195844853773, 0.340303001608218, -1.11441545134623, -1.28735988812106, 1.3258832869169], a = 0.2, v = 0.2, t = 0.2)
movej(p[-0.403169450442698, -0.116134051102722, 0.340405648941585, -1.1125776416588, -1.28523552550008, 1.32592970836252], a = 0.2, v = 0.2, t = 0.2)
movej(p[-0.403583489429126, -0.116050098329951, 0.340392060355874, -1.11565787500724, -1.28847670690868, 1.32385674643823], a = 0.2, v = 0.2, t = 0.2)
movej(p[-0.403630468154292, -0.116020035341093, 0.340487796222103, -1.11379960969348, -1.29185301368649, 1.32217178343008], a = 0.2, v = 0.2, t = 0.2)
movej(p[-0.403324244999771, -0.116021360123797, 0.34084100857266, -1.12130514981781, -1.28480569976624, 1.32543526072138], a = 0.2, v = 0.2, t = 0.2)
movej(p[-0.401680314774281, -0.116359360078574, 0.341321270641005, -1.13056298545651, -1.29314331580642, 1.3265854749294], a = 0.2, v = 0.2, t = 0.2)
movej(p[-0.40014191877653, -0.116673716814515, 0.341735552219971, -1.14323516598472, -1.29061587760628, 1.33259552912209], a = 0.2, v = 0.2, t = 0.2)
movej(p[-0.398429586670466, -0.117031756963646, 0.342154894395472, -1.15540416048347, -1.28903417882991, 1.33854038225264], a = 0.2, v = 0.2, t = 0.2)
movej(p[-0.396945146993618, -0.117344220250628, 0.342533030984666, -1.16080977901792, -1.29141846039268, 1.34174295268883], a = 0.2, v = 0.2, t = 0.2)
movej(p[-0.395800084873492, -0.117522645259037, 0.343006854113511, -1.16539281817923, -1.28308612869919, 1.3449603225567], a = 0.2, v = 0.2, t = 0.2)
movej(p[-0.395207607066541, -0.11762922716016, 0.343194734092814, -1.16929657977498, -1.27826117266819, 1.34800323724429], a = 0.2, v = 0.2, t = 0.2)
movej(p[-0.3961758199307, -0.117402254950009, 0.343014334105299, -1.16211516573163, -1.27507466874438, 1.34576536498614], a = 0.2, v = 0.2, t = 0.2)
movej(p[-0.397331526756858, -0.11723779103208, 0.342386865188403, -1.15035068181624, -1.27815553140485, 1.3419717441568], a = 0.2, v = 0.2, t = 0.2)
movej(p[-0.398310877176354, -0.117144287255533, 0.341681172642314, -1.14004135894659, -1.27911107822645, 1.33980536036608], a = 0.2, v = 0.2, t = 0.2)
movej(p[-0.399891256589006, -0.116857472389092, 0.341108915406053, -1.1315540312414, -1.27831016129818, 1.33649603987999], a = 0.2, v = 0.2, t = 0.2)
movej(p[-0.400727761741437, -0.116725535714202, 0.340725210657873, -1.12445060191446, -1.27782651710903, 1.33479053802522], a = 0.2, v = 0.2, t = 0.2)
movej(p[-0.401209554473479, -0.116651567632069, 0.340558052720049, -1.12160642379271, -1.28177705006491, 1.33212183602077], a = 0.2, v = 0.2, t = 0.2)
movej(p[-0.401833343316177, -0.116516380154967, 0.340445655719379, -1.11968452017729, -1.2850651045772, 1.33109215771909], a = 0.2, v = 0.2, t = 0.2)
movej(p[-0.402337501475022, -0.116368665321778, 0.340502808312723, -1.11647921981086, -1.28967574340952, 1.32764060575273], a = 0.2, v = 0.2, t = 0.2)
movej(p[-0.403086170878081, -0.116179383360964, 0.340388577606548, -1.11016650197373, -1.28699575723815, 1.32577196927905], a = 0.2, v = 0.2, t = 0.2)
movej(p[-0.403281830225723, -0.116094551781347, 0.34050682422502, -1.11670278060926, -1.28082418990744, 1.32748398516127], a = 0.2, v = 0.2, t = 0.2)
movej(p[-0.403484412237558, -0.11607470545529, 0.340417846970494, -1.1161510755645, -1.28416620358105, 1.32660160227416], a = 0.2, v = 0.2, t = 0.2)
movej(p[-0.403693689566207, -0.115986822483632, 0.340515640237165, -1.11330497688694, -1.28881903846096, 1.32334701329448], a = 0.2, v = 0.2, t = 0.2)
movej(p[-0.403304700093596, -0.116060314452532, 0.340688446923103, -1.12257844043478, -1.28824546202791, 1.32674864345618], a = 0.2, v = 0.2, t = 0.2)
movej(p[-0.402428274121419, -0.116193905069242, 0.341042144961579, -1.12442322069793, -1.2862169159978, 1.32716064224656], a = 0.2, v = 0.2, t = 0.2)
movej(p[-0.401564785211989, -0.11634595520613, 0.341411008702224, -1.13390283357445, -1.29325963741582, 1.32836028654732], a = 0.2, v = 0.2, t = 0.2)
movej(p[-0.399958218873069, -0.116690590886691, 0.341769739222716, -1.13996559205207, -1.2890183593998, 1.33315558857515], a = 0.2, v = 0.2, t = 0.2)
movej(p[-0.398321804390124, -0.117022825981021, 0.342233121421453, -1.15220191358097, -1.28373210806501, 1.34002307945861], a = 0.2, v = 0.2, t = 0.2)
movej(p[-0.39644525550526, -0.117404914028993, 0.342731700950024, -1.15697010740927, -1.28486712571647, 1.34302482450067], a = 0.2, v = 0.2, t = 0.2)
movej(p[-0.393781615092251, -0.117903517758615, 0.343635641789345, -1.17523142515108, -1.28365273604805, 1.35109076973732], a = 0.2, v = 0.2, t = 0.2)
movej(p[-0.393407663328876, -0.117962846777684, 0.343788082617752, -1.1783843363517, -1.28104884777823, 1.35291470737182], a = 0.2, v = 0.2, t = 0.2)
movej(p[-0.395044311628619, -0.117601740941361, 0.343325947650536, -1.16532557056486, -1.27119139564891, 1.349366618135], a = 0.2, v = 0.2, t = 0.2)
movej(p[-0.396301029736138, -0.117465211289758, 0.342655443308666, -1.15566078455242, -1.27586282640738, 1.345671928644], a = 0.2, v = 0.2, t = 0.2)
movej(p[-0.397451399270191, -0.117307000621803, 0.34211187534634, -1.14746310593233, -1.27496760915258, 1.34324433693255], a = 0.2, v = 0.2, t = 0.2)
movej(p[-0.398395339236217, -0.117207325785879, 0.341575715475011, -1.1405659108694, -1.26997202366224, 1.34197163808704], a = 0.2, v = 0.2, t = 0.2)
movej(p[-0.398967926364651, -0.117124945951331, 0.341333340717227, -1.13659077197044, -1.27192609447144, 1.34005854100817], a = 0.2, v = 0.2, t = 0.2)
movej(p[-0.400318150014409, -0.11685096309342, 0.340953921688704, -1.12630459132011, -1.27627153545379, 1.33551422920951], a = 0.2, v = 0.2, t = 0.2)
movej(p[-0.400992965004807, -0.116739879874096, 0.340704859633949, -1.12007832481737, -1.28041169675546, 1.33183991870357], a = 0.2, v = 0.2, t = 0.2)
movej(p[-0.40152595218069, -0.116638208213592, 0.340582366230884, -1.12127221543305, -1.28416735559963, 1.33168048723838], a = 0.2, v = 0.2, t = 0.2)
movej(p[-0.401778187208825, -0.116544824929895, 0.340595979199252, -1.12118196669006, -1.2789387754582, 1.33192784640923], a = 0.2, v = 0.2, t = 0.2)
movej(p[-0.401777688945139, -0.116547075606376, 0.34059787556121, -1.1217559638584, -1.27918318063009, 1.33219561852147], a = 0.2, v = 0.2, t = 0.2)
movej(p[-0.402412566818396, -0.116394803663664, 0.340505383445269, -1.12471624753448, -1.276827513213, 1.33235074393984], a = 0.2, v = 0.2, t = 0.2)
movej(p[-0.403148949060885, -0.116161634070938, 0.340489838865021, -1.11906036137711, -1.28108248152629, 1.32905481793646], a = 0.2, v = 0.2, t = 0.2)
movej(p[-0.403229321385045, -0.116100393634478, 0.340548545495406, -1.11254639131124, -1.28690314433415, 1.32446557963726], a = 0.2, v = 0.2, t = 0.2)
movej(p[-0.402641208882077, -0.116206470222991, 0.340802917194347, -1.12438682154221, -1.2872592200399, 1.32851335392502], a = 0.2, v = 0.2, t = 0.2)
movej(p[-0.401461299884315, -0.116400410898902, 0.341285613269768, -1.13179414726644, -1.29200744661075, 1.33057458042333], a = 0.2, v = 0.2, t = 0.2)
movej(p[-0.400402836473357, -0.116614632909604, 0.341578554010865, -1.14037611361755, -1.28925498336, 1.33443437714341], a = 0.2, v = 0.2, t = 0.2)
movej(p[-0.39898875000851, -0.116908270163977, 0.34197796067428, -1.149332898031, -1.28494171623477, 1.3383221302219], a = 0.2, v = 0.2, t = 0.2)
movej(p[-0.396960833212354, -0.1173655405979, 0.342479565805961, -1.15836161457714, -1.28771735506516, 1.34332099236525], a = 0.2, v = 0.2, t = 0.2)
movej(p[-0.394731782221176, -0.117781965183382, 0.343201241227, -1.17519879403967, -1.27778637928621, 1.35207074972222], a = 0.2, v = 0.2, t = 0.2)
movej(p[-0.393076737335783, -0.118104888693148, 0.343700441752017, -1.18283011859305, -1.27171783098523, 1.35703557547685], a = 0.2, v = 0.2, t = 0.2)
movej(p[-0.394069687739261, -0.117845250658159, 0.343524627398165, -1.17496726871918, -1.27542979791461, 1.35289386396231], a = 0.2, v = 0.2, t = 0.2)
movej(p[-0.395872290220609, -0.117512528791939, 0.342923972360747, -1.16717348132217, -1.26769857700754, 1.35113835977457], a = 0.2, v = 0.2, t = 0.2)
movej(p[-0.397013579673812, -0.117388985628024, 0.342345558935368, -1.15455067665896, -1.26985785464394, 1.34729514203867], a = 0.2, v = 0.2, t = 0.2)
movej(p[-0.3980602450073, -0.117305560740268, 0.341785970490368, -1.14723163467286, -1.27005514616617, 1.34430675200347], a = 0.2, v = 0.2, t = 0.2)
movej(p[-0.399026724415245, -0.11715929477981, 0.341381020872726, -1.13480723758872, -1.27356675912303, 1.3386835451911], a = 0.2, v = 0.2, t = 0.2)
movej(p[-0.400114791442526, -0.11693192119812, 0.341083239462134, -1.13063748489053, -1.27528173416865, 1.33713727297211], a = 0.2, v = 0.2, t = 0.2)
movej(p[-0.401145923367383, -0.116713686257089, 0.340821539339752, -1.12341101471229, -1.28226785537878, 1.33271931121452], a = 0.2, v = 0.2, t = 0.2)
movej(p[-0.401366522899132, -0.116670974641983, 0.340800006933309, -1.12173190970723, -1.28774415555636, 1.3305280266244], a = 0.2, v = 0.2, t = 0.2)
movej(p[-0.401552684082221, -0.116626382827738, 0.340728427299242, -1.11754407437174, -1.28527860702216, 1.32900503747302], a = 0.2, v = 0.2, t = 0.2)
movej(p[-0.401666211367703, -0.116611066710743, 0.340698896095217, -1.11900857353995, -1.28578628204658, 1.32908707319597], a = 0.2, v = 0.2, t = 0.2)
movej(p[-0.40217699591339, -0.116478031266712, 0.340618476392907, -1.12055568455506, -1.28160130008748, 1.32981902590822], a = 0.2, v = 0.2, t = 0.2)
movej(p[-0.403039841549668, -0.116221351882437, 0.340530880721532, -1.11593706444923, -1.28644622175918, 1.32627850606451], a = 0.2, v = 0.2, t = 0.2)
movej(p[-0.403322604085222, -0.116156008347867, 0.340489684714725, -1.12013891167482, -1.28405292363988, 1.32798290673915], a = 0.2, v = 0.2, t = 0.2)
movej(p[-0.403386571697052, -0.1161116951446, 0.340499681446837, -1.11421527742168, -1.28926790465546, 1.32483648431544], a = 0.2, v = 0.2, t = 0.2)
movej(p[-0.403041120283094, -0.116204842576569, 0.340573859991658, -1.12171014001565, -1.28030185880772, 1.32859633028247], a = 0.2, v = 0.2, t = 0.2)
movej(p[-0.402241101641395, -0.11632001528074, 0.34089110600211, -1.12284707417239, -1.29087583002101, 1.32725196268167], a = 0.2, v = 0.2, t = 0.2)
movej(p[-0.401304709622553, -0.11655020024541, 0.341127072544419, -1.12847273790271, -1.29542789131916, 1.3296335225714], a = 0.2, v = 0.2, t = 0.2)
movej(p[-0.400146566877045, -0.116809566222384, 0.341429583686388, -1.14373581342451, -1.28284547319588, 1.33705721606109], a = 0.2, v = 0.2, t = 0.2)
movej(p[-0.398543721989714, -0.117146100006578, 0.341903771601936, -1.15117003589577, -1.28567218966548, 1.34123312265103], a = 0.2, v = 0.2, t = 0.2)
movej(p[-0.398115102912429, -0.117223206981458, 0.342050195032481, -1.15525374451926, -1.28489507242176, 1.34207116066564], a = 0.2, v = 0.2, t = 0.2)
movej(p[-0.396909230038397, -0.117429960905962, 0.342457306732602, -1.15991051383067, -1.28098689970658, 1.34538239647001], a = 0.2, v = 0.2, t = 0.2)
movej(p[-0.395460142279435, -0.117680022085844, 0.342964311932914, -1.16783294744783, -1.27584877174442, 1.34997175128164], a = 0.2, v = 0.2, t = 0.2)
movej(p[-0.396281796140176, -0.117508559031853, 0.342707645818583, -1.16215317543489, -1.27063967025098, 1.34757866117934], a = 0.2, v = 0.2, t = 0.2)
movej(p[-0.397625265855952, -0.117289732003388, 0.342218230295326, -1.15154433306263, -1.27293746542355, 1.34448578008879], a = 0.2, v = 0.2, t = 0.2)
movej(p[-0.398455386603273, -0.117175227977991, 0.34189073508462, -1.1466320184526, -1.27619940498789, 1.34225932912115], a = 0.2, v = 0.2, t = 0.2)
movej(p[-0.399699833935799, -0.116990824409807, 0.341416556457297, -1.13890313301426, -1.27756744888702, 1.33846650110367], a = 0.2, v = 0.2, t = 0.2)
movej(p[-0.400426921675459, -0.116869910891301, 0.34115145866425, -1.1318381240728, -1.27525165751671, 1.3364629825432], a = 0.2, v = 0.2, t = 0.2)
movej(p[-0.401706419992485, -0.116550691506481, 0.340822242563361, -1.11978123844977, -1.28115929654097, 1.3290804218418], a = 0.2, v = 0.2, t = 0.2)
movej(p[-0.402258194978445, -0.116423166002939, 0.340701462925943, -1.1228880033171, -1.27497458660653, 1.33049162906042], a = 0.2, v = 0.2, t = 0.2)
movej(p[-0.40254215611436, -0.116348496896945, 0.340662057749887, -1.11761432240175, -1.28624717516704, 1.32893083842511], a = 0.2, v = 0.2, t = 0.2)
movej(p[-0.402896774770757, -0.116268328323844, 0.340555652494273, -1.11470407394449, -1.28436648569936, 1.3266997958782], a = 0.2, v = 0.2, t = 0.2)
movej(p[-0.403110345411932, -0.116245942957059, 0.340472349153512, -1.11629728214393, -1.28374958227983, 1.32762415887311], a = 0.2, v = 0.2, t = 0.2)
movej(p[-0.40359245135024, -0.116055929898983, 0.340448342029379, -1.11159691110911, -1.28891001564058, 1.3255363804182], a = 0.2, v = 0.2, t = 0.2)
movej(p[-0.403570486821628, -0.115997080964613, 0.340553609794656, -1.12156114388044, -1.28114803776673, 1.33040978447063], a = 0.2, v = 0.2, t = 0.2)
movej(p[-0.402040474483806, -0.116412452458189, 0.340888901038857, -1.13226469017812, -1.27913888354123, 1.33363477198282], a = 0.2, v = 0.2, t = 0.2)
movej(p[-0.400438962587457, -0.11671186605697, 0.341409656915172, -1.14177056246067, -1.28229674163683, 1.33630253546141], a = 0.2, v = 0.2, t = 0.2)
movej(p[-0.398626119713888, -0.117178892755039, 0.341858010256902, -1.15065987650574, -1.28171505575252, 1.34144953375561], a = 0.2, v = 0.2, t = 0.2)
movej(p[-0.396681860488345, -0.117541507486926, 0.342499700930133, -1.16665656170387, -1.26495129975501, 1.35084545056274], a = 0.2, v = 0.2, t = 0.2)
movej(p[-0.395032713445915, -0.117812189708316, 0.343092674123008, -1.1752433734456, -1.26614194587353, 1.35438627588421], a = 0.2, v = 0.2, t = 0.2)
movej(p[-0.393039258914261, -0.118145441496821, 0.343804722805112, -1.18448770709205, -1.26985291421386, 1.35799729617111], a = 0.2, v = 0.2, t = 0.2)
movej(p[-0.392473214514246, -0.118181063913788, 0.344072280426236, -1.18790489625601, -1.26250887511251, 1.36092287179996], a = 0.2, v = 0.2, t = 0.2)
movej(p[-0.394166420228585, -0.117950801699782, 0.343442252322313, -1.1794249042864, -1.2627493966056, 1.35802702417248], a = 0.2, v = 0.2, t = 0.2)
movej(p[-0.395401607574906, -0.117773235739993, 0.342955880263687, -1.16916703060512, -1.25953361020813, 1.35376539196601], a = 0.2, v = 0.2, t = 0.2)
movej(p[-0.397327406211363, -0.117400937015091, 0.342335502659918, -1.15527150433748, -1.26619312269532, 1.34781226416677], a = 0.2, v = 0.2, t = 0.2)
movej(p[-0.398205028057376, -0.117281864003001, 0.341999238755831, -1.15057122521875, -1.2652397345021, 1.34507016455644], a = 0.2, v = 0.2, t = 0.2)
movej(p[-0.398888859975891, -0.117088376326874, 0.341837685617801, -1.14337579367812, -1.27367453984294, 1.34066676735165], a = 0.2, v = 0.2, t = 0.2)
movej(p[-0.399369842022327, -0.117081229051689, 0.341598228215612, -1.13841151882833, -1.27760482749928, 1.33869623893301], a = 0.2, v = 0.2, t = 0.2)
movej(p[-0.400544897485952, -0.116817584800117, 0.341256060090244, -1.12932265043968, -1.28108307832382, 1.33358861878588], a = 0.2, v = 0.2, t = 0.2)
movej(p[-0.401727831473397, -0.116511615878232, 0.340954255948145, -1.12371761907093, -1.28183955213313, 1.33081446803222], a = 0.2, v = 0.2, t = 0.2)
movej(p[-0.402203408496872, -0.116468188240677, 0.340748427269289, -1.12139127174058, -1.27901439105178, 1.3292275097019], a = 0.2, v = 0.2, t = 0.2)
movej(p[-0.402478546953564, -0.116335824363227, 0.340730703737039, -1.11768609065635, -1.28420915734612, 1.32667850222338], a = 0.2, v = 0.2, t = 0.2)
movej(p[-0.402776508733003, -0.11631487575162, 0.340631652014867, -1.12039161570474, -1.28452712242766, 1.33027013167948], a = 0.2, v = 0.2, t = 0.2)
movej(p[-0.402839712483861, -0.116250941444911, 0.340649917290752, -1.11951876884319, -1.28148178678346, 1.32897359016823], a = 0.2, v = 0.2, t = 0.2)
movej(p[-0.402947226066356, -0.116242238203478, 0.340591894767818, -1.10975680312054, -1.29237002968739, 1.32466545162791], a = 0.2, v = 0.2, t = 0.2)
movej(p[-0.403307639265094, -0.116071205536528, 0.340581743757451, -1.11445239088884, -1.29310689735811, 1.32805855886988], a = 0.2, v = 0.2, t = 0.2)
movej(p[-0.402577066070933, -0.116250771776045, 0.340763996092415, -1.12365771886355, -1.28385515177925, 1.32996633535618], a = 0.2, v = 0.2, t = 0.2)
movej(p[-0.400537734850383, -0.116776679681289, 0.341335029881337, -1.14343474972751, -1.27386099158764, 1.34020184284035], a = 0.2, v = 0.2, t = 0.2)
movej(p[-0.398053483411078, -0.117286427492574, 0.342106327946422, -1.1548357579531, -1.2766774699325, 1.34281711777998], a = 0.2, v = 0.2, t = 0.2)
movej(p[-0.395935270304012, -0.117676720378302, 0.342824533826657, -1.1690518162984, -1.27228890634378, 1.35175560177506], a = 0.2, v = 0.2, t = 0.2)
movej(p[-0.394102665017443, -0.117986233588315, 0.34347103763675, -1.1842160425575, -1.26621774444892, 1.35908676417229], a = 0.2, v = 0.2, t = 0.2)
movej(p[-0.392408683074164, -0.118204564670214, 0.344086762749542, -1.18672501999389, -1.27617749270536, 1.35931085086879], a = 0.2, v = 0.2, t = 0.2)
movej(p[-0.393321231220526, -0.118071381806155, 0.343784463468541, -1.18784965837152, -1.26798852390007, 1.36379554748156], a = 0.2, v = 0.2, t = 0.2)
movej(p[-0.39531619691001, -0.117788068016607, 0.34308605599834, -1.17116707276999, -1.27085816464855, 1.35752821593103], a = 0.2, v = 0.2, t = 0.2)
movej(p[-0.396678107943435, -0.117538473751322, 0.342622429715897, -1.16112816616968, -1.27004886499776, 1.35054997956412], a = 0.2, v = 0.2, t = 0.2)
movej(p[-0.398218821641374, -0.117275050241418, 0.342079533772448, -1.14303782326676, -1.28274827390355, 1.33960951253229], a = 0.2, v = 0.2, t = 0.2)
movej(p[-0.39917665993495, -0.117153622955503, 0.341825615778612, -1.16362775802389, -1.2442870449743, 1.34931181969075], a = 0.2, v = 0.2, t = 0.2)
movej(p[-0.399194614836196, -0.117152914854343, 0.341824139257702, -1.16512915252669, -1.24221025877382, 1.35006517980698], a = 0.2, v = 0.2, t = 0.2)
movej(p[-0.39921266862262, -0.117152221215615, 0.341822666280755, -1.16663155157657, -1.2401296166385, 1.3508162767147], a = 0.2, v = 0.2, t = 0.2)
movej(p[-0.39954669759263, -0.116889951271246, 0.341724625557204, -1.15554806706522, -1.25908322597696, 1.345717355665], a = 0.2, v = 0.2, t = 0.2)
movej(p[-0.400362752504516, -0.116645316618801, 0.341448741509803, -1.14416908594639, -1.27394886535153, 1.34120499130747], a = 0.2, v = 0.2, t = 0.2)
movej(p[-0.401145752521799, -0.116530665306614, 0.341175330355041, -1.13862314777667, -1.2781488934991, 1.3397075794174], a = 0.2, v = 0.2, t = 0.2)
movej(p[-0.401618743944264, -0.116419728068236, 0.341020865267027, -1.13396315687251, -1.27315993098841, 1.33210515733212], a = 0.2, v = 0.2, t = 0.2)
movej(p[-0.402591809555347, -0.115998875603721, 0.340717471711327, -1.11795301879473, -1.28914486959809, 1.32749314388901], a = 0.2, v = 0.2, t = 0.2)
movej(p[-0.402771009132413, -0.116213316839608, 0.340618282206184, -1.12231282736707, -1.28893719323278, 1.33379774648095], a = 0.2, v = 0.2, t = 0.2)
movej(p[-0.402934470170415, -0.116193598111923, 0.340553751896764, -1.12632167345444, -1.28844429038718, 1.33968442985653], a = 0.2, v = 0.2, t = 0.2)
movej(p[-0.403210914585236, -0.116015567874142, 0.340482784792063, -1.13743865262631, -1.27126876056481, 1.34565494506297], a = 0.2, v = 0.2, t = 0.2)
movej(p[-0.403296507606374, -0.116021025913762, 0.340456594440101, -1.14083105149721, -1.26542788863591, 1.34721731260322], a = 0.2, v = 0.2, t = 0.2)
movej(p[-0.403280672422904, -0.1161361501522, 0.340448380020559, -1.13705457989396, -1.27020910257671, 1.34483178550961], a = 0.2, v = 0.2, t = 0.2)
movej(p[-0.402477273536253, -0.116396586972472, 0.340715790195337, -1.14011502874249, -1.27092831227754, 1.34659950031837], a = 0.2, v = 0.2, t = 0.2)
movej(p[-0.401839345798866, -0.116536736313005, 0.340920278029255, -1.13933228743151, -1.27584774630227, 1.34283981572379], a = 0.2, v = 0.2, t = 0.2)
movej(p[-0.401217044412436, -0.116671695355144, 0.341119080095119, -1.13835008719241, -1.28091667544997, 1.33885725949862], a = 0.2, v = 0.2, t = 0.2)
movej(p[-0.399163692106283, -0.11721015827482, 0.341790256436292, -1.14703488295914, -1.28287134129662, 1.33789070603281], a = 0.2, v = 0.2, t = 0.2)
movej(p[-0.397016243945512, -0.117604452185477, 0.342529074532186, -1.16128628961692, -1.27395818848913, 1.34264961128394], a = 0.2, v = 0.2, t = 0.2)
movej(p[-0.395833250520161, -0.117799695759548, 0.342937323184799, -1.17441309948797, -1.265216013178, 1.35145774859286], a = 0.2, v = 0.2, t = 0.2)
movej(p[-0.395961271356508, -0.117599529622374, 0.342910665484416, -1.1508557249885, -1.2859973953044, 1.33799069735956], a = 0.2, v = 0.2, t = 0.2)
movej(p[-0.396783151724477, -0.117597590256401, 0.342641549153424, -1.15916790651481, -1.27733283571032, 1.34904842034031], a = 0.2, v = 0.2, t = 0.2)
movej(p[-0.397319229490718, -0.117521866212396, 0.342462373659278, -1.15410403872668, -1.27889080039435, 1.34808318673074], a = 0.2, v = 0.2, t = 0.2)
movej(p[-0.398286857576523, -0.117177747126827, 0.342133003347155, -1.1469445028575, -1.28283954903755, 1.34626381271973], a = 0.2, v = 0.2, t = 0.2)
movej(p[-0.400011221431136, -0.116779498963806, 0.341558959805642, -1.1341009052861, -1.28344294136472, 1.33420298841442], a = 0.2, v = 0.2, t = 0.2)
movej(p[-0.400448379884589, -0.116665143225317, 0.34139681668476, -1.12392541878849, -1.29338546247766, 1.33044070384994], a = 0.2, v = 0.2, t = 0.2)
movej(p[-0.40101118377987, -0.116521885145651, 0.341198986484672, -1.12141222211601, -1.2944497191205, 1.32758353622229], a = 0.2, v = 0.2, t = 0.2)
movej(p[-0.401673059984695, -0.116292070130981, 0.340968718274709, -1.11892670355956, -1.29049102175929, 1.32485366316395], a = 0.2, v = 0.2, t = 0.2)
movej(p[-0.402161109414215, -0.116277932705393, 0.340811720862173, -1.11931838217478, -1.28755257988551, 1.32748679106163], a = 0.2, v = 0.2, t = 0.2)
movej(p[-0.402867223451005, -0.116005187673093, 0.340540934905368, -1.11696905333161, -1.28761179298962, 1.32791031295977], a = 0.2, v = 0.2, t = 0.2)
movej(p[-0.402855494221827, -0.116119596711294, 0.340536762716395, -1.11326622451657, -1.29161403148643, 1.32549484332327], a = 0.2, v = 0.2, t = 0.2)
movej(p[-0.402954007567347, -0.116075098073744, 0.340511945544704, -1.11830539361478, -1.28364019848381, 1.3292774434715], a = 0.2, v = 0.2, t = 0.2)
movej(p[-0.403122411579034, -0.116093496098665, 0.34044740174929, -1.11879364158706, -1.28396579148473, 1.33210835461136], a = 0.2, v = 0.2, t = 0.2)
movej(p[-0.402984077643484, -0.116229981445938, 0.340510964963928, -1.11966715121996, -1.28331086813053, 1.33069517227843], a = 0.2, v = 0.2, t = 0.2)
movej(p[-0.402723276090261, -0.116476376043334, 0.340622688113769, -1.12436521456265, -1.28042821734939, 1.33307924881158], a = 0.2, v = 0.2, t = 0.2)
movej(p[-0.402516566474067, -0.116466121048895, 0.340684435175739, -1.1257084238735, -1.27983190256894, 1.33426021173026], a = 0.2, v = 0.2, t = 0.2)
movej(p[-0.400648269392437, -0.116834399475586, 0.341305403029339, -1.1359923595236, -1.28127722349992, 1.33442733897186], a = 0.2, v = 0.2, t = 0.2)
movej(p[-0.398567495924809, -0.117192690225392, 0.34198991875233, -1.15222945156278, -1.27564131976157, 1.34283698797656], a = 0.2, v = 0.2, t = 0.2)
movej(p[-0.39693690754851, -0.117580098758005, 0.342559380582426, -1.16105756179835, -1.27452513569652, 1.34543768728247], a = 0.2, v = 0.2, t = 0.2)
movej(p[-0.396303622229651, -0.117630370864656, 0.342769731076152, -1.1668254580828, -1.26852490280128, 1.34723996536], a = 0.2, v = 0.2, t = 0.2)
movej(p[-0.39571173578151, -0.117719653274382, 0.342963738688942, -1.1676866780201, -1.27185403031917, 1.35192576806301], a = 0.2, v = 0.2, t = 0.2)
movej(p[-0.396332582527951, -0.117566901595704, 0.342753979154962, -1.15832848079622, -1.27796682585543, 1.34845252273945], a = 0.2, v = 0.2, t = 0.2)
movej(p[-0.397681790910164, -0.117257127588882, 0.342306281191976, -1.1493031136218, -1.27736500226649, 1.35242840211169], a = 0.2, v = 0.2, t = 0.2)
movej(p[-0.398548087237446, -0.11701308783852, 0.341994636324248, -1.14384881167051, -1.27892432550873, 1.34914732101007], a = 0.2, v = 0.2, t = 0.2)
movej(p[-0.399695727736912, -0.116730605287257, 0.341594166584795, -1.13622029106695, -1.28093538892288, 1.3425090672058], a = 0.2, v = 0.2, t = 0.2)
movej(p[-0.400473000861987, -0.116581453036526, 0.3413391733003, -1.13625608014337, -1.27525292791224, 1.34123605028071], a = 0.2, v = 0.2, t = 0.2)
movej(p[-0.401082202975287, -0.116359809814224, 0.341089295095651, -1.1232939526064, -1.2875215846453, 1.33148466552924], a = 0.2, v = 0.2, t = 0.2)
movej(p[-0.401547673712087, -0.116256978008208, 0.340916900945939, -1.11354636341833, -1.29613655280548, 1.32768885130085], a = 0.2, v = 0.2, t = 0.2)
movej(p[-0.401923702221346, -0.116151056484529, 0.340769675061509, -1.12140792505029, -1.28669629103626, 1.33061844736097], a = 0.2, v = 0.2, t = 0.2)
movej(p[-0.402707155218107, -0.116043126938257, 0.340526736561252, -1.1187454867069, -1.28358471796114, 1.33090192430835], a = 0.2, v = 0.2, t = 0.2)
movej(p[-0.403059170348815, -0.115984322899865, 0.340386038328068, -1.11136045090913, -1.28957084616701, 1.32945198533085], a = 0.2, v = 0.2, t = 0.2)
movej(p[-0.403106492961146, -0.115941640419593, 0.340348731944699, -1.11720755230425, -1.28379133583398, 1.32924628606061], a = 0.2, v = 0.2, t = 0.2)
movej(p[-0.403079291176448, -0.116153405213139, 0.340407203006974, -1.11960481584605, -1.28325318259633, 1.33267613094719], a = 0.2, v = 0.2, t = 0.2)
movej(p[-0.402294234733448, -0.116411360922254, 0.340694953999048, -1.12326434802272, -1.28566438152154, 1.33300576604397], a = 0.2, v = 0.2, t = 0.2)
movej(p[-0.401522729977687, -0.116608848809229, 0.340967030672681, -1.12850803401022, -1.28497714077808, 1.33416954257772], a = 0.2, v = 0.2, t = 0.2)
movej(p[-0.400445429351717, -0.116885652460271, 0.34136652969653, -1.1433159102514, -1.27408342353357, 1.33741887477898], a = 0.2, v = 0.2, t = 0.2)
movej(p[-0.398313332530515, -0.117316758558622, 0.342099587652617, -1.15733274061584, -1.27109767716895, 1.34045939638952], a = 0.2, v = 0.2, t = 0.2)
movej(p[-0.395798697690316, -0.11757728633843, 0.342867724252713, -1.17378268469376, -1.26484720193889, 1.34964051877445], a = 0.2, v = 0.2, t = 0.2)
movej(p[-0.393351437182472, -0.117933667668166, 0.343650364862803, -1.18374368732421, -1.26770419816857, 1.35613924237434], a = 0.2, v = 0.2, t = 0.2)
movej(p[-0.390872414566899, -0.118292286567915, 0.344409991959621, -1.19371683711415, -1.26956187760899, 1.36304064138139], a = 0.2, v = 0.2, t = 0.2)
movej(p[-0.391530234285508, -0.118273087896551, 0.344209380297878, -1.18518849129842, -1.27420182754092, 1.36838576600155], a = 0.2, v = 0.2, t = 0.2)
movej(p[-0.393905729530781, -0.11792610659287, 0.343452296812006, -1.18020208144181, -1.26173417516538, 1.37157922437872], a = 0.2, v = 0.2, t = 0.2)
movej(p[-0.395429638186133, -0.11766474122623, 0.342974865397808, -1.16253230592674, -1.27145532419484, 1.36127350103151], a = 0.2, v = 0.2, t = 0.2)
movej(p[-0.396668852126489, -0.117352012405616, 0.342535506609588, -1.15124631988773, -1.27681991268716, 1.35433999813065], a = 0.2, v = 0.2, t = 0.2)
movej(p[-0.397453610598006, -0.11722517755825, 0.342282501564431, -1.14856481180896, -1.27583030717414, 1.35086738034873], a = 0.2, v = 0.2, t = 0.2)
movej(p[-0.398347446203183, -0.116933539288976, 0.341935631717351, -1.13832382490848, -1.28326715119131, 1.34297598600152], a = 0.2, v = 0.2, t = 0.2)
movej(p[-0.399370341936839, -0.116781132079842, 0.341618177089611, -1.14146931619907, -1.2735344989774, 1.34403309712413], a = 0.2, v = 0.2, t = 0.2)
movej(p[-0.399698922318013, -0.116670690672985, 0.341481471936971, -1.13355289192343, -1.28412153507621, 1.33789887706841], a = 0.2, v = 0.2, t = 0.2)
movej(p[-0.400277170658803, -0.116624577562403, 0.341311243803553, -1.13048800626928, -1.28301359417104, 1.34034053498833], a = 0.2, v = 0.2, t = 0.2)
movej(p[-0.400794005784815, -0.116571078027649, 0.341183251529173, -1.13299332768063, -1.27663706488098, 1.33595279971422], a = 0.2, v = 0.2, t = 0.2)
movej(p[-0.401173582162682, -0.11648831050865, 0.341042883829312, -1.13394609494523, -1.27278058369259, 1.34007470589134], a = 0.2, v = 0.2, t = 0.2)
movej(p[-0.401725336626289, -0.116419319200621, 0.34087850399081, -1.13061460254541, -1.27479095024721, 1.33859005883677], a = 0.2, v = 0.2, t = 0.2)
movej(p[-0.401668049813488, -0.116375475923101, 0.340858440887973, -1.12513632332028, -1.28341510574134, 1.33569713880908], a = 0.2, v = 0.2, t = 0.2)
movej(p[-0.401380477946774, -0.116482718743559, 0.340995463509955, -1.13145848462464, -1.27732804872626, 1.33600025563332], a = 0.2, v = 0.2, t = 0.2)
movej(p[-0.401285668855646, -0.116469449412905, 0.341011581236325, -1.13190851762256, -1.27708774697581, 1.33648205491943], a = 0.2, v = 0.2, t = 0.2)
movej(p[-0.401190859764517, -0.11645618008225, 0.341027698962696, -1.13235855543025, -1.276847323873, 1.33696381621661], a = 0.2, v = 0.2, t = 0.2)
movej(p[-0.40016784669462, -0.116713047138983, 0.341393364963282, -1.14489903782851, -1.26921631285428, 1.33937258769476], a = 0.2, v = 0.2, t = 0.2)
movej(p[-0.399343403982266, -0.116895917110539, 0.341670009929891, -1.14470338645145, -1.27553210473609, 1.34031604205794], a = 0.2, v = 0.2, t = 0.2)
movej(p[-0.400162214589273, -0.116757599394124, 0.34139691967159, -1.13869708570791, -1.27789787458557, 1.34105310419694], a = 0.2, v = 0.2, t = 0.2)
movej(p[-0.400868474834968, -0.116604510446389, 0.341178341952157, -1.13615228916383, -1.27415708819761, 1.33741251248143], a = 0.2, v = 0.2, t = 0.2)
movej(p[-0.402305950859844, -0.116348691662569, 0.340705619657621, -1.12521668753243, -1.27909119985952, 1.33656677412823], a = 0.2, v = 0.2, t = 0.2)
movej(p[-0.403137024382785, -0.116150225275143, 0.340412008720278, -1.12076152528132, -1.27986790031762, 1.33344725500236], a = 0.2, v = 0.2, t = 0.2)
movej(p[-0.40371074444012, -0.116089702876496, 0.340246344254945, -1.12326136489176, -1.27339067186302, 1.33464070256295], a = 0.2, v = 0.2, t = 0.2)
movej(p[-0.402930171531048, -0.116395492963171, 0.34057214403474, -1.12476558095421, -1.28021863807222, 1.33271332932226], a = 0.2, v = 0.2, t = 0.2)
movej(p[-0.400637175284602, -0.116873795488275, 0.341332852709767, -1.14070242716284, -1.27663463904201, 1.33859001452082], a = 0.2, v = 0.2, t = 0.2)
movej(p[-0.398665983447486, -0.117405952671433, 0.34206800932145, -1.15378960690673, -1.27497793128089, 1.34502448686443], a = 0.2, v = 0.2, t = 0.2)
movej(p[-0.396795045648889, -0.117756158271171, 0.342689683956363, -1.16329069582642, -1.27482336383405, 1.34824836527152], a = 0.2, v = 0.2, t = 0.2)
movej(p[-0.393164843666257, -0.118164554611615, 0.343729978046707, -1.18651287298097, -1.26361832467434, 1.36125375295055], a = 0.2, v = 0.2, t = 0.2)
movej(p[-0.390406495369091, -0.118585970525343, 0.344566629676226, -1.19797267773274, -1.26628296225503, 1.36953661128725], a = 0.2, v = 0.2, t = 0.2)
movej(p[-0.389276037724464, -0.118707691013605, 0.344875642712266, -1.19365811738952, -1.27225641184029, 1.37963247807386], a = 0.2, v = 0.2, t = 0.2)
movej(p[-0.391297342192234, -0.118451121138068, 0.344281272215404, -1.17751262936815, -1.27729238931454, 1.37507916419562], a = 0.2, v = 0.2, t = 0.2)
movej(p[-0.393904441983217, -0.118000403502808, 0.343450266690079, -1.16621460009471, -1.27406423231514, 1.36894731678796], a = 0.2, v = 0.2, t = 0.2)
movej(p[-0.395383837486899, -0.11757440500977, 0.342883298897682, -1.16057152849341, -1.27118478301586, 1.36390965050431], a = 0.2, v = 0.2, t = 0.2)
movej(p[-0.396755902518711, -0.117300005046886, 0.342449207572213, -1.15580473658263, -1.27154647479197, 1.35226481362388], a = 0.2, v = 0.2, t = 0.2)
movej(p[-0.397845836245434, -0.1170881951469, 0.342089439733711, -1.14275974807815, -1.28221764522065, 1.3438707250679], a = 0.2, v = 0.2, t = 0.2)
movej(p[-0.399293794457469, -0.116800459425509, 0.341612502839735, -1.13828086940739, -1.27901502301904, 1.34039968997292], a = 0.2, v = 0.2, t = 0.2)
movej(p[-0.400692130914635, -0.116567304742199, 0.341160250591305, -1.12795327098156, -1.28529651084112, 1.33537166670918], a = 0.2, v = 0.2, t = 0.2)
movej(p[-0.401160585847574, -0.116417817695309, 0.340979294136272, -1.12926283874147, -1.27998027885391, 1.33492759566672], a = 0.2, v = 0.2, t = 0.2)
movej(p[-0.401945865251922, -0.116328336948116, 0.340756835773902, -1.12483157490056, -1.28173298506313, 1.33259123361001], a = 0.2, v = 0.2, t = 0.2)
movej(p[-0.402254313771901, -0.116271321677743, 0.340667555151889, -1.12739457253023, -1.27764230282628, 1.33111062702209], a = 0.2, v = 0.2, t = 0.2)
movej(p[-0.402473715367922, -0.116246751156631, 0.34059695161688, -1.13034132817161, -1.27225627398148, 1.33305066288112], a = 0.2, v = 0.2, t = 0.2)
movej(p[-0.403142425208922, -0.116169418705155, 0.340391792555423, -1.13951324762645, -1.25491626965718, 1.34068935077599], a = 0.2, v = 0.2, t = 0.2)
movej(p[-0.403193531246523, -0.116281765721203, 0.34045995332791, -1.13280315850341, -1.26507606135725, 1.33577597722881], a = 0.2, v = 0.2, t = 0.2)
movej(p[-0.402795819798733, -0.116453328745305, 0.340631103125039, -1.13366494176827, -1.26975083499471, 1.33669327353114], a = 0.2, v = 0.2, t = 0.2)
movej(p[-0.401637331387031, -0.116775943269063, 0.341074545036695, -1.13195607105965, -1.28225166433068, 1.33346090059467], a = 0.2, v = 0.2, t = 0.2)
movej(p[-0.400185043745558, -0.117154476713876, 0.341617780719968, -1.13991630838324, -1.2859515065355, 1.33212383825471], a = 0.2, v = 0.2, t = 0.2)
movej(p[-0.399221028882645, -0.117378237522353, 0.341976321560981, -1.15149836781944, -1.27563320377193, 1.33597044055869], a = 0.2, v = 0.2, t = 0.2)
movej(p[-0.396829762916943, -0.117802551758821, 0.342730884752504, -1.16825431414934, -1.27073320640924, 1.3463886040512], a = 0.2, v = 0.2, t = 0.2)
movej(p[-0.394357261333307, -0.118118993962876, 0.343441172792959, -1.1757910732165, -1.27587023042712, 1.35038388626939], a = 0.2, v = 0.2, t = 0.2)
movej(p[-0.391600377172704, -0.118399372527345, 0.344203038578777, -1.19039197534799, -1.26790206858382, 1.36106236556948], a = 0.2, v = 0.2, t = 0.2)
movej(p[-0.390775705229099, -0.118509975684806, 0.344422634837831, -1.19158549059684, -1.26929232164217, 1.37082663581999], a = 0.2, v = 0.2, t = 0.2)
movej(p[-0.392850653584248, -0.118269328664243, 0.343846642481148, -1.17885828249085, -1.26693896188105, 1.37109913618268], a = 0.2, v = 0.2, t = 0.2)
movej(p[-0.395511143268128, -0.11781954170339, 0.343028919018224, -1.16492096020286, -1.26439470029196, 1.36548999723711], a = 0.2, v = 0.2, t = 0.2)
movej(p[-0.396582650046335, -0.117506422773976, 0.342617606363059, -1.1525882116604, -1.27356571320797, 1.35708628920616], a = 0.2, v = 0.2, t = 0.2)
movej(p[-0.398057245917263, -0.117214906533736, 0.342132375326213, -1.14194614858976, -1.28119428873018, 1.34708955140847], a = 0.2, v = 0.2, t = 0.2)
movej(p[-0.3993854035732, -0.11683852429002, 0.341601415188735, -1.13527476013181, -1.28161374401326, 1.3438159363179], a = 0.2, v = 0.2, t = 0.2)
movej(p[-0.400879365745626, -0.116565098301855, 0.341122767399274, -1.13059569756943, -1.2811522481832, 1.33712181947522], a = 0.2, v = 0.2, t = 0.2)
movej(p[-0.402040947732884, -0.116441362440161, 0.3408113308192, -1.13620340113716, -1.26488443983763, 1.33914282230542], a = 0.2, v = 0.2, t = 0.2)
movej(p[-0.402587512139086, -0.1163582746305, 0.340640486311652, -1.14189727247103, -1.25823258383428, 1.33726872169939], a = 0.2, v = 0.2, t = 0.2)
movej(p[-0.402874829803479, -0.116366069661445, 0.340580047357158, -1.13687530956772, -1.26210325231226, 1.33735426616879], a = 0.2, v = 0.2, t = 0.2)
movej(p[-0.403064559083135, -0.116357759766222, 0.340543017557229, -1.14058829977687, -1.25664220872907, 1.33717901092417], a = 0.2, v = 0.2, t = 0.2)
movej(p[-0.403220816095773, -0.116389211220699, 0.340532755880334, -1.14041962505493, -1.25407585892551, 1.34047481778607], a = 0.2, v = 0.2, t = 0.2)
movej(p[-0.40364381902442, -0.11648606650967, 0.340504684803505, -1.14309928294005, -1.25083829165656, 1.34118238681967], a = 0.2, v = 0.2, t = 0.2)
movej(p[-0.403309078575936, -0.116485380498029, 0.340569806854587, -1.13638590154126, -1.26246553012955, 1.33817402852013], a = 0.2, v = 0.2, t = 0.2)
movej(p[-0.402023023512254, -0.116757191841098, 0.341024306620216, -1.13513173378791, -1.27717928041464, 1.33403822542348], a = 0.2, v = 0.2, t = 0.2)
movej(p[-0.400825878779232, -0.117035352198902, 0.341449535186453, -1.14996225568926, -1.2693087184406, 1.33705196899672], a = 0.2, v = 0.2, t = 0.2)
movej(p[-0.39934787066595, -0.117322121074131, 0.341942124832377, -1.15720756163067, -1.27038653733591, 1.33836423079195], a = 0.2, v = 0.2, t = 0.2)
movej(p[-0.399054599137652, -0.117354476548929, 0.342024594183899, -1.15349452714416, -1.2771092644491, 1.33669775149607], a = 0.2, v = 0.2, t = 0.2)
movej(p[-0.397915530033358, -0.117578991901154, 0.342419635754189, -1.15857861209036, -1.27887138077008, 1.33779173086359], a = 0.2, v = 0.2, t = 0.2)
movej(p[-0.395470336220647, -0.117992889578454, 0.343177955621401, -1.17769310982761, -1.26758813642821, 1.35010175351241], a = 0.2, v = 0.2, t = 0.2)
movej(p[-0.391967680546796, -0.118458472294142, 0.344167602030626, -1.19218525759793, -1.26823368802261, 1.3618322950527], a = 0.2, v = 0.2, t = 0.2)
movej(p[-0.391224028554701, -0.118551527370529, 0.344365221658731, -1.19214459381029, -1.26326249375247, 1.37272288783711], a = 0.2, v = 0.2, t = 0.2)
movej(p[-0.393652961576805, -0.118140100605329, 0.34361034871511, -1.17785869771555, -1.2631724254553, 1.36933508968591], a = 0.2, v = 0.2, t = 0.2)
movej(p[-0.39637062453148, -0.117538445680916, 0.342674901428129, -1.15604603044893, -1.27418028986052, 1.35444894870057], a = 0.2, v = 0.2, t = 0.2)
movej(p[-0.397101127580566, -0.117218885437749, 0.342304043886393, -1.14984544125521, -1.27310359569118, 1.35267178910227], a = 0.2, v = 0.2, t = 0.2)
movej(p[-0.398165484411865, -0.116874222042394, 0.341845674723414, -1.14611976274698, -1.27337565344638, 1.34678067040733], a = 0.2, v = 0.2, t = 0.2)
movej(p[-0.399045535827548, -0.11661482735153, 0.341500704289745, -1.13406791045735, -1.2847472778807, 1.3367836030458], a = 0.2, v = 0.2, t = 0.2)
movej(p[-0.4000758700868, -0.116439455397412, 0.341182280732325, -1.13766067514775, -1.27335895238753, 1.33788359213111], a = 0.2, v = 0.2, t = 0.2)
movej(p[-0.401213936952877, -0.116386129582062, 0.340929252323339, -1.15181438655129, -1.24909559088929, 1.34247700336353], a = 0.2, v = 0.2, t = 0.2)
movej(p[-0.401448349739647, -0.116328894743222, 0.340843981937966, -1.14424853666624, -1.25692162724751, 1.34070607440826], a = 0.2, v = 0.2, t = 0.2)
movej(p[-0.401750772419117, -0.116323329948298, 0.340794703788653, -1.14909136425094, -1.24939753404764, 1.34071383077865], a = 0.2, v = 0.2, t = 0.2)
movej(p[-0.402091883953702, -0.116349998929359, 0.340756166969599, -1.15239899793274, -1.24396848870402, 1.34074524464427], a = 0.2, v = 0.2, t = 0.2)
movej(p[-0.402483948155831, -0.116391498949687, 0.340716795917776, -1.15295072591593, -1.23881883217871, 1.34313710384927], a = 0.2, v = 0.2, t = 0.2)
movej(p[-0.403095533544172, -0.116420353003976, 0.340645116378725, -1.14899802485589, -1.24207601324012, 1.34151229581672], a = 0.2, v = 0.2, t = 0.2)
movej(p[-0.403136257893659, -0.116446315427065, 0.340655693710438, -1.14960457118373, -1.24050398601686, 1.34334339283554], a = 0.2, v = 0.2, t = 0.2)
movej(p[-0.403075622277563, -0.116482408213341, 0.340679388706523, -1.14743324109198, -1.24338727555174, 1.34431753481374], a = 0.2, v = 0.2, t = 0.2)
movej(p[-0.402653757388253, -0.116555166508865, 0.34078489844825, -1.12869067045212, -1.27376217024568, 1.33861439482862], a = 0.2, v = 0.2, t = 0.2)
movej(p[-0.402312364916352, -0.116582303213724, 0.340865653382337, -1.12687349018865, -1.27875195275745, 1.33711250766307], a = 0.2, v = 0.2, t = 0.2)
movej(p[-0.401473861870139, -0.116819475562452, 0.3412142556894, -1.13357973354474, -1.28044213936856, 1.33564782038327], a = 0.2, v = 0.2, t = 0.2)
movej(p[-0.399926400742042, -0.117168822548311, 0.341766902964341, -1.14640631195753, -1.27508933145063, 1.34023495581877], a = 0.2, v = 0.2, t = 0.2)
movej(p[-0.397375353940283, -0.117513288896584, 0.342483302964439, -1.16272058419495, -1.27201118785628, 1.34503486122376], a = 0.2, v = 0.2, t = 0.2)
movej(p[-0.395189983083067, -0.117819416436022, 0.343116333489795, -1.17104385917794, -1.27163834703762, 1.35059271787185], a = 0.2, v = 0.2, t = 0.2)
movej(p[-0.393008216186973, -0.118071939092871, 0.343670040008526, -1.18256686176499, -1.26618480933702, 1.36039601691878], a = 0.2, v = 0.2, t = 0.2)
movej(p[-0.393936148113776, -0.117935841141805, 0.34339057713633, -1.17335438804401, -1.26774462344982, 1.3622027620761], a = 0.2, v = 0.2, t = 0.2)
movej(p[-0.39600362639337, -0.117623076326671, 0.342767089499066, -1.15249445270818, -1.27581277658114, 1.36002215269741], a = 0.2, v = 0.2, t = 0.2)
movej(p[-0.39719258195793, -0.117195521076807, 0.342209354164148, -1.1484136231261, -1.27201192369916, 1.3554836682157], a = 0.2, v = 0.2, t = 0.2)
movej(p[-0.398171929775377, -0.116950260517424, 0.341835219695712, -1.1355359134257, -1.27888803413727, 1.35256018444575], a = 0.2, v = 0.2, t = 0.2)
movej(p[-0.399284938328144, -0.116723733831568, 0.341478578935193, -1.13469001328975, -1.27752037995626, 1.34476006335743], a = 0.2, v = 0.2, t = 0.2)
movej(p[-0.400059832413379, -0.116447149703206, 0.341110217283271, -1.12786069118624, -1.28278238795574, 1.33888884832723], a = 0.2, v = 0.2, t = 0.2)
movej(p[-0.401193464441083, -0.116334265730875, 0.34083458581817, -1.12284497662244, -1.2829809256367, 1.33626214545244], a = 0.2, v = 0.2, t = 0.2)
movej(p[-0.40177327832055, -0.116227444968084, 0.340653965858549, -1.11812902813753, -1.28555723345733, 1.33372870958637], a = 0.2, v = 0.2, t = 0.2)
movej(p[-0.402029058411913, -0.116170100334978, 0.340571144195221, -1.11586931609682, -1.2879412128368, 1.33095821609485], a = 0.2, v = 0.2, t = 0.2)
movej(p[-0.402449119864181, -0.11611223746923, 0.340466455298551, -1.1126991318819, -1.29143948202358, 1.32693299644313], a = 0.2, v = 0.2, t = 0.2)
movej(p[-0.402778951621072, -0.116067642977819, 0.340387298975482, -1.10988657451936, -1.29049933854178, 1.32718094607127], a = 0.2, v = 0.2, t = 0.2)
movej(p[-0.403045216211517, -0.116111440193576, 0.340389264113531, -1.11190763015559, -1.29066356418468, 1.32618792665751], a = 0.2, v = 0.2, t = 0.2)
movej(p[-0.403580468632349, -0.116109017027232, 0.340317738004609, -1.10810998795487, -1.29106236522689, 1.32573961276752], a = 0.2, v = 0.2, t = 0.2)
movej(p[-0.403630228155004, -0.116131451660238, 0.340324809577777, -1.10878276911139, -1.29220978662183, 1.32494246368519], a = 0.2, v = 0.2, t = 0.2)
movej(p[-0.40366001528712, -0.116101864448704, 0.340297268995468, -1.11408124907909, -1.28782541737394, 1.32426052905703], a = 0.2, v = 0.2, t = 0.2)
movej(p[-0.403298760771106, -0.116341482654638, 0.340547625701079, -1.12006051527113, -1.28326152797678, 1.33107110340134], a = 0.2, v = 0.2, t = 0.2)
movej(p[-0.401868566263646, -0.116757083844794, 0.341132968695886, -1.13916541537763, -1.27456430319131, 1.33567592993552], a = 0.2, v = 0.2, t = 0.2)
movej(p[-0.400494331819987, -0.117064987518303, 0.341640417877285, -1.14765438458782, -1.27580896113416, 1.33616877328181], a = 0.2, v = 0.2, t = 0.2)
movej(p[-0.398949034158941, -0.117387776059788, 0.342176181478374, -1.16157898500351, -1.26623733522447, 1.34307990565365], a = 0.2, v = 0.2, t = 0.2)
movej(p[-0.397087960838951, -0.117633868409802, 0.342682245459395, -1.1679616707274, -1.27305206553601, 1.34265220254163], a = 0.2, v = 0.2, t = 0.2)
movej(p[-0.39503205118989, -0.117993703829696, 0.343304400822215, -1.17909783245545, -1.2680155064174, 1.35207702183423], a = 0.2, v = 0.2, t = 0.2)
movej(p[-0.393869534910881, -0.118096202507932, 0.343570557283718, -1.18457570412218, -1.26580647138562, 1.35496880107079], a = 0.2, v = 0.2, t = 0.2)
movej(p[-0.394876687408933, -0.117929569319398, 0.343248168890399, -1.17065221039276, -1.26739280348439, 1.35909920009732], a = 0.2, v = 0.2, t = 0.2)
movej(p[-0.396826309785251, -0.117629548808346, 0.342692370534239, -1.15203858542933, -1.27553808470286, 1.35454874563367], a = 0.2, v = 0.2, t = 0.2)
movej(p[-0.397683792844769, -0.117249103254783, 0.342159013774263, -1.14700693169377, -1.27366587831059, 1.35309451634989], a = 0.2, v = 0.2, t = 0.2)
movej(p[-0.39854633695308, -0.116987758287291, 0.341805414284467, -1.13767209268487, -1.28156146083999, 1.34473964392609], a = 0.2, v = 0.2, t = 0.2)
movej(p[-0.399406793677666, -0.116762902331612, 0.341437337058451, -1.13417318330568, -1.27937410113894, 1.34418890928924], a = 0.2, v = 0.2, t = 0.2)
movej(p[-0.400253627594717, -0.116564112737186, 0.34114547698225, -1.13249748935291, -1.27831490168674, 1.33913488998674], a = 0.2, v = 0.2, t = 0.2)
movej(p[-0.40130351447636, -0.116343104110706, 0.340797863716141, -1.11986491514606, -1.28612451021751, 1.33359501602985], a = 0.2, v = 0.2, t = 0.2)
movej(p[-0.401566818220929, -0.116255763609726, 0.340650096517532, -1.11925549370904, -1.28333919415387, 1.33557091747416], a = 0.2, v = 0.2, t = 0.2)
movej(p[-0.402033413735048, -0.11618643190681, 0.340509949661789, -1.11782426172675, -1.28246409077703, 1.33521279339512], a = 0.2, v = 0.2, t = 0.2)
movej(p[-0.40231022425244, -0.116147705343241, 0.340472596874275, -1.11868531321123, -1.28712757072301, 1.32725278604568], a = 0.2, v = 0.2, t = 0.2)
movej(p[-0.402449333683874, -0.116163924603058, 0.340441436615976, -1.11796987125397, -1.28488930825301, 1.33184524147907], a = 0.2, v = 0.2, t = 0.2)
movej(p[-0.402787488061544, -0.116105996992859, 0.34035659329662, -1.11405651504993, -1.2820163525378, 1.33355667290238], a = 0.2, v = 0.2, t = 0.2)
movej(p[-0.403292516647418, -0.116154505781999, 0.340347734130428, -1.11168689315028, -1.28838069172242, 1.32970341967898], a = 0.2, v = 0.2, t = 0.2)
movej(p[-0.403029314317187, -0.116323488313011, 0.340563004652268, -1.11385383849702, -1.28724155076315, 1.33278268052656], a = 0.2, v = 0.2, t = 0.2)
movej(p[-0.402126644223862, -0.116673686741423, 0.341072595609168, -1.1327394473544, -1.2763556120724, 1.3365151367272], a = 0.2, v = 0.2, t = 0.2)
movej(p[-0.400829588419891, -0.116936205080999, 0.341533362255934, -1.14162835044604, -1.27755554671018, 1.33631233569392], a = 0.2, v = 0.2, t = 0.2)
movej(p[-0.399521431066793, -0.117284575273506, 0.342088980918784, -1.15472205314903, -1.27586437750898, 1.33758687252564], a = 0.2, v = 0.2, t = 0.2)
movej(p[-0.398581921714912, -0.117451023110711, 0.342356000815456, -1.1623761299073, -1.27378656875034, 1.34107351099944], a = 0.2, v = 0.2, t = 0.2)
movej(p[-0.396736486085054, -0.117638611330304, 0.34276042046869, -1.17398308674922, -1.2686192116786, 1.34615906739557], a = 0.2, v = 0.2, t = 0.2)
movej(p[-0.394681692976498, -0.11799263998125, 0.34339769187503, -1.18519526579009, -1.2647094264287, 1.35223868000085], a = 0.2, v = 0.2, t = 0.2)
movej(p[-0.393775723939661, -0.118094400339382, 0.343582571602978, -1.18303286723132, -1.26852620402607, 1.35668611209801], a = 0.2, v = 0.2, t = 0.2)
movej(p[-0.394949513896288, -0.117876283774666, 0.34317457287514, -1.17025482430126, -1.26460724924129, 1.36176327380105], a = 0.2, v = 0.2, t = 0.2)
movej(p[-0.396793507179909, -0.117448499865532, 0.342472870376178, -1.15219568155728, -1.26871481970823, 1.3585335263654], a = 0.2, v = 0.2, t = 0.2)
movej(p[-0.398207698448952, -0.117067036712009, 0.341898465425758, -1.13741495481156, -1.27711687237868, 1.35034583252812], a = 0.2, v = 0.2, t = 0.2)
movej(p[-0.399401917197536, -0.116722695639862, 0.341390411672143, -1.1356368981881, -1.2781506773612, 1.34053818958511], a = 0.2, v = 0.2, t = 0.2)
movej(p[-0.400161667346979, -0.11652877223943, 0.341059306499749, -1.12706017203068, -1.28539596603569, 1.33628553354638], a = 0.2, v = 0.2, t = 0.2)
movej(p[-0.400981313834533, -0.116306317371668, 0.340728137664788, -1.12795426210547, -1.28297308974288, 1.33073318768941], a = 0.2, v = 0.2, t = 0.2)
movej(p[-0.401476623919662, -0.116260078451095, 0.34060113336646, -1.12105869379679, -1.28426660373185, 1.33262667682341], a = 0.2, v = 0.2, t = 0.2)
movej(p[-0.402494307175633, -0.116224544180209, 0.340499586696845, -1.11803144427907, -1.28554805629405, 1.32833803125817], a = 0.2, v = 0.2, t = 0.2)
movej(p[-0.402747047743938, -0.116185560373323, 0.340401251769513, -1.11220721666358, -1.28641476027846, 1.33133076603879], a = 0.2, v = 0.2, t = 0.2)
movej(p[-0.402974540229927, -0.116155489527808, 0.340358718217243, -1.11352925933446, -1.28666250026789, 1.32884539455879], a = 0.2, v = 0.2, t = 0.2)
movej(p[-0.403080905277673, -0.116134172948359, 0.340330603629243, -1.11276178349068, -1.28744446792124, 1.32795261891623], a = 0.2, v = 0.2, t = 0.2)
movej(p[-0.403171584491225, -0.116119349476819, 0.340312983046927, -1.11463989425446, -1.2872726221165, 1.32635543488149], a = 0.2, v = 0.2, t = 0.2)
movej(p[-0.403348971888244, -0.116228318791714, 0.34042106949284, -1.11387718978926, -1.28734538278838, 1.32889991293453], a = 0.2, v = 0.2, t = 0.2)
movej(p[-0.402749689417873, -0.116582569669443, 0.340930901059471, -1.12738142120451, -1.2767273771128, 1.33636028347197], a = 0.2, v = 0.2, t = 0.2)
movej(p[-0.400989485312462, -0.117066326054325, 0.341724307132919, -1.14839865800093, -1.27247148596873, 1.33922255690912], a = 0.2, v = 0.2, t = 0.2)
movej(p[-0.399022038084836, -0.117376160537078, 0.342300049175681, -1.16309261297062, -1.27137841431486, 1.34126450320576], a = 0.2, v = 0.2, t = 0.2)
movej(p[-0.39725821109429, -0.117599624215946, 0.342733043842677, -1.16839218165202, -1.27323565769531, 1.34532814566494], a = 0.2, v = 0.2, t = 0.2)
movej(p[-0.395329624620416, -0.11797635921187, 0.343367957864917, -1.17840048953416, -1.27386165399812, 1.35091225517077], a = 0.2, v = 0.2, t = 0.2)
movej(p[-0.39456842871817, -0.118068169731614, 0.343549446395869, -1.1830181916543, -1.26571946644939, 1.35675952364338], a = 0.2, v = 0.2, t = 0.2)
movej(p[-0.395370682516427, -0.117868734983917, 0.343228704374, -1.17175854696434, -1.27127327826366, 1.35374937958011], a = 0.2, v = 0.2, t = 0.2)
movej(p[-0.396701445107952, -0.117558216525398, 0.34271181321339, -1.15726933683564, -1.27418549090588, 1.35142524740179], a = 0.2, v = 0.2, t = 0.2)
movej(p[-0.397734665430892, -0.117242483603296, 0.342185873971495, -1.14156792194961, -1.27828833724929, 1.35016491855618], a = 0.2, v = 0.2, t = 0.2)
movej(p[-0.398595550477944, -0.117007285163318, 0.341808547985651, -1.13828458867843, -1.27915539541642, 1.3452962787703], a = 0.2, v = 0.2, t = 0.2)
movej(p[-0.399686802101122, -0.116866058071642, 0.341555688848011, -1.13794394716599, -1.27475069602588, 1.34321850369924], a = 0.2, v = 0.2, t = 0.2)
movej(p[-0.400523389081898, -0.116578739127846, 0.341084261390037, -1.1283078785699, -1.28281261923626, 1.33678746732364], a = 0.2, v = 0.2, t = 0.2)
movej(p[-0.400840815376489, -0.116452957623255, 0.340872732927165, -1.12607160275013, -1.28118374352391, 1.33664302427884], a = 0.2, v = 0.2, t = 0.2)
movej(p[-0.401291701514487, -0.116404554999685, 0.340769476708982, -1.12480938301093, -1.28011501475748, 1.33649759328557], a = 0.2, v = 0.2, t = 0.2)
movej(p[-0.401809384922525, -0.116311362983215, 0.34063588824725, -1.12432224141426, -1.281558832534, 1.3320249810329], a = 0.2, v = 0.2, t = 0.2)
movej(p[-0.402502936455549, -0.116236704855585, 0.340533678242755, -1.11924181627118, -1.28118880244519, 1.33072799199045], a = 0.2, v = 0.2, t = 0.2)
movej(p[-0.402895931121118, -0.116189939245289, 0.340433507086588, -1.11461209082153, -1.28559444414894, 1.32901419051077], a = 0.2, v = 0.2, t = 0.2)
movej(p[-0.402963332428802, -0.116149095931973, 0.340367395608916, -1.11783044624202, -1.28764919200837, 1.32529688906314], a = 0.2, v = 0.2, t = 0.2)
movej(p[-0.402990260104487, -0.116195957022169, 0.340429339442409, -1.11469727858924, -1.28759047214446, 1.32771071355936], a = 0.2, v = 0.2, t = 0.2)
movej(p[-0.40292538445309, -0.116375839542663, 0.340684336890782, -1.1184442992489, -1.27875146117141, 1.33550434969827], a = 0.2, v = 0.2, t = 0.2)
movej(p[-0.401868327089454, -0.116685559973483, 0.341208607169089, -1.13394133190308, -1.27547990398611, 1.33723973893604], a = 0.2, v = 0.2, t = 0.2)
movej(p[-0.400660063425945, -0.117014166687245, 0.341791828471094, -1.14515600184589, -1.27742183062666, 1.33773033634883], a = 0.2, v = 0.2, t = 0.2)
movej(p[-0.39900552076183, -0.117299675487319, 0.342277328365744, -1.16414550875685, -1.27204509390512, 1.34094752987848], a = 0.2, v = 0.2, t = 0.2)
movej(p[-0.396957972165727, -0.117553472405158, 0.342757493099031, -1.16199253858055, -1.28410305705325, 1.34184995835735], a = 0.2, v = 0.2, t = 0.2)
movej(p[-0.395150357017776, -0.117941746651522, 0.343372893177441, -1.18631932888768, -1.26178585328118, 1.35591819231698], a = 0.2, v = 0.2, t = 0.2)
movej(p[-0.39351986545509, -0.118139885924399, 0.343713154095789, -1.17944927175661, -1.27389551505513, 1.35842584034104], a = 0.2, v = 0.2, t = 0.2)
movej(p[-0.394399075901733, -0.118034809190207, 0.343546330654853, -1.17569410285438, -1.26841853935845, 1.35958100418951], a = 0.2, v = 0.2, t = 0.2)
movej(p[-0.395308979240421, -0.117911700252455, 0.343347260105323, -1.17118253795862, -1.26460343833144, 1.3594826383718], a = 0.2, v = 0.2, t = 0.2)
movej(p[-0.396890401947531, -0.117535720977338, 0.342726009096375, -1.15308369521178, -1.26874028801612, 1.35563988864445], a = 0.2, v = 0.2, t = 0.2)
movej(p[-0.398142733596181, -0.117107104213581, 0.342006984471193, -1.14614745495302, -1.27687597085284, 1.34504740015362], a = 0.2, v = 0.2, t = 0.2)
movej(p[-0.399171831905638, -0.116899335093689, 0.341640806164503, -1.14281221054723, -1.27113087278035, 1.34497531977154], a = 0.2, v = 0.2, t = 0.2)
movej(p[-0.399871653931565, -0.116743611582551, 0.341369955522807, -1.1312403075018, -1.281074652376, 1.3404473397744], a = 0.2, v = 0.2, t = 0.2)
movej(p[-0.4011348280696, -0.116476919804086, 0.340963013546234, -1.12029241660084, -1.28423904078019, 1.33556708755483], a = 0.2, v = 0.2, t = 0.2)
movej(p[-0.401467684835181, -0.116418138570406, 0.340831951003247, -1.12732498248694, -1.27800561925165, 1.33536351860081], a = 0.2, v = 0.2, t = 0.2)
movej(p[-0.402103417374621, -0.116311914360686, 0.340657495262252, -1.1194938850435, -1.28274818208113, 1.33255244824231], a = 0.2, v = 0.2, t = 0.2)
movej(p[-0.402335850482622, -0.11618775940139, 0.34042368737875, -1.12888413078959, -1.28281507734032, 1.3264639528749], a = 0.2, v = 0.2, t = 0.2)
movej(p[-0.402693792086228, -0.116196835798603, 0.340475497777531, -1.12182358521431, -1.28481056257762, 1.32702760452049], a = 0.2, v = 0.2, t = 0.2)
movej(p[-0.403175291501757, -0.116161380585476, 0.340413311278139, -1.12494905708223, -1.28279267309389, 1.32570898912536], a = 0.2, v = 0.2, t = 0.2)
movej(p[-0.403284784097629, -0.116272176835025, 0.340658918225384, -1.11556197588544, -1.28685957309416, 1.32777346959912], a = 0.2, v = 0.2, t = 0.2)
movej(p[-0.402660652189694, -0.116612052164105, 0.341226635965268, -1.13197628485425, -1.27282398847218, 1.33639573217634], a = 0.2, v = 0.2, t = 0.2)
movej(p[-0.401454807605868, -0.116833892093939, 0.341585502855898, -1.14241126951273, -1.27367495084398, 1.33777966355744], a = 0.2, v = 0.2, t = 0.2)
movej(p[-0.400153795568225, -0.116998581157513, 0.341892786568851, -1.14286344554458, -1.27432087053441, 1.3411667219841], a = 0.2, v = 0.2, t = 0.2)
movej(p[-0.398553996078916, -0.11724474112428, 0.342289626189818, -1.14828433746832, -1.27363193157577, 1.34625708937666], a = 0.2, v = 0.2, t = 0.2)
movej(p[-0.39705855652188, -0.117550274934599, 0.342802623725876, -1.1623391608631, -1.27376817593054, 1.34854339674687], a = 0.2, v = 0.2, t = 0.2)
movej(p[-0.394753088925991, -0.117831045040149, 0.343244489024513, -1.1578035496479, -1.27232360557951, 1.35937470186798], a = 0.2, v = 0.2, t = 0.2)
movej(p[-0.3930160145321, -0.118289670083082, 0.344067882630319, -1.16571925248775, -1.26885237518289, 1.3679261134398], a = 0.2, v = 0.2, t = 0.2)
movej(p[-0.392827272923806, -0.118302481489867, 0.344081557539989, -1.16663012961252, -1.26802141739364, 1.36879238169507], a = 0.2, v = 0.2, t = 0.2)
movej(p[-0.394115201552257, -0.118028121000901, 0.343613400482892, -1.15956908582385, -1.26919879706029, 1.36429932366795], a = 0.2, v = 0.2, t = 0.2)
