def moving():
set_payload_mass(0)
set_tcp(p[0,0,0,0,0,0])
movej(p[-0.4707, 0.1437, 0.4395, -1.241, -1.329, 1.242], a = 0.2, v = 0.2, t = 0.2)
movej(p[-0.471554470180599, 0.143745941375754, 0.439296175108094, -1.27598358908138, -1.32385955214172, 1.23153801105307], a = 0.2, v = 0.2, t = 0.2)
movej(p[-0.472995062734813, 0.143777770299546, 0.438704775832684, -1.29206111346532, -1.32482141212436, 1.22655980123206], a = 0.2, v = 0.2, t = 0.2)
movej(p[-0.474272004753822, 0.143819301114659, 0.438148587199589, -1.29363341755666, -1.3245887264781, 1.23324697685954], a = 0.2, v = 0.2, t = 0.2)
movej(p[-0.475256704893133, 0.143779609170417, 0.437673138353547, -1.26423196041456, -1.31362520567016, 1.25492838197377], a = 0.2, v = 0.2, t = 0.2)
movej(p[-0.476230145275982, 0.143733864935139, 0.437332319783661, -1.23080166344926, -1.315054540507, 1.24007183206692], a = 0.2, v = 0.2, t = 0.2)
movej(p[-0.477256282598284, 0.143690446061055, 0.437217109195388, -1.22841626479049, -1.31495914987786, 1.22705742866649], a = 0.2, v = 0.2, t = 0.2)
movej(p[-0.47770156920965, 0.143579391331232, 0.436863724565243, -1.23283075653277, -1.31673037748397, 1.22130380824719], a = 0.2, v = 0.2, t = 0.2)
movej(p[-0.476883662862724, 0.143526828451062, 0.436443681899211, -1.23285938559131, -1.2868697099412, 1.25747846334969], a = 0.2, v = 0.2, t = 0.2)
movej(p[-0.474519670435484, 0.14345051111532, 0.436390987988587, -1.23658699727564, -1.29220175953011, 1.29303566101821], a = 0.2, v = 0.2, t = 0.2)
movej(p[-0.471503854610239, 0.14358180961128, 0.436599544762629, -1.23700254826693, -1.30132547717357, 1.31971011111214], a = 0.2, v = 0.2, t = 0.2)
movej(p[-0.468453861586085, 0.143538477541392, 0.437252485099982, -1.22809655152366, -1.34845875386165, 1.31211857972068], a = 0.2, v = 0.2, t = 0.2)
movej(p[-0.465656244652295, 0.143723478511095, 0.438143034579506, -1.23728089033749, -1.36306679780761, 1.31588247148801], a = 0.2, v = 0.2, t = 0.2)
movej(p[-0.463613869640361, 0.143729337542607, 0.439075005153331, -1.22443590227413, -1.36941452621181, 1.30833855680027], a = 0.2, v = 0.2, t = 0.2)
movej(p[-0.462949070846546, 0.143903326271482, 0.439895454641092, -1.27097063054852, -1.3622061346835, 1.31245969157306], a = 0.2, v = 0.2, t = 0.2)
movej(p[-0.46414935745448, 0.14389456478064, 0.440048269423077, -1.30758383473393, -1.36167771695469, 1.29230219294897], a = 0.2, v = 0.2, t = 0.2)
movej(p[-0.466394681635473, 0.143907828019493, 0.440027879000228, -1.35634897056761, -1.36814579732786, 1.27572516425968], a = 0.2, v = 0.2, t = 0.2)
movej(p[-0.468854280441164, 0.143984351523265, 0.439370811680301, -1.34137715759166, -1.33911090172892, 1.26646626214735], a = 0.2, v = 0.2, t = 0.2)
movej(p[-0.470913111804152, 0.143911124068196, 0.439015596560128, -1.32667317678534, -1.32487110190368, 1.26162806090432], a = 0.2, v = 0.2, t = 0.2)
movej(p[-0.47260705018777, 0.143919025811763, 0.438552018172955, -1.31057584380211, -1.31650069017615, 1.25363543914656], a = 0.2, v = 0.2, t = 0.2)
movej(p[-0.474009548402203, 0.143740080330497, 0.438404901595891, -1.28252054969681, -1.31752437376651, 1.25355588252617], a = 0.2, v = 0.2, t = 0.2)
movej(p[-0.475166040226301, 0.143722293624658, 0.437884906116208, -1.25842890292817, -1.30588818472109, 1.25129060604822], a = 0.2, v = 0.2, t = 0.2)
movej(p[-0.476186479867336, 0.143653479017101, 0.437446155336847, -1.26719433815585, -1.28465159415718, 1.24817991176644], a = 0.2, v = 0.2, t = 0.2)
movej(p[-0.476829375773151, 0.143717385143211, 0.43692975441292, -1.29021649127289, -1.29062930650102, 1.25050815223678], a = 0.2, v = 0.2, t = 0.2)
movej(p[-0.476748370352931, 0.14363097162074, 0.436499523330094, -1.27264211725407, -1.27585220003173, 1.26903862034471], a = 0.2, v = 0.2, t = 0.2)
movej(p[-0.475332485211371, 0.14360111821953, 0.43602878333047, -1.23501184481517, -1.25774773157903, 1.3074029008004], a = 0.2, v = 0.2, t = 0.2)
movej(p[-0.473058239859959, 0.143644901886332, 0.435907548100424, -1.18665247698046, -1.27002014728098, 1.30215986342491], a = 0.2, v = 0.2, t = 0.2)
movej(p[-0.470390626684292, 0.143678766223881, 0.436162261857754, -1.20600793731617, -1.29842906625583, 1.3045416246975], a = 0.2, v = 0.2, t = 0.2)
movej(p[-0.467888330029729, 0.143739053589098, 0.437107520437212, -1.20504425605281, -1.32730639867816, 1.30224910687763], a = 0.2, v = 0.2, t = 0.2)
movej(p[-0.465931513663067, 0.143729127569699, 0.438079796380245, -1.23813705386355, -1.32353563976227, 1.31952234679847], a = 0.2, v = 0.2, t = 0.2)
movej(p[-0.464975966410114, 0.143818496354447, 0.439030539525047, -1.27808673293377, -1.33754924517069, 1.30032151676631], a = 0.2, v = 0.2, t = 0.2)
movej(p[-0.465501207668723, 0.143809641355404, 0.439318549770086, -1.29265191445111, -1.35722776032834, 1.26603928194804], a = 0.2, v = 0.2, t = 0.2)
movej(p[-0.466963065401065, 0.143782456485497, 0.439340248821662, -1.30786478260074, -1.36508820422846, 1.25331986941445], a = 0.2, v = 0.2, t = 0.2)
movej(p[-0.469102699989305, 0.143675220082831, 0.438607649463249, -1.28377007941604, -1.36140290511078, 1.2425914429695], a = 0.2, v = 0.2, t = 0.2)
movej(p[-0.471039673150242, 0.143706331246826, 0.438132992090645, -1.28616781545785, -1.33384570815906, 1.2493817224233], a = 0.2, v = 0.2, t = 0.2)
movej(p[-0.472625837019067, 0.143699947439775, 0.437612876028018, -1.30089254889366, -1.31638029775055, 1.24520845764969], a = 0.2, v = 0.2, t = 0.2)
movej(p[-0.4739095274129, 0.143723077981676, 0.437603607494556, -1.31174853685283, -1.28263689991084, 1.26241268600496], a = 0.2, v = 0.2, t = 0.2)
movej(p[-0.474997080080782, 0.1436974982214, 0.437298844159413, -1.31390915765104, -1.26456058458288, 1.27471611022154], a = 0.2, v = 0.2, t = 0.2)
movej(p[-0.475951217577635, 0.143706496538463, 0.436877478949898, -1.30381304722834, -1.28432246973499, 1.23826737854338], a = 0.2, v = 0.2, t = 0.2)
movej(p[-0.476826015998333, 0.143733320333225, 0.436732633855817, -1.30960750860303, -1.2720241698446, 1.22854497045663], a = 0.2, v = 0.2, t = 0.2)
movej(p[-0.477502916420883, 0.143820141288692, 0.436403471895617, -1.31437271506151, -1.27840934784423, 1.21632036911197], a = 0.2, v = 0.2, t = 0.2)
movej(p[-0.477435128515289, 0.143764797556277, 0.436478050905651, -1.29048686907871, -1.26733804246909, 1.23261646782578], a = 0.2, v = 0.2, t = 0.2)
movej(p[-0.476107392544533, 0.143628652263962, 0.436084218913881, -1.25177828774619, -1.27967157783572, 1.25734368238605], a = 0.2, v = 0.2, t = 0.2)
movej(p[-0.473681218021144, 0.143527028672993, 0.436191213632986, -1.22675749036949, -1.29902620365462, 1.28232397758688], a = 0.2, v = 0.2, t = 0.2)
movej(p[-0.470864787803074, 0.143590586830438, 0.436458476877647, -1.25481382348048, -1.31711050748219, 1.30969419502056], a = 0.2, v = 0.2, t = 0.2)
movej(p[-0.468100598701837, 0.143820736660912, 0.437211562967289, -1.27720002238207, -1.31713756748546, 1.34371444652066], a = 0.2, v = 0.2, t = 0.2)
movej(p[-0.465823697616236, 0.143830636182817, 0.43824010574494, -1.28348510655352, -1.32793462943154, 1.35025171901203], a = 0.2, v = 0.2, t = 0.2)
movej(p[-0.464792462259963, 0.143823092597361, 0.43880197164032, -1.28207565416741, -1.34882636334924, 1.31913060869966], a = 0.2, v = 0.2, t = 0.2)
movej(p[-0.465359483823133, 0.143823161662296, 0.439158867902321, -1.29493922909555, -1.3743257107503, 1.27736240385961], a = 0.2, v = 0.2, t = 0.2)
movej(p[-0.467204736333544, 0.143923548501901, 0.438861137111191, -1.30690873399861, -1.38519077512423, 1.24526302619259], a = 0.2, v = 0.2, t = 0.2)
movej(p[-0.469471103171344, 0.14393474700337, 0.438611324429823, -1.29148995128305, -1.36569689970449, 1.24475790579491], a = 0.2, v = 0.2, t = 0.2)
movej(p[-0.471593781961066, 0.143815318906506, 0.438161521161887, -1.28530704883135, -1.35700463059426, 1.23309877823146], a = 0.2, v = 0.2, t = 0.2)
movej(p[-0.473182365268446, 0.143844399343025, 0.437807429258244, -1.2731527321568, -1.33217474821067, 1.23076156219771], a = 0.2, v = 0.2, t = 0.2)
movej(p[-0.474353445249658, 0.143824450115448, 0.437568305586638, -1.28794421820797, -1.31476379877747, 1.2429289110747], a = 0.2, v = 0.2, t = 0.2)
movej(p[-0.47526981953164, 0.143911727272619, 0.437387310456155, -1.28906792543668, -1.31040324979177, 1.23898508050741], a = 0.2, v = 0.2, t = 0.2)
movej(p[-0.475992565750884, 0.143914975803191, 0.437065567580994, -1.29647306397173, -1.30451367784194, 1.23529567259174], a = 0.2, v = 0.2, t = 0.2)
movej(p[-0.476562124861098, 0.143869516163376, 0.43677748228543, -1.30081945897677, -1.28853424228976, 1.24627659286097], a = 0.2, v = 0.2, t = 0.2)
movej(p[-0.476810035432564, 0.143826628905437, 0.436299268464987, -1.28303100876422, -1.28704937202424, 1.25572053744638], a = 0.2, v = 0.2, t = 0.2)
movej(p[-0.476065547267982, 0.143802622507998, 0.436019457490792, -1.26546491958835, -1.27972520422154, 1.27349659074759], a = 0.2, v = 0.2, t = 0.2)
movej(p[-0.474427734046413, 0.143815197651642, 0.435819642477806, -1.22848565669587, -1.30071276701589, 1.27925835949562], a = 0.2, v = 0.2, t = 0.2)
movej(p[-0.472087062290257, 0.143868749377628, 0.436047481159951, -1.24952620611162, -1.28800154939126, 1.30984803702936], a = 0.2, v = 0.2, t = 0.2)
movej(p[-0.469702632985464, 0.143696933995087, 0.436554862755644, -1.24539555515038, -1.2886244119852, 1.32275528541356], a = 0.2, v = 0.2, t = 0.2)
movej(p[-0.467627605768573, 0.143628012696142, 0.437440569737821, -1.28210359759554, -1.30536746104425, 1.31386156702732], a = 0.2, v = 0.2, t = 0.2)
movej(p[-0.466268333330089, 0.143637341259667, 0.43814011793193, -1.27178001002479, -1.33593013271057, 1.29567288868199], a = 0.2, v = 0.2, t = 0.2)
movej(p[-0.466031166965318, 0.143731029120891, 0.438959870078667, -1.28613107215546, -1.36826617598429, 1.27302143124134], a = 0.2, v = 0.2, t = 0.2)
movej(p[-0.466975416753166, 0.143817825198759, 0.438998574298287, -1.27799515797507, -1.37393202371335, 1.25395610051805], a = 0.2, v = 0.2, t = 0.2)
movej(p[-0.468732631262929, 0.143799212509644, 0.438693453925138, -1.29834405739713, -1.36908751988539, 1.2332157386189], a = 0.2, v = 0.2, t = 0.2)
movej(p[-0.470565695893192, 0.143847328008828, 0.438106990940645, -1.30988344739235, -1.35434999593837, 1.23455508403733], a = 0.2, v = 0.2, t = 0.2)
movej(p[-0.472162533785949, 0.143876775027544, 0.437572718223224, -1.30139727398327, -1.31818004470855, 1.24804578987948], a = 0.2, v = 0.2, t = 0.2)
movej(p[-0.473466349927594, 0.143945871817261, 0.437433041243958, -1.29631221229804, -1.31914398424393, 1.23398310595214], a = 0.2, v = 0.2, t = 0.2)
movej(p[-0.474489188560474, 0.143918127538342, 0.436973359078027, -1.30429657612963, -1.29714748614001, 1.24109990471395], a = 0.2, v = 0.2, t = 0.2)
movej(p[-0.475402963671127, 0.143838963412351, 0.436712706368072, -1.31528473168047, -1.31927468951948, 1.21427066919211], a = 0.2, v = 0.2, t = 0.2)
movej(p[-0.476012091169185, 0.143796480519578, 0.436122278952947, -1.30541352774648, -1.3133686062813, 1.23162254221785], a = 0.2, v = 0.2, t = 0.2)
movej(p[-0.47634702048031, 0.143820039076509, 0.435921129610803, -1.25227603248556, -1.30284598333458, 1.25216379094408], a = 0.2, v = 0.2, t = 0.2)
movej(p[-0.475578721847481, 0.143985409316762, 0.435662868075083, -1.19053480818459, -1.28734642626982, 1.28660310062903], a = 0.2, v = 0.2, t = 0.2)
movej(p[-0.473941314984318, 0.143885568391364, 0.435590118459408, -1.19419598965393, -1.29576144886805, 1.28935009309191], a = 0.2, v = 0.2, t = 0.2)
movej(p[-0.471669459546539, 0.143849031577188, 0.435730027889556, -1.20228723650206, -1.33140763138369, 1.29418595816231], a = 0.2, v = 0.2, t = 0.2)
movej(p[-0.469197313503627, 0.143713237535284, 0.436149289764405, -1.25850611582862, -1.35694424358333, 1.30443578875235], a = 0.2, v = 0.2, t = 0.2)
movej(p[-0.466912008151843, 0.143844738619087, 0.437012408042133, -1.25452247175291, -1.3551851853021, 1.325549782135], a = 0.2, v = 0.2, t = 0.2)
movej(p[-0.464660326633367, 0.143864068139286, 0.438149194134544, -1.26305842204199, -1.36235600058112, 1.31973022447777], a = 0.2, v = 0.2, t = 0.2)
movej(p[-0.463409171361699, 0.143913484194873, 0.439230469867245, -1.2768123691671, -1.36813677432945, 1.30593686022311], a = 0.2, v = 0.2, t = 0.2)
movej(p[-0.463590316600656, 0.143917073734963, 0.440011467030879, -1.30683489414578, -1.36999034986249, 1.30245971932426], a = 0.2, v = 0.2, t = 0.2)
movej(p[-0.465282006582323, 0.143983870265642, 0.439770205848933, -1.33064746515191, -1.36113596822666, 1.27742186573519], a = 0.2, v = 0.2, t = 0.2)
movej(p[-0.467740555017384, 0.143919143382858, 0.439179005372983, -1.31556212352235, -1.37163992272431, 1.24005956550873], a = 0.2, v = 0.2, t = 0.2)
movej(p[-0.470144716409335, 0.143854356602396, 0.438683041345089, -1.30370664122324, -1.37205745950765, 1.2184817742788], a = 0.2, v = 0.2, t = 0.2)
movej(p[-0.47214226418229, 0.143795476197428, 0.438177892356006, -1.28408982134564, -1.35342824805633, 1.20817070414916], a = 0.2, v = 0.2, t = 0.2)
movej(p[-0.473725736970682, 0.143806836418278, 0.437962246408434, -1.28085289264365, -1.3179955277122, 1.22667104367583], a = 0.2, v = 0.2, t = 0.2)
movej(p[-0.474781207843789, 0.14377265912947, 0.43744974708448, -1.28196904790089, -1.29811627913576, 1.23219437749564], a = 0.2, v = 0.2, t = 0.2)
movej(p[-0.475784442963491, 0.143700715592752, 0.437150922789916, -1.29272674936399, -1.29293570628348, 1.24012030444961], a = 0.2, v = 0.2, t = 0.2)
movej(p[-0.476586639042948, 0.143783527344583, 0.436807837430476, -1.29598738786243, -1.27551776439374, 1.24966645805609], a = 0.2, v = 0.2, t = 0.2)
movej(p[-0.476912917870312, 0.143789267123272, 0.436645266014309, -1.27847066868389, -1.25234829100028, 1.27634667514235], a = 0.2, v = 0.2, t = 0.2)
movej(p[-0.476299732280276, 0.143818328506017, 0.436215488385406, -1.21983584738241, -1.2443595311557, 1.29596611198044], a = 0.2, v = 0.2, t = 0.2)
movej(p[-0.474478968224054, 0.143777386826893, 0.436198484192342, -1.22536934493697, -1.24668718842676, 1.32588547218458], a = 0.2, v = 0.2, t = 0.2)
movej(p[-0.471986688339027, 0.143707518787266, 0.436066194701727, -1.19414263364818, -1.27540519736056, 1.31926107092112], a = 0.2, v = 0.2, t = 0.2)
movej(p[-0.469348537767414, 0.143638120267759, 0.436803211728253, -1.22683384104246, -1.2901236735994, 1.33291919735882], a = 0.2, v = 0.2, t = 0.2)
movej(p[-0.466976086675063, 0.143609273700862, 0.437417506493312, -1.20669430402694, -1.31309646617987, 1.33420594252412], a = 0.2, v = 0.2, t = 0.2)
movej(p[-0.465122472874046, 0.143686966384955, 0.438551000425857, -1.23439992131944, -1.35273575396376, 1.32612288435033], a = 0.2, v = 0.2, t = 0.2)
movej(p[-0.464011666230332, 0.143747224969947, 0.43925475952755, -1.24948111253492, -1.37508377401576, 1.30485432258284], a = 0.2, v = 0.2, t = 0.2)
movej(p[-0.46449610235627, 0.143784553370181, 0.439788490245442, -1.28450732736049, -1.39408904427467, 1.25735303519601], a = 0.2, v = 0.2, t = 0.2)
movej(p[-0.466197293899084, 0.143755580781423, 0.43956383364714, -1.32155607214853, -1.37054065830427, 1.24777370339083], a = 0.2, v = 0.2, t = 0.2)
movej(p[-0.468579327253743, 0.143892028274993, 0.439133760848285, -1.34081970868578, -1.34187951569382, 1.26230070551557], a = 0.2, v = 0.2, t = 0.2)
movej(p[-0.470842862866108, 0.143908293139269, 0.438635359408412, -1.34761478431132, -1.31722643120752, 1.26537087773422], a = 0.2, v = 0.2, t = 0.2)
movej(p[-0.472636816214246, 0.143885692111004, 0.438104941790375, -1.31933452008899, -1.30594527326173, 1.24066860089775], a = 0.2, v = 0.2, t = 0.2)
movej(p[-0.473991777270644, 0.143734243035483, 0.437716170709571, -1.28631816168854, -1.30846665609005, 1.21389071332964], a = 0.2, v = 0.2, t = 0.2)
movej(p[-0.475057246679467, 0.143790408077101, 0.437214671163647, -1.28633515983338, -1.29680750684339, 1.22738374267531], a = 0.2, v = 0.2, t = 0.2)
movej(p[-0.47604607081847, 0.143973838298529, 0.437039853577313, -1.30635785338317, -1.27734535206434, 1.24731410290893], a = 0.2, v = 0.2, t = 0.2)
movej(p[-0.47695530733434, 0.144064108394025, 0.436597262184979, -1.30718702456603, -1.25753848374078, 1.26145004842872], a = 0.2, v = 0.2, t = 0.2)
movej(p[-0.477519751370684, 0.143942769537341, 0.436242393908299, -1.28978434595743, -1.23666137802635, 1.28123941612544], a = 0.2, v = 0.2, t = 0.2)
movej(p[-0.476965192463463, 0.143744648473501, 0.435809169407508, -1.24421669918033, -1.25136006230432, 1.28817741712516], a = 0.2, v = 0.2, t = 0.2)
movej(p[-0.475224599101205, 0.143624247599947, 0.435619433160817, -1.2285747245365, -1.27118958540448, 1.29657771525429], a = 0.2, v = 0.2, t = 0.2)
movej(p[-0.472558063689435, 0.143527218102137, 0.435804724991266, -1.20778611835222, -1.31304711456711, 1.28476317275464], a = 0.2, v = 0.2, t = 0.2)
movej(p[-0.469635927532559, 0.143475444542611, 0.436620027648329, -1.20575603559567, -1.32907571886684, 1.29324358512403], a = 0.2, v = 0.2, t = 0.2)
movej(p[-0.466832442111681, 0.143499854518275, 0.437787161702247, -1.23255543722878, -1.35659633123523, 1.2893864451557], a = 0.2, v = 0.2, t = 0.2)
movej(p[-0.46449311807552, 0.143611097173568, 0.439030315806725, -1.26560777555699, -1.36745836755283, 1.28887834967765], a = 0.2, v = 0.2, t = 0.2)
movej(p[-0.463374416448421, 0.143749012116932, 0.439718163213294, -1.2919179503226, -1.38054401138188, 1.28213993826259], a = 0.2, v = 0.2, t = 0.2)
movej(p[-0.463702260580374, 0.143853097627928, 0.440129532460766, -1.30301823525502, -1.38465996100618, 1.26335782212185], a = 0.2, v = 0.2, t = 0.2)
movej(p[-0.465480680654715, 0.143847606257485, 0.439952789757082, -1.3141263930882, -1.39708287481716, 1.23595280193411], a = 0.2, v = 0.2, t = 0.2)
movej(p[-0.467998993347141, 0.143803539160633, 0.439627937029533, -1.33193128043953, -1.38951503158434, 1.21101615243552], a = 0.2, v = 0.2, t = 0.2)
movej(p[-0.470464357884364, 0.143793587351729, 0.43892801093555, -1.32630079265064, -1.35985562984355, 1.21593491707969], a = 0.2, v = 0.2, t = 0.2)
movej(p[-0.472459550073598, 0.143960450047951, 0.438660022409333, -1.28688495709775, -1.35074056282354, 1.21706434364486], a = 0.2, v = 0.2, t = 0.2)
movej(p[-0.47402668292652, 0.143937081488392, 0.438171165665268, -1.26811486115852, -1.31296958537625, 1.23303873006598], a = 0.2, v = 0.2, t = 0.2)
movej(p[-0.475185995652026, 0.143849481510557, 0.438132101645222, -1.26972341370101, -1.30781296726524, 1.22504399663326], a = 0.2, v = 0.2, t = 0.2)
movej(p[-0.476102232535835, 0.143753395777343, 0.437513118913944, -1.28904964912237, -1.2609799442256, 1.25271608170424], a = 0.2, v = 0.2, t = 0.2)
movej(p[-0.476906958361618, 0.143753203067737, 0.437111605668482, -1.30447726176462, -1.25561709856643, 1.26117422155491], a = 0.2, v = 0.2, t = 0.2)
movej(p[-0.47765838904809, 0.143771280693179, 0.43671978691027, -1.30739864741273, -1.25767754183071, 1.25613029949594], a = 0.2, v = 0.2, t = 0.2)
movej(p[-0.478412374089325, 0.143686286112138, 0.436481446206263, -1.28739618964878, -1.24874045167744, 1.26137939355037], a = 0.2, v = 0.2, t = 0.2)
movej(p[-0.478384105417326, 0.143754930798038, 0.43656703315434, -1.25778659813767, -1.24446133626814, 1.27800255029825], a = 0.2, v = 0.2, t = 0.2)
movej(p[-0.477388362776102, 0.14370849470699, 0.43637879531437, -1.23224050835311, -1.24738686439941, 1.29751604531442], a = 0.2, v = 0.2, t = 0.2)
movej(p[-0.475234669111422, 0.143745883207215, 0.436031177371267, -1.22436005829343, -1.29934786114231, 1.29621953332332], a = 0.2, v = 0.2, t = 0.2)
movej(p[-0.472822256105657, 0.143659874623219, 0.435877253266616, -1.20105487107669, -1.33018772770665, 1.28075524357758], a = 0.2, v = 0.2, t = 0.2)
movej(p[-0.470473917558706, 0.143650146167913, 0.435957890242836, -1.21872056984475, -1.33679173126534, 1.28026718018665], a = 0.2, v = 0.2, t = 0.2)
movej(p[-0.468633023095015, 0.14363948995871, 0.43699299441563, -1.24362784011721, -1.30815731627882, 1.29410550497031], a = 0.2, v = 0.2, t = 0.2)
movej(p[-0.467789821552956, 0.143654712560463, 0.437620073925634, -1.29474774147943, -1.31543136791394, 1.2878212185482], a = 0.2, v = 0.2, t = 0.2)
movej(p[-0.46840476910646, 0.143696514083787, 0.437996829972815, -1.30662611010036, -1.32658640089748, 1.27371716641981], a = 0.2, v = 0.2, t = 0.2)
movej(p[-0.470239269629554, 0.143720785892897, 0.437807171895639, -1.28607918815581, -1.33191754169586, 1.23649160237561], a = 0.2, v = 0.2, t = 0.2)
movej(p[-0.472468257938714, 0.143628428514155, 0.437478131170183, -1.28249195304698, -1.32849349375603, 1.21620701513644], a = 0.2, v = 0.2, t = 0.2)
movej(p[-0.474376671839082, 0.143602748411347, 0.437367692195153, -1.29092633022601, -1.30428955828384, 1.22898475908839], a = 0.2, v = 0.2, t = 0.2)
movej(p[-0.475976074372958, 0.143527961368069, 0.43705295529092, -1.32080285721398, -1.30603756314028, 1.22312358506706], a = 0.2, v = 0.2, t = 0.2)
movej(p[-0.477353456378647, 0.143608391862911, 0.436773844065948, -1.29707704114303, -1.31591134642223, 1.20878309898593], a = 0.2, v = 0.2, t = 0.2)
movej(p[-0.478509241062737, 0.143648293755645, 0.436236263906922, -1.28967034334199, -1.31573284746498, 1.20103273700373], a = 0.2, v = 0.2, t = 0.2)
movej(p[-0.479443069598489, 0.143655351263456, 0.436010786068767, -1.29633140518712, -1.31238108975583, 1.2085477420193], a = 0.2, v = 0.2, t = 0.2)
movej(p[-0.48005985665722, 0.143746829709743, 0.435594088254943, -1.31410995312869, -1.27189290601894, 1.23184790238632], a = 0.2, v = 0.2, t = 0.2)
movej(p[-0.48048792947897, 0.14369205132834, 0.435407482465348, -1.33010655885956, -1.25031248616915, 1.23607375890169], a = 0.2, v = 0.2, t = 0.2)
movej(p[-0.480579170783548, 0.143581266201205, 0.435290452978276, -1.29891708111151, -1.23353097356917, 1.24456333468642], a = 0.2, v = 0.2, t = 0.2)
movej(p[-0.479908419489977, 0.143620958069717, 0.435084214667948, -1.2412282977262, -1.24584829265784, 1.24636755264759], a = 0.2, v = 0.2, t = 0.2)
movej(p[-0.47823414680432, 0.143617528878514, 0.434962583474544, -1.19225435882888, -1.25266695963685, 1.25647906757504], a = 0.2, v = 0.2, t = 0.2)
movej(p[-0.475789444652534, 0.143763329448007, 0.434768741886156, -1.18559953456285, -1.26110788505998, 1.27102143683587], a = 0.2, v = 0.2, t = 0.2)
movej(p[-0.473076754132183, 0.143617843995691, 0.435282332191814, -1.21802943638339, -1.28938845158172, 1.27767496067452], a = 0.2, v = 0.2, t = 0.2)
movej(p[-0.47066753013185, 0.143682004369174, 0.43587618047102, -1.22247277140233, -1.32251548591279, 1.28992670042654], a = 0.2, v = 0.2, t = 0.2)
movej(p[-0.468967356066188, 0.143690460994536, 0.43698933217681, -1.2645462170166, -1.33020396746936, 1.30737801451245], a = 0.2, v = 0.2, t = 0.2)
movej(p[-0.468567378667919, 0.143768484085758, 0.437454619149021, -1.29277117884713, -1.31498215710919, 1.31553992475267], a = 0.2, v = 0.2, t = 0.2)
movej(p[-0.469496001059244, 0.143646513082052, 0.437576488205738, -1.35966383860626, -1.32879696179088, 1.27037199609904], a = 0.2, v = 0.2, t = 0.2)
movej(p[-0.47145125906263, 0.143607191766085, 0.437054258761999, -1.33925545361434, -1.33848653564956, 1.2225470931159], a = 0.2, v = 0.2, t = 0.2)
movej(p[-0.473826711585168, 0.143541457827583, 0.436862713724367, -1.33724279287048, -1.34452556115444, 1.17820207811346], a = 0.2, v = 0.2, t = 0.2)
movej(p[-0.47592115620016, 0.143667335280058, 0.436680945493396, -1.30474951363217, -1.31093358704823, 1.19891291751216], a = 0.2, v = 0.2, t = 0.2)
movej(p[-0.477447391589586, 0.143671244422942, 0.436452528281332, -1.29835579375594, -1.29887402357641, 1.20204413351477], a = 0.2, v = 0.2, t = 0.2)
movej(p[-0.478561142708677, 0.143547004614028, 0.436197887963426, -1.30318313256994, -1.29738356942364, 1.19515839196744], a = 0.2, v = 0.2, t = 0.2)
movej(p[-0.479246773083683, 0.143408298052111, 0.435915414923031, -1.30378705383493, -1.29747762882719, 1.18145012873506], a = 0.2, v = 0.2, t = 0.2)
movej(p[-0.47976302639409, 0.143421695010083, 0.435816048593667, -1.27397604597762, -1.2809735715603, 1.20151699241664], a = 0.2, v = 0.2, t = 0.2)
movej(p[-0.47987285863903, 0.143568293540581, 0.435253260100158, -1.20597050170009, -1.25983529729764, 1.24433839819637], a = 0.2, v = 0.2, t = 0.2)
movej(p[-0.479094842535874, 0.143698584968368, 0.434959179127167, -1.1429733557664, -1.2314136965458, 1.28731807100669], a = 0.2, v = 0.2, t = 0.2)
movej(p[-0.477374586790293, 0.143683701805825, 0.434800065880183, -1.12643923396538, -1.2374713927603, 1.28518184066217], a = 0.2, v = 0.2, t = 0.2)
movej(p[-0.4746855201991, 0.143675239643035, 0.434851118034227, -1.17098860624723, -1.24229347902251, 1.29645879376784], a = 0.2, v = 0.2, t = 0.2)
movej(p[-0.471747206715564, 0.143636756240396, 0.435493916822441, -1.20861114884052, -1.27462317041306, 1.299246771827], a = 0.2, v = 0.2, t = 0.2)
movej(p[-0.468913934604651, 0.143786593764951, 0.436287638833291, -1.24563470858911, -1.30320173797562, 1.32431525048869], a = 0.2, v = 0.2, t = 0.2)
movej(p[-0.466500591784556, 0.143781254646615, 0.437517566304925, -1.24112131866276, -1.34603933237892, 1.31838492426911], a = 0.2, v = 0.2, t = 0.2)
movej(p[-0.465333241088233, 0.143748062552687, 0.438467397312418, -1.26827316164861, -1.37156296868245, 1.30932184836985], a = 0.2, v = 0.2, t = 0.2)
movej(p[-0.46587197594147, 0.143743320041034, 0.438973049050862, -1.2824572908818, -1.38189168545215, 1.27902796484743], a = 0.2, v = 0.2, t = 0.2)
movej(p[-0.467930689873593, 0.143755131033039, 0.438762524500629, -1.30481655631266, -1.37208486211885, 1.25102728790624], a = 0.2, v = 0.2, t = 0.2)
movej(p[-0.470483478485259, 0.143832483516863, 0.438136995945012, -1.29187321497585, -1.37665111068456, 1.21624318172114], a = 0.2, v = 0.2, t = 0.2)
movej(p[-0.47285524925278, 0.143671758673804, 0.43732178046279, -1.30411336512631, -1.35745791435761, 1.19797143262473], a = 0.2, v = 0.2, t = 0.2)
movej(p[-0.474856540616653, 0.143643766615245, 0.437064175866662, -1.30486679770097, -1.34491775959873, 1.19364760516899], a = 0.2, v = 0.2, t = 0.2)
movej(p[-0.476450195025947, 0.143579334190406, 0.4367173982221, -1.30870313333613, -1.32323080629758, 1.19377247317548], a = 0.2, v = 0.2, t = 0.2)
movej(p[-0.477607561211786, 0.143695320735619, 0.436715045180202, -1.28839958030316, -1.30658699741501, 1.20579062702437], a = 0.2, v = 0.2, t = 0.2)
movej(p[-0.47849122150656, 0.143679161640636, 0.43630090871237, -1.25518740230562, -1.2890422011242, 1.21128781906673], a = 0.2, v = 0.2, t = 0.2)
movej(p[-0.47915274084914, 0.143639449681615, 0.436263128190889, -1.25081035792983, -1.2611502257559, 1.22907042053674], a = 0.2, v = 0.2, t = 0.2)
movej(p[-0.478935714071691, 0.143586310711089, 0.436276719003276, -1.24816226443658, -1.25678629467958, 1.24488134558066], a = 0.2, v = 0.2, t = 0.2)
movej(p[-0.477630338834142, 0.14373448936564, 0.436262083159231, -1.25868798931746, -1.26292962519827, 1.28046934500045], a = 0.2, v = 0.2, t = 0.2)
movej(p[-0.475110599143526, 0.143834177695133, 0.435811807326663, -1.22673452427505, -1.27589078221552, 1.3068920461124], a = 0.2, v = 0.2, t = 0.2)
movej(p[-0.472197422433418, 0.143930225075893, 0.435543696341378, -1.21699615051077, -1.28525542685133, 1.32244306946703], a = 0.2, v = 0.2, t = 0.2)
movej(p[-0.469153801223292, 0.143872239705889, 0.435973420588584, -1.23412204411742, -1.32231399515503, 1.31501993131825], a = 0.2, v = 0.2, t = 0.2)
movej(p[-0.466430102443489, 0.143784137192201, 0.437077022806816, -1.27921122344189, -1.33948735852245, 1.33004561198601], a = 0.2, v = 0.2, t = 0.2)
movej(p[-0.464779659430565, 0.143817927709728, 0.438573371757567, -1.31778012005193, -1.37436434784077, 1.32230838665128], a = 0.2, v = 0.2, t = 0.2)
movej(p[-0.4643147975369, 0.143930951950009, 0.439415649298124, -1.3568255085792, -1.37304287848001, 1.31152804314082], a = 0.2, v = 0.2, t = 0.2)
movej(p[-0.465544172605805, 0.143952048223535, 0.43957556797526, -1.36342096242065, -1.39133299533946, 1.24928204961156], a = 0.2, v = 0.2, t = 0.2)
movej(p[-0.467799151496031, 0.143809805391102, 0.438971414692593, -1.37551675354432, -1.37761734701068, 1.21279006670814], a = 0.2, v = 0.2, t = 0.2)
movej(p[-0.470470848822506, 0.143653601330204, 0.438524621835033, -1.35059058322567, -1.35865467425436, 1.18631888466822], a = 0.2, v = 0.2, t = 0.2)
movej(p[-0.472817658444914, 0.143774817571268, 0.438049078326954, -1.31244739242431, -1.31223684835637, 1.21857322499962], a = 0.2, v = 0.2, t = 0.2)
movej(p[-0.47457470728645, 0.143791937289092, 0.437916635036006, -1.31811696707969, -1.27761682548826, 1.23969647053177], a = 0.2, v = 0.2, t = 0.2)
movej(p[-0.475918561617144, 0.143825767956057, 0.437744799176106, -1.32085224682678, -1.2534110618246, 1.25707054794133], a = 0.2, v = 0.2, t = 0.2)
movej(p[-0.47690658910589, 0.14368942783644, 0.437314990639469, -1.34821514431191, -1.25208529715213, 1.25370715827863], a = 0.2, v = 0.2, t = 0.2)
movej(p[-0.477714981843578, 0.143731180955929, 0.436799782626851, -1.33828670117132, -1.24892394131687, 1.25363438596067], a = 0.2, v = 0.2, t = 0.2)
movej(p[-0.478324030558508, 0.143673357583034, 0.436100724923304, -1.30390396134031, -1.24880080051854, 1.25097584801575], a = 0.2, v = 0.2, t = 0.2)
movej(p[-0.478062195685879, 0.143586928573456, 0.435854343130392, -1.29674424368364, -1.25447193927181, 1.26276035736174], a = 0.2, v = 0.2, t = 0.2)
movej(p[-0.476687876226408, 0.14349729250782, 0.435783791003156, -1.2773903198029, -1.2619342879513, 1.28985828830956], a = 0.2, v = 0.2, t = 0.2)
movej(p[-0.474001025257263, 0.143673354489457, 0.435731253866526, -1.25935759005349, -1.27293655164943, 1.32217945078578], a = 0.2, v = 0.2, t = 0.2)
movej(p[-0.471043561277363, 0.143847099861016, 0.436173728019391, -1.22855254002547, -1.28539455022971, 1.34015147981045], a = 0.2, v = 0.2, t = 0.2)
movej(p[-0.467927779933889, 0.143889760657541, 0.436755691694377, -1.21386827681359, -1.30820346614048, 1.35251797592345], a = 0.2, v = 0.2, t = 0.2)
movej(p[-0.465219086351358, 0.1437887276839, 0.438045746030489, -1.22974946236614, -1.30841009097899, 1.36136983838146], a = 0.2, v = 0.2, t = 0.2)
movej(p[-0.463457337192222, 0.143642520802762, 0.438989621555011, -1.2490225208281, -1.34009398510279, 1.32743706736514], a = 0.2, v = 0.2, t = 0.2)
movej(p[-0.463603949048663, 0.143683306234908, 0.439481158258295, -1.27794308423168, -1.37057217493662, 1.28137389855047], a = 0.2, v = 0.2, t = 0.2)
movej(p[-0.465429201446034, 0.143732245699684, 0.439576071393197, -1.30573702796655, -1.38514528568584, 1.23636332784247], a = 0.2, v = 0.2, t = 0.2)
movej(p[-0.46804685486646, 0.143838944490628, 0.439400751551343, -1.32742949888544, -1.36595032379614, 1.23002856772886], a = 0.2, v = 0.2, t = 0.2)
movej(p[-0.470623290307359, 0.143780778734611, 0.439002837405688, -1.33246738000289, -1.34736112596926, 1.22711578254285], a = 0.2, v = 0.2, t = 0.2)
movej(p[-0.472780714010521, 0.143756380592815, 0.438398168857322, -1.33050775534271, -1.32274787302335, 1.23733828193711], a = 0.2, v = 0.2, t = 0.2)
movej(p[-0.474493096564458, 0.14372431208699, 0.438014215875296, -1.32705495080638, -1.3046941356337, 1.23581567239841], a = 0.2, v = 0.2, t = 0.2)
movej(p[-0.475849128954, 0.143667826853581, 0.437861194409416, -1.34015262928218, -1.27245675180834, 1.25298623350415], a = 0.2, v = 0.2, t = 0.2)
movej(p[-0.476877654733437, 0.143603609854603, 0.437797799502875, -1.32008629883836, -1.26001840139669, 1.25977268507688], a = 0.2, v = 0.2, t = 0.2)
movej(p[-0.477785791427213, 0.143599000685815, 0.437338575861736, -1.33076887780323, -1.25450607712605, 1.26892582010537], a = 0.2, v = 0.2, t = 0.2)
movej(p[-0.478183623755895, 0.143610864120293, 0.436815275205156, -1.25559495625011, -1.24884712258392, 1.27156594805781], a = 0.2, v = 0.2, t = 0.2)
movej(p[-0.47754554731382, 0.143743796956356, 0.436191168919925, -1.21524328701124, -1.24146756310935, 1.29105749048491], a = 0.2, v = 0.2, t = 0.2)
movej(p[-0.475373657306767, 0.143715882746071, 0.436072271531265, -1.15633083937931, -1.24710727147997, 1.30434137375607], a = 0.2, v = 0.2, t = 0.2)
movej(p[-0.47217933695159, 0.143766160796783, 0.436318719494366, -1.19069495967038, -1.26534836627333, 1.31832160812873], a = 0.2, v = 0.2, t = 0.2)
movej(p[-0.469145859069964, 0.143726484382585, 0.437031931965081, -1.22181339713643, -1.31418558396829, 1.31795252752384], a = 0.2, v = 0.2, t = 0.2)
movej(p[-0.466563286889756, 0.143658435349934, 0.43787879016093, -1.22483863300309, -1.33236348855708, 1.33312663662639], a = 0.2, v = 0.2, t = 0.2)
movej(p[-0.464844812480274, 0.143684448253731, 0.438734757698219, -1.25406309159981, -1.35997655791258, 1.32160608077826], a = 0.2, v = 0.2, t = 0.2)
movej(p[-0.464387534506758, 0.143638033909267, 0.439374011024581, -1.26728875333123, -1.35700851609983, 1.31237468976802], a = 0.2, v = 0.2, t = 0.2)
movej(p[-0.465536346243974, 0.143772349283421, 0.439515555280914, -1.32303554203486, -1.37092021585331, 1.26175995814225], a = 0.2, v = 0.2, t = 0.2)
movej(p[-0.467869885422936, 0.143736735422301, 0.439389429497886, -1.32178891295992, -1.37585528885044, 1.23342616871024], a = 0.2, v = 0.2, t = 0.2)
movej(p[-0.470312759986583, 0.14374436241987, 0.438842906050449, -1.2843639689275, -1.35286705082313, 1.21917038225538], a = 0.2, v = 0.2, t = 0.2)
movej(p[-0.472521250450797, 0.143712310032874, 0.438481660156401, -1.24810641770567, -1.32347479877633, 1.23378440925017], a = 0.2, v = 0.2, t = 0.2)
movej(p[-0.474211928183039, 0.143772401059675, 0.438254330606406, -1.23259360145607, -1.30641694160726, 1.23167522777657], a = 0.2, v = 0.2, t = 0.2)
movej(p[-0.475396243425533, 0.14378178967013, 0.43802358602296, -1.25238437217159, -1.28524598601872, 1.24116828148585], a = 0.2, v = 0.2, t = 0.2)
movej(p[-0.476346368585085, 0.143762793112294, 0.437619232860023, -1.27770324236482, -1.29604190874545, 1.21871164387877], a = 0.2, v = 0.2, t = 0.2)
movej(p[-0.477197704892672, 0.14382352883548, 0.437115788905433, -1.28592888395718, -1.30426386118763, 1.20976428440842], a = 0.2, v = 0.2, t = 0.2)
movej(p[-0.477735603830055, 0.143849822263627, 0.436814378385879, -1.28274025199209, -1.31521994496664, 1.21033151263992], a = 0.2, v = 0.2, t = 0.2)
movej(p[-0.477511263029079, 0.143937239228723, 0.436431684996687, -1.26161756652291, -1.31171110418522, 1.23861114219149], a = 0.2, v = 0.2, t = 0.2)
movej(p[-0.476029400512968, 0.143960589792106, 0.435972951374488, -1.22679221455454, -1.2858669388883, 1.27390117404683], a = 0.2, v = 0.2, t = 0.2)
movej(p[-0.473498153280788, 0.143984715893023, 0.436010400418977, -1.24522074243268, -1.2793310319357, 1.2922682597502], a = 0.2, v = 0.2, t = 0.2)
movej(p[-0.470632765743597, 0.143926332172955, 0.43658984388088, -1.25151296128981, -1.2759405757473, 1.31549127969622], a = 0.2, v = 0.2, t = 0.2)
movej(p[-0.467723108877775, 0.14381062622065, 0.437505149484642, -1.28856096850903, -1.30488974087708, 1.32178890932663], a = 0.2, v = 0.2, t = 0.2)
movej(p[-0.465202378913796, 0.143797567085768, 0.438547145261646, -1.29535455128763, -1.3378901782505, 1.32289692338036], a = 0.2, v = 0.2, t = 0.2)
movej(p[-0.463287668522117, 0.143810107750099, 0.439491641629577, -1.29643329371027, -1.37699294789297, 1.29298496073843], a = 0.2, v = 0.2, t = 0.2)
movej(p[-0.463056241970007, 0.143814588324919, 0.440069289174749, -1.32893799506967, -1.38855463508117, 1.27336047860907], a = 0.2, v = 0.2, t = 0.2)
movej(p[-0.46447713917655, 0.143829526245679, 0.439986587683905, -1.34341416394508, -1.39158875850747, 1.24268765405042], a = 0.2, v = 0.2, t = 0.2)
movej(p[-0.467051886647658, 0.143874498035852, 0.439291918204432, -1.35149173333922, -1.37064811320301, 1.23374334436628], a = 0.2, v = 0.2, t = 0.2)
movej(p[-0.46987065929058, 0.143899433748383, 0.438837230863116, -1.32151630946057, -1.33978677029721, 1.23914410937605], a = 0.2, v = 0.2, t = 0.2)
movej(p[-0.472132617576436, 0.143946593151118, 0.438403116461739, -1.2843797396704, -1.31888227969509, 1.24595390330432], a = 0.2, v = 0.2, t = 0.2)
movej(p[-0.473868152675351, 0.143795896596244, 0.438229491438243, -1.29693033641072, -1.30272491969435, 1.24590200161905], a = 0.2, v = 0.2, t = 0.2)
movej(p[-0.475291336246747, 0.143759295414565, 0.437976126532805, -1.3131720105479, -1.29607905176775, 1.24475634606269], a = 0.2, v = 0.2, t = 0.2)
movej(p[-0.476492307919769, 0.143678336111145, 0.437507257023573, -1.32101177464167, -1.29863322348388, 1.22699376476959], a = 0.2, v = 0.2, t = 0.2)
movej(p[-0.477622067232876, 0.143817513888429, 0.437230690798489, -1.30447417022406, -1.29898897079577, 1.22361061091914], a = 0.2, v = 0.2, t = 0.2)
movej(p[-0.478186591478001, 0.143767089055047, 0.436934660700449, -1.2690835158598, -1.30108779559441, 1.21676100930291], a = 0.2, v = 0.2, t = 0.2)
movej(p[-0.477711650028702, 0.143712723176556, 0.436588381913063, -1.26953093868267, -1.27356224256506, 1.24639674422765], a = 0.2, v = 0.2, t = 0.2)
movej(p[-0.475681633693472, 0.143668300212932, 0.436067936537349, -1.24776567292615, -1.26772095853544, 1.27874277120204], a = 0.2, v = 0.2, t = 0.2)
movej(p[-0.472703691598664, 0.14377819753421, 0.435729952970229, -1.24615147899883, -1.27531357897423, 1.3113692402649], a = 0.2, v = 0.2, t = 0.2)
movej(p[-0.469366465798773, 0.143863350078514, 0.436451410215837, -1.23895606059342, -1.28601449841401, 1.34926018904669], a = 0.2, v = 0.2, t = 0.2)
movej(p[-0.466191443919544, 0.143847228256613, 0.437581823855784, -1.25482553644857, -1.31191146432576, 1.36462002451571], a = 0.2, v = 0.2, t = 0.2)
movej(p[-0.463443234714917, 0.143790008266873, 0.438824302210516, -1.29061664383528, -1.33923056136027, 1.36809193473129], a = 0.2, v = 0.2, t = 0.2)
movej(p[-0.462240849345645, 0.143735259800928, 0.439355014152568, -1.3179178926531, -1.3909760219042, 1.32314836615729], a = 0.2, v = 0.2, t = 0.2)
movej(p[-0.46308012558512, 0.143822541987071, 0.439637598486057, -1.34239476173562, -1.39821292483856, 1.28798448610314], a = 0.2, v = 0.2, t = 0.2)
movej(p[-0.46536624259541, 0.143831943313049, 0.43960092999367, -1.32719700738293, -1.39165632568568, 1.25411081719003], a = 0.2, v = 0.2, t = 0.2)
movej(p[-0.468187517922473, 0.143825296488869, 0.439685725037776, -1.31924477508261, -1.36057424465438, 1.24367035780979], a = 0.2, v = 0.2, t = 0.2)
movej(p[-0.470622216001061, 0.143787420630904, 0.43936980312895, -1.30841399001954, -1.34156122500395, 1.23716076335229], a = 0.2, v = 0.2, t = 0.2)
movej(p[-0.472679555171745, 0.143805060204453, 0.438737301355541, -1.31329410530557, -1.32957244579913, 1.22131252291561], a = 0.2, v = 0.2, t = 0.2)
movej(p[-0.47426548215228, 0.143912213810944, 0.438122533851663, -1.3330516790166, -1.31229947869007, 1.23120146908161], a = 0.2, v = 0.2, t = 0.2)
movej(p[-0.47560675834358, 0.143832553708346, 0.437688882410635, -1.34385551652113, -1.30812724127713, 1.21240005430394], a = 0.2, v = 0.2, t = 0.2)
movej(p[-0.476953864914013, 0.143706299370119, 0.437677814367631, -1.35018884217782, -1.28437390031771, 1.23319538542385], a = 0.2, v = 0.2, t = 0.2)
movej(p[-0.477999137674679, 0.143563982070779, 0.437539259885498, -1.33025951416218, -1.24792598354892, 1.25050191112824], a = 0.2, v = 0.2, t = 0.2)
movej(p[-0.478261363841849, 0.143642088652907, 0.43709743661995, -1.28865571327196, -1.20081526327014, 1.3015654815529], a = 0.2, v = 0.2, t = 0.2)
movej(p[-0.477049144982649, 0.143716011628626, 0.436338573503202, -1.24463425776798, -1.18604103812616, 1.33513631918027], a = 0.2, v = 0.2, t = 0.2)
movej(p[-0.474493670789609, 0.143804882682879, 0.435837984432884, -1.21926894770862, -1.23587919913942, 1.33866802472808], a = 0.2, v = 0.2, t = 0.2)
movej(p[-0.471490550881194, 0.14372542539477, 0.43603581594693, -1.23213479708564, -1.29155413248337, 1.3252105034055], a = 0.2, v = 0.2, t = 0.2)
movej(p[-0.468167818349405, 0.143619186593726, 0.436988784791827, -1.25893587261441, -1.35027705959302, 1.30615913347047], a = 0.2, v = 0.2, t = 0.2)
movej(p[-0.46537807960535, 0.143637002665727, 0.43825970162038, -1.29540007552658, -1.348031604411, 1.33219929832012], a = 0.2, v = 0.2, t = 0.2)
movej(p[-0.463798818101872, 0.143646614005792, 0.43922024202035, -1.3182421430264, -1.38651196544203, 1.30292988248815], a = 0.2, v = 0.2, t = 0.2)
movej(p[-0.463800729999418, 0.143798665102704, 0.439683915275537, -1.32718354921844, -1.39094708864842, 1.27660350810361], a = 0.2, v = 0.2, t = 0.2)
movej(p[-0.465448042143912, 0.143850721407954, 0.439835673543137, -1.33599627327137, -1.3892196996759, 1.24541129325964], a = 0.2, v = 0.2, t = 0.2)
movej(p[-0.467772804769966, 0.143926165709501, 0.439491203140418, -1.30494837751061, -1.36087205742006, 1.24735459728475], a = 0.2, v = 0.2, t = 0.2)
movej(p[-0.470277127192699, 0.143967015834054, 0.439133023290917, -1.29575321502551, -1.32344386489213, 1.26465318459305], a = 0.2, v = 0.2, t = 0.2)
movej(p[-0.472471701007953, 0.143938337056122, 0.438594410327468, -1.27360107021248, -1.31765039482778, 1.25525657039122], a = 0.2, v = 0.2, t = 0.2)
movej(p[-0.474126584744381, 0.143891896055016, 0.438421236344074, -1.30147600814525, -1.27846841984699, 1.27790315015064], a = 0.2, v = 0.2, t = 0.2)
movej(p[-0.475541743878014, 0.143913883046476, 0.438085712283536, -1.30163518236076, -1.27438409092985, 1.25806681440029], a = 0.2, v = 0.2, t = 0.2)
movej(p[-0.47669850976449, 0.143822816435272, 0.437728268465978, -1.31782884471046, -1.26990256100671, 1.24787449346184], a = 0.2, v = 0.2, t = 0.2)
movej(p[-0.477677941381032, 0.143770340154277, 0.437004485089511, -1.3048314555465, -1.29067267575806, 1.2154907874699], a = 0.2, v = 0.2, t = 0.2)
movej(p[-0.478374557990289, 0.143697878180861, 0.436495204948806, -1.29312504278273, -1.27382248317163, 1.24349939569448], a = 0.2, v = 0.2, t = 0.2)
movej(p[-0.477837482572363, 0.143673837163643, 0.436158444314154, -1.24156654977247, -1.24999347818097, 1.27899291537051], a = 0.2, v = 0.2, t = 0.2)
movej(p[-0.475990412590263, 0.143657633842458, 0.43588215437368, -1.19578709611622, -1.2427370272692, 1.30675972696615], a = 0.2, v = 0.2, t = 0.2)
movej(p[-0.472906946050957, 0.143696031082813, 0.43602737486298, -1.1804758635684, -1.27361826185428, 1.30949324110976], a = 0.2, v = 0.2, t = 0.2)
movej(p[-0.469564011479828, 0.143823667477509, 0.436363220836669, -1.2061490147674, -1.30854986922058, 1.30310844453052], a = 0.2, v = 0.2, t = 0.2)
movej(p[-0.466451202423088, 0.143932514306684, 0.43753078830397, -1.25522760888308, -1.33612455284587, 1.31195127893142], a = 0.2, v = 0.2, t = 0.2)
movej(p[-0.463922652532827, 0.143929379027641, 0.438827693642912, -1.27506097091739, -1.37658166434531, 1.30932417452593], a = 0.2, v = 0.2, t = 0.2)
movej(p[-0.463122348982002, 0.143734956032295, 0.439706138744166, -1.2949157418235, -1.39681080360913, 1.29602841082687], a = 0.2, v = 0.2, t = 0.2)
movej(p[-0.463996981774318, 0.143718775358082, 0.439872776979841, -1.30224787918742, -1.41006707298322, 1.25973168423399], a = 0.2, v = 0.2, t = 0.2)
movej(p[-0.466550299299798, 0.143719129439162, 0.439311944527856, -1.310675450619, -1.39203147138107, 1.22421393656046], a = 0.2, v = 0.2, t = 0.2)
movej(p[-0.46934683913464, 0.14385454450382, 0.438853016854661, -1.29335602974954, -1.37470976810813, 1.20826405585239], a = 0.2, v = 0.2, t = 0.2)
movej(p[-0.471845151950007, 0.143794008844507, 0.438604917459253, -1.3028893327644, -1.34251772655806, 1.21898415943552], a = 0.2, v = 0.2, t = 0.2)
movej(p[-0.473513780138945, 0.143691497525278, 0.438427996110035, -1.2970103888472, -1.32194237477089, 1.2408971832557], a = 0.2, v = 0.2, t = 0.2)
movej(p[-0.474842081542763, 0.143626971379278, 0.437877022253214, -1.3088138588341, -1.30647550284875, 1.24504577834241], a = 0.2, v = 0.2, t = 0.2)
movej(p[-0.475924431875288, 0.143668704650706, 0.437330468819287, -1.29415103370019, -1.29979707714579, 1.24304510093147], a = 0.2, v = 0.2, t = 0.2)
movej(p[-0.476949812440608, 0.143668585896171, 0.436862938508225, -1.31781371209381, -1.27147453146504, 1.24324096296869], a = 0.2, v = 0.2, t = 0.2)
movej(p[-0.477675760237088, 0.143664749525302, 0.436626516847745, -1.34608261292421, -1.24774858964445, 1.25473881876303], a = 0.2, v = 0.2, t = 0.2)
movej(p[-0.477335355341688, 0.143617536208806, 0.436261685307945, -1.32951335604223, -1.21690467450702, 1.28455762983171], a = 0.2, v = 0.2, t = 0.2)
movej(p[-0.475710154277848, 0.143716047082009, 0.435917114720757, -1.26149074683022, -1.20619865258054, 1.3218347287844], a = 0.2, v = 0.2, t = 0.2)
movej(p[-0.47304811595629, 0.14377066459204, 0.435889674630487, -1.22418424661643, -1.20005339988054, 1.36227851471058], a = 0.2, v = 0.2, t = 0.2)
movej(p[-0.470267443570138, 0.143734780120337, 0.436526842575995, -1.2485732705535, -1.23692837256396, 1.37280256142448], a = 0.2, v = 0.2, t = 0.2)
movej(p[-0.46804104612326, 0.143642943474292, 0.437648623895627, -1.30573753190999, -1.28629731710742, 1.34973491033198], a = 0.2, v = 0.2, t = 0.2)
movej(p[-0.466767811249548, 0.143595655880757, 0.438816877266374, -1.32303430110613, -1.34025528409527, 1.31986905388606], a = 0.2, v = 0.2, t = 0.2)
movej(p[-0.46677299020036, 0.14370494092854, 0.439117199706427, -1.2996538395451, -1.36220480073542, 1.27178511912651], a = 0.2, v = 0.2, t = 0.2)
movej(p[-0.467949448801506, 0.143740609103653, 0.439190632742421, -1.29687616329422, -1.36579597061222, 1.23398573922408], a = 0.2, v = 0.2, t = 0.2)
movej(p[-0.469814239852016, 0.143761928641415, 0.438751698289869, -1.30946008028022, -1.34869614296538, 1.20073638350506], a = 0.2, v = 0.2, t = 0.2)
movej(p[-0.471844647601138, 0.143727503187975, 0.438440444117396, -1.32578244344899, -1.34252247747391, 1.193164823698], a = 0.2, v = 0.2, t = 0.2)
movej(p[-0.473561201531499, 0.143838665409985, 0.437995694645153, -1.32002181313582, -1.33062223922263, 1.2015202505968], a = 0.2, v = 0.2, t = 0.2)
movej(p[-0.475004053818765, 0.143910670700196, 0.437645612094584, -1.30367177511154, -1.31953428999031, 1.20756050803031], a = 0.2, v = 0.2, t = 0.2)
movej(p[-0.476152161915181, 0.14394055632777, 0.437547634567526, -1.34291255890204, -1.28946945758648, 1.22751547817211], a = 0.2, v = 0.2, t = 0.2)
movej(p[-0.477016843387124, 0.143832009996216, 0.437112551603502, -1.3321773225093, -1.28502866465352, 1.21668256868791], a = 0.2, v = 0.2, t = 0.2)
movej(p[-0.477749395754816, 0.143725273669626, 0.436615517934949, -1.33379655792604, -1.28148796049414, 1.23039167818477], a = 0.2, v = 0.2, t = 0.2)
movej(p[-0.477452838672383, 0.143711104608152, 0.435836232674562, -1.26969714059463, -1.28022424717376, 1.24136887535118], a = 0.2, v = 0.2, t = 0.2)
movej(p[-0.475933778975035, 0.143697765436428, 0.43565330757407, -1.2667138973592, -1.28029026735053, 1.27363248640743], a = 0.2, v = 0.2, t = 0.2)
movej(p[-0.472897402101894, 0.143763680364107, 0.435810043458492, -1.26098601917615, -1.28073369472787, 1.30616871931504], a = 0.2, v = 0.2, t = 0.2)
movej(p[-0.469282106400175, 0.143797099025734, 0.436516389737185, -1.26148367967631, -1.29813412987069, 1.33429803504006], a = 0.2, v = 0.2, t = 0.2)
movej(p[-0.465988758403101, 0.143904794673364, 0.437595178955436, -1.239003142622, -1.32141501709654, 1.34679405175122], a = 0.2, v = 0.2, t = 0.2)
movej(p[-0.463526169933467, 0.143925618220966, 0.438653694129011, -1.25437239506436, -1.36725766406616, 1.32683271381934], a = 0.2, v = 0.2, t = 0.2)
movej(p[-0.4627299037756, 0.143863784735685, 0.439699018066188, -1.29752050593137, -1.42174901429947, 1.26431865587593], a = 0.2, v = 0.2, t = 0.2)
movej(p[-0.463928249518905, 0.143619048594107, 0.439915241625287, -1.35048004371099, -1.43927173393865, 1.21741429093063], a = 0.2, v = 0.2, t = 0.2)
movej(p[-0.466302904656288, 0.14362698425795, 0.439738756739422, -1.35267847900425, -1.4107222277137, 1.19670115059413], a = 0.2, v = 0.2, t = 0.2)
movej(p[-0.468916654260015, 0.143709470745208, 0.439326271983658, -1.34251146632166, -1.36738051388813, 1.22083350709717], a = 0.2, v = 0.2, t = 0.2)
movej(p[-0.470990515334536, 0.14392842906785, 0.439031788390511, -1.34773116159675, -1.31734859413091, 1.26003714793593], a = 0.2, v = 0.2, t = 0.2)
movej(p[-0.472717801847678, 0.143903733263404, 0.438600233103137, -1.32154519744445, -1.28570864263379, 1.28083536100725], a = 0.2, v = 0.2, t = 0.2)
movej(p[-0.474010172282801, 0.143900841355372, 0.437940213307837, -1.30280602517641, -1.29109194801504, 1.26512487275876], a = 0.2, v = 0.2, t = 0.2)
movej(p[-0.475138242038982, 0.143963730753507, 0.437403856981509, -1.26019555486281, -1.30164641714726, 1.23346585357954], a = 0.2, v = 0.2, t = 0.2)
movej(p[-0.476220365339789, 0.144000775761425, 0.43719764133676, -1.27097699169408, -1.30139488297878, 1.22985423689835], a = 0.2, v = 0.2, t = 0.2)
movej(p[-0.477007149356492, 0.143918295017862, 0.436942003814277, -1.26899180095091, -1.28650399245422, 1.23778076630077], a = 0.2, v = 0.2, t = 0.2)
movej(p[-0.477327604212827, 0.143718229886835, 0.436649894542259, -1.26956737496273, -1.26616230747343, 1.25923508355754], a = 0.2, v = 0.2, t = 0.2)
movej(p[-0.476666721710039, 0.143742417363706, 0.436075008876172, -1.22619840456432, -1.25707268056749, 1.29026870280781], a = 0.2, v = 0.2, t = 0.2)
movej(p[-0.475029358840542, 0.143818972531088, 0.435655940638248, -1.19476173924975, -1.23761085357445, 1.33530561004654], a = 0.2, v = 0.2, t = 0.2)
movej(p[-0.472597270589916, 0.143827120579501, 0.43562472833178, -1.1900350766751, -1.2596916819477, 1.34294047375243], a = 0.2, v = 0.2, t = 0.2)
movej(p[-0.469861225043747, 0.143701461303969, 0.436291570170439, -1.19638023510957, -1.29714077677128, 1.33132340737633], a = 0.2, v = 0.2, t = 0.2)
movej(p[-0.467339270036769, 0.143615617980568, 0.437566833704142, -1.23848480164099, -1.34490081305408, 1.30034392265469], a = 0.2, v = 0.2, t = 0.2)
movej(p[-0.465791521930361, 0.143639805465441, 0.438444601777772, -1.25070524159503, -1.36575273766303, 1.28849677349545], a = 0.2, v = 0.2, t = 0.2)
movej(p[-0.46586450083928, 0.143642945647856, 0.438871515881202, -1.28366497938912, -1.38375682709134, 1.26280848197454], a = 0.2, v = 0.2, t = 0.2)
movej(p[-0.467331745518987, 0.1436052103805, 0.438677927807264, -1.31525056950093, -1.3762848074226, 1.24718762045067], a = 0.2, v = 0.2, t = 0.2)
movej(p[-0.469594417994951, 0.143641133890687, 0.438420974604661, -1.32957382545723, -1.356691408643, 1.23686499651462], a = 0.2, v = 0.2, t = 0.2)
movej(p[-0.471724140733322, 0.143791966984485, 0.438077414575143, -1.34849684942146, -1.32382252865726, 1.23271682800858], a = 0.2, v = 0.2, t = 0.2)
movej(p[-0.473613083667644, 0.143912024976638, 0.437740205662162, -1.31594612372857, -1.30027573008711, 1.23163405831124], a = 0.2, v = 0.2, t = 0.2)
movej(p[-0.474979453935184, 0.143894356288024, 0.43726216625058, -1.29045403116078, -1.29411067445009, 1.23660196693676], a = 0.2, v = 0.2, t = 0.2)
movej(p[-0.476087289719672, 0.143889735203759, 0.437015857176878, -1.2746091303819, -1.28420344889797, 1.24303913880407], a = 0.2, v = 0.2, t = 0.2)
movej(p[-0.476888783790055, 0.143844373435108, 0.436716292932206, -1.27018893797718, -1.29361069707808, 1.23587386926703], a = 0.2, v = 0.2, t = 0.2)
movej(p[-0.47769739539769, 0.143852239648339, 0.436466223288333, -1.26295639974122, -1.29176153046969, 1.22222919791822], a = 0.2, v = 0.2, t = 0.2)
movej(p[-0.478170338003997, 0.143794131809789, 0.436129256716787, -1.24132640257118, -1.2959203689723, 1.21979125324021], a = 0.2, v = 0.2, t = 0.2)
movej(p[-0.477728769007469, 0.143887681418165, 0.435762332517288, -1.22620435198836, -1.26676153757923, 1.25855998736976], a = 0.2, v = 0.2, t = 0.2)
movej(p[-0.475881083267038, 0.143927813980177, 0.435504147733705, -1.21520346544497, -1.24925622769225, 1.29566131668325], a = 0.2, v = 0.2, t = 0.2)
movej(p[-0.473298867204419, 0.143885786706834, 0.435466999969966, -1.21866893983738, -1.25895130725204, 1.31466741592276], a = 0.2, v = 0.2, t = 0.2)
movej(p[-0.470884672382135, 0.143761407173558, 0.435785305352198, -1.22477360174898, -1.30186291083604, 1.30276091707384], a = 0.2, v = 0.2, t = 0.2)
movej(p[-0.468754563027513, 0.1436627123961, 0.436498706398771, -1.22431025455157, -1.3328988641931, 1.29231399813115], a = 0.2, v = 0.2, t = 0.2)
movej(p[-0.467300606851485, 0.143665073500495, 0.437294486328072, -1.23971850868081, -1.34779058409704, 1.28778824402432], a = 0.2, v = 0.2, t = 0.2)
movej(p[-0.466854524396014, 0.143599560727872, 0.438024669236625, -1.25744031540234, -1.34509624910047, 1.27984104313283], a = 0.2, v = 0.2, t = 0.2)
movej(p[-0.467897938103186, 0.143592998859625, 0.438351725586463, -1.30320934277504, -1.35316084700182, 1.25923037988298], a = 0.2, v = 0.2, t = 0.2)
movej(p[-0.469897298071862, 0.143761349718746, 0.438103779010494, -1.3345066560144, -1.34601622833025, 1.24457582456879], a = 0.2, v = 0.2, t = 0.2)
movej(p[-0.472152453366197, 0.143808473873045, 0.437757714629491, -1.34245335249552, -1.33142960984047, 1.22745350349871], a = 0.2, v = 0.2, t = 0.2)
movej(p[-0.474058660842124, 0.143887161870716, 0.43757726447754, -1.32908169794854, -1.30136825008855, 1.23207266924379], a = 0.2, v = 0.2, t = 0.2)
movej(p[-0.47552458876472, 0.143728809476968, 0.437660235296194, -1.32005256241689, -1.27713387996289, 1.24687477794443], a = 0.2, v = 0.2, t = 0.2)
movej(p[-0.476641188760501, 0.143843529824742, 0.437168259368196, -1.30223770555002, -1.28563735524229, 1.24171731634106], a = 0.2, v = 0.2, t = 0.2)
movej(p[-0.477586680093255, 0.143847494854982, 0.436688169868391, -1.2766784250523, -1.28413141552966, 1.24683468105542], a = 0.2, v = 0.2, t = 0.2)
movej(p[-0.477993520966532, 0.143952401182111, 0.436146013012528, -1.24005359917287, -1.28305261949399, 1.23510141479912], a = 0.2, v = 0.2, t = 0.2)
movej(p[-0.477551874204091, 0.143748383420728, 0.435883632712456, -1.22788770759228, -1.28704540901323, 1.2390082196157], a = 0.2, v = 0.2, t = 0.2)
movej(p[-0.475879337629347, 0.143745808125211, 0.435738857552645, -1.23686176024581, -1.29992857417374, 1.24682866045957], a = 0.2, v = 0.2, t = 0.2)
movej(p[-0.473390791815638, 0.143754129028659, 0.435664209900066, -1.24016811316038, -1.30897560317484, 1.27687423095456], a = 0.2, v = 0.2, t = 0.2)
movej(p[-0.470404297752991, 0.143963175257996, 0.436210267076018, -1.25860676532182, -1.30211860640472, 1.3075133166607], a = 0.2, v = 0.2, t = 0.2)
movej(p[-0.46725560845279, 0.144013298742791, 0.436959486344812, -1.2683742732342, -1.32168683043597, 1.31102381482631], a = 0.2, v = 0.2, t = 0.2)
movej(p[-0.464481649336557, 0.143954793099909, 0.438200174205404, -1.28336604768753, -1.34689910303608, 1.30116688879702], a = 0.2, v = 0.2, t = 0.2)
movej(p[-0.462704412133707, 0.1438925716968, 0.439029832284313, -1.29250020480695, -1.37875120368046, 1.28869626350888], a = 0.2, v = 0.2, t = 0.2)
movej(p[-0.462645458342532, 0.143869048806911, 0.439930624759502, -1.3133555488941, -1.39479525799982, 1.28969119073088], a = 0.2, v = 0.2, t = 0.2)
movej(p[-0.464273605806715, 0.143957842532125, 0.439874757938053, -1.3256341027479, -1.39537079189896, 1.27606589745847], a = 0.2, v = 0.2, t = 0.2)
movej(p[-0.466796281192525, 0.143975548379115, 0.439611594943574, -1.321783363113, -1.38838578138149, 1.25817190041117], a = 0.2, v = 0.2, t = 0.2)
movej(p[-0.469477445249981, 0.143988685125138, 0.438871682718262, -1.32184463925843, -1.36355214930124, 1.23731302794369], a = 0.2, v = 0.2, t = 0.2)
movej(p[-0.471662654212699, 0.143990964101817, 0.438300330832009, -1.30795762842999, -1.35089085896482, 1.22719524179358], a = 0.2, v = 0.2, t = 0.2)
movej(p[-0.473416574166202, 0.143984732987621, 0.437933035563842, -1.29298235855992, -1.32202709607133, 1.22793933753169], a = 0.2, v = 0.2, t = 0.2)
movej(p[-0.474746154814264, 0.144042408973647, 0.437641012617935, -1.31260623978135, -1.31981392312214, 1.23670015496106], a = 0.2, v = 0.2, t = 0.2)
movej(p[-0.47572176254225, 0.144028004046002, 0.437553509808538, -1.32539963802233, -1.3029109227171, 1.24110836389458], a = 0.2, v = 0.2, t = 0.2)
movej(p[-0.476670297447118, 0.143953875952905, 0.43727827516871, -1.31498230668807, -1.30719554407898, 1.23320859118527], a = 0.2, v = 0.2, t = 0.2)
movej(p[-0.477466560164706, 0.143858054030191, 0.436915373262257, -1.3055936742149, -1.29669791317375, 1.22092188923575], a = 0.2, v = 0.2, t = 0.2)
movej(p[-0.478001888641316, 0.143745111833293, 0.436511520919946, -1.30529921890521, -1.29231081881434, 1.22047251909673], a = 0.2, v = 0.2, t = 0.2)
movej(p[-0.477679927177281, 0.14362295173166, 0.435905532233793, -1.30245603116073, -1.30232283540022, 1.23716323043491], a = 0.2, v = 0.2, t = 0.2)
movej(p[-0.476214588993248, 0.143639824258933, 0.435600628920693, -1.2477116088783, -1.29315051764816, 1.26386526735139], a = 0.2, v = 0.2, t = 0.2)
movej(p[-0.473976372270023, 0.143575871100048, 0.435365062781695, -1.19416626949593, -1.29647789272067, 1.28872189712613], a = 0.2, v = 0.2, t = 0.2)
movej(p[-0.471490602600954, 0.143613887939975, 0.435710417396492, -1.19301697753292, -1.3013489526599, 1.30343062023989], a = 0.2, v = 0.2, t = 0.2)
movej(p[-0.469156011153263, 0.143567360438319, 0.436576404526028, -1.20555968188783, -1.32170053679052, 1.31189562922986], a = 0.2, v = 0.2, t = 0.2)
movej(p[-0.467036048638862, 0.143708001494764, 0.437633505141476, -1.23902347501235, -1.33814129166546, 1.32040864930658], a = 0.2, v = 0.2, t = 0.2)
movej(p[-0.465999354487815, 0.143927368858202, 0.438552490791604, -1.27220453852639, -1.34182474616708, 1.3210823078937], a = 0.2, v = 0.2, t = 0.2)
movej(p[-0.466281177380026, 0.14398879325117, 0.438880761033167, -1.30127846123342, -1.34925916684123, 1.30201863484306], a = 0.2, v = 0.2, t = 0.2)
movej(p[-0.467948283676295, 0.143949211538546, 0.438501589901325, -1.30840523694606, -1.36620950150839, 1.26360629273031], a = 0.2, v = 0.2, t = 0.2)
movej(p[-0.470156996250598, 0.143874457627573, 0.438126419259302, -1.29255386662219, -1.36832653757775, 1.23911673858181], a = 0.2, v = 0.2, t = 0.2)
movej(p[-0.472229884158573, 0.143952753448053, 0.437558476056098, -1.29469699489265, -1.34552989954432, 1.23399107457056], a = 0.2, v = 0.2, t = 0.2)
movej(p[-0.473878151033353, 0.14395098528649, 0.437198695534101, -1.29286745649284, -1.32250845820592, 1.23104816827176], a = 0.2, v = 0.2, t = 0.2)
movej(p[-0.475133280134304, 0.144005756650682, 0.437048399107959, -1.31018589650802, -1.29227541152923, 1.23835153820244], a = 0.2, v = 0.2, t = 0.2)
movej(p[-0.476179194239061, 0.143918278512065, 0.436781714123881, -1.29772940155198, -1.29232204050139, 1.22599959761287], a = 0.2, v = 0.2, t = 0.2)
movej(p[-0.477094233619627, 0.144009038118965, 0.436528024475159, -1.30063924948282, -1.29308832473564, 1.21616856184195], a = 0.2, v = 0.2, t = 0.2)
movej(p[-0.477768464182622, 0.143957007716887, 0.436023654062085, -1.27816390257424, -1.31205833318258, 1.19657315885313], a = 0.2, v = 0.2, t = 0.2)
movej(p[-0.478210372188029, 0.143957343409366, 0.43586406409477, -1.2883669986254, -1.30488298679543, 1.20320882107264], a = 0.2, v = 0.2, t = 0.2)
movej(p[-0.477831959777523, 0.143780998630186, 0.435602677621264, -1.26472175000109, -1.28688254847502, 1.23283207452897], a = 0.2, v = 0.2, t = 0.2)
movej(p[-0.476642678970667, 0.143716126790874, 0.435417604229045, -1.22643083246132, -1.26499215652407, 1.26392220454099], a = 0.2, v = 0.2, t = 0.2)
movej(p[-0.474507360623564, 0.143778256978994, 0.435150745459936, -1.21749677394046, -1.25805471201069, 1.29730073414186], a = 0.2, v = 0.2, t = 0.2)
movej(p[-0.472034084690108, 0.143845961172327, 0.435567774434459, -1.22586635382383, -1.2689563982525, 1.30829459044569], a = 0.2, v = 0.2, t = 0.2)
movej(p[-0.469606168471289, 0.143813497715443, 0.436166192958095, -1.26012221405082, -1.2992233385038, 1.29734479665972], a = 0.2, v = 0.2, t = 0.2)
movej(p[-0.467351484817366, 0.143670452317433, 0.436927108640513, -1.26379915326868, -1.33201232669721, 1.28528562705109], a = 0.2, v = 0.2, t = 0.2)
movej(p[-0.466185625767602, 0.143560325611077, 0.43768614142474, -1.27898196954786, -1.3662421558685, 1.27396607322997], a = 0.2, v = 0.2, t = 0.2)
movej(p[-0.466462818288824, 0.14365110192656, 0.438374809165836, -1.30801663886731, -1.38090151842845, 1.26770086610178], a = 0.2, v = 0.2, t = 0.2)
movej(p[-0.468232677058744, 0.143662226541371, 0.438777970051192, -1.3181992160294, -1.3906280508982, 1.23594329567907], a = 0.2, v = 0.2, t = 0.2)
movej(p[-0.470319942095775, 0.143804089064202, 0.438593270425497, -1.32377743252644, -1.37311619545648, 1.22625333637901], a = 0.2, v = 0.2, t = 0.2)
movej(p[-0.472272869064641, 0.14387713842085, 0.438364225420362, -1.3154428909713, -1.34630560512412, 1.22709322926128], a = 0.2, v = 0.2, t = 0.2)
movej(p[-0.473915039315113, 0.143962295919779, 0.438061931519591, -1.3217313237978, -1.32169442441971, 1.23989378010715], a = 0.2, v = 0.2, t = 0.2)
movej(p[-0.475231758537674, 0.143962408008711, 0.437608535956782, -1.30022378991472, -1.31074067252124, 1.24401749272104], a = 0.2, v = 0.2, t = 0.2)
movej(p[-0.476125069443046, 0.143995067615852, 0.437144154221133, -1.28871338494478, -1.30434749273546, 1.25099093511873], a = 0.2, v = 0.2, t = 0.2)
movej(p[-0.476776683534437, 0.144039793074261, 0.436504458002783, -1.27678231415144, -1.30524418547257, 1.24540962846307], a = 0.2, v = 0.2, t = 0.2)
movej(p[-0.477372714837935, 0.144026836127311, 0.436236227954363, -1.28771066105738, -1.31032224284906, 1.21958667364175], a = 0.2, v = 0.2, t = 0.2)
movej(p[-0.478015966849254, 0.143955939413973, 0.435822951941422, -1.28138311422152, -1.32033798901787, 1.19961004734109], a = 0.2, v = 0.2, t = 0.2)
movej(p[-0.478659441318554, 0.143834124083142, 0.435453776892247, -1.28395903181829, -1.30848378873851, 1.20739857749285], a = 0.2, v = 0.2, t = 0.2)
movej(p[-0.478458050085227, 0.143797035060819, 0.435095169533061, -1.28619648799222, -1.28374011653523, 1.23625766133286], a = 0.2, v = 0.2, t = 0.2)
movej(p[-0.477104428769573, 0.143802788763927, 0.434868123417245, -1.3038175379451, -1.25647869067605, 1.26282339360031], a = 0.2, v = 0.2, t = 0.2)
movej(p[-0.474820696233864, 0.143796973170839, 0.434841392792126, -1.26206246410243, -1.25393332731523, 1.27994832342866], a = 0.2, v = 0.2, t = 0.2)
movej(p[-0.472205394191466, 0.143728973516603, 0.43530381813362, -1.2259229253806, -1.274894933153, 1.30495284287668], a = 0.2, v = 0.2, t = 0.2)
movej(p[-0.469794743708907, 0.143677736131276, 0.436129611606048, -1.18437301685509, -1.30578322924064, 1.30977742419326], a = 0.2, v = 0.2, t = 0.2)
movej(p[-0.467317279455176, 0.143684731558295, 0.437119494353542, -1.21603458868093, -1.33089155206591, 1.32078244881655], a = 0.2, v = 0.2, t = 0.2)
movej(p[-0.465595911255826, 0.143749417152659, 0.437837674216911, -1.22619065541618, -1.36686867555828, 1.28268800249657], a = 0.2, v = 0.2, t = 0.2)
movej(p[-0.465193883495716, 0.14368017463021, 0.438466452701582, -1.29010993569778, -1.39001291479328, 1.24817471117244], a = 0.2, v = 0.2, t = 0.2)
movej(p[-0.466529590563795, 0.143624130666283, 0.438433110254284, -1.31604741491715, -1.39468503437864, 1.21122300574604], a = 0.2, v = 0.2, t = 0.2)
movej(p[-0.468975877191971, 0.143696521582503, 0.438363955513615, -1.357905316014, -1.37483596886607, 1.20746231697446], a = 0.2, v = 0.2, t = 0.2)
movej(p[-0.471440856132009, 0.143788613126333, 0.438033313554809, -1.33203364187556, -1.35005535418066, 1.20355501244283], a = 0.2, v = 0.2, t = 0.2)
movej(p[-0.47344596088167, 0.14392246938073, 0.437825602007116, -1.33070833396081, -1.33430242270049, 1.21150942346108], a = 0.2, v = 0.2, t = 0.2)
movej(p[-0.474893975843821, 0.143966323982177, 0.437515333454213, -1.32017044110847, -1.31521763354975, 1.21180555309817], a = 0.2, v = 0.2, t = 0.2)
movej(p[-0.475944073697903, 0.143904554721921, 0.437124447613796, -1.29259376932575, -1.30569732994901, 1.21711154840982], a = 0.2, v = 0.2, t = 0.2)
movej(p[-0.476881391236119, 0.143847297257072, 0.436629771079409, -1.27399423617008, -1.29587937336209, 1.21647275719706], a = 0.2, v = 0.2, t = 0.2)
movej(p[-0.477700606326816, 0.143794595652657, 0.436198782102095, -1.26272868796543, -1.28342978114153, 1.23037733911201], a = 0.2, v = 0.2, t = 0.2)
movej(p[-0.478478673667939, 0.143843630352313, 0.435911034964824, -1.31729222420206, -1.26506549733198, 1.24413228250561], a = 0.2, v = 0.2, t = 0.2)
movej(p[-0.479084734300227, 0.143770348560483, 0.435888018679791, -1.31952266891544, -1.25296828304596, 1.24728688282308], a = 0.2, v = 0.2, t = 0.2)
movej(p[-0.479251360148713, 0.143750850788162, 0.435730093601381, -1.27804726708564, -1.24926691815902, 1.25093354337719], a = 0.2, v = 0.2, t = 0.2)
movej(p[-0.478529756788168, 0.143754650811622, 0.435468289045514, -1.20326906448815, -1.2488365587375, 1.26743358404755], a = 0.2, v = 0.2, t = 0.2)
movej(p[-0.476838556425864, 0.14380681020583, 0.435227956786675, -1.1767338426084, -1.24186391456031, 1.29218918428687], a = 0.2, v = 0.2, t = 0.2)
movej(p[-0.474506846460157, 0.143743038635246, 0.435440653276318, -1.18619182976479, -1.26164206264975, 1.30524721594445], a = 0.2, v = 0.2, t = 0.2)
movej(p[-0.472149517499351, 0.143703463040337, 0.435762282201219, -1.22878682865879, -1.27536238979229, 1.31334872376446], a = 0.2, v = 0.2, t = 0.2)
movej(p[-0.470155111032026, 0.143696573830692, 0.436409429140133, -1.26039392085396, -1.29659998795073, 1.31717532676928], a = 0.2, v = 0.2, t = 0.2)
movej(p[-0.468848587752938, 0.143758883129209, 0.436842094216846, -1.30292124434446, -1.30096101224157, 1.31319258053071], a = 0.2, v = 0.2, t = 0.2)
movej(p[-0.468654782159672, 0.143860809161136, 0.437637316885665, -1.32484023548571, -1.31996361380969, 1.30261289082586], a = 0.2, v = 0.2, t = 0.2)
movej(p[-0.469563568867192, 0.143773457825308, 0.437738427123792, -1.31829440747662, -1.33745205793576, 1.25512257928593], a = 0.2, v = 0.2, t = 0.2)
movej(p[-0.471226837663916, 0.143836553270623, 0.437468992025554, -1.31080541135419, -1.33040332864649, 1.23016282112455], a = 0.2, v = 0.2, t = 0.2)
movej(p[-0.472990992900124, 0.143783325183803, 0.436624256731256, -1.31276823870163, -1.33139255898655, 1.20957911193784], a = 0.2, v = 0.2, t = 0.2)
movej(p[-0.474574283213194, 0.14397931975919, 0.436131880710458, -1.29809950451142, -1.31710082879879, 1.21598224518951], a = 0.2, v = 0.2, t = 0.2)
movej(p[-0.475853890425164, 0.143909712939979, 0.435731617801614, -1.29344409419463, -1.31235009589072, 1.23026221898407], a = 0.2, v = 0.2, t = 0.2)
movej(p[-0.476932662155096, 0.144020507104577, 0.435578882928751, -1.28068061642343, -1.30419714240862, 1.22883191554962], a = 0.2, v = 0.2, t = 0.2)
movej(p[-0.477811872770076, 0.143970822724929, 0.435705606750215, -1.31674221384099, -1.28778915997655, 1.24272986675914], a = 0.2, v = 0.2, t = 0.2)
movej(p[-0.478533342106372, 0.143916613099493, 0.435730290108872, -1.29608162404412, -1.29431657603506, 1.23378934713558], a = 0.2, v = 0.2, t = 0.2)
movej(p[-0.47881801219644, 0.143911914321416, 0.435774159675829, -1.25955620849688, -1.27761142752474, 1.25586000537947], a = 0.2, v = 0.2, t = 0.2)
movej(p[-0.478040710507933, 0.143905143299539, 0.435289504085944, -1.21845410491085, -1.2742131798968, 1.27451895563381], a = 0.2, v = 0.2, t = 0.2)
movej(p[-0.476138238218559, 0.143952418949071, 0.43518911422229, -1.21958472614554, -1.26478897196377, 1.30495198734003], a = 0.2, v = 0.2, t = 0.2)
movej(p[-0.473559473683057, 0.143960363784348, 0.435271972655977, -1.25090508797203, -1.28236605724891, 1.30908346155968], a = 0.2, v = 0.2, t = 0.2)
movej(p[-0.471132680341264, 0.143879310775814, 0.435916898677575, -1.25127920771751, -1.29212340633492, 1.32528677904392], a = 0.2, v = 0.2, t = 0.2)
movej(p[-0.4689634817618, 0.143869141393887, 0.436806934049985, -1.274887692139, -1.31111049535813, 1.31712665022477], a = 0.2, v = 0.2, t = 0.2)
movej(p[-0.467190986390129, 0.14382313715251, 0.437507328297532, -1.27439202496693, -1.33046108508574, 1.31267232053961], a = 0.2, v = 0.2, t = 0.2)
movej(p[-0.466353042452803, 0.143847557528575, 0.438057571692068, -1.28206193935835, -1.35833154753046, 1.29129067563055], a = 0.2, v = 0.2, t = 0.2)
movej(p[-0.466619453518983, 0.143888617811179, 0.438223959487922, -1.2513478957535, -1.37971928522947, 1.2602630746689], a = 0.2, v = 0.2, t = 0.2)
movej(p[-0.468270949311936, 0.143780790286074, 0.438168694302801, -1.26606093797404, -1.36348562524814, 1.24816307722897], a = 0.2, v = 0.2, t = 0.2)
movej(p[-0.470458723817099, 0.143776188047519, 0.43764088022716, -1.29417342197545, -1.34670203884296, 1.23163713521359], a = 0.2, v = 0.2, t = 0.2)
movej(p[-0.472591529920649, 0.143774882336915, 0.437390664681349, -1.31126880311635, -1.33457413115019, 1.23830422814087], a = 0.2, v = 0.2, t = 0.2)
movej(p[-0.474143790754406, 0.143878921100966, 0.437056535231051, -1.29949948010362, -1.32454433736879, 1.2333411343885], a = 0.2, v = 0.2, t = 0.2)
movej(p[-0.475271016241616, 0.143954133243328, 0.436904648119596, -1.27951816694794, -1.31994451846114, 1.22845370826549], a = 0.2, v = 0.2, t = 0.2)
movej(p[-0.476227864510782, 0.144003743846192, 0.43638935807867, -1.27931617232569, -1.31228999666598, 1.21159780064914], a = 0.2, v = 0.2, t = 0.2)
movej(p[-0.477142367951453, 0.144075436220178, 0.436015976730163, -1.28965596734542, -1.31229394204617, 1.20059964161364], a = 0.2, v = 0.2, t = 0.2)
movej(p[-0.477986160646572, 0.144043796873861, 0.435597803689988, -1.28269871020038, -1.31462727965476, 1.19312106478875], a = 0.2, v = 0.2, t = 0.2)
movej(p[-0.478698560366293, 0.143979122351463, 0.435294957399778, -1.27130406255654, -1.30268003818276, 1.20434727450801], a = 0.2, v = 0.2, t = 0.2)
movej(p[-0.478664649564372, 0.143870617866451, 0.435017308015401, -1.23373387899345, -1.29343959841597, 1.22348349973884], a = 0.2, v = 0.2, t = 0.2)
movej(p[-0.477653872998124, 0.143858213157305, 0.434664571936703, -1.20432166006399, -1.26174405299963, 1.25556024387234], a = 0.2, v = 0.2, t = 0.2)
movej(p[-0.475578642004327, 0.143916657842651, 0.434571762758061, -1.18351126044423, -1.23836440917464, 1.29991563319203], a = 0.2, v = 0.2, t = 0.2)
movej(p[-0.47290767883811, 0.14391269730193, 0.434782813298044, -1.18639615069822, -1.23898519201135, 1.31931841962631], a = 0.2, v = 0.2, t = 0.2)
movej(p[-0.470177256761926, 0.14392814131759, 0.435545089387703, -1.21748224433997, -1.26269598066733, 1.32800512076584], a = 0.2, v = 0.2, t = 0.2)
movej(p[-0.467623309556902, 0.143796030979748, 0.436391898624774, -1.24855685478273, -1.31785727194358, 1.30613578558344], a = 0.2, v = 0.2, t = 0.2)
movej(p[-0.465805238891394, 0.143885695084277, 0.437503440493386, -1.28395514903874, -1.34085860116902, 1.31284420551782], a = 0.2, v = 0.2, t = 0.2)
movej(p[-0.465332376390127, 0.143890192842036, 0.438169209627148, -1.29122925523747, -1.35537221278412, 1.29196419245804], a = 0.2, v = 0.2, t = 0.2)
movej(p[-0.466404346732721, 0.143959411194174, 0.438586532748591, -1.29011211341493, -1.33307559739386, 1.27746449057092], a = 0.2, v = 0.2, t = 0.2)
movej(p[-0.468579508306292, 0.143919738208505, 0.438305298241541, -1.28229260318194, -1.32593651582212, 1.24420758011255], a = 0.2, v = 0.2, t = 0.2)
movej(p[-0.470937948758255, 0.143883270386359, 0.438144202008436, -1.26784249069068, -1.32608706667261, 1.23769418368701], a = 0.2, v = 0.2, t = 0.2)
movej(p[-0.473084327903609, 0.143976528605198, 0.437735904917818, -1.28558903676373, -1.33374353977781, 1.21549281376352], a = 0.2, v = 0.2, t = 0.2)
movej(p[-0.474767993249692, 0.143941386817689, 0.437537763226925, -1.31325225782379, -1.31876058043088, 1.22565242989997], a = 0.2, v = 0.2, t = 0.2)
movej(p[-0.476064490243162, 0.143973596901179, 0.437029241465301, -1.34002751728137, -1.30517940671415, 1.22126911095538], a = 0.2, v = 0.2, t = 0.2)
movej(p[-0.477065599537772, 0.143837925048514, 0.436784897426006, -1.35502270888565, -1.27678641222365, 1.24437117090288], a = 0.2, v = 0.2, t = 0.2)
movej(p[-0.477960829546732, 0.14387811751355, 0.436427969434793, -1.31263729370294, -1.27123573890241, 1.25067023579285], a = 0.2, v = 0.2, t = 0.2)
movej(p[-0.478829148592188, 0.14389641284727, 0.436115848720706, -1.27292433131993, -1.26615192157655, 1.24184222532832], a = 0.2, v = 0.2, t = 0.2)
movej(p[-0.479522007689998, 0.143917897691408, 0.435869543630108, -1.2437202658315, -1.2830275430799, 1.22393390931399], a = 0.2, v = 0.2, t = 0.2)
movej(p[-0.479424622883026, 0.14384530832035, 0.43561431401764, -1.22162313322787, -1.28984134469004, 1.22566793807497], a = 0.2, v = 0.2, t = 0.2)
movej(p[-0.47805672635439, 0.143726391608154, 0.435474976088115, -1.24158942072735, -1.27951566026649, 1.25148639935962], a = 0.2, v = 0.2, t = 0.2)
movej(p[-0.475711472397489, 0.143764501129665, 0.435123518265733, -1.2382169454503, -1.28474982524767, 1.28824349014534], a = 0.2, v = 0.2, t = 0.2)
movej(p[-0.472805700834283, 0.143861803141046, 0.435046973566107, -1.22824350230602, -1.31044172292337, 1.29549185580864], a = 0.2, v = 0.2, t = 0.2)
movej(p[-0.469944944795137, 0.143852793989267, 0.435672051925097, -1.20025815339778, -1.33923868741337, 1.2972165454338], a = 0.2, v = 0.2, t = 0.2)
movej(p[-0.467232561893886, 0.143857321030255, 0.436635352948386, -1.20913857397609, -1.33828922390719, 1.31197837869002], a = 0.2, v = 0.2, t = 0.2)
movej(p[-0.464986117912794, 0.143861954586847, 0.437705302678053, -1.2690350910025, -1.35569412129965, 1.30258026423565], a = 0.2, v = 0.2, t = 0.2)
movej(p[-0.464094004277875, 0.143983418315687, 0.438524320179312, -1.3256072731176, -1.36973342481794, 1.30235786273833], a = 0.2, v = 0.2, t = 0.2)
movej(p[-0.464832863453356, 0.144081952910561, 0.438856092530209, -1.34689729865295, -1.37160179025334, 1.2906440085743], a = 0.2, v = 0.2, t = 0.2)
movej(p[-0.467081951362976, 0.143993683670218, 0.439062371446752, -1.33491256936532, -1.35520038812811, 1.28932685833052], a = 0.2, v = 0.2, t = 0.2)
movej(p[-0.469657085441611, 0.143929409703774, 0.438788436886696, -1.33387429911052, -1.33166191377706, 1.28765830133264], a = 0.2, v = 0.2, t = 0.2)
movej(p[-0.471994569424561, 0.143946810617352, 0.438302736251675, -1.32116278805178, -1.30891738742125, 1.28443737009543], a = 0.2, v = 0.2, t = 0.2)
movej(p[-0.473967942141991, 0.143849384515258, 0.437750580428798, -1.31658739251005, -1.27980843741073, 1.26733834982282], a = 0.2, v = 0.2, t = 0.2)
movej(p[-0.475547917831217, 0.143787534453897, 0.437051332029541, -1.28905133005897, -1.2858737406417, 1.22579744012155], a = 0.2, v = 0.2, t = 0.2)
movej(p[-0.476833661301765, 0.143692077325589, 0.436779504718372, -1.28292339906596, -1.29188746388711, 1.20170055680961], a = 0.2, v = 0.2, t = 0.2)
movej(p[-0.477848964796591, 0.143764764410508, 0.436524532946051, -1.2727779567006, -1.29715022331348, 1.2031856415799], a = 0.2, v = 0.2, t = 0.2)
movej(p[-0.478808401876638, 0.143862006092363, 0.436514282051403, -1.28431546071943, -1.29335274477637, 1.21161059455373], a = 0.2, v = 0.2, t = 0.2)
movej(p[-0.479273787337729, 0.14382768369573, 0.436113765527781, -1.27459499565434, -1.2720767559669, 1.24023761550449], a = 0.2, v = 0.2, t = 0.2)
movej(p[-0.478885199792838, 0.143858661931236, 0.43563286895628, -1.23496523880294, -1.27883588980109, 1.2440879163658], a = 0.2, v = 0.2, t = 0.2)
movej(p[-0.477181656138624, 0.143817481656221, 0.435270356194111, -1.22123945100887, -1.26070679239763, 1.27468226808306], a = 0.2, v = 0.2, t = 0.2)
movej(p[-0.474487625144478, 0.143929498878375, 0.435083732902627, -1.21435852240558, -1.26565618570367, 1.30157531156574], a = 0.2, v = 0.2, t = 0.2)
movej(p[-0.471628154686537, 0.143961371475537, 0.435487932677131, -1.26133513262844, -1.26546600223177, 1.32682982121771], a = 0.2, v = 0.2, t = 0.2)
movej(p[-0.468958269787521, 0.143945499630197, 0.436465575315795, -1.25416361302222, -1.28644746119618, 1.33540349425056], a = 0.2, v = 0.2, t = 0.2)
movej(p[-0.466832593661798, 0.143792276054952, 0.437445484728454, -1.27625999605323, -1.33210955310752, 1.29950317575891], a = 0.2, v = 0.2, t = 0.2)
movej(p[-0.465524223319677, 0.143736322031569, 0.438146999653974, -1.2880369968826, -1.36963584289357, 1.25472965776423], a = 0.2, v = 0.2, t = 0.2)
movej(p[-0.465883545717786, 0.143776970680429, 0.438350986134073, -1.34117755331868, -1.39511542790058, 1.23155486808404], a = 0.2, v = 0.2, t = 0.2)
movej(p[-0.467639325469567, 0.143818683751703, 0.438591371109727, -1.36064646017629, -1.38103905962469, 1.22984619877349], a = 0.2, v = 0.2, t = 0.2)
movej(p[-0.470019292882875, 0.143779658885186, 0.438498515881453, -1.36025691080263, -1.36383280395672, 1.23130367569314], a = 0.2, v = 0.2, t = 0.2)
movej(p[-0.472305132459296, 0.143726102015458, 0.438143091470658, -1.34395876871901, -1.34028579738809, 1.21615866060571], a = 0.2, v = 0.2, t = 0.2)
movej(p[-0.474193634529479, 0.143743158771325, 0.437550192508863, -1.31855862626809, -1.34176160210267, 1.20249240635974], a = 0.2, v = 0.2, t = 0.2)
movej(p[-0.475703271358085, 0.143956962849036, 0.43713551024234, -1.31613119082856, -1.32581303681365, 1.18963452459805], a = 0.2, v = 0.2, t = 0.2)
movej(p[-0.476888151958102, 0.143941267864984, 0.437098512489983, -1.3123038912324, -1.3095891583112, 1.20111114210966], a = 0.2, v = 0.2, t = 0.2)
movej(p[-0.477876775091806, 0.143928328083226, 0.436679847571398, -1.30612867947193, -1.2781578911251, 1.20831737826128], a = 0.2, v = 0.2, t = 0.2)
movej(p[-0.478654494211401, 0.143692586188193, 0.436580038355684, -1.28257039103849, -1.27652825180213, 1.219315498147], a = 0.2, v = 0.2, t = 0.2)
movej(p[-0.47881596667692, 0.143646866892907, 0.436070230019819, -1.25769426659075, -1.27303926009734, 1.23039496935769], a = 0.2, v = 0.2, t = 0.2)
movej(p[-0.477974721085065, 0.143721657942651, 0.436014951392285, -1.2437519656883, -1.27013486437251, 1.24776164266575], a = 0.2, v = 0.2, t = 0.2)
movej(p[-0.475925896767607, 0.143710026236417, 0.435778112527857, -1.23668189782862, -1.27242639964035, 1.27563937798581], a = 0.2, v = 0.2, t = 0.2)
movej(p[-0.47324832667048, 0.143778978945357, 0.435714409227305, -1.23310323501517, -1.28546779921565, 1.30107055182589], a = 0.2, v = 0.2, t = 0.2)
movej(p[-0.470499280738307, 0.143818181816166, 0.436055349919038, -1.22747275450254, -1.29319816163705, 1.3287211334869], a = 0.2, v = 0.2, t = 0.2)
movej(p[-0.468299495050267, 0.143980097523361, 0.436514819622516, -1.24330181851101, -1.3057618195163, 1.33474934374929], a = 0.2, v = 0.2, t = 0.2)
movej(p[-0.466858909057048, 0.144030955059878, 0.437076655726878, -1.27880989386755, -1.33050785309544, 1.30995689247893], a = 0.2, v = 0.2, t = 0.2)
movej(p[-0.466624569636506, 0.144008058784269, 0.437658713625273, -1.31996011569972, -1.35633721968014, 1.28690315370006], a = 0.2, v = 0.2, t = 0.2)
movej(p[-0.467637080101864, 0.143909121653338, 0.437919273528883, -1.33822630321041, -1.35712918141829, 1.25881126139511], a = 0.2, v = 0.2, t = 0.2)
movej(p[-0.469593917044099, 0.143880319211337, 0.437776306368873, -1.34692464917424, -1.33501258153534, 1.25055597665169], a = 0.2, v = 0.2, t = 0.2)
movej(p[-0.471918679651697, 0.143884646944915, 0.437297963761703, -1.34304973395462, -1.33286436597074, 1.2177211181238], a = 0.2, v = 0.2, t = 0.2)
movej(p[-0.473840350641051, 0.143903963991673, 0.436989060933485, -1.32677718893889, -1.31405054972112, 1.2206637096557], a = 0.2, v = 0.2, t = 0.2)
movej(p[-0.475357592379465, 0.14390155658503, 0.436591150723502, -1.30552434397422, -1.32360648185813, 1.19762478040677], a = 0.2, v = 0.2, t = 0.2)
movej(p[-0.476518551385487, 0.143844849252842, 0.436736826568146, -1.31033638216656, -1.29957486359691, 1.21834949839049], a = 0.2, v = 0.2, t = 0.2)
movej(p[-0.477429422500423, 0.143796957583728, 0.436610480938607, -1.31830705832355, -1.29400695709004, 1.21194475338964], a = 0.2, v = 0.2, t = 0.2)
movej(p[-0.478348834754566, 0.143777654013723, 0.436509186098085, -1.31544441729112, -1.28388994714687, 1.22212242780542], a = 0.2, v = 0.2, t = 0.2)
movej(p[-0.479015623338368, 0.143811154977473, 0.435900730992067, -1.30694465391235, -1.27967618424704, 1.22318498322394], a = 0.2, v = 0.2, t = 0.2)
movej(p[-0.479615941613948, 0.143811889263513, 0.435639310232125, -1.28158705248521, -1.27553443281097, 1.22088269724056], a = 0.2, v = 0.2, t = 0.2)
movej(p[-0.479696127521745, 0.143770460731394, 0.435614111084973, -1.29501216602993, -1.28271854973432, 1.2260674859555], a = 0.2, v = 0.2, t = 0.2)
movej(p[-0.479118718588637, 0.143768622215536, 0.435392987999959, -1.26961372768902, -1.28412247647908, 1.23718012055652], a = 0.2, v = 0.2, t = 0.2)
movej(p[-0.477497635916257, 0.143746407118101, 0.435085320352562, -1.26267770152622, -1.29525205670138, 1.24932648137257], a = 0.2, v = 0.2, t = 0.2)
movej(p[-0.475113552222478, 0.143803330130012, 0.435058185478817, -1.25046104952441, -1.29189135861351, 1.27432032050645], a = 0.2, v = 0.2, t = 0.2)
movej(p[-0.4725714135507, 0.143794549443408, 0.435715432877513, -1.27129094606686, -1.29444517784307, 1.2848803032373], a = 0.2, v = 0.2, t = 0.2)
movej(p[-0.470522003958843, 0.143713331032168, 0.436442894052195, -1.2855451041432, -1.30531788787012, 1.28971953994788], a = 0.2, v = 0.2, t = 0.2)
movej(p[-0.469586823612722, 0.143680782074161, 0.437112619835886, -1.31516184934427, -1.30902233920013, 1.27986834272903], a = 0.2, v = 0.2, t = 0.2)
movej(p[-0.469916570993476, 0.143680229050673, 0.437125875141258, -1.32101373187297, -1.3120333018563, 1.26261168675515], a = 0.2, v = 0.2, t = 0.2)
movej(p[-0.471524811889166, 0.143806071070061, 0.437241494853186, -1.33180060994719, -1.3313101776138, 1.23092878660988], a = 0.2, v = 0.2, t = 0.2)
movej(p[-0.473556306334991, 0.14371144879169, 0.436760603182312, -1.31742926245189, -1.33558226592514, 1.20157959331554], a = 0.2, v = 0.2, t = 0.2)
movej(p[-0.475578614287931, 0.143654816876041, 0.436356267517662, -1.23540907060993, -1.33835969734281, 1.19425912845481], a = 0.2, v = 0.2, t = 0.2)
movej(p[-0.477097165370151, 0.143672386776915, 0.436000785251339, -1.21985021742842, -1.31596083901892, 1.20080818679144], a = 0.2, v = 0.2, t = 0.2)
movej(p[-0.478304781546615, 0.143737442857634, 0.435978014708894, -1.24481019035779, -1.30161003292316, 1.20716704854822], a = 0.2, v = 0.2, t = 0.2)
movej(p[-0.479098909910547, 0.143773406685472, 0.435991357766508, -1.29759064196455, -1.28647286153919, 1.21100771122149], a = 0.2, v = 0.2, t = 0.2)
movej(p[-0.479638144936121, 0.14379857110892, 0.435802966117576, -1.33694638545993, -1.26785290691388, 1.23429723293318], a = 0.2, v = 0.2, t = 0.2)
movej(p[-0.480069016835144, 0.14401169822185, 0.43570954367506, -1.33163060116079, -1.25405795475861, 1.25533897642256], a = 0.2, v = 0.2, t = 0.2)
movej(p[-0.480339605062905, 0.144033194572739, 0.435552383095092, -1.3544746109381, -1.2528704879462, 1.25429003557294], a = 0.2, v = 0.2, t = 0.2)
movej(p[-0.479930104914737, 0.143970146793974, 0.435511238639294, -1.35095720709462, -1.2651585185612, 1.26001577389821], a = 0.2, v = 0.2, t = 0.2)
movej(p[-0.478566750601626, 0.143814447001253, 0.435090465867994, -1.34107416204182, -1.28103591746283, 1.25402422352307], a = 0.2, v = 0.2, t = 0.2)
movej(p[-0.47602430962637, 0.143705569171055, 0.434801207513693, -1.31214664007934, -1.28496907472752, 1.26583047800933], a = 0.2, v = 0.2, t = 0.2)
movej(p[-0.473083094602061, 0.14378618525068, 0.434607841108693, -1.26437205080437, -1.30546921652789, 1.25776586328352], a = 0.2, v = 0.2, t = 0.2)
movej(p[-0.46994025066356, 0.143856366339631, 0.435243318045002, -1.22642979924065, -1.3160706204649, 1.28092642698286], a = 0.2, v = 0.2, t = 0.2)
movej(p[-0.467026508614656, 0.143988058621759, 0.436373874079332, -1.21377814001969, -1.34784848921775, 1.2941772409668], a = 0.2, v = 0.2, t = 0.2)
movej(p[-0.464812812575725, 0.143933990324133, 0.437455407064652, -1.25095961197227, -1.36577877034641, 1.28994021856118], a = 0.2, v = 0.2, t = 0.2)
movej(p[-0.464134689963206, 0.143914910728677, 0.438233606066082, -1.31277410954653, -1.38524188772732, 1.26457282836705], a = 0.2, v = 0.2, t = 0.2)
movej(p[-0.465138591867165, 0.143925991410896, 0.438504339193179, -1.34372915063967, -1.38312984476318, 1.24471737566749], a = 0.2, v = 0.2, t = 0.2)
movej(p[-0.467218852758493, 0.144031769515901, 0.438699406439889, -1.3599757798131, -1.37352479239048, 1.23509283553553], a = 0.2, v = 0.2, t = 0.2)
movej(p[-0.46963457578084, 0.14407557379389, 0.438406644966231, -1.34257293002266, -1.35180403860411, 1.23993186214771], a = 0.2, v = 0.2, t = 0.2)
movej(p[-0.471923561195176, 0.144067549104024, 0.438135267468626, -1.37128011409768, -1.32260140575283, 1.23945998720212], a = 0.2, v = 0.2, t = 0.2)
movej(p[-0.473879307588032, 0.144028960685152, 0.437671204833994, -1.35414292720677, -1.30393596449111, 1.2364643262397], a = 0.2, v = 0.2, t = 0.2)
movej(p[-0.47543433468766, 0.14401398592144, 0.437321881290022, -1.33837372832823, -1.30184955274991, 1.21616214303898], a = 0.2, v = 0.2, t = 0.2)
movej(p[-0.47669083943108, 0.144157284536381, 0.436961819899259, -1.29098799805369, -1.28723072204601, 1.22938764301601], a = 0.2, v = 0.2, t = 0.2)
movej(p[-0.477588872367915, 0.144005927844305, 0.436555258185587, -1.28832724155003, -1.27124246696631, 1.23426817529803], a = 0.2, v = 0.2, t = 0.2)
movej(p[-0.478329536950131, 0.143971045384423, 0.436499087955544, -1.27562782040181, -1.24758638539449, 1.24456104161879], a = 0.2, v = 0.2, t = 0.2)
movej(p[-0.478268612687534, 0.143755744338598, 0.436191804131053, -1.2570508038532, -1.25662706571629, 1.24732298495121], a = 0.2, v = 0.2, t = 0.2)
movej(p[-0.476782976808728, 0.143915037116672, 0.435946905562339, -1.231393276174, -1.24245114802706, 1.27220607008935], a = 0.2, v = 0.2, t = 0.2)
movej(p[-0.474234951811856, 0.143912718916891, 0.435422184929175, -1.21594429126956, -1.22538622839289, 1.31056895162092], a = 0.2, v = 0.2, t = 0.2)
movej(p[-0.471087296946965, 0.143944254361722, 0.435462177919119, -1.22587588865705, -1.24711548251904, 1.31201909598132], a = 0.2, v = 0.2, t = 0.2)
movej(p[-0.468215508156696, 0.143882599068327, 0.436224585770005, -1.25512049187727, -1.29408031930141, 1.30434119277775], a = 0.2, v = 0.2, t = 0.2)
movej(p[-0.465715678919542, 0.14391191824998, 0.437281888538706, -1.26957930286371, -1.35081708205786, 1.28194386070476], a = 0.2, v = 0.2, t = 0.2)
movej(p[-0.464144791763997, 0.144072330170573, 0.438397835384518, -1.27801588270522, -1.35345203996183, 1.29490547713538], a = 0.2, v = 0.2, t = 0.2)
movej(p[-0.464150303156086, 0.144203143030103, 0.43905739197287, -1.27859716272338, -1.36275057435224, 1.27349566583237], a = 0.2, v = 0.2, t = 0.2)
movej(p[-0.465992469171779, 0.14432914767555, 0.439016281005337, -1.29619241396214, -1.36745041086787, 1.25439852811242], a = 0.2, v = 0.2, t = 0.2)
movej(p[-0.468851557593413, 0.144275655638132, 0.438789932085066, -1.31693778152365, -1.35657221295135, 1.22331779392733], a = 0.2, v = 0.2, t = 0.2)
movej(p[-0.471615762413413, 0.144218004228033, 0.438254191057979, -1.32773876069287, -1.3385625341111, 1.21662195568466], a = 0.2, v = 0.2, t = 0.2)
movej(p[-0.473680565154008, 0.144095391941764, 0.438114727628406, -1.33197068861616, -1.32142407939151, 1.22708608723246], a = 0.2, v = 0.2, t = 0.2)
movej(p[-0.475306374718717, 0.144089563354027, 0.437749692416726, -1.31073917424074, -1.32725048203774, 1.21462344055972], a = 0.2, v = 0.2, t = 0.2)
movej(p[-0.476605710399179, 0.144150509366183, 0.437315189832751, -1.28593647405971, -1.30164000235878, 1.23956701078272], a = 0.2, v = 0.2, t = 0.2)
movej(p[-0.47764873526488, 0.144157869068122, 0.436735752276826, -1.23006775961818, -1.29440288753923, 1.21402949902395], a = 0.2, v = 0.2, t = 0.2)
movej(p[-0.478493018327959, 0.144055333249793, 0.43633427330433, -1.24862370120018, -1.28376901714529, 1.21370725500419], a = 0.2, v = 0.2, t = 0.2)
movej(p[-0.478614619515305, 0.143882635165543, 0.436084127581734, -1.20567427689453, -1.28020292543468, 1.23110721509388], a = 0.2, v = 0.2, t = 0.2)
movej(p[-0.477510249073898, 0.143798304456073, 0.436005501369898, -1.21672314841179, -1.28032293222559, 1.26550903709278], a = 0.2, v = 0.2, t = 0.2)
movej(p[-0.474960276336469, 0.143802143178289, 0.435723283027688, -1.16270717281897, -1.29741973596355, 1.29863830266796], a = 0.2, v = 0.2, t = 0.2)
movej(p[-0.471694751692896, 0.143756840327439, 0.43578658175063, -1.20088576528539, -1.33952957315759, 1.29005004217427], a = 0.2, v = 0.2, t = 0.2)
movej(p[-0.468469290812171, 0.143719128827853, 0.436486140373843, -1.21734102572382, -1.34697189579821, 1.30873242583965], a = 0.2, v = 0.2, t = 0.2)
movej(p[-0.465541295404692, 0.143646842096478, 0.437654181392107, -1.25246321918405, -1.35023826462456, 1.32558922732144], a = 0.2, v = 0.2, t = 0.2)
movej(p[-0.46376588880125, 0.143735594703618, 0.43888713663346, -1.2826026734075, -1.37829600451306, 1.30017716304913], a = 0.2, v = 0.2, t = 0.2)
movej(p[-0.463580152842439, 0.143888161042149, 0.439491766793518, -1.31761043666329, -1.4033066478885, 1.26242329488075], a = 0.2, v = 0.2, t = 0.2)
movej(p[-0.465059903370601, 0.143980216115625, 0.439759931807368, -1.36838258491435, -1.41023771471026, 1.21916205273616], a = 0.2, v = 0.2, t = 0.2)
movej(p[-0.467717453362398, 0.143969617779018, 0.439645497013348, -1.37804321155212, -1.37604171227381, 1.22382331162192], a = 0.2, v = 0.2, t = 0.2)
movej(p[-0.470343238778622, 0.143959196714567, 0.439130575643632, -1.36342000985772, -1.32760539140131, 1.24075341342825], a = 0.2, v = 0.2, t = 0.2)
movej(p[-0.47255350341826, 0.144009528536249, 0.438674626169577, -1.36100723083925, -1.29824545368236, 1.26725170402365], a = 0.2, v = 0.2, t = 0.2)
movej(p[-0.47418870344064, 0.144075270452417, 0.438221107223373, -1.33236088583963, -1.27980577783608, 1.27255957643763], a = 0.2, v = 0.2, t = 0.2)
movej(p[-0.475518243243173, 0.14401849818409, 0.437998374985409, -1.30790260122654, -1.27897006603051, 1.261521534965], a = 0.2, v = 0.2, t = 0.2)
movej(p[-0.476654864090387, 0.143960130724893, 0.437916001245743, -1.29955790809926, -1.27037044530268, 1.24406554986662], a = 0.2, v = 0.2, t = 0.2)
movej(p[-0.477470612502117, 0.143810591071695, 0.437683404427662, -1.29304677433673, -1.26185982362456, 1.23746276603564], a = 0.2, v = 0.2, t = 0.2)
movej(p[-0.477998786498507, 0.143838721605167, 0.43737116521628, -1.31917032279886, -1.26681398407675, 1.23252163189356], a = 0.2, v = 0.2, t = 0.2)
movej(p[-0.477572321805541, 0.143871129679334, 0.436675191492076, -1.25361297476084, -1.26646632363879, 1.25332531164958], a = 0.2, v = 0.2, t = 0.2)
movej(p[-0.476183219369032, 0.14397063639264, 0.436442033646416, -1.20479994129561, -1.25323852888609, 1.28899030982669], a = 0.2, v = 0.2, t = 0.2)
movej(p[-0.473805374621388, 0.14410479723091, 0.436246695873379, -1.18157106031312, -1.2348662617661, 1.32832025447754], a = 0.2, v = 0.2, t = 0.2)
movej(p[-0.471010216033218, 0.143915911622726, 0.436902341513188, -1.19615836040675, -1.25299667696953, 1.34125976793868], a = 0.2, v = 0.2, t = 0.2)
movej(p[-0.468093361239557, 0.143907723030588, 0.437727854787731, -1.2406066572717, -1.29657027145745, 1.32264126260225], a = 0.2, v = 0.2, t = 0.2)
movej(p[-0.465356493206526, 0.143749454563133, 0.438718528643402, -1.25453945312006, -1.34548316953483, 1.31988141721694], a = 0.2, v = 0.2, t = 0.2)
movej(p[-0.463482414161241, 0.143868003624242, 0.439616550066439, -1.26993132076177, -1.38832854502482, 1.28026120668577], a = 0.2, v = 0.2, t = 0.2)
movej(p[-0.462876631220513, 0.144042964043734, 0.440296980555126, -1.26875667267824, -1.40363714120293, 1.27136140043139], a = 0.2, v = 0.2, t = 0.2)
movej(p[-0.464073199271604, 0.144200705254922, 0.440720785941812, -1.30772423018859, -1.41715107975434, 1.22635861115387], a = 0.2, v = 0.2, t = 0.2)
movej(p[-0.466347544827014, 0.144187129576473, 0.440674599506287, -1.32662064196001, -1.39754153171696, 1.22344878741861], a = 0.2, v = 0.2, t = 0.2)
movej(p[-0.469011815315809, 0.144091486279999, 0.440312295345571, -1.33660269171446, -1.36034690603308, 1.22198921200261], a = 0.2, v = 0.2, t = 0.2)
movej(p[-0.471485537040958, 0.144049412103768, 0.439935377840643, -1.31032735498307, -1.33816258723473, 1.21923697218715], a = 0.2, v = 0.2, t = 0.2)
movej(p[-0.473364617752787, 0.14406721930337, 0.439327439407383, -1.30877202024434, -1.32602605797022, 1.21923189316473], a = 0.2, v = 0.2, t = 0.2)
movej(p[-0.47483730934675, 0.144041739622599, 0.438754690989628, -1.30606181436185, -1.33229007733805, 1.2095687873218], a = 0.2, v = 0.2, t = 0.2)
movej(p[-0.475928930970188, 0.143905115619368, 0.438382580985618, -1.30123120720522, -1.31608195991188, 1.21460150049457], a = 0.2, v = 0.2, t = 0.2)
movej(p[-0.476792658932144, 0.1439064414571, 0.438211764252572, -1.3010041789081, -1.28472932441309, 1.23407058696168], a = 0.2, v = 0.2, t = 0.2)
movej(p[-0.477542261705154, 0.143925367882396, 0.437884171690505, -1.28167355783262, -1.26723785006564, 1.25495090226084], a = 0.2, v = 0.2, t = 0.2)
movej(p[-0.477395464984176, 0.143959469818418, 0.43744190684647, -1.25650983798424, -1.2511140076754, 1.27110328006616], a = 0.2, v = 0.2, t = 0.2)
movej(p[-0.476185646267962, 0.143908336930284, 0.43699606897891, -1.20936475273923, -1.26339918964522, 1.28223382949795], a = 0.2, v = 0.2, t = 0.2)
movej(p[-0.473554229259555, 0.143808747625425, 0.437226252562868, -1.19631781914484, -1.27656945124744, 1.28898308912908], a = 0.2, v = 0.2, t = 0.2)
movej(p[-0.470519204740396, 0.143774550147992, 0.437659495069928, -1.21010809223025, -1.299167446918, 1.30209607959729], a = 0.2, v = 0.2, t = 0.2)
movej(p[-0.467665902891852, 0.143935877862338, 0.438507908247068, -1.2300457659236, -1.32642508287091, 1.30787819781202], a = 0.2, v = 0.2, t = 0.2)
movej(p[-0.465147049773441, 0.143993276096442, 0.439458303400428, -1.24842722773086, -1.35124909725842, 1.31268206420793], a = 0.2, v = 0.2, t = 0.2)
movej(p[-0.463641246552494, 0.144046836141264, 0.44043816385676, -1.25351565424678, -1.37526116696066, 1.29790660147443], a = 0.2, v = 0.2, t = 0.2)
movej(p[-0.46353781808675, 0.14403847292564, 0.441067694341803, -1.28151437840151, -1.37069403699686, 1.28342834900711], a = 0.2, v = 0.2, t = 0.2)
movej(p[-0.465119183675804, 0.1440716515804, 0.440992372929692, -1.31557252790916, -1.36706708219686, 1.24391334443959], a = 0.2, v = 0.2, t = 0.2)
movej(p[-0.467609467843707, 0.144084938822733, 0.440460146450379, -1.32590105143971, -1.35631058316819, 1.22815854718239], a = 0.2, v = 0.2, t = 0.2)
movej(p[-0.470119724125809, 0.144039538421406, 0.439973160983832, -1.33152189372672, -1.34745294119464, 1.21965654833252], a = 0.2, v = 0.2, t = 0.2)
movej(p[-0.47224641399512, 0.143948522724989, 0.439703726138136, -1.32165034935831, -1.34140300489108, 1.21729317264166], a = 0.2, v = 0.2, t = 0.2)
movej(p[-0.473962112674501, 0.143943129396003, 0.439523757905179, -1.31831053091105, -1.31518853894787, 1.22904785089425], a = 0.2, v = 0.2, t = 0.2)
movej(p[-0.475255026919217, 0.143815494803106, 0.439321899087423, -1.30273379144326, -1.31855266945831, 1.21377139871784], a = 0.2, v = 0.2, t = 0.2)
movej(p[-0.476444890117253, 0.143872887196108, 0.438967305939708, -1.28131107218299, -1.30588055692923, 1.22000832909753], a = 0.2, v = 0.2, t = 0.2)
movej(p[-0.47731894589779, 0.143831742882529, 0.438822816563384, -1.25367455212988, -1.28855778426708, 1.22573911686328], a = 0.2, v = 0.2, t = 0.2)
movej(p[-0.477229055111894, 0.143882525156343, 0.438518807817166, -1.24724473154286, -1.28827809977496, 1.24248845385303], a = 0.2, v = 0.2, t = 0.2)
movej(p[-0.476094975974953, 0.143868864206034, 0.438214801759181, -1.23666790314456, -1.28535280738585, 1.27337837742071], a = 0.2, v = 0.2, t = 0.2)
movej(p[-0.47364221116639, 0.143930675026144, 0.438118820823072, -1.25329834491745, -1.29313661777753, 1.29208341654432], a = 0.2, v = 0.2, t = 0.2)
movej(p[-0.470934286676331, 0.14391855874383, 0.438378201276347, -1.25467215760904, -1.28669136690955, 1.32453203184445], a = 0.2, v = 0.2, t = 0.2)
movej(p[-0.468047636659097, 0.143866904431185, 0.439270956230359, -1.23849056828952, -1.29732795826156, 1.32918055496497], a = 0.2, v = 0.2, t = 0.2)
movej(p[-0.46555124772508, 0.143813272118686, 0.440368319371103, -1.23617077256115, -1.33868820896134, 1.32962822364291], a = 0.2, v = 0.2, t = 0.2)
movej(p[-0.463573270736971, 0.143861222937378, 0.441280047801284, -1.2489926253511, -1.36663177315111, 1.3123521452063], a = 0.2, v = 0.2, t = 0.2)
movej(p[-0.462789026379702, 0.144038304071892, 0.44172383610655, -1.30476881899024, -1.38243730573052, 1.29724950392315], a = 0.2, v = 0.2, t = 0.2)
movej(p[-0.463729592279862, 0.144114199539223, 0.441784897599291, -1.33079086965416, -1.3791620879448, 1.26518251976546], a = 0.2, v = 0.2, t = 0.2)
movej(p[-0.465813743135862, 0.144245403859751, 0.441565411111115, -1.35438455305214, -1.3667873089584, 1.24925487713109], a = 0.2, v = 0.2, t = 0.2)
movej(p[-0.468475248765921, 0.144192593708703, 0.441013921465668, -1.33221754830831, -1.35203491317513, 1.22422944095475], a = 0.2, v = 0.2, t = 0.2)
movej(p[-0.470998414155558, 0.144132144087309, 0.440560210165046, -1.31722070171492, -1.33327799061054, 1.22103127126049], a = 0.2, v = 0.2, t = 0.2)
movej(p[-0.472948725521933, 0.144033631036468, 0.439998452668878, -1.30074930871334, -1.33730335588237, 1.2097731927895], a = 0.2, v = 0.2, t = 0.2)
movej(p[-0.474297889360342, 0.144026528484843, 0.439755464605613, -1.28558376332418, -1.31734017514276, 1.22077314148908], a = 0.2, v = 0.2, t = 0.2)
movej(p[-0.475394247656499, 0.144053681019902, 0.439314104028772, -1.26639344235912, -1.31096598641396, 1.22142108778692], a = 0.2, v = 0.2, t = 0.2)
movej(p[-0.476361509833854, 0.144038451448404, 0.439110145326986, -1.22890755543717, -1.29639620913308, 1.21449467123376], a = 0.2, v = 0.2, t = 0.2)
movej(p[-0.476884166729347, 0.144073415172501, 0.438740153319753, -1.19607337993144, -1.31015576748565, 1.21453919839367], a = 0.2, v = 0.2, t = 0.2)
movej(p[-0.476419223945415, 0.144004633354025, 0.438537110113718, -1.18731588889802, -1.30434936563394, 1.22288127312339], a = 0.2, v = 0.2, t = 0.2)
movej(p[-0.475095563380095, 0.144011617391789, 0.438300994548301, -1.17577275479707, -1.30497961275506, 1.25259985545499], a = 0.2, v = 0.2, t = 0.2)
movej(p[-0.473263376327272, 0.143998021093786, 0.438122597851446, -1.20937526726236, -1.29539996423823, 1.27946338708402], a = 0.2, v = 0.2, t = 0.2)
movej(p[-0.471178461463187, 0.144005634488196, 0.438377666947662, -1.23987664310401, -1.30595763817392, 1.30542388977747], a = 0.2, v = 0.2, t = 0.2)
movej(p[-0.468890792757988, 0.143953583612591, 0.438832069040637, -1.28133527656949, -1.28862355363268, 1.33559917905332], a = 0.2, v = 0.2, t = 0.2)
movej(p[-0.466539437573537, 0.143846926986588, 0.439598957146872, -1.28996244986998, -1.30546794898628, 1.3440328874563], a = 0.2, v = 0.2, t = 0.2)
movej(p[-0.464311583258833, 0.143928770150153, 0.440407701767586, -1.28380189400867, -1.32857446500756, 1.33345773462022], a = 0.2, v = 0.2, t = 0.2)
movej(p[-0.463027561874042, 0.144039876318646, 0.441423099574714, -1.30902902394059, -1.37534033050343, 1.2988748076291], a = 0.2, v = 0.2, t = 0.2)
movej(p[-0.462856197574748, 0.144226363450752, 0.441989026309007, -1.3055074356544, -1.39160612125531, 1.27947522758668], a = 0.2, v = 0.2, t = 0.2)
movej(p[-0.464170898232806, 0.144277481874581, 0.442084992102581, -1.31787098088594, -1.40389361219093, 1.2542498365259], a = 0.2, v = 0.2, t = 0.2)
movej(p[-0.466461415384358, 0.144257660206034, 0.4417016956617, -1.30956950157553, -1.3850729156043, 1.24209768741095], a = 0.2, v = 0.2, t = 0.2)
movej(p[-0.468927719719714, 0.144141197804877, 0.441340302254844, -1.3031318405785, -1.36540094950924, 1.23031124944494], a = 0.2, v = 0.2, t = 0.2)
movej(p[-0.471333974591603, 0.144099305503986, 0.440764732895828, -1.30187191027309, -1.34429809888029, 1.21972574285842], a = 0.2, v = 0.2, t = 0.2)
movej(p[-0.473135359908171, 0.144097680475517, 0.440502117863061, -1.31168193665756, -1.3244642651782, 1.22573072092385], a = 0.2, v = 0.2, t = 0.2)
movej(p[-0.474545377549477, 0.144091409952068, 0.440177693266826, -1.31274033048244, -1.318923887825, 1.22866767545974], a = 0.2, v = 0.2, t = 0.2)
movej(p[-0.47566621839574, 0.143972156427555, 0.439907715099119, -1.28828201278368, -1.30556521371277, 1.24005957585433], a = 0.2, v = 0.2, t = 0.2)
movej(p[-0.476620144806465, 0.1439395922752, 0.439355554604604, -1.22963250580955, -1.30156062891729, 1.24185381955444], a = 0.2, v = 0.2, t = 0.2)
movej(p[-0.476476661759517, 0.144052907560634, 0.438696735438424, -1.20652348385005, -1.29948150136596, 1.25350014681851], a = 0.2, v = 0.2, t = 0.2)
movej(p[-0.474750553199698, 0.144134530231768, 0.438354387099191, -1.20194829103921, -1.29231862870259, 1.29816250855276], a = 0.2, v = 0.2, t = 0.2)
movej(p[-0.471721211140349, 0.144103475422115, 0.438515325451544, -1.22452184307022, -1.30510510506556, 1.31864096870261], a = 0.2, v = 0.2, t = 0.2)
movej(p[-0.468603420112372, 0.144004074843994, 0.438997821262652, -1.24665957347869, -1.31533606818421, 1.33124478790017], a = 0.2, v = 0.2, t = 0.2)
movej(p[-0.465665455596775, 0.143940411441934, 0.439843783501394, -1.25199120393264, -1.34383650585034, 1.31390882875792], a = 0.2, v = 0.2, t = 0.2)
