def moving():
set_payload_mass(0)
set_tcp(p[0,0,0,0,0,0])
movej(p[0.4339, -0.0884, 0.4357, -1.182, 1.181, -1.268], a = 0.2, v = 0.2, t = 0.2)
movej(p[0.433984988877822, -0.0882629887784285, 0.435556851647547, -1.18140172469709, 1.18308905991682, -1.27635810002198], a = 0.2, v = 0.2, t = 0.2)
movej(p[0.434249164465409, -0.0882159343738562, 0.435432643459276, -1.18499718493034, 1.1864495817789, -1.28035177777881], a = 0.2, v = 0.2, t = 0.2)
movej(p[0.434278921152932, -0.0882148362938273, 0.435345214837716, -1.18341530774474, 1.18926887835124, -1.27825025018348], a = 0.2, v = 0.2, t = 0.2)
movej(p[0.434263601706846, -0.0883660221924721, 0.435375308500945, -1.18768018243987, 1.18967527347594, -1.28332532038983], a = 0.2, v = 0.2, t = 0.2)
movej(p[0.43420615605485, -0.088391209260502, 0.435330579554033, -1.18440064510591, 1.19120241104533, -1.28395295846501], a = 0.2, v = 0.2, t = 0.2)
movej(p[0.43407899211179, -0.0883592956041624, 0.435190491201379, -1.18472183929477, 1.18991949846346, -1.287544479168], a = 0.2, v = 0.2, t = 0.2)
movej(p[0.433600393454681, -0.0884406211340316, 0.435081509688703, -1.17737554099448, 1.18914387559174, -1.28096167168443], a = 0.2, v = 0.2, t = 0.2)
movej(p[0.432706161837096, -0.0884983824687508, 0.435004302612743, -1.1728937999418, 1.18516962426997, -1.29448660449315], a = 0.2, v = 0.2, t = 0.2)
movej(p[0.431763747710766, -0.0883326462533512, 0.434891301508412, -1.17217256113896, 1.17898259105704, -1.30442535115812], a = 0.2, v = 0.2, t = 0.2)
movej(p[0.430816206274245, -0.0880059453378225, 0.43483300137214, -1.17340250788404, 1.17025875769093, -1.31615722701583], a = 0.2, v = 0.2, t = 0.2)
movej(p[0.429965906916584, -0.087862599042338, 0.434913137102205, -1.16642959483296, 1.16317904231034, -1.30387525423622], a = 0.2, v = 0.2, t = 0.2)
movej(p[0.429444447156559, -0.087701015282112, 0.434985877454868, -1.16457522078035, 1.15456549369325, -1.30968843652636], a = 0.2, v = 0.2, t = 0.2)
movej(p[0.429630108456859, -0.0875498923936235, 0.434996080549782, -1.17091359604914, 1.14808178893153, -1.31100269443067], a = 0.2, v = 0.2, t = 0.2)
movej(p[0.430521202809605, -0.0875384372054945, 0.435071681695077, -1.17745396921385, 1.14580871067659, -1.31220339350324], a = 0.2, v = 0.2, t = 0.2)
movej(p[0.431612107026466, -0.0876260749821832, 0.435191483163059, -1.17891206650899, 1.14970565689034, -1.30747153130314], a = 0.2, v = 0.2, t = 0.2)
movej(p[0.432790540202958, -0.0876142227724567, 0.435212503017218, -1.18010411237217, 1.15980066927891, -1.3064643063543], a = 0.2, v = 0.2, t = 0.2)
movej(p[0.433708707186838, -0.0876182790109203, 0.435170217715505, -1.18152523007502, 1.17150714773522, -1.3004486978967], a = 0.2, v = 0.2, t = 0.2)
movej(p[0.434216029235, -0.0877840172453106, 0.435177541315078, -1.1883982998997, 1.1805044953094, -1.2963429980472], a = 0.2, v = 0.2, t = 0.2)
movej(p[0.434273149551318, -0.0879637105085646, 0.435159725670132, -1.18669595796538, 1.18506839942075, -1.29392425702072], a = 0.2, v = 0.2, t = 0.2)
movej(p[0.434222139245903, -0.088007989768175, 0.435061549728018, -1.18467704066443, 1.1878641673643, -1.28992715270582], a = 0.2, v = 0.2, t = 0.2)
movej(p[0.433895214976776, -0.0881128397396384, 0.434968213994431, -1.17782288550494, 1.18698251164499, -1.28386407400673], a = 0.2, v = 0.2, t = 0.2)
movej(p[0.433192506233234, -0.0882555355147732, 0.434965046482153, -1.17559495365701, 1.18587112088507, -1.28916522140665], a = 0.2, v = 0.2, t = 0.2)
movej(p[0.432267747562026, -0.0882558904184686, 0.434884024059522, -1.17462645726493, 1.17954498055251, -1.30409868616104], a = 0.2, v = 0.2, t = 0.2)
movej(p[0.431240049351367, -0.0880303620082574, 0.434823205966035, -1.17516406353482, 1.17271488159677, -1.31493778382441], a = 0.2, v = 0.2, t = 0.2)
movej(p[0.430396608588256, -0.087905038624819, 0.434882060814488, -1.172206251272, 1.16444463682379, -1.31085137395206], a = 0.2, v = 0.2, t = 0.2)
movej(p[0.429646837558452, -0.087743781941529, 0.434989034694766, -1.17494763325952, 1.15485886106235, -1.31747745057699], a = 0.2, v = 0.2, t = 0.2)
movej(p[0.429502101646384, -0.0875988352356903, 0.435016307603015, -1.17808748022591, 1.14765153148517, -1.31805675150655], a = 0.2, v = 0.2, t = 0.2)
movej(p[0.429929700099125, -0.0874918304758455, 0.435005430292477, -1.17780320207116, 1.14527419887318, -1.31403111334858], a = 0.2, v = 0.2, t = 0.2)
movej(p[0.430898891476892, -0.0876130447951081, 0.435106447682406, -1.17942688744561, 1.14726865709484, -1.3095994995122], a = 0.2, v = 0.2, t = 0.2)
movej(p[0.432074332552174, -0.087663732648939, 0.435148257204206, -1.17818188215823, 1.15511186588205, -1.30713252090437], a = 0.2, v = 0.2, t = 0.2)
movej(p[0.433172619106973, -0.0876580149009153, 0.435136042884524, -1.18734204726407, 1.16390630784078, -1.30798303023639], a = 0.2, v = 0.2, t = 0.2)
movej(p[0.433831758918207, -0.0877690674178433, 0.435144067498586, -1.18243648608689, 1.17655090929099, -1.29135553147312], a = 0.2, v = 0.2, t = 0.2)
movej(p[0.434052688972506, -0.0879054711125581, 0.435169321285936, -1.18706567797505, 1.18169789639499, -1.29515509467872], a = 0.2, v = 0.2, t = 0.2)
movej(p[0.434090181453298, -0.0879817993856026, 0.435100192198584, -1.18893632205157, 1.1839509670744, -1.29726398080479], a = 0.2, v = 0.2, t = 0.2)
movej(p[0.433979305409674, -0.0880144253970595, 0.434986016050346, -1.19128675407294, 1.18289327227405, -1.30009248615207], a = 0.2, v = 0.2, t = 0.2)
movej(p[0.433536203314349, -0.0882240452102851, 0.434945495212218, -1.1842424160054, 1.18141424697838, -1.29606929350385], a = 0.2, v = 0.2, t = 0.2)
movej(p[0.432793350335925, -0.088217036353101, 0.434838060189214, -1.17584701724812, 1.17817418049876, -1.30182511842374], a = 0.2, v = 0.2, t = 0.2)
movej(p[0.431859344729945, -0.0880654512512762, 0.434726318628902, -1.17219246524624, 1.1730206469866, -1.3108308799452], a = 0.2, v = 0.2, t = 0.2)
movej(p[0.430865242961124, -0.0878821365247951, 0.434711204632625, -1.16820645762325, 1.16773358366455, -1.30975443604886], a = 0.2, v = 0.2, t = 0.2)
movej(p[0.429962461386784, -0.0877746053042577, 0.434800774271682, -1.16667227652236, 1.16154771658622, -1.31223262626944], a = 0.2, v = 0.2, t = 0.2)
movej(p[0.429558805923646, -0.0875759966112055, 0.434838173344177, -1.17106225006281, 1.15399458684981, -1.31215125687017], a = 0.2, v = 0.2, t = 0.2)
movej(p[0.429654231797458, -0.0874913232543751, 0.434899927746047, -1.17873633126447, 1.14658063041556, -1.31494634860487], a = 0.2, v = 0.2, t = 0.2)
movej(p[0.430174415163734, -0.0875617261594364, 0.435040314315593, -1.1793455257653, 1.14556816595214, -1.30799129447823], a = 0.2, v = 0.2, t = 0.2)
movej(p[0.431176950357266, -0.0876411588755961, 0.435139595130625, -1.18292834441541, 1.14949560203645, -1.30951830602615], a = 0.2, v = 0.2, t = 0.2)
movej(p[0.432385420916796, -0.0876877492152291, 0.435196820428361, -1.18184185683887, 1.16074470960875, -1.29933165549944], a = 0.2, v = 0.2, t = 0.2)
movej(p[0.433407999966127, -0.0878299804031334, 0.435243860428973, -1.18423168916316, 1.17132922274379, -1.28946541476671], a = 0.2, v = 0.2, t = 0.2)
movej(p[0.433842349244948, -0.0880064812408037, 0.435303209256374, -1.18155648092206, 1.17936277943439, -1.28213876931016], a = 0.2, v = 0.2, t = 0.2)
movej(p[0.434052115167563, -0.0881004638443536, 0.435275620545552, -1.17795551107714, 1.18581548712319, -1.27516091485381], a = 0.2, v = 0.2, t = 0.2)
movej(p[0.434084051504634, -0.0882265629562598, 0.435239804810867, -1.17597713483719, 1.18780623784475, -1.27271886065998], a = 0.2, v = 0.2, t = 0.2)
movej(p[0.433845494128388, -0.0883952848119204, 0.435185722340195, -1.17036510753373, 1.18894055237412, -1.27105949121348], a = 0.2, v = 0.2, t = 0.2)
movej(p[0.433266273532503, -0.0884448890536489, 0.435045034036452, -1.17556482976319, 1.18293461071754, -1.29071969749813], a = 0.2, v = 0.2, t = 0.2)
movej(p[0.432321704079003, -0.0883439104069681, 0.434879166501569, -1.17345009626836, 1.17798469917544, -1.29751330043281], a = 0.2, v = 0.2, t = 0.2)
movej(p[0.4312873237595, -0.0882557876872931, 0.43486201342238, -1.17747684620652, 1.17100679469504, -1.30538832275044], a = 0.2, v = 0.2, t = 0.2)
movej(p[0.43027895701529, -0.0881158837948618, 0.434896188806148, -1.16908985133204, 1.16530030178302, -1.30251563192571], a = 0.2, v = 0.2, t = 0.2)
movej(p[0.429635153370538, -0.0878594721032846, 0.434878132809184, -1.16780107447018, 1.15915339628362, -1.30053896833022], a = 0.2, v = 0.2, t = 0.2)
movej(p[0.42949563164196, -0.0877288814304102, 0.434912802980985, -1.16578025791636, 1.15421778270774, -1.29313946227458], a = 0.2, v = 0.2, t = 0.2)
movej(p[0.429790691434643, -0.0877407909495084, 0.435051859734134, -1.170790657212, 1.15029026045588, -1.2938143711015], a = 0.2, v = 0.2, t = 0.2)
movej(p[0.43075274663192, -0.0877827764367749, 0.435182073863754, -1.17704229918527, 1.15101462925125, -1.29956477896167], a = 0.2, v = 0.2, t = 0.2)
movej(p[0.432031817816147, -0.0877842927129872, 0.435249938870092, -1.17849194038627, 1.15982077143584, -1.2926886525024], a = 0.2, v = 0.2, t = 0.2)
movej(p[0.433202291166615, -0.087910047194687, 0.435323693197268, -1.17982825358867, 1.17105883616852, -1.28034694015426], a = 0.2, v = 0.2, t = 0.2)
movej(p[0.433773933004172, -0.0880370263195437, 0.435359069625937, -1.17773632393918, 1.17994325384543, -1.27226190798303], a = 0.2, v = 0.2, t = 0.2)
movej(p[0.434036837880828, -0.0881287456954835, 0.435302063106069, -1.18008225239781, 1.1842439840707, -1.27271782092002], a = 0.2, v = 0.2, t = 0.2)
movej(p[0.434073790430197, -0.0882643757032251, 0.435255663348579, -1.17965114928743, 1.18558358935706, -1.27269245368792], a = 0.2, v = 0.2, t = 0.2)
movej(p[0.433824882596657, -0.0883854847478801, 0.435189746105288, -1.17777450017681, 1.18580694810203, -1.27962591690745], a = 0.2, v = 0.2, t = 0.2)
movej(p[0.433354280559022, -0.0884073155515018, 0.435053625414915, -1.17746859778421, 1.1825114490761, -1.29115122354916], a = 0.2, v = 0.2, t = 0.2)
movej(p[0.432501272653144, -0.0883056271107447, 0.434918163634222, -1.17367681305592, 1.1786008238385, -1.2965794400366], a = 0.2, v = 0.2, t = 0.2)
movej(p[0.4315043080717, -0.088308481012281, 0.434944531135447, -1.17048402807844, 1.17474055115439, -1.29588056882875], a = 0.2, v = 0.2, t = 0.2)
movej(p[0.430564251401685, -0.0881409953214299, 0.434975592995741, -1.16288876512404, 1.16886958419199, -1.29659274049668], a = 0.2, v = 0.2, t = 0.2)
movej(p[0.429957178294921, -0.0878693916389905, 0.434955165102331, -1.16702413948129, 1.16104620404425, -1.30171204206888], a = 0.2, v = 0.2, t = 0.2)
movej(p[0.429615967924283, -0.0877175433773155, 0.434953840981773, -1.16839908264654, 1.15344793381808, -1.3002533677233], a = 0.2, v = 0.2, t = 0.2)
movej(p[0.429712382101597, -0.0877434034469786, 0.435041909396712, -1.18050556914855, 1.14734259311219, -1.31332589653498], a = 0.2, v = 0.2, t = 0.2)
movej(p[0.430451733780801, -0.0877895605144373, 0.435139722053267, -1.18616245157061, 1.14811396501477, -1.31598021989377], a = 0.2, v = 0.2, t = 0.2)
movej(p[0.431696688688157, -0.087776789636928, 0.435186419147781, -1.18765269852467, 1.1553736067146, -1.30911007362997], a = 0.2, v = 0.2, t = 0.2)
movej(p[0.432885837897806, -0.0879256926026477, 0.435323416664878, -1.19013209067102, 1.16487190789044, -1.30021374327956], a = 0.2, v = 0.2, t = 0.2)
movej(p[0.433611571409109, -0.0880372212985451, 0.435334807413921, -1.18252094366254, 1.17527313039361, -1.28675370221641], a = 0.2, v = 0.2, t = 0.2)
movej(p[0.433989844976615, -0.088145817488164, 0.43530043910104, -1.185931456229, 1.18052408517003, -1.28599081971937], a = 0.2, v = 0.2, t = 0.2)
movej(p[0.434046629396966, -0.0882879995662973, 0.435259938166395, -1.18208616795303, 1.18468111555476, -1.27594254129682], a = 0.2, v = 0.2, t = 0.2)
movej(p[0.433849951329994, -0.0884286596804325, 0.435249484691921, -1.18954062302195, 1.18321713183689, -1.28943078785725], a = 0.2, v = 0.2, t = 0.2)
movej(p[0.433336841085386, -0.0884553469227192, 0.435096832693487, -1.19212933447423, 1.17991505964276, -1.30058773503145], a = 0.2, v = 0.2, t = 0.2)
movej(p[0.432501879007994, -0.0884036459821349, 0.434946333051774, -1.18872839487809, 1.17629109443959, -1.30589339994373], a = 0.2, v = 0.2, t = 0.2)
movej(p[0.431491936354184, -0.0883964452332457, 0.434908191420261, -1.17782974267276, 1.17307546117482, -1.30174574570566], a = 0.2, v = 0.2, t = 0.2)
movej(p[0.43058305823958, -0.0882007471374875, 0.434897278881265, -1.16751462065356, 1.16843838242242, -1.29901913562973], a = 0.2, v = 0.2, t = 0.2)
movej(p[0.429935038695542, -0.0879482132327189, 0.434883868512641, -1.1696490848071, 1.15909324233384, -1.30326288625417], a = 0.2, v = 0.2, t = 0.2)
movej(p[0.429573836469066, -0.0878476145935503, 0.434930285929481, -1.17057738937517, 1.15263805681315, -1.29666056367049], a = 0.2, v = 0.2, t = 0.2)
movej(p[0.429450468762398, -0.0878944132950646, 0.435037089756604, -1.1768362911304, 1.14563322287654, -1.30513221859327], a = 0.2, v = 0.2, t = 0.2)
movej(p[0.430109509953641, -0.0879355887211482, 0.43511813086366, -1.18397652034483, 1.14528954473305, -1.3069828221779], a = 0.2, v = 0.2, t = 0.2)
movej(p[0.431263282269507, -0.087940203752312, 0.435200020470002, -1.18915962057012, 1.14911040237594, -1.30911420592845], a = 0.2, v = 0.2, t = 0.2)
movej(p[0.432576466937682, -0.0880812811312088, 0.435339724372005, -1.18756998134743, 1.16050646600929, -1.29794335319773], a = 0.2, v = 0.2, t = 0.2)
movej(p[0.43351459705498, -0.0881313745804182, 0.435378499078501, -1.18647443612445, 1.17139497814182, -1.29186268913999], a = 0.2, v = 0.2, t = 0.2)
movej(p[0.43405897672901, -0.088248335720828, 0.435373997752375, -1.18317691919706, 1.18040167514548, -1.28061701743884], a = 0.2, v = 0.2, t = 0.2)
movej(p[0.434183664313208, -0.0883717284367908, 0.435368599656103, -1.18734625761914, 1.18430869887293, -1.28154245686672], a = 0.2, v = 0.2, t = 0.2)
movej(p[0.434104711416095, -0.0885078584479171, 0.435364285272229, -1.18691354031232, 1.18585279370839, -1.28278966060193], a = 0.2, v = 0.2, t = 0.2)
movej(p[0.433850575213292, -0.0885719815985983, 0.435258902252322, -1.18838402078837, 1.18493934059325, -1.28669067739018], a = 0.2, v = 0.2, t = 0.2)
movej(p[0.433219896055194, -0.088644298580974, 0.435132015637721, -1.18428690145914, 1.18145211506109, -1.28692849205865], a = 0.2, v = 0.2, t = 0.2)
movej(p[0.432198175294993, -0.0887278500969595, 0.4350581658019, -1.1736138065817, 1.1793124947618, -1.28643251002203], a = 0.2, v = 0.2, t = 0.2)
movej(p[0.431167971971836, -0.0885190310131727, 0.434967080972187, -1.16746303350835, 1.17310842682285, -1.29373760820007], a = 0.2, v = 0.2, t = 0.2)
movej(p[0.430288979151445, -0.0882214319327811, 0.434928964101244, -1.16608777616587, 1.16556639205175, -1.29757587654866], a = 0.2, v = 0.2, t = 0.2)
movej(p[0.429588575041906, -0.0880658609157794, 0.434979128650577, -1.16745416583383, 1.15742872685084, -1.29273999235027], a = 0.2, v = 0.2, t = 0.2)
movej(p[0.429289414022739, -0.0880018185250064, 0.435078403404645, -1.16994388440081, 1.15087565735538, -1.29823067102915], a = 0.2, v = 0.2, t = 0.2)
movej(p[0.429630804517403, -0.0879192544663753, 0.435136329144827, -1.17580398330193, 1.14777597162886, -1.29989573841929], a = 0.2, v = 0.2, t = 0.2)
movej(p[0.430734744306012, -0.0879133072406292, 0.435229444652295, -1.17756866892314, 1.15016056042362, -1.29819471824678], a = 0.2, v = 0.2, t = 0.2)
movej(p[0.4320314578067, -0.0879535467271251, 0.43533907586573, -1.17894357296759, 1.15924709358758, -1.29297242415713], a = 0.2, v = 0.2, t = 0.2)
movej(p[0.433168152428303, -0.0880032127340669, 0.435394844006951, -1.18376957825388, 1.16955874944075, -1.29173179147227], a = 0.2, v = 0.2, t = 0.2)
movej(p[0.433923370691348, -0.0880782736464916, 0.435410890417603, -1.18332179306745, 1.18137597279624, -1.27934979942652], a = 0.2, v = 0.2, t = 0.2)
movej(p[0.434250419413077, -0.0882988603387647, 0.435475885988693, -1.18801109331664, 1.18755206458569, -1.27428907852581], a = 0.2, v = 0.2, t = 0.2)
movej(p[0.434233224112035, -0.0884565687334383, 0.435447704248725, -1.17715241486761, 1.1920947033053, -1.2636833915981], a = 0.2, v = 0.2, t = 0.2)
movej(p[0.434193495959694, -0.0884833986582142, 0.435360690719472, -1.17645663451453, 1.19278935422966, -1.26439393489344], a = 0.2, v = 0.2, t = 0.2)
movej(p[0.433939664826058, -0.0885922308801517, 0.435279102757208, -1.17197805248986, 1.19150945071952, -1.25953804355735], a = 0.2, v = 0.2, t = 0.2)
movej(p[0.433362686401291, -0.0886647191480857, 0.435182391387843, -1.17046505997716, 1.18791008885594, -1.26931299165344], a = 0.2, v = 0.2, t = 0.2)
movej(p[0.432576935768625, -0.0886224273284046, 0.435050138175583, -1.17335307992326, 1.18175795380191, -1.28524034898406], a = 0.2, v = 0.2, t = 0.2)
movej(p[0.431574205035826, -0.0884555409308062, 0.434919080057075, -1.16921433076399, 1.17628634845929, -1.29086134714177], a = 0.2, v = 0.2, t = 0.2)
movej(p[0.430698195904722, -0.0883750635837019, 0.4350023093204, -1.17150464198571, 1.16947818266915, -1.29316808778629], a = 0.2, v = 0.2, t = 0.2)
movej(p[0.430025875039307, -0.0882112336663876, 0.435038612684176, -1.16667365872327, 1.16357196976492, -1.29424449323278], a = 0.2, v = 0.2, t = 0.2)
movej(p[0.429988189936292, -0.0880230057098581, 0.435066968006278, -1.17284231052328, 1.15711707023392, -1.29649959500514], a = 0.2, v = 0.2, t = 0.2)
movej(p[0.430496175511018, -0.0879680139295031, 0.435093934223371, -1.17034533429549, 1.15558582992288, -1.28816549439846], a = 0.2, v = 0.2, t = 0.2)
movej(p[0.43143934063457, -0.0880401575876256, 0.43524632898971, -1.17487774202602, 1.15880206442823, -1.28908936744301], a = 0.2, v = 0.2, t = 0.2)
movej(p[0.432585333931574, -0.0881001791875757, 0.435328632722675, -1.17935384779029, 1.16633666234936, -1.2873489823191], a = 0.2, v = 0.2, t = 0.2)
movej(p[0.433469193350049, -0.0881214611939785, 0.435374032933875, -1.18682587583093, 1.17571611409073, -1.28567330100448], a = 0.2, v = 0.2, t = 0.2)
movej(p[0.433980880616038, -0.0883524059676478, 0.43545323461676, -1.18752561695894, 1.18337550015264, -1.27687425680635], a = 0.2, v = 0.2, t = 0.2)
movej(p[0.434102783643745, -0.0884718753397666, 0.435425915068477, -1.1820028203597, 1.18984083548609, -1.27174415625157], a = 0.2, v = 0.2, t = 0.2)
movej(p[0.434168957737414, -0.0885115290641692, 0.435343664606934, -1.17957019775776, 1.19217858736123, -1.27136881823899], a = 0.2, v = 0.2, t = 0.2)
movej(p[0.434108303993211, -0.0885718512748534, 0.435270895279514, -1.17559753068962, 1.19306745102088, -1.26609419831639], a = 0.2, v = 0.2, t = 0.2)
movej(p[0.4338610599535, -0.0886847176795296, 0.43526542143962, -1.18581623670495, 1.18802889712166, -1.2824990474642], a = 0.2, v = 0.2, t = 0.2)
movej(p[0.433368071394309, -0.0886528776302237, 0.435132436222896, -1.18772653987538, 1.18375956478021, -1.29229682577259], a = 0.2, v = 0.2, t = 0.2)
movej(p[0.432594710531051, -0.0885546213766198, 0.435032921566648, -1.19264618057801, 1.17766698230977, -1.30700970633534], a = 0.2, v = 0.2, t = 0.2)
movej(p[0.43159636942431, -0.088541446106063, 0.435056379691803, -1.17620250985634, 1.17670230609519, -1.29407480274416], a = 0.2, v = 0.2, t = 0.2)
movej(p[0.430778047150589, -0.0883691495118935, 0.435084213724335, -1.17059837171028, 1.17111644688967, -1.29879999198215], a = 0.2, v = 0.2, t = 0.2)
movej(p[0.430293838666954, -0.0881133548139179, 0.43505128003188, -1.17183118743742, 1.16352829823255, -1.30202131143679], a = 0.2, v = 0.2, t = 0.2)
movej(p[0.430129166613578, -0.0879542304450318, 0.435064637253287, -1.17764886688379, 1.1558944951071, -1.30417100539352], a = 0.2, v = 0.2, t = 0.2)
movej(p[0.430245617471384, -0.0880272947497609, 0.43519667801211, -1.18179958036743, 1.1516309375799, -1.30640865066266], a = 0.2, v = 0.2, t = 0.2)
movej(p[0.430957322628456, -0.0880479877674483, 0.435247718761679, -1.18071306290699, 1.154392204523, -1.30092963763508], a = 0.2, v = 0.2, t = 0.2)
movej(p[0.432010318692331, -0.0880509539986619, 0.435281744221802, -1.17822461406742, 1.16153323320891, -1.29079269889955], a = 0.2, v = 0.2, t = 0.2)
movej(p[0.433043658597737, -0.0881337804188484, 0.435362178480138, -1.1779939184521, 1.17246307273786, -1.27789054098874], a = 0.2, v = 0.2, t = 0.2)
movej(p[0.433638023593793, -0.0882150487372439, 0.435403178843416, -1.17629220853578, 1.18117560098778, -1.2717339967603], a = 0.2, v = 0.2, t = 0.2)
movej(p[0.434011952247163, -0.08820317982029, 0.435322633457485, -1.17705345319605, 1.18779057138938, -1.26777762666571], a = 0.2, v = 0.2, t = 0.2)
movej(p[0.434139270925727, -0.0882832466947037, 0.435229602049957, -1.17323896854586, 1.18895805954752, -1.2612164592925], a = 0.2, v = 0.2, t = 0.2)
movej(p[0.434088574218291, -0.0883589663826735, 0.435166347523693, -1.17407460745784, 1.18928607652994, -1.26842002503135], a = 0.2, v = 0.2, t = 0.2)
movej(p[0.434038682185519, -0.0883535904739097, 0.435075544896711, -1.18047572758303, 1.18711610224713, -1.28436084925362], a = 0.2, v = 0.2, t = 0.2)
movej(p[0.433973885443226, -0.0882694936926108, 0.434952971606572, -1.18370230089305, 1.18644214418869, -1.29210924712046], a = 0.2, v = 0.2, t = 0.2)
movej(p[0.433799776063256, -0.0883829893020293, 0.434908438171558, -1.17981718353512, 1.18620816166077, -1.28517712896011], a = 0.2, v = 0.2, t = 0.2)
movej(p[0.433213105398387, -0.0884154147117552, 0.434826037571391, -1.17464788078682, 1.18237132944389, -1.29685112467666], a = 0.2, v = 0.2, t = 0.2)
movej(p[0.432599913393221, -0.0882700005517839, 0.434676113239398, -1.17338736218936, 1.17787678407612, -1.30665750208654], a = 0.2, v = 0.2, t = 0.2)
movej(p[0.431917980714777, -0.088009465332459, 0.434541249856072, -1.17619597004018, 1.17084946083976, -1.31968895924896], a = 0.2, v = 0.2, t = 0.2)
movej(p[0.431306804883418, -0.087956663754054, 0.434621398930806, -1.17578441678157, 1.16692141839011, -1.31858179460422], a = 0.2, v = 0.2, t = 0.2)
movej(p[0.430729440714999, -0.0877705931036498, 0.434634341190426, -1.17278122360447, 1.16053843216827, -1.32370373968464], a = 0.2, v = 0.2, t = 0.2)
movej(p[0.430481580161995, -0.0875137188437352, 0.434625173063147, -1.17486548983054, 1.15532009349389, -1.32535412222944], a = 0.2, v = 0.2, t = 0.2)
movej(p[0.430578395058764, -0.0873744801144216, 0.434649050643068, -1.17408197008345, 1.1507849370993, -1.31887477149805], a = 0.2, v = 0.2, t = 0.2)
movej(p[0.431037191408992, -0.0874617040527525, 0.434772055590119, -1.18399326696028, 1.14785998771315, -1.3252258367196], a = 0.2, v = 0.2, t = 0.2)
movej(p[0.431982160495747, -0.0875336802611876, 0.434859888403442, -1.18465152951923, 1.15280889332594, -1.32014472235477], a = 0.2, v = 0.2, t = 0.2)
movej(p[0.432948892527722, -0.0875667432130204, 0.434900646701621, -1.19171804669844, 1.15935226051802, -1.32137407956065], a = 0.2, v = 0.2, t = 0.2)
movej(p[0.433687786273921, -0.0877517182196081, 0.434988922268823, -1.18068198480916, 1.17179249936018, -1.29607782029913], a = 0.2, v = 0.2, t = 0.2)
movej(p[0.433950229407803, -0.0878997584043194, 0.435013031637284, -1.18254564373201, 1.17623463667736, -1.30011472541113], a = 0.2, v = 0.2, t = 0.2)
movej(p[0.434065794635283, -0.0879353770559923, 0.4349426026719, -1.17860560729033, 1.18001092011803, -1.29538631976647], a = 0.2, v = 0.2, t = 0.2)
movej(p[0.43409298438349, -0.0879958597693406, 0.434888645616027, -1.17542992214609, 1.1815529699045, -1.29094500259964], a = 0.2, v = 0.2, t = 0.2)
movej(p[0.434025393584782, -0.0881354586100351, 0.434862642536543, -1.16771046066816, 1.18387669104394, -1.2858897036219], a = 0.2, v = 0.2, t = 0.2)
movej(p[0.433981044538796, -0.0881500168519592, 0.434809000735788, -1.17229503368069, 1.18202566523231, -1.29654306950875], a = 0.2, v = 0.2, t = 0.2)
movej(p[0.433851017762665, -0.0881496744230059, 0.434697132461325, -1.1711542378961, 1.18135544497168, -1.29832757761399], a = 0.2, v = 0.2, t = 0.2)
movej(p[0.43342690878182, -0.0882220141021827, 0.434683872575088, -1.17418046102988, 1.17962398312623, -1.29935587768485], a = 0.2, v = 0.2, t = 0.2)
movej(p[0.43267402719395, -0.088271046759696, 0.434638691745702, -1.16859331276272, 1.17631890413414, -1.30609500762314], a = 0.2, v = 0.2, t = 0.2)
movej(p[0.431924848505695, -0.0880987327046803, 0.434547024118329, -1.17020172849841, 1.17183047337365, -1.31364051198543], a = 0.2, v = 0.2, t = 0.2)
movej(p[0.431207795517444, -0.0878778622069636, 0.434513529299651, -1.16787175460064, 1.16540520255038, -1.31454367606246], a = 0.2, v = 0.2, t = 0.2)
movej(p[0.430567818078572, -0.0878035290806266, 0.434638615218381, -1.1698609174933, 1.1602881626349, -1.31188772371578], a = 0.2, v = 0.2, t = 0.2)
movej(p[0.430171852723634, -0.0876822942500009, 0.434713417020042, -1.16540424856479, 1.15610353427437, -1.310890963154], a = 0.2, v = 0.2, t = 0.2)
movej(p[0.43041922924029, -0.0875498995781908, 0.434760530580547, -1.17024342443, 1.15222597054895, -1.31120819364078], a = 0.2, v = 0.2, t = 0.2)
movej(p[0.431099513938726, -0.0875923337888505, 0.434799678966714, -1.16259911407596, 1.15282419001669, -1.29488076631161], a = 0.2, v = 0.2, t = 0.2)
movej(p[0.431965985487056, -0.0877385837818889, 0.434932337230196, -1.17183458542042, 1.15456247572238, -1.3024040646337], a = 0.2, v = 0.2, t = 0.2)
movej(p[0.432913583544994, -0.087844378040657, 0.434997579813724, -1.17907699106101, 1.16101966415103, -1.30402067558092], a = 0.2, v = 0.2, t = 0.2)
movej(p[0.433606430617536, -0.0878845149635567, 0.43501714548747, -1.18489688880718, 1.16911637124267, -1.30082963505629], a = 0.2, v = 0.2, t = 0.2)
movej(p[0.434008199661674, -0.0881305863325468, 0.435093649480413, -1.17868061876017, 1.17880749901155, -1.28346608252457], a = 0.2, v = 0.2, t = 0.2)
movej(p[0.434076490282677, -0.0882641927456295, 0.435080297313318, -1.17076351292638, 1.18433834780471, -1.27847951604526], a = 0.2, v = 0.2, t = 0.2)
movej(p[0.43413159797087, -0.0882993579751315, 0.435044366608676, -1.16731551773668, 1.18892958977731, -1.27662991725593], a = 0.2, v = 0.2, t = 0.2)
movej(p[0.434084807759544, -0.088324007248123, 0.435044273651566, -1.16914817231232, 1.18924680546958, -1.27813640180951], a = 0.2, v = 0.2, t = 0.2)
movej(p[0.433945190122877, -0.0884361251338249, 0.435061369110183, -1.17982658246462, 1.18605495339631, -1.2921016095807], a = 0.2, v = 0.2, t = 0.2)
movej(p[0.433566920878944, -0.0884729231844658, 0.434948182068008, -1.18395362454021, 1.18184006252844, -1.30052720661236], a = 0.2, v = 0.2, t = 0.2)
movej(p[0.432950309772727, -0.0884937684847939, 0.434825098813955, -1.18521998557796, 1.17756770677576, -1.30788625726046], a = 0.2, v = 0.2, t = 0.2)
movej(p[0.432002723435404, -0.0885916025867336, 0.434799707038186, -1.16446824914975, 1.17867025277391, -1.28853444332086], a = 0.2, v = 0.2, t = 0.2)
movej(p[0.431144991662978, -0.0884954433731021, 0.4347823395195, -1.15617564044358, 1.17464137684991, -1.28987751361194], a = 0.2, v = 0.2, t = 0.2)
movej(p[0.430567593988285, -0.0882213096764094, 0.434743107364359, -1.15696168366607, 1.16825655487548, -1.29390874895227], a = 0.2, v = 0.2, t = 0.2)
movej(p[0.430096467347757, -0.0879767395252646, 0.434765375382976, -1.16247525625104, 1.15950748961138, -1.29796352506584], a = 0.2, v = 0.2, t = 0.2)
movej(p[0.429790675221019, -0.0879252399301114, 0.434888700560958, -1.16424663040146, 1.15281237462276, -1.30136365019208], a = 0.2, v = 0.2, t = 0.2)
movej(p[0.430122564591421, -0.0878784859319632, 0.434927588152438, -1.16377766316028, 1.15116093089615, -1.2967072742581], a = 0.2, v = 0.2, t = 0.2)
movej(p[0.431046342380862, -0.0878527106730019, 0.435003408699532, -1.16640801862412, 1.15365030847893, -1.2931890133836], a = 0.2, v = 0.2, t = 0.2)
movej(p[0.432223170570391, -0.0879013101874336, 0.435085402811072, -1.16408976803351, 1.16275909187268, -1.28177333346242], a = 0.2, v = 0.2, t = 0.2)
movej(p[0.433190839032598, -0.0879444850472882, 0.4351459480068, -1.1705993290576, 1.16980975161964, -1.28571526855106], a = 0.2, v = 0.2, t = 0.2)
movej(p[0.433914326488079, -0.0880080884706948, 0.435147299305362, -1.17793080008029, 1.17590187069914, -1.28640438239706], a = 0.2, v = 0.2, t = 0.2)
movej(p[0.434202758014254, -0.0881520363395993, 0.435173924211424, -1.18491496568667, 1.1804191490784, -1.28632766213438], a = 0.2, v = 0.2, t = 0.2)
movej(p[0.434200330011917, -0.0883392814063761, 0.43519751900393, -1.18454669441945, 1.18199525315244, -1.28782479421403], a = 0.2, v = 0.2, t = 0.2)
movej(p[0.434189351093483, -0.0883859989700766, 0.43513389831691, -1.1745161256996, 1.18678697652093, -1.27918875522313], a = 0.2, v = 0.2, t = 0.2)
movej(p[0.434176640055701, -0.0884441578263404, 0.435110796318023, -1.17231734215151, 1.1868582186074, -1.27730126838235], a = 0.2, v = 0.2, t = 0.2)
movej(p[0.434103006226173, -0.0885845887902164, 0.435167513974304, -1.16981940446734, 1.18881571426016, -1.27031861623188], a = 0.2, v = 0.2, t = 0.2)
movej(p[0.43369319531658, -0.0886511110572293, 0.435099829461525, -1.17626289687539, 1.1846818728116, -1.28654019416191], a = 0.2, v = 0.2, t = 0.2)
movej(p[0.433065416693955, -0.088631597206653, 0.434955311724518, -1.17760826212888, 1.18155819648287, -1.29486181392325], a = 0.2, v = 0.2, t = 0.2)
movej(p[0.432229669246675, -0.0886524278015056, 0.434894161724646, -1.17482124429823, 1.17825278347559, -1.2972197128134], a = 0.2, v = 0.2, t = 0.2)
movej(p[0.431422731447871, -0.0886021163164911, 0.434931924565331, -1.17024551722881, 1.17363382871557, -1.30146606857353], a = 0.2, v = 0.2, t = 0.2)
movej(p[0.430867743276487, -0.0883912470130503, 0.434924589640994, -1.16741243406878, 1.16840271446851, -1.30274598215358], a = 0.2, v = 0.2, t = 0.2)
movej(p[0.430476769913016, -0.088140846464249, 0.434875754486228, -1.16745270066386, 1.16164910220416, -1.3018962074276], a = 0.2, v = 0.2, t = 0.2)
movej(p[0.430369620037168, -0.0881255373464196, 0.434974303052008, -1.17140025550734, 1.15661625496894, -1.29700326821925], a = 0.2, v = 0.2, t = 0.2)
movej(p[0.430542829219336, -0.0881656622718767, 0.435089581206355, -1.17278200071116, 1.1537253832215, -1.30072884900273], a = 0.2, v = 0.2, t = 0.2)
movej(p[0.431355625517459, -0.0881318080627247, 0.435178876605903, -1.1794757613427, 1.15513111326717, -1.29943040777037], a = 0.2, v = 0.2, t = 0.2)
movej(p[0.432335551909204, -0.0881580955805837, 0.435236624205561, -1.17432513735354, 1.16234861975803, -1.28623546681385], a = 0.2, v = 0.2, t = 0.2)
movej(p[0.433176566239445, -0.0882293797529229, 0.435315597008497, -1.1864551430264, 1.16817525495541, -1.29197987971307], a = 0.2, v = 0.2, t = 0.2)
movej(p[0.433750887156567, -0.0882758034658561, 0.43530500967489, -1.18923816651431, 1.17504410655726, -1.291097281066], a = 0.2, v = 0.2, t = 0.2)
movej(p[0.433988440467101, -0.088273397014619, 0.435230848756799, -1.19442028882307, 1.17939050301532, -1.29456511700343], a = 0.2, v = 0.2, t = 0.2)
movej(p[0.43405123223342, -0.0884155662573407, 0.43520861802768, -1.17996179740588, 1.18656819894781, -1.27638362442616], a = 0.2, v = 0.2, t = 0.2)
movej(p[0.433978836043056, -0.0884563954919807, 0.435128286986655, -1.17003927156284, 1.18928758396932, -1.27554299378477], a = 0.2, v = 0.2, t = 0.2)
movej(p[0.43401493080472, -0.0884089403804856, 0.435045583854469, -1.16837909378338, 1.19028390218152, -1.27728439786859], a = 0.2, v = 0.2, t = 0.2)
movej(p[0.433972207560548, -0.0884037684698568, 0.43496622078433, -1.16777599821649, 1.18957034997389, -1.27628400148154], a = 0.2, v = 0.2, t = 0.2)
movej(p[0.433680148529196, -0.0885655367408455, 0.434958370171571, -1.16684830892315, 1.18803427776481, -1.27989436242164], a = 0.2, v = 0.2, t = 0.2)
movej(p[0.433189794656796, -0.0885392630194323, 0.434811673083374, -1.16752981551124, 1.18393985085232, -1.29214344885647], a = 0.2, v = 0.2, t = 0.2)
movej(p[0.432511066325165, -0.088420112634344, 0.43466684731427, -1.1690260754197, 1.17788307384696, -1.3029183857076], a = 0.2, v = 0.2, t = 0.2)
movej(p[0.431776036530421, -0.0883538716919214, 0.434656765893441, -1.17074246859816, 1.1718980727597, -1.30651714759089], a = 0.2, v = 0.2, t = 0.2)
movej(p[0.431094482028795, -0.0882743094389295, 0.434696711645574, -1.16500223008508, 1.16820343683088, -1.30307825335493], a = 0.2, v = 0.2, t = 0.2)
movej(p[0.430631091227128, -0.0880703287707778, 0.434658378573538, -1.162722603694, 1.16474751159792, -1.29788814632693], a = 0.2, v = 0.2, t = 0.2)
movej(p[0.430447786608125, -0.0879139574769703, 0.434698442546446, -1.16095831004019, 1.16074537472814, -1.29143925821564], a = 0.2, v = 0.2, t = 0.2)
movej(p[0.430600697458819, -0.0879709096537245, 0.434881799733933, -1.16481666556315, 1.15738602769078, -1.28853739560948], a = 0.2, v = 0.2, t = 0.2)
movej(p[0.431260265119208, -0.0880290395730484, 0.435033089687166, -1.17438844460596, 1.15660713472242, -1.29906763482311], a = 0.2, v = 0.2, t = 0.2)
movej(p[0.432242779266587, -0.0880185477482684, 0.435104005186269, -1.1815243519823, 1.16219127356971, -1.29776389387127], a = 0.2, v = 0.2, t = 0.2)
movej(p[0.433161149303233, -0.0881468944136883, 0.435190112887234, -1.18052452172011, 1.17061645580192, -1.28530573666724], a = 0.2, v = 0.2, t = 0.2)
movej(p[0.433616778045907, -0.0882784447093691, 0.435249662009442, -1.17619639891428, 1.17785300278958, -1.28071783792833], a = 0.2, v = 0.2, t = 0.2)
movej(p[0.433926915437641, -0.0883374465526854, 0.435224039821756, -1.177801829964, 1.18093959369931, -1.28227711289661], a = 0.2, v = 0.2, t = 0.2)
movej(p[0.434005974925728, -0.0883402274352704, 0.435124173281337, -1.17918725288114, 1.18307508160368, -1.28215785945514], a = 0.2, v = 0.2, t = 0.2)
movej(p[0.434090839814791, -0.0885081782684267, 0.435157179473111, -1.179290616513, 1.18525301126633, -1.27540880506907], a = 0.2, v = 0.2, t = 0.2)
movej(p[0.433977796951574, -0.0885924702302431, 0.435128855127226, -1.1695153847784, 1.18753827283925, -1.27128109875595], a = 0.2, v = 0.2, t = 0.2)
movej(p[0.433721875698626, -0.088576336652636, 0.435003327876547, -1.16678334095059, 1.18736371331842, -1.27212224327348], a = 0.2, v = 0.2, t = 0.2)
movej(p[0.433144030870363, -0.0885884838941032, 0.434882803897709, -1.16169248152395, 1.18475437744111, -1.27306799704024], a = 0.2, v = 0.2, t = 0.2)
movej(p[0.432271859721943, -0.0886461888255298, 0.434845040406713, -1.1696731263669, 1.1770531031624, -1.29226080921466], a = 0.2, v = 0.2, t = 0.2)
movej(p[0.43147161119883, -0.0885015502565523, 0.434771158572551, -1.16757399733563, 1.17138048021714, -1.3004975481887], a = 0.2, v = 0.2, t = 0.2)
movej(p[0.430822005472926, -0.0882217851785007, 0.434707067417344, -1.17001608126741, 1.16359579807248, -1.30615353738563], a = 0.2, v = 0.2, t = 0.2)
movej(p[0.430279697558101, -0.088094910585581, 0.434736176778197, -1.15834757341598, 1.16185304142913, -1.28454570327035], a = 0.2, v = 0.2, t = 0.2)
movej(p[0.429983112183849, -0.088066882555208, 0.434860242871443, -1.15886726127101, 1.15663471905375, -1.28745720396881], a = 0.2, v = 0.2, t = 0.2)
movej(p[0.430358339413452, -0.0880518914073281, 0.434949712035682, -1.1673562198093, 1.15337205834981, -1.29062724092735], a = 0.2, v = 0.2, t = 0.2)
movej(p[0.431237505431773, -0.0880636022658314, 0.435060806927206, -1.17461692143207, 1.15300827563792, -1.29431650702241], a = 0.2, v = 0.2, t = 0.2)
movej(p[0.432367262307255, -0.0882426956946798, 0.435225278988492, -1.16957891964716, 1.16160487128074, -1.27998283617455], a = 0.2, v = 0.2, t = 0.2)
movej(p[0.433301586865908, -0.0882891031967653, 0.435257162735897, -1.16610692209447, 1.17148477986714, -1.27265305948316], a = 0.2, v = 0.2, t = 0.2)
movej(p[0.433948659345533, -0.0883420392487438, 0.435283599478559, -1.16504292503763, 1.18249252271817, -1.26098412817274], a = 0.2, v = 0.2, t = 0.2)
movej(p[0.434132689316218, -0.0884680893137755, 0.435309552058881, -1.16945141274167, 1.18735954109762, -1.25943329399869], a = 0.2, v = 0.2, t = 0.2)
movej(p[0.434094115759765, -0.0886129208969771, 0.43536434814876, -1.17165936117483, 1.19045818407145, -1.26324840649286], a = 0.2, v = 0.2, t = 0.2)
movej(p[0.434110405831785, -0.0886270165462019, 0.435308757709595, -1.17002973446776, 1.19219244571107, -1.26077915663914], a = 0.2, v = 0.2, t = 0.2)
movej(p[0.434072276430782, -0.0886938084412848, 0.435261816127491, -1.16847754254496, 1.19283132401734, -1.25841689110709], a = 0.2, v = 0.2, t = 0.2)
movej(p[0.433792428502136, -0.0888347044407116, 0.435197035217661, -1.16390706763382, 1.1919945993888, -1.25764657498854], a = 0.2, v = 0.2, t = 0.2)
movej(p[0.433231575169857, -0.0888243161196162, 0.435033445340664, -1.16253003136555, 1.18951098702154, -1.26776171536655], a = 0.2, v = 0.2, t = 0.2)
movej(p[0.432381801215976, -0.0887489631564908, 0.434858119783044, -1.16492348622243, 1.18355048917941, -1.28097175439065], a = 0.2, v = 0.2, t = 0.2)
movej(p[0.431465962911741, -0.0886872530562981, 0.434838336142614, -1.16461224261039, 1.17833849260655, -1.28177745469259], a = 0.2, v = 0.2, t = 0.2)
movej(p[0.43061767019426, -0.0886075098627801, 0.43486564563284, -1.16062152761001, 1.17117643509263, -1.28463267183978], a = 0.2, v = 0.2, t = 0.2)
movej(p[0.430104353813621, -0.0883420367922583, 0.434847865456343, -1.15997881600558, 1.1652790087458, -1.2814072781022], a = 0.2, v = 0.2, t = 0.2)
movej(p[0.429969951005902, -0.088184218058732, 0.434855635105411, -1.16097523171646, 1.15853845582852, -1.27971131745407], a = 0.2, v = 0.2, t = 0.2)
movej(p[0.430259956206636, -0.0882001382152076, 0.43499361459905, -1.17065923987503, 1.1547310664232, -1.28570885268425], a = 0.2, v = 0.2, t = 0.2)
movej(p[0.431088534955016, -0.0882829916560871, 0.435130243344899, -1.1775046006131, 1.15561490530407, -1.29240044337991], a = 0.2, v = 0.2, t = 0.2)
movej(p[0.432205841647932, -0.0882947709679766, 0.435251787533883, -1.1815764894891, 1.16272297932758, -1.28559009697551], a = 0.2, v = 0.2, t = 0.2)
movej(p[0.433201340070608, -0.0884074083035117, 0.43540445549692, -1.17626458641798, 1.17522708379282, -1.26469733323944], a = 0.2, v = 0.2, t = 0.2)
movej(p[0.433757372680287, -0.0884933512666776, 0.435497706971573, -1.17075253619565, 1.18443362905471, -1.25456305185499], a = 0.2, v = 0.2, t = 0.2)
movej(p[0.434068928588319, -0.088539459965097, 0.435457639889454, -1.16709323229487, 1.19144815187113, -1.2495509187616], a = 0.2, v = 0.2, t = 0.2)
movej(p[0.434125946251505, -0.0886311497562723, 0.435387598161327, -1.16699892171185, 1.19198222090811, -1.25042876446514], a = 0.2, v = 0.2, t = 0.2)
movej(p[0.434115351926409, -0.0887970757252306, 0.435397928897072, -1.17377325643589, 1.19112285600766, -1.25745317277884], a = 0.2, v = 0.2, t = 0.2)
movej(p[0.434060815439246, -0.0888633094788011, 0.435373562954533, -1.1770497856948, 1.19077324125098, -1.26500431581191], a = 0.2, v = 0.2, t = 0.2)
movej(p[0.433929707657731, -0.0888500507335651, 0.435260122709954, -1.17607825934365, 1.19188822603796, -1.26269990439015], a = 0.2, v = 0.2, t = 0.2)
movej(p[0.433485955025064, -0.088950715392808, 0.435181037800842, -1.16722507012675, 1.19359139080674, -1.25544920727215], a = 0.2, v = 0.2, t = 0.2)
movej(p[0.432771089427416, -0.0889486145602565, 0.435088283936224, -1.1624099361963, 1.18938025366898, -1.26556592121056], a = 0.2, v = 0.2, t = 0.2)
movej(p[0.43203367171246, -0.0888076497121481, 0.434994287417843, -1.159299320629, 1.1838932239661, -1.27278977032293], a = 0.2, v = 0.2, t = 0.2)
movej(p[0.431276169377536, -0.0886160290675687, 0.434928085620626, -1.15700615586296, 1.1773565436946, -1.27566671554481], a = 0.2, v = 0.2, t = 0.2)
movej(p[0.430554067067949, -0.0885683784144119, 0.434970509131123, -1.15858252306916, 1.17049149611121, -1.27804028174346], a = 0.2, v = 0.2, t = 0.2)
movej(p[0.430060490061277, -0.0884190303758786, 0.434971257900361, -1.15751150868608, 1.16574725765672, -1.27774087727102], a = 0.2, v = 0.2, t = 0.2)
movej(p[0.429992740398887, -0.0882292017806803, 0.435009568491744, -1.16359984950925, 1.15940799695292, -1.27987664099206], a = 0.2, v = 0.2, t = 0.2)
movej(p[0.430429375991675, -0.0882320887430539, 0.435136532492345, -1.15988708841823, 1.15967269648115, -1.26707840897864], a = 0.2, v = 0.2, t = 0.2)
movej(p[0.431229778850558, -0.0882907336756857, 0.435297427346731, -1.16471565945938, 1.16141660500884, -1.27304883336129], a = 0.2, v = 0.2, t = 0.2)
movej(p[0.432386297769042, -0.0882800652382459, 0.435362716880618, -1.17392737000914, 1.1669377480853, -1.27219991254673], a = 0.2, v = 0.2, t = 0.2)
movej(p[0.433322158946393, -0.0882902905703413, 0.435423818542422, -1.18172898327527, 1.1744982435392, -1.27153075673975], a = 0.2, v = 0.2, t = 0.2)
movej(p[0.433839468848529, -0.0885062015511789, 0.435545240522947, -1.1860600389158, 1.17869721531969, -1.26878706682506], a = 0.2, v = 0.2, t = 0.2)
movej(p[0.434038546869567, -0.0885910659900966, 0.435518022780652, -1.17965207175282, 1.18429123563887, -1.264569620663], a = 0.2, v = 0.2, t = 0.2)
movej(p[0.434144196579454, -0.0886492015032927, 0.435454913278941, -1.18010884655136, 1.18614327256973, -1.26542759298044], a = 0.2, v = 0.2, t = 0.2)
movej(p[0.434138061210647, -0.0887122843442164, 0.435422408934145, -1.17968796971595, 1.18823285005464, -1.26238475184295], a = 0.2, v = 0.2, t = 0.2)
movej(p[0.434024656359429, -0.0888160293495421, 0.435411915403269, -1.1806727956044, 1.18946718833259, -1.26521610832609], a = 0.2, v = 0.2, t = 0.2)
movej(p[0.433733843633223, -0.0888246538051942, 0.435264432304098, -1.17594750787958, 1.19079498465082, -1.26369333931885], a = 0.2, v = 0.2, t = 0.2)
movej(p[0.433129316328179, -0.0888758243964827, 0.435157814201771, -1.17222137779502, 1.18897534139365, -1.26674047166271], a = 0.2, v = 0.2, t = 0.2)
movej(p[0.432282278969609, -0.0889506186415217, 0.435133290127985, -1.16018986373486, 1.18691340587539, -1.26448228742795], a = 0.2, v = 0.2, t = 0.2)
movej(p[0.431559420984407, -0.0888198057174799, 0.435114963299754, -1.1582324189675, 1.18051666171243, -1.27455513365949], a = 0.2, v = 0.2, t = 0.2)
movej(p[0.431101228529863, -0.0885786603693529, 0.435085541554808, -1.15734505641351, 1.17540415789296, -1.27517507506809], a = 0.2, v = 0.2, t = 0.2)
movej(p[0.43113955294859, -0.0885451038338408, 0.435192060833597, -1.16302373159926, 1.17062868098894, -1.27551433873911], a = 0.2, v = 0.2, t = 0.2)
movej(p[0.431548430331572, -0.088611861087662, 0.435382885799332, -1.16224453287386, 1.17030115550162, -1.27283526102951], a = 0.2, v = 0.2, t = 0.2)
movej(p[0.432486047574512, -0.0885974957883486, 0.435473821664737, -1.15869923282572, 1.17596264773987, -1.26230997572588], a = 0.2, v = 0.2, t = 0.2)
movej(p[0.433327183125541, -0.0886015793974008, 0.435536536906373, -1.15606516481673, 1.18324883309986, -1.2502032081893], a = 0.2, v = 0.2, t = 0.2)
movej(p[0.433943886042139, -0.0886950444877359, 0.43559149078405, -1.16185544504114, 1.18763057251353, -1.24729430897119], a = 0.2, v = 0.2, t = 0.2)
movej(p[0.434178782356564, -0.0887873469200581, 0.435605216042549, -1.16586813525573, 1.19052545432179, -1.24856126702968], a = 0.2, v = 0.2, t = 0.2)
movej(p[0.434276931893899, -0.0887672277603141, 0.435521973412051, -1.17025153254858, 1.1914425971999, -1.2509438060154], a = 0.2, v = 0.2, t = 0.2)
movej(p[0.434229018365068, -0.0888824705293552, 0.435482590881168, -1.16707088524658, 1.19299874504603, -1.2431392672668], a = 0.2, v = 0.2, t = 0.2)
movej(p[0.433854012969656, -0.0889608591962673, 0.435386332617567, -1.16395502070297, 1.19133637208426, -1.2513266138454], a = 0.2, v = 0.2, t = 0.2)
movej(p[0.433246616936382, -0.0889556417139, 0.435246711543439, -1.16413446899374, 1.18770780409344, -1.26109339232325], a = 0.2, v = 0.2, t = 0.2)
movej(p[0.432241542555594, -0.0888729304136394, 0.435108994440678, -1.16128704834461, 1.1837423479533, -1.26782320356874], a = 0.2, v = 0.2, t = 0.2)
movej(p[0.431166365498577, -0.0888591871185656, 0.43512909509752, -1.16462113657655, 1.17579572501686, -1.27683799391584], a = 0.2, v = 0.2, t = 0.2)
movej(p[0.43027791936683, -0.0886774046908475, 0.435119416339523, -1.1612919003789, 1.16815476067457, -1.28155671336655], a = 0.2, v = 0.2, t = 0.2)
movej(p[0.429755186214521, -0.0884111127094883, 0.435069839065087, -1.16223834399058, 1.16031745943129, -1.28263524941343], a = 0.2, v = 0.2, t = 0.2)
movej(p[0.429557386535112, -0.088316597005885, 0.435092004015416, -1.15867605453771, 1.15621116653326, -1.27425235311169], a = 0.2, v = 0.2, t = 0.2)
movej(p[0.429743824628965, -0.0883873117437748, 0.435221163109752, -1.1606729621711, 1.15459771086067, -1.27568634783379], a = 0.2, v = 0.2, t = 0.2)
movej(p[0.430514763193773, -0.0884215453719604, 0.435352294312836, -1.16722733366382, 1.15646007965775, -1.27666483805087], a = 0.2, v = 0.2, t = 0.2)
movej(p[0.431570439814262, -0.0883791744025229, 0.435425673019056, -1.17183434672678, 1.16100347928132, -1.27584196475049], a = 0.2, v = 0.2, t = 0.2)
movej(p[0.432646706850805, -0.088464051462767, 0.435534366106326, -1.17580696941773, 1.16762602408856, -1.2711187204572], a = 0.2, v = 0.2, t = 0.2)
movej(p[0.433470650722417, -0.0884725248645077, 0.435524087999305, -1.17028016987741, 1.17678745886445, -1.26153519741423], a = 0.2, v = 0.2, t = 0.2)
movej(p[0.434037771487122, -0.0884861898884051, 0.435496223862788, -1.17359719034105, 1.18343780740881, -1.25951505460766], a = 0.2, v = 0.2, t = 0.2)
movej(p[0.434198446395796, -0.0885990573499079, 0.435464729668713, -1.17090753770255, 1.18886291226607, -1.25310439320505], a = 0.2, v = 0.2, t = 0.2)
movej(p[0.43405060154948, -0.0887042302570158, 0.435446436084368, -1.17615243972009, 1.18994420601848, -1.26509374465345], a = 0.2, v = 0.2, t = 0.2)
movej(p[0.433621907652771, -0.0887592417274711, 0.435309336880348, -1.17744310344123, 1.18880536315062, -1.27107906863107], a = 0.2, v = 0.2, t = 0.2)
movej(p[0.432773153389598, -0.0887693276538018, 0.435200381572836, -1.17536272152694, 1.18755785191264, -1.27326424649745], a = 0.2, v = 0.2, t = 0.2)
movej(p[0.431634618365753, -0.0888743423058168, 0.435185571449929, -1.16826462480752, 1.18246817891212, -1.27352539360946], a = 0.2, v = 0.2, t = 0.2)
movej(p[0.430460383828714, -0.0887136398297287, 0.435117351936554, -1.15950754963569, 1.17595141825043, -1.27316252580616], a = 0.2, v = 0.2, t = 0.2)
movej(p[0.429484263129139, -0.088473148984939, 0.43504700775248, -1.16133566690283, 1.1634035656928, -1.27918609261881], a = 0.2, v = 0.2, t = 0.2)
movej(p[0.428955022685923, -0.0883180078141697, 0.435053258786045, -1.16618226370809, 1.1537546220784, -1.27956709909906], a = 0.2, v = 0.2, t = 0.2)
movej(p[0.428880140385523, -0.0883071591511734, 0.435148968221432, -1.17576253524649, 1.14431695166101, -1.2941417124551], a = 0.2, v = 0.2, t = 0.2)
movej(p[0.429663724002695, -0.0882897931658784, 0.435213946600877, -1.17850859787648, 1.14560025006215, -1.28936383005884], a = 0.2, v = 0.2, t = 0.2)
movej(p[0.43083277558687, -0.088289091949274, 0.435316754891346, -1.17965612684629, 1.14995731311024, -1.28493491000683], a = 0.2, v = 0.2, t = 0.2)
movej(p[0.432083023120565, -0.0883629821254733, 0.435451860831473, -1.17327404264539, 1.16126945425154, -1.27071171974004], a = 0.2, v = 0.2, t = 0.2)
movej(p[0.433097272806007, -0.0883465417329053, 0.435494623273453, -1.17900943393508, 1.17069381891427, -1.27635479771645], a = 0.2, v = 0.2, t = 0.2)
movej(p[0.433795370754776, -0.0883555587966084, 0.435450520604937, -1.17967691062478, 1.18091258296077, -1.26903067286359], a = 0.2, v = 0.2, t = 0.2)
movej(p[0.434129908046197, -0.0884931792060389, 0.435457452201154, -1.18484698743327, 1.18699835613495, -1.26443156285676], a = 0.2, v = 0.2, t = 0.2)
movej(p[0.434149705313572, -0.0886346387654316, 0.435466187568914, -1.17792654441093, 1.19067376274024, -1.25825788956602], a = 0.2, v = 0.2, t = 0.2)
movej(p[0.434163269617466, -0.0886634568638346, 0.43540335008357, -1.17224945791725, 1.19449513177361, -1.25458511352974], a = 0.2, v = 0.2, t = 0.2)
movej(p[0.433903210220152, -0.0887584048870103, 0.435347847604591, -1.17007951983839, 1.19388370848995, -1.25522208668986], a = 0.2, v = 0.2, t = 0.2)
movej(p[0.433269324420065, -0.0888735475688951, 0.435304709350645, -1.16864635625251, 1.19280931050222, -1.26252863711035], a = 0.2, v = 0.2, t = 0.2)
movej(p[0.432316121853841, -0.0888394416918893, 0.435180907066749, -1.17372532294689, 1.18522537000321, -1.28513295696949], a = 0.2, v = 0.2, t = 0.2)
movej(p[0.431249510295965, -0.0886538703193275, 0.435055189458236, -1.17317189254716, 1.17685103628102, -1.29557896976823], a = 0.2, v = 0.2, t = 0.2)
movej(p[0.430245489660824, -0.0885620899813194, 0.435071877234201, -1.16761903018544, 1.1703441890004, -1.28648376221536], a = 0.2, v = 0.2, t = 0.2)
movej(p[0.429415372407313, -0.0884451908065587, 0.435139125735024, -1.16512184767101, 1.15922000495516, -1.28922720106856], a = 0.2, v = 0.2, t = 0.2)
movej(p[0.42920081759073, -0.0882593829467135, 0.435151705081774, -1.16817354963885, 1.15140400876404, -1.28950658272264], a = 0.2, v = 0.2, t = 0.2)
movej(p[0.429576167940552, -0.088142144274919, 0.435167222906615, -1.16901329282002, 1.14691763360956, -1.28666904924415], a = 0.2, v = 0.2, t = 0.2)
movej(p[0.430451733152557, -0.088221503366573, 0.435303059690659, -1.1749772725633, 1.14731549458529, -1.2856772109892], a = 0.2, v = 0.2, t = 0.2)
movej(p[0.431586229104355, -0.0882512000845163, 0.435377176689936, -1.17356112941373, 1.15581006765427, -1.27985479238923], a = 0.2, v = 0.2, t = 0.2)
movej(p[0.432811240807629, -0.0882128053242002, 0.435396727750396, -1.17895336087508, 1.16636647331344, -1.27593435980128], a = 0.2, v = 0.2, t = 0.2)
movej(p[0.433730336553762, -0.0883128694433223, 0.435432303019629, -1.17161140485258, 1.17966324059104, -1.25653438620305], a = 0.2, v = 0.2, t = 0.2)
movej(p[0.434067000725189, -0.0884457952518131, 0.435488567183309, -1.17845865782042, 1.1857620477703, -1.26355726393047], a = 0.2, v = 0.2, t = 0.2)
movej(p[0.434225730429372, -0.0885084410970702, 0.43542724919467, -1.18315500901744, 1.18738340760684, -1.2710408631599], a = 0.2, v = 0.2, t = 0.2)
movej(p[0.434148554322181, -0.0885007121059317, 0.435338898839177, -1.18942274076996, 1.18731650572241, -1.27917485592378], a = 0.2, v = 0.2, t = 0.2)
movej(p[0.433811649556131, -0.0887415614528156, 0.435317058912364, -1.17917482799673, 1.18789457020581, -1.26985604162082], a = 0.2, v = 0.2, t = 0.2)
movej(p[0.433142204542084, -0.0887802931972823, 0.435211352220241, -1.17013951237507, 1.18655729897071, -1.27386276661681], a = 0.2, v = 0.2, t = 0.2)
movej(p[0.432224007754464, -0.0886959457798741, 0.435044809328227, -1.16501590970118, 1.18198240615686, -1.27815990858149], a = 0.2, v = 0.2, t = 0.2)
movej(p[0.431220868923439, -0.0885376967628162, 0.434980463214203, -1.163857432506, 1.17481058294265, -1.28434477948069], a = 0.2, v = 0.2, t = 0.2)
movej(p[0.430274749445167, -0.0884037245460186, 0.435031738637985, -1.15997291688286, 1.16795704121917, -1.28736164868887], a = 0.2, v = 0.2, t = 0.2)
movej(p[0.429742117704664, -0.0881640826884577, 0.435036786536293, -1.16362056806448, 1.16029084064357, -1.29118164958344], a = 0.2, v = 0.2, t = 0.2)
movej(p[0.429627017127859, -0.0880012416436661, 0.435043405988723, -1.16740264594495, 1.15299576795863, -1.29229022903941], a = 0.2, v = 0.2, t = 0.2)
movej(p[0.429927659764797, -0.0880855288020371, 0.435132114860255, -1.16294591819318, 1.15209614433891, -1.27770996573326], a = 0.2, v = 0.2, t = 0.2)
movej(p[0.430641905814834, -0.088181773535004, 0.435259038306015, -1.16481267190388, 1.15344716634814, -1.27745491104178], a = 0.2, v = 0.2, t = 0.2)
movej(p[0.431643783167215, -0.0882118906500288, 0.435357408500527, -1.16798580255596, 1.16005261574058, -1.27381411973341], a = 0.2, v = 0.2, t = 0.2)
movej(p[0.432684269389648, -0.0882790408028874, 0.435454540258065, -1.17430738416432, 1.16780167804817, -1.27111106149134], a = 0.2, v = 0.2, t = 0.2)
movej(p[0.433384968137798, -0.0883994670784651, 0.435521797230958, -1.17291745903135, 1.17574108867612, -1.26556771979687], a = 0.2, v = 0.2, t = 0.2)
movej(p[0.433892283025059, -0.0884217945266471, 0.435479172580765, -1.17264884320446, 1.18235060282311, -1.26047109725355], a = 0.2, v = 0.2, t = 0.2)
movej(p[0.434074755578109, -0.0884890339820983, 0.435429829359477, -1.17772690650699, 1.18444208150402, -1.26475936271153], a = 0.2, v = 0.2, t = 0.2)
movej(p[0.434022567315957, -0.088603334736901, 0.435392639359825, -1.1802894700656, 1.18544884010729, -1.26927273661583], a = 0.2, v = 0.2, t = 0.2)
movej(p[0.433672876354383, -0.0886893551006283, 0.435254692937916, -1.18300294340939, 1.18291836952803, -1.2856013574459], a = 0.2, v = 0.2, t = 0.2)
movej(p[0.433047505628607, -0.088673123931998, 0.435084015404808, -1.18206168527695, 1.17925448275886, -1.29458024551517], a = 0.2, v = 0.2, t = 0.2)
movej(p[0.432147762238558, -0.0886927821653011, 0.434987034540066, -1.17814635335193, 1.17576327478202, -1.29578792286155], a = 0.2, v = 0.2, t = 0.2)
movej(p[0.431161225938856, -0.0886055728026149, 0.434980641009767, -1.17016965436178, 1.17107262319969, -1.29915980692506], a = 0.2, v = 0.2, t = 0.2)
movej(p[0.430502283469267, -0.0883332561227653, 0.434926081923297, -1.16706800428171, 1.16609194867914, -1.29887859967342], a = 0.2, v = 0.2, t = 0.2)
movej(p[0.43003763024551, -0.0880907175838004, 0.434902816272349, -1.16290454125661, 1.16182263191831, -1.29320553985781], a = 0.2, v = 0.2, t = 0.2)
movej(p[0.429892223340613, -0.0880393028683121, 0.435003164600883, -1.16846632359332, 1.15646189667839, -1.2921569665644], a = 0.2, v = 0.2, t = 0.2)
movej(p[0.430246328982049, -0.0881112748838649, 0.435115790138307, -1.17301591595547, 1.15400530980174, -1.29658716918361], a = 0.2, v = 0.2, t = 0.2)
movej(p[0.43119062064757, -0.088106354995685, 0.435211136580969, -1.17631682595745, 1.15757972289662, -1.29201126952904], a = 0.2, v = 0.2, t = 0.2)
movej(p[0.432465979067033, -0.0882349964181122, 0.435337422305187, -1.16811392101257, 1.16752523151628, -1.27072340244263], a = 0.2, v = 0.2, t = 0.2)
movej(p[0.433333477732313, -0.088307519251202, 0.435413636434335, -1.16525943314009, 1.17691742486193, -1.26445462705011], a = 0.2, v = 0.2, t = 0.2)
movej(p[0.433992076658967, -0.0883661049011706, 0.435423656819258, -1.17416501552767, 1.18245377092039, -1.26843686574364], a = 0.2, v = 0.2, t = 0.2)
movej(p[0.434178288939373, -0.0883991740910852, 0.435364500892815, -1.18114982841725, 1.18616636371009, -1.27276117924484], a = 0.2, v = 0.2, t = 0.2)
movej(p[0.434247678523119, -0.0886141872621134, 0.435390789060818, -1.1803062019061, 1.18972529479573, -1.26324589365717], a = 0.2, v = 0.2, t = 0.2)
movej(p[0.434061746056658, -0.0887333410732929, 0.435315951083179, -1.17033287336122, 1.19198025112744, -1.25673729969294], a = 0.2, v = 0.2, t = 0.2)
movej(p[0.433619936295091, -0.0887575189152297, 0.43516094406965, -1.16680800001816, 1.19092848245879, -1.25788166149063], a = 0.2, v = 0.2, t = 0.2)
movej(p[0.432790915853383, -0.0887919223372091, 0.435047706917238, -1.16285737769864, 1.18725376307318, -1.26167762168835], a = 0.2, v = 0.2, t = 0.2)
movej(p[0.431795079428095, -0.0887532909507618, 0.434987562352635, -1.16267663062898, 1.18077777572323, -1.27812111662569], a = 0.2, v = 0.2, t = 0.2)
movej(p[0.430942706183028, -0.0885441352076023, 0.434909889054797, -1.16544440195518, 1.17205077997451, -1.28966405369497], a = 0.2, v = 0.2, t = 0.2)
movej(p[0.430272989818115, -0.0882427486315034, 0.434861078874749, -1.17124898711197, 1.16235887812693, -1.30039362308224], a = 0.2, v = 0.2, t = 0.2)
movej(p[0.429730119018944, -0.088208338515261, 0.434937804939342, -1.16713770174714, 1.15863838329839, -1.28997254650485], a = 0.2, v = 0.2, t = 0.2)
movej(p[0.429477822242122, -0.0881602914208122, 0.435005001917849, -1.16637094285346, 1.15394578318575, -1.29069801655668], a = 0.2, v = 0.2, t = 0.2)
movej(p[0.429853683380902, -0.0881026511266895, 0.435021354426777, -1.16802469547954, 1.15139524279708, -1.28866505507102], a = 0.2, v = 0.2, t = 0.2)
movej(p[0.430770834125295, -0.0881145984188156, 0.435103624377981, -1.17627037951113, 1.15063477579178, -1.29288086079856], a = 0.2, v = 0.2, t = 0.2)
movej(p[0.431861871158302, -0.0882230011738315, 0.435259218954726, -1.18318052996426, 1.1558497103276, -1.29735806059616], a = 0.2, v = 0.2, t = 0.2)
movej(p[0.43296711745833, -0.088264520796457, 0.435330784718957, -1.18449029395716, 1.16742517344022, -1.28928878262797], a = 0.2, v = 0.2, t = 0.2)
movej(p[0.433716802462608, -0.088320837050566, 0.435358670494069, -1.18599750363408, 1.17649362179336, -1.28265687710531], a = 0.2, v = 0.2, t = 0.2)
movej(p[0.434067241860452, -0.0884974097729173, 0.435379846237485, -1.17450977180738, 1.18577234479761, -1.26274958778592], a = 0.2, v = 0.2, t = 0.2)
movej(p[0.43413655322195, -0.0885908176996319, 0.43535334340567, -1.17819219922738, 1.1875611762294, -1.27327711241765], a = 0.2, v = 0.2, t = 0.2)
movej(p[0.434168197491095, -0.0886087584076116, 0.435294162220928, -1.18142808509345, 1.18804077557076, -1.2767568948426], a = 0.2, v = 0.2, t = 0.2)
movej(p[0.434065850142139, -0.0886967389146309, 0.435231146296382, -1.17896267161579, 1.18868653555482, -1.271624795181], a = 0.2, v = 0.2, t = 0.2)
movej(p[0.433557672375947, -0.0888531249140576, 0.435183784060038, -1.17196599218381, 1.1874648210866, -1.2721590248113], a = 0.2, v = 0.2, t = 0.2)
movej(p[0.432871786779158, -0.0887821847009542, 0.435006295114518, -1.16302115025096, 1.18580953243927, -1.27467403993501], a = 0.2, v = 0.2, t = 0.2)
movej(p[0.431919524611482, -0.0886195806660723, 0.434892394394792, -1.16220517122293, 1.18016715903561, -1.28333552723623], a = 0.2, v = 0.2, t = 0.2)
movej(p[0.430967099813445, -0.0884754426360651, 0.434882157442678, -1.16446645833954, 1.17358684586061, -1.2887652515399], a = 0.2, v = 0.2, t = 0.2)
movej(p[0.430185275929509, -0.0883079575727552, 0.434893506244398, -1.16414504112243, 1.16625678312094, -1.29448548226329], a = 0.2, v = 0.2, t = 0.2)
movej(p[0.42971409358179, -0.0880532410066873, 0.434851214272418, -1.1660836066085, 1.16063128872393, -1.29234649491457], a = 0.2, v = 0.2, t = 0.2)
movej(p[0.429781692363147, -0.0880033451076926, 0.434909566123482, -1.16264939254493, 1.1575438190118, -1.27853851538662], a = 0.2, v = 0.2, t = 0.2)
movej(p[0.430275958976942, -0.0880935380965583, 0.435075783570362, -1.16561626702967, 1.15687247452775, -1.27685220718131], a = 0.2, v = 0.2, t = 0.2)
movej(p[0.431392024216136, -0.0881463500609278, 0.435198203158179, -1.17436697737445, 1.15915231745545, -1.28546071906836], a = 0.2, v = 0.2, t = 0.2)
movej(p[0.432642370817235, -0.0881236871394928, 0.435267658266788, -1.18089490057995, 1.16728697935088, -1.2862672464251], a = 0.2, v = 0.2, t = 0.2)
movej(p[0.433691653840828, -0.0882940342688483, 0.435380353248132, -1.17996212701987, 1.17774689055945, -1.27309562816418], a = 0.2, v = 0.2, t = 0.2)
movej(p[0.434099424983468, -0.0884126938639484, 0.435433993425598, -1.17738961419876, 1.18438735538389, -1.27273533997955], a = 0.2, v = 0.2, t = 0.2)
movej(p[0.434326601313909, -0.0884589100153716, 0.435393084809784, -1.17510606829456, 1.1889890468585, -1.26837319760207], a = 0.2, v = 0.2, t = 0.2)
movej(p[0.434297356929996, -0.0885063634671953, 0.435319823794943, -1.17361194089636, 1.19035242428046, -1.26583474334053], a = 0.2, v = 0.2, t = 0.2)
movej(p[0.434051451436004, -0.0886699604723103, 0.43531344648647, -1.1773525921455, 1.18861519243743, -1.27176957646429], a = 0.2, v = 0.2, t = 0.2)
movej(p[0.433490608260311, -0.0887426838834611, 0.435202329928979, -1.17321524088823, 1.18680905509995, -1.27574547425322], a = 0.2, v = 0.2, t = 0.2)
movej(p[0.432543941312832, -0.0886714244994385, 0.435062115137536, -1.17129047376713, 1.18278061080952, -1.28380249032781], a = 0.2, v = 0.2, t = 0.2)
movej(p[0.43142711837335, -0.0886871678874592, 0.435038504911365, -1.16110923255668, 1.17864912556293, -1.27629588398976], a = 0.2, v = 0.2, t = 0.2)
movej(p[0.430314543024938, -0.0885901614952807, 0.435077436047789, -1.16564292661182, 1.1675171804731, -1.29232152307318], a = 0.2, v = 0.2, t = 0.2)
movej(p[0.429563939723597, -0.0883622813862211, 0.4350670928309, -1.17163132070467, 1.15650503718238, -1.29955306909024], a = 0.2, v = 0.2, t = 0.2)
movej(p[0.429147998061439, -0.0882019142974818, 0.435045003832849, -1.17061606407141, 1.14944728254985, -1.29404097855805], a = 0.2, v = 0.2, t = 0.2)
movej(p[0.429102574991573, -0.0883035930320719, 0.435197606000855, -1.16529981262877, 1.1478609973182, -1.28224332934558], a = 0.2, v = 0.2, t = 0.2)
movej(p[0.429816320436316, -0.0883264158778021, 0.435296262748099, -1.15917851108803, 1.15088050798778, -1.27492570457981], a = 0.2, v = 0.2, t = 0.2)
movej(p[0.431005973174119, -0.0882794880626383, 0.435378667896069, -1.16479762242752, 1.15531909778927, -1.27656410972342], a = 0.2, v = 0.2, t = 0.2)
movej(p[0.432407506196736, -0.0882837738714758, 0.435443067756502, -1.1650819530349, 1.16651135783755, -1.26556611233099], a = 0.2, v = 0.2, t = 0.2)
movej(p[0.433372095957727, -0.0883983575342018, 0.435520106306052, -1.16745836542407, 1.17617921685645, -1.26319795709708], a = 0.2, v = 0.2, t = 0.2)
movej(p[0.433959340657525, -0.0884296154340399, 0.435462805906313, -1.16982870494366, 1.18481962494638, -1.25912429658783], a = 0.2, v = 0.2, t = 0.2)
movej(p[0.434210500705543, -0.0884931375009041, 0.435390447370253, -1.17143804658853, 1.18896115040183, -1.25849543463104], a = 0.2, v = 0.2, t = 0.2)
movej(p[0.434175201129592, -0.0886216436505174, 0.435345043370316, -1.16881124187675, 1.19224573476032, -1.25532749202802], a = 0.2, v = 0.2, t = 0.2)
movej(p[0.433894068601321, -0.0887212165792218, 0.435292712362128, -1.17242535276209, 1.19075700871998, -1.26769021326662], a = 0.2, v = 0.2, t = 0.2)
movej(p[0.433319757843544, -0.0887073549892314, 0.435154420170858, -1.17073397567705, 1.18911467210943, -1.27181807390362], a = 0.2, v = 0.2, t = 0.2)
movej(p[0.432468654183889, -0.088752048859945, 0.435125020119123, -1.1710011428008, 1.18489761286968, -1.2768409589638], a = 0.2, v = 0.2, t = 0.2)
movej(p[0.431467796421569, -0.0887087050413317, 0.435108582528306, -1.16550055887243, 1.17873849281139, -1.2847749126496], a = 0.2, v = 0.2, t = 0.2)
movej(p[0.430698633247225, -0.0884789379561644, 0.435061198151065, -1.16707212501091, 1.17029665391088, -1.29481565908483], a = 0.2, v = 0.2, t = 0.2)
movej(p[0.430071125312381, -0.088233314359727, 0.434982057163981, -1.16511094385088, 1.1625156030803, -1.29381203796699], a = 0.2, v = 0.2, t = 0.2)
movej(p[0.429700580197463, -0.0881716748104926, 0.435023766644642, -1.16982082982272, 1.15506984127708, -1.29345818326235], a = 0.2, v = 0.2, t = 0.2)
movej(p[0.429568273287101, -0.0881830243246094, 0.435061430762841, -1.16639242264491, 1.15226730216876, -1.29137391105546], a = 0.2, v = 0.2, t = 0.2)
movej(p[0.430032015741395, -0.0881506080357597, 0.435084791098926, -1.17248685919405, 1.15138407310031, -1.29404442423945], a = 0.2, v = 0.2, t = 0.2)
movej(p[0.430869095299659, -0.0882044320002286, 0.435159337581651, -1.16824668573306, 1.15653275705969, -1.28109537304044], a = 0.2, v = 0.2, t = 0.2)
movej(p[0.431817124837711, -0.0883401499676694, 0.435335302843854, -1.17726045332421, 1.16012796081997, -1.28811798412821], a = 0.2, v = 0.2, t = 0.2)
movej(p[0.432799096531462, -0.088386655979547, 0.435403070734517, -1.17719300178185, 1.16937831704177, -1.28034383680654], a = 0.2, v = 0.2, t = 0.2)
movej(p[0.433533066290746, -0.0884095706527871, 0.435399443043688, -1.17974977406919, 1.17783707107884, -1.27495589916716], a = 0.2, v = 0.2, t = 0.2)
movej(p[0.43396557575479, -0.0885810376830517, 0.435432618481194, -1.17137463622721, 1.18671392651504, -1.25679944511521], a = 0.2, v = 0.2, t = 0.2)
movej(p[0.434047753044549, -0.0887120139450049, 0.435401528038086, -1.17430068094338, 1.18791692496135, -1.26667045523781], a = 0.2, v = 0.2, t = 0.2)
movej(p[0.433961100794833, -0.0887221144246295, 0.435327824000804, -1.17567706264539, 1.18902832659099, -1.27033028141979], a = 0.2, v = 0.2, t = 0.2)
movej(p[0.433573191770196, -0.0887493437329973, 0.435229854770472, -1.18074932895054, 1.18604176435265, -1.27870678027379], a = 0.2, v = 0.2, t = 0.2)
movej(p[0.432782964536979, -0.0888938434350865, 0.435255748454616, -1.17311503911782, 1.18577595059562, -1.27564668301563], a = 0.2, v = 0.2, t = 0.2)
movej(p[0.431940827205854, -0.0888205309385213, 0.435158054664264, -1.16386420796457, 1.1828462809632, -1.27931689139428], a = 0.2, v = 0.2, t = 0.2)
movej(p[0.431140621463746, -0.0885745181596006, 0.435037338677732, -1.15716976868678, 1.17866342478163, -1.28020393499552], a = 0.2, v = 0.2, t = 0.2)
movej(p[0.430429249084391, -0.0884232068611063, 0.43503256658934, -1.15689611986743, 1.17144297814953, -1.27742379950688], a = 0.2, v = 0.2, t = 0.2)
movej(p[0.42979428767528, -0.0883560612522873, 0.435106299824028, -1.15851112123109, 1.16271566777336, -1.2829115765216], a = 0.2, v = 0.2, t = 0.2)
movej(p[0.429705197757709, -0.0882150524445373, 0.435125703157247, -1.16388508009041, 1.15699762427744, -1.28615696431152], a = 0.2, v = 0.2, t = 0.2)
movej(p[0.430162950116292, -0.0881322880132161, 0.435153539060674, -1.16634095847003, 1.15447936232311, -1.28618378862448], a = 0.2, v = 0.2, t = 0.2)
movej(p[0.431121439620173, -0.0881510543654403, 0.43524339187963, -1.17219412543343, 1.1566733285883, -1.28642300530218], a = 0.2, v = 0.2, t = 0.2)
movej(p[0.432195044386535, -0.0881827258886899, 0.435312325860073, -1.17574597635069, 1.16286977215453, -1.28847584628901], a = 0.2, v = 0.2, t = 0.2)
movej(p[0.433285373849998, -0.0881482539028429, 0.43527203049688, -1.17583575499426, 1.17384146540521, -1.27616090370904], a = 0.2, v = 0.2, t = 0.2)
movej(p[0.433969866108649, -0.0882874625053348, 0.435311391360234, -1.1763090346285, 1.1827454048029, -1.2636917866392], a = 0.2, v = 0.2, t = 0.2)
movej(p[0.434199932150547, -0.0884698144537162, 0.435379934377141, -1.17580565572137, 1.18947356981712, -1.26049482637957], a = 0.2, v = 0.2, t = 0.2)
movej(p[0.434268281967265, -0.088549225981094, 0.435354099716893, -1.18623976648795, 1.18841252922508, -1.27631434795674], a = 0.2, v = 0.2, t = 0.2)
movej(p[0.434107417649586, -0.0885647039896153, 0.435245891495626, -1.18550900500622, 1.18780477696398, -1.27726150584037], a = 0.2, v = 0.2, t = 0.2)
movej(p[0.433714450033748, -0.088773507857249, 0.435207187027365, -1.18150476001009, 1.18542315637179, -1.27325585935385], a = 0.2, v = 0.2, t = 0.2)
movej(p[0.432926038649353, -0.0888378881799983, 0.435155054152908, -1.17072137641566, 1.18332713177827, -1.2772990857729], a = 0.2, v = 0.2, t = 0.2)
movej(p[0.432074743837863, -0.0887034112041682, 0.435044311491737, -1.16606417125285, 1.18035158034614, -1.28213235682018], a = 0.2, v = 0.2, t = 0.2)
movej(p[0.431147295164498, -0.0884608532074617, 0.434977095589551, -1.16323100903206, 1.17444746979448, -1.2859420169834], a = 0.2, v = 0.2, t = 0.2)
movej(p[0.430285108556648, -0.0883936716127449, 0.435104970303936, -1.16816644359585, 1.16682384463765, -1.29220439054108], a = 0.2, v = 0.2, t = 0.2)
movej(p[0.429678924506662, -0.0882306631159211, 0.435154932349545, -1.16865727184558, 1.15821857275575, -1.29689848406157], a = 0.2, v = 0.2, t = 0.2)
movej(p[0.429672630798515, -0.0880490523025855, 0.435165854871294, -1.17283283863345, 1.15158016899172, -1.29733340184628], a = 0.2, v = 0.2, t = 0.2)
movej(p[0.430247183169078, -0.0880092173866893, 0.43521555980321, -1.16946399232575, 1.15236021615801, -1.28593889937211], a = 0.2, v = 0.2, t = 0.2)
movej(p[0.431162220846573, -0.0881139198520581, 0.435335559340749, -1.17481131176486, 1.1546839684514, -1.28996256355169], a = 0.2, v = 0.2, t = 0.2)
movej(p[0.432380396886708, -0.088147381727388, 0.435384761916298, -1.17431392505002, 1.1665422419764, -1.28276702222137], a = 0.2, v = 0.2, t = 0.2)
movej(p[0.433389720607371, -0.0881977929471543, 0.435404507919163, -1.17652645461108, 1.17528740974733, -1.27799840790948], a = 0.2, v = 0.2, t = 0.2)
movej(p[0.434012846452239, -0.0883473572810745, 0.435474064194404, -1.16692963098807, 1.18799192675097, -1.25838358999028], a = 0.2, v = 0.2, t = 0.2)
movej(p[0.434272334504691, -0.0884212751708723, 0.435474903012504, -1.17128779008446, 1.19131039396799, -1.26821097419666], a = 0.2, v = 0.2, t = 0.2)
movej(p[0.434383931638807, -0.0884414967039172, 0.435409724062779, -1.17492810721065, 1.19288265461671, -1.27185248720575], a = 0.2, v = 0.2, t = 0.2)
movej(p[0.434386907942004, -0.0885397658204555, 0.435379246702361, -1.17537845138601, 1.19388064346937, -1.26950209304732], a = 0.2, v = 0.2, t = 0.2)
movej(p[0.434084411988174, -0.0887458500991367, 0.435370244158437, -1.17000580892424, 1.19302984380991, -1.26822614081443], a = 0.2, v = 0.2, t = 0.2)
movej(p[0.433554403277333, -0.0887421861518263, 0.435234742824042, -1.16662655985707, 1.19089609353308, -1.27522817234221], a = 0.2, v = 0.2, t = 0.2)
movej(p[0.43263850716528, -0.0886770689214906, 0.435092846296813, -1.16530622742386, 1.18633228674961, -1.28414334446504], a = 0.2, v = 0.2, t = 0.2)
movej(p[0.431565946565967, -0.0886241173114714, 0.435107386028532, -1.16639718109474, 1.18118998551849, -1.29044427104088], a = 0.2, v = 0.2, t = 0.2)
movej(p[0.430671544314685, -0.0885101171010367, 0.435183810523437, -1.16222836547979, 1.17557807002969, -1.29152116045649], a = 0.2, v = 0.2, t = 0.2)
movej(p[0.430011107312693, -0.0882420511115969, 0.435247480053313, -1.16317038933517, 1.1679528021145, -1.29049979307765], a = 0.2, v = 0.2, t = 0.2)
movej(p[0.429460792267092, -0.088072869291845, 0.435440853550969, -1.1662432201662, 1.15975160066825, -1.28558867863336], a = 0.2, v = 0.2, t = 0.2)
movej(p[0.428943759484701, -0.0880429424501089, 0.435717643986991, -1.16932723041448, 1.15296050137097, -1.28383091948314], a = 0.2, v = 0.2, t = 0.2)
movej(p[0.428957302959173, -0.087978516127863, 0.435903826652406, -1.17307287125102, 1.14803839826563, -1.29089713417182], a = 0.2, v = 0.2, t = 0.2)
movej(p[0.429691889483056, -0.0878400439400787, 0.435916648389428, -1.17562010053568, 1.14626869649142, -1.29354884160254], a = 0.2, v = 0.2, t = 0.2)
movej(p[0.430815411054256, -0.0878930967973488, 0.435956099870821, -1.17260509830937, 1.15008637524042, -1.28549085589244], a = 0.2, v = 0.2, t = 0.2)
movej(p[0.431842142519013, -0.0879710580360847, 0.436016024764914, -1.17393069361463, 1.15667120516054, -1.29083343782112], a = 0.2, v = 0.2, t = 0.2)
movej(p[0.43281059145407, -0.0880577443201258, 0.436024038674464, -1.18027344000493, 1.16540485007533, -1.29167817513169], a = 0.2, v = 0.2, t = 0.2)
movej(p[0.433552524257511, -0.0881177410641534, 0.435971624385534, -1.18324446468622, 1.17501669387373, -1.28932215091439], a = 0.2, v = 0.2, t = 0.2)
movej(p[0.434010362963944, -0.088345746770334, 0.435986683716762, -1.18421810013766, 1.18253846896783, -1.28176674098216], a = 0.2, v = 0.2, t = 0.2)
movej(p[0.434166630725409, -0.0884201702343193, 0.435911834405233, -1.17676770280978, 1.18855517727613, -1.27455096749337], a = 0.2, v = 0.2, t = 0.2)
movej(p[0.434264716145696, -0.0884244136699932, 0.435796300596629, -1.17840240212347, 1.19076013444956, -1.2761741125399], a = 0.2, v = 0.2, t = 0.2)
movej(p[0.434263235889866, -0.0884825889688015, 0.435733442712953, -1.17422925951452, 1.1935165135793, -1.26807058277418], a = 0.2, v = 0.2, t = 0.2)
movej(p[0.434181126886317, -0.0886402594686714, 0.435732731350845, -1.17703280659387, 1.19287383138657, -1.27222837184361], a = 0.2, v = 0.2, t = 0.2)
movej(p[0.433940168705732, -0.0886801616989505, 0.435620000302338, -1.17469471882453, 1.1938015772975, -1.27200145229756], a = 0.2, v = 0.2, t = 0.2)
movej(p[0.433358628333456, -0.0887085229463863, 0.435489237996982, -1.1739185073324, 1.19050931337112, -1.277732154466], a = 0.2, v = 0.2, t = 0.2)
movej(p[0.432390021236231, -0.0887896413943664, 0.435467698818634, -1.16884296117352, 1.18758131756739, -1.27784749129325], a = 0.2, v = 0.2, t = 0.2)
movej(p[0.43141680245064, -0.0886893547568842, 0.435466027078441, -1.16924852189515, 1.17894662912043, -1.29405561950016], a = 0.2, v = 0.2, t = 0.2)
movej(p[0.43068725853273, -0.0883996220783911, 0.435429311695373, -1.17332053967175, 1.17087538343986, -1.30194344538698], a = 0.2, v = 0.2, t = 0.2)
movej(p[0.430135932354177, -0.0881755262582651, 0.43544922601605, -1.17332165986634, 1.16298211788542, -1.30163996862635], a = 0.2, v = 0.2, t = 0.2)
movej(p[0.429776761595333, -0.0881502469022002, 0.435567528100803, -1.16932521066786, 1.15922441980531, -1.2910481134482], a = 0.2, v = 0.2, t = 0.2)
movej(p[0.429998664012039, -0.0881467142540254, 0.435659904458806, -1.17173638370866, 1.15624916838763, -1.29454943439595], a = 0.2, v = 0.2, t = 0.2)
movej(p[0.430766937890156, -0.0881119409432615, 0.435703613611864, -1.17652713680652, 1.15599255520242, -1.29368668891135], a = 0.2, v = 0.2, t = 0.2)
movej(p[0.431886766921658, -0.0882243048528045, 0.435819385147822, -1.17981969275308, 1.15992594515191, -1.28959463993079], a = 0.2, v = 0.2, t = 0.2)
movej(p[0.432788250397776, -0.0882870748037821, 0.435865215860065, -1.17828926965409, 1.16761333962714, -1.28896664752236], a = 0.2, v = 0.2, t = 0.2)
movej(p[0.433653028529244, -0.088287292934963, 0.435830876208393, -1.18654204967516, 1.17537796122714, -1.29336582341056], a = 0.2, v = 0.2, t = 0.2)
movej(p[0.434100588492165, -0.0883028220086455, 0.4357435853084, -1.18535223584452, 1.18372727772876, -1.28511799764946], a = 0.2, v = 0.2, t = 0.2)
movej(p[0.43424317239413, -0.0884978250673935, 0.435740441305636, -1.18692195166491, 1.18764481220654, -1.27930969733087], a = 0.2, v = 0.2, t = 0.2)
movej(p[0.433913782246003, -0.0886006871385374, 0.435619188329347, -1.17230113317091, 1.19028129997001, -1.26950076692021], a = 0.2, v = 0.2, t = 0.2)
movej(p[0.43321241609107, -0.0885712372239705, 0.435416735850825, -1.16903584418265, 1.1868517911771, -1.27579091213128], a = 0.2, v = 0.2, t = 0.2)
movej(p[0.432134699082122, -0.0885354024266201, 0.435303171608118, -1.16043009455623, 1.18236892691691, -1.27400083441878], a = 0.2, v = 0.2, t = 0.2)
movej(p[0.430975472227507, -0.0884466517710684, 0.435354732007456, -1.1671178133013, 1.17353860116652, -1.29410478185509], a = 0.2, v = 0.2, t = 0.2)
movej(p[0.430153724226728, -0.0881760700755954, 0.435404410350733, -1.17477672021879, 1.16470230929146, -1.30538024567074], a = 0.2, v = 0.2, t = 0.2)
movej(p[0.429666657595296, -0.0878762065686615, 0.435425911794772, -1.18290882295645, 1.15453901622024, -1.31474736675329], a = 0.2, v = 0.2, t = 0.2)
movej(p[0.42958890655986, -0.0878995342698352, 0.43554386332537, -1.17725459880862, 1.15146568780978, -1.29697885581789], a = 0.2, v = 0.2, t = 0.2)
movej(p[0.429815677626712, -0.0879692505953173, 0.435628797959114, -1.17469292420576, 1.14963903090032, -1.29734107128954], a = 0.2, v = 0.2, t = 0.2)
movej(p[0.430550867211342, -0.0879944947179134, 0.435676328907207, -1.17841902876787, 1.15164457351724, -1.29610287649327], a = 0.2, v = 0.2, t = 0.2)
movej(p[0.431367769340008, -0.0880605545123054, 0.435741220474036, -1.18207583465482, 1.15649827523804, -1.29666090927446], a = 0.2, v = 0.2, t = 0.2)
movej(p[0.432011898103236, -0.0882554226866542, 0.435842716466117, -1.17760738936722, 1.16405499071708, -1.28625922527066], a = 0.2, v = 0.2, t = 0.2)
movej(p[0.432424252952089, -0.0883321997570394, 0.435802712362435, -1.17255285267036, 1.17074310643538, -1.28222277896192], a = 0.2, v = 0.2, t = 0.2)
movej(p[0.432489432159414, -0.0883765123615503, 0.43569353950519, -1.17189968748953, 1.17320789724307, -1.28111165622683], a = 0.2, v = 0.2, t = 0.2)
movej(p[0.431951006097472, -0.0884737475267071, 0.435622849487182, -1.16980773347806, 1.17547075971311, -1.27526652161812], a = 0.2, v = 0.2, t = 0.2)
movej(p[0.430919231555859, -0.0884791969113171, 0.435558728217357, -1.16795302721996, 1.17158651782787, -1.28416689688953], a = 0.2, v = 0.2, t = 0.2)
movej(p[0.429838640013553, -0.0882626074577029, 0.435452741023213, -1.16703630155376, 1.16589995565806, -1.28669649574317], a = 0.2, v = 0.2, t = 0.2)
movej(p[0.42887123856567, -0.0880366611782484, 0.435484462708097, -1.16891043761794, 1.15508854775049, -1.28894594089556], a = 0.2, v = 0.2, t = 0.2)
movej(p[0.427867412350083, -0.0879250816190004, 0.435727053146816, -1.16925690154763, 1.14772324463062, -1.28154767541017], a = 0.2, v = 0.2, t = 0.2)
movej(p[0.427036649660368, -0.0878078193038336, 0.436081924072253, -1.17358978176345, 1.1374842170637, -1.28678011393344], a = 0.2, v = 0.2, t = 0.2)
movej(p[0.426508679553111, -0.0876184161066132, 0.436354522465546, -1.18116431590954, 1.12681770922861, -1.29394699773232], a = 0.2, v = 0.2, t = 0.2)
movej(p[0.426679145454726, -0.0875434384154763, 0.436483631927316, -1.18802042281385, 1.11707026060372, -1.29681957183179], a = 0.2, v = 0.2, t = 0.2)
movej(p[0.427185447666734, -0.0875480893277982, 0.43635828974116, -1.18979128965778, 1.11428147316757, -1.30212645613877], a = 0.2, v = 0.2, t = 0.2)
movej(p[0.42813590741792, -0.0875271369907484, 0.436122594042543, -1.1900349594084, 1.11780460370932, -1.30227780989318], a = 0.2, v = 0.2, t = 0.2)
movej(p[0.428993622951836, -0.0875426575631267, 0.43595644016473, -1.18426364388024, 1.12652798597938, -1.29440947953406], a = 0.2, v = 0.2, t = 0.2)
movej(p[0.429806450723562, -0.0877907665309354, 0.436009184362551, -1.18423845777893, 1.13476902459814, -1.2893667528489], a = 0.2, v = 0.2, t = 0.2)
movej(p[0.430511585029792, -0.0879480782602741, 0.435966212278708, -1.18328935149896, 1.14106337654453, -1.29279622899237], a = 0.2, v = 0.2, t = 0.2)
movej(p[0.431285438594269, -0.088029521875416, 0.435859108104659, -1.19056603424896, 1.14586167318675, -1.29943649940734], a = 0.2, v = 0.2, t = 0.2)
movej(p[0.431978688355676, -0.0881266409868944, 0.435752246922767, -1.18602408473677, 1.1522150459925, -1.29179132916972], a = 0.2, v = 0.2, t = 0.2)
movej(p[0.43252169356444, -0.0882553177034085, 0.435711501719327, -1.1925455376167, 1.15786515755949, -1.29674241683331], a = 0.2, v = 0.2, t = 0.2)
movej(p[0.432895230659414, -0.0883491805959748, 0.435620844819185, -1.19612043023785, 1.16251759647448, -1.29874208336862], a = 0.2, v = 0.2, t = 0.2)
movej(p[0.432997363969967, -0.0883688558549848, 0.435504060145711, -1.20209432566232, 1.16505620172882, -1.30367558555339], a = 0.2, v = 0.2, t = 0.2)
movej(p[0.432660839523239, -0.0885417548397137, 0.4354567118516, -1.19324771146266, 1.16758518024931, -1.29543486731981], a = 0.2, v = 0.2, t = 0.2)
movej(p[0.432050909188255, -0.08845526046809, 0.43535542700999, -1.18503774362455, 1.16690791244302, -1.30083334061998], a = 0.2, v = 0.2, t = 0.2)
movej(p[0.431310861016458, -0.0881687544339552, 0.435230642761865, -1.18281230780285, 1.16350880049454, -1.30881152375145], a = 0.2, v = 0.2, t = 0.2)
movej(p[0.430688977852222, -0.0879160805694705, 0.435215142402309, -1.18238707054008, 1.15822610295192, -1.31079246946632], a = 0.2, v = 0.2, t = 0.2)
movej(p[0.430149143184769, -0.0879636721055448, 0.435349408153749, -1.18078805980638, 1.15388132629245, -1.30819260566132], a = 0.2, v = 0.2, t = 0.2)
movej(p[0.430342063330899, -0.0879996784459563, 0.435419807585333, -1.17566376509164, 1.1520091936421, -1.30004275290052], a = 0.2, v = 0.2, t = 0.2)
movej(p[0.431025005298773, -0.0880238332468864, 0.43544369474943, -1.17463564220169, 1.15364112168928, -1.29266559504398], a = 0.2, v = 0.2, t = 0.2)
movej(p[0.432143309330594, -0.0880811668198015, 0.435511279406193, -1.17386130635346, 1.16105210699628, -1.27992164042005], a = 0.2, v = 0.2, t = 0.2)
movej(p[0.433036450412695, -0.0881430514458187, 0.435548763197699, -1.17923167057618, 1.16910384296999, -1.28175643064234], a = 0.2, v = 0.2, t = 0.2)
movej(p[0.433683973059257, -0.0881526651744968, 0.435501886863468, -1.18164548641407, 1.17773017336649, -1.27799200081265], a = 0.2, v = 0.2, t = 0.2)
movej(p[0.433982188524386, -0.0882634798309514, 0.435451579406799, -1.18067835540641, 1.18279753950364, -1.27347533813263], a = 0.2, v = 0.2, t = 0.2)
movej(p[0.433943667441614, -0.0884441350016755, 0.435448140379364, -1.17704705334075, 1.18732276098246, -1.27149044382881], a = 0.2, v = 0.2, t = 0.2)
movej(p[0.433634548926457, -0.0885335696007846, 0.435372037792115, -1.18106473038432, 1.18527977486564, -1.28457785576438], a = 0.2, v = 0.2, t = 0.2)
movej(p[0.432986147135612, -0.0884973423720672, 0.435245220247867, -1.18239530535114, 1.18218974997189, -1.29549511126962], a = 0.2, v = 0.2, t = 0.2)
movej(p[0.4321284196191, -0.0885091968885703, 0.435234437764055, -1.18445930631951, 1.17820815451431, -1.30207520828161], a = 0.2, v = 0.2, t = 0.2)
movej(p[0.431230824862504, -0.0883884112342283, 0.435260316765691, -1.17924878691631, 1.17344973928033, -1.30821624410573], a = 0.2, v = 0.2, t = 0.2)
movej(p[0.430577444275302, -0.0881205171800103, 0.435258272150632, -1.17758019883608, 1.168259784768, -1.30895527055023], a = 0.2, v = 0.2, t = 0.2)
movej(p[0.430187628112871, -0.0879103813148591, 0.435251739816828, -1.17319599251799, 1.1608834900557, -1.3017118379012], a = 0.2, v = 0.2, t = 0.2)
movej(p[0.430133994392729, -0.0879784351694137, 0.435402577754509, -1.17597172811337, 1.15622761524748, -1.2947716531285], a = 0.2, v = 0.2, t = 0.2)
movej(p[0.430539397313214, -0.0880865355680983, 0.43553445013995, -1.17900309061317, 1.15470552900844, -1.29886338651836], a = 0.2, v = 0.2, t = 0.2)
movej(p[0.431541437027206, -0.0881103585280974, 0.435576626896813, -1.18536852568578, 1.15783457274491, -1.30025375403887], a = 0.2, v = 0.2, t = 0.2)
movej(p[0.432630119355599, -0.0881835655001625, 0.435590244215292, -1.18108718386121, 1.16610975484622, -1.28747034373766], a = 0.2, v = 0.2, t = 0.2)
movej(p[0.433367285363948, -0.0883474689628185, 0.435663193148837, -1.18924925269365, 1.17133832988682, -1.29083524178274], a = 0.2, v = 0.2, t = 0.2)
movej(p[0.433787817302496, -0.0884380740491925, 0.43562873446479, -1.1908721523068, 1.17767683114508, -1.28644757681602], a = 0.2, v = 0.2, t = 0.2)
movej(p[0.433956364597628, -0.088478439685348, 0.435542116661836, -1.19430120269591, 1.18048350419277, -1.28725207095369], a = 0.2, v = 0.2, t = 0.2)
movej(p[0.433903330444138, -0.0886374777758236, 0.435491227424717, -1.1871026804699, 1.18266695448726, -1.27840826994119], a = 0.2, v = 0.2, t = 0.2)
movej(p[0.433562831305923, -0.0887278248315817, 0.435381495213171, -1.18901534471831, 1.18037168526851, -1.29398961928115], a = 0.2, v = 0.2, t = 0.2)
movej(p[0.432981799538523, -0.0886544616911721, 0.435228977869236, -1.19128029588872, 1.17646281019771, -1.30695503288335], a = 0.2, v = 0.2, t = 0.2)
movej(p[0.432206734787151, -0.0885371344978132, 0.435135621371979, -1.1878095944969, 1.17395702212439, -1.31050252128231], a = 0.2, v = 0.2, t = 0.2)
movej(p[0.431274019073411, -0.0885048933936581, 0.435222169840156, -1.17340756433963, 1.1728572709245, -1.29640021872648], a = 0.2, v = 0.2, t = 0.2)
movej(p[0.430642977102089, -0.0882930983483637, 0.435240073755452, -1.16651186565426, 1.16870740837363, -1.29743590053081], a = 0.2, v = 0.2, t = 0.2)
movej(p[0.43039487223505, -0.0880245541384802, 0.435222895812796, -1.17148129750434, 1.1625868435073, -1.30042739012347], a = 0.2, v = 0.2, t = 0.2)
movej(p[0.430650221514789, -0.0879845764433816, 0.43529128884849, -1.17681397261192, 1.15848090748389, -1.2998720514346], a = 0.2, v = 0.2, t = 0.2)
movej(p[0.431218913341015, -0.0880869902684117, 0.435431219001519, -1.18071759789475, 1.15768647832532, -1.30212937920399], a = 0.2, v = 0.2, t = 0.2)
movej(p[0.432132258160175, -0.0881412243579661, 0.435471940755453, -1.18264500618988, 1.16240300731498, -1.30212101229975], a = 0.2, v = 0.2, t = 0.2)
movej(p[0.433087465540879, -0.0881325189292665, 0.435446698876354, -1.18474099274975, 1.16971038203392, -1.29616328056815], a = 0.2, v = 0.2, t = 0.2)
movej(p[0.433810112604243, -0.0883040693345459, 0.435491275933507, -1.18586891804197, 1.1780580570295, -1.28397710885005], a = 0.2, v = 0.2, t = 0.2)
movej(p[0.4340051518321, -0.0884077367996532, 0.435493920341094, -1.18496034450336, 1.18174201199205, -1.28508817391595], a = 0.2, v = 0.2, t = 0.2)
movej(p[0.434196338457414, -0.088430737585966, 0.435417202385103, -1.18976493600564, 1.18233763204651, -1.29132242092996], a = 0.2, v = 0.2, t = 0.2)
movej(p[0.434243710735962, -0.0884411584971849, 0.435328872478641, -1.18962282352298, 1.18365647913662, -1.29148963165226], a = 0.2, v = 0.2, t = 0.2)
movej(p[0.434283847968252, -0.088661609956328, 0.435367431776895, -1.18238112857636, 1.1874380048165, -1.28110877406102], a = 0.2, v = 0.2, t = 0.2)
movej(p[0.434206910754819, -0.0887364785711911, 0.435317211644501, -1.1749311121606, 1.18976813817127, -1.28042649634011], a = 0.2, v = 0.2, t = 0.2)
movej(p[0.434065824361529, -0.0887165809437976, 0.435220432902246, -1.17778563212437, 1.18842152645374, -1.28285846265296], a = 0.2, v = 0.2, t = 0.2)
movej(p[0.433586839336509, -0.0887710925192892, 0.435165703019689, -1.18092285190567, 1.18581651928738, -1.28795438667705], a = 0.2, v = 0.2, t = 0.2)
movej(p[0.43274974072764, -0.0889344653312757, 0.435221049103859, -1.17887194980778, 1.18333125749353, -1.29372261615883], a = 0.2, v = 0.2, t = 0.2)
movej(p[0.431899971618803, -0.0888056792850941, 0.435172292760946, -1.17456446228422, 1.17987755102352, -1.30064880399451], a = 0.2, v = 0.2, t = 0.2)
movej(p[0.431133951077111, -0.0885317842958377, 0.435110609742485, -1.17293703135393, 1.17343846275748, -1.30567723321933], a = 0.2, v = 0.2, t = 0.2)
movej(p[0.430520213405718, -0.0883541499592765, 0.435143326560359, -1.17188298228728, 1.16660115777046, -1.29981904960255], a = 0.2, v = 0.2, t = 0.2)
movej(p[0.42992060946763, -0.0882938879731589, 0.435249875746815, -1.17199875017127, 1.15824979752658, -1.30295804638243], a = 0.2, v = 0.2, t = 0.2)
movej(p[0.429948093268661, -0.0881611140348432, 0.435277594788085, -1.17286565590276, 1.15401381063534, -1.29876876200093], a = 0.2, v = 0.2, t = 0.2)
movej(p[0.430507536660626, -0.0880701592923225, 0.435289238078002, -1.17940635296645, 1.14973761842447, -1.30393167920199], a = 0.2, v = 0.2, t = 0.2)
movej(p[0.431570726543852, -0.0881790175854442, 0.435386628459588, -1.18114220534921, 1.15394877305564, -1.29483876499253], a = 0.2, v = 0.2, t = 0.2)
movej(p[0.432615326671892, -0.0882372684880341, 0.435419324155722, -1.1759334409454, 1.16283039920118, -1.29266620213442], a = 0.2, v = 0.2, t = 0.2)
movej(p[0.433557962041319, -0.0882105946502608, 0.435330804964671, -1.17529846512294, 1.17352116298953, -1.28364286969243], a = 0.2, v = 0.2, t = 0.2)
movej(p[0.434107177074644, -0.0882294013318952, 0.435252666312935, -1.17296376607705, 1.1839374722471, -1.27364095558695], a = 0.2, v = 0.2, t = 0.2)
movej(p[0.434265912827874, -0.0884184763327678, 0.435266424218181, -1.18199688081164, 1.18637387356213, -1.27845853150669], a = 0.2, v = 0.2, t = 0.2)
movej(p[0.434270828923706, -0.0885151952202745, 0.435246729880943, -1.18096418668035, 1.18848675034973, -1.28124390598607], a = 0.2, v = 0.2, t = 0.2)
movej(p[0.434291876975596, -0.0884907975116296, 0.435151848308841, -1.18153713657627, 1.18803025283923, -1.28468265174297], a = 0.2, v = 0.2, t = 0.2)
movej(p[0.434266650908331, -0.0885762822482991, 0.435091320986681, -1.17437848546133, 1.19041106999374, -1.27450833144997], a = 0.2, v = 0.2, t = 0.2)
movej(p[0.434026934019405, -0.0887149845570395, 0.435101444193375, -1.17893814478437, 1.18779927779417, -1.28711107893179], a = 0.2, v = 0.2, t = 0.2)
movej(p[0.43356136002672, -0.0886882519547244, 0.434994495015684, -1.17532559311731, 1.18640262241768, -1.28839226483248], a = 0.2, v = 0.2, t = 0.2)
movej(p[0.432819729183694, -0.0886232649364242, 0.434925642361953, -1.17657921139915, 1.18146198315914, -1.29881267495585], a = 0.2, v = 0.2, t = 0.2)
movej(p[0.431922018992588, -0.0885882344294152, 0.434995186277304, -1.16916266257602, 1.17942262751713, -1.29485161869056], a = 0.2, v = 0.2, t = 0.2)
movej(p[0.431103219769206, -0.0884594439240114, 0.435092311386862, -1.17328071040426, 1.17215704982371, -1.31234571508766], a = 0.2, v = 0.2, t = 0.2)
movej(p[0.430602673173253, -0.088157366279788, 0.435099065751408, -1.18039542377975, 1.16428678084358, -1.31943219517984], a = 0.2, v = 0.2, t = 0.2)
movej(p[0.430434555756616, -0.0879839523992871, 0.435116484441737, -1.18188983968884, 1.15761232674751, -1.3183568539533], a = 0.2, v = 0.2, t = 0.2)
movej(p[0.430449881771351, -0.088029958395339, 0.4352667178954, -1.1842162298809, 1.15448194292624, -1.31333373593117], a = 0.2, v = 0.2, t = 0.2)
movej(p[0.431048494553179, -0.0880570538283089, 0.435364735139518, -1.18646746628142, 1.1550428479267, -1.31509533099082], a = 0.2, v = 0.2, t = 0.2)
movej(p[0.432006028497269, -0.0880400268798583, 0.435405602839996, -1.19238786311738, 1.15923873354902, -1.31255712118152], a = 0.2, v = 0.2, t = 0.2)
movej(p[0.433093057593678, -0.088148509233494, 0.435451572972805, -1.19092775275152, 1.16705980383864, -1.29808438077929], a = 0.2, v = 0.2, t = 0.2)
movej(p[0.433700540043506, -0.0882657584317947, 0.435462299558853, -1.18440208337005, 1.1754376757946, -1.28819631826493], a = 0.2, v = 0.2, t = 0.2)
movej(p[0.434131068883459, -0.0883100736485697, 0.435402294385482, -1.17769002952118, 1.18318654643584, -1.27656323608699], a = 0.2, v = 0.2, t = 0.2)
movej(p[0.434277258515331, -0.088364267062429, 0.435335131427563, -1.17924363174057, 1.1863998153932, -1.27579148156009], a = 0.2, v = 0.2, t = 0.2)
movej(p[0.434363180321075, -0.0885413972366121, 0.435352005318651, -1.17968239241127, 1.18984389731844, -1.27036846914052], a = 0.2, v = 0.2, t = 0.2)
movej(p[0.434325609971059, -0.0886207480011277, 0.435338146383972, -1.17783739818427, 1.19152498571151, -1.27180798036224], a = 0.2, v = 0.2, t = 0.2)
movej(p[0.434307013423172, -0.0885996510430517, 0.43525036661827, -1.17265408572006, 1.19380635234691, -1.26642230228989], a = 0.2, v = 0.2, t = 0.2)
movej(p[0.434032965713253, -0.0887000036543236, 0.43519969283216, -1.1665258289108, 1.19343749542794, -1.26066746325957], a = 0.2, v = 0.2, t = 0.2)
movej(p[0.43340435736332, -0.0888334290119723, 0.435174172455376, -1.17092832750321, 1.18924432527388, -1.27977155546397], a = 0.2, v = 0.2, t = 0.2)
movej(p[0.432713484275482, -0.0888016825057243, 0.435075437679116, -1.16901731901329, 1.18615205377182, -1.28748735891972], a = 0.2, v = 0.2, t = 0.2)
movej(p[0.431972426931575, -0.0886292961082954, 0.434985742723172, -1.16716282684882, 1.18125012721257, -1.29495726391161], a = 0.2, v = 0.2, t = 0.2)
movej(p[0.431231823261361, -0.0885952738170329, 0.435061424650754, -1.15966766239366, 1.17735373385418, -1.2833335969662], a = 0.2, v = 0.2, t = 0.2)
movej(p[0.430581009369054, -0.0884611586434933, 0.435114939548748, -1.15815241344186, 1.17083524053545, -1.28867619044526], a = 0.2, v = 0.2, t = 0.2)
movej(p[0.430332836422219, -0.0882174511672782, 0.435124970804717, -1.16513826317954, 1.16387108342093, -1.29284851723606], a = 0.2, v = 0.2, t = 0.2)
movej(p[0.430550737830024, -0.0880718954178134, 0.435173269815831, -1.16921860983746, 1.15942129385447, -1.2932685269806], a = 0.2, v = 0.2, t = 0.2)
movej(p[0.431128830720097, -0.0881740782224285, 0.435309268807695, -1.16696333640368, 1.16053038913522, -1.2859838631971], a = 0.2, v = 0.2, t = 0.2)
movej(p[0.432129996311249, -0.0882110155486932, 0.435374139327364, -1.1696565218945, 1.16468777188037, -1.28728468153373], a = 0.2, v = 0.2, t = 0.2)
movej(p[0.433172054977747, -0.0882061804202895, 0.435370736253897, -1.17135928314167, 1.1736344972421, -1.27943035383553], a = 0.2, v = 0.2, t = 0.2)
movej(p[0.433881210003564, -0.0883368858384627, 0.435420677016217, -1.17807989541857, 1.18056236428542, -1.27455712361259], a = 0.2, v = 0.2, t = 0.2)
movej(p[0.434129615303182, -0.0885300072294622, 0.435471789056502, -1.17786394058263, 1.18643062760901, -1.27142896560588], a = 0.2, v = 0.2, t = 0.2)
movej(p[0.434244560870744, -0.0885903987380472, 0.435402045324248, -1.178105252293, 1.18963959855289, -1.26883159828667], a = 0.2, v = 0.2, t = 0.2)
movej(p[0.434183119996606, -0.0886554147676837, 0.435328883070487, -1.17679363663405, 1.18951811922039, -1.26895223689956], a = 0.2, v = 0.2, t = 0.2)
movej(p[0.433857583249737, -0.0887444844506943, 0.43526117089948, -1.17674297693729, 1.18892263420895, -1.27283399812095], a = 0.2, v = 0.2, t = 0.2)
movej(p[0.433249914468762, -0.0886941996574351, 0.435133907281145, -1.180373831607, 1.18412351178436, -1.29367703928235], a = 0.2, v = 0.2, t = 0.2)
movej(p[0.432496916629124, -0.0884957275537591, 0.434968162242418, -1.18203927635617, 1.17951929226643, -1.30582316674679], a = 0.2, v = 0.2, t = 0.2)
movej(p[0.431692269867596, -0.088359710977934, 0.434934822790191, -1.17326238005621, 1.17568195554034, -1.29864794942094], a = 0.2, v = 0.2, t = 0.2)
movej(p[0.430852780872565, -0.0882291116833286, 0.434984677003641, -1.16530143058693, 1.17059835869152, -1.29865198526882], a = 0.2, v = 0.2, t = 0.2)
movej(p[0.430447275575372, -0.0880051437442601, 0.434963161039384, -1.16259568961961, 1.1639216215511, -1.29893011908902], a = 0.2, v = 0.2, t = 0.2)
movej(p[0.430530524407157, -0.0878186214887721, 0.434965471713328, -1.16986203710344, 1.15687974470514, -1.3043935444638], a = 0.2, v = 0.2, t = 0.2)
movej(p[0.431176841105757, -0.0879183111311429, 0.435095670447252, -1.17349831928471, 1.15544627199225, -1.2991157599019], a = 0.2, v = 0.2, t = 0.2)
movej(p[0.43207110939862, -0.0879965090874838, 0.435187371315862, -1.17412316252831, 1.15867751114271, -1.29979190844342], a = 0.2, v = 0.2, t = 0.2)
movej(p[0.43309773111114, -0.0879980661852142, 0.43519538582957, -1.17447179950559, 1.16819936358172, -1.29354362638229], a = 0.2, v = 0.2, t = 0.2)
movej(p[0.433842770799646, -0.088036922453213, 0.43515314103121, -1.17257718041003, 1.17730123267976, -1.28262654958394], a = 0.2, v = 0.2, t = 0.2)
movej(p[0.434110756696283, -0.0882139028658506, 0.435201460402542, -1.18005892432006, 1.18351222209378, -1.28282156524573], a = 0.2, v = 0.2, t = 0.2)
movej(p[0.434204760289193, -0.0883368280067991, 0.435171360683079, -1.18157645435908, 1.18674415073382, -1.28185568247296], a = 0.2, v = 0.2, t = 0.2)
movej(p[0.434251160913073, -0.0883608354950648, 0.435092928049745, -1.18417394364124, 1.18707090671695, -1.28516084721775], a = 0.2, v = 0.2, t = 0.2)
movej(p[0.434139146810398, -0.0885265091487108, 0.435070873576879, -1.17753081714106, 1.18727437424274, -1.27571310051528], a = 0.2, v = 0.2, t = 0.2)
movej(p[0.433711545100629, -0.0886093477157177, 0.434993260535327, -1.1777916388509, 1.18456084382328, -1.28943525507504], a = 0.2, v = 0.2, t = 0.2)
movej(p[0.433038917802158, -0.088539408875862, 0.434848630856038, -1.17655581183904, 1.18173814930983, -1.29808362657418], a = 0.2, v = 0.2, t = 0.2)
movej(p[0.43215361041714, -0.0884374965721406, 0.434758197258077, -1.1705997387156, 1.17909612667888, -1.29905456641594], a = 0.2, v = 0.2, t = 0.2)
movej(p[0.431264547292065, -0.088400995471338, 0.434812677292689, -1.16339579894312, 1.17455978873007, -1.29596734089805], a = 0.2, v = 0.2, t = 0.2)
movej(p[0.430577769680639, -0.088200793809438, 0.434840849202318, -1.16475622695504, 1.16663249067352, -1.30269663430433], a = 0.2, v = 0.2, t = 0.2)
movej(p[0.430267281828487, -0.0879728853338472, 0.43486476307528, -1.17532433758931, 1.15691149376742, -1.31043756278231], a = 0.2, v = 0.2, t = 0.2)
movej(p[0.430447193034149, -0.0879092242743023, 0.434946316723727, -1.18019256751152, 1.15370262734209, -1.3083823012733], a = 0.2, v = 0.2, t = 0.2)
movej(p[0.431008039956489, -0.0880152231865624, 0.435082947553706, -1.18191579114411, 1.15326680145639, -1.30991026662202], a = 0.2, v = 0.2, t = 0.2)
movej(p[0.43210181310776, -0.0880551852484526, 0.435142350022244, -1.18238093145929, 1.16133159688482, -1.30242620111036], a = 0.2, v = 0.2, t = 0.2)
movej(p[0.433130736390337, -0.0881451978214352, 0.435181333524847, -1.18088132040964, 1.16909623717671, -1.29184093357832], a = 0.2, v = 0.2, t = 0.2)
movej(p[0.433845227286386, -0.0883198595108466, 0.435260657641311, -1.18441408165672, 1.17801517639112, -1.28366788137917], a = 0.2, v = 0.2, t = 0.2)
movej(p[0.434097826267693, -0.0884464345161926, 0.435267817141927, -1.19027230637115, 1.18136907800954, -1.29056699758694], a = 0.2, v = 0.2, t = 0.2)
movej(p[0.434185979923846, -0.088487816117043, 0.435213968152828, -1.19422904618704, 1.18393769768877, -1.29317531557855], a = 0.2, v = 0.2, t = 0.2)
movej(p[0.434212709214822, -0.0886020485435906, 0.435211297664116, -1.18636862989387, 1.18867842857406, -1.27985166778365], a = 0.2, v = 0.2, t = 0.2)
movej(p[0.434121601417684, -0.088692329633912, 0.435212897142466, -1.17317634340988, 1.19222352041253, -1.27026786519719], a = 0.2, v = 0.2, t = 0.2)
movej(p[0.434117668960286, -0.0886862883974848, 0.43516990792706, -1.16119175586345, 1.19763012901673, -1.25804621299874], a = 0.2, v = 0.2, t = 0.2)
movej(p[0.433849502033093, -0.0887145675220044, 0.435082212906464, -1.16119479867864, 1.19683416791076, -1.25917662817772], a = 0.2, v = 0.2, t = 0.2)
movej(p[0.433328548426138, -0.0888279338684204, 0.435096598589669, -1.16482377961859, 1.19526646421721, -1.2635732374751], a = 0.2, v = 0.2, t = 0.2)
movej(p[0.432590539115114, -0.0888063529348661, 0.435035856608721, -1.16160368373646, 1.19093458928963, -1.27314919858262], a = 0.2, v = 0.2, t = 0.2)
movej(p[0.431905316652218, -0.0886347159728396, 0.434963902478829, -1.16199404574839, 1.18582736659466, -1.28152142504068], a = 0.2, v = 0.2, t = 0.2)
movej(p[0.43125771209688, -0.0885299644539476, 0.434920061988467, -1.1525068295726, 1.18214635516468, -1.27122826473505], a = 0.2, v = 0.2, t = 0.2)
movej(p[0.430671010413256, -0.0884083865653676, 0.434940636476208, -1.15658949041147, 1.17564842413673, -1.28047279290513], a = 0.2, v = 0.2, t = 0.2)
movej(p[0.430458054309421, -0.0882281795194264, 0.43494819956926, -1.16098735745114, 1.16958615991413, -1.28294016667211], a = 0.2, v = 0.2, t = 0.2)
movej(p[0.430690354954279, -0.0880902070233357, 0.43501234973934, -1.16964768712469, 1.16345223953485, -1.29082273092611], a = 0.2, v = 0.2, t = 0.2)
movej(p[0.431400423032448, -0.0882127318984295, 0.43517658635142, -1.17417632796792, 1.16234847258704, -1.28821796895847], a = 0.2, v = 0.2, t = 0.2)
movej(p[0.432260799575245, -0.0882985089130734, 0.435256668990316, -1.17600771633175, 1.1659204902706, -1.29202765142486], a = 0.2, v = 0.2, t = 0.2)
movej(p[0.433209706541708, -0.0883230962966615, 0.435266344510524, -1.18188708079706, 1.17400867015694, -1.28994893271715], a = 0.2, v = 0.2, t = 0.2)
movej(p[0.433802440346397, -0.0884112628023288, 0.435286042186442, -1.18034279751546, 1.18296736441759, -1.27606133351054], a = 0.2, v = 0.2, t = 0.2)
movej(p[0.434061609221575, -0.088616483646875, 0.435390520286387, -1.18305341150999, 1.18749171528205, -1.27251856061774], a = 0.2, v = 0.2, t = 0.2)
movej(p[0.434187593893751, -0.0886711633626549, 0.435342211408747, -1.17207773548695, 1.19332679994714, -1.25811597070009], a = 0.2, v = 0.2, t = 0.2)
movej(p[0.434252797931417, -0.0887167773746923, 0.435295793584822, -1.17624249455159, 1.19315000879957, -1.26280994654306], a = 0.2, v = 0.2, t = 0.2)
movej(p[0.434219383516947, -0.0888154535192823, 0.435261024863325, -1.16613640617555, 1.19681997465178, -1.25326998472967], a = 0.2, v = 0.2, t = 0.2)
movej(p[0.434064324412928, -0.0888741796415059, 0.435202350960016, -1.17580623540181, 1.19297253544977, -1.27528748683138], a = 0.2, v = 0.2, t = 0.2)
movej(p[0.433717367022997, -0.0889686961121871, 0.435070722342527, -1.17604551996106, 1.19183024825044, -1.27788598837819], a = 0.2, v = 0.2, t = 0.2)
movej(p[0.433097002427796, -0.0888761667440452, 0.434994786179517, -1.17714834357283, 1.188377418047, -1.28326137555599], a = 0.2, v = 0.2, t = 0.2)
movej(p[0.432244292971582, -0.088946971685789, 0.43503900328602, -1.16709894607251, 1.18659036470247, -1.2802247476235], a = 0.2, v = 0.2, t = 0.2)
movej(p[0.431614587398467, -0.0887430905163511, 0.434976624799055, -1.15911810273591, 1.18380297440737, -1.28073190811408], a = 0.2, v = 0.2, t = 0.2)
movej(p[0.4310750858096, -0.0884827813792395, 0.434918425389725, -1.15747960353382, 1.17860313087348, -1.28203799577594], a = 0.2, v = 0.2, t = 0.2)
movej(p[0.430661837115696, -0.0883681961770888, 0.434932866818695, -1.16386766929477, 1.17036607196027, -1.2849504943363], a = 0.2, v = 0.2, t = 0.2)
movej(p[0.430513283885124, -0.088345606416736, 0.435062080796229, -1.16854039660106, 1.16472401308005, -1.29296957579554], a = 0.2, v = 0.2, t = 0.2)
movej(p[0.430956942288895, -0.0882739392295933, 0.435167552173798, -1.17517853301999, 1.16205851754052, -1.29580162980551], a = 0.2, v = 0.2, t = 0.2)
movej(p[0.431849858899469, -0.0883043746469489, 0.435270298262445, -1.16934393021265, 1.16667939067552, -1.28045778803564], a = 0.2, v = 0.2, t = 0.2)
movej(p[0.432772969482104, -0.0883774150397021, 0.435364647451155, -1.16695316432161, 1.17365206966374, -1.27044299853314], a = 0.2, v = 0.2, t = 0.2)
