def moving():
set_payload_mass(0)
set_tcp(p[0,0,0,0,0,0])
movej(p[0.4599, 0.0627, 0.4224, -1.192, 0.952, -1.048], a = 0.2, v = 0.2, t = 0.1)
movej(p[0.4599, 0.0627, 0.4224, -1.192, 0.952, -1.048], a = 0.2, v = 0.2, t = 0.1)
movej(p[0.4599, 0.0627, 0.4224, -1.192, 0.952, -1.048], a = 0.2, v = 0.2, t = 0.1)
movej(p[0.4599, 0.0627, 0.4224, -1.192, 0.952, -1.048], a = 0.2, v = 0.2, t = 0.1)
movej(p[0.4599, 0.0627, 0.4224, -1.192, 0.952, -1.048], a = 0.2, v = 0.2, t = 0.1)
movej(p[0.4599, 0.0627, 0.4224, -1.192, 0.952, -1.048], a = 0.2, v = 0.2, t = 0.1)
movej(p[0.4599, 0.0627, 0.4224, -1.192, 0.952, -1.048], a = 0.2, v = 0.2, t = 0.1)
movej(p[0.4599, 0.0627, 0.4224, -1.192, 0.952, -1.048], a = 0.2, v = 0.2, t = 0.1)
movej(p[0.4599, 0.0627, 0.4224, -1.192, 0.952, -1.048], a = 0.2, v = 0.2, t = 0.1)
movej(p[0.4599, 0.0627, 0.4224, -1.192, 0.952, -1.048], a = 0.2, v = 0.2, t = 0.1)
movej(p[0.4599, 0.0627, 0.4224, -1.192, 0.952, -1.048], a = 0.2, v = 0.2, t = 0.1)
movej(p[0.459900002761003, 0.0627000179658354, 0.422400149828587, -1.192, 0.952, -1.048], a = 0.2, v = 0.2, t = 0.1)
movej(p[0.459900020593748, 0.0627003076164829, 0.422402311838878, -1.192, 0.952, -1.048], a = 0.2, v = 0.2, t = 0.1)
movej(p[0.459899854714241, 0.062701361269525, 0.422407269379019, -1.192, 0.952, -1.048], a = 0.2, v = 0.2, t = 0.1)
movej(p[0.459899796456899, 0.0627037020450495, 0.422413735941091, -1.192, 0.952, -1.048], a = 0.2, v = 0.2, t = 0.1)
movej(p[0.459901176891137, 0.0627057183331323, 0.422419678327201, -1.192, 0.952, -1.048], a = 0.2, v = 0.2, t = 0.1)
movej(p[0.459903666152988, 0.0627053262007194, 0.422423077939621, -1.192, 0.952, -1.048], a = 0.2, v = 0.2, t = 0.1)
movej(p[0.459904780886156, 0.0627022605210523, 0.422423897801282, -1.192, 0.952, -1.048], a = 0.2, v = 0.2, t = 0.1)
movej(p[0.459902285826066, 0.0626976404553858, 0.422421759779443, -1.192, 0.952, -1.048], a = 0.2, v = 0.2, t = 0.1)
movej(p[0.459895027502081, 0.0626927445296852, 0.422417243696354, -1.192, 0.952, -1.048], a = 0.2, v = 0.2, t = 0.1)
movej(p[0.459882999572321, 0.0626891041693424, 0.422411647770045, -1.192, 0.952, -1.048], a = 0.2, v = 0.2, t = 0.1)
movej(p[0.459867493550885, 0.0626863910004152, 0.422405262289829, -1.192, 0.952, -1.048], a = 0.2, v = 0.2, t = 0.1)
movej(p[0.45985013120047, 0.0626837065940248, 0.422397609525336, -1.192, 0.952, -1.048], a = 0.2, v = 0.2, t = 0.1)
movej(p[0.459832202684336, 0.0626807518832539, 0.422388852214818, -1.192, 0.952, -1.048], a = 0.2, v = 0.2, t = 0.1)
movej(p[0.459814400059275, 0.0626777615491464, 0.422379620591729, -1.192, 0.952, -1.048], a = 0.2, v = 0.2, t = 0.1)
movej(p[0.45979726042439, 0.0626748389402161, 0.422370260386654, -1.192, 0.952, -1.048], a = 0.2, v = 0.2, t = 0.1)
movej(p[0.459782215433957, 0.0626712164246693, 0.422361070029588, -1.192, 0.952, -1.048], a = 0.2, v = 0.2, t = 0.1)
movej(p[0.459770915848563, 0.0626678859994385, 0.422351961881658, -1.192, 0.952, -1.048], a = 0.2, v = 0.2, t = 0.1)
movej(p[0.459765013382971, 0.0626658361645902, 0.422343909057431, -1.192, 0.952, -1.048], a = 0.2, v = 0.2, t = 0.1)
movej(p[0.459765297937278, 0.0626658737946612, 0.422337764831376, -1.192, 0.952, -1.048], a = 0.2, v = 0.2, t = 0.1)
movej(p[0.459771907196596, 0.062669334614508, 0.422334158685753, -1.192, 0.952, -1.048], a = 0.2, v = 0.2, t = 0.1)
movej(p[0.459785018512084, 0.0626771053406773, 0.422334178635421, -1.192, 0.952, -1.048], a = 0.2, v = 0.2, t = 0.1)
movej(p[0.459803465959424, 0.0626878065345027, 0.422337682256883, -1.192, 0.952, -1.048], a = 0.2, v = 0.2, t = 0.1)
movej(p[0.459824372780233, 0.0626972821808603, 0.422345117689066, -1.192, 0.952, -1.048], a = 0.2, v = 0.2, t = 0.1)
movej(p[0.45984473096852, 0.0627027222214429, 0.422354654534674, -1.192, 0.952, -1.048], a = 0.2, v = 0.2, t = 0.1)
movej(p[0.459863185095386, 0.0627037873125262, 0.422363665083803, -1.192, 0.952, -1.048], a = 0.2, v = 0.2, t = 0.1)
movej(p[0.45987933556892, 0.0627012193667131, 0.422371194479922, -1.192, 0.952, -1.048], a = 0.2, v = 0.2, t = 0.1)
movej(p[0.459892470603952, 0.0626960109198207, 0.422375721087556, -1.192, 0.952, -1.048], a = 0.2, v = 0.2, t = 0.1)
movej(p[0.459902220736891, 0.0626897507617062, 0.422376348189666, -1.192, 0.952, -1.048], a = 0.2, v = 0.2, t = 0.1)
movej(p[0.459907009640533, 0.0626843045226684, 0.422373352486703, -1.192, 0.952, -1.048], a = 0.2, v = 0.2, t = 0.1)
movej(p[0.459904572145891, 0.0626813543279761, 0.422368504704514, -1.192, 0.952, -1.048], a = 0.2, v = 0.2, t = 0.1)
movej(p[0.459895036306547, 0.0626819434422139, 0.422362551304946, -1.192, 0.952, -1.048], a = 0.2, v = 0.2, t = 0.1)
movej(p[0.459881119137188, 0.0626844773022591, 0.422353433087999, -1.192, 0.952, -1.048], a = 0.2, v = 0.2, t = 0.1)
movej(p[0.459865128088324, 0.0626871315528042, 0.422340392142164, -1.192, 0.952, -1.048], a = 0.2, v = 0.2, t = 0.1)
movej(p[0.459847529426424, 0.0626901663735279, 0.422325070258876, -1.192, 0.952, -1.048], a = 0.2, v = 0.2, t = 0.1)
movej(p[0.459828742093925, 0.0626943306569969, 0.422309505138838, -1.192, 0.952, -1.048], a = 0.2, v = 0.2, t = 0.1)
movej(p[0.459810435203237, 0.0626989851396774, 0.422295864262132, -1.192, 0.952, -1.048], a = 0.2, v = 0.2, t = 0.1)
movej(p[0.459794319151156, 0.0627028410817137, 0.422286540375585, -1.192, 0.952, -1.048], a = 0.2, v = 0.2, t = 0.1)
movej(p[0.459781678017668, 0.0627055226328941, 0.422283591371617, -1.192, 0.952, -1.048], a = 0.2, v = 0.2, t = 0.1)
movej(p[0.459774442435691, 0.0627075685164009, 0.422286172744533, -1.192, 0.952, -1.048], a = 0.2, v = 0.2, t = 0.1)
movej(p[0.459773369427113, 0.0627092492163938, 0.422292760802374, -1.192, 0.952, -1.048], a = 0.2, v = 0.2, t = 0.1)
movej(p[0.459780015661995, 0.0627114200901685, 0.42230078504651, -1.192, 0.952, -1.048], a = 0.2, v = 0.2, t = 0.1)
movej(p[0.459794675950422, 0.0627127622903565, 0.422308650549156, -1.192, 0.952, -1.048], a = 0.2, v = 0.2, t = 0.1)
movej(p[0.45981591487369, 0.0627108686937614, 0.422316235338762, -1.192, 0.952, -1.048], a = 0.2, v = 0.2, t = 0.1)
movej(p[0.459841138175879, 0.0627050219683771, 0.422323406351381, -1.192, 0.952, -1.048], a = 0.2, v = 0.2, t = 0.1)
movej(p[0.45986721739008, 0.0626961742318777, 0.422331257484516, -1.192, 0.952, -1.048], a = 0.2, v = 0.2, t = 0.1)
movej(p[0.45989246118952, 0.0626856170999464, 0.422339683730192, -1.192, 0.952, -1.048], a = 0.2, v = 0.2, t = 0.1)
movej(p[0.459916342814994, 0.0626744122179575, 0.422346608996205, -1.192, 0.952, -1.048], a = 0.2, v = 0.2, t = 0.1)
movej(p[0.459939362842804, 0.0626648526420259, 0.422351037426132, -1.192, 0.952, -1.048], a = 0.2, v = 0.2, t = 0.1)
movej(p[0.459961650664931, 0.0626586290168647, 0.422351786434596, -1.192, 0.952, -1.048], a = 0.2, v = 0.2, t = 0.1)
movej(p[0.459981365972117, 0.0626556677837251, 0.422349078239831, -1.192, 0.952, -1.048], a = 0.2, v = 0.2, t = 0.1)
movej(p[0.459996542585477, 0.0626548849301079, 0.422342417140815, -1.192, 0.952, -1.048], a = 0.2, v = 0.2, t = 0.1)
movej(p[0.460006460962353, 0.0626559253140995, 0.422332611541888, -1.192, 0.952, -1.048], a = 0.2, v = 0.2, t = 0.1)
movej(p[0.460011252101308, 0.062657900917339, 0.422321458565408, -1.192, 0.952, -1.048], a = 0.2, v = 0.2, t = 0.1)
movej(p[0.460010375811134, 0.0626591286775674, 0.422309541845585, -1.192, 0.952, -1.048], a = 0.2, v = 0.2, t = 0.1)
movej(p[0.460003484800474, 0.0626583318817511, 0.422294911821814, -1.192, 0.952, -1.048], a = 0.2, v = 0.2, t = 0.1)
movej(p[0.45999161439582, 0.0626559629525857, 0.422276616041073, -1.192, 0.952, -1.048], a = 0.2, v = 0.2, t = 0.1)
movej(p[0.459977014764556, 0.0626524145597028, 0.422255822509052, -1.192, 0.952, -1.048], a = 0.2, v = 0.2, t = 0.1)
movej(p[0.459962482844458, 0.0626476341505072, 0.422232414344169, -1.192, 0.952, -1.048], a = 0.2, v = 0.2, t = 0.1)
movej(p[0.459949292528978, 0.0626429193689168, 0.422207275947201, -1.192, 0.952, -1.048], a = 0.2, v = 0.2, t = 0.1)
movej(p[0.459937075282842, 0.0626399178101843, 0.422183021933348, -1.192, 0.952, -1.048], a = 0.2, v = 0.2, t = 0.1)
movej(p[0.459926455388715, 0.0626396960638601, 0.422163551699854, -1.192, 0.952, -1.048], a = 0.2, v = 0.2, t = 0.1)
movej(p[0.459918939948345, 0.0626419368113467, 0.422151159994251, -1.192, 0.952, -1.048], a = 0.2, v = 0.2, t = 0.1)
movej(p[0.459916542239434, 0.0626460092839778, 0.422144338443647, -1.192, 0.952, -1.048], a = 0.2, v = 0.2, t = 0.1)
movej(p[0.459919866722551, 0.0626504933492358, 0.422141814480144, -1.192, 0.952, -1.048], a = 0.2, v = 0.2, t = 0.1)
movej(p[0.459928735516554, 0.0626550032415701, 0.422143242647178, -1.192, 0.952, -1.048], a = 0.2, v = 0.2, t = 0.1)
movej(p[0.459942110919029, 0.0626600749890547, 0.422147031105055, -1.192, 0.952, -1.048], a = 0.2, v = 0.2, t = 0.1)
movej(p[0.459958548904695, 0.06266545505265, 0.422151092675311, -1.192, 0.952, -1.048], a = 0.2, v = 0.2, t = 0.1)
movej(p[0.459975556461323, 0.0626712350390075, 0.422155029739731, -1.192, 0.952, -1.048], a = 0.2, v = 0.2, t = 0.1)
movej(p[0.45999103476749, 0.0626767884868845, 0.422159973676208, -1.192, 0.952, -1.048], a = 0.2, v = 0.2, t = 0.1)
movej(p[0.46000426608837, 0.06268181629212, 0.422166465057979, -1.192, 0.952, -1.048], a = 0.2, v = 0.2, t = 0.1)
movej(p[0.460015107856318, 0.062686255195457, 0.422172498073802, -1.192, 0.952, -1.048], a = 0.2, v = 0.2, t = 0.1)
movej(p[0.460024211992614, 0.0626899601081132, 0.422176177335619, -1.192, 0.952, -1.048], a = 0.2, v = 0.2, t = 0.1)
movej(p[0.460032616723049, 0.0626940114658217, 0.422178747669454, -1.192, 0.952, -1.048], a = 0.2, v = 0.2, t = 0.1)
movej(p[0.460041441594072, 0.0626977302421275, 0.422179549162568, -1.192, 0.952, -1.048], a = 0.2, v = 0.2, t = 0.1)
movej(p[0.460050245974058, 0.0626999346441219, 0.422176791225312, -1.192, 0.952, -1.048], a = 0.2, v = 0.2, t = 0.1)
movej(p[0.460057002038202, 0.0626992108538183, 0.422169885587117, -1.192, 0.952, -1.048], a = 0.2, v = 0.2, t = 0.1)
movej(p[0.460059576744726, 0.0626949777462814, 0.422161782143842, -1.192, 0.952, -1.048], a = 0.2, v = 0.2, t = 0.1)
movej(p[0.460055703528613, 0.0626890672210479, 0.422153968004132, -1.192, 0.952, -1.048], a = 0.2, v = 0.2, t = 0.1)
movej(p[0.460045517073731, 0.0626840073142693, 0.422144033186352, -1.192, 0.952, -1.048], a = 0.2, v = 0.2, t = 0.1)
movej(p[0.460030992777721, 0.0626804498058646, 0.422129643717691, -1.192, 0.952, -1.048], a = 0.2, v = 0.2, t = 0.1)
movej(p[0.460013700515048, 0.0626776405886163, 0.422111752712238, -1.192, 0.952, -1.048], a = 0.2, v = 0.2, t = 0.1)
movej(p[0.459994736264269, 0.0626754469436504, 0.422093986716933, -1.192, 0.952, -1.048], a = 0.2, v = 0.2, t = 0.1)
movej(p[0.459974204515587, 0.0626735650364769, 0.422079437492506, -1.192, 0.952, -1.048], a = 0.2, v = 0.2, t = 0.1)
movej(p[0.459953182819621, 0.0626721111906638, 0.422068978050118, -1.192, 0.952, -1.048], a = 0.2, v = 0.2, t = 0.1)
movej(p[0.459932997050261, 0.0626707650915589, 0.422061371155776, -1.192, 0.952, -1.048], a = 0.2, v = 0.2, t = 0.1)
movej(p[0.459914432614585, 0.0626692525706324, 0.422054915506352, -1.192, 0.952, -1.048], a = 0.2, v = 0.2, t = 0.1)
movej(p[0.459897948581751, 0.0626671113590039, 0.422049029053744, -1.192, 0.952, -1.048], a = 0.2, v = 0.2, t = 0.1)
movej(p[0.459883732212125, 0.0626640234322056, 0.422044124853632, -1.192, 0.952, -1.048], a = 0.2, v = 0.2, t = 0.1)
movej(p[0.45987393724947, 0.0626606640145873, 0.422041729874541, -1.192, 0.952, -1.048], a = 0.2, v = 0.2, t = 0.1)
movej(p[0.459871714173267, 0.0626568086989906, 0.422043481895901, -1.192, 0.952, -1.048], a = 0.2, v = 0.2, t = 0.1)
movej(p[0.459877765799028, 0.0626522514764498, 0.422049729814064, -1.192, 0.952, -1.048], a = 0.2, v = 0.2, t = 0.1)
movej(p[0.459890341908326, 0.0626477984708878, 0.422059003012939, -1.192, 0.952, -1.048], a = 0.2, v = 0.2, t = 0.1)
movej(p[0.459907892092832, 0.0626444892610475, 0.422069616452158, -1.192, 0.952, -1.048], a = 0.2, v = 0.2, t = 0.1)
movej(p[0.459929417104144, 0.0626421919547895, 0.422079272435897, -1.192, 0.952, -1.048], a = 0.2, v = 0.2, t = 0.1)
movej(p[0.459953256137399, 0.0626396796958777, 0.42208641572013, -1.192, 0.952, -1.048], a = 0.2, v = 0.2, t = 0.1)
movej(p[0.459977555816815, 0.0626362670069038, 0.422091733726077, -1.192, 0.952, -1.048], a = 0.2, v = 0.2, t = 0.1)
movej(p[0.460000635553701, 0.0626320831304737, 0.422094835801717, -1.192, 0.952, -1.048], a = 0.2, v = 0.2, t = 0.1)
movej(p[0.460020697031796, 0.0626276039652776, 0.422094949726186, -1.192, 0.952, -1.048], a = 0.2, v = 0.2, t = 0.1)
movej(p[0.460035772010652, 0.062623649255401, 0.422091597479432, -1.192, 0.952, -1.048], a = 0.2, v = 0.2, t = 0.1)
movej(p[0.4600443164917, 0.0626213825105145, 0.42208603067548, -1.192, 0.952, -1.048], a = 0.2, v = 0.2, t = 0.1)
movej(p[0.460046121911944, 0.0626208811986474, 0.422078467784422, -1.192, 0.952, -1.048], a = 0.2, v = 0.2, t = 0.1)
movej(p[0.460041705911519, 0.0626217579783913, 0.422068027684062, -1.192, 0.952, -1.048], a = 0.2, v = 0.2, t = 0.1)
movej(p[0.460032215509338, 0.0626243320112304, 0.422055494430878, -1.192, 0.952, -1.048], a = 0.2, v = 0.2, t = 0.1)
movej(p[0.460018962313059, 0.0626283374356101, 0.422042981520549, -1.192, 0.952, -1.048], a = 0.2, v = 0.2, t = 0.1)
movej(p[0.460002689780195, 0.0626335252356707, 0.422030902746533, -1.192, 0.952, -1.048], a = 0.2, v = 0.2, t = 0.1)
movej(p[0.459983102320798, 0.0626394011506054, 0.422018986397887, -1.192, 0.952, -1.048], a = 0.2, v = 0.2, t = 0.1)
movej(p[0.459960351917946, 0.0626453986017142, 0.422006759777329, -1.192, 0.952, -1.048], a = 0.2, v = 0.2, t = 0.1)
movej(p[0.459935728968263, 0.0626508236052957, 0.421994764952359, -1.192, 0.952, -1.048], a = 0.2, v = 0.2, t = 0.1)
movej(p[0.459912166819762, 0.0626540591888658, 0.42198331261321, -1.192, 0.952, -1.048], a = 0.2, v = 0.2, t = 0.1)
movej(p[0.459892463379386, 0.0626550920709418, 0.421973853968806, -1.192, 0.952, -1.048], a = 0.2, v = 0.2, t = 0.1)
movej(p[0.459877647209107, 0.0626544969879834, 0.421968207987886, -1.192, 0.952, -1.048], a = 0.2, v = 0.2, t = 0.1)
movej(p[0.459866932475663, 0.0626525264544062, 0.421967238818325, -1.192, 0.952, -1.048], a = 0.2, v = 0.2, t = 0.1)
movej(p[0.45986006305984, 0.0626508445947218, 0.421972018403479, -1.192, 0.952, -1.048], a = 0.2, v = 0.2, t = 0.1)
movej(p[0.459858312948375, 0.0626495684217471, 0.421981931815878, -1.192, 0.952, -1.048], a = 0.2, v = 0.2, t = 0.1)
movej(p[0.459863227988604, 0.0626473151153512, 0.421994880346754, -1.192, 0.952, -1.048], a = 0.2, v = 0.2, t = 0.1)
movej(p[0.459874918496359, 0.0626440962625326, 0.422008013620488, -1.192, 0.952, -1.048], a = 0.2, v = 0.2, t = 0.1)
movej(p[0.459892125344507, 0.0626411700201288, 0.422019762427967, -1.192, 0.952, -1.048], a = 0.2, v = 0.2, t = 0.1)
movej(p[0.4599129055494, 0.0626390244114711, 0.422029308306141, -1.192, 0.952, -1.048], a = 0.2, v = 0.2, t = 0.1)
movej(p[0.45993430192291, 0.0626369977459584, 0.422036357063019, -1.192, 0.952, -1.048], a = 0.2, v = 0.2, t = 0.1)
movej(p[0.459953845790374, 0.0626351813941227, 0.422042013978129, -1.192, 0.952, -1.048], a = 0.2, v = 0.2, t = 0.1)
movej(p[0.459970378111859, 0.0626339147805066, 0.422046779864224, -1.192, 0.952, -1.048], a = 0.2, v = 0.2, t = 0.1)
movej(p[0.459982935411248, 0.0626328117050842, 0.422049083516253, -1.192, 0.952, -1.048], a = 0.2, v = 0.2, t = 0.1)
movej(p[0.459989997161982, 0.0626309156967966, 0.422046989769339, -1.192, 0.952, -1.048], a = 0.2, v = 0.2, t = 0.1)
movej(p[0.459990941772549, 0.0626285902062019, 0.422041580529987, -1.192, 0.952, -1.048], a = 0.2, v = 0.2, t = 0.1)
movej(p[0.459985734401858, 0.0626273504199616, 0.422035556588539, -1.192, 0.952, -1.048], a = 0.2, v = 0.2, t = 0.1)
movej(p[0.459974228653585, 0.0626282839597577, 0.422030345143718, -1.192, 0.952, -1.048], a = 0.2, v = 0.2, t = 0.1)
movej(p[0.45995639476837, 0.0626313055370622, 0.422027260560483, -1.192, 0.952, -1.048], a = 0.2, v = 0.2, t = 0.1)
movej(p[0.459933969107632, 0.0626353449271649, 0.422026799528973, -1.192, 0.952, -1.048], a = 0.2, v = 0.2, t = 0.1)
movej(p[0.459908907236951, 0.0626402572549785, 0.422028095435395, -1.192, 0.952, -1.048], a = 0.2, v = 0.2, t = 0.1)
movej(p[0.459882458266069, 0.0626457765454125, 0.422028942063052, -1.192, 0.952, -1.048], a = 0.2, v = 0.2, t = 0.1)
movej(p[0.45985638895072, 0.0626504808741001, 0.422026364979852, -1.192, 0.952, -1.048], a = 0.2, v = 0.2, t = 0.1)
movej(p[0.459832066612411, 0.0626532551100738, 0.422020238556103, -1.192, 0.952, -1.048], a = 0.2, v = 0.2, t = 0.1)
movej(p[0.459810532492327, 0.062654959595603, 0.42201394130168, -1.192, 0.952, -1.048], a = 0.2, v = 0.2, t = 0.1)
movej(p[0.459793511733586, 0.0626570791497376, 0.422009957721484, -1.192, 0.952, -1.048], a = 0.2, v = 0.2, t = 0.1)
movej(p[0.459783566707864, 0.0626591995632026, 0.422008807195034, -1.192, 0.952, -1.048], a = 0.2, v = 0.2, t = 0.1)
movej(p[0.459781919967764, 0.0626595946974065, 0.422010198509882, -1.192, 0.952, -1.048], a = 0.2, v = 0.2, t = 0.1)
movej(p[0.459787505443808, 0.0626575386085216, 0.422012684322799, -1.192, 0.952, -1.048], a = 0.2, v = 0.2, t = 0.1)
movej(p[0.459799621333834, 0.0626543109500306, 0.42201473878101, -1.192, 0.952, -1.048], a = 0.2, v = 0.2, t = 0.1)
movej(p[0.459817033666818, 0.0626523305245264, 0.422016455359257, -1.192, 0.952, -1.048], a = 0.2, v = 0.2, t = 0.1)
movej(p[0.459837839287331, 0.0626525203350139, 0.422019455771407, -1.192, 0.952, -1.048], a = 0.2, v = 0.2, t = 0.1)
movej(p[0.459860681378186, 0.0626537491807806, 0.422024936085215, -1.192, 0.952, -1.048], a = 0.2, v = 0.2, t = 0.1)
movej(p[0.459885034195564, 0.0626542827106396, 0.422031514285703, -1.192, 0.952, -1.048], a = 0.2, v = 0.2, t = 0.1)
movej(p[0.45991087740714, 0.0626546012967229, 0.422037435066001, -1.192, 0.952, -1.048], a = 0.2, v = 0.2, t = 0.1)
movej(p[0.459938001208487, 0.06265627639391, 0.422042742761914, -1.192, 0.952, -1.048], a = 0.2, v = 0.2, t = 0.1)
movej(p[0.459965351292098, 0.0626591260447544, 0.42204785817407, -1.192, 0.952, -1.048], a = 0.2, v = 0.2, t = 0.1)
movej(p[0.459990490577526, 0.0626616866094657, 0.422053669018894, -1.192, 0.952, -1.048], a = 0.2, v = 0.2, t = 0.1)
movej(p[0.460011379249896, 0.0626624659846304, 0.422059367732339, -1.192, 0.952, -1.048], a = 0.2, v = 0.2, t = 0.1)
movej(p[0.460026772377087, 0.0626616234796091, 0.422062248877004, -1.192, 0.952, -1.048], a = 0.2, v = 0.2, t = 0.1)
movej(p[0.460036942622718, 0.0626590906913625, 0.422061313064787, -1.192, 0.952, -1.048], a = 0.2, v = 0.2, t = 0.1)
movej(p[0.46004158298097, 0.0626541631453617, 0.422057860909416, -1.192, 0.952, -1.048], a = 0.2, v = 0.2, t = 0.1)
movej(p[0.460040882314119, 0.0626471941377698, 0.422053144630465, -1.192, 0.952, -1.048], a = 0.2, v = 0.2, t = 0.1)
movej(p[0.460036116162438, 0.06263887900449, 0.422044995529245, -1.192, 0.952, -1.048], a = 0.2, v = 0.2, t = 0.1)
movej(p[0.460028101603218, 0.0626300580674858, 0.422034181436269, -1.192, 0.952, -1.048], a = 0.2, v = 0.2, t = 0.1)
movej(p[0.460017038294733, 0.062622421957509, 0.422023392259758, -1.192, 0.952, -1.048], a = 0.2, v = 0.2, t = 0.1)
movej(p[0.460003360476794, 0.062617398409437, 0.422014368432677, -1.192, 0.952, -1.048], a = 0.2, v = 0.2, t = 0.1)
movej(p[0.459988789033081, 0.062614344815338, 0.422006621848062, -1.192, 0.952, -1.048], a = 0.2, v = 0.2, t = 0.1)
movej(p[0.459974682242264, 0.0626114396306788, 0.421998877778271, -1.192, 0.952, -1.048], a = 0.2, v = 0.2, t = 0.1)
movej(p[0.459961342030548, 0.062607325488529, 0.42199290301972, -1.192, 0.952, -1.048], a = 0.2, v = 0.2, t = 0.1)
movej(p[0.459949714799753, 0.0626026674604813, 0.42199058070713, -1.192, 0.952, -1.048], a = 0.2, v = 0.2, t = 0.1)
movej(p[0.459940461755645, 0.0625980553566049, 0.421993156830877, -1.192, 0.952, -1.048], a = 0.2, v = 0.2, t = 0.1)
movej(p[0.459934404686792, 0.0625944485902405, 0.422000187846615, -1.192, 0.952, -1.048], a = 0.2, v = 0.2, t = 0.1)
movej(p[0.459933316919028, 0.0625932289964047, 0.422011864485779, -1.192, 0.952, -1.048], a = 0.2, v = 0.2, t = 0.1)
movej(p[0.459938456069611, 0.0625956954696978, 0.422026808232992, -1.192, 0.952, -1.048], a = 0.2, v = 0.2, t = 0.1)
movej(p[0.459949720225255, 0.0626015675505272, 0.422042747419463, -1.192, 0.952, -1.048], a = 0.2, v = 0.2, t = 0.1)
movej(p[0.459965850141818, 0.0626088036495984, 0.422057727856269, -1.192, 0.952, -1.048], a = 0.2, v = 0.2, t = 0.1)
movej(p[0.45998521002019, 0.062615787299112, 0.422071513691496, -1.192, 0.952, -1.048], a = 0.2, v = 0.2, t = 0.1)
movej(p[0.460006097122037, 0.0626226304365635, 0.422085554616547, -1.192, 0.952, -1.048], a = 0.2, v = 0.2, t = 0.1)
movej(p[0.46002650692231, 0.0626291704914541, 0.422100506488999, -1.192, 0.952, -1.048], a = 0.2, v = 0.2, t = 0.1)
movej(p[0.460045974843957, 0.0626348667434711, 0.422115237249798, -1.192, 0.952, -1.048], a = 0.2, v = 0.2, t = 0.1)
movej(p[0.46006471318852, 0.0626386834905645, 0.422127573956395, -1.192, 0.952, -1.048], a = 0.2, v = 0.2, t = 0.1)
movej(p[0.460082673756815, 0.0626411621040251, 0.422136383439798, -1.192, 0.952, -1.048], a = 0.2, v = 0.2, t = 0.1)
movej(p[0.460098817668955, 0.0626429307031639, 0.422142417129788, -1.192, 0.952, -1.048], a = 0.2, v = 0.2, t = 0.1)
movej(p[0.460109929054725, 0.0626443109704119, 0.422145886452863, -1.192, 0.952, -1.048], a = 0.2, v = 0.2, t = 0.1)
movej(p[0.460112573455556, 0.0626457618248738, 0.422144473231162, -1.192, 0.952, -1.048], a = 0.2, v = 0.2, t = 0.1)
movej(p[0.460106275689472, 0.062647212916035, 0.422136818864709, -1.192, 0.952, -1.048], a = 0.2, v = 0.2, t = 0.1)
movej(p[0.460093030371767, 0.0626487851939349, 0.422124787142633, -1.192, 0.952, -1.048], a = 0.2, v = 0.2, t = 0.1)
movej(p[0.460074405720574, 0.0626503341120064, 0.422110963526437, -1.192, 0.952, -1.048], a = 0.2, v = 0.2, t = 0.1)
movej(p[0.46005101845685, 0.0626515045504102, 0.422096091988002, -1.192, 0.952, -1.048], a = 0.2, v = 0.2, t = 0.1)
movej(p[0.460024330147203, 0.062652224403087, 0.422080782137665, -1.192, 0.952, -1.048], a = 0.2, v = 0.2, t = 0.1)
movej(p[0.459994917425552, 0.06265287161737, 0.422065915321066, -1.192, 0.952, -1.048], a = 0.2, v = 0.2, t = 0.1)
movej(p[0.459963482158035, 0.0626535928519152, 0.422051830861303, -1.192, 0.952, -1.048], a = 0.2, v = 0.2, t = 0.1)
movej(p[0.459932220170916, 0.0626545273807768, 0.422038182563709, -1.192, 0.952, -1.048], a = 0.2, v = 0.2, t = 0.1)
movej(p[0.459903242501395, 0.06265575612349, 0.422023757312882, -1.192, 0.952, -1.048], a = 0.2, v = 0.2, t = 0.1)
movej(p[0.459878232434368, 0.0626576977016375, 0.422010119593695, -1.192, 0.952, -1.048], a = 0.2, v = 0.2, t = 0.1)
movej(p[0.459858258682722, 0.062659392169332, 0.421999200155915, -1.192, 0.952, -1.048], a = 0.2, v = 0.2, t = 0.1)
movej(p[0.459844530301612, 0.0626600841660403, 0.421992987868844, -1.192, 0.952, -1.048], a = 0.2, v = 0.2, t = 0.1)
movej(p[0.459837558562694, 0.0626596119436266, 0.421991371827864, -1.192, 0.952, -1.048], a = 0.2, v = 0.2, t = 0.1)
movej(p[0.459836307822609, 0.0626590961240681, 0.4219921092534, -1.192, 0.952, -1.048], a = 0.2, v = 0.2, t = 0.1)
movej(p[0.459839652279257, 0.062658761364701, 0.421993913349542, -1.192, 0.952, -1.048], a = 0.2, v = 0.2, t = 0.1)
movej(p[0.459846826921189, 0.0626580104652594, 0.421995880252738, -1.192, 0.952, -1.048], a = 0.2, v = 0.2, t = 0.1)
movej(p[0.459856904187725, 0.0626570805259618, 0.421997074248995, -1.192, 0.952, -1.048], a = 0.2, v = 0.2, t = 0.1)
movej(p[0.45986968208593, 0.0626574744239552, 0.421998935378986, -1.192, 0.952, -1.048], a = 0.2, v = 0.2, t = 0.1)
movej(p[0.459885255271946, 0.0626602603468211, 0.422002675906502, -1.192, 0.952, -1.048], a = 0.2, v = 0.2, t = 0.1)
movej(p[0.459903567891064, 0.0626646553653758, 0.422009403318405, -1.192, 0.952, -1.048], a = 0.2, v = 0.2, t = 0.1)
movej(p[0.459923859346037, 0.0626703168987844, 0.422019491774014, -1.192, 0.952, -1.048], a = 0.2, v = 0.2, t = 0.1)
movej(p[0.459944757177943, 0.0626769483069965, 0.422032509511596, -1.192, 0.952, -1.048], a = 0.2, v = 0.2, t = 0.1)
movej(p[0.459964712703618, 0.0626845484526732, 0.422046904099458, -1.192, 0.952, -1.048], a = 0.2, v = 0.2, t = 0.1)
movej(p[0.459983154397927, 0.0626921103423445, 0.42206025594235, -1.192, 0.952, -1.048], a = 0.2, v = 0.2, t = 0.1)
movej(p[0.459998901372976, 0.062698770098893, 0.422071059764847, -1.192, 0.952, -1.048], a = 0.2, v = 0.2, t = 0.1)
movej(p[0.460010102059567, 0.0627033999634561, 0.422078795868517, -1.192, 0.952, -1.048], a = 0.2, v = 0.2, t = 0.1)
movej(p[0.460014800392997, 0.0627052126325957, 0.422083163791774, -1.192, 0.952, -1.048], a = 0.2, v = 0.2, t = 0.1)
movej(p[0.460012925602506, 0.0627052889804242, 0.422083431441963, -1.192, 0.952, -1.048], a = 0.2, v = 0.2, t = 0.1)
movej(p[0.460005988309813, 0.0627045018010217, 0.42208030119969, -1.192, 0.952, -1.048], a = 0.2, v = 0.2, t = 0.1)
movej(p[0.459995354823986, 0.0627037114194474, 0.422076052817865, -1.192, 0.952, -1.048], a = 0.2, v = 0.2, t = 0.1)
movej(p[0.459981795768094, 0.0627034831863939, 0.422072602288052, -1.192, 0.952, -1.048], a = 0.2, v = 0.2, t = 0.1)
movej(p[0.459966800183105, 0.0627034546667696, 0.422069960183686, -1.192, 0.952, -1.048], a = 0.2, v = 0.2, t = 0.1)
movej(p[0.459951777952844, 0.0627032656061185, 0.422066642726369, -1.192, 0.952, -1.048], a = 0.2, v = 0.2, t = 0.1)
movej(p[0.459937316035018, 0.0627022723471703, 0.422061436397676, -1.192, 0.952, -1.048], a = 0.2, v = 0.2, t = 0.1)
movej(p[0.45992322596759, 0.0627004915852706, 0.422054520011269, -1.192, 0.952, -1.048], a = 0.2, v = 0.2, t = 0.1)
movej(p[0.459910013962393, 0.0626978722315486, 0.422046222924868, -1.192, 0.952, -1.048], a = 0.2, v = 0.2, t = 0.1)
movej(p[0.45989870543793, 0.0626945700511616, 0.422037683708676, -1.192, 0.952, -1.048], a = 0.2, v = 0.2, t = 0.1)
movej(p[0.459890584456434, 0.0626911016162428, 0.422030579452856, -1.192, 0.952, -1.048], a = 0.2, v = 0.2, t = 0.1)
movej(p[0.459887440917691, 0.0626878101375969, 0.422025882455252, -1.192, 0.952, -1.048], a = 0.2, v = 0.2, t = 0.1)
movej(p[0.459890206773011, 0.0626848586723042, 0.422024083372714, -1.192, 0.952, -1.048], a = 0.2, v = 0.2, t = 0.1)
movej(p[0.459898999933281, 0.0626827457559276, 0.422024584541195, -1.192, 0.952, -1.048], a = 0.2, v = 0.2, t = 0.1)
movej(p[0.459912378766093, 0.062681782120442, 0.42202865687164, -1.192, 0.952, -1.048], a = 0.2, v = 0.2, t = 0.1)
movej(p[0.459928928208052, 0.062681808489578, 0.422037960284428, -1.192, 0.952, -1.048], a = 0.2, v = 0.2, t = 0.1)
movej(p[0.459947455131482, 0.06268278646948, 0.422052432047919, -1.192, 0.952, -1.048], a = 0.2, v = 0.2, t = 0.1)
movej(p[0.459967275319587, 0.062685519532528, 0.422070266639331, -1.192, 0.952, -1.048], a = 0.2, v = 0.2, t = 0.1)
movej(p[0.459987678827936, 0.0626910448278606, 0.422088845192008, -1.192, 0.952, -1.048], a = 0.2, v = 0.2, t = 0.1)
movej(p[0.460008282496264, 0.0626984875588672, 0.422107023927954, -1.192, 0.952, -1.048], a = 0.2, v = 0.2, t = 0.1)
movej(p[0.460027998496822, 0.0627056251060892, 0.42212293314197, -1.192, 0.952, -1.048], a = 0.2, v = 0.2, t = 0.1)
movej(p[0.460043944926237, 0.0627113447156467, 0.422135663398112, -1.192, 0.952, -1.048], a = 0.2, v = 0.2, t = 0.1)
movej(p[0.460054228488607, 0.0627150411799796, 0.42214598092836, -1.192, 0.952, -1.048], a = 0.2, v = 0.2, t = 0.1)
movej(p[0.460058380588994, 0.0627166844536556, 0.42215424839103, -1.192, 0.952, -1.048], a = 0.2, v = 0.2, t = 0.1)
movej(p[0.460057693097857, 0.0627169302324685, 0.422160668664756, -1.192, 0.952, -1.048], a = 0.2, v = 0.2, t = 0.1)
movej(p[0.460053261713865, 0.062715820889567, 0.422165910530477, -1.192, 0.952, -1.048], a = 0.2, v = 0.2, t = 0.1)
movej(p[0.46004542024298, 0.0627135524968215, 0.422169207403952, -1.192, 0.952, -1.048], a = 0.2, v = 0.2, t = 0.1)
movej(p[0.460034666896523, 0.0627105992800251, 0.422169329410237, -1.192, 0.952, -1.048], a = 0.2, v = 0.2, t = 0.1)
movej(p[0.460021735658311, 0.062708182067655, 0.422164724083684, -1.192, 0.952, -1.048], a = 0.2, v = 0.2, t = 0.1)
movej(p[0.460006516047041, 0.0627073729452865, 0.422154917370076, -1.192, 0.952, -1.048], a = 0.2, v = 0.2, t = 0.1)
movej(p[0.45998940759632, 0.0627081422810628, 0.422141736912937, -1.192, 0.952, -1.048], a = 0.2, v = 0.2, t = 0.1)
movej(p[0.459971462405082, 0.0627112602854709, 0.422127137790946, -1.192, 0.952, -1.048], a = 0.2, v = 0.2, t = 0.1)
movej(p[0.459954034662153, 0.0627172615067399, 0.422112497928559, -1.192, 0.952, -1.048], a = 0.2, v = 0.2, t = 0.1)
movej(p[0.459938797602826, 0.062725998279259, 0.422098483514586, -1.192, 0.952, -1.048], a = 0.2, v = 0.2, t = 0.1)
movej(p[0.459927401584419, 0.0627358545187182, 0.422086460394268, -1.192, 0.952, -1.048], a = 0.2, v = 0.2, t = 0.1)
movej(p[0.459921637286416, 0.0627443535058792, 0.422077509003997, -1.192, 0.952, -1.048], a = 0.2, v = 0.2, t = 0.1)
movej(p[0.459922216304492, 0.062750935132179, 0.422071377002748, -1.192, 0.952, -1.048], a = 0.2, v = 0.2, t = 0.1)
movej(p[0.459928080206847, 0.0627561472387603, 0.422064613493071, -1.192, 0.952, -1.048], a = 0.2, v = 0.2, t = 0.1)
movej(p[0.459937844648953, 0.0627607651367093, 0.422056661859347, -1.192, 0.952, -1.048], a = 0.2, v = 0.2, t = 0.1)
movej(p[0.459950189242072, 0.0627642014575569, 0.422050114918935, -1.192, 0.952, -1.048], a = 0.2, v = 0.2, t = 0.1)
movej(p[0.459963987784583, 0.0627659633078532, 0.422045791371998, -1.192, 0.952, -1.048], a = 0.2, v = 0.2, t = 0.1)
movej(p[0.459977998946831, 0.0627659313908339, 0.422042313461309, -1.192, 0.952, -1.048], a = 0.2, v = 0.2, t = 0.1)
movej(p[0.459991664841474, 0.0627645228259332, 0.422037757197759, -1.192, 0.952, -1.048], a = 0.2, v = 0.2, t = 0.1)
movej(p[0.460004471375829, 0.0627614496798194, 0.422032827075573, -1.192, 0.952, -1.048], a = 0.2, v = 0.2, t = 0.1)
movej(p[0.460015354555327, 0.0627565640012408, 0.422028417201557, -1.192, 0.952, -1.048], a = 0.2, v = 0.2, t = 0.1)
movej(p[0.460023279962763, 0.0627503640615247, 0.422022982250914, -1.192, 0.952, -1.048], a = 0.2, v = 0.2, t = 0.1)
movej(p[0.460026675954852, 0.0627438579196414, 0.422015914680644, -1.192, 0.952, -1.048], a = 0.2, v = 0.2, t = 0.1)
movej(p[0.460024871102315, 0.0627379933300939, 0.422007719832338, -1.192, 0.952, -1.048], a = 0.2, v = 0.2, t = 0.1)
movej(p[0.460017264298214, 0.0627336809462787, 0.421998614627277, -1.192, 0.952, -1.048], a = 0.2, v = 0.2, t = 0.1)
movej(p[0.46000407147286, 0.0627314564345317, 0.421988067185138, -1.192, 0.952, -1.048], a = 0.2, v = 0.2, t = 0.1)
movej(p[0.459986636386249, 0.0627308513401681, 0.421975664007091, -1.192, 0.952, -1.048], a = 0.2, v = 0.2, t = 0.1)
movej(p[0.459966299230349, 0.0627296539806111, 0.421962890880692, -1.192, 0.952, -1.048], a = 0.2, v = 0.2, t = 0.1)
movej(p[0.459944333374065, 0.0627270567547763, 0.421950932809791, -1.192, 0.952, -1.048], a = 0.2, v = 0.2, t = 0.1)
movej(p[0.459922172236123, 0.0627237500781869, 0.421940312955129, -1.192, 0.952, -1.048], a = 0.2, v = 0.2, t = 0.1)
movej(p[0.459901278851162, 0.0627199086242497, 0.421931908728722, -1.192, 0.952, -1.048], a = 0.2, v = 0.2, t = 0.1)
movej(p[0.459883997289351, 0.0627149145456608, 0.421928202761987, -1.192, 0.952, -1.048], a = 0.2, v = 0.2, t = 0.1)
movej(p[0.459872373854915, 0.0627084877710537, 0.421929738254757, -1.192, 0.952, -1.048], a = 0.2, v = 0.2, t = 0.1)
movej(p[0.459867225486936, 0.0627021646517089, 0.421934265687022, -1.192, 0.952, -1.048], a = 0.2, v = 0.2, t = 0.1)
movej(p[0.459868167567438, 0.062697625216633, 0.42193946588726, -1.192, 0.952, -1.048], a = 0.2, v = 0.2, t = 0.1)
movej(p[0.459874377417881, 0.0626944581737745, 0.421945634537518, -1.192, 0.952, -1.048], a = 0.2, v = 0.2, t = 0.1)
movej(p[0.459884922348629, 0.0626923246903005, 0.421953832520611, -1.192, 0.952, -1.048], a = 0.2, v = 0.2, t = 0.1)
movej(p[0.459898160485176, 0.0626904148329236, 0.42196401549486, -1.192, 0.952, -1.048], a = 0.2, v = 0.2, t = 0.1)
movej(p[0.459913420004339, 0.0626889949836037, 0.421975919819865, -1.192, 0.952, -1.048], a = 0.2, v = 0.2, t = 0.1)
movej(p[0.459929644279589, 0.0626860943154728, 0.421989352594522, -1.192, 0.952, -1.048], a = 0.2, v = 0.2, t = 0.1)
movej(p[0.459945979422353, 0.0626810187723984, 0.422001718518968, -1.192, 0.952, -1.048], a = 0.2, v = 0.2, t = 0.1)
movej(p[0.45996249117789, 0.0626756736056511, 0.422011293416542, -1.192, 0.952, -1.048], a = 0.2, v = 0.2, t = 0.1)
movej(p[0.459980322325847, 0.0626730569767115, 0.422017347081508, -1.192, 0.952, -1.048], a = 0.2, v = 0.2, t = 0.1)
movej(p[0.45999931309253, 0.0626734951443105, 0.42202220271287, -1.192, 0.952, -1.048], a = 0.2, v = 0.2, t = 0.1)
movej(p[0.460017722490416, 0.0626752324344607, 0.422028118317778, -1.192, 0.952, -1.048], a = 0.2, v = 0.2, t = 0.1)
movej(p[0.460032637866431, 0.0626762995852004, 0.422034893782753, -1.192, 0.952, -1.048], a = 0.2, v = 0.2, t = 0.1)
movej(p[0.460042724518189, 0.0626763327820565, 0.422039586487439, -1.192, 0.952, -1.048], a = 0.2, v = 0.2, t = 0.1)
movej(p[0.460048332184597, 0.0626748959118582, 0.422040195542032, -1.192, 0.952, -1.048], a = 0.2, v = 0.2, t = 0.1)
movej(p[0.460050286797957, 0.0626724185728346, 0.422036360177647, -1.192, 0.952, -1.048], a = 0.2, v = 0.2, t = 0.1)
movej(p[0.460048978095142, 0.0626703567943993, 0.422029660674484, -1.192, 0.952, -1.048], a = 0.2, v = 0.2, t = 0.1)
movej(p[0.460043261365224, 0.0626698333615483, 0.42202216014203, -1.192, 0.952, -1.048], a = 0.2, v = 0.2, t = 0.1)
movej(p[0.460032759409134, 0.0626711479008586, 0.422014994734665, -1.192, 0.952, -1.048], a = 0.2, v = 0.2, t = 0.1)
movej(p[0.460018581146999, 0.0626734245539976, 0.422008323786434, -1.192, 0.952, -1.048], a = 0.2, v = 0.2, t = 0.1)
movej(p[0.460001486553346, 0.0626755852351197, 0.422001726492601, -1.192, 0.952, -1.048], a = 0.2, v = 0.2, t = 0.1)
movej(p[0.459981618681925, 0.0626775805360546, 0.421995202176974, -1.192, 0.952, -1.048], a = 0.2, v = 0.2, t = 0.1)
movej(p[0.459959999499266, 0.0626801709422106, 0.421989970837652, -1.192, 0.952, -1.048], a = 0.2, v = 0.2, t = 0.1)
movej(p[0.459938766235099, 0.0626834998851271, 0.421987215628247, -1.192, 0.952, -1.048], a = 0.2, v = 0.2, t = 0.1)
movej(p[0.459920110934839, 0.0626864441951564, 0.421986723701776, -1.192, 0.952, -1.048], a = 0.2, v = 0.2, t = 0.1)
movej(p[0.459905915488608, 0.0626887802290837, 0.421987230980598, -1.192, 0.952, -1.048], a = 0.2, v = 0.2, t = 0.1)
movej(p[0.459897378365962, 0.0626917009263629, 0.421988623013044, -1.192, 0.952, -1.048], a = 0.2, v = 0.2, t = 0.1)
movej(p[0.459895070928796, 0.0626958301295365, 0.421992054122322, -1.192, 0.952, -1.048], a = 0.2, v = 0.2, t = 0.1)
movej(p[0.459898820774801, 0.0627012636379325, 0.42199786139289, -1.192, 0.952, -1.048], a = 0.2, v = 0.2, t = 0.1)
movej(p[0.459908348014782, 0.0627080125065802, 0.422004779786874, -1.192, 0.952, -1.048], a = 0.2, v = 0.2, t = 0.1)
movej(p[0.459922167747565, 0.0627155712578052, 0.422013329933524, -1.192, 0.952, -1.048], a = 0.2, v = 0.2, t = 0.1)
movej(p[0.459938560606419, 0.0627228929845839, 0.422021442746634, -1.192, 0.952, -1.048], a = 0.2, v = 0.2, t = 0.1)
movej(p[0.459954337578014, 0.0627288613701483, 0.422026986953615, -1.192, 0.952, -1.048], a = 0.2, v = 0.2, t = 0.1)
movej(p[0.459965897869467, 0.062733485227501, 0.422029555332229, -1.192, 0.952, -1.048], a = 0.2, v = 0.2, t = 0.1)
movej(p[0.459970979681404, 0.0627371926947154, 0.422030277146122, -1.192, 0.952, -1.048], a = 0.2, v = 0.2, t = 0.1)
movej(p[0.459968396414161, 0.0627403379178627, 0.422029403446684, -1.192, 0.952, -1.048], a = 0.2, v = 0.2, t = 0.1)
movej(p[0.459958411936371, 0.0627437833839178, 0.42202616299364, -1.192, 0.952, -1.048], a = 0.2, v = 0.2, t = 0.1)
movej(p[0.459943115626969, 0.0627487100185446, 0.422019439410599, -1.192, 0.952, -1.048], a = 0.2, v = 0.2, t = 0.1)
movej(p[0.459924841132343, 0.0627551641717073, 0.422010193669573, -1.192, 0.952, -1.048], a = 0.2, v = 0.2, t = 0.1)
movej(p[0.459906224264794, 0.0627630442216603, 0.421999232907812, -1.192, 0.952, -1.048], a = 0.2, v = 0.2, t = 0.1)
movej(p[0.459889844999606, 0.0627717882041739, 0.421988127338591, -1.192, 0.952, -1.048], a = 0.2, v = 0.2, t = 0.1)
movej(p[0.45987822690464, 0.0627806154269991, 0.42197731237421, -1.192, 0.952, -1.048], a = 0.2, v = 0.2, t = 0.1)
movej(p[0.459872582380111, 0.0627885262579324, 0.421967393458453, -1.192, 0.952, -1.048], a = 0.2, v = 0.2, t = 0.1)
movej(p[0.459872224998693, 0.0627950580020787, 0.4219595387591, -1.192, 0.952, -1.048], a = 0.2, v = 0.2, t = 0.1)
movej(p[0.459876062855293, 0.0627996929585688, 0.421953793432298, -1.192, 0.952, -1.048], a = 0.2, v = 0.2, t = 0.1)
movej(p[0.459882913657818, 0.0628019947907062, 0.421950079512055, -1.192, 0.952, -1.048], a = 0.2, v = 0.2, t = 0.1)
movej(p[0.459890314487824, 0.062802270095062, 0.421948924813943, -1.192, 0.952, -1.048], a = 0.2, v = 0.2, t = 0.1)
movej(p[0.459897358090248, 0.0628018584981275, 0.421950258746795, -1.192, 0.952, -1.048], a = 0.2, v = 0.2, t = 0.1)
movej(p[0.459905686333657, 0.0628023570112866, 0.421953948279604, -1.192, 0.952, -1.048], a = 0.2, v = 0.2, t = 0.1)
movej(p[0.459917478091224, 0.0628041323313048, 0.421959986258267, -1.192, 0.952, -1.048], a = 0.2, v = 0.2, t = 0.1)
movej(p[0.459933010975309, 0.0628065502406429, 0.421968149399354, -1.192, 0.952, -1.048], a = 0.2, v = 0.2, t = 0.1)
movej(p[0.459949755880029, 0.0628086695859997, 0.421977505393967, -1.192, 0.952, -1.048], a = 0.2, v = 0.2, t = 0.1)
movej(p[0.459964174770684, 0.0628094385409313, 0.421986141599534, -1.192, 0.952, -1.048], a = 0.2, v = 0.2, t = 0.1)
movej(p[0.45997369364949, 0.0628080986851955, 0.42199083721194, -1.192, 0.952, -1.048], a = 0.2, v = 0.2, t = 0.1)
movej(p[0.459977105973702, 0.0628047903820072, 0.421989788667002, -1.192, 0.952, -1.048], a = 0.2, v = 0.2, t = 0.1)
movej(p[0.459973968745457, 0.0627993996781399, 0.421982479416989, -1.192, 0.952, -1.048], a = 0.2, v = 0.2, t = 0.1)
movej(p[0.459963908148547, 0.0627927692531116, 0.421970312816693, -1.192, 0.952, -1.048], a = 0.2, v = 0.2, t = 0.1)
movej(p[0.459948277356992, 0.0627854652305561, 0.421954743314842, -1.192, 0.952, -1.048], a = 0.2, v = 0.2, t = 0.1)
movej(p[0.45992766515585, 0.0627778805395193, 0.421938335282299, -1.192, 0.952, -1.048], a = 0.2, v = 0.2, t = 0.1)
movej(p[0.459902409290377, 0.0627704440550146, 0.421923608414355, -1.192, 0.952, -1.048], a = 0.2, v = 0.2, t = 0.1)
movej(p[0.459873638490381, 0.0627638135896606, 0.421910615527503, -1.192, 0.952, -1.048], a = 0.2, v = 0.2, t = 0.1)
movej(p[0.459844838214928, 0.0627582664346295, 0.42189852186028, -1.192, 0.952, -1.048], a = 0.2, v = 0.2, t = 0.1)
movej(p[0.45981979190448, 0.0627540716416395, 0.421887787332729, -1.192, 0.952, -1.048], a = 0.2, v = 0.2, t = 0.1)
movej(p[0.459800920822158, 0.0627516263423146, 0.421878990513236, -1.192, 0.952, -1.048], a = 0.2, v = 0.2, t = 0.1)
movej(p[0.459789131213651, 0.0627506968519263, 0.421873320088132, -1.192, 0.952, -1.048], a = 0.2, v = 0.2, t = 0.1)
movej(p[0.459786205107218, 0.0627498200247814, 0.421872780190637, -1.192, 0.952, -1.048], a = 0.2, v = 0.2, t = 0.1)
movej(p[0.459791692200415, 0.0627483007107039, 0.421877657196274, -1.192, 0.952, -1.048], a = 0.2, v = 0.2, t = 0.1)
movej(p[0.459803756238032, 0.0627465947444265, 0.421885751794809, -1.192, 0.952, -1.048], a = 0.2, v = 0.2, t = 0.1)
movej(p[0.459820298460061, 0.0627457879130006, 0.421895016870978, -1.192, 0.952, -1.048], a = 0.2, v = 0.2, t = 0.1)
movej(p[0.459838885548992, 0.0627463825884821, 0.421905951574272, -1.192, 0.952, -1.048], a = 0.2, v = 0.2, t = 0.1)
movej(p[0.459859480376296, 0.0627479560682482, 0.421919226702698, -1.192, 0.952, -1.048], a = 0.2, v = 0.2, t = 0.1)
movej(p[0.459881545295772, 0.0627491759278384, 0.421933505872845, -1.192, 0.952, -1.048], a = 0.2, v = 0.2, t = 0.1)
movej(p[0.45990273564943, 0.0627485636730914, 0.421945823315518, -1.192, 0.952, -1.048], a = 0.2, v = 0.2, t = 0.1)
movej(p[0.459920045256908, 0.0627453059790138, 0.421953676078041, -1.192, 0.952, -1.048], a = 0.2, v = 0.2, t = 0.1)
movej(p[0.459931702262213, 0.0627404036176465, 0.421956712247558, -1.192, 0.952, -1.048], a = 0.2, v = 0.2, t = 0.1)
movej(p[0.459938365080217, 0.0627349111474032, 0.421955792401441, -1.192, 0.952, -1.048], a = 0.2, v = 0.2, t = 0.1)
movej(p[0.459940821540772, 0.0627296555941102, 0.421952462229955, -1.192, 0.952, -1.048], a = 0.2, v = 0.2, t = 0.1)
movej(p[0.459938790907829, 0.0627248832170321, 0.421946853996644, -1.192, 0.952, -1.048], a = 0.2, v = 0.2, t = 0.1)
movej(p[0.459932091373665, 0.062720866166721, 0.421939827314227, -1.192, 0.952, -1.048], a = 0.2, v = 0.2, t = 0.1)
movej(p[0.459921502657212, 0.0627171806278051, 0.42193228822736, -1.192, 0.952, -1.048], a = 0.2, v = 0.2, t = 0.1)
movej(p[0.459909097508897, 0.0627137092048202, 0.421925347393496, -1.192, 0.952, -1.048], a = 0.2, v = 0.2, t = 0.1)
movej(p[0.459897364631299, 0.0627114401345914, 0.421920118793533, -1.192, 0.952, -1.048], a = 0.2, v = 0.2, t = 0.1)
movej(p[0.459888721761184, 0.0627119495623715, 0.421917353484777, -1.192, 0.952, -1.048], a = 0.2, v = 0.2, t = 0.1)
movej(p[0.459884256348532, 0.0627165186543487, 0.421917476968979, -1.192, 0.952, -1.048], a = 0.2, v = 0.2, t = 0.1)
movej(p[0.459883830173849, 0.0627252632270355, 0.421919450932166, -1.192, 0.952, -1.048], a = 0.2, v = 0.2, t = 0.1)
movej(p[0.459886430960688, 0.0627368453512107, 0.421923782172913, -1.192, 0.952, -1.048], a = 0.2, v = 0.2, t = 0.1)
movej(p[0.45989103847976, 0.062749533775263, 0.421932444021161, -1.192, 0.952, -1.048], a = 0.2, v = 0.2, t = 0.1)
movej(p[0.459898041271786, 0.0627626243678798, 0.421946310559402, -1.192, 0.952, -1.048], a = 0.2, v = 0.2, t = 0.1)
movej(p[0.459907090046477, 0.0627762776383779, 0.421962451023221, -1.192, 0.952, -1.048], a = 0.2, v = 0.2, t = 0.1)
movej(p[0.459917495965482, 0.0627900998047089, 0.421977279358042, -1.192, 0.952, -1.048], a = 0.2, v = 0.2, t = 0.1)
movej(p[0.459928192701135, 0.0628020896348601, 0.42198893816091, -1.192, 0.952, -1.048], a = 0.2, v = 0.2, t = 0.1)
movej(p[0.459937370181279, 0.0628093415428214, 0.421997936279276, -1.192, 0.952, -1.048], a = 0.2, v = 0.2, t = 0.1)
movej(p[0.459945069257736, 0.0628122849941969, 0.422004933136693, -1.192, 0.952, -1.048], a = 0.2, v = 0.2, t = 0.1)
movej(p[0.459952995674535, 0.0628136490915068, 0.422008943980027, -1.192, 0.952, -1.048], a = 0.2, v = 0.2, t = 0.1)
movej(p[0.459962483759943, 0.0628150443105865, 0.42200921753991, -1.192, 0.952, -1.048], a = 0.2, v = 0.2, t = 0.1)
movej(p[0.459973318056489, 0.0628165977517241, 0.422005357786552, -1.192, 0.952, -1.048], a = 0.2, v = 0.2, t = 0.1)
movej(p[0.459984304492461, 0.0628189040102492, 0.421997809411015, -1.192, 0.952, -1.048], a = 0.2, v = 0.2, t = 0.1)
movej(p[0.459994512863322, 0.0628231288501908, 0.421988210240746, -1.192, 0.952, -1.048], a = 0.2, v = 0.2, t = 0.1)
movej(p[0.460003856113409, 0.0628289808921068, 0.421979010597426, -1.192, 0.952, -1.048], a = 0.2, v = 0.2, t = 0.1)
movej(p[0.460013421015581, 0.0628349405919515, 0.421971230642143, -1.192, 0.952, -1.048], a = 0.2, v = 0.2, t = 0.1)
movej(p[0.460024200973143, 0.0628403836294789, 0.42196345448786, -1.192, 0.952, -1.048], a = 0.2, v = 0.2, t = 0.1)
movej(p[0.460036967674593, 0.0628443483026808, 0.421953439973318, -1.192, 0.952, -1.048], a = 0.2, v = 0.2, t = 0.1)
movej(p[0.460050629339281, 0.0628457572771394, 0.421942174697914, -1.192, 0.952, -1.048], a = 0.2, v = 0.2, t = 0.1)
movej(p[0.460063637968641, 0.0628446917526338, 0.421931312139206, -1.192, 0.952, -1.048], a = 0.2, v = 0.2, t = 0.1)
movej(p[0.460075826270046, 0.0628428924121961, 0.421921523998584, -1.192, 0.952, -1.048], a = 0.2, v = 0.2, t = 0.1)
movej(p[0.460087967538024, 0.0628410336536162, 0.421912690371105, -1.192, 0.952, -1.048], a = 0.2, v = 0.2, t = 0.1)
movej(p[0.460100051417145, 0.0628386468250785, 0.421904207649082, -1.192, 0.952, -1.048], a = 0.2, v = 0.2, t = 0.1)
movej(p[0.460110024545257, 0.062835543226666, 0.421896139662061, -1.192, 0.952, -1.048], a = 0.2, v = 0.2, t = 0.1)
movej(p[0.460114844604311, 0.0628330167258117, 0.421888864071216, -1.192, 0.952, -1.048], a = 0.2, v = 0.2, t = 0.1)
movej(p[0.460113466631366, 0.0628316841326603, 0.421883249967275, -1.192, 0.952, -1.048], a = 0.2, v = 0.2, t = 0.1)
movej(p[0.460106748974568, 0.0628317986057761, 0.421877856663181, -1.192, 0.952, -1.048], a = 0.2, v = 0.2, t = 0.1)
movej(p[0.460095982011462, 0.0628331369642689, 0.421872177359086, -1.192, 0.952, -1.048], a = 0.2, v = 0.2, t = 0.1)
movej(p[0.460082319614398, 0.0628354615898247, 0.421866620302624, -1.192, 0.952, -1.048], a = 0.2, v = 0.2, t = 0.1)
movej(p[0.460066593866017, 0.0628384649189228, 0.421861670109277, -1.192, 0.952, -1.048], a = 0.2, v = 0.2, t = 0.1)
movej(p[0.460049911852968, 0.0628416966344564, 0.421857798896245, -1.192, 0.952, -1.048], a = 0.2, v = 0.2, t = 0.1)
movej(p[0.460034271200197, 0.0628450300646776, 0.421855977334864, -1.192, 0.952, -1.048], a = 0.2, v = 0.2, t = 0.1)
movej(p[0.460022377820748, 0.0628492492581036, 0.421858026812388, -1.192, 0.952, -1.048], a = 0.2, v = 0.2, t = 0.1)
movej(p[0.460016208367559, 0.0628547190328746, 0.421863997046914, -1.192, 0.952, -1.048], a = 0.2, v = 0.2, t = 0.1)
movej(p[0.460016696071518, 0.0628609007351878, 0.421871084212452, -1.192, 0.952, -1.048], a = 0.2, v = 0.2, t = 0.1)
movej(p[0.460023897855386, 0.0628657448697807, 0.421876978053827, -1.192, 0.952, -1.048], a = 0.2, v = 0.2, t = 0.1)
movej(p[0.460035940421171, 0.0628683784091162, 0.42188237717504, -1.192, 0.952, -1.048], a = 0.2, v = 0.2, t = 0.1)
movej(p[0.460050051379339, 0.0628701448201383, 0.421888537191412, -1.192, 0.952, -1.048], a = 0.2, v = 0.2, t = 0.1)
movej(p[0.460063772079342, 0.0628725513080101, 0.42189574584604, -1.192, 0.952, -1.048], a = 0.2, v = 0.2, t = 0.1)
movej(p[0.460075962062175, 0.0628752807851823, 0.421902964642539, -1.192, 0.952, -1.048], a = 0.2, v = 0.2, t = 0.1)
movej(p[0.460086928593786, 0.0628773018825541, 0.421906837439311, -1.192, 0.952, -1.048], a = 0.2, v = 0.2, t = 0.1)
movej(p[0.460096055003566, 0.0628781490901831, 0.421906189940461, -1.192, 0.952, -1.048], a = 0.2, v = 0.2, t = 0.1)
movej(p[0.460102419848511, 0.06287810242435, 0.421901369725722, -1.192, 0.952, -1.048], a = 0.2, v = 0.2, t = 0.1)
movej(p[0.460104478065021, 0.062877927661441, 0.421893051526895, -1.192, 0.952, -1.048], a = 0.2, v = 0.2, t = 0.1)
movej(p[0.460100656086175, 0.0628779007065456, 0.421881303940755, -1.192, 0.952, -1.048], a = 0.2, v = 0.2, t = 0.1)
movej(p[0.460092183850989, 0.0628774760623086, 0.421866776806239, -1.192, 0.952, -1.048], a = 0.2, v = 0.2, t = 0.1)
movej(p[0.460080069707062, 0.062876024085463, 0.421851862090213, -1.192, 0.952, -1.048], a = 0.2, v = 0.2, t = 0.1)
movej(p[0.460065205157214, 0.0628737264908023, 0.421838218534203, -1.192, 0.952, -1.048], a = 0.2, v = 0.2, t = 0.1)
movej(p[0.460047491097255, 0.0628717308822459, 0.421826579309132, -1.192, 0.952, -1.048], a = 0.2, v = 0.2, t = 0.1)
movej(p[0.460028972137346, 0.0628701032071653, 0.421815546604489, -1.192, 0.952, -1.048], a = 0.2, v = 0.2, t = 0.1)
movej(p[0.46001265350533, 0.0628682316076782, 0.421804088007782, -1.192, 0.952, -1.048], a = 0.2, v = 0.2, t = 0.1)
movej(p[0.460000177847245, 0.062865729285053, 0.421792263699861, -1.192, 0.952, -1.048], a = 0.2, v = 0.2, t = 0.1)
movej(p[0.459991934635122, 0.0628620426052546, 0.421781872697649, -1.192, 0.952, -1.048], a = 0.2, v = 0.2, t = 0.1)
movej(p[0.459988190964484, 0.0628572560245788, 0.421774471047456, -1.192, 0.952, -1.048], a = 0.2, v = 0.2, t = 0.1)
movej(p[0.45998904822609, 0.0628518367229456, 0.421768946376665, -1.192, 0.952, -1.048], a = 0.2, v = 0.2, t = 0.1)
movej(p[0.459994495980958, 0.0628471251623002, 0.421764678879016, -1.192, 0.952, -1.048], a = 0.2, v = 0.2, t = 0.1)
movej(p[0.460004236084866, 0.0628430314649307, 0.421762273478487, -1.192, 0.952, -1.048], a = 0.2, v = 0.2, t = 0.1)
movej(p[0.460018286010151, 0.0628387251245054, 0.421760086086288, -1.192, 0.952, -1.048], a = 0.2, v = 0.2, t = 0.1)
movej(p[0.460035063452198, 0.0628344194005489, 0.421757920941128, -1.192, 0.952, -1.048], a = 0.2, v = 0.2, t = 0.1)
movej(p[0.460052370528641, 0.0628311745106256, 0.421755104083946, -1.192, 0.952, -1.048], a = 0.2, v = 0.2, t = 0.1)
movej(p[0.460068568324432, 0.0628287957035533, 0.421750824140324, -1.192, 0.952, -1.048], a = 0.2, v = 0.2, t = 0.1)
movej(p[0.460082062153776, 0.0628265627992597, 0.421745492230529, -1.192, 0.952, -1.048], a = 0.2, v = 0.2, t = 0.1)
movej(p[0.460091849590672, 0.0628230100325254, 0.421740000082904, -1.192, 0.952, -1.048], a = 0.2, v = 0.2, t = 0.1)
movej(p[0.460097209814767, 0.0628171581110276, 0.4217353030291, -1.192, 0.952, -1.048], a = 0.2, v = 0.2, t = 0.1)
movej(p[0.460098830531996, 0.0628091668451122, 0.421730794696954, -1.192, 0.952, -1.048], a = 0.2, v = 0.2, t = 0.1)
movej(p[0.460096750568653, 0.0628000091226476, 0.421725332861571, -1.192, 0.952, -1.048], a = 0.2, v = 0.2, t = 0.1)
movej(p[0.460090987422756, 0.0627908708458015, 0.421717623363814, -1.192, 0.952, -1.048], a = 0.2, v = 0.2, t = 0.1)
movej(p[0.460081176400863, 0.0627832912815123, 0.421707015311232, -1.192, 0.952, -1.048], a = 0.2, v = 0.2, t = 0.1)
movej(p[0.460067152069533, 0.062778027292935, 0.421693551446557, -1.192, 0.952, -1.048], a = 0.2, v = 0.2, t = 0.1)
movej(p[0.46005019121567, 0.062774327713275, 0.421678738639274, -1.192, 0.952, -1.048], a = 0.2, v = 0.2, t = 0.1)
movej(p[0.460032679733564, 0.0627713158895497, 0.421663876737064, -1.192, 0.952, -1.048], a = 0.2, v = 0.2, t = 0.1)
movej(p[0.460016332595129, 0.0627693185401943, 0.421650630363427, -1.192, 0.952, -1.048], a = 0.2, v = 0.2, t = 0.1)
movej(p[0.460002658150919, 0.0627690433273639, 0.421640883469232, -1.192, 0.952, -1.048], a = 0.2, v = 0.2, t = 0.1)
movej(p[0.459992385670908, 0.062769892452789, 0.421635974319974, -1.192, 0.952, -1.048], a = 0.2, v = 0.2, t = 0.1)
movej(p[0.459986778872832, 0.0627708094503621, 0.421634497423979, -1.192, 0.952, -1.048], a = 0.2, v = 0.2, t = 0.1)
movej(p[0.459986880411758, 0.0627712630087103, 0.421634154379271, -1.192, 0.952, -1.048], a = 0.2, v = 0.2, t = 0.1)
movej(p[0.459992395211286, 0.0627713181550112, 0.421633644282173, -1.192, 0.952, -1.048], a = 0.2, v = 0.2, t = 0.1)
movej(p[0.460002330720449, 0.0627712557967553, 0.421632938644786, -1.192, 0.952, -1.048], a = 0.2, v = 0.2, t = 0.1)
movej(p[0.460015272316491, 0.0627721322218499, 0.421632922803382, -1.192, 0.952, -1.048], a = 0.2, v = 0.2, t = 0.1)
movej(p[0.460029424037359, 0.0627743172102181, 0.421632658774423, -1.192, 0.952, -1.048], a = 0.2, v = 0.2, t = 0.1)
movej(p[0.460043095845349, 0.0627766381630829, 0.421630942354579, -1.192, 0.952, -1.048], a = 0.2, v = 0.2, t = 0.1)
movej(p[0.460054107406136, 0.06277865075003, 0.421627250837705, -1.192, 0.952, -1.048], a = 0.2, v = 0.2, t = 0.1)
movej(p[0.4600596632903, 0.0627805920692968, 0.421622806877798, -1.192, 0.952, -1.048], a = 0.2, v = 0.2, t = 0.1)
movej(p[0.460057797923781, 0.0627830276558058, 0.421619505224408, -1.192, 0.952, -1.048], a = 0.2, v = 0.2, t = 0.1)
movej(p[0.460048264144949, 0.0627859784375929, 0.421618219278444, -1.192, 0.952, -1.048], a = 0.2, v = 0.2, t = 0.1)
movej(p[0.460034196148892, 0.0627881486823099, 0.421618919648931, -1.192, 0.952, -1.048], a = 0.2, v = 0.2, t = 0.1)
movej(p[0.460017506446797, 0.0627888583027145, 0.42162045098817, -1.192, 0.952, -1.048], a = 0.2, v = 0.2, t = 0.1)
movej(p[0.459999670967082, 0.0627888206888436, 0.42162117293036, -1.192, 0.952, -1.048], a = 0.2, v = 0.2, t = 0.1)
movej(p[0.459981834838695, 0.062788862817065, 0.421619079536375, -1.192, 0.952, -1.048], a = 0.2, v = 0.2, t = 0.1)
movej(p[0.459964792868676, 0.0627895109076496, 0.421614110981508, -1.192, 0.952, -1.048], a = 0.2, v = 0.2, t = 0.1)
movej(p[0.459948966290857, 0.0627907866617218, 0.421607639461123, -1.192, 0.952, -1.048], a = 0.2, v = 0.2, t = 0.1)
movej(p[0.45993473048679, 0.062793887461501, 0.421602439743412, -1.192, 0.952, -1.048], a = 0.2, v = 0.2, t = 0.1)
movej(p[0.459923907866911, 0.0627995020339624, 0.421600630915052, -1.192, 0.952, -1.048], a = 0.2, v = 0.2, t = 0.1)
movej(p[0.459918791797339, 0.0628063303255466, 0.421603305701805, -1.192, 0.952, -1.048], a = 0.2, v = 0.2, t = 0.1)
movej(p[0.459921748393579, 0.0628124286008675, 0.421610686090534, -1.192, 0.952, -1.048], a = 0.2, v = 0.2, t = 0.1)
movej(p[0.459933504817711, 0.0628165438409309, 0.421622138589556, -1.192, 0.952, -1.048], a = 0.2, v = 0.2, t = 0.1)
movej(p[0.459951865836485, 0.0628185756873984, 0.421635810428733, -1.192, 0.952, -1.048], a = 0.2, v = 0.2, t = 0.1)
movej(p[0.459973475360763, 0.0628184028423674, 0.421649588255634, -1.192, 0.952, -1.048], a = 0.2, v = 0.2, t = 0.1)
movej(p[0.459995645127172, 0.0628167322360482, 0.421661985382757, -1.192, 0.952, -1.048], a = 0.2, v = 0.2, t = 0.1)
movej(p[0.460017722849206, 0.0628151356850614, 0.42167189174802, -1.192, 0.952, -1.048], a = 0.2, v = 0.2, t = 0.1)
movej(p[0.46003964064403, 0.0628151254519051, 0.421678075426078, -1.192, 0.952, -1.048], a = 0.2, v = 0.2, t = 0.1)
movej(p[0.460061165027719, 0.0628173477206174, 0.421680087546743, -1.192, 0.952, -1.048], a = 0.2, v = 0.2, t = 0.1)
movej(p[0.460080714795958, 0.0628200764445137, 0.421678931674041, -1.192, 0.952, -1.048], a = 0.2, v = 0.2, t = 0.1)
movej(p[0.460096316740212, 0.0628212475424709, 0.421676535650859, -1.192, 0.952, -1.048], a = 0.2, v = 0.2, t = 0.1)
movej(p[0.460106495275427, 0.0628201406517542, 0.421674256828398, -1.192, 0.952, -1.048], a = 0.2, v = 0.2, t = 0.1)
movej(p[0.460111034313416, 0.0628179214209683, 0.421671163827452, -1.192, 0.952, -1.048], a = 0.2, v = 0.2, t = 0.1)
movej(p[0.460110414956665, 0.0628147715025448, 0.421666220551601, -1.192, 0.952, -1.048], a = 0.2, v = 0.2, t = 0.1)
movej(p[0.460106331722782, 0.0628108309595572, 0.421659682606815, -1.192, 0.952, -1.048], a = 0.2, v = 0.2, t = 0.1)
movej(p[0.460100276520001, 0.0628078030778414, 0.421653574318954, -1.192, 0.952, -1.048], a = 0.2, v = 0.2, t = 0.1)
movej(p[0.460093805485074, 0.0628059391516749, 0.421648131135674, -1.192, 0.952, -1.048], a = 0.2, v = 0.2, t = 0.1)
movej(p[0.460087956507944, 0.0628039128433019, 0.421643049844804, -1.192, 0.952, -1.048], a = 0.2, v = 0.2, t = 0.1)
movej(p[0.460083043832493, 0.0628010991876689, 0.421638984322834, -1.192, 0.952, -1.048], a = 0.2, v = 0.2, t = 0.1)
movej(p[0.460079860330649, 0.0627993118832177, 0.421637173540734, -1.192, 0.952, -1.048], a = 0.2, v = 0.2, t = 0.1)
movej(p[0.460080358304989, 0.062799825063707, 0.421637927451434, -1.192, 0.952, -1.048], a = 0.2, v = 0.2, t = 0.1)
movej(p[0.460086127540207, 0.0628020979978665, 0.421641184246223, -1.192, 0.952, -1.048], a = 0.2, v = 0.2, t = 0.1)
movej(p[0.460097136007983, 0.0628055606029656, 0.421645218042469, -1.192, 0.952, -1.048], a = 0.2, v = 0.2, t = 0.1)
movej(p[0.460112806136218, 0.0628097201981116, 0.42164899896396, -1.192, 0.952, -1.048], a = 0.2, v = 0.2, t = 0.1)
movej(p[0.460133267567069, 0.0628139749716109, 0.421652484436095, -1.192, 0.952, -1.048], a = 0.2, v = 0.2, t = 0.1)
movej(p[0.460156863596279, 0.0628184202438298, 0.421657356879162, -1.192, 0.952, -1.048], a = 0.2, v = 0.2, t = 0.1)
movej(p[0.460181334460351, 0.062823814811282, 0.421664702686643, -1.192, 0.952, -1.048], a = 0.2, v = 0.2, t = 0.1)
movej(p[0.460204762628477, 0.0628296388553476, 0.421672700352239, -1.192, 0.952, -1.048], a = 0.2, v = 0.2, t = 0.1)
movej(p[0.460225429355748, 0.0628344251229994, 0.421676393264355, -1.192, 0.952, -1.048], a = 0.2, v = 0.2, t = 0.1)
movej(p[0.460241151980885, 0.0628373801938087, 0.421675119732147, -1.192, 0.952, -1.048], a = 0.2, v = 0.2, t = 0.1)
movej(p[0.460250243770519, 0.0628387204145476, 0.421670817324609, -1.192, 0.952, -1.048], a = 0.2, v = 0.2, t = 0.1)
movej(p[0.4602529261963, 0.0628393712502737, 0.421665568019342, -1.192, 0.952, -1.048], a = 0.2, v = 0.2, t = 0.1)
movej(p[0.46025021196965, 0.0628398733964684, 0.421659351692381, -1.192, 0.952, -1.048], a = 0.2, v = 0.2, t = 0.1)
movej(p[0.460243580066658, 0.0628401488819234, 0.421652572801656, -1.192, 0.952, -1.048], a = 0.2, v = 0.2, t = 0.1)
movej(p[0.460233299774909, 0.0628402792595396, 0.42164610716354, -1.192, 0.952, -1.048], a = 0.2, v = 0.2, t = 0.1)
movej(p[0.460219914477261, 0.0628407456758652, 0.421640447811573, -1.192, 0.952, -1.048], a = 0.2, v = 0.2, t = 0.1)
movej(p[0.460205027811492, 0.062842178834943, 0.421636354095007, -1.192, 0.952, -1.048], a = 0.2, v = 0.2, t = 0.1)
movej(p[0.460191790172333, 0.0628439402963627, 0.421635406859462, -1.192, 0.952, -1.048], a = 0.2, v = 0.2, t = 0.1)
movej(p[0.460182389949122, 0.0628445217164336, 0.421637654617072, -1.192, 0.952, -1.048], a = 0.2, v = 0.2, t = 0.1)
movej(p[0.460177065946404, 0.0628439459861243, 0.421642691987287, -1.192, 0.952, -1.048], a = 0.2, v = 0.2, t = 0.1)
movej(p[0.460175742970117, 0.0628429591717642, 0.421650328838874, -1.192, 0.952, -1.048], a = 0.2, v = 0.2, t = 0.1)
movej(p[0.460177746603861, 0.0628421502584553, 0.421660141517411, -1.192, 0.952, -1.048], a = 0.2, v = 0.2, t = 0.1)
movej(p[0.460183430660385, 0.0628411875242937, 0.421671448282394, -1.192, 0.952, -1.048], a = 0.2, v = 0.2, t = 0.1)
movej(p[0.460193006407526, 0.0628402225564014, 0.421683171057179, -1.192, 0.952, -1.048], a = 0.2, v = 0.2, t = 0.1)
movej(p[0.460206042350043, 0.0628397205527038, 0.421692571577217, -1.192, 0.952, -1.048], a = 0.2, v = 0.2, t = 0.1)
movej(p[0.460220992072621, 0.0628399090243486, 0.42169749006929, -1.192, 0.952, -1.048], a = 0.2, v = 0.2, t = 0.1)
movej(p[0.460236102613449, 0.0628414051546277, 0.421697391686999, -1.192, 0.952, -1.048], a = 0.2, v = 0.2, t = 0.1)
movej(p[0.460249889606616, 0.0628439297978932, 0.421694087996668, -1.192, 0.952, -1.048], a = 0.2, v = 0.2, t = 0.1)
movej(p[0.460260869707808, 0.0628464077771404, 0.421689946023025, -1.192, 0.952, -1.048], a = 0.2, v = 0.2, t = 0.1)
movej(p[0.46026785063157, 0.0628472717785061, 0.42168624381327, -1.192, 0.952, -1.048], a = 0.2, v = 0.2, t = 0.1)
movej(p[0.460269996316658, 0.0628459928891817, 0.421681869134585, -1.192, 0.952, -1.048], a = 0.2, v = 0.2, t = 0.1)
movej(p[0.460267870424002, 0.0628433101492756, 0.421674257905248, -1.192, 0.952, -1.048], a = 0.2, v = 0.2, t = 0.1)
movej(p[0.460261927618954, 0.0628406195444733, 0.421663067744796, -1.192, 0.952, -1.048], a = 0.2, v = 0.2, t = 0.1)
movej(p[0.460251982822037, 0.0628388178429548, 0.421649336838383, -1.192, 0.952, -1.048], a = 0.2, v = 0.2, t = 0.1)
movej(p[0.460237727700233, 0.0628373334340239, 0.421634233559649, -1.192, 0.952, -1.048], a = 0.2, v = 0.2, t = 0.1)
movej(p[0.460218661821793, 0.0628354891494319, 0.421618214888055, -1.192, 0.952, -1.048], a = 0.2, v = 0.2, t = 0.1)
movej(p[0.460195842230272, 0.0628330948671667, 0.421601570128872, -1.192, 0.952, -1.048], a = 0.2, v = 0.2, t = 0.1)
movej(p[0.460171605435261, 0.062830350434813, 0.421584923892281, -1.192, 0.952, -1.048], a = 0.2, v = 0.2, t = 0.1)
movej(p[0.460148772257353, 0.0628278203913145, 0.421569728620006, -1.192, 0.952, -1.048], a = 0.2, v = 0.2, t = 0.1)
movej(p[0.460129272495989, 0.0628266466514965, 0.421557997241417, -1.192, 0.952, -1.048], a = 0.2, v = 0.2, t = 0.1)
movej(p[0.460114314020819, 0.0628274726054525, 0.421551375083564, -1.192, 0.952, -1.048], a = 0.2, v = 0.2, t = 0.1)
movej(p[0.460104201813231, 0.0628300750529915, 0.421552010420875, -1.192, 0.952, -1.048], a = 0.2, v = 0.2, t = 0.1)
movej(p[0.460099702735666, 0.0628339770918313, 0.42155932267415, -1.192, 0.952, -1.048], a = 0.2, v = 0.2, t = 0.1)
movej(p[0.460100908147031, 0.0628384432082149, 0.421570934739466, -1.192, 0.952, -1.048], a = 0.2, v = 0.2, t = 0.1)
movej(p[0.460107364358207, 0.0628419739226102, 0.421583874987922, -1.192, 0.952, -1.048], a = 0.2, v = 0.2, t = 0.1)
movej(p[0.46011696699275, 0.0628433846635269, 0.421595890458321, -1.192, 0.952, -1.048], a = 0.2, v = 0.2, t = 0.1)
movej(p[0.4601273676046, 0.0628421485634066, 0.421605290129466, -1.192, 0.952, -1.048], a = 0.2, v = 0.2, t = 0.1)
movej(p[0.460136880491702, 0.0628388193289307, 0.421609959754803, -1.192, 0.952, -1.048], a = 0.2, v = 0.2, t = 0.1)
movej(p[0.460144609581952, 0.0628339156850584, 0.42160957438787, -1.192, 0.952, -1.048], a = 0.2, v = 0.2, t = 0.1)
movej(p[0.460149183583832, 0.0628287151833176, 0.421603910899418, -1.192, 0.952, -1.048], a = 0.2, v = 0.2, t = 0.1)
movej(p[0.460149180707429, 0.0628237238405617, 0.4215950430429, -1.192, 0.952, -1.048], a = 0.2, v = 0.2, t = 0.1)
movej(p[0.460143431007799, 0.0628197205986615, 0.421586111786861, -1.192, 0.952, -1.048], a = 0.2, v = 0.2, t = 0.1)
movej(p[0.460131552046458, 0.0628176836976734, 0.42157868427558, -1.192, 0.952, -1.048], a = 0.2, v = 0.2, t = 0.1)
movej(p[0.460114016707097, 0.0628184810904017, 0.421572426025957, -1.192, 0.952, -1.048], a = 0.2, v = 0.2, t = 0.1)
movej(p[0.460091998661731, 0.062821294267955, 0.421564965238845, -1.192, 0.952, -1.048], a = 0.2, v = 0.2, t = 0.1)
movej(p[0.460067303775817, 0.0628246841184291, 0.421554973461804, -1.192, 0.952, -1.048], a = 0.2, v = 0.2, t = 0.1)
movej(p[0.460041015093147, 0.062827430006237, 0.42154419849514, -1.192, 0.952, -1.048], a = 0.2, v = 0.2, t = 0.1)
movej(p[0.460014450952915, 0.0628284264882575, 0.421534220199376, -1.192, 0.952, -1.048], a = 0.2, v = 0.2, t = 0.1)
movej(p[0.459989504548054, 0.0628278648041909, 0.421525667901058, -1.192, 0.952, -1.048], a = 0.2, v = 0.2, t = 0.1)
movej(p[0.459968100468452, 0.0628265773753265, 0.421518752174538, -1.192, 0.952, -1.048], a = 0.2, v = 0.2, t = 0.1)
movej(p[0.459951280898876, 0.0628266598400238, 0.421513861641452, -1.192, 0.952, -1.048], a = 0.2, v = 0.2, t = 0.1)
movej(p[0.459939231629217, 0.0628287020639408, 0.421511883266074, -1.192, 0.952, -1.048], a = 0.2, v = 0.2, t = 0.1)
movej(p[0.459932067468473, 0.0628328752302125, 0.421514220515976, -1.192, 0.952, -1.048], a = 0.2, v = 0.2, t = 0.1)
movej(p[0.459930442700479, 0.0628386089987535, 0.421519872515117, -1.192, 0.952, -1.048], a = 0.2, v = 0.2, t = 0.1)
movej(p[0.45993456279003, 0.0628458778112119, 0.421526785555876, -1.192, 0.952, -1.048], a = 0.2, v = 0.2, t = 0.1)
movej(p[0.459943098393224, 0.0628544218996761, 0.421533636087566, -1.192, 0.952, -1.048], a = 0.2, v = 0.2, t = 0.1)
movej(p[0.45995419229867, 0.062863447621622, 0.421540301911994, -1.192, 0.952, -1.048], a = 0.2, v = 0.2, t = 0.1)
movej(p[0.459965749411064, 0.0628715816176168, 0.421546778498076, -1.192, 0.952, -1.048], a = 0.2, v = 0.2, t = 0.1)
movej(p[0.459975547464776, 0.0628764468989426, 0.421552761539867, -1.192, 0.952, -1.048], a = 0.2, v = 0.2, t = 0.1)
movej(p[0.459981347071243, 0.0628774792704145, 0.421558558523391, -1.192, 0.952, -1.048], a = 0.2, v = 0.2, t = 0.1)
movej(p[0.459981850279541, 0.0628759606394153, 0.421565621041518, -1.192, 0.952, -1.048], a = 0.2, v = 0.2, t = 0.1)
movej(p[0.459976681670086, 0.0628730511258658, 0.421572741474315, -1.192, 0.952, -1.048], a = 0.2, v = 0.2, t = 0.1)
movej(p[0.459966441946907, 0.062869858031794, 0.421577607157972, -1.192, 0.952, -1.048], a = 0.2, v = 0.2, t = 0.1)
movej(p[0.459952541781381, 0.0628664707273209, 0.421579163978056, -1.192, 0.952, -1.048], a = 0.2, v = 0.2, t = 0.1)
movej(p[0.459936888578048, 0.0628612173426987, 0.421577461325587, -1.192, 0.952, -1.048], a = 0.2, v = 0.2, t = 0.1)
movej(p[0.459921306585431, 0.0628532803739769, 0.421573441192932, -1.192, 0.952, -1.048], a = 0.2, v = 0.2, t = 0.1)
movej(p[0.459906471695179, 0.0628439681319827, 0.42156942036736, -1.192, 0.952, -1.048], a = 0.2, v = 0.2, t = 0.1)
movej(p[0.459893288400506, 0.0628361885700896, 0.421566294291338, -1.192, 0.952, -1.048], a = 0.2, v = 0.2, t = 0.1)
movej(p[0.459882354278838, 0.0628303624196026, 0.421565669209052, -1.192, 0.952, -1.048], a = 0.2, v = 0.2, t = 0.1)
movej(p[0.459873470584475, 0.0628255958459177, 0.421568205309752, -1.192, 0.952, -1.048], a = 0.2, v = 0.2, t = 0.1)
movej(p[0.459866908240345, 0.0628221098596264, 0.421574763018963, -1.192, 0.952, -1.048], a = 0.2, v = 0.2, t = 0.1)
movej(p[0.459863415311051, 0.0628205175004305, 0.421585428520646, -1.192, 0.952, -1.048], a = 0.2, v = 0.2, t = 0.1)
movej(p[0.459863494689293, 0.0628208449409549, 0.421598364383732, -1.192, 0.952, -1.048], a = 0.2, v = 0.2, t = 0.1)
movej(p[0.459867246455196, 0.0628216869567265, 0.421610841213941, -1.192, 0.952, -1.048], a = 0.2, v = 0.2, t = 0.1)
movej(p[0.459873517855856, 0.0628216904128833, 0.421621812401608, -1.192, 0.952, -1.048], a = 0.2, v = 0.2, t = 0.1)
movej(p[0.459880943976023, 0.0628204022160773, 0.421632204116685, -1.192, 0.952, -1.048], a = 0.2, v = 0.2, t = 0.1)
movej(p[0.4598876927509, 0.0628179125980733, 0.421642054918219, -1.192, 0.952, -1.048], a = 0.2, v = 0.2, t = 0.1)
movej(p[0.459893269755783, 0.0628146458758966, 0.421650067783359, -1.192, 0.952, -1.048], a = 0.2, v = 0.2, t = 0.1)
movej(p[0.459898542738374, 0.0628111821128135, 0.42165463769013, -1.192, 0.952, -1.048], a = 0.2, v = 0.2, t = 0.1)
movej(p[0.459902161692969, 0.0628097568767944, 0.421656683458673, -1.192, 0.952, -1.048], a = 0.2, v = 0.2, t = 0.1)
movej(p[0.459901980217133, 0.0628114434172921, 0.421658213086297, -1.192, 0.952, -1.048], a = 0.2, v = 0.2, t = 0.1)
movej(p[0.459896673153501, 0.0628147895340668, 0.421660610539559, -1.192, 0.952, -1.048], a = 0.2, v = 0.2, t = 0.1)
movej(p[0.459887256406895, 0.0628181455693535, 0.421663610458975, -1.192, 0.952, -1.048], a = 0.2, v = 0.2, t = 0.1)
movej(p[0.459874566295136, 0.0628209053300986, 0.421665648628294, -1.192, 0.952, -1.048], a = 0.2, v = 0.2, t = 0.1)
movej(p[0.459859067369617, 0.062823515944271, 0.421666142437369, -1.192, 0.952, -1.048], a = 0.2, v = 0.2, t = 0.1)
movej(p[0.459841361800076, 0.062825849022369, 0.421666045950005, -1.192, 0.952, -1.048], a = 0.2, v = 0.2, t = 0.1)
movej(p[0.459823166453162, 0.0628281979494389, 0.421666251805054, -1.192, 0.952, -1.048], a = 0.2, v = 0.2, t = 0.1)
movej(p[0.459806084358697, 0.0628310790293666, 0.421666080901136, -1.192, 0.952, -1.048], a = 0.2, v = 0.2, t = 0.1)
movej(p[0.45979185405209, 0.0628342991996218, 0.421663546931249, -1.192, 0.952, -1.048], a = 0.2, v = 0.2, t = 0.1)
movej(p[0.459781298724714, 0.0628372378083933, 0.421658840497835, -1.192, 0.952, -1.048], a = 0.2, v = 0.2, t = 0.1)
movej(p[0.45977371764685, 0.062840187550228, 0.421653438229745, -1.192, 0.952, -1.048], a = 0.2, v = 0.2, t = 0.1)
movej(p[0.459767974273765, 0.0628437819816628, 0.421649027733029, -1.192, 0.952, -1.048], a = 0.2, v = 0.2, t = 0.1)
movej(p[0.459764191808928, 0.0628476475793534, 0.421647250293227, -1.192, 0.952, -1.048], a = 0.2, v = 0.2, t = 0.1)
movej(p[0.459763588199735, 0.0628501938692978, 0.42164932650142, -1.192, 0.952, -1.048], a = 0.2, v = 0.2, t = 0.1)
movej(p[0.459766567160835, 0.0628513915016855, 0.421655864196459, -1.192, 0.952, -1.048], a = 0.2, v = 0.2, t = 0.1)
movej(p[0.459772586789302, 0.0628520321533725, 0.421664864607979, -1.192, 0.952, -1.048], a = 0.2, v = 0.2, t = 0.1)
movej(p[0.459780921703675, 0.0628527486213347, 0.421674647916728, -1.192, 0.952, -1.048], a = 0.2, v = 0.2, t = 0.1)
movej(p[0.459791718181551, 0.0628530844289713, 0.421683012427454, -1.192, 0.952, -1.048], a = 0.2, v = 0.2, t = 0.1)
movej(p[0.459804354002985, 0.0628528931418283, 0.421689374224677, -1.192, 0.952, -1.048], a = 0.2, v = 0.2, t = 0.1)
movej(p[0.459816821595182, 0.0628523099891567, 0.421693774351355, -1.192, 0.952, -1.048], a = 0.2, v = 0.2, t = 0.1)
movej(p[0.459827627025133, 0.0628518646101887, 0.421696551136394, -1.192, 0.952, -1.048], a = 0.2, v = 0.2, t = 0.1)
movej(p[0.459836352767914, 0.0628508230460538, 0.421697292061536, -1.192, 0.952, -1.048], a = 0.2, v = 0.2, t = 0.1)
movej(p[0.459842858177813, 0.0628481470569473, 0.421695941864753, -1.192, 0.952, -1.048], a = 0.2, v = 0.2, t = 0.1)
movej(p[0.459846945555849, 0.0628437057566426, 0.421692900238313, -1.192, 0.952, -1.048], a = 0.2, v = 0.2, t = 0.1)
movej(p[0.459847868206584, 0.0628381001541701, 0.421688092737139, -1.192, 0.952, -1.048], a = 0.2, v = 0.2, t = 0.1)
movej(p[0.459845101133309, 0.0628315719408297, 0.421681603252639, -1.192, 0.952, -1.048], a = 0.2, v = 0.2, t = 0.1)
movej(p[0.459838566303697, 0.0628243494450445, 0.421672893318393, -1.192, 0.952, -1.048], a = 0.2, v = 0.2, t = 0.1)
movej(p[0.459827829677982, 0.0628170720192991, 0.421662305658605, -1.192, 0.952, -1.048], a = 0.2, v = 0.2, t = 0.1)
movej(p[0.459813806601542, 0.0628107124544145, 0.421650600079737, -1.192, 0.952, -1.048], a = 0.2, v = 0.2, t = 0.1)
movej(p[0.459797748378529, 0.0628053860750414, 0.421638231736863, -1.192, 0.952, -1.048], a = 0.2, v = 0.2, t = 0.1)
movej(p[0.459781183676811, 0.0628010164772087, 0.421626161381244, -1.192, 0.952, -1.048], a = 0.2, v = 0.2, t = 0.1)
movej(p[0.459765706709829, 0.0627985094481084, 0.421615931363057, -1.192, 0.952, -1.048], a = 0.2, v = 0.2, t = 0.1)
movej(p[0.459753002907272, 0.0627981016005532, 0.421609263727346, -1.192, 0.952, -1.048], a = 0.2, v = 0.2, t = 0.1)
movej(p[0.459744271015295, 0.0627993725681971, 0.421605980514019, -1.192, 0.952, -1.048], a = 0.2, v = 0.2, t = 0.1)
movej(p[0.459740073548381, 0.0628021723460443, 0.421604675728782, -1.192, 0.952, -1.048], a = 0.2, v = 0.2, t = 0.1)
movej(p[0.459740414754554, 0.0628056964052454, 0.421606529502257, -1.192, 0.952, -1.048], a = 0.2, v = 0.2, t = 0.1)
movej(p[0.459745139659272, 0.0628085333684768, 0.42161218644746, -1.192, 0.952, -1.048], a = 0.2, v = 0.2, t = 0.1)
movej(p[0.459753473221955, 0.0628099641264979, 0.421620131328107, -1.192, 0.952, -1.048], a = 0.2, v = 0.2, t = 0.1)
movej(p[0.459764200869147, 0.062810778035125, 0.421627569203641, -1.192, 0.952, -1.048], a = 0.2, v = 0.2, t = 0.1)
movej(p[0.459775925912308, 0.0628118333798173, 0.421633930933315, -1.192, 0.952, -1.048], a = 0.2, v = 0.2, t = 0.1)
movej(p[0.459787105100374, 0.0628128506018222, 0.421640144707337, -1.192, 0.952, -1.048], a = 0.2, v = 0.2, t = 0.1)
movej(p[0.459796766468609, 0.0628138310058818, 0.421646756724253, -1.192, 0.952, -1.048], a = 0.2, v = 0.2, t = 0.1)
movej(p[0.459803771739982, 0.0628149545662544, 0.421654768184175, -1.192, 0.952, -1.048], a = 0.2, v = 0.2, t = 0.1)
movej(p[0.459807260245188, 0.0628164494593311, 0.421663747626926, -1.192, 0.952, -1.048], a = 0.2, v = 0.2, t = 0.1)
movej(p[0.459806412707843, 0.0628181816742926, 0.421672110692917, -1.192, 0.952, -1.048], a = 0.2, v = 0.2, t = 0.1)
movej(p[0.459801453570341, 0.0628193620030058, 0.421677085468526, -1.192, 0.952, -1.048], a = 0.2, v = 0.2, t = 0.1)
movej(p[0.459792791804581, 0.0628192467600003, 0.421677447599676, -1.192, 0.952, -1.048], a = 0.2, v = 0.2, t = 0.1)
movej(p[0.459780467543053, 0.0628182680061195, 0.421674248219949, -1.192, 0.952, -1.048], a = 0.2, v = 0.2, t = 0.1)
movej(p[0.459764832114002, 0.0628171328068074, 0.421668081855143, -1.192, 0.952, -1.048], a = 0.2, v = 0.2, t = 0.1)
movej(p[0.459747380333232, 0.0628153339715714, 0.421659043686759, -1.192, 0.952, -1.048], a = 0.2, v = 0.2, t = 0.1)
movej(p[0.459729254410101, 0.0628124918425675, 0.421648214077561, -1.192, 0.952, -1.048], a = 0.2, v = 0.2, t = 0.1)
movej(p[0.459710899900117, 0.0628099708642148, 0.421638340303238, -1.192, 0.952, -1.048], a = 0.2, v = 0.2, t = 0.1)
movej(p[0.459693633820102, 0.062808774870991, 0.421631520247731, -1.192, 0.952, -1.048], a = 0.2, v = 0.2, t = 0.1)
movej(p[0.459677662004639, 0.0628079072644741, 0.421628301853291, -1.192, 0.952, -1.048], a = 0.2, v = 0.2, t = 0.1)
movej(p[0.459664933084744, 0.0628069444945444, 0.421627739841404, -1.192, 0.952, -1.048], a = 0.2, v = 0.2, t = 0.1)
movej(p[0.459657891762527, 0.0628056393206139, 0.421629929614783, -1.192, 0.952, -1.048], a = 0.2, v = 0.2, t = 0.1)
movej(p[0.459657796752068, 0.0628036309023501, 0.421633502078791, -1.192, 0.952, -1.048], a = 0.2, v = 0.2, t = 0.1)
movej(p[0.459664154303025, 0.0628003468232912, 0.421637369097869, -1.192, 0.952, -1.048], a = 0.2, v = 0.2, t = 0.1)
movej(p[0.459674641162679, 0.0627964689463407, 0.421640584766225, -1.192, 0.952, -1.048], a = 0.2, v = 0.2, t = 0.1)
movej(p[0.459687391085662, 0.0627934288703295, 0.421642918265691, -1.192, 0.952, -1.048], a = 0.2, v = 0.2, t = 0.1)
movej(p[0.459701268581497, 0.0627906587303382, 0.421644777757764, -1.192, 0.952, -1.048], a = 0.2, v = 0.2, t = 0.1)
movej(p[0.459715028225613, 0.0627869635351621, 0.421647666771511, -1.192, 0.952, -1.048], a = 0.2, v = 0.2, t = 0.1)
movej(p[0.459727282122531, 0.062782257748556, 0.421651775395581, -1.192, 0.952, -1.048], a = 0.2, v = 0.2, t = 0.1)
movej(p[0.459736301659737, 0.0627776834750862, 0.421655514139194, -1.192, 0.952, -1.048], a = 0.2, v = 0.2, t = 0.1)
movej(p[0.459740942218973, 0.0627739497850072, 0.421657831822816, -1.192, 0.952, -1.048], a = 0.2, v = 0.2, t = 0.1)
movej(p[0.459740855310944, 0.0627709291263459, 0.421657486799271, -1.192, 0.952, -1.048], a = 0.2, v = 0.2, t = 0.1)
movej(p[0.459735678076349, 0.0627682279868131, 0.421653256542402, -1.192, 0.952, -1.048], a = 0.2, v = 0.2, t = 0.1)
movej(p[0.459726542336273, 0.0627659008284737, 0.421641530209799, -1.192, 0.952, -1.048], a = 0.2, v = 0.2, t = 0.1)
movej(p[0.459714655402137, 0.0627632241760625, 0.421622451275062, -1.192, 0.952, -1.048], a = 0.2, v = 0.2, t = 0.1)
movej(p[0.459701160647129, 0.0627593722158274, 0.421599584956192, -1.192, 0.952, -1.048], a = 0.2, v = 0.2, t = 0.1)
movej(p[0.459686680055145, 0.062754082899518, 0.421576527059741, -1.192, 0.952, -1.048], a = 0.2, v = 0.2, t = 0.1)
movej(p[0.459672168710332, 0.0627490975346783, 0.421556527479292, -1.192, 0.952, -1.048], a = 0.2, v = 0.2, t = 0.1)
movej(p[0.459658665992044, 0.0627462224362922, 0.421541120390109, -1.192, 0.952, -1.048], a = 0.2, v = 0.2, t = 0.1)
movej(p[0.459647261056097, 0.0627450277291462, 0.421530282384808, -1.192, 0.952, -1.048], a = 0.2, v = 0.2, t = 0.1)
movej(p[0.45963898125295, 0.0627445060630591, 0.421524675502401, -1.192, 0.952, -1.048], a = 0.2, v = 0.2, t = 0.1)
movej(p[0.459635534002861, 0.0627440846146558, 0.421523365135249, -1.192, 0.952, -1.048], a = 0.2, v = 0.2, t = 0.1)
movej(p[0.459637661866174, 0.0627440601010358, 0.421523822106591, -1.192, 0.952, -1.048], a = 0.2, v = 0.2, t = 0.1)
movej(p[0.459644805191474, 0.0627430943336385, 0.421523705680712, -1.192, 0.952, -1.048], a = 0.2, v = 0.2, t = 0.1)
movej(p[0.4596552537349, 0.0627399971557573, 0.421523781420115, -1.192, 0.952, -1.048], a = 0.2, v = 0.2, t = 0.1)
movej(p[0.459667518649361, 0.062734350680191, 0.421523991474717, -1.192, 0.952, -1.048], a = 0.2, v = 0.2, t = 0.1)
movej(p[0.459681809045766, 0.0627267188343213, 0.421521377331795, -1.192, 0.952, -1.048], a = 0.2, v = 0.2, t = 0.1)
movej(p[0.459697614219462, 0.0627182278017478, 0.421514266555024, -1.192, 0.952, -1.048], a = 0.2, v = 0.2, t = 0.1)
movej(p[0.459713014883155, 0.062710537521909, 0.4215041175841, -1.192, 0.952, -1.048], a = 0.2, v = 0.2, t = 0.1)
movej(p[0.459726588821935, 0.0627050985233335, 0.421493853945102, -1.192, 0.952, -1.048], a = 0.2, v = 0.2, t = 0.1)
movej(p[0.459737738472713, 0.0627024165002392, 0.421486377084689, -1.192, 0.952, -1.048], a = 0.2, v = 0.2, t = 0.1)
movej(p[0.459745306226821, 0.0627028698571939, 0.421483700429082, -1.192, 0.952, -1.048], a = 0.2, v = 0.2, t = 0.1)
movej(p[0.45974872346398, 0.0627059342628558, 0.421485066779747, -1.192, 0.952, -1.048], a = 0.2, v = 0.2, t = 0.1)
movej(p[0.45974813557155, 0.0627098872757327, 0.421486715203444, -1.192, 0.952, -1.048], a = 0.2, v = 0.2, t = 0.1)
movej(p[0.459743903461198, 0.0627132497929782, 0.421486555363709, -1.192, 0.952, -1.048], a = 0.2, v = 0.2, t = 0.1)
movej(p[0.459735667140072, 0.0627149478208814, 0.421485400250489, -1.192, 0.952, -1.048], a = 0.2, v = 0.2, t = 0.1)
movej(p[0.459722875127421, 0.0627153347402939, 0.421484175206941, -1.192, 0.952, -1.048], a = 0.2, v = 0.2, t = 0.1)
movej(p[0.459706114026329, 0.0627146602210436, 0.421482776773902, -1.192, 0.952, -1.048], a = 0.2, v = 0.2, t = 0.1)
movej(p[0.459686585734214, 0.0627130890427029, 0.421480367134991, -1.192, 0.952, -1.048], a = 0.2, v = 0.2, t = 0.1)
movej(p[0.459665797235867, 0.0627114271571389, 0.421476565065308, -1.192, 0.952, -1.048], a = 0.2, v = 0.2, t = 0.1)
movej(p[0.459645112284284, 0.0627108867031675, 0.42147140371999, -1.192, 0.952, -1.048], a = 0.2, v = 0.2, t = 0.1)
movej(p[0.459626253290828, 0.0627123782129181, 0.421464549877892, -1.192, 0.952, -1.048], a = 0.2, v = 0.2, t = 0.1)
movej(p[0.459611336204979, 0.0627152444468412, 0.42145614331017, -1.192, 0.952, -1.048], a = 0.2, v = 0.2, t = 0.1)
movej(p[0.459602368247968, 0.0627183428019558, 0.421447357423553, -1.192, 0.952, -1.048], a = 0.2, v = 0.2, t = 0.1)
movej(p[0.459599941186451, 0.0627209779336686, 0.421440103132255, -1.192, 0.952, -1.048], a = 0.2, v = 0.2, t = 0.1)
movej(p[0.459603337613845, 0.0627237575754306, 0.421434857076438, -1.192, 0.952, -1.048], a = 0.2, v = 0.2, t = 0.1)
movej(p[0.459611245162784, 0.0627275060597197, 0.421431956685892, -1.192, 0.952, -1.048], a = 0.2, v = 0.2, t = 0.1)
movej(p[0.459622401206779, 0.0627317001160588, 0.4214314187939, -1.192, 0.952, -1.048], a = 0.2, v = 0.2, t = 0.1)
movej(p[0.45963620305164, 0.062734714680506, 0.421433899681572, -1.192, 0.952, -1.048], a = 0.2, v = 0.2, t = 0.1)
movej(p[0.459652248449093, 0.0627354096128322, 0.421438420511544, -1.192, 0.952, -1.048], a = 0.2, v = 0.2, t = 0.1)
movej(p[0.459670760300547, 0.0627349020218155, 0.421442873273393, -1.192, 0.952, -1.048], a = 0.2, v = 0.2, t = 0.1)
movej(p[0.45969038921408, 0.0627341514159927, 0.421446587836681, -1.192, 0.952, -1.048], a = 0.2, v = 0.2, t = 0.1)
movej(p[0.459709466957064, 0.0627327290633566, 0.4214499944499, -1.192, 0.952, -1.048], a = 0.2, v = 0.2, t = 0.1)
movej(p[0.459727742136278, 0.0627298903630511, 0.421453246357998, -1.192, 0.952, -1.048], a = 0.2, v = 0.2, t = 0.1)
movej(p[0.459745639981203, 0.0627256228351126, 0.421456644192207, -1.192, 0.952, -1.048], a = 0.2, v = 0.2, t = 0.1)
movej(p[0.459763470085022, 0.0627208000578104, 0.421460450543596, -1.192, 0.952, -1.048], a = 0.2, v = 0.2, t = 0.1)
movej(p[0.459779462316623, 0.0627172694484027, 0.421463749398345, -1.192, 0.952, -1.048], a = 0.2, v = 0.2, t = 0.1)
movej(p[0.459791090839288, 0.0627158627209064, 0.42146565804377, -1.192, 0.952, -1.048], a = 0.2, v = 0.2, t = 0.1)
movej(p[0.459796800408009, 0.0627156232094031, 0.421465779375005, -1.192, 0.952, -1.048], a = 0.2, v = 0.2, t = 0.1)
movej(p[0.459796247411869, 0.0627158367405464, 0.421465418005775, -1.192, 0.952, -1.048], a = 0.2, v = 0.2, t = 0.1)
movej(p[0.459790331366851, 0.0627168005725093, 0.421463506415785, -1.192, 0.952, -1.048], a = 0.2, v = 0.2, t = 0.1)
movej(p[0.459780394087398, 0.0627189132484211, 0.421460327515571, -1.192, 0.952, -1.048], a = 0.2, v = 0.2, t = 0.1)
movej(p[0.459768577371426, 0.0627207775911792, 0.421455607992426, -1.192, 0.952, -1.048], a = 0.2, v = 0.2, t = 0.1)
movej(p[0.459756895690973, 0.0627214146905025, 0.42144905051309, -1.192, 0.952, -1.048], a = 0.2, v = 0.2, t = 0.1)
movej(p[0.459746039647236, 0.0627208549150375, 0.42144077284314, -1.192, 0.952, -1.048], a = 0.2, v = 0.2, t = 0.1)
movej(p[0.459735792292498, 0.0627195297680404, 0.421432743403165, -1.192, 0.952, -1.048], a = 0.2, v = 0.2, t = 0.1)
movej(p[0.459725892906012, 0.0627178399516903, 0.421426574101185, -1.192, 0.952, -1.048], a = 0.2, v = 0.2, t = 0.1)
movej(p[0.459716442479661, 0.0627168470110887, 0.421423963075191, -1.192, 0.952, -1.048], a = 0.2, v = 0.2, t = 0.1)
movej(p[0.45970804024066, 0.0627174320878632, 0.421425414775552, -1.192, 0.952, -1.048], a = 0.2, v = 0.2, t = 0.1)
movej(p[0.45970170241048, 0.0627187951726164, 0.421430194636487, -1.192, 0.952, -1.048], a = 0.2, v = 0.2, t = 0.1)
movej(p[0.459698307128669, 0.062719678009697, 0.421436881854826, -1.192, 0.952, -1.048], a = 0.2, v = 0.2, t = 0.1)
movej(p[0.459699200033495, 0.062719444724159, 0.42144334392507, -1.192, 0.952, -1.048], a = 0.2, v = 0.2, t = 0.1)
movej(p[0.459705463487191, 0.0627175827885074, 0.421449564612526, -1.192, 0.952, -1.048], a = 0.2, v = 0.2, t = 0.1)
movej(p[0.459716370587218, 0.0627147723515308, 0.421455901743028, -1.192, 0.952, -1.048], a = 0.2, v = 0.2, t = 0.1)
movej(p[0.459730182686467, 0.0627124631857642, 0.421461387250552, -1.192, 0.952, -1.048], a = 0.2, v = 0.2, t = 0.1)
movej(p[0.459745452893707, 0.0627117306079523, 0.421465328062473, -1.192, 0.952, -1.048], a = 0.2, v = 0.2, t = 0.1)
movej(p[0.459761516777457, 0.0627120506551584, 0.421467500329181, -1.192, 0.952, -1.048], a = 0.2, v = 0.2, t = 0.1)
movej(p[0.459776875084768, 0.0627128358484116, 0.421468274513973, -1.192, 0.952, -1.048], a = 0.2, v = 0.2, t = 0.1)
movej(p[0.459789726722082, 0.0627145664537292, 0.421467469819874, -1.192, 0.952, -1.048], a = 0.2, v = 0.2, t = 0.1)
movej(p[0.459798656791841, 0.0627171614551565, 0.421464507192208, -1.192, 0.952, -1.048], a = 0.2, v = 0.2, t = 0.1)
movej(p[0.459802697332685, 0.0627201908109818, 0.421459660327761, -1.192, 0.952, -1.048], a = 0.2, v = 0.2, t = 0.1)
movej(p[0.459801668402029, 0.0627226936007854, 0.421453992325123, -1.192, 0.952, -1.048], a = 0.2, v = 0.2, t = 0.1)
movej(p[0.459796844969333, 0.0627230269344966, 0.421447273005912, -1.192, 0.952, -1.048], a = 0.2, v = 0.2, t = 0.1)
movej(p[0.459788470337059, 0.0627203787668395, 0.421439323427726, -1.192, 0.952, -1.048], a = 0.2, v = 0.2, t = 0.1)
movej(p[0.459776520146883, 0.0627158269653819, 0.421429330190801, -1.192, 0.952, -1.048], a = 0.2, v = 0.2, t = 0.1)
movej(p[0.459760347243991, 0.0627118017957091, 0.421417574430036, -1.192, 0.952, -1.048], a = 0.2, v = 0.2, t = 0.1)
movej(p[0.459740835588716, 0.0627093235675997, 0.421405962708592, -1.192, 0.952, -1.048], a = 0.2, v = 0.2, t = 0.1)
movej(p[0.459719664528062, 0.0627077918331005, 0.42139576378212, -1.192, 0.952, -1.048], a = 0.2, v = 0.2, t = 0.1)
movej(p[0.459698759280308, 0.0627069749747924, 0.421386672246064, -1.192, 0.952, -1.048], a = 0.2, v = 0.2, t = 0.1)
movej(p[0.459679945746924, 0.0627063915362147, 0.421377706034487, -1.192, 0.952, -1.048], a = 0.2, v = 0.2, t = 0.1)
movej(p[0.459664067470381, 0.0627057329872265, 0.421369344041169, -1.192, 0.952, -1.048], a = 0.2, v = 0.2, t = 0.1)
movej(p[0.459652246118444, 0.062703690673149, 0.42136322635463, -1.192, 0.952, -1.048], a = 0.2, v = 0.2, t = 0.1)
movej(p[0.45964534881218, 0.0627001708829964, 0.421359736015739, -1.192, 0.952, -1.048], a = 0.2, v = 0.2, t = 0.1)
movej(p[0.459642958991517, 0.0626959115318356, 0.421358492195056, -1.192, 0.952, -1.048], a = 0.2, v = 0.2, t = 0.1)
movej(p[0.459643471806381, 0.0626920739470243, 0.421359143095764, -1.192, 0.952, -1.048], a = 0.2, v = 0.2, t = 0.1)
movej(p[0.459646496610114, 0.0626892533719162, 0.421361152842374, -1.192, 0.952, -1.048], a = 0.2, v = 0.2, t = 0.1)
movej(p[0.459652306717777, 0.0626871718629624, 0.421365073685066, -1.192, 0.952, -1.048], a = 0.2, v = 0.2, t = 0.1)
movej(p[0.459660992793608, 0.0626852510927027, 0.421371432044152, -1.192, 0.952, -1.048], a = 0.2, v = 0.2, t = 0.1)
movej(p[0.459671305704216, 0.0626839117082441, 0.421380370453075, -1.192, 0.952, -1.048], a = 0.2, v = 0.2, t = 0.1)
movej(p[0.459682045966801, 0.0626837342074601, 0.421390645401789, -1.192, 0.952, -1.048], a = 0.2, v = 0.2, t = 0.1)
movej(p[0.459691979229752, 0.0626844188969036, 0.421399847332049, -1.192, 0.952, -1.048], a = 0.2, v = 0.2, t = 0.1)
movej(p[0.459699813198582, 0.0626855112996123, 0.421405671130269, -1.192, 0.952, -1.048], a = 0.2, v = 0.2, t = 0.1)
movej(p[0.459703961089657, 0.0626862754069762, 0.421407499351689, -1.192, 0.952, -1.048], a = 0.2, v = 0.2, t = 0.1)
movej(p[0.45970347033198, 0.0626852505740734, 0.421406523876716, -1.192, 0.952, -1.048], a = 0.2, v = 0.2, t = 0.1)
movej(p[0.459698015196721, 0.0626816877772555, 0.421404195711313, -1.192, 0.952, -1.048], a = 0.2, v = 0.2, t = 0.1)
movej(p[0.459688309381338, 0.0626763336718686, 0.421399599764374, -1.192, 0.952, -1.048], a = 0.2, v = 0.2, t = 0.1)
movej(p[0.45967533873153, 0.0626708168256424, 0.421391337574454, -1.192, 0.952, -1.048], a = 0.2, v = 0.2, t = 0.1)
movej(p[0.459659634886519, 0.0626659710750288, 0.421380143624711, -1.192, 0.952, -1.048], a = 0.2, v = 0.2, t = 0.1)
movej(p[0.459640590506372, 0.0626614700979839, 0.421368957497792, -1.192, 0.952, -1.048], a = 0.2, v = 0.2, t = 0.1)
movej(p[0.459618630245614, 0.0626563659740557, 0.421360208147452, -1.192, 0.952, -1.048], a = 0.2, v = 0.2, t = 0.1)
movej(p[0.459596140779259, 0.062649038183277, 0.421353932158019, -1.192, 0.952, -1.048], a = 0.2, v = 0.2, t = 0.1)
movej(p[0.45957494666576, 0.0626398434876745, 0.421350051105611, -1.192, 0.952, -1.048], a = 0.2, v = 0.2, t = 0.1)
movej(p[0.459555709553912, 0.062630636051904, 0.421348614470563, -1.192, 0.952, -1.048], a = 0.2, v = 0.2, t = 0.1)
movej(p[0.459538930380771, 0.0626235561740689, 0.421349728305185, -1.192, 0.952, -1.048], a = 0.2, v = 0.2, t = 0.1)
movej(p[0.459525474171582, 0.0626184764613445, 0.42135315355217, -1.192, 0.952, -1.048], a = 0.2, v = 0.2, t = 0.1)
movej(p[0.459516371415542, 0.0626147760242964, 0.421358065526531, -1.192, 0.952, -1.048], a = 0.2, v = 0.2, t = 0.1)
movej(p[0.459512388364066, 0.0626124094933628, 0.421363867896674, -1.192, 0.952, -1.048], a = 0.2, v = 0.2, t = 0.1)
movej(p[0.459514357723625, 0.0626106901008813, 0.421368615528128, -1.192, 0.952, -1.048], a = 0.2, v = 0.2, t = 0.1)
movej(p[0.459522404062325, 0.0626089409944064, 0.42137130571029, -1.192, 0.952, -1.048], a = 0.2, v = 0.2, t = 0.1)
movej(p[0.459534738451397, 0.0626068198576776, 0.421372191700805, -1.192, 0.952, -1.048], a = 0.2, v = 0.2, t = 0.1)
movej(p[0.459548631994436, 0.0626044910615845, 0.421371947672959, -1.192, 0.952, -1.048], a = 0.2, v = 0.2, t = 0.1)
movej(p[0.459561717999422, 0.0626024686842449, 0.421371992118407, -1.192, 0.952, -1.048], a = 0.2, v = 0.2, t = 0.1)
movej(p[0.459571925990977, 0.0626007682404738, 0.421373261419548, -1.192, 0.952, -1.048], a = 0.2, v = 0.2, t = 0.1)
movej(p[0.45957800955654, 0.0625999420872271, 0.421375181866073, -1.192, 0.952, -1.048], a = 0.2, v = 0.2, t = 0.1)
movej(p[0.45957941128477, 0.0625998727909196, 0.42137700869228, -1.192, 0.952, -1.048], a = 0.2, v = 0.2, t = 0.1)
movej(p[0.459576006237295, 0.0626007478389091, 0.421378813904375, -1.192, 0.952, -1.048], a = 0.2, v = 0.2, t = 0.1)
movej(p[0.459568948357226, 0.0626025212075913, 0.421380407957837, -1.192, 0.952, -1.048], a = 0.2, v = 0.2, t = 0.1)
movej(p[0.459558633605817, 0.0626051993195139, 0.421381755975233, -1.192, 0.952, -1.048], a = 0.2, v = 0.2, t = 0.1)
movej(p[0.459544910584728, 0.0626077633022815, 0.421382821754557, -1.192, 0.952, -1.048], a = 0.2, v = 0.2, t = 0.1)
movej(p[0.459528406357431, 0.0626100247803862, 0.421383565470296, -1.192, 0.952, -1.048], a = 0.2, v = 0.2, t = 0.1)
movej(p[0.459510194350264, 0.062612187623368, 0.421384177664057, -1.192, 0.952, -1.048], a = 0.2, v = 0.2, t = 0.1)
movej(p[0.459491990183247, 0.0626147814181489, 0.421384902285923, -1.192, 0.952, -1.048], a = 0.2, v = 0.2, t = 0.1)
movej(p[0.459474995912562, 0.0626185271000041, 0.421386364236098, -1.192, 0.952, -1.048], a = 0.2, v = 0.2, t = 0.1)
movej(p[0.459461225755809, 0.0626232170170957, 0.421388962926861, -1.192, 0.952, -1.048], a = 0.2, v = 0.2, t = 0.1)
movej(p[0.459452269487072, 0.0626273703990919, 0.421390697884872, -1.192, 0.952, -1.048], a = 0.2, v = 0.2, t = 0.1)
movej(p[0.45944849609147, 0.0626302564915629, 0.421391015930282, -1.192, 0.952, -1.048], a = 0.2, v = 0.2, t = 0.1)
movej(p[0.45944929597258, 0.0626326432247305, 0.421390648983424, -1.192, 0.952, -1.048], a = 0.2, v = 0.2, t = 0.1)
movej(p[0.459453802326093, 0.0626357142007735, 0.421392301567208, -1.192, 0.952, -1.048], a = 0.2, v = 0.2, t = 0.1)
movej(p[0.459462272673695, 0.062638566675904, 0.421397952946962, -1.192, 0.952, -1.048], a = 0.2, v = 0.2, t = 0.1)
movej(p[0.459474568738025, 0.0626406560346316, 0.421406552176759, -1.192, 0.952, -1.048], a = 0.2, v = 0.2, t = 0.1)
movej(p[0.459489781525055, 0.0626425690760248, 0.421415588616899, -1.192, 0.952, -1.048], a = 0.2, v = 0.2, t = 0.1)
movej(p[0.459506051638214, 0.0626448829585508, 0.421423376358578, -1.192, 0.952, -1.048], a = 0.2, v = 0.2, t = 0.1)
movej(p[0.459522349898476, 0.0626471612747065, 0.421428618693261, -1.192, 0.952, -1.048], a = 0.2, v = 0.2, t = 0.1)
movej(p[0.459538006530958, 0.0626478531508998, 0.421433921418659, -1.192, 0.952, -1.048], a = 0.2, v = 0.2, t = 0.1)
movej(p[0.459552597723918, 0.062646283427333, 0.421441073305258, -1.192, 0.952, -1.048], a = 0.2, v = 0.2, t = 0.1)
movej(p[0.459564043815787, 0.0626430458483771, 0.421449677705379, -1.192, 0.952, -1.048], a = 0.2, v = 0.2, t = 0.1)
movej(p[0.459571279206468, 0.0626398956004674, 0.421455925577801, -1.192, 0.952, -1.048], a = 0.2, v = 0.2, t = 0.1)
movej(p[0.459574264198565, 0.0626382504714841, 0.421459121607026, -1.192, 0.952, -1.048], a = 0.2, v = 0.2, t = 0.1)
movej(p[0.4595732701795, 0.062638163512763, 0.421460179467735, -1.192, 0.952, -1.048], a = 0.2, v = 0.2, t = 0.1)
movej(p[0.45956852046472, 0.0626387832164224, 0.421459755126039, -1.192, 0.952, -1.048], a = 0.2, v = 0.2, t = 0.1)
movej(p[0.459560102064845, 0.062639197286264, 0.421457510041248, -1.192, 0.952, -1.048], a = 0.2, v = 0.2, t = 0.1)
movej(p[0.459549665321751, 0.0626389075500958, 0.421453076523057, -1.192, 0.952, -1.048], a = 0.2, v = 0.2, t = 0.1)
movej(p[0.45953951591747, 0.0626377969667691, 0.421447101208721, -1.192, 0.952, -1.048], a = 0.2, v = 0.2, t = 0.1)
movej(p[0.459530638351259, 0.062636060788942, 0.421440703950736, -1.192, 0.952, -1.048], a = 0.2, v = 0.2, t = 0.1)
movej(p[0.459522877354765, 0.0626345756251891, 0.421434820362882, -1.192, 0.952, -1.048], a = 0.2, v = 0.2, t = 0.1)
movej(p[0.459515546122622, 0.0626339691557724, 0.421429977490582, -1.192, 0.952, -1.048], a = 0.2, v = 0.2, t = 0.1)
movej(p[0.459509311083565, 0.0626349287921599, 0.421426622525311, -1.192, 0.952, -1.048], a = 0.2, v = 0.2, t = 0.1)
movej(p[0.459505981952454, 0.0626376913364098, 0.42142679858868, -1.192, 0.952, -1.048], a = 0.2, v = 0.2, t = 0.1)
movej(p[0.459506339877686, 0.0626417402692693, 0.421430234276854, -1.192, 0.952, -1.048], a = 0.2, v = 0.2, t = 0.1)
movej(p[0.459509534013403, 0.0626455921883676, 0.421434787453578, -1.192, 0.952, -1.048], a = 0.2, v = 0.2, t = 0.1)
movej(p[0.459514479337151, 0.062648847760195, 0.421438607765097, -1.192, 0.952, -1.048], a = 0.2, v = 0.2, t = 0.1)
movej(p[0.459521116979478, 0.0626513902306859, 0.421443496637476, -1.192, 0.952, -1.048], a = 0.2, v = 0.2, t = 0.1)
movej(p[0.459530354564248, 0.062652797174383, 0.421450118478462, -1.192, 0.952, -1.048], a = 0.2, v = 0.2, t = 0.1)
movej(p[0.459542700051091, 0.0626520457680902, 0.421458287471681, -1.192, 0.952, -1.048], a = 0.2, v = 0.2, t = 0.1)
movej(p[0.459557298090769, 0.0626495362771563, 0.421465768606542, -1.192, 0.952, -1.048], a = 0.2, v = 0.2, t = 0.1)
movej(p[0.459572580671103, 0.0626457060540579, 0.42147076977434, -1.192, 0.952, -1.048], a = 0.2, v = 0.2, t = 0.1)
movej(p[0.459586582363464, 0.0626402937923482, 0.421473509459033, -1.192, 0.952, -1.048], a = 0.2, v = 0.2, t = 0.1)
movej(p[0.459596971973029, 0.0626340346316734, 0.42147416650525, -1.192, 0.952, -1.048], a = 0.2, v = 0.2, t = 0.1)
movej(p[0.459602016624536, 0.0626286121587627, 0.421474487097991, -1.192, 0.952, -1.048], a = 0.2, v = 0.2, t = 0.1)
movej(p[0.459601660222569, 0.062624387641639, 0.421472616360247, -1.192, 0.952, -1.048], a = 0.2, v = 0.2, t = 0.1)
movej(p[0.45959515654141, 0.0626203887772543, 0.421468498578803, -1.192, 0.952, -1.048], a = 0.2, v = 0.2, t = 0.1)
movej(p[0.459582260436523, 0.0626162070924489, 0.421462617442439, -1.192, 0.952, -1.048], a = 0.2, v = 0.2, t = 0.1)
movej(p[0.45956356053067, 0.0626129250481426, 0.421456503997398, -1.192, 0.952, -1.048], a = 0.2, v = 0.2, t = 0.1)
movej(p[0.459540756037222, 0.0626106581018237, 0.421451140660847, -1.192, 0.952, -1.048], a = 0.2, v = 0.2, t = 0.1)
movej(p[0.459515407294593, 0.0626086033768194, 0.421447090778223, -1.192, 0.952, -1.048], a = 0.2, v = 0.2, t = 0.1)
movej(p[0.459490381043404, 0.0626056233561566, 0.421445894785614, -1.192, 0.952, -1.048], a = 0.2, v = 0.2, t = 0.1)
movej(p[0.459468351289107, 0.0626016397885116, 0.421446595501954, -1.192, 0.952, -1.048], a = 0.2, v = 0.2, t = 0.1)
movej(p[0.459450364725333, 0.0625979947450665, 0.421447428882354, -1.192, 0.952, -1.048], a = 0.2, v = 0.2, t = 0.1)
movej(p[0.459437707611797, 0.0625965251536629, 0.421448088848306, -1.192, 0.952, -1.048], a = 0.2, v = 0.2, t = 0.1)
movej(p[0.459432325562232, 0.0625974200191, 0.421450154774812, -1.192, 0.952, -1.048], a = 0.2, v = 0.2, t = 0.1)
movej(p[0.459434709810984, 0.0625998299484742, 0.421454932305586, -1.192, 0.952, -1.048], a = 0.2, v = 0.2, t = 0.1)
movej(p[0.459442725794549, 0.0626035826918774, 0.421462123060654, -1.192, 0.952, -1.048], a = 0.2, v = 0.2, t = 0.1)
movej(p[0.459454491179675, 0.0626083982604737, 0.42146973190248, -1.192, 0.952, -1.048], a = 0.2, v = 0.2, t = 0.1)
movej(p[0.459468378633256, 0.0626129673215987, 0.421476453915383, -1.192, 0.952, -1.048], a = 0.2, v = 0.2, t = 0.1)
movej(p[0.459483109006807, 0.0626161775692557, 0.421481142997917, -1.192, 0.952, -1.048], a = 0.2, v = 0.2, t = 0.1)
movej(p[0.459497311838207, 0.0626177390683916, 0.421484996169815, -1.192, 0.952, -1.048], a = 0.2, v = 0.2, t = 0.1)
movej(p[0.459510172784688, 0.062617521337488, 0.421488328528569, -1.192, 0.952, -1.048], a = 0.2, v = 0.2, t = 0.1)
movej(p[0.459521920814578, 0.0626159492541762, 0.421491593128816, -1.192, 0.952, -1.048], a = 0.2, v = 0.2, t = 0.1)
movej(p[0.459532891420194, 0.0626141407814227, 0.421495961132674, -1.192, 0.952, -1.048], a = 0.2, v = 0.2, t = 0.1)
movej(p[0.459543240691689, 0.0626129312026405, 0.421501008779028, -1.192, 0.952, -1.048], a = 0.2, v = 0.2, t = 0.1)
movej(p[0.459553349661253, 0.0626120822769893, 0.421504893583473, -1.192, 0.952, -1.048], a = 0.2, v = 0.2, t = 0.1)
movej(p[0.459563935305877, 0.0626103225393177, 0.421506194371017, -1.192, 0.952, -1.048], a = 0.2, v = 0.2, t = 0.1)
movej(p[0.459574591830367, 0.0626066271283433, 0.421504300362963, -1.192, 0.952, -1.048], a = 0.2, v = 0.2, t = 0.1)
movej(p[0.459583871100227, 0.0626000000634776, 0.421498091325344, -1.192, 0.952, -1.048], a = 0.2, v = 0.2, t = 0.1)
movej(p[0.45958846066217, 0.0625905930028547, 0.421488401318141, -1.192, 0.952, -1.048], a = 0.2, v = 0.2, t = 0.1)
movej(p[0.459586089596249, 0.0625806441119361, 0.421476753171597, -1.192, 0.952, -1.048], a = 0.2, v = 0.2, t = 0.1)
movej(p[0.459575783288996, 0.0625714696000058, 0.421464170849926, -1.192, 0.952, -1.048], a = 0.2, v = 0.2, t = 0.1)
movej(p[0.459556872919812, 0.0625647253171202, 0.421451433989965, -1.192, 0.952, -1.048], a = 0.2, v = 0.2, t = 0.1)
movej(p[0.459530533186771, 0.0625611357500369, 0.421439501491798, -1.192, 0.952, -1.048], a = 0.2, v = 0.2, t = 0.1)
movej(p[0.459501197416498, 0.0625583844718477, 0.421430311290776, -1.192, 0.952, -1.048], a = 0.2, v = 0.2, t = 0.1)
movej(p[0.459472297772172, 0.0625548206103981, 0.421423516424304, -1.192, 0.952, -1.048], a = 0.2, v = 0.2, t = 0.1)
movej(p[0.459445159364868, 0.0625510788775538, 0.421417335084455, -1.192, 0.952, -1.048], a = 0.2, v = 0.2, t = 0.1)
movej(p[0.459420796569282, 0.062550991424578, 0.421410691425204, -1.192, 0.952, -1.048], a = 0.2, v = 0.2, t = 0.1)
movej(p[0.45939991235745, 0.0625558071735045, 0.421403175552573, -1.192, 0.952, -1.048], a = 0.2, v = 0.2, t = 0.1)
movej(p[0.459383654087662, 0.0625630022279873, 0.42139534205396, -1.192, 0.952, -1.048], a = 0.2, v = 0.2, t = 0.1)
movej(p[0.459372394389438, 0.0625696481049735, 0.421389691759279, -1.192, 0.952, -1.048], a = 0.2, v = 0.2, t = 0.1)
movej(p[0.459366480215366, 0.0625747210404749, 0.421388746402495, -1.192, 0.952, -1.048], a = 0.2, v = 0.2, t = 0.1)
movej(p[0.459366286510663, 0.0625780712141415, 0.421393086690031, -1.192, 0.952, -1.048], a = 0.2, v = 0.2, t = 0.1)
movej(p[0.459372255568972, 0.0625797298541215, 0.421400174640181, -1.192, 0.952, -1.048], a = 0.2, v = 0.2, t = 0.1)
movej(p[0.459385521031577, 0.0625796706111112, 0.421406905374178, -1.192, 0.952, -1.048], a = 0.2, v = 0.2, t = 0.1)
movej(p[0.459405726496282, 0.0625778845385869, 0.421413017665235, -1.192, 0.952, -1.048], a = 0.2, v = 0.2, t = 0.1)
movej(p[0.459430014316671, 0.062575161947452, 0.421420125179868, -1.192, 0.952, -1.048], a = 0.2, v = 0.2, t = 0.1)
movej(p[0.459454994817851, 0.0625723139092437, 0.421427218933895, -1.192, 0.952, -1.048], a = 0.2, v = 0.2, t = 0.1)
movej(p[0.459478571408707, 0.0625700507003051, 0.421432829407931, -1.192, 0.952, -1.048], a = 0.2, v = 0.2, t = 0.1)
movej(p[0.459500391640828, 0.0625678532268591, 0.421437156851243, -1.192, 0.952, -1.048], a = 0.2, v = 0.2, t = 0.1)
movej(p[0.459519593295096, 0.0625661955547446, 0.421440941580498, -1.192, 0.952, -1.048], a = 0.2, v = 0.2, t = 0.1)
movej(p[0.459535660499976, 0.0625661487778134, 0.421444276550102, -1.192, 0.952, -1.048], a = 0.2, v = 0.2, t = 0.1)
movej(p[0.459547942371081, 0.0625686158290902, 0.421445953934127, -1.192, 0.952, -1.048], a = 0.2, v = 0.2, t = 0.1)
movej(p[0.459556719693347, 0.0625726131889656, 0.421445978528078, -1.192, 0.952, -1.048], a = 0.2, v = 0.2, t = 0.1)
movej(p[0.459560828924003, 0.0625760442769846, 0.421443899345685, -1.192, 0.952, -1.048], a = 0.2, v = 0.2, t = 0.1)
movej(p[0.459558354324395, 0.0625774655983439, 0.421439961640214, -1.192, 0.952, -1.048], a = 0.2, v = 0.2, t = 0.1)
movej(p[0.459549118719818, 0.0625771554159644, 0.421432955742343, -1.192, 0.952, -1.048], a = 0.2, v = 0.2, t = 0.1)
movej(p[0.459534095558559, 0.0625761989576684, 0.421420453799521, -1.192, 0.952, -1.048], a = 0.2, v = 0.2, t = 0.1)
movej(p[0.459512438440064, 0.062576048396303, 0.421401954508324, -1.192, 0.952, -1.048], a = 0.2, v = 0.2, t = 0.1)
movej(p[0.459484751906385, 0.0625775493185006, 0.421379788746948, -1.192, 0.952, -1.048], a = 0.2, v = 0.2, t = 0.1)
movej(p[0.459454159561956, 0.0625813217401432, 0.421357694330882, -1.192, 0.952, -1.048], a = 0.2, v = 0.2, t = 0.1)
movej(p[0.459424332361037, 0.0625876232936613, 0.421337883100391, -1.192, 0.952, -1.048], a = 0.2, v = 0.2, t = 0.1)
movej(p[0.459398608080003, 0.0625949760057759, 0.421322949563106, -1.192, 0.952, -1.048], a = 0.2, v = 0.2, t = 0.1)
movej(p[0.459379408465825, 0.0626018118098326, 0.42131383619055, -1.192, 0.952, -1.048], a = 0.2, v = 0.2, t = 0.1)
movej(p[0.459368822566144, 0.0626061431218345, 0.421308904375136, -1.192, 0.952, -1.048], a = 0.2, v = 0.2, t = 0.1)
movej(p[0.459367038114994, 0.0626075852334654, 0.421306648317925, -1.192, 0.952, -1.048], a = 0.2, v = 0.2, t = 0.1)
movej(p[0.459372369146448, 0.0626070189751005, 0.421305355536001, -1.192, 0.952, -1.048], a = 0.2, v = 0.2, t = 0.1)
movej(p[0.459383959242171, 0.0626054471702683, 0.421303589260905, -1.192, 0.952, -1.048], a = 0.2, v = 0.2, t = 0.1)
movej(p[0.459400425655908, 0.0626043676104775, 0.421300784304706, -1.192, 0.952, -1.048], a = 0.2, v = 0.2, t = 0.1)
movej(p[0.459419553115352, 0.0626036664848515, 0.421298237897022, -1.192, 0.952, -1.048], a = 0.2, v = 0.2, t = 0.1)
movej(p[0.459439920695176, 0.0626015278578095, 0.421296346904565, -1.192, 0.952, -1.048], a = 0.2, v = 0.2, t = 0.1)
movej(p[0.459459847029574, 0.0625979540410097, 0.421294774293692, -1.192, 0.952, -1.048], a = 0.2, v = 0.2, t = 0.1)
movej(p[0.459478337928706, 0.0625946464171349, 0.42129352481116, -1.192, 0.952, -1.048], a = 0.2, v = 0.2, t = 0.1)
movej(p[0.459494397845558, 0.0625929394517478, 0.421293069868472, -1.192, 0.952, -1.048], a = 0.2, v = 0.2, t = 0.1)
movej(p[0.45950590528347, 0.0625931571624394, 0.421294441466361, -1.192, 0.952, -1.048], a = 0.2, v = 0.2, t = 0.1)
movej(p[0.459511089567622, 0.0625950887412685, 0.42129669602775, -1.192, 0.952, -1.048], a = 0.2, v = 0.2, t = 0.1)
movej(p[0.459509736272024, 0.0625987265778565, 0.421297897078117, -1.192, 0.952, -1.048], a = 0.2, v = 0.2, t = 0.1)
movej(p[0.45950363625807, 0.0626028040428922, 0.421295171577494, -1.192, 0.952, -1.048], a = 0.2, v = 0.2, t = 0.1)
movej(p[0.45949350770721, 0.062606521685229, 0.421287197367694, -1.192, 0.952, -1.048], a = 0.2, v = 0.2, t = 0.1)
movej(p[0.459478217327383, 0.06260990765727, 0.421274943644542, -1.192, 0.952, -1.048], a = 0.2, v = 0.2, t = 0.1)
movej(p[0.459457295659963, 0.0626129533909477, 0.421262133489987, -1.192, 0.952, -1.048], a = 0.2, v = 0.2, t = 0.1)
movej(p[0.459431969414189, 0.062615893290438, 0.421253053968305, -1.192, 0.952, -1.048], a = 0.2, v = 0.2, t = 0.1)
movej(p[0.45940504928817, 0.0626205739965739, 0.421250495356145, -1.192, 0.952, -1.048], a = 0.2, v = 0.2, t = 0.1)
movej(p[0.459379159448669, 0.0626272391812357, 0.421254473203934, -1.192, 0.952, -1.048], a = 0.2, v = 0.2, t = 0.1)
