def moving():
set_payload_mass(0)
set_tcp(p[0,0,0,0,0,0])
movej(p[0.4193, 0.2474, 0.3122, -1.45, 0.776, -0.754], a = 0.2, v = 0.2, t = 0.2)
movej(p[0.419304388351228, 0.24740191884772, 0.312419708062997, -1.45, 0.776, -0.754], a = 0.2, v = 0.2, t = 0.2)
movej(p[0.419308776702455, 0.247403837695439, 0.312639416125994, -1.45, 0.776, -0.754], a = 0.2, v = 0.2, t = 0.2)
movej(p[0.419313165053683, 0.247405756543158, 0.312859124188991, -1.45, 0.776, -0.754], a = 0.2, v = 0.2, t = 0.2)
movej(p[0.41931755340491, 0.247407675390878, 0.313078832251988, -1.45, 0.776, -0.754], a = 0.2, v = 0.2, t = 0.2)
movej(p[0.419321941756138, 0.247409594238597, 0.313298540314985, -1.45, 0.776, -0.754], a = 0.2, v = 0.2, t = 0.2)
movej(p[0.419326330107366, 0.247411513086317, 0.313518248377982, -1.45, 0.776, -0.754], a = 0.2, v = 0.2, t = 0.2)
movej(p[0.419330718458593, 0.247413431934036, 0.31373795644098, -1.45, 0.776, -0.754], a = 0.2, v = 0.2, t = 0.2)
movej(p[0.419335106809821, 0.247415350781756, 0.313957664503977, -1.45, 0.776, -0.754], a = 0.2, v = 0.2, t = 0.2)
movej(p[0.419339495161049, 0.247417269629475, 0.314177372566974, -1.45, 0.776, -0.754], a = 0.2, v = 0.2, t = 0.2)
movej(p[0.419343883512276, 0.247419188477195, 0.314397080629971, -1.45, 0.776, -0.754], a = 0.2, v = 0.2, t = 0.2)
movej(p[0.419332364996988, 0.247414151898387, 0.313820392358831, -1.45, 0.776, -0.754], a = 0.2, v = 0.2, t = 0.2)
movej(p[0.419325942046555, 0.247411343403089, 0.313498819648445, -1.45, 0.776, -0.754], a = 0.2, v = 0.2, t = 0.2)
movej(p[0.419320320604899, 0.247408885375018, 0.313217375435515, -1.45, 0.776, -0.754], a = 0.2, v = 0.2, t = 0.2)
movej(p[0.419318340406742, 0.247408019514808, 0.313118234441799, -1.45, 0.776, -0.754], a = 0.2, v = 0.2, t = 0.2)
movej(p[0.419317723861528, 0.247407749924632, 0.313087366366832, -1.45, 0.776, -0.754], a = 0.2, v = 0.2, t = 0.2)
movej(p[0.419317125449997, 0.24740748826358, 0.313057406176423, -1.45, 0.776, -0.754], a = 0.2, v = 0.2, t = 0.2)
movej(p[0.419314909513964, 0.247406519324773, 0.312946462683455, -1.45, 0.776, -0.754], a = 0.2, v = 0.2, t = 0.2)
movej(p[0.419316969500326, 0.247407420073124, 0.313049598369226, -1.45, 0.776, -0.754], a = 0.2, v = 0.2, t = 0.2)
movej(p[0.41933051173461, 0.247413341542036, 0.31372760655702, -1.45, 0.776, -0.754], a = 0.2, v = 0.2, t = 0.2)
movej(p[0.419348373412127, 0.247421151728002, 0.314621872846492, -1.45, 0.776, -0.754], a = 0.2, v = 0.2, t = 0.2)
movej(p[0.419367812720045, 0.247429651747652, 0.315595125092495, -1.45, 0.776, -0.754], a = 0.2, v = 0.2, t = 0.2)
movej(p[0.419393841808276, 0.24744103321053, 0.316898302586818, -1.45, 0.776, -0.754], a = 0.2, v = 0.2, t = 0.2)
movej(p[0.419415464411598, 0.247450487896566, 0.317980864133585, -1.45, 0.776, -0.754], a = 0.2, v = 0.2, t = 0.2)
movej(p[0.419420081247228, 0.247452506651233, 0.318212011542011, -1.45, 0.776, -0.754], a = 0.2, v = 0.2, t = 0.2)
movej(p[0.419397813084801, 0.247442769688425, 0.317097129304985, -1.45, 0.776, -0.754], a = 0.2, v = 0.2, t = 0.2)
movej(p[0.419367250575879, 0.247429405944845, 0.315566980671202, -1.45, 0.776, -0.754], a = 0.2, v = 0.2, t = 0.2)
movej(p[0.419344891745037, 0.247419629336423, 0.314447559011387, -1.45, 0.776, -0.754], a = 0.2, v = 0.2, t = 0.2)
movej(p[0.419328274038157, 0.247412363088282, 0.313615573602583, -1.45, 0.776, -0.754], a = 0.2, v = 0.2, t = 0.2)
movej(p[0.419322627209346, 0.24740989395944, 0.313332858351272, -1.45, 0.776, -0.754], a = 0.2, v = 0.2, t = 0.2)
movej(p[0.419320121134389, 0.247408798154668, 0.313207388705378, -1.45, 0.776, -0.754], a = 0.2, v = 0.2, t = 0.2)
movej(p[0.419317129076734, 0.247407489849404, 0.313057587753335, -1.45, 0.776, -0.754], a = 0.2, v = 0.2, t = 0.2)
movej(p[0.419316799043708, 0.247407345539369, 0.313041064254382, -1.45, 0.776, -0.754], a = 0.2, v = 0.2, t = 0.2)
movej(p[0.419322351577368, 0.247409773436773, 0.313319058505993, -1.45, 0.776, -0.754], a = 0.2, v = 0.2, t = 0.2)
movej(p[0.419338682772061, 0.247416914404774, 0.314136699338783, -1.45, 0.776, -0.754], a = 0.2, v = 0.2, t = 0.2)
movej(p[0.419359253621782, 0.247425909201687, 0.315166603581195, -1.45, 0.776, -0.754], a = 0.2, v = 0.2, t = 0.2)
movej(p[0.419383552756679, 0.247436534226249, 0.3163831688887, -1.45, 0.776, -0.754], a = 0.2, v = 0.2, t = 0.2)
movej(p[0.419406433837584, 0.247446539193408, 0.317528737623781, -1.45, 0.776, -0.754], a = 0.2, v = 0.2, t = 0.2)
movej(p[0.41941877562207, 0.247451935754391, 0.318146643853847, -1.45, 0.776, -0.754], a = 0.2, v = 0.2, t = 0.2)
movej(p[0.419408439422897, 0.247447416154391, 0.317629149655878, -1.45, 0.776, -0.754], a = 0.2, v = 0.2, t = 0.2)
movej(p[0.419380622353545, 0.247435252880004, 0.316236454744153, -1.45, 0.776, -0.754], a = 0.2, v = 0.2, t = 0.2)
movej(p[0.419353313027311, 0.247423311621055, 0.314869180600047, -1.45, 0.776, -0.754], a = 0.2, v = 0.2, t = 0.2)
movej(p[0.419332568094235, 0.247414240704563, 0.313830560665879, -1.45, 0.776, -0.754], a = 0.2, v = 0.2, t = 0.2)
movej(p[0.419324752476966, 0.247410823252633, 0.31343926242145, -1.45, 0.776, -0.754], a = 0.2, v = 0.2, t = 0.2)
movej(p[0.419320683278555, 0.247409043957475, 0.313235533126671, -1.45, 0.776, -0.754], a = 0.2, v = 0.2, t = 0.2)
movej(p[0.419318293259167, 0.247407998899089, 0.313115873941948, -1.45, 0.776, -0.754], a = 0.2, v = 0.2, t = 0.2)
movej(p[0.419316360208585, 0.247407153654597, 0.313019093448082, -1.45, 0.776, -0.754], a = 0.2, v = 0.2, t = 0.2)
movej(p[0.419318006746979, 0.247407873618948, 0.313101529365934, -1.45, 0.776, -0.754], a = 0.2, v = 0.2, t = 0.2)
movej(p[0.419329655824784, 0.24741296728744, 0.31368475440589, -1.45, 0.776, -0.754], a = 0.2, v = 0.2, t = 0.2)
movej(p[0.419347104054334, 0.247420596689406, 0.314558320927443, -1.45, 0.776, -0.754], a = 0.2, v = 0.2, t = 0.2)
movej(p[0.419373390640861, 0.247432090745828, 0.315874390382487, -1.45, 0.776, -0.754], a = 0.2, v = 0.2, t = 0.2)
movej(p[0.41939646756554, 0.247442181347513, 0.317029764270793, -1.45, 0.776, -0.754], a = 0.2, v = 0.2, t = 0.2)
movej(p[0.419413078018947, 0.247449444424005, 0.317861386525774, -1.45, 0.776, -0.754], a = 0.2, v = 0.2, t = 0.2)
movej(p[0.419419403047493, 0.24745221010204, 0.318178056659548, -1.45, 0.776, -0.754], a = 0.2, v = 0.2, t = 0.2)
movej(p[0.419404533427631, 0.247445708221338, 0.31743359132212, -1.45, 0.776, -0.754], a = 0.2, v = 0.2, t = 0.2)
movej(p[0.4193725709984, 0.247431732349477, 0.315833354000472, -1.45, 0.776, -0.754], a = 0.2, v = 0.2, t = 0.2)
movej(p[0.419344518191173, 0.247419465996493, 0.314428856589495, -1.45, 0.776, -0.754], a = 0.2, v = 0.2, t = 0.2)
movej(p[0.419331686797253, 0.247413855349194, 0.313786437476368, -1.45, 0.776, -0.754], a = 0.2, v = 0.2, t = 0.2)
movej(p[0.419324266494268, 0.247410610752141, 0.3134149311153, -1.45, 0.776, -0.754], a = 0.2, v = 0.2, t = 0.2)
movej(p[0.419319776594417, 0.247408647501334, 0.313190138898779, -1.45, 0.776, -0.754], a = 0.2, v = 0.2, t = 0.2)
movej(p[0.419317263265986, 0.247407548524913, 0.313064306099063, -1.45, 0.776, -0.754], a = 0.2, v = 0.2, t = 0.2)
movej(p[0.419316849818019, 0.247407367740913, 0.313043606331144, -1.45, 0.776, -0.754], a = 0.2, v = 0.2, t = 0.2)
movej(p[0.419321890981826, 0.247409572037054, 0.313295998238223, -1.45, 0.776, -0.754], a = 0.2, v = 0.2, t = 0.2)
movej(p[0.419338131508105, 0.24741667335944, 0.314109099648224, -1.45, 0.776, -0.754], a = 0.2, v = 0.2, t = 0.2)
movej(p[0.419364305665799, 0.247428118255301, 0.315419540219009, -1.45, 0.776, -0.754], a = 0.2, v = 0.2, t = 0.2)
movej(p[0.419389707328607, 0.24743922537053, 0.31669130490763, -1.45, 0.776, -0.754], a = 0.2, v = 0.2, t = 0.2)
movej(p[0.41940613281845, 0.24744640756997, 0.317513666740121, -1.45, 0.776, -0.754], a = 0.2, v = 0.2, t = 0.2)
movej(p[0.419421401379333, 0.247453083891374, 0.318278105537822, -1.45, 0.776, -0.754], a = 0.2, v = 0.2, t = 0.2)
movej(p[0.419416552432563, 0.247450963643935, 0.318035337207056, -1.45, 0.776, -0.754], a = 0.2, v = 0.2, t = 0.2)
movej(p[0.419383911803598, 0.247436691222881, 0.316401145002945, -1.45, 0.776, -0.754], a = 0.2, v = 0.2, t = 0.2)
movej(p[0.419350698150257, 0.247422168241546, 0.314738263646807, -1.45, 0.776, -0.754], a = 0.2, v = 0.2, t = 0.2)
movej(p[0.41933419287221, 0.247414951153966, 0.313911907122262, -1.45, 0.776, -0.754], a = 0.2, v = 0.2, t = 0.2)
movej(p[0.419325894898979, 0.24741132278737, 0.313496459148594, -1.45, 0.776, -0.754], a = 0.2, v = 0.2, t = 0.2)
movej(p[0.419319508215912, 0.247408530150317, 0.313176702207323, -1.45, 0.776, -0.754], a = 0.2, v = 0.2, t = 0.2)
movej(p[0.419317803649733, 0.247407784812773, 0.313091361058886, -1.45, 0.776, -0.754], a = 0.2, v = 0.2, t = 0.2)
movej(p[0.419317375694819, 0.247407597685474, 0.313069934983321, -1.45, 0.776, -0.754], a = 0.2, v = 0.2, t = 0.2)
movej(p[0.419321470280386, 0.247409388081404, 0.313274935316482, -1.45, 0.776, -0.754], a = 0.2, v = 0.2, t = 0.2)
movej(p[0.419334892832364, 0.247415257218107, 0.313946951466194, -1.45, 0.776, -0.754], a = 0.2, v = 0.2, t = 0.2)
movej(p[0.419358767639084, 0.247425696701196, 0.315142272275045, -1.45, 0.776, -0.754], a = 0.2, v = 0.2, t = 0.2)
movej(p[0.41938182643008, 0.247435779373758, 0.316296738278794, -1.45, 0.776, -0.754], a = 0.2, v = 0.2, t = 0.2)
movej(p[0.419400239371554, 0.247443830605057, 0.317218604258823, -1.45, 0.776, -0.754], a = 0.2, v = 0.2, t = 0.2)
movej(p[0.419417901578561, 0.247451553570672, 0.318102883818159, -1.45, 0.776, -0.754], a = 0.2, v = 0.2, t = 0.2)
movej(p[0.419418735727968, 0.247451918310321, 0.318144646507819, -1.45, 0.776, -0.754], a = 0.2, v = 0.2, t = 0.2)
movej(p[0.419392213403565, 0.247440321175302, 0.316816774553524, -1.45, 0.776, -0.754], a = 0.2, v = 0.2, t = 0.2)
movej(p[0.419358158347344, 0.247425430282669, 0.315111767353902, -1.45, 0.776, -0.754], a = 0.2, v = 0.2, t = 0.2)
movej(p[0.419338120627895, 0.247416668601967, 0.31410855491749, -1.45, 0.776, -0.754], a = 0.2, v = 0.2, t = 0.2)
movej(p[0.419326884998058, 0.247411755717475, 0.313546029645452, -1.45, 0.776, -0.754], a = 0.2, v = 0.2, t = 0.2)
movej(p[0.419319294238455, 0.247408436586668, 0.313165989169541, -1.45, 0.776, -0.754], a = 0.2, v = 0.2, t = 0.2)
movej(p[0.419317800022996, 0.247407783226948, 0.313091179481975, -1.45, 0.776, -0.754], a = 0.2, v = 0.2, t = 0.2)
movej(p[0.419317691220899, 0.247407735652211, 0.313085732174628, -1.45, 0.776, -0.754], a = 0.2, v = 0.2, t = 0.2)
movej(p[0.419320092120497, 0.247408785468071, 0.313205936090086, -1.45, 0.776, -0.754], a = 0.2, v = 0.2, t = 0.2)
movej(p[0.41933387734613, 0.24741481318723, 0.313896109930955, -1.45, 0.776, -0.754], a = 0.2, v = 0.2, t = 0.2)
movej(p[0.419357364092039, 0.24742508298709, 0.315072002010268, -1.45, 0.776, -0.754], a = 0.2, v = 0.2, t = 0.2)
movej(p[0.419378979441887, 0.247434534501477, 0.316154200403213, -1.45, 0.776, -0.754], a = 0.2, v = 0.2, t = 0.2)
movej(p[0.419397541079559, 0.247442650751583, 0.317083511036617, -1.45, 0.776, -0.754], a = 0.2, v = 0.2, t = 0.2)
movej(p[0.419415787191151, 0.247450629034952, 0.317997024478715, -1.45, 0.776, -0.754], a = 0.2, v = 0.2, t = 0.2)
movej(p[0.419420306104894, 0.247452604972356, 0.318223269310528, -1.45, 0.776, -0.754], a = 0.2, v = 0.2, t = 0.2)
movej(p[0.419394313284028, 0.247441239367723, 0.316921907585322, -1.45, 0.776, -0.754], a = 0.2, v = 0.2, t = 0.2)
movej(p[0.419364777141551, 0.247428324412494, 0.315443145217513, -1.45, 0.776, -0.754], a = 0.2, v = 0.2, t = 0.2)
movej(p[0.419342646795112, 0.247418647711019, 0.314335162903126, -1.45, 0.776, -0.754], a = 0.2, v = 0.2, t = 0.2)
movej(p[0.419328741887173, 0.24741256765965, 0.313638997024175, -1.45, 0.776, -0.754], a = 0.2, v = 0.2, t = 0.2)
movej(p[0.419319627898218, 0.247408582482527, 0.313182694245405, -1.45, 0.776, -0.754], a = 0.2, v = 0.2, t = 0.2)
movej(p[0.41931778551605, 0.24740777688365, 0.313090453174329, -1.45, 0.776, -0.754], a = 0.2, v = 0.2, t = 0.2)
movej(p[0.419316951366643, 0.247407412144001, 0.313048690484668, -1.45, 0.776, -0.754], a = 0.2, v = 0.2, t = 0.2)
movej(p[0.419315667501904, 0.247406850762106, 0.312984412257973, -1.45, 0.776, -0.754], a = 0.2, v = 0.2, t = 0.2)
movej(p[0.41932030972469, 0.247408880617545, 0.31321683070478, -1.45, 0.776, -0.754], a = 0.2, v = 0.2, t = 0.2)
movej(p[0.419340115332999, 0.247417540805475, 0.314208422218852, -1.45, 0.776, -0.754], a = 0.2, v = 0.2, t = 0.2)
movej(p[0.419362448776684, 0.247427306313126, 0.315326572840287, -1.45, 0.776, -0.754], a = 0.2, v = 0.2, t = 0.2)
movej(p[0.419381674107145, 0.247435712769126, 0.316289112048508, -1.45, 0.776, -0.754], a = 0.2, v = 0.2, t = 0.2)
movej(p[0.419405577927758, 0.247446164938812, 0.317485885472651, -1.45, 0.776, -0.754], a = 0.2, v = 0.2, t = 0.2)
movej(p[0.419422387851675, 0.247453515235654, 0.318327494457768, -1.45, 0.776, -0.754], a = 0.2, v = 0.2, t = 0.2)
movej(p[0.419413328263769, 0.2474495538459, 0.317873915332672, -1.45, 0.776, -0.754], a = 0.2, v = 0.2, t = 0.2)
movej(p[0.419384020605694, 0.247436738797618, 0.316406592310292, -1.45, 0.776, -0.754], a = 0.2, v = 0.2, t = 0.2)
movej(p[0.419356725786406, 0.247424803881967, 0.315040044473832, -1.45, 0.776, -0.754], a = 0.2, v = 0.2, t = 0.2)
movej(p[0.419336905671151, 0.247416137350738, 0.314047726652114, -1.45, 0.776, -0.754], a = 0.2, v = 0.2, t = 0.2)
movej(p[0.419323620935162, 0.247410328475369, 0.313382610425041, -1.45, 0.776, -0.754], a = 0.2, v = 0.2, t = 0.2)
movej(p[0.41931976208747, 0.247408641158036, 0.313189412591133, -1.45, 0.776, -0.754], a = 0.2, v = 0.2, t = 0.2)
movej(p[0.419318057521291, 0.247407895820492, 0.313104071442696, -1.45, 0.776, -0.754], a = 0.2, v = 0.2, t = 0.2)
movej(p[0.419315391869926, 0.247406730239439, 0.312970612412694, -1.45, 0.776, -0.754], a = 0.2, v = 0.2, t = 0.2)
movej(p[0.419315373736243, 0.247406722310316, 0.312969704528136, -1.45, 0.776, -0.754], a = 0.2, v = 0.2, t = 0.2)
movej(p[0.419320059479868, 0.24740877119565, 0.313204301897882, -1.45, 0.776, -0.754], a = 0.2, v = 0.2, t = 0.2)
movej(p[0.419335832157131, 0.247415667946668, 0.31399397988629, -1.45, 0.776, -0.754], a = 0.2, v = 0.2, t = 0.2)
movej(p[0.419352729122726, 0.247423056303301, 0.314839946717285, -1.45, 0.776, -0.754], a = 0.2, v = 0.2, t = 0.2)
movej(p[0.419375443373749, 0.24743298832253, 0.315977162914434, -1.45, 0.776, -0.754], a = 0.2, v = 0.2, t = 0.2)
movej(p[0.419395495600144, 0.24744175634653, 0.316981101658493, -1.45, 0.776, -0.754], a = 0.2, v = 0.2, t = 0.2)
movej(p[0.41940508106485, 0.247445947680847, 0.317461009435766, -1.45, 0.776, -0.754], a = 0.2, v = 0.2, t = 0.2)
movej(p[0.419393130967912, 0.247440722388916, 0.31686271351215, -1.45, 0.776, -0.754], a = 0.2, v = 0.2, t = 0.2)
movej(p[0.419365868789253, 0.247428801745687, 0.315497799867895, -1.45, 0.776, -0.754], a = 0.2, v = 0.2, t = 0.2)
movej(p[0.419343905272695, 0.247419197992142, 0.31439817009144, -1.45, 0.776, -0.754], a = 0.2, v = 0.2, t = 0.2)
movej(p[0.419326979293208, 0.247411796948913, 0.313550750645153, -1.45, 0.776, -0.754], a = 0.2, v = 0.2, t = 0.2)
movej(p[0.419321608096375, 0.247409448342738, 0.313281835239121, -1.45, 0.776, -0.754], a = 0.2, v = 0.2, t = 0.2)
movej(p[0.419318695826924, 0.247408174925615, 0.313136028979132, -1.45, 0.776, -0.754], a = 0.2, v = 0.2, t = 0.2)
movej(p[0.419315678382113, 0.24740685551958, 0.312984956988708, -1.45, 0.776, -0.754], a = 0.2, v = 0.2, t = 0.2)
movej(p[0.419315341095614, 0.247406708037895, 0.312968070335932, -1.45, 0.776, -0.754], a = 0.2, v = 0.2, t = 0.2)
movej(p[0.41931536648277, 0.247406719138667, 0.312969341374313, -1.45, 0.776, -0.754], a = 0.2, v = 0.2, t = 0.2)
movej(p[0.419319740327051, 0.247408631643089, 0.313188323129664, -1.45, 0.776, -0.754], a = 0.2, v = 0.2, t = 0.2)
movej(p[0.419333148372083, 0.247414494436493, 0.31385961297173, -1.45, 0.776, -0.754], a = 0.2, v = 0.2, t = 0.2)
movej(p[0.419353207851951, 0.247423265632143, 0.314863914869612, -1.45, 0.776, -0.754], a = 0.2, v = 0.2, t = 0.2)
movej(p[0.419372494836933, 0.247431699047161, 0.315829540885329, -1.45, 0.776, -0.754], a = 0.2, v = 0.2, t = 0.2)
movej(p[0.419387161359548, 0.247438112121688, 0.31656383791571, -1.45, 0.776, -0.754], a = 0.2, v = 0.2, t = 0.2)
movej(p[0.419403568715708, 0.247445286392005, 0.317385291863643, -1.45, 0.776, -0.754], a = 0.2, v = 0.2, t = 0.2)
movej(p[0.419403797200111, 0.247445386298952, 0.317396731209071, -1.45, 0.776, -0.754], a = 0.2, v = 0.2, t = 0.2)
movej(p[0.419379809964558, 0.247434897655302, 0.316195781515962, -1.45, 0.776, -0.754], a = 0.2, v = 0.2, t = 0.2)
movej(p[0.419352471624431, 0.247422943709757, 0.314827054756563, -1.45, 0.776, -0.754], a = 0.2, v = 0.2, t = 0.2)
movej(p[0.419335578285573, 0.247415556938949, 0.31398126950248, -1.45, 0.776, -0.754], a = 0.2, v = 0.2, t = 0.2)
movej(p[0.419325920286135, 0.247411333888141, 0.313497730186975, -1.45, 0.776, -0.754], a = 0.2, v = 0.2, t = 0.2)
movej(p[0.419318724840817, 0.247408187612211, 0.313137481594425, -1.45, 0.776, -0.754], a = 0.2, v = 0.2, t = 0.2)
movej(p[0.419316537918676, 0.247407231360001, 0.313027990716749, -1.45, 0.776, -0.754], a = 0.2, v = 0.2, t = 0.2)
movej(p[0.41931547165813, 0.24740676512758, 0.312974607104748, -1.45, 0.776, -0.754], a = 0.2, v = 0.2, t = 0.2)
movej(p[0.419315000182378, 0.247406558970387, 0.312951002106245, -1.45, 0.776, -0.754], a = 0.2, v = 0.2, t = 0.2)
movej(p[0.419312541254996, 0.247405483781334, 0.312827892960202, -1.45, 0.776, -0.754], a = 0.2, v = 0.2, t = 0.2)
movej(p[0.419312584775835, 0.247405502811229, 0.31283007188314, -1.45, 0.776, -0.754], a = 0.2, v = 0.2, t = 0.2)
movej(p[0.419318224351173, 0.247407968768422, 0.313112423980628, -1.45, 0.776, -0.754], a = 0.2, v = 0.2, t = 0.2)
movej(p[0.41933060602976, 0.247413382773475, 0.313732327556721, -1.45, 0.776, -0.754], a = 0.2, v = 0.2, t = 0.2)
movej(p[0.419345939871901, 0.247420087639721, 0.31450003473883, -1.45, 0.776, -0.754], a = 0.2, v = 0.2, t = 0.2)
movej(p[0.41936510354784, 0.247428467136705, 0.315459487139554, -1.45, 0.776, -0.754], a = 0.2, v = 0.2, t = 0.2)
movej(p[0.419381199004657, 0.247435505026109, 0.316265325473092, -1.45, 0.776, -0.754], a = 0.2, v = 0.2, t = 0.2)
movej(p[0.41939467958442, 0.247441399536004, 0.31694024685339, -1.45, 0.776, -0.754], a = 0.2, v = 0.2, t = 0.2)
movej(p[0.419403626743493, 0.247445311765197, 0.317388197094228, -1.45, 0.776, -0.754], a = 0.2, v = 0.2, t = 0.2)
movej(p[0.419386236541727, 0.247437707736425, 0.31651753580326, -1.45, 0.776, -0.754], a = 0.2, v = 0.2, t = 0.2)
movej(p[0.41935911943253, 0.247425850526178, 0.315159885235467, -1.45, 0.776, -0.754], a = 0.2, v = 0.2, t = 0.2)
movej(p[0.419335422335901, 0.247415488748493, 0.313973461695283, -1.45, 0.776, -0.754], a = 0.2, v = 0.2, t = 0.2)
movej(p[0.419325340008287, 0.247411080156212, 0.313468677881124, -1.45, 0.776, -0.754], a = 0.2, v = 0.2, t = 0.2)
movej(p[0.419319689552739, 0.247408609441545, 0.313185781052902, -1.45, 0.776, -0.754], a = 0.2, v = 0.2, t = 0.2)
movej(p[0.41931555507307, 0.247406801601545, 0.312978783373714, -1.45, 0.776, -0.754], a = 0.2, v = 0.2, t = 0.2)
movej(p[0.419314467052105, 0.247406325854176, 0.312924310300244, -1.45, 0.776, -0.754], a = 0.2, v = 0.2, t = 0.2)
movej(p[0.419313854133628, 0.247406057849825, 0.312893623802189, -1.45, 0.776, -0.754], a = 0.2, v = 0.2, t = 0.2)
movej(p[0.419313879520784, 0.247406068950597, 0.31289489484057, -1.45, 0.776, -0.754], a = 0.2, v = 0.2, t = 0.2)
movej(p[0.419312182208077, 0.247405326784702, 0.312809916845956, -1.45, 0.776, -0.754], a = 0.2, v = 0.2, t = 0.2)
movej(p[0.419315188772679, 0.247406641433264, 0.312960444105646, -1.45, 0.776, -0.754], a = 0.2, v = 0.2, t = 0.2)
movej(p[0.419329423713644, 0.247412865794668, 0.31367313348355, -1.45, 0.776, -0.754], a = 0.2, v = 0.2, t = 0.2)
movej(p[0.419344946146086, 0.247419653123791, 0.31445028266506, -1.45, 0.776, -0.754], a = 0.2, v = 0.2, t = 0.2)
movej(p[0.419363195884414, 0.247427632992985, 0.31536397768407, -1.45, 0.776, -0.754], a = 0.2, v = 0.2, t = 0.2)
movej(p[0.419383665185512, 0.247436583386811, 0.316388797772958, -1.45, 0.776, -0.754], a = 0.2, v = 0.2, t = 0.2)
movej(p[0.419399194871427, 0.247443373887583, 0.317166310108292, -1.45, 0.776, -0.754], a = 0.2, v = 0.2, t = 0.2)
movej(p[0.419400250251763, 0.247443835362531, 0.317219148989558, -1.45, 0.776, -0.754], a = 0.2, v = 0.2, t = 0.2)
movej(p[0.419378381030356, 0.247434272840424, 0.316124240212804, -1.45, 0.776, -0.754], a = 0.2, v = 0.2, t = 0.2)
movej(p[0.419354941432022, 0.247424023656283, 0.314950708633341, -1.45, 0.776, -0.754], a = 0.2, v = 0.2, t = 0.2)
movej(p[0.419336470462764, 0.247415947051791, 0.314025937422726, -1.45, 0.776, -0.754], a = 0.2, v = 0.2, t = 0.2)
movej(p[0.419323747870941, 0.247410383979229, 0.313388965616946, -1.45, 0.776, -0.754], a = 0.2, v = 0.2, t = 0.2)
movej(p[0.419318855403333, 0.247408244701896, 0.313144018363241, -1.45, 0.776, -0.754], a = 0.2, v = 0.2, t = 0.2)
movej(p[0.419316494397837, 0.247407212330106, 0.313025811793811, -1.45, 0.776, -0.754], a = 0.2, v = 0.2, t = 0.2)
movej(p[0.419313190440839, 0.24740576764393, 0.312860395227372, -1.45, 0.776, -0.754], a = 0.2, v = 0.2, t = 0.2)
movej(p[0.419313339137037, 0.247405832662737, 0.312867839880746, -1.45, 0.776, -0.754], a = 0.2, v = 0.2, t = 0.2)
movej(p[0.419313074385269, 0.247405716897544, 0.312854584766202, -1.45, 0.776, -0.754], a = 0.2, v = 0.2, t = 0.2)
movej(p[0.41931399920309, 0.247406121282808, 0.312900886878652, -1.45, 0.776, -0.754], a = 0.2, v = 0.2, t = 0.2)
movej(p[0.419323428718124, 0.247410244426668, 0.313372986848728, -1.45, 0.776, -0.754], a = 0.2, v = 0.2, t = 0.2)
movej(p[0.419341613175195, 0.247418195751019, 0.314283413483329, -1.45, 0.776, -0.754], a = 0.2, v = 0.2, t = 0.2)
movej(p[0.419359442212083, 0.247425991664564, 0.315176045580597, -1.45, 0.776, -0.754], a = 0.2, v = 0.2, t = 0.2)
movej(p[0.419372977192894, 0.247431909961828, 0.315853690614568, -1.45, 0.776, -0.754], a = 0.2, v = 0.2, t = 0.2)
movej(p[0.419393051179708, 0.247440687500776, 0.316858718820096, -1.45, 0.776, -0.754], a = 0.2, v = 0.2, t = 0.2)
movej(p[0.419410673492613, 0.247448393022321, 0.317741001033404, -1.45, 0.776, -0.754], a = 0.2, v = 0.2, t = 0.2)
movej(p[0.419401450701562, 0.247444360270461, 0.317279250947287, -1.45, 0.776, -0.754], a = 0.2, v = 0.2, t = 0.2)
movej(p[0.419371464843752, 0.247431248672986, 0.315777973042444, -1.45, 0.776, -0.754], a = 0.2, v = 0.2, t = 0.2)
movej(p[0.419350154139774, 0.247421930367862, 0.314711027110072, -1.45, 0.776, -0.754], a = 0.2, v = 0.2, t = 0.2)
movej(p[0.419332734924116, 0.247414313652493, 0.313838913203811, -1.45, 0.776, -0.754], a = 0.2, v = 0.2, t = 0.2)
movej(p[0.41932018278891, 0.247408825113685, 0.313210475512875, -1.45, 0.776, -0.754], a = 0.2, v = 0.2, t = 0.2)
movej(p[0.419317092809368, 0.247407473991159, 0.313055771984219, -1.45, 0.776, -0.754], a = 0.2, v = 0.2, t = 0.2)
movej(p[0.419315380989716, 0.247406725481966, 0.312970067681959, -1.45, 0.776, -0.754], a = 0.2, v = 0.2, t = 0.2)
movej(p[0.419314470678841, 0.247406327440001, 0.312924491877156, -1.45, 0.776, -0.754], a = 0.2, v = 0.2, t = 0.2)
movej(p[0.419312367171641, 0.247405407661755, 0.312819177268446, -1.45, 0.776, -0.754], a = 0.2, v = 0.2, t = 0.2)
movej(p[0.419312584775835, 0.247405502811229, 0.31283007188314, -1.45, 0.776, -0.754], a = 0.2, v = 0.2, t = 0.2)
movej(p[0.419313926668359, 0.247406089566316, 0.31289725534042, -1.45, 0.776, -0.754], a = 0.2, v = 0.2, t = 0.2)
movej(p[0.419322993509738, 0.24741005412772, 0.31335119761934, -1.45, 0.776, -0.754], a = 0.2, v = 0.2, t = 0.2)
movej(p[0.419340242268778, 0.247417596309335, 0.314214777410757, -1.45, 0.776, -0.754], a = 0.2, v = 0.2, t = 0.2)
movej(p[0.419358637076569, 0.247425639611511, 0.315135735506229, -1.45, 0.776, -0.754], a = 0.2, v = 0.2, t = 0.2)
movej(p[0.419374181269429, 0.247432436455582, 0.315913974149209, -1.45, 0.776, -0.754], a = 0.2, v = 0.2, t = 0.2)
movej(p[0.419387629208563, 0.247438316693056, 0.316587261337302, -1.45, 0.776, -0.754], a = 0.2, v = 0.2, t = 0.2)
movej(p[0.419400968345601, 0.247444149355794, 0.317255101218049, -1.45, 0.776, -0.754], a = 0.2, v = 0.2, t = 0.2)
movej(p[0.419393580683245, 0.247440919031162, 0.316885229049185, -1.45, 0.776, -0.754], a = 0.2, v = 0.2, t = 0.2)
movej(p[0.419364650205771, 0.247428268908634, 0.315436790025608, -1.45, 0.776, -0.754], a = 0.2, v = 0.2, t = 0.2)
movej(p[0.419343934286588, 0.247419210678739, 0.314399622706733, -1.45, 0.776, -0.754], a = 0.2, v = 0.2, t = 0.2)
movej(p[0.419329097307355, 0.247412723070457, 0.313656791561509, -1.45, 0.776, -0.754], a = 0.2, v = 0.2, t = 0.2)
movej(p[0.419321883728353, 0.247409568865404, 0.3132956350844, -1.45, 0.776, -0.754], a = 0.2, v = 0.2, t = 0.2)
movej(p[0.419315018316061, 0.247406566899509, 0.312951909990802, -1.45, 0.776, -0.754], a = 0.2, v = 0.2, t = 0.2)
movej(p[0.419313745331531, 0.247406010275088, 0.312888176494842, -1.45, 0.776, -0.754], a = 0.2, v = 0.2, t = 0.2)
movej(p[0.419313379031139, 0.247405850106808, 0.312869837226774, -1.45, 0.776, -0.754], a = 0.2, v = 0.2, t = 0.2)
movej(p[0.419310945490913, 0.247404786018527, 0.312747999119112, -1.45, 0.776, -0.754], a = 0.2, v = 0.2, t = 0.2)
movej(p[0.419311130454477, 0.247404866895579, 0.312757259541602, -1.45, 0.776, -0.754], a = 0.2, v = 0.2, t = 0.2)
movej(p[0.419311609183702, 0.247405076224422, 0.312781227693929, -1.45, 0.776, -0.754], a = 0.2, v = 0.2, t = 0.2)
movej(p[0.419321042325473, 0.247409200954106, 0.313253509240917, -1.45, 0.776, -0.754], a = 0.2, v = 0.2, t = 0.2)
movej(p[0.419334504771553, 0.247415087534879, 0.313927522736656, -1.45, 0.776, -0.754], a = 0.2, v = 0.2, t = 0.2)
movej(p[0.419352856058505, 0.24742311180716, 0.31484630190919, -1.45, 0.776, -0.754], a = 0.2, v = 0.2, t = 0.2)
movej(p[0.419371468470489, 0.24743125025881, 0.315778154619356, -1.45, 0.776, -0.754], a = 0.2, v = 0.2, t = 0.2)
movej(p[0.419383708706351, 0.247436602416705, 0.316390976695897, -1.45, 0.776, -0.754], a = 0.2, v = 0.2, t = 0.2)
movej(p[0.41939624633461, 0.247442084612215, 0.317018688079187, -1.45, 0.776, -0.754], a = 0.2, v = 0.2, t = 0.2)
movej(p[0.419397947274053, 0.247442828363934, 0.317103847650713, -1.45, 0.776, -0.754], a = 0.2, v = 0.2, t = 0.2)
movej(p[0.419371620793424, 0.247431316863442, 0.315785780849642, -1.45, 0.776, -0.754], a = 0.2, v = 0.2, t = 0.2)
movej(p[0.419345624345821, 0.247419949672984, 0.314484237547523, -1.45, 0.776, -0.754], a = 0.2, v = 0.2, t = 0.2)
movej(p[0.419331197187818, 0.247413641262879, 0.313761924593306, -1.45, 0.776, -0.754], a = 0.2, v = 0.2, t = 0.2)
movej(p[0.419322431365573, 0.247409808324913, 0.313323053198047, -1.45, 0.776, -0.754], a = 0.2, v = 0.2, t = 0.2)
movej(p[0.419318053894555, 0.247407894234667, 0.313103889865785, -1.45, 0.776, -0.754], a = 0.2, v = 0.2, t = 0.2)
movej(p[0.419313342763774, 0.247405834248562, 0.312868021457658, -1.45, 0.776, -0.754], a = 0.2, v = 0.2, t = 0.2)
movej(p[0.41931293656928, 0.247405656636211, 0.312847684843562, -1.45, 0.776, -0.754], a = 0.2, v = 0.2, t = 0.2)
movej(p[0.419313005477275, 0.247405686766878, 0.312851134804882, -1.45, 0.776, -0.754], a = 0.2, v = 0.2, t = 0.2)
movej(p[0.419311605556966, 0.247405074638597, 0.312781046117017, -1.45, 0.776, -0.754], a = 0.2, v = 0.2, t = 0.2)
movej(p[0.419321793059939, 0.24740952921979, 0.313291095661611, -1.45, 0.776, -0.754], a = 0.2, v = 0.2, t = 0.2)
movej(p[0.419339574949253, 0.247417304517616, 0.314181367259028, -1.45, 0.776, -0.754], a = 0.2, v = 0.2, t = 0.2)
movej(p[0.419358365071327, 0.247425520674669, 0.315122117237861, -1.45, 0.776, -0.754], a = 0.2, v = 0.2, t = 0.2)
movej(p[0.419374003559338, 0.247432358750179, 0.315905076880542, -1.45, 0.776, -0.754], a = 0.2, v = 0.2, t = 0.2)
movej(p[0.419393968744056, 0.24744108871439, 0.316904657778723, -1.45, 0.776, -0.754], a = 0.2, v = 0.2, t = 0.2)
movej(p[0.419408417662478, 0.247447406639443, 0.317628060194409, -1.45, 0.776, -0.754], a = 0.2, v = 0.2, t = 0.2)
movej(p[0.419395060391758, 0.247441566047583, 0.316959312429105, -1.45, 0.776, -0.754], a = 0.2, v = 0.2, t = 0.2)
movej(p[0.41936741740576, 0.247429478892775, 0.315575333209134, -1.45, 0.776, -0.754], a = 0.2, v = 0.2, t = 0.2)
movej(p[0.41934439488213, 0.247419412078458, 0.314422682974502, -1.45, 0.776, -0.754], a = 0.2, v = 0.2, t = 0.2)
movej(p[0.419329108187564, 0.247412727827931, 0.313657336292243, -1.45, 0.776, -0.754], a = 0.2, v = 0.2, t = 0.2)
movej(p[0.41931841656821, 0.247408052817124, 0.313122047556941, -1.45, 0.776, -0.754], a = 0.2, v = 0.2, t = 0.2)
movej(p[0.419315758170317, 0.24740689040772, 0.312988951680762, -1.45, 0.776, -0.754], a = 0.2, v = 0.2, t = 0.2)
movej(p[0.419314554093782, 0.247406363913966, 0.312928668146122, -1.45, 0.776, -0.754], a = 0.2, v = 0.2, t = 0.2)
movej(p[0.419312951076226, 0.247405662979509, 0.312848411151209, -1.45, 0.776, -0.754], a = 0.2, v = 0.2, t = 0.2)
movej(p[0.419311246510047, 0.247404917641965, 0.312763070002772, -1.45, 0.776, -0.754], a = 0.2, v = 0.2, t = 0.2)
movej(p[0.419311725239272, 0.247405126970808, 0.312787038155099, -1.45, 0.776, -0.754], a = 0.2, v = 0.2, t = 0.2)
movej(p[0.419320306097953, 0.24740887903172, 0.313216649127868, -1.45, 0.776, -0.754], a = 0.2, v = 0.2, t = 0.2)
movej(p[0.419336024374168, 0.24741575199537, 0.314003603462603, -1.45, 0.776, -0.754], a = 0.2, v = 0.2, t = 0.2)
movej(p[0.419356196282869, 0.247424572351581, 0.315013534244744, -1.45, 0.776, -0.754], a = 0.2, v = 0.2, t = 0.2)
movej(p[0.419376730865225, 0.247433551290249, 0.316041622718041, -1.45, 0.776, -0.754], a = 0.2, v = 0.2, t = 0.2)
movej(p[0.419391274078798, 0.247439910446741, 0.316769746133428, -1.45, 0.776, -0.754], a = 0.2, v = 0.2, t = 0.2)
movej(p[0.419403351111515, 0.247445191242531, 0.317374397248949, -1.45, 0.776, -0.754], a = 0.2, v = 0.2, t = 0.2)
movej(p[0.419400794262246, 0.247444073236215, 0.317246385526293, -1.45, 0.776, -0.754], a = 0.2, v = 0.2, t = 0.2)
movej(p[0.419371352414919, 0.247431199512424, 0.315772344158186, -1.45, 0.776, -0.754], a = 0.2, v = 0.2, t = 0.2)
movej(p[0.419342226093672, 0.24741846375537, 0.314314099981384, -1.45, 0.776, -0.754], a = 0.2, v = 0.2, t = 0.2)
movej(p[0.419328245024265, 0.247412350401685, 0.31361412098729, -1.45, 0.776, -0.754], a = 0.2, v = 0.2, t = 0.2)
movej(p[0.41932049831499, 0.247408963080422, 0.313226272704181, -1.45, 0.776, -0.754], a = 0.2, v = 0.2, t = 0.2)
movej(p[0.419315743663371, 0.247406884064422, 0.312988225373116, -1.45, 0.776, -0.754], a = 0.2, v = 0.2, t = 0.2)
movej(p[0.419313059878323, 0.247405710554246, 0.312853858458556, -1.45, 0.776, -0.754], a = 0.2, v = 0.2, t = 0.2)
movej(p[0.419312548508469, 0.247405486952983, 0.312828256114025, -1.45, 0.776, -0.754], a = 0.2, v = 0.2, t = 0.2)
movej(p[0.41931261016299, 0.247405513912001, 0.312831342921521, -1.45, 0.776, -0.754], a = 0.2, v = 0.2, t = 0.2)
movej(p[0.419310455881479, 0.247404571932211, 0.31272348623605, -1.45, 0.776, -0.754], a = 0.2, v = 0.2, t = 0.2)
movej(p[0.419313879520784, 0.247406068950597, 0.31289489484057, -1.45, 0.776, -0.754], a = 0.2, v = 0.2, t = 0.2)
movej(p[0.419327925871448, 0.247412210849124, 0.313598142219072, -1.45, 0.776, -0.754], a = 0.2, v = 0.2, t = 0.2)
movej(p[0.41934187067349, 0.247418308344563, 0.314296305444051, -1.45, 0.776, -0.754], a = 0.2, v = 0.2, t = 0.2)
movej(p[0.419359605415228, 0.247426063026669, 0.315184216541617, -1.45, 0.776, -0.754], a = 0.2, v = 0.2, t = 0.2)
movej(p[0.419379189792607, 0.247434626479302, 0.316164731864084, -1.45, 0.776, -0.754], a = 0.2, v = 0.2, t = 0.2)
movej(p[0.419394425712861, 0.247441288528285, 0.31692753646958, -1.45, 0.776, -0.754], a = 0.2, v = 0.2, t = 0.2)
movej(p[0.419402879635763, 0.247444985085338, 0.317350792250445, -1.45, 0.776, -0.754], a = 0.2, v = 0.2, t = 0.2)
movej(p[0.419389721835554, 0.247439231713828, 0.316692031215277, -1.45, 0.776, -0.754], a = 0.2, v = 0.2, t = 0.2)
movej(p[0.419365386433291, 0.24742859083102, 0.315473650138656, -1.45, 0.776, -0.754], a = 0.2, v = 0.2, t = 0.2)
movej(p[0.419340423605606, 0.247417675600563, 0.314223856256335, -1.45, 0.776, -0.754], a = 0.2, v = 0.2, t = 0.2)
movej(p[0.419325488704486, 0.247411145175019, 0.313476122534499, -1.45, 0.776, -0.754], a = 0.2, v = 0.2, t = 0.2)
movej(p[0.41931965691211, 0.247408595169124, 0.313184146860698, -1.45, 0.776, -0.754], a = 0.2, v = 0.2, t = 0.2)
movej(p[0.41931599753493, 0.247406995072141, 0.313000935756926, -1.45, 0.776, -0.754], a = 0.2, v = 0.2, t = 0.2)
movej(p[0.419312077032717, 0.24740528079579, 0.312804651115521, -1.45, 0.776, -0.754], a = 0.2, v = 0.2, t = 0.2)
movej(p[0.419311986364304, 0.247405241150176, 0.312800111692732, -1.45, 0.776, -0.754], a = 0.2, v = 0.2, t = 0.2)
movej(p[0.419312291010174, 0.247405374359439, 0.312815364153303, -1.45, 0.776, -0.754], a = 0.2, v = 0.2, t = 0.2)
movej(p[0.419311667211487, 0.247405101597615, 0.312784132924514, -1.45, 0.776, -0.754], a = 0.2, v = 0.2, t = 0.2)
movej(p[0.419320171908701, 0.247408820356211, 0.31320993078214, -1.45, 0.776, -0.754], a = 0.2, v = 0.2, t = 0.2)
movej(p[0.419336626412436, 0.247416015242247, 0.314033745229924, -1.45, 0.776, -0.754], a = 0.2, v = 0.2, t = 0.2)
movej(p[0.419353142570693, 0.247423237087301, 0.314860646485203, -1.45, 0.776, -0.754], a = 0.2, v = 0.2, t = 0.2)
movej(p[0.419366615896982, 0.247429128425547, 0.315535204711678, -1.45, 0.776, -0.754], a = 0.2, v = 0.2, t = 0.2)
movej(p[0.419379483558268, 0.247434754931091, 0.316179439593921, -1.45, 0.776, -0.754], a = 0.2, v = 0.2, t = 0.2)
movej(p[0.419368392997893, 0.247429905479582, 0.315624177398346, -1.45, 0.776, -0.754], a = 0.2, v = 0.2, t = 0.2)
movej(p[0.419343781963653, 0.247419144074107, 0.314391996476447, -1.45, 0.776, -0.754], a = 0.2, v = 0.2, t = 0.2)
movej(p[0.41932735647381, 0.247411961874668, 0.313569634643956, -1.45, 0.776, -0.754], a = 0.2, v = 0.2, t = 0.2)
movej(p[0.41932018278891, 0.247408825113685, 0.313210475512875, -1.45, 0.776, -0.754], a = 0.2, v = 0.2, t = 0.2)
movej(p[0.419316356581848, 0.247407152068773, 0.313018911871171, -1.45, 0.776, -0.754], a = 0.2, v = 0.2, t = 0.2)
movej(p[0.419312048018825, 0.247405268109194, 0.312803198500228, -1.45, 0.776, -0.754], a = 0.2, v = 0.2, t = 0.2)
movej(p[0.419311892069153, 0.247405199918737, 0.312795390693031, -1.45, 0.776, -0.754], a = 0.2, v = 0.2, t = 0.2)
movej(p[0.419312363544905, 0.24740540607593, 0.312818995691535, -1.45, 0.776, -0.754], a = 0.2, v = 0.2, t = 0.2)
movej(p[0.419319323252348, 0.247408449273264, 0.313167441784833, -1.45, 0.776, -0.754], a = 0.2, v = 0.2, t = 0.2)
movej(p[0.419334254526731, 0.247414978112984, 0.313914993929758, -1.45, 0.776, -0.754], a = 0.2, v = 0.2, t = 0.2)
movej(p[0.419356932510389, 0.247424894273967, 0.315050394357792, -1.45, 0.776, -0.754], a = 0.2, v = 0.2, t = 0.2)
movej(p[0.419378094518169, 0.247434147560284, 0.31610989563679, -1.45, 0.776, -0.754], a = 0.2, v = 0.2, t = 0.2)
movej(p[0.419394233495824, 0.247441204479583, 0.316917912893267, -1.45, 0.776, -0.754], a = 0.2, v = 0.2, t = 0.2)
movej(p[0.419407695941904, 0.247447091060356, 0.317591926389007, -1.45, 0.776, -0.754], a = 0.2, v = 0.2, t = 0.2)
movej(p[0.419398763289777, 0.24744318517446, 0.317144702455815, -1.45, 0.776, -0.754], a = 0.2, v = 0.2, t = 0.2)
movej(p[0.419372081388966, 0.247431518263161, 0.315808841117411, -1.45, 0.776, -0.754], a = 0.2, v = 0.2, t = 0.2)
movej(p[0.419348355278444, 0.247421143798879, 0.314620964961934, -1.45, 0.776, -0.754], a = 0.2, v = 0.2, t = 0.2)
movej(p[0.419333750410351, 0.24741475768337, 0.31388975473905, -1.45, 0.776, -0.754], a = 0.2, v = 0.2, t = 0.2)
movej(p[0.419323809525462, 0.247410410938247, 0.313392052424443, -1.45, 0.776, -0.754], a = 0.2, v = 0.2, t = 0.2)
movej(p[0.419315740036635, 0.247406882478597, 0.312988043796204, -1.45, 0.776, -0.754], a = 0.2, v = 0.2, t = 0.2)
movej(p[0.419314343743062, 0.247406271936141, 0.312918136685251, -1.45, 0.776, -0.754], a = 0.2, v = 0.2, t = 0.2)
movej(p[0.419313727197848, 0.247406002345966, 0.312887268610284, -1.45, 0.776, -0.754], a = 0.2, v = 0.2, t = 0.2)
movej(p[0.419314876873335, 0.247406505052352, 0.312944828491251, -1.45, 0.776, -0.754], a = 0.2, v = 0.2, t = 0.2)
movej(p[0.419323718857048, 0.247410371292633, 0.313387513001654, -1.45, 0.776, -0.754], a = 0.2, v = 0.2, t = 0.2)
movej(p[0.419342556126698, 0.247418608065405, 0.314330623480337, -1.45, 0.776, -0.754], a = 0.2, v = 0.2, t = 0.2)
movej(p[0.419365027386373, 0.247428433834389, 0.315455674024411, -1.45, 0.776, -0.754], a = 0.2, v = 0.2, t = 0.2)
movej(p[0.419389370042108, 0.247439077888846, 0.316674418254855, -1.45, 0.776, -0.754], a = 0.2, v = 0.2, t = 0.2)
movej(p[0.419410978138483, 0.247448526231584, 0.317756253493976, -1.45, 0.776, -0.754], a = 0.2, v = 0.2, t = 0.2)
movej(p[0.419416828064541, 0.247451084166602, 0.318049137052335, -1.45, 0.776, -0.754], a = 0.2, v = 0.2, t = 0.2)
movej(p[0.419391633125716, 0.247440067443372, 0.316787722247673, -1.45, 0.776, -0.754], a = 0.2, v = 0.2, t = 0.2)
movej(p[0.419366111780602, 0.247428907995933, 0.31550996552097, -1.45, 0.776, -0.754], a = 0.2, v = 0.2, t = 0.2)
movej(p[0.41934482646378, 0.247419600791581, 0.314444290626978, -1.45, 0.776, -0.754], a = 0.2, v = 0.2, t = 0.2)
movej(p[0.419329713852568, 0.247412992660633, 0.313687659636475, -1.45, 0.776, -0.754], a = 0.2, v = 0.2, t = 0.2)
movej(p[0.419318550757462, 0.247408111492632, 0.313128765902669, -1.45, 0.776, -0.754], a = 0.2, v = 0.2, t = 0.2)
movej(p[0.419315866972414, 0.247406937982457, 0.312994398988109, -1.45, 0.776, -0.754], a = 0.2, v = 0.2, t = 0.2)
movej(p[0.419314325609379, 0.247406264007018, 0.312917228800693, -1.45, 0.776, -0.754], a = 0.2, v = 0.2, t = 0.2)
movej(p[0.419312457840055, 0.247405447307369, 0.312823716691235, -1.45, 0.776, -0.754], a = 0.2, v = 0.2, t = 0.2)
movej(p[0.419311351685407, 0.247404963630878, 0.312768335733207, -1.45, 0.776, -0.754], a = 0.2, v = 0.2, t = 0.2)
movej(p[0.419316167991548, 0.247407069605895, 0.313009469871769, -1.45, 0.776, -0.754], a = 0.2, v = 0.2, t = 0.2)
movej(p[0.419332201793843, 0.247414080536282, 0.313812221397811, -1.45, 0.776, -0.754], a = 0.2, v = 0.2, t = 0.2)
movej(p[0.419350614735316, 0.247422131767581, 0.314734087377841, -1.45, 0.776, -0.754], a = 0.2, v = 0.2, t = 0.2)
movej(p[0.419375102460514, 0.247432839255021, 0.315960094684747, -1.45, 0.776, -0.754], a = 0.2, v = 0.2, t = 0.2)
movej(p[0.41939868712831, 0.247443151872145, 0.317140889340672, -1.45, 0.776, -0.754], a = 0.2, v = 0.2, t = 0.2)
movej(p[0.41941223298933, 0.247449074926882, 0.317819079105378, -1.45, 0.776, -0.754], a = 0.2, v = 0.2, t = 0.2)
movej(p[0.419405229761049, 0.247446012699654, 0.317468454089141, -1.45, 0.776, -0.754], a = 0.2, v = 0.2, t = 0.2)
movej(p[0.41938130055328, 0.247435549429197, 0.316270409626616, -1.45, 0.776, -0.754], a = 0.2, v = 0.2, t = 0.2)
movej(p[0.419353599539498, 0.247423436901195, 0.314883525176061, -1.45, 0.776, -0.754], a = 0.2, v = 0.2, t = 0.2)
movej(p[0.41933060602976, 0.247413382773475, 0.313732327556721, -1.45, 0.776, -0.754], a = 0.2, v = 0.2, t = 0.2)
movej(p[0.419321687884579, 0.247409483230878, 0.313285829931176, -1.45, 0.776, -0.754], a = 0.2, v = 0.2, t = 0.2)
movej(p[0.419317274146196, 0.247407553282387, 0.313064850829798, -1.45, 0.776, -0.754], a = 0.2, v = 0.2, t = 0.2)
movej(p[0.419314387263901, 0.247406290966036, 0.31292031560819, -1.45, 0.776, -0.754], a = 0.2, v = 0.2, t = 0.2)
movej(p[0.419311152214897, 0.247404876410527, 0.312758349003071, -1.45, 0.776, -0.754], a = 0.2, v = 0.2, t = 0.2)
movej(p[0.419311641824331, 0.247405090496843, 0.312782861886133, -1.45, 0.776, -0.754], a = 0.2, v = 0.2, t = 0.2)
movej(p[0.419318235231382, 0.247407973525896, 0.313112968711363, -1.45, 0.776, -0.754], a = 0.2, v = 0.2, t = 0.2)
movej(p[0.419331893521236, 0.247413945741194, 0.313796787360328, -1.45, 0.776, -0.754], a = 0.2, v = 0.2, t = 0.2)
movej(p[0.419355485442505, 0.247424261529967, 0.314977945170076, -1.45, 0.776, -0.754], a = 0.2, v = 0.2, t = 0.2)
movej(p[0.419378819865479, 0.247434464725196, 0.316146211019104, -1.45, 0.776, -0.754], a = 0.2, v = 0.2, t = 0.2)
movej(p[0.419395709577601, 0.24744184991018, 0.316991814696275, -1.45, 0.776, -0.754], a = 0.2, v = 0.2, t = 0.2)
movej(p[0.419410680746086, 0.24744839619397, 0.317741364187227, -1.45, 0.776, -0.754], a = 0.2, v = 0.2, t = 0.2)
movej(p[0.419402096260668, 0.247444642547233, 0.317311571637546, -1.45, 0.776, -0.754], a = 0.2, v = 0.2, t = 0.2)
movej(p[0.419376313790522, 0.247433368920424, 0.31602074137321, -1.45, 0.776, -0.754], a = 0.2, v = 0.2, t = 0.2)
movej(p[0.419346581804271, 0.247420368330669, 0.314532173852177, -1.45, 0.776, -0.754], a = 0.2, v = 0.2, t = 0.2)
movej(p[0.419332339609832, 0.247414140797615, 0.31381912132045, -1.45, 0.776, -0.754], a = 0.2, v = 0.2, t = 0.2)
movej(p[0.419322797665964, 0.247409968493194, 0.313341392466115, -1.45, 0.776, -0.754], a = 0.2, v = 0.2, t = 0.2)
movej(p[0.41931756428512, 0.247407680148352, 0.313079376982723, -1.45, 0.776, -0.754], a = 0.2, v = 0.2, t = 0.2)
movej(p[0.419312747978979, 0.247405574173334, 0.312838242844161, -1.45, 0.776, -0.754], a = 0.2, v = 0.2, t = 0.2)
movej(p[0.419312091539664, 0.247405287139088, 0.312805377423167, -1.45, 0.776, -0.754], a = 0.2, v = 0.2, t = 0.2)
movej(p[0.419312943822753, 0.24740565980786, 0.312848047997386, -1.45, 0.776, -0.754], a = 0.2, v = 0.2, t = 0.2)
movej(p[0.419319584377379, 0.247408563452632, 0.313180515322466, -1.45, 0.776, -0.754], a = 0.2, v = 0.2, t = 0.2)
movej(p[0.419339984770483, 0.247417483715791, 0.314201885450035, -1.45, 0.776, -0.754], a = 0.2, v = 0.2, t = 0.2)
movej(p[0.419361545719283, 0.24742691144281, 0.315281360189306, -1.45, 0.776, -0.754], a = 0.2, v = 0.2, t = 0.2)
movej(p[0.419380477284083, 0.247435189447021, 0.31622919166769, -1.45, 0.776, -0.754], a = 0.2, v = 0.2, t = 0.2)
movej(p[0.419395916301584, 0.24744194030218, 0.317002164580235, -1.45, 0.776, -0.754], a = 0.2, v = 0.2, t = 0.2)
movej(p[0.419409317093143, 0.247447799923935, 0.317673091268478, -1.45, 0.776, -0.754], a = 0.2, v = 0.2, t = 0.2)
movej(p[0.419393479134621, 0.247440874628074, 0.316880144895661, -1.45, 0.776, -0.754], a = 0.2, v = 0.2, t = 0.2)
movej(p[0.419363605705644, 0.247427812191161, 0.315384495875077, -1.45, 0.776, -0.754], a = 0.2, v = 0.2, t = 0.2)
movej(p[0.419341522506781, 0.247418156105405, 0.31427887406054, -1.45, 0.776, -0.754], a = 0.2, v = 0.2, t = 0.2)
movej(p[0.419327037320993, 0.247411822322106, 0.313553655875738, -1.45, 0.776, -0.754], a = 0.2, v = 0.2, t = 0.2)
movej(p[0.419318742974499, 0.247408195541334, 0.313138389478983, -1.45, 0.776, -0.754], a = 0.2, v = 0.2, t = 0.2)
movej(p[0.41931314692, 0.247405748614036, 0.312858216304433, -1.45, 0.776, -0.754], a = 0.2, v = 0.2, t = 0.2)
movej(p[0.419312167701131, 0.247405320441404, 0.31280919053831, -1.45, 0.776, -0.754], a = 0.2, v = 0.2, t = 0.2)
movej(p[0.41931187393547, 0.247405191989615, 0.312794482808473, -1.45, 0.776, -0.754], a = 0.2, v = 0.2, t = 0.2)
movej(p[0.41931126464373, 0.247404925571088, 0.31276397788733, -1.45, 0.776, -0.754], a = 0.2, v = 0.2, t = 0.2)
movej(p[0.419325194938825, 0.247411016723229, 0.313461414804662, -1.45, 0.776, -0.754], a = 0.2, v = 0.2, t = 0.2)
movej(p[0.419346668845948, 0.247420406390458, 0.314536531698055, -1.45, 0.776, -0.754], a = 0.2, v = 0.2, t = 0.2)
movej(p[0.419365934070511, 0.247428830290529, 0.315501068252303, -1.45, 0.776, -0.754], a = 0.2, v = 0.2, t = 0.2)
movej(p[0.419383828388657, 0.247436654748916, 0.316396968733979, -1.45, 0.776, -0.754], a = 0.2, v = 0.2, t = 0.2)
movej(p[0.419402665658307, 0.247444891521689, 0.317340079212662, -1.45, 0.776, -0.754], a = 0.2, v = 0.2, t = 0.2)
movej(p[0.419414506953148, 0.247450069238882, 0.317932927828931, -1.45, 0.776, -0.754], a = 0.2, v = 0.2, t = 0.2)
movej(p[0.419401251231052, 0.24744427305011, 0.317269264217151, -1.45, 0.776, -0.754], a = 0.2, v = 0.2, t = 0.2)
movej(p[0.419375058939675, 0.247432820225126, 0.315957915761808, -1.45, 0.776, -0.754], a = 0.2, v = 0.2, t = 0.2)
movej(p[0.419350549454058, 0.247422103222739, 0.314730818993432, -1.45, 0.776, -0.754], a = 0.2, v = 0.2, t = 0.2)
movej(p[0.419331770212193, 0.247413891823159, 0.313790613745334, -1.45, 0.776, -0.754], a = 0.2, v = 0.2, t = 0.2)
movej(p[0.419319395787079, 0.247408480989755, 0.313171073323065, -1.45, 0.776, -0.754], a = 0.2, v = 0.2, t = 0.2)
movej(p[0.41931578718421, 0.247406903094316, 0.312990404296055, -1.45, 0.776, -0.754], a = 0.2, v = 0.2, t = 0.2)
movej(p[0.419313944802041, 0.247406097495439, 0.312898163224978, -1.45, 0.776, -0.754], a = 0.2, v = 0.2, t = 0.2)
movej(p[0.419311373445826, 0.247404973145825, 0.312769425194677, -1.45, 0.776, -0.754], a = 0.2, v = 0.2, t = 0.2)
movej(p[0.419311228376364, 0.247404909712843, 0.312762162118214, -1.45, 0.776, -0.754], a = 0.2, v = 0.2, t = 0.2)
movej(p[0.419313125159581, 0.247405739099088, 0.312857126842964, -1.45, 0.776, -0.754], a = 0.2, v = 0.2, t = 0.2)
movej(p[0.419327338340127, 0.247411953945545, 0.313568726759398, -1.45, 0.776, -0.754], a = 0.2, v = 0.2, t = 0.2)
movej(p[0.419342947814246, 0.247418779334458, 0.314350233786786, -1.45, 0.776, -0.754], a = 0.2, v = 0.2, t = 0.2)
movej(p[0.419365890549672, 0.247428811260634, 0.315498889329364, -1.45, 0.776, -0.754], a = 0.2, v = 0.2, t = 0.2)
movej(p[0.419387596567934, 0.247438302420635, 0.316585627145098, -1.45, 0.776, -0.754], a = 0.2, v = 0.2, t = 0.2)
movej(p[0.419401175069584, 0.247444239747794, 0.317265451102008, -1.45, 0.776, -0.754], a = 0.2, v = 0.2, t = 0.2)
movej(p[0.419412954709904, 0.24744939050597, 0.31785521291078, -1.45, 0.776, -0.754], a = 0.2, v = 0.2, t = 0.2)
movej(p[0.419395782112332, 0.247441881626671, 0.316995446234507, -1.45, 0.776, -0.754], a = 0.2, v = 0.2, t = 0.2)
movej(p[0.419365197842991, 0.247428508368143, 0.315464208139255, -1.45, 0.776, -0.754], a = 0.2, v = 0.2, t = 0.2)
movej(p[0.419338113374422, 0.247416665430317, 0.314108191763666, -1.45, 0.776, -0.754], a = 0.2, v = 0.2, t = 0.2)
movej(p[0.419326079862544, 0.247411403664422, 0.313505719571084, -1.45, 0.776, -0.754], a = 0.2, v = 0.2, t = 0.2)
movej(p[0.419319598884326, 0.247408569795931, 0.313181241630113, -1.45, 0.776, -0.754], a = 0.2, v = 0.2, t = 0.2)
movej(p[0.419314035470455, 0.247406137141053, 0.312902702647767, -1.45, 0.776, -0.754], a = 0.2, v = 0.2, t = 0.2)
movej(p[0.419312541254996, 0.247405483781334, 0.312827892960202, -1.45, 0.776, -0.754], a = 0.2, v = 0.2, t = 0.2)
movej(p[0.419312646430356, 0.247405529770246, 0.312833158690637, -1.45, 0.776, -0.754], a = 0.2, v = 0.2, t = 0.2)
movej(p[0.419317110943051, 0.247407481920281, 0.313056679868777, -1.45, 0.776, -0.754], a = 0.2, v = 0.2, t = 0.2)
movej(p[0.419329996738019, 0.247413116354949, 0.313701822635578, -1.45, 0.776, -0.754], a = 0.2, v = 0.2, t = 0.2)
movej(p[0.419351677369126, 0.247422596414178, 0.31478728941293, -1.45, 0.776, -0.754], a = 0.2, v = 0.2, t = 0.2)
movej(p[0.419375922102974, 0.247433197651372, 0.316001131066761, -1.45, 0.776, -0.754], a = 0.2, v = 0.2, t = 0.2)
movej(p[0.419394512754538, 0.247441326588074, 0.316931894315458, -1.45, 0.776, -0.754], a = 0.2, v = 0.2, t = 0.2)
movej(p[0.419412519501518, 0.247449200207022, 0.317833423681392, -1.45, 0.776, -0.754], a = 0.2, v = 0.2, t = 0.2)
movej(p[0.41941487325354, 0.247450229407163, 0.317951267097, -1.45, 0.776, -0.754], a = 0.2, v = 0.2, t = 0.2)
movej(p[0.41938720125365, 0.247438129565758, 0.316565835261737, -1.45, 0.776, -0.754], a = 0.2, v = 0.2, t = 0.2)
movej(p[0.419355913397418, 0.247424448657266, 0.314999371245641, -1.45, 0.776, -0.754], a = 0.2, v = 0.2, t = 0.2)
movej(p[0.419338211296309, 0.247416708247581, 0.314113094340279, -1.45, 0.776, -0.754], a = 0.2, v = 0.2, t = 0.2)
movej(p[0.419326232185479, 0.247411470269054, 0.31351334580137, -1.45, 0.776, -0.754], a = 0.2, v = 0.2, t = 0.2)
movej(p[0.419318630545666, 0.247408146380773, 0.313132760594724, -1.45, 0.776, -0.754], a = 0.2, v = 0.2, t = 0.2)
movej(p[0.419313611142279, 0.24740595159958, 0.312881458149114, -1.45, 0.776, -0.754], a = 0.2, v = 0.2, t = 0.2)
movej(p[0.419312773366135, 0.247405585274106, 0.312839513882542, -1.45, 0.776, -0.754], a = 0.2, v = 0.2, t = 0.2)
movej(p[0.419312969209909, 0.247405670908632, 0.312849319035767, -1.45, 0.776, -0.754], a = 0.2, v = 0.2, t = 0.2)
movej(p[0.419315373736243, 0.247406722310316, 0.312969704528136, -1.45, 0.776, -0.754], a = 0.2, v = 0.2, t = 0.2)
movej(p[0.419333014182831, 0.247414435760984, 0.313852894626002, -1.45, 0.776, -0.754], a = 0.2, v = 0.2, t = 0.2)
movej(p[0.419352805284193, 0.247423089605616, 0.314843759832428, -1.45, 0.776, -0.754], a = 0.2, v = 0.2, t = 0.2)
movej(p[0.419372182937589, 0.247431562666249, 0.315813925270935, -1.45, 0.776, -0.754], a = 0.2, v = 0.2, t = 0.2)
movej(p[0.419388586667013, 0.247438735350741, 0.316635197641956, -1.45, 0.776, -0.754], a = 0.2, v = 0.2, t = 0.2)
movej(p[0.419407587139807, 0.247447043485619, 0.31758647908166, -1.45, 0.776, -0.754], a = 0.2, v = 0.2, t = 0.2)
movej(p[0.419412987350533, 0.247449404778391, 0.317856847102984, -1.45, 0.776, -0.754], a = 0.2, v = 0.2, t = 0.2)
movej(p[0.419392949631085, 0.247440643097688, 0.316853634666572, -1.45, 0.776, -0.754], a = 0.2, v = 0.2, t = 0.2)
movej(p[0.419370706855813, 0.247430917235652, 0.315740023467927, -1.45, 0.776, -0.754], a = 0.2, v = 0.2, t = 0.2)
movej(p[0.419349526714351, 0.247421656020213, 0.31467961430437, -1.45, 0.776, -0.754], a = 0.2, v = 0.2, t = 0.2)
movej(p[0.419333489285319, 0.247414643504001, 0.313876681201417, -1.45, 0.776, -0.754], a = 0.2, v = 0.2, t = 0.2)
movej(p[0.41932019366912, 0.247408829871159, 0.31321102024361, -1.45, 0.776, -0.754], a = 0.2, v = 0.2, t = 0.2)
movej(p[0.419316146231128, 0.247407060090948, 0.3130083804103, -1.45, 0.776, -0.754], a = 0.2, v = 0.2, t = 0.2)
movej(p[0.419314546840309, 0.247406360742316, 0.312928304992299, -1.45, 0.776, -0.754], a = 0.2, v = 0.2, t = 0.2)
movej(p[0.419312806006764, 0.247405599546527, 0.312841148074746, -1.45, 0.776, -0.754], a = 0.2, v = 0.2, t = 0.2)
movej(p[0.41931284227413, 0.247405615404772, 0.312842963843862, -1.45, 0.776, -0.754], a = 0.2, v = 0.2, t = 0.2)
movej(p[0.419324233853639, 0.24741059647972, 0.313413296923096, -1.45, 0.776, -0.754], a = 0.2, v = 0.2, t = 0.2)
movej(p[0.419341011136927, 0.247417932504142, 0.314253271716009, -1.45, 0.776, -0.754], a = 0.2, v = 0.2, t = 0.2)
movej(p[0.419357675991382, 0.247425219368003, 0.315087617624663, -1.45, 0.776, -0.754], a = 0.2, v = 0.2, t = 0.2)
movej(p[0.419379915139918, 0.247434943644214, 0.316201047246397, -1.45, 0.776, -0.754], a = 0.2, v = 0.2, t = 0.2)
movej(p[0.419400594791736, 0.247443986015864, 0.317236398796157, -1.45, 0.776, -0.754], a = 0.2, v = 0.2, t = 0.2)
movej(p[0.419411921089987, 0.24744893854597, 0.317803463490983, -1.45, 0.776, -0.754], a = 0.2, v = 0.2, t = 0.2)
movej(p[0.419396721437098, 0.247442292355232, 0.317042474654603, -1.45, 0.776, -0.754], a = 0.2, v = 0.2, t = 0.2)
movej(p[0.419371069529468, 0.247431075818108, 0.315758181159083, -1.45, 0.776, -0.754], a = 0.2, v = 0.2, t = 0.2)
movej(p[0.41934692997098, 0.247420520569827, 0.314549605235688, -1.45, 0.776, -0.754], a = 0.2, v = 0.2, t = 0.2)
movej(p[0.419327838829771, 0.247412172789335, 0.313593784373195, -1.45, 0.776, -0.754], a = 0.2, v = 0.2, t = 0.2)
movej(p[0.419320037719448, 0.247408761680703, 0.313203212436412, -1.45, 0.776, -0.754], a = 0.2, v = 0.2, t = 0.2)
movej(p[0.419316157111338, 0.247407064848422, 0.313008925141035, -1.45, 0.776, -0.754], a = 0.2, v = 0.2, t = 0.2)
movej(p[0.419314474305578, 0.247406329025825, 0.312924673454067, -1.45, 0.776, -0.754], a = 0.2, v = 0.2, t = 0.2)
movej(p[0.419311362565617, 0.247404968388351, 0.312768880463942, -1.45, 0.776, -0.754], a = 0.2, v = 0.2, t = 0.2)
movej(p[0.419312762485926, 0.247405580516632, 0.312838969151807, -1.45, 0.776, -0.754], a = 0.2, v = 0.2, t = 0.2)
movej(p[0.419325122404094, 0.247410985006738, 0.31345778326643, -1.45, 0.776, -0.754], a = 0.2, v = 0.2, t = 0.2)
movej(p[0.419339143367603, 0.247417115804493, 0.314159759606552, -1.45, 0.776, -0.754], a = 0.2, v = 0.2, t = 0.2)
movej(p[0.419360464951791, 0.24742643886709, 0.315227250269659, -1.45, 0.776, -0.754], a = 0.2, v = 0.2, t = 0.2)
movej(p[0.419384463067554, 0.247436932268214, 0.316428744693503, -1.45, 0.776, -0.754], a = 0.2, v = 0.2, t = 0.2)
movej(p[0.419403953149783, 0.247445454489408, 0.317404539016269, -1.45, 0.776, -0.754], a = 0.2, v = 0.2, t = 0.2)
movej(p[0.41941141334687, 0.247448716530531, 0.317778042723364, -1.45, 0.776, -0.754], a = 0.2, v = 0.2, t = 0.2)
movej(p[0.419396474819013, 0.247442184519162, 0.317030127424616, -1.45, 0.776, -0.754], a = 0.2, v = 0.2, t = 0.2)
movej(p[0.419370086683862, 0.247430646059652, 0.315708973816048, -1.45, 0.776, -0.754], a = 0.2, v = 0.2, t = 0.2)
movej(p[0.419345094842284, 0.247419718142598, 0.314457727318434, -1.45, 0.776, -0.754], a = 0.2, v = 0.2, t = 0.2)
movej(p[0.419327117109197, 0.247411857210247, 0.313557650567793, -1.45, 0.776, -0.754], a = 0.2, v = 0.2, t = 0.2)
movej(p[0.419320113880916, 0.247408794983018, 0.313207025551555, -1.45, 0.776, -0.754], a = 0.2, v = 0.2, t = 0.2)
movej(p[0.419316305807537, 0.247407129867229, 0.313016369794409, -1.45, 0.776, -0.754], a = 0.2, v = 0.2, t = 0.2)
movej(p[0.41931229463691, 0.247405375945264, 0.312815545730215, -1.45, 0.776, -0.754], a = 0.2, v = 0.2, t = 0.2)
movej(p[0.419311587423283, 0.247405066709474, 0.312780138232459, -1.45, 0.776, -0.754], a = 0.2, v = 0.2, t = 0.2)
movej(p[0.419311714359062, 0.247405122213334, 0.312786493424364, -1.45, 0.776, -0.754], a = 0.2, v = 0.2, t = 0.2)
movej(p[0.419317691220899, 0.247407735652211, 0.313085732174628, -1.45, 0.776, -0.754], a = 0.2, v = 0.2, t = 0.2)
movej(p[0.419328506149297, 0.247412464581054, 0.313627194524923, -1.45, 0.776, -0.754], a = 0.2, v = 0.2, t = 0.2)
movej(p[0.41935174627712, 0.247422626544844, 0.31479073937425, -1.45, 0.776, -0.754], a = 0.2, v = 0.2, t = 0.2)
movej(p[0.419373049727625, 0.247431941678319, 0.315857322152799, -1.45, 0.776, -0.754], a = 0.2, v = 0.2, t = 0.2)
movej(p[0.419386526680652, 0.24743783460239, 0.316532061956185, -1.45, 0.776, -0.754], a = 0.2, v = 0.2, t = 0.2)
movej(p[0.419403615863283, 0.247445307007724, 0.317387652363493, -1.45, 0.776, -0.754], a = 0.2, v = 0.2, t = 0.2)
movej(p[0.41942255105482, 0.24745358659776, 0.318335665418789, -1.45, 0.776, -0.754], a = 0.2, v = 0.2, t = 0.2)
movej(p[0.419431918915333, 0.247457682782602, 0.318804678581368, -1.45, 0.776, -0.754], a = 0.2, v = 0.2, t = 0.2)
movej(p[0.419401711826594, 0.247444474449829, 0.31729232448492, -1.45, 0.776, -0.754], a = 0.2, v = 0.2, t = 0.2)
movej(p[0.419372008854235, 0.24743148654667, 0.315805209579179, -1.45, 0.776, -0.754], a = 0.2, v = 0.2, t = 0.2)
movej(p[0.419350357237021, 0.247422019174037, 0.314721195417119, -1.45, 0.776, -0.754], a = 0.2, v = 0.2, t = 0.2)
movej(p[0.419331335003807, 0.247413701524212, 0.313768824515946, -1.45, 0.776, -0.754], a = 0.2, v = 0.2, t = 0.2)
movej(p[0.419320792080651, 0.247409091532211, 0.313240980434018, -1.45, 0.776, -0.754], a = 0.2, v = 0.2, t = 0.2)
movej(p[0.41931619700544, 0.247407082292492, 0.313010922487062, -1.45, 0.776, -0.754], a = 0.2, v = 0.2, t = 0.2)
movej(p[0.419313955682251, 0.247406102252913, 0.312898707955713, -1.45, 0.776, -0.754], a = 0.2, v = 0.2, t = 0.2)
movej(p[0.41931084394229, 0.247404741615439, 0.312742914965588, -1.45, 0.776, -0.754], a = 0.2, v = 0.2, t = 0.2)
movej(p[0.419311086933639, 0.247404847865685, 0.312755080618663, -1.45, 0.776, -0.754], a = 0.2, v = 0.2, t = 0.2)
movej(p[0.419310840315553, 0.247404740029615, 0.312742733388676, -1.45, 0.776, -0.754], a = 0.2, v = 0.2, t = 0.2)
movej(p[0.419311007145435, 0.247404812977544, 0.312751085926608, -1.45, 0.776, -0.754], a = 0.2, v = 0.2, t = 0.2)
movej(p[0.419315243173727, 0.247406665220632, 0.31296316775932, -1.45, 0.776, -0.754], a = 0.2, v = 0.2, t = 0.2)
movej(p[0.419333304321755, 0.247414562626949, 0.313867420778927, -1.45, 0.776, -0.754], a = 0.2, v = 0.2, t = 0.2)
movej(p[0.419355119142113, 0.247424101361687, 0.314959605902008, -1.45, 0.776, -0.754], a = 0.2, v = 0.2, t = 0.2)
movej(p[0.41937079389749, 0.247430955295442, 0.315744381313804, -1.45, 0.776, -0.754], a = 0.2, v = 0.2, t = 0.2)
movej(p[0.419391974038952, 0.247440216510881, 0.31680479047736, -1.45, 0.776, -0.754], a = 0.2, v = 0.2, t = 0.2)
movej(p[0.419409371494191, 0.247447823711303, 0.317675814922151, -1.45, 0.776, -0.754], a = 0.2, v = 0.2, t = 0.2)
movej(p[0.41940192580405, 0.247444568013478, 0.317303037522702, -1.45, 0.776, -0.754], a = 0.2, v = 0.2, t = 0.2)
movej(p[0.419371490230908, 0.247431259773758, 0.315779244080825, -1.45, 0.776, -0.754], a = 0.2, v = 0.2, t = 0.2)
movej(p[0.419349693544232, 0.247421728968143, 0.314687966842302, -1.45, 0.776, -0.754], a = 0.2, v = 0.2, t = 0.2)
movej(p[0.419334247273258, 0.247414974941335, 0.313914630775935, -1.45, 0.776, -0.754], a = 0.2, v = 0.2, t = 0.2)
movej(p[0.419322536540933, 0.247409854313826, 0.313328318928483, -1.45, 0.776, -0.754], a = 0.2, v = 0.2, t = 0.2)
movej(p[0.419315308454985, 0.247406693765474, 0.312966436143728, -1.45, 0.776, -0.754], a = 0.2, v = 0.2, t = 0.2)
movej(p[0.419313223081468, 0.247405781916351, 0.312862029419576, -1.45, 0.776, -0.754], a = 0.2, v = 0.2, t = 0.2)
movej(p[0.419313350017247, 0.247405837420211, 0.312868384611481, -1.45, 0.776, -0.754], a = 0.2, v = 0.2, t = 0.2)
movej(p[0.419319305118665, 0.247408441344141, 0.313166533900276, -1.45, 0.776, -0.754], a = 0.2, v = 0.2, t = 0.2)
movej(p[0.419341011136927, 0.247417932504142, 0.314253271716009, -1.45, 0.776, -0.754], a = 0.2, v = 0.2, t = 0.2)
movej(p[0.419367722051631, 0.247429612102038, 0.315590585669706, -1.45, 0.776, -0.754], a = 0.2, v = 0.2, t = 0.2)
movej(p[0.419390584998853, 0.247439609140074, 0.31673524652023, -1.45, 0.776, -0.754], a = 0.2, v = 0.2, t = 0.2)
movej(p[0.419406734856718, 0.247446670816847, 0.317543808507441, -1.45, 0.776, -0.754], a = 0.2, v = 0.2, t = 0.2)
movej(p[0.419422152113799, 0.247453412157058, 0.318315691958516, -1.45, 0.776, -0.754], a = 0.2, v = 0.2, t = 0.2)
movej(p[0.419404413745325, 0.247445655889127, 0.317427599284038, -1.45, 0.776, -0.754], a = 0.2, v = 0.2, t = 0.2)
movej(p[0.419373720673887, 0.247432235055863, 0.315890913881439, -1.45, 0.776, -0.754], a = 0.2, v = 0.2, t = 0.2)
movej(p[0.4193536394336, 0.247423454345265, 0.314885522522088, -1.45, 0.776, -0.754], a = 0.2, v = 0.2, t = 0.2)
movej(p[0.419339603963145, 0.247417317204212, 0.314182819874321, -1.45, 0.776, -0.754], a = 0.2, v = 0.2, t = 0.2)
movej(p[0.419331748451774, 0.247413882308212, 0.313789524283865, -1.45, 0.776, -0.754], a = 0.2, v = 0.2, t = 0.2)
movej(p[0.419327363727283, 0.247411965046317, 0.313569997797779, -1.45, 0.776, -0.754], a = 0.2, v = 0.2, t = 0.2)
movej(p[0.419331001344044, 0.247413555628352, 0.313752119440082, -1.45, 0.776, -0.754], a = 0.2, v = 0.2, t = 0.2)
movej(p[0.419356138255084, 0.247424546978388, 0.315010629014158, -1.45, 0.776, -0.754], a = 0.2, v = 0.2, t = 0.2)
movej(p[0.419383501982367, 0.247436512024705, 0.316380626811938, -1.45, 0.776, -0.754], a = 0.2, v = 0.2, t = 0.2)
movej(p[0.419408932659068, 0.247447631826531, 0.317653844115852, -1.45, 0.776, -0.754], a = 0.2, v = 0.2, t = 0.2)
movej(p[0.419432194547311, 0.247457803305269, 0.318818478426648, -1.45, 0.776, -0.754], a = 0.2, v = 0.2, t = 0.2)
movej(p[0.419462992794108, 0.247471270127446, 0.320360429559682, -1.45, 0.776, -0.754], a = 0.2, v = 0.2, t = 0.2)
movej(p[0.419493007665811, 0.247484394411517, 0.321863160079817, -1.45, 0.776, -0.754], a = 0.2, v = 0.2, t = 0.2)
movej(p[0.419499688114539, 0.24748731550036, 0.322197624750925, -1.45, 0.776, -0.754], a = 0.2, v = 0.2, t = 0.2)
movej(p[0.419455126402528, 0.247467830473972, 0.319966589238491, -1.45, 0.776, -0.754], a = 0.2, v = 0.2, t = 0.2)
movej(p[0.419417277779874, 0.247451280808847, 0.318071652589369, -1.45, 0.776, -0.754], a = 0.2, v = 0.2, t = 0.2)
movej(p[0.419390559611697, 0.247439598039302, 0.316733975481849, -1.45, 0.776, -0.754], a = 0.2, v = 0.2, t = 0.2)
movej(p[0.41937195082645, 0.247431461173477, 0.315802304348594, -1.45, 0.776, -0.754], a = 0.2, v = 0.2, t = 0.2)
movej(p[0.419356022199515, 0.247424496232002, 0.315004818552988, -1.45, 0.776, -0.754], a = 0.2, v = 0.2, t = 0.2)
movej(p[0.419340837053573, 0.247417856384563, 0.314244556024254, -1.45, 0.776, -0.754], a = 0.2, v = 0.2, t = 0.2)
movej(p[0.41933218366016, 0.247414072607159, 0.313811313513253, -1.45, 0.776, -0.754], a = 0.2, v = 0.2, t = 0.2)
movej(p[0.419325038989153, 0.247410948532773, 0.313453606997464, -1.45, 0.776, -0.754], a = 0.2, v = 0.2, t = 0.2)
movej(p[0.419320316978163, 0.247408883789194, 0.313217193858603, -1.45, 0.776, -0.754], a = 0.2, v = 0.2, t = 0.2)
movej(p[0.419316004788403, 0.24740699824379, 0.313001298910749, -1.45, 0.776, -0.754], a = 0.2, v = 0.2, t = 0.2)
movej(p[0.41931849998315, 0.247408089291089, 0.313126223825907, -1.45, 0.776, -0.754], a = 0.2, v = 0.2, t = 0.2)
movej(p[0.419338146015051, 0.247416679702739, 0.31410982595587, -1.45, 0.776, -0.754], a = 0.2, v = 0.2, t = 0.2)
movej(p[0.419357255289942, 0.247425035412353, 0.315066554702921, -1.45, 0.776, -0.754], a = 0.2, v = 0.2, t = 0.2)
movej(p[0.419382910824309, 0.247436253535302, 0.316351029775352, -1.45, 0.776, -0.754], a = 0.2, v = 0.2, t = 0.2)
movej(p[0.419401817001954, 0.247444520438741, 0.317297590215355, -1.45, 0.776, -0.754], a = 0.2, v = 0.2, t = 0.2)
movej(p[0.419399154977325, 0.247443356443513, 0.317164312762265, -1.45, 0.776, -0.754], a = 0.2, v = 0.2, t = 0.2)
movej(p[0.419365825268414, 0.247428782715792, 0.315495620944956, -1.45, 0.776, -0.754], a = 0.2, v = 0.2, t = 0.2)
movej(p[0.419342324015559, 0.247418506572633, 0.314319002557997, -1.45, 0.776, -0.754], a = 0.2, v = 0.2, t = 0.2)
movej(p[0.419327399994648, 0.247411980904563, 0.313571813566895, -1.45, 0.776, -0.754], a = 0.2, v = 0.2, t = 0.2)
movej(p[0.419318434701893, 0.247408060746246, 0.313122955441499, -1.45, 0.776, -0.754], a = 0.2, v = 0.2, t = 0.2)
movej(p[0.419314506946207, 0.247406343298246, 0.312926307646271, -1.45, 0.776, -0.754], a = 0.2, v = 0.2, t = 0.2)
movej(p[0.419313197694312, 0.24740577081558, 0.312860758381195, -1.45, 0.776, -0.754], a = 0.2, v = 0.2, t = 0.2)
movej(p[0.419313698183956, 0.247405989659369, 0.312885815994992, -1.45, 0.776, -0.754], a = 0.2, v = 0.2, t = 0.2)
movej(p[0.419320371379211, 0.247408907576562, 0.313219917512277, -1.45, 0.776, -0.754], a = 0.2, v = 0.2, t = 0.2)
movej(p[0.419342276867984, 0.247418485956914, 0.314316642058146, -1.45, 0.776, -0.754], a = 0.2, v = 0.2, t = 0.2)
movej(p[0.419362952893065, 0.24742752674274, 0.315351812030994, -1.45, 0.776, -0.754], a = 0.2, v = 0.2, t = 0.2)
movej(p[0.419381811923134, 0.24743577303046, 0.316296011971147, -1.45, 0.776, -0.754], a = 0.2, v = 0.2, t = 0.2)
movej(p[0.419400203104188, 0.247443814746811, 0.317216788489708, -1.45, 0.776, -0.754], a = 0.2, v = 0.2, t = 0.2)
movej(p[0.419408939912541, 0.24744763499818, 0.317654207269675, -1.45, 0.776, -0.754], a = 0.2, v = 0.2, t = 0.2)
movej(p[0.419386316329932, 0.247437742624565, 0.316521530495314, -1.45, 0.776, -0.754], a = 0.2, v = 0.2, t = 0.2)
movej(p[0.419353574152342, 0.247423425800423, 0.31488225413768, -1.45, 0.776, -0.754], a = 0.2, v = 0.2, t = 0.2)
movej(p[0.419335581912309, 0.247415558524773, 0.313981451079392, -1.45, 0.776, -0.754], a = 0.2, v = 0.2, t = 0.2)
movej(p[0.419324154065435, 0.24741056159158, 0.313409302231042, -1.45, 0.776, -0.754], a = 0.2, v = 0.2, t = 0.2)
movej(p[0.419318677693241, 0.247408166996492, 0.313135121094574, -1.45, 0.776, -0.754], a = 0.2, v = 0.2, t = 0.2)
movej(p[0.419313400791559, 0.247405859621755, 0.312870926688243, -1.45, 0.776, -0.754], a = 0.2, v = 0.2, t = 0.2)
movej(p[0.419312733472033, 0.247405567830036, 0.312837516536515, -1.45, 0.776, -0.754], a = 0.2, v = 0.2, t = 0.2)
movej(p[0.419314006456563, 0.247406124454457, 0.312901250032475, -1.45, 0.776, -0.754], a = 0.2, v = 0.2, t = 0.2)
movej(p[0.419322471259675, 0.247409825768983, 0.313325050544074, -1.45, 0.776, -0.754], a = 0.2, v = 0.2, t = 0.2)
movej(p[0.419340982123035, 0.247417919817546, 0.314251819100717, -1.45, 0.776, -0.754], a = 0.2, v = 0.2, t = 0.2)
movej(p[0.419362329094378, 0.247427253980915, 0.315320580802205, -1.45, 0.776, -0.754], a = 0.2, v = 0.2, t = 0.2)
movej(p[0.419379436410693, 0.247434734315372, 0.31617707909407, -1.45, 0.776, -0.754], a = 0.2, v = 0.2, t = 0.2)
movej(p[0.419392380233446, 0.247440394123232, 0.316825127091456, -1.45, 0.776, -0.754], a = 0.2, v = 0.2, t = 0.2)
movej(p[0.419395858273799, 0.247441914928987, 0.316999259349649, -1.45, 0.776, -0.754], a = 0.2, v = 0.2, t = 0.2)
movej(p[0.41937247670325, 0.247431691118038, 0.315828633000772, -1.45, 0.776, -0.754], a = 0.2, v = 0.2, t = 0.2)
movej(p[0.419349008091024, 0.2474214292473, 0.314653648806016, -1.45, 0.776, -0.754], a = 0.2, v = 0.2, t = 0.2)
movej(p[0.419329510755322, 0.247412903854457, 0.313677491329427, -1.45, 0.776, -0.754], a = 0.2, v = 0.2, t = 0.2)
movej(p[0.419321901862036, 0.247409576794527, 0.313296542968958, -1.45, 0.776, -0.754], a = 0.2, v = 0.2, t = 0.2)
movej(p[0.419317807276469, 0.247407786398597, 0.313091542635798, -1.45, 0.776, -0.754], a = 0.2, v = 0.2, t = 0.2)
movej(p[0.419314253074648, 0.247406232290527, 0.312913597262462, -1.45, 0.776, -0.754], a = 0.2, v = 0.2, t = 0.2)
movej(p[0.419312116926819, 0.24740529823986, 0.312806648461548, -1.45, 0.776, -0.754], a = 0.2, v = 0.2, t = 0.2)
movej(p[0.419311935589992, 0.247405218948632, 0.31279756961597, -1.45, 0.776, -0.754], a = 0.2, v = 0.2, t = 0.2)
movej(p[0.419311917456309, 0.247405211019509, 0.312796661731412, -1.45, 0.776, -0.754], a = 0.2, v = 0.2, t = 0.2)
movej(p[0.41930968701333, 0.247404235737404, 0.312684991930798, -1.45, 0.776, -0.754], a = 0.2, v = 0.2, t = 0.2)
movej(p[0.419313574874913, 0.247405935741334, 0.312879642379998, -1.45, 0.776, -0.754], a = 0.2, v = 0.2, t = 0.2)
movej(p[0.419325760709727, 0.247411264111861, 0.313489740802866, -1.45, 0.776, -0.754], a = 0.2, v = 0.2, t = 0.2)
movej(p[0.419341130819233, 0.247417984836353, 0.314259263754091, -1.45, 0.776, -0.754], a = 0.2, v = 0.2, t = 0.2)
movej(p[0.419357839194527, 0.247425290730108, 0.315095788585684, -1.45, 0.776, -0.754], a = 0.2, v = 0.2, t = 0.2)
movej(p[0.419379541586053, 0.247434780304284, 0.316182344824506, -1.45, 0.776, -0.754], a = 0.2, v = 0.2, t = 0.2)
movej(p[0.419400116062511, 0.247443776687022, 0.31721243064383, -1.45, 0.776, -0.754], a = 0.2, v = 0.2, t = 0.2)
movej(p[0.41940994089183, 0.247448072685759, 0.317704322497267, -1.45, 0.776, -0.754], a = 0.2, v = 0.2, t = 0.2)
movej(p[0.419387741637396, 0.247438365853618, 0.316592890221561, -1.45, 0.776, -0.754], a = 0.2, v = 0.2, t = 0.2)
movej(p[0.419361973674196, 0.247427098570108, 0.315302786264871, -1.45, 0.776, -0.754], a = 0.2, v = 0.2, t = 0.2)
movej(p[0.419340648463272, 0.247417773921686, 0.314235114024852, -1.45, 0.776, -0.754], a = 0.2, v = 0.2, t = 0.2)
movej(p[0.419324553006455, 0.247410736032282, 0.313429275691314, -1.45, 0.776, -0.754], a = 0.2, v = 0.2, t = 0.2)
movej(p[0.419318075654974, 0.247407903749615, 0.313104979327254, -1.45, 0.776, -0.754], a = 0.2, v = 0.2, t = 0.2)
movej(p[0.419315301201512, 0.247406690593825, 0.312966072989905, -1.45, 0.776, -0.754], a = 0.2, v = 0.2, t = 0.2)
movej(p[0.419313966562461, 0.247406107010387, 0.312899252686448, -1.45, 0.776, -0.754], a = 0.2, v = 0.2, t = 0.2)
movej(p[0.419311184855526, 0.247404890682948, 0.312759983195275, -1.45, 0.776, -0.754], a = 0.2, v = 0.2, t = 0.2)
movej(p[0.419311522142025, 0.247405038164632, 0.312776869848051, -1.45, 0.776, -0.754], a = 0.2, v = 0.2, t = 0.2)
movej(p[0.419311551155917, 0.247405050851229, 0.312778322463344, -1.45, 0.776, -0.754], a = 0.2, v = 0.2, t = 0.2)
movej(p[0.41931618612523, 0.247407077535018, 0.313010377756327, -1.45, 0.776, -0.754], a = 0.2, v = 0.2, t = 0.2)
movej(p[0.419328429987829, 0.247412431278738, 0.31362338140978, -1.45, 0.776, -0.754], a = 0.2, v = 0.2, t = 0.2)
movej(p[0.419347463101253, 0.247420753686037, 0.314576297041688, -1.45, 0.776, -0.754], a = 0.2, v = 0.2, t = 0.2)
movej(p[0.419366539735515, 0.247429095123231, 0.315531391596535, -1.45, 0.776, -0.754], a = 0.2, v = 0.2, t = 0.2)
movej(p[0.419380926999416, 0.247435386089267, 0.316251707204725, -1.45, 0.776, -0.754], a = 0.2, v = 0.2, t = 0.2)
movej(p[0.41939541581194, 0.24744172145839, 0.316977106966438, -1.45, 0.776, -0.754], a = 0.2, v = 0.2, t = 0.2)
movej(p[0.419401138802218, 0.247444223889548, 0.317263635332892, -1.45, 0.776, -0.754], a = 0.2, v = 0.2, t = 0.2)
movej(p[0.419378609514759, 0.247434372747372, 0.316135679558233, -1.45, 0.776, -0.754], a = 0.2, v = 0.2, t = 0.2)
movej(p[0.419348598269793, 0.247421250049125, 0.314633130615009, -1.45, 0.776, -0.754], a = 0.2, v = 0.2, t = 0.2)
movej(p[0.41933293076789, 0.247414399287019, 0.313848718357036, -1.45, 0.776, -0.754], a = 0.2, v = 0.2, t = 0.2)
movej(p[0.419324407936993, 0.247410672599299, 0.313422012614852, -1.45, 0.776, -0.754], a = 0.2, v = 0.2, t = 0.2)
movej(p[0.419318213470963, 0.247407964010948, 0.313111879249894, -1.45, 0.776, -0.754], a = 0.2, v = 0.2, t = 0.2)
movej(p[0.419313955682251, 0.247406102252913, 0.312898707955713, -1.45, 0.776, -0.754], a = 0.2, v = 0.2, t = 0.2)
movej(p[0.419313009104011, 0.247405688352702, 0.312851316381794, -1.45, 0.776, -0.754], a = 0.2, v = 0.2, t = 0.2)
movej(p[0.419312490480684, 0.24740546157979, 0.31282535088344, -1.45, 0.776, -0.754], a = 0.2, v = 0.2, t = 0.2)
movej(p[0.419310147608872, 0.247404437137123, 0.312708052198567, -1.45, 0.776, -0.754], a = 0.2, v = 0.2, t = 0.2)
movej(p[0.419310898343338, 0.247404765402808, 0.312745638619261, -1.45, 0.776, -0.754], a = 0.2, v = 0.2, t = 0.2)
movej(p[0.419318666813032, 0.247408162239018, 0.31313457636384, -1.45, 0.776, -0.754], a = 0.2, v = 0.2, t = 0.2)
movej(p[0.419333732276668, 0.247414749754247, 0.313888846854492, -1.45, 0.776, -0.754], a = 0.2, v = 0.2, t = 0.2)
movej(p[0.419346980745291, 0.24742054277137, 0.31455214731245, -1.45, 0.776, -0.754], a = 0.2, v = 0.2, t = 0.2)
movej(p[0.419366398292789, 0.247429033276073, 0.315524310096984, -1.45, 0.776, -0.754], a = 0.2, v = 0.2, t = 0.2)
movej(p[0.41938268959338, 0.247436156800004, 0.316339953583747, -1.45, 0.776, -0.754], a = 0.2, v = 0.2, t = 0.2)
movej(p[0.419393667724922, 0.247440957090951, 0.316889586895062, -1.45, 0.776, -0.754], a = 0.2, v = 0.2, t = 0.2)
movej(p[0.419399880324635, 0.247443673608425, 0.317200628144578, -1.45, 0.776, -0.754], a = 0.2, v = 0.2, t = 0.2)
movej(p[0.419377405438224, 0.247433846253617, 0.316075396023592, -1.45, 0.776, -0.754], a = 0.2, v = 0.2, t = 0.2)
movej(p[0.419352413596646, 0.247422918336564, 0.314824149525978, -1.45, 0.776, -0.754], a = 0.2, v = 0.2, t = 0.2)
movej(p[0.419331124653087, 0.247413609546387, 0.313758293055075, -1.45, 0.776, -0.754], a = 0.2, v = 0.2, t = 0.2)
movej(p[0.419322503900304, 0.247409840041405, 0.313326684736278, -1.45, 0.776, -0.754], a = 0.2, v = 0.2, t = 0.2)
movej(p[0.419317451856287, 0.24740763098779, 0.313073748098464, -1.45, 0.776, -0.754], a = 0.2, v = 0.2, t = 0.2)
movej(p[0.419314129765606, 0.247406178372492, 0.312907423647468, -1.45, 0.776, -0.754], a = 0.2, v = 0.2, t = 0.2)
movej(p[0.41931147499445, 0.247405017548913, 0.312774509348201, -1.45, 0.776, -0.754], a = 0.2, v = 0.2, t = 0.2)
movej(p[0.419311776013583, 0.247405149172351, 0.312789580231861, -1.45, 0.776, -0.754], a = 0.2, v = 0.2, t = 0.2)
movej(p[0.419320839228226, 0.247409112147931, 0.313243340933869, -1.45, 0.776, -0.754], a = 0.2, v = 0.2, t = 0.2)
movej(p[0.419335019768144, 0.247415312721966, 0.313953306658099, -1.45, 0.776, -0.754], a = 0.2, v = 0.2, t = 0.2)
movej(p[0.419355373013672, 0.247424212369406, 0.314972316285818, -1.45, 0.776, -0.754], a = 0.2, v = 0.2, t = 0.2)
movej(p[0.419375925729711, 0.247433199237196, 0.316001312643673, -1.45, 0.776, -0.754], a = 0.2, v = 0.2, t = 0.2)
movej(p[0.419392340339344, 0.247440376679162, 0.316823129745429, -1.45, 0.776, -0.754], a = 0.2, v = 0.2, t = 0.2)
movej(p[0.419399452369722, 0.247443486481127, 0.317179202069013, -1.45, 0.776, -0.754], a = 0.2, v = 0.2, t = 0.2)
movej(p[0.419380538938605, 0.247435216406039, 0.316232278475187, -1.45, 0.776, -0.754], a = 0.2, v = 0.2, t = 0.2)
movej(p[0.419353690207912, 0.247423476546809, 0.31488806459885, -1.45, 0.776, -0.754], a = 0.2, v = 0.2, t = 0.2)
movej(p[0.419332024083752, 0.247414002830879, 0.313803324129144, -1.45, 0.776, -0.754], a = 0.2, v = 0.2, t = 0.2)
movej(p[0.419322039678025, 0.247409637055861, 0.313303442891598, -1.45, 0.776, -0.754], a = 0.2, v = 0.2, t = 0.2)
movej(p[0.419317201611465, 0.247407521565895, 0.313061219291566, -1.45, 0.776, -0.754], a = 0.2, v = 0.2, t = 0.2)
movej(p[0.419314717296927, 0.247406435276071, 0.312936839107142, -1.45, 0.776, -0.754], a = 0.2, v = 0.2, t = 0.2)
movej(p[0.419311308164568, 0.247404944600983, 0.312766156810268, -1.45, 0.776, -0.754], a = 0.2, v = 0.2, t = 0.2)
movej(p[0.419311130454477, 0.247404866895579, 0.312757259541602, -1.45, 0.776, -0.754], a = 0.2, v = 0.2, t = 0.2)
movej(p[0.419313375404403, 0.247405848520983, 0.312869655649862, -1.45, 0.776, -0.754], a = 0.2, v = 0.2, t = 0.2)
movej(p[0.419323736990731, 0.247410379221755, 0.313388420886211, -1.45, 0.776, -0.754], a = 0.2, v = 0.2, t = 0.2)
movej(p[0.419343005842031, 0.247418804707651, 0.314353139017371, -1.45, 0.776, -0.754], a = 0.2, v = 0.2, t = 0.2)
movej(p[0.419364733620712, 0.247428305382599, 0.315440966294574, -1.45, 0.776, -0.754], a = 0.2, v = 0.2, t = 0.2)
movej(p[0.419382787515267, 0.247436199617267, 0.316344856160359, -1.45, 0.776, -0.754], a = 0.2, v = 0.2, t = 0.2)
movej(p[0.419395241728585, 0.247441645338811, 0.316968391274683, -1.45, 0.776, -0.754], a = 0.2, v = 0.2, t = 0.2)
movej(p[0.419401222217159, 0.247444260363513, 0.317267811601858, -1.45, 0.776, -0.754], a = 0.2, v = 0.2, t = 0.2)
movej(p[0.419378761837694, 0.247434439352003, 0.316143305788519, -1.45, 0.776, -0.754], a = 0.2, v = 0.2, t = 0.2)
movej(p[0.419348645417369, 0.247421270664844, 0.314635491114859, -1.45, 0.776, -0.754], a = 0.2, v = 0.2, t = 0.2)
movej(p[0.419330308637363, 0.247413252735861, 0.313717438249972, -1.45, 0.776, -0.754], a = 0.2, v = 0.2, t = 0.2)
movej(p[0.419321180141462, 0.24740926121544, 0.313260409163556, -1.45, 0.776, -0.754], a = 0.2, v = 0.2, t = 0.2)
movej(p[0.419316175245021, 0.247407072777545, 0.313009833025593, -1.45, 0.776, -0.754], a = 0.2, v = 0.2, t = 0.2)
movej(p[0.41931155840939, 0.247405054022878, 0.312778685617167, -1.45, 0.776, -0.754], a = 0.2, v = 0.2, t = 0.2)
movej(p[0.419311271897203, 0.247404928742737, 0.312764341041153, -1.45, 0.776, -0.754], a = 0.2, v = 0.2, t = 0.2)
movej(p[0.419311184855526, 0.247404890682948, 0.312759983195275, -1.45, 0.776, -0.754], a = 0.2, v = 0.2, t = 0.2)
movej(p[0.41931071700651, 0.247404686111579, 0.312736559773683, -1.45, 0.776, -0.754], a = 0.2, v = 0.2, t = 0.2)
movej(p[0.419309313459465, 0.247404072397474, 0.312666289508906, -1.45, 0.776, -0.754], a = 0.2, v = 0.2, t = 0.2)
movej(p[0.419316904219068, 0.247407391528281, 0.313046329984818, -1.45, 0.776, -0.754], a = 0.2, v = 0.2, t = 0.2)
movej(p[0.419332270701837, 0.247414110666949, 0.313815671359131, -1.45, 0.776, -0.754], a = 0.2, v = 0.2, t = 0.2)
movej(p[0.419345294312795, 0.247419805362949, 0.314467714048571, -1.45, 0.776, -0.754], a = 0.2, v = 0.2, t = 0.2)
movej(p[0.419361752443267, 0.24742700183481, 0.315291710073266, -1.45, 0.776, -0.754], a = 0.2, v = 0.2, t = 0.2)
movej(p[0.419379371129435, 0.24743470577053, 0.316173810709662, -1.45, 0.776, -0.754], a = 0.2, v = 0.2, t = 0.2)
movej(p[0.419392362099763, 0.247440386194109, 0.316824219206898, -1.45, 0.776, -0.754], a = 0.2, v = 0.2, t = 0.2)
movej(p[0.419389221345909, 0.247439012870039, 0.31666697360148, -1.45, 0.776, -0.754], a = 0.2, v = 0.2, t = 0.2)
movej(p[0.419367348497766, 0.247429448762108, 0.315571883247815, -1.45, 0.776, -0.754], a = 0.2, v = 0.2, t = 0.2)
movej(p[0.419344380375184, 0.24741940573516, 0.314421956666856, -1.45, 0.776, -0.754], a = 0.2, v = 0.2, t = 0.2)
movej(p[0.419326348241048, 0.24741152101544, 0.31351915626254, -1.45, 0.776, -0.754], a = 0.2, v = 0.2, t = 0.2)
movej(p[0.419319461068337, 0.247408509534597, 0.313174341707473, -1.45, 0.776, -0.754], a = 0.2, v = 0.2, t = 0.2)
movej(p[0.419315330215404, 0.247406703280422, 0.312967525605197, -1.45, 0.776, -0.754], a = 0.2, v = 0.2, t = 0.2)
movej(p[0.419313306496408, 0.247405818390316, 0.312866205688542, -1.45, 0.776, -0.754], a = 0.2, v = 0.2, t = 0.2)
movej(p[0.419309832082792, 0.247404299170386, 0.31269225500726, -1.45, 0.776, -0.754], a = 0.2, v = 0.2, t = 0.2)
movej(p[0.419309636239018, 0.24740421353586, 0.312682449854036, -1.45, 0.776, -0.754], a = 0.2, v = 0.2, t = 0.2)
movej(p[0.419309973525517, 0.247404361017544, 0.312699336506812, -1.45, 0.776, -0.754], a = 0.2, v = 0.2, t = 0.2)
movej(p[0.419310332572436, 0.247404518014176, 0.312717312621057, -1.45, 0.776, -0.754], a = 0.2, v = 0.2, t = 0.2)
movej(p[0.419323787765043, 0.247410401423299, 0.313390962962973, -1.45, 0.776, -0.754], a = 0.2, v = 0.2, t = 0.2)
movej(p[0.419339259423173, 0.247417166550879, 0.314165570067722, -1.45, 0.776, -0.754], a = 0.2, v = 0.2, t = 0.2)
movej(p[0.419355412907774, 0.247424229813476, 0.314974313631845, -1.45, 0.776, -0.754], a = 0.2, v = 0.2, t = 0.2)
movej(p[0.419368255181904, 0.247429845218249, 0.315617277475707, -1.45, 0.776, -0.754], a = 0.2, v = 0.2, t = 0.2)
movej(p[0.419384071380006, 0.247436760999162, 0.316409134387054, -1.45, 0.776, -0.754], a = 0.2, v = 0.2, t = 0.2)
movej(p[0.419395437572359, 0.247441730973337, 0.316978196427908, -1.45, 0.776, -0.754], a = 0.2, v = 0.2, t = 0.2)
movej(p[0.419376237629054, 0.247433335618109, 0.316016928258067, -1.45, 0.776, -0.754], a = 0.2, v = 0.2, t = 0.2)
movej(p[0.419352406343173, 0.247422915164915, 0.314823786372155, -1.45, 0.776, -0.754], a = 0.2, v = 0.2, t = 0.2)
movej(p[0.419335299026858, 0.247415434830458, 0.31396728808029, -1.45, 0.776, -0.754], a = 0.2, v = 0.2, t = 0.2)
movej(p[0.419324103291123, 0.247410539390036, 0.31340676015428, -1.45, 0.776, -0.754], a = 0.2, v = 0.2, t = 0.2)
movej(p[0.419315304828248, 0.24740669217965, 0.312966254566816, -1.45, 0.776, -0.754], a = 0.2, v = 0.2, t = 0.2)
movej(p[0.419313045371377, 0.247405704210948, 0.312853132150909, -1.45, 0.776, -0.754], a = 0.2, v = 0.2, t = 0.2)
movej(p[0.419312037138615, 0.24740526335172, 0.312802653769494, -1.45, 0.776, -0.754], a = 0.2, v = 0.2, t = 0.2)
movej(p[0.419310695246091, 0.247404676596632, 0.312735470312214, -1.45, 0.776, -0.754], a = 0.2, v = 0.2, t = 0.2)
movej(p[0.419314336489589, 0.247406268764492, 0.312917773531428, -1.45, 0.776, -0.754], a = 0.2, v = 0.2, t = 0.2)
movej(p[0.419330366665148, 0.247413278109054, 0.313720343480557, -1.45, 0.776, -0.754], a = 0.2, v = 0.2, t = 0.2)
movej(p[0.419346879196668, 0.247420498368283, 0.314547063158926, -1.45, 0.776, -0.754], a = 0.2, v = 0.2, t = 0.2)
movej(p[0.419361679908536, 0.247426970118318, 0.315288078535034, -1.45, 0.776, -0.754], a = 0.2, v = 0.2, t = 0.2)
movej(p[0.419381605199151, 0.24743568263846, 0.316285662087188, -1.45, 0.776, -0.754], a = 0.2, v = 0.2, t = 0.2)
movej(p[0.419399394341937, 0.247443461107934, 0.317176296838428, -1.45, 0.776, -0.754], a = 0.2, v = 0.2, t = 0.2)
movej(p[0.419403641250439, 0.247445318108496, 0.317388923401874, -1.45, 0.776, -0.754], a = 0.2, v = 0.2, t = 0.2)
movej(p[0.419375900342555, 0.247433188136424, 0.316000041605292, -1.45, 0.776, -0.754], a = 0.2, v = 0.2, t = 0.2)
movej(p[0.419353178838058, 0.247423252945546, 0.314862462254319, -1.45, 0.776, -0.754], a = 0.2, v = 0.2, t = 0.2)
movej(p[0.419334551919128, 0.247415108150598, 0.313929883236507, -1.45, 0.776, -0.754], a = 0.2, v = 0.2, t = 0.2)
movej(p[0.419320527328883, 0.247408975767018, 0.313227725319474, -1.45, 0.776, -0.754], a = 0.2, v = 0.2, t = 0.2)
movej(p[0.419315243173727, 0.247406665220632, 0.31296316775932, -1.45, 0.776, -0.754], a = 0.2, v = 0.2, t = 0.2)
movej(p[0.41931272621856, 0.247405564658387, 0.312837153382692, -1.45, 0.776, -0.754], a = 0.2, v = 0.2, t = 0.2)
movej(p[0.419311649077804, 0.247405093668492, 0.312783225039956, -1.45, 0.776, -0.754], a = 0.2, v = 0.2, t = 0.2)
movej(p[0.419308689660778, 0.24740379963565, 0.312635058280117, -1.45, 0.776, -0.754], a = 0.2, v = 0.2, t = 0.2)
movej(p[0.419308762195509, 0.247403831352141, 0.312638689818348, -1.45, 0.776, -0.754], a = 0.2, v = 0.2, t = 0.2)
movej(p[0.419311971857357, 0.247405234806878, 0.312799385385085, -1.45, 0.776, -0.754], a = 0.2, v = 0.2, t = 0.2)
movej(p[0.419322648969766, 0.247409903474387, 0.313333947812741, -1.45, 0.776, -0.754], a = 0.2, v = 0.2, t = 0.2)
movej(p[0.419338711785953, 0.24741692709137, 0.314138151954075, -1.45, 0.776, -0.754], a = 0.2, v = 0.2, t = 0.2)
movej(p[0.419359220981153, 0.247425894929266, 0.315164969388991, -1.45, 0.776, -0.754], a = 0.2, v = 0.2, t = 0.2)
movej(p[0.41937805099733, 0.247434128530389, 0.316107716713851, -1.45, 0.776, -0.754], a = 0.2, v = 0.2, t = 0.2)
movej(p[0.419392507169225, 0.247440449627092, 0.316831482283361, -1.45, 0.776, -0.754], a = 0.2, v = 0.2, t = 0.2)
movej(p[0.419405610568387, 0.247446179211233, 0.317487519664855, -1.45, 0.776, -0.754], a = 0.2, v = 0.2, t = 0.2)
movej(p[0.41939036739466, 0.2474395139906, 0.316724351905536, -1.45, 0.776, -0.754], a = 0.2, v = 0.2, t = 0.2)
movej(p[0.41935879302624, 0.247425707801967, 0.315143543313426, -1.45, 0.776, -0.754], a = 0.2, v = 0.2, t = 0.2)
movej(p[0.419333659741937, 0.247414718037756, 0.313885215316261, -1.45, 0.776, -0.754], a = 0.2, v = 0.2, t = 0.2)
movej(p[0.419322326190213, 0.247409762336001, 0.313317787467612, -1.45, 0.776, -0.754], a = 0.2, v = 0.2, t = 0.2)
movej(p[0.419316574186041, 0.247407247218246, 0.313029806485865, -1.45, 0.776, -0.754], a = 0.2, v = 0.2, t = 0.2)
movej(p[0.419311235629837, 0.247404912884492, 0.312762525272037, -1.45, 0.776, -0.754], a = 0.2, v = 0.2, t = 0.2)
movej(p[0.419310267291178, 0.247404489469334, 0.312714044236649, -1.45, 0.776, -0.754], a = 0.2, v = 0.2, t = 0.2)
movej(p[0.41931073876693, 0.247404695626527, 0.312737649235152, -1.45, 0.776, -0.754], a = 0.2, v = 0.2, t = 0.2)
movej(p[0.419321517427961, 0.247409408697124, 0.313277295816332, -1.45, 0.776, -0.754], a = 0.2, v = 0.2, t = 0.2)
movej(p[0.41933639067456, 0.247415912163651, 0.314021942730672, -1.45, 0.776, -0.754], a = 0.2, v = 0.2, t = 0.2)
movej(p[0.419356820081556, 0.247424845113406, 0.315044765473533, -1.45, 0.776, -0.754], a = 0.2, v = 0.2, t = 0.2)
movej(p[0.4193781670529, 0.247434179276775, 0.316113527175022, -1.45, 0.776, -0.754], a = 0.2, v = 0.2, t = 0.2)
movej(p[0.419393424733573, 0.247440850840706, 0.316877421241987, -1.45, 0.776, -0.754], a = 0.2, v = 0.2, t = 0.2)
movej(p[0.419406771124083, 0.247446686675092, 0.317545624276557, -1.45, 0.776, -0.754], a = 0.2, v = 0.2, t = 0.2)
movej(p[0.419396162919669, 0.24744204813825, 0.317014511810221, -1.45, 0.776, -0.754], a = 0.2, v = 0.2, t = 0.2)
movej(p[0.419367870747829, 0.247429677120845, 0.31559803032308, -1.45, 0.776, -0.754], a = 0.2, v = 0.2, t = 0.2)
movej(p[0.419339553188833, 0.247417295002668, 0.314180277797559, -1.45, 0.776, -0.754], a = 0.2, v = 0.2, t = 0.2)
movej(p[0.419326123383382, 0.247411422694317, 0.313507898494023, -1.45, 0.776, -0.754], a = 0.2, v = 0.2, t = 0.2)
movej(p[0.419318177203597, 0.247407948152703, 0.313110063480778, -1.45, 0.776, -0.754], a = 0.2, v = 0.2, t = 0.2)
movej(p[0.419313527727338, 0.247405915125615, 0.312877281880148, -1.45, 0.776, -0.754], a = 0.2, v = 0.2, t = 0.2)
movej(p[0.419310227397076, 0.247404472025264, 0.312712046890621, -1.45, 0.776, -0.754], a = 0.2, v = 0.2, t = 0.2)
movej(p[0.419310089581087, 0.24740441176393, 0.312705146967982, -1.45, 0.776, -0.754], a = 0.2, v = 0.2, t = 0.2)
movej(p[0.419314623001777, 0.247406394044632, 0.312932118107441, -1.45, 0.776, -0.754], a = 0.2, v = 0.2, t = 0.2)
movej(p[0.419328825302113, 0.247412604133615, 0.313643173293141, -1.45, 0.776, -0.754], a = 0.2, v = 0.2, t = 0.2)
movej(p[0.419350734417622, 0.247422184099792, 0.314740079415922, -1.45, 0.776, -0.754], a = 0.2, v = 0.2, t = 0.2)
movej(p[0.419372483956723, 0.247431694289687, 0.315828996154595, -1.45, 0.776, -0.754], a = 0.2, v = 0.2, t = 0.2)
movej(p[0.419390646653374, 0.247439636099092, 0.316738333327726, -1.45, 0.776, -0.754], a = 0.2, v = 0.2, t = 0.2)
movej(p[0.419405048424221, 0.247445933408426, 0.317459375243562, -1.45, 0.776, -0.754], a = 0.2, v = 0.2, t = 0.2)
movej(p[0.419405037544012, 0.247445928650952, 0.317458830512828, -1.45, 0.776, -0.754], a = 0.2, v = 0.2, t = 0.2)
movej(p[0.419377873287239, 0.247434050824986, 0.316098819445185, -1.45, 0.776, -0.754], a = 0.2, v = 0.2, t = 0.2)
movej(p[0.419348493094433, 0.247421204060213, 0.314627864884574, -1.45, 0.776, -0.754], a = 0.2, v = 0.2, t = 0.2)
movej(p[0.419331211694764, 0.247413647606177, 0.313762650900953, -1.45, 0.776, -0.754], a = 0.2, v = 0.2, t = 0.2)
movej(p[0.419320306097953, 0.24740887903172, 0.313216649127868, -1.45, 0.776, -0.754], a = 0.2, v = 0.2, t = 0.2)
movej(p[0.419315275814356, 0.247406679493053, 0.312964801951524, -1.45, 0.776, -0.754], a = 0.2, v = 0.2, t = 0.2)
movej(p[0.419310234650549, 0.247404475196913, 0.312712410044444, -1.45, 0.776, -0.754], a = 0.2, v = 0.2, t = 0.2)
movej(p[0.419309574584497, 0.247404186576843, 0.312679363046539, -1.45, 0.776, -0.754], a = 0.2, v = 0.2, t = 0.2)
movej(p[0.419309440395244, 0.247404127901334, 0.312672644700811, -1.45, 0.776, -0.754], a = 0.2, v = 0.2, t = 0.2)
movej(p[0.419307706815172, 0.247403369877193, 0.312585850937082, -1.45, 0.776, -0.754], a = 0.2, v = 0.2, t = 0.2)
movej(p[0.419315515178968, 0.247406784157474, 0.312976786027687, -1.45, 0.776, -0.754], a = 0.2, v = 0.2, t = 0.2)
movej(p[0.419331726691355, 0.247413872793265, 0.313788434822395, -1.45, 0.776, -0.754], a = 0.2, v = 0.2, t = 0.2)
movej(p[0.419348761472938, 0.24742132141123, 0.31464130157603, -1.45, 0.776, -0.754], a = 0.2, v = 0.2, t = 0.2)
movej(p[0.419363932111934, 0.247427954915371, 0.315400837797118, -1.45, 0.776, -0.754], a = 0.2, v = 0.2, t = 0.2)
movej(p[0.419384263597043, 0.247436845047863, 0.316418757963367, -1.45, 0.776, -0.754], a = 0.2, v = 0.2, t = 0.2)
movej(p[0.41940067457994, 0.247444020904004, 0.317240393488212, -1.45, 0.776, -0.754], a = 0.2, v = 0.2, t = 0.2)
movej(p[0.419397044216652, 0.247442433493618, 0.317058634999732, -1.45, 0.776, -0.754], a = 0.2, v = 0.2, t = 0.2)
movej(p[0.419377158820138, 0.247433738417547, 0.316063048793606, -1.45, 0.776, -0.754], a = 0.2, v = 0.2, t = 0.2)
movej(p[0.419355097381694, 0.247424091846739, 0.314958516440539, -1.45, 0.776, -0.754], a = 0.2, v = 0.2, t = 0.2)
movej(p[0.419335839410604, 0.247415671118317, 0.313994343040113, -1.45, 0.776, -0.754], a = 0.2, v = 0.2, t = 0.2)
movej(p[0.419320969790742, 0.247409169237615, 0.313249877702685, -1.45, 0.776, -0.754], a = 0.2, v = 0.2, t = 0.2)
movej(p[0.419316262286698, 0.247407110837334, 0.31301419087147, -1.45, 0.776, -0.754], a = 0.2, v = 0.2, t = 0.2)
movej(p[0.419313295616199, 0.247405813632843, 0.312865660957808, -1.45, 0.776, -0.754], a = 0.2, v = 0.2, t = 0.2)
movej(p[0.419310952744386, 0.247404789190176, 0.312748362272935, -1.45, 0.776, -0.754], a = 0.2, v = 0.2, t = 0.2)
movej(p[0.419308631632993, 0.247403774262457, 0.312632153049531, -1.45, 0.776, -0.754], a = 0.2, v = 0.2, t = 0.2)
movej(p[0.419308671527095, 0.247403791706527, 0.312634150395559, -1.45, 0.776, -0.754], a = 0.2, v = 0.2, t = 0.2)
movej(p[0.419314942154593, 0.247406533597194, 0.312948096875659, -1.45, 0.776, -0.754], a = 0.2, v = 0.2, t = 0.2)
movej(p[0.419326805209854, 0.247411720829335, 0.313542034953398, -1.45, 0.776, -0.754], a = 0.2, v = 0.2, t = 0.2)
movej(p[0.419344743048839, 0.247419564317616, 0.314440114358012, -1.45, 0.776, -0.754], a = 0.2, v = 0.2, t = 0.2)
movej(p[0.419364516016519, 0.247428210233126, 0.31543007167988, -1.45, 0.776, -0.754], a = 0.2, v = 0.2, t = 0.2)
movej(p[0.419380778303217, 0.24743532107046, 0.31624426255135, -1.45, 0.776, -0.754], a = 0.2, v = 0.2, t = 0.2)
movej(p[0.419393315931476, 0.247440803265969, 0.31687197393464, -1.45, 0.776, -0.754], a = 0.2, v = 0.2, t = 0.2)
movej(p[0.419397668015338, 0.247442706255443, 0.317089866228522, -1.45, 0.776, -0.754], a = 0.2, v = 0.2, t = 0.2)
movej(p[0.419377532374003, 0.247433901757477, 0.316081751215497, -1.45, 0.776, -0.754], a = 0.2, v = 0.2, t = 0.2)
movej(p[0.419347796761015, 0.247420899581897, 0.314593002117552, -1.45, 0.776, -0.754], a = 0.2, v = 0.2, t = 0.2)
movej(p[0.419331708557672, 0.247413864864142, 0.313787526937838, -1.45, 0.776, -0.754], a = 0.2, v = 0.2, t = 0.2)
movej(p[0.419321608096375, 0.247409448342738, 0.313281835239121, -1.45, 0.776, -0.754], a = 0.2, v = 0.2, t = 0.2)
movej(p[0.41931576542379, 0.247406893579369, 0.312989314834585, -1.45, 0.776, -0.754], a = 0.2, v = 0.2, t = 0.2)
movej(p[0.419310154862345, 0.247404440308772, 0.31270841535239, -1.45, 0.776, -0.754], a = 0.2, v = 0.2, t = 0.2)
movej(p[0.419309295325782, 0.247404064468351, 0.312665381624348, -1.45, 0.776, -0.754], a = 0.2, v = 0.2, t = 0.2)
movej(p[0.419309172016739, 0.247404010550316, 0.312659208009355, -1.45, 0.776, -0.754], a = 0.2, v = 0.2, t = 0.2)
movej(p[0.419307757589484, 0.247403392078737, 0.312588393013844, -1.45, 0.776, -0.754], a = 0.2, v = 0.2, t = 0.2)
movej(p[0.419316871578439, 0.24740737725586, 0.313044695792614, -1.45, 0.776, -0.754], a = 0.2, v = 0.2, t = 0.2)
movej(p[0.419335313533804, 0.247415441173756, 0.313968014387936, -1.45, 0.776, -0.754], a = 0.2, v = 0.2, t = 0.2)
movej(p[0.419355561603973, 0.247424294832283, 0.314981758285219, -1.45, 0.776, -0.754], a = 0.2, v = 0.2, t = 0.2)
movej(p[0.419375882208872, 0.247433180207302, 0.315999133720734, -1.45, 0.776, -0.754], a = 0.2, v = 0.2, t = 0.2)
movej(p[0.419397620867763, 0.247442685639724, 0.317087505728671, -1.45, 0.776, -0.754], a = 0.2, v = 0.2, t = 0.2)
movej(p[0.419413067138737, 0.247449439666531, 0.317860841795039, -1.45, 0.776, -0.754], a = 0.2, v = 0.2, t = 0.2)
movej(p[0.419402234076657, 0.247444702808566, 0.317318471560186, -1.45, 0.776, -0.754], a = 0.2, v = 0.2, t = 0.2)
movej(p[0.419369560807062, 0.247430416115091, 0.315682645163871, -1.45, 0.776, -0.754], a = 0.2, v = 0.2, t = 0.2)
movej(p[0.419343270593799, 0.247418920472844, 0.314366394131916, -1.45, 0.776, -0.754], a = 0.2, v = 0.2, t = 0.2)
movej(p[0.419327429008541, 0.247411993591159, 0.313573266182188, -1.45, 0.776, -0.754], a = 0.2, v = 0.2, t = 0.2)
movej(p[0.419315141625104, 0.247406620817545, 0.312958083605796, -1.45, 0.776, -0.754], a = 0.2, v = 0.2, t = 0.2)
movej(p[0.419312439706373, 0.247405439378246, 0.312822808806678, -1.45, 0.776, -0.754], a = 0.2, v = 0.2, t = 0.2)
movej(p[0.419310753273876, 0.247404701969825, 0.312738375542799, -1.45, 0.776, -0.754], a = 0.2, v = 0.2, t = 0.2)
movej(p[0.419309182896949, 0.24740401530779, 0.31265975274009, -1.45, 0.776, -0.754], a = 0.2, v = 0.2, t = 0.2)
movej(p[0.419307340514781, 0.247403209708913, 0.312567511669013, -1.45, 0.776, -0.754], a = 0.2, v = 0.2, t = 0.2)
movej(p[0.419313919414886, 0.247406086394667, 0.312896892186597, -1.45, 0.776, -0.754], a = 0.2, v = 0.2, t = 0.2)
movej(p[0.419331273349286, 0.247413674565194, 0.313765737708449, -1.45, 0.776, -0.754], a = 0.2, v = 0.2, t = 0.2)
movej(p[0.41934798172458, 0.247420980458949, 0.314602262540042, -1.45, 0.776, -0.754], a = 0.2, v = 0.2, t = 0.2)
movej(p[0.419370641574555, 0.24743088869081, 0.315736755083518, -1.45, 0.776, -0.754], a = 0.2, v = 0.2, t = 0.2)
movej(p[0.419392706639736, 0.247440536847443, 0.316841469013497, -1.45, 0.776, -0.754], a = 0.2, v = 0.2, t = 0.2)
movej(p[0.419405458245452, 0.247446112606601, 0.31747989343457, -1.45, 0.776, -0.754], a = 0.2, v = 0.2, t = 0.2)
movej(p[0.419405077438114, 0.247445946095022, 0.317460827858855, -1.45, 0.776, -0.754], a = 0.2, v = 0.2, t = 0.2)
movej(p[0.419382424841611, 0.247436041034811, 0.316326698469202, -1.45, 0.776, -0.754], a = 0.2, v = 0.2, t = 0.2)
movej(p[0.419354226964922, 0.247423711248844, 0.314914937981762, -1.45, 0.776, -0.754], a = 0.2, v = 0.2, t = 0.2)
movej(p[0.41933082726069, 0.247413479508773, 0.313743403748327, -1.45, 0.776, -0.754], a = 0.2, v = 0.2, t = 0.2)
movej(p[0.419320683278555, 0.247409043957475, 0.313235533126671, -1.45, 0.776, -0.754], a = 0.2, v = 0.2, t = 0.2)
movej(p[0.419315642114748, 0.247406839661334, 0.312983141219592, -1.45, 0.776, -0.754], a = 0.2, v = 0.2, t = 0.2)
movej(p[0.419311866681997, 0.247405188817965, 0.31279411965465, -1.45, 0.776, -0.754], a = 0.2, v = 0.2, t = 0.2)
movej(p[0.419308733181617, 0.247403818665544, 0.312637237203055, -1.45, 0.776, -0.754], a = 0.2, v = 0.2, t = 0.2)
movej(p[0.41930874043509, 0.247403821837193, 0.312637600356878, -1.45, 0.776, -0.754], a = 0.2, v = 0.2, t = 0.2)
movej(p[0.419315667501904, 0.247406850762106, 0.312984412257973, -1.45, 0.776, -0.754], a = 0.2, v = 0.2, t = 0.2)
movej(p[0.419329612303945, 0.247412948257545, 0.313682575482951, -1.45, 0.776, -0.754], a = 0.2, v = 0.2, t = 0.2)
movej(p[0.419352442610538, 0.24742293102316, 0.314825602141271, -1.45, 0.776, -0.754], a = 0.2, v = 0.2, t = 0.2)
movej(p[0.419375900342555, 0.247433188136424, 0.316000041605292, -1.45, 0.776, -0.754], a = 0.2, v = 0.2, t = 0.2)
movej(p[0.419394436593071, 0.247441293285759, 0.316928081200315, -1.45, 0.776, -0.754], a = 0.2, v = 0.2, t = 0.2)
movej(p[0.419409251811885, 0.247447771379092, 0.317669822884069, -1.45, 0.776, -0.754], a = 0.2, v = 0.2, t = 0.2)
movej(p[0.419408428542688, 0.247447411396917, 0.317628604925144, -1.45, 0.776, -0.754], a = 0.2, v = 0.2, t = 0.2)
movej(p[0.419381097456034, 0.247435460623021, 0.316260241319568, -1.45, 0.776, -0.754], a = 0.2, v = 0.2, t = 0.2)
movej(p[0.419349160413959, 0.247421495851932, 0.314661275036302, -1.45, 0.776, -0.754], a = 0.2, v = 0.2, t = 0.2)
movej(p[0.419332887247051, 0.247414380257124, 0.313846539434097, -1.45, 0.776, -0.754], a = 0.2, v = 0.2, t = 0.2)
movej(p[0.419321974396767, 0.247409608511019, 0.31330017450719, -1.45, 0.776, -0.754], a = 0.2, v = 0.2, t = 0.2)
movej(p[0.419315547819597, 0.247406798429895, 0.312978420219891, -1.45, 0.776, -0.754], a = 0.2, v = 0.2, t = 0.2)
movej(p[0.419310154862345, 0.247404440308772, 0.31270841535239, -1.45, 0.776, -0.754], a = 0.2, v = 0.2, t = 0.2)
movej(p[0.419309418634825, 0.247404118386386, 0.312671555239342, -1.45, 0.776, -0.754], a = 0.2, v = 0.2, t = 0.2)
movej(p[0.419309182896949, 0.24740401530779, 0.31265975274009, -1.45, 0.776, -0.754], a = 0.2, v = 0.2, t = 0.2)
movej(p[0.419313056251586, 0.247405708968422, 0.312853676881644, -1.45, 0.776, -0.754], a = 0.2, v = 0.2, t = 0.2)
movej(p[0.419333122984927, 0.247414483335721, 0.313858341933349, -1.45, 0.776, -0.754], a = 0.2, v = 0.2, t = 0.2)
movej(p[0.419356722159669, 0.247424802296143, 0.315039862896921, -1.45, 0.776, -0.754], a = 0.2, v = 0.2, t = 0.2)
movej(p[0.4193781670529, 0.247434179276775, 0.316113527175022, -1.45, 0.776, -0.754], a = 0.2, v = 0.2, t = 0.2)
movej(p[0.419395524614036, 0.247441769033127, 0.316982554273785, -1.45, 0.776, -0.754], a = 0.2, v = 0.2, t = 0.2)
movej(p[0.419413661923532, 0.247449699741759, 0.317890620408536, -1.45, 0.776, -0.754], a = 0.2, v = 0.2, t = 0.2)
movej(p[0.419412062532712, 0.247449000393128, 0.317810544990535, -1.45, 0.776, -0.754], a = 0.2, v = 0.2, t = 0.2)
movej(p[0.419383375046588, 0.247436456520846, 0.316374271620033, -1.45, 0.776, -0.754], a = 0.2, v = 0.2, t = 0.2)
movej(p[0.419355761074483, 0.247424382052634, 0.314991745015355, -1.45, 0.776, -0.754], a = 0.2, v = 0.2, t = 0.2)
movej(p[0.419335621806411, 0.247415575968844, 0.313983448425419, -1.45, 0.776, -0.754], a = 0.2, v = 0.2, t = 0.2)
movej(p[0.419323134952464, 0.247410115974878, 0.313358279118891, -1.45, 0.776, -0.754], a = 0.2, v = 0.2, t = 0.2)
movej(p[0.419313680050273, 0.247405981730246, 0.312884908110434, -1.45, 0.776, -0.754], a = 0.2, v = 0.2, t = 0.2)
movej(p[0.419310756900612, 0.24740470355565, 0.31273855711971, -1.45, 0.776, -0.754], a = 0.2, v = 0.2, t = 0.2)
movej(p[0.419309585464706, 0.247404191334316, 0.312679907777274, -1.45, 0.776, -0.754], a = 0.2, v = 0.2, t = 0.2)
movej(p[0.419307768469694, 0.247403396836211, 0.312588937744578, -1.45, 0.776, -0.754], a = 0.2, v = 0.2, t = 0.2)
movej(p[0.419309103108745, 0.24740398041965, 0.312655758048035, -1.45, 0.776, -0.754], a = 0.2, v = 0.2, t = 0.2)
movej(p[0.419320853735173, 0.247409118491229, 0.313244067241515, -1.45, 0.776, -0.754], a = 0.2, v = 0.2, t = 0.2)
movej(p[0.419340601315697, 0.247417753305967, 0.314232753525002, -1.45, 0.776, -0.754], a = 0.2, v = 0.2, t = 0.2)
movej(p[0.41935911943253, 0.247425850526178, 0.315159885235467, -1.45, 0.776, -0.754], a = 0.2, v = 0.2, t = 0.2)
movej(p[0.419381877204392, 0.247435801575302, 0.316299280355555, -1.45, 0.776, -0.754], a = 0.2, v = 0.2, t = 0.2)
movej(p[0.419401559503658, 0.247444407845197, 0.317284698254634, -1.45, 0.776, -0.754], a = 0.2, v = 0.2, t = 0.2)
movej(p[0.419409454909132, 0.247447860185268, 0.317679991191117, -1.45, 0.776, -0.754], a = 0.2, v = 0.2, t = 0.2)
movej(p[0.419391172530174, 0.247439866043653, 0.316764661979904, -1.45, 0.776, -0.754], a = 0.2, v = 0.2, t = 0.2)
movej(p[0.41936428390538, 0.247428108740354, 0.31541845075754, -1.45, 0.776, -0.754], a = 0.2, v = 0.2, t = 0.2)
movej(p[0.419341257755013, 0.247418040340212, 0.314265618945996, -1.45, 0.776, -0.754], a = 0.2, v = 0.2, t = 0.2)
movej(p[0.419323011643421, 0.247410062056843, 0.313352105503898, -1.45, 0.776, -0.754], a = 0.2, v = 0.2, t = 0.2)
movej(p[0.419316563305832, 0.247407242460773, 0.31302926175513, -1.45, 0.776, -0.754], a = 0.2, v = 0.2, t = 0.2)
movej(p[0.419312548508469, 0.247405486952983, 0.312828256114025, -1.45, 0.776, -0.754], a = 0.2, v = 0.2, t = 0.2)
movej(p[0.419310550176629, 0.24740461316365, 0.312728207235751, -1.45, 0.776, -0.754], a = 0.2, v = 0.2, t = 0.2)
movej(p[0.419307304247415, 0.247403193850667, 0.312565695899898, -1.45, 0.776, -0.754], a = 0.2, v = 0.2, t = 0.2)
movej(p[0.419307188191846, 0.247403143104281, 0.312559885438727, -1.45, 0.776, -0.754], a = 0.2, v = 0.2, t = 0.2)
movej(p[0.419308395895117, 0.24740367118386, 0.31262035055028, -1.45, 0.776, -0.754], a = 0.2, v = 0.2, t = 0.2)
movej(p[0.41931598665472, 0.247406990314667, 0.313000391026191, -1.45, 0.776, -0.754], a = 0.2, v = 0.2, t = 0.2)
movej(p[0.419333558193313, 0.247414673634668, 0.313880131162737, -1.45, 0.776, -0.754], a = 0.2, v = 0.2, t = 0.2)
movej(p[0.419355086501484, 0.247424087089266, 0.314957971709804, -1.45, 0.776, -0.754], a = 0.2, v = 0.2, t = 0.2)
movej(p[0.419373640885683, 0.247432200167723, 0.315886919189385, -1.45, 0.776, -0.754], a = 0.2, v = 0.2, t = 0.2)
movej(p[0.419388481491653, 0.247438689361828, 0.31662993191152, -1.45, 0.776, -0.754], a = 0.2, v = 0.2, t = 0.2)
movej(p[0.419405342189882, 0.247446061860215, 0.317474082973399, -1.45, 0.776, -0.754], a = 0.2, v = 0.2, t = 0.2)
movej(p[0.419402680165253, 0.247444897864987, 0.317340805520309, -1.45, 0.776, -0.754], a = 0.2, v = 0.2, t = 0.2)
movej(p[0.41937488485632, 0.247432744105547, 0.315949200070053, -1.45, 0.776, -0.754], a = 0.2, v = 0.2, t = 0.2)
movej(p[0.419346958984872, 0.247420533256423, 0.31455105785098, -1.45, 0.776, -0.754], a = 0.2, v = 0.2, t = 0.2)
movej(p[0.419330975956888, 0.24741354452758, 0.313750848401701, -1.45, 0.776, -0.754], a = 0.2, v = 0.2, t = 0.2)
movej(p[0.419319932544088, 0.24740871569179, 0.313197946705977, -1.45, 0.776, -0.754], a = 0.2, v = 0.2, t = 0.2)
movej(p[0.419311366192353, 0.247404969974176, 0.312769062040854, -1.45, 0.776, -0.754], a = 0.2, v = 0.2, t = 0.2)
movej(p[0.419309661626174, 0.247404224636632, 0.312683720892417, -1.45, 0.776, -0.754], a = 0.2, v = 0.2, t = 0.2)
movej(p[0.419308664273622, 0.247403788534878, 0.312633787241736, -1.45, 0.776, -0.754], a = 0.2, v = 0.2, t = 0.2)
movej(p[0.419307851884635, 0.247403433310176, 0.312593114013544, -1.45, 0.776, -0.754], a = 0.2, v = 0.2, t = 0.2)
movej(p[0.419308976172966, 0.24740392491579, 0.31264940285613, -1.45, 0.776, -0.754], a = 0.2, v = 0.2, t = 0.2)
movej(p[0.419322975376055, 0.247410046198597, 0.313350289734782, -1.45, 0.776, -0.754], a = 0.2, v = 0.2, t = 0.2)
movej(p[0.419343651401137, 0.247419086984423, 0.31438545970763, -1.45, 0.776, -0.754], a = 0.2, v = 0.2, t = 0.2)
movej(p[0.419362572085727, 0.247427360231161, 0.31533274645528, -1.45, 0.776, -0.754], a = 0.2, v = 0.2, t = 0.2)
movej(p[0.419385547461783, 0.247437406429758, 0.316483036190062, -1.45, 0.776, -0.754], a = 0.2, v = 0.2, t = 0.2)
