def moving():
set_payload_mass(0)
set_tcp(p[0,0,0,0,0,0])
movej(p[-0.4461, -0.1211, 0.3078, -1.233, -1.215, 1.168], a = 0.2, v = 0.2, t = 0.2)
movej(p[-0.446200022629824, -0.120998500052608, 0.307898454223894, -1.23220607220033, -1.21418206334259, 1.17140594532484], a = 0.2, v = 0.2, t = 0.2)
movej(p[-0.4461, -0.1211, 0.3078, -1.233, -1.215, 1.168], a = 0.2, v = 0.2, t = 0.2)
movej(p[-0.446200022629824, -0.120998500052608, 0.307898454223894, -1.23220607220033, -1.21418206334259, 1.17140594532484], a = 0.2, v = 0.2, t = 0.2)
movej(p[-0.4461, -0.1211, 0.3078, -1.233, -1.215, 1.168], a = 0.2, v = 0.2, t = 0.2)
movej(p[-0.446200022629824, -0.120998500052608, 0.307898454223894, -1.23220607220033, -1.21418206334259, 1.17140594532484], a = 0.2, v = 0.2, t = 0.2)
movej(p[-0.4461, -0.1211, 0.3078, -1.233, -1.215, 1.168], a = 0.2, v = 0.2, t = 0.2)
movej(p[-0.446954042448593, -0.120953366741377, 0.307648723202151, -1.26732145871832, -1.20822130660174, 1.15940343509347], a = 0.2, v = 0.2, t = 0.2)
movej(p[-0.448413023231603, -0.120743608252419, 0.307145285478378, -1.2832818422679, -1.20837727626305, 1.15531868178327], a = 0.2, v = 0.2, t = 0.2)
movej(p[-0.449706574011248, -0.120543434132865, 0.306667469377312, -1.28456816846162, -1.20817578916674, 1.16201997514767], a = 0.2, v = 0.2, t = 0.2)
movej(p[-0.450714762586518, -0.120458835718588, 0.306250743658166, -1.25444270666334, -1.19902874662959, 1.18188220641503], a = 0.2, v = 0.2, t = 0.2)
movej(p[-0.451704860372115, -0.120385768784269, 0.30596754123998, -1.22233499649321, -1.20171879766391, 1.16546991942199], a = 0.2, v = 0.2, t = 0.2)
movej(p[-0.452734240540676, -0.120311724107486, 0.305912674702698, -1.22045228954481, -1.20154240245784, 1.15246008780044], a = 0.2, v = 0.2, t = 0.2)
movej(p[-0.453208415155456, -0.120361562442673, 0.305583784764962, -1.22507081976968, -1.20300129137077, 1.1469996402555], a = 0.2, v = 0.2, t = 0.2)
movej(p[-0.452426607587898, -0.12049092387075, 0.305114517209898, -1.22221587927583, -1.17417074601013, 1.18262316369141], a = 0.2, v = 0.2, t = 0.2)
movej(p[-0.450092903202553, -0.120826580937046, 0.30491901949721, -1.22490750038166, -1.17978937708593, 1.21806193769907], a = 0.2, v = 0.2, t = 0.2)
movej(p[-0.447074483438223, -0.121036403852431, 0.304950591404339, -1.22487664095302, -1.18915175302645, 1.2445584755077], a = 0.2, v = 0.2, t = 0.2)
movej(p[-0.444016680705566, -0.121437584575945, 0.305419166558446, -1.21898156064149, -1.23574925859955, 1.23691814021385], a = 0.2, v = 0.2, t = 0.2)
movej(p[-0.441170201014129, -0.121591572921291, 0.306145668587509, -1.2286189587247, -1.24974344178688, 1.24122319121891], a = 0.2, v = 0.2, t = 0.2)
movej(p[-0.439090752086368, -0.121841278119936, 0.306954024102556, -1.21667089970306, -1.25644958191347, 1.23315287622963], a = 0.2, v = 0.2, t = 0.2)
movej(p[-0.438365373201561, -0.121768034571034, 0.307737495692354, -1.26161851381875, -1.24733111839604, 1.23955459595918], a = 0.2, v = 0.2, t = 0.2)
movej(p[-0.439548500165167, -0.121648805681907, 0.307961353063212, -1.29808978237953, -1.24487938471058, 1.22150270540352], a = 0.2, v = 0.2, t = 0.2)
movej(p[-0.441775683015402, -0.121386591507626, 0.308075250556715, -1.34669743065163, -1.24883933166257, 1.20773782740394], a = 0.2, v = 0.2, t = 0.2)
movej(p[-0.444244278735452, -0.121017621994504, 0.307568184225912, -1.33084607061634, -1.22082797847343, 1.19753768677154], a = 0.2, v = 0.2, t = 0.2)
movej(p[-0.446315060184251, -0.120851325911716, 0.307334653869935, -1.31588144840181, -1.20740794074988, 1.19185894115422], a = 0.2, v = 0.2, t = 0.2)
movej(p[-0.448020849229983, -0.120641366529171, 0.306973274020966, -1.29997716037955, -1.19977224188406, 1.18303517552213], a = 0.2, v = 0.2, t = 0.2)
movej(p[-0.449440625148215, -0.120659299647671, 0.306905592714324, -1.27259194076777, -1.20202422243156, 1.18149725218669], a = 0.2, v = 0.2, t = 0.2)
movej(p[-0.45061929826703, -0.12053252277233, 0.306455212532853, -1.24847728940767, -1.19162760672577, 1.17792739695745], a = 0.2, v = 0.2, t = 0.2)
movej(p[-0.45166414145701, -0.120474064738586, 0.306076504037777, -1.25602135441005, -1.17030737380829, 1.17515667663739], a = 0.2, v = 0.2, t = 0.2)
movej(p[-0.452323914962646, -0.120323069177747, 0.305601142791178, -1.2787858087895, -1.1751938690544, 1.17869432988417], a = 0.2, v = 0.2, t = 0.2)
movej(p[-0.452277541598237, -0.120404212299918, 0.305164802024806, -1.26014070033656, -1.16173176974685, 1.19603975039379], a = 0.2, v = 0.2, t = 0.2)
movej(p[-0.450902808475166, -0.120575557937332, 0.304609853721115, -1.22101037334448, -1.14622388475708, 1.23200823829763], a = 0.2, v = 0.2, t = 0.2)
movej(p[-0.448648522926833, -0.120779807877071, 0.304354343373779, -1.17454875079074, -1.16039020198092, 1.22445930436777], a = 0.2, v = 0.2, t = 0.2)
movej(p[-0.445983879968858, -0.121049362381201, 0.304450282012191, -1.1949372673567, -1.1874701946717, 1.22795496524387], a = 0.2, v = 0.2, t = 0.2)
movej(p[-0.443441294380359, -0.121296302150356, 0.305245842299944, -1.19563898496935, -1.21585955338593, 1.22582992866981], a = 0.2, v = 0.2, t = 0.2)
movej(p[-0.441446222920383, -0.12155350195334, 0.306099122710496, -1.22719107838989, -1.2109202965005, 1.24457849340967], a = 0.2, v = 0.2, t = 0.2)
movej(p[-0.440434547544969, -0.121600616575538, 0.306993137814875, -1.26767417167396, -1.22260443581892, 1.22771649181899], a = 0.2, v = 0.2, t = 0.2)
movej(p[-0.440940360254185, -0.12156045002946, 0.307311645026367, -1.28419086408149, -1.2407849046684, 1.19468670860308], a = 0.2, v = 0.2, t = 0.2)
movej(p[-0.442392454575477, -0.121426423250051, 0.307419796771939, -1.29994418768424, -1.24765006889351, 1.18295780607373], a = 0.2, v = 0.2, t = 0.2)
movej(p[-0.444568520751493, -0.121272991262098, 0.306813634862979, -1.27656678508447, -1.24494746792087, 1.17104548731022], a = 0.2, v = 0.2, t = 0.2)
movej(p[-0.446513436851276, -0.121012738963451, 0.306456279776357, -1.27718591198642, -1.21784591065398, 1.17767465548827], a = 0.2, v = 0.2, t = 0.2)
movej(p[-0.44811710157005, -0.120827098128784, 0.306031692634979, -1.29080077687076, -1.19995807523702, 1.17418252099147], a = 0.2, v = 0.2, t = 0.2)
movej(p[-0.449388539582273, -0.120661817215208, 0.306099586342963, -1.29899774076203, -1.16656382281888, 1.19155701006091], a = 0.2, v = 0.2, t = 0.2)
movej(p[-0.450487545322922, -0.120557240543939, 0.305859678190026, -1.29970547802217, -1.14889087903443, 1.20374264350829], a = 0.2, v = 0.2, t = 0.2)
movej(p[-0.451456893258652, -0.120429373309008, 0.305496329153799, -1.29218963299311, -1.16820470235716, 1.16724185551679], a = 0.2, v = 0.2, t = 0.2)
movej(p[-0.452329920004324, -0.120301354046846, 0.305404638020334, -1.29755176267133, -1.15570812676938, 1.15783905139613], a = 0.2, v = 0.2, t = 0.2)
movej(p[-0.453010285686053, -0.120129777956905, 0.305118729222137, -1.30299721036002, -1.16159344445762, 1.14602520979823], a = 0.2, v = 0.2, t = 0.2)
movej(p[-0.452945039662335, -0.120194620530131, 0.305187711500198, -1.2784413258382, -1.15200850692805, 1.16084158850865], a = 0.2, v = 0.2, t = 0.2)
movej(p[-0.451665350528775, -0.12046424154764, 0.304712083268526, -1.24034504173772, -1.16624033340925, 1.18340863628471], a = 0.2, v = 0.2, t = 0.2)
movej(p[-0.449263784200423, -0.120836984929335, 0.304671591491212, -1.21603480203515, -1.18677587620773, 1.20699906012928], a = 0.2, v = 0.2, t = 0.2)
movej(p[-0.44644746150617, -0.121093904378544, 0.304771927591577, -1.24349140609602, -1.20370599344803, 1.23565260624077], a = 0.2, v = 0.2, t = 0.2)
movej(p[-0.443636834794919, -0.121194982164662, 0.305364388359418, -1.26418074985493, -1.20326142088168, 1.27049018285792], a = 0.2, v = 0.2, t = 0.2)
movej(p[-0.441318814124992, -0.121469684105409, 0.306255228309772, -1.27067226483185, -1.21368839257701, 1.27736198012285], a = 0.2, v = 0.2, t = 0.2)
movej(p[-0.440264884995582, -0.121609095457832, 0.306754221711629, -1.27151522582336, -1.23379077030674, 1.24662958991542], a = 0.2, v = 0.2, t = 0.2)
movej(p[-0.44080725604699, -0.121557628907988, 0.307144187397993, -1.28694351053052, -1.25765159001842, 1.20615574253017], a = 0.2, v = 0.2, t = 0.2)
movej(p[-0.442643412430098, -0.121244324443731, 0.306959666347222, -1.30038020347986, -1.26733877561624, 1.17510517229234], a = 0.2, v = 0.2, t = 0.2)
movej(p[-0.444904653867422, -0.120974550502633, 0.306845826070865, -1.28427085883175, -1.2488550821081, 1.173628624119], a = 0.2, v = 0.2, t = 0.2)
movej(p[-0.447049303761746, -0.120844082195033, 0.306520547504112, -1.27817211788741, -1.24041897354225, 1.16169223722848], a = 0.2, v = 0.2, t = 0.2)
movej(p[-0.44864201445622, -0.120628215491663, 0.306262675670471, -1.26502717897718, -1.21651356197695, 1.15855035373543], a = 0.2, v = 0.2, t = 0.2)
movej(p[-0.449819547616365, -0.120510889093344, 0.306093393074152, -1.27812823874695, -1.19891083599022, 1.17123735756828], a = 0.2, v = 0.2, t = 0.2)
movej(p[-0.450729073106086, -0.120317071233342, 0.305969633691512, -1.27913429248954, -1.19451495120076, 1.16735977724297], a = 0.2, v = 0.2, t = 0.2)
movej(p[-0.451463886382664, -0.120223675995206, 0.305691752590753, -1.2861956252453, -1.18833980893626, 1.16405172608992], a = 0.2, v = 0.2, t = 0.2)
movej(p[-0.452050296492947, -0.120196680221243, 0.305437092607351, -1.28919887614785, -1.17259942890768, 1.17504379224048], a = 0.2, v = 0.2, t = 0.2)
movej(p[-0.452328052350449, -0.120196676378521, 0.304973585207186, -1.27137796518856, -1.17207283750414, 1.18345896684399], a = 0.2, v = 0.2, t = 0.2)
movej(p[-0.451607958199653, -0.120294000700941, 0.304649354570363, -1.25316953281775, -1.16592830329132, 1.20010882492591], a = 0.2, v = 0.2, t = 0.2)
movej(p[-0.449992998700737, -0.120456351202994, 0.304352598014001, -1.21792323450041, -1.18830895602198, 1.20406152517518], a = 0.2, v = 0.2, t = 0.2)
movej(p[-0.447652011318434, -0.120669327701946, 0.304441713721324, -1.23674834458652, -1.17534214696067, 1.23534470061157], a = 0.2, v = 0.2, t = 0.2)
movej(p[-0.445277138934383, -0.121119888446823, 0.304801485723473, -1.23229232975229, -1.17634291206699, 1.24792099210858], a = 0.2, v = 0.2, t = 0.2)
movej(p[-0.443176305165217, -0.12144602063153, 0.305559839352721, -1.26939329483473, -1.19101279663963, 1.24110498519895], a = 0.2, v = 0.2, t = 0.2)
movej(p[-0.441787273225349, -0.121609332128713, 0.306177087993801, -1.26158565531706, -1.22122518584846, 1.22277584488493], a = 0.2, v = 0.2, t = 0.2)
movej(p[-0.441495192217226, -0.121568526339595, 0.30698334009722, -1.27816091337997, -1.25202657174296, 1.20134844540974], a = 0.2, v = 0.2, t = 0.2)
movej(p[-0.442420024135322, -0.12137907686374, 0.307080469170979, -1.27119001284298, -1.25768538119688, 1.1820997796015], a = 0.2, v = 0.2, t = 0.2)
movej(p[-0.444182619838736, -0.121193485908183, 0.306880318999483, -1.29157045889014, -1.25171904727016, 1.16259077568947], a = 0.2, v = 0.2, t = 0.2)
movej(p[-0.446028853373939, -0.120924288056651, 0.30640562528519, -1.30201616085724, -1.23673482978877, 1.16440053279561], a = 0.2, v = 0.2, t = 0.2)
movej(p[-0.447639883284473, -0.120701424268498, 0.305968452460634, -1.29128938835153, -1.20174710541482, 1.17703125580831], a = 0.2, v = 0.2, t = 0.2)
movej(p[-0.448933487628663, -0.120484116356152, 0.305908572346861, -1.28687026322347, -1.20271357846176, 1.16284859916081], a = 0.2, v = 0.2, t = 0.2)
movej(p[-0.449977280696397, -0.120383931057356, 0.305510156426931, -1.29324766016112, -1.18083619306516, 1.17015771517647], a = 0.2, v = 0.2, t = 0.2)
movej(p[-0.450907413541303, -0.12035320731472, 0.305302549371737, -1.30615033481976, -1.20171316499441, 1.14432992835534], a = 0.2, v = 0.2, t = 0.2)
movej(p[-0.451549811326553, -0.120309279547648, 0.30474861699826, -1.29554985544573, -1.19659581503304, 1.1609463879193], a = 0.2, v = 0.2, t = 0.2)
movej(p[-0.451890794593058, -0.120242440163631, 0.304568459801325, -1.24226259665282, -1.18892561464588, 1.17845549905563], a = 0.2, v = 0.2, t = 0.2)
movej(p[-0.451124597717249, -0.120154964400646, 0.304269094698499, -1.17981999519612, -1.17700279799364, 1.20934544603838], a = 0.2, v = 0.2, t = 0.2)
movej(p[-0.449515491376751, -0.120432972648764, 0.304096322734776, -1.18376320258991, -1.18515066122736, 1.21230144539847], a = 0.2, v = 0.2, t = 0.2)
movej(p[-0.447257854088175, -0.120725034879324, 0.304099523408306, -1.19344399921898, -1.21989405073706, 1.2177361038281], a = 0.2, v = 0.2, t = 0.2)
movej(p[-0.444796890107763, -0.121146720095766, 0.304367038761791, -1.24943422271441, -1.24260059739033, 1.2309276064632], a = 0.2, v = 0.2, t = 0.2)
movej(p[-0.44246621575225, -0.121296306920188, 0.305095370470418, -1.24470544080721, -1.24136882007362, 1.25161329363649], a = 0.2, v = 0.2, t = 0.2)
movej(p[-0.440166045459075, -0.121562287718, 0.306095968665745, -1.25363841392377, -1.24794206994008, 1.24634567372049], a = 0.2, v = 0.2, t = 0.2)
movej(p[-0.438858223519014, -0.121685935290486, 0.307101603649928, -1.2678777375858, -1.25279905968588, 1.23344690868822], a = 0.2, v = 0.2, t = 0.2)
movej(p[-0.438993441957252, -0.121687122614302, 0.307891855265695, -1.29744162129247, -1.25323018933925, 1.23158568899915], a = 0.2, v = 0.2, t = 0.2)
movej(p[-0.440677837444502, -0.121425965900887, 0.307753678776842, -1.32113882464044, -1.24310686969849, 1.20798675650543], a = 0.2, v = 0.2, t = 0.2)
movej(p[-0.443157533540769, -0.121199515276636, 0.3073087120763, -1.30830047310441, -1.2535594921813, 1.17029355773471], a = 0.2, v = 0.2, t = 0.2)
movej(p[-0.445577904435479, -0.120982164027735, 0.306955536752873, -1.29750544593785, -1.25419359401817, 1.14831363530446], a = 0.2, v = 0.2, t = 0.2)
movej(p[-0.447594741015987, -0.120803636216675, 0.306569094601052, -1.2776807568371, -1.23660410866052, 1.13692159811248], a = 0.2, v = 0.2, t = 0.2)
movej(p[-0.449176556164292, -0.120610332244408, 0.306448625883965, -1.27194395812796, -1.20216619250681, 1.15479412225548], a = 0.2, v = 0.2, t = 0.2)
movej(p[-0.45025642661674, -0.120511250567153, 0.305999287442183, -1.27177071695893, -1.18264842819939, 1.16018054056606], a = 0.2, v = 0.2, t = 0.2)
movej(p[-0.4512766541597, -0.120462245850244, 0.305759106603633, -1.28173652317453, -1.1771936425556, 1.16855405004134], a = 0.2, v = 0.2, t = 0.2)
movej(p[-0.452082558195389, -0.120280349342078, 0.305466674995257, -1.28365290994522, -1.16006729708509, 1.17806438791057], a = 0.2, v = 0.2, t = 0.2)
movej(p[-0.45241478265704, -0.120233391940859, 0.305324048934697, -1.26432488134114, -1.13848119807178, 1.20344072637586], a = 0.2, v = 0.2, t = 0.2)
movej(p[-0.451827456801949, -0.120258714979843, 0.304859337168397, -1.20584049892487, -1.13356528673987, 1.21984117798926], a = 0.2, v = 0.2, t = 0.2)
movej(p[-0.450026686626091, -0.12050026910145, 0.304732745335418, -1.21034285493426, -1.13608633317356, 1.24977071031371], a = 0.2, v = 0.2, t = 0.2)
movej(p[-0.447569480981863, -0.120841184958687, 0.304450330962806, -1.18158026391848, -1.16561254122363, 1.2418023913583], a = 0.2, v = 0.2, t = 0.2)
movej(p[-0.444918436003489, -0.121225367314807, 0.305026710291274, -1.21387211456302, -1.17881210959702, 1.25705572148634], a = 0.2, v = 0.2, t = 0.2)
movej(p[-0.442533358014218, -0.121535978084028, 0.30549749506539, -1.19538067586528, -1.20231354098621, 1.25746345512605], a = 0.2, v = 0.2, t = 0.2)
movej(p[-0.440621731581019, -0.121699842297022, 0.306520022165858, -1.22488744073637, -1.23987798866976, 1.25113597338318], a = 0.2, v = 0.2, t = 0.2)
movej(p[-0.43947323886317, -0.121785209039226, 0.307157577156722, -1.24157908225356, -1.26083621607642, 1.23102433330736], a = 0.2, v = 0.2, t = 0.2)
movej(p[-0.439919513205273, -0.121711480396008, 0.307720021418449, -1.27852460862407, -1.27725581146242, 1.18597661808873], a = 0.2, v = 0.2, t = 0.2)
movej(p[-0.441623151233588, -0.121544932397807, 0.307596563343879, -1.31382437966208, -1.25232286795593, 1.17823684310603], a = 0.2, v = 0.2, t = 0.2)
movej(p[-0.443995253930068, -0.121132223712016, 0.307312901976137, -1.33059981293646, -1.22351196606354, 1.19340602931021], a = 0.2, v = 0.2, t = 0.2)
movej(p[-0.446267150588549, -0.120849838935634, 0.306950953884867, -1.33581699606944, -1.19902946038111, 1.19662208139837], a = 0.2, v = 0.2, t = 0.2)
movej(p[-0.448079359744316, -0.120656993569849, 0.306528069844085, -1.30844665120041, -1.18881460997132, 1.17058299820984], a = 0.2, v = 0.2, t = 0.2)
movej(p[-0.449462529375018, -0.120645200632731, 0.306217100489585, -1.27723694673867, -1.19236467315477, 1.14235502839858], a = 0.2, v = 0.2, t = 0.2)
movej(p[-0.450541553855124, -0.120455620034585, 0.305781616005661, -1.27614486853932, -1.18109547657535, 1.15563502941251], a = 0.2, v = 0.2, t = 0.2)
movej(p[-0.451511809264736, -0.120158469297291, 0.30567076975203, -1.29398215072166, -1.16136901011126, 1.17628889578091], a = 0.2, v = 0.2, t = 0.2)
movej(p[-0.452428684676618, -0.119954163747201, 0.305285613168562, -1.29322909877241, -1.14207742385379, 1.19021078720884], a = 0.2, v = 0.2, t = 0.2)
movej(p[-0.453022310450426, -0.120000988834705, 0.304962089546625, -1.27438209171466, -1.12263703632349, 1.20878783547373], a = 0.2, v = 0.2, t = 0.2)
movej(p[-0.452518850694755, -0.120245389618927, 0.304491698712647, -1.23034213217881, -1.13922628214013, 1.21339687694876], a = 0.2, v = 0.2, t = 0.2)
movej(p[-0.450816288555346, -0.120551522637138, 0.304195512617411, -1.2158141548433, -1.15955307356033, 1.22103619261319], a = 0.2, v = 0.2, t = 0.2)
movej(p[-0.448171331404266, -0.120948778185331, 0.30421893454055, -1.19815195241593, -1.20145468324393, 1.20855210638565], a = 0.2, v = 0.2, t = 0.2)
movej(p[-0.445232154252789, -0.121349354103485, 0.304856943356657, -1.19674219908527, -1.21743008589449, 1.21696008980123], a = 0.2, v = 0.2, t = 0.2)
movej(p[-0.442382271668492, -0.121672295583007, 0.305855044708387, -1.22457336988173, -1.24320547663966, 1.21469930472453], a = 0.2, v = 0.2, t = 0.2)
movej(p[-0.439978828603972, -0.121860046181243, 0.306958881268059, -1.2574917678741, -1.25238310147556, 1.21597519660884], a = 0.2, v = 0.2, t = 0.2)
movej(p[-0.438814681902472, -0.12186864087542, 0.307582047783062, -1.28415487149448, -1.2639663406322, 1.21077949985196], a = 0.2, v = 0.2, t = 0.2)
movej(p[-0.439105017220474, -0.121742037594392, 0.308014733856994, -1.29589844229929, -1.26724658643761, 1.19280570982191], a = 0.2, v = 0.2, t = 0.2)
movej(p[-0.440879930048395, -0.121545141915142, 0.307944287820575, -1.3084130929266, -1.27857819009495, 1.16637849940443], a = 0.2, v = 0.2, t = 0.2)
movej(p[-0.443401561319139, -0.121300012392368, 0.307769195639361, -1.32632158868536, -1.27000378669739, 1.14257532899755], a = 0.2, v = 0.2, t = 0.2)
movej(p[-0.445888006514617, -0.121014945186563, 0.307217521047778, -1.31904346517941, -1.24115645136084, 1.14688341600647], a = 0.2, v = 0.2, t = 0.2)
movej(p[-0.447863770364143, -0.120619963491163, 0.307073300547301, -1.27995208841587, -1.23396114151594, 1.14584996270962], a = 0.2, v = 0.2, t = 0.2)
movej(p[-0.449448697539157, -0.120454292188839, 0.306678343266079, -1.25898244516462, -1.19788643042168, 1.16040269714595], a = 0.2, v = 0.2, t = 0.2)
movej(p[-0.450610859653424, -0.120411819577627, 0.306706290479891, -1.26056311575738, -1.1926259212935, 1.15253273247972], a = 0.2, v = 0.2, t = 0.2)
movej(p[-0.451565562634968, -0.12038625762407, 0.306140825255, -1.27597733392226, -1.1461282216485, 1.18063452297245], a = 0.2, v = 0.2, t = 0.2)
movej(p[-0.452386594966108, -0.120284679385793, 0.305788143598502, -1.2904850212302, -1.14030391818674, 1.18978459611951], a = 0.2, v = 0.2, t = 0.2)
movej(p[-0.453152155951723, -0.120171155807845, 0.305442418865578, -1.29363400835294, -1.14212196954318, 1.18495419896282], a = 0.2, v = 0.2, t = 0.2)
movej(p[-0.453923160864425, -0.120164609037558, 0.305247399951654, -1.27339626534156, -1.13430276556892, 1.18905843612918], a = 0.2, v = 0.2, t = 0.2)
movej(p[-0.453882577011086, -0.120102264676009, 0.305332854429777, -1.24360570025652, -1.13167607252689, 1.20397350964159], a = 0.2, v = 0.2, t = 0.2)
movej(p[-0.452910569816191, -0.120252571936655, 0.305084453658904, -1.21808589003356, -1.13600727199693, 1.2220183761521], a = 0.2, v = 0.2, t = 0.2)
movej(p[-0.450789377550879, -0.120442651941691, 0.304610064050181, -1.21322376875323, -1.18741365007846, 1.22064170813292], a = 0.2, v = 0.2, t = 0.2)
movej(p[-0.448414439180182, -0.120790078934249, 0.304310416194968, -1.19263672744333, -1.21854993362028, 1.2043654116133], a = 0.2, v = 0.2, t = 0.2)
movej(p[-0.446081260919391, -0.121062090407944, 0.304250584285222, -1.21028942671435, -1.22423153329826, 1.20481859504745], a = 0.2, v = 0.2, t = 0.2)
movej(p[-0.444197727547142, -0.121309185999623, 0.305173456125712, -1.23261666759893, -1.1951707499579, 1.21958374010603], a = 0.2, v = 0.2, t = 0.2)
movej(p[-0.443324103645722, -0.121407251150675, 0.305749315296879, -1.28321862966766, -1.19993818921669, 1.21604623716268], a = 0.2, v = 0.2, t = 0.2)
movej(p[-0.443908213573071, -0.121309658023698, 0.306163011023639, -1.29593506979724, -1.21016093280669, 1.20278335608291], a = 0.2, v = 0.2, t = 0.2)
movej(p[-0.445736149240551, -0.121076582979191, 0.306083772804523, -1.27745556744555, -1.21576600840853, 1.16489335282976], a = 0.2, v = 0.2, t = 0.2)
movej(p[-0.447976408964515, -0.120911296772449, 0.305886026993346, -1.27448651305022, -1.21226581885528, 1.14459713661976], a = 0.2, v = 0.2, t = 0.2)
movej(p[-0.449878808980828, -0.120722179726286, 0.305888988543837, -1.28098204190316, -1.18827268461916, 1.15751150571206], a = 0.2, v = 0.2, t = 0.2)
movej(p[-0.451491694510908, -0.120609542718803, 0.305668411896152, -1.31052147045084, -1.1885808577668, 1.15328983746804], a = 0.2, v = 0.2, t = 0.2)
movej(p[-0.452864879879496, -0.120368411816744, 0.305474063853799, -1.28834956825371, -1.19913384525145, 1.13791416116271], a = 0.2, v = 0.2, t = 0.2)
movej(p[-0.454037366430739, -0.120183849694687, 0.305007550258437, -1.28136927575825, -1.19917641475662, 1.12985156539036], a = 0.2, v = 0.2, t = 0.2)
movej(p[-0.45497572648057, -0.12006637543927, 0.304838417132485, -1.28743877100134, -1.19569135268902, 1.13761614490243], a = 0.2, v = 0.2, t = 0.2)
movej(p[-0.455600873874751, -0.119894044134242, 0.304461688706617, -1.30183234983798, -1.15543015861787, 1.16134583826587], a = 0.2, v = 0.2, t = 0.2)
movej(p[-0.456042237372495, -0.119895178700112, 0.3042996217201, -1.31618486709912, -1.1335700670955, 1.16624418580696], a = 0.2, v = 0.2, t = 0.2)
movej(p[-0.456151801322312, -0.119991418922597, 0.304185482413214, -1.28445864114935, -1.11857463847001, 1.1729188940051], a = 0.2, v = 0.2, t = 0.2)
movej(p[-0.455493553692079, -0.120019646555657, 0.303940675875465, -1.22858646447519, -1.13328550812565, 1.17179922506778], a = 0.2, v = 0.2, t = 0.2)
movej(p[-0.453839807404679, -0.120204410329782, 0.303719360496016, -1.18066336125441, -1.14236054372635, 1.17938717070384], a = 0.2, v = 0.2, t = 0.2)
movej(p[-0.451409060048667, -0.120323873408571, 0.30338380596625, -1.17410541639561, -1.15118935202559, 1.19350997621854], a = 0.2, v = 0.2, t = 0.2)
movej(p[-0.448705222220587, -0.120784790584933, 0.303730861054214, -1.2071375959894, -1.17762495223519, 1.2018920352258], a = 0.2, v = 0.2, t = 0.2)
movej(p[-0.446274373610392, -0.121006431430394, 0.304181397385666, -1.21284965123167, -1.21017371548344, 1.21447062213799], a = 0.2, v = 0.2, t = 0.2)
movej(p[-0.444523892943623, -0.121221451409729, 0.305191027977476, -1.25379287753159, -1.21609971853583, 1.23395063562735], a = 0.2, v = 0.2, t = 0.2)
movej(p[-0.444092060408521, -0.12120296512224, 0.305633453572579, -1.28027801707311, -1.20001075158007, 1.24338540995274], a = 0.2, v = 0.2, t = 0.2)
movej(p[-0.445020136045279, -0.121225264299672, 0.305807369924717, -1.34803352341673, -1.20994831605202, 1.20230379600422], a = 0.2, v = 0.2, t = 0.2)
movej(p[-0.446993786129163, -0.121031443516691, 0.305401854859556, -1.3303314483268, -1.21966646581645, 1.15394379539212], a = 0.2, v = 0.2, t = 0.2)
movej(p[-0.449368597625961, -0.120827872740197, 0.305350723337201, -1.33030208759312, -1.22506813448207, 1.10998860528938], a = 0.2, v = 0.2, t = 0.2)
movej(p[-0.451442561899411, -0.120465361044816, 0.305297426702547, -1.29594721128418, -1.19375443361596, 1.12850764582506], a = 0.2, v = 0.2, t = 0.2)
movej(p[-0.452969151083104, -0.120285385178046, 0.30516061179213, -1.28892939013366, -1.18222117486727, 1.13118578853491], a = 0.2, v = 0.2, t = 0.2)
movej(p[-0.454102396358012, -0.120277505855332, 0.304969792924951, -1.2938229436729, -1.18044064805787, 1.12461043180718], a = 0.2, v = 0.2, t = 0.2)
movej(p[-0.454814111034875, -0.120330475006203, 0.304725301559471, -1.29491401778331, -1.18030844881924, 1.11106923034772], a = 0.2, v = 0.2, t = 0.2)
movej(p[-0.455330375936372, -0.120256901563087, 0.30465727122543, -1.26412101262398, -1.16569049452646, 1.12927150992438], a = 0.2, v = 0.2, t = 0.2)
movej(p[-0.455454645707036, -0.12008126136805, 0.304105915908428, -1.19489799803259, -1.14860087711706, 1.16808650238961], a = 0.2, v = 0.2, t = 0.2)
movej(p[-0.454684769327628, -0.120028569252274, 0.303769341350618, -1.13021982773971, -1.12419794093897, 1.20740544216544], a = 0.2, v = 0.2, t = 0.2)
movej(p[-0.452988806582348, -0.120228607966999, 0.30350759100519, -1.11443794310023, -1.13088158531842, 1.20451727964748], a = 0.2, v = 0.2, t = 0.2)
movej(p[-0.450319129776501, -0.120536115869213, 0.30339794746959, -1.15791650892231, -1.13375803647239, 1.21788728607112], a = 0.2, v = 0.2, t = 0.2)
movej(p[-0.447372149131109, -0.120919803517429, 0.303863185307934, -1.19637863583724, -1.16387171896279, 1.22269521774703], a = 0.2, v = 0.2, t = 0.2)
movej(p[-0.444499711307178, -0.121109592296906, 0.304490048878089, -1.2332569117627, -1.19067919780775, 1.24956992894048], a = 0.2, v = 0.2, t = 0.2)
movej(p[-0.442036673641563, -0.121420918526727, 0.305573328664366, -1.2313639326146, -1.23287845847026, 1.24376595218619], a = 0.2, v = 0.2, t = 0.2)
movej(p[-0.440828687715838, -0.121613181672389, 0.306450707255496, -1.25959776615567, -1.25659796573016, 1.23638413139019], a = 0.2, v = 0.2, t = 0.2)
movej(p[-0.441335139343296, -0.121574346159153, 0.306987307633857, -1.27509060623221, -1.26566851748084, 1.20721749161141], a = 0.2, v = 0.2, t = 0.2)
movej(p[-0.443388087748346, -0.121328182844217, 0.306900304135759, -1.29742210314043, -1.2546303622662, 1.18058700589799], a = 0.2, v = 0.2, t = 0.2)
movej(p[-0.445947260922771, -0.120949081806173, 0.306430289090516, -1.28625803464405, -1.25920757322721, 1.14551636997052], a = 0.2, v = 0.2, t = 0.2)
movej(p[-0.448364292445922, -0.120820479858457, 0.305754178532664, -1.29785745828306, -1.23953174311619, 1.12790811157664], a = 0.2, v = 0.2, t = 0.2)
movej(p[-0.450367400636451, -0.120618713008728, 0.305615764220591, -1.29807660301976, -1.22710317504505, 1.12356382068576], a = 0.2, v = 0.2, t = 0.2)
movej(p[-0.45197522963341, -0.12049540896297, 0.305363132715751, -1.30066212971093, -1.20560178107655, 1.12371843405927], a = 0.2, v = 0.2, t = 0.2)
movej(p[-0.453110528132358, -0.120252083378392, 0.305432737900734, -1.27946338691746, -1.19030539102677, 1.13442961059779], a = 0.2, v = 0.2, t = 0.2)
movej(p[-0.454012374469085, -0.120157232485647, 0.305071764023594, -1.24581343741145, -1.17461275321247, 1.13803184390982], a = 0.2, v = 0.2, t = 0.2)
movej(p[-0.45467524051649, -0.120122299829687, 0.305072512919605, -1.23939829034669, -1.14763959498147, 1.15524302763155], a = 0.2, v = 0.2, t = 0.2)
movej(p[-0.454465134159212, -0.120199525982931, 0.30507179015619, -1.23601402763227, -1.14370804016485, 1.17074259766235], a = 0.2, v = 0.2, t = 0.2)
movej(p[-0.453154296812643, -0.120196276131542, 0.304983074195366, -1.24539196397951, -1.14982947554246, 1.20656608115102], a = 0.2, v = 0.2, t = 0.2)
movej(p[-0.450668760468241, -0.120361705756686, 0.304385984322162, -1.21390932526194, -1.16441894874836, 1.2311869799009], a = 0.2, v = 0.2, t = 0.2)
movej(p[-0.447783032239599, -0.120580059343815, 0.303947120510136, -1.20435254150376, -1.17430685848668, 1.24615491216948], a = 0.2, v = 0.2, t = 0.2)
movej(p[-0.444745796771178, -0.120988005204468, 0.304192958234339, -1.2233566525641, -1.20983169019424, 1.23990774480135], a = 0.2, v = 0.2, t = 0.2)
movej(p[-0.441991288304209, -0.121411868237372, 0.305129578854884, -1.26782842473655, -1.22491146651287, 1.25721775277521], a = 0.2, v = 0.2, t = 0.2)
movej(p[-0.440265668139932, -0.121608385545749, 0.30652520778714, -1.30766238218537, -1.25733705712036, 1.25184427370087], a = 0.2, v = 0.2, t = 0.2)
movej(p[-0.439744254199712, -0.121574276028954, 0.307340846529604, -1.34612549987944, -1.25415799881755, 1.24323956731077], a = 0.2, v = 0.2, t = 0.2)
movej(p[-0.440952485321002, -0.121422395343875, 0.307574281555134, -1.35581358905741, -1.27093579646471, 1.18215134025052], a = 0.2, v = 0.2, t = 0.2)
movej(p[-0.443239661207003, -0.12129505452723, 0.307102291310943, -1.36824713019417, -1.25641243620213, 1.14656944167765], a = 0.2, v = 0.2, t = 0.2)
movej(p[-0.445932936025982, -0.121140477511324, 0.306811831561391, -1.34382325683718, -1.23849081020111, 1.11885737888303], a = 0.2, v = 0.2, t = 0.2)
movej(p[-0.448274371383678, -0.120745352086622, 0.306480309656404, -1.30284154067587, -1.19498002759506, 1.14838814393821], a = 0.2, v = 0.2, t = 0.2)
movej(p[-0.450023042783027, -0.120529766055871, 0.30645336634473, -1.30577661017408, -1.16100070811779, 1.16936545638081], a = 0.2, v = 0.2, t = 0.2)
movej(p[-0.451362143165835, -0.120342039777384, 0.306362892326202, -1.30653691612732, -1.13734921089819, 1.18656744850875], a = 0.2, v = 0.2, t = 0.2)
movej(p[-0.452381908659682, -0.120354528049773, 0.305989469368269, -1.33336122770429, -1.13479404121726, 1.184679376219], a = 0.2, v = 0.2, t = 0.2)
movej(p[-0.453208286939459, -0.120207267863661, 0.3055246093744, -1.3234813030374, -1.13211915334976, 1.18406076120409], a = 0.2, v = 0.2, t = 0.2)
movej(p[-0.453858461308121, -0.120175138931214, 0.304861882753135, -1.28992493746916, -1.13346874213226, 1.17961507455324], a = 0.2, v = 0.2, t = 0.2)
movej(p[-0.453622315689832, -0.120282138139995, 0.3045982203205, -1.28280068845393, -1.1395448798425, 1.19094503100056], a = 0.2, v = 0.2, t = 0.2)
movej(p[-0.452272940819825, -0.120520974726451, 0.304443589312087, -1.26330344591695, -1.1481648980555, 1.21682172025895], a = 0.2, v = 0.2, t = 0.2)
movej(p[-0.449590589999137, -0.120641651146213, 0.304235364964396, -1.24512081644533, -1.16029457744547, 1.24796954741014], a = 0.2, v = 0.2, t = 0.2)
movej(p[-0.446612088485121, -0.120810279610356, 0.304504914949712, -1.21504711934672, -1.17420391479892, 1.26427695161458], a = 0.2, v = 0.2, t = 0.2)
movej(p[-0.443483369811856, -0.121131063682067, 0.304900910007509, -1.20149848725784, -1.1974701813612, 1.27592661343831], a = 0.2, v = 0.2, t = 0.2)
movej(p[-0.440734674232319, -0.121572030127787, 0.306024159748536, -1.21672550068776, -1.19709677732059, 1.28549348648681], a = 0.2, v = 0.2, t = 0.2)
movej(p[-0.438950029110485, -0.121942124091129, 0.306857292274016, -1.23844944040194, -1.2268196966322, 1.25308773721053], a = 0.2, v = 0.2, t = 0.2)
movej(p[-0.439063151457768, -0.121900994187292, 0.307357570680661, -1.26998382603168, -1.25478046151097, 1.20920999374362], a = 0.2, v = 0.2, t = 0.2)
movej(p[-0.440863078362124, -0.121653472084, 0.30756237750637, -1.29955210225455, -1.26722133000737, 1.16623438271877], a = 0.2, v = 0.2, t = 0.2)
movej(p[-0.443457892446175, -0.121252335683124, 0.307546235464786, -1.3199634707319, -1.24729803739245, 1.16094516376006], a = 0.2, v = 0.2, t = 0.2)
movej(p[-0.446042893043838, -0.121012461927955, 0.307301345703324, -1.324000271098, -1.22875716122688, 1.15817562373909], a = 0.2, v = 0.2, t = 0.2)
movej(p[-0.448220083886302, -0.120778835308258, 0.306825998466315, -1.32039588374743, -1.20479229885984, 1.16799949801944], a = 0.2, v = 0.2, t = 0.2)
movej(p[-0.449944164137782, -0.120609067837919, 0.306544167692674, -1.31610815838906, -1.18717170782245, 1.16617764086984], a = 0.2, v = 0.2, t = 0.2)
movej(p[-0.451304425266391, -0.120510307350952, 0.306470914567752, -1.32658204214006, -1.15516194126152, 1.18365941851812], a = 0.2, v = 0.2, t = 0.2)
movej(p[-0.45233558531229, -0.120458303236245, 0.306467372267045, -1.30604247252771, -1.14392056791595, 1.18924181716177], a = 0.2, v = 0.2, t = 0.2)
movej(p[-0.453262962246476, -0.120347840161171, 0.306063157246808, -1.31587103071919, -1.13817577755246, 1.19883803020639], a = 0.2, v = 0.2, t = 0.2)
movej(p[-0.453685848495062, -0.120275432901564, 0.305564981284408, -1.24192276973309, -1.13598399296551, 1.19750947373902], a = 0.2, v = 0.2, t = 0.2)
movej(p[-0.453073135600314, -0.120194159414582, 0.304907486897342, -1.20136121126309, -1.13085123561443, 1.21473254842238], a = 0.2, v = 0.2, t = 0.2)
movej(p[-0.450928312609754, -0.120458381823871, 0.304658603686789, -1.14356668705594, -1.1392863842368, 1.22500254919305], a = 0.2, v = 0.2, t = 0.2)
movej(p[-0.447739762266854, -0.120769636927948, 0.304715295691363, -1.17769622143495, -1.15587091839699, 1.24064354037988], a = 0.2, v = 0.2, t = 0.2)
movej(p[-0.444694530871241, -0.121167272593186, 0.305245093699519, -1.21078159198576, -1.20244592107914, 1.24213396209822], a = 0.2, v = 0.2, t = 0.2)
movej(p[-0.442092271519112, -0.121547452863119, 0.305934432344389, -1.21419696818702, -1.22040345315177, 1.25743796022563], a = 0.2, v = 0.2, t = 0.2)
movej(p[-0.440336182363668, -0.121738893520075, 0.306686770529714, -1.24465337295894, -1.24603685496023, 1.24772236618598], a = 0.2, v = 0.2, t = 0.2)
movej(p[-0.439851655886694, -0.121855879215787, 0.307296238077505, -1.25774275437448, -1.24238840612573, 1.23923967497708], a = 0.2, v = 0.2, t = 0.2)
movej(p[-0.44096828663974, -0.12159986090393, 0.307509391048737, -1.31478678023273, -1.25283100217988, 1.1921620707163], a = 0.2, v = 0.2, t = 0.2)
movej(p[-0.443294442091765, -0.121373083621367, 0.30752180221823, -1.31485579396489, -1.25733379422919, 1.16409387808297], a = 0.2, v = 0.2, t = 0.2)
movej(p[-0.445747942149694, -0.121077912104959, 0.30712231076019, -1.27752477585588, -1.23619484465394, 1.14782064915051], a = 0.2, v = 0.2, t = 0.2)
movej(p[-0.44796291306285, -0.120853966894372, 0.306892727488735, -1.23994424490878, -1.20912662692378, 1.16018768312016], a = 0.2, v = 0.2, t = 0.2)
movej(p[-0.449646270825793, -0.120600025361821, 0.306768223713343, -1.2239163652596, -1.19301968674958, 1.15718527326696], a = 0.2, v = 0.2, t = 0.2)
movej(p[-0.450833167039479, -0.120452357899397, 0.306608832681982, -1.24180838613892, -1.17144937648218, 1.16745527237398], a = 0.2, v = 0.2, t = 0.2)
movej(p[-0.451800717585152, -0.120353283422978, 0.306261513868656, -1.26796544905112, -1.18059924141775, 1.1465936634895], a = 0.2, v = 0.2, t = 0.2)
movej(p[-0.452666903349531, -0.120182789532159, 0.305811433645938, -1.27677792828016, -1.188188164024, 1.13821885023743], a = 0.2, v = 0.2, t = 0.2)
movej(p[-0.453214599577244, -0.120087596933226, 0.305543399835093, -1.27422563213507, -1.19911495802915, 1.13869344756729], a = 0.2, v = 0.2, t = 0.2)
movej(p[-0.45300382487529, -0.12001343039428, 0.305150337371333, -1.25235942709088, -1.197022037893, 1.16557641238377], a = 0.2, v = 0.2, t = 0.2)
movej(p[-0.451556985621066, -0.120139605575225, 0.304604778668944, -1.2156516840765, -1.17370908664378, 1.1985746778933], a = 0.2, v = 0.2, t = 0.2)
movej(p[-0.449040985483414, -0.120396850975196, 0.304491795654185, -1.23268562344118, -1.16673897933767, 1.21766117145042], a = 0.2, v = 0.2, t = 0.2)
movej(p[-0.446172163530182, -0.120790227990771, 0.304897658003851, -1.23784520797257, -1.16349059363646, 1.24096216875232], a = 0.2, v = 0.2, t = 0.2)
movej(p[-0.443246900326916, -0.121256105484334, 0.305634589917334, -1.27540015735625, -1.1903802219028, 1.24928625069397], a = 0.2, v = 0.2, t = 0.2)
movej(p[-0.440688802627152, -0.121581014454374, 0.306523733106728, -1.28377136301603, -1.2225138572921, 1.25096683946033], a = 0.2, v = 0.2, t = 0.2)
movej(p[-0.438734548726511, -0.12181035698825, 0.307352370684494, -1.28799060033263, -1.26043348358365, 1.22172027147532], a = 0.2, v = 0.2, t = 0.2)
movej(p[-0.438471845713561, -0.121849845217816, 0.307915116468777, -1.32108458989869, -1.270066740538, 1.20410927609611], a = 0.2, v = 0.2, t = 0.2)
movej(p[-0.439884467863484, -0.121675192712086, 0.307917707494983, -1.33650933345405, -1.27197437644159, 1.17455210322385], a = 0.2, v = 0.2, t = 0.2)
movej(p[-0.442472964744152, -0.121323633121365, 0.307379188748289, -1.34361165737795, -1.25090800482494, 1.16594754613081], a = 0.2, v = 0.2, t = 0.2)
movej(p[-0.445292254686628, -0.120972599012362, 0.307094196020007, -1.31244755177864, -1.22196743978842, 1.16944106560419], a = 0.2, v = 0.2, t = 0.2)
movej(p[-0.44755548844654, -0.120661740251283, 0.306797085958996, -1.274754462446, -1.20316374369696, 1.17407668815589], a = 0.2, v = 0.2, t = 0.2)
movej(p[-0.449303985027044, -0.120613928038317, 0.306723527273201, -1.28616745717823, -1.18671861368754, 1.17456529913441], a = 0.2, v = 0.2, t = 0.2)
movej(p[-0.450734296580913, -0.120484801585795, 0.306554648269686, -1.30174279633141, -1.17944773650106, 1.17423723870932], a = 0.2, v = 0.2, t = 0.2)
movej(p[-0.451961304274632, -0.120417479858729, 0.306156344504301, -1.31019015339522, -1.18134771324381, 1.15708063698791], a = 0.2, v = 0.2, t = 0.2)
movej(p[-0.453082090105046, -0.120145466409907, 0.305951251252089, -1.29414812463379, -1.18237899539016, 1.15286216519079], a = 0.2, v = 0.2, t = 0.2)
movej(p[-0.453664511285036, -0.120123707619481, 0.305688237506748, -1.25986967323069, -1.1859187680211, 1.14425037950036], a = 0.2, v = 0.2, t = 0.2)
movej(p[-0.453218987728523, -0.120219260749441, 0.305312987739863, -1.25777544194065, -1.15927181599314, 1.17344117897423], a = 0.2, v = 0.2, t = 0.2)
movej(p[-0.451239434686836, -0.120471440286112, 0.304671444018413, -1.23502421463048, -1.15500151208342, 1.20432539656543], a = 0.2, v = 0.2, t = 0.2)
movej(p[-0.448291843745422, -0.120680982641269, 0.304159341415027, -1.23271232488305, -1.16304937887886, 1.23660260832917], a = 0.2, v = 0.2, t = 0.2)
movej(p[-0.444930790718458, -0.120988483057763, 0.304682403166917, -1.22493517249486, -1.17449116525323, 1.27382824538319], a = 0.2, v = 0.2, t = 0.2)
movej(p[-0.441718941651146, -0.121391623009523, 0.305620679561272, -1.24130518155361, -1.19946060224211, 1.2900077939561], a = 0.2, v = 0.2, t = 0.2)
movej(p[-0.438928809802254, -0.121791928794761, 0.306695202695365, -1.27761790169259, -1.22474422540549, 1.29547463516098], a = 0.2, v = 0.2, t = 0.2)
movej(p[-0.437712146853598, -0.12199617606441, 0.307151708400048, -1.30865878504866, -1.27365892473082, 1.25282314092825], a = 0.2, v = 0.2, t = 0.2)
movej(p[-0.438519015888613, -0.121825598412474, 0.307485957284404, -1.33422494240086, -1.27917242005047, 1.21938523303099], a = 0.2, v = 0.2, t = 0.2)
movej(p[-0.44078802066734, -0.121562190990498, 0.307585946244619, -1.32024449565616, -1.27291811704789, 1.18499300351824], a = 0.2, v = 0.2, t = 0.2)
movej(p[-0.443582885875992, -0.121259378332245, 0.307838655188548, -1.31117734440859, -1.24256936246582, 1.17396911836545], a = 0.2, v = 0.2, t = 0.2)
movej(p[-0.446020366166071, -0.121017632187419, 0.30766764465113, -1.29979834828422, -1.22426376773339, 1.16680004963438], a = 0.2, v = 0.2, t = 0.2)
movej(p[-0.448095116934563, -0.120752435615824, 0.307159614988406, -1.30450024661134, -1.21203004844507, 1.15127449535959], a = 0.2, v = 0.2, t = 0.2)
movej(p[-0.449691140934254, -0.120451033361617, 0.306643427580223, -1.32254840837385, -1.19431706732012, 1.16198201244861], a = 0.2, v = 0.2, t = 0.2)
movej(p[-0.45105520672682, -0.120368017687716, 0.306288668454843, -1.33357989022128, -1.18946350648277, 1.14391330222937], a = 0.2, v = 0.2, t = 0.2)
movej(p[-0.452406433689071, -0.120344056370461, 0.306354776876083, -1.33775397484807, -1.16613733197348, 1.16467536183804], a = 0.2, v = 0.2, t = 0.2)
movej(p[-0.453467220370047, -0.120365395012994, 0.306275259694301, -1.31568658727583, -1.1314408869506, 1.18052737140344], a = 0.2, v = 0.2, t = 0.2)
movej(p[-0.453743537997678, -0.120244772859128, 0.305851975081355, -1.27064600875825, -1.08778587570642, 1.22869220876871], a = 0.2, v = 0.2, t = 0.2)
movej(p[-0.452575468141538, -0.120281354531461, 0.305024275261779, -1.22561319442788, -1.07578596978182, 1.2596379462612], a = 0.2, v = 0.2, t = 0.2)
movej(p[-0.450058535466474, -0.120459885551937, 0.304374573471092, -1.20335373422725, -1.12595078341305, 1.26207297015014], a = 0.2, v = 0.2, t = 0.2)
movej(p[-0.447076981580696, -0.120877318804361, 0.304390878650431, -1.21939918940471, -1.17985653382525, 1.24969766017237], a = 0.2, v = 0.2, t = 0.2)
movej(p[-0.443738728833382, -0.121380684670055, 0.305140998094455, -1.2494337907075, -1.23605611944929, 1.23260435553859], a = 0.2, v = 0.2, t = 0.2)
movej(p[-0.440897365781625, -0.121711950034238, 0.306243317705186, -1.28403080933081, -1.23261598682966, 1.26025418826957], a = 0.2, v = 0.2, t = 0.2)
movej(p[-0.43927532424579, -0.121907602286946, 0.307107897710875, -1.30945931727505, -1.2689619706287, 1.23279070536849], a = 0.2, v = 0.2, t = 0.2)
movej(p[-0.439233973137689, -0.12177106918064, 0.307574550553726, -1.31938134339409, -1.27254180601487, 1.20724693178342], a = 0.2, v = 0.2, t = 0.2)
movej(p[-0.440853811769363, -0.121541940335488, 0.307825549581128, -1.32903111852861, -1.27001140084747, 1.17682976840317], a = 0.2, v = 0.2, t = 0.2)
movej(p[-0.443171115441541, -0.121198882532291, 0.307622355085484, -1.29707984953765, -1.24354948634418, 1.1768645563592], a = 0.2, v = 0.2, t = 0.2)
movej(p[-0.445671213573744, -0.120869889800225, 0.307415315364982, -1.28545740516071, -1.20741929697067, 1.19321712391637], a = 0.2, v = 0.2, t = 0.2)
movej(p[-0.447882011776248, -0.120638502501301, 0.307007992577745, -1.26381308338166, -1.20257168140239, 1.18271960883389], a = 0.2, v = 0.2, t = 0.2)
movej(p[-0.449538764446503, -0.12049606399038, 0.306932706215026, -1.28817247491735, -1.16315974612085, 1.20633210544698], a = 0.2, v = 0.2, t = 0.2)
movej(p[-0.450959174385095, -0.120307018289663, 0.30668284119969, -1.28881807407598, -1.1588312461747, 1.18667125535847], a = 0.2, v = 0.2, t = 0.2)
movej(p[-0.452137171716866, -0.120258164189399, 0.306392837596733, -1.30478858225054, -1.15355343271336, 1.17740001271673], a = 0.2, v = 0.2, t = 0.2)
movej(p[-0.453155587595637, -0.120178964720553, 0.305727661703003, -1.29434446013052, -1.1740643564521, 1.14478360485928], a = 0.2, v = 0.2, t = 0.2)
movej(p[-0.453883566282525, -0.120157714216972, 0.305259167148995, -1.2809815664196, -1.15843334090109, 1.17179712628562], a = 0.2, v = 0.2, t = 0.2)
movej(p[-0.453372459018592, -0.12023031979245, 0.304890475549871, -1.2279969067701, -1.13785642908085, 1.20415686616235], a = 0.2, v = 0.2, t = 0.2)
movej(p[-0.451557450426642, -0.120441979150983, 0.304504198026974, -1.18185182489018, -1.13323105732499, 1.2293224267496], a = 0.2, v = 0.2, t = 0.2)
movej(p[-0.448485923319067, -0.120749559351807, 0.30446618638283, -1.1684505817422, -1.16432382988139, 1.23143840647172], a = 0.2, v = 0.2, t = 0.2)
movej(p[-0.445136204225865, -0.121003248694987, 0.304605178569434, -1.19567281421817, -1.19738854214236, 1.22660832698225], a = 0.2, v = 0.2, t = 0.2)
movej(p[-0.441969944972931, -0.121276547476682, 0.305587396348636, -1.24484199958818, -1.22240459769821, 1.23804323661846], a = 0.2, v = 0.2, t = 0.2)
movej(p[-0.439388585332009, -0.121600555621863, 0.306730698129341, -1.26650201622157, -1.26122439431272, 1.23677845874024], a = 0.2, v = 0.2, t = 0.2)
movej(p[-0.438566870171071, -0.121910107122798, 0.307554660466498, -1.2874667974825, -1.28001687270148, 1.22482415913431], a = 0.2, v = 0.2, t = 0.2)
movej(p[-0.439426978157407, -0.121834712795195, 0.307772703087119, -1.29664454591054, -1.29220080739969, 1.18940579729899], a = 0.2, v = 0.2, t = 0.2)
movej(p[-0.441991669881409, -0.12153409374299, 0.307365335812063, -1.30519015399553, -1.27360301811186, 1.15453187189487], a = 0.2, v = 0.2, t = 0.2)
movej(p[-0.444776737245555, -0.121075639343946, 0.307077575081624, -1.28789064684382, -1.2571217324928, 1.13767903136995], a = 0.2, v = 0.2, t = 0.2)
movej(p[-0.447276043685605, -0.120851517963509, 0.306977466515399, -1.29509911581139, -1.22518861530876, 1.14852273917358], a = 0.2, v = 0.2, t = 0.2)
movej(p[-0.448952939349664, -0.120763137726553, 0.306897844703854, -1.28745585807335, -1.20553554359733, 1.16975130858937], a = 0.2, v = 0.2, t = 0.2)
movej(p[-0.450309056755316, -0.120662799662404, 0.306425617757598, -1.29802506459599, -1.18986637134976, 1.1743664725637], a = 0.2, v = 0.2, t = 0.2)
movej(p[-0.451408992115647, -0.120484257244953, 0.305945816368827, -1.28339343157617, -1.18392065734989, 1.17157108676064], a = 0.2, v = 0.2, t = 0.2)
movej(p[-0.45245264799661, -0.120356099653414, 0.305540417869248, -1.30502437568122, -1.15502873034863, 1.1728205287901], a = 0.2, v = 0.2, t = 0.2)
movej(p[-0.453186616609379, -0.12027209654529, 0.305347690923038, -1.33100698758808, -1.13064006056114, 1.18556233978425], a = 0.2, v = 0.2, t = 0.2)
movej(p[-0.452874807037267, -0.120345072418931, 0.304962131647303, -1.31208252281862, -1.10152280485337, 1.21405370105659], a = 0.2, v = 0.2, t = 0.2)
movej(p[-0.451270881690939, -0.120416067795157, 0.304523845303044, -1.24364418559986, -1.09461781228541, 1.24739881559037], a = 0.2, v = 0.2, t = 0.2)
movej(p[-0.448625366709825, -0.120655433450734, 0.304339078899096, -1.20542363728076, -1.09093089043013, 1.28555439711047], a = 0.2, v = 0.2, t = 0.2)
movej(p[-0.445834803267571, -0.121018921446445, 0.304808164986006, -1.23088338724224, -1.12623714553565, 1.29737209385458], a = 0.2, v = 0.2, t = 0.2)
movej(p[-0.443573046133417, -0.121392056306877, 0.305792491116987, -1.29020497504364, -1.17180221931106, 1.27773512177701], a = 0.2, v = 0.2, t = 0.2)
movej(p[-0.44224926833953, -0.121616968583055, 0.306881162747387, -1.31105565702546, -1.22356492581055, 1.24943845404056], a = 0.2, v = 0.2, t = 0.2)
movej(p[-0.442225181648342, -0.121517370419306, 0.307183922798063, -1.29109940396095, -1.24544844521491, 1.20078128380449], a = 0.2, v = 0.2, t = 0.2)
movej(p[-0.443384161767786, -0.1213541231628, 0.307328265742738, -1.2899299092476, -1.24855910180365, 1.16324816056874], a = 0.2, v = 0.2, t = 0.2)
movej(p[-0.445256550994637, -0.121112716669898, 0.307002006449005, -1.30251833692815, -1.23071475813948, 1.13085426821842], a = 0.2, v = 0.2, t = 0.2)
movej(p[-0.447292295625382, -0.120912416345209, 0.306811629250407, -1.3184337437016, -1.2238127231881, 1.12417292060175], a = 0.2, v = 0.2, t = 0.2)
movej(p[-0.449007863170573, -0.120597978495238, 0.306472994690899, -1.31185531397916, -1.21248080625079, 1.13204396341438], a = 0.2, v = 0.2, t = 0.2)
movej(p[-0.450450952098238, -0.120355721125584, 0.30621151622028, -1.29504201268244, -1.20238650874627, 1.13707665826584], a = 0.2, v = 0.2, t = 0.2)
movej(p[-0.451592131970208, -0.120195912944577, 0.306182971646466, -1.33111225838544, -1.1713810434871, 1.1586971439058], a = 0.2, v = 0.2, t = 0.2)
movej(p[-0.452486706307594, -0.120194269991457, 0.305797630764654, -1.32076346204137, -1.1673239987705, 1.14736959592132], a = 0.2, v = 0.2, t = 0.2)
movej(p[-0.453253493076263, -0.120203479408376, 0.30534263480804, -1.32166225771724, -1.16397620354469, 1.16100651946926], a = 0.2, v = 0.2, t = 0.2)
movej(p[-0.453004869198152, -0.120225623227412, 0.304546941273436, -1.25847413130628, -1.16573903902921, 1.16851220160886], a = 0.2, v = 0.2, t = 0.2)
movej(p[-0.45150967803952, -0.120401114750355, 0.304273467299307, -1.25441694169313, -1.16643007143095, 1.20031119807276], a = 0.2, v = 0.2, t = 0.2)
movej(p[-0.44848112729473, -0.120676516317887, 0.304250450050826, -1.24769308457392, -1.16762921599091, 1.23224239447789], a = 0.2, v = 0.2, t = 0.2)
movej(p[-0.444850871242327, -0.121065688982281, 0.304740542403886, -1.2481290500697, -1.18514775260898, 1.26023312756397], a = 0.2, v = 0.2, t = 0.2)
movej(p[-0.441510645347934, -0.121357285412594, 0.305623371977479, -1.22697522855419, -1.20922225288527, 1.27161332822012], a = 0.2, v = 0.2, t = 0.2)
movej(p[-0.439005491025051, -0.121642629277383, 0.306533322888776, -1.24516616607139, -1.25325421339058, 1.25296985256464], a = 0.2, v = 0.2, t = 0.2)
movej(p[-0.438163472791322, -0.121825323185651, 0.307527402129909, -1.29249006981039, -1.30395669987689, 1.19380741011814], a = 0.2, v = 0.2, t = 0.2)
movej(p[-0.439367591781813, -0.121942728486598, 0.307808461516958, -1.34689919207487, -1.31819123441582, 1.15038545891612], a = 0.2, v = 0.2, t = 0.2)
movej(p[-0.441732489911403, -0.121666543933738, 0.307774170984374, -1.34827471660618, -1.28974748511717, 1.12972214804309], a = 0.2, v = 0.2, t = 0.2)
movej(p[-0.444339537872008, -0.121282362108656, 0.307520517792634, -1.33512506011957, -1.24790861126579, 1.152660521956], a = 0.2, v = 0.2, t = 0.2)
movej(p[-0.446388992822618, -0.12082608704507, 0.307355864940028, -1.33613079135319, -1.19906433593194, 1.19134884219956], a = 0.2, v = 0.2, t = 0.2)
movej(p[-0.44812971815997, -0.120645835980733, 0.307027606808361, -1.30808345484135, -1.16943515947248, 1.21033472175197], a = 0.2, v = 0.2, t = 0.2)
movej(p[-0.449449424419311, -0.120484786529751, 0.306445976085053, -1.29060499096559, -1.17531221247739, 1.19382867953664], a = 0.2, v = 0.2, t = 0.2)
movej(p[-0.450591765504154, -0.120280494503221, 0.305979611234559, -1.25060806260229, -1.18711231515032, 1.16033786076365], a = 0.2, v = 0.2, t = 0.2)
movej(p[-0.45167278992787, -0.120117438192433, 0.305839301228708, -1.26127349872356, -1.18632875883635, 1.15731596310452], a = 0.2, v = 0.2, t = 0.2)
movej(p[-0.452477027891381, -0.120104216781367, 0.305629041396033, -1.25824857440372, -1.17189178453849, 1.16496286298294], a = 0.2, v = 0.2, t = 0.2)
movej(p[-0.452833896262269, -0.120258228870886, 0.305351605925082, -1.25695927233059, -1.15219116238145, 1.18611309651178], a = 0.2, v = 0.2, t = 0.2)
movej(p[-0.452207990336771, -0.120289063564842, 0.304739123076608, -1.21294809224569, -1.14568463637914, 1.2145865074689], a = 0.2, v = 0.2, t = 0.2)
movej(p[-0.450598670368189, -0.120380849268839, 0.304225215817109, -1.17959363615281, -1.12870392982844, 1.25752677998117], a = 0.2, v = 0.2, t = 0.2)
movej(p[-0.448186713063151, -0.120640817335041, 0.304049225985497, -1.17590307677655, -1.15073920800331, 1.2649681604011], a = 0.2, v = 0.2, t = 0.2)
movej(p[-0.445448828083639, -0.121089488664756, 0.304548318560954, -1.18453171764202, -1.18706000899714, 1.25399171050421], a = 0.2, v = 0.2, t = 0.2)
movej(p[-0.442884519777257, -0.121494238680387, 0.305668329073606, -1.22935458919076, -1.23160675472506, 1.22576035887032], a = 0.2, v = 0.2, t = 0.2)
movej(p[-0.441296777569692, -0.121669297865305, 0.306452557988205, -1.24284461155488, -1.25137159863403, 1.21481740302601], a = 0.2, v = 0.2, t = 0.2)
movej(p[-0.441344725841843, -0.12167165737682, 0.306883007554941, -1.27694887201842, -1.26721507134332, 1.19124164288186], a = 0.2, v = 0.2, t = 0.2)
movej(p[-0.442815502074424, -0.12154068074953, 0.306776379042429, -1.3079884960859, -1.25824056831656, 1.17737239594716], a = 0.2, v = 0.2, t = 0.2)
movej(p[-0.445070705223387, -0.121246528118417, 0.306655817162404, -1.32131655424844, -1.2381977617723, 1.16774841740841], a = 0.2, v = 0.2, t = 0.2)
movej(p[-0.447185998881324, -0.12085018791299, 0.306443802444388, -1.33821814992397, -1.20498997483629, 1.16439150027748], a = 0.2, v = 0.2, t = 0.2)
movej(p[-0.449065518997464, -0.120511256487324, 0.306222988488038, -1.30515386725134, -1.18325541661916, 1.16141915042237], a = 0.2, v = 0.2, t = 0.2)
movej(p[-0.450450024761916, -0.120362476192612, 0.305826996339498, -1.27970139488859, -1.17839735865438, 1.16495945712638], a = 0.2, v = 0.2, t = 0.2)
movej(p[-0.451563499648528, -0.120236691877261, 0.30564715857234, -1.26343538643587, -1.16945786580118, 1.17044570854871], a = 0.2, v = 0.2, t = 0.2)
movej(p[-0.452380642715667, -0.120183576394157, 0.30539487871805, -1.25986979923804, -1.17879834503471, 1.16318329686947], a = 0.2, v = 0.2, t = 0.2)
movej(p[-0.453196076082308, -0.120078370429226, 0.305193757944354, -1.25317641123239, -1.1771006257866, 1.14928538245747], a = 0.2, v = 0.2, t = 0.2)
movej(p[-0.4536908153461, -0.120073075411846, 0.30488423779355, -1.23231511692757, -1.18212690192596, 1.14578933881097], a = 0.2, v = 0.2, t = 0.2)
movej(p[-0.453262956050399, -0.120017348707236, 0.304494110848088, -1.21458087081054, -1.15471535707015, 1.1832335442609], a = 0.2, v = 0.2, t = 0.2)
movej(p[-0.451439988742173, -0.120173689395354, 0.304127286117762, -1.20158264374539, -1.13858273640594, 1.21933222203243], a = 0.2, v = 0.2, t = 0.2)
movej(p[-0.448885063088162, -0.120499919024865, 0.303935152899902, -1.20483787423276, -1.14825888740839, 1.23838610877501], a = 0.2, v = 0.2, t = 0.2)
movej(p[-0.446486008146429, -0.120900649834625, 0.304105668087657, -1.21353686602118, -1.18996778178078, 1.22715726798641], a = 0.2, v = 0.2, t = 0.2)
movej(p[-0.44434359887003, -0.121256981402549, 0.304688040718455, -1.21512566498504, -1.22033190490832, 1.21700156774511], a = 0.2, v = 0.2, t = 0.2)
movej(p[-0.44285598399179, -0.121440743402638, 0.305395496253354, -1.23115603651201, -1.23420378422088, 1.2134134267233], a = 0.2, v = 0.2, t = 0.2)
movej(p[-0.442379575780394, -0.121578348620574, 0.306095887986966, -1.24861765770741, -1.23063978880502, 1.20643118508765], a = 0.2, v = 0.2, t = 0.2)
movej(p[-0.443396990720582, -0.121479820211308, 0.306484320826013, -1.29453889317926, -1.23621835055539, 1.18846643061309], a = 0.2, v = 0.2, t = 0.2)
movej(p[-0.445375590829553, -0.121083535399437, 0.306360386338053, -1.32528976581508, -1.22759677797881, 1.17555675463082], a = 0.2, v = 0.2, t = 0.2)
movej(p[-0.447627109055038, -0.120776259353132, 0.306150734829694, -1.33290406138697, -1.21265792931562, 1.15891618229896], a = 0.2, v = 0.2, t = 0.2)
movej(p[-0.449519553081376, -0.120481489347518, 0.306086335679306, -1.3180488137359, -1.18375665069186, 1.16255573408432], a = 0.2, v = 0.2, t = 0.2)
movej(p[-0.450986954955313, -0.12047925325787, 0.306252561585434, -1.30738628608891, -1.16054975822084, 1.17657269925922], a = 0.2, v = 0.2, t = 0.2)
movej(p[-0.452109591986565, -0.120226152393183, 0.305831108538397, -1.29059481888707, -1.16961941902367, 1.17058421727299], a = 0.2, v = 0.2, t = 0.2)
movej(p[-0.453074242485211, -0.120102377313366, 0.305408515761982, -1.26532156400122, -1.16935211107297, 1.17431112871521], a = 0.2, v = 0.2, t = 0.2)
movej(p[-0.45349668275724, -0.119935950269394, 0.30489440960018, -1.22983583266611, -1.16975545570516, 1.16080236726836], a = 0.2, v = 0.2, t = 0.2)
movej(p[-0.453096257804765, -0.120179140898673, 0.304601089456196, -1.21800684427255, -1.1742894162598, 1.16407885956112], a = 0.2, v = 0.2, t = 0.2)
movej(p[-0.451445444462737, -0.120362129696278, 0.304356803798346, -1.22721048254465, -1.18667083354767, 1.17236496993589], a = 0.2, v = 0.2, t = 0.2)
movej(p[-0.448979909768956, -0.120626792907375, 0.304134107065425, -1.22988011043384, -1.19586835362986, 1.20234908356499], a = 0.2, v = 0.2, t = 0.2)
movej(p[-0.445962797232193, -0.120766854777573, 0.304506182547906, -1.24646907933498, -1.18877089561732, 1.23358681234831], a = 0.2, v = 0.2, t = 0.2)
movej(p[-0.442791151951234, -0.121089175693464, 0.305067307867782, -1.25694834431745, -1.20761561346606, 1.23769719213892], a = 0.2, v = 0.2, t = 0.2)
movej(p[-0.439975719796903, -0.121493550366212, 0.306138476092013, -1.2733081049786, -1.23156848992837, 1.22889757018187], a = 0.2, v = 0.2, t = 0.2)
movej(p[-0.438172726536343, -0.121778304535732, 0.30685882772241, -1.28439392273696, -1.26227387540559, 1.21728440381838], a = 0.2, v = 0.2, t = 0.2)
movej(p[-0.438066031589809, -0.12183678823334, 0.307753619209125, -1.30560398016932, -1.27712420620626, 1.21950251011728], a = 0.2, v = 0.2, t = 0.2)
movej(p[-0.439674452832202, -0.121566695233957, 0.307797213603286, -1.31812397567907, -1.27694953999553, 1.20667209320641], a = 0.2, v = 0.2, t = 0.2)
movej(p[-0.442189993493793, -0.121261678936264, 0.307685501478247, -1.31462988689619, -1.27000097013754, 1.18869582469689], a = 0.2, v = 0.2, t = 0.2)
movej(p[-0.444890191819349, -0.120928534165659, 0.307107377838584, -1.31410924133715, -1.24529089204726, 1.16783886015099], a = 0.2, v = 0.2, t = 0.2)
movej(p[-0.447090071381035, -0.120666391542074, 0.30666760796538, -1.30021163095259, -1.23331409648852, 1.15698526885263], a = 0.2, v = 0.2, t = 0.2)
movej(p[-0.448851518143212, -0.120466892035709, 0.306405529551397, -1.28398367190196, -1.20560847607936, 1.15671183865411], a = 0.2, v = 0.2, t = 0.2)
movej(p[-0.450180565079263, -0.120253242645828, 0.30619487153475, -1.30274965009745, -1.20268915117011, 1.16639909346884], a = 0.2, v = 0.2, t = 0.2)
movej(p[-0.451154994295034, -0.120156846292069, 0.306165373586781, -1.31420219989847, -1.18557025430296, 1.17131774042333], a = 0.2, v = 0.2, t = 0.2)
movej(p[-0.452119868995887, -0.120116811738267, 0.305945415424724, -1.30452433946481, -1.19012553311781, 1.16297599169093], a = 0.2, v = 0.2, t = 0.2)
movej(p[-0.452941063644372, -0.120112389197743, 0.305628344864068, -1.29521767413883, -1.18003655036189, 1.15024276257381], a = 0.2, v = 0.2, t = 0.2)
movej(p[-0.453507627037234, -0.12015253938778, 0.305254415571008, -1.29471074774006, -1.1757284478199, 1.14975224816403], a = 0.2, v = 0.2, t = 0.2)
movej(p[-0.453236143596257, -0.120290268263087, 0.304627413130278, -1.29186525392961, -1.18594773250141, 1.16619886677478], a = 0.2, v = 0.2, t = 0.2)
movej(p[-0.451797741302008, -0.120425933687606, 0.304236183736458, -1.23686245959785, -1.17977452504159, 1.18974550805818], a = 0.2, v = 0.2, t = 0.2)
movej(p[-0.449597750185491, -0.120729589440748, 0.303866011096559, -1.1837946138877, -1.18584664576183, 1.21168232688292], a = 0.2, v = 0.2, t = 0.2)
movej(p[-0.447107925936752, -0.120977779727723, 0.304063350219864, -1.18242844856478, -1.19091328337043, 1.22622450682782], a = 0.2, v = 0.2, t = 0.2)
movej(p[-0.444748184662878, -0.121309755540256, 0.30478711048738, -1.19550604545708, -1.21047401721762, 1.23536977310441], a = 0.2, v = 0.2, t = 0.2)
movej(p[-0.442569565503765, -0.121438129758354, 0.305719109038919, -1.22881587842981, -1.22524409438979, 1.24560483914216], a = 0.2, v = 0.2, t = 0.2)
movej(p[-0.441464582176829, -0.121364078493354, 0.306579875955945, -1.26142235260346, -1.2273831950918, 1.24799868943053], a = 0.2, v = 0.2, t = 0.2)
movej(p[-0.441718742410241, -0.121282306060058, 0.306925815683393, -1.2909132607649, -1.23310262161749, 1.23069257784604], a = 0.2, v = 0.2, t = 0.2)
movej(p[-0.44339847909841, -0.121125162411348, 0.306645866769583, -1.30016368040295, -1.24887651132712, 1.1931777126398], a = 0.2, v = 0.2, t = 0.2)
movej(p[-0.445619251251408, -0.120943168365715, 0.306401323101601, -1.28565490521818, -1.25131263822525, 1.16812219782751], a = 0.2, v = 0.2, t = 0.2)
movej(p[-0.447698972205346, -0.120618047895633, 0.305960175246245, -1.2867076158969, -1.22873012053044, 1.16297357204655], a = 0.2, v = 0.2, t = 0.2)
movej(p[-0.449354678266107, -0.120426041648973, 0.305699407375332, -1.28378575842369, -1.2061322521286, 1.15978744519999], a = 0.2, v = 0.2, t = 0.2)
movej(p[-0.450602189639454, -0.120228012924021, 0.30562566474475, -1.29884793497388, -1.17574381954596, 1.16771250659859], a = 0.2, v = 0.2, t = 0.2)
movej(p[-0.451664687834463, -0.120190738414376, 0.30541970888411, -1.28710460814358, -1.17615721735473, 1.15482856582294], a = 0.2, v = 0.2, t = 0.2)
movej(p[-0.452576601592784, -0.119991301263581, 0.305223415908259, -1.29034641151544, -1.17663608518844, 1.14525130596781], a = 0.2, v = 0.2, t = 0.2)
movej(p[-0.453279800371688, -0.119952387298382, 0.304759001536108, -1.27006865648152, -1.19601130787208, 1.12480922908901], a = 0.2, v = 0.2, t = 0.2)
movej(p[-0.45372717569895, -0.119898101096102, 0.304626110300883, -1.27943256867945, -1.18859326222685, 1.13185926806522], a = 0.2, v = 0.2, t = 0.2)
movej(p[-0.453386320291534, -0.12010683880037, 0.30433825185624, -1.25426556853547, -1.17238086748161, 1.15984425063303], a = 0.2, v = 0.2, t = 0.2)
movej(p[-0.452224200952517, -0.120296970158085, 0.304081000884823, -1.21451993969877, -1.15304805512251, 1.18854598932736], a = 0.2, v = 0.2, t = 0.2)
movej(p[-0.450113901260223, -0.120463003758131, 0.303688921481178, -1.20424391321864, -1.14715373516582, 1.22111922138305], a = 0.2, v = 0.2, t = 0.2)
movej(p[-0.447629092141864, -0.120682597102348, 0.303959279160727, -1.21263767039475, -1.15766531762107, 1.23249206319449], a = 0.2, v = 0.2, t = 0.2)
movej(p[-0.445190291154418, -0.121002432641297, 0.304410821786324, -1.24815218423665, -1.18570024863018, 1.22357589648555], a = 0.2, v = 0.2, t = 0.2)
movej(p[-0.442926593120828, -0.121418109638314, 0.305032059975571, -1.25393781407896, -1.21757619680701, 1.21205094998759], a = 0.2, v = 0.2, t = 0.2)
movej(p[-0.441739496387644, -0.121680574339089, 0.305717187416132, -1.27102876990733, -1.25037070069894, 1.20189508747127], a = 0.2, v = 0.2, t = 0.2)
movej(p[-0.44196542260602, -0.121581597936191, 0.306423232957454, -1.30042684990227, -1.26339244110421, 1.1973346302138], a = 0.2, v = 0.2, t = 0.2)
movej(p[-0.443697240573617, -0.121387552587653, 0.306931382002339, -1.31204853987779, -1.27205148032787, 1.16652592334921], a = 0.2, v = 0.2, t = 0.2)
movej(p[-0.445762452754173, -0.12100986323689, 0.306875135531064, -1.3169129993347, -1.25445189400961, 1.15707604739465], a = 0.2, v = 0.2, t = 0.2)
movej(p[-0.447704622173249, -0.120713983377974, 0.306764887513823, -1.30729132841799, -1.22847193704595, 1.1572420649948], a = 0.2, v = 0.2, t = 0.2)
movej(p[-0.449341274176195, -0.12043812842908, 0.306563316677585, -1.31166191489423, -1.20418142804251, 1.1700565283412], a = 0.2, v = 0.2, t = 0.2)
movej(p[-0.450673134872151, -0.120277960527849, 0.306189404401799, -1.28988677619611, -1.19442534044372, 1.17292784880075], a = 0.2, v = 0.2, t = 0.2)
movej(p[-0.451581909938713, -0.120131952708381, 0.305780098874045, -1.27803383089013, -1.18875531473045, 1.17918678721597], a = 0.2, v = 0.2, t = 0.2)
movej(p[-0.452259446292267, -0.119995131941501, 0.305181736851636, -1.26660791255815, -1.19008537943272, 1.17304656358652], a = 0.2, v = 0.2, t = 0.2)
movej(p[-0.452867348228717, -0.11993355123291, 0.304949289851032, -1.27849550721009, -1.19421066335339, 1.14808089375862], a = 0.2, v = 0.2, t = 0.2)
movej(p[-0.45353679023215, -0.119919697006532, 0.304573454752417, -1.2735565084408, -1.20405580405044, 1.12804501492931], a = 0.2, v = 0.2, t = 0.2)
movej(p[-0.454209680932075, -0.119957798399387, 0.30424035570676, -1.27516134626074, -1.19239240731308, 1.13580388925007], a = 0.2, v = 0.2, t = 0.2)
movej(p[-0.454034294603259, -0.120005536279481, 0.303869553882373, -1.27499124827582, -1.16838377915825, 1.16432808836696], a = 0.2, v = 0.2, t = 0.2)
movej(p[-0.452703576826441, -0.120142359369862, 0.303562400255664, -1.2898265628014, -1.14120583615022, 1.19138838625612], a = 0.2, v = 0.2, t = 0.2)
movej(p[-0.450440113876898, -0.120399928522218, 0.303399378018228, -1.24822897947278, -1.14082713835662, 1.2061719329227], a = 0.2, v = 0.2, t = 0.2)
movej(p[-0.447827079944252, -0.120771476863095, 0.303703140128491, -1.2131291305356, -1.16344624797346, 1.22921940091334], a = 0.2, v = 0.2, t = 0.2)
movej(p[-0.445394680504326, -0.12111526945663, 0.304382136074795, -1.17399760796058, -1.19576344614561, 1.23210963580394], a = 0.2, v = 0.2, t = 0.2)
movej(p[-0.442880195382588, -0.121413816498278, 0.305222362326935, -1.20593836956474, -1.21916610543382, 1.24476013766731], a = 0.2, v = 0.2, t = 0.2)
movej(p[-0.441124671074678, -0.121562787562391, 0.305838005930323, -1.21914116150369, -1.25349158522347, 1.20782584708133], a = 0.2, v = 0.2, t = 0.2)
movej(p[-0.440698111354367, -0.121696005099216, 0.306439739361745, -1.28411011352649, -1.2728693407385, 1.17714823610903], a = 0.2, v = 0.2, t = 0.2)
movej(p[-0.44203140286636, -0.121602853949518, 0.306484712951296, -1.31105656837147, -1.27579501558572, 1.14198311822584], a = 0.2, v = 0.2, t = 0.2)
movej(p[-0.444454068213194, -0.121258125278528, 0.306563426677843, -1.35106951722834, -1.25437540862153, 1.14031882432351], a = 0.2, v = 0.2, t = 0.2)
movej(p[-0.446907826538797, -0.120883458228098, 0.306382814349763, -1.3245763351084, -1.23109127402893, 1.13485240416325], a = 0.2, v = 0.2, t = 0.2)
movej(p[-0.448893727906874, -0.120522080524224, 0.306298502118059, -1.32214681996747, -1.21577050239602, 1.14252891436257], a = 0.2, v = 0.2, t = 0.2)
movej(p[-0.450342852029527, -0.12030847953283, 0.306076351211648, -1.31080314388213, -1.19747135616295, 1.14211738734736], a = 0.2, v = 0.2, t = 0.2)
movej(p[-0.451413625185758, -0.120241261444014, 0.30574735385401, -1.28311464636176, -1.18940849451673, 1.14585193091121], a = 0.2, v = 0.2, t = 0.2)
movej(p[-0.452377864645224, -0.120178743211426, 0.305308171438832, -1.26440630147754, -1.18057206462569, 1.14418316482035], a = 0.2, v = 0.2, t = 0.2)
movej(p[-0.453220831346089, -0.120126786357487, 0.304925614320142, -1.25221629129249, -1.16903768167196, 1.15728804292328], a = 0.2, v = 0.2, t = 0.2)
movej(p[-0.454003466837107, -0.119982868412794, 0.304686112926628, -1.30414001711621, -1.14876385828212, 1.17363610743265], a = 0.2, v = 0.2, t = 0.2)
movej(p[-0.454614249923552, -0.119987886390851, 0.304697439956658, -1.3055641313621, -1.13682014702197, 1.1768055418364], a = 0.2, v = 0.2, t = 0.2)
movej(p[-0.454790658856227, -0.119983808142313, 0.304549291641577, -1.26464647248744, -1.13507265460904, 1.1782306683709], a = 0.2, v = 0.2, t = 0.2)
movej(p[-0.45408912928476, -0.120051550764355, 0.304245096518151, -1.19085859189256, -1.138264371553, 1.19076821123897], a = 0.2, v = 0.2, t = 0.2)
movej(p[-0.452419048350261, -0.120179199869887, 0.303905723212514, -1.16366114090455, -1.13300560384965, 1.21393819217253], a = 0.2, v = 0.2, t = 0.2)
movej(p[-0.450100980389019, -0.12050724795788, 0.303977300814653, -1.17353864504094, -1.1522248875384, 1.22744780608912], a = 0.2, v = 0.2, t = 0.2)
movej(p[-0.4477486304074, -0.120817553000898, 0.304156665155466, -1.21566394615509, -1.16390927892297, 1.23768271561618], a = 0.2, v = 0.2, t = 0.2)
movej(p[-0.445734279500299, -0.121065573540944, 0.304683333944593, -1.24758083348642, -1.18341921582761, 1.24321097593455], a = 0.2, v = 0.2, t = 0.2)
movej(p[-0.444406695019814, -0.12116194882655, 0.305038743353006, -1.28953248633709, -1.18574897839818, 1.24149619779466], a = 0.2, v = 0.2, t = 0.2)
movej(p[-0.444158090630045, -0.121107384092141, 0.305823311491612, -1.31235353829146, -1.20328642856414, 1.23230232993218], a = 0.2, v = 0.2, t = 0.2)
movej(p[-0.44506377235208, -0.121096829017296, 0.305976203691071, -1.30859527898508, -1.22004816129791, 1.18507057323147], a = 0.2, v = 0.2, t = 0.2)
movej(p[-0.446721978012699, -0.120841598555229, 0.305808123960393, -1.30179092806095, -1.21308549185997, 1.1599115516089], a = 0.2, v = 0.2, t = 0.2)
movej(p[-0.448525807648726, -0.120672495300351, 0.305069031694516, -1.30450697157228, -1.21367470707363, 1.13964466518121], a = 0.2, v = 0.2, t = 0.2)
movej(p[-0.450102331156306, -0.12028701937849, 0.304677064631343, -1.28915530277515, -1.20036244718447, 1.14510444076597], a = 0.2, v = 0.2, t = 0.2)
movej(p[-0.451402203295517, -0.120201899338155, 0.304352199855111, -1.28383261122742, -1.19610596024521, 1.15896513412706], a = 0.2, v = 0.2, t = 0.2)
movej(p[-0.452468602633611, -0.119967652431835, 0.304266920477807, -1.27095647929674, -1.18863605141213, 1.15682608554336], a = 0.2, v = 0.2, t = 0.2)
movej(p[-0.453339267360423, -0.1199237656831, 0.304444559597288, -1.30486557907701, -1.17110897720933, 1.17236303753259], a = 0.2, v = 0.2, t = 0.2)
movej(p[-0.454059709864712, -0.11989858520334, 0.304510850594822, -1.28531984896997, -1.17830775729296, 1.16246947106174], a = 0.2, v = 0.2, t = 0.2)
movej(p[-0.454340173984349, -0.119873153395718, 0.304571487038956, -1.24789731236767, -1.16384355944595, 1.18232512820144], a = 0.2, v = 0.2, t = 0.2)
movej(p[-0.453597154694106, -0.119950484202117, 0.304041320005646, -1.206843001391, -1.16263812815786, 1.1986941290478], a = 0.2, v = 0.2, t = 0.2)
movej(p[-0.451710125604458, -0.120110799232786, 0.30382887182523, -1.20638458653927, -1.15379984283863, 1.22884088428429], a = 0.2, v = 0.2, t = 0.2)
movej(p[-0.44914623850654, -0.120390816536536, 0.303757960410569, -1.23782028351237, -1.16973045866247, 1.23462328729675], a = 0.2, v = 0.2, t = 0.2)
movej(p[-0.446711382121541, -0.120760270890011, 0.304254753076006, -1.23814487507435, -1.17955685328887, 1.25074955391838], a = 0.2, v = 0.2, t = 0.2)
movej(p[-0.444510282241859, -0.121038596792629, 0.305013293034883, -1.2625322342464, -1.1970276930155, 1.24400340569443], a = 0.2, v = 0.2, t = 0.2)
movej(p[-0.442717469203938, -0.121302613566425, 0.305605344459194, -1.26324503844001, -1.21599279099813, 1.23970203971638], a = 0.2, v = 0.2, t = 0.2)
movej(p[-0.441852365841573, -0.12138852130307, 0.306105074609684, -1.27299877584861, -1.24271304747024, 1.21914160599763], a = 0.2, v = 0.2, t = 0.2)
movej(p[-0.442102661375165, -0.121323543721975, 0.306288038435122, -1.24522271600379, -1.26466222630335, 1.18701568846583], a = 0.2, v = 0.2, t = 0.2)
movej(p[-0.443756289912232, -0.121246201581406, 0.306328661392817, -1.25916078460435, -1.24786834186477, 1.17565933945766], a = 0.2, v = 0.2, t = 0.2)
movej(p[-0.445957029628676, -0.120991992720538, 0.305932317198963, -1.28634285485612, -1.22987217352322, 1.16062514684308], a = 0.2, v = 0.2, t = 0.2)
movej(p[-0.44808719613441, -0.120749402434602, 0.305809793688553, -1.30217480422098, -1.21728412020814, 1.16802799720608], a = 0.2, v = 0.2, t = 0.2)
movej(p[-0.44963432860685, -0.120463727421967, 0.305571568690123, -1.29030147154978, -1.20787259459907, 1.16241988070322], a = 0.2, v = 0.2, t = 0.2)
movej(p[-0.450752745064948, -0.12025949274919, 0.305489126682066, -1.27067915936441, -1.20416843586012, 1.15650414186857], a = 0.2, v = 0.2, t = 0.2)
movej(p[-0.451725524113921, -0.12008800161079, 0.305033237046597, -1.27067159100465, -1.19640431903396, 1.13974779104939], a = 0.2, v = 0.2, t = 0.2)
movej(p[-0.45264580380934, -0.119903764716712, 0.304716990275924, -1.2811859688346, -1.19578808003437, 1.12939666627288], a = 0.2, v = 0.2, t = 0.2)
movej(p[-0.453510064754876, -0.119828573472283, 0.304349219767478, -1.27476961310956, -1.19828653043512, 1.12164601133682], a = 0.2, v = 0.2, t = 0.2)
movej(p[-0.454241173744579, -0.119804394395638, 0.304087863597802, -1.26257124570749, -1.18720458012755, 1.1320838478388], a = 0.2, v = 0.2, t = 0.2)
movej(p[-0.454235388852487, -0.119907115426982, 0.303806035155052, -1.22461927701906, -1.18008353284981, 1.14904223910485], a = 0.2, v = 0.2, t = 0.2)
movej(p[-0.453253931605103, -0.120020058663699, 0.303393444096331, -1.19299759402674, -1.15072501464095, 1.17913119838399], a = 0.2, v = 0.2, t = 0.2)
movej(p[-0.451193831536258, -0.120188631169585, 0.303178539421874, -1.1698393003214, -1.12938037846586, 1.22191048250606], a = 0.2, v = 0.2, t = 0.2)
movej(p[-0.448532577198087, -0.120494743731156, 0.303229751713531, -1.17203153237476, -1.1301728435828, 1.24127964647733], a = 0.2, v = 0.2, t = 0.2)
movej(p[-0.445779039719234, -0.120805656821047, 0.303827976146072, -1.20341848626726, -1.15220657797861, 1.25155886214771], a = 0.2, v = 0.2, t = 0.2)
movej(p[-0.443212374406545, -0.121246304479769, 0.304517355696755, -1.2375387738457, -1.20466605067985, 1.23181420910199], a = 0.2, v = 0.2, t = 0.2)
movej(p[-0.441335904249585, -0.121393647959912, 0.305520398851857, -1.27314572022612, -1.22578385422814, 1.24044343781746], a = 0.2, v = 0.2, t = 0.2)
movej(p[-0.440828703212101, -0.121462625656402, 0.306156682514513, -1.2817768314868, -1.23940603269417, 1.22026195324154], a = 0.2, v = 0.2, t = 0.2)
movej(p[-0.441860843634461, -0.121288526955502, 0.306638809027205, -1.28000155859819, -1.21732848707535, 1.20567794080307], a = 0.2, v = 0.2, t = 0.2)
movej(p[-0.444039088957296, -0.121078378682688, 0.306486889042113, -1.27315421345676, -1.21016690434464, 1.17229084056707], a = 0.2, v = 0.2, t = 0.2)
movej(p[-0.446392018219079, -0.120848584829873, 0.306465866718819, -1.25925718936622, -1.21086587726026, 1.16509389459112], a = 0.2, v = 0.2, t = 0.2)
movej(p[-0.448533955559709, -0.120505539226418, 0.306188790577724, -1.27782522586627, -1.21728066928212, 1.14409169677547], a = 0.2, v = 0.2, t = 0.2)
movej(p[-0.450219402306144, -0.120347899994531, 0.306090590730453, -1.30372327511646, -1.20146302949445, 1.15548744608451], a = 0.2, v = 0.2, t = 0.2)
movej(p[-0.451530708804291, -0.120156334541682, 0.305661272351169, -1.32935403791854, -1.18686285599646, 1.15246843226973], a = 0.2, v = 0.2, t = 0.2)
movej(p[-0.452552907832607, -0.12017259928977, 0.305473721597025, -1.341673132682, -1.15863585403317, 1.17594999703582], a = 0.2, v = 0.2, t = 0.2)
movej(p[-0.453456675156841, -0.120022307439453, 0.305171948872157, -1.2996795198569, -1.15513605387188, 1.17990369505708], a = 0.2, v = 0.2, t = 0.2)
movej(p[-0.454333674281912, -0.119898166660738, 0.304912731539046, -1.26086031186716, -1.1517640912504, 1.16906021882782], a = 0.2, v = 0.2, t = 0.2)
movej(p[-0.455032531227365, -0.119792357330744, 0.304708807825176, -1.23381688263893, -1.16939891391756, 1.14992901727236], a = 0.2, v = 0.2, t = 0.2)
movej(p[-0.454958477203495, -0.119867135501984, 0.304446473307518, -1.2124935251349, -1.17712383609514, 1.15056728236078], a = 0.2, v = 0.2, t = 0.2)
movej(p[-0.453622645152457, -0.120132164043189, 0.304222844687111, -1.23057228236047, -1.16645544922012, 1.17708616546545], a = 0.2, v = 0.2, t = 0.2)
movej(p[-0.451311547268975, -0.120342597518723, 0.303733216885364, -1.22626734217363, -1.17231728189955, 1.21335187589552], a = 0.2, v = 0.2, t = 0.2)
movej(p[-0.44842221063749, -0.120564966800474, 0.303485990506335, -1.21764653671544, -1.19813058525444, 1.2201906135131], a = 0.2, v = 0.2, t = 0.2)
movej(p[-0.445549863226464, -0.120910233638304, 0.30393891477845, -1.1917804824945, -1.22772871039362, 1.22069232328075], a = 0.2, v = 0.2, t = 0.2)
movej(p[-0.44280409982933, -0.121236377005779, 0.304738542335115, -1.19990202846203, -1.22661396565866, 1.23574828197256], a = 0.2, v = 0.2, t = 0.2)
movej(p[-0.440514548640647, -0.121514255010677, 0.305672385803176, -1.25972376181661, -1.24087214029603, 1.22962294693408], a = 0.2, v = 0.2, t = 0.2)
movej(p[-0.439569636007529, -0.121518288961748, 0.306439545294686, -1.31577630599363, -1.25214462541528, 1.23247233292629], a = 0.2, v = 0.2, t = 0.2)
movej(p[-0.440272844005865, -0.121349203889446, 0.306817174199565, -1.33710363082346, -1.25286872005921, 1.22202625043663], a = 0.2, v = 0.2, t = 0.2)
movej(p[-0.442502366013379, -0.121194626665373, 0.307154926142874, -1.32456081690491, -1.23726233879215, 1.21994936270381], a = 0.2, v = 0.2, t = 0.2)
movej(p[-0.445079762768549, -0.120964900176475, 0.307033523854419, -1.32234740015941, -1.21415487302387, 1.21806068801182], a = 0.2, v = 0.2, t = 0.2)
movej(p[-0.447424176937225, -0.120673609451002, 0.306688688838557, -1.30881970896533, -1.19231589337567, 1.21403581419726], a = 0.2, v = 0.2, t = 0.2)
movej(p[-0.449424011880215, -0.120534553383428, 0.306252923545231, -1.30340353354583, -1.16364572470095, 1.19667098636587], a = 0.2, v = 0.2, t = 0.2)
movej(p[-0.451037877694179, -0.120399008322477, 0.305647810660333, -1.27827323433223, -1.17019828544298, 1.1541321389043], a = 0.2, v = 0.2, t = 0.2)
movej(p[-0.45233948988202, -0.120342965118605, 0.305450825142434, -1.27346003658994, -1.17603035481093, 1.12999119014735], a = 0.2, v = 0.2, t = 0.2)
movej(p[-0.453352974454257, -0.120150347854498, 0.305258776151273, -1.26375802208816, -1.18168204604832, 1.1309712172121], a = 0.2, v = 0.2, t = 0.2)
movej(p[-0.454294463863288, -0.119947288013119, 0.305308222380674, -1.27454667532422, -1.17755486462488, 1.13988709267911], a = 0.2, v = 0.2, t = 0.2)
movej(p[-0.454782622508346, -0.119917184260466, 0.304935435522897, -1.26287021009457, -1.15749140983643, 1.16759371394492], a = 0.2, v = 0.2, t = 0.2)
movej(p[-0.454420784306433, -0.119914133996196, 0.304433155466429, -1.22431259209841, -1.16597301527394, 1.16941704378451], a = 0.2, v = 0.2, t = 0.2)
movej(p[-0.452755835916909, -0.120131989449884, 0.303968765370583, -1.20883392555707, -1.14923603833482, 1.19891739483253], a = 0.2, v = 0.2, t = 0.2)
movej(p[-0.450081122600839, -0.120312822840568, 0.303624691148866, -1.20143600840568, -1.1548347565167, 1.22523830800439], a = 0.2, v = 0.2, t = 0.2)
movej(p[-0.447217928720044, -0.120610325672005, 0.303858309397859, -1.24649078616004, -1.15294101690798, 1.25263389133687], a = 0.2, v = 0.2, t = 0.2)
movej(p[-0.444515807307682, -0.120952486248948, 0.30467426799414, -1.24030640603084, -1.17401220605116, 1.26088108839911], a = 0.2, v = 0.2, t = 0.2)
movej(p[-0.442368874545898, -0.121370954035075, 0.305521477142373, -1.26562456277943, -1.2173285284767, 1.22677170561346], a = 0.2, v = 0.2, t = 0.2)
movej(p[-0.44103756048051, -0.121593545640285, 0.306142075911459, -1.28075013813405, -1.25302398099022, 1.18335222894223], a = 0.2, v = 0.2, t = 0.2)
movej(p[-0.441377954423822, -0.121519892080328, 0.306368090289237, -1.33491682788597, -1.27538457049595, 1.16344710311346], a = 0.2, v = 0.2, t = 0.2)
movej(p[-0.44310155904515, -0.121291851791842, 0.306713737782742, -1.35326178034039, -1.26066588709205, 1.16267457643906], a = 0.2, v = 0.2, t = 0.2)
movej(p[-0.445472279486789, -0.121064382827092, 0.30676203249989, -1.35190788021216, -1.24378866895598, 1.16394594508664], a = 0.2, v = 0.2, t = 0.2)
movej(p[-0.447766072269237, -0.120853427160175, 0.306542328615083, -1.3352613803022, -1.22113706541455, 1.14788557463998], a = 0.2, v = 0.2, t = 0.2)
movej(p[-0.449671154495806, -0.120608744522712, 0.306063734530459, -1.31098554891898, -1.22351541943031, 1.13301717222019], a = 0.2, v = 0.2, t = 0.2)
movej(p[-0.451168222906407, -0.120216191807309, 0.305745355103185, -1.30822069190698, -1.20775382334821, 1.12003381576911], a = 0.2, v = 0.2, t = 0.2)
movej(p[-0.452347559514489, -0.120099529127312, 0.305778704562458, -1.30318979378386, -1.19212877667238, 1.13107211338359], a = 0.2, v = 0.2, t = 0.2)
movej(p[-0.453353430588355, -0.11998972491516, 0.305419552964588, -1.29520267461246, -1.16159155731113, 1.137664865666], a = 0.2, v = 0.2, t = 0.2)
movej(p[-0.454157088261217, -0.120134695752171, 0.30536038413102, -1.27166030611719, -1.16119854881564, 1.1473149773945], a = 0.2, v = 0.2, t = 0.2)
movej(p[-0.454351192895351, -0.120146064496286, 0.304860121906716, -1.24672930598014, -1.15904436910973, 1.15698048137571], a = 0.2, v = 0.2, t = 0.2)
movej(p[-0.453511339914364, -0.120163079479154, 0.304756676103096, -1.23231429335912, -1.15707696948375, 1.17344947630349], a = 0.2, v = 0.2, t = 0.2)
movej(p[-0.45149343633354, -0.120393769283825, 0.304397849709672, -1.22454202052159, -1.16007685077515, 1.20071528840338], a = 0.2, v = 0.2, t = 0.2)
movej(p[-0.448832950133394, -0.120619462059727, 0.304176331851847, -1.22085701364529, -1.1734527934316, 1.22580090661067], a = 0.2, v = 0.2, t = 0.2)
movej(p[-0.446082053118793, -0.120895459343436, 0.304353594572134, -1.21480800148794, -1.18173743184531, 1.25294907401161], a = 0.2, v = 0.2, t = 0.2)
movej(p[-0.443855591215051, -0.120992559275387, 0.304684993383773, -1.23075094158688, -1.19346313257918, 1.25980067249181], a = 0.2, v = 0.2, t = 0.2)
movej(p[-0.442389001154102, -0.121119241560916, 0.305161018060342, -1.26766186649997, -1.21579997499824, 1.23724225186723], a = 0.2, v = 0.2, t = 0.2)
movej(p[-0.442126233474208, -0.121186386965699, 0.305727300005631, -1.31009373607621, -1.2390035217054, 1.21676717998924], a = 0.2, v = 0.2, t = 0.2)
movej(p[-0.443127116503686, -0.121180927791286, 0.306045200651149, -1.32900607465662, -1.23856306542411, 1.18993578496879], a = 0.2, v = 0.2, t = 0.2)
movej(p[-0.445079742439052, -0.120988522883324, 0.306018511403605, -1.33662880185461, -1.2163212786673, 1.18205247322617], a = 0.2, v = 0.2, t = 0.2)
movej(p[-0.447412588688688, -0.120711859361819, 0.305679930198833, -1.33391846060401, -1.21390181412232, 1.1493248835977], a = 0.2, v = 0.2, t = 0.2)
movej(p[-0.449334291398352, -0.120470277438891, 0.305486771282174, -1.31688482960789, -1.19616080126788, 1.15122880552995], a = 0.2, v = 0.2, t = 0.2)
movej(p[-0.450862235423268, -0.120292190597405, 0.30518012334526, -1.29743192661177, -1.20616729284493, 1.12736785391292], a = 0.2, v = 0.2, t = 0.2)
movej(p[-0.452012133312238, -0.120224712990889, 0.305393300746644, -1.30010573417448, -1.1826178845638, 1.14796501951161], a = 0.2, v = 0.2, t = 0.2)
movej(p[-0.452928292027505, -0.120167509377857, 0.305320335184923, -1.3078397236585, -1.17669516209344, 1.14200488492567], a = 0.2, v = 0.2, t = 0.2)
movej(p[-0.453848299958954, -0.120081757986901, 0.305273599003873, -1.30412972738361, -1.16702272118671, 1.15186313605356], a = 0.2, v = 0.2, t = 0.2)
movej(p[-0.454540387287338, -0.119955400166632, 0.304707034111519, -1.29554745073273, -1.16327041183802, 1.1524404396804], a = 0.2, v = 0.2, t = 0.2)
movej(p[-0.455150620468251, -0.11987996110997, 0.304481983453795, -1.27058850815999, -1.16028831643002, 1.14880958860466], a = 0.2, v = 0.2, t = 0.2)
movej(p[-0.455236244977565, -0.119911443746298, 0.304460573476807, -1.28392836282784, -1.16683447651024, 1.15468980348646], a = 0.2, v = 0.2, t = 0.2)
movej(p[-0.454676103180639, -0.119970127167609, 0.304205431754819, -1.25875056258298, -1.16951302131505, 1.16438465322856], a = 0.2, v = 0.2, t = 0.2)
movej(p[-0.453087736378088, -0.120161762154159, 0.303801168406262, -1.25213125133699, -1.18094984438327, 1.17612886839219], a = 0.2, v = 0.2, t = 0.2)
movej(p[-0.45071769602613, -0.120368098239996, 0.303633341890571, -1.23911705924424, -1.17857255971949, 1.20023198452381], a = 0.2, v = 0.2, t = 0.2)
movej(p[-0.448159598076112, -0.12067891188039, 0.304137375648527, -1.25925722522953, -1.18031255019223, 1.21177596288856], a = 0.2, v = 0.2, t = 0.2)
movej(p[-0.446094492627521, -0.121009402034028, 0.304739033035036, -1.27360985266069, -1.19043742898887, 1.21737755628103], a = 0.2, v = 0.2, t = 0.2)
movej(p[-0.445132575963656, -0.12116645035978, 0.305350757233458, -1.30312115169272, -1.19261414986082, 1.2091966002416], a = 0.2, v = 0.2, t = 0.2)
movej(p[-0.445459022623973, -0.1211309417778, 0.305383636750526, -1.30962462381691, -1.1950537720595, 1.19244044206786], a = 0.2, v = 0.2, t = 0.2)
movej(p[-0.447033854636196, -0.120831692628295, 0.305598105839205, -1.32235067723596, -1.21306001747338, 1.16178791469957], a = 0.2, v = 0.2, t = 0.2)
movej(p[-0.449087012753389, -0.120685683830627, 0.305236992235325, -1.30958206530827, -1.21747489504884, 1.13200443508776], a = 0.2, v = 0.2, t = 0.2)
movej(p[-0.451122469782207, -0.120505383622667, 0.304952685220033, -1.2297193056245, -1.22377636250981, 1.1205141109833], a = 0.2, v = 0.2, t = 0.2)
movej(p[-0.452647074506579, -0.120308654232858, 0.304688958630535, -1.21304397669585, -1.20253704573878, 1.12603827308165], a = 0.2, v = 0.2, t = 0.2)
movej(p[-0.453839095979092, -0.120109713565949, 0.304739900175643, -1.23647836444389, -1.18738224755088, 1.13350450155358], a = 0.2, v = 0.2, t = 0.2)
movej(p[-0.454622136235268, -0.119986560848799, 0.304801484735123, -1.28719346637088, -1.17018851370519, 1.1399364161114], a = 0.2, v = 0.2, t = 0.2)
movej(p[-0.455164904792051, -0.119895929682768, 0.304646283704484, -1.32387662502735, -1.15048993710549, 1.16495374302613], a = 0.2, v = 0.2, t = 0.2)
movej(p[-0.455573702587579, -0.119633587406873, 0.304584135453908, -1.31717997039453, -1.13748466820407, 1.18542567107268], a = 0.2, v = 0.2, t = 0.2)
movej(p[-0.455848603313364, -0.11957731074289, 0.304443985327064, -1.33950614137805, -1.13530190267007, 1.18559540583724], a = 0.2, v = 0.2, t = 0.2)
movej(p[-0.455451752148351, -0.119683934918285, 0.304376912992609, -1.33650943802539, -1.14762378703425, 1.19115081623354], a = 0.2, v = 0.2, t = 0.2)
movej(p[-0.454140443622011, -0.119976065595832, 0.303871782564319, -1.32790269619051, -1.16357119010647, 1.18479092491454], a = 0.2, v = 0.2, t = 0.2)
movej(p[-0.451646715838388, -0.1203562982448, 0.303428752357737, -1.29938928692177, -1.16889121783215, 1.19497731923415], a = 0.2, v = 0.2, t = 0.2)
movej(p[-0.448730685001587, -0.120595455100696, 0.303062414405563, -1.25404028055675, -1.19104628385445, 1.18464244562683], a = 0.2, v = 0.2, t = 0.2)
movej(p[-0.445569007299525, -0.120893594342325, 0.303510891210412, -1.21668431429236, -1.20352393638339, 1.20571303812559], a = 0.2, v = 0.2, t = 0.2)
movej(p[-0.442599760710591, -0.121121002531362, 0.304468624336675, -1.20557296713211, -1.23553023281635, 1.21842560318773], a = 0.2, v = 0.2, t = 0.2)
movej(p[-0.440348635398706, -0.121453937239174, 0.305414497712157, -1.24304399514717, -1.2514068919136, 1.21625966474259], a = 0.2, v = 0.2, t = 0.2)
movej(p[-0.4396341024958, -0.121572611811608, 0.306150138297581, -1.30542330459676, -1.26740195039266, 1.19452700843451], a = 0.2, v = 0.2, t = 0.2)
movej(p[-0.440613517344362, -0.121459141172234, 0.306480455128542, -1.33629008196502, -1.2636744439329, 1.17650182950098], a = 0.2, v = 0.2, t = 0.2)
movej(p[-0.442654394817359, -0.121130126840828, 0.306801849472253, -1.35201223805311, -1.25338241578686, 1.16776455434914], a = 0.2, v = 0.2, t = 0.2)
movej(p[-0.44506257145584, -0.12081007768381, 0.306654881343425, -1.33365645511214, -1.2328639650538, 1.17143676009121], a = 0.2, v = 0.2, t = 0.2)
movej(p[-0.447349627985177, -0.120556212421249, 0.306520385139091, -1.36019179866123, -1.20289212427884, 1.17228283707917], a = 0.2, v = 0.2, t = 0.2)
movej(p[-0.449320396762963, -0.120363456063677, 0.306172962400598, -1.3425447614264, -1.18524640748263, 1.16825817342711], a = 0.2, v = 0.2, t = 0.2)
movej(p[-0.45088449497716, -0.120195215379699, 0.305916735331188, -1.32774377061385, -1.18358591157874, 1.14730025727772], a = 0.2, v = 0.2, t = 0.2)
movej(p[-0.452135271880212, -0.11990243658597, 0.305635985290878, -1.28011295667701, -1.17150028727254, 1.15779733305647], a = 0.2, v = 0.2, t = 0.2)
movej(p[-0.453066130266717, -0.119940535365488, 0.305280013974375, -1.27647773994871, -1.15596911687804, 1.16238911064147], a = 0.2, v = 0.2, t = 0.2)
movej(p[-0.453808009826127, -0.119891465988163, 0.305267253894492, -1.26241471019485, -1.13342889268278, 1.17178424926537], a = 0.2, v = 0.2, t = 0.2)
movej(p[-0.453789090422513, -0.120102321579783, 0.304951545753087, -1.24461926398587, -1.14319086455005, 1.1736150920094], a = 0.2, v = 0.2, t = 0.2)
movej(p[-0.452311172117076, -0.120100663422331, 0.304622580412254, -1.21787320569994, -1.130791223546, 1.19687707095826], a = 0.2, v = 0.2, t = 0.2)
movej(p[-0.449813231194522, -0.120368187619376, 0.303946939640079, -1.20050636407072, -1.11532774580204, 1.23401802178935], a = 0.2, v = 0.2, t = 0.2)
movej(p[-0.446684735313619, -0.120686344529372, 0.303799919995822, -1.21134144763175, -1.1362597524326, 1.23606226157035], a = 0.2, v = 0.2, t = 0.2)
movej(p[-0.443799601841667, -0.121089487653375, 0.304387898254601, -1.24273876764622, -1.18097872131097, 1.23021503849708], a = 0.2, v = 0.2, t = 0.2)
movej(p[-0.441256616521011, -0.121370473656785, 0.305294632779622, -1.26072129743866, -1.235748750693, 1.20918262163642], a = 0.2, v = 0.2, t = 0.2)
movej(p[-0.439617177227841, -0.121420334292019, 0.306318599831566, -1.26865272377324, -1.23815272651179, 1.22247183943656], a = 0.2, v = 0.2, t = 0.2)
movej(p[-0.439570724203121, -0.121310718330671, 0.306980403224132, -1.27048096960506, -1.24694943488939, 1.20138093649755], a = 0.2, v = 0.2, t = 0.2)
movej(p[-0.441386455770603, -0.120980454027952, 0.307052425976785, -1.28861895624901, -1.25050703795736, 1.18343247250284], a = 0.2, v = 0.2, t = 0.2)
movej(p[-0.444241658514626, -0.120710115039538, 0.306995716573996, -1.30944101472542, -1.23844680189443, 1.15366758808586], a = 0.2, v = 0.2, t = 0.2)
movej(p[-0.447020662276713, -0.120444582877993, 0.306624500758606, -1.31928396957919, -1.2201641071863, 1.14746579220211], a = 0.2, v = 0.2, t = 0.2)
movej(p[-0.449090733815752, -0.120333531819486, 0.306605378411389, -1.32212766440964, -1.20327612575779, 1.15791760785774], a = 0.2, v = 0.2, t = 0.2)
movej(p[-0.450724913191839, -0.120147876577353, 0.306337925019673, -1.30211722685445, -1.20976344124444, 1.14449967066753], a = 0.2, v = 0.2, t = 0.2)
movej(p[-0.452031630793628, -0.119929801821295, 0.305983365247074, -1.27557911606349, -1.18604627802996, 1.16771157398966], a = 0.2, v = 0.2, t = 0.2)
movej(p[-0.453098268525508, -0.119788711096282, 0.305467535553138, -1.22141513738763, -1.18105754517858, 1.13949925932885], a = 0.2, v = 0.2, t = 0.2)
movej(p[-0.453970034336129, -0.119784420913998, 0.305114663315964, -1.23901813944258, -1.16975605123755, 1.14005632842035], a = 0.2, v = 0.2, t = 0.2)
movej(p[-0.454124183919631, -0.119934578361531, 0.30486793470705, -1.19616992836574, -1.16844717229308, 1.15508860629534], a = 0.2, v = 0.2, t = 0.2)
movej(p[-0.453042477713117, -0.120138025091186, 0.304721480166041, -1.20579264350674, -1.16858484984326, 1.18971981602948], a = 0.2, v = 0.2, t = 0.2)
movej(p[-0.450528223846357, -0.120407346884362, 0.304287871868958, -1.15273280970054, -1.18836244085789, 1.21995341144019], a = 0.2, v = 0.2, t = 0.2)
movej(p[-0.447290105117664, -0.120815610819848, 0.304155139309765, -1.19265745724137, -1.22787893053842, 1.21362926881839], a = 0.2, v = 0.2, t = 0.2)
movej(p[-0.444054963075782, -0.121232099550104, 0.304659911955637, -1.20850425117995, -1.23472462924092, 1.23301071246252], a = 0.2, v = 0.2, t = 0.2)
movej(p[-0.441092364346816, -0.121664898048631, 0.305649051242542, -1.24242443866097, -1.23660230443378, 1.25150932035137], a = 0.2, v = 0.2, t = 0.2)
movej(p[-0.439251468510379, -0.121812281421084, 0.306775774332265, -1.27428830337566, -1.2624365089816, 1.22812941614076], a = 0.2, v = 0.2, t = 0.2)
movej(p[-0.439015942497057, -0.12170046989293, 0.307371909923989, -1.31119991722549, -1.28491052766266, 1.19281731755725], a = 0.2, v = 0.2, t = 0.2)
movej(p[-0.440458485566014, -0.121453840068304, 0.307730087897358, -1.36278019272212, -1.28888329770051, 1.15279180751907], a = 0.2, v = 0.2, t = 0.2)
movej(p[-0.443102613879893, -0.121166740515689, 0.307774120979906, -1.37022725552135, -1.25490704267989, 1.1576115397942], a = 0.2, v = 0.2, t = 0.2)
movej(p[-0.445737817121141, -0.120870265585414, 0.307416618307666, -1.35272326339766, -1.20817335489799, 1.17317717500265], a = 0.2, v = 0.2, t = 0.2)
movej(p[-0.447950643483732, -0.120561281014914, 0.307094716122807, -1.3478348405598, -1.17981743531111, 1.19906748306244], a = 0.2, v = 0.2, t = 0.2)
movej(p[-0.449591097331775, -0.120300683146039, 0.306741331812914, -1.31864452423123, -1.16302976431497, 1.20267392009448], a = 0.2, v = 0.2, t = 0.2)
movej(p[-0.45092904334956, -0.120202925622707, 0.30659692701062, -1.29507132309806, -1.16311546510899, 1.19044936137516], a = 0.2, v = 0.2, t = 0.2)
movej(p[-0.452067855912282, -0.12013255021187, 0.306581040156451, -1.28707164139383, -1.15476247875836, 1.17267213140186], a = 0.2, v = 0.2, t = 0.2)
movej(p[-0.452907057820377, -0.120183469297873, 0.306393806978219, -1.28048040876606, -1.14658155040425, 1.16574123205349], a = 0.2, v = 0.2, t = 0.2)
movej(p[-0.453445511214121, -0.120087183882626, 0.306114433600683, -1.30648934443881, -1.15022286551356, 1.16224786384614], a = 0.2, v = 0.2, t = 0.2)
movej(p[-0.453058076786685, -0.120080075953231, 0.305395305041816, -1.24157170130043, -1.15311234911463, 1.17944193277881], a = 0.2, v = 0.2, t = 0.2)
movej(p[-0.451681976959547, -0.12012750015297, 0.30508230351286, -1.19184912063084, -1.14286198669756, 1.21222375136273], a = 0.2, v = 0.2, t = 0.2)
movej(p[-0.449318948351254, -0.120251081937356, 0.304748949408405, -1.16678154450509, -1.12649100455513, 1.24993961584671], a = 0.2, v = 0.2, t = 0.2)
movej(p[-0.446530150572283, -0.120768743494692, 0.305231747472881, -1.18158657631673, -1.14385594854621, 1.26357202808061], a = 0.2, v = 0.2, t = 0.2)
movej(p[-0.44359074248146, -0.121125763942867, 0.305881360882515, -1.22804206443673, -1.18436334650968, 1.24761401919566], a = 0.2, v = 0.2, t = 0.2)
movej(p[-0.440837422749531, -0.121617198676633, 0.306702733260033, -1.2443965937292, -1.23175081835367, 1.24592872661914], a = 0.2, v = 0.2, t = 0.2)
movej(p[-0.438914198161446, -0.121735267020665, 0.307490093199339, -1.2631503439002, -1.27257348115925, 1.2078437032815], a = 0.2, v = 0.2, t = 0.2)
movej(p[-0.438255162187904, -0.121650084691093, 0.308137383957736, -1.26314537863049, -1.28754449979896, 1.19910937731798], a = 0.2, v = 0.2, t = 0.2)
movej(p[-0.439400606476559, -0.121374473367453, 0.3086356451104, -1.3035808233105, -1.2984612359713, 1.15673422390963], a = 0.2, v = 0.2, t = 0.2)
movej(p[-0.441661050449869, -0.121134890355964, 0.308724853940767, -1.3211075477666, -1.27830178342544, 1.15467053748855], a = 0.2, v = 0.2, t = 0.2)
movej(p[-0.444335387713479, -0.12092365866475, 0.308519791619528, -1.32892691647905, -1.24126976921335, 1.15342876520952], a = 0.2, v = 0.2, t = 0.2)
movej(p[-0.446815496864557, -0.120679829621023, 0.308290134894228, -1.30213329633444, -1.2205790592182, 1.14913002896649], a = 0.2, v = 0.2, t = 0.2)
movej(p[-0.448711997150291, -0.120434966354298, 0.307795989972791, -1.29996055491317, -1.20871301083022, 1.14894921948376], a = 0.2, v = 0.2, t = 0.2)
movej(p[-0.450208204641091, -0.120279176720484, 0.307311631397385, -1.29799310075666, -1.21485484881725, 1.13928796893762], a = 0.2, v = 0.2, t = 0.2)
movej(p[-0.451327517658702, -0.12028231837572, 0.307001956986576, -1.29221491430279, -1.19920120400964, 1.14389406124294], a = 0.2, v = 0.2, t = 0.2)
movej(p[-0.452193890922186, -0.120180027860587, 0.306883044728023, -1.28961326691086, -1.16866604953357, 1.16294151741484], a = 0.2, v = 0.2, t = 0.2)
movej(p[-0.452953917596613, -0.120067902172077, 0.306601323770807, -1.26901504404266, -1.15264324791354, 1.18250233079771], a = 0.2, v = 0.2, t = 0.2)
movej(p[-0.452829421548713, -0.120036226901324, 0.306152093514836, -1.24295594599546, -1.13816443153656, 1.19711055557503], a = 0.2, v = 0.2, t = 0.2)
movej(p[-0.451660104643213, -0.120206704775829, 0.30563374751908, -1.19709790708112, -1.15253779411278, 1.20581591058136], a = 0.2, v = 0.2, t = 0.2)
movej(p[-0.449047740728211, -0.120604043173965, 0.30570399676862, -1.18481186198495, -1.16618221516028, 1.21192565054751], a = 0.2, v = 0.2, t = 0.2)
movej(p[-0.446016164104814, -0.120987519879125, 0.305954458666633, -1.19907165570282, -1.1879720734102, 1.22574311870027], a = 0.2, v = 0.2, t = 0.2)
movej(p[-0.44311947782916, -0.121169846784286, 0.306634994124605, -1.21984201545978, -1.21394601450556, 1.23265776311286], a = 0.2, v = 0.2, t = 0.2)
movej(p[-0.440560501504229, -0.121421651124051, 0.307434619836956, -1.23898580608065, -1.2375817592751, 1.23853152417093], a = 0.2, v = 0.2, t = 0.2)
movej(p[-0.439005310303677, -0.121566133605164, 0.308323969978845, -1.24577579396806, -1.26072666947552, 1.22435460270146], a = 0.2, v = 0.2, t = 0.2)
movej(p[-0.438868103876835, -0.121605867332451, 0.308945799255937, -1.27340865528654, -1.25477036509898, 1.21143017725153], a = 0.2, v = 0.2, t = 0.2)
movej(p[-0.440437457253647, -0.121395577565587, 0.308965785679851, -1.30792604747827, -1.24911843253036, 1.17406980474734], a = 0.2, v = 0.2, t = 0.2)
movej(p[-0.442936548367081, -0.121089992521617, 0.308583531575021, -1.31801927950782, -1.23786139823072, 1.15893208173031], a = 0.2, v = 0.2, t = 0.2)
movej(p[-0.445459489245483, -0.120841931857769, 0.308246132887954, -1.32335104742572, -1.22878260584667, 1.15074229353262], a = 0.2, v = 0.2, t = 0.2)
movej(p[-0.447594746231877, -0.120688521940326, 0.308101800658048, -1.31345528555852, -1.22323608655158, 1.14782984705842], a = 0.2, v = 0.2, t = 0.2)
movej(p[-0.449307606053141, -0.120498365110473, 0.308024397660319, -1.30835854299175, -1.19777646775758, 1.15908978332491], a = 0.2, v = 0.2, t = 0.2)
movej(p[-0.450615995541242, -0.120475713396079, 0.307896848990935, -1.29384776198667, -1.20155236191567, 1.14316934603621], a = 0.2, v = 0.2, t = 0.2)
movej(p[-0.451809996785552, -0.120275815866745, 0.30761541227767, -1.27197887882844, -1.19013381223006, 1.1481335459778], a = 0.2, v = 0.2, t = 0.2)
movej(p[-0.452689898649965, -0.120215406511053, 0.307522315765123, -1.24379463069341, -1.17441782628711, 1.15226267482151], a = 0.2, v = 0.2, t = 0.2)
movej(p[-0.452612179758632, -0.120165255335871, 0.307214866348051, -1.23689531458921, -1.17468178627269, 1.16851928419363], a = 0.2, v = 0.2, t = 0.2)
movej(p[-0.451505787841801, -0.120294633880652, 0.306843517573688, -1.22530404133434, -1.17275040100038, 1.19855441039988], a = 0.2, v = 0.2, t = 0.2)
movej(p[-0.449070948480464, -0.120501527082233, 0.306603016822496, -1.24133580472133, -1.17994261046578, 1.21797656610815], a = 0.2, v = 0.2, t = 0.2)
movej(p[-0.446371213435513, -0.120821364295747, 0.306700047289966, -1.24119633268449, -1.1740559584932, 1.25014187368785], a = 0.2, v = 0.2, t = 0.2)
movej(p[-0.443462855467796, -0.121220354751862, 0.30741746519152, -1.22578660968404, -1.18530596985191, 1.25398753244027], a = 0.2, v = 0.2, t = 0.2)
movej(p[-0.440930336149963, -0.121584632147016, 0.308362286805198, -1.22573635719575, -1.22605115426013, 1.25459274213057], a = 0.2, v = 0.2, t = 0.2)
movej(p[-0.438911190939541, -0.121784758569263, 0.309155346078674, -1.24038171151416, -1.25266493642817, 1.23835371020702], a = 0.2, v = 0.2, t = 0.2)
movej(p[-0.438088228932573, -0.121709700026012, 0.309555901630593, -1.29627773711809, -1.26547396539099, 1.22642420685064], a = 0.2, v = 0.2, t = 0.2)
movej(p[-0.43900936809918, -0.121532195982885, 0.309674846116872, -1.32268698198769, -1.2606373027751, 1.19603169061621], a = 0.2, v = 0.2, t = 0.2)
movej(p[-0.441074651296407, -0.121164334226174, 0.309583430986925, -1.34566811272769, -1.24720703735188, 1.18142214264835], a = 0.2, v = 0.2, t = 0.2)
movej(p[-0.44375211556726, -0.120904854268342, 0.309190496908847, -1.32411096890954, -1.23332238096597, 1.15534333949787], a = 0.2, v = 0.2, t = 0.2)
movej(p[-0.446287674699307, -0.120671371010596, 0.308886692463939, -1.3085507758173, -1.21549595111269, 1.15123201593096], a = 0.2, v = 0.2, t = 0.2)
movej(p[-0.448265295210605, -0.120535641058548, 0.30843994284177, -1.29305659049256, -1.22002448753151, 1.13925027804395], a = 0.2, v = 0.2, t = 0.2)
movej(p[-0.44961827583645, -0.120385729928665, 0.308277749169803, -1.27674880821254, -1.20122471460441, 1.1491957905193], a = 0.2, v = 0.2, t = 0.2)
movej(p[-0.450727807164308, -0.120223461013215, 0.307903387093624, -1.25760285964575, -1.19582302384421, 1.14879558858742], a = 0.2, v = 0.2, t = 0.2)
movej(p[-0.451700623556671, -0.120125110216762, 0.307757159192003, -1.22037073589471, -1.18307764754642, 1.13991448113247], a = 0.2, v = 0.2, t = 0.2)
movej(p[-0.452236096471336, -0.120020814015337, 0.307419997750179, -1.18897232885563, -1.19810486944918, 1.13839710990059], a = 0.2, v = 0.2, t = 0.2)
movej(p[-0.451794025349622, -0.120134128130011, 0.307187915202014, -1.17979419248137, -1.19291381817477, 1.14618109906408], a = 0.2, v = 0.2, t = 0.2)
movej(p[-0.45049340458699, -0.120266126710114, 0.306873529076587, -1.16750380014996, -1.19449964843663, 1.17504631083961], a = 0.2, v = 0.2, t = 0.2)
movej(p[-0.448687342089332, -0.120476657506764, 0.306585892716726, -1.19893430651033, -1.18395416347359, 1.20326632067323], a = 0.2, v = 0.2, t = 0.2)
movej(p[-0.44660370483915, -0.120707838069492, 0.306716275058986, -1.22843439270262, -1.19335196653882, 1.2305866991339], a = 0.2, v = 0.2, t = 0.2)
movej(p[-0.444314368522394, -0.121027044070972, 0.307031973361008, -1.26697793128636, -1.17494084250092, 1.26248390853908], a = 0.2, v = 0.2, t = 0.2)
movej(p[-0.441950342323725, -0.121417458100708, 0.307654324728157, -1.27601554720599, -1.19123720098511, 1.27138860345316], a = 0.2, v = 0.2, t = 0.2)
movej(p[-0.439685308832872, -0.121608291205874, 0.308330569523914, -1.27160775130138, -1.21404024518519, 1.26075514085498], a = 0.2, v = 0.2, t = 0.2)
movej(p[-0.43834167318384, -0.121672203184968, 0.309270062315573, -1.30000135556043, -1.25833592687843, 1.2281968220328], a = 0.2, v = 0.2, t = 0.2)
movej(p[-0.438118780821892, -0.121523877760773, 0.309829289287045, -1.29812838137228, -1.27419259553258, 1.20894998787738], a = 0.2, v = 0.2, t = 0.2)
movej(p[-0.439411900038317, -0.121330705016007, 0.310004752473721, -1.31178068911884, -1.28536124281781, 1.18474755588418], a = 0.2, v = 0.2, t = 0.2)
movej(p[-0.441708118656919, -0.121084836070473, 0.309758365788008, -1.30308943919458, -1.26706001816649, 1.17211141588393], a = 0.2, v = 0.2, t = 0.2)
movej(p[-0.444188345739908, -0.120916214304391, 0.309541880045256, -1.29615921118034, -1.24784004522266, 1.15993598408098], a = 0.2, v = 0.2, t = 0.2)
movej(p[-0.44661271649473, -0.120673362078363, 0.309109969406495, -1.29417269740673, -1.22699523977976, 1.14921762921699], a = 0.2, v = 0.2, t = 0.2)
