def moving():
set_payload_mass(0.606)
set_tcp(p[0.0001,-0.0009,0.0582,0,0,0])
movej(p[0.4763, -0.0211, 0.2251, -1.21, 1.207, -1.216], a = 0.2, v = 0.2, t = 0.2)
movej(p[0.476399503559594, -0.0211997494971276, 0.225200742639686, -1.2082623738881, 1.20525469812697, -1.21424848537015], a = 0.2, v = 0.2, t = 0.2)
movej(p[0.4763, -0.0211, 0.2251, -1.21, 1.207, -1.216], a = 0.2, v = 0.2, t = 0.2)
movej(p[0.476399503559594, -0.0211997494971276, 0.225200742639686, -1.2082623738881, 1.20525469812697, -1.21424848537015], a = 0.2, v = 0.2, t = 0.2)
movej(p[0.4763, -0.0211, 0.2251, -1.21, 1.207, -1.216], a = 0.2, v = 0.2, t = 0.2)
movej(p[0.476399503559594, -0.0211997494971276, 0.225200742639686, -1.2082623738881, 1.20525469812697, -1.21424848537015], a = 0.2, v = 0.2, t = 0.2)
movej(p[0.4763, -0.0211, 0.2251, -1.21, 1.207, -1.216], a = 0.2, v = 0.2, t = 0.2)
movej(p[0.476375598308417, -0.020958231211267, 0.224956218425013, -1.20964922753135, 1.20906585770374, -1.22439108360488], a = 0.2, v = 0.2, t = 0.2)
movej(p[0.476632959937617, -0.0209026960234679, 0.224821639946676, -1.21342018930793, 1.21230980921808, -1.22832564116447], a = 0.2, v = 0.2, t = 0.2)
movej(p[0.476658806302702, -0.0208991565576965, 0.224733040467592, -1.21184151433134, 1.21515661852929, -1.22624759095017], a = 0.2, v = 0.2, t = 0.2)
movej(p[0.47664812286805, -0.0210512283510713, 0.224760563618353, -1.21624899893614, 1.21544403913547, -1.231254955131], a = 0.2, v = 0.2, t = 0.2)
movej(p[0.476589325125955, -0.0210768028584492, 0.224717857177176, -1.21300953721065, 1.2170377804758, -1.23194637959092], a = 0.2, v = 0.2, t = 0.2)
movej(p[0.47645545013304, -0.0210449572052232, 0.224584151391708, -1.21339340683168, 1.2157433163615, -1.23554196791205], a = 0.2, v = 0.2, t = 0.2)
movej(p[0.475974400656292, -0.0211348986906295, 0.224494432850573, -1.20585300998492, 1.21516620574225, -1.22908180214531], a = 0.2, v = 0.2, t = 0.2)
movej(p[0.475079106420372, -0.021211356773389, 0.22445506429759, -1.20161349872603, 1.21127733814627, -1.24273070446959], a = 0.2, v = 0.2, t = 0.2)
movej(p[0.474129244678933, -0.0210647899931874, 0.224386778286771, -1.20100894716095, 1.20511062923871, -1.25271213213056], a = 0.2, v = 0.2, t = 0.2)
movej(p[0.473173165841485, -0.0207585546155898, 0.224376762393738, -1.20235230959801, 1.19636935217523, -1.26445446379897], a = 0.2, v = 0.2, t = 0.2)
movej(p[0.472324301188942, -0.0206361812700271, 0.224496897564521, -1.19491580540418, 1.18953527122572, -1.25227619324989], a = 0.2, v = 0.2, t = 0.2)
movej(p[0.471803156183515, -0.0204879703852343, 0.224595701252442, -1.19302528681917, 1.18099586749007, -1.25814367236601], a = 0.2, v = 0.2, t = 0.2)
movej(p[0.471985751857822, -0.0203329121212732, 0.224601002526035, -1.19927569424374, 1.17439728862489, -1.25934216011577], a = 0.2, v = 0.2, t = 0.2)
movej(p[0.472878850228627, -0.0203027775174611, 0.224637922787653, -1.20581167852263, 1.17198027210989, -1.26042132712299], a = 0.2, v = 0.2, t = 0.2)
movej(p[0.473975621605186, -0.0203680511581748, 0.224708184309053, -1.20723531226716, 1.1758359037205, -1.25564773168346], a = 0.2, v = 0.2, t = 0.2)
movej(p[0.475153299319073, -0.0203298989576904, 0.224678073307557, -1.2086119969817, 1.18584742695262, -1.25461095202147], a = 0.2, v = 0.2, t = 0.2)
movej(p[0.47606858351561, -0.0203122720601832, 0.22459573715417, -1.21012822028685, 1.19747194596587, -1.24854803954934], a = 0.2, v = 0.2, t = 0.2)
movej(p[0.476579224473915, -0.0204665742712507, 0.224577431489443, -1.21709982913175, 1.20626799455401, -1.24429702248576], a = 0.2, v = 0.2, t = 0.2)
movej(p[0.476639404090867, -0.0206445288844979, 0.224553340704327, -1.21542867359822, 1.2108533155043, -1.24190285831713], a = 0.2, v = 0.2, t = 0.2)
movej(p[0.476585095786665, -0.0206879606393838, 0.224456565136841, -1.21336472543818, 1.21369337906718, -1.23793261585775], a = 0.2, v = 0.2, t = 0.2)
movej(p[0.476256738847897, -0.0207982914941643, 0.2243753655268, -1.20632819352088, 1.21299772831197, -1.23198430949815], a = 0.2, v = 0.2, t = 0.2)
movej(p[0.475557846487654, -0.0209567968537693, 0.224399803517631, -1.20420337984704, 1.21192839025964, -1.23734287612578], a = 0.2, v = 0.2, t = 0.2)
movej(p[0.474630643978173, -0.0209764903373667, 0.224359170624349, -1.20347139624358, 1.20561316719673, -1.2523373618318], a = 0.2, v = 0.2, t = 0.2)
movej(p[0.473596597352074, -0.0207731480651684, 0.22434798975274, -1.2041377397423, 1.19877386192426, -1.26319725571826], a = 0.2, v = 0.2, t = 0.2)
movej(p[0.472754038229793, -0.0206682036550372, 0.224446188330855, -1.20090260615573, 1.19063520027159, -1.25915931927662], a = 0.2, v = 0.2, t = 0.2)
movej(p[0.472006372485067, -0.0205261903124362, 0.224589128425952, -1.20361670758242, 1.1810187736182, -1.26575347985254], a = 0.2, v = 0.2, t = 0.2)
movej(p[0.471859856213766, -0.0203851447236248, 0.224625747647967, -1.20662911124169, 1.17377792787494, -1.26627671614853], a = 0.2, v = 0.2, t = 0.2)
movej(p[0.472284129151959, -0.020268270356931, 0.224598514807001, -1.20619587669832, 1.17143462132834, -1.26224723050906], a = 0.2, v = 0.2, t = 0.2)
movej(p[0.473259238542978, -0.0203694862162691, 0.224654607376612, -1.20775380897994, 1.17339402078974, -1.25777232299043], a = 0.2, v = 0.2, t = 0.2)
movej(p[0.474436205214119, -0.0203943332387702, 0.224644067139573, -1.20660622802752, 1.18122890346637, -1.25531958658216], a = 0.2, v = 0.2, t = 0.2)
movej(p[0.475532502996644, -0.0203634589656958, 0.224584123916502, -1.21598630176703, 1.18975357090496, -1.25599358678251], a = 0.2, v = 0.2, t = 0.2)
movej(p[0.476193618443494, -0.0204596712030421, 0.224561060568503, -1.21092082492989, 1.20249427485194, -1.23941144943462], a = 0.2, v = 0.2, t = 0.2)
movej(p[0.476418364161564, -0.0205915109806312, 0.224573766703031, -1.2157597930945, 1.20748977795621, -1.24313099911818], a = 0.2, v = 0.2, t = 0.2)
movej(p[0.476454428910166, -0.0206655564910539, 0.224501467889801, -1.2177330640429, 1.20967854298521, -1.24520915966759], a = 0.2, v = 0.2, t = 0.2)
movej(p[0.476339368737785, -0.0206983749419466, 0.224391566786473, -1.22013636143084, 1.20856210210564, -1.24800072569046], a = 0.2, v = 0.2, t = 0.2)
movej(p[0.475899581726792, -0.0209171299118712, 0.224365963673482, -1.21294735144083, 1.20727146783664, -1.24410168334551], a = 0.2, v = 0.2, t = 0.2)
movej(p[0.47515274163783, -0.0209248030902494, 0.224291177580834, -1.20460993441972, 1.20422919303605, -1.25003467915801], a = 0.2, v = 0.2, t = 0.2)
movej(p[0.474211641881598, -0.0207922156174283, 0.224223483398874, -1.20106468742838, 1.19916157095004, -1.25913629308555], a = 0.2, v = 0.2, t = 0.2)
movej(p[0.473214083219073, -0.0206312291552618, 0.224255594493849, -1.19693528355584, 1.19400239626688, -1.2581351896627], a = 0.2, v = 0.2, t = 0.2)
movej(p[0.472313995101846, -0.0205460354598691, 0.224386680992356, -1.19533250374824, 1.18788013521867, -1.26065155787021], a = 0.2, v = 0.2, t = 0.2)
movej(p[0.471908149414757, -0.0203574303461311, 0.22444583524701, -1.19957414605087, 1.18026845834323, -1.26048841108608], a = 0.2, v = 0.2, t = 0.2)
movej(p[0.472004335994377, -0.0202718795896039, 0.224505152115256, -1.20718019362891, 1.17270849155564, -1.2631463473522], a = 0.2, v = 0.2, t = 0.2)
movej(p[0.472531607041782, -0.0203332879358485, 0.224621212229338, -1.20759767115413, 1.17171060494604, -1.2561623344883], a = 0.2, v = 0.2, t = 0.2)
movej(p[0.473539033685906, -0.0203919500476278, 0.224675002230729, -1.21130561221763, 1.17552600126904, -1.25762286779893], a = 0.2, v = 0.2, t = 0.2)
movej(p[0.474749579660219, -0.0204122637945971, 0.224678507007448, -1.21019627357172, 1.18676837430706, -1.24742607851038], a = 0.2, v = 0.2, t = 0.2)
movej(p[0.47577609266428, -0.0205321849564283, 0.224677913679122, -1.21256536409368, 1.19726665034548, -1.23748399080255], a = 0.2, v = 0.2, t = 0.2)
movej(p[0.476216374600735, -0.0206999514616588, 0.224714524349415, -1.20986974233957, 1.20533962884477, -1.23018579393077], a = 0.2, v = 0.2, t = 0.2)
movej(p[0.476426718673991, -0.0207885750214087, 0.224675835274367, -1.20622251400627, 1.21186132692462, -1.22325541038235], a = 0.2, v = 0.2, t = 0.2)
movej(p[0.476459784938009, -0.020913167686677, 0.224635998451636, -1.20422089197803, 1.21389456939236, -1.22084374767298], a = 0.2, v = 0.2, t = 0.2)
movej(p[0.476222807785184, -0.0210861298319245, 0.224588801785192, -1.19857934510288, 1.21515916082811, -1.21928671624596], a = 0.2, v = 0.2, t = 0.2)
movej(p[0.475639170727732, -0.021146006276145, 0.224472470899784, -1.20415093435231, 1.20900465663811, -1.23890312435658], a = 0.2, v = 0.2, t = 0.2)
movej(p[0.474686238079072, -0.021063147636676, 0.224350102637216, -1.2020975497264, 1.20411126100796, -1.24575724122065], a = 0.2, v = 0.2, t = 0.2)
movej(p[0.473650432555049, -0.0209981816665203, 0.224379915828044, -1.20618348407914, 1.19705350872689, -1.253578482998], a = 0.2, v = 0.2, t = 0.2)
movej(p[0.47264174220731, -0.020881905705675, 0.224460960446057, -1.19759123262889, 1.19158643143556, -1.25086107040499], a = 0.2, v = 0.2, t = 0.2)
movej(p[0.471992337345253, -0.0206398507871187, 0.224476415190947, -1.19612490997904, 1.18551165400012, -1.24890640236157], a = 0.2, v = 0.2, t = 0.2)
movej(p[0.471851667355669, -0.0205131858300666, 0.224519891622327, -1.19381617232501, 1.18067516559263, -1.24152863980466], a = 0.2, v = 0.2, t = 0.2)
movej(p[0.472152754408472, -0.0205212073678835, 0.224645673735785, -1.19877267089902, 1.17665108203055, -1.24211102156596], a = 0.2, v = 0.2, t = 0.2)
movej(p[0.473120296855613, -0.0205439828987503, 0.224732918170984, -1.20519331126838, 1.17720672036087, -1.24775596494967], a = 0.2, v = 0.2, t = 0.2)
movej(p[0.474400845272849, -0.0205178569890854, 0.224744928185877, -1.20665668563963, 1.18594971838452, -1.24083031083366], a = 0.2, v = 0.2, t = 0.2)
movej(p[0.475575891722897, -0.0206184942740534, 0.224764921477395, -1.20792254250616, 1.19712986876152, -1.22842568297866], a = 0.2, v = 0.2, t = 0.2)
movej(p[0.476151166282544, -0.0207331632526599, 0.224772653661317, -1.20581028562212, 1.2060368584271, -1.2203551980507], a = 0.2, v = 0.2, t = 0.2)
movej(p[0.47641324025396, -0.0208177247529946, 0.224702313434083, -1.20826119640956, 1.21025627803872, -1.22076571781467], a = 0.2, v = 0.2, t = 0.2)
movej(p[0.476451058077492, -0.0209515162304089, 0.224651484503398, -1.20785622298232, 1.21159838540319, -1.22074797000965], a = 0.2, v = 0.2, t = 0.2)
movej(p[0.476202184955723, -0.021076883140501, 0.224593926703117, -1.20615093085315, 1.2118433470422, -1.22773598281188], a = 0.2, v = 0.2, t = 0.2)
movej(p[0.475726631668923, -0.021106627494562, 0.224478012730811, -1.20606060900874, 1.20853779278433, -1.23929952427013], a = 0.2, v = 0.2, t = 0.2)
movej(p[0.47486647364974, -0.0210215970057371, 0.224382039200567, -1.20231435063997, 1.20472151460321, -1.24481631444878], a = 0.2, v = 0.2, t = 0.2)
movej(p[0.473871936444353, -0.0210475965135568, 0.224451763939531, -1.19901820708592, 1.20096081687136, -1.24417810557209], a = 0.2, v = 0.2, t = 0.2)
movej(p[0.472930735946465, -0.0209021390916074, 0.224527305979611, -1.1913044634509, 1.19529922426757, -1.24504019420268], a = 0.2, v = 0.2, t = 0.2)
movej(p[0.472317581990872, -0.0206440181039601, 0.224539112697011, -1.19541425908369, 1.18740790031207, -1.25009669839242], a = 0.2, v = 0.2, t = 0.2)
movej(p[0.471973418793705, -0.0204999528101465, 0.224555877235009, -1.19660016877366, 1.17982607805973, -1.2486110518775], a = 0.2, v = 0.2, t = 0.2)
movej(p[0.472074158306506, -0.0205253938460512, 0.224639092538606, -1.20892827881326, 1.17342987231127, -1.26148751222844], a = 0.2, v = 0.2, t = 0.2)
movej(p[0.472817930013327, -0.0205567357601667, 0.224703590823481, -1.21467743977029, 1.17405482341692, -1.2640398882872], a = 0.2, v = 0.2, t = 0.2)
movej(p[0.474063159980379, -0.0205166753456032, 0.224696247279275, -1.21614974967269, 1.18125978189361, -1.25712076937], a = 0.2, v = 0.2, t = 0.2)
movej(p[0.475260149121768, -0.0206413049465746, 0.224778105166238, -1.21860982086145, 1.19067327081937, -1.24815033571559], a = 0.2, v = 0.2, t = 0.2)
movej(p[0.475987936465954, -0.0207365506347693, 0.224755491694103, -1.21086557013214, 1.20123652336606, -1.23479622052827], a = 0.2, v = 0.2, t = 0.2)
movej(p[0.476366604323093, -0.0208358217795256, 0.224702377675304, -1.21437283326497, 1.20637898405, -1.2339641823023], a = 0.2, v = 0.2, t = 0.2)
movej(p[0.476424632534606, -0.020975831673542, 0.224656437543719, -1.21035779771548, 1.21063386538887, -1.22396071012892], a = 0.2, v = 0.2, t = 0.2)
movej(p[0.476230794538908, -0.0211206768245603, 0.224651587954504, -1.21813012323606, 1.20896013426179, -1.23734357328275], a = 0.2, v = 0.2, t = 0.2)
movej(p[0.475712162069441, -0.021155905488337, 0.224520911761146, -1.22093123875861, 1.20557979761361, -1.24848209121974], a = 0.2, v = 0.2, t = 0.2)
movej(p[0.474870454299665, -0.0211201261808434, 0.224408072620993, -1.21757943788632, 1.20203991296862, -1.25386794440326], a = 0.2, v = 0.2, t = 0.2)
movej(p[0.473859894679521, -0.0211350663354843, 0.224414142607607, -1.20648961989771, 1.1991138307507, -1.2499187538789], a = 0.2, v = 0.2, t = 0.2)
movej(p[0.472947372136217, -0.0209598540122535, 0.22444699843124, -1.19599079620831, 1.19475455891443, -1.24738435849581], a = 0.2, v = 0.2, t = 0.2)
movej(p[0.472294045506624, -0.0207218646071142, 0.224467194931084, -1.19804270123588, 1.18539981203803, -1.25160198480706], a = 0.2, v = 0.2, t = 0.2)
movej(p[0.471933133184033, -0.0206304436052591, 0.224531430489944, -1.19867733635787, 1.17898138302678, -1.24496750622984], a = 0.2, v = 0.2, t = 0.2)
movej(p[0.471815637311196, -0.020682177537612, 0.224642493927266, -1.20501429057222, 1.17184342176835, -1.25334407206096], a = 0.2, v = 0.2, t = 0.2)
movej(p[0.472478348396305, -0.02071002283225, 0.224693845906205, -1.21220682580706, 1.17132813956047, -1.25506269843802], a = 0.2, v = 0.2, t = 0.2)
movej(p[0.473634434400008, -0.0206901198237, 0.224725259045053, -1.21753093318961, 1.17499769850603, -1.2570986287014], a = 0.2, v = 0.2, t = 0.2)
movej(p[0.474955257997256, -0.0208041686630634, 0.224804580334706, -1.21589659135056, 1.18640111891141, -1.24592472165247], a = 0.2, v = 0.2, t = 0.2)
movej(p[0.475895053694783, -0.0208337431204857, 0.224801363678361, -1.21487319516854, 1.19727153662878, -1.23984472727727], a = 0.2, v = 0.2, t = 0.2)
movej(p[0.476441124596459, -0.0209382111974718, 0.224770665290243, -1.21147754840081, 1.20633906423258, -1.22862861037177], a = 0.2, v = 0.2, t = 0.2)
movej(p[0.476568110799173, -0.0210586095874709, 0.224757225518852, -1.21575928720521, 1.21012218010427, -1.22947549591439], a = 0.2, v = 0.2, t = 0.2)
movej(p[0.476492027532981, -0.0211963804498284, 0.224753473200781, -1.21538833852574, 1.21166360868763, -1.23073376430769], a = 0.2, v = 0.2, t = 0.2)
movej(p[0.476234953334152, -0.0212641087642859, 0.224657931060183, -1.21693917517061, 1.21070839036946, -1.23461757164572], a = 0.2, v = 0.2, t = 0.2)
movej(p[0.475601022283707, -0.0213481336252172, 0.22455714710615, -1.21276712961686, 1.20733745104274, -1.23493543527219], a = 0.2, v = 0.2, t = 0.2)
movej(p[0.474579102316577, -0.0214533296567443, 0.224526141596424, -1.20201529023172, 1.20546295641752, -1.23464299503776], a = 0.2, v = 0.2, t = 0.2)
movej(p[0.473541584468371, -0.0212661341332818, 0.224484484740461, -1.19590449496824, 1.19941577773626, -1.24208795688834], a = 0.2, v = 0.2, t = 0.2)
movej(p[0.472655494070216, -0.0209878401791741, 0.224491024480901, -1.19446643894203, 1.1919371865025, -1.24596578628263], a = 0.2, v = 0.2, t = 0.2)
movej(p[0.471954757476012, -0.0208492419823106, 0.224574950075145, -1.19554922776884, 1.18382981626801, -1.24109447362045], a = 0.2, v = 0.2, t = 0.2)
movej(p[0.47165893537666, -0.0207940213233893, 0.224688502637262, -1.19804532763093, 1.17723898136798, -1.2465546520071], a = 0.2, v = 0.2, t = 0.2)
movej(p[0.472000666852912, -0.0207049223259011, 0.2247332312834, -1.20389444272235, 1.17401476991331, -1.24811303073313], a = 0.2, v = 0.2, t = 0.2)
movej(p[0.47310724491475, -0.020675819156071, 0.224778252641262, -1.20566935565752, 1.17634962264759, -1.24637270335604], a = 0.2, v = 0.2, t = 0.2)
movej(p[0.47440809700017, -0.0206888424953997, 0.224830390598558, -1.20710443700413, 1.18536786100401, -1.24110643048751], a = 0.2, v = 0.2, t = 0.2)
movej(p[0.475546956514711, -0.0207138291267503, 0.224835502838168, -1.21212171409734, 1.19551015780267, -1.23976588335389], a = 0.2, v = 0.2, t = 0.2)
movej(p[0.476303603942114, -0.0207720491555208, 0.22481702713629, -1.21161164265337, 1.20730823113268, -1.22735484592062], a = 0.2, v = 0.2, t = 0.2)
movej(p[0.476637923582303, -0.0209864291730624, 0.224863020241387, -1.21631412790153, 1.21335348087437, -1.22218867108785], a = 0.2, v = 0.2, t = 0.2)
movej(p[0.476622942060109, -0.0211438852607256, 0.224832280022674, -1.20526507917241, 1.2181578416362, -1.21175946435714], a = 0.2, v = 0.2, t = 0.2)
movej(p[0.476580013924575, -0.0211698454146603, 0.224746531723494, -1.20459960955574, 1.21886276217698, -1.21248495178844], a = 0.2, v = 0.2, t = 0.2)
movej(p[0.476325265954714, -0.0212827361396133, 0.224673796253522, -1.19996541861131, 1.21770966557301, -1.20770184063832], a = 0.2, v = 0.2, t = 0.2)
movej(p[0.47574630347553, -0.0213663239582791, 0.224600808138952, -1.19861525315538, 1.21413751305592, -1.21753394977281], a = 0.2, v = 0.2, t = 0.2)
movej(p[0.47495475620676, -0.0213392019295356, 0.224503849984268, -1.2017750232321, 1.20790415073763, -1.23345169886036], a = 0.2, v = 0.2, t = 0.2)
movej(p[0.473943830398003, -0.0211924887223344, 0.224420181192894, -1.19765369463079, 1.20254348521285, -1.23916918667204], a = 0.2, v = 0.2, t = 0.2)
movej(p[0.473070792264836, -0.0211336009978987, 0.224543194872603, -1.19986562973369, 1.19571365854747, -1.24144079924488], a = 0.2, v = 0.2, t = 0.2)
movej(p[0.472397314693374, -0.020985830570372, 0.22461222663041, -1.19493023482923, 1.18995118919255, -1.24261517113653], a = 0.2, v = 0.2, t = 0.2)
movej(p[0.472356825153832, -0.020799117362471, 0.224646178509343, -1.20103448325829, 1.18338205102018, -1.24476061954777], a = 0.2, v = 0.2, t = 0.2)
movej(p[0.472864187423754, -0.0207331733690555, 0.22465213952369, -1.19829544163574, 1.18194417614687, -1.23645349494814], a = 0.2, v = 0.2, t = 0.2)
movej(p[0.473814496183614, -0.0207869699004959, 0.224761722901257, -1.20292556403671, 1.18503294735643, -1.23729134694833], a = 0.2, v = 0.2, t = 0.2)
movej(p[0.474964037305846, -0.0208226327060668, 0.224792714937256, -1.2075225411788, 1.19242444225479, -1.23545731865976], a = 0.2, v = 0.2, t = 0.2)
movej(p[0.475849292257163, -0.0208247739367827, 0.22479909152725, -1.21516194624382, 1.20157885362943, -1.23363056109642], a = 0.2, v = 0.2, t = 0.2)
movej(p[0.476368878674223, -0.0210456062229694, 0.224851007900548, -1.21580477379684, 1.20920464680575, -1.22479167650171], a = 0.2, v = 0.2, t = 0.2)
movej(p[0.476492032799787, -0.0211617032112107, 0.22481587689665, -1.21027765471625, 1.21577856155164, -1.21975054203421], a = 0.2, v = 0.2, t = 0.2)
movej(p[0.476555368035277, -0.0211981753376291, 0.224729999082892, -1.20787889745138, 1.21816127846613, -1.21941972082039], a = 0.2, v = 0.2, t = 0.2)
movej(p[0.476492896222995, -0.0212583748449872, 0.224658680692662, -1.203786188449, 1.21915440046797, -1.21420616877716], a = 0.2, v = 0.2, t = 0.2)
movej(p[0.476248167408473, -0.0213766867360875, 0.224661597397443, -1.21432659089008, 1.21385388836444, -1.23046254565226], a = 0.2, v = 0.2, t = 0.2)
movej(p[0.475749224017002, -0.0213533561694813, 0.224550927831302, -1.21639415708629, 1.20953305506555, -1.24025176544848], a = 0.2, v = 0.2, t = 0.2)
movej(p[0.474970274753813, -0.0212706761466897, 0.224487315393776, -1.22156131577548, 1.20331125819432, -1.25491200265694], a = 0.2, v = 0.2, t = 0.2)
movej(p[0.473973885509703, -0.0212806263065527, 0.224554533734581, -1.20474423122812, 1.20278277053058, -1.24225721097519], a = 0.2, v = 0.2, t = 0.2)
movej(p[0.473154025479624, -0.0211275336797878, 0.224621648353743, -1.19913039706414, 1.19734559952444, -1.24710445235763], a = 0.2, v = 0.2, t = 0.2)
movej(p[0.472663381247128, -0.0208821747134935, 0.224615274499826, -1.20028940969636, 1.18976209914868, -1.25031350484672], a = 0.2, v = 0.2, t = 0.2)
movej(p[0.472496031318877, -0.0207271289802948, 0.224639163564921, -1.20601499096855, 1.18202918174494, -1.25236030217045], a = 0.2, v = 0.2, t = 0.2)
movej(p[0.472619747812012, -0.0208001866500102, 0.224764426341203, -1.2101415903762, 1.17768563916802, -1.25452597017458], a = 0.2, v = 0.2, t = 0.2)
movej(p[0.473333291993097, -0.0208057581149741, 0.224783951968403, -1.20897421605723, 1.1804741728051, -1.24905249324876], a = 0.2, v = 0.2, t = 0.2)
movej(p[0.474386579540008, -0.0207855256339761, 0.224771984043077, -1.20637721906439, 1.18766452070668, -1.23893377360554], a = 0.2, v = 0.2, t = 0.2)
movej(p[0.475424017566541, -0.020846500256104, 0.224805535234677, -1.20605282895312, 1.19857662299877, -1.22599721939222], a = 0.2, v = 0.2, t = 0.2)
movej(p[0.476021240154535, -0.0209150777599203, 0.224818862809859, -1.20437553382078, 1.20729764111973, -1.21985292927072], a = 0.2, v = 0.2, t = 0.2)
movej(p[0.476390911458044, -0.0208931047233681, 0.224722367311399, -1.20517761441276, 1.21386857417623, -1.21586852278632], a = 0.2, v = 0.2, t = 0.2)
movej(p[0.476515722646059, -0.0209683665278227, 0.224622200344726, -1.20121765546275, 1.21513836796344, -1.20936186636492], a = 0.2, v = 0.2, t = 0.2)
movej(p[0.476463950178329, -0.0210439228441776, 0.224559625453371, -1.20223902319721, 1.21542357058712, -1.21656896696226], a = 0.2, v = 0.2, t = 0.2)
movej(p[0.4764100022622, -0.0210378459991081, 0.224471217723532, -1.2090016933262, 1.21306650574986, -1.23243168384423], a = 0.2, v = 0.2, t = 0.2)
movej(p[0.476338054228033, -0.0209527806173009, 0.22435339387582, -1.21241233676294, 1.21229562088758, -1.24013969208274], a = 0.2, v = 0.2, t = 0.2)
movej(p[0.476164665216495, -0.0210692731261659, 0.224314096262137, -1.20834310564488, 1.21217677057055, -1.23326307542475], a = 0.2, v = 0.2, t = 0.2)
movej(p[0.475575780079892, -0.0211133256464174, 0.224256673213902, -1.2033719257277, 1.20844640012653, -1.24506891417354], a = 0.2, v = 0.2, t = 0.2)
movej(p[0.474953559252214, -0.0209788576166649, 0.22413672902262, -1.20225869794772, 1.20397529872963, -1.25492733539165], a = 0.2, v = 0.2, t = 0.2)
movej(p[0.47426083725374, -0.020731185283208, 0.224037262653078, -1.20525108665083, 1.19687880460508, -1.26794183677818], a = 0.2, v = 0.2, t = 0.2)
movej(p[0.473652779595474, -0.0206938911176426, 0.224145071776712, -1.20473036960307, 1.19298730746399, -1.26684072141374], a = 0.2, v = 0.2, t = 0.2)
movej(p[0.473072630890366, -0.0205212642046995, 0.224187102728277, -1.20171714905078, 1.18669461286724, -1.27203577171433], a = 0.2, v = 0.2, t = 0.2)
movej(p[0.472819072326254, -0.0202699454205114, 0.224194189122265, -1.20373924849197, 1.1814522551489, -1.27365205032778], a = 0.2, v = 0.2, t = 0.2)
movej(p[0.472913789917378, -0.0201290574836194, 0.224216769068457, -1.20270049665009, 1.17698421448246, -1.26717254387582], a = 0.2, v = 0.2, t = 0.2)
movej(p[0.473379348857513, -0.0202083202527055, 0.224317786938647, -1.21272802663498, 1.17382189069726, -1.27335075446161], a = 0.2, v = 0.2, t = 0.2)
movej(p[0.474328612359103, -0.0202606037011444, 0.224362809135036, -1.21336322076839, 1.17874366100049, -1.26824223468446], a = 0.2, v = 0.2, t = 0.2)
movej(p[0.475296691943492, -0.0202725468362998, 0.224360688023817, -1.22060850005227, 1.18507751915552, -1.26933730232592], a = 0.2, v = 0.2, t = 0.2)
movej(p[0.476042609070723, -0.0204424602569501, 0.224412739592341, -1.20918115291013, 1.19778969015085, -1.24418159781152], a = 0.2, v = 0.2, t = 0.2)
movej(p[0.476309020724039, -0.0205849663880674, 0.22442224695947, -1.21123999968805, 1.20214889351922, -1.24819206505796], a = 0.2, v = 0.2, t = 0.2)
movej(p[0.476422120216047, -0.0206165238820064, 0.224346109722863, -1.2072529568248, 1.20601139117476, -1.24352512393899], a = 0.2, v = 0.2, t = 0.2)
movej(p[0.476448217826394, -0.0206752714679894, 0.224289749801151, -1.20399279205183, 1.20763348241899, -1.23913209019373], a = 0.2, v = 0.2, t = 0.2)
movej(p[0.476382603272952, -0.0208158135068547, 0.224263765609337, -1.19618024723414, 1.21014096810104, -1.23421015155028], a = 0.2, v = 0.2, t = 0.2)
movej(p[0.476336262338914, -0.0208302868973274, 0.224211811188191, -1.20099943534685, 1.20815903083993, -1.24480521822415], a = 0.2, v = 0.2, t = 0.2)
movej(p[0.476201458299536, -0.0208306331614046, 0.224105748274462, -1.19988657370414, 1.20751367194322, -1.2466166505364], a = 0.2, v = 0.2, t = 0.2)
movej(p[0.475778852735425, -0.0209122914862872, 0.224109454561009, -1.2029087799355, 1.20571784141542, -1.24759026196422], a = 0.2, v = 0.2, t = 0.2)
movej(p[0.47502595823841, -0.0209774659412581, 0.224096099375349, -1.19740884597645, 1.20254088758907, -1.25445579285766], a = 0.2, v = 0.2, t = 0.2)
movej(p[0.474269894896883, -0.0208203723670654, 0.224040839743194, -1.1991150888701, 1.19801556538393, -1.26199203351219], a = 0.2, v = 0.2, t = 0.2)
movej(p[0.473547423129506, -0.0206151917267362, 0.224043313157177, -1.1966707952318, 1.19167933132655, -1.26294435578908], a = 0.2, v = 0.2, t = 0.2)
movej(p[0.472912108865877, -0.0205579374253089, 0.224197717672649, -1.1984929967618, 1.18655443096972, -1.26024490585791], a = 0.2, v = 0.2, t = 0.2)
movej(p[0.472517276120211, -0.0204472519315398, 0.22429225644998, -1.19391719374624, 1.18250166385118, -1.25933278129271], a = 0.2, v = 0.2, t = 0.2)
movej(p[0.472763545884566, -0.0203102593174381, 0.224331338473296, -1.19869415731594, 1.17853241188021, -1.2595593407334], a = 0.2, v = 0.2, t = 0.2)
movej(p[0.4734456572204, -0.0203380343031869, 0.224339894464942, -1.19064334088066, 1.17935831099491, -1.24333625999972], a = 0.2, v = 0.2, t = 0.2)
movej(p[0.474320109501187, -0.0204672437222394, 0.22443153699903, -1.20011836386067, 1.18084690824571, -1.25070086995591], a = 0.2, v = 0.2, t = 0.2)
movej(p[0.475271740298705, -0.0205528134318905, 0.224453164511739, -1.20754747510599, 1.18709148577174, -1.25218015674855], a = 0.2, v = 0.2, t = 0.2)
movej(p[0.475965486363918, -0.0205776114743801, 0.224441661981976, -1.21346682424008, 1.19501443585242, -1.24886632933994], a = 0.2, v = 0.2, t = 0.2)
movej(p[0.476375497879192, -0.0208160021166345, 0.22449535372648, -1.20700911014745, 1.20485110864987, -1.23157184301089], a = 0.2, v = 0.2, t = 0.2)
movej(p[0.476446027325686, -0.0209477279843466, 0.224476210689814, -1.1990664700961, 1.21055144977607, -1.22672114322501], a = 0.2, v = 0.2, t = 0.2)
movej(p[0.476500251766167, -0.0209809008240412, 0.224437175590723, -1.19566021321442, 1.2152028049096, -1.22493078355175], a = 0.2, v = 0.2, t = 0.2)
movej(p[0.476454050716099, -0.0210065981779284, 0.224438599722665, -1.19754048271774, 1.21547060037353, -1.22640618091812], a = 0.2, v = 0.2, t = 0.2)
movej(p[0.476317796014508, -0.0211221767411953, 0.224459384608407, -1.20852023828307, 1.21200210986878, -1.24020623608734], a = 0.2, v = 0.2, t = 0.2)
movej(p[0.475935799965168, -0.0211652505460222, 0.224362036318337, -1.21277691017361, 1.2076869724587, -1.24857699922605], a = 0.2, v = 0.2, t = 0.2)
movej(p[0.475314966662285, -0.0211975852448955, 0.224265528559249, -1.21413954198483, 1.20338521614548, -1.25593283707948], a = 0.2, v = 0.2, t = 0.2)
movej(p[0.474369536759957, -0.0213163550199723, 0.224279390765909, -1.1928893659234, 1.205032108267, -1.23692616769283], a = 0.2, v = 0.2, t = 0.2)
movej(p[0.473509982013189, -0.0212393450318779, 0.224301461505399, -1.18453006650571, 1.2012157419982, -1.2384337546641], a = 0.2, v = 0.2, t = 0.2)
movej(p[0.472925584394897, -0.0209776420406982, 0.224293246364352, -1.18528648207746, 1.19483651860848, -1.24246325677932], a = 0.2, v = 0.2, t = 0.2)
movej(p[0.472450681786064, -0.020744321327973, 0.224341201468749, -1.19073215231962, 1.18599633591798, -1.24642639955663], a = 0.2, v = 0.2, t = 0.2)
movej(p[0.472149568926001, -0.0207022741448057, 0.224478799479243, -1.19245411294398, 1.1792875889903, -1.24980429724408], a = 0.2, v = 0.2, t = 0.2)
movej(p[0.472481752066952, -0.0206487994320827, 0.2245041677915, -1.19183533601122, 1.17767138484041, -1.24514564195721], a = 0.2, v = 0.2, t = 0.2)
movej(p[0.473407192241143, -0.0206036144466162, 0.224540186185157, -1.19443477826679, 1.1800961438837, -1.24156653584679], a = 0.2, v = 0.2, t = 0.2)
movej(p[0.474587268661065, -0.0206271547569956, 0.224569767120409, -1.19201662294676, 1.18924202048334, -1.23016113722981], a = 0.2, v = 0.2, t = 0.2)
movej(p[0.475557375178451, -0.0206495837832314, 0.224587154636278, -1.19878130415688, 1.19608795106423, -1.23398540807143], a = 0.2, v = 0.2, t = 0.2)
movej(p[0.476281433432444, -0.0206967743710651, 0.224555626665187, -1.20627026373786, 1.20197072709324, -1.23453348053735], a = 0.2, v = 0.2, t = 0.2)
movej(p[0.476573823769122, -0.0208346514222566, 0.224566600709456, -1.21336034557649, 1.2062975768647, -1.23432137178135], a = 0.2, v = 0.2, t = 0.2)
movej(p[0.47657651519649, -0.0210223419826153, 0.224586306907262, -1.21306080094475, 1.20786845644469, -1.23582899398456], a = 0.2, v = 0.2, t = 0.2)
movej(p[0.476563764891824, -0.0210680012472603, 0.224522249741324, -1.20289507854586, 1.21289568294463, -1.22735957358346], a = 0.2, v = 0.2, t = 0.2)
movej(p[0.476551318197582, -0.0211259546920245, 0.224498496774385, -1.20064655190769, 1.21302397903845, -1.22550898479918], a = 0.2, v = 0.2, t = 0.2)
movej(p[0.476483329165236, -0.0212691373223249, 0.22455538187666, -1.19801164740967, 1.21505006774182, -1.21855430679175], a = 0.2, v = 0.2, t = 0.2)
movej(p[0.476072480793656, -0.021343556681666, 0.224504227586271, -1.20478338172284, 1.21073867566648, -1.23469833216423], a = 0.2, v = 0.2, t = 0.2)
movej(p[0.475438670616971, -0.0213353709812587, 0.224387652203196, -1.20627252514369, 1.20757483510181, -1.24301778753294], a = 0.2, v = 0.2, t = 0.2)
movej(p[0.474601692914871, -0.0213739132928544, 0.224362555426424, -1.20346979408659, 1.20434653118431, -1.2454364991995], a = 0.2, v = 0.2, t = 0.2)
movej(p[0.473796297173632, -0.0213426918964746, 0.224436506851037, -1.1988945596911, 1.19984796317805, -1.2497835469499], a = 0.2, v = 0.2, t = 0.2)
movej(p[0.473237064406108, -0.0211443604247106, 0.224457834618407, -1.19597987530805, 1.1947093784591, -1.25112309956729], a = 0.2, v = 0.2, t = 0.2)
movej(p[0.47283895983774, -0.0209019569085133, 0.224431400434012, -1.19586058527471, 1.18799669435529, -1.2502728728158], a = 0.2, v = 0.2, t = 0.2)
movej(p[0.472735946210103, -0.0208910769840687, 0.22453482724178, -1.19959176828941, 1.18291628789356, -1.24529348656073], a = 0.2, v = 0.2, t = 0.2)
movej(p[0.472914896965504, -0.0209295842651279, 0.224641571327081, -1.20100905188352, 1.17999787397867, -1.24900350350732], a = 0.2, v = 0.2, t = 0.2)
movej(p[0.473729907201531, -0.0208791137652298, 0.224696056571969, -1.20771262338161, 1.18124267563567, -1.24757276976983], a = 0.2, v = 0.2, t = 0.2)
movej(p[0.474711765905457, -0.0208843286599383, 0.224710473315667, -1.20237424499641, 1.18858087625132, -1.23443893316317], a = 0.2, v = 0.2, t = 0.2)
movej(p[0.475556794913645, -0.0209380993260511, 0.224751191018048, -1.21479034569507, 1.19407063182897, -1.23996386232566], a = 0.2, v = 0.2, t = 0.2)
movej(p[0.476130966878075, -0.0209712603828484, 0.22471460320348, -1.21769907966821, 1.20083661367489, -1.23902315335961], a = 0.2, v = 0.2, t = 0.2)
movej(p[0.476364914760897, -0.0209619678608397, 0.22463022758329, -1.22306740915953, 1.2050238273852, -1.24239985841561], a = 0.2, v = 0.2, t = 0.2)
movej(p[0.476429747429015, -0.0211021979006758, 0.224602274660671, -1.20827875630862, 1.21255872750743, -1.22444282035448], a = 0.2, v = 0.2, t = 0.2)
movej(p[0.476354789854118, -0.0211430269606709, 0.22452432813568, -1.19837041162157, 1.21549821607342, -1.22378859038716], a = 0.2, v = 0.2, t = 0.2)
movej(p[0.476386165309794, -0.0210931035969688, 0.224441154425665, -1.19677015161079, 1.21652239066448, -1.22556619084788], a = 0.2, v = 0.2, t = 0.2)
movej(p[0.476339885780852, -0.0210872992394813, 0.224363856069996, -1.19612637357149, 1.21583015338493, -1.22457486011462], a = 0.2, v = 0.2, t = 0.2)
movej(p[0.476051356280022, -0.0212554589237784, 0.224365315912971, -1.1952540371181, 1.21431352297887, -1.22821345920579], a = 0.2, v = 0.2, t = 0.2)
movej(p[0.475554561713486, -0.021237355237686, 0.224240717841114, -1.19615499415656, 1.21018812758742, -1.24048438470963], a = 0.2, v = 0.2, t = 0.2)
movej(p[0.474867680157268, -0.0211307284547378, 0.224128165974372, -1.1977960521793, 1.20409633745127, -1.25126180203131], a = 0.2, v = 0.2, t = 0.2)
movej(p[0.474131651583205, -0.0210809869439254, 0.224151532979444, -1.19948181782562, 1.19809399121099, -1.25483919096645], a = 0.2, v = 0.2, t = 0.2)
movej(p[0.473450946910753, -0.0210177283420651, 0.224222820089734, -1.19356897212054, 1.19456655383466, -1.25150263577913], a = 0.2, v = 0.2, t = 0.2)
movej(p[0.472981985699208, -0.0208235781628865, 0.224209048290588, -1.19108546782064, 1.1912006447454, -1.2463438748327], a = 0.2, v = 0.2, t = 0.2)
movej(p[0.472797261858042, -0.0206722466155884, 0.224260366436475, -1.1890762624277, 1.18728307471531, -1.23991359269384], a = 0.2, v = 0.2, t = 0.2)
movej(p[0.472959303510047, -0.0207294096769884, 0.224435637724275, -1.19280186195226, 1.18386202663466, -1.23693157700432], a = 0.2, v = 0.2, t = 0.2)
movej(p[0.473626003475889, -0.0207756094202352, 0.224556773909499, -1.20263665271865, 1.18283064615958, -1.24730590460971], a = 0.2, v = 0.2, t = 0.2)
movej(p[0.474610225854938, -0.0207442693733807, 0.224585009458762, -1.20986916438228, 1.18821904744802, -1.24585971562524], a = 0.2, v = 0.2, t = 0.2)
movej(p[0.475534073945673, -0.0208534657381009, 0.224628273601849, -1.20873333058923, 1.19665834129266, -1.2333844660602], a = 0.2, v = 0.2, t = 0.2)
movej(p[0.475994639649898, -0.0209758238179623, 0.224665109206697, -1.20443226660661, 1.20396904808731, -1.228864117216], a = 0.2, v = 0.2, t = 0.2)
movej(p[0.476304558865711, -0.02102724579222, 0.224624751109605, -1.20614316043098, 1.2069952475093, -1.23039565699144], a = 0.2, v = 0.2, t = 0.2)
movej(p[0.476379185174846, -0.0210262137992905, 0.224521497485767, -1.20757265314538, 1.20908616025944, -1.23024879024257], a = 0.2, v = 0.2, t = 0.2)
movej(p[0.476469058425329, -0.0211928291803809, 0.224547208457756, -1.20755495613084, 1.21126992358037, -1.22347868719908], a = 0.2, v = 0.2, t = 0.2)
movej(p[0.476356740131507, -0.0212790739407357, 0.224522058219086, -1.19770431845961, 1.21378418098252, -1.21952575058314], a = 0.2, v = 0.2, t = 0.2)
movej(p[0.476095248230225, -0.0212662159490245, 0.224408173504075, -1.19498352503895, 1.21367209525971, -1.22042156889988], a = 0.2, v = 0.2, t = 0.2)
movej(p[0.475513057699345, -0.0212890289954027, 0.224312716806202, -1.1898513421482, 1.21119390457321, -1.22146854068887], a = 0.2, v = 0.2, t = 0.2)
movej(p[0.474641533212755, -0.0213657274571452, 0.22431178528108, -1.19816379105705, 1.20329060167678, -1.24056333470765], a = 0.2, v = 0.2, t = 0.2)
movej(p[0.473835847667685, -0.021237814455272, 0.224275929929759, -1.19614731539132, 1.19767343946085, -1.24886449565892], a = 0.2, v = 0.2, t = 0.2)
movej(p[0.473178111748864, -0.0209716181711741, 0.224246151185253, -1.19857433872514, 1.18985821286013, -1.25449143788427], a = 0.2, v = 0.2, t = 0.2)
movej(p[0.472634978005784, -0.0208576915503385, 0.224301548422486, -1.1863127321998, 1.18846652291651, -1.23305154591573], a = 0.2, v = 0.2, t = 0.2)
movej(p[0.472343604515242, -0.0208389112359347, 0.224438988005578, -1.18679864562318, 1.18325698090979, -1.23596325438029], a = 0.2, v = 0.2, t = 0.2)
movej(p[0.47272199251185, -0.02081722393357, 0.224512316885561, -1.1953158851312, 1.1798053357807, -1.23898006014859], a = 0.2, v = 0.2, t = 0.2)
movej(p[0.473605244598124, -0.0208112325779815, 0.224584718285071, -1.20267444370214, 1.17926232485447, -1.24253975208233], a = 0.2, v = 0.2, t = 0.2)
movej(p[0.474744780557871, -0.0209679411546555, 0.22469596724614, -1.1974490565451, 1.18797162296445, -1.22826123862673], a = 0.2, v = 0.2, t = 0.2)
movej(p[0.475680391541969, -0.0209937784217082, 0.224686111660539, -1.19399208340579, 1.19789819007637, -1.22097380466111], a = 0.2, v = 0.2, t = 0.2)
movej(p[0.476328999611712, -0.0210325468492089, 0.224683195885554, -1.19286495294839, 1.20890232911631, -1.20928862583658], a = 0.2, v = 0.2, t = 0.2)
movej(p[0.476516695128603, -0.0211548888992912, 0.224698427469527, -1.19734506926143, 1.2136429741661, -1.20764695207117], a = 0.2, v = 0.2, t = 0.2)
movej(p[0.476483735226463, -0.0213016360146287, 0.224751772077568, -1.19971553008856, 1.21666102009675, -1.21142889719023], a = 0.2, v = 0.2, t = 0.2)
movej(p[0.476497864286579, -0.0213142321736249, 0.224695238396114, -1.19805744156337, 1.21843083783685, -1.20898329636162], a = 0.2, v = 0.2, t = 0.2)
movej(p[0.476459167985958, -0.0213809094383725, 0.224648598721115, -1.19645697205355, 1.21910933347043, -1.20664394425867], a = 0.2, v = 0.2, t = 0.2)
movej(p[0.476179873049511, -0.0215267789459006, 0.224593105141768, -1.19184027913238, 1.21838658746211, -1.20595931371765], a = 0.2, v = 0.2, t = 0.2)
movej(p[0.475612266091438, -0.0215258110574254, 0.224454370035401, -1.19065791589101, 1.21591967297461, -1.21612970267386], a = 0.2, v = 0.2, t = 0.2)
movej(p[0.474754155931188, -0.0214662248913318, 0.224317880714987, -1.19325930627026, 1.20989724160666, -1.22933236616802], a = 0.2, v = 0.2, t = 0.2)
movej(p[0.473837208560718, -0.0214249173100301, 0.224339340722307, -1.19286003149764, 1.20471996280616, -1.23014827735536], a = 0.2, v = 0.2, t = 0.2)
movej(p[0.472989406573153, -0.0213650045781309, 0.224405276859113, -1.18878442815809, 1.19768335325989, -1.23309077973488], a = 0.2, v = 0.2, t = 0.2)
movej(p[0.472470146225768, -0.0211109382091673, 0.22441551230128, -1.18793993766183, 1.19184450651846, -1.22987183267356], a = 0.2, v = 0.2, t = 0.2)
movej(p[0.472332811335457, -0.0209563979903212, 0.224432473536003, -1.18875859934723, 1.18512430236082, -1.22815563794924], a = 0.2, v = 0.2, t = 0.2)
movej(p[0.472628889789977, -0.020968521195706, 0.224557314976077, -1.19853186514262, 1.18109453464596, -1.23398490296673], a = 0.2, v = 0.2, t = 0.2)
movej(p[0.473464289406822, -0.0210353030867561, 0.224655917756604, -1.20557394124783, 1.18179224381595, -1.24056218665688], a = 0.2, v = 0.2, t = 0.2)
movej(p[0.474585856272414, -0.0210241896134558, 0.224728376329719, -1.20963199089118, 1.18878487874229, -1.23365295260054], a = 0.2, v = 0.2, t = 0.2)
movej(p[0.475589328932926, -0.021117279581867, 0.224835094009742, -1.20405221585056, 1.20140472250995, -1.21280072887505], a = 0.2, v = 0.2, t = 0.2)
movej(p[0.476150668429083, -0.0211924550525037, 0.2249021828474, -1.19846908051489, 1.21071720160208, -1.20274002263543], a = 0.2, v = 0.2, t = 0.2)
movej(p[0.476461087520871, -0.0212306657270069, 0.224847608139185, -1.19482334704588, 1.21779174284769, -1.19778074621691], a = 0.2, v = 0.2, t = 0.2)
movej(p[0.476516948182994, -0.0213196043329652, 0.224773221405171, -1.19476138715143, 1.21832252244172, -1.19866254401612], a = 0.2, v = 0.2, t = 0.2)
movej(p[0.476510434748834, -0.0214859028064143, 0.224780486658362, -1.20170535187398, 1.21728919466856, -1.20557714994912], a = 0.2, v = 0.2, t = 0.2)
movej(p[0.47645633328406, -0.021552850599151, 0.224757122963085, -1.20516737798839, 1.21684246195073, -1.21308649893283], a = 0.2, v = 0.2, t = 0.2)
movej(p[0.4763200990541, -0.0215402792598517, 0.224649810662745, -1.20416013085029, 1.21798071230658, -1.21079387945229], a = 0.2, v = 0.2, t = 0.2)
movej(p[0.475875591326531, -0.021649364747223, 0.22458802529194, -1.19514451175855, 1.21990297657996, -1.20369171271166], a = 0.2, v = 0.2, t = 0.2)
movej(p[0.475157458272637, -0.0216616055550156, 0.224526579420399, -1.19048080856163, 1.21579900299932, -1.21393023347917], a = 0.2, v = 0.2, t = 0.2)
movej(p[0.474413721777829, -0.0215355328778913, 0.224467816961524, -1.187428517136, 1.21039438133646, -1.22123582550705], a = 0.2, v = 0.2, t = 0.2)
movej(p[0.473650045981332, -0.0213598450923406, 0.22443876499682, -1.18506716163477, 1.20393978445543, -1.22416743998272], a = 0.2, v = 0.2, t = 0.2)
movej(p[0.47292964648208, -0.0213294531772247, 0.224513618035997, -1.18656453315365, 1.19706998408222, -1.22652023452958], a = 0.2, v = 0.2, t = 0.2)
movej(p[0.472433446388748, -0.0211913849611721, 0.224539040346612, -1.18538677302699, 1.19237860832269, -1.22624288960092], a = 0.2, v = 0.2, t = 0.2)
movej(p[0.472363332185867, -0.0210039549996803, 0.224584279951059, -1.19141033973278, 1.18592722832425, -1.22827055227767], a = 0.2, v = 0.2, t = 0.2)
movej(p[0.472805095014931, -0.0209995024035452, 0.224692004647084, -1.18738028056657, 1.18631457761564, -1.21550996064711], a = 0.2, v = 0.2, t = 0.2)
movej(p[0.473612894329262, -0.0210432164871831, 0.224816585807206, -1.19240128725924, 1.18791870739442, -1.2214024165956], a = 0.2, v = 0.2, t = 0.2)
movej(p[0.474770659723989, -0.0210076392777073, 0.224831622447187, -1.2017241516069, 1.19319551567626, -1.22037196679579], a = 0.2, v = 0.2, t = 0.2)
movej(p[0.475708304383978, -0.0209978667124441, 0.224851649986403, -1.2096810931094, 1.20053147951298, -1.21954829804376], a = 0.2, v = 0.2, t = 0.2)
movej(p[0.476235038718686, -0.0212043978760865, 0.224945810503251, -1.21404046813686, 1.2046124818374, -1.21671277860451], a = 0.2, v = 0.2, t = 0.2)
movej(p[0.476434525583037, -0.0212841574097452, 0.224908150913621, -1.20763068491374, 1.2103377431442, -1.21260373491582], a = 0.2, v = 0.2, t = 0.2)
movej(p[0.476538534206371, -0.0213385942101255, 0.224839279661734, -1.20814778803791, 1.21216586220989, -1.21345449364572], a = 0.2, v = 0.2, t = 0.2)
movej(p[0.476532348370043, -0.0214011301909375, 0.224805744508048, -1.2076944068431, 1.21426232876446, -1.21041053739471], a = 0.2, v = 0.2, t = 0.2)
movej(p[0.476420877418134, -0.0215071875857645, 0.224798007810888, -1.20877647335554, 1.21545802523783, -1.21323026772102], a = 0.2, v = 0.2, t = 0.2)
movej(p[0.4761241083322, -0.0215194239130802, 0.224663189157031, -1.20403091711285, 1.21689387978089, -1.21179298123209], a = 0.2, v = 0.2, t = 0.2)
movej(p[0.47551672973312, -0.0215821285690124, 0.224581958157999, -1.20033404303405, 1.21516314165309, -1.21492038175358], a = 0.2, v = 0.2, t = 0.2)
movej(p[0.474671263893897, -0.0216756059166921, 0.224592793114258, -1.18817847951391, 1.21340124497025, -1.21288724800724], a = 0.2, v = 0.2, t = 0.2)
movej(p[0.473945623205548, -0.0215608794988297, 0.224608761863651, -1.18633347576925, 1.20705665411661, -1.22302791401228], a = 0.2, v = 0.2, t = 0.2)
movej(p[0.473481437251803, -0.0213296439778954, 0.224604451689144, -1.18535458758937, 1.2019921045569, -1.22366883975361], a = 0.2, v = 0.2, t = 0.2)
movej(p[0.473523675933632, -0.0212973863683709, 0.224709886499738, -1.19095543196398, 1.19711042763957, -1.22390223268534], a = 0.2, v = 0.2, t = 0.2)
movej(p[0.473941917404947, -0.0213586948432454, 0.224881253811033, -1.19010189815835, 1.19681094331835, -1.2212311240566], a = 0.2, v = 0.2, t = 0.2)
movej(p[0.474882094476207, -0.0213249061112452, 0.22493152491572, -1.18640622581793, 1.20255370043967, -1.21074284571476], a = 0.2, v = 0.2, t = 0.2)
movej(p[0.475725065229251, -0.0213111759191987, 0.224957422482018, -1.18361849580948, 1.20989431782965, -1.19865006131621], a = 0.2, v = 0.2, t = 0.2)
movej(p[0.476345478884084, -0.0213917198758371, 0.224983455289575, -1.18944003357257, 1.21412446438372, -1.19562004705424], a = 0.2, v = 0.2, t = 0.2)
movej(p[0.47658270593793, -0.0214789289617264, 0.224984972038077, -1.19355224247155, 1.21690570660803, -1.19681225444208], a = 0.2, v = 0.2, t = 0.2)
movej(p[0.476676632722849, -0.0214549104470375, 0.2248979759587, -1.19802267754873, 1.21770832858688, -1.1991171023077], a = 0.2, v = 0.2, t = 0.2)
movej(p[0.476629552061904, -0.0215703909216904, 0.224858286449519, -1.19467566644242, 1.21935189242048, -1.19135118203291], a = 0.2, v = 0.2, t = 0.2)
movej(p[0.476252467141599, -0.0216553042408785, 0.224776823733491, -1.19171950723631, 1.21774900357946, -1.19962137289883], a = 0.2, v = 0.2, t = 0.2)
movej(p[0.475639541905482, -0.0216610449347985, 0.224663948106961, -1.19206458598611, 1.21410887094371, -1.20941315236394], a = 0.2, v = 0.2, t = 0.2)
movej(p[0.474627814961141, -0.0215983865543037, 0.224571947085505, -1.18929502477627, 1.21021277868937, -1.21621765546954], a = 0.2, v = 0.2, t = 0.2)
movej(p[0.473554522320109, -0.0216094439591603, 0.224639172519705, -1.19269486288481, 1.20220665594826, -1.22519641945231], a = 0.2, v = 0.2, t = 0.2)
movej(p[0.472662764442977, -0.0214477023588983, 0.22467207543323, -1.18931829987833, 1.19467276907048, -1.22999509262318], a = 0.2, v = 0.2, t = 0.2)
movej(p[0.47213268047613, -0.0211923884400872, 0.224650978870639, -1.19013274431362, 1.18685489923157, -1.23106206417184], a = 0.2, v = 0.2, t = 0.2)
movej(p[0.471934037716882, -0.0211028509836348, 0.224683740349775, -1.18627271703453, 1.18287996070293, -1.22272784157051], a = 0.2, v = 0.2, t = 0.2)
movej(p[0.472127478851585, -0.0211719144200132, 0.224803124510383, -1.18827598767159, 1.18122498837505, -1.2241281155671], a = 0.2, v = 0.2, t = 0.2)
movej(p[0.4729040070543, -0.0211912952815985, 0.224899778206749, -1.19490562001042, 1.18292111210984, -1.22498235435544], a = 0.2, v = 0.2, t = 0.2)
movej(p[0.473960717852257, -0.0211264810497969, 0.224927960922421, -1.19959470845166, 1.18733336023982, -1.22406665413977], a = 0.2, v = 0.2, t = 0.2)
movej(p[0.475042320380696, -0.0211891027625124, 0.224987823499182, -1.20359516670452, 1.1938390039225, -1.21925163890943], a = 0.2, v = 0.2, t = 0.2)
movej(p[0.47586500107861, -0.0211786751045988, 0.224941469698709, -1.19800954363341, 1.20310562839001, -1.20974376728092], a = 0.2, v = 0.2, t = 0.2)
movej(p[0.476430507355692, -0.0211789067508067, 0.22488863314259, -1.20142096542042, 1.20964618220581, -1.20765153664358], a = 0.2, v = 0.2, t = 0.2)
movej(p[0.476592058923049, -0.0212874410481942, 0.224847782539424, -1.19867992814751, 1.21512181299882, -1.20127228622549], a = 0.2, v = 0.2, t = 0.2)
movej(p[0.476445877135243, -0.021395549245945, 0.224833725630346, -1.2042531432657, 1.21603901723979, -1.21319364864396], a = 0.2, v = 0.2, t = 0.2)
movej(p[0.476012860809365, -0.0214574885777297, 0.224714304981372, -1.20567030118446, 1.2148584400273, -1.21917109159641], a = 0.2, v = 0.2, t = 0.2)
movej(p[0.475160552617504, -0.0214846200714029, 0.224642253525195, -1.20361345520579, 1.21366039760768, -1.221402457854], a = 0.2, v = 0.2, t = 0.2)
movej(p[0.474025027015496, -0.0216151122046162, 0.224674854564373, -1.1964016592369, 1.20876568643391, -1.22180218304071], a = 0.2, v = 0.2, t = 0.2)
movej(p[0.472845706672537, -0.0214797402293749, 0.224661293856394, -1.18748321360639, 1.20249187556254, -1.22160909675768], a = 0.2, v = 0.2, t = 0.2)
movej(p[0.471862429914469, -0.0212600799804944, 0.224638667259075, -1.18920635328043, 1.18995486324597, -1.22761963465972], a = 0.2, v = 0.2, t = 0.2)
movej(p[0.471330725632061, -0.0211171414563431, 0.224671262341612, -1.1938746328646, 1.18024681367789, -1.2279136433407], a = 0.2, v = 0.2, t = 0.2)
movej(p[0.471259912701739, -0.02110993062739, 0.224770352609898, -1.20364004585146, 1.17059484333165, -1.24234688842841], a = 0.2, v = 0.2, t = 0.2)
movej(p[0.472045033619239, -0.0210761119238248, 0.224801473222586, -1.20629978821561, 1.17182125101492, -1.23750361448909], a = 0.2, v = 0.2, t = 0.2)
movej(p[0.473217185963064, -0.0210509713082291, 0.224853227208602, -1.20742961641129, 1.17613991420601, -1.23303914973903], a = 0.2, v = 0.2, t = 0.2)
movej(p[0.474473482897059, -0.0210991986291377, 0.224932122125155, -1.20091652407513, 1.18757930888173, -1.21889534529804], a = 0.2, v = 0.2, t = 0.2)
movej(p[0.475488033057184, -0.0210606239356563, 0.224930980641834, -1.20699620681316, 1.19679835809065, -1.22443880952843], a = 0.2, v = 0.2, t = 0.2)
movej(p[0.476183541966891, -0.0210529106466047, 0.224856314983232, -1.20769549997892, 1.20696467595693, -1.21707780913374], a = 0.2, v = 0.2, t = 0.2)
movej(p[0.476520977286112, -0.0211830193468437, 0.224845743562635, -1.21288937742639, 1.21290736185129, -1.2123650557847], a = 0.2, v = 0.2, t = 0.2)
movej(p[0.47654421571252, -0.0213241410925999, 0.224850609135759, -1.20587822518593, 1.21674274674494, -1.20630499142103], a = 0.2, v = 0.2, t = 0.2)
movej(p[0.476555623714781, -0.0213513682712551, 0.224786643825419, -1.20017743253438, 1.22068626189145, -1.20272883404455], a = 0.2, v = 0.2, t = 0.2)
movej(p[0.476295501507999, -0.0214510496665583, 0.224740528758705, -1.19800571240187, 1.22012739513043, -1.20340927738609], a = 0.2, v = 0.2, t = 0.2)
movej(p[0.475662988630316, -0.0215796457424185, 0.224722627291298, -1.19672678632636, 1.21907147981866, -1.21076377480647], a = 0.2, v = 0.2, t = 0.2)
movej(p[0.474704742092193, -0.0215646749642999, 0.224641234437942, -1.20221694401559, 1.21134311617226, -1.23333564394023], a = 0.2, v = 0.2, t = 0.2)
movej(p[0.473629840932249, -0.0214008423398356, 0.224566079702135, -1.20174759818777, 1.20299697992197, -1.24382342152827], a = 0.2, v = 0.2, t = 0.2)
movej(p[0.47262576918027, -0.0213322157150062, 0.224628448374886, -1.19582485661123, 1.19668668376924, -1.23481285553113], a = 0.2, v = 0.2, t = 0.2)
movej(p[0.471797070586725, -0.0212355590443546, 0.22473427163119, -1.19316222180154, 1.18567622781526, -1.23761644747586], a = 0.2, v = 0.2, t = 0.2)
movej(p[0.471579282831072, -0.0210549579013464, 0.224760122950228, -1.19606689938716, 1.17783296401111, -1.23784180934102], a = 0.2, v = 0.2, t = 0.2)
movej(p[0.471952310392552, -0.0209295729279297, 0.224761748060034, -1.19674656960963, 1.17336139640783, -1.23498325156792], a = 0.2, v = 0.2, t = 0.2)
movej(p[0.47283452876028, -0.0209917802883882, 0.224857586120046, -1.20270582161113, 1.17362061635108, -1.23387433531295], a = 0.2, v = 0.2, t = 0.2)
movej(p[0.4739715655282, -0.0209972275492635, 0.224881544522135, -1.20131733311631, 1.18211724623625, -1.22805955242182], a = 0.2, v = 0.2, t = 0.2)
movej(p[0.475195122854588, -0.0209314588299679, 0.224848498806067, -1.20684063171732, 1.19249848051525, -1.22402039748621], a = 0.2, v = 0.2, t = 0.2)
movej(p[0.476116854395124, -0.0210113479858711, 0.224841857403744, -1.19927994926166, 1.20594821043407, -1.20470265515878], a = 0.2, v = 0.2, t = 0.2)
movej(p[0.476458484472372, -0.0211377130152709, 0.224880567359374, -1.20644019400716, 1.21183116795091, -1.21161076636473], a = 0.2, v = 0.2, t = 0.2)
movej(p[0.476615686104014, -0.0211954902644306, 0.224811076689947, -1.21136418504952, 1.21331029403692, -1.21902432034526], a = 0.2, v = 0.2, t = 0.2)
movej(p[0.476534543824589, -0.021187729865005, 0.224726357265778, -1.21784417768957, 1.21307082638509, -1.22706083354866], a = 0.2, v = 0.2, t = 0.2)
movej(p[0.476202328666023, -0.0214356686307383, 0.22471412335593, -1.20735684454086, 1.21391583746905, -1.21791203405026], a = 0.2, v = 0.2, t = 0.2)
movej(p[0.475529880032822, -0.0214874311222384, 0.224636895383013, -1.1983731351494, 1.21278639284509, -1.22210290694236], a = 0.2, v = 0.2, t = 0.2)
movej(p[0.474603620610765, -0.0214205841781311, 0.224512350886488, -1.19325028870202, 1.20834464668922, -1.22651171822921], a = 0.2, v = 0.2, t = 0.2)
movej(p[0.473595413367547, -0.0212838618653054, 0.224495150537701, -1.19209448990595, 1.20122200689453, -1.23273844746685], a = 0.2, v = 0.2, t = 0.2)
movej(p[0.472649777387912, -0.0211724484845325, 0.224590436652792, -1.18813586644564, 1.19448907729222, -1.2358409054465], a = 0.2, v = 0.2, t = 0.2)
movej(p[0.472112792873183, -0.020945100886887, 0.224623767913632, -1.19172814818503, 1.18676986800059, -1.23960435413964], a = 0.2, v = 0.2, t = 0.2)
movej(p[0.471994576884263, -0.0207850795992224, 0.224638845488306, -1.19539576518036, 1.17942494956617, -1.24064664417147], a = 0.2, v = 0.2, t = 0.2)
movej(p[0.472300598707385, -0.0208643012065861, 0.224712562276081, -1.19055222388656, 1.17867874358275, -1.22611473546926], a = 0.2, v = 0.2, t = 0.2)
movej(p[0.47302166786525, -0.0209468654613487, 0.224806170198355, -1.19244399375307, 1.17997934127313, -1.22582244042497], a = 0.2, v = 0.2, t = 0.2)
movej(p[0.474027323486943, -0.0209562312534429, 0.22486012404432, -1.1956689628354, 1.18648390640886, -1.22210774504546], a = 0.2, v = 0.2, t = 0.2)
movej(p[0.47507229322284, -0.0210017122000423, 0.224910373770487, -1.20209590773602, 1.19404882524895, -1.219272546555], a = 0.2, v = 0.2, t = 0.2)
movej(p[0.475777730210643, -0.0211075482733066, 0.224944463442632, -1.20073000469933, 1.20199173631715, -1.21373714767442], a = 0.2, v = 0.2, t = 0.2)
movej(p[0.476283041389231, -0.0211174966068404, 0.224879306600801, -1.20047165724322, 1.20858465439876, -1.20862879562988], a = 0.2, v = 0.2, t = 0.2)
movej(p[0.476464584610196, -0.0211795687984286, 0.224820644582204, -1.20570915598756, 1.21053243265902, -1.2128306666253], a = 0.2, v = 0.2, t = 0.2)
movej(p[0.476413310427514, -0.0212942489678375, 0.224783351281685, -1.2084089939795, 1.21145970541111, -1.2173068771615], a = 0.2, v = 0.2, t = 0.2)
movej(p[0.476059839550801, -0.0213853737425514, 0.224658984478841, -1.21147805512295, 1.20882966177958, -1.23362872939742], a = 0.2, v = 0.2, t = 0.2)
movej(p[0.475427353731897, -0.0213798859035722, 0.224516105549994, -1.21068067803889, 1.2051805692994, -1.24265102031372], a = 0.2, v = 0.2, t = 0.2)
movej(p[0.474524853801834, -0.0214179838690481, 0.224458033840328, -1.20671503435372, 1.20179796560067, -1.24393803341531], a = 0.2, v = 0.2, t = 0.2)
movej(p[0.473537328273478, -0.0213530630431727, 0.224496489503275, -1.19870880774296, 1.1973109114262, -1.24747346867379], a = 0.2, v = 0.2, t = 0.2)
movej(p[0.472870848884117, -0.0210947161458427, 0.224476480743575, -1.19549163000114, 1.19243259708934, -1.24725292752917], a = 0.2, v = 0.2, t = 0.2)
movej(p[0.472400450748813, -0.0208623590401958, 0.224478630511858, -1.19109206870219, 1.18830322121355, -1.24164663530763], a = 0.2, v = 0.2, t = 0.2)
movej(p[0.472258519340086, -0.0208162943369043, 0.224586287124879, -1.19652918526241, 1.18284672269712, -1.2404909542898], a = 0.2, v = 0.2, t = 0.2)
movej(p[0.472618724758405, -0.0208824771441847, 0.224681823404029, -1.20114681203608, 1.18028392141963, -1.24484650287354], a = 0.2, v = 0.2, t = 0.2)
movej(p[0.473565968118157, -0.0208580672056591, 0.224736008930756, -1.20441452564596, 1.18377478994862, -1.24019383884196], a = 0.2, v = 0.2, t = 0.2)
movej(p[0.474848149393256, -0.0209602726572366, 0.224803839758943, -1.19587445554373, 1.19392004433619, -1.21900254828155], a = 0.2, v = 0.2, t = 0.2)
movej(p[0.475719536229715, -0.0210146249185171, 0.22484062157516, -1.19305263221337, 1.20334380786461, -1.21276704368318], a = 0.2, v = 0.2, t = 0.2)
movej(p[0.476379056850597, -0.0210584471099324, 0.224820686709778, -1.20218904430815, 1.20862828535684, -1.21658701596169], a = 0.2, v = 0.2, t = 0.2)
movej(p[0.476563159043911, -0.0210860816666658, 0.224752784412173, -1.20937185107365, 1.21214230458302, -1.22078803745133], a = 0.2, v = 0.2, t = 0.2)
movej(p[0.476638304611522, -0.0212999529164027, 0.224771462689112, -1.20836599925855, 1.2157291171404, -1.21126158319702], a = 0.2, v = 0.2, t = 0.2)
movej(p[0.476451895348045, -0.0214217567448802, 0.224702291527792, -1.19825754065434, 1.21822448197124, -1.20492465449482], a = 0.2, v = 0.2, t = 0.2)
movej(p[0.476004318895123, -0.0214528122708866, 0.224566208902912, -1.19473135818619, 1.21725798154748, -1.20614001469975], a = 0.2, v = 0.2, t = 0.2)
movej(p[0.475172061640224, -0.0215037158798188, 0.224488505459201, -1.19078974931009, 1.21368556225915, -1.21002364108806], a = 0.2, v = 0.2, t = 0.2)
movej(p[0.474173937757044, -0.0214864752573469, 0.22447264943944, -1.19088034021801, 1.20720172635435, -1.22651817587238], a = 0.2, v = 0.2, t = 0.2)
movej(p[0.473314618564218, -0.0212951805755802, 0.224436645487312, -1.19375935964157, 1.19842436409309, -1.2380426519443], a = 0.2, v = 0.2, t = 0.2)
movej(p[0.472636998469312, -0.0210081377681821, 0.224423464248303, -1.19964179012767, 1.18861837294965, -1.24869316830301], a = 0.2, v = 0.2, t = 0.2)
movej(p[0.472097413084443, -0.0209876080412602, 0.224524487970414, -1.19518857290043, 1.18504855685197, -1.23832531648746], a = 0.2, v = 0.2, t = 0.2)
movej(p[0.471847334188628, -0.0209466639899285, 0.224603619198944, -1.19434215844121, 1.18039854913883, -1.23906965148983], a = 0.2, v = 0.2, t = 0.2)
movej(p[0.472222206465951, -0.020880855167273, 0.224604793190214, -1.19589680719926, 1.17783031780515, -1.23700097472225], a = 0.2, v = 0.2, t = 0.2)
movej(p[0.473142133065268, -0.0208736559832228, 0.22464674309151, -1.20424706634971, 1.17686828980572, -1.24106988255346], a = 0.2, v = 0.2, t = 0.2)
movej(p[0.474241065642314, -0.020960405380479, 0.224752309990594, -1.21138824049509, 1.18187668177067, -1.24542384277765], a = 0.2, v = 0.2, t = 0.2)
movej(p[0.475349033170905, -0.0209782819951924, 0.224774744420236, -1.21273966958027, 1.19337973160689, -1.23730354723588], a = 0.2, v = 0.2, t = 0.2)
movej(p[0.476100267269617, -0.0210181308007135, 0.224768732415544, -1.21427358032859, 1.20238082470719, -1.2306216226684], a = 0.2, v = 0.2, t = 0.2)
movej(p[0.476455061028212, -0.021187101001369, 0.224770870195075, -1.20246314377967, 1.2119365562724, -1.21087630002484], a = 0.2, v = 0.2, t = 0.2)
movej(p[0.476525155468054, -0.0212783580105296, 0.224739399041896, -1.2064493985566, 1.21359712874926, -1.22136129298121], a = 0.2, v = 0.2, t = 0.2)
movej(p[0.476554545769662, -0.0212943766072304, 0.224678528226795, -1.20978782982963, 1.21398710197223, -1.22478855334553], a = 0.2, v = 0.2, t = 0.2)
movej(p[0.47645146252911, -0.02138336449122, 0.224618182902035, -1.20720412299639, 1.214702889329, -1.21968933021657], a = 0.2, v = 0.2, t = 0.2)
movej(p[0.475945217938746, -0.0215502480594651, 0.224589710219032, -1.20018029422442, 1.21365102218786, -1.22035921247867], a = 0.2, v = 0.2, t = 0.2)
movej(p[0.475250799029304, -0.0214913114229602, 0.224443824158741, -1.19124414704365, 1.21220711764579, -1.22305306160657], a = 0.2, v = 0.2, t = 0.2)
movej(p[0.474291129723802, -0.0213480805784092, 0.224375002422747, -1.19052398780225, 1.20658957502027, -1.23175602766466], a = 0.2, v = 0.2, t = 0.2)
movej(p[0.473336265584399, -0.0212254059398635, 0.224409338571926, -1.19278876917234, 1.19997727777995, -1.23715959745334], a = 0.2, v = 0.2, t = 0.2)
movej(p[0.472552238608624, -0.0210759615689531, 0.22445829476138, -1.19245756688746, 1.19267885639878, -1.24290423621082], a = 0.2, v = 0.2, t = 0.2)
movej(p[0.472074216106634, -0.020831195636478, 0.22444198309025, -1.19423183381055, 1.18704721055052, -1.24072479704058], a = 0.2, v = 0.2, t = 0.2)
movej(p[0.472143216641541, -0.0207809687187214, 0.224498377393288, -1.19038685806726, 1.18409984627315, -1.22694815033384], a = 0.2, v = 0.2, t = 0.2)
movej(p[0.47264617080012, -0.0208632679206615, 0.224640948274355, -1.19330438304831, 1.18336818868753, -1.22520088181387], a = 0.2, v = 0.2, t = 0.2)
movej(p[0.473767429770557, -0.0208932140113357, 0.224713466065743, -1.20233146929521, 1.18540437984697, -1.2336628813189], a = 0.2, v = 0.2, t = 0.2)
movej(p[0.475018831810216, -0.020843603757155, 0.224728828383842, -1.20905961182034, 1.19333641620163, -1.23434285647831], a = 0.2, v = 0.2, t = 0.2)
movej(p[0.476075520312979, -0.0209923490407513, 0.224792053502556, -1.20801600648542, 1.20379829130385, -1.22114959513963], a = 0.2, v = 0.2, t = 0.2)
movej(p[0.476487745272568, -0.0211027884996166, 0.224825345867068, -1.20556619785754, 1.21046211213964, -1.22083465291929], a = 0.2, v = 0.2, t = 0.2)
movej(p[0.476713851964117, -0.0211430035429406, 0.224773605680172, -1.2032654285426, 1.21510415524424, -1.21650242187196], a = 0.2, v = 0.2, t = 0.2)
movej(p[0.476682449703106, -0.0211896178393984, 0.224700699948263, -1.20173377828734, 1.2165023815158, -1.21398503179788], a = 0.2, v = 0.2, t = 0.2)
movej(p[0.476440122710861, -0.0213585882934157, 0.224701581208639, -1.20559265871421, 1.21466940266694, -1.21986528287644], a = 0.2, v = 0.2, t = 0.2)
movej(p[0.47587664669143, -0.0214417540250577, 0.224613496657175, -1.2015070203051, 1.2129587900796, -1.22393179310553], a = 0.2, v = 0.2, t = 0.2)
movej(p[0.474923396014802, -0.0213891669472832, 0.224516212826249, -1.19969369358403, 1.20897381770874, -1.23204906480905], a = 0.2, v = 0.2, t = 0.2)
movej(p[0.473807224783931, -0.021429758680488, 0.224540969032972, -1.18922088472557, 1.20512740582176, -1.22471896954352], a = 0.2, v = 0.2, t = 0.2)
movej(p[0.472695595241418, -0.0213588202848472, 0.22463039656585, -1.19393085197256, 1.19390384905593, -1.24070524545761], a = 0.2, v = 0.2, t = 0.2)
movej(p[0.471940480668065, -0.0211478621786596, 0.224657605034539, -1.1998840238008, 1.18279216189021, -1.24784553110489], a = 0.2, v = 0.2, t = 0.2)
movej(p[0.471520576412462, -0.0209965574552683, 0.224657066416458, -1.19858608999027, 1.17581632724328, -1.24234197926667], a = 0.2, v = 0.2, t = 0.2)
movej(p[0.471484143108109, -0.0211023036598153, 0.224809314886341, -1.19293599736281, 1.17439935969241, -1.23061695354227], a = 0.2, v = 0.2, t = 0.2)
movej(p[0.472201868564575, -0.0211109200053149, 0.224876266538198, -1.18668395913481, 1.17756586973511, -1.22339633087322], a = 0.2, v = 0.2, t = 0.2)
movej(p[0.47339269199482, -0.0210386944891316, 0.224907722818985, -1.19244523517654, 1.1818436071466, -1.22492858694499], a = 0.2, v = 0.2, t = 0.2)
movej(p[0.474795462059269, -0.0210124890149212, 0.224910876083285, -1.19268855358369, 1.19299779742632, -1.21389026739752], a = 0.2, v = 0.2, t = 0.2)
movej(p[0.475764774943979, -0.0211066970459982, 0.224943358991172, -1.19521013412759, 1.20256205440558, -1.21146526985555], a = 0.2, v = 0.2, t = 0.2)
movej(p[0.476349467533772, -0.0211234620742001, 0.224859871035013, -1.19766323261931, 1.21110958343893, -1.2073310852201], a = 0.2, v = 0.2, t = 0.2)
movej(p[0.476598520726396, -0.0211797954246156, 0.224775306022656, -1.199346013361, 1.21519160302602, -1.20666783434878], a = 0.2, v = 0.2, t = 0.2)
movej(p[0.476564062407981, -0.0213081253433963, 0.224728771411894, -1.19670341538121, 1.2185281718197, -1.2035399431836], a = 0.2, v = 0.2, t = 0.2)
movej(p[0.476283132904343, -0.0214129716041259, 0.224686644501287, -1.20059861567297, 1.21692697356066, -1.21586809189571], a = 0.2, v = 0.2, t = 0.2)
movej(p[0.475703123285008, -0.02140934856732, 0.224573837429593, -1.19897128170977, 1.21532133732408, -1.22004024716235], a = 0.2, v = 0.2, t = 0.2)
movej(p[0.474852725860568, -0.0214727331268828, 0.224580617010333, -1.19927575250316, 1.2111069541405, -1.2250733667981], a = 0.2, v = 0.2, t = 0.2)
movej(p[0.473851409003702, -0.0214517794600388, 0.22460873528557, -1.19383239688479, 1.20508759391227, -1.23313663476241], a = 0.2, v = 0.2, t = 0.2)
movej(p[0.473076084537785, -0.021238607641654, 0.224599794938983, -1.19548164881897, 1.19662594864284, -1.24317746812644], a = 0.2, v = 0.2, t = 0.2)
movej(p[0.472440500355823, -0.0210057316824368, 0.224553297729238, -1.19333205528655, 1.18893878767444, -1.24221203926093], a = 0.2, v = 0.2, t = 0.2)
movej(p[0.472070897436423, -0.0209533685643722, 0.22461241272593, -1.19788998450265, 1.18142693907381, -1.24177021328152], a = 0.2, v = 0.2, t = 0.2)
movej(p[0.471940656224957, -0.0209684751315136, 0.224655558227027, -1.1943460407241, 1.17872710003877, -1.23974771321566], a = 0.2, v = 0.2, t = 0.2)
movej(p[0.472404161588197, -0.0209260268964488, 0.224659367503509, -1.2005002396599, 1.17769820640355, -1.24230859177017], a = 0.2, v = 0.2, t = 0.2)
movej(p[0.473244685430632, -0.0209623452104899, 0.224696205452199, -1.19603766208367, 1.18295630341851, -1.22940480182283], a = 0.2, v = 0.2, t = 0.2)
movej(p[0.474202275168315, -0.0210800527250971, 0.224827772851272, -1.20531628371412, 1.18629835154643, -1.23627118995735], a = 0.2, v = 0.2, t = 0.2)
movej(p[0.475187058278928, -0.0211056328971545, 0.224851680660059, -1.20524719349336, 1.19552094977387, -1.22847370957033], a = 0.2, v = 0.2, t = 0.2)
movej(p[0.475920480879475, -0.0211118151221833, 0.224815584690263, -1.20785084927571, 1.20388732049165, -1.22301884973471], a = 0.2, v = 0.2, t = 0.2)
movej(p[0.47635766289756, -0.0212740629138947, 0.22482623953691, -1.19919444967594, 1.21296356130678, -1.20496948409776], a = 0.2, v = 0.2, t = 0.2)
movej(p[0.476441223752055, -0.0214024863656926, 0.224788829586038, -1.20239427110314, 1.21406218785424, -1.21481087467874], a = 0.2, v = 0.2, t = 0.2)
movej(p[0.476351650062938, -0.0214130581543729, 0.224718774545656, -1.20388662619423, 1.21512390796501, -1.21845391449398], a = 0.2, v = 0.2, t = 0.2)
movej(p[0.475960487723542, -0.0214470938424593, 0.224637249010416, -1.20911430825186, 1.21200962204342, -1.22675742982264], a = 0.2, v = 0.2, t = 0.2)
movej(p[0.47517550174027, -0.0216099747929693, 0.224694489982861, -1.20138284810839, 1.21193428667874, -1.22383505085355], a = 0.2, v = 0.2, t = 0.2)
movej(p[0.474328482421776, -0.0215538238622358, 0.224635165195668, -1.19214247082302, 1.20922695494139, -1.2276935864635], a = 0.2, v = 0.2, t = 0.2)
movej(p[0.473518569494189, -0.0213236359585129, 0.224554676406337, -1.18536987248977, 1.20522161630591, -1.22871324695215], a = 0.2, v = 0.2, t = 0.2)
movej(p[0.472804551148643, -0.0211884340412929, 0.224584117666367, -1.18487895477011, 1.19805717920013, -1.22593405683594], a = 0.2, v = 0.2, t = 0.2)
movej(p[0.472172141726473, -0.0211372123283698, 0.224686858956106, -1.18645392479038, 1.18932540293278, -1.23140954615348], a = 0.2, v = 0.2, t = 0.2)
movej(p[0.472080943412339, -0.0209986815645317, 0.224713109319638, -1.19180172866219, 1.18350490457279, -1.23456301794827], a = 0.2, v = 0.2, t = 0.2)
movej(p[0.472537566669004, -0.0209061347503892, 0.224722716559856, -1.19421161494548, 1.18094368346772, -1.23454403265928], a = 0.2, v = 0.2, t = 0.2)
movej(p[0.473499264553786, -0.0209049670454097, 0.224770294380024, -1.20012719055405, 1.18298755473954, -1.23467050888287], a = 0.2, v = 0.2, t = 0.2)
movej(p[0.474575298405745, -0.0209136646397957, 0.224791687712841, -1.2038639049746, 1.18905875386572, -1.23665772423801], a = 0.2, v = 0.2, t = 0.2)
movej(p[0.475661785841425, -0.020853662375747, 0.22470465235555, -1.20387596830833, 1.20000301259823, -1.22430363521702], a = 0.2, v = 0.2, t = 0.2)
movej(p[0.476350216322607, -0.0209780759383724, 0.224711187088841, -1.20422698767271, 1.20888192948166, -1.21178805399521], a = 0.2, v = 0.2, t = 0.2)
movej(p[0.476586994057303, -0.0211565104016575, 0.224765760054163, -1.20378284568102, 1.21559276390393, -1.20858902345331], a = 0.2, v = 0.2, t = 0.2)
movej(p[0.476655852762477, -0.0212338127862947, 0.224735294699297, -1.2146066504667, 1.21424456498496, -1.22425286464867], a = 0.2, v = 0.2, t = 0.2)
movej(p[0.476490754113391, -0.0212507456393371, 0.22463389632082, -1.21388505189515, 1.2136546621999, -1.22521674768078], a = 0.2, v = 0.2, t = 0.2)
movej(p[0.476101103265494, -0.021467584554055, 0.22460793982073, -1.20972435412754, 1.21139352216457, -1.22127757698879], a = 0.2, v = 0.2, t = 0.2)
movej(p[0.475312749904177, -0.0215487650082922, 0.224588864046823, -1.19897430059718, 1.20955066222252, -1.22553871239149], a = 0.2, v = 0.2, t = 0.2)
movej(p[0.474454677588402, -0.0214314218323865, 0.22451820054798, -1.19436516872703, 1.20668642951225, -1.23047548813393], a = 0.2, v = 0.2, t = 0.2)
movej(p[0.47352010683905, -0.0212086545858075, 0.224496621175724, -1.19149874235464, 1.20087065342842, -1.23435215050519], a = 0.2, v = 0.2, t = 0.2)
movej(p[0.472663130304592, -0.0211636452225912, 0.224663343797513, -1.19644233964423, 1.19315586618828, -1.24053965471348], a = 0.2, v = 0.2, t = 0.2)
movej(p[0.472056329113204, -0.0210154717030254, 0.224743118484762, -1.19687363171532, 1.18457385823377, -1.24524036077531], a = 0.2, v = 0.2, t = 0.2)
movej(p[0.472046569386255, -0.0208343082209809, 0.224758149794332, -1.20093213816072, 1.17787470204479, -1.24559930229943], a = 0.2, v = 0.2, t = 0.2)
movej(p[0.472621749555593, -0.0207824637159741, 0.22478360067644, -1.19729140989451, 1.17876450728689, -1.23423968289604], a = 0.2, v = 0.2, t = 0.2)
movej(p[0.47354324709052, -0.0208687873330528, 0.224861362960096, -1.20279609731086, 1.18093742161768, -1.23817004833822], a = 0.2, v = 0.2, t = 0.2)
movej(p[0.474762847614527, -0.0208755963887229, 0.224856709584896, -1.2023636265902, 1.19276131381634, -1.23095966751711], a = 0.2, v = 0.2, t = 0.2)
movej(p[0.47577291980896, -0.0209034890248377, 0.224831377161331, -1.20464313993233, 1.2014188354961, -1.22613218546283], a = 0.2, v = 0.2, t = 0.2)
movej(p[0.476401613332841, -0.0210402557531862, 0.224870526861157, -1.19480504965282, 1.21433384075466, -1.20664232525683], a = 0.2, v = 0.2, t = 0.2)
movej(p[0.476662434558218, -0.0211082705369979, 0.224858490043092, -1.19948282640977, 1.21750232548409, -1.2164118092834], a = 0.2, v = 0.2, t = 0.2)
movej(p[0.476771466687136, -0.0211246341295586, 0.224788095768247, -1.2032531840307, 1.21896905265591, -1.21999311821365], a = 0.2, v = 0.2, t = 0.2)
movej(p[0.476775236988329, -0.0212221744306965, 0.224755442718973, -1.20366729228681, 1.21995783358297, -1.21762729040825], a = 0.2, v = 0.2, t = 0.2)
movej(p[0.476477197438608, -0.0214348431262862, 0.224755268022908, -1.19823394101739, 1.21924194860588, -1.21645086124338], a = 0.2, v = 0.2, t = 0.2)
movej(p[0.475941781337152, -0.0214404645295826, 0.224643101772072, -1.19497579003696, 1.21717845030385, -1.22353765610891], a = 0.2, v = 0.2, t = 0.2)
movej(p[0.47501932401837, -0.0213932848111443, 0.224542667040067, -1.19377843489157, 1.21264420853647, -1.23250425324695], a = 0.2, v = 0.2, t = 0.2)
movej(p[0.473947545984809, -0.021364980264329, 0.224605054662283, -1.19492135064449, 1.20748611899161, -1.2388032443161], a = 0.2, v = 0.2, t = 0.2)
movej(p[0.473055107276014, -0.0212728648355191, 0.224722783322, -1.1906550795418, 1.2020006465848, -1.23996512574149], a = 0.2, v = 0.2, t = 0.2)
movej(p[0.472392434669753, -0.0210211899570115, 0.224820839376222, -1.1914172453733, 1.19440046335578, -1.23892597320786], a = 0.2, v = 0.2, t = 0.2)
movej(p[0.471847616622627, -0.0208684770265855, 0.225041552999615, -1.19420691329341, 1.18618982695175, -1.23394662619981], a = 0.2, v = 0.2, t = 0.2)
movej(p[0.471342746785402, -0.0208558857075555, 0.225341185049872, -1.19711467846661, 1.17937096942793, -1.23212857734185], a = 0.2, v = 0.2, t = 0.2)
movej(p[0.47136307072942, -0.0207949446539132, 0.225527923602079, -1.20094124047379, 1.17436789044516, -1.23914367959722], a = 0.2, v = 0.2, t = 0.2)
movej(p[0.472094319529134, -0.0206401329629617, 0.225511649756129, -1.20352262899454, 1.17254052603081, -1.24175423133694], a = 0.2, v = 0.2, t = 0.2)
movej(p[0.473219377043804, -0.0206684739259002, 0.225500966849042, -1.2003811104076, 1.17643165596598, -1.23373146347627], a = 0.2, v = 0.2, t = 0.2)
movej(p[0.474249205408202, -0.020724321018319, 0.225514423837965, -1.20197596658662, 1.18293112033773, -1.23905909504751], a = 0.2, v = 0.2, t = 0.2)
movej(p[0.475218725388293, -0.0207891620284348, 0.225478385996583, -1.20853161681438, 1.19146280252629, -1.23978067946368], a = 0.2, v = 0.2, t = 0.2)
movej(p[0.475958760267864, -0.0208312426099719, 0.225392428137869, -1.21164864149481, 1.20095641589699, -1.23735777694311], a = 0.2, v = 0.2, t = 0.2)
movej(p[0.476421674238397, -0.0210490623148895, 0.225382686543971, -1.21259340900638, 1.20843535241087, -1.22976072548419], a = 0.2, v = 0.2, t = 0.2)
movej(p[0.476576077425764, -0.02111839412353, 0.225299538238261, -1.20507374552215, 1.21461502282594, -1.22266544644977], a = 0.2, v = 0.2, t = 0.2)
movej(p[0.476669048530588, -0.021118075811318, 0.225179775599282, -1.20679753184956, 1.2167638040947, -1.22426097271013], a = 0.2, v = 0.2, t = 0.2)
movej(p[0.476666068510149, -0.0211749874814321, 0.225115823653479, -1.20247283381492, 1.21962712583412, -1.21621394203226], a = 0.2, v = 0.2, t = 0.2)
movej(p[0.476587460685371, -0.0213344332961737, 0.225115351346398, -1.20537153151115, 1.21890963172074, -1.22032982384754], a = 0.2, v = 0.2, t = 0.2)
movej(p[0.476342697555188, -0.0213775044515459, 0.225012408606255, -1.20304195872042, 1.21988771733603, -1.22014661540225], a = 0.2, v = 0.2, t = 0.2)
movej(p[0.475756718100989, -0.021416400929698, 0.224906543178995, -1.20233717358312, 1.21661509183229, -1.22590907581495], a = 0.2, v = 0.2, t = 0.2)
movej(p[0.474790098506501, -0.0215190174387488, 0.224925523674806, -1.19719313139488, 1.21382274204247, -1.22612293836736], a = 0.2, v = 0.2, t = 0.2)
movej(p[0.47381579759974, -0.0214408187215867, 0.224968392226447, -1.1978216517029, 1.20517737574438, -1.24237046070906], a = 0.2, v = 0.2, t = 0.2)
movej(p[0.473079208642305, -0.0211670259291986, 0.224969652036405, -1.20193085715838, 1.19703184937258, -1.25020415753653], a = 0.2, v = 0.2, t = 0.2)
movej(p[0.472524545525539, -0.0209559416862025, 0.225018317642147, -1.20176219518511, 1.18918538962915, -1.24990277781794], a = 0.2, v = 0.2, t = 0.2)
movej(p[0.472170468229644, -0.0209412119046897, 0.225152669289614, -1.1974189894933, 1.18557674186855, -1.23936144294317], a = 0.2, v = 0.2, t = 0.2)
movej(p[0.472396094124984, -0.0209345144170882, 0.225235341247816, -1.1998604162336, 1.1825512270319, -1.24282699748055], a = 0.2, v = 0.2, t = 0.2)
movej(p[0.473164608013405, -0.0208832138428962, 0.225246253598194, -1.20463404357364, 1.18218658888404, -1.24187030250676], a = 0.2, v = 0.2, t = 0.2)
movej(p[0.474290630213584, -0.0209724646602977, 0.225310705539954, -1.20791290996148, 1.1860328251427, -1.23770279871781], a = 0.2, v = 0.2, t = 0.2)
movej(p[0.475194410318739, -0.0210156836212485, 0.225315865150887, -1.20652196788647, 1.19371368182719, -1.23709905763566], a = 0.2, v = 0.2, t = 0.2)
movej(p[0.476056636497827, -0.0209955919824744, 0.225243873359196, -1.21506026163902, 1.201224900868, -1.24134907302843], a = 0.2, v = 0.2, t = 0.2)
movej(p[0.476500149713733, -0.0209991977928881, 0.225136850935335, -1.21383711860313, 1.20957997792554, -1.2330989228455], a = 0.2, v = 0.2, t = 0.2)
movej(p[0.476646669244712, -0.0211908130863273, 0.225123365642024, -1.21534815070121, 1.21345590472007, -1.2272435966278], a = 0.2, v = 0.2, t = 0.2)
movej(p[0.476314576603829, -0.0212986486865656, 0.225014431162567, -1.2005088599909, 1.21645148063362, -1.2176861658612], a = 0.2, v = 0.2, t = 0.2)
movej(p[0.475604499874055, -0.0212810298303142, 0.22484340660132, -1.19732068742469, 1.21309919504319, -1.22405732457887], a = 0.2, v = 0.2, t = 0.2)
movej(p[0.474522302510576, -0.0212673621873221, 0.224777702847126, -1.18856019672438, 1.20884874697645, -1.22242913559038], a = 0.2, v = 0.2, t = 0.2)
movej(p[0.473364813782495, -0.0212059891449283, 0.224881603030635, -1.19557648798548, 1.19985037538708, -1.2424625783695], a = 0.2, v = 0.2, t = 0.2)
movej(p[0.47254035401072, -0.0209551759606811, 0.224972767715861, -1.20334801404452, 1.19084922070414, -1.25362433939485], a = 0.2, v = 0.2, t = 0.2)
movej(p[0.472048292860498, -0.0206669334873392, 0.225021823187976, -1.21151902367862, 1.18052296687297, -1.26286373529838], a = 0.2, v = 0.2, t = 0.2)
movej(p[0.47197633843843, -0.0206943978293374, 0.225142530436257, -1.20535139435235, 1.17765842543633, -1.2451591269336], a = 0.2, v = 0.2, t = 0.2)
movej(p[0.472208094391997, -0.0207606546732024, 0.225216005489415, -1.20275627430682, 1.17590120252409, -1.24557224104165], a = 0.2, v = 0.2, t = 0.2)
movej(p[0.472945039166029, -0.0207701715148699, 0.225230905551527, -1.20650012867305, 1.177811744343, -1.24425850799845], a = 0.2, v = 0.2, t = 0.2)
movej(p[0.473765251171198, -0.0208189825683884, 0.225258720068097, -1.21027748237908, 1.18254968058315, -1.24474574249928], a = 0.2, v = 0.2, t = 0.2)
movej(p[0.474417315431078, -0.0210012013176777, 0.225327896897992, -1.20569875408819, 1.19020035572851, -1.2343991339978], a = 0.2, v = 0.2, t = 0.2)
movej(p[0.474829082327355, -0.0210677810695567, 0.225268342485974, -1.20067188460173, 1.19698096236366, -1.23044581797474], a = 0.2, v = 0.2, t = 0.2)
movej(p[0.475291851335815, -0.0210703954071658, 0.225065803198367, -1.22452525596016, 1.18819597404989, -1.24656147728323], a = 0.2, v = 0.2, t = 0.2)
movej(p[0.475389146388044, -0.0210853846974895, 0.224944287837662, -1.23068531545502, 1.19056192219797, -1.25139294621541], a = 0.2, v = 0.2, t = 0.2)
movej(p[0.475054708014604, -0.0212648803171946, 0.224907998445292, -1.22166975861103, 1.19331255308629, -1.24329847134827], a = 0.2, v = 0.2, t = 0.2)
movej(p[0.474439170074328, -0.0211902138951816, 0.224835246273503, -1.2135625256825, 1.19281554038618, -1.24886815257839], a = 0.2, v = 0.2, t = 0.2)
movej(p[0.473688281136862, -0.0209181046604566, 0.224748930106271, -1.21145988849523, 1.18946239927695, -1.25691107016247], a = 0.2, v = 0.2, t = 0.2)
movej(p[0.473060964230095, -0.0206793402730204, 0.224765902986883, -1.21097414272491, 1.18421400731131, -1.25890722997664], a = 0.2, v = 0.2, t = 0.2)
movej(p[0.472528731061946, -0.0207418683516648, 0.224922529321205, -1.20921842671136, 1.17994082676159, -1.25633295751346], a = 0.2, v = 0.2, t = 0.2)
movej(p[0.472725302773204, -0.0207749048519888, 0.224983675631639, -1.20384429469862, 1.17822631140473, -1.24826113746305], a = 0.2, v = 0.2, t = 0.2)
movej(p[0.473408998001518, -0.0207840401629487, 0.224977259762734, -1.20266541394512, 1.17989626509034, -1.24088392379746], a = 0.2, v = 0.2, t = 0.2)
movej(p[0.474530176515814, -0.0208173467835491, 0.224994813682665, -1.20172724049262, 1.18732200323938, -1.2281181306385], a = 0.2, v = 0.2, t = 0.2)
movej(p[0.475425237413357, -0.0208597013672544, 0.22499201850293, -1.20731920445906, 1.19519584406079, -1.22985116832244], a = 0.2, v = 0.2, t = 0.2)
movej(p[0.476070122934041, -0.0208536756062761, 0.22491677391697, -1.20982308752029, 1.20372717587428, -1.22602689668203], a = 0.2, v = 0.2, t = 0.2)
movej(p[0.476368175696337, -0.0209566580143269, 0.224851181490246, -1.20884733604605, 1.20880184351459, -1.22151448966259], a = 0.2, v = 0.2, t = 0.2)
movej(p[0.476333483526062, -0.0211380340646498, 0.224845598200192, -1.2052528861703, 1.2133924430104, -1.21959173942432], a = 0.2, v = 0.2, t = 0.2)
movej(p[0.476023334132626, -0.0212329010569897, 0.224781162067218, -1.2095593261447, 1.21122627155498, -1.23263865759072], a = 0.2, v = 0.2, t = 0.2)
movej(p[0.475369341291897, -0.021208835205504, 0.224683518925791, -1.21109824121689, 1.20808788574269, -1.24356101803481], a = 0.2, v = 0.2, t = 0.2)
movej(p[0.474512432860339, -0.0212399220766282, 0.224709878562911, -1.21324681874468, 1.20405927231521, -1.25012057629795], a = 0.2, v = 0.2, t = 0.2)
movej(p[0.473614431652734, -0.0211400752311472, 0.224777403985359, -1.20807934270157, 1.19943106058302, -1.25637921510181], a = 0.2, v = 0.2, t = 0.2)
movej(p[0.472955916542904, -0.0208870840714079, 0.224809511923435, -1.20631874893575, 1.19430823685943, -1.25715382308138], a = 0.2, v = 0.2, t = 0.2)
movej(p[0.472561707634842, -0.0206857553410438, 0.224824427446712, -1.20159496372395, 1.18710164791274, -1.24997807888223], a = 0.2, v = 0.2, t = 0.2)
movej(p[0.472516263698771, -0.0207580427725889, 0.224975983912806, -1.20410914780831, 1.18242988717801, -1.2429686073829], a = 0.2, v = 0.2, t = 0.2)
movej(p[0.472929338817973, -0.0208595626932954, 0.225087743484083, -1.2072162860639, 1.18083247552929, -1.24701352684097], a = 0.2, v = 0.2, t = 0.2)
movej(p[0.473932544711184, -0.0208614978882803, 0.225085696167198, -1.21369284716248, 1.18378920284759, -1.24828430125745], a = 0.2, v = 0.2, t = 0.2)
movej(p[0.47502210614979, -0.0209102518117369, 0.225050300818247, -1.20925771921897, 1.19215772596972, -1.23554594796174], a = 0.2, v = 0.2, t = 0.2)
movej(p[0.475765163776835, -0.0210588328548783, 0.225087565444237, -1.21762718593691, 1.19715301239723, -1.23876161324665], a = 0.2, v = 0.2, t = 0.2)
movej(p[0.476185643227365, -0.0211391608323815, 0.225032900632569, -1.21927625365883, 1.20343016342034, -1.23432895300479], a = 0.2, v = 0.2, t = 0.2)
movej(p[0.476351051193299, -0.0211739341582093, 0.224938184004234, -1.22279039552798, 1.2061367768176, -1.23506920937216], a = 0.2, v = 0.2, t = 0.2)
movej(p[0.476299302984494, -0.0213330733401228, 0.224886296686147, -1.21540404177011, 1.2085054619263, -1.22633814748255], a = 0.2, v = 0.2, t = 0.2)
movej(p[0.475956349638931, -0.0214288845193721, 0.224789618702311, -1.21765731689199, 1.20612903408908, -1.24192560005977], a = 0.2, v = 0.2, t = 0.2)
movej(p[0.475367704956696, -0.0213656523599049, 0.224664156606902, -1.22016636005632, 1.20214669790781, -1.25488360648996], a = 0.2, v = 0.2, t = 0.2)
movej(p[0.474586909797997, -0.0212640733051617, 0.224607173359452, -1.21672453852763, 1.19972575481443, -1.25850758240421], a = 0.2, v = 0.2, t = 0.2)
movej(p[0.473658430112616, -0.0212547529086784, 0.224734951811645, -1.20192179636822, 1.19901820072305, -1.2446437723933], a = 0.2, v = 0.2, t = 0.2)
movej(p[0.473024326784972, -0.0210577313171758, 0.224784822878579, -1.19495239252817, 1.19505059352007, -1.24581606206495], a = 0.2, v = 0.2, t = 0.2)
movej(p[0.472769917319925, -0.0207945916337466, 0.224784166735986, -1.19988007619546, 1.18883946700594, -1.24872247509477], a = 0.2, v = 0.2, t = 0.2)
movej(p[0.473027099820092, -0.020750222549241, 0.224842197969371, -1.20512528187114, 1.18463409622194, -1.24806511174691], a = 0.2, v = 0.2, t = 0.2)
movej(p[0.473603497698735, -0.020842517503503, 0.224955010022864, -1.20907606028223, 1.18374530755099, -1.25025385020332], a = 0.2, v = 0.2, t = 0.2)
movej(p[0.474518713944788, -0.0208768322418891, 0.224954730576354, -1.21110405031421, 1.18838906680534, -1.25020667460356], a = 0.2, v = 0.2, t = 0.2)
movej(p[0.475471466531069, -0.020845953830623, 0.224888073917635, -1.21320760588175, 1.19562382058587, -1.24419043080846], a = 0.2, v = 0.2, t = 0.2)
movej(p[0.476198939726341, -0.0210019342251507, 0.224897470749483, -1.21420956841774, 1.20393509262926, -1.23194720834199], a = 0.2, v = 0.2, t = 0.2)
movej(p[0.476396117289659, -0.0211011832288102, 0.224889415911627, -1.21340260867367, 1.20761559365662, -1.23307720984175], a = 0.2, v = 0.2, t = 0.2)
movej(p[0.47658419512061, -0.0211182862697261, 0.224803968722453, -1.21838335539935, 1.20807438770365, -1.2392363001633], a = 0.2, v = 0.2, t = 0.2)
movej(p[0.47662784694121, -0.0211258426908085, 0.224713457288923, -1.21827237787484, 1.20938834797806, -1.23940624301583], a = 0.2, v = 0.2, t = 0.2)
movej(p[0.476674434342218, -0.0213460612448123, 0.224745551918937, -1.21083764989125, 1.21335184450891, -1.22913427012162], a = 0.2, v = 0.2, t = 0.2)
movej(p[0.476597008577465, -0.0214216255154091, 0.224697157725468, -1.20340305246691, 1.21584602884863, -1.22859168787052], a = 0.2, v = 0.2, t = 0.2)
movej(p[0.476451397016764, -0.021402981429638, 0.224607062873472, -1.20629580937566, 1.21443244490204, -1.23097617729048], a = 0.2, v = 0.2, t = 0.2)
movej(p[0.475971767067983, -0.0214672265222584, 0.224572117109683, -1.20951152890307, 1.21175253605891, -1.23602686974074], a = 0.2, v = 0.2, t = 0.2)
movej(p[0.475141674407533, -0.0216506302799063, 0.224660418765656, -1.20754733293962, 1.20931151860591, -1.24185075716569], a = 0.2, v = 0.2, t = 0.2)
movej(p[0.474287979836795, -0.0215401935376123, 0.22465148171676, -1.20333078039787, 1.20595666377523, -1.24887924376415], a = 0.2, v = 0.2, t = 0.2)
movej(p[0.473514203570511, -0.0212825539255556, 0.224629057394355, -1.20169172870159, 1.1995767034156, -1.25395442028448], a = 0.2, v = 0.2, t = 0.2)
movej(p[0.472898779891706, -0.0211195841307031, 0.224692246147432, -1.20034997008161, 1.19282307350676, -1.24810325519326], a = 0.2, v = 0.2, t = 0.2)
movej(p[0.47230328039514, -0.0210751040610189, 0.224826078100519, -1.20037214239494, 1.1845072337091, -1.25125158660664], a = 0.2, v = 0.2, t = 0.2)
movej(p[0.472329060574362, -0.0209423281963553, 0.224855379557583, -1.20105033404327, 1.18028895028213, -1.24703661385877], a = 0.2, v = 0.2, t = 0.2)
movej(p[0.472886360565905, -0.0208389609536041, 0.224844554921262, -1.20764367470817, 1.17586760631597, -1.25208932918794], a = 0.2, v = 0.2, t = 0.2)
movej(p[0.473954926149647, -0.0209256210307855, 0.22489318995458, -1.2092446904184, 1.18004268548381, -1.24293793020761], a = 0.2, v = 0.2, t = 0.2)
movej(p[0.475000973185425, -0.0209608112723456, 0.224879088552561, -1.20415434653561, 1.18900205238384, -1.24085547423086], a = 0.2, v = 0.2, t = 0.2)
movej(p[0.475937990852865, -0.0209109790864662, 0.224750157467655, -1.20351533023029, 1.1996742293787, -1.23181593077913], a = 0.2, v = 0.2, t = 0.2)
movej(p[0.476483510825863, -0.0209157401272352, 0.224647776880866, -1.20114392116484, 1.21011603502585, -1.22182751098605], a = 0.2, v = 0.2, t = 0.2)
movej(p[0.476646777999393, -0.02110140531452, 0.224650595310123, -1.21036527600778, 1.21231118312477, -1.22648456311671], a = 0.2, v = 0.2, t = 0.2)
movej(p[0.476652926892758, -0.0211975700260512, 0.224628660919671, -1.2094427057968, 1.21442748793554, -1.22929646160817], a = 0.2, v = 0.2, t = 0.2)
movej(p[0.476669239540415, -0.0211707885999329, 0.224533490366759, -1.21009220939208, 1.21394931546451, -1.23273377445319], a = 0.2, v = 0.2, t = 0.2)
movej(p[0.476643239701986, -0.021255582826413, 0.224472322573286, -1.20271668308251, 1.21651652072211, -1.22266766508108], a = 0.2, v = 0.2, t = 0.2)
movej(p[0.476407278452574, -0.0213998631735762, 0.224489942641348, -1.20754280800047, 1.21377322063144, -1.23521855842229], a = 0.2, v = 0.2, t = 0.2)
movej(p[0.475936974400631, -0.0213815420409352, 0.22440397557716, -1.20392534779574, 1.21246560948629, -1.23657279548274], a = 0.2, v = 0.2, t = 0.2)
movej(p[0.475191791689329, -0.0213320158447598, 0.224368901505992, -1.20533699169739, 1.20749051650839, -1.24699906474939], a = 0.2, v = 0.2, t = 0.2)
movej(p[0.474297465608334, -0.021318769645973, 0.224478228899035, -1.19776509419468, 1.20565006803579, -1.24317009690106], a = 0.2, v = 0.2, t = 0.2)
movej(p[0.473481128244141, -0.0212105742115683, 0.224613652328311, -1.20217487322093, 1.19827235416319, -1.26063455257153], a = 0.2, v = 0.2, t = 0.2)
movej(p[0.472974905712856, -0.0209201263503032, 0.224648612419925, -1.2093173042697, 1.1902567584176, -1.26760568685514], a = 0.2, v = 0.2, t = 0.2)
movej(p[0.472803982293797, -0.0207509579340292, 0.224677011051096, -1.21065065199076, 1.18359000926403, -1.26650101040146], a = 0.2, v = 0.2, t = 0.2)
movej(p[0.472826908089415, -0.0207996312613001, 0.224825425484719, -1.21279278427274, 1.18044020512227, -1.26142143317487], a = 0.2, v = 0.2, t = 0.2)
movej(p[0.473429704794334, -0.0208151168391935, 0.224896665463774, -1.21510351015328, 1.18093886686375, -1.26314425298308], a = 0.2, v = 0.2, t = 0.2)
movej(p[0.474387511485532, -0.0207772040449757, 0.224896115616958, -1.22105899938232, 1.1849789312211, -1.26048474128369], a = 0.2, v = 0.2, t = 0.2)
movej(p[0.475477614689076, -0.0208619084151348, 0.224892359834828, -1.21939964517839, 1.19283650816299, -1.24599938784806], a = 0.2, v = 0.2, t = 0.2)
movej(p[0.476087389092036, -0.0209655408184728, 0.224874115288437, -1.21278957650657, 1.20135123751943, -1.23620667214677], a = 0.2, v = 0.2, t = 0.2)
movej(p[0.476515720285057, -0.0209988572420521, 0.224794478950595, -1.20593671108508, 1.20924950036523, -1.22466763464906], a = 0.2, v = 0.2, t = 0.2)
movej(p[0.476659955512069, -0.0210483522800824, 0.224719875746988, -1.2075409913401, 1.21241004192817, -1.22386285281257], a = 0.2, v = 0.2, t = 0.2)
movej(p[0.476750373798824, -0.0212237927588342, 0.224729232848282, -1.20791841842771, 1.21584044103264, -1.21841539206176], a = 0.2, v = 0.2, t = 0.2)
movej(p[0.476713966354438, -0.021303679012607, 0.224715346540225, -1.2061396203149, 1.21755090722864, -1.21989341463503], a = 0.2, v = 0.2, t = 0.2)
movej(p[0.476691066927236, -0.0212812395945055, 0.224628927275885, -1.20085965405398, 1.21995724423508, -1.21459112043962], a = 0.2, v = 0.2, t = 0.2)
movej(p[0.476417303650353, -0.0213867379660688, 0.22458813036022, -1.19456881081519, 1.21975121554888, -1.20893777837454], a = 0.2, v = 0.2, t = 0.2)
movej(p[0.47579123587896, -0.0215338446266633, 0.224587208768154, -1.19936471942215, 1.21542130808548, -1.22801173210088], a = 0.2, v = 0.2, t = 0.2)
movej(p[0.475096157404452, -0.0215157883515289, 0.224519371422959, -1.19757622282356, 1.21236751356551, -1.23578632465681], a = 0.2, v = 0.2, t = 0.2)
movej(p[0.4743482909035, -0.0213584781202681, 0.224465729741448, -1.19580136951927, 1.20751351499214, -1.2433137858997], a = 0.2, v = 0.2, t = 0.2)
movej(p[0.473611173896752, -0.0213428000905025, 0.224574319725077, -1.18792332148397, 1.20385153671959, -1.23180393862626], a = 0.2, v = 0.2, t = 0.2)
movej(p[0.472960582398015, -0.0212245906942141, 0.224658976011912, -1.18640313472582, 1.19738912687751, -1.23719272419654], a = 0.2, v = 0.2, t = 0.2)
movej(p[0.472707844097404, -0.0209868277200299, 0.224684973917816, -1.19336340640888, 1.19028887014337, -1.24124486669099], a = 0.2, v = 0.2, t = 0.2)
movej(p[0.472924439968227, -0.0208373726417394, 0.224726803363377, -1.19737104395761, 1.18576800814352, -1.24158961244879], a = 0.2, v = 0.2, t = 0.2)
movej(p[0.473510049393365, -0.0209291439904894, 0.22483528406045, -1.19495417333995, 1.18694611825944, -1.23432865157461], a = 0.2, v = 0.2, t = 0.2)
movej(p[0.474513667255268, -0.0209446659649866, 0.224855664121206, -1.19777011791987, 1.19101263941039, -1.23557929764685], a = 0.2, v = 0.2, t = 0.2)
movej(p[0.475554212331097, -0.0209161273897027, 0.224806953560856, -1.19946648073969, 1.19989226263117, -1.22766754979613], a = 0.2, v = 0.2, t = 0.2)
movej(p[0.476267556588117, -0.0210316960889332, 0.224823161073221, -1.20622384865405, 1.20663739163573, -1.22264974501407], a = 0.2, v = 0.2, t = 0.2)
movej(p[0.476522118259105, -0.021220126757924, 0.224859296151043, -1.20605158614406, 1.21248641970114, -1.21951484908654], a = 0.2, v = 0.2, t = 0.2)
movej(p[0.4766351684589, -0.0212764735782112, 0.224783345547557, -1.20629582739576, 1.21567907302182, -1.2169045246636], a = 0.2, v = 0.2, t = 0.2)
movej(p[0.476571995372384, -0.0213413746513066, 0.22471156956027, -1.20498182737157, 1.21558878157934, -1.2170505878834], a = 0.2, v = 0.2, t = 0.2)
movej(p[0.476245809153658, -0.0214364188785323, 0.224656237239873, -1.20501428466187, 1.21498617971216, -1.2209441304592], a = 0.2, v = 0.2, t = 0.2)
movej(p[0.475632174376268, -0.0213973689937151, 0.224556671167188, -1.20906761006138, 1.2100639276156, -1.24177607802933], a = 0.2, v = 0.2, t = 0.2)
movej(p[0.47486846442108, -0.0212127189762831, 0.224428141732006, -1.21094159776706, 1.20540733521873, -1.2539245145034], a = 0.2, v = 0.2, t = 0.2)
movej(p[0.474060359238988, -0.0210943431105976, 0.224432790163103, -1.20189004782618, 1.20182261257897, -1.24689931156411], a = 0.2, v = 0.2, t = 0.2)
movej(p[0.473221235826742, -0.0209838536849923, 0.224521938225211, -1.19380842516557, 1.19695500680243, -1.24705792683284], a = 0.2, v = 0.2, t = 0.2)
movej(p[0.472810395631109, -0.0207687523224189, 0.224522864492762, -1.19096714709266, 1.19037913645641, -1.2473913817679], a = 0.2, v = 0.2, t = 0.2)
movej(p[0.472889584082764, -0.0205804745369117, 0.22452549576793, -1.19823866917149, 1.18319047600308, -1.2527324126205], a = 0.2, v = 0.2, t = 0.2)
movej(p[0.473543025185826, -0.0206680891383125, 0.224625262578295, -1.20172216793045, 1.18169720270946, -1.24737173454688], a = 0.2, v = 0.2, t = 0.2)
movej(p[0.474441954957592, -0.0207278196764325, 0.224676226070608, -1.20243122260128, 1.18489292449976, -1.2480362607051], a = 0.2, v = 0.2, t = 0.2)
movej(p[0.475467723761578, -0.0207062512799291, 0.224639457026, -1.20282178321606, 1.19437146304108, -1.24176097370692], a = 0.2, v = 0.2, t = 0.2)
movej(p[0.476210849308541, -0.020727336194928, 0.22456396916068, -1.20084117723145, 1.20349951125349, -1.23084743300586], a = 0.2, v = 0.2, t = 0.2)
movej(p[0.476484493459856, -0.0208991327518262, 0.224596803447467, -1.20847155836057, 1.20949817539702, -1.23089746820975], a = 0.2, v = 0.2, t = 0.2)
movej(p[0.476579734651458, -0.0210192605665821, 0.22456003821371, -1.21003531222255, 1.21267864644245, -1.22989881652391], a = 0.2, v = 0.2, t = 0.2)
movej(p[0.476623147734427, -0.0210406193563435, 0.224479166947563, -1.21272657141568, 1.21293183508687, -1.23316323296319], a = 0.2, v = 0.2, t = 0.2)
movej(p[0.476513905217717, -0.0212083116224037, 0.224458510352238, -1.20584065082549, 1.21332009861096, -1.22381664680381], a = 0.2, v = 0.2, t = 0.2)
movej(p[0.476085205560009, -0.0212992426424679, 0.224397868883989, -1.20638429581512, 1.21057317532843, -1.23757204340593], a = 0.2, v = 0.2, t = 0.2)
movej(p[0.475405497910061, -0.0212416702633996, 0.224284204466203, -1.20530122146869, 1.20776801197211, -1.2462684067962], a = 0.2, v = 0.2, t = 0.2)
movej(p[0.474515057645732, -0.0211580586761901, 0.224234618607322, -1.19930233629739, 1.20527811686144, -1.24735695701369], a = 0.2, v = 0.2, t = 0.2)
movej(p[0.473628672731484, -0.0211428419822263, 0.224328554122005, -1.19191390569085, 1.2009467600102, -1.24440123881761], a = 0.2, v = 0.2, t = 0.2)
movej(p[0.472939605740052, -0.0209588801835177, 0.224390864533743, -1.19328078725696, 1.19301169687604, -1.25112530520309], a = 0.2, v = 0.2, t = 0.2)
movej(p[0.47262558322804, -0.0207386029660798, 0.224433109797708, -1.20386185894353, 1.18307419642191, -1.25868730165276], a = 0.2, v = 0.2, t = 0.2)
movej(p[0.472807482650667, -0.0206725385774217, 0.224508075567224, -1.20862280539087, 1.17977653717309, -1.25653462581659], a = 0.2, v = 0.2, t = 0.2)
movej(p[0.473375977859501, -0.0207685282301595, 0.224617858113652, -1.21037821635765, 1.17929770232635, -1.25803368341684], a = 0.2, v = 0.2, t = 0.2)
movej(p[0.474471916489927, -0.0207848624281041, 0.224628676543147, -1.21082495022875, 1.1873291197826, -1.25051813135214], a = 0.2, v = 0.2, t = 0.2)
movej(p[0.475503274161278, -0.0208522823515901, 0.224620865918161, -1.20922073756711, 1.19511797213706, -1.23993072178644], a = 0.2, v = 0.2, t = 0.2)
movej(p[0.476224199096591, -0.0210122598346579, 0.224665258533465, -1.2127431840043, 1.20392773588239, -1.23166494530796], a = 0.2, v = 0.2, t = 0.2)
movej(p[0.47647956457562, -0.0211331914328537, 0.224658719690827, -1.21885310572488, 1.20710192471409, -1.23846949434994], a = 0.2, v = 0.2, t = 0.2)
movej(p[0.476566141295281, -0.0211714660694564, 0.224600215490852, -1.22293570579247, 1.20955340974295, -1.24100853593353], a = 0.2, v = 0.2, t = 0.2)
movej(p[0.476595208160615, -0.0212849855002555, 0.224593963295105, -1.21482839775969, 1.21449489711239, -1.22779722278434], a = 0.2, v = 0.2, t = 0.2)
movej(p[0.476506246745544, -0.0213773238318333, 0.224597618900386, -1.20144497525068, 1.21835968072013, -1.21843787778539], a = 0.2, v = 0.2, t = 0.2)
movej(p[0.47650029418252, -0.0213705057751051, 0.224554979546546, -1.18924503722095, 1.22405240944058, -1.20640961901989], a = 0.2, v = 0.2, t = 0.2)
movej(p[0.476229204686201, -0.0214030823387456, 0.224478475436539, -1.18925946595678, 1.22325761726347, -1.20754344839347], a = 0.2, v = 0.2, t = 0.2)
movej(p[0.475711982372936, -0.0215285038242787, 0.224513146268785, -1.19297224808637, 1.22160106303579, -1.21188339828773], a = 0.2, v = 0.2, t = 0.2)
movej(p[0.474971719213459, -0.0215224454464954, 0.224485095976805, -1.18989163252149, 1.2173406092167, -1.22154921035997], a = 0.2, v = 0.2, t = 0.2)
movej(p[0.474280417814852, -0.0213649763487699, 0.224446725066665, -1.19038411692188, 1.21222785402258, -1.2299388791243], a = 0.2, v = 0.2, t = 0.2)
movej(p[0.473629383520606, -0.0212740767123, 0.224433378411448, -1.18054723773913, 1.20882038790437, -1.21980125831587], a = 0.2, v = 0.2, t = 0.2)
movej(p[0.473041649071024, -0.0211662788408894, 0.224482073316701, -1.18473314252293, 1.20223653592188, -1.22899525886087], a = 0.2, v = 0.2, t = 0.2)
movej(p[0.472825359135183, -0.0209911382850599, 0.224502725950955, -1.18907661686097, 1.19609885552913, -1.2313874270992], a = 0.2, v = 0.2, t = 0.2)
movej(p[0.473057200089687, -0.0208492566940739, 0.224559599754714, -1.19782324441476, 1.18977338235708, -1.23912737760955], a = 0.2, v = 0.2, t = 0.2)
movej(p[0.473776311906624, -0.0209589378248354, 0.224690102358889, -1.20227403484892, 1.18857806475658, -1.23642947117205], a = 0.2, v = 0.2, t = 0.2)
movej(p[0.474641044212112, -0.0210267778823318, 0.224730777746192, -1.20427651468326, 1.19207454731769, -1.24021251043446], a = 0.2, v = 0.2, t = 0.2)
movej(p[0.475589766769614, -0.0210300255051755, 0.224698566754951, -1.2102831228653, 1.19998422916202, -1.23801255374329], a = 0.2, v = 0.2, t = 0.2)
movej(p[0.476184572147981, -0.0211051044868335, 0.224690541621986, -1.20857822911536, 1.20897070658691, -1.22411378693456], a = 0.2, v = 0.2, t = 0.2)
movej(p[0.476452498181622, -0.0213064633989194, 0.224779254660971, -1.21130096322272, 1.21341588750187, -1.22050791448195], a = 0.2, v = 0.2, t = 0.2)
movej(p[0.476577393798091, -0.0213572838606319, 0.224724353638592, -1.20006791482629, 1.21951843147384, -1.20627317762378], a = 0.2, v = 0.2, t = 0.2)
movej(p[0.47664146805549, -0.0214004597017064, 0.224674182379028, -1.20435351883036, 1.21923107362335, -1.21090056612536], a = 0.2, v = 0.2, t = 0.2)
movej(p[0.476608711451576, -0.0214991455616537, 0.224638820329505, -1.19406655270631, 1.22314493824093, -1.20152586552921], a = 0.2, v = 0.2, t = 0.2)
movej(p[0.476452534312932, -0.0215601759710477, 0.224585728893337, -1.20421967193363, 1.21902725631309, -1.22342073557867], a = 0.2, v = 0.2, t = 0.2)
movej(p[0.47610252058386, -0.0215598602594764, 0.224466862681201, -1.20449987110687, 1.21787791104709, -1.22602219543985], a = 0.2, v = 0.2, t = 0.2)
movej(p[0.47547728233404, -0.021579908948946, 0.22442052266812, -1.20566618421042, 1.21440232474058, -1.23139238866476], a = 0.2, v = 0.2, t = 0.2)
movej(p[0.474629091833545, -0.0216709167476276, 0.224500349759066, -1.1954835844724, 1.21287102106162, -1.22854047396738], a = 0.2, v = 0.2, t = 0.2)
movej(p[0.473992959871933, -0.0214801525652615, 0.224469806841028, -1.18744094509046, 1.21028469398713, -1.22920317481599], a = 0.2, v = 0.2, t = 0.2)
movej(p[0.473445878267378, -0.0212310248331263, 0.224440702313231, -1.18572438477369, 1.20514881267479, -1.23054635552464], a = 0.2, v = 0.2, t = 0.2)
movej(p[0.473031269500254, -0.0211261580566324, 0.224475563980541, -1.1920284317479, 1.19680088419082, -1.23334747071305], a = 0.2, v = 0.2, t = 0.2)
movej(p[0.472888094525248, -0.0211095597433897, 0.224611578811002, -1.19679284758713, 1.19105697358067, -1.24130057075779], a = 0.2, v = 0.2, t = 0.2)
movej(p[0.473334301667635, -0.021029993748998, 0.224699109463093, -1.20345949947883, 1.18824238919401, -1.24401390268541], a = 0.2, v = 0.2, t = 0.2)
movej(p[0.474231327783966, -0.0210422376775442, 0.224762175933064, -1.1973293945227, 1.19302112231738, -1.22873947994975], a = 0.2, v = 0.2, t = 0.2)
movej(p[0.475159069341749, -0.0210962123285366, 0.224814636920181, -1.19483018273002, 1.20003989402007, -1.21874059253874], a = 0.2, v = 0.2, t = 0.2)
movej(p[0.475894770670623, -0.0211306226716288, 0.224768780414383, -1.19686532853103, 1.20663325864004, -1.21761778924807], a = 0.2, v = 0.2, t = 0.2)
movej(p[0.476331267119784, -0.0211223083347359, 0.224692590237693, -1.20471387372217, 1.21106730611386, -1.2207435222602], a = 0.2, v = 0.2, t = 0.2)
movej(p[0.47659201179447, -0.0213018297400672, 0.224693363562854, -1.20659285392673, 1.21451670953726, -1.21495338288272], a = 0.2, v = 0.2, t = 0.2)
movej(p[0.476560252079228, -0.0214046879573444, 0.224671775377977, -1.20410314431175, 1.21748177574971, -1.2180874812521], a = 0.2, v = 0.2, t = 0.2)
movej(p[0.476422906563772, -0.0214279732782983, 0.224570533923462, -1.20706719714174, 1.21716117652032, -1.22404855854238], a = 0.2, v = 0.2, t = 0.2)
movej(p[0.475866124252664, -0.0214303646089192, 0.224468881711604, -1.20512088976588, 1.21587550470634, -1.22577266766081], a = 0.2, v = 0.2, t = 0.2)
movej(p[0.475022238908341, -0.0215591650067539, 0.224521171593549, -1.20764138193295, 1.21167671424322, -1.23430019423053], a = 0.2, v = 0.2, t = 0.2)
movej(p[0.474163862217878, -0.0215173124587515, 0.224513134349222, -1.1926151780049, 1.21023788494929, -1.22891672102307], a = 0.2, v = 0.2, t = 0.2)
movej(p[0.473423885846345, -0.0213080811939039, 0.224479265834606, -1.19117803975784, 1.20417793715975, -1.23319206263552], a = 0.2, v = 0.2, t = 0.2)
movej(p[0.472784387102368, -0.0211436651214597, 0.224490520472478, -1.18421969114005, 1.19781814859797, -1.22343177592497], a = 0.2, v = 0.2, t = 0.2)
movej(p[0.472321657835041, -0.0210761623462603, 0.224620502942158, -1.19208161214651, 1.19023809247486, -1.23360574448664], a = 0.2, v = 0.2, t = 0.2)
movej(p[0.472403894698515, -0.0209806570016461, 0.224712257034383, -1.19603112175654, 1.18589165573715, -1.23462285636343], a = 0.2, v = 0.2, t = 0.2)
