def moving():
set_payload_mass(0.62)
set_tcp(p[0,0,0,0,0,0])
movej(p[0.3714, -0.1083, 0.356, -1.181, 1.092, -1.204], a = 0.2, v = 0.2, t = 0.2)
movej(p[0.372617563338593, -0.109457113716798, 0.357366062722906, -1.181, 1.092, -1.204], a = 0.2, v = 0.2, t = 0.2)
movej(p[0.373835126677185, -0.110614227433595, 0.358732125445812, -1.181, 1.092, -1.204], a = 0.2, v = 0.2, t = 0.2)
movej(p[0.375052690015778, -0.111771341150393, 0.360098188168718, -1.181, 1.092, -1.204], a = 0.2, v = 0.2, t = 0.2)
movej(p[0.376270253354371, -0.11292845486719, 0.361464250891625, -1.181, 1.092, -1.204], a = 0.2, v = 0.2, t = 0.2)
movej(p[0.375052690015778, -0.111771341150393, 0.360098188168718, -1.181, 1.092, -1.204], a = 0.2, v = 0.2, t = 0.2)
movej(p[0.373835126677185, -0.110614227433595, 0.358732125445812, -1.181, 1.092, -1.204], a = 0.2, v = 0.2, t = 0.2)
movej(p[0.372617563338593, -0.109457113716798, 0.357366062722906, -1.181, 1.092, -1.204], a = 0.2, v = 0.2, t = 0.2)
movej(p[0.3714, -0.1083, 0.356, -1.181, 1.092, -1.204], a = 0.2, v = 0.2, t = 0.2)
movej(p[0.371535382006768, -0.10831659973399, 0.356007837159875, -1.18081768908666, 1.09211680230678, -1.20374780885384], a = 0.2, v = 0.2, t = 0.2)
movej(p[0.371670863399787, -0.108333192640942, 0.356015683024039, -1.18063537907015, 1.09223358487517, -1.20349561087741], a = 0.2, v = 0.2, t = 0.2)
movej(p[0.371679907548638, -0.108332571380452, 0.35601647511429, -1.18043559256755, 1.09237380025572, -1.20326762470661], a = 0.2, v = 0.2, t = 0.2)
movej(p[0.371673477624183, -0.108310712445425, 0.356072747869963, -1.18038216456257, 1.09242536950011, -1.20325077369178], a = 0.2, v = 0.2, t = 0.2)
movej(p[0.371043938418244, -0.10808486322553, 0.356428395586191, -1.18080858953547, 1.0985569995898, -1.19932049875629], a = 0.2, v = 0.2, t = 0.2)
movej(p[0.371043938418244, -0.10808486322553, 0.356428395586191, -1.18047078577083, 1.09886393098228, -1.19915990397829], a = 0.2, v = 0.2, t = 0.2)
movej(p[0.371248421764178, -0.108133679716765, 0.356382491649334, -1.18046279444874, 1.0988564358378, -1.19916433022458], a = 0.2, v = 0.2, t = 0.2)
movej(p[0.371251087803987, -0.108140954964963, 0.356357756795475, -1.1794406649301, 1.09663274974482, -1.20034773838078], a = 0.2, v = 0.2, t = 0.2)
movej(p[0.371256993744125, -0.108149560926158, 0.356297072223276, -1.17773734077727, 1.09346544199593, -1.20185264595452], a = 0.2, v = 0.2, t = 0.2)
movej(p[0.371567707775078, -0.108230092631647, 0.356092470817172, -1.17683654830468, 1.0898045273148, -1.20499171865836], a = 0.2, v = 0.2, t = 0.2)
movej(p[0.372237531566715, -0.108374820606042, 0.356151842456737, -1.17737637080063, 1.0894247268337, -1.20560594583264], a = 0.2, v = 0.2, t = 0.2)
movej(p[0.372386913406429, -0.108400373185024, 0.356223984758273, -1.17741371453246, 1.08918391061233, -1.20563168622937], a = 0.2, v = 0.2, t = 0.2)
movej(p[0.372400669665866, -0.10840616455838, 0.356243785902709, -1.17813675333409, 1.08792483420847, -1.20727705908962], a = 0.2, v = 0.2, t = 0.2)
movej(p[0.372403178229039, -0.10840757509096, 0.356225440126393, -1.17725348193156, 1.08673550487707, -1.20812459572123], a = 0.2, v = 0.2, t = 0.2)
movej(p[0.372662753326568, -0.108477968443541, 0.356267072741676, -1.1773795313051, 1.08607440731577, -1.20909318891447], a = 0.2, v = 0.2, t = 0.2)
movej(p[0.372726650263621, -0.108510176322412, 0.356323298749659, -1.17641196035466, 1.08644348624354, -1.20876943305419], a = 0.2, v = 0.2, t = 0.2)
movej(p[0.372725416542147, -0.108510124171551, 0.356337344575075, -1.17536366717125, 1.08752635571048, -1.20865709858903], a = 0.2, v = 0.2, t = 0.2)
movej(p[0.372673140733072, -0.108496074453273, 0.356332700740256, -1.17567473248022, 1.08799362636399, -1.20830921484024], a = 0.2, v = 0.2, t = 0.2)
movej(p[0.372069690607408, -0.108352460424854, 0.356500915206571, -1.17825973990891, 1.09300478037954, -1.20313492035134], a = 0.2, v = 0.2, t = 0.2)
movej(p[0.370340590160769, -0.107933958419764, 0.356942270287168, -1.181893104435, 1.10397745641553, -1.19309327241918], a = 0.2, v = 0.2, t = 0.2)
movej(p[0.368734288953882, -0.107488164500919, 0.357105500507028, -1.17753413686438, 1.11234942466231, -1.18240371815639], a = 0.2, v = 0.2, t = 0.2)
movej(p[0.366590512251289, -0.107033103115444, 0.357851708329869, -1.17346832313935, 1.11877252760277, -1.17716484147231], a = 0.2, v = 0.2, t = 0.2)
movej(p[0.362182194432918, -0.105883218269143, 0.358730111399352, -1.16253337902585, 1.13989920455151, -1.15527472711912], a = 0.2, v = 0.2, t = 0.2)
movej(p[0.359680362366207, -0.105302300222743, 0.359413884719497, -1.15854047687566, 1.14260671266472, -1.15101273555964], a = 0.2, v = 0.2, t = 0.2)
movej(p[0.359678437410715, -0.105302218852606, 0.359435800191777, -1.156456911492, 1.14516420268628, -1.15370047821917], a = 0.2, v = 0.2, t = 0.2)
movej(p[0.360559120958703, -0.105689454607219, 0.35951459320323, -1.15393176029067, 1.14117836457383, -1.15707639776888], a = 0.2, v = 0.2, t = 0.2)
movej(p[0.36294144357716, -0.10610490513309, 0.358599662898704, -1.1547231774481, 1.12967252457712, -1.16715955905058], a = 0.2, v = 0.2, t = 0.2)
movej(p[0.36538539793043, -0.106590204423152, 0.357823918367176, -1.16541343114744, 1.11733668621412, -1.18189521430216], a = 0.2, v = 0.2, t = 0.2)
movej(p[0.367551713510838, -0.1070414514282, 0.357179258707729, -1.16816278388515, 1.10661317028139, -1.19280411879457], a = 0.2, v = 0.2, t = 0.2)
movej(p[0.3694723381598, -0.107540904409115, 0.356756030663225, -1.1707981146701, 1.09981272520575, -1.19958271596988], a = 0.2, v = 0.2, t = 0.2)
movej(p[0.370234543106268, -0.107795899064187, 0.356653571522762, -1.1751330538667, 1.09552110899502, -1.20296713365432], a = 0.2, v = 0.2, t = 0.2)
movej(p[0.37084329243461, -0.107922329698482, 0.356483750999987, -1.17505714733748, 1.0954498050891, -1.20300903506265], a = 0.2, v = 0.2, t = 0.2)
movej(p[0.371519709492309, -0.108148807464286, 0.356397542556962, -1.17388607744356, 1.09254968322565, -1.20522395659188], a = 0.2, v = 0.2, t = 0.2)
movej(p[0.371992604676937, -0.108323336827442, 0.356332314834693, -1.17619330073667, 1.09067337998411, -1.20702944055118], a = 0.2, v = 0.2, t = 0.2)
movej(p[0.372221967566381, -0.108367617725743, 0.356259567896671, -1.17625654113567, 1.08981312801114, -1.206654944097], a = 0.2, v = 0.2, t = 0.2)
movej(p[0.372397085852673, -0.108564570033522, 0.356275680756966, -1.17878355549679, 1.08971454274394, -1.20435746798502], a = 0.2, v = 0.2, t = 0.2)
movej(p[0.372393017196748, -0.108564398046641, 0.356322002096104, -1.17785121614606, 1.0918826035005, -1.20142262061636], a = 0.2, v = 0.2, t = 0.2)
movej(p[0.372085448752053, -0.108398389434875, 0.356336331529021, -1.17806886924867, 1.09247932011178, -1.20089805120741], a = 0.2, v = 0.2, t = 0.2)
movej(p[0.370848316138384, -0.108167783153456, 0.35666830750581, -1.17625355622335, 1.09881387522488, -1.19500816454599], a = 0.2, v = 0.2, t = 0.2)
movej(p[0.36921467557737, -0.107637600408922, 0.357001687206465, -1.17213532460437, 1.10809159991252, -1.18353517114072], a = 0.2, v = 0.2, t = 0.2)
movej(p[0.368359919956016, -0.107454807029344, 0.357221466159386, -1.16894440196091, 1.11504195812558, -1.17478563833954], a = 0.2, v = 0.2, t = 0.2)
movej(p[0.365688489737508, -0.10679979495055, 0.357894886157809, -1.16901114354061, 1.12137681920285, -1.17354215359646], a = 0.2, v = 0.2, t = 0.2)
movej(p[0.363295751118978, -0.106100248248621, 0.35845087520016, -1.16171315650426, 1.13348326252086, -1.15826420606962], a = 0.2, v = 0.2, t = 0.2)
movej(p[0.360618687722293, -0.105567333762332, 0.359172940806898, -1.16146624788947, 1.14311161387518, -1.14743409547465], a = 0.2, v = 0.2, t = 0.2)
movej(p[0.360618687722293, -0.105567333762332, 0.359172940806898, -1.1618293153033, 1.14260032153167, -1.14694479118242], a = 0.2, v = 0.2, t = 0.2)
movej(p[0.361610926753778, -0.10578709834658, 0.358943792117378, -1.15995287012579, 1.13570512804948, -1.1538510584335], a = 0.2, v = 0.2, t = 0.2)
movej(p[0.364850266147289, -0.106502873405427, 0.358108666462895, -1.17233767428594, 1.11788519285847, -1.1828328979398], a = 0.2, v = 0.2, t = 0.2)
movej(p[0.36676849673885, -0.10680420575703, 0.357594145402608, -1.16698809508829, 1.11441862464426, -1.18794506342996], a = 0.2, v = 0.2, t = 0.2)
movej(p[0.36841431853502, -0.107379792030104, 0.357206691705372, -1.16559362622021, 1.11040454486528, -1.19197264899362], a = 0.2, v = 0.2, t = 0.2)
movej(p[0.369582520036748, -0.107641688869913, 0.356921178646724, -1.16681821706814, 1.10339914191265, -1.19946001389963], a = 0.2, v = 0.2, t = 0.2)
movej(p[0.370703441864536, -0.108007342755591, 0.356634206867839, -1.1764444914362, 1.09456327304081, -1.20355080534622], a = 0.2, v = 0.2, t = 0.2)
movej(p[0.37122371988419, -0.108117743477816, 0.356503837573918, -1.18078195422565, 1.09119964334281, -1.20593499816764], a = 0.2, v = 0.2, t = 0.2)
movej(p[0.371611063490268, -0.108202254288681, 0.356407371291324, -1.18078195422565, 1.09119964334281, -1.20593499816764], a = 0.2, v = 0.2, t = 0.2)
movej(p[0.37187328898166, -0.108271033400144, 0.356327864401746, -1.17799460456385, 1.09224984270825, -1.20457154794184], a = 0.2, v = 0.2, t = 0.2)
movej(p[0.371900905730852, -0.108302570540533, 0.356324484469769, -1.17708994948604, 1.09260932942325, -1.20551296013073], a = 0.2, v = 0.2, t = 0.2)
movej(p[0.37195459784986, -0.108316591676231, 0.356311785489095, -1.17563647341244, 1.09304131989556, -1.20871227657551], a = 0.2, v = 0.2, t = 0.2)
movej(p[0.37195459784986, -0.108316591676231, 0.356311785489095, -1.17558717086855, 1.09311657934874, -1.20878405697789], a = 0.2, v = 0.2, t = 0.2)
movej(p[0.371048694780222, -0.108003838528607, 0.356543755308405, -1.1739782675431, 1.10278490006229, -1.2035409405859], a = 0.2, v = 0.2, t = 0.2)
movej(p[0.36826204311155, -0.107034903999767, 0.357226167124181, -1.17413668202512, 1.11250605358102, -1.19343145988574], a = 0.2, v = 0.2, t = 0.2)
movej(p[0.366219107419617, -0.10658465610417, 0.357751868913354, -1.17384039349067, 1.12130156291758, -1.18372762290315], a = 0.2, v = 0.2, t = 0.2)
movej(p[0.363751982814211, -0.105989286412495, 0.358442752935193, -1.1613653627513, 1.13149505554663, -1.16640528896087], a = 0.2, v = 0.2, t = 0.2)
movej(p[0.361198774676745, -0.10532384885625, 0.359116078202442, -1.15809430558363, 1.13715353410109, -1.15359027842892], a = 0.2, v = 0.2, t = 0.2)
movej(p[0.359386832721747, -0.105078576366862, 0.359617857693524, -1.16078381999907, 1.13720387683803, -1.1512177423156], a = 0.2, v = 0.2, t = 0.2)
movej(p[0.359386832721747, -0.105078576366862, 0.359617857693524, -1.16382570526457, 1.13520273059415, -1.15472996046344], a = 0.2, v = 0.2, t = 0.2)
movej(p[0.360533018018634, -0.105368309100914, 0.359365448406807, -1.16766434784234, 1.12930787022933, -1.16375379833989], a = 0.2, v = 0.2, t = 0.2)
movej(p[0.36325799872683, -0.105935934373337, 0.358656554458414, -1.16492353568863, 1.12262819249339, -1.17037580527811], a = 0.2, v = 0.2, t = 0.2)
movej(p[0.366168414075053, -0.106713527067979, 0.35787227260725, -1.17011645599505, 1.11439290630791, -1.18551472780051], a = 0.2, v = 0.2, t = 0.2)
movej(p[0.368701212912515, -0.107430742712184, 0.3571911230138, -1.17266262036216, 1.10702254440982, -1.19437395632951], a = 0.2, v = 0.2, t = 0.2)
movej(p[0.3696691582831, -0.107761098566492, 0.356901023532434, -1.18155162439536, 1.10086234869662, -1.20441153104282], a = 0.2, v = 0.2, t = 0.2)
movej(p[0.370571035739195, -0.108107535305746, 0.356624253935329, -1.18278528441589, 1.10000694529843, -1.20581913802003], a = 0.2, v = 0.2, t = 0.2)
movej(p[0.371157001801378, -0.108263669877765, 0.356465592662834, -1.18169028881203, 1.09504127570333, -1.21047381741995], a = 0.2, v = 0.2, t = 0.2)
movej(p[0.371499532742005, -0.108301090312555, 0.356380876337526, -1.18193370727594, 1.09339809340512, -1.2096578365365], a = 0.2, v = 0.2, t = 0.2)
movej(p[0.372085315125104, -0.1084898676743, 0.356206258419365, -1.18114810253134, 1.09220886399578, -1.20992607274764], a = 0.2, v = 0.2, t = 0.2)
movej(p[0.372085315125104, -0.1084898676743, 0.356206258419365, -1.17911571147663, 1.09363204522609, -1.20761359842293], a = 0.2, v = 0.2, t = 0.2)
movej(p[0.371851221123126, -0.10832429906848, 0.356302232035555, -1.17646768257696, 1.09679967780285, -1.20808493162199], a = 0.2, v = 0.2, t = 0.2)
movej(p[0.371341491074148, -0.108095813963394, 0.356473444429739, -1.17535901581709, 1.10043094538454, -1.20483025583832], a = 0.2, v = 0.2, t = 0.2)
movej(p[0.370705590009031, -0.107831491251799, 0.356675101538513, -1.17177656083493, 1.1050777597488, -1.20161090810509], a = 0.2, v = 0.2, t = 0.2)
movej(p[0.368475782766841, -0.107166628543221, 0.357310781215252, -1.17180932205347, 1.11478229009659, -1.19143456031627], a = 0.2, v = 0.2, t = 0.2)
movej(p[0.36649639995445, -0.106595686916999, 0.35788930028275, -1.1716548555183, 1.12371702669363, -1.18496549174284], a = 0.2, v = 0.2, t = 0.2)
movej(p[0.364167883425938, -0.106045149413034, 0.358506695693466, -1.16433832831578, 1.13089697698823, -1.17212994392743], a = 0.2, v = 0.2, t = 0.2)
movej(p[0.361593123750029, -0.105543408958402, 0.359143199226446, -1.15720429879083, 1.13842462046879, -1.16083471994944], a = 0.2, v = 0.2, t = 0.2)
movej(p[0.360510079760886, -0.105390413157213, 0.359386202852755, -1.15644862648526, 1.14144278072812, -1.15534942843742], a = 0.2, v = 0.2, t = 0.2)
movej(p[0.360510079760886, -0.105390413157213, 0.359386202852755, -1.15736107772118, 1.14015680361235, -1.15411384201419], a = 0.2, v = 0.2, t = 0.2)
movej(p[0.363793695838995, -0.106079422065937, 0.358593214217728, -1.16267776699242, 1.12395855091561, -1.16928490557276], a = 0.2, v = 0.2, t = 0.2)
movej(p[0.36585865469248, -0.106741928810037, 0.357958405272111, -1.17464598469229, 1.11329269094386, -1.18284070047657], a = 0.2, v = 0.2, t = 0.2)
movej(p[0.367932992367687, -0.107384828009043, 0.357316015305554, -1.1787353491591, 1.10647808330364, -1.19178011161157], a = 0.2, v = 0.2, t = 0.2)
movej(p[0.369362849452751, -0.10783282965698, 0.356897875341261, -1.18061539693863, 1.10116314587327, -1.19985014985138], a = 0.2, v = 0.2, t = 0.2)
movej(p[0.370292010008095, -0.10817906592654, 0.35657481435935, -1.17781090905103, 1.1004230767889, -1.20242077782974], a = 0.2, v = 0.2, t = 0.2)
movej(p[0.371438966902431, -0.10830489272373, 0.356381493383651, -1.18038995120894, 1.09530473250369, -1.20879123780555], a = 0.2, v = 0.2, t = 0.2)
movej(p[0.371752739358118, -0.108420473410977, 0.356272857934614, -1.18204473653898, 1.09225423554889, -1.20825400057658], a = 0.2, v = 0.2, t = 0.2)
movej(p[0.371881851075705, -0.108421839511512, 0.35623119994437, -1.18035733507514, 1.09066122070986, -1.20917876609564], a = 0.2, v = 0.2, t = 0.2)
movej(p[0.371953508562754, -0.108416917216858, 0.356237475736361, -1.18074589130456, 1.09020730095832, -1.20905763730335], a = 0.2, v = 0.2, t = 0.2)
movej(p[0.371949173318676, -0.108383109760635, 0.356260459677766, -1.17994974511461, 1.09166710946178, -1.20935239372091], a = 0.2, v = 0.2, t = 0.2)
movej(p[0.371904461304494, -0.108117629092886, 0.35646625625412, -1.18296141709178, 1.09451185577579, -1.20769807575736], a = 0.2, v = 0.2, t = 0.2)
movej(p[0.370671527883542, -0.107686920103083, 0.356865618452633, -1.17632235449575, 1.10739769466883, -1.20391928759704], a = 0.2, v = 0.2, t = 0.2)
movej(p[0.368769527910744, -0.107222436347353, 0.357335685420351, -1.17183739051588, 1.11670831496236, -1.19487545968094], a = 0.2, v = 0.2, t = 0.2)
movej(p[0.366974434236856, -0.106740856713855, 0.357828530759753, -1.16789353957351, 1.12847735443184, -1.18227439489274], a = 0.2, v = 0.2, t = 0.2)
movej(p[0.36466978940038, -0.106220524306386, 0.358388907537856, -1.16634315524995, 1.13435725820941, -1.17523253988242], a = 0.2, v = 0.2, t = 0.2)
movej(p[0.36219173335445, -0.105718825900448, 0.358923079422845, -1.1643083732505, 1.13828270488586, -1.16371772040735], a = 0.2, v = 0.2, t = 0.2)
movej(p[0.361882488234269, -0.105718643061649, 0.358965985275754, -1.16593978981862, 1.13588234100012, -1.16127034151916], a = 0.2, v = 0.2, t = 0.2)
movej(p[0.361882488234269, -0.105718643061649, 0.358965985275754, -1.16064923359748, 1.13263362584568, -1.16260628414924], a = 0.2, v = 0.2, t = 0.2)
movej(p[0.363838778884457, -0.106215443790706, 0.358463162307313, -1.1539980903558, 1.12655164551621, -1.16647085925238], a = 0.2, v = 0.2, t = 0.2)
movej(p[0.365853293066663, -0.106835450906807, 0.357840227988403, -1.16761359623435, 1.11417753775007, -1.17975051921369], a = 0.2, v = 0.2, t = 0.2)
movej(p[0.367827902702526, -0.107450633278732, 0.357218790006596, -1.17520799808448, 1.10448564253764, -1.19107307729059], a = 0.2, v = 0.2, t = 0.2)
movej(p[0.370010947498906, -0.108028421634441, 0.356628270165268, -1.18209003643605, 1.09749190402304, -1.2012618994634], a = 0.2, v = 0.2, t = 0.2)
movej(p[0.370634221881794, -0.108262208174027, 0.356376803929871, -1.18422662209857, 1.09496761051905, -1.20477100259566], a = 0.2, v = 0.2, t = 0.2)
movej(p[0.371129044280774, -0.108345420043674, 0.356292885229828, -1.18997033078236, 1.09012989443139, -1.20885514688369], a = 0.2, v = 0.2, t = 0.2)
movej(p[0.371539530147246, -0.108400088600839, 0.356238495136201, -1.19063739369343, 1.08955579885961, -1.2097243696532], a = 0.2, v = 0.2, t = 0.2)
movej(p[0.3718836582578, -0.108398837700306, 0.356244223030568, -1.18859716175473, 1.08866675780123, -1.21121861186123], a = 0.2, v = 0.2, t = 0.2)
movej(p[0.372195134768775, -0.108377441762102, 0.356271502270649, -1.18748013482085, 1.08888415724768, -1.21226933773312], a = 0.2, v = 0.2, t = 0.2)
movej(p[0.372197684856942, -0.108361103421914, 0.356284715736895, -1.18606794847501, 1.08987990200639, -1.2106581431375], a = 0.2, v = 0.2, t = 0.2)
movej(p[0.372188580386692, -0.108334587310859, 0.356312728670979, -1.18615888112117, 1.08962950569142, -1.21018582853103], a = 0.2, v = 0.2, t = 0.2)
movej(p[0.371903633194956, -0.108194755810241, 0.356467272966755, -1.18579156204424, 1.08994326150391, -1.2097105001939], a = 0.2, v = 0.2, t = 0.2)
movej(p[0.370745954346255, -0.107720582068058, 0.356946365364413, -1.1814195380462, 1.10460922266773, -1.20281609407822], a = 0.2, v = 0.2, t = 0.2)
movej(p[0.369766770796987, -0.107359022907156, 0.35733916069281, -1.18098600231426, 1.114940101351, -1.19879531311593], a = 0.2, v = 0.2, t = 0.2)
movej(p[0.367768282312496, -0.106895410283472, 0.357805273139028, -1.17547807102366, 1.1264835620401, -1.18709523354659], a = 0.2, v = 0.2, t = 0.2)
movej(p[0.366112445781126, -0.106487605157763, 0.358212346511805, -1.17477785165871, 1.13226595757939, -1.18055366142744], a = 0.2, v = 0.2, t = 0.2)
movej(p[0.365705874085072, -0.106355644606686, 0.358354430145372, -1.17322499065285, 1.13447264054366, -1.17748585875117], a = 0.2, v = 0.2, t = 0.2)
movej(p[0.364200223249195, -0.106057812641716, 0.35863908084547, -1.17098079540654, 1.13735070735343, -1.17244997393414], a = 0.2, v = 0.2, t = 0.2)
movej(p[0.361580128313801, -0.105407945560318, 0.359311708562736, -1.16028188604624, 1.14394861801782, -1.1589138257291], a = 0.2, v = 0.2, t = 0.2)
movej(p[0.361580128313801, -0.105407945560318, 0.359311708562736, -1.15877571123347, 1.13744960082346, -1.15811805774774], a = 0.2, v = 0.2, t = 0.2)
movej(p[0.364759424255764, -0.106452888171137, 0.358203698231778, -1.16018165074393, 1.12189098482928, -1.17308166094424], a = 0.2, v = 0.2, t = 0.2)
movej(p[0.36696982382206, -0.107150314063397, 0.35742569402734, -1.16792809817735, 1.11396978087489, -1.18482395237826], a = 0.2, v = 0.2, t = 0.2)
movej(p[0.368792235841856, -0.107706213691769, 0.35682971762405, -1.1761206231374, 1.10729463310269, -1.1953264953529], a = 0.2, v = 0.2, t = 0.2)
movej(p[0.369979252319668, -0.108029546738096, 0.356485552717999, -1.17930336175616, 1.10113457275747, -1.20168677041574], a = 0.2, v = 0.2, t = 0.2)
movej(p[0.37099364985906, -0.108148900314938, 0.356440478714732, -1.18342838938897, 1.09827127944101, -1.20639378404396], a = 0.2, v = 0.2, t = 0.2)
movej(p[0.371291715034639, -0.108178507636424, 0.356449502994283, -1.18539652283672, 1.09745515428716, -1.20806838949556], a = 0.2, v = 0.2, t = 0.2)
movej(p[0.371515271872698, -0.108250462060712, 0.356385483926949, -1.188254667891, 1.09511742237684, -1.21027729325805], a = 0.2, v = 0.2, t = 0.2)
movej(p[0.371580369867174, -0.108245990350589, 0.3563911852359, -1.18797563853309, 1.09485288683614, -1.21043073146577], a = 0.2, v = 0.2, t = 0.2)
movej(p[0.371603884018781, -0.108251821502047, 0.356442059712279, -1.18783129722917, 1.09479424058301, -1.21053840533415], a = 0.2, v = 0.2, t = 0.2)
movej(p[0.372154956126421, -0.108249909628497, 0.356505012209617, -1.1872072586676, 1.09484309012515, -1.2109870082746], a = 0.2, v = 0.2, t = 0.2)
movej(p[0.372153074919918, -0.108249830107681, 0.356526429602981, -1.18443505756535, 1.09726157889666, -1.20931527268071], a = 0.2, v = 0.2, t = 0.2)
movej(p[0.371575648474514, -0.108019695551197, 0.356793781984793, -1.18465064689689, 1.10161448311859, -1.20532775794959], a = 0.2, v = 0.2, t = 0.2)
movej(p[0.370340913350939, -0.107633244892397, 0.357231196436913, -1.18690290572389, 1.11222961287463, -1.19961895777342], a = 0.2, v = 0.2, t = 0.2)
movej(p[0.368749336048567, -0.107241368959899, 0.357613255168133, -1.18248519436165, 1.12492568841524, -1.19001173127838], a = 0.2, v = 0.2, t = 0.2)
movej(p[0.367393723236797, -0.106874525683042, 0.358011314378289, -1.17959508291144, 1.13017252132413, -1.18343592058464], a = 0.2, v = 0.2, t = 0.2)
movej(p[0.366966999178837, -0.106759193795538, 0.358130006349723, -1.17715636059203, 1.13192468556667, -1.18105511824683], a = 0.2, v = 0.2, t = 0.2)
movej(p[0.366493143037248, -0.106623654140107, 0.358285039245858, -1.17478597366148, 1.13349235576732, -1.17833011009027], a = 0.2, v = 0.2, t = 0.2)
movej(p[0.364486878108487, -0.10614406946132, 0.358695297593119, -1.17082044252211, 1.13884386013846, -1.17052073988106], a = 0.2, v = 0.2, t = 0.2)
movej(p[0.364228473855605, -0.106161819761042, 0.358672666443084, -1.1715766469631, 1.13775495467932, -1.16949166417989], a = 0.2, v = 0.2, t = 0.2)
movej(p[0.36425986654409, -0.106264715727199, 0.358394926692133, -1.16719612277754, 1.12616513344972, -1.17258485642815], a = 0.2, v = 0.2, t = 0.2)
movej(p[0.367848414627082, -0.107261482104314, 0.357314151551084, -1.17287713342349, 1.11000030455382, -1.19053683135233], a = 0.2, v = 0.2, t = 0.2)
movej(p[0.369168647883169, -0.107684238462051, 0.35675157138656, -1.17808719894175, 1.10640093059833, -1.1964997404539], a = 0.2, v = 0.2, t = 0.2)
movej(p[0.370174035826275, -0.10794172226331, 0.356499524732255, -1.18090636597157, 1.10267033409373, -1.20137997751688], a = 0.2, v = 0.2, t = 0.2)
movej(p[0.370836622842792, -0.108087034452284, 0.356404170847814, -1.18317514167109, 1.10087615643544, -1.20340205031369], a = 0.2, v = 0.2, t = 0.2)
movej(p[0.371153286786206, -0.108162860124987, 0.356374946469273, -1.18497731718529, 1.09958101239345, -1.20548650515678], a = 0.2, v = 0.2, t = 0.2)
movej(p[0.371782820267817, -0.108257826480371, 0.356410718062411, -1.18410944114945, 1.09629033018851, -1.2085152766086], a = 0.2, v = 0.2, t = 0.2)
movej(p[0.372005204824699, -0.108299856561229, 0.356443457505954, -1.18435378846731, 1.09609728285896, -1.20894045843699], a = 0.2, v = 0.2, t = 0.2)
movej(p[0.372050615880933, -0.108306385343741, 0.356434420306688, -1.18469184192092, 1.09592329845994, -1.20951762570609], a = 0.2, v = 0.2, t = 0.2)
movej(p[0.372072132487819, -0.108323824988134, 0.356449425120302, -1.18476379825229, 1.09625403962897, -1.21003866398525], a = 0.2, v = 0.2, t = 0.2)
movej(p[0.372127555841808, -0.108320411975682, 0.356454983283538, -1.18557395202241, 1.09781056608041, -1.20987580741273], a = 0.2, v = 0.2, t = 0.2)
movej(p[0.372160921400464, -0.108330519024499, 0.35648174289975, -1.18565522174619, 1.09775398115197, -1.20996851339121], a = 0.2, v = 0.2, t = 0.2)
movej(p[0.372331984529649, -0.108360263972547, 0.356496878747892, -1.18458400539002, 1.09670528243376, -1.21085777198572], a = 0.2, v = 0.2, t = 0.2)
movej(p[0.372318151099504, -0.108359679217152, 0.356654371300959, -1.18458400539002, 1.09670528243376, -1.21085777198572], a = 0.2, v = 0.2, t = 0.2)
movej(p[0.371201251302433, -0.108031117705605, 0.35711981792135, -1.18493140952803, 1.10411272434268, -1.20372918306376], a = 0.2, v = 0.2, t = 0.2)
movej(p[0.369839703398417, -0.107669270307212, 0.357426424926074, -1.18529505867433, 1.11421666466737, -1.19358851493941], a = 0.2, v = 0.2, t = 0.2)
movej(p[0.368709656424321, -0.107374629992835, 0.357637770357725, -1.18687757025244, 1.12485667996332, -1.18260745129375], a = 0.2, v = 0.2, t = 0.2)
movej(p[0.367430081871439, -0.107045358924827, 0.357897891747442, -1.18288974662194, 1.12816994150791, -1.17718444815792], a = 0.2, v = 0.2, t = 0.2)
movej(p[0.366486985481495, -0.106795920308768, 0.358269879376395, -1.1817903146684, 1.13160800109266, -1.17293343027574], a = 0.2, v = 0.2, t = 0.2)
movej(p[0.364722336732999, -0.106335353018553, 0.358718797526635, -1.17550167920821, 1.13597287647606, -1.16527909097624], a = 0.2, v = 0.2, t = 0.2)
movej(p[0.364369495429458, -0.106244626110356, 0.358759947163871, -1.17426494566311, 1.1367878459899, -1.16384847710398], a = 0.2, v = 0.2, t = 0.2)
movej(p[0.364369495429458, -0.106244626110356, 0.358759947163871, -1.17336338075492, 1.13616640339207, -1.16444362671618], a = 0.2, v = 0.2, t = 0.2)
movej(p[0.364961260847072, -0.106423641772536, 0.35849557178073, -1.16945721719909, 1.13080492420452, -1.17003622554641], a = 0.2, v = 0.2, t = 0.2)
movej(p[0.366772315970328, -0.106918682647607, 0.357732233544731, -1.17122609424621, 1.1176402180155, -1.18499964066361], a = 0.2, v = 0.2, t = 0.2)
movej(p[0.369048062297331, -0.107534001059438, 0.357046698646135, -1.17385219991834, 1.10738615531397, -1.19636984407256], a = 0.2, v = 0.2, t = 0.2)
movej(p[0.369847467052246, -0.107726948571763, 0.356621324228349, -1.17769172392967, 1.10426002231123, -1.19921523911295], a = 0.2, v = 0.2, t = 0.2)
movej(p[0.370181621408272, -0.107794176667666, 0.356529256973205, -1.17946854980527, 1.10359233467039, -1.19933390119577], a = 0.2, v = 0.2, t = 0.2)
movej(p[0.37048575996209, -0.108034984849396, 0.356246271868132, -1.18413882545021, 1.09662634547728, -1.20619886612036], a = 0.2, v = 0.2, t = 0.2)
movej(p[0.37102703368532, -0.108160848491575, 0.356214575967473, -1.18445934779496, 1.09558982557575, -1.20766364707842], a = 0.2, v = 0.2, t = 0.2)
movej(p[0.371964923600283, -0.108374525948258, 0.356166946754625, -1.18506023657284, 1.09223699063577, -1.21151664540895], a = 0.2, v = 0.2, t = 0.2)
movej(p[0.372136923297072, -0.108407516124765, 0.356181976144448, -1.18493278269341, 1.09255431779354, -1.21207510840051], a = 0.2, v = 0.2, t = 0.2)
movej(p[0.372308618050282, -0.108448042627846, 0.356197207502499, -1.18500245754284, 1.09313524349533, -1.21222451287937], a = 0.2, v = 0.2, t = 0.2)
movej(p[0.372299492011293, -0.108447656859423, 0.356301106764263, -1.18327418764269, 1.0948244977294, -1.21173916233253], a = 0.2, v = 0.2, t = 0.2)
movej(p[0.372048003057915, -0.108295293420013, 0.356708302968395, -1.18043761084279, 1.09753736240715, -1.21079112763105], a = 0.2, v = 0.2, t = 0.2)
movej(p[0.371559550218633, -0.108117212505397, 0.357042590063041, -1.17825337903834, 1.10303902442138, -1.20664611194785], a = 0.2, v = 0.2, t = 0.2)
movej(p[0.37034836808819, -0.107777831062845, 0.357401939507658, -1.17769608906865, 1.11302017306166, -1.19798135802523], a = 0.2, v = 0.2, t = 0.2)
movej(p[0.368547104936019, -0.107310509503749, 0.357738597668163, -1.17844871589962, 1.12409137466251, -1.18654283151075], a = 0.2, v = 0.2, t = 0.2)
movej(p[0.367049343375474, -0.106928234596966, 0.357982971589434, -1.17495652467819, 1.12882398605706, -1.17979291013523], a = 0.2, v = 0.2, t = 0.2)
movej(p[0.365253568304073, -0.106488579416707, 0.358280963712496, -1.17064287351697, 1.13168630439718, -1.17483701328011], a = 0.2, v = 0.2, t = 0.2)
movej(p[0.364092128518511, -0.106179659457794, 0.358924570341967, -1.1474168223245, 1.11308037901973, -1.18629963643518], a = 0.2, v = 0.2, t = 0.2)
movej(p[0.363938057909453, -0.106137164555882, 0.35896850109129, -1.14740541923648, 1.11309690193046, -1.18631576571575], a = 0.2, v = 0.2, t = 0.2)
movej(p[0.363938057909453, -0.106137164555882, 0.35896850109129, -1.1474667308832, 1.11306618297774, -1.18637362593166], a = 0.2, v = 0.2, t = 0.2)
movej(p[0.365237848164528, -0.106509267060388, 0.35834571352803, -1.15756712122718, 1.11485892360021, -1.1861785528913], a = 0.2, v = 0.2, t = 0.2)
movej(p[0.366407876259976, -0.106874988687343, 0.357665829061785, -1.16661486707376, 1.11340553127057, -1.18873496597275], a = 0.2, v = 0.2, t = 0.2)
movej(p[0.367425848169063, -0.107162936392205, 0.357274460857183, -1.17117114398174, 1.10972203588545, -1.19207270532925], a = 0.2, v = 0.2, t = 0.2)
movej(p[0.368820422781712, -0.107548800309824, 0.356854296143248, -1.17611002860376, 1.10307164393158, -1.19901836784206], a = 0.2, v = 0.2, t = 0.2)
movej(p[0.369034417043127, -0.107597159767963, 0.356840747014495, -1.17716886756005, 1.1021404271629, -1.19959714776917], a = 0.2, v = 0.2, t = 0.2)
movej(p[0.369607918549448, -0.107747138044447, 0.356670226784522, -1.17969918051468, 1.10169363626506, -1.20108706962616], a = 0.2, v = 0.2, t = 0.2)
movej(p[0.370355209297361, -0.107925419945225, 0.356572195963149, -1.18284082924991, 1.10179262950568, -1.2023531942966], a = 0.2, v = 0.2, t = 0.2)
movej(p[0.370806872215848, -0.10805256517676, 0.356373321711015, -1.1859020251934, 1.10231426383577, -1.20348721911874], a = 0.2, v = 0.2, t = 0.2)
movej(p[0.371492189638789, -0.108202029924006, 0.356404257275395, -1.18661997913886, 1.10216852793902, -1.20516246810407], a = 0.2, v = 0.2, t = 0.2)
movej(p[0.372037724550626, -0.108315928829411, 0.356439748109629, -1.18748039529545, 1.10174986116685, -1.20669421632649], a = 0.2, v = 0.2, t = 0.2)
movej(p[0.372406134093829, -0.108410734649418, 0.356468745264139, -1.18700100972005, 1.10138474761654, -1.20699207270604], a = 0.2, v = 0.2, t = 0.2)
movej(p[0.372406134093829, -0.108410734649418, 0.356468745264139, -1.18641644437666, 1.10199190423243, -1.20748550300625], a = 0.2, v = 0.2, t = 0.2)
movej(p[0.37175879955259, -0.108195747125972, 0.356893642165141, -1.18314364122247, 1.10478185643189, -1.2054202183518], a = 0.2, v = 0.2, t = 0.2)
movej(p[0.370971776729873, -0.107973259613321, 0.357229145418832, -1.1790096431457, 1.10756972088971, -1.20233693068073], a = 0.2, v = 0.2, t = 0.2)
movej(p[0.370384163043725, -0.107810314852443, 0.357492037812701, -1.17549205171463, 1.11031837183158, -1.19995044563977], a = 0.2, v = 0.2, t = 0.2)
movej(p[0.36863753531714, -0.107367660595156, 0.357589548854275, -1.16909666078745, 1.11464704143329, -1.19309852878967], a = 0.2, v = 0.2, t = 0.2)
movej(p[0.367233077367114, -0.106992038792315, 0.358336241252683, -1.15826851705133, 1.11264288907482, -1.19407983376393], a = 0.2, v = 0.2, t = 0.2)
movej(p[0.364754538804993, -0.10636720461836, 0.358619652016656, -1.15003179339203, 1.11665421274803, -1.18649446532799], a = 0.2, v = 0.2, t = 0.2)
movej(p[0.362635354874734, -0.105835667224744, 0.358581615600929, -1.14697510183122, 1.11793517259817, -1.18377066384294], a = 0.2, v = 0.2, t = 0.2)
movej(p[0.362648435822278, -0.105836220171813, 0.358432690005208, -1.14755336916708, 1.11710147257913, -1.18295793331937], a = 0.2, v = 0.2, t = 0.2)
movej(p[0.364546256992813, -0.106344774724311, 0.358596355309419, -1.15204017705321, 1.11412965485696, -1.18779732703136], a = 0.2, v = 0.2, t = 0.2)
movej(p[0.365778958484375, -0.10668298980004, 0.358082290006902, -1.15807514434436, 1.11214216007301, -1.19041346920208], a = 0.2, v = 0.2, t = 0.2)
movej(p[0.366789934671731, -0.106959585780648, 0.357638968089882, -1.16540644918957, 1.11054981633541, -1.19205447709004], a = 0.2, v = 0.2, t = 0.2)
movej(p[0.367881726193721, -0.107253489848727, 0.357202106188044, -1.17280678812615, 1.10897604726132, -1.19390790479586], a = 0.2, v = 0.2, t = 0.2)
movej(p[0.369118196097025, -0.107580592845916, 0.35677416040006, -1.18001173000544, 1.10740981147925, -1.19643121206083], a = 0.2, v = 0.2, t = 0.2)
movej(p[0.370129835397663, -0.107842243349189, 0.356482724799041, -1.18356335480784, 1.1047295023384, -1.1997601025117], a = 0.2, v = 0.2, t = 0.2)
movej(p[0.370628844023248, -0.107981671304297, 0.356339954189578, -1.18506887728397, 1.10254414151544, -1.20231293795155], a = 0.2, v = 0.2, t = 0.2)
movej(p[0.371194654580227, -0.108137027461295, 0.356237341821444, -1.18663099075153, 1.10033805610322, -1.20526578377272], a = 0.2, v = 0.2, t = 0.2)
movej(p[0.37157302776192, -0.108270312946035, 0.356270067422011, -1.18553743188328, 1.09896233533083, -1.20706406155897], a = 0.2, v = 0.2, t = 0.2)
movej(p[0.371724674141923, -0.108275832776921, 0.356283407845507, -1.18658649848766, 1.09802005872026, -1.20924289398012], a = 0.2, v = 0.2, t = 0.2)
movej(p[0.372649255422579, -0.108487930354753, 0.3563681167762, -1.18608118406419, 1.09879571696168, -1.20997284548459], a = 0.2, v = 0.2, t = 0.2)
movej(p[0.372634844505786, -0.108487321188317, 0.356532183970951, -1.18637007618349, 1.1026479548639, -1.20816336474717], a = 0.2, v = 0.2, t = 0.2)
movej(p[0.372272916686562, -0.108361883792008, 0.356888822335795, -1.18417869881398, 1.1056362913814, -1.2053593444079], a = 0.2, v = 0.2, t = 0.2)
movej(p[0.371470292433544, -0.108151774484004, 0.357173209883266, -1.18270311920299, 1.11119154372701, -1.19933014282231], a = 0.2, v = 0.2, t = 0.2)
movej(p[0.370495944318522, -0.107882091542153, 0.357380655976573, -1.18134002685334, 1.11776730261795, -1.19180280511696], a = 0.2, v = 0.2, t = 0.2)
movej(p[0.369101504445193, -0.107512430959606, 0.357513287659748, -1.18058030313303, 1.11935159323411, -1.18941880351628], a = 0.2, v = 0.2, t = 0.2)
movej(p[0.367951587933196, -0.107215397521875, 0.357686539333063, -1.17804356313955, 1.11990560315658, -1.18774259256773], a = 0.2, v = 0.2, t = 0.2)
movej(p[0.366272462870388, -0.106815188859973, 0.35802082343437, -1.15985958950172, 1.11421185803093, -1.19025309034925], a = 0.2, v = 0.2, t = 0.2)
movej(p[0.364492813632275, -0.106349308989264, 0.35850243503655, -1.15220987971299, 1.1181784801497, -1.1861513113093], a = 0.2, v = 0.2, t = 0.2)
movej(p[0.36384295496845, -0.106165888512343, 0.358748842048822, -1.14987470263893, 1.11961673250853, -1.18371563574672], a = 0.2, v = 0.2, t = 0.2)
movej(p[0.36384295496845, -0.106165888512343, 0.358748842048822, -1.14984380892097, 1.11966130838251, -1.18375892930701], a = 0.2, v = 0.2, t = 0.2)
movej(p[0.365777618837389, -0.106688277649907, 0.358363673471216, -1.15574519998971, 1.11581748282414, -1.19030937188031], a = 0.2, v = 0.2, t = 0.2)
movej(p[0.367359414570777, -0.10710501292113, 0.357832477809002, -1.16335497900609, 1.11017758834499, -1.19593491652329], a = 0.2, v = 0.2, t = 0.2)
movej(p[0.368244620171551, -0.107327997278043, 0.357119617317089, -1.1704586338951, 1.10891238198246, -1.19542873745929], a = 0.2, v = 0.2, t = 0.2)
movej(p[0.369065748117097, -0.107536214056289, 0.356631659654684, -1.18035171617059, 1.1042819556227, -1.19749579894267], a = 0.2, v = 0.2, t = 0.2)
movej(p[0.369714468579774, -0.10770512988234, 0.356442017504794, -1.18254307442168, 1.1025204029563, -1.19843312688543], a = 0.2, v = 0.2, t = 0.2)
movej(p[0.370411020335978, -0.107888027506263, 0.356233037912268, -1.18549960130479, 1.10004904672827, -1.20130330880501], a = 0.2, v = 0.2, t = 0.2)
movej(p[0.371048010886074, -0.108055971248209, 0.356132909751248, -1.1872602505938, 1.09859198189603, -1.20327750670417], a = 0.2, v = 0.2, t = 0.2)
movej(p[0.371330747312626, -0.108134654095212, 0.356108445641044, -1.18742947434566, 1.09847405900911, -1.2034713641614], a = 0.2, v = 0.2, t = 0.2)
movej(p[0.371478995822142, -0.108178394862384, 0.356121629521867, -1.18812601620213, 1.09927501571444, -1.20384483269103], a = 0.2, v = 0.2, t = 0.2)
movej(p[0.371929141114991, -0.108294430329948, 0.356284069620343, -1.18769907598557, 1.10070310285444, -1.20536802992716], a = 0.2, v = 0.2, t = 0.2)
movej(p[0.372276242963405, -0.108401752622732, 0.356494947505146, -1.18893816878214, 1.10146378932022, -1.20513346813492], a = 0.2, v = 0.2, t = 0.2)
movej(p[0.372724122151197, -0.108523237726792, 0.35653473824068, -1.18907904935026, 1.10191277275014, -1.20516759687756], a = 0.2, v = 0.2, t = 0.2)
movej(p[0.372716396079838, -0.108522911136651, 0.35662269897715, -1.189377942596, 1.10355359318776, -1.20487338967049], a = 0.2, v = 0.2, t = 0.2)
movej(p[0.372110706879136, -0.108363626423385, 0.356716875100834, -1.18692812928513, 1.10529037370649, -1.20220346250967], a = 0.2, v = 0.2, t = 0.2)
movej(p[0.370686681760462, -0.108013044478073, 0.357302228131926, -1.17650867521803, 1.10538224781218, -1.20316529619912], a = 0.2, v = 0.2, t = 0.2)
movej(p[0.369522518529392, -0.107688244705526, 0.357337199251124, -1.17355145320972, 1.10755602310437, -1.2002563324296], a = 0.2, v = 0.2, t = 0.2)
movej(p[0.368852798281654, -0.10751667979904, 0.357585318844531, -1.17072898554404, 1.10993849216317, -1.1973264225436], a = 0.2, v = 0.2, t = 0.2)
movej(p[0.367428340547685, -0.107105467482436, 0.357820163058442, -1.1713230418196, 1.12033903650953, -1.18656501541809], a = 0.2, v = 0.2, t = 0.2)
movej(p[0.365683334867759, -0.106612806076289, 0.358174718675971, -1.16544995536748, 1.12427557018117, -1.17985135195622], a = 0.2, v = 0.2, t = 0.2)
movej(p[0.364769288944718, -0.106410378712104, 0.358270259885938, -1.15427575070855, 1.11736791196154, -1.18746675355944], a = 0.2, v = 0.2, t = 0.2)
movej(p[0.364769288944718, -0.106410378712104, 0.358270259885938, -1.15485534389986, 1.11697838519682, -1.18812276306964], a = 0.2, v = 0.2, t = 0.2)
movej(p[0.36599212498566, -0.106729507856274, 0.357860762552229, -1.16075854274194, 1.11235520539531, -1.19271244560542], a = 0.2, v = 0.2, t = 0.2)
movej(p[0.36754409955181, -0.107143012072751, 0.357530818891917, -1.16766524811731, 1.10988207282958, -1.19526572796645], a = 0.2, v = 0.2, t = 0.2)
movej(p[0.36857018095031, -0.107399029918083, 0.357160824275031, -1.17249631838127, 1.10662456679609, -1.1965940212723], a = 0.2, v = 0.2, t = 0.2)
movej(p[0.369406102988703, -0.107581025553703, 0.356575289174167, -1.17834529543032, 1.10278394933423, -1.19865558018018], a = 0.2, v = 0.2, t = 0.2)
movej(p[0.370184107937394, -0.107786132064437, 0.356338311139179, -1.18384771403928, 1.10021226370545, -1.20100982590863], a = 0.2, v = 0.2, t = 0.2)
movej(p[0.370477438799751, -0.107866382701411, 0.356357246567736, -1.18512423912688, 1.10140347575684, -1.20031147946495], a = 0.2, v = 0.2, t = 0.2)
movej(p[0.370835658608296, -0.107962742415598, 0.356276335602798, -1.18479838869727, 1.10195424074881, -1.20094921086178], a = 0.2, v = 0.2, t = 0.2)
movej(p[0.371190758369205, -0.10805908074979, 0.356229883959467, -1.18444887882455, 1.10247132304642, -1.20161196875288], a = 0.2, v = 0.2, t = 0.2)
movej(p[0.37160557387078, -0.108203785620107, 0.356235737177285, -1.18637927202643, 1.10065224855184, -1.20432041065181], a = 0.2, v = 0.2, t = 0.2)
movej(p[0.372037294730579, -0.10831375157208, 0.356274065869165, -1.18895309965831, 1.0982386410669, -1.2057194002833], a = 0.2, v = 0.2, t = 0.2)
movej(p[0.372123263583059, -0.108321902531653, 0.356134080268972, -1.1872581165161, 1.0941647563475, -1.20919893778774], a = 0.2, v = 0.2, t = 0.2)
movej(p[0.372385787987595, -0.108419335264302, 0.356157500978433, -1.1869025001413, 1.09471277288964, -1.2097153069211], a = 0.2, v = 0.2, t = 0.2)
movej(p[0.372352547506177, -0.108417930149978, 0.356535941338396, -1.18289516871817, 1.09994185064844, -1.20616840665747], a = 0.2, v = 0.2, t = 0.2)
movej(p[0.371830875746766, -0.108339397046296, 0.35691516268149, -1.18536064942181, 1.10608846674685, -1.20082680999879], a = 0.2, v = 0.2, t = 0.2)
movej(p[0.37042174909377, -0.107926581907382, 0.357156366841692, -1.18544616718776, 1.11558779271448, -1.19086202019053], a = 0.2, v = 0.2, t = 0.2)
movej(p[0.369000276524012, -0.107520704301414, 0.357471600853818, -1.18200649674746, 1.12094131367562, -1.18597947937493], a = 0.2, v = 0.2, t = 0.2)
movej(p[0.367852126555016, -0.10719421171851, 0.357631446629496, -1.17894573091834, 1.12601894520055, -1.17920632124026], a = 0.2, v = 0.2, t = 0.2)
movej(p[0.366519397032514, -0.106829687966315, 0.357940073044339, -1.17509951292982, 1.12858682460156, -1.17477558736021], a = 0.2, v = 0.2, t = 0.2)
movej(p[0.365266398098226, -0.106518165623912, 0.358469018259703, -1.16901085447978, 1.13257229048347, -1.17166051969305], a = 0.2, v = 0.2, t = 0.2)
movej(p[0.363915832262636, -0.106160070439567, 0.358383192257326, -1.16247712539645, 1.13626039884395, -1.17241358122444], a = 0.2, v = 0.2, t = 0.2)
movej(p[0.363915832262636, -0.106160070439567, 0.358383192257326, -1.16015390944561, 1.13411097804287, -1.17377323056749], a = 0.2, v = 0.2, t = 0.2)
movej(p[0.365368969866475, -0.106541116845921, 0.357894872003279, -1.16118722965535, 1.11897454962858, -1.18892702032935], a = 0.2, v = 0.2, t = 0.2)
movej(p[0.367059722713525, -0.106957667187978, 0.357426851915328, -1.16455239382613, 1.11583421551497, -1.19098703490208], a = 0.2, v = 0.2, t = 0.2)
movej(p[0.368587212440096, -0.107332886316107, 0.356822570225132, -1.16951769969158, 1.11118007145758, -1.19369711264292], a = 0.2, v = 0.2, t = 0.2)
movej(p[0.369407136851582, -0.10754585382978, 0.356556577654619, -1.1756604626915, 1.10504545439765, -1.19962188325298], a = 0.2, v = 0.2, t = 0.2)
movej(p[0.370245888830855, -0.107761202376279, 0.356285421425136, -1.18307382155556, 1.098464544519, -1.20353804807247], a = 0.2, v = 0.2, t = 0.2)
movej(p[0.370736714061456, -0.107866714672436, 0.356172724892957, -1.18478059450445, 1.09839037100579, -1.20433598875632], a = 0.2, v = 0.2, t = 0.2)
movej(p[0.371268218914192, -0.108042587029704, 0.356127507247428, -1.1853341344798, 1.09820058487335, -1.20557572392701], a = 0.2, v = 0.2, t = 0.2)
movej(p[0.371489230109111, -0.108103425342232, 0.356111408444704, -1.18417030703015, 1.0971288836268, -1.20622856293626], a = 0.2, v = 0.2, t = 0.2)
movej(p[0.371901053517289, -0.108242421831592, 0.356148097222577, -1.18230588478461, 1.09655962743767, -1.20769690668953], a = 0.2, v = 0.2, t = 0.2)
movej(p[0.372060832162366, -0.108316353752832, 0.356213000347303, -1.18283975746788, 1.09648304359552, -1.20922201185205], a = 0.2, v = 0.2, t = 0.2)
movej(p[0.372462460980147, -0.108431827362045, 0.356276412793267, -1.18357849751691, 1.09718248450079, -1.20881419008131], a = 0.2, v = 0.2, t = 0.2)
movej(p[0.372456633614887, -0.108431581032448, 0.356342756904805, -1.18461507592095, 1.09854773637802, -1.20808073072294], a = 0.2, v = 0.2, t = 0.2)
movej(p[0.372181082349411, -0.108437656533955, 0.356683679078294, -1.1824615420384, 1.10118974179793, -1.20388261719645], a = 0.2, v = 0.2, t = 0.2)
movej(p[0.370545333992594, -0.107970896742437, 0.357075935142862, -1.18599587674633, 1.11148278262264, -1.19621470157221], a = 0.2, v = 0.2, t = 0.2)
movej(p[0.369016281042252, -0.107536271988745, 0.357407914100823, -1.1811001319616, 1.1196281130531, -1.18501226040736], a = 0.2, v = 0.2, t = 0.2)
movej(p[0.367317160386628, -0.107044665724355, 0.357735685558468, -1.1767447389246, 1.12793462981661, -1.1741930309251], a = 0.2, v = 0.2, t = 0.2)
movej(p[0.365843570993008, -0.106616322415211, 0.358034412940073, -1.1736122106767, 1.13058101494525, -1.16996928613681], a = 0.2, v = 0.2, t = 0.2)
movej(p[0.364692525049917, -0.106347122178109, 0.358446887871721, -1.16796575576642, 1.13558188080637, -1.16754535281752], a = 0.2, v = 0.2, t = 0.2)
movej(p[0.364692525049917, -0.106347122178109, 0.358446887871721, -1.16519278154412, 1.13559223030104, -1.17001723368848], a = 0.2, v = 0.2, t = 0.2)
movej(p[0.365056930958443, -0.106496039657321, 0.358474429262695, -1.16176665052256, 1.13200726005567, -1.17247856074995], a = 0.2, v = 0.2, t = 0.2)
movej(p[0.366227682242935, -0.106753153313664, 0.357909046306123, -1.1668079174175, 1.12417426759256, -1.18080486712892], a = 0.2, v = 0.2, t = 0.2)
movej(p[0.367232415164574, -0.106926453016786, 0.357256090611552, -1.16955373291255, 1.11567443431745, -1.18756473605508], a = 0.2, v = 0.2, t = 0.2)
movej(p[0.368813650978937, -0.107337893089677, 0.356768493887, -1.17096929068054, 1.10874768293776, -1.1951663383086], a = 0.2, v = 0.2, t = 0.2)
movej(p[0.369656367279685, -0.107536386898594, 0.356429662167298, -1.17302378233953, 1.10503049380855, -1.19916420374732], a = 0.2, v = 0.2, t = 0.2)
movej(p[0.370139080258584, -0.107648340257096, 0.356288269396896, -1.17663011832822, 1.10215649252324, -1.20204586586954], a = 0.2, v = 0.2, t = 0.2)
movej(p[0.370752053411288, -0.10783175538807, 0.356249332090944, -1.17977348171363, 1.10010895308069, -1.20221650374318], a = 0.2, v = 0.2, t = 0.2)
movej(p[0.371246668527613, -0.10801777658148, 0.356253012078001, -1.18321079048247, 1.09751349384797, -1.20549687114908], a = 0.2, v = 0.2, t = 0.2)
movej(p[0.371970112478232, -0.108264340425834, 0.356330320945346, -1.18110279128022, 1.09552409045704, -1.20666026793879], a = 0.2, v = 0.2, t = 0.2)
movej(p[0.372170360028305, -0.108363975248503, 0.356252009829906, -1.1799879183352, 1.09749051282799, -1.20909196403395], a = 0.2, v = 0.2, t = 0.2)
movej(p[0.372358830568807, -0.108399259446347, 0.356359945832913, -1.1810878218281, 1.09853174686109, -1.20848331247328], a = 0.2, v = 0.2, t = 0.2)
movej(p[0.372358830568807, -0.108399259446347, 0.356359945832913, -1.18265410483632, 1.09949463178629, -1.20742880777834], a = 0.2, v = 0.2, t = 0.2)
movej(p[0.372172603830491, -0.108398319333973, 0.356530202046089, -1.18290672502439, 1.104063149593, -1.20279932110406], a = 0.2, v = 0.2, t = 0.2)
movej(p[0.371291836435274, -0.108195299918694, 0.356836964417547, -1.18209960928732, 1.10450816742622, -1.20106021274486], a = 0.2, v = 0.2, t = 0.2)
movej(p[0.370424583317131, -0.107974772553103, 0.357159505128305, -1.18454920627627, 1.11338257497479, -1.19332049423291], a = 0.2, v = 0.2, t = 0.2)
movej(p[0.368832899037497, -0.10750507564401, 0.357432347037756, -1.17979297024861, 1.11695809801861, -1.1874948274681], a = 0.2, v = 0.2, t = 0.2)
movej(p[0.367205070336879, -0.107044753564976, 0.357808156677069, -1.17197327458041, 1.12598792000027, -1.17815493059099], a = 0.2, v = 0.2, t = 0.2)
movej(p[0.36534016605473, -0.106516002046585, 0.358206355610043, -1.17032885538074, 1.12953868270917, -1.17360337740752], a = 0.2, v = 0.2, t = 0.2)
movej(p[0.362679420764783, -0.105807794314236, 0.358967651400038, -1.16444931709393, 1.14175716534443, -1.15764541654957], a = 0.2, v = 0.2, t = 0.2)
movej(p[0.362679420764783, -0.105807794314236, 0.358967651400038, -1.16395653193437, 1.14245648342177, -1.15831152155205], a = 0.2, v = 0.2, t = 0.2)
movej(p[0.36392948276569, -0.106207954688274, 0.358725579264223, -1.15807664567142, 1.13317895226223, -1.16881982893266], a = 0.2, v = 0.2, t = 0.2)
movej(p[0.365205211807061, -0.106445280603957, 0.358122463485332, -1.16191797780727, 1.12685834717875, -1.17732194602835], a = 0.2, v = 0.2, t = 0.2)
movej(p[0.366366748051023, -0.106695195532862, 0.357640568380279, -1.16333252116987, 1.12140451783263, -1.18378921475605], a = 0.2, v = 0.2, t = 0.2)
movej(p[0.367326889496449, -0.10687080305616, 0.357155062929707, -1.16155612579478, 1.11560203637911, -1.19001827301746], a = 0.2, v = 0.2, t = 0.2)
movej(p[0.367903281608579, -0.106998631282422, 0.356943355448391, -1.16302828992297, 1.11264877293071, -1.19375847668784], a = 0.2, v = 0.2, t = 0.2)
movej(p[0.369246279744405, -0.107378281298721, 0.356636189072802, -1.17014671648651, 1.10538158630382, -1.20001138591663], a = 0.2, v = 0.2, t = 0.2)
movej(p[0.369922586132028, -0.107542644047166, 0.356423254301137, -1.17473189593588, 1.1016239001985, -1.20332738430144], a = 0.2, v = 0.2, t = 0.2)
movej(p[0.370451332609235, -0.107685846696729, 0.356334507222314, -1.17442614002277, 1.10133585330256, -1.2034976551758], a = 0.2, v = 0.2, t = 0.2)
movej(p[0.370694751385507, -0.107796018161044, 0.356356297077954, -1.17395333755332, 1.10191918687752, -1.2037671112792], a = 0.2, v = 0.2, t = 0.2)
movej(p[0.370695006449872, -0.107798305952005, 0.356356327976006, -1.17384870868498, 1.10199062812338, -1.20365490514028], a = 0.2, v = 0.2, t = 0.2)
movej(p[0.371319765228806, -0.107997331448962, 0.35629961131438, -1.17381778667786, 1.1020372963663, -1.20369935017587], a = 0.2, v = 0.2, t = 0.2)
movej(p[0.372032236959148, -0.108286469347678, 0.356363265135865, -1.17701802953357, 1.10053643219976, -1.20660052275799], a = 0.2, v = 0.2, t = 0.2)
movej(p[0.372030819491922, -0.108286409429668, 0.356379402892726, -1.17926545927793, 1.09927795916607, -1.20518110007224], a = 0.2, v = 0.2, t = 0.2)
movej(p[0.371517314195913, -0.108200748382746, 0.356609238455705, -1.18388707367484, 1.103300431305, -1.20249172060633], a = 0.2, v = 0.2, t = 0.2)
movej(p[0.370332308261761, -0.107913336720462, 0.357028701448601, -1.18332183664533, 1.11170637012836, -1.19310947302836], a = 0.2, v = 0.2, t = 0.2)
movej(p[0.369279700698436, -0.107616308365237, 0.357265009751086, -1.17958020669511, 1.11682659543349, -1.18608215967444], a = 0.2, v = 0.2, t = 0.2)
movej(p[0.367873592059538, -0.107212012681807, 0.357588726519229, -1.17478692004525, 1.12238514987172, -1.17915490597783], a = 0.2, v = 0.2, t = 0.2)
movej(p[0.365863629638123, -0.106596626388378, 0.357981793007698, -1.17270942827819, 1.1297478550931, -1.17062856830267], a = 0.2, v = 0.2, t = 0.2)
movej(p[0.363638754846406, -0.106005022820905, 0.358584147181035, -1.15898618642647, 1.14118240080295, -1.16015402817385], a = 0.2, v = 0.2, t = 0.2)
movej(p[0.362967537306849, -0.105888804464839, 0.358872093492531, -1.15802980144194, 1.14215520478495, -1.16020553129423], a = 0.2, v = 0.2, t = 0.2)
movej(p[0.362967537306849, -0.105888804464839, 0.358872093492531, -1.15720397444278, 1.14209418200933, -1.16092130127888], a = 0.2, v = 0.2, t = 0.2)
movej(p[0.36476796498139, -0.106363315586617, 0.358367945296008, -1.15307593706785, 1.13505206202484, -1.1696036759672], a = 0.2, v = 0.2, t = 0.2)
movej(p[0.365924959693626, -0.106578197168429, 0.357850687370351, -1.15645625718853, 1.12684458716015, -1.17995207706229], a = 0.2, v = 0.2, t = 0.2)
movej(p[0.366989858335755, -0.106745669056398, 0.357347148584623, -1.15928022389005, 1.1204693711853, -1.18518182157886], a = 0.2, v = 0.2, t = 0.2)
movej(p[0.367961985494662, -0.106968599113204, 0.356993975331549, -1.16643091039733, 1.11154100119014, -1.19442060648718], a = 0.2, v = 0.2, t = 0.2)
movej(p[0.369043304576719, -0.107281051484117, 0.356754423815813, -1.16863491896354, 1.10976480022934, -1.19697542804107], a = 0.2, v = 0.2, t = 0.2)
movej(p[0.370066757348644, -0.107579769908215, 0.356547885159037, -1.17548845022864, 1.10349591665295, -1.19981193628577], a = 0.2, v = 0.2, t = 0.2)
movej(p[0.370284220863656, -0.107639484835814, 0.35653809602933, -1.17954454248586, 1.10046838467971, -1.20282740817216], a = 0.2, v = 0.2, t = 0.2)
movej(p[0.370469866016266, -0.107698752072019, 0.356476522236, -1.18052252345045, 1.09979018518398, -1.20394283423233], a = 0.2, v = 0.2, t = 0.2)
movej(p[0.370583258344321, -0.107722960190862, 0.356453043161906, -1.17984331629326, 1.09919830825333, -1.20433691830769], a = 0.2, v = 0.2, t = 0.2)
movej(p[0.371085741259622, -0.107895465109176, 0.356399943416251, -1.17870934490009, 1.10092498587783, -1.20597989080333], a = 0.2, v = 0.2, t = 0.2)
movej(p[0.371929573773031, -0.108218404813329, 0.356358512307222, -1.17893455850405, 1.10137143714493, -1.20561274195368], a = 0.2, v = 0.2, t = 0.2)
movej(p[0.372207508449405, -0.108305571389264, 0.356340383774232, -1.17970132047564, 1.10162074434733, -1.2050161607993], a = 0.2, v = 0.2, t = 0.2)
movej(p[0.372207508449405, -0.108305571389264, 0.356340383774232, -1.17920657088745, 1.10203644729399, -1.20361633656784], a = 0.2, v = 0.2, t = 0.2)
movej(p[0.371927325726285, -0.108234679853537, 0.356401541127239, -1.18016332007397, 1.10145887380036, -1.20248450810675], a = 0.2, v = 0.2, t = 0.2)
movej(p[0.371123114511764, -0.108056147963845, 0.356675968343096, -1.18429675834384, 1.10441831228092, -1.19903333809426], a = 0.2, v = 0.2, t = 0.2)
movej(p[0.370196256541924, -0.107752981173001, 0.356861762693581, -1.18385566963337, 1.11011352136199, -1.19286890240805], a = 0.2, v = 0.2, t = 0.2)
movej(p[0.369047391561551, -0.107403204163346, 0.357102269700527, -1.17480804269861, 1.11858686951031, -1.18387030165973], a = 0.2, v = 0.2, t = 0.2)
movej(p[0.367452753589917, -0.106941110326226, 0.357490625111353, -1.17249049978471, 1.12499431427571, -1.17762246129431], a = 0.2, v = 0.2, t = 0.2)
movej(p[0.367024308430853, -0.106830259251985, 0.357614101445178, -1.17105826804345, 1.12707968451186, -1.17475500261959], a = 0.2, v = 0.2, t = 0.2)
movej(p[0.36581839118639, -0.106528571419474, 0.357956686560471, -1.16656510485287, 1.13071059379338, -1.17151451990564], a = 0.2, v = 0.2, t = 0.2)
movej(p[0.36518668305566, -0.106400237140556, 0.35817347163935, -1.16238135798684, 1.1344721102893, -1.16995268990132], a = 0.2, v = 0.2, t = 0.2)
movej(p[0.36518668305566, -0.106400237140556, 0.35817347163935, -1.15783745136738, 1.13097574578064, -1.1728363901604], a = 0.2, v = 0.2, t = 0.2)
movej(p[0.366532965345829, -0.106725101380561, 0.357755966045683, -1.16110219726911, 1.12521438036794, -1.18045594559782], a = 0.2, v = 0.2, t = 0.2)
movej(p[0.367367734670271, -0.106905352430598, 0.357472885714449, -1.16476174523125, 1.12085785547575, -1.18407788632273], a = 0.2, v = 0.2, t = 0.2)
movej(p[0.368617289342828, -0.107188169685175, 0.35706529924411, -1.16788253303345, 1.11558862608462, -1.19100756268511], a = 0.2, v = 0.2, t = 0.2)
movej(p[0.369345719131405, -0.107366464749389, 0.356839125830131, -1.16805787441121, 1.10994481976338, -1.19703410428851], a = 0.2, v = 0.2, t = 0.2)
movej(p[0.370612182266391, -0.107785438175132, 0.356578487006768, -1.17257281894317, 1.10384119752455, -1.20582706151235], a = 0.2, v = 0.2, t = 0.2)
movej(p[0.371158011554386, -0.107955872538403, 0.356487225699614, -1.17526658727536, 1.10120756468924, -1.20644989627511], a = 0.2, v = 0.2, t = 0.2)
movej(p[0.37143702558165, -0.108052446876957, 0.356463002988733, -1.17666945443928, 1.10157698350584, -1.20665871342913], a = 0.2, v = 0.2, t = 0.2)
movej(p[0.371789465270345, -0.108160387528719, 0.356375604181363, -1.18110591915142, 1.09718252894557, -1.20724783158677], a = 0.2, v = 0.2, t = 0.2)
movej(p[0.372004728535681, -0.108199702943089, 0.356303708459724, -1.18110591915142, 1.09718252894557, -1.20724783158677], a = 0.2, v = 0.2, t = 0.2)
movej(p[0.372441488615142, -0.108428096416163, 0.356342919484275, -1.1783135682142, 1.10007526527188, -1.20703853517752], a = 0.2, v = 0.2, t = 0.2)
movej(p[0.372435669999679, -0.10842785045643, 0.356409163980031, -1.17608008220029, 1.10228895227734, -1.2041490979806], a = 0.2, v = 0.2, t = 0.2)
movej(p[0.370930618140193, -0.107948550877727, 0.35666297742355, -1.17290754716599, 1.10957640341467, -1.19582227162315], a = 0.2, v = 0.2, t = 0.2)
movej(p[0.369332006361455, -0.107523261816902, 0.357098000567329, -1.17244839037289, 1.11746038071102, -1.18801741077641], a = 0.2, v = 0.2, t = 0.2)
movej(p[0.367539716693825, -0.106915063115545, 0.35744917862327, -1.16652111609683, 1.12244942681362, -1.1814654276361], a = 0.2, v = 0.2, t = 0.2)
movej(p[0.365598414801257, -0.106399568542468, 0.357986777550947, -1.15053860131969, 1.13619343821816, -1.17235693843497], a = 0.2, v = 0.2, t = 0.2)
movej(p[0.363946382319878, -0.105998780239761, 0.358491484849173, -1.14864652085248, 1.14234005969553, -1.16479439203798], a = 0.2, v = 0.2, t = 0.2)
movej(p[0.361950154729213, -0.10550830820601, 0.359096830734083, -1.1471147322537, 1.14731132633971, -1.15646671671107], a = 0.2, v = 0.2, t = 0.2)
movej(p[0.361950154729213, -0.10550830820601, 0.359096830734083, -1.1471147322537, 1.14731132633971, -1.15646671671107], a = 0.2, v = 0.2, t = 0.2)
movej(p[0.363076306706696, -0.10579156199231, 0.358794653391852, -1.1444169995146, 1.14460627689826, -1.16112917751547], a = 0.2, v = 0.2, t = 0.2)
movej(p[0.364317807129876, -0.106066929340036, 0.358374385913868, -1.14538256334463, 1.13640321043606, -1.17058776933101], a = 0.2, v = 0.2, t = 0.2)
movej(p[0.366238867099836, -0.106590516707222, 0.357857123929241, -1.15364748356609, 1.12695886009332, -1.18050009123617], a = 0.2, v = 0.2, t = 0.2)
movej(p[0.367121035700706, -0.106779039109494, 0.357567797533139, -1.16220824676214, 1.1196582327242, -1.18794557424885], a = 0.2, v = 0.2, t = 0.2)
movej(p[0.367795381063921, -0.107025677277775, 0.357442933867259, -1.16346089686363, 1.11862967565458, -1.18876950555685], a = 0.2, v = 0.2, t = 0.2)
movej(p[0.368286226907515, -0.10707142396234, 0.357229129614078, -1.16729957027722, 1.11562051033722, -1.19179007020735], a = 0.2, v = 0.2, t = 0.2)
movej(p[0.369453672582587, -0.107427030404787, 0.356949921244135, -1.17013125377389, 1.10970003842912, -1.19832340687825], a = 0.2, v = 0.2, t = 0.2)
movej(p[0.370623583566851, -0.107825175533729, 0.356711542794614, -1.17372967033431, 1.10491432592891, -1.20333971689446], a = 0.2, v = 0.2, t = 0.2)
movej(p[0.371104487955024, -0.107906456072038, 0.356531128400707, -1.17566902685066, 1.10284120184283, -1.20322898954112], a = 0.2, v = 0.2, t = 0.2)
movej(p[0.371369127704899, -0.108059730166091, 0.356528239650451, -1.17782772675306, 1.10159083218121, -1.20435632738691], a = 0.2, v = 0.2, t = 0.2)
movej(p[0.371667913200529, -0.108104155546461, 0.35646139024372, -1.17912239008715, 1.10092058835403, -1.20321645193294], a = 0.2, v = 0.2, t = 0.2)
movej(p[0.371727817832992, -0.108172767014497, 0.356450443487878, -1.18021137695305, 1.10029783466038, -1.20201962323948], a = 0.2, v = 0.2, t = 0.2)
movej(p[0.371835787334495, -0.108190046085491, 0.356414516472264, -1.18258136239501, 1.09824716885245, -1.20167195923945], a = 0.2, v = 0.2, t = 0.2)
movej(p[0.371835787334495, -0.108190046085491, 0.356414516472264, -1.18387109127722, 1.09945995703158, -1.20095806074219], a = 0.2, v = 0.2, t = 0.2)
movej(p[0.371458907166755, -0.108151896107079, 0.356566884540807, -1.17924438497565, 1.10487776464093, -1.20126055840639], a = 0.2, v = 0.2, t = 0.2)
movej(p[0.369439254679394, -0.10746674089446, 0.357028508527313, -1.16402177773465, 1.1186283034159, -1.18870733800116], a = 0.2, v = 0.2, t = 0.2)
movej(p[0.366964908386168, -0.106762112275709, 0.357666754311347, -1.16385461257616, 1.12797746396746, -1.17941743592273], a = 0.2, v = 0.2, t = 0.2)
movej(p[0.364848550896433, -0.106205121112904, 0.358271540893705, -1.15594450975068, 1.13709568247807, -1.16639734776379], a = 0.2, v = 0.2, t = 0.2)
movej(p[0.363014062496273, -0.10575113632096, 0.358819954841705, -1.14955296382986, 1.14566737039342, -1.15676384912052], a = 0.2, v = 0.2, t = 0.2)
movej(p[0.362226235242786, -0.105603995561087, 0.359091621117578, -1.14872743769425, 1.14846136722188, -1.15328495964104], a = 0.2, v = 0.2, t = 0.2)
movej(p[0.362226235242786, -0.105603995561087, 0.359091621117578, -1.1491228582903, 1.14791158718218, -1.15275426806457], a = 0.2, v = 0.2, t = 0.2)
movej(p[0.364227112487536, -0.106044705443383, 0.358499850172796, -1.15437229184161, 1.13621015697071, -1.16347938014823], a = 0.2, v = 0.2, t = 0.2)
movej(p[0.365588031268926, -0.106401495079079, 0.358109146299871, -1.15754419120705, 1.1294824188618, -1.17086577569898], a = 0.2, v = 0.2, t = 0.2)
movej(p[0.367130047100461, -0.106786365408866, 0.357648724043084, -1.17159251731775, 1.119551396738, -1.18515285375052], a = 0.2, v = 0.2, t = 0.2)
movej(p[0.368105496879324, -0.10698496838503, 0.357445327000885, -1.16104714314989, 1.12198125471371, -1.18612133008775], a = 0.2, v = 0.2, t = 0.2)
movej(p[0.368123495355773, -0.10698706004439, 0.357444807571727, -1.16014949449209, 1.12241089589382, -1.18603937177593], a = 0.2, v = 0.2, t = 0.2)
movej(p[0.368440930077805, -0.107274916437584, 0.357365141053381, -1.15996212998574, 1.1222362771377, -1.18614716451805], a = 0.2, v = 0.2, t = 0.2)
movej(p[0.369248944990991, -0.107583485276091, 0.357133190817399, -1.16355172537339, 1.11879261829593, -1.18754959474625], a = 0.2, v = 0.2, t = 0.2)
movej(p[0.370033961526759, -0.107759897675882, 0.356901641008999, -1.16715632889886, 1.11601453587868, -1.19096487542155], a = 0.2, v = 0.2, t = 0.2)
movej(p[0.370504392322837, -0.107907948087504, 0.356772554364764, -1.17292394774904, 1.10971484035397, -1.19417148643025], a = 0.2, v = 0.2, t = 0.2)
movej(p[0.371443954441601, -0.108218716551168, 0.356520043380892, -1.18042414902339, 1.10314599778759, -1.19827858245076], a = 0.2, v = 0.2, t = 0.2)
movej(p[0.37165964942306, -0.108248234790939, 0.356432087491413, -1.1817547514192, 1.10128437306532, -1.19642558160543], a = 0.2, v = 0.2, t = 0.2)
movej(p[0.371821322514225, -0.108237809750759, 0.356375879038929, -1.17600531200251, 1.10525944314567, -1.18984036746502], a = 0.2, v = 0.2, t = 0.2)
movej(p[0.3720865167974, -0.108437065183613, 0.356320005300469, -1.16278240730211, 1.11104196665117, -1.18942581500084], a = 0.2, v = 0.2, t = 0.2)
movej(p[0.372173053120512, -0.108431404336567, 0.356298272615568, -1.15822221755812, 1.11319061135273, -1.18844052201074], a = 0.2, v = 0.2, t = 0.2)
movej(p[0.372165661794388, -0.108322459864612, 0.356297218894245, -1.15822221755812, 1.11319061135273, -1.18844052201074], a = 0.2, v = 0.2, t = 0.2)
movej(p[0.371373333237684, -0.107999149594798, 0.356513125489016, -1.16223154731784, 1.11232299995282, -1.18935277798164], a = 0.2, v = 0.2, t = 0.2)
movej(p[0.370738327925584, -0.107808942367926, 0.356683414579826, -1.16482434519453, 1.11473778443232, -1.18788060596934], a = 0.2, v = 0.2, t = 0.2)
movej(p[0.370118776984761, -0.107625150836073, 0.356848861019938, -1.16743429224741, 1.11718952954993, -1.18640194734807], a = 0.2, v = 0.2, t = 0.2)
movej(p[0.368080901670398, -0.106925738138139, 0.357409719086721, -1.17135566175675, 1.12246007254497, -1.18256655780739], a = 0.2, v = 0.2, t = 0.2)
movej(p[0.365934668592736, -0.106362370535243, 0.358033541169014, -1.16023344886176, 1.13303908791876, -1.17689187567968], a = 0.2, v = 0.2, t = 0.2)
movej(p[0.364863974709355, -0.106283515516314, 0.358359116880762, -1.16044565035411, 1.13460042902596, -1.17528177656465], a = 0.2, v = 0.2, t = 0.2)
movej(p[0.364863974709355, -0.106283515516314, 0.358359116880762, -1.16380804381775, 1.12976774297856, -1.17066229822566], a = 0.2, v = 0.2, t = 0.2)
movej(p[0.365696185089761, -0.106350519171214, 0.358133615011649, -1.16661553600918, 1.12610932895977, -1.1744538164583], a = 0.2, v = 0.2, t = 0.2)
movej(p[0.366233438790539, -0.106468483146516, 0.357983081555131, -1.16578509619586, 1.12418471552136, -1.17460730532849], a = 0.2, v = 0.2, t = 0.2)
movej(p[0.367187475528316, -0.10688826458673, 0.357705945658098, -1.16800601240633, 1.1209912990587, -1.1787415817547], a = 0.2, v = 0.2, t = 0.2)
movej(p[0.368903552931552, -0.107421905094747, 0.357224422611605, -1.17814755254904, 1.10975623388278, -1.1899886896757], a = 0.2, v = 0.2, t = 0.2)
movej(p[0.369338444056735, -0.107570654777567, 0.357085792235791, -1.18554271570196, 1.10410865822755, -1.19671759787072], a = 0.2, v = 0.2, t = 0.2)
movej(p[0.369898064928709, -0.107758132002641, 0.356918207452085, -1.18792381295281, 1.10245984637165, -1.19945094277522], a = 0.2, v = 0.2, t = 0.2)
movej(p[0.370551334452417, -0.108039750966288, 0.356723661342616, -1.18478267126082, 1.10230129090168, -1.20322892056985], a = 0.2, v = 0.2, t = 0.2)
movej(p[0.371044368059139, -0.108092467530015, 0.356592592175565, -1.18349578532117, 1.10067609263097, -1.20436987497374], a = 0.2, v = 0.2, t = 0.2)
movej(p[0.37173270614991, -0.108305930976104, 0.356358912052368, -1.18288254896771, 1.09875918997684, -1.20422926745025], a = 0.2, v = 0.2, t = 0.2)
movej(p[0.371741807782829, -0.108363783130267, 0.356355509327432, -1.18340893599315, 1.09833407031095, -1.20464721338286], a = 0.2, v = 0.2, t = 0.2)
movej(p[0.37183380473843, -0.108357735530702, 0.356335459472082, -1.18087886098009, 1.0986297973742, -1.2032737768868], a = 0.2, v = 0.2, t = 0.2)
movej(p[0.371885838719391, -0.108354189369782, 0.356337105548668, -1.17923453355962, 1.10002653547571, -1.20458455000196], a = 0.2, v = 0.2, t = 0.2)
movej(p[0.371875760253641, -0.108205637795844, 0.356335668743678, -1.17748469719926, 1.10127621033933, -1.20298137307434], a = 0.2, v = 0.2, t = 0.2)
movej(p[0.371629292392945, -0.107939158546763, 0.356432891238262, -1.17436079613318, 1.10388812850246, -1.20085592425844], a = 0.2, v = 0.2, t = 0.2)
movej(p[0.371419465053525, -0.107933056349561, 0.35648370443361, -1.1732746537758, 1.10472113836719, -1.1995719053185], a = 0.2, v = 0.2, t = 0.2)
movej(p[0.369555314579588, -0.107417901755875, 0.357004591000075, -1.17319041229083, 1.11353930923178, -1.19306698767752], a = 0.2, v = 0.2, t = 0.2)
movej(p[0.367475521685465, -0.106895922455851, 0.357577785022987, -1.16364422667393, 1.12531446183738, -1.18083744275736], a = 0.2, v = 0.2, t = 0.2)
movej(p[0.365852213028078, -0.106380341330333, 0.358059693422854, -1.16072988919093, 1.13188819785844, -1.17452059019307], a = 0.2, v = 0.2, t = 0.2)
movej(p[0.365214580233775, -0.106280061324984, 0.358236309532416, -1.15725324122094, 1.13420395150145, -1.17051916504674], a = 0.2, v = 0.2, t = 0.2)
movej(p[0.365214580233775, -0.106280061324984, 0.358236309532416, -1.15747523449423, 1.13394334020489, -1.17023375507985], a = 0.2, v = 0.2, t = 0.2)
movej(p[0.365239334173213, -0.106345674892446, 0.358222264168509, -1.16191395478096, 1.12940396778117, -1.17006786000689], a = 0.2, v = 0.2, t = 0.2)
movej(p[0.366582124274495, -0.106761380939726, 0.357846951117641, -1.16371410503142, 1.11902012817375, -1.1758341964636], a = 0.2, v = 0.2, t = 0.2)
movej(p[0.367442076190718, -0.107073461685725, 0.357581931194311, -1.16629119151715, 1.11565348610638, -1.180052039817], a = 0.2, v = 0.2, t = 0.2)
movej(p[0.368583817522173, -0.107446123117757, 0.357243107775517, -1.16859261149559, 1.11235310143009, -1.18453529632686], a = 0.2, v = 0.2, t = 0.2)
movej(p[0.369359504419216, -0.107656370764889, 0.357029736632597, -1.17222232238027, 1.10930705732609, -1.18928646820855], a = 0.2, v = 0.2, t = 0.2)
movej(p[0.369961985428994, -0.107925915054173, 0.35681281600432, -1.18110289307921, 1.10294792528774, -1.19864502971892], a = 0.2, v = 0.2, t = 0.2)
movej(p[0.370426491344093, -0.108065423291418, 0.356665408960463, -1.18675795321673, 1.09831967289415, -1.20292846024498], a = 0.2, v = 0.2, t = 0.2)
movej(p[0.370800391072717, -0.108200957816835, 0.356538437879682, -1.18589576352384, 1.09750734066557, -1.20340470788032], a = 0.2, v = 0.2, t = 0.2)
movej(p[0.371584785597764, -0.108370502545935, 0.3563373251901, -1.18299062449116, 1.09687765394926, -1.2053668753488], a = 0.2, v = 0.2, t = 0.2)
movej(p[0.37193807551137, -0.108457168160415, 0.356215489775663, -1.18056982190655, 1.097614641532, -1.20530153264417], a = 0.2, v = 0.2, t = 0.2)
movej(p[0.371977134308056, -0.108454485134341, 0.356218910561034, -1.18049109825937, 1.09758041825588, -1.20535953855239], a = 0.2, v = 0.2, t = 0.2)
movej(p[0.371964300496638, -0.108290397706879, 0.356236749267075, -1.17720380088809, 1.10021619311478, -1.20229173017161], a = 0.2, v = 0.2, t = 0.2)
movej(p[0.371193322351141, -0.107970460760018, 0.356482651705451, -1.17801192904956, 1.10394030774328, -1.19955996750471], a = 0.2, v = 0.2, t = 0.2)
movej(p[0.370426220110656, -0.107712353699337, 0.356713263213986, -1.17629807446205, 1.10834124713217, -1.19663433685681], a = 0.2, v = 0.2, t = 0.2)
movej(p[0.369354124067793, -0.107350777695334, 0.357054832003847, -1.16506366507598, 1.11941903825366, -1.190864949995], a = 0.2, v = 0.2, t = 0.2)
movej(p[0.367226320270082, -0.106751928272843, 0.357673616019177, -1.15983636812364, 1.13069522170963, -1.18241508349032], a = 0.2, v = 0.2, t = 0.2)
movej(p[0.364702635109507, -0.106293454994432, 0.358307739353615, -1.15084616219028, 1.14051518624767, -1.16788333869279], a = 0.2, v = 0.2, t = 0.2)
movej(p[0.362252677745568, -0.105744508044735, 0.358959647423284, -1.14877771654125, 1.1485628395765, -1.15737494015594], a = 0.2, v = 0.2, t = 0.2)
movej(p[0.360436424005549, -0.105262160639557, 0.359421218298215, -1.14491019481219, 1.15140720134059, -1.14806461154667], a = 0.2, v = 0.2, t = 0.2)
movej(p[0.360436424005549, -0.105262160639557, 0.359421218298215, -1.14835952344212, 1.14663964628347, -1.14344606991019], a = 0.2, v = 0.2, t = 0.2)
movej(p[0.362814319654731, -0.105796040300619, 0.358791032707215, -1.14434644382819, 1.1394696700634, -1.14887479899061], a = 0.2, v = 0.2, t = 0.2)
movej(p[0.364336341957022, -0.106177132835366, 0.3583950948443, -1.15326048590397, 1.12842705726503, -1.16285211587647], a = 0.2, v = 0.2, t = 0.2)
movej(p[0.365568953035753, -0.10658725882398, 0.358022330505805, -1.15967852423455, 1.12112047642332, -1.17315682287983], a = 0.2, v = 0.2, t = 0.2)
movej(p[0.366353712856031, -0.106775819200189, 0.357811281935565, -1.16218828953296, 1.11943404124532, -1.17602539191483], a = 0.2, v = 0.2, t = 0.2)
movej(p[0.367239247485169, -0.107137709189111, 0.357512655552746, -1.16537868630852, 1.11733716858566, -1.17984690993411], a = 0.2, v = 0.2, t = 0.2)
movej(p[0.368262498735837, -0.107370530101723, 0.3572498393039, -1.16796378329414, 1.11493213622547, -1.18350238255295], a = 0.2, v = 0.2, t = 0.2)
movej(p[0.368588258231892, -0.107506847481804, 0.357130889765785, -1.17146309521368, 1.11025170005028, -1.19148019770019], a = 0.2, v = 0.2, t = 0.2)
movej(p[0.369169318713331, -0.107598477826267, 0.356991434479462, -1.17146309521368, 1.11025170005028, -1.19148019770019], a = 0.2, v = 0.2, t = 0.2)
movej(p[0.36968645607736, -0.107692464399126, 0.356890944475741, -1.16794446698452, 1.11068775220119, -1.19478115624369], a = 0.2, v = 0.2, t = 0.2)
movej(p[0.370065318573704, -0.107805142209788, 0.356770949893162, -1.16827823616126, 1.10899884016524, -1.19669590164712], a = 0.2, v = 0.2, t = 0.2)
movej(p[0.370554618604941, -0.107921852187278, 0.356630454517489, -1.16885493651041, 1.10839951709941, -1.19669875470278], a = 0.2, v = 0.2, t = 0.2)
movej(p[0.370554618604941, -0.107921852187278, 0.356630454517489, -1.16996019799315, 1.10916379314193, -1.19636168242753], a = 0.2, v = 0.2, t = 0.2)
movej(p[0.370273358434584, -0.107826963641144, 0.356734493598527, -1.16985525085485, 1.10932016973426, -1.19651090318217], a = 0.2, v = 0.2, t = 0.2)
movej(p[0.370177095287549, -0.107832785435089, 0.356745635108213, -1.16943273119473, 1.10960054935568, -1.19604165639933], a = 0.2, v = 0.2, t = 0.2)
movej(p[0.370080832140513, -0.107838607229034, 0.356756776617898, -1.16901518547823, 1.10988531469738, -1.19556681160251], a = 0.2, v = 0.2, t = 0.2)
movej(p[0.369063014743549, -0.107501312101671, 0.357067465841232, -1.16601635835165, 1.11472354007165, -1.1898502684707], a = 0.2, v = 0.2, t = 0.2)
movej(p[0.369059669393094, -0.107456504222441, 0.357070519132766, -1.16661681417977, 1.11547133468553, -1.18957421378707], a = 0.2, v = 0.2, t = 0.2)
movej(p[0.369060663255605, -0.107456435952057, 0.357070606175651, -1.16713286765953, 1.11512224858264, -1.19016187425005], a = 0.2, v = 0.2, t = 0.2)
movej(p[0.369763439845552, -0.107664899489652, 0.356889874335302, -1.1682622702861, 1.1105787525386, -1.19197688786921], a = 0.2, v = 0.2, t = 0.2)
movej(p[0.371199588680774, -0.108033774512268, 0.356494078073596, -1.17291610040017, 1.1044592121094, -1.19969434254285], a = 0.2, v = 0.2, t = 0.2)
movej(p[0.372027049686069, -0.108297586714665, 0.356245098362408, -1.17286038338174, 1.10072393693534, -1.20355412338395], a = 0.2, v = 0.2, t = 0.2)
movej(p[0.372027049686069, -0.108297586714665, 0.356245098362408, -1.17286038338174, 1.10072393693534, -1.20355412338395], a = 0.2, v = 0.2, t = 0.2)
movej(p[0.371831678627922, -0.108036066608642, 0.356393506730719, -1.17420293490839, 1.10436153784953, -1.2010801207166], a = 0.2, v = 0.2, t = 0.2)
movej(p[0.36954587796948, -0.107377588240006, 0.35703131890362, -1.16727779422659, 1.11659635723338, -1.18988224917247], a = 0.2, v = 0.2, t = 0.2)
movej(p[0.367585974691218, -0.106690368067321, 0.357660406611427, -1.1622380266833, 1.12596153383482, -1.17859091823957], a = 0.2, v = 0.2, t = 0.2)
movej(p[0.365717761891436, -0.106193024200844, 0.358181905962536, -1.15897371107386, 1.13370762109803, -1.16977004620633], a = 0.2, v = 0.2, t = 0.2)
movej(p[0.362080574298815, -0.105499416767829, 0.359028747709826, -1.14550215665754, 1.14712529822518, -1.15155125049378], a = 0.2, v = 0.2, t = 0.2)
movej(p[0.35932308698998, -0.104861315766375, 0.359718061501621, -1.14020623175425, 1.15484946262512, -1.14057531528621], a = 0.2, v = 0.2, t = 0.2)
movej(p[0.35932308698998, -0.104861315766375, 0.359718061501621, -1.14580360919561, 1.1471800326977, -1.13311032870294], a = 0.2, v = 0.2, t = 0.2)
movej(p[0.360214544118049, -0.105066250230355, 0.359480306681924, -1.15078883888245, 1.13807334720896, -1.14217131245554], a = 0.2, v = 0.2, t = 0.2)
movej(p[0.362818883489207, -0.105721879893787, 0.358788748966139, -1.15276018302394, 1.1288652425498, -1.15324202398838], a = 0.2, v = 0.2, t = 0.2)
movej(p[0.364288546757588, -0.106264275197607, 0.358301475468024, -1.15314856463084, 1.12643584225305, -1.16157011687538], a = 0.2, v = 0.2, t = 0.2)
movej(p[0.365656115656643, -0.106646383595187, 0.35794086272721, -1.15956493790266, 1.12261123383163, -1.17042782683401], a = 0.2, v = 0.2, t = 0.2)
movej(p[0.366743734641171, -0.106943871272083, 0.357639469484769, -1.16954306945426, 1.11588990678936, -1.18184812250446], a = 0.2, v = 0.2, t = 0.2)
movej(p[0.368188074508677, -0.107345402800565, 0.357240096965976, -1.17143412470872, 1.11185865493169, -1.18578535376186], a = 0.2, v = 0.2, t = 0.2)
movej(p[0.369585935628226, -0.107688532298958, 0.356862625791199, -1.17299603360311, 1.10733529356223, -1.19122269510238], a = 0.2, v = 0.2, t = 0.2)
movej(p[0.370050255864004, -0.107874842469354, 0.356706943810695, -1.17574190415137, 1.1057036106675, -1.19857042408596], a = 0.2, v = 0.2, t = 0.2)
movej(p[0.370836823914717, -0.108025999230023, 0.356526332057752, -1.17482101245775, 1.10486768014559, -1.19942709619496], a = 0.2, v = 0.2, t = 0.2)
movej(p[0.371144188564685, -0.108107187226038, 0.356453546473649, -1.17225696331756, 1.1072253601944, -1.20256010628005], a = 0.2, v = 0.2, t = 0.2)
movej(p[0.371364424952535, -0.108149046592112, 0.356394645226304, -1.16627346385328, 1.10974820673924, -1.20230260060009], a = 0.2, v = 0.2, t = 0.2)
movej(p[0.372022191651422, -0.108175199815232, 0.356289591579267, -1.15869743081894, 1.11155568480442, -1.2026829004479], a = 0.2, v = 0.2, t = 0.2)
movej(p[0.372022191651422, -0.108175199815232, 0.356289591579267, -1.15869743081894, 1.11155568480442, -1.2026829004479], a = 0.2, v = 0.2, t = 0.2)
movej(p[0.371699299707946, -0.107967668257544, 0.356445169358536, -1.16323524625946, 1.11118858444328, -1.19974528198797], a = 0.2, v = 0.2, t = 0.2)
movej(p[0.370547612643705, -0.107553876175337, 0.356826232711226, -1.17205112477109, 1.11241470048284, -1.19320318872576], a = 0.2, v = 0.2, t = 0.2)
movej(p[0.369102512324278, -0.107061048048049, 0.357291353635014, -1.17609715312852, 1.11620367603736, -1.19090897910401], a = 0.2, v = 0.2, t = 0.2)
movej(p[0.368141250718392, -0.10676135075501, 0.357598115346435, -1.16602997507275, 1.12710585436362, -1.18654519976103], a = 0.2, v = 0.2, t = 0.2)
movej(p[0.365753759015485, -0.106149171579449, 0.358224758088002, -1.1567996972949, 1.13762288898179, -1.17133087327287], a = 0.2, v = 0.2, t = 0.2)
movej(p[0.363279365818187, -0.105638577370862, 0.358803187607757, -1.15700678699254, 1.14478137629994, -1.16351988515593], a = 0.2, v = 0.2, t = 0.2)
movej(p[0.360516348451309, -0.105141697577187, 0.359418254588635, -1.14765255140622, 1.14964273820235, -1.1480106006526], a = 0.2, v = 0.2, t = 0.2)
movej(p[0.360516348451309, -0.105141697577187, 0.359418254588635, -1.14914394669745, 1.14757633991676, -1.14601248286583], a = 0.2, v = 0.2, t = 0.2)
movej(p[0.361769751748429, -0.105369990158047, 0.359128455757906, -1.14392967520742, 1.14010618678103, -1.14969693863111], a = 0.2, v = 0.2, t = 0.2)
movej(p[0.364426626166473, -0.106028716106468, 0.358452967947785, -1.14703392605025, 1.12993470221733, -1.16099364329245], a = 0.2, v = 0.2, t = 0.2)
movej(p[0.365490765437043, -0.106426130423355, 0.358099389365905, -1.15822414235101, 1.12137497876663, -1.17009162687872], a = 0.2, v = 0.2, t = 0.2)
movej(p[0.366961768194607, -0.106833537300565, 0.357693145124544, -1.16799893987991, 1.11445705546215, -1.18022936104161], a = 0.2, v = 0.2, t = 0.2)
movej(p[0.368282804329918, -0.107314580051187, 0.35723374723461, -1.17175075624573, 1.11114224587831, -1.18533386452329], a = 0.2, v = 0.2, t = 0.2)
movej(p[0.369774142513797, -0.107705398861839, 0.356835049945247, -1.1673625313516, 1.1108958044188, -1.18916573890226], a = 0.2, v = 0.2, t = 0.2)
movej(p[0.370937376016873, -0.10792027523854, 0.356585466331884, -1.1580249223275, 1.11383906519886, -1.19820895126852], a = 0.2, v = 0.2, t = 0.2)
movej(p[0.371484066451945, -0.108046333637015, 0.356443822664977, -1.15500132568427, 1.11485463902144, -1.20070980385543], a = 0.2, v = 0.2, t = 0.2)
movej(p[0.371773892096237, -0.108061087719722, 0.356398562495356, -1.15329994536813, 1.11600012702797, -1.19892032400094], a = 0.2, v = 0.2, t = 0.2)
movej(p[0.371963512021748, -0.108075748484533, 0.35637150411728, -1.15107727657557, 1.11716668867304, -1.20133140032882], a = 0.2, v = 0.2, t = 0.2)
movej(p[0.37212262922009, -0.108064972783081, 0.356369478913579, -1.14695043706151, 1.11721773525826, -1.20141286418855], a = 0.2, v = 0.2, t = 0.2)
movej(p[0.372222158187148, -0.108023456032782, 0.356378066937858, -1.14695043706151, 1.11721773525826, -1.20141286418855], a = 0.2, v = 0.2, t = 0.2)
movej(p[0.372216000357387, -0.107975644350139, 0.356410877365095, -1.1555509451996, 1.11425329182457, -1.20023288076782], a = 0.2, v = 0.2, t = 0.2)
movej(p[0.370932800144032, -0.107602606205416, 0.356796401456465, -1.1624374394781, 1.12073568760631, -1.19629477974257], a = 0.2, v = 0.2, t = 0.2)
movej(p[0.369740142722103, -0.107230278313035, 0.357157356085848, -1.16023492248966, 1.12550590469519, -1.19015962181405], a = 0.2, v = 0.2, t = 0.2)
movej(p[0.368264991333944, -0.106827293295461, 0.357570781275722, -1.16182894252634, 1.12995492206621, -1.18606327229943], a = 0.2, v = 0.2, t = 0.2)
movej(p[0.367971188380769, -0.106771905057366, 0.357637626079459, -1.16358573052504, 1.13051742463655, -1.18199209852668], a = 0.2, v = 0.2, t = 0.2)
movej(p[0.366833786559747, -0.106457733301018, 0.357971627000189, -1.1663379726455, 1.13295335763753, -1.17922539126422], a = 0.2, v = 0.2, t = 0.2)
movej(p[0.364391601054357, -0.105851761583173, 0.358599210719253, -1.15396139096611, 1.14283112500282, -1.16254713831574], a = 0.2, v = 0.2, t = 0.2)
movej(p[0.360888468176818, -0.105111295556115, 0.359402039564701, -1.14296314442411, 1.14986250928267, -1.14980492104642], a = 0.2, v = 0.2, t = 0.2)
movej(p[0.360888468176818, -0.105111295556115, 0.359402039564701, -1.14462140773093, 1.14676407784174, -1.14731767347844], a = 0.2, v = 0.2, t = 0.2)
movej(p[0.362570926493545, -0.105562177961357, 0.358935024565882, -1.14172400250804, 1.13943536344949, -1.15268850232281], a = 0.2, v = 0.2, t = 0.2)
movej(p[0.365279144112855, -0.106377496764794, 0.358145369713924, -1.15831796788548, 1.12506552703365, -1.17048250474876], a = 0.2, v = 0.2, t = 0.2)
movej(p[0.366001154478076, -0.106754804530967, 0.357814267536193, -1.15910621414567, 1.12033738828514, -1.17548858335645], a = 0.2, v = 0.2, t = 0.2)
movej(p[0.367058196904299, -0.107183428532688, 0.357413401742797, -1.16312624782308, 1.11746373689792, -1.18025741481229], a = 0.2, v = 0.2, t = 0.2)
movej(p[0.367932399101506, -0.107512097317023, 0.357115865108748, -1.17000603589603, 1.11221363230036, -1.18873699006146], a = 0.2, v = 0.2, t = 0.2)
movej(p[0.368961332980045, -0.107768393524598, 0.356852530915038, -1.16501080570636, 1.11439080330948, -1.1939694341499], a = 0.2, v = 0.2, t = 0.2)
movej(p[0.370103541257867, -0.107910874449364, 0.356659858534679, -1.15146125122553, 1.11832665029661, -1.19667805320069], a = 0.2, v = 0.2, t = 0.2)
movej(p[0.370336966367192, -0.10798655316938, 0.356587183438026, -1.14325052629885, 1.12541922028389, -1.19898935702182], a = 0.2, v = 0.2, t = 0.2)
movej(p[0.370640215907284, -0.108015716817465, 0.356553897133576, -1.1406693269439, 1.12606663296559, -1.20000640388692], a = 0.2, v = 0.2, t = 0.2)
movej(p[0.370983914567325, -0.108015651872441, 0.356533290657212, -1.1366277550636, 1.12808752771068, -1.20047717136365], a = 0.2, v = 0.2, t = 0.2)
movej(p[0.371379533144938, -0.108004729800619, 0.356514493865076, -1.13444836961812, 1.12602950574958, -1.20174778775863], a = 0.2, v = 0.2, t = 0.2)
movej(p[0.371992299684009, -0.108003747997725, 0.356483788089426, -1.13413266181316, 1.12548320384924, -1.20184622293713], a = 0.2, v = 0.2, t = 0.2)
movej(p[0.371992299684009, -0.108003747997725, 0.356483788089426, -1.13449722057196, 1.12477506640412, -1.20263449443523], a = 0.2, v = 0.2, t = 0.2)
movej(p[0.371977606008864, -0.107959906011137, 0.356508033421404, -1.13592833773453, 1.12272738161826, -1.20062914541142], a = 0.2, v = 0.2, t = 0.2)
movej(p[0.371557687520726, -0.10785418050534, 0.3565910192078, -1.1619730864863, 1.10895616822764, -1.1977674511498], a = 0.2, v = 0.2, t = 0.2)
movej(p[0.371215659786969, -0.107800300765809, 0.356653633766882, -1.1682322064722, 1.10795046813418, -1.19630890417511], a = 0.2, v = 0.2, t = 0.2)
movej(p[0.370380918331663, -0.107496963680009, 0.356957039378518, -1.17242460001707, 1.11187884051726, -1.19394405807005], a = 0.2, v = 0.2, t = 0.2)
movej(p[0.368838312822911, -0.107025843003814, 0.357426626242506, -1.16478438653103, 1.12103006558579, -1.18627159771294], a = 0.2, v = 0.2, t = 0.2)
movej(p[0.366287562356957, -0.106481219157205, 0.35800695609366, -1.15874788105511, 1.13357675460559, -1.17508668037048], a = 0.2, v = 0.2, t = 0.2)
movej(p[0.364102288469474, -0.106003531031953, 0.35852336638759, -1.15480748080469, 1.13927989701097, -1.16716478697516], a = 0.2, v = 0.2, t = 0.2)
movej(p[0.362848582731343, -0.105789084421139, 0.358730974174751, -1.14859255506053, 1.14327574926972, -1.15994224464826], a = 0.2, v = 0.2, t = 0.2)
movej(p[0.362848582731343, -0.105789084421139, 0.358730974174751, -1.1483583253109, 1.13763597642562, -1.15828398520613], a = 0.2, v = 0.2, t = 0.2)
movej(p[0.364915466505809, -0.106264247733943, 0.358217908497652, -1.15634066324776, 1.12264428662781, -1.1697134862387], a = 0.2, v = 0.2, t = 0.2)
movej(p[0.36609535309797, -0.106785766481231, 0.357724579646007, -1.15714308582393, 1.11799195120883, -1.17491152215809], a = 0.2, v = 0.2, t = 0.2)
movej(p[0.367071034714576, -0.107108182853131, 0.357403107164839, -1.16255920221096, 1.1123078880574, -1.18273227109975], a = 0.2, v = 0.2, t = 0.2)
movej(p[0.368180327626037, -0.107422099743299, 0.357106087918578, -1.16695766767329, 1.10929283937423, -1.18768880957699], a = 0.2, v = 0.2, t = 0.2)
movej(p[0.368949725171197, -0.107759962221184, 0.356779704258541, -1.1730241384128, 1.10495379187069, -1.19403434326363], a = 0.2, v = 0.2, t = 0.2)
movej(p[0.370084097953423, -0.107961630595219, 0.356564378161983, -1.1768594754686, 1.10131736541909, -1.19673224517232], a = 0.2, v = 0.2, t = 0.2)
movej(p[0.370662570283386, -0.108113976048862, 0.356414782018243, -1.1796089108424, 1.0989910348861, -1.19962817341525], a = 0.2, v = 0.2, t = 0.2)
movej(p[0.370917133127022, -0.108191393661053, 0.35634567657734, -1.18279393877494, 1.09663002506906, -1.20282103495252], a = 0.2, v = 0.2, t = 0.2)
movej(p[0.371336363869733, -0.108282123999788, 0.356263377792422, -1.18653483326415, 1.09454570535782, -1.20567404402731], a = 0.2, v = 0.2, t = 0.2)
movej(p[0.371665124179111, -0.108347719658497, 0.356201749482883, -1.18794084054559, 1.09343671033628, -1.20690125951521], a = 0.2, v = 0.2, t = 0.2)
movej(p[0.371934158776431, -0.108334124013735, 0.356217700466807, -1.18703111623858, 1.09251785265744, -1.20746169547492], a = 0.2, v = 0.2, t = 0.2)
movej(p[0.372468833267116, -0.108358460234431, 0.356179426358419, -1.18826337634557, 1.09168296292047, -1.20896737527208], a = 0.2, v = 0.2, t = 0.2)
movej(p[0.372522680102981, -0.108369846518154, 0.356178978239665, -1.18891672310498, 1.09230699298142, -1.20861202742487], a = 0.2, v = 0.2, t = 0.2)
movej(p[0.372521209821451, -0.108354862385218, 0.356184013518445, -1.18523552299039, 1.09613862264868, -1.2082752088186], a = 0.2, v = 0.2, t = 0.2)
movej(p[0.372195769963706, -0.108118463313772, 0.3563885496962, -1.17864275380887, 1.10183026585888, -1.20296511393794], a = 0.2, v = 0.2, t = 0.2)
movej(p[0.370773329845919, -0.10759010220228, 0.356896787580632, -1.16653324409251, 1.11634245865643, -1.19422916613349], a = 0.2, v = 0.2, t = 0.2)
movej(p[0.369402356080687, -0.107173939621042, 0.357330457144959, -1.16569603413491, 1.12285246339754, -1.18894416698277], a = 0.2, v = 0.2, t = 0.2)
movej(p[0.367860735105407, -0.106729575859913, 0.35778336503446, -1.1557179908236, 1.13348395450465, -1.17936855121988], a = 0.2, v = 0.2, t = 0.2)
movej(p[0.366000341716037, -0.10633755565849, 0.358190197553396, -1.15826640470574, 1.13873019135657, -1.17473399744649], a = 0.2, v = 0.2, t = 0.2)
movej(p[0.36394868212769, -0.105816362288009, 0.358702421834462, -1.14996211848561, 1.14498351655954, -1.16345338357554], a = 0.2, v = 0.2, t = 0.2)
movej(p[0.363784794199612, -0.105827620074256, 0.358688068462766, -1.15058847177985, 1.14410522763581, -1.16260717782247], a = 0.2, v = 0.2, t = 0.2)
movej(p[0.363791979229251, -0.105868710545826, 0.358638257736058, -1.14931271296631, 1.13636740149602, -1.16244567010142], a = 0.2, v = 0.2, t = 0.2)
movej(p[0.365738968360519, -0.106321644928041, 0.358186555070437, -1.1597651599827, 1.12172050523433, -1.17206718081162], a = 0.2, v = 0.2, t = 0.2)
movej(p[0.366591192776578, -0.106770506347601, 0.357700013786778, -1.16041618459827, 1.11832393743056, -1.17600049493741], a = 0.2, v = 0.2, t = 0.2)
movej(p[0.36744826420697, -0.107099828164943, 0.357392944032767, -1.16723194078186, 1.1122141001545, -1.18537913706336], a = 0.2, v = 0.2, t = 0.2)
movej(p[0.368306832761229, -0.107392704828446, 0.357071214149772, -1.1690500927203, 1.10951408884518, -1.1868652279182], a = 0.2, v = 0.2, t = 0.2)
movej(p[0.36914986900808, -0.107658041490487, 0.356824812785586, -1.17398145019417, 1.10495718915907, -1.19305941654116], a = 0.2, v = 0.2, t = 0.2)
movej(p[0.370196269952675, -0.107961536094376, 0.35653347389604, -1.17956296167493, 1.09961773784593, -1.19975270320754], a = 0.2, v = 0.2, t = 0.2)
movej(p[0.370459399987827, -0.108069867430016, 0.356399985033886, -1.17879183931775, 1.09860930607868, -1.20047559053067], a = 0.2, v = 0.2, t = 0.2)
movej(p[0.370925928748984, -0.108175849810989, 0.356284754612832, -1.17967463855109, 1.09821180962714, -1.20216162024589], a = 0.2, v = 0.2, t = 0.2)
movej(p[0.371200492765375, -0.1082360249131, 0.35626211398587, -1.17979194729047, 1.09824526100528, -1.20265558858954], a = 0.2, v = 0.2, t = 0.2)
movej(p[0.37134187707204, -0.108230772910859, 0.356238273803374, -1.17969296264749, 1.09812900964131, -1.2027343165489], a = 0.2, v = 0.2, t = 0.2)
movej(p[0.371678515754623, -0.108315129014211, 0.356171484393913, -1.1792260596997, 1.09679755306238, -1.20379466316951], a = 0.2, v = 0.2, t = 0.2)
movej(p[0.371954710146454, -0.108296156674623, 0.356195673611586, -1.1812259670813, 1.09450167896845, -1.20326182592243], a = 0.2, v = 0.2, t = 0.2)
movej(p[0.371925304233757, -0.108115551423563, 0.356389778443025, -1.1820037215419, 1.09523287853057, -1.20283359234431], a = 0.2, v = 0.2, t = 0.2)
movej(p[0.371026994889485, -0.10769352331027, 0.35685028661188, -1.16866316319531, 1.11035620093245, -1.19599976991179], a = 0.2, v = 0.2, t = 0.2)
movej(p[0.36973179650419, -0.107328861845241, 0.357241513782017, -1.16864818939613, 1.11808398460344, -1.19066767955105], a = 0.2, v = 0.2, t = 0.2)
movej(p[0.368427220981102, -0.106877125064953, 0.357726659261121, -1.16511363479363, 1.12915590679275, -1.183499303317], a = 0.2, v = 0.2, t = 0.2)
movej(p[0.367490712717021, -0.106637059911137, 0.357943461759333, -1.16127716634009, 1.13476926264754, -1.1777190009724], a = 0.2, v = 0.2, t = 0.2)
movej(p[0.365646680459663, -0.106305243244201, 0.358249762254544, -1.15442489012515, 1.14254439394619, -1.16934375142479], a = 0.2, v = 0.2, t = 0.2)
movej(p[0.363594894090081, -0.105789825601907, 0.358777155084993, -1.14880825436804, 1.14877296554087, -1.16003618193291], a = 0.2, v = 0.2, t = 0.2)
movej(p[0.363594894090081, -0.105789825601907, 0.358777155084993, -1.1500871158189, 1.14698873230418, -1.15831703812967], a = 0.2, v = 0.2, t = 0.2)
movej(p[0.363864217425284, -0.105927930498244, 0.35856873032945, -1.1461557918789, 1.13533134526235, -1.16211620602574], a = 0.2, v = 0.2, t = 0.2)
movej(p[0.365703791681211, -0.106501073096609, 0.35796609377325, -1.15319361632378, 1.12075691856172, -1.1721115389389], a = 0.2, v = 0.2, t = 0.2)
movej(p[0.367112364045959, -0.106994093726482, 0.357467850176415, -1.16369813083628, 1.11367482768649, -1.18408220509507], a = 0.2, v = 0.2, t = 0.2)
movej(p[0.368301323436212, -0.107432725047029, 0.357024199477142, -1.17001256029821, 1.10843346154476, -1.18792214329125], a = 0.2, v = 0.2, t = 0.2)
movej(p[0.369060082105085, -0.107686762185231, 0.35673401397643, -1.17635879452277, 1.10593214175245, -1.19419501544544], a = 0.2, v = 0.2, t = 0.2)
movej(p[0.369876275212717, -0.10797385867657, 0.356446988288179, -1.17968465001795, 1.10364008018753, -1.19799676365302], a = 0.2, v = 0.2, t = 0.2)
movej(p[0.370372490640253, -0.108058942125489, 0.356346334097033, -1.17831497037364, 1.10161770990074, -1.20096249163833], a = 0.2, v = 0.2, t = 0.2)
movej(p[0.37138829907429, -0.108173414884957, 0.356298555098746, -1.1812624758968, 1.09914387013209, -1.20477114757316], a = 0.2, v = 0.2, t = 0.2)
movej(p[0.371642064698166, -0.108232394793461, 0.356213751392862, -1.18147740118645, 1.09733662689544, -1.2057653047866], a = 0.2, v = 0.2, t = 0.2)
movej(p[0.371868465043352, -0.108280176076122, 0.356183320771325, -1.18267027944864, 1.09635495992602, -1.20676670633815], a = 0.2, v = 0.2, t = 0.2)
movej(p[0.371974188773079, -0.108309805777301, 0.356160894809121, -1.18347857257414, 1.09551096021485, -1.20695533219815], a = 0.2, v = 0.2, t = 0.2)
movej(p[0.372060555425292, -0.108303873080971, 0.356168458835806, -1.18318240072574, 1.09596486367482, -1.20738455816615], a = 0.2, v = 0.2, t = 0.2)
movej(p[0.372049829712318, -0.108249302636264, 0.356248124610425, -1.18190797256057, 1.09729418658715, -1.2073006208586], a = 0.2, v = 0.2, t = 0.2)
movej(p[0.371647689284353, -0.107833284820751, 0.356741796205083, -1.17082424586391, 1.10672801840794, -1.19813776890424], a = 0.2, v = 0.2, t = 0.2)
movej(p[0.369891071246096, -0.107210185514267, 0.357440274731546, -1.16246888375509, 1.12335307609076, -1.18758970362473], a = 0.2, v = 0.2, t = 0.2)
movej(p[0.367926050997898, -0.106745962282829, 0.357910930779596, -1.1600851390789, 1.1330185429804, -1.17819600987275], a = 0.2, v = 0.2, t = 0.2)
movej(p[0.366164550032904, -0.106384474062187, 0.358249968633914, -1.15753570114668, 1.13938491792464, -1.17015267185992], a = 0.2, v = 0.2, t = 0.2)
movej(p[0.364240297519007, -0.105856153159434, 0.358781588936836, -1.15388405761798, 1.14326616514762, -1.16257936017124], a = 0.2, v = 0.2, t = 0.2)
movej(p[0.364240297519007, -0.105856153159434, 0.358781588936836, -1.15423193284768, 1.14277629518695, -1.16210872113743], a = 0.2, v = 0.2, t = 0.2)
movej(p[0.364280138562619, -0.105967535484642, 0.358644961967041, -1.15518699972138, 1.1375578953783, -1.1626235735299], a = 0.2, v = 0.2, t = 0.2)
movej(p[0.365608121331428, -0.106383019358919, 0.358199583278774, -1.15919889823045, 1.12691924623041, -1.17203998676608], a = 0.2, v = 0.2, t = 0.2)
movej(p[0.366639928698966, -0.106780846985373, 0.357729529732968, -1.16575022793518, 1.11517641761826, -1.17927021566389], a = 0.2, v = 0.2, t = 0.2)
movej(p[0.367498607994305, -0.107084129152921, 0.357398612727356, -1.16594198091277, 1.11198037131211, -1.18275857990441], a = 0.2, v = 0.2, t = 0.2)
movej(p[0.368587405566787, -0.107310641855405, 0.357203869866713, -1.16768065623796, 1.10975287214645, -1.18764121985493], a = 0.2, v = 0.2, t = 0.2)
movej(p[0.369422783325715, -0.107664637709216, 0.356777836141085, -1.17366398718564, 1.10536602349238, -1.19476860956537], a = 0.2, v = 0.2, t = 0.2)
movej(p[0.369740162038985, -0.107815883573536, 0.356583619326959, -1.17391792133119, 1.10390453105666, -1.19640480052547], a = 0.2, v = 0.2, t = 0.2)
movej(p[0.370190739084337, -0.107899546443445, 0.356504348775047, -1.1729532938862, 1.10322033572544, -1.19811451836903], a = 0.2, v = 0.2, t = 0.2)
movej(p[0.370705947072418, -0.108033208971914, 0.356398415789156, -1.17436524640938, 1.10267457098241, -1.20175250746405], a = 0.2, v = 0.2, t = 0.2)
movej(p[0.371396048801071, -0.108161730403295, 0.356333022396625, -1.17699150980653, 1.10086043843833, -1.20474024533595], a = 0.2, v = 0.2, t = 0.2)
movej(p[0.371788951968493, -0.108239282394955, 0.356253783014882, -1.18073666881403, 1.09780333637298, -1.20734469660715], a = 0.2, v = 0.2, t = 0.2)
movej(p[0.37184817095722, -0.108243005126372, 0.356251469436482, -1.18232604209874, 1.09801737843009, -1.20701023933484], a = 0.2, v = 0.2, t = 0.2)
movej(p[0.371854631063542, -0.108242561368879, 0.356252035215233, -1.18232604209874, 1.09801737843009, -1.20701023933484], a = 0.2, v = 0.2, t = 0.2)
movej(p[0.371819531681037, -0.108054552896587, 0.35650534196148, -1.17686398808924, 1.10182725378893, -1.20085227798233], a = 0.2, v = 0.2, t = 0.2)
movej(p[0.370763613895701, -0.107660895003443, 0.356972490154002, -1.1671834212036, 1.11165043173357, -1.19571307992726], a = 0.2, v = 0.2, t = 0.2)
movej(p[0.369555527527543, -0.107236373755824, 0.357490505189877, -1.16765654429833, 1.12069971212882, -1.18770314974069], a = 0.2, v = 0.2, t = 0.2)
movej(p[0.367904884175002, -0.106821096246159, 0.357887566850928, -1.1687791814645, 1.12895609383935, -1.18055512543017], a = 0.2, v = 0.2, t = 0.2)
movej(p[0.365860776831512, -0.106407204167066, 0.358258706737166, -1.15972445677378, 1.14011339491878, -1.17180450379376], a = 0.2, v = 0.2, t = 0.2)
movej(p[0.364058879473736, -0.105876823609749, 0.358777174717335, -1.14975287366917, 1.14747248301009, -1.15940002479925], a = 0.2, v = 0.2, t = 0.2)
movej(p[0.363308999727413, -0.105725037284512, 0.358910613045879, -1.151718702593, 1.14337795782032, -1.15631195163623], a = 0.2, v = 0.2, t = 0.2)
movej(p[0.363308999727413, -0.105725037284512, 0.358910613045879, -1.14953740188688, 1.1403880271035, -1.15871635338258], a = 0.2, v = 0.2, t = 0.2)
movej(p[0.364215828527103, -0.105919165159502, 0.358759998052587, -1.14747454333314, 1.13599630568968, -1.16251029093163], a = 0.2, v = 0.2, t = 0.2)
movej(p[0.365793774917676, -0.106419906237739, 0.358223756902503, -1.15337370791722, 1.12363068050959, -1.17479362190301], a = 0.2, v = 0.2, t = 0.2)
movej(p[0.367045107237098, -0.106948427483437, 0.357572699286607, -1.16028706637417, 1.11802913081936, -1.18370190478365], a = 0.2, v = 0.2, t = 0.2)
movej(p[0.368072803102214, -0.107237243585437, 0.357261693887863, -1.16197470599364, 1.11712967877032, -1.18698149261105], a = 0.2, v = 0.2, t = 0.2)
movej(p[0.368771697435796, -0.107448182599745, 0.357028429675584, -1.16349940337862, 1.11411127214398, -1.19082499692284], a = 0.2, v = 0.2, t = 0.2)
movej(p[0.370030026910596, -0.107814040817781, 0.356689180685689, -1.17227809470768, 1.10631075033132, -1.19704336344807], a = 0.2, v = 0.2, t = 0.2)
movej(p[0.370363740231152, -0.107899144717377, 0.356575959680759, -1.17257980108653, 1.10460548373119, -1.19895244172353], a = 0.2, v = 0.2, t = 0.2)
movej(p[0.370997611471253, -0.108055161253393, 0.35643545935527, -1.17397431709757, 1.10364570180959, -1.20053927705065], a = 0.2, v = 0.2, t = 0.2)
movej(p[0.371228227369045, -0.108198241715178, 0.356253568126398, -1.17820140587411, 1.1041628275312, -1.20184168440392], a = 0.2, v = 0.2, t = 0.2)
movej(p[0.371589462559098, -0.108216707195985, 0.356246014750573, -1.1803739670288, 1.10235334935966, -1.20335051667362], a = 0.2, v = 0.2, t = 0.2)
movej(p[0.372052693162491, -0.108195431547383, 0.356325975021059, -1.17912558606613, 1.10160822445241, -1.2015850749238], a = 0.2, v = 0.2, t = 0.2)
movej(p[0.372038500990641, -0.108194831627554, 0.356487551821233, -1.17850048240244, 1.10101994669848, -1.20193270953964], a = 0.2, v = 0.2, t = 0.2)
movej(p[0.371545864661223, -0.107795083743066, 0.357032361866833, -1.16805443675764, 1.11026570590932, -1.19657756167315], a = 0.2, v = 0.2, t = 0.2)
movej(p[0.370343661976862, -0.107478675285808, 0.357326732303342, -1.16469213402418, 1.11566444796194, -1.19144221449856], a = 0.2, v = 0.2, t = 0.2)
movej(p[0.369044986938588, -0.107212257615477, 0.357564729908161, -1.16388996190813, 1.11891252939333, -1.18765359175271], a = 0.2, v = 0.2, t = 0.2)
movej(p[0.367450441104921, -0.106841011698845, 0.357876234119559, -1.16015994122841, 1.12139291896415, -1.18290899730476], a = 0.2, v = 0.2, t = 0.2)
movej(p[0.365958317528908, -0.106417840884942, 0.358309074212627, -1.15663357371138, 1.12474122918716, -1.17488935319907], a = 0.2, v = 0.2, t = 0.2)
movej(p[0.363661500429143, -0.105957445577814, 0.358628331164625, -1.15391445119366, 1.12571225342236, -1.16512078601604], a = 0.2, v = 0.2, t = 0.2)
movej(p[0.361924402858192, -0.105360986024305, 0.359358036200942, -1.1483347721441, 1.1291296966499, -1.15766224712798], a = 0.2, v = 0.2, t = 0.2)
movej(p[0.361924402858192, -0.105360986024305, 0.359358036200942, -1.148317385302, 1.12911393432398, -1.1576723611374], a = 0.2, v = 0.2, t = 0.2)
movej(p[0.363022341412131, -0.105709401137171, 0.358962673214686, -1.15242779582573, 1.12565578892495, -1.1633326534029], a = 0.2, v = 0.2, t = 0.2)
movej(p[0.364885470363651, -0.106270811644591, 0.35834037872478, -1.15824824937392, 1.12115484496481, -1.17197554397025], a = 0.2, v = 0.2, t = 0.2)
movej(p[0.366174291526903, -0.10672765722969, 0.357758803166035, -1.16283206815073, 1.11836622489685, -1.17882182890361], a = 0.2, v = 0.2, t = 0.2)
movej(p[0.367208712447495, -0.107115183031068, 0.357247381253806, -1.16659236122857, 1.11622599688677, -1.18445419108442], a = 0.2, v = 0.2, t = 0.2)
movej(p[0.368190486280282, -0.107489273609682, 0.356742929917951, -1.1703122615099, 1.11402469310354, -1.18990900109179], a = 0.2, v = 0.2, t = 0.2)
movej(p[0.368799898510421, -0.107690074110956, 0.356496347533247, -1.17202975625929, 1.11293083644874, -1.19275297920683], a = 0.2, v = 0.2, t = 0.2)
movej(p[0.369455131968602, -0.107855896446893, 0.356342501349728, -1.17354774383313, 1.11184477156786, -1.19524908804276], a = 0.2, v = 0.2, t = 0.2)
movej(p[0.370903338521936, -0.108221616181426, 0.356022539813518, -1.17798761376122, 1.10882270624829, -1.20129444381738], a = 0.2, v = 0.2, t = 0.2)
movej(p[0.371130702329049, -0.108239375017538, 0.356042576354021, -1.17781759282682, 1.10883601376463, -1.2019859650084], a = 0.2, v = 0.2, t = 0.2)
movej(p[0.371357709938528, -0.10822273477962, 0.356170669670476, -1.17695666845234, 1.10858628485047, -1.20267356553351], a = 0.2, v = 0.2, t = 0.2)
movej(p[0.371689116398612, -0.108190762314289, 0.356426230719299, -1.17560535401188, 1.10730597868281, -1.20343679215988], a = 0.2, v = 0.2, t = 0.2)
movej(p[0.371849625194152, -0.108179736647346, 0.356440288145186, -1.17496953609231, 1.105999835484, -1.20354356682771], a = 0.2, v = 0.2, t = 0.2)
movej(p[0.37184792707646, -0.108176183070016, 0.356456890207843, -1.17464559179489, 1.10622205877913, -1.20317528785926], a = 0.2, v = 0.2, t = 0.2)
movej(p[0.371686488314308, -0.107948640802082, 0.356864890651934, -1.1658187759362, 1.11523879869783, -1.19790997897389], a = 0.2, v = 0.2, t = 0.2)
movej(p[0.370575564332142, -0.107545383498257, 0.357394229355186, -1.16113014629668, 1.11907685032305, -1.19187256283604], a = 0.2, v = 0.2, t = 0.2)
movej(p[0.369302685489369, -0.107258906686321, 0.357618356591024, -1.16263248129523, 1.12055604058866, -1.1879938589706], a = 0.2, v = 0.2, t = 0.2)
movej(p[0.367713511291641, -0.106913696559618, 0.357853333074309, -1.16248519572379, 1.12733201870987, -1.17980337231329], a = 0.2, v = 0.2, t = 0.2)
movej(p[0.365710620366446, -0.106375720739508, 0.358390658886781, -1.15766973093059, 1.13639812772923, -1.16788687704045], a = 0.2, v = 0.2, t = 0.2)
movej(p[0.363635019412436, -0.105950350169971, 0.358594256967031, -1.15529644623125, 1.14201401621752, -1.15958424015021], a = 0.2, v = 0.2, t = 0.2)
