def moving():
set_payload_mass(0)
set_tcp(p[0,0,0,0,0,0])
movej(p[0.477, -0.0032, 0.4255, -1.189, 1.012, -1.115], a = 0.2, v = 0.2, t = 0.2)
movej(p[0.477059516702483, -0.00318226478888236, 0.424952702201254, -1.189, 1.012, -1.115], a = 0.2, v = 0.2, t = 0.2)
movej(p[0.477166001906329, -0.00315053356903463, 0.423973496108979, -1.189, 1.012, -1.115], a = 0.2, v = 0.2, t = 0.2)
movej(p[0.477333386891745, -0.00310065499830727, 0.422434273836258, -1.189, 1.012, -1.115], a = 0.2, v = 0.2, t = 0.2)
movej(p[0.477513921933791, -0.00304685787999904, 0.420774127575034, -1.189, 1.012, -1.115], a = 0.2, v = 0.2, t = 0.2)
movej(p[0.477705759325249, -0.00298969280707324, 0.419010048288359, -1.189, 1.012, -1.115], a = 0.2, v = 0.2, t = 0.2)
movej(p[0.477879162865754, -0.00293802078441281, 0.417415481182774, -1.189, 1.012, -1.115], a = 0.2, v = 0.2, t = 0.2)
movej(p[0.478017233057713, -0.00289687764473466, 0.41614582898467, -1.189, 1.012, -1.115], a = 0.2, v = 0.2, t = 0.2)
movej(p[0.478094793539626, -0.0028737656196439, 0.415432605985923, -1.189, 1.012, -1.115], a = 0.2, v = 0.2, t = 0.2)
movej(p[0.478124832288542, -0.00286481445918801, 0.415156378633386, -1.189, 1.012, -1.115], a = 0.2, v = 0.2, t = 0.2)
movej(p[0.478119321582806, -0.00286645657855222, 0.41520705343547, -1.189, 1.012, -1.115], a = 0.2, v = 0.2, t = 0.2)
movej(p[0.478012565165795, -0.0028982686164314, 0.416188753522906, -1.189, 1.012, -1.115], a = 0.2, v = 0.2, t = 0.2)
movej(p[0.477869470506841, -0.00294090898258868, 0.417504609217028, -1.189, 1.012, -1.115], a = 0.2, v = 0.2, t = 0.2)
movej(p[0.477700518752147, -0.00299125443039018, 0.419058239031518, -1.189, 1.012, -1.115], a = 0.2, v = 0.2, t = 0.2)
movej(p[0.477545149266297, -0.00303755253693519, 0.420486970363224, -1.189, 1.012, -1.115], a = 0.2, v = 0.2, t = 0.2)
movej(p[0.477401946554289, -0.00308022510151138, 0.421803819680916, -1.189, 1.012, -1.115], a = 0.2, v = 0.2, t = 0.2)
movej(p[0.477311592590823, -0.00310714941940062, 0.422634687710384, -1.189, 1.012, -1.115], a = 0.2, v = 0.2, t = 0.2)
movej(p[0.477269527537036, -0.00311968426388075, 0.423021505366294, -1.189, 1.012, -1.115], a = 0.2, v = 0.2, t = 0.2)
movej(p[0.477237457390711, -0.00312924075461206, 0.423316412841953, -1.189, 1.012, -1.115], a = 0.2, v = 0.2, t = 0.2)
movej(p[0.477198212521624, -0.00314093522035874, 0.423677296922678, -1.189, 1.012, -1.115], a = 0.2, v = 0.2, t = 0.2)
movej(p[0.477181874899911, -0.00314580362129734, 0.423827532806505, -1.189, 1.012, -1.115], a = 0.2, v = 0.2, t = 0.2)
movej(p[0.47718229630682, -0.0031456780474636, 0.423823657674581, -1.189, 1.012, -1.115], a = 0.2, v = 0.2, t = 0.2)
movej(p[0.477164100172585, -0.00315110026120738, 0.423990983883816, -1.189, 1.012, -1.115], a = 0.2, v = 0.2, t = 0.2)
movej(p[0.477166898746675, -0.00315026632215771, 0.423965249033346, -1.189, 1.012, -1.115], a = 0.2, v = 0.2, t = 0.2)
movej(p[0.477175542990967, -0.00314769044864523, 0.423885759147723, -1.189, 1.012, -1.115], a = 0.2, v = 0.2, t = 0.2)
movej(p[0.477165731773695, -0.0031506140650819, 0.423975980167905, -1.189, 1.012, -1.115], a = 0.2, v = 0.2, t = 0.2)
movej(p[0.477108074664265, -0.00316779514141017, 0.424506177705006, -1.189, 1.012, -1.115], a = 0.2, v = 0.2, t = 0.2)
movej(p[0.477068600722704, -0.00317955786780493, 0.424869168267701, -1.189, 1.012, -1.115], a = 0.2, v = 0.2, t = 0.2)
movej(p[0.477068439723654, -0.0031796058434491, 0.42487064876682, -1.189, 1.012, -1.115], a = 0.2, v = 0.2, t = 0.2)
movej(p[0.477072648390094, -0.00317835171503271, 0.424831947128758, -1.189, 1.012, -1.115], a = 0.2, v = 0.2, t = 0.2)
movej(p[0.477106517619762, -0.0031682591206266, 0.424520495820654, -1.189, 1.012, -1.115], a = 0.2, v = 0.2, t = 0.2)
movej(p[0.477223453714957, -0.00313341366970229, 0.423445186456661, -1.189, 1.012, -1.115], a = 0.2, v = 0.2, t = 0.2)
movej(p[0.477412416895188, -0.00307710507471939, 0.421707537556955, -1.189, 1.012, -1.115], a = 0.2, v = 0.2, t = 0.2)
movej(p[0.47758631747974, -0.00302528493933199, 0.420108399782947, -1.189, 1.012, -1.115], a = 0.2, v = 0.2, t = 0.2)
movej(p[0.477724830689219, -0.00298400978613632, 0.418834673728205, -1.189, 1.012, -1.115], a = 0.2, v = 0.2, t = 0.2)
movej(p[0.477799495349294, -0.00296176067867224, 0.418148079841142, -1.189, 1.012, -1.115], a = 0.2, v = 0.2, t = 0.2)
movej(p[0.477767284734, -0.00297135902734813, 0.418444279027442, -1.189, 1.012, -1.115], a = 0.2, v = 0.2, t = 0.2)
movej(p[0.477620159696144, -0.00301520039453061, 0.419797196880735, -1.189, 1.012, -1.115], a = 0.2, v = 0.2, t = 0.2)
movej(p[0.477464120281362, -0.00306169813127284, 0.421232088678576, -1.189, 1.012, -1.115], a = 0.2, v = 0.2, t = 0.2)
movej(p[0.477364495365892, -0.00309138507350422, 0.422148209610375, -1.189, 1.012, -1.115], a = 0.2, v = 0.2, t = 0.2)
movej(p[0.4772841579205, -0.00311532459796087, 0.422886968734878, -1.189, 1.012, -1.115], a = 0.2, v = 0.2, t = 0.2)
movej(p[0.477223334856598, -0.00313344908796308, 0.423446279442588, -1.189, 1.012, -1.115], a = 0.2, v = 0.2, t = 0.2)
movej(p[0.477182361138653, -0.00314565872841226, 0.423823061500438, -1.189, 1.012, -1.115], a = 0.2, v = 0.2, t = 0.2)
movej(p[0.477164499968883, -0.00315098112705743, 0.423987307476606, -1.189, 1.012, -1.115], a = 0.2, v = 0.2, t = 0.2)
movej(p[0.477137227378141, -0.00315910800798932, 0.424238098065744, -1.189, 1.012, -1.115], a = 0.2, v = 0.2, t = 0.2)
movej(p[0.477172398647106, -0.0031486274226354, 0.423914673593618, -1.189, 1.012, -1.115], a = 0.2, v = 0.2, t = 0.2)
movej(p[0.477290435802918, -0.00311345386982243, 0.422829239205444, -1.189, 1.012, -1.115], a = 0.2, v = 0.2, t = 0.2)
movej(p[0.477456502541079, -0.00306396811980572, 0.421302139140281, -1.189, 1.012, -1.115], a = 0.2, v = 0.2, t = 0.2)
movej(p[0.477609440833222, -0.00301839447768609, 0.419895764338907, -1.189, 1.012, -1.115], a = 0.2, v = 0.2, t = 0.2)
movej(p[0.477740487576694, -0.00297934423523684, 0.418690697672871, -1.189, 1.012, -1.115], a = 0.2, v = 0.2, t = 0.2)
movej(p[0.477800348968418, -0.00296150631116288, 0.418140230214936, -1.189, 1.012, -1.115], a = 0.2, v = 0.2, t = 0.2)
movej(p[0.477725111627159, -0.00298392607024717, 0.418832090306922, -1.189, 1.012, -1.115], a = 0.2, v = 0.2, t = 0.2)
movej(p[0.477577122164874, -0.00302802502478089, 0.420192957148778, -1.189, 1.012, -1.115], a = 0.2, v = 0.2, t = 0.2)
movej(p[0.477441839741698, -0.00306833744525127, 0.421436973858768, -1.189, 1.012, -1.115], a = 0.2, v = 0.2, t = 0.2)
movej(p[0.477365629922956, -0.00309104699010571, 0.422137776562887, -1.189, 1.012, -1.115], a = 0.2, v = 0.2, t = 0.2)
movej(p[0.477287734476576, -0.00311425883029508, 0.422854079794701, -1.189, 1.012, -1.115], a = 0.2, v = 0.2, t = 0.2)
movej(p[0.477236355249564, -0.0031295691784849, 0.42332654780237, -1.189, 1.012, -1.115], a = 0.2, v = 0.2, t = 0.2)
movej(p[0.477200568078193, -0.00314023329482659, 0.423655635928846, -1.189, 1.012, -1.115], a = 0.2, v = 0.2, t = 0.2)
movej(p[0.477174127495964, -0.0031481122479329, 0.423898775616494, -1.189, 1.012, -1.115], a = 0.2, v = 0.2, t = 0.2)
movej(p[0.477135368865618, -0.0031596618207945, 0.424255188391153, -1.189, 1.012, -1.115], a = 0.2, v = 0.2, t = 0.2)
movej(p[0.477170053895841, -0.00314932612832566, 0.423936235225093, -1.189, 1.012, -1.115], a = 0.2, v = 0.2, t = 0.2)
movej(p[0.477269203377875, -0.00311978085913747, 0.423024486237005, -1.189, 1.012, -1.115], a = 0.2, v = 0.2, t = 0.2)
movej(p[0.477363933490013, -0.00309155250528253, 0.42215337645294, -1.189, 1.012, -1.115], a = 0.2, v = 0.2, t = 0.2)
movej(p[0.477436210177603, -0.00307001498287627, 0.42148874164678, -1.189, 1.012, -1.115], a = 0.2, v = 0.2, t = 0.2)
movej(p[0.477457475018562, -0.00306367833403556, 0.421293196528149, -1.189, 1.012, -1.115], a = 0.2, v = 0.2, t = 0.2)
movej(p[0.477441861352309, -0.00306833100556749, 0.421436775134054, -1.189, 1.012, -1.115], a = 0.2, v = 0.2, t = 0.2)
movej(p[0.477343273746155, -0.00309770884297737, 0.422343357279578, -1.189, 1.012, -1.115], a = 0.2, v = 0.2, t = 0.2)
movej(p[0.477260451080529, -0.00312238893106886, 0.423104969746197, -1.189, 1.012, -1.115], a = 0.2, v = 0.2, t = 0.2)
movej(p[0.477208175013171, -0.0031379665261356, 0.423585684829499, -1.189, 1.012, -1.115], a = 0.2, v = 0.2, t = 0.2)
movej(p[0.477184219651175, -0.00314510491560707, 0.42380597117503, -1.189, 1.012, -1.115], a = 0.2, v = 0.2, t = 0.2)
movej(p[0.477112645308435, -0.00316643314829044, 0.424464147427983, -1.189, 1.012, -1.115], a = 0.2, v = 0.2, t = 0.2)
movej(p[0.47707572141894, -0.00317743599199902, 0.424803688474419, -1.189, 1.012, -1.115], a = 0.2, v = 0.2, t = 0.2)
movej(p[0.477089950925576, -0.00317319578221328, 0.424672838186449, -1.189, 1.012, -1.115], a = 0.2, v = 0.2, t = 0.2)
movej(p[0.477139485686962, -0.00315843506103418, 0.424217331333126, -1.189, 1.012, -1.115], a = 0.2, v = 0.2, t = 0.2)
movej(p[0.477193998452531, -0.00314219095869608, 0.423716048241919, -1.189, 1.012, -1.115], a = 0.2, v = 0.2, t = 0.2)
movej(p[0.477257847001935, -0.00312316491296449, 0.423128916074241, -1.189, 1.012, -1.115], a = 0.2, v = 0.2, t = 0.2)
movej(p[0.477332500856705, -0.0031009190253423, 0.422442421549534, -1.189, 1.012, -1.115], a = 0.2, v = 0.2, t = 0.2)
movej(p[0.477322851719014, -0.00310379434415061, 0.42253115213436, -1.189, 1.012, -1.115], a = 0.2, v = 0.2, t = 0.2)
movej(p[0.47727364435838, -0.00311845750412043, 0.422983648308266, -1.189, 1.012, -1.115], a = 0.2, v = 0.2, t = 0.2)
movej(p[0.477211946064743, -0.00313684280131578, 0.423551007366896, -1.189, 1.012, -1.115], a = 0.2, v = 0.2, t = 0.2)
movej(p[0.477178255122614, -0.00314688226833069, 0.423860819196109, -1.189, 1.012, -1.115], a = 0.2, v = 0.2, t = 0.2)
movej(p[0.477118393730889, -0.00316472019240464, 0.424411286654044, -1.189, 1.012, -1.115], a = 0.2, v = 0.2, t = 0.2)
movej(p[0.477074416138052, -0.0031778249488994, 0.424815691447148, -1.189, 1.012, -1.115], a = 0.2, v = 0.2, t = 0.2)
movej(p[0.477046038164571, -0.0031862812196567, 0.425076646805411, -1.189, 1.012, -1.115], a = 0.2, v = 0.2, t = 0.2)
movej(p[0.477027739379934, -0.00319173402189844, 0.425244916957038, -1.189, 1.012, -1.115], a = 0.2, v = 0.2, t = 0.2)
movej(p[0.476989312904675, -0.00320318461682032, 0.425598275332842, -1.189, 1.012, -1.115], a = 0.2, v = 0.2, t = 0.2)
movej(p[0.476994864346413, -0.00320153035865219, 0.425547225934672, -1.189, 1.012, -1.115], a = 0.2, v = 0.2, t = 0.2)
movej(p[0.477071398216263, -0.00317872425073945, 0.424843443353466, -1.189, 1.012, -1.115], a = 0.2, v = 0.2, t = 0.2)
movej(p[0.477168551958395, -0.00314977368634845, 0.42395004659272, -1.189, 1.012, -1.115], a = 0.2, v = 0.2, t = 0.2)
movej(p[0.477223107945186, -0.00313351670464279, 0.423448366052086, -1.189, 1.012, -1.115], a = 0.2, v = 0.2, t = 0.2)
movej(p[0.477234269825628, -0.00313019060796979, 0.423345724737276, -1.189, 1.012, -1.115], a = 0.2, v = 0.2, t = 0.2)
movej(p[0.477219174814033, -0.00313468872709097, 0.423484533950044, -1.189, 1.012, -1.115], a = 0.2, v = 0.2, t = 0.2)
movej(p[0.477151177027368, -0.00315495119210854, 0.424109821262821, -1.189, 1.012, -1.115], a = 0.2, v = 0.2, t = 0.2)
movej(p[0.477088847703898, -0.00317352452807031, 0.424682983083102, -1.189, 1.012, -1.115], a = 0.2, v = 0.2, t = 0.2)
movej(p[0.477052971929024, -0.0031842150471155, 0.425012885980906, -1.189, 1.012, -1.115], a = 0.2, v = 0.2, t = 0.2)
movej(p[0.477047382344558, -0.00318588067132551, 0.425064286128197, -1.189, 1.012, -1.115], a = 0.2, v = 0.2, t = 0.2)
movej(p[0.477007198386381, -0.0031978549735309, 0.425433805791372, -1.189, 1.012, -1.115], a = 0.2, v = 0.2, t = 0.2)
movej(p[0.476961305120956, -0.00321153057579445, 0.425855826536753, -1.189, 1.012, -1.115], a = 0.2, v = 0.2, t = 0.2)
movej(p[0.476975565962977, -0.00320728102846723, 0.425724688097947, -1.189, 1.012, -1.115], a = 0.2, v = 0.2, t = 0.2)
movej(p[0.477042919753442, -0.00318721046602633, 0.425105322781649, -1.189, 1.012, -1.115], a = 0.2, v = 0.2, t = 0.2)
movej(p[0.477108636540144, -0.00316762770963186, 0.424501010862441, -1.189, 1.012, -1.115], a = 0.2, v = 0.2, t = 0.2)
movej(p[0.477175089168142, -0.00314782568200464, 0.423889932366718, -1.189, 1.012, -1.115], a = 0.2, v = 0.2, t = 0.2)
movej(p[0.477217521602312, -0.00313518136290023, 0.423499736390669, -1.189, 1.012, -1.115], a = 0.2, v = 0.2, t = 0.2)
movej(p[0.477225247395648, -0.00313287917594845, 0.423428692305394, -1.189, 1.012, -1.115], a = 0.2, v = 0.2, t = 0.2)
movej(p[0.477153348893746, -0.00315430400388853, 0.424089849429059, -1.189, 1.012, -1.115], a = 0.2, v = 0.2, t = 0.2)
movej(p[0.477105262043278, -0.00316863326625429, 0.42453204172654, -1.189, 1.012, -1.115], a = 0.2, v = 0.2, t = 0.2)
movej(p[0.477073414486244, -0.00317812342824266, 0.424824902337645, -1.189, 1.012, -1.115], a = 0.2, v = 0.2, t = 0.2)
movej(p[0.477053251786432, -0.00318413165321053, 0.425010312495859, -1.189, 1.012, -1.115], a = 0.2, v = 0.2, t = 0.2)
movej(p[0.476995172945934, -0.00320143839996779, 0.425544388145755, -1.189, 1.012, -1.115], a = 0.2, v = 0.2, t = 0.2)
movej(p[0.476962247343584, -0.00321124980558159, 0.42584716213922, -1.189, 1.012, -1.115], a = 0.2, v = 0.2, t = 0.2)
movej(p[0.47697039562436, -0.00320882172281188, 0.425772232985785, -1.189, 1.012, -1.115], a = 0.2, v = 0.2, t = 0.2)
movej(p[0.477004071763221, -0.00319878666698036, 0.425462557283001, -1.189, 1.012, -1.115], a = 0.2, v = 0.2, t = 0.2)
movej(p[0.47703927080182, -0.00318829780663279, 0.425138877449617, -1.189, 1.012, -1.115], a = 0.2, v = 0.2, t = 0.2)
movej(p[0.477117475279933, -0.00316499387896534, 0.424419732454392, -1.189, 1.012, -1.115], a = 0.2, v = 0.2, t = 0.2)
movej(p[0.477220914468196, -0.00313417033254658, 0.423468536610563, -1.189, 1.012, -1.115], a = 0.2, v = 0.2, t = 0.2)
movej(p[0.477263887167635, -0.00312136502134764, 0.423073372516662, -1.189, 1.012, -1.115], a = 0.2, v = 0.2, t = 0.2)
movej(p[0.477242049645491, -0.00312787232180856, 0.423274183840216, -1.189, 1.012, -1.115], a = 0.2, v = 0.2, t = 0.2)
movej(p[0.477181885705216, -0.00314580040145545, 0.423827433444148, -1.189, 1.012, -1.115], a = 0.2, v = 0.2, t = 0.2)
movej(p[0.477135703830085, -0.00315956200569589, 0.424252108158085, -1.189, 1.012, -1.115], a = 0.2, v = 0.2, t = 0.2)
movej(p[0.477078009982616, -0.00317675402948659, 0.424782643527201, -1.189, 1.012, -1.115], a = 0.2, v = 0.2, t = 0.2)
movej(p[0.477023545840922, -0.00319298364253618, 0.4252834794878, -1.189, 1.012, -1.115], a = 0.2, v = 0.2, t = 0.2)
movej(p[0.476995491918548, -0.00320134335023518, 0.425541454968976, -1.189, 1.012, -1.115], a = 0.2, v = 0.2, t = 0.2)
movej(p[0.476981595323371, -0.00320548435669227, 0.425669243902726, -1.189, 1.012, -1.115], a = 0.2, v = 0.2, t = 0.2)
movej(p[0.476941281809583, -0.00321749726480193, 0.426039954920562, -1.189, 1.012, -1.115], a = 0.2, v = 0.2, t = 0.2)
movej(p[0.476920517254262, -0.0032236848349631, 0.426230899562062, -1.189, 1.012, -1.115], a = 0.2, v = 0.2, t = 0.2)
movej(p[0.476954534516614, -0.0032135481287231, 0.425918086989667, -1.189, 1.012, -1.115], a = 0.2, v = 0.2, t = 0.2)
movej(p[0.477034620198391, -0.0031896836265825, 0.425181643008082, -1.189, 1.012, -1.115], a = 0.2, v = 0.2, t = 0.2)
movej(p[0.477102758454025, -0.00316937930362035, 0.424555063984664, -1.189, 1.012, -1.115], a = 0.2, v = 0.2, t = 0.2)
movej(p[0.477182069395408, -0.0031457456641433, 0.423825744284078, -1.189, 1.012, -1.115], a = 0.2, v = 0.2, t = 0.2)
movej(p[0.477259197665106, -0.00312276243272817, 0.423116495779612, -1.189, 1.012, -1.115], a = 0.2, v = 0.2, t = 0.2)
movej(p[0.477299285348012, -0.00311081681931402, 0.422747861435039, -1.189, 1.012, -1.115], a = 0.2, v = 0.2, t = 0.2)
movej(p[0.477248802961345, -0.00312585992062693, 0.423212082367073, -1.189, 1.012, -1.115], a = 0.2, v = 0.2, t = 0.2)
movej(p[0.477177509556543, -0.00314710443742114, 0.423867675198744, -1.189, 1.012, -1.115], a = 0.2, v = 0.2, t = 0.2)
movej(p[0.477130333593318, -0.00316116226711552, 0.424301491249528, -1.189, 1.012, -1.115], a = 0.2, v = 0.2, t = 0.2)
movej(p[0.477091455024083, -0.00317274758022211, 0.424659006946351, -1.189, 1.012, -1.115], a = 0.2, v = 0.2, t = 0.2)
movej(p[0.477039024440858, -0.00318837121902789, 0.425141142911358, -1.189, 1.012, -1.115], a = 0.2, v = 0.2, t = 0.2)
movej(p[0.477002908139886, -0.00319913341175356, 0.425473257615229, -1.189, 1.012, -1.115], a = 0.2, v = 0.2, t = 0.2)
movej(p[0.476984471695659, -0.00320462723478099, 0.425642793643285, -1.189, 1.012, -1.115], a = 0.2, v = 0.2, t = 0.2)
movej(p[0.476943396407843, -0.00321686714174393, 0.426020509707291, -1.189, 1.012, -1.115], a = 0.2, v = 0.2, t = 0.2)
movej(p[0.476909916169168, -0.00322684382184197, 0.426328383970542, -1.189, 1.012, -1.115], a = 0.2, v = 0.2, t = 0.2)
movej(p[0.476934032530213, -0.00321965745672633, 0.426106617125892, -1.189, 1.012, -1.115], a = 0.2, v = 0.2, t = 0.2)
movej(p[0.477025355729571, -0.00319244431901951, 0.425266836292998, -1.189, 1.012, -1.115], a = 0.2, v = 0.2, t = 0.2)
movej(p[0.47710121761748, -0.00316983845307395, 0.424569233056776, -1.189, 1.012, -1.115], a = 0.2, v = 0.2, t = 0.2)
movej(p[0.477127513408618, -0.00316200264584897, 0.424327424824713, -1.189, 1.012, -1.115], a = 0.2, v = 0.2, t = 0.2)
movej(p[0.477128215753466, -0.00316179335612608, 0.424320966271506, -1.189, 1.012, -1.115], a = 0.2, v = 0.2, t = 0.2)
movej(p[0.477110549079194, -0.00316705779761722, 0.424483423725247, -1.189, 1.012, -1.115], a = 0.2, v = 0.2, t = 0.2)
movej(p[0.477055187016623, -0.00318355497952792, 0.424992516697715, -1.189, 1.012, -1.115], a = 0.2, v = 0.2, t = 0.2)
movej(p[0.477009383867445, -0.0031972037283101, 0.425413708761039, -1.189, 1.012, -1.115], a = 0.2, v = 0.2, t = 0.2)
movej(p[0.476980020990379, -0.00320595348765573, 0.425683720998145, -1.189, 1.012, -1.115], a = 0.2, v = 0.2, t = 0.2)
movej(p[0.476971109855044, -0.00320860889126291, 0.425765665133986, -1.189, 1.012, -1.115], a = 0.2, v = 0.2, t = 0.2)
movej(p[0.476920115296903, -0.00322380461308143, 0.426234595841744, -1.189, 1.012, -1.115], a = 0.2, v = 0.2, t = 0.2)
movej(p[0.476907450398484, -0.00322757858976141, 0.426351058460416, -1.189, 1.012, -1.115], a = 0.2, v = 0.2, t = 0.2)
movej(p[0.47695414444509, -0.00321366436501535, 0.425921673970755, -1.189, 1.012, -1.115], a = 0.2, v = 0.2, t = 0.2)
movej(p[0.477051001041325, -0.00318480234627634, 0.425031009674828, -1.189, 1.012, -1.115], a = 0.2, v = 0.2, t = 0.2)
movej(p[0.477113466511642, -0.00316618844030676, 0.424456595888849, -1.189, 1.012, -1.115], a = 0.2, v = 0.2, t = 0.2)
movej(p[0.477147514028849, -0.00315604271850946, 0.424143505101854, -1.189, 1.012, -1.115], a = 0.2, v = 0.2, t = 0.2)
movej(p[0.477157649405282, -0.00315302250681607, 0.424050303210962, -1.189, 1.012, -1.115], a = 0.2, v = 0.2, t = 0.2)
movej(p[0.477126940727433, -0.00316217329746917, 0.424332691029635, -1.189, 1.012, -1.115], a = 0.2, v = 0.2, t = 0.2)
movej(p[0.477058131462336, -0.00318267757261273, 0.424965440455425, -1.189, 1.012, -1.115], a = 0.2, v = 0.2, t = 0.2)
movej(p[0.477010587362356, -0.00319684510232033, 0.425402641781713, -1.189, 1.012, -1.115], a = 0.2, v = 0.2, t = 0.2)
movej(p[0.47698906503097, -0.00320325847999329, 0.425600554705312, -1.189, 1.012, -1.115], a = 0.2, v = 0.2, t = 0.2)
movej(p[0.47695652053174, -0.00321295632178361, 0.425899824188445, -1.189, 1.012, -1.115], a = 0.2, v = 0.2, t = 0.2)
movej(p[0.476909300266762, -0.00322702735282974, 0.426334047624893, -1.189, 1.012, -1.115], a = 0.2, v = 0.2, t = 0.2)
movej(p[0.476899531190182, -0.00322993841188304, 0.426423881131882, -1.189, 1.012, -1.115], a = 0.2, v = 0.2, t = 0.2)
movej(p[0.476953658206349, -0.00321380925790043, 0.425926145276822, -1.189, 1.012, -1.115], a = 0.2, v = 0.2, t = 0.2)
movej(p[0.477013701127203, -0.00319591724048271, 0.425374008531288, -1.189, 1.012, -1.115], a = 0.2, v = 0.2, t = 0.2)
movej(p[0.477086437040271, -0.0031742428747961, 0.424705150824955, -1.189, 1.012, -1.115], a = 0.2, v = 0.2, t = 0.2)
movej(p[0.477198277353456, -0.0031409159013074, 0.423676700748536, -1.189, 1.012, -1.115], a = 0.2, v = 0.2, t = 0.2)
movej(p[0.477361286190199, -0.00309234136654573, 0.422177720230412, -1.189, 1.012, -1.115], a = 0.2, v = 0.2, t = 0.2)
movej(p[0.477528033662598, -0.00304265276648991, 0.420644360336756, -1.189, 1.012, -1.115], a = 0.2, v = 0.2, t = 0.2)
movej(p[0.47768241986566, -0.00299664766555695, 0.41922467097954, -1.189, 1.012, -1.115], a = 0.2, v = 0.2, t = 0.2)
movej(p[0.47778975976916, -0.00296466175621568, 0.418237605324824, -1.189, 1.012, -1.115], a = 0.2, v = 0.2, t = 0.2)
movej(p[0.477818836845898, -0.00295599716168806, 0.417970221222061, -1.189, 1.012, -1.115], a = 0.2, v = 0.2, t = 0.2)
movej(p[0.47770149122963, -0.00299096464462003, 0.419049296419385, -1.189, 1.012, -1.115], a = 0.2, v = 0.2, t = 0.2)
movej(p[0.477540243657661, -0.00303901434515353, 0.420532080873314, -1.189, 1.012, -1.115], a = 0.2, v = 0.2, t = 0.2)
movej(p[0.477387056843495, -0.00308466204363664, 0.4219407410089, -1.189, 1.012, -1.115], a = 0.2, v = 0.2, t = 0.2)
movej(p[0.477301662515192, -0.00311010845409809, 0.422726001716492, -1.189, 1.012, -1.115], a = 0.2, v = 0.2, t = 0.2)
movej(p[0.477216981337043, -0.00313534235499476, 0.423504704508521, -1.189, 1.012, -1.115], a = 0.2, v = 0.2, t = 0.2)
movej(p[0.477160447979371, -0.00315218856776641, 0.424024568360491, -1.189, 1.012, -1.115], a = 0.2, v = 0.2, t = 0.2)
movej(p[0.477134137060807, -0.00316002888277003, 0.424266515699854, -1.189, 1.012, -1.115], a = 0.2, v = 0.2, t = 0.2)
movej(p[0.477132084052787, -0.00316064065272924, 0.42428539454769, -1.189, 1.012, -1.115], a = 0.2, v = 0.2, t = 0.2)
movej(p[0.477132635123361, -0.00316047644079282, 0.424280327067481, -1.189, 1.012, -1.115], a = 0.2, v = 0.2, t = 0.2)
movej(p[0.477199541574184, -0.0031405391798062, 0.423665075352764, -1.189, 1.012, -1.115], a = 0.2, v = 0.2, t = 0.2)
movej(p[0.477308070061274, -0.00310819908785696, 0.422667079838775, -1.189, 1.012, -1.115], a = 0.2, v = 0.2, t = 0.2)
movej(p[0.477417063176495, -0.00307572054270643, 0.421664811743433, -1.189, 1.012, -1.115], a = 0.2, v = 0.2, t = 0.2)
movej(p[0.477510820811151, -0.00304778197462165, 0.420802644571501, -1.189, 1.012, -1.115], a = 0.2, v = 0.2, t = 0.2)
movej(p[0.47757643062533, -0.00302823109466189, 0.420199316339627, -1.189, 1.012, -1.115], a = 0.2, v = 0.2, t = 0.2)
movej(p[0.477585366612867, -0.00302556828541836, 0.420117143670365, -1.189, 1.012, -1.115], a = 0.2, v = 0.2, t = 0.2)
movej(p[0.4774954124457, -0.00305237346915765, 0.420944335292623, -1.189, 1.012, -1.115], a = 0.2, v = 0.2, t = 0.2)
movej(p[0.477360972836343, -0.00309243474196056, 0.422180601738766, -1.189, 1.012, -1.115], a = 0.2, v = 0.2, t = 0.2)
movej(p[0.477264675954926, -0.00312112997288963, 0.423066119064599, -1.189, 1.012, -1.115], a = 0.2, v = 0.2, t = 0.2)
movej(p[0.477218461663878, -0.00313490123665575, 0.423491091865608, -1.189, 1.012, -1.115], a = 0.2, v = 0.2, t = 0.2)
movej(p[0.47715744410448, -0.00315308368381199, 0.424052191095745, -1.189, 1.012, -1.115], a = 0.2, v = 0.2, t = 0.2)
movej(p[0.477126973143349, -0.0031621636379435, 0.424332392942564, -1.189, 1.012, -1.115], a = 0.2, v = 0.2, t = 0.2)
movej(p[0.47715804920158, -0.00315290337266612, 0.424046626803751, -1.189, 1.012, -1.115], a = 0.2, v = 0.2, t = 0.2)
movej(p[0.477255610303725, -0.00312383142023585, 0.423149484082146, -1.189, 1.012, -1.115], a = 0.2, v = 0.2, t = 0.2)
movej(p[0.47733929739378, -0.00309889374479311, 0.422379922626964, -1.189, 1.012, -1.115], a = 0.2, v = 0.2, t = 0.2)
movej(p[0.477429943100491, -0.00307188249117282, 0.421546371813856, -1.189, 1.012, -1.115], a = 0.2, v = 0.2, t = 0.2)
movej(p[0.477547472406951, -0.00303686027092871, 0.420465607456463, -1.189, 1.012, -1.115], a = 0.2, v = 0.2, t = 0.2)
movej(p[0.477664612722418, -0.00300195396499266, 0.419388420143922, -1.189, 1.012, -1.115], a = 0.2, v = 0.2, t = 0.2)
movej(p[0.477695991329199, -0.00299260354414235, 0.419099871859113, -1.189, 1.012, -1.115], a = 0.2, v = 0.2, t = 0.2)
movej(p[0.477641111183248, -0.00300895712110473, 0.419604533270458, -1.189, 1.012, -1.115], a = 0.2, v = 0.2, t = 0.2)
movej(p[0.477539584534034, -0.00303921075550886, 0.420538141977093, -1.189, 1.012, -1.115], a = 0.2, v = 0.2, t = 0.2)
movej(p[0.477417063176495, -0.00307572054270643, 0.421664811743433, -1.189, 1.012, -1.115], a = 0.2, v = 0.2, t = 0.2)
movej(p[0.477310706555783, -0.00310741344643565, 0.42264283542366, -1.189, 1.012, -1.115], a = 0.2, v = 0.2, t = 0.2)
movej(p[0.477246523041913, -0.00312653930726585, 0.423233047824406, -1.189, 1.012, -1.115], a = 0.2, v = 0.2, t = 0.2)
movej(p[0.477217370328037, -0.0031352264406867, 0.423501127463668, -1.189, 1.012, -1.115], a = 0.2, v = 0.2, t = 0.2)
movej(p[0.477153629831686, -0.00315422028799938, 0.424087266007776, -1.189, 1.012, -1.115], a = 0.2, v = 0.2, t = 0.2)
movej(p[0.477120403517687, -0.00316412130181299, 0.424392805255637, -1.189, 1.012, -1.115], a = 0.2, v = 0.2, t = 0.2)
movej(p[0.477159151342728, -0.00315257494879328, 0.424036491843335, -1.189, 1.012, -1.115], a = 0.2, v = 0.2, t = 0.2)
movej(p[0.477273071677195, -0.00311862815574063, 0.422988914513188, -1.189, 1.012, -1.115], a = 0.2, v = 0.2, t = 0.2)
movej(p[0.477370287009568, -0.00308965923825086, 0.422094951387008, -1.189, 1.012, -1.115], a = 0.2, v = 0.2, t = 0.2)
movej(p[0.477471705605728, -0.00305943780226564, 0.421162336303943, -1.189, 1.012, -1.115], a = 0.2, v = 0.2, t = 0.2)
movej(p[0.477565063444086, -0.00303161836833081, 0.420303845539221, -1.189, 1.012, -1.115], a = 0.2, v = 0.2, t = 0.2)
movej(p[0.477602233694543, -0.00302054211222713, 0.419962039031045, -1.189, 1.012, -1.115], a = 0.2, v = 0.2, t = 0.2)
movej(p[0.477532107262721, -0.00304143888609715, 0.420606900728156, -1.189, 1.012, -1.115], a = 0.2, v = 0.2, t = 0.2)
movej(p[0.477422120059406, -0.00307421365670162, 0.421618310160344, -1.189, 1.012, -1.115], a = 0.2, v = 0.2, t = 0.2)
movej(p[0.477336736536409, -0.00309965684732118, 0.42240347150558, -1.189, 1.012, -1.115], a = 0.2, v = 0.2, t = 0.2)
movej(p[0.47727380643796, -0.00311840920649207, 0.422982157872911, -1.189, 1.012, -1.115], a = 0.2, v = 0.2, t = 0.2)
movej(p[0.477204079802437, -0.00313918684621214, 0.423623343162812, -1.189, 1.012, -1.115], a = 0.2, v = 0.2, t = 0.2)
movej(p[0.47714886469202, -0.00315564023827313, 0.424131084807225, -1.189, 1.012, -1.115], a = 0.2, v = 0.2, t = 0.2)
movej(p[0.477125849391591, -0.00316249850150012, 0.424342726627695, -1.189, 1.012, -1.115], a = 0.2, v = 0.2, t = 0.2)
movej(p[0.477100709768128, -0.0031699897856428, 0.424573903087556, -1.189, 1.012, -1.115], a = 0.2, v = 0.2, t = 0.2)
movej(p[0.477116394749396, -0.0031653158631544, 0.424429668690094, -1.189, 1.012, -1.115], a = 0.2, v = 0.2, t = 0.2)
movej(p[0.477181766846857, -0.00314583581971624, 0.423828526430075, -1.189, 1.012, -1.115], a = 0.2, v = 0.2, t = 0.2)
movej(p[0.477296886570221, -0.00311153162421374, 0.422769919878299, -1.189, 1.012, -1.115], a = 0.2, v = 0.2, t = 0.2)
movej(p[0.477362463968484, -0.00309199040377965, 0.422166889733496, -1.189, 1.012, -1.115], a = 0.2, v = 0.2, t = 0.2)
movej(p[0.477375840936526, -0.00308800423951908, 0.422043879135495, -1.189, 1.012, -1.115], a = 0.2, v = 0.2, t = 0.2)
movej(p[0.477340712888783, -0.00309847194550544, 0.422366906158193, -1.189, 1.012, -1.115], a = 0.2, v = 0.2, t = 0.2)
movej(p[0.47727940358614, -0.00311674132839273, 0.42293068817197, -1.189, 1.012, -1.115], a = 0.2, v = 0.2, t = 0.2)
movej(p[0.477195770522611, -0.00314166290462602, 0.423699752815367, -1.189, 1.012, -1.115], a = 0.2, v = 0.2, t = 0.2)
movej(p[0.477139183138412, -0.00315852521660712, 0.424220113479122, -1.189, 1.012, -1.115], a = 0.2, v = 0.2, t = 0.2)
movej(p[0.477110084451063, -0.00316719625081852, 0.424487696306599, -1.189, 1.012, -1.115], a = 0.2, v = 0.2, t = 0.2)
movej(p[0.477069835769107, -0.00317918983987683, 0.424857811150292, -1.189, 1.012, -1.115], a = 0.2, v = 0.2, t = 0.2)
movej(p[0.47700610283647, -0.00319818143330019, 0.425443880140751, -1.189, 1.012, -1.115], a = 0.2, v = 0.2, t = 0.2)
movej(p[0.476997773350723, -0.0032006635128184, 0.425520475600913, -1.189, 1.012, -1.115], a = 0.2, v = 0.2, t = 0.2)
movej(p[0.477064622209269, -0.00318074341358905, 0.424905753487558, -1.189, 1.012, -1.115], a = 0.2, v = 0.2, t = 0.2)
movej(p[0.477152203531378, -0.00315464530712894, 0.424100381838904, -1.189, 1.012, -1.115], a = 0.2, v = 0.2, t = 0.2)
movej(p[0.477234269825628, -0.00313019060796979, 0.423345724737276, -1.189, 1.012, -1.115], a = 0.2, v = 0.2, t = 0.2)
movej(p[0.477289106750358, -0.00311384991037497, 0.422841460775359, -1.189, 1.012, -1.115], a = 0.2, v = 0.2, t = 0.2)
movej(p[0.47731253265239, -0.00310686929315614, 0.422626043185322, -1.189, 1.012, -1.115], a = 0.2, v = 0.2, t = 0.2)
movej(p[0.477256842108536, -0.00312346435826032, 0.423138156773445, -1.189, 1.012, -1.115], a = 0.2, v = 0.2, t = 0.2)
movej(p[0.47719588938097, -0.00314162748636522, 0.423698659829439, -1.189, 1.012, -1.115], a = 0.2, v = 0.2, t = 0.2)
movej(p[0.47715597458295, -0.00315352158230912, 0.424065704376301, -1.189, 1.012, -1.115], a = 0.2, v = 0.2, t = 0.2)
movej(p[0.477125698117316, -0.00316254357928659, 0.424344117700693, -1.189, 1.012, -1.115], a = 0.2, v = 0.2, t = 0.2)
movej(p[0.477065111689602, -0.0031805975547514, 0.424901252372785, -1.189, 1.012, -1.115], a = 0.2, v = 0.2, t = 0.2)
movej(p[0.477029978239206, -0.00319106687065871, 0.425224329076662, -1.189, 1.012, -1.115], a = 0.2, v = 0.2, t = 0.2)
movej(p[0.477023426982563, -0.00319301906079698, 0.425284572473728, -1.189, 1.012, -1.115], a = 0.2, v = 0.2, t = 0.2)
movej(p[0.477026293630076, -0.0031921648367434, 0.425258211640408, -1.189, 1.012, -1.115], a = 0.2, v = 0.2, t = 0.2)
movej(p[0.477021777012433, -0.00319351073065367, 0.425299745105646, -1.189, 1.012, -1.115], a = 0.2, v = 0.2, t = 0.2)
movej(p[0.477077681501333, -0.00317685191268006, 0.424785664142854, -1.189, 1.012, -1.115], a = 0.2, v = 0.2, t = 0.2)
movej(p[0.47717401944291, -0.00314814444635181, 0.423899769240064, -1.189, 1.012, -1.115], a = 0.2, v = 0.2, t = 0.2)
movej(p[0.477241271663505, -0.00312810415042468, 0.423281337929922, -1.189, 1.012, -1.115], a = 0.2, v = 0.2, t = 0.2)
movej(p[0.477256701639567, -0.0031235062162049, 0.423139448484086, -1.189, 1.012, -1.115], a = 0.2, v = 0.2, t = 0.2)
movej(p[0.477236625382198, -0.00312948868243764, 0.423324063743444, -1.189, 1.012, -1.115], a = 0.2, v = 0.2, t = 0.2)
movej(p[0.477192129134703, -0.00314274799134315, 0.423733237929685, -1.189, 1.012, -1.115], a = 0.2, v = 0.2, t = 0.2)
movej(p[0.477117486085238, -0.00316499065912345, 0.424419633092035, -1.189, 1.012, -1.115], a = 0.2, v = 0.2, t = 0.2)
movej(p[0.477057723021793, -0.0031827992826362, 0.424969196352521, -1.189, 1.012, -1.115], a = 0.2, v = 0.2, t = 0.2)
movej(p[0.477032506680661, -0.0031903134276563, 0.425201078285117, -1.189, 1.012, -1.115], a = 0.2, v = 0.2, t = 0.2)
movej(p[0.47702247395463, -0.00319330305085173, 0.425293336233617, -1.189, 1.012, -1.115], a = 0.2, v = 0.2, t = 0.2)
movej(p[0.476988754918706, -0.00320335088945555, 0.425603406404959, -1.189, 1.012, -1.115], a = 0.2, v = 0.2, t = 0.2)
movej(p[0.477006295062853, -0.00319812415231295, 0.425442112484419, -1.189, 1.012, -1.115], a = 0.2, v = 0.2, t = 0.2)
movej(p[0.477090856410165, -0.00317292595946285, 0.42466451162093, -1.189, 1.012, -1.115], a = 0.2, v = 0.2, t = 0.2)
movej(p[0.477192399267337, -0.00314266749529589, 0.423730753870759, -1.189, 1.012, -1.115], a = 0.2, v = 0.2, t = 0.2)
movej(p[0.477251374624022, -0.00312509359825696, 0.423188434126101, -1.189, 1.012, -1.115], a = 0.2, v = 0.2, t = 0.2)
movej(p[0.477275729782315, -0.00311783607463554, 0.42296447137336, -1.189, 1.012, -1.115], a = 0.2, v = 0.2, t = 0.2)
movej(p[0.477270791757763, -0.00311930754237955, 0.423009879970521, -1.189, 1.012, -1.115], a = 0.2, v = 0.2, t = 0.2)
movej(p[0.477216387045248, -0.00313551944629874, 0.423510169438157, -1.189, 1.012, -1.115], a = 0.2, v = 0.2, t = 0.2)
movej(p[0.477140620244026, -0.00315809697763567, 0.424206898285638, -1.189, 1.012, -1.115], a = 0.2, v = 0.2, t = 0.2)
movej(p[0.477089326378926, -0.00317338188907456, 0.424678581330685, -1.189, 1.012, -1.115], a = 0.2, v = 0.2, t = 0.2)
movej(p[0.477074102784196, -0.00317791832431423, 0.424818572955502, -1.189, 1.012, -1.115], a = 0.2, v = 0.2, t = 0.2)
movej(p[0.477031741665041, -0.00319054139246216, 0.425208113139995, -1.189, 1.012, -1.115], a = 0.2, v = 0.2, t = 0.2)
movej(p[0.476988535571007, -0.00320341625224593, 0.425605423460807, -1.189, 1.012, -1.115], a = 0.2, v = 0.2, t = 0.2)
movej(p[0.476997960174453, -0.00320060784175211, 0.42551875762576, -1.189, 1.012, -1.115], a = 0.2, v = 0.2, t = 0.2)
movej(p[0.477064477418177, -0.00318078655947038, 0.424907084943143, -1.189, 1.012, -1.115], a = 0.2, v = 0.2, t = 0.2)
movej(p[0.477121159889063, -0.00316389591288065, 0.424385849890645, -1.189, 1.012, -1.115], a = 0.2, v = 0.2, t = 0.2)
movej(p[0.477195078983068, -0.00314186897450702, 0.423706112006217, -1.189, 1.012, -1.115], a = 0.2, v = 0.2, t = 0.2)
movej(p[0.477244923856718, -0.00312701584386566, 0.423247753453246, -1.189, 1.012, -1.115], a = 0.2, v = 0.2, t = 0.2)
movej(p[0.477285206035121, -0.00311501227329748, 0.422877330586246, -1.189, 1.012, -1.115], a = 0.2, v = 0.2, t = 0.2)
movej(p[0.477235879816128, -0.00312971085152809, 0.423330919746079, -1.189, 1.012, -1.115], a = 0.2, v = 0.2, t = 0.2)
movej(p[0.477181399466475, -0.00314594529434052, 0.423831904750214, -1.189, 1.012, -1.115], a = 0.2, v = 0.2, t = 0.2)
movej(p[0.477143040632428, -0.00315737573305217, 0.424184641117663, -1.189, 1.012, -1.115], a = 0.2, v = 0.2, t = 0.2)
movej(p[0.477107145408004, -0.00316807204781276, 0.42451472286771, -1.189, 1.012, -1.115], a = 0.2, v = 0.2, t = 0.2)
movej(p[0.477046332068876, -0.00318619363995727, 0.4250739441493, -1.189, 1.012, -1.115], a = 0.2, v = 0.2, t = 0.2)
movej(p[0.476998272771937, -0.00320051469172621, 0.425515883072771, -1.189, 1.012, -1.115], a = 0.2, v = 0.2, t = 0.2)
movej(p[0.476988824072661, -0.00320333028246745, 0.425602770485874, -1.189, 1.012, -1.115], a = 0.2, v = 0.2, t = 0.2)
movej(p[0.476980723335228, -0.00320574419793284, 0.425677262444938, -1.189, 1.012, -1.115], a = 0.2, v = 0.2, t = 0.2)
movej(p[0.476991732428653, -0.00320246362982418, 0.425576026113856, -1.189, 1.012, -1.115], a = 0.2, v = 0.2, t = 0.2)
movej(p[0.477054129177228, -0.00318387020204901, 0.425002244272468, -1.189, 1.012, -1.115], a = 0.2, v = 0.2, t = 0.2)
movej(p[0.477150107302137, -0.00315526995645571, 0.424119658136167, -1.189, 1.012, -1.115], a = 0.2, v = 0.2, t = 0.2)
movej(p[0.477214982355551, -0.00313593802574452, 0.423523086544571, -1.189, 1.012, -1.115], a = 0.2, v = 0.2, t = 0.2)
movej(p[0.477233999692994, -0.00313027110401706, 0.423348208796202, -1.189, 1.012, -1.115], a = 0.2, v = 0.2, t = 0.2)
movej(p[0.477220179707432, -0.00313438928179514, 0.42347529325084, -1.189, 1.012, -1.115], a = 0.2, v = 0.2, t = 0.2)
movej(p[0.477191026993556, -0.00314307641521599, 0.423743372890102, -1.189, 1.012, -1.115], a = 0.2, v = 0.2, t = 0.2)
movej(p[0.47712419617987, -0.00316299113730939, 0.42435792906832, -1.189, 1.012, -1.115], a = 0.2, v = 0.2, t = 0.2)
movej(p[0.477076891633511, -0.00317708728312227, 0.424792927531153, -1.189, 1.012, -1.115], a = 0.2, v = 0.2, t = 0.2)
movej(p[0.477044743688988, -0.00318666695671519, 0.425088550415783, -1.189, 1.012, -1.115], a = 0.2, v = 0.2, t = 0.2)
movej(p[0.477022824046523, -0.00319319872797447, 0.42529011689325, -1.189, 1.012, -1.115], a = 0.2, v = 0.2, t = 0.2)
movej(p[0.476962308933824, -0.00321123145248281, 0.425846595773785, -1.189, 1.012, -1.115], a = 0.2, v = 0.2, t = 0.2)
movej(p[0.476949220467435, -0.0032151316469649, 0.425966953396853, -1.189, 1.012, -1.115], a = 0.2, v = 0.2, t = 0.2)
movej(p[0.477002576308958, -0.00319923229309802, 0.425476309033214, -1.189, 1.012, -1.115], a = 0.2, v = 0.2, t = 0.2)
movej(p[0.477103790360688, -0.00316907180871979, 0.424545574879568, -1.189, 1.012, -1.115], a = 0.2, v = 0.2, t = 0.2)
movej(p[0.477164597216632, -0.00315095214848041, 0.423986413215392, -1.189, 1.012, -1.115], a = 0.2, v = 0.2, t = 0.2)
movej(p[0.477202772360488, -0.00313957644708091, 0.423635366008013, -1.189, 1.012, -1.115], a = 0.2, v = 0.2, t = 0.2)
movej(p[0.477207105287939, -0.00313828529048277, 0.423595521702844, -1.189, 1.012, -1.115], a = 0.2, v = 0.2, t = 0.2)
movej(p[0.477178492839332, -0.0031468114318091, 0.423858633224254, -1.189, 1.012, -1.115], a = 0.2, v = 0.2, t = 0.2)
movej(p[0.477114827980119, -0.00316578274022854, 0.424444076231863, -1.189, 1.012, -1.115], a = 0.2, v = 0.2, t = 0.2)
movej(p[0.477073629511821, -0.00317805935338904, 0.42482292502674, -1.189, 1.012, -1.115], a = 0.2, v = 0.2, t = 0.2)
movej(p[0.477061109404494, -0.00318179018418768, 0.424938056189828, -1.189, 1.012, -1.115], a = 0.2, v = 0.2, t = 0.2)
movej(p[0.477040340527051, -0.00318797904228562, 0.425129040576272, -1.189, 1.012, -1.115], a = 0.2, v = 0.2, t = 0.2)
movej(p[0.476994822745987, -0.00320154275504346, 0.425547608479746, -1.189, 1.012, -1.115], a = 0.2, v = 0.2, t = 0.2)
movej(p[0.476980202519509, -0.00320589939431197, 0.425682051710547, -1.189, 1.012, -1.115], a = 0.2, v = 0.2, t = 0.2)
movej(p[0.47700968944148, -0.00319711267118144, 0.425410898793582, -1.189, 1.012, -1.115], a = 0.2, v = 0.2, t = 0.2)
movej(p[0.477054926608764, -0.00318363257771749, 0.42499491133052, -1.189, 1.012, -1.115], a = 0.2, v = 0.2, t = 0.2)
movej(p[0.477124455507199, -0.00316291386110401, 0.424355544371752, -1.189, 1.012, -1.115], a = 0.2, v = 0.2, t = 0.2)
movej(p[0.477199628016626, -0.00314051342107107, 0.423664280453908, -1.189, 1.012, -1.115], a = 0.2, v = 0.2, t = 0.2)
movej(p[0.477270489209213, -0.00311939769795248, 0.423012662116518, -1.189, 1.012, -1.115], a = 0.2, v = 0.2, t = 0.2)
movej(p[0.477252109384786, -0.0031248746490084, 0.423181677485823, -1.189, 1.012, -1.115], a = 0.2, v = 0.2, t = 0.2)
movej(p[0.47720432832446, -0.00313911278984866, 0.423621057828601, -1.189, 1.012, -1.115], a = 0.2, v = 0.2, t = 0.2)
movej(p[0.47714739517049, -0.00315607813677026, 0.424144598087781, -1.189, 1.012, -1.115], a = 0.2, v = 0.2, t = 0.2)
movej(p[0.477108744593198, -0.00316759551121295, 0.42450001723887, -1.189, 1.012, -1.115], a = 0.2, v = 0.2, t = 0.2)
movej(p[0.477048052273491, -0.00318568104112829, 0.425058125662061, -1.189, 1.012, -1.115], a = 0.2, v = 0.2, t = 0.2)
movej(p[0.477015549914951, -0.00319536632553523, 0.425357007632001, -1.189, 1.012, -1.115], a = 0.2, v = 0.2, t = 0.2)
movej(p[0.477007940494754, -0.00319763383478985, 0.425426981584691, -1.189, 1.012, -1.115], a = 0.2, v = 0.2, t = 0.2)
movej(p[0.477013380209634, -0.00319601286978686, 0.425376959593292, -1.189, 1.012, -1.115], a = 0.2, v = 0.2, t = 0.2)
movej(p[0.477017592117665, -0.00319475777541791, 0.425338228146523, -1.189, 1.012, -1.115], a = 0.2, v = 0.2, t = 0.2)
movej(p[0.477093272476445, -0.00317220600281611, 0.424642294197899, -1.189, 1.012, -1.115], a = 0.2, v = 0.2, t = 0.2)
movej(p[0.47723610672754, -0.00312964323484839, 0.423328833136581, -1.189, 1.012, -1.115], a = 0.2, v = 0.2, t = 0.2)
movej(p[0.477418359813139, -0.00307533416167955, 0.42165288826059, -1.189, 1.012, -1.115], a = 0.2, v = 0.2, t = 0.2)
movej(p[0.477601315243587, -0.00302081579878783, 0.419970484831392, -1.189, 1.012, -1.115], a = 0.2, v = 0.2, t = 0.2)
movej(p[0.477788095752134, -0.00296515761186683, 0.418252907127806, -1.189, 1.012, -1.115], a = 0.2, v = 0.2, t = 0.2)
movej(p[0.477953622225027, -0.00291583285394465, 0.416730775180494, -1.189, 1.012, -1.115], a = 0.2, v = 0.2, t = 0.2)
movej(p[0.478001770665735, -0.00290148523848011, 0.416288016517577, -1.189, 1.012, -1.115], a = 0.2, v = 0.2, t = 0.2)
movej(p[0.477942870946188, -0.0029190365966258, 0.416829640725737, -1.189, 1.012, -1.115], a = 0.2, v = 0.2, t = 0.2)
movej(p[0.47778635609797, -0.00296567600641122, 0.418268904467288, -1.189, 1.012, -1.115], a = 0.2, v = 0.2, t = 0.2)
movej(p[0.477627636967457, -0.00301297226394231, 0.419728438129672, -1.189, 1.012, -1.115], a = 0.2, v = 0.2, t = 0.2)
movej(p[0.477471262588208, -0.00305956981578315, 0.421166410160581, -1.189, 1.012, -1.115], a = 0.2, v = 0.2, t = 0.2)
movej(p[0.477368439302351, -0.00309020983121415, 0.422111942350059, -1.189, 1.012, -1.115], a = 0.2, v = 0.2, t = 0.2)
movej(p[0.47730040909977, -0.0031104819557574, 0.422737527749908, -1.189, 1.012, -1.115], a = 0.2, v = 0.2, t = 0.2)
movej(p[0.477267042316801, -0.00312042482751559, 0.42304435870841, -1.189, 1.012, -1.115], a = 0.2, v = 0.2, t = 0.2)
movej(p[0.477216689593799, -0.00313542929072581, 0.423507387292161, -1.189, 1.012, -1.115], a = 0.2, v = 0.2, t = 0.2)
movej(p[0.477247614377754, -0.00312621410323489, 0.423223012226346, -1.189, 1.012, -1.115], a = 0.2, v = 0.2, t = 0.2)
movej(p[0.477366051329865, -0.00309092141627197, 0.422133901430963, -1.189, 1.012, -1.115], a = 0.2, v = 0.2, t = 0.2)
movej(p[0.477530389219168, -0.00304195084095776, 0.420622699342924, -1.189, 1.012, -1.115], a = 0.2, v = 0.2, t = 0.2)
movej(p[0.47765537418633, -0.00300470692980913, 0.419473374959181, -1.189, 1.012, -1.115], a = 0.2, v = 0.2, t = 0.2)
movej(p[0.477767630503772, -0.00297125599240764, 0.418441099432017, -1.189, 1.012, -1.115], a = 0.2, v = 0.2, t = 0.2)
movej(p[0.477892280506467, -0.00293411189635762, 0.417294855281342, -1.189, 1.012, -1.115], a = 0.2, v = 0.2, t = 0.2)
movej(p[0.477971775138041, -0.00291042351956843, 0.416563846420687, -1.189, 1.012, -1.115], a = 0.2, v = 0.2, t = 0.2)
movej(p[0.477979490126072, -0.00290812455245854, 0.416492901697769, -1.189, 1.012, -1.115], a = 0.2, v = 0.2, t = 0.2)
movej(p[0.4779052360676, -0.00293025130593078, 0.417175719815266, -1.189, 1.012, -1.115], a = 0.2, v = 0.2, t = 0.2)
movej(p[0.47777217953733, -0.00296990043897169, 0.418399267879708, -1.189, 1.012, -1.115], a = 0.2, v = 0.2, t = 0.2)
movej(p[0.477597749492816, -0.00302187834661173, 0.420003274409211, -1.189, 1.012, -1.115], a = 0.2, v = 0.2, t = 0.2)
movej(p[0.477441104980933, -0.00306855639449983, 0.421443730499046, -1.189, 1.012, -1.115], a = 0.2, v = 0.2, t = 0.2)
movej(p[0.477348708814754, -0.00309608926250639, 0.422293378013992, -1.189, 1.012, -1.115], a = 0.2, v = 0.2, t = 0.2)
movej(p[0.47729893957824, -0.00311091985425452, 0.422751041030463, -1.189, 1.012, -1.115], a = 0.2, v = 0.2, t = 0.2)
movej(p[0.477237965240063, -0.0031290894220432, 0.423311742811172, -1.189, 1.012, -1.115], a = 0.2, v = 0.2, t = 0.2)
movej(p[0.477197899167768, -0.00314102859577357, 0.423680178431032, -1.189, 1.012, -1.115], a = 0.2, v = 0.2, t = 0.2)
movej(p[0.477186088969004, -0.00314454788296, 0.423788781487264, -1.189, 1.012, -1.115], a = 0.2, v = 0.2, t = 0.2)
movej(p[0.477185354208239, -0.00314476683220856, 0.423795538127542, -1.189, 1.012, -1.115], a = 0.2, v = 0.2, t = 0.2)
movej(p[0.477149999249083, -0.00315530215487462, 0.424120651759737, -1.189, 1.012, -1.115], a = 0.2, v = 0.2, t = 0.2)
movej(p[0.477158481413795, -0.0031527745789905, 0.42404265230947, -1.189, 1.012, -1.115], a = 0.2, v = 0.2, t = 0.2)
movej(p[0.477170334833781, -0.0031492424124365, 0.423933651803811, -1.189, 1.012, -1.115], a = 0.2, v = 0.2, t = 0.2)
movej(p[0.477165893853276, -0.00315056576745354, 0.423974489732549, -1.189, 1.012, -1.115], a = 0.2, v = 0.2, t = 0.2)
movej(p[0.477110224920033, -0.00316715439287394, 0.424486404595957, -1.189, 1.012, -1.115], a = 0.2, v = 0.2, t = 0.2)
movej(p[0.477083550943208, -0.00317510289456509, 0.424731690510517, -1.189, 1.012, -1.115], a = 0.2, v = 0.2, t = 0.2)
movej(p[0.477077504294325, -0.00317690471808707, 0.42478729368551, -1.189, 1.012, -1.115], a = 0.2, v = 0.2, t = 0.2)
movej(p[0.477056038474686, -0.00318330125598694, 0.424984686943981, -1.189, 1.012, -1.115], a = 0.2, v = 0.2, t = 0.2)
movej(p[0.477066770303975, -0.0031801033090212, 0.424886000250981, -1.189, 1.012, -1.115], a = 0.2, v = 0.2, t = 0.2)
movej(p[0.477142284261052, -0.00315760112198451, 0.424191596482655, -1.189, 1.012, -1.115], a = 0.2, v = 0.2, t = 0.2)
movej(p[0.477286329786879, -0.00311467740974086, 0.422866996901115, -1.189, 1.012, -1.115], a = 0.2, v = 0.2, t = 0.2)
movej(p[0.477411303948735, -0.00307743671843412, 0.421717771879729, -1.189, 1.012, -1.115], a = 0.2, v = 0.2, t = 0.2)
movej(p[0.477542944984003, -0.00303820938468088, 0.420507240284057, -1.189, 1.012, -1.115], a = 0.2, v = 0.2, t = 0.2)
movej(p[0.47764014951107, -0.00300924368703299, 0.419613376520233, -1.189, 1.012, -1.115], a = 0.2, v = 0.2, t = 0.2)
movej(p[0.477651462665788, -0.00300587251257353, 0.419509344132425, -1.189, 1.012, -1.115], a = 0.2, v = 0.2, t = 0.2)
movej(p[0.477552583316389, -0.00303533728571446, 0.420418609061588, -1.189, 1.012, -1.115], a = 0.2, v = 0.2, t = 0.2)
movej(p[0.477428505994877, -0.00307231073014428, 0.421559587007341, -1.189, 1.012, -1.115], a = 0.2, v = 0.2, t = 0.2)
movej(p[0.477348914115555, -0.00309602808551047, 0.422291490129209, -1.189, 1.012, -1.115], a = 0.2, v = 0.2, t = 0.2)
movej(p[0.477275816224758, -0.00311781031590042, 0.422963676474503, -1.189, 1.012, -1.115], a = 0.2, v = 0.2, t = 0.2)
movej(p[0.477221994998733, -0.00313384834835752, 0.42345860037486, -1.189, 1.012, -1.115], a = 0.2, v = 0.2, t = 0.2)
movej(p[0.477175208026501, -0.00314779026374384, 0.423888839380791, -1.189, 1.012, -1.115], a = 0.2, v = 0.2, t = 0.2)
movej(p[0.47715760618406, -0.00315303538618363, 0.42405070066039, -1.189, 1.012, -1.115], a = 0.2, v = 0.2, t = 0.2)
movej(p[0.47713053889412, -0.0031611010901196, 0.424299603364745, -1.189, 1.012, -1.115], a = 0.2, v = 0.2, t = 0.2)
movej(p[0.477166509755681, -0.00315038223646578, 0.423968826078199, -1.189, 1.012, -1.115], a = 0.2, v = 0.2, t = 0.2)
movej(p[0.477270283908411, -0.00311945887494841, 0.423014550001302, -1.189, 1.012, -1.115], a = 0.2, v = 0.2, t = 0.2)
movej(p[0.47742355716502, -0.00307378541773017, 0.42160509496686, -1.189, 1.012, -1.115], a = 0.2, v = 0.2, t = 0.2)
movej(p[0.477561875879003, -0.00303256822168854, 0.420333157434544, -1.189, 1.012, -1.115], a = 0.2, v = 0.2, t = 0.2)
movej(p[0.477681706715506, -0.00299686017512173, 0.419231228895104, -1.189, 1.012, -1.115], a = 0.2, v = 0.2, t = 0.2)
movej(p[0.477764086363612, -0.00297231210054775, 0.418473690285122, -1.189, 1.012, -1.115], a = 0.2, v = 0.2, t = 0.2)
movej(p[0.477738791143751, -0.00297984975041366, 0.418706297562925, -1.189, 1.012, -1.115], a = 0.2, v = 0.2, t = 0.2)
movej(p[0.47763217519571, -0.00301161993034826, 0.41968670593972, -1.189, 1.012, -1.115], a = 0.2, v = 0.2, t = 0.2)
movej(p[0.477491663004738, -0.00305349075429369, 0.420978814030512, -1.189, 1.012, -1.115], a = 0.2, v = 0.2, t = 0.2)
movej(p[0.477400541864591, -0.00308064368095716, 0.421816736787329, -1.189, 1.012, -1.115], a = 0.2, v = 0.2, t = 0.2)
movej(p[0.477311614201434, -0.00310714297971684, 0.42263448898567, -1.189, 1.012, -1.115], a = 0.2, v = 0.2, t = 0.2)
movej(p[0.477255653524946, -0.00312381854086828, 0.423149086632718, -1.189, 1.012, -1.115], a = 0.2, v = 0.2, t = 0.2)
movej(p[0.477210465737908, -0.00313728391965479, 0.423564620009809, -1.189, 1.012, -1.115], a = 0.2, v = 0.2, t = 0.2)
movej(p[0.477193912010088, -0.0031422167174312, 0.423716843140776, -1.189, 1.012, -1.115], a = 0.2, v = 0.2, t = 0.2)
movej(p[0.477157368467342, -0.00315310622270523, 0.424052886632244, -1.189, 1.012, -1.115], a = 0.2, v = 0.2, t = 0.2)
movej(p[0.477170550939888, -0.00314917801559869, 0.42393166455667, -1.189, 1.012, -1.115], a = 0.2, v = 0.2, t = 0.2)
movej(p[0.477237187258077, -0.00312932125065933, 0.423318896900878, -1.189, 1.012, -1.115], a = 0.2, v = 0.2, t = 0.2)
movej(p[0.477331247441283, -0.00310129252700161, 0.42245394758295, -1.189, 1.012, -1.115], a = 0.2, v = 0.2, t = 0.2)
movej(p[0.47738215123486, -0.00308612385185497, 0.421985851518991, -1.189, 1.012, -1.115], a = 0.2, v = 0.2, t = 0.2)
movej(p[0.477407716587354, -0.0030785057059418, 0.421750760182263, -1.189, 1.012, -1.115], a = 0.2, v = 0.2, t = 0.2)
movej(p[0.477405317809563, -0.00307922051084151, 0.421772818625523, -1.189, 1.012, -1.115], a = 0.2, v = 0.2, t = 0.2)
movej(p[0.477341890667068, -0.00309812098273937, 0.422356075661277, -1.189, 1.012, -1.115], a = 0.2, v = 0.2, t = 0.2)
movej(p[0.477256042515939, -0.00312370262656022, 0.423145509587865, -1.189, 1.012, -1.115], a = 0.2, v = 0.2, t = 0.2)
movej(p[0.477195673274863, -0.00314169188320303, 0.42370064707658, -1.189, 1.012, -1.115], a = 0.2, v = 0.2, t = 0.2)
movej(p[0.477169448798741, -0.00314950643947153, 0.423941799517087, -1.189, 1.012, -1.115], a = 0.2, v = 0.2, t = 0.2)
movej(p[0.477123569472159, -0.00316317788813904, 0.424363692085028, -1.189, 1.012, -1.115], a = 0.2, v = 0.2, t = 0.2)
movej(p[0.477083497997211, -0.00317511867179035, 0.424732177386066, -1.189, 1.012, -1.115], a = 0.2, v = 0.2, t = 0.2)
movej(p[0.477083562829044, -0.00317509935273901, 0.424731581211924, -1.189, 1.012, -1.115], a = 0.2, v = 0.2, t = 0.2)
movej(p[0.477136805971232, -0.00315923358182305, 0.424241973197669, -1.189, 1.012, -1.115], a = 0.2, v = 0.2, t = 0.2)
movej(p[0.47718434931484, -0.00314506627750439, 0.423804778826745, -1.189, 1.012, -1.115], a = 0.2, v = 0.2, t = 0.2)
movej(p[0.477246004387255, -0.00312669385967659, 0.423237817217544, -1.189, 1.012, -1.115], a = 0.2, v = 0.2, t = 0.2)
movej(p[0.477300149772441, -0.00311055923196277, 0.422739912446476, -1.189, 1.012, -1.115], a = 0.2, v = 0.2, t = 0.2)
movej(p[0.477311354874105, -0.00310722025592222, 0.422636873682238, -1.189, 1.012, -1.115], a = 0.2, v = 0.2, t = 0.2)
movej(p[0.477256766471399, -0.00312348689715355, 0.423138852309944, -1.189, 1.012, -1.115], a = 0.2, v = 0.2, t = 0.2)
movej(p[0.4772046092624, -0.0031390290739595, 0.423618474407318, -1.189, 1.012, -1.115], a = 0.2, v = 0.2, t = 0.2)
movej(p[0.477177055733718, -0.00314723967078055, 0.423871848417739, -1.189, 1.012, -1.115], a = 0.2, v = 0.2, t = 0.2)
movej(p[0.477138178245013, -0.00315882466190294, 0.424229354178326, -1.189, 1.012, -1.115], a = 0.2, v = 0.2, t = 0.2)
movej(p[0.477092150885748, -0.00317254022240435, 0.424652608010558, -1.189, 1.012, -1.115], a = 0.2, v = 0.2, t = 0.2)
movej(p[0.47706778708321, -0.00317980032189929, 0.424876650253185, -1.189, 1.012, -1.115], a = 0.2, v = 0.2, t = 0.2)
movej(p[0.477063615154809, -0.00318104350285325, 0.424915014059233, -1.189, 1.012, -1.115], a = 0.2, v = 0.2, t = 0.2)
movej(p[0.477023493975456, -0.00319299909777726, 0.425283956427114, -1.189, 1.012, -1.115], a = 0.2, v = 0.2, t = 0.2)
movej(p[0.476990508835873, -0.00320282824471987, 0.425587277907166, -1.189, 1.012, -1.115], a = 0.2, v = 0.2, t = 0.2)
movej(p[0.476990970870731, -0.00320269056428063, 0.42558302917278, -1.189, 1.012, -1.115], a = 0.2, v = 0.2, t = 0.2)
movej(p[0.477022439377652, -0.00319331335434578, 0.42529365419316, -1.189, 1.012, -1.115], a = 0.2, v = 0.2, t = 0.2)
movej(p[0.477029489839403, -0.00319121240751216, 0.425228820255199, -1.189, 1.012, -1.115], a = 0.2, v = 0.2, t = 0.2)
movej(p[0.47704291543132, -0.00318721175396308, 0.425105362526592, -1.189, 1.012, -1.115], a = 0.2, v = 0.2, t = 0.2)
movej(p[0.477060362757893, -0.00318201267526232, 0.424944922128699, -1.189, 1.012, -1.115], a = 0.2, v = 0.2, t = 0.2)
movej(p[0.477058949423952, -0.00318243383058162, 0.424957918724998, -1.189, 1.012, -1.115], a = 0.2, v = 0.2, t = 0.2)
movej(p[0.477017062657703, -0.00319491554767055, 0.425343096902017, -1.189, 1.012, -1.115], a = 0.2, v = 0.2, t = 0.2)
movej(p[0.476986395040014, -0.00320405410292446, 0.425625107143734, -1.189, 1.012, -1.115], a = 0.2, v = 0.2, t = 0.2)
movej(p[0.476980003701891, -0.00320595863940275, 0.425683879977916, -1.189, 1.012, -1.115], a = 0.2, v = 0.2, t = 0.2)
movej(p[0.476960655722103, -0.00321172408829207, 0.42586179821441, -1.189, 1.012, -1.115], a = 0.2, v = 0.2, t = 0.2)
movej(p[0.476961310523608, -0.0032115289658735, 0.425855776855574, -1.189, 1.012, -1.115], a = 0.2, v = 0.2, t = 0.2)
movej(p[0.477012736213434, -0.00319620477236354, 0.425382881589771, -1.189, 1.012, -1.115], a = 0.2, v = 0.2, t = 0.2)
movej(p[0.477110246530644, -0.00316714795319016, 0.424486205871243, -1.189, 1.012, -1.115], a = 0.2, v = 0.2, t = 0.2)
movej(p[0.477192129134703, -0.00314274799134315, 0.423733237929685, -1.189, 1.012, -1.115], a = 0.2, v = 0.2, t = 0.2)
movej(p[0.477253535685095, -0.00312444962987884, 0.423168561654695, -1.189, 1.012, -1.115], a = 0.2, v = 0.2, t = 0.2)
movej(p[0.477276129578614, -0.00311771694048559, 0.42296079496615, -1.189, 1.012, -1.115], a = 0.2, v = 0.2, t = 0.2)
movej(p[0.477242579105454, -0.00312771454955592, 0.423269315084721, -1.189, 1.012, -1.115], a = 0.2, v = 0.2, t = 0.2)
movej(p[0.477156169078447, -0.00315346362515509, 0.424063915853874, -1.189, 1.012, -1.115], a = 0.2, v = 0.2, t = 0.2)
movej(p[0.47708736089388, -0.00317396757831446, 0.424696655343429, -1.189, 1.012, -1.115], a = 0.2, v = 0.2, t = 0.2)
movej(p[0.477060621004692, -0.00318193572104114, 0.424942547368366, -1.189, 1.012, -1.115], a = 0.2, v = 0.2, t = 0.2)
movej(p[0.477028298014222, -0.00319156755607269, 0.425239779923179, -1.189, 1.012, -1.115], a = 0.2, v = 0.2, t = 0.2)
movej(p[0.476983346863371, -0.0032049624203218, 0.425653137264652, -1.189, 1.012, -1.115], a = 0.2, v = 0.2, t = 0.2)
movej(p[0.476962473174466, -0.00321118251088607, 0.425845085465958, -1.189, 1.012, -1.115], a = 0.2, v = 0.2, t = 0.2)
movej(p[0.476992290630728, -0.00320229729279211, 0.425570893054492, -1.189, 1.012, -1.115], a = 0.2, v = 0.2, t = 0.2)
movej(p[0.477035298771568, -0.00318948142051177, 0.425175403052061, -1.189, 1.012, -1.115], a = 0.2, v = 0.2, t = 0.2)
movej(p[0.477089379324922, -0.00317336611184929, 0.424678094455136, -1.189, 1.012, -1.115], a = 0.2, v = 0.2, t = 0.2)
movej(p[0.477166455729155, -0.00315039833567523, 0.423969322889984, -1.189, 1.012, -1.115], a = 0.2, v = 0.2, t = 0.2)
movej(p[0.477232195206998, -0.00313080881761279, 0.423364802309825, -1.189, 1.012, -1.115], a = 0.2, v = 0.2, t = 0.2)
movej(p[0.477227624562828, -0.00313217081073251, 0.423406832586848, -1.189, 1.012, -1.115], a = 0.2, v = 0.2, t = 0.2)
movej(p[0.477182415165179, -0.00314564262920281, 0.423822564688653, -1.189, 1.012, -1.115], a = 0.2, v = 0.2, t = 0.2)
movej(p[0.477130322788013, -0.00316116548695741, 0.424301590611885, -1.189, 1.012, -1.115], a = 0.2, v = 0.2, t = 0.2)
movej(p[0.477092603628043, -0.00317240531102914, 0.424648444727799, -1.189, 1.012, -1.115], a = 0.2, v = 0.2, t = 0.2)
movej(p[0.477029198096158, -0.00319129934324321, 0.425231503038839, -1.189, 1.012, -1.115], a = 0.2, v = 0.2, t = 0.2)
movej(p[0.476989858896755, -0.00320302191820959, 0.425593254552942, -1.189, 1.012, -1.115], a = 0.2, v = 0.2, t = 0.2)
movej(p[0.476982531062816, -0.00320520551838454, 0.425660639122607, -1.189, 1.012, -1.115], a = 0.2, v = 0.2, t = 0.2)
movej(p[0.477002705324304, -0.00319919384818585, 0.425475122646671, -1.189, 1.012, -1.115], a = 0.2, v = 0.2, t = 0.2)
movej(p[0.477015902167906, -0.0031952613586896, 0.425353768419162, -1.189, 1.012, -1.115], a = 0.2, v = 0.2, t = 0.2)
movej(p[0.477083830800617, -0.00317501950066012, 0.42472911702547, -1.189, 1.012, -1.115], a = 0.2, v = 0.2, t = 0.2)
movej(p[0.477215501010208, -0.00313578347333377, 0.423518317151434, -1.189, 1.012, -1.115], a = 0.2, v = 0.2, t = 0.2)
movej(p[0.477390330851021, -0.00308368643154378, 0.421910634214721, -1.189, 1.012, -1.115], a = 0.2, v = 0.2, t = 0.2)
movej(p[0.477570141937607, -0.00303010504264222, 0.420257145231418, -1.189, 1.012, -1.115], a = 0.2, v = 0.2, t = 0.2)
movej(p[0.477765318168423, -0.00297194503857222, 0.418462362976421, -1.189, 1.012, -1.115], a = 0.2, v = 0.2, t = 0.2)
movej(p[0.477954508260067, -0.00291556882690962, 0.416722627467218, -1.189, 1.012, -1.115], a = 0.2, v = 0.2, t = 0.2)
movej(p[0.478099115661773, -0.00287247768288765, 0.415392861043112, -1.189, 1.012, -1.115], a = 0.2, v = 0.2, t = 0.2)
movej(p[0.478178750762316, -0.00284874744815389, 0.414660560471816, -1.189, 1.012, -1.115], a = 0.2, v = 0.2, t = 0.2)
movej(p[0.478162650857321, -0.0028535450125709, 0.414808610383788, -1.189, 1.012, -1.115], a = 0.2, v = 0.2, t = 0.2)
movej(p[0.47811381087707, -0.00286809869791643, 0.415257728237554, -1.189, 1.012, -1.115], a = 0.2, v = 0.2, t = 0.2)
movej(p[0.478042582304101, -0.0028893238956593, 0.415912724895083, -1.189, 1.012, -1.115], a = 0.2, v = 0.2, t = 0.2)
movej(p[0.477997718676223, -0.00290269267918909, 0.416325277401463, -1.189, 1.012, -1.115], a = 0.2, v = 0.2, t = 0.2)
movej(p[0.477915522718308, -0.00292718601645092, 0.417081126851375, -1.189, 1.012, -1.115], a = 0.2, v = 0.2, t = 0.2)
movej(p[0.47777290349279, -0.00296968470956502, 0.418392610601787, -1.189, 1.012, -1.115], a = 0.2, v = 0.2, t = 0.2)
movej(p[0.477582589649388, -0.00302639578478425, 0.420142679796121, -1.189, 1.012, -1.115], a = 0.2, v = 0.2, t = 0.2)
movej(p[0.477475617126271, -0.00305827221950124, 0.421126367130699, -1.189, 1.012, -1.115], a = 0.2, v = 0.2, t = 0.2)
movej(p[0.477410320665947, -0.00307772972404616, 0.421726813854219, -1.189, 1.012, -1.115], a = 0.2, v = 0.2, t = 0.2)
movej(p[0.477363512083104, -0.00309167807911626, 0.422157251584864, -1.189, 1.012, -1.115], a = 0.2, v = 0.2, t = 0.2)
movej(p[0.477283628460537, -0.00311548237021351, 0.422891837490372, -1.189, 1.012, -1.115], a = 0.2, v = 0.2, t = 0.2)
movej(p[0.477284406442524, -0.00311525054159738, 0.422884683400666, -1.189, 1.012, -1.115], a = 0.2, v = 0.2, t = 0.2)
movej(p[0.477381502916538, -0.00308631704236841, 0.421991813260413, -1.189, 1.012, -1.115], a = 0.2, v = 0.2, t = 0.2)
movej(p[0.477522512151557, -0.00304429810569601, 0.420695134501197, -1.189, 1.012, -1.115], a = 0.2, v = 0.2, t = 0.2)
movej(p[0.477651181727848, -0.00300595622846269, 0.419511927553708, -1.189, 1.012, -1.115], a = 0.2, v = 0.2, t = 0.2)
movej(p[0.47779642664257, -0.00296267511376917, 0.418176298750537, -1.189, 1.012, -1.115], a = 0.2, v = 0.2, t = 0.2)
movej(p[0.477951385526816, -0.00291649936121601, 0.416751343188399, -1.189, 1.012, -1.115], a = 0.2, v = 0.2, t = 0.2)
movej(p[0.478041307278067, -0.00288970383700239, 0.415924449653212, -1.189, 1.012, -1.115], a = 0.2, v = 0.2, t = 0.2)
movej(p[0.478035580466224, -0.00289141035320441, 0.415977111702437, -1.189, 1.012, -1.115], a = 0.2, v = 0.2, t = 0.2)
movej(p[0.477960699700041, -0.0029137238575063, 0.416665692836641, -1.189, 1.012, -1.115], a = 0.2, v = 0.2, t = 0.2)
movej(p[0.477823623596175, -0.00295457077173052, 0.417926203697898, -1.189, 1.012, -1.115], a = 0.2, v = 0.2, t = 0.2)
movej(p[0.477649971533647, -0.00300631685075443, 0.419523056137695, -1.189, 1.012, -1.115], a = 0.2, v = 0.2, t = 0.2)
movej(p[0.47750767646729, -0.00304871894861181, 0.420831559017397, -1.189, 1.012, -1.115], a = 0.2, v = 0.2, t = 0.2)
movej(p[0.477424702527389, -0.00307344411448977, 0.421594562557015, -1.189, 1.012, -1.115], a = 0.2, v = 0.2, t = 0.2)
movej(p[0.477372534513084, -0.00308898951113761, 0.422074284016746, -1.189, 1.012, -1.115], a = 0.2, v = 0.2, t = 0.2)
movej(p[0.477292456395021, -0.00311285175938888, 0.42281065844468, -1.189, 1.012, -1.115], a = 0.2, v = 0.2, t = 0.2)
movej(p[0.477256031710634, -0.00312370584640211, 0.423145608950222, -1.189, 1.012, -1.115], a = 0.2, v = 0.2, t = 0.2)
movej(p[0.477291300227347, -0.00311319628247118, 0.422821290216882, -1.189, 1.012, -1.115], a = 0.2, v = 0.2, t = 0.2)
movej(p[0.47736958466472, -0.00308986852797374, 0.422101409940214, -1.189, 1.012, -1.115], a = 0.2, v = 0.2, t = 0.2)
movej(p[0.477456275629666, -0.00306403573648542, 0.421304225749779, -1.189, 1.012, -1.115], a = 0.2, v = 0.2, t = 0.2)
movej(p[0.477579585774497, -0.00302729090082984, 0.420170302531375, -1.189, 1.012, -1.115], a = 0.2, v = 0.2, t = 0.2)
movej(p[0.477747521830487, -0.00297724811816605, 0.418626012778446, -1.189, 1.012, -1.115], a = 0.2, v = 0.2, t = 0.2)
movej(p[0.477890324746196, -0.00293469468773981, 0.417312839867964, -1.189, 1.012, -1.115], a = 0.2, v = 0.2, t = 0.2)
movej(p[0.477994541916446, -0.00290363931270493, 0.416354489934429, -1.189, 1.012, -1.115], a = 0.2, v = 0.2, t = 0.2)
movej(p[0.478023575771963, -0.00289498759754487, 0.416087503281095, -1.189, 1.012, -1.115], a = 0.2, v = 0.2, t = 0.2)
movej(p[0.477973093385295, -0.00291003069885778, 0.41655172421313, -1.189, 1.012, -1.115], a = 0.2, v = 0.2, t = 0.2)
movej(p[0.477818318191241, -0.00295615171409881, 0.417974990615199, -1.189, 1.012, -1.115], a = 0.2, v = 0.2, t = 0.2)
movej(p[0.477659545034201, -0.00300346407083936, 0.419435021089368, -1.189, 1.012, -1.115], a = 0.2, v = 0.2, t = 0.2)
movej(p[0.477532096457416, -0.00304144210593904, 0.420607000090513, -1.189, 1.012, -1.115], a = 0.2, v = 0.2, t = 0.2)
movej(p[0.47744603220018, -0.00306708814659771, 0.421398421264241, -1.189, 1.012, -1.115], a = 0.2, v = 0.2, t = 0.2)
movej(p[0.477360735119625, -0.00309250557848215, 0.42218278771062, -1.189, 1.012, -1.115], a = 0.2, v = 0.2, t = 0.2)
movej(p[0.477331528379222, -0.00310120881111246, 0.422451364161667, -1.189, 1.012, -1.115], a = 0.2, v = 0.2, t = 0.2)
movej(p[0.477381340836957, -0.00308636533999677, 0.421993303695768, -1.189, 1.012, -1.115], a = 0.2, v = 0.2, t = 0.2)
movej(p[0.477484855662358, -0.00305551925468477, 0.42104141231544, -1.189, 1.012, -1.115], a = 0.2, v = 0.2, t = 0.2)
movej(p[0.477609008621007, -0.00301852327136172, 0.419899738833188, -1.189, 1.012, -1.115], a = 0.2, v = 0.2, t = 0.2)
movej(p[0.477741211532153, -0.00297912850583016, 0.418684040394951, -1.189, 1.012, -1.115], a = 0.2, v = 0.2, t = 0.2)
movej(p[0.477877174689566, -0.00293861323532068, 0.417433763856467, -1.189, 1.012, -1.115], a = 0.2, v = 0.2, t = 0.2)
movej(p[0.477940925991223, -0.00291961616816611, 0.416847525950002, -1.189, 1.012, -1.115], a = 0.2, v = 0.2, t = 0.2)
movej(p[0.477909385304861, -0.00292901488664479, 0.417137564670167, -1.189, 1.012, -1.115], a = 0.2, v = 0.2, t = 0.2)
movej(p[0.477820317172733, -0.00295555604334905, 0.417956608579149, -1.189, 1.012, -1.115], a = 0.2, v = 0.2, t = 0.2)
movej(p[0.477693203560414, -0.00299343426335012, 0.419125507347226, -1.189, 1.012, -1.115], a = 0.2, v = 0.2, t = 0.2)
movej(p[0.477541648347359, -0.00303859576570775, 0.420519163766901, -1.189, 1.012, -1.115], a = 0.2, v = 0.2, t = 0.2)
movej(p[0.477431725975876, -0.00307135121726088, 0.421529977024946, -1.189, 1.012, -1.115], a = 0.2, v = 0.2, t = 0.2)
movej(p[0.477361945313826, -0.0030921449561904, 0.422171659126633, -1.189, 1.012, -1.115], a = 0.2, v = 0.2, t = 0.2)
movej(p[0.477330156105441, -0.00310161773103256, 0.42246398318101, -1.189, 1.012, -1.115], a = 0.2, v = 0.2, t = 0.2)
movej(p[0.477247992563442, -0.00312610140876872, 0.42321953454385, -1.189, 1.012, -1.115], a = 0.2, v = 0.2, t = 0.2)
movej(p[0.477204425572209, -0.00313908381127164, 0.423620163567387, -1.189, 1.012, -1.115], a = 0.2, v = 0.2, t = 0.2)
movej(p[0.477197726282882, -0.00314108011324382, 0.423681768228745, -1.189, 1.012, -1.115], a = 0.2, v = 0.2, t = 0.2)
movej(p[0.477194473885967, -0.00314204928565289, 0.42371167629821, -1.189, 1.012, -1.115], a = 0.2, v = 0.2, t = 0.2)
movej(p[0.477165450835756, -0.00315069778097106, 0.423978563589187, -1.189, 1.012, -1.115], a = 0.2, v = 0.2, t = 0.2)
movej(p[0.477156406795165, -0.00315339278863349, 0.42406172988202, -1.189, 1.012, -1.115], a = 0.2, v = 0.2, t = 0.2)
movej(p[0.477163289774683, -0.00315134174934918, 0.423998436060593, -1.189, 1.012, -1.115], a = 0.2, v = 0.2, t = 0.2)
movej(p[0.477154559087947, -0.00315394338159679, 0.424078720845072, -1.189, 1.012, -1.115], a = 0.2, v = 0.2, t = 0.2)
movej(p[0.47712683267438, -0.00316220549588808, 0.424333684653205, -1.189, 1.012, -1.115], a = 0.2, v = 0.2, t = 0.2)
movej(p[0.477122218808988, -0.00316358036837537, 0.424376112379656, -1.189, 1.012, -1.115], a = 0.2, v = 0.2, t = 0.2)
movej(p[0.477155931361729, -0.00315353446167668, 0.424066101825729, -1.189, 1.012, -1.115], a = 0.2, v = 0.2, t = 0.2)
movej(p[0.477217445965174, -0.00313520390179346, 0.423500431927169, -1.189, 1.012, -1.115], a = 0.2, v = 0.2, t = 0.2)
movej(p[0.477359027881377, -0.00309301431350087, 0.422198486963031, -1.189, 1.012, -1.115], a = 0.2, v = 0.2, t = 0.2)
movej(p[0.477584556214965, -0.00302580977356016, 0.420124595847142, -1.189, 1.012, -1.115], a = 0.2, v = 0.2, t = 0.2)
movej(p[0.477794470882299, -0.00296325790515137, 0.41819428333716, -1.189, 1.012, -1.115], a = 0.2, v = 0.2, t = 0.2)
movej(p[0.477935015489188, -0.00292137742168027, 0.416901877159296, -1.189, 1.012, -1.115], a = 0.2, v = 0.2, t = 0.2)
movej(p[0.478016055279428, -0.00289722860750073, 0.416156659481586, -1.189, 1.012, -1.115], a = 0.2, v = 0.2, t = 0.2)
movej(p[0.478055753971341, -0.00288539890839465, 0.415791602181866, -1.189, 1.012, -1.115], a = 0.2, v = 0.2, t = 0.2)
movej(p[0.477987821016509, -0.00290564205436089, 0.416416293320501, -1.189, 1.012, -1.115], a = 0.2, v = 0.2, t = 0.2)
movej(p[0.477840533899072, -0.00294953171917172, 0.417770701609149, -1.189, 1.012, -1.115], a = 0.2, v = 0.2, t = 0.2)
movej(p[0.477664893660357, -0.00300187024910351, 0.419385836722639, -1.189, 1.012, -1.115], a = 0.2, v = 0.2, t = 0.2)
movej(p[0.477538979436934, -0.00303939106665473, 0.420543706269086, -1.189, 1.012, -1.115], a = 0.2, v = 0.2, t = 0.2)
movej(p[0.477411347169957, -0.00307742383906656, 0.421717374430301, -1.189, 1.012, -1.115], a = 0.2, v = 0.2, t = 0.2)
movej(p[0.477334543059419, -0.00310031047522498, 0.422423642064056, -1.189, 1.012, -1.115], a = 0.2, v = 0.2, t = 0.2)
movej(p[0.477284838654738, -0.00311512174792176, 0.422880708906385, -1.189, 1.012, -1.115], a = 0.2, v = 0.2, t = 0.2)
movej(p[0.477254551383799, -0.00312414696474113, 0.423159221593134, -1.189, 1.012, -1.115], a = 0.2, v = 0.2, t = 0.2)
movej(p[0.477192096718787, -0.00314275765086882, 0.423733536016756, -1.189, 1.012, -1.115], a = 0.2, v = 0.2, t = 0.2)
movej(p[0.47715641760047, -0.0031533895687916, 0.424061630519663, -1.189, 1.012, -1.115], a = 0.2, v = 0.2, t = 0.2)
movej(p[0.4771790331046, -0.00314665043971457, 0.423853665106403, -1.189, 1.012, -1.115], a = 0.2, v = 0.2, t = 0.2)
movej(p[0.477237316921741, -0.00312928261255664, 0.423317704552594, -1.189, 1.012, -1.115], a = 0.2, v = 0.2, t = 0.2)
movej(p[0.47729168921834, -0.00311308036816312, 0.422817713172029, -1.189, 1.012, -1.115], a = 0.2, v = 0.2, t = 0.2)
movej(p[0.477386927179831, -0.00308470068173932, 0.421941933357184, -1.189, 1.012, -1.115], a = 0.2, v = 0.2, t = 0.2)
movej(p[0.477491328040272, -0.0030535905693923, 0.42098189426358, -1.189, 1.012, -1.115], a = 0.2, v = 0.2, t = 0.2)
movej(p[0.477521042630027, -0.00304473600419313, 0.420708647781753, -1.189, 1.012, -1.115], a = 0.2, v = 0.2, t = 0.2)
movej(p[0.477474277268405, -0.00305867147989567, 0.42113868806297, -1.189, 1.012, -1.115], a = 0.2, v = 0.2, t = 0.2)
movej(p[0.477386516578227, -0.00308482303573117, 0.421945709126752, -1.189, 1.012, -1.115], a = 0.2, v = 0.2, t = 0.2)
movej(p[0.47732036649878, -0.00310453490778545, 0.422554005476477, -1.189, 1.012, -1.115], a = 0.2, v = 0.2, t = 0.2)
movej(p[0.477239985832166, -0.00312848731160966, 0.423293162050408, -1.189, 1.012, -1.115], a = 0.2, v = 0.2, t = 0.2)
movej(p[0.477183549722243, -0.00314530454580429, 0.423812131641165, -1.189, 1.012, -1.115], a = 0.2, v = 0.2, t = 0.2)
movej(p[0.477158762351734, -0.00315269086310134, 0.424040068888188, -1.189, 1.012, -1.115], a = 0.2, v = 0.2, t = 0.2)
movej(p[0.477149815558892, -0.00315535689218676, 0.424122340919807, -1.189, 1.012, -1.115], a = 0.2, v = 0.2, t = 0.2)
movej(p[0.477105050259293, -0.00316869637515535, 0.424533989228738, -1.189, 1.012, -1.115], a = 0.2, v = 0.2, t = 0.2)
movej(p[0.477102753051373, -0.00316938091354129, 0.424555113665842, -1.189, 1.012, -1.115], a = 0.2, v = 0.2, t = 0.2)
movej(p[0.477170021479925, -0.00314933578785133, 0.423936533312164, -1.189, 1.012, -1.115], a = 0.2, v = 0.2, t = 0.2)
movej(p[0.477277512657701, -0.00311730480072359, 0.42294807658445, -1.189, 1.012, -1.115], a = 0.2, v = 0.2, t = 0.2)
movej(p[0.477359481704203, -0.00309287908014146, 0.422194313744036, -1.189, 1.012, -1.115], a = 0.2, v = 0.2, t = 0.2)
movej(p[0.477414772451758, -0.00307640314918723, 0.421685876563123, -1.189, 1.012, -1.115], a = 0.2, v = 0.2, t = 0.2)
movej(p[0.477421741873719, -0.00307432635116779, 0.42162178784284, -1.189, 1.012, -1.115], a = 0.2, v = 0.2, t = 0.2)
movej(p[0.477357007289274, -0.00309361642393441, 0.422217067723795, -1.189, 1.012, -1.115], a = 0.2, v = 0.2, t = 0.2)
movej(p[0.477255221312732, -0.00312394733454391, 0.423153061126999, -1.189, 1.012, -1.115], a = 0.2, v = 0.2, t = 0.2)
movej(p[0.4771935338244, -0.00314232941189737, 0.423720320823272, -1.189, 1.012, -1.115], a = 0.2, v = 0.2, t = 0.2)
movej(p[0.477165666941863, -0.00315063338413324, 0.423976576342047, -1.189, 1.012, -1.115], a = 0.2, v = 0.2, t = 0.2)
movej(p[0.477125719727927, -0.00316253713960281, 0.424343918975979, -1.189, 1.012, -1.115], a = 0.2, v = 0.2, t = 0.2)
movej(p[0.477079152103393, -0.00317641369219875, 0.424772140926063, -1.189, 1.012, -1.115], a = 0.2, v = 0.2, t = 0.2)
movej(p[0.477068342475906, -0.00317963482202611, 0.424871543028034, -1.189, 1.012, -1.115], a = 0.2, v = 0.2, t = 0.2)
movej(p[0.47709753084729, -0.00317093706312702, 0.424603135492994, -1.189, 1.012, -1.115], a = 0.2, v = 0.2, t = 0.2)
movej(p[0.477117853465621, -0.00316488118449917, 0.424416254771896, -1.189, 1.012, -1.115], a = 0.2, v = 0.2, t = 0.2)
movej(p[0.477167557870302, -0.00315006991180239, 0.423959187929567, -1.189, 1.012, -1.115], a = 0.2, v = 0.2, t = 0.2)
movej(p[0.477242806016867, -0.00312764693287621, 0.423267228475224, -1.189, 1.012, -1.115], a = 0.2, v = 0.2, t = 0.2)
movej(p[0.477290846404522, -0.00311333151583058, 0.422825463435877, -1.189, 1.012, -1.115], a = 0.2, v = 0.2, t = 0.2)
movej(p[0.477266512856839, -0.00312058259976823, 0.423049227463904, -1.189, 1.012, -1.115], a = 0.2, v = 0.2, t = 0.2)
movej(p[0.4772213250698, -0.00313404797855474, 0.423464760840996, -1.189, 1.012, -1.115], a = 0.2, v = 0.2, t = 0.2)
movej(p[0.477177952574063, -0.00314697242390363, 0.423863601342106, -1.189, 1.012, -1.115], a = 0.2, v = 0.2, t = 0.2)
movej(p[0.477134979874625, -0.00315977773510256, 0.424258765436006, -1.189, 1.012, -1.115], a = 0.2, v = 0.2, t = 0.2)
movej(p[0.477069327919755, -0.00317934117244569, 0.424862481181073, -1.189, 1.012, -1.115], a = 0.2, v = 0.2, t = 0.2)
movej(p[0.477034615876269, -0.00318968491451926, 0.425181682753025, -1.189, 1.012, -1.115], a = 0.2, v = 0.2, t = 0.2)
movej(p[0.477028179155862, -0.00319160297433349, 0.425240872909107, -1.189, 1.012, -1.115], a = 0.2, v = 0.2, t = 0.2)
movej(p[0.476998778676335, -0.0032003639387289, 0.425511230927215, -1.189, 1.012, -1.115], a = 0.2, v = 0.2, t = 0.2)
movej(p[0.476958082978896, -0.00321249073264622, 0.425885456391619, -1.189, 1.012, -1.115], a = 0.2, v = 0.2, t = 0.2)
movej(p[0.476984200482495, -0.00320470805281244, 0.425645287638446, -1.189, 1.012, -1.115], a = 0.2, v = 0.2, t = 0.2)
movej(p[0.477066442903223, -0.00318020087023048, 0.424889010930399, -1.189, 1.012, -1.115], a = 0.2, v = 0.2, t = 0.2)
movej(p[0.477138048581349, -0.00315886330000563, 0.42423054652661, -1.189, 1.012, -1.115], a = 0.2, v = 0.2, t = 0.2)
movej(p[0.477183722607129, -0.00314525302833404, 0.423810541843453, -1.189, 1.012, -1.115], a = 0.2, v = 0.2, t = 0.2)
movej(p[0.477191210683747, -0.00314302167790385, 0.423741683730033, -1.189, 1.012, -1.115], a = 0.2, v = 0.2, t = 0.2)
movej(p[0.477172474284243, -0.00314860488374216, 0.423913978057119, -1.189, 1.012, -1.115], a = 0.2, v = 0.2, t = 0.2)
movej(p[0.477096742059998, -0.00317117211158503, 0.424610388945057, -1.189, 1.012, -1.115], a = 0.2, v = 0.2, t = 0.2)
movej(p[0.477041935390123, -0.00318750379362256, 0.425114374692374, -1.189, 1.012, -1.115], a = 0.2, v = 0.2, t = 0.2)
movej(p[0.477013462329955, -0.0031959883989885, 0.425376204439379, -1.189, 1.012, -1.115], a = 0.2, v = 0.2, t = 0.2)
movej(p[0.476996006034978, -0.00320119015015802, 0.425536727308028, -1.189, 1.012, -1.115], a = 0.2, v = 0.2, t = 0.2)
movej(p[0.476945596368016, -0.00321621158193501, 0.4260002795314, -1.189, 1.012, -1.115], a = 0.2, v = 0.2, t = 0.2)
movej(p[0.476929028593299, -0.00322114856550587, 0.426152631833431, -1.189, 1.012, -1.115], a = 0.2, v = 0.2, t = 0.2)
movej(p[0.47698016253988, -0.00320591130772696, 0.425682419351268, -1.189, 1.012, -1.115], a = 0.2, v = 0.2, t = 0.2)
movej(p[0.47706112129033, -0.0031817866423616, 0.424937946891235, -1.189, 1.012, -1.115], a = 0.2, v = 0.2, t = 0.2)
movej(p[0.477117475279933, -0.00316499387896534, 0.424419732454392, -1.189, 1.012, -1.115], a = 0.2, v = 0.2, t = 0.2)
movej(p[0.477145050419226, -0.00315677684246052, 0.424166159719256, -1.189, 1.012, -1.115], a = 0.2, v = 0.2, t = 0.2)
movej(p[0.477143526871169, -0.00315723084016709, 0.424180169811597, -1.189, 1.012, -1.115], a = 0.2, v = 0.2, t = 0.2)
movej(p[0.477107624083031, -0.00316792940881701, 0.424510321115294, -1.189, 1.012, -1.115], a = 0.2, v = 0.2, t = 0.2)
movej(p[0.477041335695675, -0.00318768249484749, 0.425119889303189, -1.189, 1.012, -1.115], a = 0.2, v = 0.2, t = 0.2)
movej(p[0.477006711715428, -0.00319799999520965, 0.425438281071932, -1.189, 1.012, -1.115], a = 0.2, v = 0.2, t = 0.2)
movej(p[0.476993918341928, -0.00320181225580971, 0.42555592510903, -1.189, 1.012, -1.115], a = 0.2, v = 0.2, t = 0.2)
movej(p[0.476964387874577, -0.00321061195490306, 0.425827478456293, -1.189, 1.012, -1.115], a = 0.2, v = 0.2, t = 0.2)
movej(p[0.476916679209797, -0.00322482852280264, 0.426266193071279, -1.189, 1.012, -1.115], a = 0.2, v = 0.2, t = 0.2)
movej(p[0.476918000698643, -0.00322443473613942, 0.426254041055014, -1.189, 1.012, -1.115], a = 0.2, v = 0.2, t = 0.2)
movej(p[0.47697009307581, -0.00320891187838482, 0.425775015131782, -1.189, 1.012, -1.115], a = 0.2, v = 0.2, t = 0.2)
movej(p[0.477031064172395, -0.0031907432765487, 0.42521434315978, -1.189, 1.012, -1.115], a = 0.2, v = 0.2, t = 0.2)
movej(p[0.477068979988922, -0.00317944485135457, 0.424865680648969, -1.189, 1.012, -1.115], a = 0.2, v = 0.2, t = 0.2)
movej(p[0.477098515210608, -0.00317064373553079, 0.424594083582269, -1.189, 1.012, -1.115], a = 0.2, v = 0.2, t = 0.2)
movej(p[0.477104755274457, -0.00316878427683896, 0.424536701821085, -1.189, 1.012, -1.115], a = 0.2, v = 0.2, t = 0.2)
movej(p[0.477043810110604, -0.00318694515105454, 0.42509713532343, -1.189, 1.012, -1.115], a = 0.2, v = 0.2, t = 0.2)
movej(p[0.476991243056373, -0.0032026094564634, 0.425580526235006, -1.189, 1.012, -1.115], a = 0.2, v = 0.2, t = 0.2)
movej(p[0.476951323179859, -0.00321450506573299, 0.425947617482175, -1.189, 1.012, -1.115], a = 0.2, v = 0.2, t = 0.2)
movej(p[0.476944589313555, -0.00321651167119921, 0.426009540103075, -1.189, 1.012, -1.115], a = 0.2, v = 0.2, t = 0.2)
movej(p[0.476907496861297, -0.00322756474444128, 0.426350631202281, -1.189, 1.012, -1.115], a = 0.2, v = 0.2, t = 0.2)
movej(p[0.476877197704522, -0.00323659350308673, 0.426629253187623, -1.189, 1.012, -1.115], a = 0.2, v = 0.2, t = 0.2)
movej(p[0.476877521863683, -0.00323649690783001, 0.426626272316912, -1.189, 1.012, -1.115], a = 0.2, v = 0.2, t = 0.2)
movej(p[0.476904773924345, -0.00322837614459771, 0.426375670516252, -1.189, 1.012, -1.115], a = 0.2, v = 0.2, t = 0.2)
movej(p[0.476916719189426, -0.00322481660938765, 0.426265825430558, -1.189, 1.012, -1.115], a = 0.2, v = 0.2, t = 0.2)
movej(p[0.47694767963089, -0.0032155907964185, 0.425981122468965, -1.189, 1.012, -1.115], a = 0.2, v = 0.2, t = 0.2)
movej(p[0.47698572186949, -0.00320425469907425, 0.425631297418577, -1.189, 1.012, -1.115], a = 0.2, v = 0.2, t = 0.2)
movej(p[0.477010547274673, -0.00319685704793374, 0.425403010416058, -1.189, 1.012, -1.115], a = 0.2, v = 0.2, t = 0.2)
movej(p[0.476987005539768, -0.00320387218185764, 0.425619493170562, -1.189, 1.012, -1.115], a = 0.2, v = 0.2, t = 0.2)
movej(p[0.476954685790889, -0.00321350305093663, 0.425916695916668, -1.189, 1.012, -1.115], a = 0.2, v = 0.2, t = 0.2)
movej(p[0.476940914429201, -0.00321760673942621, 0.4260433332407, -1.189, 1.012, -1.115], a = 0.2, v = 0.2, t = 0.2)
movej(p[0.476926636298691, -0.00322186143850045, 0.426174630659277, -1.189, 1.012, -1.115], a = 0.2, v = 0.2, t = 0.2)
movej(p[0.476883853772627, -0.00323461008048211, 0.426568045975694, -1.189, 1.012, -1.115], a = 0.2, v = 0.2, t = 0.2)
movej(p[0.476858482915629, -0.00324217026924125, 0.426801348789996, -1.189, 1.012, -1.115], a = 0.2, v = 0.2, t = 0.2)
movej(p[0.47685467944814, -0.00324330365358675, 0.42683632433967, -1.189, 1.012, -1.115], a = 0.2, v = 0.2, t = 0.2)
movej(p[0.47686796997374, -0.0032393432480613, 0.426714108640525, -1.189, 1.012, -1.115], a = 0.2, v = 0.2, t = 0.2)
movej(p[0.476866079045301, -0.00323990672039216, 0.426731497053005, -1.189, 1.012, -1.115], a = 0.2, v = 0.2, t = 0.2)
movej(p[0.476892190065716, -0.00323212597246351, 0.426491387917247, -1.189, 1.012, -1.115], a = 0.2, v = 0.2, t = 0.2)
movej(p[0.476943286193728, -0.00321689998413122, 0.426021523203333, -1.189, 1.012, -1.115], a = 0.2, v = 0.2, t = 0.2)
movej(p[0.476969358315045, -0.00320913082763338, 0.42578177177206, -1.189, 1.012, -1.115], a = 0.2, v = 0.2, t = 0.2)
movej(p[0.476945396469866, -0.00321627114900998, 0.426002117735005, -1.189, 1.012, -1.115], a = 0.2, v = 0.2, t = 0.2)
movej(p[0.47691553925008, -0.0032251682161221, 0.426276675799945, -1.189, 1.012, -1.115], a = 0.2, v = 0.2, t = 0.2)
movej(p[0.476901746277781, -0.00322927834429546, 0.426403511848691, -1.189, 1.012, -1.115], a = 0.2, v = 0.2, t = 0.2)
movej(p[0.47688247069354, -0.00323502222024411, 0.426580764357394, -1.189, 1.012, -1.115], a = 0.2, v = 0.2, t = 0.2)
movej(p[0.476844727761899, -0.003246269127968, 0.426927837070492, -1.189, 1.012, -1.115], a = 0.2, v = 0.2, t = 0.2)
movej(p[0.476832474545614, -0.00324992042867194, 0.427040513983362, -1.189, 1.012, -1.115], a = 0.2, v = 0.2, t = 0.2)
movej(p[0.476845786681824, -0.00324595358346272, 0.426918099559504, -1.189, 1.012, -1.115], a = 0.2, v = 0.2, t = 0.2)
movej(p[0.476859649888608, -0.00324182252631707, 0.426790617655437, -1.189, 1.012, -1.115], a = 0.2, v = 0.2, t = 0.2)
movej(p[0.476852485971151, -0.00324395728149054, 0.426856494898146, -1.189, 1.012, -1.115], a = 0.2, v = 0.2, t = 0.2)
movej(p[0.476873361821117, -0.00323773654695789, 0.426664526824368, -1.189, 1.012, -1.115], a = 0.2, v = 0.2, t = 0.2)
movej(p[0.476938860340651, -0.00321821883136961, 0.426062222024772, -1.189, 1.012, -1.115], a = 0.2, v = 0.2, t = 0.2)
movej(p[0.476986974204382, -0.00320388151939912, 0.425619781321397, -1.189, 1.012, -1.115], a = 0.2, v = 0.2, t = 0.2)
movej(p[0.476996457588689, -0.00320105559296542, 0.425532574955128, -1.189, 1.012, -1.115], a = 0.2, v = 0.2, t = 0.2)
movej(p[0.476970406429665, -0.00320881850296999, 0.425772133623428, -1.189, 1.012, -1.115], a = 0.2, v = 0.2, t = 0.2)
movej(p[0.47694878825522, -0.00321526044064052, 0.425970927891134, -1.189, 1.012, -1.115], a = 0.2, v = 0.2, t = 0.2)
movej(p[0.476918056886231, -0.00322441799296159, 0.426253524370758, -1.189, 1.012, -1.115], a = 0.2, v = 0.2, t = 0.2)
movej(p[0.476872292095886, -0.00323805531130506, 0.426674363697714, -1.189, 1.012, -1.115], a = 0.2, v = 0.2, t = 0.2)
movej(p[0.476843549983614, -0.00324662009073407, 0.426938667567408, -1.189, 1.012, -1.115], a = 0.2, v = 0.2, t = 0.2)
movej(p[0.476843733673805, -0.00324656535342193, 0.426936978407339, -1.189, 1.012, -1.115], a = 0.2, v = 0.2, t = 0.2)
movej(p[0.476855576288486, -0.00324303640670983, 0.426828077264036, -1.189, 1.012, -1.115], a = 0.2, v = 0.2, t = 0.2)
movej(p[0.476872486591382, -0.00323799735415103, 0.426672575175287, -1.189, 1.012, -1.115], a = 0.2, v = 0.2, t = 0.2)
movej(p[0.476930765005871, -0.00322063113691405, 0.426136664302657, -1.189, 1.012, -1.115], a = 0.2, v = 0.2, t = 0.2)
movej(p[0.477048065239857, -0.00318567717731802, 0.425058006427232, -1.189, 1.012, -1.115], a = 0.2, v = 0.2, t = 0.2)
movej(p[0.477158340944825, -0.00315281643693507, 0.424043944020112, -1.189, 1.012, -1.115], a = 0.2, v = 0.2, t = 0.2)
movej(p[0.477274217039564, -0.00311828685250023, 0.422978382103343, -1.189, 1.012, -1.115], a = 0.2, v = 0.2, t = 0.2)
movej(p[0.477395009548244, -0.00308229224000515, 0.421867610314128, -1.189, 1.012, -1.115], a = 0.2, v = 0.2, t = 0.2)
movej(p[0.477532550280241, -0.00304130687257964, 0.420602826871518, -1.189, 1.012, -1.115], a = 0.2, v = 0.2, t = 0.2)
movej(p[0.477617750113048, -0.00301591841927222, 0.419819354686352, -1.189, 1.012, -1.115], a = 0.2, v = 0.2, t = 0.2)
movej(p[0.477576895253461, -0.0030280926414606, 0.420195043758275, -1.189, 1.012, -1.115], a = 0.2, v = 0.2, t = 0.2)
movej(p[0.477470171252366, -0.0030598950198141, 0.421176445758641, -1.189, 1.012, -1.115], a = 0.2, v = 0.2, t = 0.2)
movej(p[0.477354165493963, -0.00309446324235164, 0.422243200023693, -1.189, 1.012, -1.115], a = 0.2, v = 0.2, t = 0.2)
movej(p[0.477235998674487, -0.0031296754332673, 0.423329826760152, -1.189, 1.012, -1.115], a = 0.2, v = 0.2, t = 0.2)
movej(p[0.477143872640941, -0.00315712780522659, 0.424176990216172, -1.189, 1.012, -1.115], a = 0.2, v = 0.2, t = 0.2)
movej(p[0.477098342325722, -0.00317069525300104, 0.424595673379981, -1.189, 1.012, -1.115], a = 0.2, v = 0.2, t = 0.2)
movej(p[0.477137389457722, -0.00315905971036096, 0.424236607630389, -1.189, 1.012, -1.115], a = 0.2, v = 0.2, t = 0.2)
movej(p[0.47722426411286, -0.00313317218156049, 0.423437734279884, -1.189, 1.012, -1.115], a = 0.2, v = 0.2, t = 0.2)
movej(p[0.477337352438814, -0.00309947331633342, 0.422397807851229, -1.189, 1.012, -1.115], a = 0.2, v = 0.2, t = 0.2)
movej(p[0.477474396126764, -0.00305863606163488, 0.421137595077043, -1.189, 1.012, -1.115], a = 0.2, v = 0.2, t = 0.2)
movej(p[0.477634757663693, -0.00301085038813641, 0.41966295833639, -1.189, 1.012, -1.115], a = 0.2, v = 0.2, t = 0.2)
movej(p[0.477756814393101, -0.00297447905414013, 0.418540561151402, -1.189, 1.012, -1.115], a = 0.2, v = 0.2, t = 0.2)
movej(p[0.477861604244535, -0.00294325302748504, 0.417576945012945, -1.189, 1.012, -1.115], a = 0.2, v = 0.2, t = 0.2)
movej(p[0.477946598776539, -0.00291792575117354, 0.416795360712562, -1.189, 1.012, -1.115], a = 0.2, v = 0.2, t = 0.2)
movej(p[0.478023878320513, -0.00289489744197194, 0.416084721135098, -1.189, 1.012, -1.115], a = 0.2, v = 0.2, t = 0.2)
movej(p[0.478034413493244, -0.0028917580961286, 0.415987842836996, -1.189, 1.012, -1.115], a = 0.2, v = 0.2, t = 0.2)
movej(p[0.477976356587516, -0.00290905830660682, 0.416521716781307, -1.189, 1.012, -1.115], a = 0.2, v = 0.2, t = 0.2)
movej(p[0.477875402619487, -0.00293914128939074, 0.41745005928302, -1.189, 1.012, -1.115], a = 0.2, v = 0.2, t = 0.2)
movej(p[0.477734296136719, -0.00298118920464015, 0.418747632303448, -1.189, 1.012, -1.115], a = 0.2, v = 0.2, t = 0.2)
movej(p[0.477549990043101, -0.0030361100477682, 0.420442456027275, -1.189, 1.012, -1.115], a = 0.2, v = 0.2, t = 0.2)
movej(p[0.477418251760085, -0.00307536636009846, 0.42165388188416, -1.189, 1.012, -1.115], a = 0.2, v = 0.2, t = 0.2)
movej(p[0.477337006669043, -0.00309957635127392, 0.422400987446654, -1.189, 1.012, -1.115], a = 0.2, v = 0.2, t = 0.2)
movej(p[0.477321360586874, -0.00310423868233152, 0.42254486413963, -1.189, 1.012, -1.115], a = 0.2, v = 0.2, t = 0.2)
movej(p[0.477332101060407, -0.00310103815949225, 0.422446097956745, -1.189, 1.012, -1.115], a = 0.2, v = 0.2, t = 0.2)
movej(p[0.477422789988339, -0.00307401402650441, 0.421612149694209, -1.189, 1.012, -1.115], a = 0.2, v = 0.2, t = 0.2)
movej(p[0.477602050004352, -0.00302059684953927, 0.419963728191114, -1.189, 1.012, -1.115], a = 0.2, v = 0.2, t = 0.2)
movej(p[0.47778383846182, -0.00296642622957173, 0.418292055896475, -1.189, 1.012, -1.115], a = 0.2, v = 0.2, t = 0.2)
movej(p[0.477913221188266, -0.00292787184277362, 0.417102291033422, -1.189, 1.012, -1.115], a = 0.2, v = 0.2, t = 0.2)
movej(p[0.47801758963279, -0.00289677138995227, 0.416142550026888, -1.189, 1.012, -1.115], a = 0.2, v = 0.2, t = 0.2)
movej(p[0.478104626367509, -0.00287083556352344, 0.415342186241028, -1.189, 1.012, -1.115], a = 0.2, v = 0.2, t = 0.2)
movej(p[0.478145038209576, -0.00285879335485258, 0.414970571025743, -1.189, 1.012, -1.115], a = 0.2, v = 0.2, t = 0.2)
movej(p[0.478094253274358, -0.00287392661173843, 0.415437574103775, -1.189, 1.012, -1.115], a = 0.2, v = 0.2, t = 0.2)
movej(p[0.478012673218849, -0.00289823641801249, 0.416187759899336, -1.189, 1.012, -1.115], a = 0.2, v = 0.2, t = 0.2)
movej(p[0.477927160032187, -0.00292371824673474, 0.416974113592856, -1.189, 1.012, -1.115], a = 0.2, v = 0.2, t = 0.2)
movej(p[0.47780470350648, -0.00296020871488097, 0.418100187185054, -1.189, 1.012, -1.115], a = 0.2, v = 0.2, t = 0.2)
movej(p[0.477649777038151, -0.00300637480790846, 0.419524844660121, -1.189, 1.012, -1.115], a = 0.2, v = 0.2, t = 0.2)
movej(p[0.47751390032318, -0.00304686431968282, 0.420774326299748, -1.189, 1.012, -1.115], a = 0.2, v = 0.2, t = 0.2)
movej(p[0.477424497226587, -0.00307350529148569, 0.421596450441798, -1.189, 1.012, -1.115], a = 0.2, v = 0.2, t = 0.2)
movej(p[0.477332273945293, -0.003100986642022, 0.422444508159032, -1.189, 1.012, -1.115], a = 0.2, v = 0.2, t = 0.2)
movej(p[0.477276032330866, -0.0031177459190626, 0.422961689227363, -1.189, 1.012, -1.115], a = 0.2, v = 0.2, t = 0.2)
movej(p[0.47729628147312, -0.00311171193535961, 0.422775484170292, -1.189, 1.012, -1.115], a = 0.2, v = 0.2, t = 0.2)
movej(p[0.477409737179458, -0.00307790359550826, 0.421732179421498, -1.189, 1.012, -1.115], a = 0.2, v = 0.2, t = 0.2)
movej(p[0.477527298901833, -0.00304287171573847, 0.420651116977034, -1.189, 1.012, -1.115], a = 0.2, v = 0.2, t = 0.2)
movej(p[0.477650922400519, -0.00300603350466806, 0.419514312250276, -1.189, 1.012, -1.115], a = 0.2, v = 0.2, t = 0.2)
movej(p[0.477748440281443, -0.00297697443160535, 0.418617566978099, -1.189, 1.012, -1.115], a = 0.2, v = 0.2, t = 0.2)
movej(p[0.47780423887835, -0.00296034716808227, 0.418104459766406, -1.189, 1.012, -1.115], a = 0.2, v = 0.2, t = 0.2)
movej(p[0.4777906458042, -0.00296439772918065, 0.418229457611547, -1.189, 1.012, -1.115], a = 0.2, v = 0.2, t = 0.2)
movej(p[0.47777705273005, -0.00296844829027903, 0.418354455456689, -1.189, 1.012, -1.115], a = 0.2, v = 0.2, t = 0.2)
movej(p[0.477775475155467, -0.00296891838719506, 0.418368962360815, -1.189, 1.012, -1.115], a = 0.2, v = 0.2, t = 0.2)
movej(p[0.477761417453186, -0.00297310740149473, 0.418498232787308, -1.189, 1.012, -1.115], a = 0.2, v = 0.2, t = 0.2)
movej(p[0.477739482683295, -0.00297964368053266, 0.418699938372075, -1.189, 1.012, -1.115], a = 0.2, v = 0.2, t = 0.2)
movej(p[0.477755258429128, -0.00297494271137238, 0.418554869330814, -1.189, 1.012, -1.115], a = 0.2, v = 0.2, t = 0.2)
movej(p[0.477779948551888, -0.00296758537265235, 0.418327826345005, -1.189, 1.012, -1.115], a = 0.2, v = 0.2, t = 0.2)
movej(p[0.477754545278974, -0.00297515522093716, 0.418561427246378, -1.189, 1.012, -1.115], a = 0.2, v = 0.2, t = 0.2)
movej(p[0.477683694891693, -0.00299626772421386, 0.419212946221411, -1.189, 1.012, -1.115], a = 0.2, v = 0.2, t = 0.2)
movej(p[0.477584523799049, -0.00302581943308583, 0.420124893934213, -1.189, 1.012, -1.115], a = 0.2, v = 0.2, t = 0.2)
movej(p[0.477493294605848, -0.00305300455816821, 0.420963810314601, -1.189, 1.012, -1.115], a = 0.2, v = 0.2, t = 0.2)
movej(p[0.477388439922582, -0.00308424990387464, 0.421928022627201, -1.189, 1.012, -1.115], a = 0.2, v = 0.2, t = 0.2)
movej(p[0.477328610946774, -0.00310207816842292, 0.422478191998065, -1.189, 1.012, -1.115], a = 0.2, v = 0.2, t = 0.2)
movej(p[0.477297091871023, -0.00311147044721781, 0.422768031993515, -1.189, 1.012, -1.115], a = 0.2, v = 0.2, t = 0.2)
movej(p[0.477286924078674, -0.00311450031843687, 0.422861531971479, -1.189, 1.012, -1.115], a = 0.2, v = 0.2, t = 0.2)
movej(p[0.477300365878549, -0.00311049483512496, 0.422737925199336, -1.189, 1.012, -1.115], a = 0.2, v = 0.2, t = 0.2)
movej(p[0.477383296597228, -0.00308578254861457, 0.421975319109146, -1.189, 1.012, -1.115], a = 0.2, v = 0.2, t = 0.2)
movej(p[0.477534419598069, -0.00304074983993256, 0.420585637183752, -1.189, 1.012, -1.115], a = 0.2, v = 0.2, t = 0.2)
movej(p[0.477673754010757, -0.00299922997875321, 0.419304359589876, -1.189, 1.012, -1.115], a = 0.2, v = 0.2, t = 0.2)
movej(p[0.477801235003458, -0.00296124228412785, 0.41813208250166, -1.189, 1.012, -1.115], a = 0.2, v = 0.2, t = 0.2)
movej(p[0.477852625035776, -0.00294592871609614, 0.417659515131635, -1.189, 1.012, -1.115], a = 0.2, v = 0.2, t = 0.2)
movej(p[0.477809403814314, -0.00295880808365856, 0.418056964559747, -1.189, 1.012, -1.115], a = 0.2, v = 0.2, t = 0.2)
movej(p[0.477664007625317, -0.00300213427613854, 0.419393984435916, -1.189, 1.012, -1.115], a = 0.2, v = 0.2, t = 0.2)
movej(p[0.477537617968457, -0.00303979676673295, 0.420556225926072, -1.189, 1.012, -1.115], a = 0.2, v = 0.2, t = 0.2)
movej(p[0.477442228732691, -0.00306822153094321, 0.421433396813915, -1.189, 1.012, -1.115], a = 0.2, v = 0.2, t = 0.2)
movej(p[0.477369627885941, -0.00308985564860618, 0.422101012490786, -1.189, 1.012, -1.115], a = 0.2, v = 0.2, t = 0.2)
movej(p[0.47729197015628, -0.00311299665227396, 0.422815129750746, -1.189, 1.012, -1.115], a = 0.2, v = 0.2, t = 0.2)
movej(p[0.477251720393793, -0.00312499056331646, 0.423185254530676, -1.189, 1.012, -1.115], a = 0.2, v = 0.2, t = 0.2)
movej(p[0.477224436997746, -0.00313312066409024, 0.423436144482171, -1.189, 1.012, -1.115], a = 0.2, v = 0.2, t = 0.2)
movej(p[0.477183517306327, -0.00314531420532996, 0.423812429728237, -1.189, 1.012, -1.115], a = 0.2, v = 0.2, t = 0.2)
movej(p[0.477159410670056, -0.0031524976725879, 0.424034107146766, -1.189, 1.012, -1.115], a = 0.2, v = 0.2, t = 0.2)
movej(p[0.477212486330011, -0.00313668180922125, 0.423546039249044, -1.189, 1.012, -1.115], a = 0.2, v = 0.2, t = 0.2)
movej(p[0.477322808497793, -0.00310380722351817, 0.422531549583789, -1.189, 1.012, -1.115], a = 0.2, v = 0.2, t = 0.2)
movej(p[0.477430170011904, -0.00307181487449312, 0.421544285204358, -1.189, 1.012, -1.115], a = 0.2, v = 0.2, t = 0.2)
movej(p[0.477521971886288, -0.00304445909779054, 0.420700102619049, -1.189, 1.012, -1.115], a = 0.2, v = 0.2, t = 0.2)
movej(p[0.477540092383386, -0.00303905942294, 0.420533471946313, -1.189, 1.012, -1.115], a = 0.2, v = 0.2, t = 0.2)
movej(p[0.477493283800543, -0.0030530077780101, 0.420963909676958, -1.189, 1.012, -1.115], a = 0.2, v = 0.2, t = 0.2)
movej(p[0.477370762443004, -0.00308951756520767, 0.422090579443298, -1.189, 1.012, -1.115], a = 0.2, v = 0.2, t = 0.2)
movej(p[0.477300841311985, -0.00311035316208177, 0.422733553255627, -1.189, 1.012, -1.115], a = 0.2, v = 0.2, t = 0.2)
movej(p[0.47725310347288, -0.00312457842355447, 0.423172536148976, -1.189, 1.012, -1.115], a = 0.2, v = 0.2, t = 0.2)
movej(p[0.477219779911133, -0.00313450841594509, 0.423478969658051, -1.189, 1.012, -1.115], a = 0.2, v = 0.2, t = 0.2)
movej(p[0.477143051437733, -0.00315737251321028, 0.424184541755306, -1.189, 1.012, -1.115], a = 0.2, v = 0.2, t = 0.2)
movej(p[0.477112223901525, -0.00316655872212418, 0.424468022559907, -1.189, 1.012, -1.115], a = 0.2, v = 0.2, t = 0.2)
movej(p[0.477140198837117, -0.0031582225514694, 0.424210773417562, -1.189, 1.012, -1.115], a = 0.2, v = 0.2, t = 0.2)
movej(p[0.477202221289914, -0.00313974065901733, 0.423640433488221, -1.189, 1.012, -1.115], a = 0.2, v = 0.2, t = 0.2)
movej(p[0.477251547508907, -0.00312504208078671, 0.423186844328388, -1.189, 1.012, -1.115], a = 0.2, v = 0.2, t = 0.2)
movej(p[0.477320020729008, -0.00310463794272595, 0.422557185071902, -1.189, 1.012, -1.115], a = 0.2, v = 0.2, t = 0.2)
movej(p[0.477402789368107, -0.00307997395384392, 0.421796069417067, -1.189, 1.012, -1.115], a = 0.2, v = 0.2, t = 0.2)
movej(p[0.47741985094528, -0.00307488982349865, 0.42163917625532, -1.189, 1.012, -1.115], a = 0.2, v = 0.2, t = 0.2)
movej(p[0.477371691699266, -0.00308924065880508, 0.422082034280594, -1.189, 1.012, -1.115], a = 0.2, v = 0.2, t = 0.2)
movej(p[0.477301219497672, -0.0031102404676156, 0.422730075573131, -1.189, 1.012, -1.115], a = 0.2, v = 0.2, t = 0.2)
movej(p[0.477254518967883, -0.0031241566242668, 0.423159519680206, -1.189, 1.012, -1.115], a = 0.2, v = 0.2, t = 0.2)
movej(p[0.477187947481526, -0.00314399407015482, 0.423771691161855, -1.189, 1.012, -1.115], a = 0.2, v = 0.2, t = 0.2)
movej(p[0.477132872840079, -0.00316040560427123, 0.424278141095627, -1.189, 1.012, -1.115], a = 0.2, v = 0.2, t = 0.2)
movej(p[0.47709988748439, -0.00317023481561068, 0.424581464562926, -1.189, 1.012, -1.115], a = 0.2, v = 0.2, t = 0.2)
movej(p[0.477104478658639, -0.00316886670479136, 0.424539245497425, -1.189, 1.012, -1.115], a = 0.2, v = 0.2, t = 0.2)
movej(p[0.477090661914669, -0.00317298391661688, 0.424666300143357, -1.189, 1.012, -1.115], a = 0.2, v = 0.2, t = 0.2)
movej(p[0.477107617599848, -0.00316793134072214, 0.424510380732708, -1.189, 1.012, -1.115], a = 0.2, v = 0.2, t = 0.2)
movej(p[0.477187137083624, -0.00314423555829661, 0.423779143338632, -1.189, 1.012, -1.115], a = 0.2, v = 0.2, t = 0.2)
movej(p[0.477311765475709, -0.00310709790193037, 0.422633097912671, -1.189, 1.012, -1.115], a = 0.2, v = 0.2, t = 0.2)
movej(p[0.477434686629546, -0.00307046898058285, 0.421502751739121, -1.189, 1.012, -1.115], a = 0.2, v = 0.2, t = 0.2)
movej(p[0.477566770682333, -0.00303110963331209, 0.42028814628681, -1.189, 1.012, -1.115], a = 0.2, v = 0.2, t = 0.2)
movej(p[0.477702323238143, -0.00299071671679445, 0.419041645517894, -1.189, 1.012, -1.115], a = 0.2, v = 0.2, t = 0.2)
movej(p[0.477768440901674, -0.00297101450426584, 0.41843364725524, -1.189, 1.012, -1.115], a = 0.2, v = 0.2, t = 0.2)
movej(p[0.477695580727595, -0.00299272589813419, 0.41910364762868, -1.189, 1.012, -1.115], a = 0.2, v = 0.2, t = 0.2)
movej(p[0.477569871804973, -0.00303018553868949, 0.420259629290343, -1.189, 1.012, -1.115], a = 0.2, v = 0.2, t = 0.2)
movej(p[0.477449619561561, -0.00306601915909003, 0.421365432961708, -1.189, 1.012, -1.115], a = 0.2, v = 0.2, t = 0.2)
movej(p[0.477376532476069, -0.00308779816963809, 0.422037519944645, -1.189, 1.012, -1.115], a = 0.2, v = 0.2, t = 0.2)
movej(p[0.47728000868324, -0.00311656101724686, 0.422925123879976, -1.189, 1.012, -1.115], a = 0.2, v = 0.2, t = 0.2)
movej(p[0.477226165846604, -0.00313260548938775, 0.423420246505047, -1.189, 1.012, -1.115], a = 0.2, v = 0.2, t = 0.2)
movej(p[0.477189190091643, -0.0031436237883374, 0.423760264490797, -1.189, 1.012, -1.115], a = 0.2, v = 0.2, t = 0.2)
movej(p[0.477172712000961, -0.00314853404722057, 0.423911792085264, -1.189, 1.012, -1.115], a = 0.2, v = 0.2, t = 0.2)
movej(p[0.477153424530884, -0.0031542814649953, 0.424089153892559, -1.189, 1.012, -1.115], a = 0.2, v = 0.2, t = 0.2)
movej(p[0.477189179286338, -0.00314362700817929, 0.423760363853154, -1.189, 1.012, -1.115], a = 0.2, v = 0.2, t = 0.2)
movej(p[0.477300808896068, -0.00311036282160745, 0.422733851342698, -1.189, 1.012, -1.115], a = 0.2, v = 0.2, t = 0.2)
movej(p[0.477444692342315, -0.00306748740699215, 0.421410742196513, -1.189, 1.012, -1.115], a = 0.2, v = 0.2, t = 0.2)
movej(p[0.477577035722431, -0.00302805078351602, 0.420193752047634, -1.189, 1.012, -1.115], a = 0.2, v = 0.2, t = 0.2)
movej(p[0.477714371153625, -0.00298712659308643, 0.418930856489808, -1.189, 1.012, -1.115], a = 0.2, v = 0.2, t = 0.2)
movej(p[0.477845709640342, -0.00294798941490612, 0.417723107040133, -1.189, 1.012, -1.115], a = 0.2, v = 0.2, t = 0.2)
movej(p[0.477903874599124, -0.002930657006009, 0.417188239472251, -1.189, 1.012, -1.115], a = 0.2, v = 0.2, t = 0.2)
movej(p[0.477844164481675, -0.00294844985229648, 0.417737315857188, -1.189, 1.012, -1.115], a = 0.2, v = 0.2, t = 0.2)
movej(p[0.477713528339807, -0.00298737774075389, 0.418938606753656, -1.189, 1.012, -1.115], a = 0.2, v = 0.2, t = 0.2)
movej(p[0.477569331539705, -0.00303034653078402, 0.420264597408195, -1.189, 1.012, -1.115], a = 0.2, v = 0.2, t = 0.2)
movej(p[0.477451370021031, -0.00306549754470375, 0.421349336259869, -1.189, 1.012, -1.115], a = 0.2, v = 0.2, t = 0.2)
movej(p[0.477342755091497, -0.00309786339538812, 0.422348126672715, -1.189, 1.012, -1.115], a = 0.2, v = 0.2, t = 0.2)
movej(p[0.477281024381944, -0.00311625835210914, 0.422915783818416, -1.189, 1.012, -1.115], a = 0.2, v = 0.2, t = 0.2)
movej(p[0.477257025798728, -0.00312340962094818, 0.423136467613375, -1.189, 1.012, -1.115], a = 0.2, v = 0.2, t = 0.2)
movej(p[0.477208175013171, -0.0031379665261356, 0.423585684829499, -1.189, 1.012, -1.115], a = 0.2, v = 0.2, t = 0.2)
movej(p[0.477162673872277, -0.00315152528033694, 0.424004099714944, -1.189, 1.012, -1.115], a = 0.2, v = 0.2, t = 0.2)
movej(p[0.477178417202194, -0.00314683397070233, 0.423859328760754, -1.189, 1.012, -1.115], a = 0.2, v = 0.2, t = 0.2)
movej(p[0.477261531611065, -0.0031220669468798, 0.423095033510494, -1.189, 1.012, -1.115], a = 0.2, v = 0.2, t = 0.2)
movej(p[0.477349919008954, -0.00309572864021465, 0.422282249430005, -1.189, 1.012, -1.115], a = 0.2, v = 0.2, t = 0.2)
movej(p[0.477421795900245, -0.00307431025195834, 0.421621291031055, -1.189, 1.012, -1.115], a = 0.2, v = 0.2, t = 0.2)
movej(p[0.477478026709367, -0.00305755419475963, 0.421104209325081, -1.189, 1.012, -1.115], a = 0.2, v = 0.2, t = 0.2)
movej(p[0.477497876055323, -0.00305163934520659, 0.420921680675221, -1.189, 1.012, -1.115], a = 0.2, v = 0.2, t = 0.2)
movej(p[0.477434059921835, -0.0030706557314125, 0.421508514755828, -1.189, 1.012, -1.115], a = 0.2, v = 0.2, t = 0.2)
movej(p[0.477346396479405, -0.00309677830867098, 0.422314641558396, -1.189, 1.012, -1.115], a = 0.2, v = 0.2, t = 0.2)
movej(p[0.477282493903474, -0.00311582045361202, 0.42290227053786, -1.189, 1.012, -1.115], a = 0.2, v = 0.2, t = 0.2)
movej(p[0.477233697144444, -0.00313036125958999, 0.423350990942198, -1.189, 1.012, -1.115], a = 0.2, v = 0.2, t = 0.2)
movej(p[0.477160772138532, -0.00315209197250969, 0.42402158748978, -1.189, 1.012, -1.115], a = 0.2, v = 0.2, t = 0.2)
movej(p[0.477111737662784, -0.00316670361500925, 0.424472493865973, -1.189, 1.012, -1.115], a = 0.2, v = 0.2, t = 0.2)
movej(p[0.477092055799061, -0.00317256855701299, 0.4246534823993, -1.189, 1.012, -1.115], a = 0.2, v = 0.2, t = 0.2)
movej(p[0.47709650542381, -0.00317124262612244, 0.424612564980676, -1.189, 1.012, -1.115], a = 0.2, v = 0.2, t = 0.2)
movej(p[0.477089394452349, -0.00317336160407065, 0.424677955347836, -1.189, 1.012, -1.115], a = 0.2, v = 0.2, t = 0.2)
movej(p[0.477151749708552, -0.00315478054048834, 0.424104555057899, -1.189, 1.012, -1.115], a = 0.2, v = 0.2, t = 0.2)
movej(p[0.477251990526427, -0.0031249100672692, 0.42318277047175, -1.189, 1.012, -1.115], a = 0.2, v = 0.2, t = 0.2)
movej(p[0.477350297194642, -0.00309561594574847, 0.422278771747509, -1.189, 1.012, -1.115], a = 0.2, v = 0.2, t = 0.2)
movej(p[0.477396057662865, -0.00308197991534176, 0.421857972165496, -1.189, 1.012, -1.115], a = 0.2, v = 0.2, t = 0.2)
movej(p[0.477412805886181, -0.00307698916041132, 0.421703960512102, -1.189, 1.012, -1.115], a = 0.2, v = 0.2, t = 0.2)
movej(p[0.4773864625517, -0.00308483913494062, 0.421946205938537, -1.189, 1.012, -1.115], a = 0.2, v = 0.2, t = 0.2)
movej(p[0.477307259663372, -0.00310844057599875, 0.422674532015552, -1.189, 1.012, -1.115], a = 0.2, v = 0.2, t = 0.2)
movej(p[0.477222805396635, -0.00313360686021572, 0.423451148198083, -1.189, 1.012, -1.115], a = 0.2, v = 0.2, t = 0.2)
movej(p[0.477168497931869, -0.0031497897855579, 0.423950543404505, -1.189, 1.012, -1.115], a = 0.2, v = 0.2, t = 0.2)
movej(p[0.477143289154451, -0.00315730167668869, 0.424182355783452, -1.189, 1.012, -1.115], a = 0.2, v = 0.2, t = 0.2)
movej(p[0.477088111862602, -0.00317374379930306, 0.424689749659615, -1.189, 1.012, -1.115], a = 0.2, v = 0.2, t = 0.2)
movej(p[0.477052027545335, -0.00318449646129674, 0.42502157025091, -1.189, 1.012, -1.115], a = 0.2, v = 0.2, t = 0.2)
movej(p[0.477054342041744, -0.00318380677116377, 0.425000286834035, -1.189, 1.012, -1.115], a = 0.2, v = 0.2, t = 0.2)
movej(p[0.477102438616986, -0.00316947461094031, 0.424558005110432, -1.189, 1.012, -1.115], a = 0.2, v = 0.2, t = 0.2)
movej(p[0.477140393332613, -0.00315816459431537, 0.424208984895135, -1.189, 1.012, -1.115], a = 0.2, v = 0.2, t = 0.2)
movej(p[0.477209979499167, -0.00313742881253987, 0.423569091315875, -1.189, 1.012, -1.115], a = 0.2, v = 0.2, t = 0.2)
movej(p[0.477287831724325, -0.00311422985171806, 0.422853185533488, -1.189, 1.012, -1.115], a = 0.2, v = 0.2, t = 0.2)
movej(p[0.477335137351214, -0.00310013338392099, 0.42241817713442, -1.189, 1.012, -1.115], a = 0.2, v = 0.2, t = 0.2)
