def moving():
set_payload_mass(0)
set_tcp(p[0,0,0,0,0,0])
movej(p[-0.2741, -0.2689, 0.406, -0.162999999999999, -2.146, 2.175], a = 0.2, v = 0.2, t = 0.2)
movej(p[-0.273966168892393, -0.268995230771508, 0.405860332645924, -0.164788381436844, -2.14006052079419, 2.16985437572971], a = 0.2, v = 0.2, t = 0.2)
movej(p[-0.273941690587824, -0.269259340325471, 0.405729651781942, -0.16430586225965, -2.14050330952821, 2.16223105708941], a = 0.2, v = 0.2, t = 0.2)
movej(p[-0.273939607233342, -0.2692865670887, 0.40564142030741, -0.168369985791534, -2.1425421608833, 2.16204084098924], a = 0.2, v = 0.2, t = 0.2)
movej(p[-0.274089558520729, -0.269255854057967, 0.405665270068379, -0.16458419669351, -2.1411521925373, 2.15593135829906], a = 0.2, v = 0.2, t = 0.2)
movej(p[-0.2741063154952, -0.269194786203561, 0.405621395349168, -0.16878872205268, -2.13951011472122, 2.15696895572403], a = 0.2, v = 0.2, t = 0.2)
movej(p[-0.274054383474954, -0.269067920526231, 0.405487149076915, -0.167099373710675, -2.13630045885386, 2.15616360670239], a = 0.2, v = 0.2, t = 0.2)
movej(p[-0.274078919318348, -0.268580457833205, 0.405390579921403, -0.173404091215802, -2.13694272615608, 2.16575686984739], a = 0.2, v = 0.2, t = 0.2)
movej(p[-0.274037241544071, -0.267683403056383, 0.405340548123825, -0.172802943408352, -2.12202629425777, 2.16647275662335], a = 0.2, v = 0.2, t = 0.2)
movej(p[-0.273766752074154, -0.266761609907976, 0.40526628530409, -0.167208027229678, -2.11105691144866, 2.16764610508406], a = 0.2, v = 0.2, t = 0.2)
movej(p[-0.273338459579979, -0.26585365588642, 0.405253948278715, -0.157557335454826, -2.09865687327842, 2.16845424998537], a = 0.2, v = 0.2, t = 0.2)
movej(p[-0.273109233674016, -0.265026421718872, 0.405368482157442, -0.158277155254558, -2.10082092141739, 2.18586949101759], a = 0.2, v = 0.2, t = 0.2)
movej(p[-0.27289661157738, -0.26452773282289, 0.405465549045961, -0.151825209627215, -2.09118919228608, 2.19178065206543], a = 0.2, v = 0.2, t = 0.2)
movej(p[-0.272766809072328, -0.264728850457731, 0.405476289420193, -0.140382095446962, -2.09075204733873, 2.19152407131938], a = 0.2, v = 0.2, t = 0.2)
movej(p[-0.272854064916824, -0.265617738562571, 0.405522767960129, -0.132543179071086, -2.09250530974406, 2.18760614961189], a = 0.2, v = 0.2, t = 0.2)
movej(p[-0.273063150215744, -0.266695723835234, 0.405602366149159, -0.135043914337761, -2.09884420379559, 2.18548504551214], a = 0.2, v = 0.2, t = 0.2)
movej(p[-0.273178053857918, -0.267868659174419, 0.405584847481773, -0.143072166832283, -2.10507086372737, 2.17656380649237], a = 0.2, v = 0.2, t = 0.2)
movej(p[-0.273277984534981, -0.268779454108222, 0.405512035680254, -0.152646136024677, -2.11599977989873, 2.16841560001483], a = 0.2, v = 0.2, t = 0.2)
movej(p[-0.273497040188686, -0.269265899826236, 0.405495194005582, -0.154882610720993, -2.12721326111232, 2.15718560643267], a = 0.2, v = 0.2, t = 0.2)
movej(p[-0.273680745994999, -0.26930274361192, 0.405467544253625, -0.160595153364129, -2.13022515814272, 2.15578606233192], a = 0.2, v = 0.2, t = 0.2)
movej(p[-0.273714603892894, -0.269244502411391, 0.40536924458419, -0.165140856264577, -2.13348048159128, 2.15686470631067], a = 0.2, v = 0.2, t = 0.2)
movej(p[-0.273779423898164, -0.268905664087948, 0.405282230154879, -0.170865529497259, -2.13393973545942, 2.16592147654409], a = 0.2, v = 0.2, t = 0.2)
movej(p[-0.273846052120262, -0.268191841712598, 0.405296013916856, -0.171446106256466, -2.12802803140687, 2.16620104495615], a = 0.2, v = 0.2, t = 0.2)
movej(p[-0.273743923535303, -0.267270546638973, 0.405245729740924, -0.165572384657802, -2.11296631675359, 2.16537281270965], a = 0.2, v = 0.2, t = 0.2)
movej(p[-0.273407442748939, -0.266271933667524, 0.405229046510997, -0.158273290628689, -2.10173922583995, 2.16557149463234], a = 0.2, v = 0.2, t = 0.2)
movej(p[-0.273195833730689, -0.265448968272815, 0.405321305640661, -0.15383014935117, -2.0993504054478, 2.17685488907364], a = 0.2, v = 0.2, t = 0.2)
movej(p[-0.272960819700956, -0.264724324957995, 0.405460101167304, -0.142465706390947, -2.09130668660919, 2.1795038804519], a = 0.2, v = 0.2, t = 0.2)
movej(p[-0.272802729565414, -0.26459692526411, 0.405498554650141, -0.133271182049728, -2.08924247864703, 2.18271723508636], a = 0.2, v = 0.2, t = 0.2)
movej(p[-0.272741539855917, -0.265033105733589, 0.405478276859404, -0.131647343594645, -2.0910436049792, 2.18688093923291], a = 0.2, v = 0.2, t = 0.2)
movej(p[-0.272970096783066, -0.265985982119499, 0.405541661993525, -0.132281787587463, -2.09633823492494, 2.18607410124906], a = 0.2, v = 0.2, t = 0.2)
movej(p[-0.273147783967816, -0.267149771602938, 0.405542226539467, -0.140533923271557, -2.10124914729388, 2.18171420839934], a = 0.2, v = 0.2, t = 0.2)
movej(p[-0.27325864922343, -0.268241462664863, 0.405493907194384, -0.140290049965401, -2.10992066708544, 2.16658497097833], a = 0.2, v = 0.2, t = 0.2)
movej(p[-0.273439617389867, -0.268884705619435, 0.405475162306273, -0.156965623035013, -2.12591884370076, 2.16767131109849], a = 0.2, v = 0.2, t = 0.2)
movej(p[-0.273599851672579, -0.269090225480235, 0.405487010177832, -0.157194947230711, -2.12793539597608, 2.15779350530348], a = 0.2, v = 0.2, t = 0.2)
movej(p[-0.273676361656621, -0.269117288449831, 0.405413360058222, -0.157399041207802, -2.1283713631061, 2.15338913199108], a = 0.2, v = 0.2, t = 0.2)
movej(p[-0.273691499296133, -0.269000364532236, 0.405301584408529, -0.15420365426294, -2.12700363773954, 2.15108479170307], a = 0.2, v = 0.2, t = 0.2)
movej(p[-0.273850499018494, -0.268536241253259, 0.405266505333559, -0.159359988493381, -2.12550430912269, 2.15987576153462], a = 0.2, v = 0.2, t = 0.2)
movej(p[-0.273759197649365, -0.267795765926256, 0.405184150577199, -0.163453658392001, -2.11479069028036, 2.1666428564101], a = 0.2, v = 0.2, t = 0.2)
movej(p[-0.27350371916465, -0.266880835026294, 0.405110239255051, -0.161443524280297, -2.10335721043642, 2.16963739722723], a = 0.2, v = 0.2, t = 0.2)
movej(p[-0.273214923865705, -0.265912334071097, 0.405136205072789, -0.160337981823971, -2.09944300324637, 2.17778360707168], a = 0.2, v = 0.2, t = 0.2)
movej(p[-0.273016120492356, -0.265029341508987, 0.405260308290326, -0.156017653008726, -2.0937465154945, 2.18301679317394], a = 0.2, v = 0.2, t = 0.2)
movej(p[-0.272777605964541, -0.264650725568771, 0.405319828256182, -0.145451316577441, -2.09276649537304, 2.18590708881308], a = 0.2, v = 0.2, t = 0.2)
movej(p[-0.272706631574086, -0.264756443655199, 0.40538208259741, -0.131941749379608, -2.09149643507282, 2.1846032675013], a = 0.2, v = 0.2, t = 0.2)
movej(p[-0.27283871683016, -0.265269719870966, 0.405501902061422, -0.130930415226605, -2.09672179116178, 2.18833392558511], a = 0.2, v = 0.2, t = 0.2)
movej(p[-0.273029251334692, -0.266260197489396, 0.405564301908138, -0.131212490509215, -2.09945908579826, 2.18144722364476], a = 0.2, v = 0.2, t = 0.2)
movej(p[-0.273207126053472, -0.267457686837041, 0.405579346322296, -0.142856843805382, -2.11202696059131, 2.17777917075805], a = 0.2, v = 0.2, t = 0.2)
movej(p[-0.273459677325342, -0.268459825617012, 0.405586136414649, -0.150861775862238, -2.1259935811261, 2.17155342087115], a = 0.2, v = 0.2, t = 0.2)
movej(p[-0.27368411890434, -0.268874057297151, 0.405623179873061, -0.160905890366249, -2.13390954061348, 2.17026266224781], a = 0.2, v = 0.2, t = 0.2)
movej(p[-0.2737985138272, -0.26907157850309, 0.405584517438407, -0.170368520381658, -2.14029226332182, 2.17083038868617], a = 0.2, v = 0.2, t = 0.2)
movej(p[-0.273925448879525, -0.269088680176757, 0.405542106263594, -0.174088947352778, -2.14199344048911, 2.1718213720368], a = 0.2, v = 0.2, t = 0.2)
movej(p[-0.274064997870866, -0.268831859699287, 0.405488525284312, -0.180228344479766, -2.14060901579255, 2.17610284129034], a = 0.2, v = 0.2, t = 0.2)
movej(p[-0.27404578792064, -0.268246939151853, 0.40536503759543, -0.168748913054273, -2.1254523509306, 2.16801942284217], a = 0.2, v = 0.2, t = 0.2)
movej(p[-0.273836863678072, -0.267314517509778, 0.405235188756547, -0.16571424016332, -2.11668364218286, 2.17074942084807], a = 0.2, v = 0.2, t = 0.2)
movej(p[-0.27363821612781, -0.266295646141073, 0.405256230905482, -0.155411916201299, -2.10964024791599, 2.16973441508281], a = 0.2, v = 0.2, t = 0.2)
movej(p[-0.273393361975416, -0.265309666756329, 0.405329957723643, -0.157919251738294, -2.10440170984404, 2.18261443076054], a = 0.2, v = 0.2, t = 0.2)
movej(p[-0.273069187155687, -0.264697088881175, 0.405344625399826, -0.1537141714027, -2.10229084055006, 2.18978158493635], a = 0.2, v = 0.2, t = 0.2)
movej(p[-0.272926263340548, -0.264573527806335, 0.405389655403722, -0.151594899504496, -2.10450446826769, 2.19911512514368], a = 0.2, v = 0.2, t = 0.2)
movej(p[-0.272976184120168, -0.264869371786976, 0.405518197822328, -0.143592631334428, -2.10501140414419, 2.19808852823865], a = 0.2, v = 0.2, t = 0.2)
movej(p[-0.273126684817411, -0.265824540356816, 0.405614485135188, -0.138357935612953, -2.10450631643627, 2.18969944754255], a = 0.2, v = 0.2, t = 0.2)
movej(p[-0.273267830171743, -0.267097359083707, 0.405639813576263, -0.145417781123323, -2.11483707302566, 2.18440730449307], a = 0.2, v = 0.2, t = 0.2)
movej(p[-0.273521062593877, -0.268249000025427, 0.405669109247187, -0.15514180798542, -2.13048105680787, 2.17958911056846], a = 0.2, v = 0.2, t = 0.2)
movej(p[-0.273709820568783, -0.268804341631847, 0.405679865984067, -0.165533456825952, -2.13973799149404, 2.17740136596973], a = 0.2, v = 0.2, t = 0.2)
movej(p[-0.273826232893859, -0.269054085426283, 0.405610171155631, -0.167259985114025, -2.14269645416585, 2.17159384347999], a = 0.2, v = 0.2, t = 0.2)
movej(p[-0.273962664197881, -0.269074843934771, 0.405556603338725, -0.168841210588141, -2.14308593954168, 2.17079714568612], a = 0.2, v = 0.2, t = 0.2)
movej(p[-0.274053258531982, -0.268812549400745, 0.405493660211167, -0.170183866477825, -2.13668832699805, 2.16892876065209], a = 0.2, v = 0.2, t = 0.2)
movej(p[-0.274018266458421, -0.268338697867549, 0.405372367245847, -0.166659897291279, -2.12600397845585, 2.16665857910379], a = 0.2, v = 0.2, t = 0.2)
movej(p[-0.273819850691857, -0.267498198184984, 0.40526987633069, -0.166130426429422, -2.11782274586452, 2.17048344774742], a = 0.2, v = 0.2, t = 0.2)
movej(p[-0.273717621026372, -0.266507903464783, 0.40532909819461, -0.165570765411453, -2.11475200811398, 2.17664883489717], a = 0.2, v = 0.2, t = 0.2)
movej(p[-0.273452510388628, -0.265592699671981, 0.405398676970383, -0.167005024002814, -2.10708472613294, 2.18734739677022], a = 0.2, v = 0.2, t = 0.2)
movej(p[-0.273117051644719, -0.265018197426985, 0.405410433574069, -0.156006192435508, -2.10182986778593, 2.18823862552701], a = 0.2, v = 0.2, t = 0.2)
movej(p[-0.272929791620312, -0.264695492467962, 0.405427147567651, -0.148105217042997, -2.10014970572203, 2.19424771884284], a = 0.2, v = 0.2, t = 0.2)
movej(p[-0.272969953341393, -0.264790989686578, 0.405510740628945, -0.13117508599479, -2.09411834323163, 2.18334057942865], a = 0.2, v = 0.2, t = 0.2)
movej(p[-0.273099303019305, -0.265523484277334, 0.40558186749825, -0.126765116370576, -2.09566202337233, 2.17687273401175], a = 0.2, v = 0.2, t = 0.2)
movej(p[-0.273221612017788, -0.266763347762901, 0.40558782412042, -0.132352644966251, -2.10523287317985, 2.17294138915563], a = 0.2, v = 0.2, t = 0.2)
movej(p[-0.273502839817741, -0.26793282762376, 0.4056786207904, -0.139207011493432, -2.11796718100461, 2.167208198805], a = 0.2, v = 0.2, t = 0.2)
movej(p[-0.273691543140071, -0.268642291115762, 0.405661010047698, -0.15607736207198, -2.12896469139641, 2.17083913167437], a = 0.2, v = 0.2, t = 0.2)
movej(p[-0.273838098916459, -0.269005495940809, 0.405609348992019, -0.157799945862475, -2.13390803590746, 2.16396090104215], a = 0.2, v = 0.2, t = 0.2)
movej(p[-0.273983433486408, -0.269045420412723, 0.405560723497017, -0.165632548039379, -2.14150447339936, 2.16812277103084], a = 0.2, v = 0.2, t = 0.2)
movej(p[-0.274101658032297, -0.268834478461787, 0.405550562052755, -0.156770880835755, -2.13448396378235, 2.15715891273973], a = 0.2, v = 0.2, t = 0.2)
movej(p[-0.2740661681456, -0.268317394199021, 0.405413955692032, -0.150795594061736, -2.12573130034096, 2.15270635806759], a = 0.2, v = 0.2, t = 0.2)
movej(p[-0.273918605595624, -0.267489002326535, 0.405293635288353, -0.150201055057889, -2.11804586489314, 2.15602375458745], a = 0.2, v = 0.2, t = 0.2)
movej(p[-0.273801932065787, -0.266485080273813, 0.405289322711574, -0.157195129217471, -2.11362234760001, 2.16942951390294], a = 0.2, v = 0.2, t = 0.2)
movej(p[-0.273510126983587, -0.265602726405225, 0.405317209984396, -0.162354282280167, -2.1076728707197, 2.18288059054609], a = 0.2, v = 0.2, t = 0.2)
movej(p[-0.273189575179427, -0.264985670815758, 0.405336483823052, -0.151842759171668, -2.10122255595475, 2.18704944870289], a = 0.2, v = 0.2, t = 0.2)
movej(p[-0.273053356934421, -0.264638905718373, 0.405399255378419, -0.145699459239036, -2.10380313092689, 2.19491718846888], a = 0.2, v = 0.2, t = 0.2)
movej(p[-0.273091768274947, -0.264514260780058, 0.405507906081461, -0.133365541059321, -2.09751909528876, 2.19167895033544], a = 0.2, v = 0.2, t = 0.2)
movej(p[-0.273206806561709, -0.265167013124759, 0.405565168089522, -0.126685983096541, -2.10001604932952, 2.18532785390868], a = 0.2, v = 0.2, t = 0.2)
movej(p[-0.273338335363688, -0.266315376836206, 0.405608512333435, -0.125446395400024, -2.10313053828051, 2.17694419690432], a = 0.2, v = 0.2, t = 0.2)
movej(p[-0.273625147774215, -0.267609038217324, 0.405698250017667, -0.137703620864395, -2.11624558879032, 2.17402315391478], a = 0.2, v = 0.2, t = 0.2)
movej(p[-0.273776792167468, -0.268536979777959, 0.405703670953197, -0.148782146569991, -2.12542546748912, 2.1685682317558], a = 0.2, v = 0.2, t = 0.2)
movej(p[-0.273950793117691, -0.269065189093385, 0.405675958352833, -0.160508382678871, -2.13649661198886, 2.16876979184635], a = 0.2, v = 0.2, t = 0.2)
movej(p[-0.274086381152348, -0.269175611070592, 0.405660966112955, -0.160237461100091, -2.13991732811536, 2.16162829117518], a = 0.2, v = 0.2, t = 0.2)
movej(p[-0.274212953854434, -0.269082320396352, 0.405653235978003, -0.16190371637214, -2.13940200765544, 2.16007938225316], a = 0.2, v = 0.2, t = 0.2)
movej(p[-0.274244514171628, -0.26881987646407, 0.405553588109485, -0.159513795572825, -2.13676095305134, 2.1578822813855], a = 0.2, v = 0.2, t = 0.2)
movej(p[-0.274243031410334, -0.268181753620126, 0.405444578032793, -0.160009863656487, -2.1326729506061, 2.16405770366013], a = 0.2, v = 0.2, t = 0.2)
movej(p[-0.274213531276948, -0.267155314788211, 0.405400977202923, -0.167575357133246, -2.12601160945526, 2.17468465031959], a = 0.2, v = 0.2, t = 0.2)
movej(p[-0.273891936003299, -0.266151554302847, 0.4053534155483, -0.166947760526595, -2.11392117555712, 2.1814599029884], a = 0.2, v = 0.2, t = 0.2)
movej(p[-0.273500818224646, -0.265309143908681, 0.405357669701771, -0.161160391604734, -2.10661997165615, 2.18714157044407], a = 0.2, v = 0.2, t = 0.2)
movej(p[-0.273274008545609, -0.264631344296838, 0.40543785570853, -0.153020885664593, -2.10731227969447, 2.195256159538], a = 0.2, v = 0.2, t = 0.2)
movej(p[-0.273183231416971, -0.264343770882216, 0.405549727349793, -0.144573641225184, -2.10138154821386, 2.19615004051471], a = 0.2, v = 0.2, t = 0.2)
movej(p[-0.273140400144708, -0.264693579418425, 0.40559991853539, -0.136522316123305, -2.1019954412676, 2.19324732014764], a = 0.2, v = 0.2, t = 0.2)
movej(p[-0.273256659580249, -0.265793879814171, 0.405656590458486, -0.137216229651797, -2.10546322953358, 2.19064980874721], a = 0.2, v = 0.2, t = 0.2)
movej(p[-0.273440134777456, -0.267081222483129, 0.405721319329876, -0.144487056884813, -2.11460478174466, 2.18439354932306], a = 0.2, v = 0.2, t = 0.2)
movej(p[-0.273613340184628, -0.268207011426361, 0.405737149769625, -0.149534744908794, -2.12314399745484, 2.17236771095844], a = 0.2, v = 0.2, t = 0.2)
movej(p[-0.273769191586875, -0.268949847057649, 0.405724828324425, -0.161340620556486, -2.1380184012898, 2.16840149077539], a = 0.2, v = 0.2, t = 0.2)
movej(p[-0.274026243336651, -0.269252844469032, 0.40576910863705, -0.163062863804848, -2.14745893087476, 2.16161827656578], a = 0.2, v = 0.2, t = 0.2)
movej(p[-0.274179695469144, -0.269217921148702, 0.405734545197892, -0.17757138622671, -2.15172484604147, 2.17127190962612], a = 0.2, v = 0.2, t = 0.2)
movej(p[-0.274197958568267, -0.269173091488745, 0.405647791027828, -0.178756924833137, -2.15108603094424, 2.17090628132382], a = 0.2, v = 0.2, t = 0.2)
movej(p[-0.274275088331764, -0.268906789696696, 0.405569908759914, -0.182000619443293, -2.15176906816722, 2.17782795048452], a = 0.2, v = 0.2, t = 0.2)
movej(p[-0.274280940473905, -0.268322863100607, 0.405489241397173, -0.179357846201798, -2.14156347811757, 2.17771780008579], a = 0.2, v = 0.2, t = 0.2)
movej(p[-0.27414884023561, -0.267542872053989, 0.405385092171832, -0.170073034228804, -2.12792129084425, 2.17335177870264], a = 0.2, v = 0.2, t = 0.2)
movej(p[-0.273869915582724, -0.266560755258129, 0.405294848834516, -0.168443137557706, -2.11864146283395, 2.17871043299022], a = 0.2, v = 0.2, t = 0.2)
movej(p[-0.273700533884171, -0.265701265693704, 0.405410534789973, -0.160182137615756, -2.11499114867902, 2.18159825878917], a = 0.2, v = 0.2, t = 0.2)
movej(p[-0.27346785623829, -0.265051875719339, 0.405476316979061, -0.159102760824443, -2.10860073014549, 2.18995795411761], a = 0.2, v = 0.2, t = 0.2)
movej(p[-0.273278249053378, -0.265035564693235, 0.405514225035686, -0.147724637147673, -2.10736071870067, 2.18940856893027], a = 0.2, v = 0.2, t = 0.2)
movej(p[-0.273279092429478, -0.265547074903954, 0.405526763374763, -0.149122334069588, -2.11166061561991, 2.1966831883828], a = 0.2, v = 0.2, t = 0.2)
movej(p[-0.273458587296119, -0.26648083741419, 0.405644485462014, -0.147936857686375, -2.11508079070022, 2.18988270655046], a = 0.2, v = 0.2, t = 0.2)
movej(p[-0.273644333539532, -0.267615495244816, 0.405686043543762, -0.150849734046849, -2.12254255898439, 2.18071690098674], a = 0.2, v = 0.2, t = 0.2)
movej(p[-0.273761891776936, -0.268492805494366, 0.405701155176758, -0.152748688332344, -2.13244939088954, 2.16749172522749], a = 0.2, v = 0.2, t = 0.2)
movej(p[-0.274049598289041, -0.268978567449881, 0.405753044854916, -0.159581433190861, -2.14325009422205, 2.16442497405167], a = 0.2, v = 0.2, t = 0.2)
movej(p[-0.274179948273172, -0.269086028812144, 0.405716431004879, -0.170621528677103, -2.14710978883818, 2.16565505217684], a = 0.2, v = 0.2, t = 0.2)
movej(p[-0.274222468221651, -0.269145187450176, 0.405630356174158, -0.174895269273269, -2.14709125653999, 2.16576174460848], a = 0.2, v = 0.2, t = 0.2)
movej(p[-0.274272441517114, -0.269076345129306, 0.40555703206217, -0.179637475680433, -2.14938548541227, 2.17058456455813], a = 0.2, v = 0.2, t = 0.2)
movej(p[-0.274357907332018, -0.268818297089899, 0.405554750124118, -0.16482865811313, -2.14000306799988, 2.15922770348421], a = 0.2, v = 0.2, t = 0.2)
movej(p[-0.27426737381753, -0.268328086986298, 0.405439709639148, -0.15864523824254, -2.13147623580323, 2.15683042409627], a = 0.2, v = 0.2, t = 0.2)
movej(p[-0.274082573600842, -0.267567377775165, 0.40537032045405, -0.147918754493782, -2.12000397834484, 2.15118986210606], a = 0.2, v = 0.2, t = 0.2)
movej(p[-0.27396413905087, -0.26657736529231, 0.40542739389766, -0.162401249900452, -2.12033129215795, 2.17126486446735], a = 0.2, v = 0.2, t = 0.2)
movej(p[-0.273707078897328, -0.265783563446179, 0.405489931086085, -0.162032733624909, -2.11086612231461, 2.17825694877152], a = 0.2, v = 0.2, t = 0.2)
movej(p[-0.273399827792315, -0.265329096822151, 0.405484430418169, -0.15396193785985, -2.10552708061605, 2.18216501583224], a = 0.2, v = 0.2, t = 0.2)
movej(p[-0.27322486785624, -0.265183025762347, 0.405510278659051, -0.141892718558962, -2.10360266392728, 2.18290892645809], a = 0.2, v = 0.2, t = 0.2)
movej(p[-0.273316142862319, -0.265294571996752, 0.405635019461339, -0.134300715629517, -2.10222853322638, 2.1820715099234], a = 0.2, v = 0.2, t = 0.2)
movej(p[-0.273415025671622, -0.266001027252012, 0.405661491182854, -0.138068134042872, -2.10715305435673, 2.18326272047157], a = 0.2, v = 0.2, t = 0.2)
movej(p[-0.273531888922475, -0.267048075077738, 0.405660455691407, -0.147313638682309, -2.11696374495394, 2.18407326217597], a = 0.2, v = 0.2, t = 0.2)
movej(p[-0.273728180963719, -0.268068267195329, 0.405702867053673, -0.15819892542322, -2.13200804003489, 2.1810110816335], a = 0.2, v = 0.2, t = 0.2)
movej(p[-0.273874232322332, -0.268651287702761, 0.405720513766131, -0.167959973713024, -2.13989670187274, 2.1777463123061], a = 0.2, v = 0.2, t = 0.2)
movej(p[-0.273898483809959, -0.269021891535058, 0.405628233036663, -0.173496706891409, -2.14647967915602, 2.17322763934979], a = 0.2, v = 0.2, t = 0.2)
movej(p[-0.273987147248508, -0.269137141667766, 0.405527576220444, -0.178455491302255, -2.14999925656423, 2.17827353405933], a = 0.2, v = 0.2, t = 0.2)
movej(p[-0.274053927882964, -0.269076798258565, 0.405462739639631, -0.17743760979028, -2.14496095379187, 2.17403499945046], a = 0.2, v = 0.2, t = 0.2)
movej(p[-0.27403894112884, -0.269025241698801, 0.405373967173504, -0.168599760331649, -2.13511610024111, 2.16344974054545], a = 0.2, v = 0.2, t = 0.2)
movej(p[-0.273942668925209, -0.268966485319188, 0.405257457738029, -0.164578814100726, -2.13058183199368, 2.15785521275018], a = 0.2, v = 0.2, t = 0.2)
movej(p[-0.274034697748709, -0.268779946390499, 0.405213725826183, -0.16831425443886, -2.13369051231785, 2.1643814844517], a = 0.2, v = 0.2, t = 0.2)
movej(p[-0.274000409593458, -0.268191120398363, 0.405149445125232, -0.168597117288058, -2.11990188360339, 2.16636213487202], a = 0.2, v = 0.2, t = 0.2)
movej(p[-0.273783453227634, -0.267593254282798, 0.405026509932419, -0.164996087036069, -2.10951108245493, 2.16656230622441], a = 0.2, v = 0.2, t = 0.2)
movej(p[-0.273445550732626, -0.266939941507576, 0.4049259950967, -0.155386719209516, -2.09780038909881, 2.16404280960782], a = 0.2, v = 0.2, t = 0.2)
movej(p[-0.273331751514641, -0.26634055144895, 0.405028606369502, -0.152353753336677, -2.09659328555061, 2.16820470188156], a = 0.2, v = 0.2, t = 0.2)
movej(p[-0.27308599875311, -0.265787269593275, 0.405068904513138, -0.148977794123911, -2.087959150048, 2.17345042123627], a = 0.2, v = 0.2, t = 0.2)
movej(p[-0.272804013097185, -0.265568458666054, 0.405079352559911, -0.142429326677362, -2.08542901505103, 2.17534471492091], a = 0.2, v = 0.2, t = 0.2)
movej(p[-0.272677190065964, -0.265680386551801, 0.405106162146705, -0.139508365852276, -2.08780777467876, 2.18290759432453], a = 0.2, v = 0.2, t = 0.2)
movej(p[-0.272818606367279, -0.266130352475947, 0.405209913870691, -0.127873960374949, -2.08720212176633, 2.17432484567807], a = 0.2, v = 0.2, t = 0.2)
movej(p[-0.272995050791064, -0.267064107344637, 0.405263120666421, -0.132008115121435, -2.09381649267045, 2.17216901884801], a = 0.2, v = 0.2, t = 0.2)
movej(p[-0.273132926016873, -0.268022368094785, 0.40527033011395, -0.131593159218458, -2.09992373037456, 2.16047108147295], a = 0.2, v = 0.2, t = 0.2)
movej(p[-0.27339964008517, -0.268739138467325, 0.405325793036891, -0.153944806555259, -2.11904791295087, 2.17091147694334], a = 0.2, v = 0.2, t = 0.2)
movej(p[-0.273575803798238, -0.268984622099678, 0.405334607167806, -0.155970435543291, -2.1190217372127, 2.1637468232645], a = 0.2, v = 0.2, t = 0.2)
movej(p[-0.273620146894522, -0.26909363193431, 0.405258878738007, -0.163125571393935, -2.12220357185505, 2.1659060115025], a = 0.2, v = 0.2, t = 0.2)
movej(p[-0.273680544040817, -0.269112596193596, 0.405201421393053, -0.167624322406594, -2.12456469003729, 2.16920525925684], a = 0.2, v = 0.2, t = 0.2)
movej(p[-0.273810740014433, -0.269029610842402, 0.405171505636714, -0.176909559502109, -2.1251618519785, 2.17573053738548], a = 0.2, v = 0.2, t = 0.2)
movej(p[-0.273817912879981, -0.268982455186415, 0.405118769338168, -0.170388900219537, -2.11864209151205, 2.16867572449533], a = 0.2, v = 0.2, t = 0.2)
movej(p[-0.273798375418233, -0.268850127856441, 0.405011394499727, -0.170665600737151, -2.11629695366875, 2.16931533795487], a = 0.2, v = 0.2, t = 0.2)
movej(p[-0.273824359280122, -0.26842048107405, 0.405008993936749, -0.166387270798441, -2.11642634054082, 2.16790096431971], a = 0.2, v = 0.2, t = 0.2)
movej(p[-0.273790612863813, -0.26766573748728, 0.404986644623216, -0.167874265447279, -2.10648851704309, 2.17195558948045], a = 0.2, v = 0.2, t = 0.2)
movej(p[-0.273535214610392, -0.26693728283158, 0.404927573977902, -0.161932047202098, -2.09949997870527, 2.17087332227973], a = 0.2, v = 0.2, t = 0.2)
movej(p[-0.273237790381801, -0.266247638368571, 0.404927676390259, -0.158222671467302, -2.09446991989121, 2.17770152898841], a = 0.2, v = 0.2, t = 0.2)
movej(p[-0.273101676822119, -0.265623219189096, 0.405077064509515, -0.152123639339154, -2.09525336232385, 2.18171358567026], a = 0.2, v = 0.2, t = 0.2)
movej(p[-0.272942608939466, -0.265244937778002, 0.405170243577598, -0.152383444751792, -2.09147365633723, 2.18924747228174], a = 0.2, v = 0.2, t = 0.2)
movej(p[-0.272839746887935, -0.265506400472812, 0.405214963095454, -0.144655938268771, -2.09218149536026, 2.1884966178363], a = 0.2, v = 0.2, t = 0.2)
movej(p[-0.272956304557634, -0.266178947505213, 0.405229637159043, -0.153039571014711, -2.10064070057439, 2.20199179200818], a = 0.2, v = 0.2, t = 0.2)
movej(p[-0.273200279065353, -0.267027932379946, 0.4053269065862, -0.145930822686895, -2.10099998965785, 2.18953001028187], a = 0.2, v = 0.2, t = 0.2)
movej(p[-0.273409513934598, -0.267960009166812, 0.405355970862842, -0.145220738282522, -2.106947862329, 2.17753140125472], a = 0.2, v = 0.2, t = 0.2)
movej(p[-0.273524196586521, -0.268644736687786, 0.405350778034211, -0.147534914725974, -2.11650479391099, 2.16755282570633], a = 0.2, v = 0.2, t = 0.2)
movej(p[-0.273815075454931, -0.269019557367212, 0.405402943986579, -0.162859295743717, -2.13098226194364, 2.17243639548615], a = 0.2, v = 0.2, t = 0.2)
movej(p[-0.27395441383202, -0.26907260740853, 0.405381424862839, -0.175187392957116, -2.13291000404434, 2.17634319599717], a = 0.2, v = 0.2, t = 0.2)
movej(p[-0.273993503082712, -0.269122558495874, 0.405342164379482, -0.182490703284468, -2.13449146338804, 2.17598516714522], a = 0.2, v = 0.2, t = 0.2)
movej(p[-0.274012989289451, -0.269073394742936, 0.405342528137691, -0.1810214452364, -2.13450910585429, 2.17355207195383], a = 0.2, v = 0.2, t = 0.2)
movej(p[-0.27411026491972, -0.268923016506784, 0.405359249301392, -0.167651708284575, -2.1282231146249, 2.16129469222578], a = 0.2, v = 0.2, t = 0.2)
movej(p[-0.274101077235697, -0.268539948854173, 0.405257132780012, -0.159671136235361, -2.12206980751809, 2.15766035596299], a = 0.2, v = 0.2, t = 0.2)
movej(p[-0.27405015664594, -0.267921475176113, 0.405153737067482, -0.154261661364349, -2.11511530615913, 2.1568141323813], a = 0.2, v = 0.2, t = 0.2)
movej(p[-0.274045056472209, -0.266968528567441, 0.405155431089334, -0.174947868979462, -2.11882845043708, 2.18154246905826], a = 0.2, v = 0.2, t = 0.2)
movej(p[-0.273857255766629, -0.26612606325867, 0.405170764614682, -0.178617101275715, -2.1111032445446, 2.19093690348908], a = 0.2, v = 0.2, t = 0.2)
movej(p[-0.273521552975023, -0.265580794598765, 0.405162875087872, -0.171912437967526, -2.10543526552279, 2.19384994988032], a = 0.2, v = 0.2, t = 0.2)
movej(p[-0.273229475169549, -0.265139669863397, 0.405211560386443, -0.158916014020704, -2.10136634455807, 2.19495979378357], a = 0.2, v = 0.2, t = 0.2)
movej(p[-0.273151593864767, -0.26484482884449, 0.405347108933226, -0.151123780945296, -2.09658218379766, 2.19755582394646], a = 0.2, v = 0.2, t = 0.2)
movej(p[-0.27314240707238, -0.265180789863377, 0.405377017659952, -0.150378363155879, -2.09911845460919, 2.20157173991729], a = 0.2, v = 0.2, t = 0.2)
movej(p[-0.273218936825418, -0.266103710576247, 0.405423267830267, -0.150526726615154, -2.10455990671863, 2.19906847136786], a = 0.2, v = 0.2, t = 0.2)
movej(p[-0.273396612779457, -0.267270235978926, 0.405464002030425, -0.161567095831268, -2.11640935417135, 2.19864358618832], a = 0.2, v = 0.2, t = 0.2)
movej(p[-0.27354557344918, -0.26822889192605, 0.405490488553784, -0.161818958698993, -2.12042255878139, 2.1855589607467], a = 0.2, v = 0.2, t = 0.2)
movej(p[-0.2736859616303, -0.268941019403644, 0.40546505365703, -0.160718552980539, -2.12691877868768, 2.1741561428024], a = 0.2, v = 0.2, t = 0.2)
movej(p[-0.273860952423258, -0.269212841944655, 0.405475700180128, -0.158579467887207, -2.13302295910231, 2.16471382052912], a = 0.2, v = 0.2, t = 0.2)
movej(p[-0.274047781155392, -0.269190860164431, 0.405491034802667, -0.160199326185244, -2.13236875423257, 2.16296878704897], a = 0.2, v = 0.2, t = 0.2)
movej(p[-0.274089976417467, -0.269173109754566, 0.405425803352944, -0.173980355096805, -2.13562497006563, 2.17089881933748], a = 0.2, v = 0.2, t = 0.2)
movej(p[-0.274145280738857, -0.269153542950863, 0.405400578412421, -0.176143161647695, -2.13587968352921, 2.17346930567047], a = 0.2, v = 0.2, t = 0.2)
movej(p[-0.274279600513581, -0.269066792313429, 0.405453419816859, -0.180662503554814, -2.14082018032223, 2.17698829724569], a = 0.2, v = 0.2, t = 0.2)
movej(p[-0.274298738136384, -0.268650449903921, 0.405396462496531, -0.169998938303555, -2.12991001650607, 2.16790860610253], a = 0.2, v = 0.2, t = 0.2)
movej(p[-0.274205522313754, -0.268024636016902, 0.405273825002568, -0.165415504143439, -2.12275695818675, 2.16562785797159], a = 0.2, v = 0.2, t = 0.2)
movej(p[-0.274134168755132, -0.267190142571172, 0.405239526452956, -0.164765304942362, -2.11781704947338, 2.16956622305497], a = 0.2, v = 0.2, t = 0.2)
movej(p[-0.273999945905483, -0.266394752050505, 0.405306190049206, -0.164384737802602, -2.10977027182968, 2.17513117861768], a = 0.2, v = 0.2, t = 0.2)
movej(p[-0.273730984262245, -0.265865814841997, 0.405326600795094, -0.1621404492403, -2.10471305722895, 2.18121083812015], a = 0.2, v = 0.2, t = 0.2)
movej(p[-0.273438275627473, -0.265502969432904, 0.405301895687223, -0.156153012253572, -2.10221938773768, 2.18729998704895], a = 0.2, v = 0.2, t = 0.2)
movej(p[-0.273416340450836, -0.265400919687751, 0.405404521134069, -0.148514333628275, -2.10590260212134, 2.19074415387608], a = 0.2, v = 0.2, t = 0.2)
movej(p[-0.273480155728383, -0.265571956518244, 0.405512105966953, -0.144459513514447, -2.10244359467938, 2.19028188970108], a = 0.2, v = 0.2, t = 0.2)
movej(p[-0.273537468407254, -0.266385842411663, 0.40557584455365, -0.139912608084721, -2.10795639815242, 2.18435458849718], a = 0.2, v = 0.2, t = 0.2)
movej(p[-0.273670831259262, -0.267358425654474, 0.405599880726547, -0.151800861553629, -2.11865690596845, 2.18867329033314], a = 0.2, v = 0.2, t = 0.2)
movej(p[-0.273835080011759, -0.268188701195019, 0.40564771496716, -0.14591904546665, -2.1238294625427, 2.17125878110828], a = 0.2, v = 0.2, t = 0.2)
movej(p[-0.273941929432092, -0.268754115274996, 0.405616062350542, -0.149653744746613, -2.12926647198312, 2.16359584052114], a = 0.2, v = 0.2, t = 0.2)
movej(p[-0.273961339205386, -0.268988354051921, 0.405534253645563, -0.148731968507274, -2.13146235618683, 2.15410522906264], a = 0.2, v = 0.2, t = 0.2)
movej(p[-0.274108172292669, -0.269034764271811, 0.405503671938946, -0.169166499188944, -2.14081828232486, 2.16800558524514], a = 0.2, v = 0.2, t = 0.2)
movej(p[-0.274137173450679, -0.268956146362113, 0.405424051162503, -0.180471533634366, -2.13706771125668, 2.17400125432233], a = 0.2, v = 0.2, t = 0.2)
movej(p[-0.274089951491167, -0.268994813949225, 0.405342383961334, -0.182696482415783, -2.13521044221094, 2.17366129466142], a = 0.2, v = 0.2, t = 0.2)
movej(p[-0.274076476969061, -0.268950681496643, 0.405264787021723, -0.182678877418027, -2.13532042496822, 2.17522242381991], a = 0.2, v = 0.2, t = 0.2)
movej(p[-0.274205617384778, -0.268642747533203, 0.405259447489668, -0.181847732077979, -2.13125963872047, 2.17562140519217], a = 0.2, v = 0.2, t = 0.2)
movej(p[-0.274120239667763, -0.268154167944517, 0.405130382020792, -0.17663565214045, -2.12021874874445, 2.17289121585157], a = 0.2, v = 0.2, t = 0.2)
movej(p[-0.27392262118172, -0.267488480969979, 0.405013543449565, -0.169117563885539, -2.1099183973688, 2.17179383953053], a = 0.2, v = 0.2, t = 0.2)
movej(p[-0.273777966602622, -0.266764922465639, 0.405030760888511, -0.162037078585627, -2.10533932322451, 2.17380139750605], a = 0.2, v = 0.2, t = 0.2)
movej(p[-0.273628168638498, -0.266097353314325, 0.405096748402934, -0.164063572010373, -2.10297450487427, 2.18313285877867], a = 0.2, v = 0.2, t = 0.2)
movej(p[-0.273374339673952, -0.265657823116153, 0.405082869133738, -0.163381401813008, -2.10404626347266, 2.19036102416573], a = 0.2, v = 0.2, t = 0.2)
movej(p[-0.273201399548604, -0.265493690742573, 0.405135878225294, -0.161839025065287, -2.10612376672227, 2.19825024515744], a = 0.2, v = 0.2, t = 0.2)
movej(p[-0.273283006308851, -0.265644655338905, 0.405311363735341, -0.155612998626485, -2.10902283226306, 2.19941047806499], a = 0.2, v = 0.2, t = 0.2)
movej(p[-0.273418286690141, -0.266298077363709, 0.40543799750666, -0.145733439757347, -2.10601912335582, 2.18737009512393], a = 0.2, v = 0.2, t = 0.2)
movej(p[-0.273516025413866, -0.267277577396973, 0.405476726861442, -0.144530641003752, -2.1137407724685, 2.17756017590227], a = 0.2, v = 0.2, t = 0.2)
movej(p[-0.273745535582267, -0.26817875965561, 0.405526592142139, -0.15378413689949, -2.12679984540681, 2.17709184228257], a = 0.2, v = 0.2, t = 0.2)
movej(p[-0.273927613194952, -0.268619000659145, 0.405565124351585, -0.164409418443865, -2.13127244477553, 2.176527230132], a = 0.2, v = 0.2, t = 0.2)
movej(p[-0.274018064556474, -0.268920100927738, 0.405526652345917, -0.165625357298861, -2.1323942006478, 2.17186608171149], a = 0.2, v = 0.2, t = 0.2)
movej(p[-0.274024498775583, -0.268995552646531, 0.405424196985805, -0.166309898670913, -2.13425724714059, 2.16897500028512], a = 0.2, v = 0.2, t = 0.2)
movej(p[-0.274201923104566, -0.269062667769572, 0.405446892980899, -0.168662696070191, -2.14059897164621, 2.17012737066452], a = 0.2, v = 0.2, t = 0.2)
movej(p[-0.274272232977854, -0.268940425666273, 0.40541861786427, -0.179717167023795, -2.13930403748165, 2.17789750315999], a = 0.2, v = 0.2, t = 0.2)
movej(p[-0.274222935664437, -0.268684312942249, 0.405302475201209, -0.181931164578457, -2.13699514789337, 2.17984740101761], a = 0.2, v = 0.2, t = 0.2)
movej(p[-0.274167632710904, -0.268105375062206, 0.405200736590633, -0.184070146474836, -2.13211342268905, 2.1857345899163], a = 0.2, v = 0.2, t = 0.2)
movej(p[-0.274130131115927, -0.267231359816517, 0.405189359720395, -0.168614147110911, -2.11817252672063, 2.17703010980575], a = 0.2, v = 0.2, t = 0.2)
movej(p[-0.273897620132397, -0.266449665104906, 0.405148511707261, -0.164810043152923, -2.1079377981388, 2.17962978489023], a = 0.2, v = 0.2, t = 0.2)
movej(p[-0.273547439350164, -0.265832548381955, 0.405118442716436, -0.155329188456017, -2.10132197477082, 2.18157155761246], a = 0.2, v = 0.2, t = 0.2)
movej(p[-0.273364986376987, -0.265308162202146, 0.405171096668849, -0.16565897628344, -2.11047763732391, 2.2026813065971], a = 0.2, v = 0.2, t = 0.2)
movej(p[-0.273311433120428, -0.265019954904806, 0.405306039073865, -0.160297661814233, -2.10603534763759, 2.20531276290955], a = 0.2, v = 0.2, t = 0.2)
movej(p[-0.273340823809401, -0.26539697511208, 0.405383607691284, -0.149612733613479, -2.10696355349174, 2.19977363732555], a = 0.2, v = 0.2, t = 0.2)
movej(p[-0.273451506390876, -0.266272505885713, 0.405464893221861, -0.142622014562563, -2.1081257770508, 2.19248962488211], a = 0.2, v = 0.2, t = 0.2)
movej(p[-0.273757693366365, -0.267380476367103, 0.405583750536772, -0.155777802314445, -2.12044063279735, 2.19607216988538], a = 0.2, v = 0.2, t = 0.2)
movej(p[-0.273904942833441, -0.268304840384248, 0.405582580599335, -0.168279569179274, -2.12880942311548, 2.19384877053029], a = 0.2, v = 0.2, t = 0.2)
movej(p[-0.274027782827132, -0.268942890078474, 0.405585196798516, -0.180015756963422, -2.14248150093375, 2.19059242850951], a = 0.2, v = 0.2, t = 0.2)
movej(p[-0.274173832472495, -0.269112879135414, 0.405599423781327, -0.180554442938584, -2.14849563488155, 2.18352512780168], a = 0.2, v = 0.2, t = 0.2)
movej(p[-0.274316170151261, -0.269060439835167, 0.405648990132909, -0.181049346534145, -2.14818306524862, 2.17731534936489], a = 0.2, v = 0.2, t = 0.2)
movej(p[-0.274329257544635, -0.269073539127782, 0.405592320217013, -0.184256110310418, -2.14998736651282, 2.17823602929843], a = 0.2, v = 0.2, t = 0.2)
movej(p[-0.27438928907835, -0.269027108611793, 0.405543751268654, -0.186410096419692, -2.15124999044744, 2.17999680764995], a = 0.2, v = 0.2, t = 0.2)
movej(p[-0.274496289486549, -0.268731961346115, 0.405482089965485, -0.189825450206766, -2.1488405057792, 2.18474476708578], a = 0.2, v = 0.2, t = 0.2)
movej(p[-0.274418365091136, -0.268171130888336, 0.405337788158058, -0.188002476006547, -2.1389511669461, 2.1833868028161], a = 0.2, v = 0.2, t = 0.2)
movej(p[-0.274244549812215, -0.267329876363323, 0.405194219478124, -0.179482770671969, -2.1272449074442, 2.18052593144943], a = 0.2, v = 0.2, t = 0.2)
movej(p[-0.274084650546989, -0.266425877365704, 0.405207537348984, -0.175049424991486, -2.12402013347889, 2.18488600275137], a = 0.2, v = 0.2, t = 0.2)
movej(p[-0.273916289069188, -0.265592276523021, 0.405266438686584, -0.171980869040095, -2.11613834406526, 2.19286536762746], a = 0.2, v = 0.2, t = 0.2)
movej(p[-0.273597043753149, -0.265110356700932, 0.405277461651052, -0.167515240041347, -2.11549459105995, 2.19994978084732], a = 0.2, v = 0.2, t = 0.2)
movej(p[-0.273426342294483, -0.264994067103081, 0.405296670405879, -0.160694137621273, -2.11419526104564, 2.20570995572782], a = 0.2, v = 0.2, t = 0.2)
movej(p[-0.273479655880699, -0.265284424379029, 0.405424126760482, -0.148242197836339, -2.1133451950071, 2.19832388200169], a = 0.2, v = 0.2, t = 0.2)
movej(p[-0.273656815958703, -0.266102715858382, 0.405529427333629, -0.142538325263207, -2.11250912954774, 2.18888670778946], a = 0.2, v = 0.2, t = 0.2)
movej(p[-0.273793460781881, -0.267215184747875, 0.405613255433386, -0.145767531590454, -2.12348913965004, 2.18281640378882], a = 0.2, v = 0.2, t = 0.2)
movej(p[-0.27401876619679, -0.268196585221083, 0.405727721004818, -0.163168097565987, -2.14264904793665, 2.18613028950376], a = 0.2, v = 0.2, t = 0.2)
movej(p[-0.274167862156219, -0.268742479633473, 0.40579860103637, -0.177144237819412, -2.15173303654022, 2.18723840932204], a = 0.2, v = 0.2, t = 0.2)
movej(p[-0.274244971575155, -0.269045975920089, 0.405746231116661, -0.187138088418953, -2.15681628763279, 2.18632903480674], a = 0.2, v = 0.2, t = 0.2)
movej(p[-0.274338776681572, -0.269090756294375, 0.405670341753184, -0.187630660783924, -2.15631350320584, 2.18554104034873], a = 0.2, v = 0.2, t = 0.2)
movej(p[-0.274502929298253, -0.269062589401487, 0.405673648652319, -0.180213040515941, -2.15426351130629, 2.17766212123952], a = 0.2, v = 0.2, t = 0.2)
movej(p[-0.274561732570112, -0.269000550584013, 0.405648188918519, -0.176379319162962, -2.15002334880506, 2.17190448056096], a = 0.2, v = 0.2, t = 0.2)
movej(p[-0.274529177017161, -0.268868500459375, 0.405539853170292, -0.178422852921429, -2.15179348790544, 2.17276289587958], a = 0.2, v = 0.2, t = 0.2)
movej(p[-0.274578060374876, -0.268414418126834, 0.405471122914349, -0.188457583019118, -2.15321797366119, 2.181681962574], a = 0.2, v = 0.2, t = 0.2)
movej(p[-0.274495317715753, -0.267701638276126, 0.405402282138743, -0.188174249789816, -2.14054473649062, 2.18460557387538], a = 0.2, v = 0.2, t = 0.2)
movej(p[-0.274272197337651, -0.266981417874323, 0.405339106273869, -0.185461950043503, -2.13054564239334, 2.18851597956779], a = 0.2, v = 0.2, t = 0.2)
movej(p[-0.273997950488988, -0.266247495140853, 0.405306594366908, -0.18143434176936, -2.12391928005274, 2.19465073725164], a = 0.2, v = 0.2, t = 0.2)
movej(p[-0.27387563956224, -0.265536253241622, 0.405374983565441, -0.173691321438731, -2.11976407572224, 2.19818956537279], a = 0.2, v = 0.2, t = 0.2)
movej(p[-0.273674712404298, -0.26506192284864, 0.405398703056974, -0.170412423932297, -2.1171314206736, 2.20325320169844], a = 0.2, v = 0.2, t = 0.2)
movej(p[-0.2734807837172, -0.265016188662541, 0.405447617904039, -0.15912734147063, -2.11601118906627, 2.20279002992393], a = 0.2, v = 0.2, t = 0.2)
movej(p[-0.273536265694955, -0.265453357316598, 0.405559797006116, -0.163609882189855, -2.12395765420056, 2.21158863030121], a = 0.2, v = 0.2, t = 0.2)
movej(p[-0.273687534517886, -0.2662469485488, 0.405691333382005, -0.160433062752494, -2.12294098310517, 2.20340801786555], a = 0.2, v = 0.2, t = 0.2)
movej(p[-0.273803386349693, -0.267399225652495, 0.405718689861492, -0.157255869941727, -2.13154502261073, 2.19166661509222], a = 0.2, v = 0.2, t = 0.2)
movej(p[-0.273916257494799, -0.268329849423499, 0.405748246843917, -0.157158220900119, -2.14006696613172, 2.17919156184356], a = 0.2, v = 0.2, t = 0.2)
movej(p[-0.274191644638089, -0.268824012538596, 0.40584277261203, -0.157270712803224, -2.14662397471963, 2.17333146329494], a = 0.2, v = 0.2, t = 0.2)
movej(p[-0.27429586168745, -0.269011908439933, 0.405805238976022, -0.168292651696674, -2.14887708654484, 2.17562151034668], a = 0.2, v = 0.2, t = 0.2)
movej(p[-0.27436185886707, -0.269108837779958, 0.405736148574196, -0.169479755344112, -2.14931198222658, 2.17325871547806], a = 0.2, v = 0.2, t = 0.2)
movej(p[-0.274422306681207, -0.269095008614849, 0.405701099523447, -0.171955498220962, -2.15242599591926, 2.17316855158544], a = 0.2, v = 0.2, t = 0.2)
movej(p[-0.274512747510605, -0.268970806923304, 0.405689777121086, -0.17196628536265, -2.15131966348067, 2.1700184113585], a = 0.2, v = 0.2, t = 0.2)
movej(p[-0.274483271535503, -0.268676727232151, 0.405551769912422, -0.177484578660046, -2.15043726430183, 2.17336891234335], a = 0.2, v = 0.2, t = 0.2)
movej(p[-0.274464541920069, -0.268067448602665, 0.405463068926764, -0.178945226706978, -2.14507884740129, 2.17656093768716], a = 0.2, v = 0.2, t = 0.2)
movej(p[-0.274447323918462, -0.267216936184711, 0.405463320776506, -0.188046744784681, -2.13897109116369, 2.18902480734883], a = 0.2, v = 0.2, t = 0.2)
movej(p[-0.274239444512647, -0.266512218710982, 0.405474766096861, -0.183254544373083, -2.1269761875748, 2.19146556960125], a = 0.2, v = 0.2, t = 0.2)
movej(p[-0.273949684289494, -0.266082121317513, 0.405471260585485, -0.179422915134699, -2.12358628203111, 2.19629579126161], a = 0.2, v = 0.2, t = 0.2)
movej(p[-0.273925520417825, -0.266126832282837, 0.405577835422035, -0.170045689454272, -2.12438335007923, 2.19571456175678], a = 0.2, v = 0.2, t = 0.2)
movej(p[-0.274044518341907, -0.266531313253389, 0.405751864302757, -0.170650415609949, -2.12586955697637, 2.19787520334843], a = 0.2, v = 0.2, t = 0.2)
movej(p[-0.274134576126474, -0.26746717964014, 0.405812242190182, -0.179732698639686, -2.13470684666039, 2.20073225671548], a = 0.2, v = 0.2, t = 0.2)
movej(p[-0.274231322541379, -0.268304379370085, 0.405846820159795, -0.189647858065166, -2.14609923321022, 2.20207334121848], a = 0.2, v = 0.2, t = 0.2)
movej(p[-0.274392534307612, -0.26890867311916, 0.405877118185812, -0.188609935420862, -2.15380703139122, 2.19491124148655], a = 0.2, v = 0.2, t = 0.2)
movej(p[-0.274509909274484, -0.269132512720799, 0.405878948528472, -0.187493021277859, -2.15646696449609, 2.18857098015392], a = 0.2, v = 0.2, t = 0.2)
movej(p[-0.274496428218502, -0.269229877864904, 0.405793474920598, -0.184179436002968, -2.1575310012106, 2.18316024072321], a = 0.2, v = 0.2, t = 0.2)
movej(p[-0.27460389575097, -0.269168701765928, 0.405750628681798, -0.189079128742115, -2.16259026687163, 2.18786632474028], a = 0.2, v = 0.2, t = 0.2)
movej(p[-0.274637168748113, -0.268784860112409, 0.405663462313944, -0.189716294359974, -2.15354971256936, 2.18814962064861], a = 0.2, v = 0.2, t = 0.2)
movej(p[-0.274560558453016, -0.268177894395014, 0.405544404814004, -0.185498780014497, -2.14428445951534, 2.18673307318954], a = 0.2, v = 0.2, t = 0.2)
movej(p[-0.274364665442436, -0.267184165176369, 0.405443857119262, -0.183952686189315, -2.13551730453571, 2.18936425615308], a = 0.2, v = 0.2, t = 0.2)
movej(p[-0.274237312656022, -0.266117764135735, 0.405500148387026, -0.173150962626406, -2.1266956225161, 2.18937696418488], a = 0.2, v = 0.2, t = 0.2)
movej(p[-0.273961565730195, -0.265254245492734, 0.405527973636125, -0.168913520099253, -2.11750063183114, 2.19637260497557], a = 0.2, v = 0.2, t = 0.2)
movej(p[-0.273638987661887, -0.264762160708256, 0.405507596474113, -0.160958022868077, -2.11350317545706, 2.20179495183665], a = 0.2, v = 0.2, t = 0.2)
movej(p[-0.273525080964437, -0.264576435745298, 0.405540470762477, -0.161042515987202, -2.1159906737964, 2.21212742705501], a = 0.2, v = 0.2, t = 0.2)
movej(p[-0.273621348902984, -0.264757704203276, 0.405660120412682, -0.157699213534312, -2.11527047341965, 2.21122067291841], a = 0.2, v = 0.2, t = 0.2)
movej(p[-0.273743813022901, -0.265523814983894, 0.405763997337854, -0.153468365398012, -2.11922189835476, 2.20390803251276], a = 0.2, v = 0.2, t = 0.2)
movej(p[-0.273817810555582, -0.26657953409648, 0.405804176699491, -0.153520828455559, -2.12469181825499, 2.19671831462111], a = 0.2, v = 0.2, t = 0.2)
movej(p[-0.274022063726192, -0.267642959186172, 0.405873290789474, -0.156278331633318, -2.13379599257937, 2.19006221626409], a = 0.2, v = 0.2, t = 0.2)
movej(p[-0.274117858194754, -0.268460544516552, 0.405835362054591, -0.170154077007755, -2.14242007891884, 2.19106998442704], a = 0.2, v = 0.2, t = 0.2)
movej(p[-0.274190582035879, -0.269021856741658, 0.405788150471059, -0.173317289398033, -2.14900352149166, 2.18355557648287], a = 0.2, v = 0.2, t = 0.2)
movej(p[-0.274318311166848, -0.269168443298258, 0.405746376975513, -0.181100605289431, -2.155015952115, 2.18391172559937], a = 0.2, v = 0.2, t = 0.2)
movej(p[-0.274406125607486, -0.269009643029782, 0.405728343868537, -0.176432033377575, -2.14906285578225, 2.17330715940842], a = 0.2, v = 0.2, t = 0.2)
movej(p[-0.274408509701721, -0.2685738244883, 0.405603214232978, -0.173802269246628, -2.1445722827374, 2.17052806822019], a = 0.2, v = 0.2, t = 0.2)
movej(p[-0.274322819893367, -0.267726220179665, 0.405522091012331, -0.174371884005632, -2.14110169458517, 2.17227981876823], a = 0.2, v = 0.2, t = 0.2)
movej(p[-0.274304991784095, -0.266583041302694, 0.405540356585569, -0.176127809175639, -2.13448868524142, 2.18225104990253], a = 0.2, v = 0.2, t = 0.2)
movej(p[-0.274016913234257, -0.265431595036226, 0.405518261781644, -0.178140004000352, -2.12667387867909, 2.19504333921991], a = 0.2, v = 0.2, t = 0.2)
movej(p[-0.273670618938984, -0.264485585499696, 0.405491022312919, -0.164787579917899, -2.11712703169116, 2.20152124197386], a = 0.2, v = 0.2, t = 0.2)
movej(p[-0.273460397200627, -0.263976595704152, 0.405521673801925, -0.151757191453873, -2.11506054176452, 2.20567017878917], a = 0.2, v = 0.2, t = 0.2)
movej(p[-0.273446197804933, -0.263906049756355, 0.40562019788444, -0.133810416899409, -2.10477167904334, 2.19894484937078], a = 0.2, v = 0.2, t = 0.2)
movej(p[-0.27351561171718, -0.264688439080672, 0.405659893051944, -0.132839184175293, -2.11067691535163, 2.19794336736499], a = 0.2, v = 0.2, t = 0.2)
movej(p[-0.27364448693032, -0.265853150147639, 0.405723853607598, -0.13602907119212, -2.11686268494675, 2.19546245216532], a = 0.2, v = 0.2, t = 0.2)
movej(p[-0.273857641069833, -0.267091398720745, 0.405814064763861, -0.152834344840914, -2.12966130685758, 2.19773265185234], a = 0.2, v = 0.2, t = 0.2)
movej(p[-0.273951514800663, -0.268102285652606, 0.405823896906207, -0.155820376614216, -2.13296564641723, 2.18241828516014], a = 0.2, v = 0.2, t = 0.2)
movej(p[-0.274032816654343, -0.268793800742605, 0.405756339613661, -0.164913160121572, -2.14382794073506, 2.1764830208612], a = 0.2, v = 0.2, t = 0.2)
movej(p[-0.274205501783793, -0.269111569744827, 0.40574607653602, -0.166099871883669, -2.15317516832687, 2.16913410560416], a = 0.2, v = 0.2, t = 0.2)
movej(p[-0.274348520535158, -0.269116203240086, 0.405747868983699, -0.176031447458855, -2.15579395591556, 2.17433617035733], a = 0.2, v = 0.2, t = 0.2)
movej(p[-0.274375593572891, -0.269124798803136, 0.405683400467167, -0.184828619942012, -2.15719698484477, 2.17723791971648], a = 0.2, v = 0.2, t = 0.2)
movej(p[-0.274439513002431, -0.26885454272503, 0.405632385751811, -0.186175914955894, -2.15517113449331, 2.17923355107629], a = 0.2, v = 0.2, t = 0.2)
movej(p[-0.274484211613404, -0.268210964401278, 0.405605202502011, -0.185903883454781, -2.14809877195009, 2.17801326472846], a = 0.2, v = 0.2, t = 0.2)
movej(p[-0.274342786208863, -0.267263922222347, 0.405514674523585, -0.172835367858585, -2.12981275275446, 2.17012449564759], a = 0.2, v = 0.2, t = 0.2)
movej(p[-0.274038746452141, -0.266220493647664, 0.405432708050765, -0.165096404992509, -2.11750262746141, 2.17284997066432], a = 0.2, v = 0.2, t = 0.2)
movej(p[-0.273841316598141, -0.265233140457604, 0.405486695817234, -0.164882863214137, -2.11835765894305, 2.18712396839144], a = 0.2, v = 0.2, t = 0.2)
movej(p[-0.273639894973918, -0.264422741338553, 0.405586520812283, -0.15693918189262, -2.10953592080109, 2.19728242935747], a = 0.2, v = 0.2, t = 0.2)
movej(p[-0.273433077427721, -0.264229960994662, 0.405614428009534, -0.147195592676749, -2.10736750751049, 2.20131636126269], a = 0.2, v = 0.2, t = 0.2)
movej(p[-0.27335740968995, -0.264616069448799, 0.405622689321111, -0.142598564000181, -2.10790797917869, 2.20578280228376], a = 0.2, v = 0.2, t = 0.2)
movej(p[-0.273536072434178, -0.265481408801055, 0.405725797841915, -0.137738746368097, -2.11232630686879, 2.20111596119922], a = 0.2, v = 0.2, t = 0.2)
movej(p[-0.273690085136714, -0.266607687492174, 0.405760907479774, -0.147033751368317, -2.12009473112169, 2.19784893468718], a = 0.2, v = 0.2, t = 0.2)
movej(p[-0.273783525258732, -0.267829736822102, 0.405741556677056, -0.152014047657583, -2.13123964906701, 2.1863548863793], a = 0.2, v = 0.2, t = 0.2)
movej(p[-0.273982615892271, -0.268733273167526, 0.405742197310368, -0.17192943740823, -2.14846238267352, 2.18979361504248], a = 0.2, v = 0.2, t = 0.2)
movej(p[-0.274153216183449, -0.269055052514802, 0.40578132892567, -0.170750626758707, -2.14966995826348, 2.17577320113172], a = 0.2, v = 0.2, t = 0.2)
movej(p[-0.274229438864345, -0.269204292932462, 0.40571206914439, -0.167458611161342, -2.14719331266683, 2.16716965543232], a = 0.2, v = 0.2, t = 0.2)
movej(p[-0.274209322303003, -0.269125946289951, 0.405626753250748, -0.161250407158529, -2.1443109941983, 2.15845135647164], a = 0.2, v = 0.2, t = 0.2)
movej(p[-0.274411553301487, -0.268764507642944, 0.405605423942575, -0.171542180923102, -2.14610088340985, 2.17047992245463], a = 0.2, v = 0.2, t = 0.2)
movej(p[-0.274373590319602, -0.268092087137817, 0.40552033483685, -0.178081847707868, -2.1371873846971, 2.17705882034271], a = 0.2, v = 0.2, t = 0.2)
movej(p[-0.274183963770584, -0.267184057035192, 0.405388200559941, -0.178224936338335, -2.12876810234425, 2.18311514755021], a = 0.2, v = 0.2, t = 0.2)
movej(p[-0.273916752827954, -0.266202480319873, 0.405364197389699, -0.172373127052188, -2.11993929676683, 2.18731115966527], a = 0.2, v = 0.2, t = 0.2)
movej(p[-0.273685242912945, -0.265278199529393, 0.405452673209707, -0.169470795942173, -2.11212531613933, 2.19483993286345], a = 0.2, v = 0.2, t = 0.2)
movej(p[-0.273390679925264, -0.264774936823839, 0.405485983383091, -0.159090223776979, -2.10765576772336, 2.19663857128123], a = 0.2, v = 0.2, t = 0.2)
movej(p[-0.273216994196265, -0.264678339039804, 0.405503627120271, -0.149120393767172, -2.1055214026104, 2.19925651596716], a = 0.2, v = 0.2, t = 0.2)
movej(p[-0.273336993357875, -0.264970491817716, 0.405578503950275, -0.153270345953448, -2.11382452523603, 2.21056061600143], a = 0.2, v = 0.2, t = 0.2)
movej(p[-0.273514797660925, -0.26567344529794, 0.405677307108915, -0.15284492069371, -2.11576080499524, 2.20803545331732], a = 0.2, v = 0.2, t = 0.2)
movej(p[-0.273656240595899, -0.26666857253815, 0.405741006692413, -0.156232367773052, -2.12359651834504, 2.20158264273145], a = 0.2, v = 0.2, t = 0.2)
movej(p[-0.273838521465001, -0.267698030530404, 0.405800548504349, -0.157772028112291, -2.13302211987043, 2.1911269266097], a = 0.2, v = 0.2, t = 0.2)
movej(p[-0.274036053798588, -0.268383227874454, 0.405839152918691, -0.166553672772475, -2.1402824878165, 2.18799110417659], a = 0.2, v = 0.2, t = 0.2)
movej(p[-0.274110299445007, -0.268883756493317, 0.405778800153474, -0.173116231278564, -2.14720375518518, 2.18482850235993], a = 0.2, v = 0.2, t = 0.2)
movej(p[-0.274194186953377, -0.269056432151756, 0.405720506642727, -0.170130067516565, -2.14769998617041, 2.17696058496101], a = 0.2, v = 0.2, t = 0.2)
movej(p[-0.274300367523427, -0.268991171602908, 0.405680032939697, -0.168409474059621, -2.14607236904342, 2.17196180109715], a = 0.2, v = 0.2, t = 0.2)
movej(p[-0.274341933079936, -0.268630487212609, 0.405550065397568, -0.162543416200275, -2.13365616794396, 2.16444958470511], a = 0.2, v = 0.2, t = 0.2)
movej(p[-0.274250987683733, -0.268005974636284, 0.405401082872683, -0.159469130217853, -2.12444069246129, 2.1641610857123], a = 0.2, v = 0.2, t = 0.2)
movej(p[-0.274169937570907, -0.267107003007776, 0.40533318005575, -0.159729269134462, -2.11967142381863, 2.16970461827065], a = 0.2, v = 0.2, t = 0.2)
movej(p[-0.273977812129808, -0.266135880765441, 0.405363340064462, -0.162345561763656, -2.11032093343614, 2.17846444107552], a = 0.2, v = 0.2, t = 0.2)
movej(p[-0.273634487274078, -0.265508949304466, 0.405342767438318, -0.160668798488666, -2.10642373488067, 2.18529329144233], a = 0.2, v = 0.2, t = 0.2)
movej(p[-0.273342947744911, -0.2650727554872, 0.40534568436416, -0.160949759488886, -2.10639655448866, 2.19494121487071], a = 0.2, v = 0.2, t = 0.2)
movej(p[-0.273281159995961, -0.264936640222083, 0.40545297526164, -0.151298945231286, -2.10789122181635, 2.19554277170818], a = 0.2, v = 0.2, t = 0.2)
movej(p[-0.273395769518139, -0.26528392600168, 0.405550507475373, -0.1447786586029, -2.10591733158613, 2.19184826026026], a = 0.2, v = 0.2, t = 0.2)
movej(p[-0.273496130019669, -0.266225528629103, 0.40561464919942, -0.145373966074088, -2.11305916792123, 2.18837047741788], a = 0.2, v = 0.2, t = 0.2)
movej(p[-0.273765918244777, -0.267482566237503, 0.405692793696745, -0.16307203245304, -2.12962057915421, 2.19653647733993], a = 0.2, v = 0.2, t = 0.2)
movej(p[-0.273934090123075, -0.268338948916825, 0.405736941346406, -0.174541958587687, -2.13728487911654, 2.19365310962226], a = 0.2, v = 0.2, t = 0.2)
movej(p[-0.27406298799426, -0.268987380100795, 0.405722534016841, -0.171246976176219, -2.1418578306361, 2.17987112086875], a = 0.2, v = 0.2, t = 0.2)
movej(p[-0.274112870365401, -0.269167188122978, 0.4056558344476, -0.168024951914184, -2.14414968681854, 2.16905423627897], a = 0.2, v = 0.2, t = 0.2)
movej(p[-0.274335064396251, -0.269213650005189, 0.405670248051621, -0.172673942331718, -2.15278113591832, 2.17098318200344], a = 0.2, v = 0.2, t = 0.2)
movej(p[-0.274430007746418, -0.269013896977714, 0.405596398718694, -0.18412104510286, -2.15324973529239, 2.18000934829515], a = 0.2, v = 0.2, t = 0.2)
movej(p[-0.274399517198998, -0.268567872076471, 0.405455190639291, -0.186247525587082, -2.14983844583632, 2.18324295403375], a = 0.2, v = 0.2, t = 0.2)
movej(p[-0.274339878884293, -0.267737129837192, 0.405368060023562, -0.18618969195052, -2.14287688398187, 2.18788399253247], a = 0.2, v = 0.2, t = 0.2)
movej(p[-0.274192445727337, -0.266750002426464, 0.405342704988162, -0.179236716690592, -2.12688880571336, 2.18603722425936], a = 0.2, v = 0.2, t = 0.2)
movej(p[-0.27389011973684, -0.265923373886892, 0.405302659163965, -0.168097753937318, -2.11542814473347, 2.18589824211916], a = 0.2, v = 0.2, t = 0.2)
movej(p[-0.273517048951451, -0.265289039102373, 0.405289472746768, -0.153545807946261, -2.10590243708516, 2.18439612654538], a = 0.2, v = 0.2, t = 0.2)
movej(p[-0.273428636522922, -0.264755443082053, 0.405385588194335, -0.154578618898226, -2.1098501798304, 2.19580813747622], a = 0.2, v = 0.2, t = 0.2)
movej(p[-0.273357214420484, -0.264511808872261, 0.405463169609007, -0.15099583995186, -2.10661041374475, 2.20004395184171], a = 0.2, v = 0.2, t = 0.2)
movej(p[-0.273340831339405, -0.264892008286446, 0.405469604188029, -0.147376181817784, -2.10793001021963, 2.20184627921005], a = 0.2, v = 0.2, t = 0.2)
movej(p[-0.27345442601425, -0.265804448791419, 0.405520840360134, -0.139124937412236, -2.1090619470242, 2.19384204113842], a = 0.2, v = 0.2, t = 0.2)
movej(p[-0.273685853935042, -0.266881330334776, 0.405635251443751, -0.137431456590477, -2.11201773195445, 2.18175686863175], a = 0.2, v = 0.2, t = 0.2)
movej(p[-0.273848367732925, -0.267977192890147, 0.405668258210243, -0.147159162797506, -2.12446318393853, 2.17474180438608], a = 0.2, v = 0.2, t = 0.2)
movej(p[-0.273985576871706, -0.268716888861626, 0.405668772584764, -0.154382809122361, -2.13469741888221, 2.16889482124324], a = 0.2, v = 0.2, t = 0.2)
movej(p[-0.274199322307279, -0.269046652552482, 0.405670477552316, -0.1743468485267, -2.14805560658142, 2.179319891729], a = 0.2, v = 0.2, t = 0.2)
movej(p[-0.274298219565773, -0.269104690365442, 0.405637576940938, -0.171858144465624, -2.14270385316554, 2.16999625842382], a = 0.2, v = 0.2, t = 0.2)
movej(p[-0.274316592026534, -0.269132531192768, 0.40557664269425, -0.169149827812519, -2.14202961155014, 2.16538399842759], a = 0.2, v = 0.2, t = 0.2)
movej(p[-0.274390052679133, -0.269019542023327, 0.4055132113431, -0.172302958850816, -2.14495318533749, 2.16915837333905], a = 0.2, v = 0.2, t = 0.2)
movej(p[-0.27448891703708, -0.268496309798434, 0.405475817735869, -0.177398350417768, -2.13998581327403, 2.17559378064505], a = 0.2, v = 0.2, t = 0.2)
movej(p[-0.274336858955967, -0.267817380806714, 0.405324464983434, -0.183695732325973, -2.13211270554419, 2.18301689592268], a = 0.2, v = 0.2, t = 0.2)
movej(p[-0.274068387120588, -0.266885437413879, 0.405249491199614, -0.178698845442798, -2.12226515937176, 2.18449854863836], a = 0.2, v = 0.2, t = 0.2)
movej(p[-0.273823177351999, -0.265954256725322, 0.40527720865705, -0.170402839538473, -2.11628010899716, 2.18578903624497], a = 0.2, v = 0.2, t = 0.2)
movej(p[-0.273574002576823, -0.265195740743466, 0.40532186359977, -0.163720025926072, -2.10821645100398, 2.18957710431824], a = 0.2, v = 0.2, t = 0.2)
movej(p[-0.273268765442608, -0.264753838700285, 0.405306539734273, -0.157130226297766, -2.10834195488024, 2.19382820815617], a = 0.2, v = 0.2, t = 0.2)
movej(p[-0.273229200710674, -0.264828049888131, 0.405364776029532, -0.158390950043047, -2.1156117059049, 2.20577370930443], a = 0.2, v = 0.2, t = 0.2)
movej(p[-0.273379407609189, -0.265314160490659, 0.405510367478964, -0.15526206138743, -2.11833506986128, 2.20476386957658], a = 0.2, v = 0.2, t = 0.2)
movej(p[-0.273556713525267, -0.266420986398232, 0.405593290935529, -0.148948406150689, -2.11777567161618, 2.19171637499064], a = 0.2, v = 0.2, t = 0.2)
movej(p[-0.273670857657008, -0.267667917769099, 0.405622230813527, -0.150412590434769, -2.12470893312528, 2.17917560982276], a = 0.2, v = 0.2, t = 0.2)
movej(p[-0.273957308839673, -0.268695404521259, 0.405692443782304, -0.161528032979546, -2.13933796374763, 2.17711056808537], a = 0.2, v = 0.2, t = 0.2)
movej(p[-0.274121198681902, -0.269089313782788, 0.405727232950358, -0.169779906938269, -2.14121657922884, 2.17363184839087], a = 0.2, v = 0.2, t = 0.2)
movej(p[-0.274189376123808, -0.269308922937526, 0.405676812833512, -0.176256606281029, -2.14545039916747, 2.17348471255679], a = 0.2, v = 0.2, t = 0.2)
movej(p[-0.274229894947264, -0.26927267026158, 0.40560252818632, -0.179005741479799, -2.14721695679578, 2.17466008434948], a = 0.2, v = 0.2, t = 0.2)
movej(p[-0.274365843792741, -0.269010445049347, 0.405597049901556, -0.173660071638017, -2.14389170673615, 2.17044993963989], a = 0.2, v = 0.2, t = 0.2)
movej(p[-0.274372963759917, -0.268442121645172, 0.405501454577744, -0.175422084450402, -2.1375882187113, 2.17350975666822], a = 0.2, v = 0.2, t = 0.2)
movej(p[-0.274194554068091, -0.267505126714069, 0.405395970560234, -0.172921095688985, -2.12833556671433, 2.17479144421948], a = 0.2, v = 0.2, t = 0.2)
movej(p[-0.274089961906085, -0.266392922829527, 0.405408689603284, -0.178877067614373, -2.1264161878887, 2.18997476308029], a = 0.2, v = 0.2, t = 0.2)
movej(p[-0.273876824985909, -0.265298885107308, 0.405488713943455, -0.163678407017849, -2.11135376749356, 2.18834409855744], a = 0.2, v = 0.2, t = 0.2)
movej(p[-0.27356996440779, -0.264577309701497, 0.405513354591778, -0.148038478974151, -2.10400886959259, 2.18942997169404], a = 0.2, v = 0.2, t = 0.2)
movej(p[-0.273365284717593, -0.264180676548331, 0.405512188601064, -0.142974507704831, -2.10433191665853, 2.19882842753257], a = 0.2, v = 0.2, t = 0.2)
movej(p[-0.273468695159246, -0.264128848382606, 0.405661551795389, -0.147039937413674, -2.10963723287374, 2.21009208345749], a = 0.2, v = 0.2, t = 0.2)
movej(p[-0.273572179811092, -0.264838442142999, 0.405735404473065, -0.155727411732076, -2.11320124330398, 2.21594288966519], a = 0.2, v = 0.2, t = 0.2)
movej(p[-0.27365636959854, -0.266028046050144, 0.405780360992106, -0.154610170972657, -2.11734149965549, 2.206879545495], a = 0.2, v = 0.2, t = 0.2)
movej(p[-0.273813160251476, -0.267422163797164, 0.405798050601056, -0.165246557693814, -2.13142215722142, 2.20225216790031], a = 0.2, v = 0.2, t = 0.2)
movej(p[-0.274033498529625, -0.268370508475147, 0.40583794014621, -0.172006300451787, -2.13919972395429, 2.19310386778624], a = 0.2, v = 0.2, t = 0.2)
movej(p[-0.274124438215665, -0.268949088613782, 0.405759890634791, -0.177962337683023, -2.14778430874853, 2.18557223917699], a = 0.2, v = 0.2, t = 0.2)
movej(p[-0.274210862174507, -0.26918977561633, 0.405676506903868, -0.180284886561735, -2.15111253087825, 2.18095703741077], a = 0.2, v = 0.2, t = 0.2)
movej(p[-0.274332560564424, -0.269139531749696, 0.405626642392253, -0.185838173004528, -2.15360962414785, 2.18163939716883], a = 0.2, v = 0.2, t = 0.2)
movej(p[-0.274398977040919, -0.268847923907342, 0.405579287150425, -0.180279125008324, -2.14526548044901, 2.17441584494201], a = 0.2, v = 0.2, t = 0.2)
movej(p[-0.274317373486993, -0.268274808033347, 0.405460844019337, -0.179994629385101, -2.14030517299292, 2.17530815372412], a = 0.2, v = 0.2, t = 0.2)
movej(p[-0.274269595158137, -0.267423370030747, 0.405457697017582, -0.175601945094953, -2.13458545476499, 2.17642872033202], a = 0.2, v = 0.2, t = 0.2)
movej(p[-0.274119029065636, -0.266432992936633, 0.405476357259902, -0.174384175537205, -2.12238193083998, 2.18242942556381], a = 0.2, v = 0.2, t = 0.2)
movej(p[-0.273806550031044, -0.265692134366148, 0.405464711965603, -0.164709030042242, -2.11154613805511, 2.18365499269677], a = 0.2, v = 0.2, t = 0.2)
movej(p[-0.273491916465364, -0.265092864040874, 0.405417370104106, -0.159572173553144, -2.10753341579556, 2.19230602889006], a = 0.2, v = 0.2, t = 0.2)
movej(p[-0.273393169915316, -0.264732472008011, 0.405474022540051, -0.148763842033177, -2.10700412307709, 2.19501089591812], a = 0.2, v = 0.2, t = 0.2)
movej(p[-0.27339212675215, -0.26460082703141, 0.405515507811491, -0.149422621549427, -2.10529748792369, 2.20111942912308], a = 0.2, v = 0.2, t = 0.2)
movej(p[-0.273410500982949, -0.265065829796861, 0.405524909979639, -0.14306190747453, -2.10633544233395, 2.19569697874077], a = 0.2, v = 0.2, t = 0.2)
movej(p[-0.273556778503052, -0.265893957239784, 0.405569229382724, -0.152320133885288, -2.11639522284943, 2.20092810998118], a = 0.2, v = 0.2, t = 0.2)
movej(p[-0.273801054442933, -0.266826347834411, 0.405707505155934, -0.147085316965762, -2.11783041326719, 2.18730369862904], a = 0.2, v = 0.2, t = 0.2)
movej(p[-0.273955192996413, -0.26779906102165, 0.405740581811965, -0.15597183142052, -2.12819399082455, 2.18314969636588], a = 0.2, v = 0.2, t = 0.2)
movej(p[-0.274056051570726, -0.268525861792363, 0.405711632932671, -0.161662818716217, -2.13780046926982, 2.17634712311362], a = 0.2, v = 0.2, t = 0.2)
movej(p[-0.274274050373957, -0.268938071928205, 0.405722827320054, -0.178459902785292, -2.15137924779333, 2.1837355031013], a = 0.2, v = 0.2, t = 0.2)
movej(p[-0.27441141226833, -0.269004706388099, 0.405683253812138, -0.176149332940547, -2.14583736673388, 2.17583976837212], a = 0.2, v = 0.2, t = 0.2)
movej(p[-0.274408690483952, -0.268915428757002, 0.4056120849028, -0.175630927272858, -2.14425669431169, 2.17209762035304], a = 0.2, v = 0.2, t = 0.2)
movej(p[-0.274389696694481, -0.268524244222043, 0.405525906527952, -0.167825171714859, -2.13920375486623, 2.16675862723302], a = 0.2, v = 0.2, t = 0.2)
movej(p[-0.274450167985893, -0.267724074339688, 0.4055715257036, -0.17459780733489, -2.1371338271297, 2.17452812292517], a = 0.2, v = 0.2, t = 0.2)
movej(p[-0.27428289293512, -0.266892374715979, 0.405505126331533, -0.179929356404053, -2.1276003210473, 2.18274865159589], a = 0.2, v = 0.2, t = 0.2)
movej(p[-0.273947474487706, -0.266120357812685, 0.405422010552865, -0.182091977174455, -2.12108604611415, 2.19126388025188], a = 0.2, v = 0.2, t = 0.2)
movej(p[-0.273721107811863, -0.265429650917035, 0.405447518519407, -0.176097402029004, -2.11970904949854, 2.19900566770021], a = 0.2, v = 0.2, t = 0.2)
movej(p[-0.273590220429193, -0.264807993346691, 0.405545147777491, -0.166409315057457, -2.11225304655693, 2.20259400123576], a = 0.2, v = 0.2, t = 0.2)
movej(p[-0.273441600556016, -0.264735244429192, 0.405573726001988, -0.156258874939245, -2.11014487158525, 2.20162158398065], a = 0.2, v = 0.2, t = 0.2)
movej(p[-0.273409545753797, -0.265199861192698, 0.405590028244874, -0.151812871883263, -2.11035185064867, 2.20177644126848], a = 0.2, v = 0.2, t = 0.2)
movej(p[-0.273534682690331, -0.266152858614188, 0.405647164011692, -0.148580351973866, -2.11460003267617, 2.19510722097899], a = 0.2, v = 0.2, t = 0.2)
movej(p[-0.273683916005142, -0.267218267591307, 0.405679027825387, -0.150857162708092, -2.11797436013026, 2.18603041801959], a = 0.2, v = 0.2, t = 0.2)
movej(p[-0.273764037151715, -0.268304367570387, 0.405604209309527, -0.161473787565965, -2.1327681970484, 2.18237329214845], a = 0.2, v = 0.2, t = 0.2)
movej(p[-0.273977165601339, -0.26897064448325, 0.405614664168243, -0.169954831011865, -2.14694863843112, 2.18006154109079], a = 0.2, v = 0.2, t = 0.2)
movej(p[-0.274186070737482, -0.269181497326168, 0.405667394468889, -0.176678735017742, -2.15227130121025, 2.17608284688639], a = 0.2, v = 0.2, t = 0.2)
movej(p[-0.274270996702751, -0.269240110865215, 0.405635813600322, -0.165250177483485, -2.14526341793024, 2.16138570609258], a = 0.2, v = 0.2, t = 0.2)
movej(p[-0.274264057147409, -0.269075532415453, 0.40553241295697, -0.165286326470052, -2.14383180761435, 2.16206689895694], a = 0.2, v = 0.2, t = 0.2)
movej(p[-0.27442767961569, -0.268661369374812, 0.405497523105423, -0.167009540779929, -2.14362237869676, 2.16918294271289], a = 0.2, v = 0.2, t = 0.2)
movej(p[-0.274405055477732, -0.267869463954219, 0.405468728543162, -0.174414591362805, -2.13334288113349, 2.17779585503497], a = 0.2, v = 0.2, t = 0.2)
movej(p[-0.274175436236157, -0.267034905973933, 0.405392316295837, -0.175526564668668, -2.12551530087817, 2.18183100959929], a = 0.2, v = 0.2, t = 0.2)
movej(p[-0.273832428598721, -0.26613757552424, 0.405366679882018, -0.172482916270348, -2.11816405846314, 2.18736852625713], a = 0.2, v = 0.2, t = 0.2)
movej(p[-0.273679853187081, -0.265291642761733, 0.405525895336932, -0.160834378782045, -2.11257556658655, 2.18697749510223], a = 0.2, v = 0.2, t = 0.2)
movej(p[-0.273455695314141, -0.264708271885479, 0.405603088259107, -0.152376260111139, -2.10516010743725, 2.19163549392432], a = 0.2, v = 0.2, t = 0.2)
movej(p[-0.273275176974731, -0.264721949869412, 0.405622257026833, -0.142716795728723, -2.10408043742796, 2.19367574621728], a = 0.2, v = 0.2, t = 0.2)
movej(p[-0.273299255976283, -0.265298613138185, 0.405654622184515, -0.147152463433759, -2.11134367513354, 2.20117909840055], a = 0.2, v = 0.2, t = 0.2)
movej(p[-0.273506543441157, -0.266199993428386, 0.405739486345644, -0.144240985801128, -2.11241328495452, 2.19299972953777], a = 0.2, v = 0.2, t = 0.2)
movej(p[-0.273672032296439, -0.267408320238577, 0.405746781128136, -0.155811831781614, -2.12332446999058, 2.1867505201976], a = 0.2, v = 0.2, t = 0.2)
movej(p[-0.273830677910372, -0.268406439826312, 0.405730830373951, -0.162021968661563, -2.13239790376709, 2.17972450004615], a = 0.2, v = 0.2, t = 0.2)
movej(p[-0.274048985709615, -0.269011465583624, 0.405773007639483, -0.1834660304247, -2.14816167907683, 2.18547968128215], a = 0.2, v = 0.2, t = 0.2)
movej(p[-0.274150110480272, -0.269261366775853, 0.405761972137901, -0.181746470231584, -2.14445900664148, 2.17460988544926], a = 0.2, v = 0.2, t = 0.2)
movej(p[-0.274178988856499, -0.269368245002758, 0.40569229997539, -0.179613904358555, -2.14439501761696, 2.16866125009023], a = 0.2, v = 0.2, t = 0.2)
movej(p[-0.274275450383381, -0.269359725415742, 0.405657412476012, -0.180287860685632, -2.14695171142233, 2.16850435548012], a = 0.2, v = 0.2, t = 0.2)
movej(p[-0.274447435521358, -0.269036598618599, 0.405649303031956, -0.184422853341048, -2.14449958704737, 2.17413486549364], a = 0.2, v = 0.2, t = 0.2)
movej(p[-0.274380817351727, -0.268506484358931, 0.405531726840185, -0.184968067428827, -2.13609522439659, 2.17547700447607], a = 0.2, v = 0.2, t = 0.2)
movej(p[-0.274211709161765, -0.267599356722422, 0.405423272069111, -0.181364773191299, -2.12627428999854, 2.17634276450522], a = 0.2, v = 0.2, t = 0.2)
movej(p[-0.27404543049226, -0.266539635961517, 0.405475663184527, -0.175330137717396, -2.1196208748488, 2.1769492721746], a = 0.2, v = 0.2, t = 0.2)
movej(p[-0.273840469621875, -0.265665299107273, 0.405586650775828, -0.173950094741793, -2.11377509348957, 2.18455991471461], a = 0.2, v = 0.2, t = 0.2)
movej(p[-0.273506840834448, -0.265039753097692, 0.405683986480615, -0.166393016887522, -2.1115420788813, 2.19080808166063], a = 0.2, v = 0.2, t = 0.2)
movej(p[-0.273289343879545, -0.264516608119205, 0.405902794280377, -0.156679414443693, -2.11326562235501, 2.19766818507772], a = 0.2, v = 0.2, t = 0.2)
movej(p[-0.273217673026464, -0.264013838953416, 0.40619761272306, -0.14795630633973, -2.11319007293381, 2.20178634989756], a = 0.2, v = 0.2, t = 0.2)
movej(p[-0.273164004075244, -0.264039503483218, 0.40638591869, -0.13974082553928, -2.10751693419686, 2.19954752991962], a = 0.2, v = 0.2, t = 0.2)
movej(p[-0.273105430154992, -0.264784819775408, 0.406380531180097, -0.135729997078717, -2.10608430130951, 2.19770985410657], a = 0.2, v = 0.2, t = 0.2)
movej(p[-0.273279816873563, -0.265896692514406, 0.406380356084457, -0.142350060367024, -2.11242520677377, 2.20078443371607], a = 0.2, v = 0.2, t = 0.2)
movej(p[-0.273469594967861, -0.266910265595846, 0.406402724184622, -0.146745138813401, -2.11217219678558, 2.1916158533015], a = 0.2, v = 0.2, t = 0.2)
movej(p[-0.273659349212899, -0.267863515764555, 0.4063748043575, -0.148910041824885, -2.11926104534928, 2.17872900632892], a = 0.2, v = 0.2, t = 0.2)
movej(p[-0.27379556044235, -0.268592848624719, 0.406295235319196, -0.155030212799127, -2.12725295730809, 2.16927793077444], a = 0.2, v = 0.2, t = 0.2)
movej(p[-0.274071548841862, -0.269023609815919, 0.406284994903823, -0.161409422153396, -2.13716710280994, 2.16556755666926], a = 0.2, v = 0.2, t = 0.2)
movej(p[-0.274158561170481, -0.269168749895395, 0.406201783746526, -0.173912668953832, -2.14134939638635, 2.16969867785405], a = 0.2, v = 0.2, t = 0.2)
movej(p[-0.274167730356202, -0.26926250922943, 0.406082990099118, -0.174299023017299, -2.14201205785457, 2.16573528948634], a = 0.2, v = 0.2, t = 0.2)
movej(p[-0.274222354248527, -0.269252981444843, 0.406017697513037, -0.181101321915391, -2.14725640182987, 2.17039529476682], a = 0.2, v = 0.2, t = 0.2)
movej(p[-0.274370155100019, -0.269154328240512, 0.406012714080257, -0.177703809459238, -2.14529276812368, 2.16680771053253], a = 0.2, v = 0.2, t = 0.2)
movej(p[-0.274378715505827, -0.268907390236272, 0.405906367178166, -0.180627823128467, -2.14456371478414, 2.16798267693307], a = 0.2, v = 0.2, t = 0.2)
movej(p[-0.274338633581111, -0.268322739489385, 0.405793809242326, -0.17793626393662, -2.13812788732096, 2.16883278733203], a = 0.2, v = 0.2, t = 0.2)
movej(p[-0.274314874019463, -0.267350818384536, 0.405800787550167, -0.179833697565943, -2.13379581981054, 2.17536997113917], a = 0.2, v = 0.2, t = 0.2)
movej(p[-0.274111406060983, -0.266394476469864, 0.40583580099206, -0.170536548851754, -2.11741171452007, 2.17490355320767], a = 0.2, v = 0.2, t = 0.2)
movej(p[-0.273744105480824, -0.265699769675175, 0.405836155574115, -0.159193023921052, -2.10987661749026, 2.17479832795405], a = 0.2, v = 0.2, t = 0.2)
movej(p[-0.273463696878142, -0.265176668287054, 0.4058842390974, -0.15218976609799, -2.10642071194753, 2.181619158819], a = 0.2, v = 0.2, t = 0.2)
movej(p[-0.273405924443509, -0.264825807685695, 0.406015377372969, -0.153092344177535, -2.11055848872425, 2.19304839015545], a = 0.2, v = 0.2, t = 0.2)
movej(p[-0.273430482525936, -0.265049305750935, 0.406100418945639, -0.148054970367551, -2.10782402621156, 2.1919593155304], a = 0.2, v = 0.2, t = 0.2)
movej(p[-0.273479962049602, -0.265817763053864, 0.406120156607965, -0.143654788933335, -2.11112825783552, 2.18874227339055], a = 0.2, v = 0.2, t = 0.2)
movej(p[-0.27371649685257, -0.266921706841514, 0.406193676382135, -0.144545694856079, -2.11805180145657, 2.18471427632212], a = 0.2, v = 0.2, t = 0.2)
movej(p[-0.27387715905557, -0.267812059895414, 0.406206794102245, -0.152820624439773, -2.12127148994969, 2.17972862278992], a = 0.2, v = 0.2, t = 0.2)
movej(p[-0.273967962914259, -0.26867043843682, 0.406143854330832, -0.15216715029724, -2.12613284588547, 2.16442834001619], a = 0.2, v = 0.2, t = 0.2)
movej(p[-0.274026955759407, -0.269111062454527, 0.406041184505656, -0.161223606477207, -2.13573064260641, 2.16208886947639], a = 0.2, v = 0.2, t = 0.2)
movej(p[-0.274235679894523, -0.269231594158242, 0.406024674187864, -0.163743478721839, -2.14294894081799, 2.1601276626038], a = 0.2, v = 0.2, t = 0.2)
movej(p[-0.274296932316374, -0.26888973388787, 0.405909955157269, -0.179821888561392, -2.1435546401096, 2.17410149763091], a = 0.2, v = 0.2, t = 0.2)
movej(p[-0.274183240040466, -0.268190234651666, 0.40573234977514, -0.179175129302105, -2.13518019012849, 2.17679732918891], a = 0.2, v = 0.2, t = 0.2)
movej(p[-0.274027306671564, -0.267119932000508, 0.405656244974457, -0.182991488532728, -2.12954666840242, 2.18837242730197], a = 0.2, v = 0.2, t = 0.2)
movej(p[-0.273817995674661, -0.265978998159702, 0.405750058254855, -0.167608509583345, -2.11363808041213, 2.18119377319556], a = 0.2, v = 0.2, t = 0.2)
movej(p[-0.273463998806289, -0.265193027861293, 0.405838878723789, -0.152183191089821, -2.10516702247335, 2.17721717027218], a = 0.2, v = 0.2, t = 0.2)
movej(p[-0.273115269707374, -0.264742016188979, 0.405889778874551, -0.135401775247543, -2.0977980926422, 2.17473597246493], a = 0.2, v = 0.2, t = 0.2)
movej(p[-0.273135766680356, -0.264665552842358, 0.40600909022961, -0.138740821389372, -2.10684549606444, 2.19039085751418], a = 0.2, v = 0.2, t = 0.2)
movej(p[-0.273233236924438, -0.264885764293223, 0.406083291599108, -0.139335333729463, -2.10422171787427, 2.19380850843307], a = 0.2, v = 0.2, t = 0.2)
movej(p[-0.273338976913373, -0.265614966447575, 0.406105279207644, -0.137931775307612, -2.10827792056477, 2.18972303396789], a = 0.2, v = 0.2, t = 0.2)
movej(p[-0.27349479462115, -0.266421448535306, 0.40614008414712, -0.139027754542054, -2.11223461756736, 2.18243401414877], a = 0.2, v = 0.2, t = 0.2)
movej(p[-0.273761857981559, -0.267043349953376, 0.40621144725474, -0.150424775212919, -2.12132387696039, 2.18457298923774], a = 0.2, v = 0.2, t = 0.2)
movej(p[-0.273880178463164, -0.267443702504405, 0.40615444140646, -0.161174950815457, -2.12470433969629, 2.18483673847446], a = 0.2, v = 0.2, t = 0.2)
movej(p[-0.273925936389046, -0.267500610763322, 0.406041311785975, -0.164040940542817, -2.1263466883651, 2.18377287313234], a = 0.2, v = 0.2, t = 0.2)
movej(p[-0.273961717390702, -0.266953054178099, 0.405984251413846, -0.168359910950435, -2.13076549113662, 2.18623624741551], a = 0.2, v = 0.2, t = 0.2)
movej(p[-0.273854041168114, -0.265925338097604, 0.405954161104156, -0.165868610065072, -2.12093578423919, 2.18688727721845], a = 0.2, v = 0.2, t = 0.2)
movej(p[-0.27351864497214, -0.264871924477399, 0.405893733506686, -0.161408732107078, -2.11576884000425, 2.19127891190564], a = 0.2, v = 0.2, t = 0.2)
movej(p[-0.27319258920537, -0.263935882716183, 0.405967469563492, -0.149893177818851, -2.10998736176361, 2.19788241728561], a = 0.2, v = 0.2, t = 0.2)
movej(p[-0.272986281163057, -0.262957224863584, 0.406247885307205, -0.143445707668074, -2.11241769276462, 2.20735670528742], a = 0.2, v = 0.2, t = 0.2)
movej(p[-0.272798135904842, -0.262154324599561, 0.406634929230737, -0.130012939306965, -2.10593020294003, 2.2099559738607], a = 0.2, v = 0.2, t = 0.2)
movej(p[-0.272566714195709, -0.261657801308202, 0.406932997181011, -0.113251560009507, -2.09957869453173, 2.20922907540933], a = 0.2, v = 0.2, t = 0.2)
movej(p[-0.272516581305337, -0.261838939459226, 0.407059587838037, -0.0982305182842306, -2.09654239801664, 2.21027714047079], a = 0.2, v = 0.2, t = 0.2)
movej(p[-0.272569221745142, -0.262338042069926, 0.40691746186367, -0.0938925430703918, -2.09209159989922, 2.20852314957826], a = 0.2, v = 0.2, t = 0.2)
movej(p[-0.272638542435829, -0.263278182705862, 0.40665157574537, -0.0968684867277323, -2.09384326159978, 2.20537071074342], a = 0.2, v = 0.2, t = 0.2)
movej(p[-0.27273750955784, -0.264124176649855, 0.406456579099533, -0.110236942557738, -2.10086823956723, 2.20672490270686], a = 0.2, v = 0.2, t = 0.2)
movej(p[-0.273073116903564, -0.264906595669363, 0.406471316270467, -0.117999428264041, -2.10876254598887, 2.20234203362545], a = 0.2, v = 0.2, t = 0.2)
movej(p[-0.27330250256444, -0.265589110371778, 0.4063980778272, -0.124326987772529, -2.10858562583805, 2.19622508357467], a = 0.2, v = 0.2, t = 0.2)
movej(p[-0.273460811923825, -0.266346306448655, 0.406261894297749, -0.121869488199182, -2.10987911181101, 2.18314686065635], a = 0.2, v = 0.2, t = 0.2)
movej(p[-0.273626105126309, -0.267021715830636, 0.406127927922697, -0.132018141492814, -2.11624462689228, 2.18515519627338], a = 0.2, v = 0.2, t = 0.2)
movej(p[-0.273809867775425, -0.267546272478668, 0.406063552946843, -0.131052800918277, -2.11875450332887, 2.17278449198031], a = 0.2, v = 0.2, t = 0.2)
movej(p[-0.273938603713847, -0.26790477712863, 0.405956499915219, -0.131956543180369, -2.12138324196903, 2.16503685135579], a = 0.2, v = 0.2, t = 0.2)
movej(p[-0.273963471165138, -0.268000856255904, 0.405835638837661, -0.128702119072772, -2.12206359223699, 2.15574094922515], a = 0.2, v = 0.2, t = 0.2)
movej(p[-0.274097041969489, -0.267646419745752, 0.405791841307857, -0.13920013386792, -2.12469595443385, 2.16464847480122], a = 0.2, v = 0.2, t = 0.2)
movej(p[-0.273941267687809, -0.267046798037215, 0.405714749876333, -0.145446162951288, -2.11555563595456, 2.1693026465388], a = 0.2, v = 0.2, t = 0.2)
movej(p[-0.273571854768171, -0.266338823521481, 0.405627375437099, -0.143844766560628, -2.10653145471075, 2.17015759013755], a = 0.2, v = 0.2, t = 0.2)
movej(p[-0.273253851663227, -0.265747697098021, 0.405643703009904, -0.139390037266619, -2.10228637509722, 2.17397866937738], a = 0.2, v = 0.2, t = 0.2)
movej(p[-0.27324994524266, -0.265209877830884, 0.405793532547296, -0.137084084591289, -2.10133749582791, 2.18014475810908], a = 0.2, v = 0.2, t = 0.2)
movej(p[-0.273309633616642, -0.265399683362585, 0.405855837261784, -0.140431247855703, -2.10381711426252, 2.18974281887834], a = 0.2, v = 0.2, t = 0.2)
movej(p[-0.273407593155484, -0.266076416460631, 0.405855996189031, -0.143281729661327, -2.10971801399705, 2.19273098917424], a = 0.2, v = 0.2, t = 0.2)
movej(p[-0.273587015475392, -0.267183434107187, 0.405883894098156, -0.151481902592449, -2.12269931330635, 2.19312494764898], a = 0.2, v = 0.2, t = 0.2)
movej(p[-0.273745510996241, -0.268065357517898, 0.405888993275495, -0.153820932607944, -2.12812804386212, 2.18108081969796], a = 0.2, v = 0.2, t = 0.2)
movej(p[-0.27382187969594, -0.26870647103659, 0.40582031525749, -0.15966730134378, -2.13645142328063, 2.17350757598801], a = 0.2, v = 0.2, t = 0.2)
movej(p[-0.273961341484011, -0.268989429830906, 0.40575529278206, -0.165382156027242, -2.14177637233251, 2.17201245212497], a = 0.2, v = 0.2, t = 0.2)
movej(p[-0.274136488089682, -0.2689315313957, 0.405745122769292, -0.172800094420901, -2.14334529177396, 2.17194171153992], a = 0.2, v = 0.2, t = 0.2)
movej(p[-0.274188718323914, -0.268612538608201, 0.40567540898391, -0.166430968308869, -2.1344406005095, 2.16445471148695], a = 0.2, v = 0.2, t = 0.2)
movej(p[-0.274077547643389, -0.267968535107684, 0.405571868870363, -0.16171346745618, -2.12526417230276, 2.16096277046603], a = 0.2, v = 0.2, t = 0.2)
movej(p[-0.273997335528067, -0.267114587638828, 0.405588986729195, -0.155902105254389, -2.1194877001495, 2.15961685301424], a = 0.2, v = 0.2, t = 0.2)
movej(p[-0.273782886593952, -0.266236387839278, 0.405649913002803, -0.155823777486009, -2.10959010358506, 2.16491021298637], a = 0.2, v = 0.2, t = 0.2)
movej(p[-0.273447049664423, -0.265615984662232, 0.405681393967609, -0.15263532629976, -2.10566313048732, 2.17027147535463], a = 0.2, v = 0.2, t = 0.2)
movej(p[-0.273196469322775, -0.265251129731163, 0.405697102734396, -0.150424182336202, -2.10530594743603, 2.18345541867953], a = 0.2, v = 0.2, t = 0.2)
movej(p[-0.273265525368626, -0.265194726051236, 0.405846467636305, -0.144283691289227, -2.11007870836812, 2.18847324304858], a = 0.2, v = 0.2, t = 0.2)
movej(p[-0.273422403677933, -0.265589626364448, 0.40595991581333, -0.13998392678768, -2.10792403256959, 2.18536307308636], a = 0.2, v = 0.2, t = 0.2)
movej(p[-0.273554935114984, -0.266584012377905, 0.405967781885643, -0.137101761003746, -2.11195089745248, 2.17694832808156], a = 0.2, v = 0.2, t = 0.2)
movej(p[-0.273744391528274, -0.267658358314095, 0.405942072332342, -0.149107476655886, -2.12333073265122, 2.17945586218169], a = 0.2, v = 0.2, t = 0.2)
movej(p[-0.273989263691829, -0.268375257044379, 0.405983223879998, -0.146359171414613, -2.12776647528568, 2.16685603819039], a = 0.2, v = 0.2, t = 0.2)
movej(p[-0.274122453823579, -0.268782397487911, 0.405930870828828, -0.15087710489596, -2.13502629697973, 2.16219060981293], a = 0.2, v = 0.2, t = 0.2)
movej(p[-0.274176390206322, -0.268943089089005, 0.405837012984076, -0.150303263973785, -2.13760534186163, 2.15665036099386], a = 0.2, v = 0.2, t = 0.2)
movej(p[-0.27432625886321, -0.268871767820917, 0.405780904940855, -0.159214042949945, -2.14148457788225, 2.16467261637274], a = 0.2, v = 0.2, t = 0.2)
movej(p[-0.274374446219347, -0.268520544890567, 0.405678612009696, -0.154387033666509, -2.12933227683124, 2.15789715307847], a = 0.2, v = 0.2, t = 0.2)
movej(p[-0.27423235380327, -0.267946779066631, 0.405548827072679, -0.148050380170168, -2.11873141707697, 2.15333069664249], a = 0.2, v = 0.2, t = 0.2)
movej(p[-0.27402872493322, -0.267186610859199, 0.405486488846917, -0.148625725785407, -2.11288605186388, 2.15655612372288], a = 0.2, v = 0.2, t = 0.2)
movej(p[-0.273901360025252, -0.266265650513072, 0.4056052278459, -0.16127820071501, -2.11514670575744, 2.17567543795108], a = 0.2, v = 0.2, t = 0.2)
movej(p[-0.273624570966834, -0.265661946087437, 0.405653398838973, -0.163595266161556, -2.10844769593252, 2.1842048282839], a = 0.2, v = 0.2, t = 0.2)
movej(p[-0.273330587504825, -0.26544392781782, 0.405656375011344, -0.15354209763609, -2.10611709134907, 2.18400204249217], a = 0.2, v = 0.2, t = 0.2)
movej(p[-0.273321374072595, -0.265703926265653, 0.405717978565552, -0.145219866239987, -2.10767233654679, 2.18346415279697], a = 0.2, v = 0.2, t = 0.2)
movej(p[-0.273490402521774, -0.266261935616727, 0.405834315919749, -0.140931279768685, -2.10778072159407, 2.17992077013729], a = 0.2, v = 0.2, t = 0.2)
movej(p[-0.273643608784077, -0.267164854306796, 0.405842318214166, -0.143447863006133, -2.11109841078993, 2.17441114161824], a = 0.2, v = 0.2, t = 0.2)
movej(p[-0.27373562745247, -0.268114317014222, 0.405785862842633, -0.148515001034124, -2.12031697850256, 2.16937531686882], a = 0.2, v = 0.2, t = 0.2)
movej(p[-0.273985193868214, -0.268815162181678, 0.405798827762574, -0.155800004121928, -2.13431325978714, 2.16705110139657], a = 0.2, v = 0.2, t = 0.2)
movej(p[-0.274109077515984, -0.268997853794627, 0.405790410340765, -0.159805435110972, -2.13462387477428, 2.16411885856742], a = 0.2, v = 0.2, t = 0.2)
movej(p[-0.274148654019727, -0.269183198388888, 0.405706457447002, -0.155659636257242, -2.13273168800629, 2.15685436220615], a = 0.2, v = 0.2, t = 0.2)
movej(p[-0.274159846458219, -0.26922666044874, 0.405616231734397, -0.156943305175242, -2.13312322784706, 2.1557656557012], a = 0.2, v = 0.2, t = 0.2)
movej(p[-0.274384906703401, -0.269243810906447, 0.405643625357292, -0.16744357862558, -2.13888446494231, 2.16313970738135], a = 0.2, v = 0.2, t = 0.2)
movej(p[-0.274448664810578, -0.269157850200347, 0.405592710067095, -0.176167699655813, -2.13625721482454, 2.16742248999692], a = 0.2, v = 0.2, t = 0.2)
movej(p[-0.274409245617262, -0.269017070545853, 0.405501635224361, -0.172253609823675, -2.13536221152607, 2.1651766390961], a = 0.2, v = 0.2, t = 0.2)
movej(p[-0.274409695063364, -0.26853364941294, 0.405460436530806, -0.166782242434263, -2.13196862161131, 2.16254579535074], a = 0.2, v = 0.2, t = 0.2)
movej(p[-0.274485315184664, -0.267685691445743, 0.405536178387281, -0.165958339105344, -2.12517381418817, 2.16363476045152], a = 0.2, v = 0.2, t = 0.2)
movej(p[-0.274264464410905, -0.26685378054135, 0.405521354491626, -0.166177571972497, -2.11575862910477, 2.16676918409441], a = 0.2, v = 0.2, t = 0.2)
movej(p[-0.273907813321871, -0.266120410638944, 0.405497285483844, -0.16153463937269, -2.10795874639727, 2.17115316127468], a = 0.2, v = 0.2, t = 0.2)
movej(p[-0.2736675024036, -0.265530628120702, 0.40555815847227, -0.156808617752942, -2.10870313424805, 2.18057736074933], a = 0.2, v = 0.2, t = 0.2)
movej(p[-0.273548785946442, -0.264944287313357, 0.405687076970237, -0.149042769183077, -2.10241204521968, 2.18603199729319], a = 0.2, v = 0.2, t = 0.2)
movej(p[-0.27342117274704, -0.264986727357898, 0.40571973178951, -0.144773989026608, -2.10414538601983, 2.19091470975626], a = 0.2, v = 0.2, t = 0.2)
movej(p[-0.273391056844463, -0.265552828084661, 0.405716861289504, -0.134860685773788, -2.10187691030616, 2.18676861802612], a = 0.2, v = 0.2, t = 0.2)
movej(p[-0.273617193887494, -0.266600348078483, 0.405774059563179, -0.137681179996458, -2.11191098955646, 2.18619698988527], a = 0.2, v = 0.2, t = 0.2)
movej(p[-0.273788004625877, -0.267633041019635, 0.405769522532343, -0.150369596460817, -2.11480530027626, 2.18392956764013], a = 0.2, v = 0.2, t = 0.2)
movej(p[-0.273857821846332, -0.268570169763817, 0.405651100182022, -0.161122637315061, -2.12646543631526, 2.17959407456991], a = 0.2, v = 0.2, t = 0.2)
movej(p[-0.27393134691321, -0.26911171664374, 0.405554056200313, -0.173246266941179, -2.13777255617807, 2.17716163310618], a = 0.2, v = 0.2, t = 0.2)
movej(p[-0.274136711484942, -0.269249415805611, 0.405554149809109, -0.167034065704258, -2.14025662829054, 2.16558246339268], a = 0.2, v = 0.2, t = 0.2)
movej(p[-0.274232354097418, -0.269243295103544, 0.405530033304329, -0.169619949326626, -2.13845579900667, 2.16331361967175], a = 0.2, v = 0.2, t = 0.2)
movej(p[-0.274205846731692, -0.269264175519826, 0.405435682103075, -0.168449148456165, -2.13588192870245, 2.1616632819557], a = 0.2, v = 0.2, t = 0.2)
movej(p[-0.27428517182397, -0.269228165053682, 0.405372291824134, -0.177693064033849, -2.14087086604404, 2.17002976439946], a = 0.2, v = 0.2, t = 0.2)
movej(p[-0.274397842649917, -0.268975244580676, 0.405384187870314, -0.170358141506173, -2.1324091184399, 2.16282385913004], a = 0.2, v = 0.2, t = 0.2)
movej(p[-0.274316545900856, -0.268512458987698, 0.405294008965775, -0.172214827032984, -2.12872096910376, 2.16631914290517], a = 0.2, v = 0.2, t = 0.2)
movej(p[-0.274169632117954, -0.267780549906102, 0.405252708306335, -0.165943787834063, -2.1190578502813, 2.16467782942906], a = 0.2, v = 0.2, t = 0.2)
movej(p[-0.274042419732744, -0.266894198617015, 0.405353433085724, -0.170974444561064, -2.11696442622695, 2.17418956465385], a = 0.2, v = 0.2, t = 0.2)
movej(p[-0.273831818867208, -0.26609717319227, 0.405483241394958, -0.159615710110215, -2.10240791572722, 2.16877894472734], a = 0.2, v = 0.2, t = 0.2)
movej(p[-0.273478750495866, -0.26563258976649, 0.405519961756454, -0.145940529648166, -2.09733006260753, 2.16633812823849], a = 0.2, v = 0.2, t = 0.2)
movej(p[-0.273289424974082, -0.265484753396704, 0.405550613103401, -0.13879282537648, -2.09588395807024, 2.17124409771836], a = 0.2, v = 0.2, t = 0.2)
movej(p[-0.273343909436972, -0.265499243582032, 0.405698068204475, -0.134298018712777, -2.09960380388566, 2.17441747774372], a = 0.2, v = 0.2, t = 0.2)
movej(p[-0.273439328723141, -0.266093945082857, 0.405774906280606, -0.132723450564408, -2.09978549242343, 2.1712949191197], a = 0.2, v = 0.2, t = 0.2)
movej(p[-0.27352648121904, -0.267048481023159, 0.405784751133608, -0.131450083382803, -2.10705009972461, 2.16425274349274], a = 0.2, v = 0.2, t = 0.2)
movej(p[-0.273752336920086, -0.268118283475255, 0.405789835068565, -0.140595922555448, -2.12108627869882, 2.16572473186166], a = 0.2, v = 0.2, t = 0.2)
movej(p[-0.273934079146248, -0.268709598658539, 0.405775224173764, -0.154463180812297, -2.1289809473056, 2.16851176279988], a = 0.2, v = 0.2, t = 0.2)
movej(p[-0.274021145040264, -0.269130955987566, 0.405699085663963, -0.168153410529159, -2.13783514422253, 2.17266511159156], a = 0.2, v = 0.2, t = 0.2)
movej(p[-0.274087357297114, -0.269268483501295, 0.405624780095536, -0.169698267707064, -2.14079774800022, 2.16900047505627], a = 0.2, v = 0.2, t = 0.2)
movej(p[-0.274273242105654, -0.269335202646245, 0.405630926408247, -0.172791274841632, -2.14687707002958, 2.16814970239809], a = 0.2, v = 0.2, t = 0.2)
movej(p[-0.274347382621476, -0.269288902372755, 0.405614813876214, -0.175819785268882, -2.14546555280315, 2.1675223084016], a = 0.2, v = 0.2, t = 0.2)
movej(p[-0.274320263961614, -0.269270229499345, 0.405528720307431, -0.18289676766268, -2.14778574955132, 2.17215757989189], a = 0.2, v = 0.2, t = 0.2)
movej(p[-0.274388289308734, -0.268985624587401, 0.40548275050488, -0.188517040467658, -2.14863282099399, 2.18001123331525], a = 0.2, v = 0.2, t = 0.2)
movej(p[-0.274452547786049, -0.268345811312541, 0.405472172475476, -0.179306923075419, -2.13424746516818, 2.17137748773822], a = 0.2, v = 0.2, t = 0.2)
movej(p[-0.274342636044947, -0.267659908936431, 0.405397880081422, -0.177646700990709, -2.12571296968434, 2.17198611142223], a = 0.2, v = 0.2, t = 0.2)
movej(p[-0.274088126040894, -0.266939588207869, 0.405340513297125, -0.17435535456584, -2.11658088560336, 2.17416470925211], a = 0.2, v = 0.2, t = 0.2)
movej(p[-0.273978961960977, -0.266209424736772, 0.405442118296666, -0.178447931074631, -2.11948748555781, 2.18893612618091], a = 0.2, v = 0.2, t = 0.2)
movej(p[-0.273778909415145, -0.265578681042232, 0.405523055415495, -0.173559729746891, -2.11140007905643, 2.19320094503026], a = 0.2, v = 0.2, t = 0.2)
movej(p[-0.273510881991069, -0.265358677644268, 0.405552099802692, -0.160829419862524, -2.10893635465846, 2.19159421940092], a = 0.2, v = 0.2, t = 0.2)
movej(p[-0.273391862092921, -0.265592305146911, 0.405599562925785, -0.153208658234818, -2.10886713000615, 2.19190754304263], a = 0.2, v = 0.2, t = 0.2)
movej(p[-0.273561476343495, -0.266159571003029, 0.40571167401081, -0.156711487041193, -2.11374499534917, 2.19624238862108], a = 0.2, v = 0.2, t = 0.2)
movej(p[-0.273708020563637, -0.267152310415049, 0.405741646375831, -0.157958166189259, -2.11625369572548, 2.18993572788861], a = 0.2, v = 0.2, t = 0.2)
movej(p[-0.273814185893884, -0.268188278068369, 0.405703947997507, -0.165026283810111, -2.12754780792597, 2.184626613764], a = 0.2, v = 0.2, t = 0.2)
movej(p[-0.274022003663197, -0.268880280326538, 0.40572452677708, -0.165612450186501, -2.13842025833108, 2.17553465204339], a = 0.2, v = 0.2, t = 0.2)
movej(p[-0.274242729672599, -0.269107703035914, 0.405758767764733, -0.171281684152122, -2.14344968791682, 2.17208369217407], a = 0.2, v = 0.2, t = 0.2)
movej(p[-0.274311642618133, -0.269213439455142, 0.405682645352878, -0.174130275121417, -2.14709576962997, 2.1702974672626], a = 0.2, v = 0.2, t = 0.2)
movej(p[-0.274366174935321, -0.269143296651, 0.405608746814941, -0.175180483093674, -2.14619921966211, 2.17140394872467], a = 0.2, v = 0.2, t = 0.2)
movej(p[-0.27441669166416, -0.268808264073291, 0.405547970568947, -0.174394459390062, -2.14285010445925, 2.17018718582396], a = 0.2, v = 0.2, t = 0.2)
movej(p[-0.274295882330503, -0.268206245297646, 0.405443259370749, -0.165340507380272, -2.12642239333329, 2.16177701360713], a = 0.2, v = 0.2, t = 0.2)
movej(p[-0.274010567842942, -0.267474735568068, 0.405311511509208, -0.158917875611393, -2.11581726618553, 2.15867443548141], a = 0.2, v = 0.2, t = 0.2)
movej(p[-0.273788082721137, -0.266688880337148, 0.405310907007051, -0.163752169047902, -2.11463040047503, 2.17232477949155], a = 0.2, v = 0.2, t = 0.2)
movej(p[-0.273571226439643, -0.265870158596848, 0.405394282400691, -0.166257572769604, -2.1076932088306, 2.18297922484838], a = 0.2, v = 0.2, t = 0.2)
movej(p[-0.273304521549695, -0.265490785320009, 0.405396163623292, -0.162680502910516, -2.10277694638121, 2.19066206270189], a = 0.2, v = 0.2, t = 0.2)
movej(p[-0.273128264208119, -0.265593733961726, 0.405403985752741, -0.149602442605549, -2.09942474513176, 2.18819793827443], a = 0.2, v = 0.2, t = 0.2)
movej(p[-0.273302401641857, -0.266228902956698, 0.405508156343587, -0.145475736855161, -2.1049204609034, 2.18903677831288], a = 0.2, v = 0.2, t = 0.2)
movej(p[-0.273479802599181, -0.267111710773273, 0.405566628633053, -0.147769209423905, -2.10628427987265, 2.18549242226579], a = 0.2, v = 0.2, t = 0.2)
movej(p[-0.273591214210727, -0.268131968867957, 0.405540558139317, -0.15639440423859, -2.11580267269565, 2.18013425134244], a = 0.2, v = 0.2, t = 0.2)
movej(p[-0.273707245607165, -0.268866960028656, 0.405471977684844, -0.166985097241311, -2.12745628081039, 2.17901517465617], a = 0.2, v = 0.2, t = 0.2)
movej(p[-0.273913896208298, -0.269115506388401, 0.405503497599329, -0.165878389390708, -2.13443372396875, 2.16759234142766], a = 0.2, v = 0.2, t = 0.2)
movej(p[-0.274044570510907, -0.269194791083408, 0.405464878657806, -0.167482882085587, -2.13752817282665, 2.16404029498554], a = 0.2, v = 0.2, t = 0.2)
movej(p[-0.274069624528256, -0.269236098174541, 0.405383964655324, -0.165232248271006, -2.13655920108414, 2.16014884801835], a = 0.2, v = 0.2, t = 0.2)
movej(p[-0.274221167496867, -0.269106260963714, 0.405358306404543, -0.17200437149947, -2.14028631891331, 2.16965902955206], a = 0.2, v = 0.2, t = 0.2)
movej(p[-0.274254139327356, -0.26867019626296, 0.405291301406588, -0.168322094014574, -2.12846484328069, 2.16544361529639], a = 0.2, v = 0.2, t = 0.2)
movej(p[-0.274106055503193, -0.268005259932856, 0.405172273989458, -0.166263156379517, -2.11973771022754, 2.16480336766261], a = 0.2, v = 0.2, t = 0.2)
movej(p[-0.273906118547331, -0.267133955220195, 0.405115821968849, -0.169097467669275, -2.11437362261998, 2.1713417556398], a = 0.2, v = 0.2, t = 0.2)
movej(p[-0.273777649966857, -0.266255931543379, 0.405201284777614, -0.171667931459202, -2.11052458101958, 2.18239450480563], a = 0.2, v = 0.2, t = 0.2)
movej(p[-0.273506920341283, -0.265595876513653, 0.405261039920033, -0.162911546615741, -2.10239040457019, 2.18484238560263], a = 0.2, v = 0.2, t = 0.2)
movej(p[-0.273248599782921, -0.265312631749454, 0.405305308933819, -0.14442660119162, -2.0979129312557, 2.18089800685483], a = 0.2, v = 0.2, t = 0.2)
movej(p[-0.273208447204505, -0.265500593833087, 0.405383601944764, -0.137434167184422, -2.10076678085351, 2.18068036467098], a = 0.2, v = 0.2, t = 0.2)
movej(p[-0.273380042366227, -0.266050327018905, 0.405496745872062, -0.135440243066244, -2.10036393505833, 2.17892637375125], a = 0.2, v = 0.2, t = 0.2)
movej(p[-0.273539206112148, -0.267134613909164, 0.405518057082599, -0.142704461953507, -2.1102101521401, 2.1753795108951], a = 0.2, v = 0.2, t = 0.2)
movej(p[-0.273740188886286, -0.268148473020307, 0.405518908818371, -0.151659616419209, -2.12120315931381, 2.1750334607784], a = 0.2, v = 0.2, t = 0.2)
movej(p[-0.273993631255675, -0.268841855497911, 0.405566699684509, -0.157068442612388, -2.133712597517, 2.16840482730515], a = 0.2, v = 0.2, t = 0.2)
movej(p[-0.274146619203724, -0.269079398654834, 0.405559867983687, -0.154406080652951, -2.13316344035785, 2.15762124491748], a = 0.2, v = 0.2, t = 0.2)
movej(p[-0.274194552587711, -0.269161012609783, 0.405501346443498, -0.153028611411116, -2.13451215382915, 2.15103187987177], a = 0.2, v = 0.2, t = 0.2)
movej(p[-0.274310726329463, -0.269175155658487, 0.405492728457556, -0.165112489384244, -2.14268304814368, 2.15943658048524], a = 0.2, v = 0.2, t = 0.2)
movej(p[-0.274390749518993, -0.269074907064925, 0.405493339134288, -0.180712590318191, -2.14434004460767, 2.17136238333681], a = 0.2, v = 0.2, t = 0.2)
movej(p[-0.274382281730382, -0.269070441203212, 0.405450814011887, -0.197270389170673, -2.14954035465401, 2.18179708118288], a = 0.2, v = 0.2, t = 0.2)
movej(p[-0.274377589961438, -0.268798425764264, 0.405370881448816, -0.196459962723146, -2.14828797076253, 2.18197964185552], a = 0.2, v = 0.2, t = 0.2)
movej(p[-0.274435309105596, -0.268268885426172, 0.405397472193666, -0.191433964636158, -2.14620416759057, 2.1784525016005], a = 0.2, v = 0.2, t = 0.2)
movej(p[-0.27433227698731, -0.267536113246332, 0.405362224737673, -0.189654162084204, -2.13484933094049, 2.18040365652975], a = 0.2, v = 0.2, t = 0.2)
movej(p[-0.274085311145508, -0.266871696869828, 0.405320688984198, -0.184072282076476, -2.12617899779966, 2.18063373342559], a = 0.2, v = 0.2, t = 0.2)
movej(p[-0.273910124306499, -0.266238227373028, 0.405303011386447, -0.190108746621355, -2.12699856318434, 2.19615557575859], a = 0.2, v = 0.2, t = 0.2)
movej(p[-0.273727790735893, -0.265668912343696, 0.405348379045737, -0.179894670576152, -2.11912905094805, 2.19419497964378], a = 0.2, v = 0.2, t = 0.2)
movej(p[-0.273526467122138, -0.265476974209685, 0.405370976328785, -0.170361906886439, -2.11692049591714, 2.19473615567414], a = 0.2, v = 0.2, t = 0.2)
movej(p[-0.273417269506293, -0.265724537904028, 0.40543345305675, -0.156608746076505, -2.11291658909415, 2.18931418720117], a = 0.2, v = 0.2, t = 0.2)
movej(p[-0.273622506555673, -0.266421550678921, 0.405568485018143, -0.151795881764719, -2.11702843034629, 2.18785568427307], a = 0.2, v = 0.2, t = 0.2)
movej(p[-0.273803266696813, -0.267269532505859, 0.405616143314872, -0.153110248455709, -2.11679380414401, 2.18155419118124], a = 0.2, v = 0.2, t = 0.2)
movej(p[-0.273929342268073, -0.268210120080333, 0.40559328393605, -0.155285047989451, -2.12552854111286, 2.17093577726886], a = 0.2, v = 0.2, t = 0.2)
movej(p[-0.274081055515982, -0.268790174187661, 0.405589408712218, -0.165640889853673, -2.13963614114895, 2.1709490972033], a = 0.2, v = 0.2, t = 0.2)
movej(p[-0.274317489039934, -0.269028488774433, 0.40567604081221, -0.167535485233083, -2.14602445893584, 2.16648462031503], a = 0.2, v = 0.2, t = 0.2)
movej(p[-0.274382927966978, -0.269146416186334, 0.405621208076097, -0.18365171243859, -2.1537785042657, 2.17680513851991], a = 0.2, v = 0.2, t = 0.2)
movej(p[-0.27443297145776, -0.269204976014905, 0.405570678733057, -0.179394964665567, -2.15237591282653, 2.17148220177649], a = 0.2, v = 0.2, t = 0.2)
movej(p[-0.274525751874109, -0.269160128467867, 0.405532693729875, -0.192507323786175, -2.15578806614094, 2.18070949112877], a = 0.2, v = 0.2, t = 0.2)
movej(p[-0.274564743900164, -0.268998040729114, 0.405476641103262, -0.178641759855253, -2.14224062771658, 2.16630908571292], a = 0.2, v = 0.2, t = 0.2)
movej(p[-0.274516240732328, -0.268652598504908, 0.405354346381194, -0.177209773503504, -2.13982008735794, 2.16591581743851], a = 0.2, v = 0.2, t = 0.2)
movej(p[-0.274453667183382, -0.268030708061679, 0.405301345971837, -0.172747920196828, -2.13466541460371, 2.16553922434964], a = 0.2, v = 0.2, t = 0.2)
movej(p[-0.274435157961224, -0.26717692622893, 0.405370598406913, -0.180313824205258, -2.13048139213896, 2.17651623997265], a = 0.2, v = 0.2, t = 0.2)
movej(p[-0.274162545488757, -0.266571433487456, 0.405338214837358, -0.184895607935855, -2.12419563765911, 2.185034709193], a = 0.2, v = 0.2, t = 0.2)
movej(p[-0.273843710189655, -0.266061795799348, 0.405309518820085, -0.181614550777378, -2.11980901465472, 2.19020747230692], a = 0.2, v = 0.2, t = 0.2)
