def moving():
set_payload_mass(0.606)
set_tcp(p[0.0005,0.0025,0.058,0,0,0])
movej(p[0.5385, 0.0103, 0.1725, -1.192, 1.165, -1.191], a = 0.2, v = 0.2, t = 0.2)
movej(p[0.538600008524446, 0.0102022400390445, 0.172602182606505, -1.19027157173908, 1.16326839996086, -1.18922581949945], a = 0.2, v = 0.2, t = 0.2)
movej(p[0.5385, 0.0103, 0.1725, -1.192, 1.165, -1.191], a = 0.2, v = 0.2, t = 0.2)
movej(p[0.538600008524446, 0.0102022400390445, 0.172602182606505, -1.19027157173908, 1.16326839996086, -1.18922581949945], a = 0.2, v = 0.2, t = 0.2)
movej(p[0.5385, 0.0103, 0.1725, -1.192, 1.165, -1.191], a = 0.2, v = 0.2, t = 0.2)
movej(p[0.538600008524446, 0.0102022400390445, 0.172602182606505, -1.19027157173908, 1.16326839996086, -1.18922581949945], a = 0.2, v = 0.2, t = 0.2)
movej(p[0.5385, 0.0103, 0.1725, -1.192, 1.165, -1.191], a = 0.2, v = 0.2, t = 0.2)
movej(p[0.538574645945183, 0.0104469232714102, 0.172360974210357, -1.19155683059922, 1.16715303500971, -1.19933295616496], a = 0.2, v = 0.2, t = 0.2)
movej(p[0.538833772971068, 0.0105142011426682, 0.172235445709232, -1.19529557893972, 1.17037205805948, -1.20331785275066], a = 0.2, v = 0.2, t = 0.2)
movej(p[0.538862179273919, 0.0105202242740109, 0.17214776883687, -1.19381478958816, 1.17319945425756, -1.20120637862836], a = 0.2, v = 0.2, t = 0.2)
movej(p[0.538856327986405, 0.0103674080635254, 0.172172476289011, -1.19811341069963, 1.17348319666439, -1.20628266445985], a = 0.2, v = 0.2, t = 0.2)
movej(p[0.538799863604209, 0.0103404358037378, 0.172127539213382, -1.19491792844223, 1.17511834406277, -1.20689450344852], a = 0.2, v = 0.2, t = 0.2)
movej(p[0.538669066107469, 0.0103696573158335, 0.171990236575015, -1.19521789668589, 1.17386726658891, -1.21048424815888], a = 0.2, v = 0.2, t = 0.2)
movej(p[0.538194684771355, 0.0102636763468314, 0.17188403926499, -1.18782863714652, 1.17332086962767, -1.20389578838167], a = 0.2, v = 0.2, t = 0.2)
movej(p[0.537304492744909, 0.0101550776976141, 0.171815395403685, -1.18333495113549, 1.16966683492074, -1.21739582901957], a = 0.2, v = 0.2, t = 0.2)
movej(p[0.536352376748257, 0.0102678170941309, 0.171719755006499, -1.18246396251421, 1.16365938655725, -1.22733468285791], a = 0.2, v = 0.2, t = 0.2)
movej(p[0.535386312479255, 0.0105388539396525, 0.171684740373151, -1.18345070958023, 1.15508830216424, -1.23907757421331], a = 0.2, v = 0.2, t = 0.2)
movej(p[0.534530188391725, 0.010627860729346, 0.171780177428004, -1.17613850473092, 1.14825388248247, -1.22682633530533], a = 0.2, v = 0.2, t = 0.2)
movej(p[0.534001094457812, 0.0107550919040266, 0.171864986561275, -1.17401330406083, 1.13985881534643, -1.23265526193452], a = 0.2, v = 0.2, t = 0.2)
movej(p[0.534177537758972, 0.0109166374529461, 0.171878519709478, -1.18007443278418, 1.13323042200597, -1.23400765427228], a = 0.2, v = 0.2, t = 0.2)
movej(p[0.535067337422661, 0.0109789126799628, 0.171943897493153, -1.18649777736, 1.13075362209801, -1.23523189322202], a = 0.2, v = 0.2, t = 0.2)
movej(p[0.53616310251322, 0.0109527614517619, 0.172047433774596, -1.18805620889969, 1.13451165335115, -1.23049853724488], a = 0.2, v = 0.2, t = 0.2)
movej(p[0.537338910195966, 0.0110346640434721, 0.172054871466879, -1.18962230559159, 1.14443265625217, -1.22945903278936], a = 0.2, v = 0.2, t = 0.2)
movej(p[0.538254999551126, 0.011087325903988, 0.172001559817971, -1.19143607276709, 1.15589727013402, -1.22341716865182], a = 0.2, v = 0.2, t = 0.2)
movej(p[0.538771355561785, 0.0109522259692321, 0.171996770675489, -1.19858175891401, 1.16449921988235, -1.21930784776455], a = 0.2, v = 0.2, t = 0.2)
movej(p[0.538838834574961, 0.0107770467950772, 0.171971698054501, -1.19704617062896, 1.16905186008391, -1.21687349497011], a = 0.2, v = 0.2, t = 0.2)
movej(p[0.538789180751221, 0.0107333350232349, 0.171872576924108, -1.1951137640359, 1.17185712579831, -1.21286900278593], a = 0.2, v = 0.2, t = 0.2)
movej(p[0.538467811697159, 0.0106124425484649, 0.17177934874135, -1.18821408654572, 1.17119181196429, -1.20680111592302], a = 0.2, v = 0.2, t = 0.2)
movej(p[0.53777488875073, 0.0104279717285822, 0.171779298256027, -1.18600150817235, 1.17021804812463, -1.21208963924152], a = 0.2, v = 0.2, t = 0.2)
movej(p[0.536850749819565, 0.0103749406733024, 0.17170931038579, -1.18492208764249, 1.16412173267859, -1.22701330468515], a = 0.2, v = 0.2, t = 0.2)
movej(p[0.535810677660268, 0.0105403255838888, 0.171669020792772, -1.18528604659979, 1.15743992774486, -1.23785656496331], a = 0.2, v = 0.2, t = 0.2)
movej(p[0.53496217497552, 0.0106125300396961, 0.171742450180878, -1.18199012722868, 1.14934678707598, -1.23379948807721], a = 0.2, v = 0.2, t = 0.2)
movej(p[0.534205699469913, 0.0107244822795987, 0.171864168016454, -1.1844021792013, 1.13982880421506, -1.24045485987074], a = 0.2, v = 0.2, t = 0.2)
movej(p[0.534052974618796, 0.0108593941406754, 0.171898457269758, -1.18724962173088, 1.13259784122299, -1.24106832589745], a = 0.2, v = 0.2, t = 0.2)
movej(p[0.534473235267376, 0.010992229267618, 0.171886432811135, -1.18684020350627, 1.13022743698329, -1.23705895999169], a = 0.2, v = 0.2, t = 0.2)
movej(p[0.53544925457454, 0.0109259423260125, 0.171971413423134, -1.18849234011493, 1.1321022636109, -1.23263291310463], a = 0.2, v = 0.2, t = 0.2)
movej(p[0.536626097751508, 0.0109445320345086, 0.171997366759366, -1.18753627144202, 1.13987676175827, -1.23013796995778], a = 0.2, v = 0.2, t = 0.2)
movej(p[0.537721808067839, 0.0110166909700849, 0.171972322210986, -1.19698841600502, 1.14823347078465, -1.23098000401526], a = 0.2, v = 0.2, t = 0.2)
movej(p[0.538386445129624, 0.0109452429583714, 0.171968435769934, -1.19245935126518, 1.16077432577365, -1.21432668221968], a = 0.2, v = 0.2, t = 0.2)
movej(p[0.53861544985008, 0.0108215471189545, 0.171986042243733, -1.19729327139782, 1.16571811974078, -1.21811436930105], a = 0.2, v = 0.2, t = 0.2)
movej(p[0.538656452162154, 0.0107501418587659, 0.171913719209214, -1.19925832997047, 1.16789131073546, -1.22021692885693], a = 0.2, v = 0.2, t = 0.2)
movej(p[0.538546125194604, 0.01071503076433, 0.171799748520971, -1.20157782745714, 1.16678167310779, -1.22305028360836], a = 0.2, v = 0.2, t = 0.2)
movej(p[0.53811578723033, 0.0104807459494561, 0.171756833100389, -1.1944836772269, 1.16554956273641, -1.2190196804762], a = 0.2, v = 0.2, t = 0.2)
movej(p[0.53737240177343, 0.010446943052426, 0.171658561118512, -1.18606239283877, 1.16270446359202, -1.22475211128141], a = 0.2, v = 0.2, t = 0.2)
movej(p[0.536429540140843, 0.0105460262661522, 0.171563560329289, -1.18230839979622, 1.15781934580563, -1.23374860902809], a = 0.2, v = 0.2, t = 0.2)
movej(p[0.535426161282554, 0.010669679534869, 0.171566993181627, -1.1781322859634, 1.15273481916003, -1.23268243684887], a = 0.2, v = 0.2, t = 0.2)
movej(p[0.534519922120145, 0.0107194657793707, 0.171671166906595, -1.17638977798203, 1.14669992925146, -1.23517417285683], a = 0.2, v = 0.2, t = 0.2)
movej(p[0.534105706274799, 0.0108919810178415, 0.171720619535034, -1.18046045286281, 1.13907559924558, -1.23513210510596], a = 0.2, v = 0.2, t = 0.2)
movej(p[0.534196771233486, 0.0109799652289969, 0.171784300244724, -1.18782600612594, 1.13149104048141, -1.23796989300081], a = 0.2, v = 0.2, t = 0.2)
movej(p[0.53472214931107, 0.0109359621367881, 0.171915819429524, -1.18833191920031, 1.13041233749756, -1.23103417808987], a = 0.2, v = 0.2, t = 0.2)
movej(p[0.535728933624048, 0.0109134208686748, 0.172000201236055, -1.19205773701836, 1.13417258369578, -1.23255299654844], a = 0.2, v = 0.2, t = 0.2)
movej(p[0.536938716561733, 0.0109375298971486, 0.172041316757844, -1.19132447096106, 1.14524411241014, -1.22234178635807], a = 0.2, v = 0.2, t = 0.2)
movej(p[0.53796851786166, 0.0108554247805722, 0.172070954860006, -1.19402525526173, 1.15553405923178, -1.2124636498032], a = 0.2, v = 0.2, t = 0.2)
movej(p[0.538413411386024, 0.0107033343951774, 0.172118624469556, -1.19161504855354, 1.16351165044913, -1.2051156386314], a = 0.2, v = 0.2, t = 0.2)
movej(p[0.538628000253867, 0.010623181777815, 0.172085116489122, -1.18822655030516, 1.16996480322573, -1.19811899749629], a = 0.2, v = 0.2, t = 0.2)
movej(p[0.538666893356809, 0.010500597739893, 0.172044322338925, -1.18631638672793, 1.17198554795407, -1.19566932349452], a = 0.2, v = 0.2, t = 0.2)
movej(p[0.538438086108597, 0.010319892375704, 0.171986925348655, -1.18076705140666, 1.1733006263011, -1.19399367493287], a = 0.2, v = 0.2, t = 0.2)
movej(p[0.537860934408388, 0.0102406450110393, 0.171851403953873, -1.18587084724747, 1.16733021464153, -1.21365098498342], a = 0.2, v = 0.2, t = 0.2)
movej(p[0.536909785966626, 0.0102905543667653, 0.171700586591993, -1.18363514884986, 1.16257174066621, -1.22044273596304], a = 0.2, v = 0.2, t = 0.2)
movej(p[0.535871852584749, 0.0103169013597257, 0.171698968576876, -1.1874353852128, 1.15559168179367, -1.22833779326108], a = 0.2, v = 0.2, t = 0.2)
movej(p[0.534857517329661, 0.0103946231538313, 0.171750231231955, -1.17885296416434, 1.15024069399543, -1.22546858250053], a = 0.2, v = 0.2, t = 0.2)
movej(p[0.53419937775206, 0.0106123556242377, 0.171749243645492, -1.17731701412799, 1.14419933976942, -1.22351477643056], a = 0.2, v = 0.2, t = 0.2)
movej(p[0.534052817429046, 0.0107329945046908, 0.171790336097852, -1.17505345942079, 1.13933760540665, -1.21614274056125], a = 0.2, v = 0.2, t = 0.2)
movej(p[0.534349987821486, 0.0107338570916074, 0.17192534688372, -1.17988812610967, 1.13527801345535, -1.21684434101206], a = 0.2, v = 0.2, t = 0.2)
movej(p[0.535314569767887, 0.0107451272943353, 0.17204249360586, -1.18617982992133, 1.13580999207792, -1.22259743198878], a = 0.2, v = 0.2, t = 0.2)
movej(p[0.536592282139236, 0.0108180614698292, 0.172095055518373, -1.18790179213596, 1.1444015195728, -1.21570599242891], a = 0.2, v = 0.2, t = 0.2)
movej(p[0.537769092759942, 0.0107603231971038, 0.172150235310474, -1.18955976156472, 1.15535655840532, -1.20335152732834], a = 0.2, v = 0.2, t = 0.2)
movej(p[0.538347730555019, 0.0106667462050348, 0.172174135707207, -1.18775607816265, 1.1641475163797, -1.19524509506269], a = 0.2, v = 0.2, t = 0.2)
movej(p[0.538614810034289, 0.0105931016196317, 0.172110683455918, -1.19025914507689, 1.16831395479034, -1.19569200967655], a = 0.2, v = 0.2, t = 0.2)
movej(p[0.538659129543177, 0.0104616916115739, 0.172058903939561, -1.18988238307886, 1.16965332730859, -1.19566090208934], a = 0.2, v = 0.2, t = 0.2)
movej(p[0.538416985414557, 0.0103282849826171, 0.17199155050176, -1.18808418663365, 1.1699985329146, -1.20257492714213], a = 0.2, v = 0.2, t = 0.2)
movej(p[0.537946656060465, 0.0102831078265857, 0.171860321589503, -1.18775058698809, 1.16684517702312, -1.21408838136892], a = 0.2, v = 0.2, t = 0.2)
movej(p[0.537087282218068, 0.0103381371747706, 0.171738825538767, -1.18387634223495, 1.16316468096279, -1.21950915711692], a = 0.2, v = 0.2, t = 0.2)
movej(p[0.536092731662632, 0.0102744172305634, 0.171776913961167, -1.18054685835856, 1.15946319263972, -1.2188164424624], a = 0.2, v = 0.2, t = 0.2)
movej(p[0.535144889459192, 0.0103838709597989, 0.171825265560713, -1.17277569544073, 1.15394850933502, -1.21952813346041], a = 0.2, v = 0.2, t = 0.2)
movej(p[0.534522472053273, 0.0106190511284493, 0.171822028712965, -1.1766281309993, 1.14610745840619, -1.2246766086844], a = 0.2, v = 0.2, t = 0.2)
movej(p[0.53417282831422, 0.0107500645385971, 0.171830329737125, -1.17768854008089, 1.13853800003309, -1.22325252023894], a = 0.2, v = 0.2, t = 0.2)
movej(p[0.534271841552678, 0.0107269011918751, 0.171916238528751, -1.18959971009452, 1.13216555614371, -1.2363545356598], a = 0.2, v = 0.2, t = 0.2)
movej(p[0.535013931727632, 0.0107217869834995, 0.172003500853433, -1.19527488242397, 1.13274037132716, -1.23901612953166], a = 0.2, v = 0.2, t = 0.2)
movej(p[0.536256442314138, 0.0108076825922768, 0.17203584002649, -1.19697688018083, 1.13980183800346, -1.23213677332091], a = 0.2, v = 0.2, t = 0.2)
movej(p[0.537454163234535, 0.0107257044932609, 0.172153144944655, -1.19973215397713, 1.14902241908586, -1.22323063457193], a = 0.2, v = 0.2, t = 0.2)
movej(p[0.538185344590846, 0.0106576634769296, 0.172151813449483, -1.19245443672295, 1.15947216686469, -1.20973852193975], a = 0.2, v = 0.2, t = 0.2)
movej(p[0.538568900714201, 0.0105733053465772, 0.17210899276191, -1.19604202243427, 1.16452788213787, -1.20896872732065], a = 0.2, v = 0.2, t = 0.2)
movej(p[0.538633488501427, 0.0104363396212069, 0.172062631708653, -1.19229558952925, 1.1686974478779, -1.19891474403023], a = 0.2, v = 0.2, t = 0.2)
movej(p[0.53844542163962, 0.0102845779551248, 0.172049363059021, -1.19976365865401, 1.1670822052214, -1.2124032878392], a = 0.2, v = 0.2, t = 0.2)
movej(p[0.537932721190726, 0.0102325947156335, 0.171901942038932, -1.20230391378217, 1.16381232459738, -1.2235570917761], a = 0.2, v = 0.2, t = 0.2)
movej(p[0.53709412901173, 0.0102393838833434, 0.171763371246107, -1.1988283529636, 1.1604000349599, -1.22885489080069], a = 0.2, v = 0.2, t = 0.2)
movej(p[0.536085118325857, 0.0101872300061528, 0.171737521532113, -1.18783477517325, 1.1575934436509, -1.22469598774792], a = 0.2, v = 0.2, t = 0.2)
movej(p[0.535166123543823, 0.0103282080913609, 0.17174459440151, -1.17737826037405, 1.15337126180452, -1.22196342384764], a = 0.2, v = 0.2, t = 0.2)
movej(p[0.534504072553404, 0.0105416520785546, 0.171748156832794, -1.17917526728133, 1.14409365720912, -1.22623846380532], a = 0.2, v = 0.2, t = 0.2)
movej(p[0.53413820202476, 0.0106186258021633, 0.171802521466, -1.17979134370046, 1.13762860889764, -1.21967549858518], a = 0.2, v = 0.2, t = 0.2)
movej(p[0.534019358415136, 0.0105606916968677, 0.171908994950469, -1.18581561561158, 1.13054591566603, -1.22817377111902], a = 0.2, v = 0.2, t = 0.2)
movej(p[0.534680756144812, 0.0105563217179917, 0.171980635127493, -1.19291531199792, 1.12995832891281, -1.23004146181176], a = 0.2, v = 0.2, t = 0.2)
movej(p[0.53583378701587, 0.0106181296303522, 0.172048586252262, -1.19823275952953, 1.13355903881965, -1.23216853284404], a = 0.2, v = 0.2, t = 0.2)
movej(p[0.537154881692473, 0.0105513163612874, 0.172167408903, -1.19699704226152, 1.14478620421297, -1.22097323153262], a = 0.2, v = 0.2, t = 0.2)
movej(p[0.538094781680997, 0.0105563435075506, 0.172193171043281, -1.19627766325561, 1.15553528029433, -1.21486238388045], a = 0.2, v = 0.2, t = 0.2)
movej(p[0.538645050523804, 0.0104725530222806, 0.172177914732647, -1.19325334536489, 1.16446607867268, -1.20359789892908], a = 0.2, v = 0.2, t = 0.2)
movej(p[0.538776786785052, 0.0103571517634676, 0.172166512873768, -1.19755772228622, 1.1681793833695, -1.20452027442954], a = 0.2, v = 0.2, t = 0.2)
movej(p[0.538706040035156, 0.0102167649766373, 0.17215814619805, -1.19719812430472, 1.16973082569834, -1.20575857196993], a = 0.2, v = 0.2, t = 0.2)
movej(p[0.5384547240928, 0.0101413071315677, 0.17205350882591, -1.19865753172481, 1.16880479949268, -1.20965934434897], a = 0.2, v = 0.2, t = 0.2)
movej(p[0.537827759056682, 0.0100358141076005, 0.171931557094701, -1.19445121430892, 1.16551301760772, -1.20989666449891], a = 0.2, v = 0.2, t = 0.2)
movej(p[0.536811902678949, 0.00989370481125334, 0.171866836668181, -1.18375397808658, 1.16378963448996, -1.2093790827948], a = 0.2, v = 0.2, t = 0.2)
movej(p[0.535769901155102, 0.0100433575442409, 0.171795719674357, -1.17746207605884, 1.15794509795394, -1.21667530343138], a = 0.2, v = 0.2, t = 0.2)
movej(p[0.534874275985091, 0.0102887596716049, 0.171778991329296, -1.1758362582631, 1.15057481515977, -1.22052953388637], a = 0.2, v = 0.2, t = 0.2)
movej(p[0.534166615152336, 0.0104000473121111, 0.171843146974832, -1.17683792714854, 1.14244533629137, -1.21573639927334], a = 0.2, v = 0.2, t = 0.2)
movej(p[0.533865592404104, 0.010442385889636, 0.171948251541338, -1.17910721171388, 1.1359233412799, -1.2212475251295], a = 0.2, v = 0.2, t = 0.2)
movej(p[0.534202231819098, 0.0105431880801382, 0.172005106687654, -1.18482685772613, 1.13265853377304, -1.22293669593076], a = 0.2, v = 0.2, t = 0.2)
movej(p[0.535305051688878, 0.0106121338920112, 0.172085254887532, -1.1866582463283, 1.13493572024759, -1.22123474460845], a = 0.2, v = 0.2, t = 0.2)
movej(p[0.536603269693561, 0.0106460007391847, 0.172177921877771, -1.18833098154541, 1.14382035309555, -1.2159925641877], a = 0.2, v = 0.2, t = 0.2)
movej(p[0.537741574493459, 0.0106627796031511, 0.172218321294264, -1.19351664826384, 1.15382004535447, -1.21473053739217], a = 0.2, v = 0.2, t = 0.2)
movej(p[0.538500075801128, 0.0106327220057787, 0.17222262940402, -1.19342444897217, 1.16541326284269, -1.20233021805073], a = 0.2, v = 0.2, t = 0.2)
movej(p[0.538840578919432, 0.010430001506823, 0.172275599255656, -1.19828348342247, 1.1713016982924, -1.19727207253362], a = 0.2, v = 0.2, t = 0.2)
movej(p[0.538832425106363, 0.0102726584191355, 0.172241857668773, -1.18757532796671, 1.17610767030952, -1.18664012793642], a = 0.2, v = 0.2, t = 0.2)
movej(p[0.53879314851403, 0.0102466305315166, 0.172154396685553, -1.18691656351959, 1.17682546853075, -1.18734501465375], a = 0.2, v = 0.2, t = 0.2)
movej(p[0.538545137892646, 0.0101257373170494, 0.172071893019587, -1.18237317763006, 1.17568763747393, -1.18248998247626], a = 0.2, v = 0.2, t = 0.2)
movej(p[0.53797220708264, 0.0100222178771409, 0.171979449776962, -1.18081155582651, 1.17226479759558, -1.19225424519864], a = 0.2, v = 0.2, t = 0.2)
movej(p[0.537183551513283, 0.0100219239205134, 0.171858182001314, -1.1835794859989, 1.1662059773008, -1.20818008208641], a = 0.2, v = 0.2, t = 0.2)
movej(p[0.536170909815485, 0.0101328334524424, 0.171745256848058, -1.17930128858797, 1.16099741578477, -1.21379804360712], a = 0.2, v = 0.2, t = 0.2)
movej(p[0.535292917092112, 0.010157469125934, 0.171841784423103, -1.18133403366821, 1.15420469882012, -1.21613049771138], a = 0.2, v = 0.2, t = 0.2)
movej(p[0.534612599350964, 0.0102791811312075, 0.171892058481535, -1.17631258273014, 1.14855599228598, -1.21721332410073], a = 0.2, v = 0.2, t = 0.2)
movej(p[0.534564158203787, 0.0104636638553669, 0.171927745098731, -1.18221427995846, 1.14196920579786, -1.21950410832673], a = 0.2, v = 0.2, t = 0.2)
movej(p[0.535068288828364, 0.0105480868563694, 0.171950672967473, -1.17960124078396, 1.14048097189784, -1.21118533923564], a = 0.2, v = 0.2, t = 0.2)
movej(p[0.536016126545098, 0.0105273410492376, 0.172089101998828, -1.18423887835415, 1.14349926321324, -1.21210763569865], a = 0.2, v = 0.2, t = 0.2)
movej(p[0.537164703143032, 0.0105333959107965, 0.172155526926602, -1.18896493418599, 1.15076458320533, -1.21035545676958], a = 0.2, v = 0.2, t = 0.2)
movej(p[0.538048809293918, 0.01056366376001, 0.172189611319951, -1.19674186130597, 1.15974210370644, -1.20867103242944], a = 0.2, v = 0.2, t = 0.2)
movej(p[0.538574421468742, 0.0103611989298855, 0.172254203018116, -1.19766032268414, 1.16721365699399, -1.19986489158008], a = 0.2, v = 0.2, t = 0.2)
movej(p[0.53870283627599, 0.0102503310957875, 0.172221073010589, -1.19237781582288, 1.17376526445559, -1.194706861752], a = 0.2, v = 0.2, t = 0.2)
movej(p[0.538770094685886, 0.0102177055176648, 0.17213664289211, -1.19004711157896, 1.17616216351219, -1.19431746474823], a = 0.2, v = 0.2, t = 0.2)
movej(p[0.538712129445607, 0.0101564982911164, 0.17206243556674, -1.18608756791412, 1.17714555958239, -1.18903866604955], a = 0.2, v = 0.2, t = 0.2)
movej(p[0.538472004070486, 0.0100292438735015, 0.172055763174316, -1.19618941119655, 1.17191909565326, -1.20545803786321], a = 0.2, v = 0.2, t = 0.2)
movej(p[0.537976173537187, 0.0100361476504687, 0.171929902154886, -1.19800585235304, 1.16770786553974, -1.21525661224447], a = 0.2, v = 0.2, t = 0.2)
movej(p[0.537197007087761, 0.0100912500465922, 0.171843254286875, -1.20278550835427, 1.16162300773983, -1.22997557723426], a = 0.2, v = 0.2, t = 0.2)
movej(p[0.53620008575657, 0.0100435416562688, 0.171879039838557, -1.18629171186224, 1.16117584924076, -1.21702279045334], a = 0.2, v = 0.2, t = 0.2)
movej(p[0.535373416941136, 0.0101652276830726, 0.171922896125059, -1.1805453538594, 1.15590163241523, -1.22174331131759], a = 0.2, v = 0.2, t = 0.2)
movej(p[0.534874400323848, 0.0103924719255641, 0.171905123079139, -1.18150494139331, 1.14838497286503, -1.22498885532469], a = 0.2, v = 0.2, t = 0.2)
movej(p[0.534700735655327, 0.0105408279588788, 0.171926263930264, -1.18701103777256, 1.14064583820971, -1.22717794217605], a = 0.2, v = 0.2, t = 0.2)
movej(p[0.534823181191206, 0.0104702017839083, 0.172054142744194, -1.19099132898995, 1.13629870062676, -1.22943839464186], a = 0.2, v = 0.2, t = 0.2)
movej(p[0.535535500701482, 0.010490506671016, 0.172095930500056, -1.18997068825913, 1.1390226337515, -1.22395693639837], a = 0.2, v = 0.2, t = 0.2)
movej(p[0.536587173507987, 0.0105496203522329, 0.172117310905819, -1.18768602126276, 1.14608804996412, -1.21380674241623], a = 0.2, v = 0.2, t = 0.2)
movej(p[0.537624642119421, 0.0105262220243642, 0.172182369682649, -1.18776977180051, 1.1567920463011, -1.2008897681265], a = 0.2, v = 0.2, t = 0.2)
movej(p[0.538223313357243, 0.0104794075939495, 0.172213296628982, -1.18636375189425, 1.1654143335313, -1.19470986518521], a = 0.2, v = 0.2, t = 0.2)
movej(p[0.53859469938036, 0.0105166157455868, 0.172128803768447, -1.18734406938683, 1.17189092880834, -1.19074066727588], a = 0.2, v = 0.2, t = 0.2)
movej(p[0.538725246082157, 0.0104477386105523, 0.172031391797954, -1.18354176263065, 1.17313321254593, -1.18417733218432], a = 0.2, v = 0.2, t = 0.2)
movej(p[0.538678271187462, 0.0103714285722409, 0.171966009080777, -1.18444606251669, 1.17348391858794, -1.1913683840347], a = 0.2, v = 0.2, t = 0.2)
movej(p[0.538626875872909, 0.0103770525894807, 0.171876063961576, -1.19086071964172, 1.17122960287235, -1.2073039665053], a = 0.2, v = 0.2, t = 0.2)
movej(p[0.538555462536169, 0.0104614491042858, 0.171757436555315, -1.1941081837814, 1.17050551657655, -1.21504882974455], a = 0.2, v = 0.2, t = 0.2)
movej(p[0.538387822870941, 0.0103393654886494, 0.171710841600432, -1.19017773645079, 1.17036337581516, -1.20811985937271], a = 0.2, v = 0.2, t = 0.2)
movej(p[0.537803029950459, 0.0102747141736449, 0.171634283238748, -1.18499031470754, 1.16685604093096, -1.21977006223436], a = 0.2, v = 0.2, t = 0.2)
movej(p[0.53718021043057, 0.010388296249566, 0.171497090031491, -1.18364797752926, 1.16253965601587, -1.22956960113662], a = 0.2, v = 0.2, t = 0.2)
movej(p[0.536482125574829, 0.0106120441851373, 0.17137998620528, -1.18628101914578, 1.15559648576925, -1.24260782512174], a = 0.2, v = 0.2, t = 0.2)
movej(p[0.535870075776028, 0.0106251014102264, 0.171469274112417, -1.18571009384443, 1.15172272634051, -1.24151554558562], a = 0.2, v = 0.2, t = 0.2)
movej(p[0.535282881549929, 0.0107755460744622, 0.171495892073244, -1.18252334458374, 1.14556873633396, -1.24664253488089], a = 0.2, v = 0.2, t = 0.2)
movej(p[0.535020038485218, 0.0110172205176273, 0.171499098403574, -1.18440762888119, 1.14035017326675, -1.24831418890574], a = 0.2, v = 0.2, t = 0.2)
movej(p[0.535108703278936, 0.0111610796437058, 0.171526915538561, -1.18339674974863, 1.13584736604491, -1.24186234045605], a = 0.2, v = 0.2, t = 0.2)
movej(p[0.535573568509101, 0.0110972309841679, 0.171641178349041, -1.19318993665848, 1.13264347130455, -1.24823825899611], a = 0.2, v = 0.2, t = 0.2)
movej(p[0.536522289262595, 0.0110790787343611, 0.17171507814821, -1.19399077972842, 1.13746719505035, -1.24315057452728], a = 0.2, v = 0.2, t = 0.2)
movej(p[0.537489749653616, 0.011102742588853, 0.171743107295469, -1.20127759484816, 1.14367958076345, -1.24437320058882], a = 0.2, v = 0.2, t = 0.2)
movej(p[0.538239527445565, 0.0109594660190507, 0.171815752902671, -1.19057130764098, 1.15617559132994, -1.21905147256888], a = 0.2, v = 0.2, t = 0.2)
movej(p[0.538510645131352, 0.0108266986377814, 0.171831295726821, -1.19263079957734, 1.16052726595905, -1.2230702096794], a = 0.2, v = 0.2, t = 0.2)
movej(p[0.53862712740882, 0.0108006426221559, 0.171758239499159, -1.18882015334868, 1.16436621331029, -1.21832699909832], a = 0.2, v = 0.2, t = 0.2)
movej(p[0.538657114630596, 0.0107438800011435, 0.171701780874611, -1.1856850300164, 1.16597194279544, -1.21388019439527], a = 0.2, v = 0.2, t = 0.2)
movej(p[0.538597610624234, 0.0106014945880273, 0.171671479391238, -1.17805801965406, 1.16851298089739, -1.20880568768453], a = 0.2, v = 0.2, t = 0.2)
movej(p[0.538553459076169, 0.0105862323052525, 0.171617870375169, -1.18263542495724, 1.16659906476856, -1.21945739564796], a = 0.2, v = 0.2, t = 0.2)
movej(p[0.538422083645031, 0.0105827747516925, 0.171507642737905, -1.18149087556632, 1.16599315185259, -1.22123771813395], a = 0.2, v = 0.2, t = 0.2)
movej(p[0.538002899275937, 0.010485596022416, 0.171496778084968, -1.18444069961414, 1.16417885540703, -1.22227811683043], a = 0.2, v = 0.2, t = 0.2)
movej(p[0.537253721337661, 0.0103930511110056, 0.171458777422191, -1.17881748239619, 1.1611732342187, -1.22900086595599], a = 0.2, v = 0.2, t = 0.2)
movej(p[0.536494385312792, 0.0105232013766865, 0.171382400042814, -1.18030821645225, 1.15673926145596, -1.23655178070001], a = 0.2, v = 0.2, t = 0.2)
movej(p[0.53576503658159, 0.0107016312747859, 0.171365551679152, -1.17775150187834, 1.15048492055187, -1.23746993322949], a = 0.2, v = 0.2, t = 0.2)
movej(p[0.53512358688221, 0.0107328225284552, 0.17150087503951, -1.17950731848983, 1.14533530279144, -1.23484275190554], a = 0.2, v = 0.2, t = 0.2)
movej(p[0.53472218685105, 0.0108272730945956, 0.171584772962849, -1.17490725460647, 1.14135743482141, -1.23385185118504], a = 0.2, v = 0.2, t = 0.2)
movej(p[0.534961865169162, 0.010972520751438, 0.171633768878072, -1.17957006271813, 1.13735093882076, -1.23419536342025], a = 0.2, v = 0.2, t = 0.2)
movej(p[0.535643952674613, 0.0109696761486481, 0.171663248912709, -1.17185264175591, 1.1380918210929, -1.21787773301165], a = 0.2, v = 0.2, t = 0.2)
movej(p[0.536519382992671, 0.0108711045505526, 0.171780148945533, -1.18116506605406, 1.13952994292023, -1.22540386457088], a = 0.2, v = 0.2, t = 0.2)
movej(p[0.537472427049305, 0.0108201863661538, 0.171830203554825, -1.1886273705619, 1.14565528821358, -1.22701295059899], a = 0.2, v = 0.2, t = 0.2)
movej(p[0.53816664104599, 0.0108210916358393, 0.171840050452504, -1.19469811183818, 1.15341385357163, -1.22381524622371], a = 0.2, v = 0.2, t = 0.2)
movej(p[0.538583405712704, 0.0105970271425367, 0.171902697557945, -1.18874589806325, 1.16307987854026, -1.20643416831195], a = 0.2, v = 0.2, t = 0.2)
movej(p[0.538659348282339, 0.0104683328888984, 0.171883642949638, -1.1810475178076, 1.16879749141212, -1.20141626463826], a = 0.2, v = 0.2, t = 0.2)
movej(p[0.538715944515891, 0.0104378565002179, 0.171845794273562, -1.17778227820392, 1.17344675091965, -1.19954527292734], a = 0.2, v = 0.2, t = 0.2)
movej(p[0.538670710931753, 0.0104104585545524, 0.171845353121246, -1.17962941436634, 1.17370440734435, -1.20105281201], a = 0.2, v = 0.2, t = 0.2)
movej(p[0.538538282360556, 0.0102896097645862, 0.171859981961343, -1.19024037899313, 1.17026633463059, -1.21503154716981], a = 0.2, v = 0.2, t = 0.2)
movej(p[0.538161327306372, 0.0102342286764825, 0.171750023577588, -1.19425147363665, 1.16601604671445, -1.2234666691986], a = 0.2, v = 0.2, t = 0.2)
movej(p[0.537545387712248, 0.0101807900713138, 0.171633593331722, -1.19540787517276, 1.16180659465266, -1.23082951392433], a = 0.2, v = 0.2, t = 0.2)
movej(p[0.53660505942268, 0.0100271494927025, 0.17161589019913, -1.17465572531121, 1.16350947667283, -1.2114547223996], a = 0.2, v = 0.2, t = 0.2)
movej(p[0.535742960395712, 0.0100721390854519, 0.171612253889893, -1.16626771246695, 1.15984524597765, -1.21278805207764], a = 0.2, v = 0.2, t = 0.2)
movej(p[0.535149747449102, 0.0103123019768749, 0.171589966988857, -1.16683689980038, 1.15353979466653, -1.21683639830657], a = 0.2, v = 0.2, t = 0.2)
movej(p[0.534665233472789, 0.0105271535457365, 0.171626787431753, -1.17201445093247, 1.14472468919801, -1.2209292649578], a = 0.2, v = 0.2, t = 0.2)
movej(p[0.534358678174909, 0.0105557179955312, 0.171755543224435, -1.17354621407553, 1.13807189062642, -1.22435231922101], a = 0.2, v = 0.2, t = 0.2)
movej(p[0.534687702318865, 0.0106209104678767, 0.171792173670016, -1.17297580610842, 1.13641983697496, -1.2197100162305], a = 0.2, v = 0.2, t = 0.2)
movej(p[0.535609273082095, 0.0106994273065103, 0.171857907664338, -1.17565598765485, 1.1387541965327, -1.21619596505688], a = 0.2, v = 0.2, t = 0.2)
movej(p[0.536787941100646, 0.0107187407871209, 0.171924075831256, -1.17360503038465, 1.14774757227097, -1.20476239358107], a = 0.2, v = 0.2, t = 0.2)
movej(p[0.537757217356685, 0.0107316633923611, 0.171971495107415, -1.18038280445645, 1.15450605575855, -1.20868844426878], a = 0.2, v = 0.2, t = 0.2)
movej(p[0.538483157609381, 0.0107116554909305, 0.171961916322882, -1.18791287911043, 1.16026017220846, -1.2093747767248], a = 0.2, v = 0.2, t = 0.2)
movej(p[0.538780006163996, 0.0105844421931309, 0.171979814154084, -1.1950303376543, 1.16446447580706, -1.2093023427616], a = 0.2, v = 0.2, t = 0.2)
movej(p[0.538789081221938, 0.0103966635377908, 0.171996551668326, -1.19473819879222, 1.16604711758096, -1.21079011409166], a = 0.2, v = 0.2, t = 0.2)
movej(p[0.538780014730339, 0.0103516849838445, 0.171931395029063, -1.18487929156118, 1.17108385016442, -1.20212618439026], a = 0.2, v = 0.2, t = 0.2)
movej(p[0.538770471277075, 0.0102937342843449, 0.171906327832904, -1.18268007517584, 1.17122053705142, -1.20023597628967], a = 0.2, v = 0.2, t = 0.2)
movej(p[0.53870614802945, 0.0101471854787948, 0.17195872684441, -1.18021337865626, 1.1731915427414, -1.19325312523528], a = 0.2, v = 0.2, t = 0.2)
movej(p[0.538300122881595, 0.0100586234304733, 0.171893521554693, -1.18659679202934, 1.16899762292405, -1.20947550406862], a = 0.2, v = 0.2, t = 0.2)
movej(p[0.537670328529533, 0.0100455432651326, 0.171757285916604, -1.18788430821313, 1.16592756800936, -1.21779545979923], a = 0.2, v = 0.2, t = 0.2)
movej(p[0.536836534047292, 0.00997672360923562, 0.171705347028033, -1.18500596532301, 1.16278361768586, -1.22015250539628], a = 0.2, v = 0.2, t = 0.2)
movej(p[0.536028642771771, 0.0099770517081651, 0.171754514782587, -1.1803153155721, 1.15842291750014, -1.22439447319609], a = 0.2, v = 0.2, t = 0.2)
movej(p[0.535462018534121, 0.0101543072088477, 0.171761514454773, -1.17730773682738, 1.1533694808846, -1.22568298074909], a = 0.2, v = 0.2, t = 0.2)
movej(p[0.535056160025178, 0.0103823457285078, 0.171726546149202, -1.17707902931921, 1.14668879546529, -1.22485932708774], a = 0.2, v = 0.2, t = 0.2)
movej(p[0.534949683776139, 0.0103876382600313, 0.171826856080419, -1.18076587555243, 1.14153159005795, -1.22000481446234], a = 0.2, v = 0.2, t = 0.2)
movej(p[0.535126580939693, 0.0103538841589149, 0.171938518685997, -1.18205991195295, 1.13865451903786, -1.22373757256027], a = 0.2, v = 0.2, t = 0.2)
movej(p[0.535937086340969, 0.0104333053467793, 0.172019332468987, -1.188756454817, 1.13978619658007, -1.22245451857913], a = 0.2, v = 0.2, t = 0.2)
movej(p[0.536917551050781, 0.0104639111067826, 0.172064430056147, -1.18380222428718, 1.14700078913982, -1.20924474841231], a = 0.2, v = 0.2, t = 0.2)
movej(p[0.537762346549388, 0.0104405187179371, 0.17213073693495, -1.19613472703201, 1.15235598267174, -1.21499071395736], a = 0.2, v = 0.2, t = 0.2)
movej(p[0.538338208153078, 0.0104291108012824, 0.172111630877435, -1.19915990349171, 1.1590321681502, -1.21409367309683], a = 0.2, v = 0.2, t = 0.2)
movej(p[0.538574129130776, 0.0104484531204368, 0.17203479094578, -1.20450935438594, 1.16316180269687, -1.21755488506103], a = 0.2, v = 0.2, t = 0.2)
movej(p[0.538644969036644, 0.0103112053049984, 0.17200661560719, -1.19026071128221, 1.17064405493052, -1.19934250348223], a = 0.2, v = 0.2, t = 0.2)
movej(p[0.538574014605359, 0.0102690088941011, 0.171925706754021, -1.18049475086559, 1.17369119706309, -1.19846661071296], a = 0.2, v = 0.2, t = 0.2)
movej(p[0.538606048883484, 0.0103214865972329, 0.171844377034982, -1.17889787005633, 1.1747508194379, -1.20019686125978], a = 0.2, v = 0.2, t = 0.2)
movej(p[0.538561981860617, 0.0103269272890272, 0.171765770308027, -1.17826201572417, 1.17406012342494, -1.19919910628567], a = 0.2, v = 0.2, t = 0.2)
movej(p[0.538280008669829, 0.0101482825792599, 0.171755461536861, -1.17731095207664, 1.17260525774661, -1.20280530632729], a = 0.2, v = 0.2, t = 0.2)
movej(p[0.537786947086373, 0.0101502843787116, 0.171615663353688, -1.17793484435989, 1.16863156301499, -1.21504688924399], a = 0.2, v = 0.2, t = 0.2)
movej(p[0.537100352351217, 0.0102335447625865, 0.171483380157652, -1.1792806058913, 1.16267747291788, -1.22582603095851], a = 0.2, v = 0.2, t = 0.2)
movej(p[0.536362611431145, 0.0102558033676556, 0.171484469200163, -1.18078598661524, 1.15672977481011, -1.22944326308836], a = 0.2, v = 0.2, t = 0.2)
movej(p[0.535678154115612, 0.0102927687098399, 0.171535401513983, -1.17490721286295, 1.15326413254828, -1.22600908514672], a = 0.2, v = 0.2, t = 0.2)
movej(p[0.535202930225499, 0.0104697712696386, 0.171510085105234, -1.17246227261709, 1.14989227585998, -1.22083548821187], a = 0.2, v = 0.2, t = 0.2)
movej(p[0.535011207604385, 0.010613302102642, 0.171558033236902, -1.17049772260275, 1.14595114727399, -1.21440907807307], a = 0.2, v = 0.2, t = 0.2)
movej(p[0.535169805100084, 0.01055909757374, 0.171737348156261, -1.17417819748937, 1.14246632418671, -1.21153521363342], a = 0.2, v = 0.2, t = 0.2)
movej(p[0.535833726924782, 0.010535324084076, 0.171878556753659, -1.18375362551374, 1.14142907917034, -1.2220731582743], a = 0.2, v = 0.2, t = 0.2)
movej(p[0.536814766202446, 0.0106023016816642, 0.171938130852916, -1.19105133967255, 1.14667240121154, -1.22077096086423], a = 0.2, v = 0.2, t = 0.2)
movej(p[0.537740275424632, 0.010526380418172, 0.172008555055423, -1.19027698150484, 1.15493351235802, -1.208304161075], a = 0.2, v = 0.2, t = 0.2)
movej(p[0.538203730509499, 0.0104204021517626, 0.17205782087278, -1.18621585958015, 1.16220666557277, -1.2036876099858], a = 0.2, v = 0.2, t = 0.2)
movej(p[0.538516443739386, 0.0103811070466798, 0.172026368586091, -1.18794490365251, 1.16520946245463, -1.20523768191018], a = 0.2, v = 0.2, t = 0.2)
movej(p[0.538594116699845, 0.0103866708472258, 0.171925534974646, -1.18940406513947, 1.16726722588994, -1.20511524450941], a = 0.2, v = 0.2, t = 0.2)
movej(p[0.538689302273222, 0.010223048229975, 0.171951347494744, -1.18953409598506, 1.16936164630676, -1.19837210438417], a = 0.2, v = 0.2, t = 0.2)
movej(p[0.538581100607942, 0.01013318524232, 0.171921295283489, -1.17986966212371, 1.17194816689373, -1.19421725872592], a = 0.2, v = 0.2, t = 0.2)
movej(p[0.538322933491293, 0.0101384031433071, 0.171799493870975, -1.17715389767889, 1.17188331479176, -1.19504995952867], a = 0.2, v = 0.2, t = 0.2)
movej(p[0.537745204583424, 0.0100958795543571, 0.171685479468837, -1.17199943067272, 1.16950045151894, -1.19598920882439], a = 0.2, v = 0.2, t = 0.2)
movej(p[0.536877582673937, 0.00998724698357911, 0.171655989822449, -1.17979917076333, 1.1617491708656, -1.21519338475049], a = 0.2, v = 0.2, t = 0.2)
movej(p[0.536069173280563, 0.010086081341183, 0.171596976584422, -1.17756408356498, 1.15628758875536, -1.22342870268897], a = 0.2, v = 0.2, t = 0.2)
movej(p[0.535403202667343, 0.0103284140135128, 0.171550913666053, -1.17973935086806, 1.1485515782397, -1.22910804781958], a = 0.2, v = 0.2, t = 0.2)
movej(p[0.534854756394189, 0.0104213346066239, 0.171591098744621, -1.16788563037366, 1.14708614140142, -1.20751797069344], a = 0.2, v = 0.2, t = 0.2)
movej(p[0.534558800750618, 0.0104270118979725, 0.171719624522587, -1.16822579747593, 1.14193419907751, -1.21044463347288], a = 0.2, v = 0.2, t = 0.2)
movej(p[0.534933686611476, 0.0104613083341969, 0.171805118881998, -1.17656565151115, 1.13842361420698, -1.21364270604162], a = 0.2, v = 0.2, t = 0.2)
movej(p[0.535813460854884, 0.0104984829730756, 0.171905255956852, -1.18380072196052, 1.13782665663743, -1.21734543626631], a = 0.2, v = 0.2, t = 0.2)
movej(p[0.536954087726636, 0.0103818320329109, 0.172049613189077, -1.17900182269905, 1.14639034651374, -1.20299417886264], a = 0.2, v = 0.2, t = 0.2)
movej(p[0.537889872619512, 0.0103905547516063, 0.172068669918692, -1.17586998570925, 1.15622183429529, -1.19563329379331], a = 0.2, v = 0.2, t = 0.2)
movej(p[0.538539257923123, 0.0103756941434079, 0.172085457134936, -1.17513990663454, 1.16704486055863, -1.18394493108225], a = 0.2, v = 0.2, t = 0.2)
movej(p[0.538730824249326, 0.0102600834155064, 0.172104580097287, -1.17969889918156, 1.17167926437122, -1.18239240289253], a = 0.2, v = 0.2, t = 0.2)
movej(p[0.538701730831034, 0.0101113212140614, 0.172154480985549, -1.18204669209635, 1.17469019810806, -1.18619592206616], a = 0.2, v = 0.2, t = 0.2)
movej(p[0.538718049487349, 0.010100235297724, 0.172098221278697, -1.18047307453555, 1.17644448697865, -1.18372100571889], a = 0.2, v = 0.2, t = 0.2)
movej(p[0.5386833151674, 0.0100330008347539, 0.172049317550753, -1.1789347537566, 1.17711434208722, -1.18135676538445], a = 0.2, v = 0.2, t = 0.2)
movej(p[0.538411485094157, 0.00987795523936405, 0.171982741378358, -1.17435148331724, 1.17645020632092, -1.1805781585792], a = 0.2, v = 0.2, t = 0.2)
movej(p[0.537848766413404, 0.00986047951890381, 0.171826317879719, -1.17297159408302, 1.17412750960136, -1.19067895570967], a = 0.2, v = 0.2, t = 0.2)
movej(p[0.536993630661298, 0.00989086371011219, 0.171663983227551, -1.17523251961417, 1.16825454400301, -1.20389073641192], a = 0.2, v = 0.2, t = 0.2)
movej(p[0.536075554772726, 0.00989808276929418, 0.171657359300704, -1.17472778392605, 1.16312251722806, -1.20471208119852], a = 0.2, v = 0.2, t = 0.2)
movej(p[0.535224484103064, 0.00992565987949419, 0.171697652450678, -1.1705076231147, 1.15621570877712, -1.2075767329656], a = 0.2, v = 0.2, t = 0.2)
movej(p[0.53469605009898, 0.010160265018313, 0.171695722515827, -1.1696126413954, 1.15038605461211, -1.20437712831892], a = 0.2, v = 0.2, t = 0.2)
movej(p[0.534552597123841, 0.0103093386886503, 0.17171087241869, -1.17032802516415, 1.14367495948835, -1.2027118948265], a = 0.2, v = 0.2, t = 0.2)
movej(p[0.534844946462544, 0.0103059353342142, 0.171844719681786, -1.17985917408886, 1.13960492318156, -1.20873755043981], a = 0.2, v = 0.2, t = 0.2)
movej(p[0.535678830178947, 0.0102681844559668, 0.171968362990677, -1.18675532380632, 1.14028016262866, -1.21543122799577], a = 0.2, v = 0.2, t = 0.2)
movej(p[0.536796448627824, 0.0103192299752589, 0.172076109664829, -1.19101952773119, 1.14709800874177, -1.20861938158728], a = 0.2, v = 0.2, t = 0.2)
movej(p[0.537798940097152, 0.0102612257489103, 0.172212704501827, -1.18604616622448, 1.15948090772484, -1.18770755141862], a = 0.2, v = 0.2, t = 0.2)
movej(p[0.538360364251221, 0.0102055679666875, 0.172296127663926, -1.18083800751609, 1.16870065356829, -1.17754511040327], a = 0.2, v = 0.2, t = 0.2)
movej(p[0.538673521364797, 0.0101797382716062, 0.172250697321228, -1.17743016251752, 1.17572761559353, -1.17250836136252], a = 0.2, v = 0.2, t = 0.2)
movej(p[0.538734915467074, 0.0100942155954424, 0.172176666844616, -1.17736450007738, 1.17626594557508, -1.17338248454038], a = 0.2, v = 0.2, t = 0.2)
movej(p[0.538734381674857, 0.0099276890939614, 0.172181029225891, -1.18412553146784, 1.17522258567571, -1.18041544828674], a = 0.2, v = 0.2, t = 0.2)
movej(p[0.538683555156483, 0.00985921461878388, 0.172154899760164, -1.18743301037096, 1.17481620736936, -1.18796264022668], a = 0.2, v = 0.2, t = 0.2)
movej(p[0.53855030835714, 0.00986863314666228, 0.172043587965702, -1.18649107520927, 1.17593553952272, -1.18565614513342], a = 0.2, v = 0.2, t = 0.2)
movej(p[0.538112281169135, 0.00974438162912171, 0.171966141607319, -1.17769405383378, 1.1778880352712, -1.17838867901927], a = 0.2, v = 0.2, t = 0.2)
movej(p[0.537397329584132, 0.00970683791553352, 0.171882027302529, -1.17282843463327, 1.17398524460261, -1.18848740238989], a = 0.2, v = 0.2, t = 0.2)
movej(p[0.53665156928566, 0.00980650646524173, 0.17180203306759, -1.16958440685969, 1.16873560012413, -1.19570817646823], a = 0.2, v = 0.2, t = 0.2)
movej(p[0.535883131831287, 0.00995450126975204, 0.171751909686287, -1.16707574589613, 1.16238388416886, -1.19859650718157], a = 0.2, v = 0.2, t = 0.2)
movej(p[0.535160140849851, 0.00995710708427701, 0.171804629084937, -1.16839731240956, 1.15556106933287, -1.20099405365982], a = 0.2, v = 0.2, t = 0.2)
movej(p[0.534658594999185, 0.0100763934075567, 0.171816720054387, -1.16714641498219, 1.15091001071811, -1.20070967230077], a = 0.2, v = 0.2, t = 0.2)
movej(p[0.534580190264015, 0.0102603082561501, 0.171862770458194, -1.17297218421112, 1.14443891957797, -1.20288047778144], a = 0.2, v = 0.2, t = 0.2)
movej(p[0.535017962381515, 0.0102791153941667, 0.171984346350494, -1.16918202161973, 1.14473301265038, -1.19009620776238], a = 0.2, v = 0.2, t = 0.2)
movej(p[0.535822620522916, 0.0102629487251709, 0.172133460511762, -1.17410066241299, 1.14632723264745, -1.19606132154302], a = 0.2, v = 0.2, t = 0.2)
movej(p[0.536977248020319, 0.0103407637159986, 0.172185351908411, -1.18346480074578, 1.15143663563274, -1.19521873345657], a = 0.2, v = 0.2, t = 0.2)
movej(p[0.537912819548843, 0.0103846231098929, 0.172234913812598, -1.19150804239991, 1.15861395079834, -1.19454580214132], a = 0.2, v = 0.2, t = 0.2)
movej(p[0.53844374071086, 0.0101959772359552, 0.17234217908106, -1.19595364675115, 1.16258085153432, -1.1918053489953], a = 0.2, v = 0.2, t = 0.2)
movej(p[0.53864712318872, 0.0101242646498415, 0.172309503254501, -1.18976467434583, 1.16831145199608, -1.18755818165673], a = 0.2, v = 0.2, t = 0.2)
movej(p[0.538755154317771, 0.0100748882181907, 0.172243052886154, -1.19029795533937, 1.17013147280259, -1.18840949105116], a = 0.2, v = 0.2, t = 0.2)
movej(p[0.538752335663389, 0.0100127584629684, 0.172208331585725, -1.18993518346637, 1.17218749849999, -1.18536423018285], a = 0.2, v = 0.2, t = 0.2)
movej(p[0.538645183469553, 0.00990282820128918, 0.172195387648022, -1.19098605378224, 1.1733933472419, -1.18818881443484], a = 0.2, v = 0.2, t = 0.2)
movej(p[0.538353358308916, 0.00988203986482834, 0.172051153088411, -1.18632691885188, 1.17486801306513, -1.18665096198268], a = 0.2, v = 0.2, t = 0.2)
movej(p[0.537751519787572, 0.00979848555510715, 0.171949919777426, -1.18257730258534, 1.17323199855491, -1.18968789670041], a = 0.2, v = 0.2, t = 0.2)
movej(p[0.536910189715436, 0.00967384101272461, 0.17193273420573, -1.17051615146825, 1.17162081917624, -1.18740826972426], a = 0.2, v = 0.2, t = 0.2)
movej(p[0.536180630918735, 0.00976154081432011, 0.17192780800466, -1.16840783995125, 1.1654524786444, -1.19747912625128], a = 0.2, v = 0.2, t = 0.2)
movej(p[0.535708504467565, 0.00997560935426376, 0.171912697818958, -1.16733276791104, 1.16043815526853, -1.19811355151426], a = 0.2, v = 0.2, t = 0.2)
movej(p[0.535746252998912, 0.0100075626177806, 0.172019913471882, -1.17279611544704, 1.15551260546789, -1.19848398256236], a = 0.2, v = 0.2, t = 0.2)
movej(p[0.536161025821511, 0.00995869478193692, 0.172203289732758, -1.17198588807693, 1.15519606851358, -1.1958091461532], a = 0.2, v = 0.2, t = 0.2)
movej(p[0.537097302973694, 0.0100261188224361, 0.17228354483081, -1.16859083330953, 1.16083649069144, -1.18527427507765], a = 0.2, v = 0.2, t = 0.2)
movej(p[0.537937983259264, 0.010070353089566, 0.172336069869271, -1.16615197400821, 1.16803656934106, -1.1731577075855], a = 0.2, v = 0.2, t = 0.2)
movej(p[0.538559873977448, 0.0100122135265057, 0.172380227144635, -1.17205493789418, 1.17213000622743, -1.17025461152765], a = 0.2, v = 0.2, t = 0.2)
movej(p[0.538800026571532, 0.00993376414411186, 0.172387765461481, -1.17616789218892, 1.17485304308853, -1.17152030589564], a = 0.2, v = 0.2, t = 0.2)
movej(p[0.538895621695524, 0.00996272238879723, 0.172304156609475, -1.18058189827901, 1.17561660527421, -1.17390745665027], a = 0.2, v = 0.2, t = 0.2)
movej(p[0.538854117377267, 0.00984629643792611, 0.172261145269926, -1.17741471383767, 1.17720933881931, -1.16610354412319], a = 0.2, v = 0.2, t = 0.2)
movej(p[0.538483138367757, 0.0097490151633978, 0.172166538657424, -1.17432037277262, 1.17574732338844, -1.17427242976231], a = 0.2, v = 0.2, t = 0.2)
movej(p[0.53787460974071, 0.00972272307374935, 0.172034429445837, -1.17444010813552, 1.17223309346086, -1.18403360069554], a = 0.2, v = 0.2, t = 0.2)
movej(p[0.536864555183893, 0.00974976230001056, 0.1719117903697, -1.17151229825975, 1.16847343408781, -1.19075668936453], a = 0.2, v = 0.2, t = 0.2)
movej(p[0.535790861196322, 0.00969812257409517, 0.17194515469589, -1.17459567380027, 1.16057012430476, -1.19979094609567], a = 0.2, v = 0.2, t = 0.2)
movej(p[0.534893107246681, 0.00982640298493498, 0.171952707211927, -1.17103054178488, 1.1531805152238, -1.2045192203409], a = 0.2, v = 0.2, t = 0.2)
movej(p[0.534354778352669, 0.0100624006629187, 0.171919145748043, -1.17167756547583, 1.14541008048949, -1.2056268467871], a = 0.2, v = 0.2, t = 0.2)
movej(p[0.534152025210061, 0.010143999087424, 0.171947111382415, -1.16790564703819, 1.14141534523737, -1.1972662526557], a = 0.2, v = 0.2, t = 0.2)
movej(p[0.534344145854377, 0.0100800270262758, 0.17207136532426, -1.16984082468755, 1.13975916742068, -1.19870874249403], a = 0.2, v = 0.2, t = 0.2)
movej(p[0.535117520843552, 0.0100875093487858, 0.172191983504468, -1.176436930863, 1.14136627172475, -1.1996955100575], a = 0.2, v = 0.2, t = 0.2)
movej(p[0.536169718564168, 0.0101905971218747, 0.172254319115446, -1.18118540994269, 1.14567942947172, -1.19886970043879], a = 0.2, v = 0.2, t = 0.2)
movej(p[0.537250553182644, 0.0101667188561877, 0.172347030454868, -1.18535090170753, 1.1520386741669, -1.1941423809979], a = 0.2, v = 0.2, t = 0.2)
movej(p[0.538073309814806, 0.0102081615450033, 0.172326659658001, -1.18013026770264, 1.16121821491794, -1.18452926967101], a = 0.2, v = 0.2, t = 0.2)
movej(p[0.538639788287512, 0.0102296194514785, 0.17229157685664, -1.18366918500602, 1.16765133338362, -1.18249904865744], a = 0.2, v = 0.2, t = 0.2)
movej(p[0.538806449723435, 0.010127817746491, 0.172254056821434, -1.18115195837439, 1.17306036010979, -1.17607450596121], a = 0.2, v = 0.2, t = 0.2)
movej(p[0.538664897753846, 0.0100146730005512, 0.172233675443374, -1.18650937379066, 1.17403091048591, -1.18805212120853], a = 0.2, v = 0.2, t = 0.2)
movej(p[0.538238362856847, 0.0099389507877247, 0.172099753679544, -1.18779877354571, 1.17290552523705, -1.19403345826652], a = 0.2, v = 0.2, t = 0.2)
movej(p[0.537390273210241, 0.00988178404817537, 0.172000593710761, -1.18570052572002, 1.17176717420645, -1.19621277540512], a = 0.2, v = 0.2, t = 0.2)
movej(p[0.536259931980689, 0.00970912291629623, 0.171995469678005, -1.17844838792033, 1.16700238083507, -1.19647118190473], a = 0.2, v = 0.2, t = 0.2)
movej(p[0.535077360832857, 0.00980129861000357, 0.171947147244239, -1.16948657370508, 1.16088305170858, -1.19610845963009], a = 0.2, v = 0.2, t = 0.2)
movej(p[0.534087743045932, 0.009985051529344, 0.17189727469432, -1.17086986258275, 1.14846492026717, -1.20217057087144], a = 0.2, v = 0.2, t = 0.2)
movej(p[0.533550332623822, 0.0101077755243385, 0.171915500069067, -1.17531836653901, 1.13875497381732, -1.2025995683265], a = 0.2, v = 0.2, t = 0.2)
movej(p[0.533476289423829, 0.0101106600506104, 0.172012425981324, -1.18460265859429, 1.12919579155643, -1.21720727532061], a = 0.2, v = 0.2, t = 0.2)
movej(p[0.534258278521895, 0.0101727506380109, 0.172068683085797, -1.18734077235269, 1.13032372952679, -1.21244143122104], a = 0.2, v = 0.2, t = 0.2)
movej(p[0.535426536960721, 0.0102400290882793, 0.172157550813321, -1.18861172274642, 1.13455041800533, -1.20800778663105], a = 0.2, v = 0.2, t = 0.2)
movej(p[0.536680741244512, 0.0102366201507936, 0.17227499127642, -1.18258341266777, 1.14584752965366, -1.19375244386295], a = 0.2, v = 0.2, t = 0.2)
movej(p[0.537692705926339, 0.0103124501323105, 0.172306274402976, -1.18869774079693, 1.15499404946765, -1.19936618144622], a = 0.2, v = 0.2, t = 0.2)
movej(p[0.538389410034101, 0.0103470005126668, 0.172253579466506, -1.18969570244098, 1.16500773799833, -1.19202228702859], a = 0.2, v = 0.2, t = 0.2)
movej(p[0.538731623543087, 0.01022957759188, 0.172251482943057, -1.195033536547, 1.17079319234094, -1.18742629768774], a = 0.2, v = 0.2, t = 0.2)
movej(p[0.538759942699837, 0.0100893415393953, 0.172254787535844, -1.18824423950534, 1.17463165885341, -1.18123200771076], a = 0.2, v = 0.2, t = 0.2)
movej(p[0.538774316847175, 0.010063665665766, 0.172190778504437, -1.18271759417977, 1.17858848515328, -1.17753726756304], a = 0.2, v = 0.2, t = 0.2)
movej(p[0.538519628330557, 0.00995531160892586, 0.172134924227266, -1.1805416267087, 1.17806958655787, -1.17816895809415], a = 0.2, v = 0.2, t = 0.2)
movej(p[0.537893193949486, 0.00980389826875092, 0.172095125730736, -1.17913641367247, 1.17711914061876, -1.18546128114651], a = 0.2, v = 0.2, t = 0.2)
movej(p[0.536938008052902, 0.00978506969806147, 0.171983991863293, -1.18408326387281, 1.16961727133816, -1.20806211339829], a = 0.2, v = 0.2, t = 0.2)
movej(p[0.53586056630134, 0.0099105868011904, 0.171877847642476, -1.18329791082638, 1.16144666938953, -1.21851529013189], a = 0.2, v = 0.2, t = 0.2)
movej(p[0.534853193133111, 0.00994119227046519, 0.171909818774495, -1.17744745507858, 1.15515020548365, -1.2094455773221], a = 0.2, v = 0.2, t = 0.2)
movej(p[0.534018609313322, 0.0100054926790797, 0.171991168253273, -1.174558379405, 1.14427278644855, -1.21221765759553], a = 0.2, v = 0.2, t = 0.2)
movej(p[0.533793553334381, 0.0101774962561314, 0.172013103291193, -1.17729248363585, 1.13643985168716, -1.21253383844265], a = 0.2, v = 0.2, t = 0.2)
movej(p[0.534161424760984, 0.0103164518976663, 0.17202845051695, -1.1779297560802, 1.13195290038156, -1.20972127085926], a = 0.2, v = 0.2, t = 0.2)
movej(p[0.535041987132217, 0.0102850395274087, 0.172150872374331, -1.18386509954153, 1.13211845074174, -1.20874586424617], a = 0.2, v = 0.2, t = 0.2)
movej(p[0.536177164405999, 0.0103209477017108, 0.172210365646131, -1.1827354994116, 1.14051666067087, -1.20289875583005], a = 0.2, v = 0.2, t = 0.2)
movej(p[0.53739785952214, 0.0104321802206141, 0.172216755866183, -1.18847085676367, 1.1507169240393, -1.19896199127767], a = 0.2, v = 0.2, t = 0.2)
movej(p[0.538321696053297, 0.0103863300733954, 0.172237714062112, -1.1815233282498, 1.16397060209497, -1.179531659572], a = 0.2, v = 0.2, t = 0.2)
movej(p[0.538666445942405, 0.0102719468002121, 0.172285060358439, -1.18862679892015, 1.16980082961784, -1.18653932694698], a = 0.2, v = 0.2, t = 0.2)
movej(p[0.538827751503055, 0.0102211973552624, 0.172219604063173, -1.1934218281244, 1.17128893819482, -1.19401651348212], a = 0.2, v = 0.2, t = 0.2)
movej(p[0.538749017517384, 0.0102274406193144, 0.172132519878069, -1.19971888275915, 1.17105545148143, -1.20215327353271], a = 0.2, v = 0.2, t = 0.2)
movej(p[0.538426802399741, 0.00996771556940646, 0.172105864145145, -1.18947469263503, 1.1719318027235, -1.19282078246566], a = 0.2, v = 0.2, t = 0.2)
movej(p[0.537759439132183, 0.00989263473165245, 0.172006769157693, -1.18047399699772, 1.17097634380846, -1.1967990537321], a = 0.2, v = 0.2, t = 0.2)
movej(p[0.536835596156397, 0.00992756315055356, 0.171854353528102, -1.17523941477483, 1.16667931613859, -1.20108983869897], a = 0.2, v = 0.2, t = 0.2)
movej(p[0.535824000012925, 0.0100274366871038, 0.171807778778395, -1.17386272966812, 1.15968497677501, -1.20728490557707], a = 0.2, v = 0.2, t = 0.2)
movej(p[0.534872389194987, 0.0101023689962922, 0.171875171592154, -1.16976179486887, 1.15308041989004, -1.21031041774275], a = 0.2, v = 0.2, t = 0.2)
movej(p[0.534326537526337, 0.0103092256546925, 0.171895334698844, -1.1731243187819, 1.14540191339428, -1.21416047863215], a = 0.2, v = 0.2, t = 0.2)
movej(p[0.534202034829135, 0.0104645108421062, 0.171909290155101, -1.17661163292299, 1.13806357740724, -1.2153039968542], a = 0.2, v = 0.2, t = 0.2)
movej(p[0.534508386254019, 0.0103953167222996, 0.171991269191174, -1.17202119474971, 1.13722006397832, -1.20074386711119], a = 0.2, v = 0.2, t = 0.2)
movej(p[0.53522881428463, 0.0103376834835573, 0.172106081612985, -1.17392690605616, 1.13848434202075, -1.20048904768351], a = 0.2, v = 0.2, t = 0.2)
movej(p[0.53623198813333, 0.0103643299437117, 0.172191370301843, -1.17730544094989, 1.14486515453339, -1.19683891908806], a = 0.2, v = 0.2, t = 0.2)
movej(p[0.537275889459151, 0.0103563994476031, 0.172273604294836, -1.1838668144758, 1.15226749768878, -1.19412992226808], a = 0.2, v = 0.2, t = 0.2)
movej(p[0.537983399033339, 0.0102759720121617, 0.172328068539738, -1.18274571710448, 1.16011940085282, -1.1885650403382], a = 0.2, v = 0.2, t = 0.2)
movej(p[0.53849049311259, 0.010285723867978, 0.172278629014263, -1.18269213010413, 1.16661968010439, -1.18345434731578], a = 0.2, v = 0.2, t = 0.2)
movej(p[0.538675939193427, 0.0102313892881065, 0.172224687981594, -1.18785810949636, 1.16853318824038, -1.18774152186184], a = 0.2, v = 0.2, t = 0.2)
movej(p[0.538630142814726, 0.0101155673682302, 0.172183952887351, -1.19048289618235, 1.169469319903, -1.19225008019944], a = 0.2, v = 0.2, t = 0.2)
movej(p[0.538284299798865, 0.0100136915511126, 0.172047108402014, -1.19322048779128, 1.16699861571427, -1.20856344006762], a = 0.2, v = 0.2, t = 0.2)
movej(p[0.537656736860788, 0.0099984207581388, 0.171884583396451, -1.19221932857303, 1.16348474990444, -1.21753473511742], a = 0.2, v = 0.2, t = 0.2)
movej(p[0.536758493083466, 0.00992821036885379, 0.171797643647542, -1.18820228650779, 1.16018989891936, -1.2187412094201], a = 0.2, v = 0.2, t = 0.2)
movej(p[0.535768519546057, 0.00995613577251712, 0.17180617522761, -1.18012062846828, 1.15587701899313, -1.22210145165081], a = 0.2, v = 0.2, t = 0.2)
movej(p[0.535093807928308, 0.0101901348585321, 0.17176947499752, -1.17684226924925, 1.15106834362177, -1.22183041096131], a = 0.2, v = 0.2, t = 0.2)
movej(p[0.534615236297072, 0.0104049837879121, 0.171760644195473, -1.17248931203782, 1.14695809353834, -1.21617299275855], a = 0.2, v = 0.2, t = 0.2)
movej(p[0.534468446951632, 0.0104439291060145, 0.171864531529942, -1.17780165438687, 1.14144806996317, -1.2151607706745], a = 0.2, v = 0.2, t = 0.2)
movej(p[0.534827762684081, 0.0103893747789281, 0.171970225984909, -1.18226739716372, 1.13888906797004, -1.21960358851345], a = 0.2, v = 0.2, t = 0.2)
movej(p[0.535771327018696, 0.0104476194189623, 0.172054462600173, -1.1856472219415, 1.14226207936269, -1.21503225678284], a = 0.2, v = 0.2, t = 0.2)
movej(p[0.537053736248373, 0.0103914196743894, 0.172160782655418, -1.17769553764432, 1.15221956340318, -1.19372704405216], a = 0.2, v = 0.2, t = 0.2)
movej(p[0.537925001412916, 0.0103684826553852, 0.17222397280716, -1.17516828206697, 1.16155543690925, -1.1874289300567], a = 0.2, v = 0.2, t = 0.2)
movej(p[0.538585997668968, 0.0103492685808653, 0.172224011684549, -1.18427067611925, 1.1667295245196, -1.19140870318898], a = 0.2, v = 0.2, t = 0.2)
movej(p[0.538773000684208, 0.0103295975222898, 0.172161474255157, -1.19139554325846, 1.17017427603057, -1.19573181428766], a = 0.2, v = 0.2, t = 0.2)
movej(p[0.538855452272441, 0.0101183390714834, 0.17217903125905, -1.19061508327558, 1.17364624041997, -1.1862204717391], a = 0.2, v = 0.2, t = 0.2)
movej(p[0.538675923183284, 0.00999098854747181, 0.172102087215222, -1.18073221971664, 1.17619131570241, -1.17968836994196], a = 0.2, v = 0.2, t = 0.2)
movej(p[0.538234206493456, 0.00994587889149395, 0.171951557840799, -1.17719630479344, 1.17529135638877, -1.18082432030086], a = 0.2, v = 0.2, t = 0.2)
movej(p[0.537407203635025, 0.0098657942491799, 0.171846992726569, -1.17315768486613, 1.17183623738903, -1.18461483154038], a = 0.2, v = 0.2, t = 0.2)
movej(p[0.536410088933164, 0.00984663179424119, 0.171800141790059, -1.17286677127466, 1.16557503421752, -1.20104908901468], a = 0.2, v = 0.2, t = 0.2)
movej(p[0.535545751815051, 0.010006827971265, 0.17174032585473, -1.1753792470181, 1.15694207575831, -1.21260796482474], a = 0.2, v = 0.2, t = 0.2)
movej(p[0.534858633701973, 0.0102689715933573, 0.171710564614197, -1.1808668772269, 1.14723807036964, -1.22336702950284], a = 0.2, v = 0.2, t = 0.2)
movej(p[0.53431580930152, 0.0102679111259659, 0.171794945864264, -1.17654619205017, 1.1436298696736, -1.21296899405575], a = 0.2, v = 0.2, t = 0.2)
movej(p[0.534062065743636, 0.0102982623604697, 0.171866852958466, -1.17560901079779, 1.13902734241144, -1.21370860097496], a = 0.2, v = 0.2, t = 0.2)
movej(p[0.534434013030122, 0.0103777666197409, 0.171880841973209, -1.17713692944148, 1.13642983412494, -1.21169359658863], a = 0.2, v = 0.2, t = 0.2)
movej(p[0.535351309537467, 0.0104180235747997, 0.171951715563376, -1.18534030703692, 1.13540904968911, -1.215926076349], a = 0.2, v = 0.2, t = 0.2)
movej(p[0.536448948711332, 0.0103698811667644, 0.172090255050691, -1.19244888920503, 1.14034284835728, -1.22039386668467], a = 0.2, v = 0.2, t = 0.2)
movej(p[0.537555600515415, 0.0103923288919041, 0.172147112816703, -1.19412956468667, 1.151665964348, -1.21230200295367], a = 0.2, v = 0.2, t = 0.2)
movej(p[0.538307627502905, 0.0103802122636174, 0.172164004825904, -1.19592294606163, 1.16051684912277, -1.20565542626618], a = 0.2, v = 0.2, t = 0.2)
movej(p[0.53866823648891, 0.0102243770464992, 0.172174524059102, -1.18469434724142, 1.16995049505078, -1.18572193148119], a = 0.2, v = 0.2, t = 0.2)
movej(p[0.538742615684927, 0.010136316154811, 0.17214379101085, -1.18851373564529, 1.17166593842768, -1.19623359156542], a = 0.2, v = 0.2, t = 0.2)
movej(p[0.53877443852401, 0.0101224464630765, 0.172083619755554, -1.19177881308566, 1.17204775177341, -1.19971429282127], a = 0.2, v = 0.2, t = 0.2)
movej(p[0.538676644591637, 0.0100307924711728, 0.172018639383447, -1.18930948717297, 1.17273625166926, -1.19458286055483], a = 0.2, v = 0.2, t = 0.2)
movej(p[0.538178082325156, 0.0098459448476301, 0.171971613573387, -1.18231060402493, 1.17179201731547, -1.19510051341068], a = 0.2, v = 0.2, t = 0.2)
movej(p[0.537486759757991, 0.00988185592375442, 0.171805008068555, -1.17337505958195, 1.17050684705534, -1.19759214221505], a = 0.2, v = 0.2, t = 0.2)
movej(p[0.536524988372717, 0.0099909111732568, 0.171708470836747, -1.17241922787198, 1.16503066361036, -1.20625453118314], a = 0.2, v = 0.2, t = 0.2)
movej(p[0.535565613135738, 0.0100778139324887, 0.171714844839253, -1.17445885739194, 1.15848868886371, -1.21170287838935], a = 0.2, v = 0.2, t = 0.2)
movej(p[0.534775429347839, 0.0101974860093134, 0.171741618008586, -1.17390502585126, 1.15130381740962, -1.21743753249543], a = 0.2, v = 0.2, t = 0.2)
movej(p[0.534289347139173, 0.0104247737581575, 0.171714299326918, -1.17559591258731, 1.14565695386962, -1.21532821932945], a = 0.2, v = 0.2, t = 0.2)
movej(p[0.534354663499518, 0.0104765153749031, 0.171773634920518, -1.17194383085519, 1.14262094838863, -1.20154942091713], a = 0.2, v = 0.2, t = 0.2)
movej(p[0.534855716855938, 0.0104102854890482, 0.171930547751858, -1.17485287148168, 1.14183462145642, -1.19987668698677], a = 0.2, v = 0.2, t = 0.2)
movej(p[0.535974555573418, 0.0104202930016896, 0.172037678751851, -1.18371359741925, 1.1438348492727, -1.20848340974663], a = 0.2, v = 0.2, t = 0.2)
movej(p[0.537222177697272, 0.0105155633441199, 0.172093057817591, -1.19052440241697, 1.15163795351809, -1.20927673619589], a = 0.2, v = 0.2, t = 0.2)
movej(p[0.538281232477448, 0.0104046590998977, 0.172186953441026, -1.18989070691373, 1.16190174433338, -1.19609115774388], a = 0.2, v = 0.2, t = 0.2)
movej(p[0.538696068049661, 0.0103088753962136, 0.17223135617803, -1.18758793545965, 1.16855530105932, -1.19570134832685], a = 0.2, v = 0.2, t = 0.2)
movej(p[0.53892499870352, 0.0102778967733258, 0.172186083523366, -1.18545959510055, 1.17315190977907, -1.19132554541157], a = 0.2, v = 0.2, t = 0.2)
movej(p[0.538897609436994, 0.0102314323564605, 0.17211148374843, -1.18400569378707, 1.17453412496053, -1.18878315703769], a = 0.2, v = 0.2, t = 0.2)
movej(p[0.538661832838014, 0.0100536847346983, 0.172102031740563, -1.18770723570654, 1.17272645709619, -1.1947230229932], a = 0.2, v = 0.2, t = 0.2)
movej(p[0.538104818489752, 0.00995141781432664, 0.171994993689258, -1.1835575625369, 1.17112641078146, -1.19868579841662], a = 0.2, v = 0.2, t = 0.2)
movej(p[0.537153709479024, 0.00997063370744055, 0.171868744744057, -1.18155642970134, 1.16728118859763, -1.20673584059183], a = 0.2, v = 0.2, t = 0.2)
movej(p[0.536039591922122, 0.0098886458099609, 0.171857843860147, -1.17121032958102, 1.16351488246412, -1.19923059554257], a = 0.2, v = 0.2, t = 0.2)
movej(p[0.534923869009281, 0.00991714077287298, 0.171913523284076, -1.17542400831858, 1.15247659539978, -1.21527706925053], a = 0.2, v = 0.2, t = 0.2)
movej(p[0.534160940409683, 0.0100997151576038, 0.1719204650548, -1.18101333258331, 1.14143371830093, -1.22255066420542], a = 0.2, v = 0.2, t = 0.2)
movej(p[0.533735905855867, 0.0102354800406333, 0.171909217037064, -1.17968400942543, 1.13445337852542, -1.21707325246669], a = 0.2, v = 0.2, t = 0.2)
movej(p[0.533698777131287, 0.0101258413610563, 0.172058515596252, -1.1742366937911, 1.13298551704817, -1.20529081018707], a = 0.2, v = 0.2, t = 0.2)
movej(p[0.534413929453927, 0.0101424346429145, 0.172147781571717, -1.1682052059232, 1.13613456360622, -1.19795991202185], a = 0.2, v = 0.2, t = 0.2)
movej(p[0.535599706693099, 0.0102577971272063, 0.172217712259464, -1.17397659245091, 1.14032741555146, -1.19959284240454], a = 0.2, v = 0.2, t = 0.2)
movej(p[0.536999767269925, 0.0103354540141586, 0.172265255006502, -1.17459822490038, 1.15128757830428, -1.18857523058727], a = 0.2, v = 0.2, t = 0.2)
movej(p[0.537970461098704, 0.0102763658147407, 0.172326572510931, -1.17731523118441, 1.16073468214816, -1.18618323852924], a = 0.2, v = 0.2, t = 0.2)
movej(p[0.538557661103852, 0.010282540548947, 0.172261190891462, -1.17997276832991, 1.16915289580352, -1.18209373456216], a = 0.2, v = 0.2, t = 0.2)
movej(p[0.538811120400884, 0.0102368693168463, 0.172183571926341, -1.18172845230915, 1.17318105819638, -1.18145642893399], a = 0.2, v = 0.2, t = 0.2)
movej(p[0.538782912685973, 0.010108186944387, 0.1721339071944, -1.17921779191147, 1.17649863456339, -1.17827609783237], a = 0.2, v = 0.2, t = 0.2)
movej(p[0.53850751103156, 0.00999383878081976, 0.172081302753178, -1.18285738712688, 1.17499255002577, -1.19063041564358], a = 0.2, v = 0.2, t = 0.2)
movej(p[0.537931508684061, 0.00997811058742025, 0.171950445426485, -1.18114698396275, 1.17346507699971, -1.19475124760191], a = 0.2, v = 0.2, t = 0.2)
movej(p[0.537084256298393, 0.00988342320002742, 0.171929539966706, -1.18129149450293, 1.16932827659312, -1.19977957557911], a = 0.2, v = 0.2, t = 0.2)
movej(p[0.536082463047587, 0.00986709049540352, 0.171926596023863, -1.17565215793699, 1.1635088731924, -1.20770480509377], a = 0.2, v = 0.2, t = 0.2)
movej(p[0.535300376222736, 0.0100517615697808, 0.171896813913764, -1.1769739017579, 1.15519003397436, -1.21776022103765], a = 0.2, v = 0.2, t = 0.2)
movej(p[0.534658286437346, 0.0102619051804796, 0.171834197417248, -1.17471459784134, 1.14756637498424, -1.21678148651566], a = 0.2, v = 0.2, t = 0.2)
movej(p[0.534285347816922, 0.0102996228724104, 0.171882539511827, -1.17910553533459, 1.14003327618804, -1.21646823509417], a = 0.2, v = 0.2, t = 0.2)
movej(p[0.534154495798378, 0.0102789960812425, 0.171921331270345, -1.17557140809133, 1.13737356380255, -1.21438957995431], a = 0.2, v = 0.2, t = 0.2)
movej(p[0.534615762087565, 0.0103383690621434, 0.171940353483644, -1.18161836905353, 1.13629815324851, -1.2170743041481], a = 0.2, v = 0.2, t = 0.2)
movej(p[0.535455526703237, 0.0103323164435201, 0.172002924564603, -1.17749095681874, 1.14143658019881, -1.2041198618652], a = 0.2, v = 0.2, t = 0.2)
movej(p[0.536412342438515, 0.0102475984460618, 0.172162516716165, -1.18665034653116, 1.1447136198768, -1.21113978708531], a = 0.2, v = 0.2, t = 0.2)
movej(p[0.537396195243369, 0.0102577984946774, 0.172216861181027, -1.18687491195355, 1.15379335565339, -1.2033470458161], a = 0.2, v = 0.2, t = 0.2)
movej(p[0.538130101540174, 0.0102791883364353, 0.172203675123475, -1.18969882566424, 1.16201359343299, -1.19794689133923], a = 0.2, v = 0.2, t = 0.2)
movej(p[0.538572490582227, 0.0101329485663926, 0.172225397318079, -1.18156385019939, 1.17094909148485, -1.17977114184192], a = 0.2, v = 0.2, t = 0.2)
movej(p[0.538661887525757, 0.0100083496093142, 0.172188549113475, -1.18460283053964, 1.17210872139049, -1.18962740943072], a = 0.2, v = 0.2, t = 0.2)
movej(p[0.538574964390977, 0.00999571168566528, 0.17211555891751, -1.18604534273883, 1.17318518631512, -1.19328036159843], a = 0.2, v = 0.2, t = 0.2)
movej(p[0.538188030929919, 0.00994875002888384, 0.172021272565228, -1.19104287042461, 1.17011323231721, -1.2016651979191], a = 0.2, v = 0.2, t = 0.2)
movej(p[0.537408270027005, 0.00975617564262257, 0.172051235324488, -1.18341696907204, 1.17010853443104, -1.19859041713074], a = 0.2, v = 0.2, t = 0.2)
movej(p[0.536561969511445, 0.00978219604918969, 0.171966309126502, -1.17413791769245, 1.16758465542118, -1.2022386064011], a = 0.2, v = 0.2, t = 0.2)
movej(p[0.535746898765509, 0.00998383997485607, 0.171864214695399, -1.16732812811073, 1.1637055709787, -1.20312104539953], a = 0.2, v = 0.2, t = 0.2)
movej(p[0.535027772062732, 0.0100921915508351, 0.171873448617923, -1.16675234600326, 1.15655846310286, -1.20037099785082], a = 0.2, v = 0.2, t = 0.2)
movej(p[0.534391035746718, 0.0101183582417462, 0.171957134231357, -1.16806744858588, 1.14791930850235, -1.20588419839671], a = 0.2, v = 0.2, t = 0.2)
movej(p[0.53429397656125, 0.0102529692373362, 0.171982754164976, -1.17321661241187, 1.14209757250572, -1.20915841435936], a = 0.2, v = 0.2, t = 0.2)
movej(p[0.534746324286019, 0.0103620460484909, 0.172008166673012, -1.17556089345503, 1.13951906883881, -1.20920106016343], a = 0.2, v = 0.2, t = 0.2)
movej(p[0.53570539514664, 0.0103977132393133, 0.172085876195638, -1.18146608974052, 1.14147328772298, -1.20944714478943], a = 0.2, v = 0.2, t = 0.2)
movej(p[0.536779840556697, 0.0104281774550452, 0.172140841327913, -1.18525397734953, 1.14748135992242, -1.21148272635779], a = 0.2, v = 0.2, t = 0.2)
movej(p[0.537865499164957, 0.0105295500154618, 0.172088885930633, -1.18566301511952, 1.15821980783634, -1.19915257099063], a = 0.2, v = 0.2, t = 0.2)
movej(p[0.538557560693402, 0.010430413799351, 0.172114978385986, -1.18637358338767, 1.16690046601251, -1.18667780020531], a = 0.2, v = 0.2, t = 0.2)
movej(p[0.538799032993337, 0.0102598773304728, 0.172174047862253, -1.18610763539078, 1.17354197201998, -1.18346261118127], a = 0.2, v = 0.2, t = 0.2)
movej(p[0.538871627133649, 0.0101856967013951, 0.172144507333179, -1.19657303926208, 1.17223349129043, -1.19928530497878], a = 0.2, v = 0.2, t = 0.2)
movej(p[0.538710467041698, 0.0101644725150788, 0.172037723086787, -1.19583092673568, 1.17166757431506, -1.20023052180108], a = 0.2, v = 0.2, t = 0.2)
movej(p[0.538330146232083, 0.00993394994943908, 0.171996056954202, -1.19172370265203, 1.16943074750669, -1.19622907630469], a = 0.2, v = 0.2, t = 0.2)
movej(p[0.537546322824435, 0.0098242089968943, 0.171950968568141, -1.18095628776008, 1.16779048457054, -1.20024142477706], a = 0.2, v = 0.2, t = 0.2)
movej(p[0.536687050909862, 0.00991116184986128, 0.171855355659557, -1.17625230728371, 1.16506086960082, -1.20506317241296], a = 0.2, v = 0.2, t = 0.2)
movej(p[0.535745934394911, 0.0100997901439139, 0.171808106606991, -1.1732397026013, 1.15936206366887, -1.20887874887574], a = 0.2, v = 0.2, t = 0.2)
movej(p[0.534883158732606, 0.0101103905630835, 0.171948594484236, -1.17790464151544, 1.15169757015498, -1.21516928970999], a = 0.2, v = 0.2, t = 0.2)
movej(p[0.534269094531978, 0.0102347681547816, 0.172011701145426, -1.17810034387669, 1.14321492262423, -1.21988704378372], a = 0.2, v = 0.2, t = 0.2)
movej(p[0.534252135375001, 0.0104151627948804, 0.17202935222421, -1.18199823543737, 1.13650577308168, -1.22035699925808], a = 0.2, v = 0.2, t = 0.2)
movej(p[0.534823931280967, 0.0104876509480192, 0.17207365501052, -1.17858146686505, 1.13730818215109, -1.20897291694467], a = 0.2, v = 0.2, t = 0.2)
movej(p[0.535745180743757, 0.0104338986748857, 0.172178852762118, -1.18402122393684, 1.13943991070181, -1.21299428807621], a = 0.2, v = 0.2, t = 0.2)
movej(p[0.536963755202175, 0.0104719753877297, 0.172212317796568, -1.18392367510777, 1.15111683298432, -1.20576776424013], a = 0.2, v = 0.2, t = 0.2)
movej(p[0.537974466493362, 0.0104816481260055, 0.172218207856179, -1.18642132785308, 1.1596377550889, -1.20098333836965], a = 0.2, v = 0.2, t = 0.2)
movej(p[0.538606318956442, 0.0103674087718447, 0.172274822508077, -1.17720734596226, 1.17238893097501, -1.18133557583633], a = 0.2, v = 0.2, t = 0.2)
movej(p[0.53886973953035, 0.0103092396786546, 0.172269866173514, -1.18175234496876, 1.17558556480194, -1.19114517167856], a = 0.2, v = 0.2, t = 0.2)
movej(p[0.538981416724318, 0.0102981159771887, 0.17220266800507, -1.18546351338596, 1.17703341713475, -1.19478470105162], a = 0.2, v = 0.2, t = 0.2)
movej(p[0.538989819536657, 0.0102013612107761, 0.172168573209789, -1.18593017082899, 1.1779842363354, -1.19243675385157], a = 0.2, v = 0.2, t = 0.2)
movej(p[0.538700055735671, 0.00997792325936985, 0.172155611755035, -1.18054479389032, 1.17733212378062, -1.19115103523981], a = 0.2, v = 0.2, t = 0.2)
movej(p[0.538168919589859, 0.00995458518643569, 0.172026642771692, -1.17716180835094, 1.1754041981428, -1.19813772741923], a = 0.2, v = 0.2, t = 0.2)
movej(p[0.5372488662622, 0.00996958397928733, 0.171898122436043, -1.1757483046877, 1.17101421185739, -1.20704789732577], a = 0.2, v = 0.2, t = 0.2)
movej(p[0.536175367360758, 0.00995741328237239, 0.171927337136809, -1.17668748947828, 1.16594303019926, -1.21335731410771], a = 0.2, v = 0.2, t = 0.2)
movej(p[0.535276921201389, 0.0100146282858643, 0.172018513233398, -1.17233507576507, 1.16056065993568, -1.2144407332482], a = 0.2, v = 0.2, t = 0.2)
movej(p[0.534602633305592, 0.0102400523028491, 0.172099815530272, -1.1729672806418, 1.15298356631033, -1.21345082733039], a = 0.2, v = 0.2, t = 0.2)
movej(p[0.53404598091896, 0.010368797124479, 0.172305789651233, -1.17566227845176, 1.14472735220874, -1.20858713498649], a = 0.2, v = 0.2, t = 0.2)
movej(p[0.533532025675253, 0.0103576342038818, 0.17258961504838, -1.17845060334504, 1.13788922180126, -1.2068664212552], a = 0.2, v = 0.2, t = 0.2)
movej(p[0.533544318658659, 0.0104160316449177, 0.172777861650048, -1.18204468880395, 1.1329453525152, -1.21394753637197], a = 0.2, v = 0.2, t = 0.2)
movej(p[0.534269447084968, 0.0105978587440991, 0.172787025500918, -1.18453122768436, 1.1311245995307, -1.2166076607456], a = 0.2, v = 0.2, t = 0.2)
movej(p[0.535394576204153, 0.010611053100013, 0.172811152666805, -1.1816123195255, 1.13494213176497, -1.20854282327377], a = 0.2, v = 0.2, t = 0.2)
movej(p[0.536424870343014, 0.0105928471733228, 0.172855974314063, -1.18323010289372, 1.14144287361199, -1.2138536333294], a = 0.2, v = 0.2, t = 0.2)
movej(p[0.537396782082432, 0.0105642981757459, 0.172849295997049, -1.18988002626695, 1.14984473189569, -1.21468208371734], a = 0.2, v = 0.2, t = 0.2)
movej(p[0.53814016214753, 0.0105509272729725, 0.17278590475496, -1.193185635651, 1.15921253387116, -1.2123049011537], a = 0.2, v = 0.2, t = 0.2)
movej(p[0.538610950006824, 0.0103504605450372, 0.172787149402883, -1.1943811199488, 1.16654790367405, -1.2047410586327], a = 0.2, v = 0.2, t = 0.2)
movej(p[0.538770310427517, 0.0102883002402477, 0.172707769068252, -1.1871469811412, 1.1727108853192, -1.197497627279], a = 0.2, v = 0.2, t = 0.2)
movej(p[0.538866840560111, 0.0102941112328554, 0.172591000137384, -1.18887162656217, 1.17484192331523, -1.19911491933212], a = 0.2, v = 0.2, t = 0.2)
movej(p[0.538867948917554, 0.0102382466272082, 0.172526072581842, -1.18476137627416, 1.17765559315712, -1.19100593300619], a = 0.2, v = 0.2, t = 0.2)
movej(p[0.538795387259638, 0.0100760531390985, 0.172520553592411, -1.18755880278702, 1.17694981475468, -1.19516583816574], a = 0.2, v = 0.2, t = 0.2)
movej(p[0.53855567681314, 0.0100258127177618, 0.172409305563333, -1.18526849559541, 1.1779512074771, -1.19492969124808], a = 0.2, v = 0.2, t = 0.2)
movej(p[0.537975082346614, 0.00996726038449167, 0.172284509589226, -1.18441745383071, 1.17477228823289, -1.20065822845021], a = 0.2, v = 0.2, t = 0.2)
movej(p[0.537012830069215, 0.00982889257854851, 0.172271519111255, -1.17925879563883, 1.17206775510432, -1.20076921673797], a = 0.2, v = 0.2, t = 0.2)
movej(p[0.536035435502552, 0.00987049412836264, 0.172285090445424, -1.17946605537292, 1.16364990281017, -1.21697707870417], a = 0.2, v = 0.2, t = 0.2)
movej(p[0.535289467271642, 0.0101169820302416, 0.172267698343774, -1.18326911565719, 1.15558798717781, -1.2248888243676], a = 0.2, v = 0.2, t = 0.2)
movej(p[0.534726092394223, 0.0103066733271343, 0.172302368666832, -1.18296200545052, 1.14778735108869, -1.22461420435929], a = 0.2, v = 0.2, t = 0.2)
movej(p[0.534367751855568, 0.0103060537141547, 0.172425777489633, -1.17875259339011, 1.14413699972083, -1.21404607546505], a = 0.2, v = 0.2, t = 0.2)
movej(p[0.534590325205201, 0.0103195992212815, 0.172515578252052, -1.18106460474783, 1.14113673763395, -1.21755803542858], a = 0.2, v = 0.2, t = 0.2)
movej(p[0.535355696217621, 0.0103988978321877, 0.172551402387149, -1.18580934615673, 1.14069969673107, -1.21671085746958], a = 0.2, v = 0.2, t = 0.2)
movej(p[0.536481749732002, 0.0103499644813811, 0.172649661058155, -1.18919917888305, 1.14443154738997, -1.21262136531017], a = 0.2, v = 0.2, t = 0.2)
movej(p[0.537385927115342, 0.0103398901060659, 0.172682444362786, -1.18796994558562, 1.15207822693449, -1.21196239979593], a = 0.2, v = 0.2, t = 0.2)
movej(p[0.538248610726701, 0.0103928862287635, 0.172637847573704, -1.1965121556943, 1.1594797086206, -1.21634880538152], a = 0.2, v = 0.2, t = 0.2)
movej(p[0.5386950288402, 0.0104074317124744, 0.172544734359794, -1.19558320778339, 1.16770706893751, -1.20808502128614], a = 0.2, v = 0.2, t = 0.2)
movej(p[0.53884893014093, 0.0102215906444432, 0.172532745454901, -1.19724668011114, 1.17147346031043, -1.20227939506906], a = 0.2, v = 0.2, t = 0.2)
movej(p[0.538524588853449, 0.0101035353337093, 0.172411723008783, -1.182730720164, 1.17454148452701, -1.19243877123296], a = 0.2, v = 0.2, t = 0.2)
movej(p[0.537819938277689, 0.0100980237269211, 0.172218834504498, -1.17940464568463, 1.17132345064895, -1.1987195254002], a = 0.2, v = 0.2, t = 0.2)
movej(p[0.536740512694334, 0.0100730678272288, 0.172119473876638, -1.17065979712848, 1.16719730115033, -1.1969251737683], a = 0.2, v = 0.2, t = 0.2)
movej(p[0.535578895809475, 0.0100900696976294, 0.17218802461196, -1.17713876307027, 1.15838577941279, -1.21703935088275], a = 0.2, v = 0.2, t = 0.2)
movej(p[0.534743253293733, 0.0103088093900556, 0.172257354990164, -1.18450732862801, 1.14946297994135, -1.22834488261547], a = 0.2, v = 0.2, t = 0.2)
movej(p[0.534239520943319, 0.0105778880083553, 0.172295627103525, -1.19227852654049, 1.13919747525874, -1.23775275369319], a = 0.2, v = 0.2, t = 0.2)
movej(p[0.534164965249043, 0.010545709009084, 0.172413558987174, -1.18638596100575, 1.13622691650277, -1.22001549602847], a = 0.2, v = 0.2, t = 0.2)
movej(p[0.534396661877176, 0.0104867451467697, 0.17249317877279, -1.1837722983528, 1.13451946789588, -1.22037699195246], a = 0.2, v = 0.2, t = 0.2)
movej(p[0.535132643769576, 0.0105040477370139, 0.172531013367159, -1.18754276414079, 1.13635366860132, -1.2191437530856], a = 0.2, v = 0.2, t = 0.2)
movej(p[0.535952862861112, 0.0104849231338779, 0.172583727607491, -1.19136990178861, 1.14101873799399, -1.21969260911625], a = 0.2, v = 0.2, t = 0.2)
movej(p[0.536608829566012, 0.0103256067908549, 0.172670346833467, -1.18713121925241, 1.14856590445225, -1.20927125000822], a = 0.2, v = 0.2, t = 0.2)
movej(p[0.537024426101169, 0.0102752406280317, 0.172622656815335, -1.18233101612376, 1.15532818745254, -1.20520466150632], a = 0.2, v = 0.2, t = 0.2)
movej(p[0.537492975070765, 0.0102931412776352, 0.172434705803605, -1.2055807636519, 1.1464635950381, -1.22178787153011], a = 0.2, v = 0.2, t = 0.2)
movej(p[0.537594448219805, 0.0102838465442968, 0.172316072769184, -1.21165903138545, 1.14878984434959, -1.22672012692329], a = 0.2, v = 0.2, t = 0.2)
movej(p[0.537268201745663, 0.0100928438316483, 0.172266415695247, -1.20289332271752, 1.15154961410421, -1.21846063556766], a = 0.2, v = 0.2, t = 0.2)
movej(p[0.536652835323594, 0.0101461003790004, 0.172175625741236, -1.19475260430214, 1.15122692343592, -1.22382719597726], a = 0.2, v = 0.2, t = 0.2)
movej(p[0.535895337015371, 0.010391900252916, 0.172070236710601, -1.1924779039649, 1.14801465125326, -1.23179563020669], a = 0.2, v = 0.2, t = 0.2)
movej(p[0.535259335571667, 0.0106071299230202, 0.172071405305534, -1.19186807986335, 1.14282748665909, -1.23379068022511], a = 0.2, v = 0.2, t = 0.2)
movej(p[0.534725240809204, 0.0105223855921057, 0.172210239370472, -1.19008830828866, 1.13857350539831, -1.23120762387192], a = 0.2, v = 0.2, t = 0.2)
movej(p[0.534920935417575, 0.0104955361324955, 0.172276973515204, -1.18485211945257, 1.13684725063483, -1.2230669853436], a = 0.2, v = 0.2, t = 0.2)
movej(p[0.53560437053393, 0.0105116337560192, 0.172291842635867, -1.18382955638914, 1.13843788253583, -1.2156954426783], a = 0.2, v = 0.2, t = 0.2)
movej(p[0.536724942677501, 0.0105192341654804, 0.172343987020322, -1.18323705661412, 1.14568583328226, -1.20294676518175], a = 0.2, v = 0.2, t = 0.2)
movej(p[0.53762062320953, 0.0105098411858784, 0.172368561205532, -1.18890294662053, 1.1534582615591, -1.2047635660717], a = 0.2, v = 0.2, t = 0.2)
movej(p[0.53826684363406, 0.010540855933683, 0.172313673678372, -1.19160498385895, 1.16186220570111, -1.20098285636371], a = 0.2, v = 0.2, t = 0.2)
movej(p[0.538570400321045, 0.0104500448777843, 0.172255795514637, -1.19080199135232, 1.16686876033887, -1.19645470971792], a = 0.2, v = 0.2, t = 0.2)
movej(p[0.53854267709248, 0.0102676410791192, 0.172246189877361, -1.1873508828319, 1.17145849587258, -1.19444791450688], a = 0.2, v = 0.2, t = 0.2)
movej(p[0.538238403250684, 0.0101625776748644, 0.172170535941564, -1.19137673485012, 1.16939524590636, -1.20752840197276], a = 0.2, v = 0.2, t = 0.2)
movej(p[0.537587276547538, 0.0101642947154535, 0.172052845448227, -1.19267277755727, 1.16637949132079, -1.2184387524432], a = 0.2, v = 0.2, t = 0.2)
movej(p[0.536731716002029, 0.0101012994783217, 0.172051827034279, -1.19462644893038, 1.16242162609985, -1.22502545919474], a = 0.2, v = 0.2, t = 0.2)
movej(p[0.535828968148232, 0.0101669062020585, 0.172092782062725, -1.18931587544665, 1.15796195890832, -1.23115650830098], a = 0.2, v = 0.2, t = 0.2)
movej(p[0.535160809915693, 0.0103949423120471, 0.172108328937052, -1.18746268085897, 1.15290237654584, -1.23190779474902], a = 0.2, v = 0.2, t = 0.2)
movej(p[0.534759102371029, 0.0105813656457611, 0.172114141243531, -1.18275654668151, 1.14571919289944, -1.22469324421472], a = 0.2, v = 0.2, t = 0.2)
movej(p[0.534711748319798, 0.0105048391388347, 0.172263007875352, -1.18527567888341, 1.14096116075174, -1.21779129941688], a = 0.2, v = 0.2, t = 0.2)
movej(p[0.53512469010975, 0.01041663745463, 0.17238600011572, -1.18826529791631, 1.13937859312084, -1.22188890917067], a = 0.2, v = 0.2, t = 0.2)
movej(p[0.536126860733338, 0.0104515899971544, 0.17241536611045, -1.19472532393194, 1.14224634162028, -1.22328259733605], a = 0.2, v = 0.2, t = 0.2)
movej(p[0.537218054857059, 0.0104435131251528, 0.172413352960696, -1.1906802307791, 1.15047739399313, -1.21048225129066], a = 0.2, v = 0.2, t = 0.2)
movej(p[0.537964636056168, 0.0103217028347733, 0.172471476812392, -1.19902499530738, 1.15536856996689, -1.21384517207745], a = 0.2, v = 0.2, t = 0.2)
movej(p[0.538389296937614, 0.0102578349992673, 0.172428723692284, -1.20084682424096, 1.16153576614939, -1.20944878820108], a = 0.2, v = 0.2, t = 0.2)
movej(p[0.538558717266658, 0.0102308095934875, 0.172338687040769, -1.20437133563966, 1.16418810785388, -1.21025221535124], a = 0.2, v = 0.2, t = 0.2)
movej(p[0.538514552037302, 0.0100708011518074, 0.172282631878473, -1.19722529378631, 1.16654145088186, -1.2013970793887], a = 0.2, v = 0.2, t = 0.2)
movej(p[0.538178538216125, 0.00996414874437663, 0.172173712698218, -1.19916984332412, 1.16432659470576, -1.21696131901074], a = 0.2, v = 0.2, t = 0.2)
movej(p[0.53759207900036, 0.0100078828370234, 0.172030903305377, -1.20138066295265, 1.16048361422245, -1.22992117898196], a = 0.2, v = 0.2, t = 0.2)
movej(p[0.536810161086874, 0.0100816858443358, 0.171951128827118, -1.19786436950518, 1.15816465866577, -1.23346039923851], a = 0.2, v = 0.2, t = 0.2)
movej(p[0.535878491672267, 0.0100546759134817, 0.17204987746924, -1.18338442168207, 1.15749874611508, -1.21934954423862], a = 0.2, v = 0.2, t = 0.2)
movej(p[0.535236256105434, 0.0102273771871749, 0.172083034787054, -1.17637817460343, 1.15366141261889, -1.22037964318828], a = 0.2, v = 0.2, t = 0.2)
movej(p[0.534972360624852, 0.0104809658462972, 0.172078668241909, -1.18110690200447, 1.14745499983188, -1.22340051714879], a = 0.2, v = 0.2, t = 0.2)
movej(p[0.535225807369063, 0.0105337385265436, 0.172145443013854, -1.18624394086113, 1.14319736892077, -1.22287561470763], a = 0.2, v = 0.2, t = 0.2)
movej(p[0.535801505399938, 0.0104607352450416, 0.172274755544708, -1.19011284783578, 1.14228666396902, -1.22514209904477], a = 0.2, v = 0.2, t = 0.2)
movej(p[0.536716940966064, 0.0104600721901546, 0.172302605877399, -1.19221097404561, 1.14687507676157, -1.22512183636658], a = 0.2, v = 0.2, t = 0.2)
movej(p[0.5376694796301, 0.0105270789114533, 0.172266353016594, -1.19452608227471, 1.15396931240788, -1.21915552583735], a = 0.2, v = 0.2, t = 0.2)
movej(p[0.538401626383077, 0.0103977864156682, 0.172296018087007, -1.19586702246772, 1.16207778615975, -1.20696726678451], a = 0.2, v = 0.2, t = 0.2)
movej(p[0.53860251879518, 0.0103060019865756, 0.172292540451004, -1.19511626835084, 1.16575992424317, -1.20806087726594], a = 0.2, v = 0.2, t = 0.2)
movej(p[0.538793639484482, 0.0102973041856304, 0.172212764282752, -1.19996857603686, 1.16621997014194, -1.21429484807737], a = 0.2, v = 0.2, t = 0.2)
movej(p[0.538840302575044, 0.0102929278069104, 0.172123554956841, -1.19987997050975, 1.16752946821224, -1.21445685702591], a = 0.2, v = 0.2, t = 0.2)
movej(p[0.53889405359524, 0.0100740454984221, 0.17215352203202, -1.19273974188553, 1.17145142159212, -1.20406252033579], a = 0.2, v = 0.2, t = 0.2)
movej(p[0.538821019966611, 0.00999653916231915, 0.172101507005794, -1.18541827130468, 1.17402384058427, -1.20335271998199], a = 0.2, v = 0.2, t = 0.2)
movej(p[0.538677651589471, 0.0100113822494847, 0.17200720641142, -1.18822440481779, 1.17260700312745, -1.20579250841761], a = 0.2, v = 0.2, t = 0.2)
movej(p[0.538202048112535, 0.00993017831166393, 0.171956208575102, -1.19128536830431, 1.16995749220369, -1.21089620379531], a = 0.2, v = 0.2, t = 0.2)
movej(p[0.53737704345843, 0.0097149022683496, 0.172015466414927, -1.18919952405846, 1.16762354775185, -1.21665594098675], a = 0.2, v = 0.2, t = 0.2)
movej(p[0.536520505117539, 0.00979404425915334, 0.171981566844506, -1.18484344089411, 1.16442537967629, -1.22356873511551], a = 0.2, v = 0.2, t = 0.2)
movej(p[0.535738722346684, 0.0100234372321607, 0.17193907810094, -1.18301969899033, 1.15816388977723, -1.22860538812195], a = 0.2, v = 0.2, t = 0.2)
movej(p[0.535116004051618, 0.0101625699176202, 0.171985578615028, -1.18165623512442, 1.15140136549945, -1.22277991259541], a = 0.2, v = 0.2, t = 0.2)
movej(p[0.534515430591666, 0.0101828169231279, 0.172101383177311, -1.18147551564109, 1.14317131631132, -1.22594351306359], a = 0.2, v = 0.2, t = 0.2)
movej(p[0.534535334097988, 0.010315921788959, 0.172133625515815, -1.18213722818645, 1.13892060262712, -1.22178047002553], a = 0.2, v = 0.2, t = 0.2)
movej(p[0.535088465720871, 0.0104398627281055, 0.172141949671675, -1.1885180685117, 1.13449649108765, -1.22696693145447], a = 0.2, v = 0.2, t = 0.2)
movej(p[0.536157519054163, 0.0103916818521344, 0.172222642397292, -1.19032772642266, 1.13851961932825, -1.21788098986826], a = 0.2, v = 0.2, t = 0.2)
movej(p[0.537204090046069, 0.0103951896127394, 0.172240765813541, -1.1854747740705, 1.1474692287345, -1.21566554413431], a = 0.2, v = 0.2, t = 0.2)
movej(p[0.538142119236913, 0.0104816369179236, 0.172142091191419, -1.18518020356462, 1.15798311751333, -1.20661967552361], a = 0.2, v = 0.2, t = 0.2)
movej(p[0.538690325545033, 0.0104986945900504, 0.172056795396918, -1.1831781243495, 1.16828155869865, -1.19659437007857], a = 0.2, v = 0.2, t = 0.2)
movej(p[0.538860232406162, 0.0103191310400529, 0.172061721380954, -1.19229390416625, 1.17039325066439, -1.20141987771885], a = 0.2, v = 0.2, t = 0.2)
movej(p[0.538870630492253, 0.0102236521344126, 0.172038435408753, -1.19137304822408, 1.17254108905632, -1.20418983078127], a = 0.2, v = 0.2, t = 0.2)
movej(p[0.538888850224157, 0.010252661845527, 0.171944269281985, -1.19195414682235, 1.17209605058231, -1.20762510526024], a = 0.2, v = 0.2, t = 0.2)
movej(p[0.538867918812756, 0.0101680438125445, 0.171880950912518, -1.18484350173934, 1.17463266455609, -1.19744215683777], a = 0.2, v = 0.2, t = 0.2)
movej(p[0.538637066482678, 0.0100149093342161, 0.171888826815289, -1.18938225319214, 1.17198317914109, -1.21004228026042], a = 0.2, v = 0.2, t = 0.2)
movej(p[0.538169269592451, 0.0100174312356924, 0.171788469399983, -1.18574776115129, 1.17074702236125, -1.21131563054317], a = 0.2, v = 0.2, t = 0.2)
movej(p[0.537424188657281, 0.0100401523828047, 0.171730863347178, -1.18689174533844, 1.16590174089958, -1.22173621621627], a = 0.2, v = 0.2, t = 0.2)
movej(p[0.53652705360726, 0.0100186396937997, 0.171812306493218, -1.17940606357941, 1.16412966390835, -1.21776969187258], a = 0.2, v = 0.2, t = 0.2)
movej(p[0.53570347736035, 0.0100944098493754, 0.171923812091507, -1.18336982460142, 1.15693798497427, -1.23526642929765], a = 0.2, v = 0.2, t = 0.2)
movej(p[0.535185951026609, 0.0103654163980198, 0.171947589471012, -1.19019836459999, 1.1489566478613, -1.24238604192194], a = 0.2, v = 0.2, t = 0.2)
movej(p[0.535008052369976, 0.0105276739518958, 0.171973353878209, -1.19141602926374, 1.14229978304049, -1.24134100605422], a = 0.2, v = 0.2, t = 0.2)
movej(p[0.535028205110407, 0.0104773079848763, 0.17212160591165, -1.19356345991926, 1.1390815708832, -1.23634573782949], a = 0.2, v = 0.2, t = 0.2)
movej(p[0.535628686907464, 0.0104827416420766, 0.172211444054846, -1.19583794011287, 1.13956666744499, -1.23810799223989], a = 0.2, v = 0.2, t = 0.2)
movej(p[0.536583980794833, 0.0105558156562097, 0.172241529220859, -1.20186247675558, 1.14347267046872, -1.23557620445181], a = 0.2, v = 0.2, t = 0.2)
movej(p[0.537676083313079, 0.0105112889773623, 0.172270570486512, -1.20058953578324, 1.15113746313692, -1.22109997739561], a = 0.2, v = 0.2, t = 0.2)
movej(p[0.538289567607722, 0.0104304574168393, 0.172269770455258, -1.19434310433005, 1.15957670636866, -1.21118310025993], a = 0.2, v = 0.2, t = 0.2)
movej(p[0.538721086887792, 0.0104142839933213, 0.172203069086458, -1.18787240089087, 1.16738820942006, -1.19952681519758], a = 0.2, v = 0.2, t = 0.2)
movej(p[0.538869289692625, 0.0103714223305055, 0.172132231215306, -1.18953518669431, 1.17049953822205, -1.19875002622183], a = 0.2, v = 0.2, t = 0.2)
movej(p[0.538965850857099, 0.0101992856565873, 0.172141574154712, -1.19005940917392, 1.17384321333377, -1.19332713244944], a = 0.2, v = 0.2, t = 0.2)
movej(p[0.53893288856165, 0.0101183689229384, 0.172125261141676, -1.18830268501705, 1.17558394931765, -1.19475300631261], a = 0.2, v = 0.2, t = 0.2)
movej(p[0.538911834860164, 0.0101414480063355, 0.172038541489559, -1.18319267126882, 1.17798716314524, -1.18935540465676], a = 0.2, v = 0.2, t = 0.2)
movej(p[0.538643574506542, 0.0100266884311955, 0.171987480260742, -1.17703681008892, 1.17780344648171, -1.18359568835975], a = 0.2, v = 0.2, t = 0.2)
movej(p[0.538023745648172, 0.00985672193776639, 0.171964553186294, -1.18141301693283, 1.17364910857541, -1.20268973056937], a = 0.2, v = 0.2, t = 0.2)
movej(p[0.537330889426475, 0.00985040804780191, 0.171875264827314, -1.17945928339355, 1.17072548992551, -1.21039610825337], a = 0.2, v = 0.2, t = 0.2)
movej(p[0.536579682902546, 0.00998104781408402, 0.171800764814084, -1.17748997805491, 1.16600991391065, -1.21786356616565], a = 0.2, v = 0.2, t = 0.2)
movej(p[0.535839505598874, 0.00996775248103608, 0.171886437797271, -1.16978754075368, 1.16234431793492, -1.2062558132141], a = 0.2, v = 0.2, t = 0.2)
movej(p[0.535182668477865, 0.0100604974472503, 0.171952565054939, -1.16807489539126, 1.15600198144377, -1.21160749289305], a = 0.2, v = 0.2, t = 0.2)
movej(p[0.534920568726888, 0.0102883292918185, 0.171974477214541, -1.17478583183352, 1.1488969085708, -1.21581494045755], a = 0.2, v = 0.2, t = 0.2)
movej(p[0.535130059086702, 0.0104448914511667, 0.172025490679479, -1.17867340093003, 1.14435334155982, -1.216261165579], a = 0.2, v = 0.2, t = 0.2)
movej(p[0.535715071479937, 0.0103728248572103, 0.172150771750264, -1.17641162627374, 1.14547353620607, -1.20898056963645], a = 0.2, v = 0.2, t = 0.2)
movej(p[0.536717470738303, 0.0103938278600584, 0.172202343952066, -1.17926079925547, 1.14949258929928, -1.21027077536607], a = 0.2, v = 0.2, t = 0.2)
movej(p[0.53775723530917, 0.0104614101860994, 0.172186739780248, -1.18123265028562, 1.15820676516836, -1.2024040951451], a = 0.2, v = 0.2, t = 0.2)
movej(p[0.538473554880043, 0.0103718588661008, 0.172223423157847, -1.1881410961166, 1.16476491202223, -1.19753469752218], a = 0.2, v = 0.2, t = 0.2)
movej(p[0.538733729214769, 0.0101923075904427, 0.172264461678305, -1.18812782493899, 1.17054629238951, -1.1943918878635], a = 0.2, v = 0.2, t = 0.2)
movej(p[0.538851080019861, 0.0101414776633466, 0.172191188811187, -1.18847052677048, 1.17368746576712, -1.19178938794613], a = 0.2, v = 0.2, t = 0.2)
movej(p[0.538792603532748, 0.0100755549315728, 0.172116426023716, -1.18716282324889, 1.17361689991383, -1.19190647043137], a = 0.2, v = 0.2, t = 0.2)
movej(p[0.538472038488972, 0.00996956741167465, 0.17204936472019, -1.18712213281495, 1.17306123941647, -1.19578264584736], a = 0.2, v = 0.2, t = 0.2)
movej(p[0.537860723634943, 0.00998777194563372, 0.171931260187918, -1.19072284982929, 1.16835034942855, -1.216611970735], a = 0.2, v = 0.2, t = 0.2)
movej(p[0.537094974324122, 0.0101464462356575, 0.171781865398982, -1.19230424837993, 1.16383588688672, -1.22875486885623], a = 0.2, v = 0.2, t = 0.2)
movej(p[0.53628325905647, 0.0102349597203245, 0.171763100375538, -1.18336905506104, 1.16031264622794, -1.22158267600685], a = 0.2, v = 0.2, t = 0.2)
movej(p[0.535438259550427, 0.0103129878416097, 0.17182768240249, -1.17525878485197, 1.15558401244227, -1.22158351739712], a = 0.2, v = 0.2, t = 0.2)
movej(p[0.535019856813214, 0.0105128042332497, 0.171819216020474, -1.1723132473209, 1.14908929527874, -1.22187814213725], a = 0.2, v = 0.2, t = 0.2)
movej(p[0.535091857993192, 0.0107037897619564, 0.171827377938534, -1.17931123572295, 1.14190800479394, -1.22737565551038], a = 0.2, v = 0.2, t = 0.2)
movej(p[0.535744735790123, 0.0106385193188854, 0.171946143933396, -1.18282441791386, 1.1403153518667, -1.22212312267538], a = 0.2, v = 0.2, t = 0.2)
movej(p[0.536643276433311, 0.010610974145363, 0.172024283073754, -1.18357621689092, 1.14349017159705, -1.22278764215905], a = 0.2, v = 0.2, t = 0.2)
movej(p[0.537668174768304, 0.0106708420897949, 0.172020036927617, -1.18423720734941, 1.1528347360855, -1.2165178861988], a = 0.2, v = 0.2, t = 0.2)
movej(p[0.538413538069208, 0.0106783813992134, 0.171967546181014, -1.18261285280494, 1.16181038563808, -1.20558458040349], a = 0.2, v = 0.2, t = 0.2)
movej(p[0.538692254347285, 0.0105162087260659, 0.172006153554915, -1.19029323169009, 1.16767216928391, -1.20577864246468], a = 0.2, v = 0.2, t = 0.2)
movej(p[0.538792989151791, 0.0104003164244928, 0.171970450159193, -1.19191917804799, 1.17080157138709, -1.20480801248151], a = 0.2, v = 0.2, t = 0.2)
movej(p[0.538839631809096, 0.010381973047168, 0.171890643903869, -1.194542173215, 1.17105443757529, -1.20811313068095], a = 0.2, v = 0.2, t = 0.2)
movej(p[0.538737398506912, 0.0102107648072218, 0.171863859412405, -1.18786571164352, 1.17142637321055, -1.19866399131245], a = 0.2, v = 0.2, t = 0.2)
movej(p[0.53831444948294, 0.0101052135996922, 0.171788345835413, -1.188136588452, 1.16884442196371, -1.21236966411632], a = 0.2, v = 0.2, t = 0.2)
movej(p[0.537636881927136, 0.0101397428945641, 0.17165438090262, -1.18687290989769, 1.16616969028793, -1.22100756546329], a = 0.2, v = 0.2, t = 0.2)
movej(p[0.536745888905341, 0.0101914373457139, 0.171578271520227, -1.18085831123784, 1.16378726539849, -1.22196957408869], a = 0.2, v = 0.2, t = 0.2)
movej(p[0.535857085218276, 0.0101724522718416, 0.171644613194383, -1.17349468799739, 1.15954687229827, -1.21888507195758], a = 0.2, v = 0.2, t = 0.2)
movej(p[0.535160054469914, 0.0103298697419214, 0.171688267809573, -1.17459854701321, 1.1517180993825, -1.22563319019798], a = 0.2, v = 0.2, t = 0.2)
movej(p[0.534836894257225, 0.0105376972327928, 0.171724213099573, -1.18479435058173, 1.14178645678346, -1.23342218256076], a = 0.2, v = 0.2, t = 0.2)
movej(p[0.535013817249567, 0.0106090881356174, 0.171805903758615, -1.1894911717467, 1.13842044581241, -1.23139598409172], a = 0.2, v = 0.2, t = 0.2)
movej(p[0.535581852543028, 0.0105321554790724, 0.171931881118245, -1.19120035463381, 1.13793860630836, -1.23292725516232], a = 0.2, v = 0.2, t = 0.2)
movej(p[0.536676788885939, 0.01055590402631, 0.171976778084476, -1.19190967199015, 1.14582879321933, -1.22542958142809], a = 0.2, v = 0.2, t = 0.2)
movej(p[0.537709695061509, 0.010526559984962, 0.172000205801144, -1.19062861818806, 1.15347063373588, -1.21483297913443], a = 0.2, v = 0.2, t = 0.2)
movej(p[0.53843437496202, 0.0103924259967293, 0.172064574867726, -1.19441648864756, 1.16208674558108, -1.20665460012499], a = 0.2, v = 0.2, t = 0.2)
movej(p[0.538694148596701, 0.0102810879783986, 0.172064084782172, -1.20042887821216, 1.16523836099096, -1.21354567964423], a = 0.2, v = 0.2, t = 0.2)
movej(p[0.538783847559297, 0.0102470401795464, 0.172007710487396, -1.2044840663417, 1.16765003764571, -1.21615185252795], a = 0.2, v = 0.2, t = 0.2)
movej(p[0.538817301624721, 0.0101347906417904, 0.172000534098252, -1.19674138059303, 1.17251944500716, -1.20281524050925], a = 0.2, v = 0.2, t = 0.2)
movej(p[0.53873177162948, 0.0100391973046063, 0.171999903146537, -1.18368286991201, 1.1764343519803, -1.19320037198855], a = 0.2, v = 0.2, t = 0.2)
movej(p[0.538726881974905, 0.0100465308594199, 0.171957214229335, -1.17187432333737, 1.18212289530773, -1.18095097298992], a = 0.2, v = 0.2, t = 0.2)
movej(p[0.538459672663715, 0.0100053506209307, 0.171871733247049, -1.17185594101531, 1.18134519389444, -1.18208191405668], a = 0.2, v = 0.2, t = 0.2)
movej(p[0.537946660970494, 0.0098604320874892, 0.171888139290593, -1.17544029167859, 1.17969684719961, -1.1864852897331], a = 0.2, v = 0.2, t = 0.2)
movej(p[0.53720789740484, 0.00983978014739965, 0.171837002615577, -1.17215193823135, 1.17561132479441, -1.1960491050924], a = 0.2, v = 0.2, t = 0.2)
movej(p[0.53651271493302, 0.00997239150320145, 0.171779539354383, -1.17241342780595, 1.17061684315985, -1.20442388844316], a = 0.2, v = 0.2, t = 0.2)
movej(p[0.535859463763812, 0.0100395333126486, 0.171747268365048, -1.16275028875543, 1.16724742884522, -1.19413815270224], a = 0.2, v = 0.2, t = 0.2)
movej(p[0.535266903039417, 0.0101248081878023, 0.171779258077082, -1.16663669921834, 1.16074987838717, -1.203398500108], a = 0.2, v = 0.2, t = 0.2)
movej(p[0.535043706274158, 0.0102915009003328, 0.171795956146172, -1.17079511842167, 1.15461726618092, -1.20589408926527], a = 0.2, v = 0.2, t = 0.2)
movej(p[0.53526824388332, 0.0104407948043067, 0.171862359729723, -1.1792346782567, 1.14830059069168, -1.21380645300202], a = 0.2, v = 0.2, t = 0.2)
movej(p[0.535986593586713, 0.0103553550632232, 0.172013543193361, -1.18367128430158, 1.14702210233318, -1.21122297420524], a = 0.2, v = 0.2, t = 0.2)
movej(p[0.536851594836304, 0.010318629389834, 0.172080197404099, -1.18566269241141, 1.15051439829443, -1.21501723595104], a = 0.2, v = 0.2, t = 0.2)
movej(p[0.537800321259164, 0.0103507925907074, 0.172077689576196, -1.19180258279131, 1.15827177818291, -1.21293014246875], a = 0.2, v = 0.2, t = 0.2)
movej(p[0.538397476307998, 0.0102977637219938, 0.172087096016279, -1.19049686641744, 1.16706958101686, -1.19903415421064], a = 0.2, v = 0.2, t = 0.2)
movej(p[0.538669865745289, 0.0101048735735915, 0.172180889189631, -1.19333748412479, 1.17141146559521, -1.19549068776717], a = 0.2, v = 0.2, t = 0.2)
movej(p[0.538798195587739, 0.0100596353546482, 0.172129113599983, -1.18253101568478, 1.17746847786663, -1.18106482033563], a = 0.2, v = 0.2, t = 0.2)
movej(p[0.538865344922076, 0.0100197192432919, 0.17208028236047, -1.18670436714134, 1.17717716237908, -1.18576224488081], a = 0.2, v = 0.2, t = 0.2)
movej(p[0.538837389340797, 0.00992052512651607, 0.172042316833049, -1.17671890378396, 1.18110145446231, -1.17619982707268], a = 0.2, v = 0.2, t = 0.2)
movej(p[0.538685299070485, 0.00985472938676455, 0.171983374654545, -1.1863691586742, 1.17711693519818, -1.19821532748752], a = 0.2, v = 0.2, t = 0.2)
movej(p[0.538339333677096, 0.0098442501291179, 0.17185361711782, -1.18658469618059, 1.17599998684317, -1.20081332224214], a = 0.2, v = 0.2, t = 0.2)
movej(p[0.537716995324493, 0.00980205518841582, 0.171787384364155, -1.18759259161144, 1.17259018071297, -1.20619300987583], a = 0.2, v = 0.2, t = 0.2)
movej(p[0.536870732198235, 0.00967858107730957, 0.17183910258167, -1.17750684997552, 1.17117191623016, -1.20314061075301], a = 0.2, v = 0.2, t = 0.2)
movej(p[0.536229173948433, 0.00984635075029598, 0.171791731022303, -1.16946897463625, 1.16871642276671, -1.20363526825227], a = 0.2, v = 0.2, t = 0.2)
movej(p[0.535674343723743, 0.0100756819124687, 0.171749533601448, -1.16764962887317, 1.16364921802636, -1.20495266680355], a = 0.2, v = 0.2, t = 0.2)
movej(p[0.53525524090517, 0.0101646275162958, 0.171773077463914, -1.17370593783865, 1.15529786908321, -1.20790527875473], a = 0.2, v = 0.2, t = 0.2)
movej(p[0.535107435959426, 0.0101735930818155, 0.171904788998051, -1.17820171695506, 1.14961521084573, -1.21594158336882], a = 0.2, v = 0.2, t = 0.2)
movej(p[0.535547469347888, 0.0102679652255075, 0.172007539628072, -1.18472151805159, 1.14675961757027, -1.21879560626896], a = 0.2, v = 0.2, t = 0.2)
movej(p[0.536441967673899, 0.0102875875513975, 0.172098483874131, -1.17896857927353, 1.15141703397046, -1.20344901308547], a = 0.2, v = 0.2, t = 0.2)
movej(p[0.537369026059092, 0.0102668258716483, 0.172179115873075, -1.17677643776414, 1.15831444894059, -1.19342200160857], a = 0.2, v = 0.2, t = 0.2)
movej(p[0.538106559892548, 0.0102602639444283, 0.172155789455367, -1.17893528053065, 1.16482909636534, -1.19232577686829], a = 0.2, v = 0.2, t = 0.2)
movej(p[0.538544578127993, 0.0102859270584955, 0.172093462484114, -1.186754894902, 1.16916727145993, -1.1955900893531], a = 0.2, v = 0.2, t = 0.2)
movej(p[0.538811682731199, 0.010116118327969, 0.17209949940092, -1.18877474543037, 1.17250606262548, -1.18985877301255], a = 0.2, v = 0.2, t = 0.2)
movej(p[0.538784455152137, 0.010012552943954, 0.172075262811384, -1.18630954217952, 1.17552212786372, -1.1929124509451], a = 0.2, v = 0.2, t = 0.2)
movej(p[0.538651247651635, 0.00998599826300905, 0.171969402338922, -1.18914987995099, 1.17523094604379, -1.19890809716675], a = 0.2, v = 0.2, t = 0.2)
movej(p[0.53809832687637, 0.00996492033870678, 0.171850323499547, -1.18716779184477, 1.17399833636635, -1.20058544883451], a = 0.2, v = 0.2, t = 0.2)
movej(p[0.53725861779741, 0.00980432072986083, 0.171874044312154, -1.18945589468403, 1.16988742643059, -1.20913813037452], a = 0.2, v = 0.2, t = 0.2)
movej(p[0.536399930175221, 0.00981474754353048, 0.171839786103568, -1.1746063043445, 1.16859710900105, -1.2034621207358], a = 0.2, v = 0.2, t = 0.2)
movej(p[0.535654062852286, 0.00999721225066696, 0.171786135417382, -1.17300091965376, 1.16264084549727, -1.20770587093175], a = 0.2, v = 0.2, t = 0.2)
movej(p[0.535008839212803, 0.0101378067164491, 0.171780003000002, -1.16613325662097, 1.15630133816866, -1.19786812193774], a = 0.2, v = 0.2, t = 0.2)
movej(p[0.534540141683642, 0.0101860012397141, 0.171896494871004, -1.17363353451512, 1.14877618814101, -1.20818723728], a = 0.2, v = 0.2, t = 0.2)
movej(p[0.534615905818833, 0.0102828566316218, 0.171992316658094, -1.17745611916679, 1.14441429434023, -1.20930043111016], a = 0.2, v = 0.2, t = 0.2)
movej(p[0.535256324232446, 0.0104023464460253, 0.172062035167543, -1.18353041003103, 1.14159826947463, -1.21341204447292], a = 0.2, v = 0.2, t = 0.2)
movej(p[0.536273130885116, 0.0103621387160008, 0.172149123970682, -1.17771383278354, 1.14625602529857, -1.19793264138746], a = 0.2, v = 0.2, t = 0.2)
movej(p[0.537295284642759, 0.0103890604985527, 0.172187807495084, -1.18421653389474, 1.1518774527865, -1.20632961742475], a = 0.2, v = 0.2, t = 0.2)
movej(p[0.538167808369159, 0.0104447149213386, 0.172131633196744, -1.18987615926778, 1.1597155401573, -1.2023169721304], a = 0.2, v = 0.2, t = 0.2)
