def moving():
set_payload_mass(0)
set_tcp(p[0,0,0,0,0,0])
movej(p[0.3945, 0.2192, 0.3264, -1.417, 0.681, -0.692], a = 0.2, v = 0.2, t = 0.4)
movej(p[0.394489629643128, 0.219185141497915, 0.326839146867016, -1.417, 0.681, -0.692], a = 0.2, v = 0.2, t = 0.4)
movej(p[0.394479259286257, 0.21917028299583, 0.327278293734032, -1.417, 0.681, -0.692], a = 0.2, v = 0.2, t = 0.4)
movej(p[0.394468888929385, 0.219155424493746, 0.327717440601049, -1.417, 0.681, -0.692], a = 0.2, v = 0.2, t = 0.4)
movej(p[0.394458518572513, 0.219140565991661, 0.328156587468065, -1.417, 0.681, -0.692], a = 0.2, v = 0.2, t = 0.4)
movej(p[0.394448148215642, 0.219125707489576, 0.328595734335081, -1.417, 0.681, -0.692], a = 0.2, v = 0.2, t = 0.4)
movej(p[0.394469347453428, 0.219156081460573, 0.327698023776763, -1.417, 0.681, -0.692], a = 0.2, v = 0.2, t = 0.4)
movej(p[0.394478329382355, 0.219168950642544, 0.327317671779546, -1.417, 0.681, -0.692], a = 0.2, v = 0.2, t = 0.4)
movej(p[0.394479764948286, 0.219171007501304, 0.327256880787624, -1.417, 0.681, -0.692], a = 0.2, v = 0.2, t = 0.4)
movej(p[0.394479949214958, 0.21917127151601, 0.32724907776478, -1.417, 0.681, -0.692], a = 0.2, v = 0.2, t = 0.4)
movej(p[0.394442843049606, 0.219118106321981, 0.32882038880672, -1.417, 0.681, -0.692], a = 0.2, v = 0.2, t = 0.4)
movej(p[0.39438911860163, 0.219041130685354, 0.33109542362977, -1.417, 0.681, -0.692], a = 0.2, v = 0.2, t = 0.4)
movej(p[0.394358114662801, 0.218996708676022, 0.332408327589631, -1.417, 0.681, -0.692], a = 0.2, v = 0.2, t = 0.4)
movej(p[0.394420538211789, 0.219086148262744, 0.3297649175021, -1.417, 0.681, -0.692], a = 0.2, v = 0.2, t = 0.4)
movej(p[0.394466592023896, 0.21915213351973, 0.327814706188123, -1.417, 0.681, -0.692], a = 0.2, v = 0.2, t = 0.4)
movej(p[0.394476225314081, 0.219165935962989, 0.327406771412482, -1.417, 0.681, -0.692], a = 0.2, v = 0.2, t = 0.4)
movej(p[0.394480150622715, 0.219171560090224, 0.327240548879347, -1.417, 0.681, -0.692], a = 0.2, v = 0.2, t = 0.4)
movej(p[0.394454293294879, 0.219134512073043, 0.328335512596527, -1.417, 0.681, -0.692], a = 0.2, v = 0.2, t = 0.4)
movej(p[0.39440127591669, 0.219058549516103, 0.330580605587735, -1.417, 0.681, -0.692], a = 0.2, v = 0.2, t = 0.4)
movej(p[0.394359657360517, 0.218998919031704, 0.332342999956521, -1.417, 0.681, -0.692], a = 0.2, v = 0.2, t = 0.4)
movej(p[0.394404738416009, 0.219063510536634, 0.330433981344533, -1.417, 0.681, -0.692], a = 0.2, v = 0.2, t = 0.4)
movej(p[0.394461518262517, 0.219144863905487, 0.328029561514796, -1.417, 0.681, -0.692], a = 0.2, v = 0.2, t = 0.4)
movej(p[0.394475561097009, 0.21916498428207, 0.327434898587848, -1.417, 0.681, -0.692], a = 0.2, v = 0.2, t = 0.4)
movej(p[0.394480669140559, 0.219172303015329, 0.327218591535996, -1.417, 0.681, -0.692], a = 0.2, v = 0.2, t = 0.4)
movej(p[0.394464959335479, 0.219149794226633, 0.327883844599831, -1.417, 0.681, -0.692], a = 0.2, v = 0.2, t = 0.4)
movej(p[0.39441328324725, 0.219075753451162, 0.330072138843363, -1.417, 0.681, -0.692], a = 0.2, v = 0.2, t = 0.4)
movej(p[0.394366389521941, 0.219008564778305, 0.332057917424255, -1.417, 0.681, -0.692], a = 0.2, v = 0.2, t = 0.4)
movej(p[0.394376485621441, 0.219023030328268, 0.331630384358681, -1.417, 0.681, -0.692], a = 0.2, v = 0.2, t = 0.4)
movej(p[0.394447398293141, 0.219124633011119, 0.328627490823398, -1.417, 0.681, -0.692], a = 0.2, v = 0.2, t = 0.4)
movej(p[0.394471327248831, 0.219158918083699, 0.327614186647606, -1.417, 0.681, -0.692], a = 0.2, v = 0.2, t = 0.4)
movej(p[0.394479602107971, 0.219170774185982, 0.32726377648223, -1.417, 0.681, -0.692], a = 0.2, v = 0.2, t = 0.4)
movej(p[0.394474134101621, 0.219162939703064, 0.327495326648475, -1.417, 0.681, -0.692], a = 0.2, v = 0.2, t = 0.4)
movej(p[0.394424017852193, 0.219091133842783, 0.329617567396307, -1.417, 0.681, -0.692], a = 0.2, v = 0.2, t = 0.4)
movej(p[0.394374595816738, 0.219020322642558, 0.33171041070924, -1.417, 0.681, -0.692], a = 0.2, v = 0.2, t = 0.4)
movej(p[0.394362284231907, 0.21900268277624, 0.332231761514587, -1.417, 0.681, -0.692], a = 0.2, v = 0.2, t = 0.4)
movej(p[0.394440096190616, 0.219114170660891, 0.328936708286785, -1.417, 0.681, -0.692], a = 0.2, v = 0.2, t = 0.4)
movej(p[0.394469403161957, 0.219156161278973, 0.327695664723345, -1.417, 0.681, -0.692], a = 0.2, v = 0.2, t = 0.4)
movej(p[0.394478963602528, 0.219169859344325, 0.327290814863712, -1.417, 0.681, -0.692], a = 0.2, v = 0.2, t = 0.4)
movej(p[0.394474631193107, 0.219163651928784, 0.327474276633362, -1.417, 0.681, -0.692], a = 0.2, v = 0.2, t = 0.4)
movej(p[0.394430561461674, 0.219100509434801, 0.329340469352533, -1.417, 0.681, -0.692], a = 0.2, v = 0.2, t = 0.4)
movej(p[0.39438155938282, 0.219030299942512, 0.331415529032008, -1.417, 0.681, -0.692], a = 0.2, v = 0.2, t = 0.4)
movej(p[0.394359704498503, 0.218998986570349, 0.332341003834398, -1.417, 0.681, -0.692], a = 0.2, v = 0.2, t = 0.4)
movej(p[0.394431281387275, 0.219101540934119, 0.329309983123749, -1.417, 0.681, -0.692], a = 0.2, v = 0.2, t = 0.4)
movej(p[0.394468233282855, 0.219154485092581, 0.32774520484512, -1.417, 0.681, -0.692], a = 0.2, v = 0.2, t = 0.4)
movej(p[0.394478967887799, 0.219169865484202, 0.327290633398064, -1.417, 0.681, -0.692], a = 0.2, v = 0.2, t = 0.4)
movej(p[0.394476259596252, 0.219165985082004, 0.327405319687302, -1.417, 0.681, -0.692], a = 0.2, v = 0.2, t = 0.4)
movej(p[0.394432219861719, 0.219102885567159, 0.32927024214694, -1.417, 0.681, -0.692], a = 0.2, v = 0.2, t = 0.4)
movej(p[0.394384747624767, 0.219034868010921, 0.331280518590248, -1.417, 0.681, -0.692], a = 0.2, v = 0.2, t = 0.4)
movej(p[0.394357848975972, 0.218996328003654, 0.332419578459777, -1.417, 0.681, -0.692], a = 0.2, v = 0.2, t = 0.4)
movej(p[0.394423460766907, 0.219090335658786, 0.329641157930486, -1.417, 0.681, -0.692], a = 0.2, v = 0.2, t = 0.4)
movej(p[0.394466039223881, 0.219151341475611, 0.327838115256654, -1.417, 0.681, -0.692], a = 0.2, v = 0.2, t = 0.4)
movej(p[0.394478985028885, 0.219169890043709, 0.327289907535474, -1.417, 0.681, -0.692], a = 0.2, v = 0.2, t = 0.4)
movej(p[0.394481487627403, 0.219173475731816, 0.327183931597318, -1.417, 0.681, -0.692], a = 0.2, v = 0.2, t = 0.4)
movej(p[0.394452600612662, 0.219132086821669, 0.3284071915273, -1.417, 0.681, -0.692], a = 0.2, v = 0.2, t = 0.4)
movej(p[0.394403495687293, 0.219061729972335, 0.330486606382316, -1.417, 0.681, -0.692], a = 0.2, v = 0.2, t = 0.4)
movej(p[0.394355389230169, 0.218992803714317, 0.332523739741458, -1.417, 0.681, -0.692], a = 0.2, v = 0.2, t = 0.4)
movej(p[0.394400723116675, 0.219057757471984, 0.330604014656266, -1.417, 0.681, -0.692], a = 0.2, v = 0.2, t = 0.4)
movej(p[0.394456393077882, 0.219137520612721, 0.328246594429238, -1.417, 0.681, -0.692], a = 0.2, v = 0.2, t = 0.4)
movej(p[0.394476649555953, 0.219166543810802, 0.327388806313377, -1.417, 0.681, -0.692], a = 0.2, v = 0.2, t = 0.4)
movej(p[0.394481813308032, 0.21917394236246, 0.327170140208106, -1.417, 0.681, -0.692], a = 0.2, v = 0.2, t = 0.4)
movej(p[0.394476298163695, 0.219166040340896, 0.327403686496474, -1.417, 0.681, -0.692], a = 0.2, v = 0.2, t = 0.4)
movej(p[0.394437696438613, 0.21911073232983, 0.3290383290494, -1.417, 0.681, -0.692], a = 0.2, v = 0.2, t = 0.4)
movej(p[0.394387164517856, 0.21903833090149, 0.331178171965043, -1.417, 0.681, -0.692], a = 0.2, v = 0.2, t = 0.4)
movej(p[0.394389958514831, 0.219042334101225, 0.331059856362855, -1.417, 0.681, -0.692], a = 0.2, v = 0.2, t = 0.4)
movej(p[0.394448122504013, 0.219125670650315, 0.328596823128966, -1.417, 0.681, -0.692], a = 0.2, v = 0.2, t = 0.4)
movej(p[0.394474468352793, 0.219163418613462, 0.327481172327968, -1.417, 0.681, -0.692], a = 0.2, v = 0.2, t = 0.4)
movej(p[0.394481474771588, 0.219173457312185, 0.327184475994261, -1.417, 0.681, -0.692], a = 0.2, v = 0.2, t = 0.4)
movej(p[0.394481843304932, 0.219173985341598, 0.327168869948573, -1.417, 0.681, -0.692], a = 0.2, v = 0.2, t = 0.4)
movej(p[0.394460832619088, 0.219143881525184, 0.3280585960184, -1.417, 0.681, -0.692], a = 0.2, v = 0.2, t = 0.4)
movej(p[0.394414341709294, 0.219077270000755, 0.330027316828424, -1.417, 0.681, -0.692], a = 0.2, v = 0.2, t = 0.4)
movej(p[0.394377625503643, 0.219024663535522, 0.331582114496439, -1.417, 0.681, -0.692], a = 0.2, v = 0.2, t = 0.4)
movej(p[0.394405698316811, 0.219064885869059, 0.330393333039487, -1.417, 0.681, -0.692], a = 0.2, v = 0.2, t = 0.4)
movej(p[0.394457961487227, 0.219139767807664, 0.328180178002243, -1.417, 0.681, -0.692], a = 0.2, v = 0.2, t = 0.4)
movej(p[0.394477875143583, 0.219168299815593, 0.327336907138184, -1.417, 0.681, -0.692], a = 0.2, v = 0.2, t = 0.4)
movej(p[0.39448171903206, 0.219173807285168, 0.327174132452352, -1.417, 0.681, -0.692], a = 0.2, v = 0.2, t = 0.4)
movej(p[0.394485181531379, 0.219178768305699, 0.32702750820915, -1.417, 0.681, -0.692], a = 0.2, v = 0.2, t = 0.4)
movej(p[0.394478466511041, 0.219169147118605, 0.327311864878825, -1.417, 0.681, -0.692], a = 0.2, v = 0.2, t = 0.4)
movej(p[0.394445718466738, 0.219122226179377, 0.328698625357229, -1.417, 0.681, -0.692], a = 0.2, v = 0.2, t = 0.4)
movej(p[0.394404057057851, 0.219062534296208, 0.33046283438249, -1.417, 0.681, -0.692], a = 0.2, v = 0.2, t = 0.4)
movej(p[0.3943775569393, 0.219024565297492, 0.331585017946799, -1.417, 0.681, -0.692], a = 0.2, v = 0.2, t = 0.4)
movej(p[0.394430145790345, 0.219099913866742, 0.329358071520343, -1.417, 0.681, -0.692], a = 0.2, v = 0.2, t = 0.4)
movej(p[0.394470058808487, 0.219157100680138, 0.327667900479274, -1.417, 0.681, -0.692], a = 0.2, v = 0.2, t = 0.4)
movej(p[0.394481620470817, 0.219173666067999, 0.327178306162245, -1.417, 0.681, -0.692], a = 0.2, v = 0.2, t = 0.4)
movej(p[0.39448363026312, 0.219176545670263, 0.327093198773554, -1.417, 0.681, -0.692], a = 0.2, v = 0.2, t = 0.4)
movej(p[0.394485605773251, 0.219179376153511, 0.327009543110044, -1.417, 0.681, -0.692], a = 0.2, v = 0.2, t = 0.4)
movej(p[0.394465233592851, 0.219150187178755, 0.327872230798389, -1.417, 0.681, -0.692], a = 0.2, v = 0.2, t = 0.4)
movej(p[0.394425329145252, 0.219093012645112, 0.329562038908164, -1.417, 0.681, -0.692], a = 0.2, v = 0.2, t = 0.4)
movej(p[0.394382793540993, 0.219032068227057, 0.331363266925521, -1.417, 0.681, -0.692], a = 0.2, v = 0.2, t = 0.4)
movej(p[0.394407386713756, 0.219067304980555, 0.330321835574361, -1.417, 0.681, -0.692], a = 0.2, v = 0.2, t = 0.4)
movej(p[0.394456907310454, 0.219138257397948, 0.328224818551535, -1.417, 0.681, -0.692], a = 0.2, v = 0.2, t = 0.4)
movej(p[0.394477720873812, 0.219168078780025, 0.327343439901495, -1.417, 0.681, -0.692], a = 0.2, v = 0.2, t = 0.4)
movej(p[0.394484414467792, 0.219177669267735, 0.327059990560057, -1.417, 0.681, -0.692], a = 0.2, v = 0.2, t = 0.4)
movej(p[0.394484551596478, 0.219177865743795, 0.327054183659336, -1.417, 0.681, -0.692], a = 0.2, v = 0.2, t = 0.4)
movej(p[0.394472317146533, 0.219160336395261, 0.327572268083027, -1.417, 0.681, -0.692], a = 0.2, v = 0.2, t = 0.4)
movej(p[0.394429764401187, 0.219099367417698, 0.329374221962973, -1.417, 0.681, -0.692], a = 0.2, v = 0.2, t = 0.4)
movej(p[0.394390052790803, 0.219042469178517, 0.331055864118609, -1.417, 0.681, -0.692], a = 0.2, v = 0.2, t = 0.4)
movej(p[0.39438012810216, 0.219028249223629, 0.331476138558283, -1.417, 0.681, -0.692], a = 0.2, v = 0.2, t = 0.4)
movej(p[0.394440738981331, 0.219115091642425, 0.328909488439656, -1.417, 0.681, -0.692], a = 0.2, v = 0.2, t = 0.4)
movej(p[0.394476152464467, 0.219165831585082, 0.32740985632849, -1.417, 0.681, -0.692], a = 0.2, v = 0.2, t = 0.4)
movej(p[0.394481826163846, 0.21917396078209, 0.327169595811163, -1.417, 0.681, -0.692], a = 0.2, v = 0.2, t = 0.4)
movej(p[0.394485387224408, 0.21917906301979, 0.327018797858068, -1.417, 0.681, -0.692], a = 0.2, v = 0.2, t = 0.4)
movej(p[0.394483544557691, 0.219176422872725, 0.327096828086505, -1.417, 0.681, -0.692], a = 0.2, v = 0.2, t = 0.4)
movej(p[0.394452450628162, 0.219131871925978, 0.328413542824963, -1.417, 0.681, -0.692], a = 0.2, v = 0.2, t = 0.4)
movej(p[0.394412349058077, 0.219074414957999, 0.330111698354524, -1.417, 0.681, -0.692], a = 0.2, v = 0.2, t = 0.4)
movej(p[0.394380698043261, 0.219029065827256, 0.331452003627161, -1.417, 0.681, -0.692], a = 0.2, v = 0.2, t = 0.4)
movej(p[0.394423610751407, 0.219090550554478, 0.329634806632823, -1.417, 0.681, -0.692], a = 0.2, v = 0.2, t = 0.4)
movej(p[0.39446561926728, 0.219150739767675, 0.327855898890112, -1.417, 0.681, -0.692], a = 0.2, v = 0.2, t = 0.4)
movej(p[0.394482254690989, 0.21917457476978, 0.327151449246411, -1.417, 0.681, -0.692], a = 0.2, v = 0.2, t = 0.4)
movej(p[0.394484191633678, 0.219177349994136, 0.327069426773728, -1.417, 0.681, -0.692], a = 0.2, v = 0.2, t = 0.4)
movej(p[0.394486848501967, 0.219181156717811, 0.326956918072261, -1.417, 0.681, -0.692], a = 0.2, v = 0.2, t = 0.4)
movej(p[0.394475136855137, 0.219164376434258, 0.327452863686954, -1.417, 0.681, -0.692], a = 0.2, v = 0.2, t = 0.4)
movej(p[0.394437546454112, 0.219110517434139, 0.329044680347064, -1.417, 0.681, -0.692], a = 0.2, v = 0.2, t = 0.4)
movej(p[0.394401091650018, 0.219058285501397, 0.330588408610579, -1.417, 0.681, -0.692], a = 0.2, v = 0.2, t = 0.4)
movej(p[0.394384267674366, 0.219034180344709, 0.331300842742771, -1.417, 0.681, -0.692], a = 0.2, v = 0.2, t = 0.4)
movej(p[0.394446091285353, 0.219122760348667, 0.328682837845894, -1.417, 0.681, -0.692], a = 0.2, v = 0.2, t = 0.4)
movej(p[0.394473495596177, 0.219162024861407, 0.327522365029957, -1.417, 0.681, -0.692], a = 0.2, v = 0.2, t = 0.4)
movej(p[0.394484234486392, 0.219177411392905, 0.327067612117253, -1.417, 0.681, -0.692], a = 0.2, v = 0.2, t = 0.4)
movej(p[0.394484633016636, 0.219177982401456, 0.327050735812033, -1.417, 0.681, -0.692], a = 0.2, v = 0.2, t = 0.4)
movej(p[0.39447424980395, 0.219163105479741, 0.327490427075992, -1.417, 0.681, -0.692], a = 0.2, v = 0.2, t = 0.4)
movej(p[0.394431037126803, 0.219101190961136, 0.329320326665658, -1.417, 0.681, -0.692], a = 0.2, v = 0.2, t = 0.4)
movej(p[0.39438896861713, 0.219040915789662, 0.331101774927434, -1.417, 0.681, -0.692], a = 0.2, v = 0.2, t = 0.4)
movej(p[0.394387678750428, 0.219039067686717, 0.331156396087339, -1.417, 0.681, -0.692], a = 0.2, v = 0.2, t = 0.4)
movej(p[0.394447543992369, 0.219124841766934, 0.328621320991382, -1.417, 0.681, -0.692], a = 0.2, v = 0.2, t = 0.4)
movej(p[0.394478239391655, 0.219168821705129, 0.327321482558144, -1.417, 0.681, -0.692], a = 0.2, v = 0.2, t = 0.4)
movej(p[0.394482803205733, 0.219175360674022, 0.327128221643527, -1.417, 0.681, -0.692], a = 0.2, v = 0.2, t = 0.4)
movej(p[0.394486711373281, 0.21918096024175, 0.326962724972982, -1.417, 0.681, -0.692], a = 0.2, v = 0.2, t = 0.4)
movej(p[0.394476006765238, 0.219165622829267, 0.327416026160506, -1.417, 0.681, -0.692], a = 0.2, v = 0.2, t = 0.4)
movej(p[0.394433599719121, 0.219104862607519, 0.329211810208436, -1.417, 0.681, -0.692], a = 0.2, v = 0.2, t = 0.4)
movej(p[0.394392152573806, 0.219045477718195, 0.330966945951321, -1.417, 0.681, -0.692], a = 0.2, v = 0.2, t = 0.4)
movej(p[0.39438090373629, 0.219029360541347, 0.33144329327608, -1.417, 0.681, -0.692], a = 0.2, v = 0.2, t = 0.4)
movej(p[0.394450106584687, 0.219128513413317, 0.328512804534161, -1.417, 0.681, -0.692], a = 0.2, v = 0.2, t = 0.4)
movej(p[0.394475779645852, 0.219165297415792, 0.327425643839825, -1.417, 0.681, -0.692], a = 0.2, v = 0.2, t = 0.4)
movej(p[0.394484568737564, 0.219177890303303, 0.327053457796746, -1.417, 0.681, -0.692], a = 0.2, v = 0.2, t = 0.4)
movej(p[0.394485100111222, 0.219178651648038, 0.327030956056453, -1.417, 0.681, -0.692], a = 0.2, v = 0.2, t = 0.4)
movej(p[0.39448360026622, 0.219176502691125, 0.327094469033087, -1.417, 0.681, -0.692], a = 0.2, v = 0.2, t = 0.4)
movej(p[0.394450526541288, 0.219129115121252, 0.328495020900703, -1.417, 0.681, -0.692], a = 0.2, v = 0.2, t = 0.4)
movej(p[0.394406431098226, 0.219065935788008, 0.33036230241376, -1.417, 0.681, -0.692], a = 0.2, v = 0.2, t = 0.4)
movej(p[0.394378439705215, 0.219025830112132, 0.331547636023408, -1.417, 0.681, -0.692], a = 0.2, v = 0.2, t = 0.4)
movej(p[0.394422740841306, 0.219089304159468, 0.329671644159271, -1.417, 0.681, -0.692], a = 0.2, v = 0.2, t = 0.4)
movej(p[0.394469883112358, 0.219156848945185, 0.327675340570822, -1.417, 0.681, -0.692], a = 0.2, v = 0.2, t = 0.4)
movej(p[0.394481097667702, 0.219172917003018, 0.327200444971243, -1.417, 0.681, -0.692], a = 0.2, v = 0.2, t = 0.4)
movej(p[0.394485837177909, 0.219179707706863, 0.326999743965078, -1.417, 0.681, -0.692], a = 0.2, v = 0.2, t = 0.4)
movej(p[0.394486214281795, 0.21918024801603, 0.326983774988095, -1.417, 0.681, -0.692], a = 0.2, v = 0.2, t = 0.4)
movej(p[0.394456723043782, 0.219137993383242, 0.328232621574379, -1.417, 0.681, -0.692], a = 0.2, v = 0.2, t = 0.4)
movej(p[0.39442128813429, 0.219087222741201, 0.329733161013782, -1.417, 0.681, -0.692], a = 0.2, v = 0.2, t = 0.4)
movej(p[0.394419188351287, 0.219084214201523, 0.329822079181071, -1.417, 0.681, -0.692], a = 0.2, v = 0.2, t = 0.4)
movej(p[0.394467676197569, 0.219153686908584, 0.327768795379299, -1.417, 0.681, -0.692], a = 0.2, v = 0.2, t = 0.4)
movej(p[0.39448067342583, 0.219172309155206, 0.327218410070348, -1.417, 0.681, -0.692], a = 0.2, v = 0.2, t = 0.4)
movej(p[0.394485948594966, 0.219179867343663, 0.326995025858242, -1.417, 0.681, -0.692], a = 0.2, v = 0.2, t = 0.4)
movej(p[0.394477168073797, 0.219167286735906, 0.327366848970026, -1.417, 0.681, -0.692], a = 0.2, v = 0.2, t = 0.4)
movej(p[0.39443272980902, 0.219103616212509, 0.329248647734884, -1.417, 0.681, -0.692], a = 0.2, v = 0.2, t = 0.4)
movej(p[0.394388655792315, 0.219040467578649, 0.331115021919703, -1.417, 0.681, -0.692], a = 0.2, v = 0.2, t = 0.4)
movej(p[0.394383303488293, 0.219032798872408, 0.331341672513465, -1.417, 0.681, -0.692], a = 0.2, v = 0.2, t = 0.4)
movej(p[0.394442864475963, 0.219118137021365, 0.328819481478482, -1.417, 0.681, -0.692], a = 0.2, v = 0.2, t = 0.4)
movej(p[0.394471867193032, 0.219159691708187, 0.327591321976017, -1.417, 0.681, -0.692], a = 0.2, v = 0.2, t = 0.4)
movej(p[0.394483051751476, 0.219175716786882, 0.327117696635971, -1.417, 0.681, -0.692], a = 0.2, v = 0.2, t = 0.4)
movej(p[0.394482421816575, 0.219174814224979, 0.327144372086157, -1.417, 0.681, -0.692], a = 0.2, v = 0.2, t = 0.4)
movej(p[0.394449716624987, 0.219127954684519, 0.328529317908086, -1.417, 0.681, -0.692], a = 0.2, v = 0.2, t = 0.4)
movej(p[0.394394402341309, 0.219048701153565, 0.330871676486369, -1.417, 0.681, -0.692], a = 0.2, v = 0.2, t = 0.4)
movej(p[0.394361958551278, 0.219002216145596, 0.332245552903799, -1.417, 0.681, -0.692], a = 0.2, v = 0.2, t = 0.4)
movej(p[0.394421883787019, 0.219088076184089, 0.329707937288776, -1.417, 0.681, -0.692], a = 0.2, v = 0.2, t = 0.4)
movej(p[0.394464890771137, 0.219149695988603, 0.327886748050192, -1.417, 0.681, -0.692], a = 0.2, v = 0.2, t = 0.4)
movej(p[0.394481251937474, 0.219173138038586, 0.327193912207932, -1.417, 0.681, -0.692], a = 0.2, v = 0.2, t = 0.4)
movej(p[0.394485280092622, 0.219178909522867, 0.327023334499256, -1.417, 0.681, -0.692], a = 0.2, v = 0.2, t = 0.4)
movej(p[0.394480896259945, 0.219172628428804, 0.327208973856677, -1.417, 0.681, -0.692], a = 0.2, v = 0.2, t = 0.4)
movej(p[0.394440194751859, 0.21911431187806, 0.328932534576892, -1.417, 0.681, -0.692], a = 0.2, v = 0.2, t = 0.4)
movej(p[0.394383393478994, 0.219032927809822, 0.331337861734867, -1.417, 0.681, -0.692], a = 0.2, v = 0.2, t = 0.4)
movej(p[0.394375662849326, 0.219021851471905, 0.331665225763006, -1.417, 0.681, -0.692], a = 0.2, v = 0.2, t = 0.4)
movej(p[0.394436667973468, 0.219109258759375, 0.329081880804807, -1.417, 0.681, -0.692], a = 0.2, v = 0.2, t = 0.4)
movej(p[0.394474374076821, 0.219163283536171, 0.327485164572214, -1.417, 0.681, -0.692], a = 0.2, v = 0.2, t = 0.4)
movej(p[0.394483000328219, 0.219175643108359, 0.327119874223741, -1.417, 0.681, -0.692], a = 0.2, v = 0.2, t = 0.4)
movej(p[0.394486244278695, 0.219180290995168, 0.326982504728563, -1.417, 0.681, -0.692], a = 0.2, v = 0.2, t = 0.4)
movej(p[0.394462315323004, 0.219146005922589, 0.327995808904355, -1.417, 0.681, -0.692], a = 0.2, v = 0.2, t = 0.4)
movej(p[0.394406868195912, 0.219066562055451, 0.330343792917712, -1.417, 0.681, -0.692], a = 0.2, v = 0.2, t = 0.4)
movej(p[0.394369222086359, 0.219012623236932, 0.33193796863124, -1.417, 0.681, -0.692], a = 0.2, v = 0.2, t = 0.4)
movej(p[0.394409829318474, 0.219070804710385, 0.33021840015527, -1.417, 0.681, -0.692], a = 0.2, v = 0.2, t = 0.4)
movej(p[0.394461788234618, 0.219145250717731, 0.328018129179001, -1.417, 0.681, -0.692], a = 0.2, v = 0.2, t = 0.4)
movej(p[0.394479246430442, 0.2191702645762, 0.327278838130975, -1.417, 0.681, -0.692], a = 0.2, v = 0.2, t = 0.4)
movej(p[0.394485712905037, 0.219179529650434, 0.327005006468856, -1.417, 0.681, -0.692], a = 0.2, v = 0.2, t = 0.4)
movej(p[0.394476859534253, 0.219166844664769, 0.327379914496648, -1.417, 0.681, -0.692], a = 0.2, v = 0.2, t = 0.4)
movej(p[0.394427278943755, 0.219095806289099, 0.329479472038539, -1.417, 0.681, -0.692], a = 0.2, v = 0.2, t = 0.4)
movej(p[0.39438666742637, 0.21903761867577, 0.331199221980156, -1.417, 0.681, -0.692], a = 0.2, v = 0.2, t = 0.4)
movej(p[0.394389547128774, 0.219041744673043, 0.331077277065017, -1.417, 0.681, -0.692], a = 0.2, v = 0.2, t = 0.4)
movej(p[0.394450937927345, 0.219129704549434, 0.328477600198541, -1.417, 0.681, -0.692], a = 0.2, v = 0.2, t = 0.4)
movej(p[0.394477853717226, 0.219168269116209, 0.327337814466421, -1.417, 0.681, -0.692], a = 0.2, v = 0.2, t = 0.4)
movej(p[0.394485622914337, 0.219179400713019, 0.327008817247454, -1.417, 0.681, -0.692], a = 0.2, v = 0.2, t = 0.4)
movej(p[0.394486689946924, 0.219180929542366, 0.32696363230122, -1.417, 0.681, -0.692], a = 0.2, v = 0.2, t = 0.4)
movej(p[0.39444485712718, 0.219120992064121, 0.328735099952382, -1.417, 0.681, -0.692], a = 0.2, v = 0.2, t = 0.4)
movej(p[0.394400950236061, 0.219058082885459, 0.330594396976947, -1.417, 0.681, -0.692], a = 0.2, v = 0.2, t = 0.4)
movej(p[0.394364701124996, 0.219006145666808, 0.332129414889381, -1.417, 0.681, -0.692], a = 0.2, v = 0.2, t = 0.4)
movej(p[0.39441131202239, 0.21907292910779, 0.330155613041226, -1.417, 0.681, -0.692], a = 0.2, v = 0.2, t = 0.4)
movej(p[0.394462461022233, 0.219146214678404, 0.32798963907234, -1.417, 0.681, -0.692], a = 0.2, v = 0.2, t = 0.4)
movej(p[0.394481346213445, 0.219173273115878, 0.327189919963687, -1.417, 0.681, -0.692], a = 0.2, v = 0.2, t = 0.4)
movej(p[0.394486561388781, 0.219180745346059, 0.326969076270646, -1.417, 0.681, -0.692], a = 0.2, v = 0.2, t = 0.4)
movej(p[0.394484491602678, 0.219177779785519, 0.327056724178401, -1.417, 0.681, -0.692], a = 0.2, v = 0.2, t = 0.4)
movej(p[0.394449253815672, 0.219127291577815, 0.328548916198019, -1.417, 0.681, -0.692], a = 0.2, v = 0.2, t = 0.4)
movej(p[0.394396497839041, 0.219051703553366, 0.330782939784728, -1.417, 0.681, -0.692], a = 0.2, v = 0.2, t = 0.4)
movej(p[0.39436653522117, 0.219008773534119, 0.332051747592239, -1.417, 0.681, -0.692], a = 0.2, v = 0.2, t = 0.4)
movej(p[0.394422963675421, 0.219089623433067, 0.329662207945599, -1.417, 0.681, -0.692], a = 0.2, v = 0.2, t = 0.4)
movej(p[0.394469184613114, 0.219155848145251, 0.327704919471369, -1.417, 0.681, -0.692], a = 0.2, v = 0.2, t = 0.4)
movej(p[0.394483415999548, 0.219176238676418, 0.327102272055931, -1.417, 0.681, -0.692], a = 0.2, v = 0.2, t = 0.4)
movej(p[0.394485057258508, 0.219178590249269, 0.327032770712928, -1.417, 0.681, -0.692], a = 0.2, v = 0.2, t = 0.4)
movej(p[0.394464556519965, 0.219149217078205, 0.327900902370699, -1.417, 0.681, -0.692], a = 0.2, v = 0.2, t = 0.4)
movej(p[0.394410292127788, 0.21907146781709, 0.330198801865338, -1.417, 0.681, -0.692], a = 0.2, v = 0.2, t = 0.4)
movej(p[0.394367049453742, 0.219009510319347, 0.332029971714536, -1.417, 0.681, -0.692], a = 0.2, v = 0.2, t = 0.4)
movej(p[0.394396964933627, 0.219052372799947, 0.330763160029148, -1.417, 0.681, -0.692], a = 0.2, v = 0.2, t = 0.4)
movej(p[0.394454850380165, 0.219135310257039, 0.328311922062348, -1.417, 0.681, -0.692], a = 0.2, v = 0.2, t = 0.4)
movej(p[0.394477986560641, 0.219168459452393, 0.327332189031348, -1.417, 0.681, -0.692], a = 0.2, v = 0.2, t = 0.4)
movej(p[0.394484907274007, 0.219178375353577, 0.327039122010591, -1.417, 0.681, -0.692], a = 0.2, v = 0.2, t = 0.4)
movej(p[0.394481834734389, 0.219173973061844, 0.327169232879868, -1.417, 0.681, -0.692], a = 0.2, v = 0.2, t = 0.4)
movej(p[0.394437606447912, 0.219110603392415, 0.329042139827998, -1.417, 0.681, -0.692], a = 0.2, v = 0.2, t = 0.4)
movej(p[0.394395327959939, 0.219050027366974, 0.330832479906503, -1.417, 0.681, -0.692], a = 0.2, v = 0.2, t = 0.4)
movej(p[0.394366496653727, 0.219008718275227, 0.332053380783067, -1.417, 0.681, -0.692], a = 0.2, v = 0.2, t = 0.4)
movej(p[0.394416454348111, 0.219080296960064, 0.329937854264193, -1.417, 0.681, -0.692], a = 0.2, v = 0.2, t = 0.4)
movej(p[0.394460429803573, 0.219143304376756, 0.328075653789268, -1.417, 0.681, -0.692], a = 0.2, v = 0.2, t = 0.4)
movej(p[0.394480921971573, 0.219172665268065, 0.327207885062792, -1.417, 0.681, -0.692], a = 0.2, v = 0.2, t = 0.4)
movej(p[0.394484868706565, 0.219178320094685, 0.327040755201419, -1.417, 0.681, -0.692], a = 0.2, v = 0.2, t = 0.4)
movej(p[0.394471365816274, 0.219158973342591, 0.327612553456778, -1.417, 0.681, -0.692], a = 0.2, v = 0.2, t = 0.4)
movej(p[0.394431851328376, 0.219102357537746, 0.329285848192627, -1.417, 0.681, -0.692], a = 0.2, v = 0.2, t = 0.4)
movej(p[0.394381139426219, 0.219029698234576, 0.331433312665466, -1.417, 0.681, -0.692], a = 0.2, v = 0.2, t = 0.4)
movej(p[0.394385716096111, 0.219036255623099, 0.331239507353907, -1.417, 0.681, -0.692], a = 0.2, v = 0.2, t = 0.4)
movej(p[0.394444548587637, 0.219120549992985, 0.328748165479004, -1.417, 0.681, -0.692], a = 0.2, v = 0.2, t = 0.4)
movej(p[0.394476323875324, 0.219166077180158, 0.327402597702589, -1.417, 0.681, -0.692], a = 0.2, v = 0.2, t = 0.4)
movej(p[0.394482897481705, 0.219175495751314, 0.327124229399282, -1.417, 0.681, -0.692], a = 0.2, v = 0.2, t = 0.4)
movej(p[0.394484920129822, 0.219178393773208, 0.327038577613649, -1.417, 0.681, -0.692], a = 0.2, v = 0.2, t = 0.4)
movej(p[0.394453749065407, 0.219133732308677, 0.328358558733763, -1.417, 0.681, -0.692], a = 0.2, v = 0.2, t = 0.4)
movej(p[0.39440020031356, 0.219057008407003, 0.330626153465264, -1.417, 0.681, -0.692], a = 0.2, v = 0.2, t = 0.4)
movej(p[0.39436835646153, 0.219011382981799, 0.33197462469204, -1.417, 0.681, -0.692], a = 0.2, v = 0.2, t = 0.4)
movej(p[0.394417187129527, 0.219081346879013, 0.329906823638466, -1.417, 0.681, -0.692], a = 0.2, v = 0.2, t = 0.4)
movej(p[0.394467959025484, 0.219154092140459, 0.327756818646562, -1.417, 0.681, -0.692], a = 0.2, v = 0.2, t = 0.4)
movej(p[0.39448073341963, 0.219172395113482, 0.327215869551283, -1.417, 0.681, -0.692], a = 0.2, v = 0.2, t = 0.4)
movej(p[0.394486308557767, 0.219180383093322, 0.32697978274385, -1.417, 0.681, -0.692], a = 0.2, v = 0.2, t = 0.4)
movej(p[0.394479096445942, 0.219170049680508, 0.327285189428638, -1.417, 0.681, -0.692], a = 0.2, v = 0.2, t = 0.4)
movej(p[0.394438857747171, 0.219112396236469, 0.32898915185892, -1.417, 0.681, -0.692], a = 0.2, v = 0.2, t = 0.4)
movej(p[0.394397761994114, 0.21905351481705, 0.330729407418708, -1.417, 0.681, -0.692], a = 0.2, v = 0.2, t = 0.4)
movej(p[0.394355196392954, 0.218992527419856, 0.332531905695597, -1.417, 0.681, -0.692], a = 0.2, v = 0.2, t = 0.4)
movej(p[0.394379819562617, 0.219027807152492, 0.331489204084905, -1.417, 0.681, -0.692], a = 0.2, v = 0.2, t = 0.4)
movej(p[0.394440499006131, 0.219114747809319, 0.328919650515917, -1.417, 0.681, -0.692], a = 0.2, v = 0.2, t = 0.4)
movej(p[0.394475432538866, 0.219164800085764, 0.327440342557274, -1.417, 0.681, -0.692], a = 0.2, v = 0.2, t = 0.4)
movej(p[0.39448351027552, 0.21917637375371, 0.327098279811685, -1.417, 0.681, -0.692], a = 0.2, v = 0.2, t = 0.4)
movej(p[0.394486899925225, 0.219181230396333, 0.326954740484491, -1.417, 0.681, -0.692], a = 0.2, v = 0.2, t = 0.4)
movej(p[0.394486994201196, 0.219181365473625, 0.326950748240246, -1.417, 0.681, -0.692], a = 0.2, v = 0.2, t = 0.4)
movej(p[0.394460648352416, 0.219143617510477, 0.328066399041244, -1.417, 0.681, -0.692], a = 0.2, v = 0.2, t = 0.4)
movej(p[0.394416351501597, 0.219080149603018, 0.329942209439734, -1.417, 0.681, -0.692], a = 0.2, v = 0.2, t = 0.4)
movej(p[0.394370769069347, 0.219014839732491, 0.331872459532482, -1.417, 0.681, -0.692], a = 0.2, v = 0.2, t = 0.4)
movej(p[0.394415528729482, 0.219078970746655, 0.329977050844059, -1.417, 0.681, -0.692], a = 0.2, v = 0.2, t = 0.4)
movej(p[0.394459534181843, 0.219142021142485, 0.328113580109601, -1.417, 0.681, -0.692], a = 0.2, v = 0.2, t = 0.4)
movej(p[0.394481911869275, 0.219174083579628, 0.327165966498213, -1.417, 0.681, -0.692], a = 0.2, v = 0.2, t = 0.4)
movej(p[0.394484225915849, 0.219177399113151, 0.327067975048548, -1.417, 0.681, -0.692], a = 0.2, v = 0.2, t = 0.4)
movej(p[0.394451542150618, 0.219130570272076, 0.328452013542239, -1.417, 0.681, -0.692], a = 0.2, v = 0.2, t = 0.4)
movej(p[0.394392966775378, 0.219046644294805, 0.330932467478291, -1.417, 0.681, -0.692], a = 0.2, v = 0.2, t = 0.4)
movej(p[0.394355667772812, 0.218993202806315, 0.332511944474369, -1.417, 0.681, -0.692], a = 0.2, v = 0.2, t = 0.4)
movej(p[0.394412893287549, 0.219075194722365, 0.330088652217288, -1.417, 0.681, -0.692], a = 0.2, v = 0.2, t = 0.4)
movej(p[0.394453204835934, 0.219132952544312, 0.328381604870999, -1.417, 0.681, -0.692], a = 0.2, v = 0.2, t = 0.4)
movej(p[0.394467667627026, 0.219153674628831, 0.327769158310594, -1.417, 0.681, -0.692], a = 0.2, v = 0.2, t = 0.4)
movej(p[0.394433668283464, 0.219104960845549, 0.329208906758076, -1.417, 0.681, -0.692], a = 0.2, v = 0.2, t = 0.4)
movej(p[0.394371287587191, 0.219015582657595, 0.331850502189132, -1.417, 0.681, -0.692], a = 0.2, v = 0.2, t = 0.4)
movej(p[0.394307411331187, 0.218924061652605, 0.334555429131174, -1.417, 0.681, -0.692], a = 0.2, v = 0.2, t = 0.4)
movej(p[0.394264052954812, 0.218861938378186, 0.336391498552856, -1.417, 0.681, -0.692], a = 0.2, v = 0.2, t = 0.4)
movej(p[0.39436142717762, 0.219001454800861, 0.332268054644092, -1.417, 0.681, -0.692], a = 0.2, v = 0.2, t = 0.4)
movej(p[0.394414984500009, 0.219078190982289, 0.330000096981295, -1.417, 0.681, -0.692], a = 0.2, v = 0.2, t = 0.4)
movej(p[0.394451747843647, 0.219130864986167, 0.328443303191158, -1.417, 0.681, -0.692], a = 0.2, v = 0.2, t = 0.4)
movej(p[0.394470414486016, 0.21915761028992, 0.327652838830529, -1.417, 0.681, -0.692], a = 0.2, v = 0.2, t = 0.4)
movej(p[0.394481089097159, 0.219172904723264, 0.327200807902538, -1.417, 0.681, -0.692], a = 0.2, v = 0.2, t = 0.4)
movej(p[0.394454927515051, 0.219135420774823, 0.328308655680693, -1.417, 0.681, -0.692], a = 0.2, v = 0.2, t = 0.4)
movej(p[0.394402034409734, 0.219059636274314, 0.330548486168123, -1.417, 0.681, -0.692], a = 0.2, v = 0.2, t = 0.4)
movej(p[0.394382840678979, 0.219032135765703, 0.331361270803398, -1.417, 0.681, -0.692], a = 0.2, v = 0.2, t = 0.4)
movej(p[0.394449990882358, 0.219128347636641, 0.328517704106644, -1.417, 0.681, -0.692], a = 0.2, v = 0.2, t = 0.4)
movej(p[0.394478217965298, 0.219168791005745, 0.327322389886382, -1.417, 0.681, -0.692], a = 0.2, v = 0.2, t = 0.4)
movej(p[0.39448440589725, 0.219177656987981, 0.327060353491352, -1.417, 0.681, -0.692], a = 0.2, v = 0.2, t = 0.4)
movej(p[0.394475929630352, 0.219165512311483, 0.327419292542161, -1.417, 0.681, -0.692], a = 0.2, v = 0.2, t = 0.4)
movej(p[0.394425616258439, 0.219093424016864, 0.32954988070978, -1.417, 0.681, -0.692], a = 0.2, v = 0.2, t = 0.4)
movej(p[0.394381602235534, 0.219030361341281, 0.331413714375533, -1.417, 0.681, -0.692], a = 0.2, v = 0.2, t = 0.4)
movej(p[0.394398010539857, 0.21905387092991, 0.330718882411151, -1.417, 0.681, -0.692], a = 0.2, v = 0.2, t = 0.4)
movej(p[0.394457957201955, 0.219139761667788, 0.328180359467891, -1.417, 0.681, -0.692], a = 0.2, v = 0.2, t = 0.4)
movej(p[0.394477930852112, 0.219168379633993, 0.327334548084766, -1.417, 0.681, -0.692], a = 0.2, v = 0.2, t = 0.4)
movej(p[0.394484954411993, 0.219178442892223, 0.327037125888469, -1.417, 0.681, -0.692], a = 0.2, v = 0.2, t = 0.4)
movej(p[0.394473448458191, 0.219161957322761, 0.327524361152079, -1.417, 0.681, -0.692], a = 0.2, v = 0.2, t = 0.4)
movej(p[0.394426353325125, 0.21909448007569, 0.329518668618405, -1.417, 0.681, -0.692], a = 0.2, v = 0.2, t = 0.4)
movej(p[0.394390845566018, 0.219043605055742, 0.331022292973817, -1.417, 0.681, -0.692], a = 0.2, v = 0.2, t = 0.4)
movej(p[0.394414363135651, 0.219077300700139, 0.330026409500187, -1.417, 0.681, -0.692], a = 0.2, v = 0.2, t = 0.4)
movej(p[0.394465130746337, 0.219150039821709, 0.32787658597393, -1.417, 0.681, -0.692], a = 0.2, v = 0.2, t = 0.4)
movej(p[0.394478959317256, 0.219169853204448, 0.327290996329359, -1.417, 0.681, -0.692], a = 0.2, v = 0.2, t = 0.4)
movej(p[0.394485682908137, 0.219179486671295, 0.327006276728389, -1.417, 0.681, -0.692], a = 0.2, v = 0.2, t = 0.4)
movej(p[0.394485918598066, 0.219179824364524, 0.326996296117775, -1.417, 0.681, -0.692], a = 0.2, v = 0.2, t = 0.4)
movej(p[0.39448396022902, 0.219177018440784, 0.327079225918695, -1.417, 0.681, -0.692], a = 0.2, v = 0.2, t = 0.4)
movej(p[0.39445140073666, 0.219130367656139, 0.328458001908608, -1.417, 0.681, -0.692], a = 0.2, v = 0.2, t = 0.4)
movej(p[0.394406015426897, 0.219065340219949, 0.33037990458157, -1.417, 0.681, -0.692], a = 0.2, v = 0.2, t = 0.4)
movej(p[0.394370096281732, 0.219013875771819, 0.331900949639144, -1.417, 0.681, -0.692], a = 0.2, v = 0.2, t = 0.4)
movej(p[0.394426773281726, 0.219095081783626, 0.329500884984947, -1.417, 0.681, -0.692], a = 0.2, v = 0.2, t = 0.4)
movej(p[0.394470988712388, 0.219158433033424, 0.32762852243376, -1.417, 0.681, -0.692], a = 0.2, v = 0.2, t = 0.4)
movej(p[0.394481920439818, 0.219174095859382, 0.327165603566918, -1.417, 0.681, -0.692], a = 0.2, v = 0.2, t = 0.4)
movej(p[0.394486784222896, 0.219181064619657, 0.326959640056974, -1.417, 0.681, -0.692], a = 0.2, v = 0.2, t = 0.4)
movej(p[0.394486351410481, 0.219180444492091, 0.326977968087375, -1.417, 0.681, -0.692], a = 0.2, v = 0.2, t = 0.4)
movej(p[0.394466407757224, 0.219151869505024, 0.327822509210967, -1.417, 0.681, -0.692], a = 0.2, v = 0.2, t = 0.4)
movej(p[0.39442137812499, 0.219087351678616, 0.329729350235184, -1.417, 0.681, -0.692], a = 0.2, v = 0.2, t = 0.4)
movej(p[0.394387258793828, 0.219038465978781, 0.331174179720797, -1.417, 0.681, -0.692], a = 0.2, v = 0.2, t = 0.4)
movej(p[0.394407116741655, 0.219066918168311, 0.330333267910155, -1.417, 0.681, -0.692], a = 0.2, v = 0.2, t = 0.4)
movej(p[0.394461089735374, 0.219144249917797, 0.328047708079548, -1.417, 0.681, -0.692], a = 0.2, v = 0.2, t = 0.4)
movej(p[0.394478479366856, 0.219169165538236, 0.327311320481882, -1.417, 0.681, -0.692], a = 0.2, v = 0.2, t = 0.4)
movej(p[0.394484628731364, 0.219177976261579, 0.327050917277681, -1.417, 0.681, -0.692], a = 0.2, v = 0.2, t = 0.4)
movej(p[0.394488009810526, 0.219182820624449, 0.326907740881781, -1.417, 0.681, -0.692], a = 0.2, v = 0.2, t = 0.4)
movej(p[0.394477943707926, 0.219168398053624, 0.327334003687823, -1.417, 0.681, -0.692], a = 0.2, v = 0.2, t = 0.4)
movej(p[0.394444488593836, 0.219120464034708, 0.328750705998069, -1.417, 0.681, -0.692], a = 0.2, v = 0.2, t = 0.4)
movej(p[0.394402295811292, 0.219060010806804, 0.330537416763624, -1.417, 0.681, -0.692], a = 0.2, v = 0.2, t = 0.4)
movej(p[0.394381983624692, 0.219030907790324, 0.331397563932903, -1.417, 0.681, -0.692], a = 0.2, v = 0.2, t = 0.4)
movej(p[0.394438069257227, 0.21911126649912, 0.329022541538065, -1.417, 0.681, -0.692], a = 0.2, v = 0.2, t = 0.4)
movej(p[0.394473409890748, 0.219161902063869, 0.327525994342907, -1.417, 0.681, -0.692], a = 0.2, v = 0.2, t = 0.4)
movej(p[0.394483304582491, 0.219176079039619, 0.327106990162767, -1.417, 0.681, -0.692], a = 0.2, v = 0.2, t = 0.4)
movej(p[0.394486085723652, 0.219180063819723, 0.326989218957521, -1.417, 0.681, -0.692], a = 0.2, v = 0.2, t = 0.4)
movej(p[0.394458621419028, 0.219140713348706, 0.328152232292524, -1.417, 0.681, -0.692], a = 0.2, v = 0.2, t = 0.4)
movej(p[0.394410287842517, 0.219071461677213, 0.330198983330985, -1.417, 0.681, -0.692], a = 0.2, v = 0.2, t = 0.4)
movej(p[0.394382489286721, 0.219031632295798, 0.331376150986495, -1.417, 0.681, -0.692], a = 0.2, v = 0.2, t = 0.4)
movej(p[0.394436560841682, 0.219109105262453, 0.329086417445995, -1.417, 0.681, -0.692], a = 0.2, v = 0.2, t = 0.4)
movej(p[0.394473958405492, 0.219162687968112, 0.327502766740024, -1.417, 0.681, -0.692], a = 0.2, v = 0.2, t = 0.4)
movej(p[0.394482610368519, 0.219175084379562, 0.327136387597666, -1.417, 0.681, -0.692], a = 0.2, v = 0.2, t = 0.4)
movej(p[0.394486848501967, 0.219181156717811, 0.326956918072261, -1.417, 0.681, -0.692], a = 0.2, v = 0.2, t = 0.4)
movej(p[0.394471952898461, 0.219159814505725, 0.327587692663066, -1.417, 0.681, -0.692], a = 0.2, v = 0.2, t = 0.4)
movej(p[0.394423512190164, 0.219090409337309, 0.329638980342716, -1.417, 0.681, -0.692], a = 0.2, v = 0.2, t = 0.4)
movej(p[0.394387464486856, 0.219038760692872, 0.331165469369716, -1.417, 0.681, -0.692], a = 0.2, v = 0.2, t = 0.4)
movej(p[0.394406936760255, 0.219066660293481, 0.330340889467351, -1.417, 0.681, -0.692], a = 0.2, v = 0.2, t = 0.4)
movej(p[0.394464187986621, 0.219148689048792, 0.327916508416386, -1.417, 0.681, -0.692], a = 0.2, v = 0.2, t = 0.4)
movej(p[0.394480887689402, 0.21917261614905, 0.327209336787972, -1.417, 0.681, -0.692], a = 0.2, v = 0.2, t = 0.4)
movej(p[0.394486681376381, 0.219180917262612, 0.326963995232515, -1.417, 0.681, -0.692], a = 0.2, v = 0.2, t = 0.4)
movej(p[0.394487337022911, 0.219181856663777, 0.326936230988443, -1.417, 0.681, -0.692], a = 0.2, v = 0.2, t = 0.4)
movej(p[0.394480026349843, 0.219171382033794, 0.327245811383125, -1.417, 0.681, -0.692], a = 0.2, v = 0.2, t = 0.4)
movej(p[0.394446481245053, 0.219123319077464, 0.328666324471969, -1.417, 0.681, -0.692], a = 0.2, v = 0.2, t = 0.4)
movej(p[0.394406216834654, 0.219065628794163, 0.330371375696136, -1.417, 0.681, -0.692], a = 0.2, v = 0.2, t = 0.4)
movej(p[0.394394578037438, 0.219048952888517, 0.33086423639482, -1.417, 0.681, -0.692], a = 0.2, v = 0.2, t = 0.4)
movej(p[0.394447561133455, 0.219124866326441, 0.328620595128792, -1.417, 0.681, -0.692], a = 0.2, v = 0.2, t = 0.4)
movej(p[0.394477005233482, 0.219167053420584, 0.327373744664632, -1.417, 0.681, -0.692], a = 0.2, v = 0.2, t = 0.4)
movej(p[0.394484277339107, 0.219177472791674, 0.327065797460778, -1.417, 0.681, -0.692], a = 0.2, v = 0.2, t = 0.4)
movej(p[0.394488614033798, 0.219183686347091, 0.32688215422548, -1.417, 0.681, -0.692], a = 0.2, v = 0.2, t = 0.4)
movej(p[0.394487791261683, 0.219182507490727, 0.326916995629805, -1.417, 0.681, -0.692], a = 0.2, v = 0.2, t = 0.4)
movej(p[0.394453611936721, 0.219133535832616, 0.328364365634484, -1.417, 0.681, -0.692], a = 0.2, v = 0.2, t = 0.4)
movej(p[0.394419351191601, 0.219084447516845, 0.329815183486465, -1.417, 0.681, -0.692], a = 0.2, v = 0.2, t = 0.4)
movej(p[0.394387233082199, 0.21903842913952, 0.331175268514682, -1.417, 0.681, -0.692], a = 0.2, v = 0.2, t = 0.4)
movej(p[0.39443807782777, 0.219111278778874, 0.32902217860677, -1.417, 0.681, -0.692], a = 0.2, v = 0.2, t = 0.4)
movej(p[0.394471520086046, 0.219159194378159, 0.327606020693467, -1.417, 0.681, -0.692], a = 0.2, v = 0.2, t = 0.4)
movej(p[0.39448458587865, 0.21917791486281, 0.327052731934156, -1.417, 0.681, -0.692], a = 0.2, v = 0.2, t = 0.4)
movej(p[0.394487362734539, 0.219181893503038, 0.326935142194558, -1.417, 0.681, -0.692], a = 0.2, v = 0.2, t = 0.4)
movej(p[0.394464119422278, 0.219148590810762, 0.327919411866747, -1.417, 0.681, -0.692], a = 0.2, v = 0.2, t = 0.4)
movej(p[0.394427120388712, 0.219095579113654, 0.329486186267498, -1.417, 0.681, -0.692], a = 0.2, v = 0.2, t = 0.4)
movej(p[0.394382557851064, 0.219031730533828, 0.331373247536135, -1.417, 0.681, -0.692], a = 0.2, v = 0.2, t = 0.4)
movej(p[0.394410317839417, 0.219071504656351, 0.330197713071452, -1.417, 0.681, -0.692], a = 0.2, v = 0.2, t = 0.4)
movej(p[0.394459174219043, 0.219141505392826, 0.328128823223993, -1.417, 0.681, -0.692], a = 0.2, v = 0.2, t = 0.4)
movej(p[0.39448198900416, 0.219174194097412, 0.327162700116557, -1.417, 0.681, -0.692], a = 0.2, v = 0.2, t = 0.4)
movej(p[0.394486235708152, 0.219180278715415, 0.326982867659858, -1.417, 0.681, -0.692], a = 0.2, v = 0.2, t = 0.4)
movej(p[0.394489646784214, 0.219185166057423, 0.326838421004426, -1.417, 0.681, -0.692], a = 0.2, v = 0.2, t = 0.4)
movej(p[0.394473238479891, 0.219161656468794, 0.327533252968808, -1.417, 0.681, -0.692], a = 0.2, v = 0.2, t = 0.4)
movej(p[0.394430025802745, 0.219099741950189, 0.329363152558474, -1.417, 0.681, -0.692], a = 0.2, v = 0.2, t = 0.4)
movej(p[0.394390695581518, 0.219043390160051, 0.33102864427148, -1.417, 0.681, -0.692], a = 0.2, v = 0.2, t = 0.4)
movej(p[0.394393223891665, 0.219047012687419, 0.330921579539439, -1.417, 0.681, -0.692], a = 0.2, v = 0.2, t = 0.4)
movej(p[0.394460228395816, 0.219143015802542, 0.328084182674701, -1.417, 0.681, -0.692], a = 0.2, v = 0.2, t = 0.4)
movej(p[0.394480416309544, 0.219171940762592, 0.3272292980092, -1.417, 0.681, -0.692], a = 0.2, v = 0.2, t = 0.4)
movej(p[0.394487868396569, 0.219182618008512, 0.32691372924815, -1.417, 0.681, -0.692], a = 0.2, v = 0.2, t = 0.4)
movej(p[0.394474575484579, 0.219163572110385, 0.32747663568678, -1.417, 0.681, -0.692], a = 0.2, v = 0.2, t = 0.4)
movej(p[0.394432862652434, 0.219103806548693, 0.329243022299811, -1.417, 0.681, -0.692], a = 0.2, v = 0.2, t = 0.4)
movej(p[0.394389611407845, 0.219041836771196, 0.331074555080305, -1.417, 0.681, -0.692], a = 0.2, v = 0.2, t = 0.4)
movej(p[0.394386376027912, 0.219037201164141, 0.331211561644188, -1.417, 0.681, -0.692], a = 0.2, v = 0.2, t = 0.4)
movej(p[0.394453264829734, 0.219133038502588, 0.328379064351933, -1.417, 0.681, -0.692], a = 0.2, v = 0.2, t = 0.4)
movej(p[0.39447852221957, 0.219169226937004, 0.327309505825407, -1.417, 0.681, -0.692], a = 0.2, v = 0.2, t = 0.4)
movej(p[0.394487915534554, 0.219182685547157, 0.326911733126027, -1.417, 0.681, -0.692], a = 0.2, v = 0.2, t = 0.4)
movej(p[0.394482721785576, 0.219175244016361, 0.32713166949083, -1.417, 0.681, -0.692], a = 0.2, v = 0.2, t = 0.4)
movej(p[0.394440053337902, 0.219114109262122, 0.32893852294326, -1.417, 0.681, -0.692], a = 0.2, v = 0.2, t = 0.4)
movej(p[0.394392893925764, 0.219046539916898, 0.330935552394299, -1.417, 0.681, -0.692], a = 0.2, v = 0.2, t = 0.4)
movej(p[0.394375889968712, 0.21902217688538, 0.331655608083687, -1.417, 0.681, -0.692], a = 0.2, v = 0.2, t = 0.4)
movej(p[0.394442701635648, 0.219117903706043, 0.328826377173088, -1.417, 0.681, -0.692], a = 0.2, v = 0.2, t = 0.4)
movej(p[0.394476006765238, 0.219165622829267, 0.327416026160506, -1.417, 0.681, -0.692], a = 0.2, v = 0.2, t = 0.4)
movej(p[0.394487906964012, 0.219182673267404, 0.326912096057322, -1.417, 0.681, -0.692], a = 0.2, v = 0.2, t = 0.4)
movej(p[0.394488845438456, 0.219184017900443, 0.326872355080514, -1.417, 0.681, -0.692], a = 0.2, v = 0.2, t = 0.4)
movej(p[0.394481667608803, 0.219173733606645, 0.327176310040122, -1.417, 0.681, -0.692], a = 0.2, v = 0.2, t = 0.4)
movej(p[0.394442384525562, 0.219117449355153, 0.328839805631005, -1.417, 0.681, -0.692], a = 0.2, v = 0.2, t = 0.4)
movej(p[0.394400436003489, 0.219057346100232, 0.33061617285465, -1.417, 0.681, -0.692], a = 0.2, v = 0.2, t = 0.4)
movej(p[0.394385334706953, 0.219035709174056, 0.331255657796537, -1.417, 0.681, -0.692], a = 0.2, v = 0.2, t = 0.4)
movej(p[0.394434898156366, 0.219106722990218, 0.329156826117236, -1.417, 0.681, -0.692], a = 0.2, v = 0.2, t = 0.4)
movej(p[0.394475222560565, 0.219164499231796, 0.327449234374003, -1.417, 0.681, -0.692], a = 0.2, v = 0.2, t = 0.4)
movej(p[0.394484290194921, 0.219177491211305, 0.327065253063835, -1.417, 0.681, -0.692], a = 0.2, v = 0.2, t = 0.4)
movej(p[0.394489801053986, 0.219185387092991, 0.326831888241115, -1.417, 0.681, -0.692], a = 0.2, v = 0.2, t = 0.4)
movej(p[0.39448234468169, 0.219174703707194, 0.327147638467813, -1.417, 0.681, -0.692], a = 0.2, v = 0.2, t = 0.4)
movej(p[0.394447132606312, 0.219124252338752, 0.328638741693545, -1.417, 0.681, -0.692], a = 0.2, v = 0.2, t = 0.4)
movej(p[0.394404554149338, 0.219063246521928, 0.330441784367377, -1.417, 0.681, -0.692], a = 0.2, v = 0.2, t = 0.4)
movej(p[0.394384597640267, 0.21903465311523, 0.331286869887912, -1.417, 0.681, -0.692], a = 0.2, v = 0.2, t = 0.4)
movej(p[0.394443524407764, 0.219119082562407, 0.328791535768763, -1.417, 0.681, -0.692], a = 0.2, v = 0.2, t = 0.4)
movej(p[0.394474468352793, 0.219163418613462, 0.327481172327968, -1.417, 0.681, -0.692], a = 0.2, v = 0.2, t = 0.4)
movej(p[0.394488001239983, 0.219182808344695, 0.326908103813077, -1.417, 0.681, -0.692], a = 0.2, v = 0.2, t = 0.4)
movej(p[0.394489162548542, 0.219184472251334, 0.326858926622597, -1.417, 0.681, -0.692], a = 0.2, v = 0.2, t = 0.4)
movej(p[0.394480064917286, 0.219171437292687, 0.327244178192297, -1.417, 0.681, -0.692], a = 0.2, v = 0.2, t = 0.4)
movej(p[0.394434349641622, 0.219105937085976, 0.329180053720119, -1.417, 0.681, -0.692], a = 0.2, v = 0.2, t = 0.4)
movej(p[0.394384653348795, 0.219034732933629, 0.331284510834494, -1.417, 0.681, -0.692], a = 0.2, v = 0.2, t = 0.4)
movej(p[0.394379202483531, 0.21902692301022, 0.331515335138149, -1.417, 0.681, -0.692], a = 0.2, v = 0.2, t = 0.4)
movej(p[0.394448872426514, 0.219126745128771, 0.328565066640649, -1.417, 0.681, -0.692], a = 0.2, v = 0.2, t = 0.4)
movej(p[0.394482108991761, 0.219174366013965, 0.327157619078427, -1.417, 0.681, -0.692], a = 0.2, v = 0.2, t = 0.4)
movej(p[0.394487294170196, 0.219181795265008, 0.326938045644919, -1.417, 0.681, -0.692], a = 0.2, v = 0.2, t = 0.4)
movej(p[0.394491326610616, 0.219187572889165, 0.326767286470595, -1.417, 0.681, -0.692], a = 0.2, v = 0.2, t = 0.4)
movej(p[0.39446304810442, 0.219147055841538, 0.327964778278628, -1.417, 0.681, -0.692], a = 0.2, v = 0.2, t = 0.4)
movej(p[0.394416531482997, 0.219080407477848, 0.329934587882538, -1.417, 0.681, -0.692], a = 0.2, v = 0.2, t = 0.4)
movej(p[0.394375392877225, 0.21902146465966, 0.3316766580988, -1.417, 0.681, -0.692], a = 0.2, v = 0.2, t = 0.4)
movej(p[0.394402608636106, 0.219060459017818, 0.330524169771354, -1.417, 0.681, -0.692], a = 0.2, v = 0.2, t = 0.4)
movej(p[0.394463575192806, 0.219147811046396, 0.327942458003982, -1.417, 0.681, -0.692], a = 0.2, v = 0.2, t = 0.4)
movej(p[0.394481517624303, 0.219173518710954, 0.327182661337785, -1.417, 0.681, -0.692], a = 0.2, v = 0.2, t = 0.4)
movej(p[0.394489681066386, 0.219185215176438, 0.326836969279246, -1.417, 0.681, -0.692], a = 0.2, v = 0.2, t = 0.4)
movej(p[0.394481487627403, 0.219173475731816, 0.327183931597318, -1.417, 0.681, -0.692], a = 0.2, v = 0.2, t = 0.4)
movej(p[0.394438034975056, 0.219111217380105, 0.329023993263246, -1.417, 0.681, -0.692], a = 0.2, v = 0.2, t = 0.4)
movej(p[0.394388415817115, 0.219040123745543, 0.331125183995965, -1.417, 0.681, -0.692], a = 0.2, v = 0.2, t = 0.4)
movej(p[0.39437188323992, 0.219016436100484, 0.331825278464125, -1.417, 0.681, -0.692], a = 0.2, v = 0.2, t = 0.4)
movej(p[0.394441913145704, 0.219116773968694, 0.328859766852233, -1.417, 0.681, -0.692], a = 0.2, v = 0.2, t = 0.4)
movej(p[0.394474035540378, 0.219162798485896, 0.327499500358368, -1.417, 0.681, -0.692], a = 0.2, v = 0.2, t = 0.4)
movej(p[0.394488001239983, 0.219182808344695, 0.326908103813077, -1.417, 0.681, -0.692], a = 0.2, v = 0.2, t = 0.4)
movej(p[0.394489149692728, 0.219184453831703, 0.326859471019539, -1.417, 0.681, -0.692], a = 0.2, v = 0.2, t = 0.4)
movej(p[0.394460862615988, 0.219143924504322, 0.328057325758867, -1.417, 0.681, -0.692], a = 0.2, v = 0.2, t = 0.4)
movej(p[0.39440763954477, 0.219067667233292, 0.330311129101157, -1.417, 0.681, -0.692], a = 0.2, v = 0.2, t = 0.4)
movej(p[0.39436569959324, 0.219007576258125, 0.332087133393507, -1.417, 0.681, -0.692], a = 0.2, v = 0.2, t = 0.4)
movej(p[0.39440148589499, 0.219058850370071, 0.330571713771006, -1.417, 0.681, -0.692], a = 0.2, v = 0.2, t = 0.4)
movej(p[0.39445791006397, 0.219139694129142, 0.328182355590014, -1.417, 0.681, -0.692], a = 0.2, v = 0.2, t = 0.4)
movej(p[0.394483835956149, 0.219176840384354, 0.327084488422473, -1.417, 0.681, -0.692], a = 0.2, v = 0.2, t = 0.4)
movej(p[0.394488674027598, 0.219183772305368, 0.326879613706415, -1.417, 0.681, -0.692], a = 0.2, v = 0.2, t = 0.4)
movej(p[0.394489243968699, 0.219184588908995, 0.326855478775294, -1.417, 0.681, -0.692], a = 0.2, v = 0.2, t = 0.4)
movej(p[0.39445202638629, 0.219131264078166, 0.328431507924069, -1.417, 0.681, -0.692], a = 0.2, v = 0.2, t = 0.4)
movej(p[0.394403255712093, 0.219061386139229, 0.330496768458577, -1.417, 0.681, -0.692], a = 0.2, v = 0.2, t = 0.4)
movej(p[0.394370670508104, 0.219014698515323, 0.331876633242375, -1.417, 0.681, -0.692], a = 0.2, v = 0.2, t = 0.4)
movej(p[0.394424043563822, 0.219091170682044, 0.329616478602422, -1.417, 0.681, -0.692], a = 0.2, v = 0.2, t = 0.4)
movej(p[0.394472809952748, 0.219161042481104, 0.327551399533561, -1.417, 0.681, -0.692], a = 0.2, v = 0.2, t = 0.4)
movej(p[0.394485172960836, 0.219178756025945, 0.327027871140445, -1.417, 0.681, -0.692], a = 0.2, v = 0.2, t = 0.4)
movej(p[0.394491369463331, 0.219187634287934, 0.32676547181412, -1.417, 0.681, -0.692], a = 0.2, v = 0.2, t = 0.4)
movej(p[0.394490079596629, 0.219185786184989, 0.326820092974026, -1.417, 0.681, -0.692], a = 0.2, v = 0.2, t = 0.4)
movej(p[0.394460348383416, 0.219143187719095, 0.328079101636571, -1.417, 0.681, -0.692], a = 0.2, v = 0.2, t = 0.4)
movej(p[0.394412987563521, 0.219075329799656, 0.330084659973043, -1.417, 0.681, -0.692], a = 0.2, v = 0.2, t = 0.4)
movej(p[0.394375530005911, 0.219021661135721, 0.331670851198079, -1.417, 0.681, -0.692], a = 0.2, v = 0.2, t = 0.4)
movej(p[0.394411517715419, 0.219073223821881, 0.330146902690145, -1.417, 0.681, -0.692], a = 0.2, v = 0.2, t = 0.4)
movej(p[0.394463399496677, 0.219147559311444, 0.327949898095531, -1.417, 0.681, -0.692], a = 0.2, v = 0.2, t = 0.4)
movej(p[0.394486569959324, 0.219180757625812, 0.326968713339351, -1.417, 0.681, -0.692], a = 0.2, v = 0.2, t = 0.4)
movej(p[0.394489762486543, 0.219185331834099, 0.326833521431943, -1.417, 0.681, -0.692], a = 0.2, v = 0.2, t = 0.4)
movej(p[0.394489393953199, 0.219184803804686, 0.32684912747763, -1.417, 0.681, -0.692], a = 0.2, v = 0.2, t = 0.4)
movej(p[0.394448422473013, 0.219126100441697, 0.328584120533639, -1.417, 0.681, -0.692], a = 0.2, v = 0.2, t = 0.4)
movej(p[0.394398919017401, 0.219055172583811, 0.330680411693875, -1.417, 0.681, -0.692], a = 0.2, v = 0.2, t = 0.4)
movej(p[0.394363346979223, 0.21900420546571, 0.332186758034, -1.417, 0.681, -0.692], a = 0.2, v = 0.2, t = 0.4)
movej(p[0.39442352933125, 0.219090433896817, 0.329638254480126, -1.417, 0.681, -0.692], a = 0.2, v = 0.2, t = 0.4)
movej(p[0.394472115738775, 0.219160047821047, 0.32758079696846, -1.417, 0.681, -0.692], a = 0.2, v = 0.2, t = 0.4)
movej(p[0.394485327230608, 0.219178977061513, 0.327021338377134, -1.417, 0.681, -0.692], a = 0.2, v = 0.2, t = 0.4)
movej(p[0.394491827987374, 0.219188291254762, 0.326746054989835, -1.417, 0.681, -0.692], a = 0.2, v = 0.2, t = 0.4)
movej(p[0.394491639435431, 0.219188021100179, 0.326754039478326, -1.417, 0.681, -0.692], a = 0.2, v = 0.2, t = 0.4)
movej(p[0.394465070752537, 0.219149953863433, 0.327879126492995, -1.417, 0.681, -0.692], a = 0.2, v = 0.2, t = 0.4)
movej(p[0.394420418224188, 0.219085976346191, 0.32976999854023, -1.417, 0.681, -0.692], a = 0.2, v = 0.2, t = 0.4)
movej(p[0.394380869454119, 0.219029311422332, 0.33144474500126, -1.417, 0.681, -0.692], a = 0.2, v = 0.2, t = 0.4)
movej(p[0.394408603730843, 0.219069048705593, 0.330270299330463, -1.417, 0.681, -0.692], a = 0.2, v = 0.2, t = 0.4)
movej(p[0.394460909753974, 0.219143992042968, 0.328055329636745, -1.417, 0.681, -0.692], a = 0.2, v = 0.2, t = 0.4)
movej(p[0.394486000018223, 0.219179941022185, 0.326992848270472, -1.417, 0.681, -0.692], a = 0.2, v = 0.2, t = 0.4)
movej(p[0.3944898739036, 0.219185491470898, 0.326828803325107, -1.417, 0.681, -0.692], a = 0.2, v = 0.2, t = 0.4)
movej(p[0.394492929302133, 0.219189869203124, 0.32669941831842, -1.417, 0.681, -0.692], a = 0.2, v = 0.2, t = 0.4)
movej(p[0.394471910045746, 0.219159753106956, 0.327589507319542, -1.417, 0.681, -0.692], a = 0.2, v = 0.2, t = 0.4)
movej(p[0.394431945604347, 0.219102492615038, 0.329281855948382, -1.417, 0.681, -0.692], a = 0.2, v = 0.2, t = 0.4)
movej(p[0.394393288170736, 0.219047104785572, 0.330918857554726, -1.417, 0.681, -0.692], a = 0.2, v = 0.2, t = 0.4)
movej(p[0.394369654898774, 0.219013243364499, 0.331919640600839, -1.417, 0.681, -0.692], a = 0.2, v = 0.2, t = 0.4)
movej(p[0.394441133226303, 0.2191156565111, 0.328892793600083, -1.417, 0.681, -0.692], a = 0.2, v = 0.2, t = 0.4)
movej(p[0.394475166852037, 0.219164419413396, 0.327451593427421, -1.417, 0.681, -0.692], a = 0.2, v = 0.2, t = 0.4)
movej(p[0.394488811156284, 0.219183968781428, 0.326873806805694, -1.417, 0.681, -0.692], a = 0.2, v = 0.2, t = 0.4)
movej(p[0.394490131019886, 0.219185859863512, 0.326817915386255, -1.417, 0.681, -0.692], a = 0.2, v = 0.2, t = 0.4)
movej(p[0.394466677729325, 0.219152256317268, 0.327811076875173, -1.417, 0.681, -0.692], a = 0.2, v = 0.2, t = 0.4)
movej(p[0.394415974397711, 0.219079609293852, 0.329958178416716, -1.417, 0.681, -0.692], a = 0.2, v = 0.2, t = 0.4)
movej(p[0.394366252393255, 0.219008368302244, 0.332063724324976, -1.417, 0.681, -0.692], a = 0.2, v = 0.2, t = 0.4)
movej(p[0.394403418552407, 0.219061619454551, 0.330489872763971, -1.417, 0.681, -0.692], a = 0.2, v = 0.2, t = 0.4)
movej(p[0.394458565710499, 0.219140633530307, 0.328154591345942, -1.417, 0.681, -0.692], a = 0.2, v = 0.2, t = 0.4)
movej(p[0.394484851565479, 0.219178295535178, 0.327041481064009, -1.417, 0.681, -0.692], a = 0.2, v = 0.2, t = 0.4)
movej(p[0.394489929612129, 0.219185571289298, 0.326826444271689, -1.417, 0.681, -0.692], a = 0.2, v = 0.2, t = 0.4)
movej(p[0.394492757891276, 0.219189623608048, 0.326706676944321, -1.417, 0.681, -0.692], a = 0.2, v = 0.2, t = 0.4)
movej(p[0.394467723335555, 0.21915375444723, 0.327766799257176, -1.417, 0.681, -0.692], a = 0.2, v = 0.2, t = 0.4)
movej(p[0.394419985411773, 0.219085356218625, 0.329788326570631, -1.417, 0.681, -0.692], a = 0.2, v = 0.2, t = 0.4)
movej(p[0.394394299494795, 0.219048553796519, 0.33087603166191, -1.417, 0.681, -0.692], a = 0.2, v = 0.2, t = 0.4)
movej(p[0.394429481573273, 0.219098962185823, 0.32938619869571, -1.417, 0.681, -0.692], a = 0.2, v = 0.2, t = 0.4)
movej(p[0.394466750578939, 0.219152360695175, 0.327807991959165, -1.417, 0.681, -0.692], a = 0.2, v = 0.2, t = 0.4)
movej(p[0.394482190411918, 0.219174482671626, 0.327154171231124, -1.417, 0.681, -0.692], a = 0.2, v = 0.2, t = 0.4)
movej(p[0.394489595360957, 0.2191850923789, 0.326840598592196, -1.417, 0.681, -0.692], a = 0.2, v = 0.2, t = 0.4)
movej(p[0.394490178157872, 0.219185927402158, 0.326815919264133, -1.417, 0.681, -0.692], a = 0.2, v = 0.2, t = 0.4)
movej(p[0.394457648662412, 0.219139319596651, 0.328193424994513, -1.417, 0.681, -0.692], a = 0.2, v = 0.2, t = 0.4)
movej(p[0.394422158044391, 0.219088469136211, 0.329696323487334, -1.417, 0.681, -0.692], a = 0.2, v = 0.2, t = 0.4)
movej(p[0.394385754663554, 0.219036310881991, 0.331237874163079, -1.417, 0.681, -0.692], a = 0.2, v = 0.2, t = 0.4)
movej(p[0.394405659749368, 0.219064830610167, 0.330394966230315, -1.417, 0.681, -0.692], a = 0.2, v = 0.2, t = 0.4)
movej(p[0.394438819179729, 0.219112340977577, 0.328990785049748, -1.417, 0.681, -0.692], a = 0.2, v = 0.2, t = 0.4)
movej(p[0.394461659676475, 0.219145066521424, 0.328023573148427, -1.417, 0.681, -0.692], a = 0.2, v = 0.2, t = 0.4)
movej(p[0.394471331534103, 0.219158924223575, 0.327614005181958, -1.417, 0.681, -0.692], a = 0.2, v = 0.2, t = 0.4)
movej(p[0.394469308885986, 0.219156026201681, 0.327699656967591, -1.417, 0.681, -0.692], a = 0.2, v = 0.2, t = 0.4)
movej(p[0.394446369827996, 0.219123159440665, 0.328671042578805, -1.417, 0.681, -0.692], a = 0.2, v = 0.2, t = 0.4)
movej(p[0.394413973175951, 0.219076741971342, 0.330042922874112, -1.417, 0.681, -0.692], a = 0.2, v = 0.2, t = 0.4)
movej(p[0.394388990043487, 0.219040946489047, 0.331100867599196, -1.417, 0.681, -0.692], a = 0.2, v = 0.2, t = 0.4)
movej(p[0.39441316325965, 0.219075581534609, 0.330077219881494, -1.417, 0.681, -0.692], a = 0.2, v = 0.2, t = 0.4)
movej(p[0.39445178641109, 0.219130920245059, 0.32844167000033, -1.417, 0.681, -0.692], a = 0.2, v = 0.2, t = 0.4)
movej(p[0.394474622622564, 0.21916363964903, 0.327474639564657, -1.417, 0.681, -0.692], a = 0.2, v = 0.2, t = 0.4)
movej(p[0.394478590783913, 0.219169325175035, 0.327306602375047, -1.417, 0.681, -0.692], a = 0.2, v = 0.2, t = 0.4)
movej(p[0.394474318368293, 0.219163203717771, 0.327487523625631, -1.417, 0.681, -0.692], a = 0.2, v = 0.2, t = 0.4)
movej(p[0.394435378106766, 0.21910741065643, 0.329136501964712, -1.417, 0.681, -0.692], a = 0.2, v = 0.2, t = 0.4)
movej(p[0.394398704753829, 0.219054865589967, 0.330689484976252, -1.417, 0.681, -0.692], a = 0.2, v = 0.2, t = 0.4)
movej(p[0.394389962800103, 0.219042340241102, 0.331059674897207, -1.417, 0.681, -0.692], a = 0.2, v = 0.2, t = 0.4)
movej(p[0.394441300351889, 0.219115895966298, 0.32888571643983, -1.417, 0.681, -0.692], a = 0.2, v = 0.2, t = 0.4)
movej(p[0.394477485183883, 0.219167741086796, 0.327353420512109, -1.417, 0.681, -0.692], a = 0.2, v = 0.2, t = 0.4)
movej(p[0.394485412936037, 0.219179099859051, 0.327017709064183, -1.417, 0.681, -0.692], a = 0.2, v = 0.2, t = 0.4)
movej(p[0.394491262331545, 0.219187480791012, 0.326770008455308, -1.417, 0.681, -0.692], a = 0.2, v = 0.2, t = 0.4)
movej(p[0.394467303378954, 0.219153152739295, 0.327784582890634, -1.417, 0.681, -0.692], a = 0.2, v = 0.2, t = 0.4)
movej(p[0.394429297306601, 0.219098698171117, 0.329394001718554, -1.417, 0.681, -0.692], a = 0.2, v = 0.2, t = 0.4)
movej(p[0.394391676908677, 0.21904479619186, 0.330987088638196, -1.417, 0.681, -0.692], a = 0.2, v = 0.2, t = 0.4)
movej(p[0.394400273163174, 0.21905711278491, 0.330623068549256, -1.417, 0.681, -0.692], a = 0.2, v = 0.2, t = 0.4)
movej(p[0.394454914659237, 0.219135402355192, 0.328309200077635, -1.417, 0.681, -0.692], a = 0.2, v = 0.2, t = 0.4)
movej(p[0.394478235106384, 0.219168815565253, 0.327321664023791, -1.417, 0.681, -0.692], a = 0.2, v = 0.2, t = 0.4)
movej(p[0.394489745345457, 0.219185307274591, 0.326834247294533, -1.417, 0.681, -0.692], a = 0.2, v = 0.2, t = 0.4)
movej(p[0.394491579441631, 0.219187935141902, 0.326756579997391, -1.417, 0.681, -0.692], a = 0.2, v = 0.2, t = 0.4)
movej(p[0.394477078083096, 0.219167157798491, 0.327370659748624, -1.417, 0.681, -0.692], a = 0.2, v = 0.2, t = 0.4)
movej(p[0.394441300351889, 0.219115895966298, 0.32888571643983, -1.417, 0.681, -0.692], a = 0.2, v = 0.2, t = 0.4)
movej(p[0.394397209194099, 0.21905272277293, 0.330752816487239, -1.417, 0.681, -0.692], a = 0.2, v = 0.2, t = 0.4)
movej(p[0.394397903408071, 0.219053717432987, 0.330723419052339, -1.417, 0.681, -0.692], a = 0.2, v = 0.2, t = 0.4)
movej(p[0.394448311055956, 0.219125940804898, 0.328588838640475, -1.417, 0.681, -0.692], a = 0.2, v = 0.2, t = 0.4)
movej(p[0.394479992067672, 0.219171332914779, 0.327247263108305, -1.417, 0.681, -0.692], a = 0.2, v = 0.2, t = 0.4)
movej(p[0.394488566895813, 0.219183618808445, 0.326884150347603, -1.417, 0.681, -0.692], a = 0.2, v = 0.2, t = 0.4)
movej(p[0.394492766461818, 0.219189635887802, 0.326706314013026, -1.417, 0.681, -0.692], a = 0.2, v = 0.2, t = 0.4)
movej(p[0.394474682616364, 0.219163725607307, 0.327472099045592, -1.417, 0.681, -0.692], a = 0.2, v = 0.2, t = 0.4)
movej(p[0.394430047229102, 0.219099772649573, 0.329362245230236, -1.417, 0.681, -0.692], a = 0.2, v = 0.2, t = 0.4)
movej(p[0.394394500902552, 0.219048842370733, 0.330867502776476, -1.417, 0.681, -0.692], a = 0.2, v = 0.2, t = 0.4)
movej(p[0.394403979922965, 0.219062423778424, 0.330466100764145, -1.417, 0.681, -0.692], a = 0.2, v = 0.2, t = 0.4)
movej(p[0.394455244625137, 0.219135875125713, 0.328295227222776, -1.417, 0.681, -0.692], a = 0.2, v = 0.2, t = 0.4)
movej(p[0.394482237549904, 0.219174550210272, 0.327152175109001, -1.417, 0.681, -0.692], a = 0.2, v = 0.2, t = 0.4)
movej(p[0.394490658108273, 0.21918661506837, 0.32679559511161, -1.417, 0.681, -0.692], a = 0.2, v = 0.2, t = 0.4)
movej(p[0.394494986232422, 0.219192816344033, 0.326612314807607, -1.417, 0.681, -0.692], a = 0.2, v = 0.2, t = 0.4)
movej(p[0.394480510585516, 0.219172075839884, 0.327225305764954, -1.417, 0.681, -0.692], a = 0.2, v = 0.2, t = 0.4)
movej(p[0.394447081183054, 0.219124178660229, 0.328640919281315, -1.417, 0.681, -0.692], a = 0.2, v = 0.2, t = 0.4)
movej(p[0.394407361002127, 0.219067268141294, 0.330322924368246, -1.417, 0.681, -0.692], a = 0.2, v = 0.2, t = 0.4)
movej(p[0.394388394390758, 0.219040093046158, 0.331126091324202, -1.417, 0.681, -0.692], a = 0.2, v = 0.2, t = 0.4)
movej(p[0.394442637356577, 0.21911781160789, 0.328829099157801, -1.417, 0.681, -0.692], a = 0.2, v = 0.2, t = 0.4)
movej(p[0.394474155527978, 0.219162970402449, 0.327494419320237, -1.417, 0.681, -0.692], a = 0.2, v = 0.2, t = 0.4)
movej(p[0.394490962362545, 0.219187050999629, 0.326782711050635, -1.417, 0.681, -0.692], a = 0.2, v = 0.2, t = 0.4)
movej(p[0.394493096427719, 0.219190108658323, 0.326692341158167, -1.417, 0.681, -0.692], a = 0.2, v = 0.2, t = 0.4)
movej(p[0.394490208154772, 0.219185970381296, 0.3268146490046, -1.417, 0.681, -0.692], a = 0.2, v = 0.2, t = 0.4)
movej(p[0.394456860172468, 0.219138189859303, 0.328226814673658, -1.417, 0.681, -0.692], a = 0.2, v = 0.2, t = 0.4)
movej(p[0.394420581064503, 0.219086209661513, 0.329763102845624, -1.417, 0.681, -0.692], a = 0.2, v = 0.2, t = 0.4)
movej(p[0.394384949032524, 0.219035156585135, 0.331271989704814, -1.417, 0.681, -0.692], a = 0.2, v = 0.2, t = 0.4)
movej(p[0.39442645617164, 0.219094627432736, 0.329514313442864, -1.417, 0.681, -0.692], a = 0.2, v = 0.2, t = 0.4)
movej(p[0.394472681394605, 0.219160858284797, 0.327556843502987, -1.417, 0.681, -0.692], a = 0.2, v = 0.2, t = 0.4)
movej(p[0.394487611280283, 0.219182249615898, 0.326924617187002, -1.417, 0.681, -0.692], a = 0.2, v = 0.2, t = 0.4)
movej(p[0.394493692080448, 0.219190962101211, 0.32666711743316, -1.417, 0.681, -0.692], a = 0.2, v = 0.2, t = 0.4)
movej(p[0.39449280074399, 0.219189685006817, 0.326704862287846, -1.417, 0.681, -0.692], a = 0.2, v = 0.2, t = 0.4)
movej(p[0.394454927515051, 0.219135420774823, 0.328308655680693, -1.417, 0.681, -0.692], a = 0.2, v = 0.2, t = 0.4)
movej(p[0.394415455879867, 0.219078866368747, 0.329980135760067, -1.417, 0.681, -0.692], a = 0.2, v = 0.2, t = 0.4)
movej(p[0.394375422874125, 0.219021507638799, 0.331675387839268, -1.417, 0.681, -0.692], a = 0.2, v = 0.2, t = 0.4)
movej(p[0.39441271759142, 0.219074942987412, 0.330096092308837, -1.417, 0.681, -0.692], a = 0.2, v = 0.2, t = 0.4)
movej(p[0.394464277977321, 0.219148817986207, 0.327912697637788, -1.417, 0.681, -0.692], a = 0.2, v = 0.2, t = 0.4)
movej(p[0.39448664709421, 0.219180868143597, 0.326965446957695, -1.417, 0.681, -0.692], a = 0.2, v = 0.2, t = 0.4)
movej(p[0.394492907875776, 0.219189838503739, 0.326700325646658, -1.417, 0.681, -0.692], a = 0.2, v = 0.2, t = 0.4)
movej(p[0.394488164080298, 0.219183041660017, 0.326901208118471, -1.417, 0.681, -0.692], a = 0.2, v = 0.2, t = 0.4)
movej(p[0.394451829263804, 0.219130981643828, 0.328439855343855, -1.417, 0.681, -0.692], a = 0.2, v = 0.2, t = 0.4)
movej(p[0.394404151333823, 0.2190626693735, 0.330458842138244, -1.417, 0.681, -0.692], a = 0.2, v = 0.2, t = 0.4)
movej(p[0.394377659785814, 0.219024712654538, 0.331580662771258, -1.417, 0.681, -0.692], a = 0.2, v = 0.2, t = 0.4)
movej(p[0.394426623297226, 0.219094866887935, 0.329507236282611, -1.417, 0.681, -0.692], a = 0.2, v = 0.2, t = 0.4)
movej(p[0.394472291434904, 0.219160299556, 0.327573356876912, -1.417, 0.681, -0.692], a = 0.2, v = 0.2, t = 0.4)
movej(p[0.394490246722215, 0.219186025640188, 0.326813015813772, -1.417, 0.681, -0.692], a = 0.2, v = 0.2, t = 0.4)
movej(p[0.394493734933163, 0.21919102349998, 0.326665302776685, -1.417, 0.681, -0.692], a = 0.2, v = 0.2, t = 0.4)
movej(p[0.394496897463481, 0.219195554729128, 0.32653138112881, -1.417, 0.681, -0.692], a = 0.2, v = 0.2, t = 0.4)
movej(p[0.39446872608907, 0.219155191178424, 0.327724336295655, -1.417, 0.681, -0.692], a = 0.2, v = 0.2, t = 0.4)
movej(p[0.394431229964018, 0.219101467255596, 0.329312160711519, -1.417, 0.681, -0.692], a = 0.2, v = 0.2, t = 0.4)
movej(p[0.394389997082274, 0.219042389360117, 0.331058223172027, -1.417, 0.681, -0.692], a = 0.2, v = 0.2, t = 0.4)
movej(p[0.394393570998651, 0.219047510017447, 0.330906880821989, -1.417, 0.681, -0.692], a = 0.2, v = 0.2, t = 0.4)
movej(p[0.394456714473239, 0.219137981103488, 0.328232984505674, -1.417, 0.681, -0.692], a = 0.2, v = 0.2, t = 0.4)
movej(p[0.394482511807276, 0.219174943162393, 0.327140561307559, -1.417, 0.681, -0.692], a = 0.2, v = 0.2, t = 0.4)
movej(p[0.394493443534705, 0.219190605988351, 0.326677642440717, -1.417, 0.681, -0.692], a = 0.2, v = 0.2, t = 0.4)
movej(p[0.394494296303721, 0.219191827823853, 0.326641530776859, -1.417, 0.681, -0.692], a = 0.2, v = 0.2, t = 0.4)
movej(p[0.394473829847349, 0.219162503771805, 0.32750821070945, -1.417, 0.681, -0.692], a = 0.2, v = 0.2, t = 0.4)
movej(p[0.394428405970142, 0.219097421076723, 0.329431746573239, -1.417, 0.681, -0.692], a = 0.2, v = 0.2, t = 0.4)
movej(p[0.394391964021863, 0.219045207563612, 0.330974930439812, -1.417, 0.681, -0.692], a = 0.2, v = 0.2, t = 0.4)
movej(p[0.394388480096186, 0.219040215843696, 0.331122462011252, -1.417, 0.681, -0.692], a = 0.2, v = 0.2, t = 0.4)
movej(p[0.394449245245129, 0.219127279298061, 0.328549279129314, -1.417, 0.681, -0.692], a = 0.2, v = 0.2, t = 0.4)
movej(p[0.394483291726677, 0.219176060619988, 0.327107534559709, -1.417, 0.681, -0.692], a = 0.2, v = 0.2, t = 0.4)
movej(p[0.394490563832301, 0.219186479991078, 0.326799587355855, -1.417, 0.681, -0.692], a = 0.2, v = 0.2, t = 0.4)
movej(p[0.394495076223122, 0.219192945281448, 0.326608504029009, -1.417, 0.681, -0.692], a = 0.2, v = 0.2, t = 0.4)
movej(p[0.394469840259643, 0.219156787546416, 0.327677155227297, -1.417, 0.681, -0.692], a = 0.2, v = 0.2, t = 0.4)
movej(p[0.394421266707932, 0.219087192041816, 0.32973406834202, -1.417, 0.681, -0.692], a = 0.2, v = 0.2, t = 0.4)
movej(p[0.394376494191984, 0.219023042608022, 0.331630021427386, -1.417, 0.681, -0.692], a = 0.2, v = 0.2, t = 0.4)
movej(p[0.394375551432268, 0.219021691835105, 0.331669943869842, -1.417, 0.681, -0.692], a = 0.2, v = 0.2, t = 0.4)
movej(p[0.394446794069868, 0.219123767288477, 0.3286530774797, -1.417, 0.681, -0.692], a = 0.2, v = 0.2, t = 0.4)
movej(p[0.394479932073872, 0.219171246956503, 0.327249803627371, -1.417, 0.681, -0.692], a = 0.2, v = 0.2, t = 0.4)
movej(p[0.394492329364132, 0.219189009620359, 0.326724823509074, -1.417, 0.681, -0.692], a = 0.2, v = 0.2, t = 0.4)
movej(p[0.394493713506806, 0.219190992800596, 0.326666210104923, -1.417, 0.681, -0.692], a = 0.2, v = 0.2, t = 0.4)
movej(p[0.394468876073571, 0.219155406074115, 0.327717984997991, -1.417, 0.681, -0.692], a = 0.2, v = 0.2, t = 0.4)
movej(p[0.394423893579322, 0.219090955786353, 0.329622829900086, -1.417, 0.681, -0.692], a = 0.2, v = 0.2, t = 0.4)
movej(p[0.394372581739164, 0.219017436900418, 0.331795699563578, -1.417, 0.681, -0.692], a = 0.2, v = 0.2, t = 0.4)
movej(p[0.394388767209373, 0.219040627215448, 0.331110303812867, -1.417, 0.681, -0.692], a = 0.2, v = 0.2, t = 0.4)
movej(p[0.394445821313253, 0.219122373536422, 0.328694270181688, -1.417, 0.681, -0.692], a = 0.2, v = 0.2, t = 0.4)
movej(p[0.394481423348331, 0.219173383633662, 0.327186653582031, -1.417, 0.681, -0.692], a = 0.2, v = 0.2, t = 0.4)
movej(p[0.394491322325345, 0.219187566749289, 0.326767467936243, -1.417, 0.681, -0.692], a = 0.2, v = 0.2, t = 0.4)
movej(p[0.394495813289808, 0.219194001340274, 0.326577291937634, -1.417, 0.681, -0.692], a = 0.2, v = 0.2, t = 0.4)
movej(p[0.394484633016636, 0.219177982401456, 0.327050735812033, -1.417, 0.681, -0.692], a = 0.2, v = 0.2, t = 0.4)
movej(p[0.394438094968856, 0.219111303338381, 0.32902145274418, -1.417, 0.681, -0.692], a = 0.2, v = 0.2, t = 0.4)
movej(p[0.394394642316509, 0.219049044986671, 0.330861514410107, -1.417, 0.681, -0.692], a = 0.2, v = 0.2, t = 0.4)
movej(p[0.394372804573279, 0.219017756174016, 0.331786263349907, -1.417, 0.681, -0.692], a = 0.2, v = 0.2, t = 0.4)
movej(p[0.394437220773483, 0.219110050803495, 0.329058471736276, -1.417, 0.681, -0.692], a = 0.2, v = 0.2, t = 0.4)
movej(p[0.394476495286181, 0.219166322775233, 0.327395339076688, -1.417, 0.681, -0.692], a = 0.2, v = 0.2, t = 0.4)
movej(p[0.394491836557917, 0.219188303534516, 0.32674569205854, -1.417, 0.681, -0.692], a = 0.2, v = 0.2, t = 0.4)
movej(p[0.39449620753478, 0.219194566208948, 0.326560597098062, -1.417, 0.681, -0.692], a = 0.2, v = 0.2, t = 0.4)
movej(p[0.394477635168383, 0.219167955982487, 0.327347069214445, -1.417, 0.681, -0.692], a = 0.2, v = 0.2, t = 0.4)
movej(p[0.394436539415325, 0.219109074563069, 0.329087324774233, -1.417, 0.681, -0.692], a = 0.2, v = 0.2, t = 0.4)
movej(p[0.394390442750504, 0.219043027907314, 0.331039350744684, -1.417, 0.681, -0.692], a = 0.2, v = 0.2, t = 0.4)
movej(p[0.394385878936426, 0.219036488938421, 0.331232611659301, -1.417, 0.681, -0.692], a = 0.2, v = 0.2, t = 0.4)
movej(p[0.394445937015581, 0.219122539313098, 0.328689370609205, -1.417, 0.681, -0.692], a = 0.2, v = 0.2, t = 0.4)
movej(p[0.394481624756089, 0.219173672207876, 0.327178124696597, -1.417, 0.681, -0.692], a = 0.2, v = 0.2, t = 0.4)
movej(p[0.394493327832376, 0.219190440211675, 0.3266825420132, -1.417, 0.681, -0.692], a = 0.2, v = 0.2, t = 0.4)
movej(p[0.394494416291321, 0.219191999740406, 0.326636449738728, -1.417, 0.681, -0.692], a = 0.2, v = 0.2, t = 0.4)
movej(p[0.39447168292636, 0.219159427693481, 0.327599124998861, -1.417, 0.681, -0.692], a = 0.2, v = 0.2, t = 0.4)
movej(p[0.394423040810306, 0.219089733950851, 0.329658941563944, -1.417, 0.681, -0.692], a = 0.2, v = 0.2, t = 0.4)
movej(p[0.394383971990637, 0.219033756693203, 0.331313363872451, -1.417, 0.681, -0.692], a = 0.2, v = 0.2, t = 0.4)
movej(p[0.394387897299271, 0.219039380820439, 0.331147141339316, -1.417, 0.681, -0.692], a = 0.2, v = 0.2, t = 0.4)
movej(p[0.394446318404739, 0.219123085762142, 0.328673220166575, -1.417, 0.681, -0.692], a = 0.2, v = 0.2, t = 0.4)
movej(p[0.394482323255332, 0.21917467300781, 0.32714854579605, -1.417, 0.681, -0.692], a = 0.2, v = 0.2, t = 0.4)
movej(p[0.394491168055573, 0.21918734571372, 0.326774000699554, -1.417, 0.681, -0.692], a = 0.2, v = 0.2, t = 0.4)
movej(p[0.394495744725466, 0.219193903102244, 0.326580195387995, -1.417, 0.681, -0.692], a = 0.2, v = 0.2, t = 0.4)
movej(p[0.394474048396192, 0.219162816905527, 0.327498955961426, -1.417, 0.681, -0.692], a = 0.2, v = 0.2, t = 0.4)
movej(p[0.39443096856246, 0.219101092723106, 0.329323230116018, -1.417, 0.681, -0.692], a = 0.2, v = 0.2, t = 0.4)
movej(p[0.394390318477632, 0.219042849850884, 0.331044613248463, -1.417, 0.681, -0.692], a = 0.2, v = 0.2, t = 0.4)
movej(p[0.394383616313108, 0.219033247083421, 0.331328425521195, -1.417, 0.681, -0.692], a = 0.2, v = 0.2, t = 0.4)
movej(p[0.39444814393037, 0.219125701349699, 0.328595915800728, -1.417, 0.681, -0.692], a = 0.2, v = 0.2, t = 0.4)
movej(p[0.394478269388555, 0.219168864684268, 0.327320212298611, -1.417, 0.681, -0.692], a = 0.2, v = 0.2, t = 0.4)
movej(p[0.394492522201347, 0.219189285914819, 0.326716657554935, -1.417, 0.681, -0.692], a = 0.2, v = 0.2, t = 0.4)
movej(p[0.394494219168835, 0.219191717306069, 0.326644797158514, -1.417, 0.681, -0.692], a = 0.2, v = 0.2, t = 0.4)
movej(p[0.394478577928099, 0.219169306755404, 0.327307146771989, -1.417, 0.681, -0.692], a = 0.2, v = 0.2, t = 0.4)
movej(p[0.394439487682072, 0.219113298798372, 0.328962476408734, -1.417, 0.681, -0.692], a = 0.2, v = 0.2, t = 0.4)
movej(p[0.394398267656143, 0.219054239322523, 0.330707994472299, -1.417, 0.681, -0.692], a = 0.2, v = 0.2, t = 0.4)
movej(p[0.394378803953287, 0.219026352001668, 0.331532211443369, -1.417, 0.681, -0.692], a = 0.2, v = 0.2, t = 0.4)
movej(p[0.394426490453811, 0.219094676551751, 0.329512861717684, -1.417, 0.681, -0.692], a = 0.2, v = 0.2, t = 0.4)
movej(p[0.394474785462879, 0.219163872964352, 0.327467743870051, -1.417, 0.681, -0.692], a = 0.2, v = 0.2, t = 0.4)
movej(p[0.39448855832527, 0.219183606528692, 0.326884513278898, -1.417, 0.681, -0.692], a = 0.2, v = 0.2, t = 0.4)
movej(p[0.39449483196265, 0.219192595308465, 0.326618847570918, -1.417, 0.681, -0.692], a = 0.2, v = 0.2, t = 0.4)
movej(p[0.394490032458643, 0.219185718646343, 0.326822089096149, -1.417, 0.681, -0.692], a = 0.2, v = 0.2, t = 0.4)
movej(p[0.394453080563063, 0.219132774487882, 0.328386867374777, -1.417, 0.681, -0.692], a = 0.2, v = 0.2, t = 0.4)
movej(p[0.394412816152663, 0.21907508420458, 0.330091918598944, -1.417, 0.681, -0.692], a = 0.2, v = 0.2, t = 0.4)
movej(p[0.39437289884925, 0.219017891251308, 0.331782271105661, -1.417, 0.681, -0.692], a = 0.2, v = 0.2, t = 0.4)
movej(p[0.394419869709445, 0.219085190441949, 0.329793226143114, -1.417, 0.681, -0.692], a = 0.2, v = 0.2, t = 0.4)
movej(p[0.394467577636326, 0.219153545691416, 0.327772969089192, -1.417, 0.681, -0.692], a = 0.2, v = 0.2, t = 0.4)
movej(p[0.394488674027598, 0.219183772305368, 0.326879613706415, -1.417, 0.681, -0.692], a = 0.2, v = 0.2, t = 0.4)
movej(p[0.394492907875776, 0.219189838503739, 0.326700325646658, -1.417, 0.681, -0.692], a = 0.2, v = 0.2, t = 0.4)
movej(p[0.394494347726978, 0.219191901502376, 0.326639353189089, -1.417, 0.681, -0.692], a = 0.2, v = 0.2, t = 0.4)
movej(p[0.394459919856272, 0.219142573731405, 0.328097248201323, -1.417, 0.681, -0.692], a = 0.2, v = 0.2, t = 0.4)
movej(p[0.394411993380548, 0.219073905348217, 0.330126760003269, -1.417, 0.681, -0.692], a = 0.2, v = 0.2, t = 0.4)
movej(p[0.394377852623029, 0.219024988948998, 0.33157249681712, -1.417, 0.681, -0.692], a = 0.2, v = 0.2, t = 0.4)
movej(p[0.39441450883488, 0.219077509455954, 0.330020239668171, -1.417, 0.681, -0.692], a = 0.2, v = 0.2, t = 0.4)
movej(p[0.394467046262668, 0.219152784346681, 0.327795470829485, -1.417, 0.681, -0.692], a = 0.2, v = 0.2, t = 0.4)
movej(p[0.394486484253895, 0.219180634828275, 0.326972342652301, -1.417, 0.681, -0.692], a = 0.2, v = 0.2, t = 0.4)
movej(p[0.394494720545593, 0.219192435671666, 0.326623565677754, -1.417, 0.681, -0.692], a = 0.2, v = 0.2, t = 0.4)
movej(p[0.394495234778165, 0.219193172456893, 0.32660178980005, -1.417, 0.681, -0.692], a = 0.2, v = 0.2, t = 0.4)
movej(p[0.394453616221992, 0.219133541972493, 0.328364184168836, -1.417, 0.681, -0.692], a = 0.2, v = 0.2, t = 0.4)
movej(p[0.394409203668844, 0.219069908288358, 0.33024489413981, -1.417, 0.681, -0.692], a = 0.2, v = 0.2, t = 0.4)
movej(p[0.394369877732889, 0.219013562638097, 0.331910204387168, -1.417, 0.681, -0.692], a = 0.2, v = 0.2, t = 0.4)
movej(p[0.394414303141851, 0.219077214741863, 0.330028950019252, -1.417, 0.681, -0.692], a = 0.2, v = 0.2, t = 0.4)
movej(p[0.39446346806102, 0.219147657549474, 0.327946994645171, -1.417, 0.681, -0.692], a = 0.2, v = 0.2, t = 0.4)
movej(p[0.39448706705081, 0.219181469851532, 0.326947663324238, -1.417, 0.681, -0.692], a = 0.2, v = 0.2, t = 0.4)
movej(p[0.39449486195955, 0.219192638287603, 0.326617577311385, -1.417, 0.681, -0.692], a = 0.2, v = 0.2, t = 0.4)
movej(p[0.39449351638432, 0.219190710366259, 0.326674557524709, -1.417, 0.681, -0.692], a = 0.2, v = 0.2, t = 0.4)
movej(p[0.394459611316729, 0.219142131660269, 0.328110313727945, -1.417, 0.681, -0.692], a = 0.2, v = 0.2, t = 0.4)
movej(p[0.394409962161888, 0.219070995046569, 0.330212774720197, -1.417, 0.681, -0.692], a = 0.2, v = 0.2, t = 0.4)
movej(p[0.394383093509993, 0.21903249801844, 0.331350564330194, -1.417, 0.681, -0.692], a = 0.2, v = 0.2, t = 0.4)
movej(p[0.394434868159466, 0.21910668001108, 0.329158096376768, -1.417, 0.681, -0.692], a = 0.2, v = 0.2, t = 0.4)
movej(p[0.394475531100109, 0.219164941302932, 0.327436168847381, -1.417, 0.681, -0.692], a = 0.2, v = 0.2, t = 0.4)
movej(p[0.394492997866476, 0.219189967441154, 0.32669651486806, -1.417, 0.681, -0.692], a = 0.2, v = 0.2, t = 0.4)
movej(p[0.394494896241721, 0.219192687406619, 0.326616125586205, -1.417, 0.681, -0.692], a = 0.2, v = 0.2, t = 0.4)
movej(p[0.394488759733027, 0.219183895102906, 0.326875984393464, -1.417, 0.681, -0.692], a = 0.2, v = 0.2, t = 0.4)
movej(p[0.394443665821721, 0.219119285178344, 0.328785547402395, -1.417, 0.681, -0.692], a = 0.2, v = 0.2, t = 0.4)
movej(p[0.394402634347735, 0.219060495857079, 0.330523080977469, -1.417, 0.681, -0.692], a = 0.2, v = 0.2, t = 0.4)
movej(p[0.394384460511581, 0.219034456639169, 0.331292676788632, -1.417, 0.681, -0.692], a = 0.2, v = 0.2, t = 0.4)
movej(p[0.394440828972031, 0.21911522057984, 0.328905677661058, -1.417, 0.681, -0.692], a = 0.2, v = 0.2, t = 0.4)
movej(p[0.3944796578165, 0.219170854004382, 0.327261417428812, -1.417, 0.681, -0.692], a = 0.2, v = 0.2, t = 0.4)
movej(p[0.394491060923788, 0.219187192216798, 0.326778537340742, -1.417, 0.681, -0.692], a = 0.2, v = 0.2, t = 0.4)
movej(p[0.394496700340995, 0.219195272294791, 0.326539728548596, -1.417, 0.681, -0.692], a = 0.2, v = 0.2, t = 0.4)
movej(p[0.394490632396644, 0.219186578229109, 0.326796683905495, -1.417, 0.681, -0.692], a = 0.2, v = 0.2, t = 0.4)
movej(p[0.394458368588013, 0.219140351095969, 0.328162938765728, -1.417, 0.681, -0.692], a = 0.2, v = 0.2, t = 0.4)
movej(p[0.394416775743469, 0.219080757450831, 0.329924244340629, -1.417, 0.681, -0.692], a = 0.2, v = 0.2, t = 0.4)
movej(p[0.394388801491544, 0.219040676334463, 0.331108852087687, -1.417, 0.681, -0.692], a = 0.2, v = 0.2, t = 0.4)
movej(p[0.394437349331626, 0.219110234999802, 0.32905302776685, -1.417, 0.681, -0.692], a = 0.2, v = 0.2, t = 0.4)
movej(p[0.394475488247394, 0.219164879904163, 0.327437983503856, -1.417, 0.681, -0.692], a = 0.2, v = 0.2, t = 0.4)
movej(p[0.394492895019961, 0.219189820084109, 0.3267008700436, -1.417, 0.681, -0.692], a = 0.2, v = 0.2, t = 0.4)
movej(p[0.394494763398307, 0.219192497070435, 0.326621751021278, -1.417, 0.681, -0.692], a = 0.2, v = 0.2, t = 0.4)
movej(p[0.394496888892938, 0.219195542449375, 0.326531744060105, -1.417, 0.681, -0.692], a = 0.2, v = 0.2, t = 0.4)
movej(p[0.394467264811511, 0.219153097480403, 0.327786216081461, -1.417, 0.681, -0.692], a = 0.2, v = 0.2, t = 0.4)
movej(p[0.394431054267889, 0.219101215520644, 0.329319600803068, -1.417, 0.681, -0.692], a = 0.2, v = 0.2, t = 0.4)
movej(p[0.394394758018838, 0.219049210763347, 0.330856614837624, -1.417, 0.681, -0.692], a = 0.2, v = 0.2, t = 0.4)
movej(p[0.394429014478686, 0.219098292939242, 0.329405978451291, -1.417, 0.681, -0.692], a = 0.2, v = 0.2, t = 0.4)
movej(p[0.394474652619464, 0.219163682628169, 0.327473369305124, -1.417, 0.681, -0.692], a = 0.2, v = 0.2, t = 0.4)
movej(p[0.394489981035386, 0.219185644967821, 0.326824266683919, -1.417, 0.681, -0.692], a = 0.2, v = 0.2, t = 0.4)
movej(p[0.394497441692954, 0.219196334493494, 0.326508334991574, -1.417, 0.681, -0.692], a = 0.2, v = 0.2, t = 0.4)
movej(p[0.394496408942538, 0.219194854783162, 0.326552068212628, -1.417, 0.681, -0.692], a = 0.2, v = 0.2, t = 0.4)
movej(p[0.394471100129445, 0.219158592670223, 0.327623804326924, -1.417, 0.681, -0.692], a = 0.2, v = 0.2, t = 0.4)
movej(p[0.394427266087941, 0.219095787869469, 0.329480016435482, -1.417, 0.681, -0.692], a = 0.2, v = 0.2, t = 0.4)
movej(p[0.394394745163024, 0.219049192343716, 0.330857159234567, -1.417, 0.681, -0.692], a = 0.2, v = 0.2, t = 0.4)
movej(p[0.394428307408899, 0.219097279859554, 0.329435920283133, -1.417, 0.681, -0.692], a = 0.2, v = 0.2, t = 0.4)
movej(p[0.394471884334118, 0.219159716267695, 0.327590596113427, -1.417, 0.681, -0.692], a = 0.2, v = 0.2, t = 0.4)
movej(p[0.394492625047861, 0.219189433271864, 0.326712302379395, -1.417, 0.681, -0.692], a = 0.2, v = 0.2, t = 0.4)
movej(p[0.394495144787465, 0.219193043519478, 0.326605600578648, -1.417, 0.681, -0.692], a = 0.2, v = 0.2, t = 0.4)
movej(p[0.394473825562078, 0.219162497631928, 0.327508392175097, -1.417, 0.681, -0.692], a = 0.2, v = 0.2, t = 0.4)
movej(p[0.394427750323613, 0.219096481675558, 0.329459510817311, -1.417, 0.681, -0.692], a = 0.2, v = 0.2, t = 0.4)
movej(p[0.394393686700979, 0.219047675794123, 0.330901981249506, -1.417, 0.681, -0.692], a = 0.2, v = 0.2, t = 0.4)
movej(p[0.394422796549835, 0.219089383977868, 0.329669285105853, -1.417, 0.681, -0.692], a = 0.2, v = 0.2, t = 0.4)
movej(p[0.394469981673601, 0.219156990162354, 0.327671166860929, -1.417, 0.681, -0.692], a = 0.2, v = 0.2, t = 0.4)
movej(p[0.394489646784214, 0.219185166057423, 0.326838421004426, -1.417, 0.681, -0.692], a = 0.2, v = 0.2, t = 0.4)
movej(p[0.394495521891351, 0.219193583828645, 0.326589631601666, -1.417, 0.681, -0.692], a = 0.2, v = 0.2, t = 0.4)
movej(p[0.394499280074399, 0.219198968500682, 0.326430486228785, -1.417, 0.681, -0.692], a = 0.2, v = 0.2, t = 0.4)
movej(p[0.394490688105173, 0.219186658047508, 0.326794324852077, -1.417, 0.681, -0.692], a = 0.2, v = 0.2, t = 0.4)
movej(p[0.394461638250118, 0.21914503582204, 0.328024480476665, -1.417, 0.681, -0.692], a = 0.2, v = 0.2, t = 0.4)
movej(p[0.394422466583934, 0.219088911207347, 0.329683257960712, -1.417, 0.681, -0.692], a = 0.2, v = 0.2, t = 0.4)
movej(p[0.394404678422209, 0.219063424578358, 0.330436521863598, -1.417, 0.681, -0.692], a = 0.2, v = 0.2, t = 0.4)
movej(p[0.394451126479289, 0.219129974704018, 0.328469615710049, -1.417, 0.681, -0.692], a = 0.2, v = 0.2, t = 0.4)
movej(p[0.394479173580828, 0.219170160198292, 0.327281923046983, -1.417, 0.681, -0.692], a = 0.2, v = 0.2, t = 0.4)
movej(p[0.394491386604417, 0.219187658847442, 0.32676474595153, -1.417, 0.681, -0.692], a = 0.2, v = 0.2, t = 0.4)
movej(p[0.394497124582867, 0.219195880142604, 0.326521763449491, -1.417, 0.681, -0.692], a = 0.2, v = 0.2, t = 0.4)
movej(p[0.394499944291471, 0.2191999201816, 0.326402359053418, -1.417, 0.681, -0.692], a = 0.2, v = 0.2, t = 0.4)
movej(p[0.394490096737715, 0.219185810744497, 0.326819367111436, -1.417, 0.681, -0.692], a = 0.2, v = 0.2, t = 0.4)
movej(p[0.394467444792912, 0.219153355355232, 0.327778594524265, -1.417, 0.681, -0.692], a = 0.2, v = 0.2, t = 0.4)
movej(p[0.394435228122266, 0.219107195760739, 0.329142853262376, -1.417, 0.681, -0.692], a = 0.2, v = 0.2, t = 0.4)
movej(p[0.394412434763506, 0.219074537755537, 0.330108069041574, -1.417, 0.681, -0.692], a = 0.2, v = 0.2, t = 0.4)
movej(p[0.394442928755034, 0.219118229119518, 0.328816759493769, -1.417, 0.681, -0.692], a = 0.2, v = 0.2, t = 0.4)
movej(p[0.394473941264406, 0.219162663408604, 0.327503492602614, -1.417, 0.681, -0.692], a = 0.2, v = 0.2, t = 0.4)
movej(p[0.394486604241496, 0.219180806744828, 0.32696726161417, -1.417, 0.681, -0.692], a = 0.2, v = 0.2, t = 0.4)
movej(p[0.394495903280509, 0.219194130277689, 0.326573481159036, -1.417, 0.681, -0.692], a = 0.2, v = 0.2, t = 0.4)
movej(p[0.394498980105399, 0.219198538709299, 0.326443188824112, -1.417, 0.681, -0.692], a = 0.2, v = 0.2, t = 0.4)
movej(p[0.394490602399744, 0.21918653524997, 0.326797954165027, -1.417, 0.681, -0.692], a = 0.2, v = 0.2, t = 0.4)
movej(p[0.394466887707625, 0.219152557171236, 0.327802185058444, -1.417, 0.681, -0.692], a = 0.2, v = 0.2, t = 0.4)
movej(p[0.394426301901868, 0.219094406397168, 0.329520846206175, -1.417, 0.681, -0.692], a = 0.2, v = 0.2, t = 0.4)
movej(p[0.394399381826716, 0.219055835690516, 0.330660813403942, -1.417, 0.681, -0.692], a = 0.2, v = 0.2, t = 0.4)
movej(p[0.394427368934455, 0.219095935226514, 0.329475661259941, -1.417, 0.681, -0.692], a = 0.2, v = 0.2, t = 0.4)
movej(p[0.394469608854986, 0.219156455993064, 0.327686954372264, -1.417, 0.681, -0.692], a = 0.2, v = 0.2, t = 0.4)
movej(p[0.394486334269395, 0.219180419932583, 0.326978693949965, -1.417, 0.681, -0.692], a = 0.2, v = 0.2, t = 0.4)
movej(p[0.394495234778165, 0.219193172456893, 0.32660178980005, -1.417, 0.681, -0.692], a = 0.2, v = 0.2, t = 0.4)
movej(p[0.394496520359595, 0.219195014419962, 0.326547350105792, -1.417, 0.681, -0.692], a = 0.2, v = 0.2, t = 0.4)
movej(p[0.394479225004085, 0.219170233876815, 0.327279745459213, -1.417, 0.681, -0.692], a = 0.2, v = 0.2, t = 0.4)
movej(p[0.394447543992369, 0.219124841766934, 0.328621320991382, -1.417, 0.681, -0.692], a = 0.2, v = 0.2, t = 0.4)
movej(p[0.394406199693568, 0.219065604234655, 0.330372101558726, -1.417, 0.681, -0.692], a = 0.2, v = 0.2, t = 0.4)
movej(p[0.394415558726382, 0.219079013725793, 0.329975780584526, -1.417, 0.681, -0.692], a = 0.2, v = 0.2, t = 0.4)
movej(p[0.394454134739836, 0.219134284897598, 0.328342226825485, -1.417, 0.681, -0.692], a = 0.2, v = 0.2, t = 0.4)
movej(p[0.394480896259945, 0.219172628428804, 0.327208973856677, -1.417, 0.681, -0.692], a = 0.2, v = 0.2, t = 0.4)
movej(p[0.394490165302058, 0.219185908982527, 0.326816463661075, -1.417, 0.681, -0.692], a = 0.2, v = 0.2, t = 0.4)
movej(p[0.394496198964238, 0.219194553929195, 0.326560960029357, -1.417, 0.681, -0.692], a = 0.2, v = 0.2, t = 0.4)
movej(p[0.394486334269395, 0.219180419932583, 0.326978693949965, -1.417, 0.681, -0.692], a = 0.2, v = 0.2, t = 0.4)
movej(p[0.394457704370941, 0.219139399415051, 0.328191065941095, -1.417, 0.681, -0.692], a = 0.2, v = 0.2, t = 0.4)
movej(p[0.394427750323613, 0.219096481675558, 0.329459510817311, -1.417, 0.681, -0.692], a = 0.2, v = 0.2, t = 0.4)
movej(p[0.394398464778629, 0.219054521756861, 0.330699647052513, -1.417, 0.681, -0.692], a = 0.2, v = 0.2, t = 0.4)
movej(p[0.394440756122417, 0.219115116201933, 0.328908762577066, -1.417, 0.681, -0.692], a = 0.2, v = 0.2, t = 0.4)
movej(p[0.394471648644189, 0.219159378574466, 0.327600576724041, -1.417, 0.681, -0.692], a = 0.2, v = 0.2, t = 0.4)
movej(p[0.394490885227659, 0.219186940481845, 0.326785977432291, -1.417, 0.681, -0.692], a = 0.2, v = 0.2, t = 0.4)
movej(p[0.394495453327008, 0.219193485590615, 0.326592535052027, -1.417, 0.681, -0.692], a = 0.2, v = 0.2, t = 0.4)
movej(p[0.39449898439067, 0.219198544849176, 0.326443007358464, -1.417, 0.681, -0.692], a = 0.2, v = 0.2, t = 0.4)
movej(p[0.394483685971649, 0.219176625488662, 0.327090839720137, -1.417, 0.681, -0.692], a = 0.2, v = 0.2, t = 0.4)
movej(p[0.394453277685549, 0.219133056922219, 0.328378519954991, -1.417, 0.681, -0.692], a = 0.2, v = 0.2, t = 0.4)
movej(p[0.394426113349925, 0.219094136242584, 0.329528830694667, -1.417, 0.681, -0.692], a = 0.2, v = 0.2, t = 0.4)
movej(p[0.39441522447521, 0.219078534815395, 0.329989934905034, -1.417, 0.681, -0.692], a = 0.2, v = 0.2, t = 0.4)
movej(p[0.394460686919859, 0.219143672769369, 0.328064765850416, -1.417, 0.681, -0.692], a = 0.2, v = 0.2, t = 0.4)
movej(p[0.39448288462589, 0.219175477331683, 0.327124773796224, -1.417, 0.681, -0.692], a = 0.2, v = 0.2, t = 0.4)
movej(p[0.394496254672766, 0.219194633747594, 0.326558600975939, -1.417, 0.681, -0.692], a = 0.2, v = 0.2, t = 0.4)
movej(p[0.394499052955013, 0.219198643087206, 0.326440103908104, -1.417, 0.681, -0.692], a = 0.2, v = 0.2, t = 0.4)
movej(p[0.394487778405869, 0.219182489071097, 0.326917540026748, -1.417, 0.681, -0.692], a = 0.2, v = 0.2, t = 0.4)
movej(p[0.394452904866934, 0.219132522752929, 0.328394307466326, -1.417, 0.681, -0.692], a = 0.2, v = 0.2, t = 0.4)
movej(p[0.394415091631795, 0.219078344479211, 0.329995560340107, -1.417, 0.681, -0.692], a = 0.2, v = 0.2, t = 0.4)
movej(p[0.394399069001901, 0.219055387479503, 0.330674060396212, -1.417, 0.681, -0.692], a = 0.2, v = 0.2, t = 0.4)
movej(p[0.394446866919483, 0.219123871666384, 0.328649992563692, -1.417, 0.681, -0.692], a = 0.2, v = 0.2, t = 0.4)
movej(p[0.394419869709445, 0.219085190441949, 0.329793226143114, -1.417, 0.681, -0.692], a = 0.2, v = 0.2, t = 0.4)
movej(p[0.394467577636326, 0.219153545691416, 0.327772969089192, -1.417, 0.681, -0.692], a = 0.2, v = 0.2, t = 0.4)
movej(p[0.394488674027598, 0.219183772305368, 0.326879613706415, -1.417, 0.681, -0.692], a = 0.2, v = 0.2, t = 0.4)
movej(p[0.394492907875776, 0.219189838503739, 0.326700325646658, -1.417, 0.681, -0.692], a = 0.2, v = 0.2, t = 0.4)
movej(p[0.394494347726978, 0.219191901502376, 0.326639353189089, -1.417, 0.681, -0.692], a = 0.2, v = 0.2, t = 0.4)
movej(p[0.394459919856272, 0.219142573731405, 0.328097248201323, -1.417, 0.681, -0.692], a = 0.2, v = 0.2, t = 0.4)
movej(p[0.394411993380548, 0.219073905348217, 0.330126760003269, -1.417, 0.681, -0.692], a = 0.2, v = 0.2, t = 0.4)
movej(p[0.394377852623029, 0.219024988948998, 0.33157249681712, -1.417, 0.681, -0.692], a = 0.2, v = 0.2, t = 0.4)
movej(p[0.39441450883488, 0.219077509455954, 0.330020239668171, -1.417, 0.681, -0.692], a = 0.2, v = 0.2, t = 0.4)
movej(p[0.394467046262668, 0.219152784346681, 0.327795470829485, -1.417, 0.681, -0.692], a = 0.2, v = 0.2, t = 0.4)
movej(p[0.394486484253895, 0.219180634828275, 0.326972342652301, -1.417, 0.681, -0.692], a = 0.2, v = 0.2, t = 0.4)
movej(p[0.394494720545593, 0.219192435671666, 0.326623565677754, -1.417, 0.681, -0.692], a = 0.2, v = 0.2, t = 0.4)
movej(p[0.394495234778165, 0.219193172456893, 0.32660178980005, -1.417, 0.681, -0.692], a = 0.2, v = 0.2, t = 0.4)
movej(p[0.394453616221992, 0.219133541972493, 0.328364184168836, -1.417, 0.681, -0.692], a = 0.2, v = 0.2, t = 0.4)
movej(p[0.394409203668844, 0.219069908288358, 0.33024489413981, -1.417, 0.681, -0.692], a = 0.2, v = 0.2, t = 0.4)
movej(p[0.394369877732889, 0.219013562638097, 0.331910204387168, -1.417, 0.681, -0.692], a = 0.2, v = 0.2, t = 0.4)
movej(p[0.394414303141851, 0.219077214741863, 0.330028950019252, -1.417, 0.681, -0.692], a = 0.2, v = 0.2, t = 0.4)
movej(p[0.39446346806102, 0.219147657549474, 0.327946994645171, -1.417, 0.681, -0.692], a = 0.2, v = 0.2, t = 0.4)
movej(p[0.39448706705081, 0.219181469851532, 0.326947663324238, -1.417, 0.681, -0.692], a = 0.2, v = 0.2, t = 0.4)
movej(p[0.39449486195955, 0.219192638287603, 0.326617577311385, -1.417, 0.681, -0.692], a = 0.2, v = 0.2, t = 0.4)
movej(p[0.39449351638432, 0.219190710366259, 0.326674557524709, -1.417, 0.681, -0.692], a = 0.2, v = 0.2, t = 0.4)
movej(p[0.394459611316729, 0.219142131660269, 0.328110313727945, -1.417, 0.681, -0.692], a = 0.2, v = 0.2, t = 0.4)
movej(p[0.394409962161888, 0.219070995046569, 0.330212774720197, -1.417, 0.681, -0.692], a = 0.2, v = 0.2, t = 0.4)
movej(p[0.394383093509993, 0.21903249801844, 0.331350564330194, -1.417, 0.681, -0.692], a = 0.2, v = 0.2, t = 0.4)
movej(p[0.394434868159466, 0.21910668001108, 0.329158096376768, -1.417, 0.681, -0.692], a = 0.2, v = 0.2, t = 0.4)
movej(p[0.394475531100109, 0.219164941302932, 0.327436168847381, -1.417, 0.681, -0.692], a = 0.2, v = 0.2, t = 0.4)
movej(p[0.394492997866476, 0.219189967441154, 0.32669651486806, -1.417, 0.681, -0.692], a = 0.2, v = 0.2, t = 0.4)
movej(p[0.394494896241721, 0.219192687406619, 0.326616125586205, -1.417, 0.681, -0.692], a = 0.2, v = 0.2, t = 0.4)
movej(p[0.394488759733027, 0.219183895102906, 0.326875984393464, -1.417, 0.681, -0.692], a = 0.2, v = 0.2, t = 0.4)
movej(p[0.394443665821721, 0.219119285178344, 0.328785547402395, -1.417, 0.681, -0.692], a = 0.2, v = 0.2, t = 0.4)
movej(p[0.394402634347735, 0.219060495857079, 0.330523080977469, -1.417, 0.681, -0.692], a = 0.2, v = 0.2, t = 0.4)
movej(p[0.394384460511581, 0.219034456639169, 0.331292676788632, -1.417, 0.681, -0.692], a = 0.2, v = 0.2, t = 0.4)
movej(p[0.394440828972031, 0.21911522057984, 0.328905677661058, -1.417, 0.681, -0.692], a = 0.2, v = 0.2, t = 0.4)
movej(p[0.3944796578165, 0.219170854004382, 0.327261417428812, -1.417, 0.681, -0.692], a = 0.2, v = 0.2, t = 0.4)
movej(p[0.394491060923788, 0.219187192216798, 0.326778537340742, -1.417, 0.681, -0.692], a = 0.2, v = 0.2, t = 0.4)
movej(p[0.394496700340995, 0.219195272294791, 0.326539728548596, -1.417, 0.681, -0.692], a = 0.2, v = 0.2, t = 0.4)
movej(p[0.394490632396644, 0.219186578229109, 0.326796683905495, -1.417, 0.681, -0.692], a = 0.2, v = 0.2, t = 0.4)
movej(p[0.394458368588013, 0.219140351095969, 0.328162938765728, -1.417, 0.681, -0.692], a = 0.2, v = 0.2, t = 0.4)
movej(p[0.394416775743469, 0.219080757450831, 0.329924244340629, -1.417, 0.681, -0.692], a = 0.2, v = 0.2, t = 0.4)
movej(p[0.394388801491544, 0.219040676334463, 0.331108852087687, -1.417, 0.681, -0.692], a = 0.2, v = 0.2, t = 0.4)
movej(p[0.394437349331626, 0.219110234999802, 0.32905302776685, -1.417, 0.681, -0.692], a = 0.2, v = 0.2, t = 0.4)
movej(p[0.394475488247394, 0.219164879904163, 0.327437983503856, -1.417, 0.681, -0.692], a = 0.2, v = 0.2, t = 0.4)
movej(p[0.394492895019961, 0.219189820084109, 0.3267008700436, -1.417, 0.681, -0.692], a = 0.2, v = 0.2, t = 0.4)
movej(p[0.394494763398307, 0.219192497070435, 0.326621751021278, -1.417, 0.681, -0.692], a = 0.2, v = 0.2, t = 0.4)
movej(p[0.394496888892938, 0.219195542449375, 0.326531744060105, -1.417, 0.681, -0.692], a = 0.2, v = 0.2, t = 0.4)
movej(p[0.394467264811511, 0.219153097480403, 0.327786216081461, -1.417, 0.681, -0.692], a = 0.2, v = 0.2, t = 0.4)
movej(p[0.394431054267889, 0.219101215520644, 0.329319600803068, -1.417, 0.681, -0.692], a = 0.2, v = 0.2, t = 0.4)
movej(p[0.394394758018838, 0.219049210763347, 0.330856614837624, -1.417, 0.681, -0.692], a = 0.2, v = 0.2, t = 0.4)
movej(p[0.394429014478686, 0.219098292939242, 0.329405978451291, -1.417, 0.681, -0.692], a = 0.2, v = 0.2, t = 0.4)
movej(p[0.394474652619464, 0.219163682628169, 0.327473369305124, -1.417, 0.681, -0.692], a = 0.2, v = 0.2, t = 0.4)
movej(p[0.394489981035386, 0.219185644967821, 0.326824266683919, -1.417, 0.681, -0.692], a = 0.2, v = 0.2, t = 0.4)
movej(p[0.394497441692954, 0.219196334493494, 0.326508334991574, -1.417, 0.681, -0.692], a = 0.2, v = 0.2, t = 0.4)
movej(p[0.394496408942538, 0.219194854783162, 0.326552068212628, -1.417, 0.681, -0.692], a = 0.2, v = 0.2, t = 0.4)
movej(p[0.394471100129445, 0.219158592670223, 0.327623804326924, -1.417, 0.681, -0.692], a = 0.2, v = 0.2, t = 0.4)
movej(p[0.394427266087941, 0.219095787869469, 0.329480016435482, -1.417, 0.681, -0.692], a = 0.2, v = 0.2, t = 0.4)
movej(p[0.394394745163024, 0.219049192343716, 0.330857159234567, -1.417, 0.681, -0.692], a = 0.2, v = 0.2, t = 0.4)
movej(p[0.394428307408899, 0.219097279859554, 0.329435920283133, -1.417, 0.681, -0.692], a = 0.2, v = 0.2, t = 0.4)
movej(p[0.394471884334118, 0.219159716267695, 0.327590596113427, -1.417, 0.681, -0.692], a = 0.2, v = 0.2, t = 0.4)
movej(p[0.394492625047861, 0.219189433271864, 0.326712302379395, -1.417, 0.681, -0.692], a = 0.2, v = 0.2, t = 0.4)
movej(p[0.394495144787465, 0.219193043519478, 0.326605600578648, -1.417, 0.681, -0.692], a = 0.2, v = 0.2, t = 0.4)
movej(p[0.394473825562078, 0.219162497631928, 0.327508392175097, -1.417, 0.681, -0.692], a = 0.2, v = 0.2, t = 0.4)
movej(p[0.394427750323613, 0.219096481675558, 0.329459510817311, -1.417, 0.681, -0.692], a = 0.2, v = 0.2, t = 0.4)
movej(p[0.394393686700979, 0.219047675794123, 0.330901981249506, -1.417, 0.681, -0.692], a = 0.2, v = 0.2, t = 0.4)
movej(p[0.394422796549835, 0.219089383977868, 0.329669285105853, -1.417, 0.681, -0.692], a = 0.2, v = 0.2, t = 0.4)
movej(p[0.394469981673601, 0.219156990162354, 0.327671166860929, -1.417, 0.681, -0.692], a = 0.2, v = 0.2, t = 0.4)
movej(p[0.394489646784214, 0.219185166057423, 0.326838421004426, -1.417, 0.681, -0.692], a = 0.2, v = 0.2, t = 0.4)
movej(p[0.394495521891351, 0.219193583828645, 0.326589631601666, -1.417, 0.681, -0.692], a = 0.2, v = 0.2, t = 0.4)
movej(p[0.394499280074399, 0.219198968500682, 0.326430486228785, -1.417, 0.681, -0.692], a = 0.2, v = 0.2, t = 0.4)
movej(p[0.394490688105173, 0.219186658047508, 0.326794324852077, -1.417, 0.681, -0.692], a = 0.2, v = 0.2, t = 0.4)
movej(p[0.394461638250118, 0.21914503582204, 0.328024480476665, -1.417, 0.681, -0.692], a = 0.2, v = 0.2, t = 0.4)
movej(p[0.394422466583934, 0.219088911207347, 0.329683257960712, -1.417, 0.681, -0.692], a = 0.2, v = 0.2, t = 0.4)
movej(p[0.394404678422209, 0.219063424578358, 0.330436521863598, -1.417, 0.681, -0.692], a = 0.2, v = 0.2, t = 0.4)
movej(p[0.394451126479289, 0.219129974704018, 0.328469615710049, -1.417, 0.681, -0.692], a = 0.2, v = 0.2, t = 0.4)
movej(p[0.394479173580828, 0.219170160198292, 0.327281923046983, -1.417, 0.681, -0.692], a = 0.2, v = 0.2, t = 0.4)
movej(p[0.394491386604417, 0.219187658847442, 0.32676474595153, -1.417, 0.681, -0.692], a = 0.2, v = 0.2, t = 0.4)
movej(p[0.394497124582867, 0.219195880142604, 0.326521763449491, -1.417, 0.681, -0.692], a = 0.2, v = 0.2, t = 0.4)
movej(p[0.394499944291471, 0.2191999201816, 0.326402359053418, -1.417, 0.681, -0.692], a = 0.2, v = 0.2, t = 0.4)
movej(p[0.394490096737715, 0.219185810744497, 0.326819367111436, -1.417, 0.681, -0.692], a = 0.2, v = 0.2, t = 0.4)
movej(p[0.394467444792912, 0.219153355355232, 0.327778594524265, -1.417, 0.681, -0.692], a = 0.2, v = 0.2, t = 0.4)
movej(p[0.394435228122266, 0.219107195760739, 0.329142853262376, -1.417, 0.681, -0.692], a = 0.2, v = 0.2, t = 0.4)
movej(p[0.394412434763506, 0.219074537755537, 0.330108069041574, -1.417, 0.681, -0.692], a = 0.2, v = 0.2, t = 0.4)
movej(p[0.394442928755034, 0.219118229119518, 0.328816759493769, -1.417, 0.681, -0.692], a = 0.2, v = 0.2, t = 0.4)
movej(p[0.394473941264406, 0.219162663408604, 0.327503492602614, -1.417, 0.681, -0.692], a = 0.2, v = 0.2, t = 0.4)
movej(p[0.394486604241496, 0.219180806744828, 0.32696726161417, -1.417, 0.681, -0.692], a = 0.2, v = 0.2, t = 0.4)
movej(p[0.394495903280509, 0.219194130277689, 0.326573481159036, -1.417, 0.681, -0.692], a = 0.2, v = 0.2, t = 0.4)
movej(p[0.394498980105399, 0.219198538709299, 0.326443188824112, -1.417, 0.681, -0.692], a = 0.2, v = 0.2, t = 0.4)
movej(p[0.394490602399744, 0.21918653524997, 0.326797954165027, -1.417, 0.681, -0.692], a = 0.2, v = 0.2, t = 0.4)
movej(p[0.394466887707625, 0.219152557171236, 0.327802185058444, -1.417, 0.681, -0.692], a = 0.2, v = 0.2, t = 0.4)
movej(p[0.394426301901868, 0.219094406397168, 0.329520846206175, -1.417, 0.681, -0.692], a = 0.2, v = 0.2, t = 0.4)
movej(p[0.394399381826716, 0.219055835690516, 0.330660813403942, -1.417, 0.681, -0.692], a = 0.2, v = 0.2, t = 0.4)
movej(p[0.394427368934455, 0.219095935226514, 0.329475661259941, -1.417, 0.681, -0.692], a = 0.2, v = 0.2, t = 0.4)
movej(p[0.394469608854986, 0.219156455993064, 0.327686954372264, -1.417, 0.681, -0.692], a = 0.2, v = 0.2, t = 0.4)
movej(p[0.394486334269395, 0.219180419932583, 0.326978693949965, -1.417, 0.681, -0.692], a = 0.2, v = 0.2, t = 0.4)
movej(p[0.394495234778165, 0.219193172456893, 0.32660178980005, -1.417, 0.681, -0.692], a = 0.2, v = 0.2, t = 0.4)
movej(p[0.394496520359595, 0.219195014419962, 0.326547350105792, -1.417, 0.681, -0.692], a = 0.2, v = 0.2, t = 0.4)
movej(p[0.394479225004085, 0.219170233876815, 0.327279745459213, -1.417, 0.681, -0.692], a = 0.2, v = 0.2, t = 0.4)
movej(p[0.394447543992369, 0.219124841766934, 0.328621320991382, -1.417, 0.681, -0.692], a = 0.2, v = 0.2, t = 0.4)
movej(p[0.394406199693568, 0.219065604234655, 0.330372101558726, -1.417, 0.681, -0.692], a = 0.2, v = 0.2, t = 0.4)
movej(p[0.394415558726382, 0.219079013725793, 0.329975780584526, -1.417, 0.681, -0.692], a = 0.2, v = 0.2, t = 0.4)
movej(p[0.394454134739836, 0.219134284897598, 0.328342226825485, -1.417, 0.681, -0.692], a = 0.2, v = 0.2, t = 0.4)
movej(p[0.394480896259945, 0.219172628428804, 0.327208973856677, -1.417, 0.681, -0.692], a = 0.2, v = 0.2, t = 0.4)
movej(p[0.394490165302058, 0.219185908982527, 0.326816463661075, -1.417, 0.681, -0.692], a = 0.2, v = 0.2, t = 0.4)
movej(p[0.394496198964238, 0.219194553929195, 0.326560960029357, -1.417, 0.681, -0.692], a = 0.2, v = 0.2, t = 0.4)
movej(p[0.394486334269395, 0.219180419932583, 0.326978693949965, -1.417, 0.681, -0.692], a = 0.2, v = 0.2, t = 0.4)
movej(p[0.394457704370941, 0.219139399415051, 0.328191065941095, -1.417, 0.681, -0.692], a = 0.2, v = 0.2, t = 0.4)
movej(p[0.394427750323613, 0.219096481675558, 0.329459510817311, -1.417, 0.681, -0.692], a = 0.2, v = 0.2, t = 0.4)
movej(p[0.394398464778629, 0.219054521756861, 0.330699647052513, -1.417, 0.681, -0.692], a = 0.2, v = 0.2, t = 0.4)
movej(p[0.394440756122417, 0.219115116201933, 0.328908762577066, -1.417, 0.681, -0.692], a = 0.2, v = 0.2, t = 0.4)
