def moving():
set_payload_mass(0.606)
set_tcp(p[0.0005,0.0025,0.058,0,0,0])
movej(p[0.5385, 0.0103, 0.1726, -1.192, 1.165, -1.191], a = 0.2, v = 0.2, t = 0.2)
movej(p[0.538600008524446, 0.0102022400390445, 0.172702182606505, -1.19027157173908, 1.16326839996086, -1.18922581949945], a = 0.2, v = 0.2, t = 0.2)
movej(p[0.5385, 0.0103, 0.1726, -1.192, 1.165, -1.191], a = 0.2, v = 0.2, t = 0.2)
movej(p[0.538600008524446, 0.0102022400390445, 0.172702182606505, -1.19027157173908, 1.16326839996086, -1.18922581949945], a = 0.2, v = 0.2, t = 0.2)
movej(p[0.5385, 0.0103, 0.1726, -1.192, 1.165, -1.191], a = 0.2, v = 0.2, t = 0.2)
movej(p[0.538600008524446, 0.0102022400390445, 0.172702182606505, -1.19027157173908, 1.16326839996086, -1.18922581949945], a = 0.2, v = 0.2, t = 0.2)
movej(p[0.5385, 0.0103, 0.1726, -1.192, 1.165, -1.191], a = 0.2, v = 0.2, t = 0.2)
movej(p[0.538634971627793, 0.0102788362527922, 0.172600124478735, -1.1919432634012, 1.16461956094505, -1.19151899064099], a = 0.2, v = 0.2, t = 0.2)
movej(p[0.53877004314092, 0.0102576759125766, 0.172600252320886, -1.19188870582321, 1.16423890955074, -1.19203578071945], a = 0.2, v = 0.2, t = 0.2)
movej(p[0.538905018215023, 0.010236412231025, 0.172600375681643, -1.19183206494319, 1.16385813118392, -1.19255447307569], a = 0.2, v = 0.2, t = 0.2)
movej(p[0.538776500649082, 0.0102789728120042, 0.172657465367153, -1.18903619599233, 1.1619183119932, -1.19336029624674], a = 0.2, v = 0.2, t = 0.2)
movej(p[0.538001785288887, 0.0105454110926182, 0.173045448579805, -1.1901202106895, 1.17302585320796, -1.18605525344973], a = 0.2, v = 0.2, t = 0.2)
movej(p[0.538174689310931, 0.0105183472757675, 0.173063772307002, -1.19107398931136, 1.17304501318666, -1.18610544812587], a = 0.2, v = 0.2, t = 0.2)
movej(p[0.538378150114272, 0.0104640133740283, 0.172993119432855, -1.19121428828035, 1.1704656578819, -1.18758709850089], a = 0.2, v = 0.2, t = 0.2)
movej(p[0.538378445851789, 0.0104493768110223, 0.172906994735104, -1.18897618614091, 1.16713057728074, -1.18962728860529], a = 0.2, v = 0.2, t = 0.2)
movej(p[0.538372833043653, 0.0104569069734882, 0.172967939325004, -1.18726061361957, 1.16501858718379, -1.19087384342104], a = 0.2, v = 0.2, t = 0.2)
movej(p[0.538674730482787, 0.0103626200612533, 0.172684331348344, -1.1877348248632, 1.16100475696064, -1.1935701594564], a = 0.2, v = 0.2, t = 0.2)
movej(p[0.539341939606969, 0.0101951168342206, 0.172692143745054, -1.18885747715655, 1.15831720788128, -1.19611614360189], a = 0.2, v = 0.2, t = 0.2)
movej(p[0.539491941034394, 0.0101625421864468, 0.172819406913696, -1.18874906657321, 1.16235673203484, -1.19427968208855], a = 0.2, v = 0.2, t = 0.2)
movej(p[0.539509675441453, 0.0101568210478873, 0.172768293614254, -1.18908537738226, 1.15957223308564, -1.19604056365867], a = 0.2, v = 0.2, t = 0.2)
movej(p[0.539508309830233, 0.0101551666784151, 0.172786739431331, -1.18830956989956, 1.15781616178773, -1.19757467282011], a = 0.2, v = 0.2, t = 0.2)
movej(p[0.539770903845051, 0.0100766354755176, 0.172726760071937, -1.18659032578544, 1.15996297949891, -1.19646985653901], a = 0.2, v = 0.2, t = 0.2)
movej(p[0.539842920293716, 0.0100404654274316, 0.17287239893606, -1.18763083735897, 1.15897765516995, -1.19783232989713], a = 0.2, v = 0.2, t = 0.2)
movej(p[0.539834405914818, 0.0100397611777406, 0.172846491034093, -1.18692324466972, 1.15680804821504, -1.19967126434266], a = 0.2, v = 0.2, t = 0.2)
movej(p[0.539781965619151, 0.010056124170768, 0.172859057968864, -1.18668368154082, 1.15921572603233, -1.19796021136472], a = 0.2, v = 0.2, t = 0.2)
movej(p[0.539193695013117, 0.0102161810882799, 0.173062509749967, -1.18902166818112, 1.16479023653418, -1.19186743329815], a = 0.2, v = 0.2, t = 0.2)
movej(p[0.537506123477331, 0.010682563227592, 0.173605019290652, -1.19287680735093, 1.17481197002929, -1.18045708545723], a = 0.2, v = 0.2, t = 0.2)
movej(p[0.535926953827481, 0.0111774741733454, 0.173863604407716, -1.18812863720953, 1.18470560128746, -1.17045552087726], a = 0.2, v = 0.2, t = 0.2)
movej(p[0.533843296727473, 0.0116881715771609, 0.174733803684504, -1.18306768447144, 1.19060639447006, -1.16578120809879], a = 0.2, v = 0.2, t = 0.2)
movej(p[0.52953027852313, 0.0129647458140448, 0.175871927265987, -1.1713230230964, 1.21193316695615, -1.14388661129683], a = 0.2, v = 0.2, t = 0.2)
movej(p[0.527090152830859, 0.0136141027227824, 0.176701564313734, -1.16887190144997, 1.21661664471591, -1.13865064165944], a = 0.2, v = 0.2, t = 0.2)
movej(p[0.526408111014624, 0.0137522471070994, 0.177018301049823, -1.15291189876804, 1.22527026353815, -1.13575916267972], a = 0.2, v = 0.2, t = 0.2)
movej(p[0.527959535206691, 0.0131965784669415, 0.176747337235609, -1.16198964011388, 1.21352980053868, -1.14673602514237], a = 0.2, v = 0.2, t = 0.2)
movej(p[0.530273446662278, 0.0127208609548591, 0.175696307129283, -1.16202875666548, 1.20334338575211, -1.15823145145267], a = 0.2, v = 0.2, t = 0.2)
movej(p[0.532654051333873, 0.0121706906424772, 0.17477966004073, -1.17512409674364, 1.18913957696656, -1.17082775633045], a = 0.2, v = 0.2, t = 0.2)
movej(p[0.534765830978559, 0.0116611428392423, 0.174009672444396, -1.1802466761101, 1.17710938546137, -1.18241044309752], a = 0.2, v = 0.2, t = 0.2)
movej(p[0.53664279162912, 0.0111072606584068, 0.173473381901875, -1.18282626244529, 1.17101748762132, -1.18962097416542], a = 0.2, v = 0.2, t = 0.2)
movej(p[0.537389303762306, 0.010829464574547, 0.173324971993853, -1.18421184456113, 1.16898624179457, -1.19136728974546], a = 0.2, v = 0.2, t = 0.2)
movej(p[0.537983354626752, 0.0106864359194938, 0.173119921184821, -1.18740542672291, 1.16629156629333, -1.19251785246685], a = 0.2, v = 0.2, t = 0.2)
movej(p[0.538646094578229, 0.0104396337592689, 0.172992922915448, -1.17531277573539, 1.17165002525974, -1.18939264764892], a = 0.2, v = 0.2, t = 0.2)
movej(p[0.539108613728872, 0.0102510008072822, 0.172898908795691, -1.18609444256628, 1.16149367102716, -1.19741435749872], a = 0.2, v = 0.2, t = 0.2)
movej(p[0.539332076920906, 0.0102006298581588, 0.17281295986149, -1.18174371499252, 1.16479317674132, -1.19304022836465], a = 0.2, v = 0.2, t = 0.2)
movej(p[0.539662472689563, 0.0100036548990771, 0.172788996315252, -1.18478576563831, 1.16200920066045, -1.19436345979608], a = 0.2, v = 0.2, t = 0.2)
movej(p[0.539499617623675, 0.00999471455667386, 0.172862520445932, -1.19344610397305, 1.16009269531457, -1.19471307747778], a = 0.2, v = 0.2, t = 0.2)
movej(p[0.539198958015979, 0.0101728894730568, 0.172896546751523, -1.19366586789382, 1.16109568566023, -1.19065525739888], a = 0.2, v = 0.2, t = 0.2)
movej(p[0.537990097389158, 0.0104374950788985, 0.173299689738909, -1.19173176077027, 1.16847517392862, -1.18264287211259], a = 0.2, v = 0.2, t = 0.2)
movej(p[0.536395704212582, 0.0110144031961493, 0.173731088246949, -1.18509476653942, 1.1777845959995, -1.17508375738449], a = 0.2, v = 0.2, t = 0.2)
movej(p[0.535560753147714, 0.0112208522779555, 0.174000455794915, -1.17827184565879, 1.18693490679381, -1.16336719048431], a = 0.2, v = 0.2, t = 0.2)
movej(p[0.532953309863145, 0.0119499927902754, 0.174830316241647, -1.17942990947025, 1.19256739741294, -1.16333117106817], a = 0.2, v = 0.2, t = 0.2)
movej(p[0.530619129286644, 0.0127167482816529, 0.175528438403397, -1.17028476852589, 1.20596737276621, -1.14853194438345], a = 0.2, v = 0.2, t = 0.2)
movej(p[0.528004586463382, 0.0133231405350793, 0.176405079310677, -1.16991433815165, 1.21505398363236, -1.13738275018278], a = 0.2, v = 0.2, t = 0.2)
movej(p[0.527088278063728, 0.0136026765115351, 0.176697458592758, -1.16814614425105, 1.21767275843831, -1.1323562942542], a = 0.2, v = 0.2, t = 0.2)
movej(p[0.528974987896742, 0.0130754282523471, 0.176118193317437, -1.17323746158952, 1.20440734961527, -1.14689909520539], a = 0.2, v = 0.2, t = 0.2)
movej(p[0.53213837680371, 0.0122700615517314, 0.175094746396092, -1.17867107511187, 1.18997817438109, -1.17222891955364], a = 0.2, v = 0.2, t = 0.2)
movej(p[0.534014676774847, 0.0119159672842263, 0.174470841452986, -1.17753883580344, 1.18595714624033, -1.17776008499924], a = 0.2, v = 0.2, t = 0.2)
movej(p[0.535616767575968, 0.0112943147745745, 0.17398401239448, -1.17523585236555, 1.18253571913847, -1.17957503942947], a = 0.2, v = 0.2, t = 0.2)
movej(p[0.536758300406479, 0.0109998144170446, 0.173630494719844, -1.17746191206726, 1.1761957326714, -1.1908150491731], a = 0.2, v = 0.2, t = 0.2)
movej(p[0.537849075602756, 0.0106032049728654, 0.173276331297148, -1.19139079696224, 1.16749340666084, -1.19193856816963], a = 0.2, v = 0.2, t = 0.2)
movej(p[0.538357512507593, 0.010478340145617, 0.173115787288491, -1.19438488623695, 1.16353706818812, -1.19253534406673], a = 0.2, v = 0.2, t = 0.2)
movej(p[0.538735994502101, 0.0103830513217156, 0.17299681540159, -1.19031323875953, 1.16342643221254, -1.19353572199981], a = 0.2, v = 0.2, t = 0.2)
movej(p[0.538992209517237, 0.0102739749893594, 0.172901525372004, -1.18781064321044, 1.16462295764396, -1.19288933708652], a = 0.2, v = 0.2, t = 0.2)
movej(p[0.539016229293585, 0.0103081775978532, 0.172896842219602, -1.18676429715869, 1.16522735535223, -1.19440765733389], a = 0.2, v = 0.2, t = 0.2)
movej(p[0.539079288524017, 0.0102596968764506, 0.172880930176689, -1.199306561572, 1.15847866126091, -1.19870094313743], a = 0.2, v = 0.2, t = 0.2)
movej(p[0.53907032004123, 0.0102577444940875, 0.172866799199384, -1.18025117248302, 1.16821792463618, -1.19752222030326], a = 0.2, v = 0.2, t = 0.2)
movej(p[0.538188843406518, 0.0105971307353104, 0.173167178728856, -1.18905044097224, 1.17045576221667, -1.19257596171671], a = 0.2, v = 0.2, t = 0.2)
movej(p[0.535477475482793, 0.0116435669161433, 0.174017709640485, -1.18490391186917, 1.18366110234514, -1.181433718488], a = 0.2, v = 0.2, t = 0.2)
movej(p[0.533482346571531, 0.012150336512244, 0.174662160557094, -1.18494027524582, 1.1915517912744, -1.17069582235149], a = 0.2, v = 0.2, t = 0.2)
movej(p[0.53107772967967, 0.01281286492944, 0.175497243379203, -1.1705001215372, 1.20317448736208, -1.15517058651989], a = 0.2, v = 0.2, t = 0.2)
movej(p[0.52858861375211, 0.0135485591221433, 0.176320712749607, -1.16468324409899, 1.21192505495174, -1.14347181800205], a = 0.2, v = 0.2, t = 0.2)
movej(p[0.526815807218859, 0.0138433992334261, 0.17692511427545, -1.16113727549393, 1.21399279594303, -1.13221263512786], a = 0.2, v = 0.2, t = 0.2)
movej(p[0.526613103398999, 0.013852164585955, 0.177019445500445, -1.16907871675135, 1.20996253008754, -1.14155382288279], a = 0.2, v = 0.2, t = 0.2)
movej(p[0.527936224287788, 0.0135211753310309, 0.176605374399334, -1.17852793431331, 1.20057298030117, -1.15369025144957], a = 0.2, v = 0.2, t = 0.2)
movej(p[0.530598131068887, 0.0128782804017013, 0.175738663756397, -1.17138981065735, 1.19620744833336, -1.15644191988911], a = 0.2, v = 0.2, t = 0.2)
movej(p[0.533433937759219, 0.012020933027855, 0.174782932719112, -1.18166330301483, 1.18415252165191, -1.17217315372761], a = 0.2, v = 0.2, t = 0.2)
movej(p[0.535900517860679, 0.0112343135032357, 0.173951881982653, -1.18152515464897, 1.17960088292113, -1.1848155122784], a = 0.2, v = 0.2, t = 0.2)
movej(p[0.536839647820788, 0.010878038847193, 0.173603580062637, -1.20258662965897, 1.16747600308141, -1.19316087673528], a = 0.2, v = 0.2, t = 0.2)
movej(p[0.537713024827871, 0.0105076026902797, 0.173271929000297, -1.19677307000518, 1.16951582211884, -1.19838992981942], a = 0.2, v = 0.2, t = 0.2)
movej(p[0.538283942722132, 0.0103354248539065, 0.173078757623862, -1.18760259657291, 1.17164419173425, -1.19638185356567], a = 0.2, v = 0.2, t = 0.2)
movej(p[0.538619926166241, 0.0102884354974602, 0.172974778223663, -1.1942754382034, 1.16418193258625, -1.19670163311775], a = 0.2, v = 0.2, t = 0.2)
movej(p[0.53921324555111, 0.0100293091895504, 0.172742555003277, -1.1953488099003, 1.1607447289264, -1.19906326334105], a = 0.2, v = 0.2, t = 0.2)
movej(p[0.539188696720965, 0.0100839466854684, 0.172765126865811, -1.18894671185485, 1.16478107590471, -1.1957735143589], a = 0.2, v = 0.2, t = 0.2)
movej(p[0.538965856078672, 0.0102552330903108, 0.172876602942431, -1.18608759235886, 1.16965644235717, -1.19635498604364], a = 0.2, v = 0.2, t = 0.2)
movej(p[0.53847413609604, 0.010496978733153, 0.173079369687358, -1.18829561628655, 1.17034501094088, -1.194305811755], a = 0.2, v = 0.2, t = 0.2)
movej(p[0.537859358587104, 0.0107780853428243, 0.173320056077718, -1.18205564996385, 1.17724037724685, -1.1908557447142], a = 0.2, v = 0.2, t = 0.2)
movej(p[0.535690926151411, 0.0115033427446035, 0.174088218744736, -1.18083555123154, 1.18826155237863, -1.18180363165157], a = 0.2, v = 0.2, t = 0.2)
movej(p[0.53376614767885, 0.0121276402668248, 0.174783988394342, -1.1807695864737, 1.19619912753556, -1.17436865057853], a = 0.2, v = 0.2, t = 0.2)
movej(p[0.531494365265087, 0.0127422287963388, 0.175537343200463, -1.1720617904315, 1.2046420439717, -1.16295027824447], a = 0.2, v = 0.2, t = 0.2)
movej(p[0.528976232561521, 0.0133157456642324, 0.17632242517674, -1.16601990392946, 1.21015272169887, -1.14971991915995], a = 0.2, v = 0.2, t = 0.2)
movej(p[0.527478709163163, 0.0136133569608887, 0.176767408679215, -1.16005630441142, 1.21734863709627, -1.14066306369758], a = 0.2, v = 0.2, t = 0.2)
movej(p[0.527913712449053, 0.0134994437789121, 0.176626972009371, -1.16493443595074, 1.21258509219301, -1.14236556012062], a = 0.2, v = 0.2, t = 0.2)
movej(p[0.531124472174829, 0.0127185773847895, 0.175643626465897, -1.1591690962808, 1.20099383124282, -1.1575300674334], a = 0.2, v = 0.2, t = 0.2)
movej(p[0.533128518516157, 0.0120010486909892, 0.174885402564016, -1.18527481643492, 1.18582377746799, -1.17097615610752], a = 0.2, v = 0.2, t = 0.2)
movej(p[0.535142174410882, 0.011302950528309, 0.174119432634516, -1.18995605264024, 1.17593312883177, -1.17862387470766], a = 0.2, v = 0.2, t = 0.2)
movej(p[0.536531375943884, 0.0108164357221384, 0.173615984291504, -1.19150769667355, 1.17287154056728, -1.18863835001183], a = 0.2, v = 0.2, t = 0.2)
movej(p[0.537429479531071, 0.0104461851838056, 0.173236627236018, -1.19261203416117, 1.16919440497413, -1.1917810630913], a = 0.2, v = 0.2, t = 0.2)
movej(p[0.538559389021934, 0.0102866047532626, 0.172978646367259, -1.19051499340501, 1.16781453206204, -1.19742306315618], a = 0.2, v = 0.2, t = 0.2)
movej(p[0.538862743841989, 0.0101629048906086, 0.172851022282038, -1.19668753739194, 1.16213814428041, -1.19812252790057], a = 0.2, v = 0.2, t = 0.2)
movej(p[0.538989872292183, 0.0101412182851227, 0.172802148891591, -1.19008941907261, 1.16279195465426, -1.1960534638126], a = 0.2, v = 0.2, t = 0.2)
movej(p[0.539122972612793, 0.0101627464460523, 0.172799735814611, -1.19292973753288, 1.16248808401479, -1.19753608950374], a = 0.2, v = 0.2, t = 0.2)
movej(p[0.539059364729111, 0.0101940530082384, 0.172828526026446, -1.1955792673849, 1.16386798517149, -1.19816591524575], a = 0.2, v = 0.2, t = 0.2)
movej(p[0.539034835399439, 0.0104569049942374, 0.173040984317511, -1.19199921136928, 1.16477736746947, -1.19753857468879], a = 0.2, v = 0.2, t = 0.2)
movej(p[0.537840556675254, 0.0109200555871563, 0.173514603444277, -1.1870691089283, 1.17910903395955, -1.19249987407849], a = 0.2, v = 0.2, t = 0.2)
movej(p[0.535983542131138, 0.0114374965689915, 0.174096036005507, -1.17615636126151, 1.19345401013786, -1.18225394473138], a = 0.2, v = 0.2, t = 0.2)
movej(p[0.534235025998268, 0.0119680933276401, 0.174694647050181, -1.1743857126659, 1.20076535625239, -1.17413259288226], a = 0.2, v = 0.2, t = 0.2)
movej(p[0.531982960323473, 0.0125527985490597, 0.175389251808627, -1.17570477561531, 1.20620217591737, -1.16395959905697], a = 0.2, v = 0.2, t = 0.2)
movej(p[0.529555789346574, 0.0131250507915542, 0.176066873443362, -1.17214537342715, 1.21111505150331, -1.15077667008324], a = 0.2, v = 0.2, t = 0.2)
movej(p[0.528601010248888, 0.0132819432555185, 0.176291019711171, -1.17476964840984, 1.20586288918367, -1.14609818322126], a = 0.2, v = 0.2, t = 0.2)
movej(p[0.529249504551656, 0.0131345332111594, 0.176126649677101, -1.16956984190432, 1.20392844361616, -1.1478449141592], a = 0.2, v = 0.2, t = 0.2)
movej(p[0.531157836079287, 0.0125836438505848, 0.175508987388263, -1.16191926196077, 1.19960236359619, -1.1570724050625], a = 0.2, v = 0.2, t = 0.2)
movej(p[0.533113615441823, 0.0119100089736035, 0.174766110199492, -1.17728772789892, 1.18598023719888, -1.16862580816839], a = 0.2, v = 0.2, t = 0.2)
movej(p[0.535029815124538, 0.0112424720010081, 0.174026995258376, -1.18646521079557, 1.17483994471601, -1.17832800072441], a = 0.2, v = 0.2, t = 0.2)
movej(p[0.537156960014639, 0.0106048999031734, 0.173307972249998, -1.19167118714472, 1.16822751226482, -1.19049233819086], a = 0.2, v = 0.2, t = 0.2)
movej(p[0.537757466957122, 0.0103556647629018, 0.173018774001588, -1.19549559349119, 1.16772041805014, -1.19321655429404], a = 0.2, v = 0.2, t = 0.2)
movej(p[0.538243932319949, 0.0102579212846987, 0.172906464459525, -1.20121068025107, 1.16112195583217, -1.19677676642782], a = 0.2, v = 0.2, t = 0.2)
movej(p[0.538648794083862, 0.010190898971421, 0.172828743537987, -1.20294345590529, 1.1609110010699, -1.19900359997612], a = 0.2, v = 0.2, t = 0.2)
movej(p[0.538992573711453, 0.0101807865933313, 0.172815634859092, -1.19947644159091, 1.16088992561912, -1.20003191245632], a = 0.2, v = 0.2, t = 0.2)
movej(p[0.539452820804195, 0.0101708347625886, 0.17280730151118, -1.20177564769291, 1.1553605272983, -1.20184029888866], a = 0.2, v = 0.2, t = 0.2)
movej(p[0.539304630931604, 0.0102072933626469, 0.172839346513024, -1.196624711848, 1.16340758301146, -1.20019022609662], a = 0.2, v = 0.2, t = 0.2)
movej(p[0.539307544758656, 0.0102338843109417, 0.17286858947937, -1.19854710035896, 1.15930366355885, -1.19962896405983], a = 0.2, v = 0.2, t = 0.2)
movej(p[0.539031465906326, 0.0103798412034195, 0.173040722285175, -1.19688483011144, 1.16168605975863, -1.19827474055901], a = 0.2, v = 0.2, t = 0.2)
movej(p[0.53791807181724, 0.0108824530928689, 0.173590563599532, -1.19211648045347, 1.17643100114836, -1.1913307741925], a = 0.2, v = 0.2, t = 0.2)
movej(p[0.536974340957924, 0.0112683295361471, 0.17404254264296, -1.19220501041013, 1.18604493200224, -1.1870471910703], a = 0.2, v = 0.2, t = 0.2)
movej(p[0.53502079085775, 0.0117881303746875, 0.174625297131883, -1.18671772752716, 1.19767664681686, -1.177330434187], a = 0.2, v = 0.2, t = 0.2)
movej(p[0.533404116558716, 0.0122420772303693, 0.175129385252217, -1.18446007725702, 1.20407860701376, -1.16895568813702], a = 0.2, v = 0.2, t = 0.2)
movej(p[0.533010515253506, 0.012384545951731, 0.175295766038277, -1.18182684055616, 1.20733232352539, -1.1670094991192], a = 0.2, v = 0.2, t = 0.2)
movej(p[0.531533384221011, 0.0127260074936363, 0.175667521694913, -1.18107548042372, 1.20840119837476, -1.16009011451395], a = 0.2, v = 0.2, t = 0.2)
movej(p[0.528069669203249, 0.0135955314532427, 0.176604624981323, -1.16582421680666, 1.22109488668593, -1.14087826566172], a = 0.2, v = 0.2, t = 0.2)
movej(p[0.528976955423032, 0.0134483429187251, 0.176493691214156, -1.16660145185404, 1.20977939109539, -1.14615997434399], a = 0.2, v = 0.2, t = 0.2)
movej(p[0.532054551849613, 0.0123211803569658, 0.175195454165514, -1.16845441506191, 1.19463348322009, -1.16336496836186], a = 0.2, v = 0.2, t = 0.2)
movej(p[0.534194809169267, 0.0115667156686134, 0.174285706233559, -1.17777021776333, 1.18588401374143, -1.17375685842987], a = 0.2, v = 0.2, t = 0.2)
movej(p[0.535962497579451, 0.0109629136382665, 0.173581363538098, -1.18645610245663, 1.17919622381516, -1.18406334126313], a = 0.2, v = 0.2, t = 0.2)
movej(p[0.537117560183387, 0.0106075175082312, 0.173167206766156, -1.19027652001251, 1.17247026648962, -1.18985810484109], a = 0.2, v = 0.2, t = 0.2)
movej(p[0.538123429228728, 0.0104559304604589, 0.173064600038447, -1.19655281175959, 1.17098689792979, -1.19488374915309], a = 0.2, v = 0.2, t = 0.2)
movej(p[0.538420378800756, 0.0104164257929755, 0.17305677616987, -1.19492307600858, 1.17102474359923, -1.19640413517024], a = 0.2, v = 0.2, t = 0.2)
movej(p[0.538637588343454, 0.0103384255180767, 0.172979384234393, -1.19832276325669, 1.16754549095542, -1.1986596623502], a = 0.2, v = 0.2, t = 0.2)
movej(p[0.53870393018024, 0.0103330014109998, 0.172962111141032, -1.20005595922027, 1.16764290276577, -1.19821426974028], a = 0.2, v = 0.2, t = 0.2)
movej(p[0.538727027027698, 0.0103772888728489, 0.173045977262681, -1.1983202370809, 1.17015844556311, -1.19763769338995], a = 0.2, v = 0.2, t = 0.2)
movej(p[0.539283341588027, 0.0103044788269743, 0.173049068732575, -1.19837262318748, 1.16576371801603, -1.20028846597261], a = 0.2, v = 0.2, t = 0.2)
movej(p[0.539302924630567, 0.0103162498195104, 0.17308588772468, -1.19331280702392, 1.16811114205364, -1.19947038612929], a = 0.2, v = 0.2, t = 0.2)
movej(p[0.538727734115496, 0.0105593128251668, 0.173387659089545, -1.19413490949633, 1.17540808941008, -1.19474125316238], a = 0.2, v = 0.2, t = 0.2)
movej(p[0.537532227810803, 0.0109775743056129, 0.173898607569741, -1.19762619764896, 1.18387800151299, -1.18775696588135], a = 0.2, v = 0.2, t = 0.2)
movej(p[0.535977790159888, 0.0114139761082381, 0.174373929551227, -1.19253647796942, 1.19714798668225, -1.17842748310238], a = 0.2, v = 0.2, t = 0.2)
movej(p[0.534658859902692, 0.0118173432364914, 0.174851872180104, -1.18897962582235, 1.20144819810088, -1.17196276781743], a = 0.2, v = 0.2, t = 0.2)
movej(p[0.534243319940064, 0.0119442976276994, 0.174995718528727, -1.18708131886227, 1.20411405415372, -1.16928856633112], a = 0.2, v = 0.2, t = 0.2)
movej(p[0.533783393290468, 0.0120922977861376, 0.175178773903118, -1.18473873618529, 1.20635424758653, -1.16668451066826], a = 0.2, v = 0.2, t = 0.2)
movej(p[0.531819594896305, 0.0126293723615361, 0.17570646615012, -1.18191504268834, 1.20944005880688, -1.15699368844933], a = 0.2, v = 0.2, t = 0.2)
movej(p[0.529940924727713, 0.0131356543560738, 0.176234708101925, -1.17252652936844, 1.21577965748429, -1.14825769211163], a = 0.2, v = 0.2, t = 0.2)
movej(p[0.531572709796086, 0.0125219300576209, 0.175416955617292, -1.17661350029825, 1.19788475503634, -1.16123739686125], a = 0.2, v = 0.2, t = 0.2)
movej(p[0.535061823094676, 0.0114290095065387, 0.174124319350347, -1.18300821128236, 1.18182020117368, -1.17929626197914], a = 0.2, v = 0.2, t = 0.2)
movej(p[0.536334649877791, 0.0109740449623184, 0.173483106067821, -1.18656104432792, 1.17573989550796, -1.18614154278663], a = 0.2, v = 0.2, t = 0.2)
movej(p[0.537315662372455, 0.0106886444790734, 0.173171992922043, -1.19197518470673, 1.17410054493071, -1.19002030855226], a = 0.2, v = 0.2, t = 0.2)
movej(p[0.537966839227299, 0.0105235755298069, 0.173038013462036, -1.19202811893022, 1.17108674106461, -1.19298922905611], a = 0.2, v = 0.2, t = 0.2)
movej(p[0.538280096499868, 0.0104385126711442, 0.172948818836306, -1.19521329247778, 1.17008605471787, -1.194463298221], a = 0.2, v = 0.2, t = 0.2)
movej(p[0.538905052726805, 0.0103215944917995, 0.173009583906461, -1.19461884821932, 1.16662539875089, -1.19800137434724], a = 0.2, v = 0.2, t = 0.2)
movej(p[0.539128432026356, 0.0102721056221525, 0.172996588895375, -1.19682523721918, 1.16678387066309, -1.19844595095246], a = 0.2, v = 0.2, t = 0.2)
movej(p[0.539172177081743, 0.0102639472898481, 0.173010951058971, -1.194469491353, 1.16730274743665, -1.19866216420339], a = 0.2, v = 0.2, t = 0.2)
movej(p[0.539197438097384, 0.0102464487179888, 0.172917716242129, -1.19716099250981, 1.16929938799787, -1.19733333423897], a = 0.2, v = 0.2, t = 0.2)
movej(p[0.53928358043177, 0.0102483254025358, 0.173051285910398, -1.19631116711643, 1.16912345222427, -1.19871350472749], a = 0.2, v = 0.2, t = 0.2)
movej(p[0.539250468001639, 0.0102345932765142, 0.17301389278689, -1.19457861316589, 1.16907665609473, -1.19873694391485], a = 0.2, v = 0.2, t = 0.2)
movej(p[0.539455438411962, 0.0101863908643933, 0.173043828858069, -1.19721541317978, 1.16961404474042, -1.198574444218], a = 0.2, v = 0.2, t = 0.2)
movej(p[0.539472193510229, 0.0101986998187464, 0.173202737216328, -1.19580348799128, 1.16850921485731, -1.19979994750493], a = 0.2, v = 0.2, t = 0.2)
movej(p[0.538371376792519, 0.0105539620679651, 0.173733468238872, -1.19547567315977, 1.1762771386926, -1.19244483711799], a = 0.2, v = 0.2, t = 0.2)
movej(p[0.537041401076581, 0.0109542645766339, 0.174120348823252, -1.19570761295433, 1.18594843253195, -1.18173423873435], a = 0.2, v = 0.2, t = 0.2)
movej(p[0.535935030264377, 0.011281643210205, 0.174398292749581, -1.19662422160747, 1.19742668025399, -1.1710010037458], a = 0.2, v = 0.2, t = 0.2)
movej(p[0.53468324532288, 0.0116475931423001, 0.174733715941148, -1.19373068340616, 1.20113290914781, -1.16455242165818], a = 0.2, v = 0.2, t = 0.2)
movej(p[0.53377062394823, 0.0119206434692554, 0.175161022582193, -1.19170258207873, 1.20302307414606, -1.16056489418984], a = 0.2, v = 0.2, t = 0.2)
movej(p[0.532049403264621, 0.0124300799775684, 0.175713751034794, -1.18462469203973, 1.20790742408027, -1.1536088574034], a = 0.2, v = 0.2, t = 0.2)
movej(p[0.531702566078926, 0.0125315007492669, 0.175775714279443, -1.18325798305359, 1.20865502037171, -1.15224394817556], a = 0.2, v = 0.2, t = 0.2)
movej(p[0.531423259139479, 0.0126138368738669, 0.175828680742062, -1.18216744522796, 1.20969200056815, -1.15087417786932], a = 0.2, v = 0.2, t = 0.2)
movej(p[0.532272773969438, 0.0123382724722033, 0.175476293080224, -1.17785998897018, 1.20318411594511, -1.1596172822641], a = 0.2, v = 0.2, t = 0.2)
movej(p[0.534022112401863, 0.0117988296639099, 0.174606529954184, -1.18137876072075, 1.18911340937919, -1.17336211288295], a = 0.2, v = 0.2, t = 0.2)
movej(p[0.536235358577142, 0.0111225239065313, 0.173786927562684, -1.18390801394946, 1.17927115546008, -1.18544603141599], a = 0.2, v = 0.2, t = 0.2)
movej(p[0.537003591910768, 0.010911635385952, 0.173315161013432, -1.18807480677355, 1.17404668476999, -1.1892790383647], a = 0.2, v = 0.2, t = 0.2)
movej(p[0.537329813493125, 0.0108352729511313, 0.173203790515754, -1.19077358732132, 1.17612011396892, -1.187457912457], a = 0.2, v = 0.2, t = 0.2)
movej(p[0.537718562358018, 0.0107232207755701, 0.173058536669002, -1.19438745403452, 1.17226215013805, -1.18998645140784], a = 0.2, v = 0.2, t = 0.2)
movej(p[0.534890596425733, 0.0111554013531107, 0.17274929281016, -1.19260802116039, 1.17109371047129, -1.19188785952905], a = 0.2, v = 0.2, t = 0.2)
movej(p[0.534707754869028, 0.0112429818908324, 0.172970735431518, -1.19045619637611, 1.17147108812667, -1.19074980339947], a = 0.2, v = 0.2, t = 0.2)
movej(p[0.534524916635442, 0.0113305636611634, 0.173192078115709, -1.18830245276264, 1.17184921108622, -1.18961138260907], a = 0.2, v = 0.2, t = 0.2)
movej(p[0.534342078401855, 0.0114181454314945, 0.173413420799899, -1.18614796814612, 1.17222519308139, -1.18847602040212], a = 0.2, v = 0.2, t = 0.2)
movej(p[0.534159333284174, 0.0115058293105522, 0.173634867902651, -1.18399411897778, 1.1726023626668, -1.18734080019713], a = 0.2, v = 0.2, t = 0.2)
movej(p[0.533976495050588, 0.0115934110808833, 0.173856210586842, -1.18183959883213, 1.17297946418697, -1.18620652119142], a = 0.2, v = 0.2, t = 0.2)
movej(p[0.533793653493883, 0.011680991618605, 0.1740776532082, -1.17968309991449, 1.17335524736464, -1.18507398646183], a = 0.2, v = 0.2, t = 0.2)
movej(p[0.533610815260297, 0.0117685733889361, 0.17429899589239, -1.17752516481753, 1.17373431698091, -1.18394153601901], a = 0.2, v = 0.2, t = 0.2)
movej(p[0.533427970257282, 0.0118562538610016, 0.174520439631727, -1.1753686406646, 1.17411121764295, -1.18281007173413], a = 0.2, v = 0.2, t = 0.2)
movej(p[0.533245132023696, 0.0119438356313327, 0.174741782315917, -1.17321014204151, 1.17448680629797, -1.18168034915161], a = 0.2, v = 0.2, t = 0.2)
movej(p[0.533503377633974, 0.0119044810733914, 0.174798014366754, -1.1735972689384, 1.17409164330879, -1.18235191277057], a = 0.2, v = 0.2, t = 0.2)
movej(p[0.535042665209666, 0.0114205360882806, 0.174142889935286, -1.18226159519622, 1.17143505005814, -1.1871190376951], a = 0.2, v = 0.2, t = 0.2)
movej(p[0.535894320742427, 0.0111241700688435, 0.173635019315894, -1.18780698406507, 1.16941379205721, -1.18964323040849], a = 0.2, v = 0.2, t = 0.2)
movej(p[0.536915669724537, 0.0107876347819025, 0.173090569697118, -1.19353725254205, 1.17024636978128, -1.19135570717249], a = 0.2, v = 0.2, t = 0.2)
movej(p[0.53760989063631, 0.0105900551664536, 0.172900484660316, -1.19459234176767, 1.16728978862569, -1.19448790675073], a = 0.2, v = 0.2, t = 0.2)
movej(p[0.538144104932874, 0.0104471813764151, 0.172837036291803, -1.19561518464666, 1.16737260780388, -1.1959694420461], a = 0.2, v = 0.2, t = 0.2)
movej(p[0.539070306297917, 0.0102038882752786, 0.17273445174944, -1.19646235598224, 1.16406750005295, -1.200135186186], a = 0.2, v = 0.2, t = 0.2)
movej(p[0.539241658511258, 0.0101650119755172, 0.172739469946312, -1.19456163843021, 1.162628481715, -1.20150037967274], a = 0.2, v = 0.2, t = 0.2)
movej(p[0.53941249731603, 0.0101181173701391, 0.17274407198615, -1.19514391797109, 1.16330308574489, -1.20201908916805], a = 0.2, v = 0.2, t = 0.2)
movej(p[0.539549536120679, 0.010122118905315, 0.172853544054444, -1.19462086019573, 1.16733541151196, -1.2003003210064], a = 0.2, v = 0.2, t = 0.2)
movej(p[0.53918521204185, 0.0102700851649038, 0.17327172373067, -1.19085156309814, 1.16877646333068, -1.19975822477173], a = 0.2, v = 0.2, t = 0.2)
movej(p[0.538721862081711, 0.0104576755276661, 0.173635266740833, -1.18928615497576, 1.17491967840354, -1.19529788898984], a = 0.2, v = 0.2, t = 0.2)
movej(p[0.537544046242164, 0.0108296110161518, 0.174066181791065, -1.18712709687626, 1.18440082931953, -1.18734481495315], a = 0.2, v = 0.2, t = 0.2)
movej(p[0.535780431897769, 0.0113491223801536, 0.174508956549738, -1.18815042217808, 1.19616590282401, -1.17525495799989], a = 0.2, v = 0.2, t = 0.2)
movej(p[0.534311836800748, 0.0117754720182058, 0.174841517577429, -1.18426851899547, 1.20079993995846, -1.16860379406612], a = 0.2, v = 0.2, t = 0.2)
movej(p[0.532550672747631, 0.0122678902675296, 0.175244915068426, -1.18261675987744, 1.2043327135391, -1.16125585832602], a = 0.2, v = 0.2, t = 0.2)
movej(p[0.531436870605733, 0.0126023708797545, 0.175956371967154, -1.15716277814216, 1.18480553537463, -1.17592992568444], a = 0.2, v = 0.2, t = 0.2)
movej(p[0.530942138433882, 0.0127702250666783, 0.176252086221237, -1.1534717051314, 1.18633781188177, -1.17468264100835], a = 0.2, v = 0.2, t = 0.2)
movej(p[0.531286925141612, 0.0126490411216264, 0.176009397680851, -1.15611912884347, 1.18521970533894, -1.17552588913394], a = 0.2, v = 0.2, t = 0.2)
movej(p[0.532537795362264, 0.0122465040760439, 0.175310064464124, -1.16768724379459, 1.18690849091127, -1.17522686551601], a = 0.2, v = 0.2, t = 0.2)
movej(p[0.533656289611031, 0.0118556692251085, 0.174560945198071, -1.17682601439019, 1.18492941739585, -1.17739072867274], a = 0.2, v = 0.2, t = 0.2)
movej(p[0.534641286867098, 0.0115420561072118, 0.174109528563661, -1.18234578132371, 1.18256608829383, -1.18028990947182], a = 0.2, v = 0.2, t = 0.2)
movej(p[0.535997261323016, 0.011118826826975, 0.173607056722411, -1.18628956820772, 1.17454165537734, -1.18793930766653], a = 0.2, v = 0.2, t = 0.2)
movej(p[0.536208456667182, 0.0110637606508768, 0.173580979858095, -1.18691126220157, 1.17307984838587, -1.18876617726648], a = 0.2, v = 0.2, t = 0.2)
movej(p[0.536766500353792, 0.0108983671331273, 0.173376757337005, -1.19045090716359, 1.1733548702053, -1.18953519388936], a = 0.2, v = 0.2, t = 0.2)
movej(p[0.537500952759508, 0.0106976327659036, 0.173234900657383, -1.19345739259911, 1.17373054700209, -1.19096101687872], a = 0.2, v = 0.2, t = 0.2)
movej(p[0.537936639190211, 0.0105595778739369, 0.173009435691356, -1.19700968154871, 1.17369171943587, -1.19141243888127], a = 0.2, v = 0.2, t = 0.2)
movej(p[0.538617626995138, 0.0103873797870178, 0.172987429364963, -1.19884104137299, 1.17487428083058, -1.19251580650175], a = 0.2, v = 0.2, t = 0.2)
movej(p[0.53915928578397, 0.0102547336711732, 0.173016612655268, -1.19849691846188, 1.1737471777121, -1.19497724444067], a = 0.2, v = 0.2, t = 0.2)
movej(p[0.539528465765498, 0.0101485641078955, 0.172929217374663, -1.19877999683859, 1.1712753829769, -1.19736454400142], a = 0.2, v = 0.2, t = 0.2)
movej(p[0.539610770781903, 0.0101382495659193, 0.17301367839821, -1.19871884684743, 1.1728841723936, -1.19679404210667], a = 0.2, v = 0.2, t = 0.2)
movej(p[0.53890999118897, 0.0103755046098448, 0.173474304511517, -1.19478042451213, 1.17741525240027, -1.19335213422052], a = 0.2, v = 0.2, t = 0.2)
movej(p[0.538150241162824, 0.0106172107277674, 0.173856176349087, -1.19188901143394, 1.18175329310146, -1.18954628272508], a = 0.2, v = 0.2, t = 0.2)
movej(p[0.537583554834643, 0.0107942719291354, 0.174153614050838, -1.18625861640529, 1.18267226418584, -1.18854880691367], a = 0.2, v = 0.2, t = 0.2)
movej(p[0.535860678567242, 0.0112918802604681, 0.17435422044609, -1.1867043843863, 1.19307775116192, -1.17695301990399], a = 0.2, v = 0.2, t = 0.2)
movej(p[0.534512184578571, 0.0116990081917037, 0.175183047460687, -1.16877472197958, 1.1848251275338, -1.18311345493051], a = 0.2, v = 0.2, t = 0.2)
movej(p[0.532070127786836, 0.0123972347391984, 0.175761865112727, -1.15901522955131, 1.18810722090727, -1.17663972136023], a = 0.2, v = 0.2, t = 0.2)
movej(p[0.5297208402512, 0.012993225925282, 0.17554150329431, -1.15953969648098, 1.18696997527198, -1.16944194588018], a = 0.2, v = 0.2, t = 0.2)
movej(p[0.52995382223431, 0.0130080977783363, 0.176352538462187, -1.15172818331805, 1.19277774987418, -1.16992816964881], a = 0.2, v = 0.2, t = 0.2)
movej(p[0.531866731819061, 0.0124287442833644, 0.175600993334844, -1.16040383943236, 1.18700053173002, -1.17667510026907], a = 0.2, v = 0.2, t = 0.2)
movej(p[0.533057681194093, 0.0120602034368912, 0.175014458791453, -1.16806902739099, 1.18390463472084, -1.17967755741304], a = 0.2, v = 0.2, t = 0.2)
movej(p[0.534033264936882, 0.0117591475584763, 0.174511751889892, -1.1755340370751, 1.18233460713906, -1.18107083110708], a = 0.2, v = 0.2, t = 0.2)
movej(p[0.535089266310771, 0.0114380306507033, 0.174010771171814, -1.18307623433966, 1.18078065840725, -1.18267605483762], a = 0.2, v = 0.2, t = 0.2)
movej(p[0.536289016028757, 0.0110788381967229, 0.173510198314781, -1.19080674100565, 1.17928122564598, -1.18463728430172], a = 0.2, v = 0.2, t = 0.2)
movej(p[0.537273993002824, 0.0107898162243437, 0.173159347306461, -1.19526471887901, 1.17767808785106, -1.18753253911558], a = 0.2, v = 0.2, t = 0.2)
movej(p[0.53775955419625, 0.0106368755513604, 0.172987089685479, -1.19574036404218, 1.17444694344809, -1.19078346723111], a = 0.2, v = 0.2, t = 0.2)
movej(p[0.538313420148082, 0.0104650722257104, 0.172850992129672, -1.19588184112514, 1.17087097066545, -1.19406044806268], a = 0.2, v = 0.2, t = 0.2)
movej(p[0.538839631807961, 0.0103240495297083, 0.172865749779194, -1.19679585120859, 1.16900973029054, -1.1960295630149], a = 0.2, v = 0.2, t = 0.2)
movej(p[0.538701850206573, 0.0103078191108576, 0.172469622181288, -1.18939551578254, 1.14809054438088, -1.20943068773529], a = 0.2, v = 0.2, t = 0.2)
movej(p[0.539760321867818, 0.0100643721977804, 0.172895863512993, -1.1966520533704, 1.16997453619433, -1.19886207837171], a = 0.2, v = 0.2, t = 0.2)
movej(p[0.539915275683347, 0.0100268928751893, 0.173065357334212, -1.19586875670845, 1.17232171062076, -1.19818278285069], a = 0.2, v = 0.2, t = 0.2)
movej(p[0.539417203475252, 0.0101927651905279, 0.173438484806435, -1.19498579608321, 1.17746978741972, -1.19377153918873], a = 0.2, v = 0.2, t = 0.2)
movej(p[0.53863869776782, 0.0104235811191551, 0.173769967476552, -1.1923898010204, 1.18482470870902, -1.18748979542379], a = 0.2, v = 0.2, t = 0.2)
movej(p[0.537686656722089, 0.0107210024113122, 0.174035062633458, -1.19258892101343, 1.1912866868602, -1.18069992545478], a = 0.2, v = 0.2, t = 0.2)
movej(p[0.5363146946188, 0.0111334860971574, 0.174250190191082, -1.19025320301869, 1.19165089164913, -1.17743095804431], a = 0.2, v = 0.2, t = 0.2)
movej(p[0.535186511735374, 0.0114646280421828, 0.174491232477394, -1.18594391722841, 1.18723027639399, -1.17830693063875], a = 0.2, v = 0.2, t = 0.2)
movej(p[0.533542397289089, 0.0119131252695435, 0.174923796616645, -1.17048983157522, 1.18559391493944, -1.18012047932262], a = 0.2, v = 0.2, t = 0.2)
movej(p[0.531808156705812, 0.0124277413658476, 0.175510077328198, -1.16198725259277, 1.18991650386432, -1.17559722705809], a = 0.2, v = 0.2, t = 0.2)
movej(p[0.530745241468105, 0.0127380881426626, 0.175995385689522, -1.1531636755212, 1.19027216284584, -1.17635040352073], a = 0.2, v = 0.2, t = 0.2)
movej(p[0.53117914889142, 0.0126276117107386, 0.175794817182568, -1.1613355226292, 1.19618725292423, -1.17011136338339], a = 0.2, v = 0.2, t = 0.2)
movej(p[0.533071409284887, 0.0120496291814626, 0.175295361149302, -1.16558191751777, 1.18770737118737, -1.17976984853898], a = 0.2, v = 0.2, t = 0.2)
movej(p[0.534607168795471, 0.0115915327732414, 0.17467125757903, -1.17332519384489, 1.18173392352681, -1.18523717390533], a = 0.2, v = 0.2, t = 0.2)
movej(p[0.535444442642977, 0.0113532726599962, 0.173907264331207, -1.18244016903852, 1.18229762661454, -1.18321278550423], a = 0.2, v = 0.2, t = 0.2)
movej(p[0.536230450282804, 0.0111276017336602, 0.173371566064325, -1.19033083982875, 1.17561233859013, -1.18637707104617], a = 0.2, v = 0.2, t = 0.2)
movej(p[0.536861885901836, 0.0109411868430573, 0.173143808545066, -1.19406854277888, 1.17526800540001, -1.18632060292009], a = 0.2, v = 0.2, t = 0.2)
movej(p[0.537539536840959, 0.0107396025166792, 0.172893885908907, -1.19658694473458, 1.1720736732318, -1.18941873178207], a = 0.2, v = 0.2, t = 0.2)
movej(p[0.538164148347845, 0.010552845755877, 0.172756153967225, -1.19848573590824, 1.17027350423549, -1.19175578959574], a = 0.2, v = 0.2, t = 0.2)
movej(p[0.538442333060489, 0.0104654367376015, 0.172714895038793, -1.19702525699037, 1.17035874043778, -1.19321286951368], a = 0.2, v = 0.2, t = 0.2)
movej(p[0.538590926014079, 0.0104171506279815, 0.172676913915043, -1.19509261716314, 1.17026367293403, -1.19464207482292], a = 0.2, v = 0.2, t = 0.2)
movej(p[0.539043639648365, 0.0102828766072589, 0.172854714766251, -1.20015460479629, 1.17242735293607, -1.19220173627844], a = 0.2, v = 0.2, t = 0.2)
movej(p[0.539397842890456, 0.010160282491031, 0.173044393431257, -1.19822264483702, 1.17226876841736, -1.19455129365168], a = 0.2, v = 0.2, t = 0.2)
movej(p[0.540171742910828, 0.00991234939061304, 0.173155424761005, -1.1995638599642, 1.17452065430177, -1.19473628906187], a = 0.2, v = 0.2, t = 0.2)
movej(p[0.539844022756339, 0.0100239096921526, 0.173022926083796, -1.20095266946406, 1.17475014366641, -1.1925760062609], a = 0.2, v = 0.2, t = 0.2)
movej(p[0.5392459506035, 0.0101995879359965, 0.173275675672597, -1.198253009877, 1.17742767594137, -1.19007334452333], a = 0.2, v = 0.2, t = 0.2)
movej(p[0.537868345692997, 0.0105853921973942, 0.173944071657357, -1.18685634632907, 1.17743463187863, -1.19222688186454], a = 0.2, v = 0.2, t = 0.2)
movej(p[0.536719389514096, 0.0109473678255585, 0.174048317729616, -1.18425976861405, 1.17897225089665, -1.18872207211893], a = 0.2, v = 0.2, t = 0.2)
movej(p[0.536070253968134, 0.0111360081292242, 0.174335651923199, -1.18101822962578, 1.18187462869512, -1.18629892270911], a = 0.2, v = 0.2, t = 0.2)
movej(p[0.534675271956322, 0.011589057936285, 0.174655180120769, -1.18123223226383, 1.19217107625735, -1.17526984614027], a = 0.2, v = 0.2, t = 0.2)
movej(p[0.532969623660072, 0.0121317120156893, 0.175113175982764, -1.18189862292107, 1.20286503870626, -1.16162411084756], a = 0.2, v = 0.2, t = 0.2)
movej(p[0.531490002778017, 0.0125415746942472, 0.175302277252226, -1.16218077466869, 1.18745802835844, -1.17812067207236], a = 0.2, v = 0.2, t = 0.2)
movej(p[0.53206943423759, 0.0123620750741358, 0.175262094668481, -1.16466652193858, 1.18884464085905, -1.17749139864959], a = 0.2, v = 0.2, t = 0.2)
movej(p[0.533256845867472, 0.0120109469195369, 0.174780823331011, -1.17009364352562, 1.18344538812005, -1.18239188282886], a = 0.2, v = 0.2, t = 0.2)
movej(p[0.534773856041938, 0.0115532394830992, 0.174359328795819, -1.1776060813425, 1.18136228497779, -1.18442749151113], a = 0.2, v = 0.2, t = 0.2)
movej(p[0.53576917973568, 0.0112708630420653, 0.173929353819543, -1.18459859379382, 1.18006230408944, -1.18431100577285], a = 0.2, v = 0.2, t = 0.2)
movej(p[0.53656554866385, 0.0110727604263997, 0.173295878244708, -1.19198010332969, 1.17304330642518, -1.18912691671973], a = 0.2, v = 0.2, t = 0.2)
movej(p[0.537322222012986, 0.010846850119658, 0.173013161167022, -1.19468506692461, 1.17151740022177, -1.1898832115197], a = 0.2, v = 0.2, t = 0.2)
movej(p[0.537613277814296, 0.0107567052732544, 0.173014623080353, -1.19611554953857, 1.17315997442566, -1.18830055581865], a = 0.2, v = 0.2, t = 0.2)
movej(p[0.537963138843743, 0.0106502335595139, 0.172912572875812, -1.19565914561575, 1.17371959988414, -1.18912925027209], a = 0.2, v = 0.2, t = 0.2)
movej(p[0.538312903434167, 0.0105436585044374, 0.172810518189876, -1.19520262000984, 1.17427914583241, -1.18995792467719], a = 0.2, v = 0.2, t = 0.2)
movej(p[0.538720136527203, 0.0103845720500134, 0.172856719141763, -1.1926774413126, 1.16745193221052, -1.19820671660366], a = 0.2, v = 0.2, t = 0.2)
movej(p[0.539150380184507, 0.0102602219277273, 0.172838472431461, -1.20019450570098, 1.17116712078366, -1.19300113692125], a = 0.2, v = 0.2, t = 0.2)
movej(p[0.539231512880554, 0.010253104789546, 0.172597729576995, -1.20036273977175, 1.16379510475748, -1.19848273865103], a = 0.2, v = 0.2, t = 0.2)
movej(p[0.539488292298679, 0.010145526776267, 0.172701201657705, -1.19899626292335, 1.16140250218577, -1.20230730001418], a = 0.2, v = 0.2, t = 0.2)
movej(p[0.539831194148983, 0.00997797999181135, 0.173090676208961, -1.18997926610664, 1.17606805324016, -1.19618713097864], a = 0.2, v = 0.2, t = 0.2)
movej(p[0.538978247294083, 0.0102291923366519, 0.173489378755375, -1.19603255144935, 1.17789931951757, -1.18915312535447], a = 0.2, v = 0.2, t = 0.2)
movej(p[0.537598963662828, 0.0106832218967244, 0.173814444184377, -1.19602443559606, 1.18694996432777, -1.17861645324908], a = 0.2, v = 0.2, t = 0.2)
movej(p[0.536211135912122, 0.01112931928915, 0.174213974697406, -1.19195431102645, 1.19307721277828, -1.17440801030402], a = 0.2, v = 0.2, t = 0.2)
movej(p[0.535084982130286, 0.0114900956827074, 0.174442041537408, -1.18824827495635, 1.19782628768124, -1.1678836388237], a = 0.2, v = 0.2, t = 0.2)
movej(p[0.533783965652474, 0.0118920919225635, 0.174829405652424, -1.18624043287146, 1.20092021976654, -1.16182289283706], a = 0.2, v = 0.2, t = 0.2)
movej(p[0.532572667061461, 0.0122343408177841, 0.175431449635145, -1.18000115232106, 1.20771168743441, -1.15703511764116], a = 0.2, v = 0.2, t = 0.2)
movej(p[0.530683956624005, 0.0128233773095144, 0.175409932552284, -1.15595975617182, 1.19174646359059, -1.17533585117776], a = 0.2, v = 0.2, t = 0.2)
movej(p[0.531219092876006, 0.0126330876754637, 0.175822029163489, -1.16734750776484, 1.21147603084486, -1.15498374361791], a = 0.2, v = 0.2, t = 0.2)
movej(p[0.532643154039894, 0.0122189353563395, 0.174852238181849, -1.16423757052923, 1.18479724364816, -1.18274565397715], a = 0.2, v = 0.2, t = 0.2)
movej(p[0.534291077326898, 0.0117562630130389, 0.174285241424457, -1.17609703387182, 1.18714380854033, -1.17865877585222], a = 0.2, v = 0.2, t = 0.2)
movej(p[0.535770080758413, 0.0113428144555054, 0.173591858586595, -1.17976839842082, 1.18293728613554, -1.18252126265626], a = 0.2, v = 0.2, t = 0.2)
movej(p[0.536566751598984, 0.0111082279066207, 0.173277744001028, -1.18523082838073, 1.17604388185758, -1.18896621394785], a = 0.2, v = 0.2, t = 0.2)
movej(p[0.537381851724086, 0.010870744204376, 0.172957402219133, -1.19173554115063, 1.16952675657622, -1.19260672046648], a = 0.2, v = 0.2, t = 0.2)
movej(p[0.537862017874944, 0.0107513924752268, 0.17281619884694, -1.19664211542627, 1.17456502531434, -1.18719029993549], a = 0.2, v = 0.2, t = 0.2)
movej(p[0.538384066065825, 0.0105591214964715, 0.172738928625463, -1.19438093670779, 1.16823396820764, -1.19513314496386], a = 0.2, v = 0.2, t = 0.2)
movej(p[0.538601705558347, 0.0104914042460546, 0.17270970799421, -1.19571778487659, 1.16978771066754, -1.19409517401569], a = 0.2, v = 0.2, t = 0.2)
movej(p[0.539010630057914, 0.0103385794330732, 0.172702308657009, -1.19479972115402, 1.16883393664539, -1.19641686799091], a = 0.2, v = 0.2, t = 0.2)
movej(p[0.539169556787081, 0.010257669254034, 0.172803756415406, -1.19323161112782, 1.16732981444443, -1.19866895545836], a = 0.2, v = 0.2, t = 0.2)
movej(p[0.53957174719311, 0.0101286222875053, 0.172787921083759, -1.19624964764316, 1.17051264303639, -1.19665882179808], a = 0.2, v = 0.2, t = 0.2)
movej(p[0.539615322545294, 0.0100925353154858, 0.17288318418854, -1.20001315344312, 1.16921129278145, -1.19689682461433], a = 0.2, v = 0.2, t = 0.2)
movej(p[0.539311890602127, 0.0101239385606002, 0.173237410432715, -1.19168535529258, 1.17519682236239, -1.19464054050321], a = 0.2, v = 0.2, t = 0.2)
movej(p[0.537716446867918, 0.0106364219008759, 0.173726616245141, -1.19705731115495, 1.1824257236289, -1.18360690082447], a = 0.2, v = 0.2, t = 0.2)
movej(p[0.536223133361383, 0.0111144466078463, 0.174149249396618, -1.19091328360871, 1.19169152331822, -1.173556101666], a = 0.2, v = 0.2, t = 0.2)
movej(p[0.534561790132556, 0.011655053479521, 0.174577973942599, -1.18568822160431, 1.20041313220633, -1.16319352472992], a = 0.2, v = 0.2, t = 0.2)
movej(p[0.533121814305693, 0.0121256177686262, 0.174964264775872, -1.18582420870697, 1.20387836168787, -1.15624681157527], a = 0.2, v = 0.2, t = 0.2)
movej(p[0.532004525913539, 0.0124244485471414, 0.175443720628448, -1.17691730238146, 1.20731513388812, -1.15627597998955], a = 0.2, v = 0.2, t = 0.2)
movej(p[0.531427870851011, 0.0125938517302219, 0.175634665752563, -1.17117880301508, 1.20998478811984, -1.15465251833749], a = 0.2, v = 0.2, t = 0.2)
movej(p[0.532364665037787, 0.0122631984713526, 0.175448704025259, -1.17029477342034, 1.20473168237648, -1.16231800300922], a = 0.2, v = 0.2, t = 0.2)
movej(p[0.533493742441038, 0.0119786997975565, 0.174815720129669, -1.17600713612555, 1.19559236230405, -1.16991358619668], a = 0.2, v = 0.2, t = 0.2)
movej(p[0.534455219042422, 0.011785044429991, 0.174105838087634, -1.17913345231459, 1.18727325634421, -1.17667216643623], a = 0.2, v = 0.2, t = 0.2)
movej(p[0.535992959999402, 0.0113314312712901, 0.173525383049341, -1.18084052674542, 1.18099259599372, -1.18437263289575], a = 0.2, v = 0.2, t = 0.2)
movej(p[0.536808918027717, 0.0111119434967459, 0.17313754918948, -1.18207568693228, 1.17535567335553, -1.18984716584983], a = 0.2, v = 0.2, t = 0.2)
movej(p[0.537279216935217, 0.0109869645731966, 0.172968030764899, -1.18680352232627, 1.17348325649474, -1.19107015716813], a = 0.2, v = 0.2, t = 0.2)
movej(p[0.537883992837436, 0.0107848696941015, 0.17285216434207, -1.19027612416637, 1.17192740272692, -1.19090079157861], a = 0.2, v = 0.2, t = 0.2)
movej(p[0.538368855002274, 0.0105817431117561, 0.172906107021398, -1.19589355245258, 1.169941414102, -1.19250374656244], a = 0.2, v = 0.2, t = 0.2)
movej(p[0.53909176197138, 0.010312106449388, 0.172787431942613, -1.19517385041913, 1.16514854324618, -1.19899854802784], a = 0.2, v = 0.2, t = 0.2)
movej(p[0.539277100892363, 0.0102049186219132, 0.172904143098936, -1.18827079619138, 1.17072967337056, -1.19794033630283], a = 0.2, v = 0.2, t = 0.2)
movej(p[0.539476053657227, 0.0101637526515702, 0.172814290663027, -1.19153645055009, 1.17032537431146, -1.19688359273663], a = 0.2, v = 0.2, t = 0.2)
movej(p[0.539674545321408, 0.0100522447822865, 0.172910472752515, -1.19707717585089, 1.16858336944842, -1.1981089216828], a = 0.2, v = 0.2, t = 0.2)
movej(p[0.539296440317494, 0.0101664342752378, 0.173085325249537, -1.1940194944082, 1.17567759282789, -1.19080892600964], a = 0.2, v = 0.2, t = 0.2)
movej(p[0.538440923884744, 0.0103922966996356, 0.173443304353032, -1.19184873256983, 1.1772894443801, -1.19073718558096], a = 0.2, v = 0.2, t = 0.2)
movej(p[0.537600338735352, 0.0106349135142146, 0.173816595777935, -1.1960461587627, 1.18476244772082, -1.18033227630193], a = 0.2, v = 0.2, t = 0.2)
movej(p[0.536042499353028, 0.0111511545258702, 0.174184221153509, -1.18986311916596, 1.18875946533362, -1.1758828373684], a = 0.2, v = 0.2, t = 0.2)
movej(p[0.534453851341083, 0.0116572575264867, 0.174656463492683, -1.18115056381235, 1.19748722013296, -1.16703340292918], a = 0.2, v = 0.2, t = 0.2)
movej(p[0.532632128659226, 0.0122390695783382, 0.175165216622138, -1.18039266181125, 1.2005572489345, -1.1613650896515], a = 0.2, v = 0.2, t = 0.2)
movej(p[0.530041900946731, 0.0130193525041496, 0.176083134877272, -1.17385244254133, 1.21371186047574, -1.14566451393403], a = 0.2, v = 0.2, t = 0.2)
movej(p[0.529677131578871, 0.0131180212621883, 0.176237426304312, -1.17053835368846, 1.21598213163065, -1.1440554563525], a = 0.2, v = 0.2, t = 0.2)
movej(p[0.531262823183611, 0.0125831869100084, 0.175766132170693, -1.16528850856941, 1.20655863244226, -1.16005665058683], a = 0.2, v = 0.2, t = 0.2)
movej(p[0.53249528704434, 0.0123157440894539, 0.175090067092662, -1.17200239384607, 1.19912406384448, -1.16547839092185], a = 0.2, v = 0.2, t = 0.2)
movej(p[0.533619933391915, 0.012037157730022, 0.174541061588843, -1.17329464560592, 1.19286506132264, -1.17242929061174], a = 0.2, v = 0.2, t = 0.2)
movej(p[0.534545902732475, 0.0118394801986193, 0.174000756569505, -1.17046964295822, 1.18758807468614, -1.18021936954275], a = 0.2, v = 0.2, t = 0.2)
movej(p[0.535105346099515, 0.011696907130516, 0.173755636151493, -1.17339107983679, 1.18462524401119, -1.18270892039376], a = 0.2, v = 0.2, t = 0.2)
movej(p[0.536416179814614, 0.0112794319515602, 0.173368907879553, -1.18021090894076, 1.17684099072792, -1.18922370376241], a = 0.2, v = 0.2, t = 0.2)
movej(p[0.537074036739652, 0.0110971063019017, 0.173116463264526, -1.18595274941332, 1.17231597299037, -1.19294780486687], a = 0.2, v = 0.2, t = 0.2)
movej(p[0.537592250752642, 0.01093846237493, 0.172991149932531, -1.18906287718909, 1.17318622715224, -1.19013480586492], a = 0.2, v = 0.2, t = 0.2)
movej(p[0.537832645848302, 0.0108176358069559, 0.173002956644775, -1.18448288346085, 1.17334646790111, -1.19318470675895], a = 0.2, v = 0.2, t = 0.2)
movej(p[0.537832403558608, 0.0108199074702953, 0.173004877801036, -1.18451742121041, 1.17374896953795, -1.1925158621686], a = 0.2, v = 0.2, t = 0.2)
movej(p[0.538446355147537, 0.0105993965894478, 0.172908701671572, -1.18197836271386, 1.176440434297, -1.1922355744084], a = 0.2, v = 0.2, t = 0.2)
movej(p[0.539152413124835, 0.0102864522101775, 0.172888294609617, -1.18761150421497, 1.17228057063136, -1.19527930763762], a = 0.2, v = 0.2, t = 0.2)
movej(p[0.539225650405077, 0.0102160837708169, 0.172946097321704, -1.19516536180484, 1.16767188396816, -1.19881374132155], a = 0.2, v = 0.2, t = 0.2)
movej(p[0.538653422456538, 0.010383795317632, 0.173203510475943, -1.19230259688634, 1.17675416811984, -1.18905347878943], a = 0.2, v = 0.2, t = 0.2)
movej(p[0.537503235284093, 0.0107018026108529, 0.173692115183044, -1.1945580111123, 1.18227587124426, -1.18051161445741], a = 0.2, v = 0.2, t = 0.2)
movej(p[0.536475578892488, 0.0110285619222846, 0.173990780268359, -1.18957791430999, 1.18868371255635, -1.17451139888718], a = 0.2, v = 0.2, t = 0.2)
movej(p[0.535103490018752, 0.0114724152839237, 0.174397910918068, -1.18319597866306, 1.19547848481048, -1.16920434571539], a = 0.2, v = 0.2, t = 0.2)
movej(p[0.533139645057223, 0.0121456412345955, 0.174910970638198, -1.1825189948115, 1.20147947590934, -1.15862755900799], a = 0.2, v = 0.2, t = 0.2)
movej(p[0.530971861850712, 0.0127981622758162, 0.17564433646119, -1.16852330775715, 1.21374103327201, -1.14846752302245], a = 0.2, v = 0.2, t = 0.2)
movej(p[0.52936374612401, 0.0132966893481334, 0.176152360966209, -1.16052792077234, 1.2190270271937, -1.14396588017081], a = 0.2, v = 0.2, t = 0.2)
movej(p[0.530321525115562, 0.0129307895795081, 0.175970564754305, -1.16627483525467, 1.21342032622262, -1.14937451011978], a = 0.2, v = 0.2, t = 0.2)
movej(p[0.532074990200245, 0.0124072961071538, 0.175360498527408, -1.16142732165175, 1.20778737177169, -1.15974007215013], a = 0.2, v = 0.2, t = 0.2)
movej(p[0.53319436874642, 0.0121645369259629, 0.174777037928644, -1.16648263333933, 1.19800437467839, -1.16843927652016], a = 0.2, v = 0.2, t = 0.2)
movej(p[0.534224179075103, 0.0119719052527509, 0.174213131034367, -1.16875432276093, 1.19262099130415, -1.17468901151092], a = 0.2, v = 0.2, t = 0.2)
movej(p[0.535167684291019, 0.0117240385145082, 0.173803472203616, -1.1755310113424, 1.18341548685397, -1.18376732330421], a = 0.2, v = 0.2, t = 0.2)
movej(p[0.536223298445687, 0.0113809887548064, 0.173499732201587, -1.17815823488263, 1.18016824607181, -1.18620501126094], a = 0.2, v = 0.2, t = 0.2)
movej(p[0.537223415179843, 0.01105292969025, 0.173232355579151, -1.18675197556473, 1.17484324838215, -1.18932867274153], a = 0.2, v = 0.2, t = 0.2)
movej(p[0.537437893869867, 0.0109863314313157, 0.173209647795635, -1.19245824982757, 1.17374215353285, -1.18860100188275], a = 0.2, v = 0.2, t = 0.2)
movej(p[0.537617828800653, 0.0109222027262009, 0.173136991138242, -1.19148305054399, 1.17070739862199, -1.19356162594255], a = 0.2, v = 0.2, t = 0.2)
movej(p[0.537728902769347, 0.0108947487865373, 0.173106924966629, -1.19166892849803, 1.17193701453815, -1.19239985254841], a = 0.2, v = 0.2, t = 0.2)
movej(p[0.538221674582096, 0.0107069413419319, 0.173023432965149, -1.18757678860812, 1.17331606920777, -1.1935565020165], a = 0.2, v = 0.2, t = 0.2)
movej(p[0.539050665195437, 0.0103574224842156, 0.172930314593745, -1.19364566623511, 1.17010189064401, -1.1958526626751], a = 0.2, v = 0.2, t = 0.2)
movej(p[0.539324381209974, 0.0102616713380414, 0.172887503364004, -1.19036710701014, 1.17339354635496, -1.19372502048579], a = 0.2, v = 0.2, t = 0.2)
movej(p[0.539383079761472, 0.010210456392249, 0.172896828565319, -1.19682677681964, 1.16887799135522, -1.19617330528572], a = 0.2, v = 0.2, t = 0.2)
movej(p[0.539050204436941, 0.0103404169234509, 0.172973116563381, -1.18668301340313, 1.17480547342915, -1.19469319104699], a = 0.2, v = 0.2, t = 0.2)
movej(p[0.538268511687687, 0.0105399187091369, 0.173294200809758, -1.19607666477187, 1.17558695084635, -1.188649839411], a = 0.2, v = 0.2, t = 0.2)
movej(p[0.537363819100933, 0.010869657318083, 0.173535652902817, -1.19832619119619, 1.1794598351333, -1.18093873850437], a = 0.2, v = 0.2, t = 0.2)
movej(p[0.536242105730633, 0.0112521958408985, 0.173844686417912, -1.18268098488303, 1.19115802143837, -1.17454069524643], a = 0.2, v = 0.2, t = 0.2)
movej(p[0.534687320161226, 0.0117587460962865, 0.174327666305619, -1.18257585786855, 1.19606846306109, -1.16546883357544], a = 0.2, v = 0.2, t = 0.2)
movej(p[0.534270170838075, 0.0118811884666348, 0.17447630656981, -1.18099810799776, 1.19938361402706, -1.16304069113708], a = 0.2, v = 0.2, t = 0.2)
movej(p[0.533095431226902, 0.0122156028984648, 0.174889550255453, -1.17583434583023, 1.20257219353259, -1.16025567764546], a = 0.2, v = 0.2, t = 0.2)
movej(p[0.531683972293059, 0.0126188736712045, 0.175403939759553, -1.16869671647346, 1.20822294551069, -1.15538232985526], a = 0.2, v = 0.2, t = 0.2)
movej(p[0.532481076619435, 0.0123603943699471, 0.17514277834645, -1.16588809575276, 1.20444540816886, -1.16355000058113], a = 0.2, v = 0.2, t = 0.2)
movej(p[0.533791056044321, 0.0119996500402577, 0.174646652218362, -1.17051237628548, 1.19612942868479, -1.17044306949421], a = 0.2, v = 0.2, t = 0.2)
movej(p[0.534602717992751, 0.0117975950313957, 0.17431522591454, -1.17480546031526, 1.19238894383701, -1.17291234663355], a = 0.2, v = 0.2, t = 0.2)
movej(p[0.535818120578959, 0.0114818428306237, 0.173835021467303, -1.17842096297324, 1.18681490642606, -1.17928333405406], a = 0.2, v = 0.2, t = 0.2)
movej(p[0.536526808241279, 0.0112841412190532, 0.17356626624399, -1.17817020061536, 1.18143998303442, -1.1861044914519], a = 0.2, v = 0.2, t = 0.2)
movej(p[0.537762458659426, 0.0108289916179891, 0.173229506559967, -1.18755889020668, 1.1729013147625, -1.19482491865821], a = 0.2, v = 0.2, t = 0.2)
movej(p[0.538296491015208, 0.010642559122235, 0.173105577235328, -1.18127057134557, 1.17555073668902, -1.19581472665105], a = 0.2, v = 0.2, t = 0.2)
movej(p[0.538570371281356, 0.0105373885537802, 0.173064456421308, -1.1923325298371, 1.1707337882366, -1.19298793342377], a = 0.2, v = 0.2, t = 0.2)
movej(p[0.538913722379556, 0.0104196561879866, 0.172956047088643, -1.19189855767351, 1.1690076791417, -1.19745842714869], a = 0.2, v = 0.2, t = 0.2)
movej(p[0.53912332804851, 0.010374692129417, 0.172871805371072, -1.190813903858, 1.17014962896656, -1.19625533880088], a = 0.2, v = 0.2, t = 0.2)
movej(p[0.539581421070085, 0.0101328289224638, 0.172844229789361, -1.19668592594366, 1.1663683441924, -1.19724252772939], a = 0.2, v = 0.2, t = 0.2)
movej(p[0.539553314452095, 0.0100756519167346, 0.172948956806128, -1.18683533108353, 1.17403585184653, -1.19282768548857], a = 0.2, v = 0.2, t = 0.2)
movej(p[0.538079328238708, 0.0106539802487269, 0.173293619587932, -1.18239037506881, 1.18249497568832, -1.18573477281177], a = 0.2, v = 0.2, t = 0.2)
movej(p[0.536521865213187, 0.0111229973348816, 0.17382277687743, -1.18276249876588, 1.18972778534235, -1.17654120741316], a = 0.2, v = 0.2, t = 0.2)
movej(p[0.534772738341638, 0.0117827164655023, 0.17428197160292, -1.17918848735706, 1.1958070423417, -1.16799051971206], a = 0.2, v = 0.2, t = 0.2)
movej(p[0.532881878665015, 0.0123511369185538, 0.17493385209187, -1.15924146693358, 1.20761272514804, -1.16190464448147], a = 0.2, v = 0.2, t = 0.2)
movej(p[0.531274053331073, 0.0127960967847048, 0.175535084536979, -1.15778885434748, 1.21375837762507, -1.15363059704157], a = 0.2, v = 0.2, t = 0.2)
movej(p[0.529331206896728, 0.0133400245484776, 0.176257179662533, -1.15836294492317, 1.22024651785834, -1.14340112939539], a = 0.2, v = 0.2, t = 0.2)
movej(p[0.528773152073864, 0.0134351384306977, 0.176526976741996, -1.15060151261892, 1.2226661816275, -1.14357493351883], a = 0.2, v = 0.2, t = 0.2)
movej(p[0.530429153663165, 0.0130258735197273, 0.175888962119218, -1.15305523854415, 1.21635186238702, -1.15046314466541], a = 0.2, v = 0.2, t = 0.2)
movej(p[0.531636082410721, 0.0127180696799853, 0.175396666451388, -1.15325123806561, 1.20914919392083, -1.16145219171435], a = 0.2, v = 0.2, t = 0.2)
movej(p[0.533507570468642, 0.0121418386616392, 0.174766059313341, -1.16304969042696, 1.19868784575867, -1.16983992965808], a = 0.2, v = 0.2, t = 0.2)
movej(p[0.534365918154015, 0.0119300865453526, 0.174425659265953, -1.16384265545016, 1.19557162560728, -1.17515596694527], a = 0.2, v = 0.2, t = 0.2)
movej(p[0.535023817456859, 0.0116639389002387, 0.174259837288163, -1.1736563843125, 1.19023532051193, -1.17747487039811], a = 0.2, v = 0.2, t = 0.2)
movej(p[0.535500540267493, 0.0116062260271721, 0.174018716475906, -1.17845321041855, 1.18630857944895, -1.17934749936972], a = 0.2, v = 0.2, t = 0.2)
movej(p[0.536638503578081, 0.0112179882401102, 0.173669927736907, -1.18453443063266, 1.17981471208654, -1.18617833766134], a = 0.2, v = 0.2, t = 0.2)
movej(p[0.53777970603033, 0.0107863875604065, 0.173361037212191, -1.18696708764678, 1.17575555976504, -1.19092528130001], a = 0.2, v = 0.2, t = 0.2)
movej(p[0.538247119413964, 0.0106928583882241, 0.173153186465858, -1.18541027885208, 1.17439950265856, -1.19515417313016], a = 0.2, v = 0.2, t = 0.2)
movej(p[0.538505900355964, 0.0105310942443064, 0.173133179572047, -1.19131248518695, 1.17164869217664, -1.19597345799685], a = 0.2, v = 0.2, t = 0.2)
movej(p[0.538799504361532, 0.0104783989850483, 0.173032923861155, -1.18997697737921, 1.17284697705578, -1.19149800189333], a = 0.2, v = 0.2, t = 0.2)
movej(p[0.538855292692782, 0.0104076807409714, 0.173050317022196, -1.18791311469068, 1.17268546409908, -1.19485281531652], a = 0.2, v = 0.2, t = 0.2)
movej(p[0.538961058957056, 0.0103877663516533, 0.172991849557402, -1.20024481370135, 1.16481496697286, -1.19677573891845], a = 0.2, v = 0.2, t = 0.2)
movej(p[0.539300333635298, 0.0101780677883334, 0.17297873104965, -1.19902141427084, 1.16781313914887, -1.19114467981875], a = 0.2, v = 0.2, t = 0.2)
movej(p[0.538594485662223, 0.0104353256036065, 0.173165263072067, -1.1889966260621, 1.17585387588535, -1.19039157139292], a = 0.2, v = 0.2, t = 0.2)
movej(p[0.536627034564012, 0.0111772879036486, 0.173748494296766, -1.17396040635751, 1.19042759319709, -1.17769552321322], a = 0.2, v = 0.2, t = 0.2)
movej(p[0.534216039745396, 0.0119502311595851, 0.174533294562892, -1.17376518543152, 1.19930023056345, -1.16768033845313], a = 0.2, v = 0.2, t = 0.2)
movej(p[0.532155518604442, 0.0125645696493475, 0.175262551607889, -1.16487477426873, 1.20890909572434, -1.15545294825339], a = 0.2, v = 0.2, t = 0.2)
movej(p[0.530369768672992, 0.0130678262118291, 0.175918324247334, -1.1549422125281, 1.21988381438559, -1.14487551947285], a = 0.2, v = 0.2, t = 0.2)
movej(p[0.528711645624669, 0.0134654716253257, 0.176541916086397, -1.16299142579955, 1.22130567870239, -1.13731888284458], a = 0.2, v = 0.2, t = 0.2)
movej(p[0.529603219483381, 0.0132354758442251, 0.176235216485586, -1.15437275348291, 1.22129605220137, -1.13808629042749], a = 0.2, v = 0.2, t = 0.2)
movej(p[0.531553117809503, 0.0127408652838651, 0.175527272482599, -1.16144524463739, 1.2089000491552, -1.15060835067623], a = 0.2, v = 0.2, t = 0.2)
movej(p[0.532878080357853, 0.0123472316640628, 0.175056554829615, -1.16457178670587, 1.20261103453529, -1.16213861863967], a = 0.2, v = 0.2, t = 0.2)
movej(p[0.535299176074927, 0.0116997730420631, 0.17424902268068, -1.14463825910792, 1.20560518621327, -1.1772934554124], a = 0.2, v = 0.2, t = 0.2)
movej(p[0.535317039292637, 0.0116971041311287, 0.174247482431521, -1.14237205452051, 1.20678634110937, -1.17708731339382], a = 0.2, v = 0.2, t = 0.2)
movej(p[0.535334802625014, 0.0116944318132021, 0.174245938818945, -1.14010392658187, 1.20796307811323, -1.17688441034273], a = 0.2, v = 0.2, t = 0.2)
movej(p[0.535352665842724, 0.0116917629022676, 0.174244398569786, -1.13783307494863, 1.20914069222891, -1.17668169796451], a = 0.2, v = 0.2, t = 0.2)
movej(p[0.535655441371312, 0.0113952415412773, 0.174142541209894, -1.1575570765394, 1.20006182577277, -1.17559810021648], a = 0.2, v = 0.2, t = 0.2)
movej(p[0.536438850619119, 0.0110648661404741, 0.173861425957735, -1.1735940313579, 1.19073255228243, -1.17645190140062], a = 0.2, v = 0.2, t = 0.2)
movej(p[0.537203781943893, 0.0108672972437608, 0.173584236114073, -1.17855607271277, 1.18612872937622, -1.17810610402187], a = 0.2, v = 0.2, t = 0.2)
movej(p[0.53766127434161, 0.0107064154414711, 0.173427057325034, -1.17747208636861, 1.1848493155759, -1.18965387197734], a = 0.2, v = 0.2, t = 0.2)
movej(p[0.538581191972342, 0.0101838520898732, 0.173116090725164, -1.19525857898622, 1.17131740561482, -1.19215645896605], a = 0.2, v = 0.2, t = 0.2)
movej(p[0.538782782666103, 0.0103782179126225, 0.173018524290689, -1.19230700822354, 1.17312055640429, -1.18498414609213], a = 0.2, v = 0.2, t = 0.2)
movej(p[0.538942921524469, 0.0103412422779759, 0.172953249115596, -1.1893087684899, 1.17475575106101, -1.17849936672509], a = 0.2, v = 0.2, t = 0.2)
movej(p[0.539197836599567, 0.010134515921448, 0.172879525794965, -1.17086120537006, 1.18357839184641, -1.17823398393315], a = 0.2, v = 0.2, t = 0.2)
movej(p[0.539283451298515, 0.0101307593476927, 0.172853107969968, -1.16479833995041, 1.18638088271337, -1.17867573643625], a = 0.2, v = 0.2, t = 0.2)
movej(p[0.539280421703278, 0.0102470092107511, 0.172846135818823, -1.17027627477086, 1.18357701427766, -1.1797315210998], a = 0.2, v = 0.2, t = 0.2)
movej(p[0.538511319318785, 0.0105917804997083, 0.173118898702072, -1.16984922602759, 1.18562254935706, -1.17624009482529], a = 0.2, v = 0.2, t = 0.2)
movej(p[0.537893239757161, 0.0107993899200489, 0.173326948922184, -1.17543632601037, 1.18586597117797, -1.17665220610589], a = 0.2, v = 0.2, t = 0.2)
movej(p[0.537290104629107, 0.0110001746345891, 0.173529208002855, -1.18126012510017, 1.18599597122255, -1.17723927018375], a = 0.2, v = 0.2, t = 0.2)
movej(p[0.535310323828833, 0.0117550990478032, 0.174212752297835, -1.1819168953615, 1.19375425688468, -1.17206571200168], a = 0.2, v = 0.2, t = 0.2)
movej(p[0.533221233944938, 0.0123764255803077, 0.174962759142479, -1.17048279453957, 1.20511976529795, -1.16589534737026], a = 0.2, v = 0.2, t = 0.2)
movej(p[0.532067963568779, 0.0126968602015153, 0.175376944551453, -1.15807007986267, 1.2140821947395, -1.15694644142146], a = 0.2, v = 0.2, t = 0.2)
movej(p[0.532173014327615, 0.0124840667569943, 0.175347794284955, -1.18397484683418, 1.19684316072148, -1.16798325956903], a = 0.2, v = 0.2, t = 0.2)
movej(p[0.532989056627198, 0.0123941704191027, 0.175075933449736, -1.17161549201046, 1.20095039034552, -1.16000564610943], a = 0.2, v = 0.2, t = 0.2)
movej(p[0.533513087520556, 0.0122615748370964, 0.174894199043421, -1.17405177480211, 1.19678725664274, -1.16260812631629], a = 0.2, v = 0.2, t = 0.2)
movej(p[0.534436026985062, 0.0118161476064853, 0.174558067838255, -1.17914306184066, 1.19092730580021, -1.1655629211874], a = 0.2, v = 0.2, t = 0.2)
movej(p[0.536104547377654, 0.0112358965689266, 0.173974195657964, -1.18562805425035, 1.18364797091457, -1.18166496654074], a = 0.2, v = 0.2, t = 0.2)
movej(p[0.536526031930667, 0.0110756591406501, 0.173809423457181, -1.19700437933027, 1.17534348356674, -1.18401826131812], a = 0.2, v = 0.2, t = 0.2)
movej(p[0.537069119056751, 0.0108731917572853, 0.173608248851042, -1.19926365769406, 1.1739973952712, -1.18695734899428], a = 0.2, v = 0.2, t = 0.2)
movej(p[0.537701032212085, 0.0105740984681872, 0.173373413869549, -1.19715104643537, 1.17294275252115, -1.19287992042596], a = 0.2, v = 0.2, t = 0.2)
movej(p[0.5381841854726, 0.0105077807994154, 0.173214652433232, -1.19367782560928, 1.17261765118346, -1.1924079304774], a = 0.2, v = 0.2, t = 0.2)
movej(p[0.53885523154199, 0.0101615647710474, 0.172938711217648, -1.19394871535998, 1.1704120062069, -1.19329880129862], a = 0.2, v = 0.2, t = 0.2)
movej(p[0.538856212445831, 0.0102766071025528, 0.172935759982404, -1.19877594488733, 1.16768631080732, -1.19471647828212], a = 0.2, v = 0.2, t = 0.2)
movej(p[0.538949148802697, 0.0102217602106588, 0.172910156232244, -1.18986179386238, 1.17138892249463, -1.19394332565292], a = 0.2, v = 0.2, t = 0.2)
movej(p[0.539118413893779, 0.0102221195408572, 0.172845244755427, -1.18912703630717, 1.17088420688558, -1.19125199619739], a = 0.2, v = 0.2, t = 0.2)
movej(p[0.538996153877326, 0.0103723732372338, 0.17291067506264, -1.18889767802681, 1.17214779984356, -1.19229748116864], a = 0.2, v = 0.2, t = 0.2)
movej(p[0.538764431584243, 0.0106448791500359, 0.173025805928946, -1.18489960326133, 1.17567630933683, -1.18965518423385], a = 0.2, v = 0.2, t = 0.2)
movej(p[0.538557989839164, 0.0106568756066147, 0.173088132656106, -1.18378841246885, 1.17650760524927, -1.18836485192988], a = 0.2, v = 0.2, t = 0.2)
movej(p[0.536743207643671, 0.0112227500937994, 0.173719096765761, -1.18339711036204, 1.18536275256942, -1.18178373024059], a = 0.2, v = 0.2, t = 0.2)
movej(p[0.534716285752658, 0.0118015048715967, 0.174414210292395, -1.17327149294804, 1.19709758680889, -1.16972648072897], a = 0.2, v = 0.2, t = 0.2)
movej(p[0.533139757669882, 0.0123606683700172, 0.174993076413578, -1.1700940931174, 1.20396043834176, -1.16349239738302], a = 0.2, v = 0.2, t = 0.2)
movej(p[0.532516369370701, 0.012478380823142, 0.17520604523013, -1.16345720369839, 1.20873195774666, -1.16249737191677], a = 0.2, v = 0.2, t = 0.2)
movej(p[0.531938402989368, 0.0126304609584382, 0.175402936988458, -1.16465828608581, 1.20770313373152, -1.15633950450995], a = 0.2, v = 0.2, t = 0.2)
movej(p[0.532538101717341, 0.0124122708822185, 0.175189542175243, -1.17248422579252, 1.20038097462803, -1.16055249346808], a = 0.2, v = 0.2, t = 0.2)
movej(p[0.533843821561373, 0.011960064052885, 0.174734172729181, -1.17206084087573, 1.19129455498713, -1.16274945342256], a = 0.2, v = 0.2, t = 0.2)
movej(p[0.534677152267977, 0.0116251076707431, 0.174417137391257, -1.17531410289497, 1.18754064605712, -1.16736371999884], a = 0.2, v = 0.2, t = 0.2)
movej(p[0.535785659588319, 0.0112217977571505, 0.174009947319735, -1.1803995719744, 1.18294575206666, -1.17551285628815], a = 0.2, v = 0.2, t = 0.2)
movej(p[0.536541125254504, 0.0109903782941714, 0.173750837035551, -1.17592348668579, 1.18374402322837, -1.17994770740444], a = 0.2, v = 0.2, t = 0.2)
movej(p[0.537121548022277, 0.0107054360935439, 0.173496653237971, -1.19170767901589, 1.17481662247762, -1.18714492162014], a = 0.2, v = 0.2, t = 0.2)
movej(p[0.537572422909777, 0.0105536314059293, 0.173321655230439, -1.20189250387977, 1.16694818094555, -1.19004765403697], a = 0.2, v = 0.2, t = 0.2)
movej(p[0.537934117076753, 0.0104083732367985, 0.173172090315181, -1.19157510721013, 1.17349324168383, -1.18934735877062], a = 0.2, v = 0.2, t = 0.2)
movej(p[0.538700307850493, 0.0102171104683554, 0.172925439242524, -1.18920655814586, 1.17125460869879, -1.19246160087876], a = 0.2, v = 0.2, t = 0.2)
movej(p[0.539043358624435, 0.0101212629225325, 0.172782968282472, -1.19598352774411, 1.16486184026855, -1.19387826430551], a = 0.2, v = 0.2, t = 0.2)
movej(p[0.539085591745112, 0.0100740111274366, 0.172745065493946, -1.19017089808784, 1.17042453841446, -1.19446402121931], a = 0.2, v = 0.2, t = 0.2)
movej(p[0.539082093169289, 0.0102868511784659, 0.172805810885912, -1.18819963874864, 1.17145675271305, -1.19080574411422], a = 0.2, v = 0.2, t = 0.2)
movej(p[0.538330990678955, 0.0106269132854091, 0.17309882660637, -1.18960674410387, 1.17441299523098, -1.18710320243735], a = 0.2, v = 0.2, t = 0.2)
movej(p[0.537586638359119, 0.0109055504068092, 0.173375499244217, -1.18782193421349, 1.17867169799161, -1.18378138856733], a = 0.2, v = 0.2, t = 0.2)
movej(p[0.536547409765742, 0.0112954532064232, 0.173781425478353, -1.17508363444357, 1.19122343680199, -1.17981459184935], a = 0.2, v = 0.2, t = 0.2)
movej(p[0.534477633969449, 0.0119517290235391, 0.174526001528833, -1.16935032208825, 1.20260043655132, -1.17152891332316], a = 0.2, v = 0.2, t = 0.2)
movej(p[0.532008885283009, 0.0124803844981353, 0.175305167911823, -1.1584389697578, 1.21417032572834, -1.15894518494803], a = 0.2, v = 0.2, t = 0.2)
movej(p[0.529617725425737, 0.0130967007803301, 0.17609960277213, -1.15724043005508, 1.22037298114025, -1.14656114328271], a = 0.2, v = 0.2, t = 0.2)
movej(p[0.527195195560968, 0.0137189957088359, 0.176871154485407, -1.15504495316416, 1.22645926842444, -1.13443083994156], a = 0.2, v = 0.2, t = 0.2)
movej(p[0.527846423984765, 0.0136293495949522, 0.176668163046414, -1.1586051420967, 1.21707477780893, -1.1322659329967], a = 0.2, v = 0.2, t = 0.2)
movej(p[0.530167353221914, 0.0130300346442573, 0.175899620167959, -1.14770895592455, 1.21254717627533, -1.13998497833883], a = 0.2, v = 0.2, t = 0.2)
movej(p[0.531651988936611, 0.0126069462436259, 0.175414436491506, -1.1620752887457, 1.20018365222846, -1.15208845205252], a = 0.2, v = 0.2, t = 0.2)
movej(p[0.532848080211885, 0.0121638702861661, 0.174967741957025, -1.17066864183593, 1.19238389770982, -1.16051220062573], a = 0.2, v = 0.2, t = 0.2)
movej(p[0.533613456713906, 0.0119537818618083, 0.174710825328321, -1.1713692157655, 1.19126329310398, -1.16530916803775], a = 0.2, v = 0.2, t = 0.2)
movej(p[0.534468819582706, 0.0115688522722116, 0.174357983672998, -1.18192486527528, 1.18448090024556, -1.17258351949198], a = 0.2, v = 0.2, t = 0.2)
movej(p[0.535467906401806, 0.0113077170316582, 0.174035563149394, -1.17272539386219, 1.18748053455854, -1.17595004887227], a = 0.2, v = 0.2, t = 0.2)
movej(p[0.535781966559544, 0.0111630988081329, 0.173896629867757, -1.18507276155706, 1.18192234443219, -1.17864249477552], a = 0.2, v = 0.2, t = 0.2)
movej(p[0.536351202230898, 0.0110551754508003, 0.173724007507097, -1.18378374454993, 1.17852024639665, -1.1790565096119], a = 0.2, v = 0.2, t = 0.2)
movej(p[0.536858676440719, 0.0109462493481508, 0.173593746996858, -1.17935601158662, 1.18253139816455, -1.18503824392278], a = 0.2, v = 0.2, t = 0.2)
movej(p[0.537226471167284, 0.0108235370162712, 0.173451267164193, -1.17452808082235, 1.18225772579936, -1.18361450768882], a = 0.2, v = 0.2, t = 0.2)
movej(p[0.537766859046923, 0.0106957427035445, 0.173284344807471, -1.17726022465749, 1.17970572457822, -1.18537031150771], a = 0.2, v = 0.2, t = 0.2)
movej(p[0.537705033259132, 0.0106587148992904, 0.173264021085464, -1.18648864630905, 1.17532054688336, -1.18535355516511], a = 0.2, v = 0.2, t = 0.2)
movej(p[0.537431377288552, 0.0107956188600952, 0.173403102052105, -1.18017198200623, 1.18113090695625, -1.18541239990408], a = 0.2, v = 0.2, t = 0.2)
movej(p[0.537335717650526, 0.0107927380577754, 0.173419397899145, -1.17973681961046, 1.1813824858007, -1.18493540695634], a = 0.2, v = 0.2, t = 0.2)
movej(p[0.5372400580125, 0.0107898572554557, 0.173435693746185, -1.17930164333104, 1.18163396498391, -1.18445839395281], a = 0.2, v = 0.2, t = 0.2)
movej(p[0.536252506755982, 0.011154306853206, 0.17380740204102, -1.17000229909565, 1.19226408296631, -1.18035617160511], a = 0.2, v = 0.2, t = 0.2)
movej(p[0.535453935046429, 0.0114242183228633, 0.174088668237441, -1.17516659410113, 1.19139075020032, -1.1758996421043], a = 0.2, v = 0.2, t = 0.2)
movej(p[0.536251841907308, 0.011199168302186, 0.173811435447973, -1.17788573590635, 1.18576903960606, -1.17715983836023], a = 0.2, v = 0.2, t = 0.2)
movej(p[0.536936374009943, 0.0109712972926247, 0.173588934698619, -1.17625141605096, 1.18496915119318, -1.18367991210818], a = 0.2, v = 0.2, t = 0.2)
movej(p[0.538335730402101, 0.010563223254571, 0.17310880533356, -1.18246247604897, 1.17537439079632, -1.18726400976281], a = 0.2, v = 0.2, t = 0.2)
movej(p[0.539139131316941, 0.0102772593874255, 0.172810390979477, -1.18484636184789, 1.17242952015199, -1.19164586646213], a = 0.2, v = 0.2, t = 0.2)
movej(p[0.53970228351534, 0.0101554677465844, 0.172642198299317, -1.17847579479101, 1.17463030584868, -1.19330348628353], a = 0.2, v = 0.2, t = 0.2)
movej(p[0.538961007543443, 0.0105421684190104, 0.172973739644301, -1.18477851686978, 1.17615886339739, -1.18985558740215], a = 0.2, v = 0.2, t = 0.2)
movej(p[0.536736596192117, 0.0112628367365667, 0.173746988696135, -1.17729980806091, 1.18840182549344, -1.17877251596784], a = 0.2, v = 0.2, t = 0.2)
movej(p[0.534837914033978, 0.0120017340848077, 0.174494170428463, -1.17174360056049, 1.19777160856382, -1.16755205833355], a = 0.2, v = 0.2, t = 0.2)
movej(p[0.533018510997205, 0.0125499318047432, 0.175125663428932, -1.16908553592559, 1.20494001814679, -1.15987156134551], a = 0.2, v = 0.2, t = 0.2)
movej(p[0.529457972151713, 0.013345935206739, 0.176182217977337, -1.15166145275839, 1.2212911632661, -1.14343762973645], a = 0.2, v = 0.2, t = 0.2)
movej(p[0.526764938377797, 0.0140606897102469, 0.177032369576913, -1.14949245013541, 1.22810671040387, -1.12889850735241], a = 0.2, v = 0.2, t = 0.2)
movej(p[0.525655538547337, 0.0143033049670122, 0.177346390712127, -1.15200283507765, 1.22063978164446, -1.11986600793687], a = 0.2, v = 0.2, t = 0.2)
movej(p[0.527634796544577, 0.0138312558971061, 0.176742665943739, -1.16025996646356, 1.20808108376795, -1.12944734366005], a = 0.2, v = 0.2, t = 0.2)
movej(p[0.530174282268153, 0.0131040360955555, 0.175898361786468, -1.16124605342132, 1.20064687601955, -1.1424567986776], a = 0.2, v = 0.2, t = 0.2)
movej(p[0.531596283983042, 0.0125232038524568, 0.175322095113624, -1.16128992713315, 1.19763996850447, -1.15125704123631], a = 0.2, v = 0.2, t = 0.2)
movej(p[0.532928660298158, 0.0121034816731447, 0.174880620632922, -1.16612078052618, 1.19734440584852, -1.16282396735497], a = 0.2, v = 0.2, t = 0.2)
movej(p[0.533987715537913, 0.0117763521825909, 0.17451505236904, -1.18004442164315, 1.18811489002499, -1.17010542567368], a = 0.2, v = 0.2, t = 0.2)
movej(p[0.535393952454322, 0.011335444903098, 0.174030344069318, -1.17912621482947, 1.18555018250009, -1.17722131612385], a = 0.2, v = 0.2, t = 0.2)
movej(p[0.536756959106199, 0.0109540027131559, 0.173571048116069, -1.18778336893304, 1.17777606415193, -1.1829400433763], a = 0.2, v = 0.2, t = 0.2)
movej(p[0.53720562381709, 0.010755592473814, 0.173386996508835, -1.18315010122826, 1.17939509638648, -1.18582966509513], a = 0.2, v = 0.2, t = 0.2)
movej(p[0.537975713699486, 0.0105822448311672, 0.17316100881488, -1.18611513057135, 1.17616339103379, -1.18899125161601], a = 0.2, v = 0.2, t = 0.2)
movej(p[0.538275774406092, 0.0104924430500781, 0.173070116172359, -1.18268117281191, 1.17914254702306, -1.19127026404219], a = 0.2, v = 0.2, t = 0.2)
movej(p[0.538490961309212, 0.0104445278975696, 0.172998531503012, -1.17693564979339, 1.18142407531481, -1.19142262992261], a = 0.2, v = 0.2, t = 0.2)
movej(p[0.539146576842574, 0.010295952240333, 0.172790356224719, -1.1580316658802, 1.18800435937569, -1.19085008820148], a = 0.2, v = 0.2, t = 0.2)
movej(p[0.539209936935568, 0.010401231903519, 0.172859502888668, -1.16945400870414, 1.18312867121825, -1.19228173271707], a = 0.2, v = 0.2, t = 0.2)
movej(p[0.538834001042214, 0.0106138676606111, 0.173033740539289, -1.17306491683289, 1.1832996811063, -1.18826673328511], a = 0.2, v = 0.2, t = 0.2)
movej(p[0.53771924203082, 0.0110578033658656, 0.173484350898821, -1.18517846678596, 1.18208860097714, -1.18413944206926], a = 0.2, v = 0.2, t = 0.2)
movej(p[0.536318883426906, 0.0115887205201274, 0.174036306264548, -1.18757653103892, 1.18924889842416, -1.17859841022623], a = 0.2, v = 0.2, t = 0.2)
movej(p[0.535386293459494, 0.0119138240955444, 0.174400351190254, -1.1756301716514, 1.19872884896938, -1.17552404127033], a = 0.2, v = 0.2, t = 0.2)
movej(p[0.533058233445463, 0.0125917635771594, 0.175167225189252, -1.16541006819384, 1.21010887557375, -1.16104196977783], a = 0.2, v = 0.2, t = 0.2)
movej(p[0.530637415057404, 0.0131719465193413, 0.175888983414447, -1.16734115342772, 1.21493961635376, -1.15061360264119], a = 0.2, v = 0.2, t = 0.2)
movej(p[0.527930083099373, 0.0137471690307337, 0.176662892079221, -1.15478414160684, 1.22439586434123, -1.1388470486337], a = 0.2, v = 0.2, t = 0.2)
movej(p[0.52712317094856, 0.0139458924134037, 0.176886367330758, -1.15263830498857, 1.22203364449219, -1.12969856411547], a = 0.2, v = 0.2, t = 0.2)
movej(p[0.529157544036386, 0.0134835438587032, 0.176301005209082, -1.15251715381631, 1.21122538085262, -1.13801512121983], a = 0.2, v = 0.2, t = 0.2)
movej(p[0.531750224041569, 0.0127512073381383, 0.175469813930631, -1.15429665028527, 1.20128958059647, -1.15167693064483], a = 0.2, v = 0.2, t = 0.2)
movej(p[0.532779654196977, 0.0123259797041881, 0.175051719019801, -1.16677641433078, 1.19284647905036, -1.15957971284259], a = 0.2, v = 0.2, t = 0.2)
movej(p[0.534211929519801, 0.0118784595976267, 0.1745585892054, -1.1782313596342, 1.186418572626, -1.16864068047762], a = 0.2, v = 0.2, t = 0.2)
movej(p[0.535489183671113, 0.0113632681028655, 0.17401934475556, -1.18069689822169, 1.1816535152772, -1.17458425611612], a = 0.2, v = 0.2, t = 0.2)
movej(p[0.536942720633733, 0.0109315161291652, 0.173532920063029, -1.18322972293919, 1.17977552055687, -1.18266705703148], a = 0.2, v = 0.2, t = 0.2)
movej(p[0.538082825924803, 0.0106834840070005, 0.173216350936852, -1.16766882626091, 1.18501593322364, -1.18789298222871], a = 0.2, v = 0.2, t = 0.2)
movej(p[0.538616483235926, 0.010542322665242, 0.173042836009893, -1.16165129570075, 1.1910092829198, -1.19026496973552], a = 0.2, v = 0.2, t = 0.2)
movej(p[0.538902769712142, 0.010518959107117, 0.172981523142668, -1.16574323803017, 1.1863567545693, -1.1906129752062], a = 0.2, v = 0.2, t = 0.2)
movej(p[0.539090336676333, 0.0104901263065584, 0.172943777102394, -1.16050194901315, 1.18999101179748, -1.19200417499802], a = 0.2, v = 0.2, t = 0.2)
movej(p[0.539249090140026, 0.0105042236072628, 0.172933319861923, -1.15723462505753, 1.18891708463796, -1.1910273239959], a = 0.2, v = 0.2, t = 0.2)
movej(p[0.539680145393492, 0.0105540301999662, 0.172904840364331, -1.15379045422766, 1.191219621274, -1.19093499513203], a = 0.2, v = 0.2, t = 0.2)
movej(p[0.539347522926449, 0.0105896499820698, 0.172971067590919, -1.16586439235527, 1.18563875075296, -1.19001431032893], a = 0.2, v = 0.2, t = 0.2)
movej(p[0.538100387409906, 0.0109970771071143, 0.17343263579948, -1.18012596728332, 1.1849924129924, -1.18505438465415], a = 0.2, v = 0.2, t = 0.2)
movej(p[0.536942255362863, 0.0114012992700185, 0.173864703658303, -1.17006078080232, 1.19743273608373, -1.17934842399933], a = 0.2, v = 0.2, t = 0.2)
movej(p[0.535506079908486, 0.0118444002227379, 0.174365153995445, -1.16944148407416, 1.20323107586297, -1.17367233153701], a = 0.2, v = 0.2, t = 0.2)
movej(p[0.535218362342012, 0.0119080897993604, 0.174448930482432, -1.17635266513697, 1.20013060115873, -1.17295810399146], a = 0.2, v = 0.2, t = 0.2)
movej(p[0.534111954121965, 0.0122529013413734, 0.17485006544863, -1.1767187752112, 1.2040700536533, -1.16822353073485], a = 0.2, v = 0.2, t = 0.2)
movej(p[0.53172915357053, 0.0129264085809365, 0.175620768128228, -1.16003642780016, 1.21720826808969, -1.154753792776], a = 0.2, v = 0.2, t = 0.2)
movej(p[0.528301590640876, 0.013765687505127, 0.176626843324558, -1.15453946545936, 1.22564688255975, -1.13703480446702], a = 0.2, v = 0.2, t = 0.2)
movej(p[0.527573214112365, 0.0139382510182362, 0.176827891867596, -1.14680042981416, 1.22226447017805, -1.13148618016931], a = 0.2, v = 0.2, t = 0.2)
movej(p[0.529940134204205, 0.0132689598320243, 0.176060715644749, -1.15002074840012, 1.21119879277535, -1.14220169905939], a = 0.2, v = 0.2, t = 0.2)
movej(p[0.5325725930618, 0.0123806275076062, 0.175110048376739, -1.16763086941305, 1.19666680298355, -1.15938680996036], a = 0.2, v = 0.2, t = 0.2)
movej(p[0.53326248607253, 0.0119862544115424, 0.174733476650706, -1.1682420886895, 1.19195142717832, -1.16483487316146], a = 0.2, v = 0.2, t = 0.2)
movej(p[0.534281220837113, 0.0115309678717269, 0.174268026056022, -1.17097420853578, 1.1906353999548, -1.17134523158886], a = 0.2, v = 0.2, t = 0.2)
movej(p[0.535126452503787, 0.0111795856849825, 0.173917462668758, -1.1859007722907, 1.18269636305437, -1.17885759276892], a = 0.2, v = 0.2, t = 0.2)
movej(p[0.536130391512136, 0.0108948159089851, 0.173593811294292, -1.17517651896268, 1.18618188212168, -1.18297256427469], a = 0.2, v = 0.2, t = 0.2)
movej(p[0.53725503617089, 0.0107187362487565, 0.173336452488749, -1.15053369645629, 1.19849765543251, -1.1861658054642], a = 0.2, v = 0.2, t = 0.2)
movej(p[0.537481499510467, 0.0106368557102687, 0.17324981442988, -1.15904132767878, 1.19201235739286, -1.18705071045493], a = 0.2, v = 0.2, t = 0.2)
movej(p[0.537781345779338, 0.01059842691095, 0.173199473368838, -1.15177872155269, 1.19668890913812, -1.18887715486333], a = 0.2, v = 0.2, t = 0.2)
movej(p[0.538123230291367, 0.0105876426716218, 0.173160076914467, -1.14655153069698, 1.19988908570618, -1.19025429137126], a = 0.2, v = 0.2, t = 0.2)
movej(p[0.538517392747069, 0.0105859755907425, 0.173119829562308, -1.14122687298877, 1.19988681595075, -1.19110245253391], a = 0.2, v = 0.2, t = 0.2)
movej(p[0.539128262340883, 0.0105478237769242, 0.173046413089659, -1.14517871060054, 1.19678332966298, -1.19264080089151], a = 0.2, v = 0.2, t = 0.2)
movej(p[0.539171629979048, 0.0105690125466977, 0.17305712215103, -1.14313398585719, 1.19680153010419, -1.19178732278669], a = 0.2, v = 0.2, t = 0.2)
movej(p[0.53911540745841, 0.0106113314129365, 0.173081390684841, -1.14565659347083, 1.194415208422, -1.19050430539759], a = 0.2, v = 0.2, t = 0.2)
movej(p[0.538704401316604, 0.0107291405871251, 0.173189052237287, -1.17665908980264, 1.17807723195343, -1.1870152113042], a = 0.2, v = 0.2, t = 0.2)
movej(p[0.538368277215176, 0.0107929799977187, 0.173271220954536, -1.18173591616553, 1.17666929704395, -1.18614753489368], a = 0.2, v = 0.2, t = 0.2)
movej(p[0.537561890510091, 0.0111176468752048, 0.173625047961029, -1.18264624047359, 1.18290815939193, -1.18264353435913], a = 0.2, v = 0.2, t = 0.2)
movej(p[0.536063735989845, 0.0116299760846047, 0.174186430259168, -1.17454936247369, 1.19292744753597, -1.17529999868364], a = 0.2, v = 0.2, t = 0.2)
movej(p[0.533567965148818, 0.0122466253859539, 0.17491485139987, -1.1678079602703, 1.2056936074765, -1.16440568514213], a = 0.2, v = 0.2, t = 0.2)
movej(p[0.531431208985753, 0.0127856465304829, 0.175558292776654, -1.164385868861, 1.21105574540221, -1.1556482325613], a = 0.2, v = 0.2, t = 0.2)
movej(p[0.529291936657686, 0.0132718393712191, 0.176121849178429, -1.1547479145818, 1.21803260865911, -1.14479395140252], a = 0.2, v = 0.2, t = 0.2)
movej(p[0.530198527334811, 0.0130370035574893, 0.175837903242133, -1.15692723141586, 1.209422239968, -1.14758756234343], a = 0.2, v = 0.2, t = 0.2)
movej(p[0.5322174007574, 0.0125043136567472, 0.175204328721486, -1.16775764532664, 1.19165971678402, -1.1559661142798], a = 0.2, v = 0.2, t = 0.2)
movej(p[0.533350591239764, 0.011953934222133, 0.174638246272868, -1.16660765271771, 1.18985539457038, -1.16406113885887], a = 0.2, v = 0.2, t = 0.2)
movej(p[0.53429600960213, 0.0116059350975035, 0.174258335468391, -1.17543820693422, 1.17920420295114, -1.16921091650697], a = 0.2, v = 0.2, t = 0.2)
movej(p[0.535376378125764, 0.0112615964311539, 0.173895665169088, -1.17695691930669, 1.18108957175072, -1.17664547249311], a = 0.2, v = 0.2, t = 0.2)
movej(p[0.536115146194403, 0.0109050013150282, 0.173521885027942, -1.18446862495492, 1.17670936974609, -1.18175865634863], a = 0.2, v = 0.2, t = 0.2)
movej(p[0.537228750284595, 0.0106704621740755, 0.173241324175953, -1.18627886818, 1.17315681910549, -1.18640681599075], a = 0.2, v = 0.2, t = 0.2)
movej(p[0.537792808430053, 0.0105021439695413, 0.173057678401253, -1.19006212531188, 1.16968068278584, -1.18935679748566], a = 0.2, v = 0.2, t = 0.2)
movej(p[0.538040501249206, 0.0104177668600359, 0.172973416543147, -1.19338516117324, 1.16844269879983, -1.19128588715421], a = 0.2, v = 0.2, t = 0.2)
movej(p[0.538451363401007, 0.0103149516045175, 0.17286673563834, -1.19823118481422, 1.16673520845009, -1.19399569372462], a = 0.2, v = 0.2, t = 0.2)
movej(p[0.53877407127985, 0.0102350229795759, 0.172786023682304, -1.19776921844987, 1.16423630849379, -1.19588059698619], a = 0.2, v = 0.2, t = 0.2)
movej(p[0.539043549158292, 0.0102491021643125, 0.17278755325335, -1.19793309798428, 1.16632540243763, -1.19548314989138], a = 0.2, v = 0.2, t = 0.2)
movej(p[0.53957509660735, 0.0101883008440425, 0.172714221685431, -1.19900961658971, 1.16309849360554, -1.19761458192872], a = 0.2, v = 0.2, t = 0.2)
movej(p[0.539627046429532, 0.0102050223848166, 0.172721358635021, -1.20016325021185, 1.16387725987101, -1.19717571776338], a = 0.2, v = 0.2, t = 0.2)
movej(p[0.539653320405737, 0.0101726189984375, 0.172693414785509, -1.19579474592505, 1.1690338982573, -1.197586584933], a = 0.2, v = 0.2, t = 0.2)
movej(p[0.539321313095035, 0.0104480179160389, 0.172947435989003, -1.18866993033746, 1.17237485600054, -1.19182035629926], a = 0.2, v = 0.2, t = 0.2)
movej(p[0.537947101266595, 0.0110128842798209, 0.173541805353661, -1.17671023260318, 1.18814357590763, -1.18315955561802], a = 0.2, v = 0.2, t = 0.2)
movej(p[0.536616431837959, 0.0114653627648957, 0.174056986624901, -1.17631145956077, 1.19530661621082, -1.17737411279047], a = 0.2, v = 0.2, t = 0.2)
movej(p[0.535117454957185, 0.0119512381563769, 0.174601204738215, -1.16365309059465, 1.205720639367, -1.170050132481], a = 0.2, v = 0.2, t = 0.2)
movej(p[0.533296095647651, 0.0123961054282606, 0.175115985736292, -1.16866566940113, 1.21095282604894, -1.16273476632459], a = 0.2, v = 0.2, t = 0.2)
movej(p[0.531293920425246, 0.0129743105741504, 0.175748675627197, -1.15954471139785, 1.21772676340426, -1.15216295825645], a = 0.2, v = 0.2, t = 0.2)
movej(p[0.530150440560489, 0.0132018215336857, 0.176019751081982, -1.15586290159959, 1.22160361905099, -1.14814596903456], a = 0.2, v = 0.2, t = 0.2)
movej(p[0.531132297348818, 0.0129283405981502, 0.175692302650758, -1.15804744674908, 1.20815514835061, -1.15173829101785], a = 0.2, v = 0.2, t = 0.2)
movej(p[0.533035593312283, 0.0124206213644337, 0.17512693800279, -1.16937979595368, 1.19308161600394, -1.16068826015638], a = 0.2, v = 0.2, t = 0.2)
movej(p[0.533844604280484, 0.0119534339955832, 0.174586824435364, -1.16902286410156, 1.18931656350425, -1.16571444851213], a = 0.2, v = 0.2, t = 0.2)
movej(p[0.534672201644078, 0.0116021401720448, 0.174227670731059, -1.17997866024425, 1.18344438027528, -1.17258904412188], a = 0.2, v = 0.2, t = 0.2)
movej(p[0.535501726630365, 0.0112874943994109, 0.173854423956271, -1.17881827312803, 1.18071041696147, -1.17624953069921], a = 0.2, v = 0.2, t = 0.2)
movej(p[0.536320759383843, 0.0109994489387951, 0.173557704473682, -1.1798294442611, 1.18095808319006, -1.18178102219283], a = 0.2, v = 0.2, t = 0.2)
movej(p[0.537339022847673, 0.0106674741481941, 0.173204328587926, -1.19032914038389, 1.17121258597434, -1.18818379054202], a = 0.2, v = 0.2, t = 0.2)
movej(p[0.537590736239637, 0.0105531457127703, 0.173054790140831, -1.18736654488342, 1.17021062630059, -1.18865927381255], a = 0.2, v = 0.2, t = 0.2)
movej(p[0.538046502305897, 0.010434166820091, 0.172912379762197, -1.18695001784633, 1.16912325532837, -1.19024344545014], a = 0.2, v = 0.2, t = 0.2)
movej(p[0.538317253501361, 0.0103654850108267, 0.172873706266995, -1.19348660979826, 1.1721629649884, -1.1931931851287], a = 0.2, v = 0.2, t = 0.2)
movej(p[0.538457235288562, 0.0103665615798414, 0.172842251533627, -1.19013707887133, 1.17018912403976, -1.19133516068966], a = 0.2, v = 0.2, t = 0.2)
movej(p[0.538786728505261, 0.0102725229598591, 0.172755687464286, -1.18768898374773, 1.16637325279153, -1.19383848008867], a = 0.2, v = 0.2, t = 0.2)
movej(p[0.539294003797151, 0.0102650125663015, 0.172745645939158, -1.19482353953858, 1.16514095204025, -1.19423835800781], a = 0.2, v = 0.2, t = 0.2)
movej(p[0.539051562900718, 0.0104597493031973, 0.172963526583181, -1.19248299982032, 1.16612693948407, -1.19135559334419], a = 0.2, v = 0.2, t = 0.2)
movej(p[0.538194246673524, 0.0109021231205352, 0.17347971402232, -1.17896698585809, 1.18214346760622, -1.18490420071241], a = 0.2, v = 0.2, t = 0.2)
movej(p[0.536935164187548, 0.0113014638115623, 0.173947489444931, -1.17869985212531, 1.18989816048105, -1.17949848094788], a = 0.2, v = 0.2, t = 0.2)
movej(p[0.535674744700724, 0.0117863438989697, 0.174511034978201, -1.1747989063262, 1.20098233847719, -1.17233945827257], a = 0.2, v = 0.2, t = 0.2)
movej(p[0.534759975563977, 0.0120527537536175, 0.174782890722673, -1.17068127261377, 1.20659815271424, -1.16663105884193], a = 0.2, v = 0.2, t = 0.2)
movej(p[0.532947469968381, 0.0124388311845141, 0.175195377017337, -1.16277799618203, 1.21526592697389, -1.15929949675247], a = 0.2, v = 0.2, t = 0.2)
movej(p[0.530945795370031, 0.0130109813360502, 0.175843118367273, -1.15570686834984, 1.22312574467004, -1.150591797795], a = 0.2, v = 0.2, t = 0.2)
movej(p[0.530057031640128, 0.0132102703222713, 0.176032058866846, -1.1578782318987, 1.21952608706991, -1.14603959609539], a = 0.2, v = 0.2, t = 0.2)
movej(p[0.531198627036989, 0.0128681185905299, 0.175617917825253, -1.15486064125442, 1.20710331528924, -1.15153015227187], a = 0.2, v = 0.2, t = 0.2)
movej(p[0.532982501073488, 0.0122466509190277, 0.174905690294769, -1.16220568289486, 1.19233345840162, -1.16157115642724], a = 0.2, v = 0.2, t = 0.2)
movej(p[0.534344605311899, 0.0117173638343409, 0.174322664261313, -1.17435722961896, 1.18166872292235, -1.17101200450238], a = 0.2, v = 0.2, t = 0.2)
movej(p[0.535492333491283, 0.0112485741742566, 0.173807102343745, -1.17874341786302, 1.18325232138565, -1.17907413549992], a = 0.2, v = 0.2, t = 0.2)
movej(p[0.536225269086335, 0.0109754062248188, 0.173471480689339, -1.1877031259941, 1.17669188217861, -1.18264211878336], a = 0.2, v = 0.2, t = 0.2)
movej(p[0.537014579650606, 0.0106672644073848, 0.173135301000068, -1.18732044771113, 1.17942739490727, -1.18800949532439], a = 0.2, v = 0.2, t = 0.2)
movej(p[0.537501465560205, 0.010567922375371, 0.173006175163345, -1.18886690636906, 1.17268686102895, -1.18944371562254], a = 0.2, v = 0.2, t = 0.2)
movej(p[0.538508760510014, 0.0104212177940463, 0.172900874309091, -1.1918628043336, 1.17133464933855, -1.19366005786804], a = 0.2, v = 0.2, t = 0.2)
movej(p[0.538755428430973, 0.0103555888640071, 0.172801299863013, -1.19250600439521, 1.16519569704655, -1.19388624124567], a = 0.2, v = 0.2, t = 0.2)
movej(p[0.538978109560966, 0.0103010147527784, 0.172757699739979, -1.19334568869812, 1.16714288210729, -1.19498680762263], a = 0.2, v = 0.2, t = 0.2)
movej(p[0.539081404964462, 0.010268373923526, 0.172729012009461, -1.19443571644019, 1.16670683159939, -1.19561952435935], a = 0.2, v = 0.2, t = 0.2)
movej(p[0.539169851278691, 0.0102438080022738, 0.172710937026406, -1.19453238728444, 1.16888477276947, -1.19597872702756], a = 0.2, v = 0.2, t = 0.2)
movej(p[0.539358431816972, 0.0103313502670582, 0.17281955107917, -1.19386326750507, 1.16738986751395, -1.19433832177641], a = 0.2, v = 0.2, t = 0.2)
movej(p[0.538803091583817, 0.0107442198910825, 0.17333500940823, -1.18016034399122, 1.17748199233437, -1.18769847182419], a = 0.2, v = 0.2, t = 0.2)
movej(p[0.53710887964294, 0.011411078893483, 0.1741392338174, -1.17231908061511, 1.19515835620998, -1.17658899880436], a = 0.2, v = 0.2, t = 0.2)
movej(p[0.535188996317501, 0.0119303092827958, 0.17472470176658, -1.16843624247829, 1.20730912842307, -1.16753881399853], a = 0.2, v = 0.2, t = 0.2)
movej(p[0.533461626906205, 0.0123427175140198, 0.175165859808259, -1.16788335791001, 1.21042071029465, -1.16028782575954], a = 0.2, v = 0.2, t = 0.2)
movej(p[0.531587890084834, 0.012923510908037, 0.175811057621109, -1.16504191803009, 1.21713797046012, -1.14995172261306], a = 0.2, v = 0.2, t = 0.2)
movej(p[0.530841904592283, 0.0130969479564723, 0.175996021658513, -1.15545261761058, 1.21967079804616, -1.1476698134267], a = 0.2, v = 0.2, t = 0.2)
movej(p[0.531616496500397, 0.0128134952296706, 0.175670563907718, -1.16293591265895, 1.21064201139271, -1.15299467136729], a = 0.2, v = 0.2, t = 0.2)
movej(p[0.53290365105122, 0.0123633228358675, 0.175146059152587, -1.16843325889199, 1.1987224664471, -1.16108730561443], a = 0.2, v = 0.2, t = 0.2)
movej(p[0.533894491537507, 0.0119409474539242, 0.174613445063907, -1.1747850222886, 1.18526608441772, -1.16819005046464], a = 0.2, v = 0.2, t = 0.2)
movej(p[0.534723278825864, 0.0116160741460402, 0.174230841830148, -1.17763425013514, 1.1839458490963, -1.17328101876778], a = 0.2, v = 0.2, t = 0.2)
movej(p[0.535791678646212, 0.0113578086666489, 0.173972900546063, -1.17458085645661, 1.18460004603478, -1.17777373376913], a = 0.2, v = 0.2, t = 0.2)
movej(p[0.536590350804848, 0.0109848229931472, 0.17349574410381, -1.18512154670447, 1.17778049966374, -1.1831531774736], a = 0.2, v = 0.2, t = 0.2)
movej(p[0.536891466969514, 0.0108269878158139, 0.173281870678222, -1.18410978364793, 1.17597029225446, -1.18546745176216], a = 0.2, v = 0.2, t = 0.2)
movej(p[0.537334013704173, 0.0107301524758231, 0.173176617295516, -1.18343036548451, 1.17497736445762, -1.18691386405974], a = 0.2, v = 0.2, t = 0.2)
movej(p[0.537837931056235, 0.0105817450460018, 0.17304034816084, -1.18623076572518, 1.17591094940273, -1.1898180209336], a = 0.2, v = 0.2, t = 0.2)
movej(p[0.538518755231096, 0.0104319871179474, 0.172935060669137, -1.18712041396843, 1.17189301496598, -1.19379839715941], a = 0.2, v = 0.2, t = 0.2)
movej(p[0.538903953101065, 0.0103431437707122, 0.172833102096062, -1.19220199926289, 1.16810647672848, -1.1949307565033], a = 0.2, v = 0.2, t = 0.2)
movej(p[0.538966282549726, 0.0102958070530857, 0.172766347957659, -1.19472046299142, 1.17201083084853, -1.1948700339023], a = 0.2, v = 0.2, t = 0.2)
movej(p[0.538998359914188, 0.010338743844589, 0.172828682335209, -1.19434562542962, 1.16847930902968, -1.19468557607571], a = 0.2, v = 0.2, t = 0.2)
movej(p[0.538954320946326, 0.010521972592138, 0.173085738876423, -1.18355622813107, 1.16979869055012, -1.19194760884124], a = 0.2, v = 0.2, t = 0.2)
movej(p[0.537939121296023, 0.0109410247632742, 0.173616701481407, -1.17778865012874, 1.18301198390269, -1.18421378325185], a = 0.2, v = 0.2, t = 0.2)
movej(p[0.536775858247838, 0.0113949302577533, 0.17420731084707, -1.17757334821393, 1.19251570936782, -1.17653723808442], a = 0.2, v = 0.2, t = 0.2)
movej(p[0.535164075914843, 0.011856364113184, 0.174701247440274, -1.16894976116518, 1.20828380660625, -1.16680042289836], a = 0.2, v = 0.2, t = 0.2)
movej(p[0.533158180083039, 0.0123297721146342, 0.17519083203574, -1.17934204124062, 1.20534316288831, -1.15997515889741], a = 0.2, v = 0.2, t = 0.2)
movej(p[0.53140590610082, 0.0129088717072673, 0.175816232885634, -1.1518377020713, 1.22304015329771, -1.14882162969864], a = 0.2, v = 0.2, t = 0.2)
movej(p[0.529808053703288, 0.0132823625193089, 0.176163956524496, -1.16246567102412, 1.21551944942545, -1.14346256042618], a = 0.2, v = 0.2, t = 0.2)
movej(p[0.530669895520167, 0.0130825429044384, 0.175993126216316, -1.1579897481079, 1.21226379156301, -1.14793967741843], a = 0.2, v = 0.2, t = 0.2)
movej(p[0.531560178637981, 0.0128617534171017, 0.175789762128002, -1.15545048963604, 1.20866100795895, -1.15281030082364], a = 0.2, v = 0.2, t = 0.2)
movej(p[0.533088993439387, 0.0123199327630213, 0.17515939184649, -1.16303164782135, 1.19405227324155, -1.16334926324212], a = 0.2, v = 0.2, t = 0.2)
movej(p[0.534284703736278, 0.0117632093461533, 0.174431807333859, -1.1745469107548, 1.19100968990466, -1.17057542647389], a = 0.2, v = 0.2, t = 0.2)
movej(p[0.535283729313131, 0.0114468870724837, 0.174060073550119, -1.17014120693538, 1.18848983762069, -1.17592849795541], a = 0.2, v = 0.2, t = 0.2)
movej(p[0.535961457885855, 0.0112176651345864, 0.173785297213983, -1.18196513008127, 1.17926256606511, -1.17974793460051], a = 0.2, v = 0.2, t = 0.2)
movej(p[0.537186522008932, 0.0108173489317099, 0.173371413157678, -1.18798430227227, 1.17106651291496, -1.18755582365007], a = 0.2, v = 0.2, t = 0.2)
movej(p[0.53751055533301, 0.0107235388882098, 0.173238641433935, -1.18160063947842, 1.17767792273818, -1.18773653042211], a = 0.2, v = 0.2, t = 0.2)
movej(p[0.538130268626091, 0.0105495681259523, 0.173060979231263, -1.18782214860982, 1.17143012291873, -1.19127171104721], a = 0.2, v = 0.2, t = 0.2)
movej(p[0.538347044123501, 0.0104029794006187, 0.172825127881198, -1.18845738521231, 1.18164119790813, -1.19095947088656], a = 0.2, v = 0.2, t = 0.2)
movej(p[0.538703907007237, 0.010371890687705, 0.172875835515155, -1.19107988661429, 1.17513649087923, -1.19310585775429], a = 0.2, v = 0.2, t = 0.2)
movej(p[0.539178399799759, 0.0102841027708594, 0.172811681080385, -1.18929513329375, 1.17843411398976, -1.19369492938484], a = 0.2, v = 0.2, t = 0.2)
movej(p[0.53930000249376, 0.010379501830913, 0.173058052779557, -1.19356146900841, 1.16926461594147, -1.19462262596136], a = 0.2, v = 0.2, t = 0.2)
movej(p[0.538718501783811, 0.0107802155201429, 0.173631328257484, -1.17607575672607, 1.18173150338334, -1.18755590260382], a = 0.2, v = 0.2, t = 0.2)
movej(p[0.537545353165352, 0.011130132554459, 0.173996485686688, -1.174752435072, 1.19034171327907, -1.18027277705691], a = 0.2, v = 0.2, t = 0.2)
movej(p[0.536271190823475, 0.01143431802361, 0.174309790038558, -1.17412794721067, 1.18958487869014, -1.17696985039936], a = 0.2, v = 0.2, t = 0.2)
movej(p[0.534709273641394, 0.0118515390854403, 0.174714482664984, -1.17103274162683, 1.19267194070182, -1.17041826217363], a = 0.2, v = 0.2, t = 0.2)
movej(p[0.533257892308022, 0.0123149984044439, 0.175235591612104, -1.16823135522643, 1.20408708979373, -1.16080374043769], a = 0.2, v = 0.2, t = 0.2)
movej(p[0.530998557368105, 0.0128441241178166, 0.175688017560432, -1.16416439404421, 1.19667756909567, -1.1556642928956], a = 0.2, v = 0.2, t = 0.2)
movej(p[0.529324620335479, 0.0134831321001426, 0.176521891063623, -1.15720183922696, 1.20088942154847, -1.14665552799925], a = 0.2, v = 0.2, t = 0.2)
movej(p[0.529138481872335, 0.0135165777640005, 0.176536326786933, -1.15607128465865, 1.20143784070721, -1.14596739927134], a = 0.2, v = 0.2, t = 0.2)
movej(p[0.530387168006077, 0.0131065554147249, 0.176061069517137, -1.15961796933742, 1.19677212962469, -1.15269216638862], a = 0.2, v = 0.2, t = 0.2)
movej(p[0.532193879066294, 0.0124964137974892, 0.175328127478633, -1.1665971302855, 1.19191405641597, -1.16164381275738], a = 0.2, v = 0.2, t = 0.2)
movej(p[0.53343318036036, 0.0120087717203387, 0.174669086116411, -1.17247086299333, 1.19022444104017, -1.16778614664736], a = 0.2, v = 0.2, t = 0.2)
movej(p[0.534424735099141, 0.0115973895237731, 0.174095205337548, -1.176390570504, 1.18800883559332, -1.1733748394547], a = 0.2, v = 0.2, t = 0.2)
