def moving():
set_payload_mass(0)
set_tcp(p[0,0,0,0,0,0])
movej(p[-0.2382, -0.1307, 0.3969, 0.016, 0.004, -1.5], a = 0.2, v = 0.2, t = 0.2)
movej(p[-0.238246698355403, -0.130754059269809, 0.396948957726156, 0.0160479515994915, 0.00263627757333097, -1.49913685071583], a = 0.2, v = 0.2, t = 0.2)
movej(p[-0.2382, -0.1307, 0.3969, 0.016, 0.004, -1.5], a = 0.2, v = 0.2, t = 0.2)
movej(p[-0.238246698355403, -0.130754059269809, 0.396948957726156, 0.0160479515994915, 0.00263627757333097, -1.49913685071583], a = 0.2, v = 0.2, t = 0.2)
movej(p[-0.2382, -0.1307, 0.3969, 0.016, 0.004, -1.5], a = 0.2, v = 0.2, t = 0.2)
movej(p[-0.2382, -0.1307, 0.3969, 0.016, 0.004, -1.5], a = 0.2, v = 0.2, t = 0.2)
movej(p[-0.23819505747005, -0.130727202656123, 0.39703379404657, 0.0159736969840165, 0.00397208928166637, -1.49970354180825], a = 0.2, v = 0.2, t = 0.2)
movej(p[-0.238190115665306, -0.130754406623982, 0.397167688081906, 0.0159473874420666, 0.00394418761804503, -1.49940708332983], a = 0.2, v = 0.2, t = 0.2)
movej(p[-0.238190181659052, -0.130754525991844, 0.397176787059658, 0.0159473570373304, 0.00394166899273749, -1.49911038430146], a = 0.2, v = 0.2, t = 0.2)
movej(p[-0.238248273397614, -0.130736888139593, 0.397176597115386, 0.0159735416547874, 0.00396929534332679, -1.49905601974019], a = 0.2, v = 0.2, t = 0.2)
movej(p[-0.238671947498021, -0.130494455091721, 0.39659733961311, 0.0131673262991601, 0.0085280394842712, -1.49527185147401], a = 0.2, v = 0.2, t = 0.2)
movej(p[-0.238671947498021, -0.130494455091721, 0.39659733961311, 0.0133007571950606, 0.00866664652755144, -1.49489830348526], a = 0.2, v = 0.2, t = 0.2)
movej(p[-0.238605336017821, -0.130554456546328, 0.396792957598353, 0.013309202203366, 0.00865881936271087, -1.49489836688315], a = 0.2, v = 0.2, t = 0.2)
movej(p[-0.238579989658146, -0.130559878663021, 0.396793070300545, 0.0147902914727371, 0.00667602919732075, -1.49561297001779], a = 0.2, v = 0.2, t = 0.2)
movej(p[-0.238518549817301, -0.130563947090578, 0.396793462543041, 0.0169663151942911, 0.00372134635699807, -1.49637160351596], a = 0.2, v = 0.2, t = 0.2)
movej(p[-0.238282873240858, -0.130650492987052, 0.397079568570799, 0.0195744820141742, 0.00108833315837115, -1.49876872089313], a = 0.2, v = 0.2, t = 0.2)
movej(p[-0.238274202653369, -0.13084897156665, 0.397738101914186, 0.0195735746223306, 0.00109359386869952, -1.49956982562383], a = 0.2, v = 0.2, t = 0.2)
movej(p[-0.23833129524768, -0.130891332026534, 0.397890149298621, 0.0195685997089836, 0.00088620769760755, -1.49966696629375], a = 0.2, v = 0.2, t = 0.2)
movej(p[-0.23834936898587, -0.130899718035404, 0.397904909882723, 0.0200801804685106, 0.000468451438263908, -1.50145403705148], a = 0.2, v = 0.2, t = 0.2)
movej(p[-0.238330822584548, -0.130899817822438, 0.397905843178238, 0.0212396845295655, -0.000612076056748505, -1.50178074807206], a = 0.2, v = 0.2, t = 0.2)
movej(p[-0.238344897693281, -0.130992465419114, 0.398161354516821, 0.0217496659798439, -0.000866948272504368, -1.5026400591075], a = 0.2, v = 0.2, t = 0.2)
movej(p[-0.238392932554708, -0.131033791995176, 0.398226671407429, 0.0222263644310716, -0.000904965069972688, -1.50178104700112], a = 0.2, v = 0.2, t = 0.2)
movej(p[-0.238406996847017, -0.131034788207728, 0.398226556331745, 0.022869497592297, -0.00022101939835451, -1.50083674301114], a = 0.2, v = 0.2, t = 0.2)
movej(p[-0.238407869334984, -0.131016559477764, 0.398175383368486, 0.0224301616268153, 0.000187999089165415, -1.50067805746932], a = 0.2, v = 0.2, t = 0.2)
movej(p[-0.238636950134078, -0.13084259221931, 0.397600639485985, 0.0173812319334086, 0.00387256531358366, -1.49761250769273], a = 0.2, v = 0.2, t = 0.2)
movej(p[-0.239253492920488, -0.130333862040286, 0.395951156176741, 0.00853895726062785, 0.0118331156931111, -1.49056637339507], a = 0.2, v = 0.2, t = 0.2)
movej(p[-0.239585315579951, -0.12978456852854, 0.394403981251071, 0.00498264510865016, 0.0148940892823234, -1.47913255180072], a = 0.2, v = 0.2, t = 0.2)
movej(p[-0.240542677165879, -0.129233401561606, 0.392369439706066, 0.00453904493978898, 0.0180567742684911, -1.47185864881669], a = 0.2, v = 0.2, t = 0.2)
movej(p[-0.241875502627945, -0.127833955600802, 0.388151357157033, -0.00142570358602134, 0.0277296027963141, -1.44638923070825], a = 0.2, v = 0.2, t = 0.2)
movej(p[-0.242810624573838, -0.127126003115574, 0.385766294129571, -0.00125425529310071, 0.027793154316371, -1.44069547354785], a = 0.2, v = 0.2, t = 0.2)
movej(p[-0.24283256885971, -0.127127557489769, 0.385766114578857, 0.00175506992608458, 0.0305125726983363, -1.44061571376487], a = 0.2, v = 0.2, t = 0.2)
movej(p[-0.242807169309472, -0.127584327139893, 0.386616102654993, 0.00563431377422488, 0.0271504021553791, -1.44227542058777], a = 0.2, v = 0.2, t = 0.2)
movej(p[-0.241664887103057, -0.12810017209813, 0.388877574078639, 0.0114000927901642, 0.0198064087902975, -1.45196494958692], a = 0.2, v = 0.2, t = 0.2)
movej(p[-0.240650444983362, -0.128701319388595, 0.391205606935141, 0.0130541216781488, 0.0160230284130325, -1.47059643552005], a = 0.2, v = 0.2, t = 0.2)
movej(p[-0.239792352595491, -0.12925861172745, 0.393270851674375, 0.0179346152313046, 0.0103428321168171, -1.48180467334751], a = 0.2, v = 0.2, t = 0.2)
movej(p[-0.239171515401647, -0.129863514871518, 0.395105525396058, 0.0203225604504052, 0.00696845847700346, -1.48934777259266], a = 0.2, v = 0.2, t = 0.2)
movej(p[-0.23898596835652, -0.130165327874953, 0.395834193863197, 0.0194163772668128, 0.00529966298398863, -1.49508149802661], a = 0.2, v = 0.2, t = 0.2)
movej(p[-0.238756126952183, -0.130322479899393, 0.396415464566112, 0.0194966002860242, 0.00522529568351156, -1.49508201044201], a = 0.2, v = 0.2, t = 0.2)
movej(p[-0.238596138350747, -0.130590888301872, 0.397062476688787, 0.0217211388924965, 0.00291767611544343, -1.49654026475293], a = 0.2, v = 0.2, t = 0.2)
movej(p[-0.238478150518937, -0.130794231394991, 0.397513115644078, 0.021230853349095, 0.00242053629946929, -1.49949717841052], a = 0.2, v = 0.2, t = 0.2)
movej(p[-0.238383096181328, -0.130849396745426, 0.397731705916078, 0.020982120008482, 0.00150029390977431, -1.49950300709646], a = 0.2, v = 0.2, t = 0.2)
movej(p[-0.238369519120561, -0.131059482715702, 0.397891066508805, 0.0178267398908194, 0.00133967013740575, -1.49950820981711], a = 0.2, v = 0.2, t = 0.2)
movej(p[-0.238415901361153, -0.131062768097523, 0.397890687003888, 0.0166653384647203, 0.00211631262993551, -1.49654713712724], a = 0.2, v = 0.2, t = 0.2)
movej(p[-0.238468651114699, -0.130876058359764, 0.39759962089915, 0.01618280222302, 0.00256154907581485, -1.49618912059922], a = 0.2, v = 0.2, t = 0.2)
movej(p[-0.238920720096611, -0.130581791969471, 0.396415169407051, 0.0137669671752055, 0.00601585169313303, -1.4897984801349], a = 0.2, v = 0.2, t = 0.2)
movej(p[-0.239430230313083, -0.129960396595311, 0.39486105088574, 0.00954414119088358, 0.00973484733677367, -1.47777178991491], a = 0.2, v = 0.2, t = 0.2)
movej(p[-0.239734799465115, -0.129732983835227, 0.394043833382145, 0.00636321603526007, 0.0124736154219124, -1.46861030640729], a = 0.2, v = 0.2, t = 0.2)
movej(p[-0.240679566354563, -0.128937935039441, 0.391495424532113, 0.00542524509279606, 0.0180582758848588, -1.46632367216596], a = 0.2, v = 0.2, t = 0.2)
movej(p[-0.241487336524726, -0.128109818075974, 0.389218273428867, 0.00108452959235288, 0.0224162096670509, -1.44936773789977], a = 0.2, v = 0.2, t = 0.2)
movej(p[-0.242471785516146, -0.127439653579503, 0.386658237344949, -0.00545537306980742, 0.0279163923998927, -1.43996155720643], a = 0.2, v = 0.2, t = 0.2)
movej(p[-0.242471785516146, -0.127439653579503, 0.386658237344949, -0.00599139878488339, 0.0273745744177243, -1.43997734742269], a = 0.2, v = 0.2, t = 0.2)
movej(p[-0.242143475821749, -0.127713276651076, 0.387608335786832, -0.000383975426544545, 0.0225840312390305, -1.4449783003607], a = 0.2, v = 0.2, t = 0.2)
movej(p[-0.240985305988684, -0.128597830211419, 0.39070337958889, 0.00875412826674812, 0.0187947585844053, -1.47506862344479], a = 0.2, v = 0.2, t = 0.2)
movej(p[-0.240288778442934, -0.128998230231329, 0.392544485482658, 0.0156524862980936, 0.0157384574335687, -1.47610658087963], a = 0.2, v = 0.2, t = 0.2)
movej(p[-0.239721112635274, -0.129661271118491, 0.394102779942241, 0.0191451884613289, 0.0129178404633277, -1.47886491124681], a = 0.2, v = 0.2, t = 0.2)
movej(p[-0.239318718154463, -0.129985282195736, 0.39521987345383, 0.0229545870371692, 0.00918866595747758, -1.48609445472539], a = 0.2, v = 0.2, t = 0.2)
movej(p[-0.238911128312442, -0.130408785507517, 0.396281493336647, 0.0188691130676493, 0.00496758265825241, -1.49644983369583], a = 0.2, v = 0.2, t = 0.2)
movej(p[-0.238729191061234, -0.130546627162011, 0.396779260556248, 0.0173355629540743, 0.00384500999002303, -1.5013165289502], a = 0.2, v = 0.2, t = 0.2)
movej(p[-0.238594155631594, -0.13065160158855, 0.397149704469027, 0.0173355629540743, 0.00384500999002303, -1.5013165289502], a = 0.2, v = 0.2, t = 0.2)
movej(p[-0.238487764305199, -0.130733011599023, 0.397398436083147, 0.0184492766262896, 0.00357633717842632, -1.49856946658769], a = 0.2, v = 0.2, t = 0.2)
movej(p[-0.238479704490247, -0.130766136586529, 0.397423062787873, 0.0196422093351154, 0.00397967812927863, -1.49856491392497], a = 0.2, v = 0.2, t = 0.2)
movej(p[-0.238461482417134, -0.130783034894609, 0.397474279027832, 0.0225758618187551, 0.00506845755922418, -1.49967956684511], a = 0.2, v = 0.2, t = 0.2)
movej(p[-0.238461482417134, -0.130783034894609, 0.397474279027832, 0.0226517927885642, 0.00514993901158365, -1.49967886505244], a = 0.2, v = 0.2, t = 0.2)
movej(p[-0.238792221736213, -0.130423637655755, 0.396617698601065, 0.0203954541997147, 0.0120120945780271, -1.49301045812459], a = 0.2, v = 0.2, t = 0.2)
movej(p[-0.239779172579356, -0.129308734957346, 0.393980869532601, 0.0139814542985604, 0.0177909691775034, -1.48423058517198], a = 0.2, v = 0.2, t = 0.2)
movej(p[-0.240508525925055, -0.128751957704167, 0.392028764369588, 0.00815979713731039, 0.0227398200809474, -1.47568620946539], a = 0.2, v = 0.2, t = 0.2)
movej(p[-0.241448848317125, -0.128032799457899, 0.389679914686063, 0.00625899477589246, 0.0231186256543837, -1.4548842463858], a = 0.2, v = 0.2, t = 0.2)
movej(p[-0.242384268543631, -0.127236172542297, 0.387249807608755, 0.000725975652253009, 0.0233538450031588, -1.44339171568068], a = 0.2, v = 0.2, t = 0.2)
movej(p[-0.243054925185476, -0.126898362059012, 0.385508779565864, -0.00257868824526252, 0.023372004552647, -1.44340593003423], a = 0.2, v = 0.2, t = 0.2)
movej(p[-0.243054925185476, -0.126898362059012, 0.385508779565864, -0.00255183384996205, 0.0234711618716685, -1.44790250460411], a = 0.2, v = 0.2, t = 0.2)
movej(p[-0.242685208990715, -0.127251088951442, 0.386604357000228, 0.000312129136333527, 0.0219323925095393, -1.45733934398846], a = 0.2, v = 0.2, t = 0.2)
movej(p[-0.241707185614549, -0.127960385600211, 0.389210238325178, 0.00635674097608796, 0.0170467530693904, -1.46162090763942], a = 0.2, v = 0.2, t = 0.2)
movej(p[-0.240622822938211, -0.128886046315788, 0.391977470831817, 0.0120017234071747, 0.0157750607415038, -1.47635594990302], a = 0.2, v = 0.2, t = 0.2)
movej(p[-0.239677488962415, -0.129731984022208, 0.394382500160342, 0.0157113448371963, 0.0125244028445258, -1.48531761340055], a = 0.2, v = 0.2, t = 0.2)
movej(p[-0.239282412012628, -0.130108773729433, 0.395294725275253, 0.0156497806630437, 0.0126432700574229, -1.49841438753445], a = 0.2, v = 0.2, t = 0.2)
movej(p[-0.238904983406807, -0.130497715104447, 0.396141055603382, 0.0156496044584289, 0.0126688137728199, -1.50024159121292], a = 0.2, v = 0.2, t = 0.2)
movej(p[-0.238685941986402, -0.130683601835459, 0.39669816834725, 0.0193328795580179, 0.00927362208894265, -1.50382168359512], a = 0.2, v = 0.2, t = 0.2)
movej(p[-0.238569904835197, -0.130739392963838, 0.397028815167188, 0.0187112941468657, 0.00751639752062572, -1.50384032985468], a = 0.2, v = 0.2, t = 0.2)
movej(p[-0.238332583995605, -0.130956415630476, 0.397581851595699, 0.0194530103990807, 0.00626508075003264, -1.50385094702639], a = 0.2, v = 0.2, t = 0.2)
movej(p[-0.238332583995605, -0.130956415630476, 0.397581851595699, 0.0194568770353649, 0.00623555517793235, -1.5008385943049], a = 0.2, v = 0.2, t = 0.2)
movej(p[-0.238460186292425, -0.130782232500848, 0.397370187259545, 0.0215230228788162, 0.00862869380438027, -1.49883613441944], a = 0.2, v = 0.2, t = 0.2)
movej(p[-0.238690638825012, -0.130531122712605, 0.396895656591966, 0.0202579945621566, 0.0106238750422758, -1.49521269124116], a = 0.2, v = 0.2, t = 0.2)
movej(p[-0.238964726947304, -0.130237480776661, 0.396301053897158, 0.0207254879506795, 0.0128951121299894, -1.48993725477447], a = 0.2, v = 0.2, t = 0.2)
movej(p[-0.239835257059922, -0.129462420361747, 0.394189270270396, 0.0143598069716039, 0.018608491290946, -1.48104967578393], a = 0.2, v = 0.2, t = 0.2)
movej(p[-0.240620720258332, -0.128794694925616, 0.392314222197443, 0.0103757465434891, 0.0248190116991181, -1.47463734492237], a = 0.2, v = 0.2, t = 0.2)
movej(p[-0.241472911432014, -0.128124440715395, 0.390093684569484, 0.00762827245259023, 0.0252735738425738, -1.46042960463018], a = 0.2, v = 0.2, t = 0.2)
movej(p[-0.242361335156488, -0.127485925539558, 0.387626040090225, 0.00566583152606488, 0.0266812803912927, -1.44724079974002], a = 0.2, v = 0.2, t = 0.2)
movej(p[-0.242706124009186, -0.127273037061136, 0.386581414845072, 0.00283436198582383, 0.0275295240088956, -1.44255529029864], a = 0.2, v = 0.2, t = 0.2)
movej(p[-0.242706124009186, -0.127273037061136, 0.386581414845072, 0.00148491799515117, 0.0261618501303563, -1.44259218033763], a = 0.2, v = 0.2, t = 0.2)
movej(p[-0.241588064946155, -0.128137699127059, 0.389725934242902, 0.00724307231414769, 0.0173160853960567, -1.45930068282618], a = 0.2, v = 0.2, t = 0.2)
movej(p[-0.240732564808515, -0.128898229442386, 0.391674181096863, 0.00724747733305658, 0.0151149542440414, -1.47751729201543], a = 0.2, v = 0.2, t = 0.2)
movej(p[-0.239870202508235, -0.129639353629349, 0.393632733430234, 0.00990722666838166, 0.012850491494747, -1.48728843623314], a = 0.2, v = 0.2, t = 0.2)
movej(p[-0.239299913288714, -0.130157034553094, 0.394984330432779, 0.0135600358651411, 0.0111081470623638, -1.494864767178], a = 0.2, v = 0.2, t = 0.2)
movej(p[-0.238874190126818, -0.130544049147882, 0.395854138907586, 0.0170899918367149, 0.0104896071486207, -1.49508026310889], a = 0.2, v = 0.2, t = 0.2)
movej(p[-0.238575373095006, -0.130738718306541, 0.396968377571502, 0.0192290413518318, 0.00857553917013875, -1.50192310595246], a = 0.2, v = 0.2, t = 0.2)
movej(p[-0.238432166531928, -0.130868115130012, 0.397262251783313, 0.0178171207557283, 0.00599045498997756, -1.50328132698009], a = 0.2, v = 0.2, t = 0.2)
movej(p[-0.238379717553343, -0.130875693975808, 0.397387146762162, 0.0195968247795717, 0.00432702815055893, -1.50329242818492], a = 0.2, v = 0.2, t = 0.2)
movej(p[-0.238380240426868, -0.130876639736566, 0.397459238662816, 0.019261881285164, 0.00396875070160218, -1.50355036100762], a = 0.2, v = 0.2, t = 0.2)
movej(p[-0.238405972601509, -0.13084458040943, 0.397459472611159, 0.019963320821059, 0.00521760133802239, -1.50292194373705], a = 0.2, v = 0.2, t = 0.2)
movej(p[-0.238634093208266, -0.130594087804217, 0.397452703304967, 0.0167852827515071, 0.00818687970886414, -1.50289924692828], a = 0.2, v = 0.2, t = 0.2)
movej(p[-0.23916772164299, -0.130106715101559, 0.396293896262204, 0.0188657264476176, 0.0171492943091658, -1.49348191724727], a = 0.2, v = 0.2, t = 0.2)
movej(p[-0.239830902079784, -0.129541754641482, 0.394478593698772, 0.0163582847012328, 0.0215934982988815, -1.48281185975818], a = 0.2, v = 0.2, t = 0.2)
movej(p[-0.24050892118089, -0.128969600793528, 0.392772690171954, 0.0112816344765733, 0.0273570282464611, -1.46958813351147], a = 0.2, v = 0.2, t = 0.2)
movej(p[-0.241300175401401, -0.128326516431929, 0.3905689399519, 0.00800634153165341, 0.0301292872584127, -1.46275227361588], a = 0.2, v = 0.2, t = 0.2)
movej(p[-0.242078714875181, -0.127686930478661, 0.388189316293388, 0.00243464560681145, 0.0294639437255911, -1.45323289416434], a = 0.2, v = 0.2, t = 0.2)
movej(p[-0.242147600960608, -0.127667233173549, 0.387885440967957, -0.000119142821640248, 0.0268452929350202, -1.45317304211958], a = 0.2, v = 0.2, t = 0.2)
movej(p[-0.242147600960608, -0.127667233173549, 0.387885440967957, 0.00445380125347003, 0.0227440205001188, -1.45175213458688], a = 0.2, v = 0.2, t = 0.2)
movej(p[-0.241444851328114, -0.128265693532922, 0.389749496536412, 0.0115678264398798, 0.0164297308371201, -1.45184606764294], a = 0.2, v = 0.2, t = 0.2)
movej(p[-0.240608608001815, -0.128981194691402, 0.391651989262137, 0.0102986900260921, 0.0129403638023873, -1.47124846591721], a = 0.2, v = 0.2, t = 0.2)
movej(p[-0.239777598376149, -0.129689054306649, 0.393515339872503, 0.0120027929777108, 0.00973613582926675, -1.48527923871443], a = 0.2, v = 0.2, t = 0.2)
movej(p[-0.238962417157833, -0.130377756548263, 0.395591250866188, 0.0134593455437666, 0.00854925760581262, -1.49752257829325], a = 0.2, v = 0.2, t = 0.2)
movej(p[-0.238642194205367, -0.130636066937534, 0.396171850016643, 0.0141271020126727, 0.007976609836038, -1.50163400316112], a = 0.2, v = 0.2, t = 0.2)
movej(p[-0.23851060255738, -0.130748761292587, 0.396650179809274, 0.0126602451332776, 0.00646230019143515, -1.50876803142516], a = 0.2, v = 0.2, t = 0.2)
movej(p[-0.23841764088271, -0.130829210193904, 0.397049343536734, 0.0127273829936981, 0.00641138667489636, -1.50985397827798], a = 0.2, v = 0.2, t = 0.2)
movej(p[-0.238394223600432, -0.130854023119229, 0.397391826353277, 0.015079957621725, 0.00550210579430398, -1.50985663270442], a = 0.2, v = 0.2, t = 0.2)
movej(p[-0.238396496396031, -0.130858134095952, 0.39770519114752, 0.0164913815741883, 0.0057474115931142, -1.50983440729792], a = 0.2, v = 0.2, t = 0.2)
movej(p[-0.238410630323798, -0.130843156918245, 0.397710085658097, 0.0164917730699562, 0.00572736614728814, -1.50773658843696], a = 0.2, v = 0.2, t = 0.2)
movej(p[-0.238441218745824, -0.130818398058784, 0.397705388071888, 0.0161499075246156, 0.00535573131761831, -1.50754659886274], a = 0.2, v = 0.2, t = 0.2)
movej(p[-0.238629406803339, -0.130670766811423, 0.397445730682601, 0.0161148870804019, 0.00538305267652924, -1.50695125070507], a = 0.2, v = 0.2, t = 0.2)
movej(p[-0.239239117836367, -0.130152259793941, 0.396371489783628, 0.0146955677744213, 0.0155913602982381, -1.49639546613391], a = 0.2, v = 0.2, t = 0.2)
movej(p[-0.239739518456532, -0.129751954220205, 0.395458709258543, 0.0123426058959223, 0.0238358748477935, -1.49103876242902], a = 0.2, v = 0.2, t = 0.2)
movej(p[-0.24040689241308, -0.129180363236082, 0.393547152445631, 0.0089127621733184, 0.0292176502089457, -1.47754227877615], a = 0.2, v = 0.2, t = 0.2)
movej(p[-0.240982356621606, -0.128684931383394, 0.391966900379014, 0.00534803443663712, 0.0322877781874989, -1.47153893322925], a = 0.2, v = 0.2, t = 0.2)
movej(p[-0.241167896236448, -0.12853506737755, 0.391584777727138, 0.00454437965644147, 0.0329122384809475, -1.46814124316979], a = 0.2, v = 0.2, t = 0.2)
movej(p[-0.241600756017677, -0.128150174799209, 0.390135224536347, 0.0030289859870471, 0.0333283996187907, -1.46291983312677], a = 0.2, v = 0.2, t = 0.2)
movej(p[-0.242539994811973, -0.127363993044549, 0.387637345140553, 0.00223787796744414, 0.0321243759145829, -1.44646777309528], a = 0.2, v = 0.2, t = 0.2)
movej(p[-0.242539994811973, -0.127363993044549, 0.387637345140553, 0.00296038551954217, 0.0253031744769959, -1.44663169506085], a = 0.2, v = 0.2, t = 0.2)
movej(p[-0.241091174102124, -0.12854910480594, 0.390624642130095, 0.0113186780963029, 0.015927972556073, -1.4607988600895], a = 0.2, v = 0.2, t = 0.2)
movej(p[-0.240078444771372, -0.129343537897297, 0.392703299154713, 0.0131304327775524, 0.0145304810342848, -1.47474862703642], a = 0.2, v = 0.2, t = 0.2)
movej(p[-0.239290081156713, -0.129983222817751, 0.394422218540148, 0.0138517257786919, 0.0140787262448533, -1.48786245237006], a = 0.2, v = 0.2, t = 0.2)
movej(p[-0.238823220898152, -0.130364936509622, 0.395548423679727, 0.0155846761367994, 0.0113332233403372, -1.49529612842867], a = 0.2, v = 0.2, t = 0.2)
movej(p[-0.238683432336379, -0.130555343851104, 0.396543151538142, 0.0155845244014625, 0.0114137871594888, -1.50140781476491], a = 0.2, v = 0.2, t = 0.2)
movej(p[-0.238664891778315, -0.130607669481496, 0.396837632702414, 0.0152280028376709, 0.01177898996285, -1.50382145105425], a = 0.2, v = 0.2, t = 0.2)
movej(p[-0.238576932813083, -0.130690616688581, 0.397048906272158, 0.0146032045749657, 0.0111517356836449, -1.50746614598441], a = 0.2, v = 0.2, t = 0.2)
movej(p[-0.238577407823012, -0.130691475874846, 0.397114398914222, 0.0148975315401121, 0.0108754829939452, -1.50746887068685], a = 0.2, v = 0.2, t = 0.2)
movej(p[-0.238625524507198, -0.130703148620014, 0.397141299875603, 0.0150649473282258, 0.0108158850818141, -1.5074692559551], a = 0.2, v = 0.2, t = 0.2)
movej(p[-0.238641453261617, -0.130747337850656, 0.397693966797608, 0.0157714522378968, 0.0108371222997526, -1.5073856783491], a = 0.2, v = 0.2, t = 0.2)
movej(p[-0.238662898813718, -0.130748856898165, 0.397693791327592, 0.0166564124366349, 0.0117490902911448, -1.50411612338701], a = 0.2, v = 0.2, t = 0.2)
movej(p[-0.238994742362161, -0.130498874960086, 0.397159703881577, 0.0140075046735627, 0.0145462453075, -1.50060829593333], a = 0.2, v = 0.2, t = 0.2)
movej(p[-0.239563022527922, -0.130058445555844, 0.395998529504887, 0.00875472929424672, 0.0232436570549865, -1.49563994039388], a = 0.2, v = 0.2, t = 0.2)
movej(p[-0.240106988654741, -0.129581594914742, 0.394478868934577, 0.00579507163408191, 0.0307074634836724, -1.48383091040524], a = 0.2, v = 0.2, t = 0.2)
movej(p[-0.240644957442417, -0.129148470963438, 0.393192904531378, 0.00375558797163147, 0.0326325644757014, -1.4766715435312], a = 0.2, v = 0.2, t = 0.2)
movej(p[-0.240807722223238, -0.129011737742426, 0.392787572195639, 0.00399377859726655, 0.0328023569514561, -1.47331401158825], a = 0.2, v = 0.2, t = 0.2)
movej(p[-0.241012105237827, -0.128854363516311, 0.39233990404142, 0.00398180954897963, 0.0327063444651572, -1.46981944816841], a = 0.2, v = 0.2, t = 0.2)
movej(p[-0.241625837620116, -0.128261786763046, 0.390417510300684, 0.00195101615201232, 0.034054816266867, -1.46122931442892], a = 0.2, v = 0.2, t = 0.2)
movej(p[-0.24162395208452, -0.128258376252683, 0.390157539507758, 0.000830660837192926, 0.0328978373315188, -1.46126511610274], a = 0.2, v = 0.2, t = 0.2)
movej(p[-0.241337636837553, -0.128340443477489, 0.390158539491126, 0.00601141789737176, 0.0217533137301099, -1.4635081557035], a = 0.2, v = 0.2, t = 0.2)
movej(p[-0.239884750528235, -0.129510316244355, 0.393558512217714, 0.0131858842312162, 0.0140971928462976, -1.48224825371828], a = 0.2, v = 0.2, t = 0.2)
movej(p[-0.239182137952824, -0.129983031928286, 0.394791845376694, 0.0131981720368031, 0.014189846228889, -1.48997084231403], a = 0.2, v = 0.2, t = 0.2)
movej(p[-0.238827141112807, -0.130293264733131, 0.395750158055508, 0.0142392060838491, 0.0131306017590818, -1.49564919921654], a = 0.2, v = 0.2, t = 0.2)
movej(p[-0.238665308193836, -0.13047923011041, 0.396389264098971, 0.0139039155910956, 0.0127741130291333, -1.49869876118363], a = 0.2, v = 0.2, t = 0.2)
movej(p[-0.23860373033856, -0.130575772569187, 0.396695478682871, 0.0139214970497579, 0.0127787886622347, -1.50139720203255], a = 0.2, v = 0.2, t = 0.2)
movej(p[-0.23857875082012, -0.130719880558696, 0.397316139243096, 0.0164276931070692, 0.0104680641958244, -1.50365182196216], a = 0.2, v = 0.2, t = 0.2)
movej(p[-0.238589266485627, -0.130780849847289, 0.397536287957894, 0.0165161053758324, 0.0105015240608855, -1.50411383878709], a = 0.2, v = 0.2, t = 0.2)
movej(p[-0.238575945624376, -0.130789982644427, 0.397580169692955, 0.0166295488116866, 0.0106317840009531, -1.50472305558807], a = 0.2, v = 0.2, t = 0.2)
movej(p[-0.238587724324342, -0.130810134040089, 0.397601322316433, 0.0168840774581678, 0.0111421217718446, -1.50501859107157], a = 0.2, v = 0.2, t = 0.2)
movej(p[-0.23858879891557, -0.130811314411313, 0.39765710530647, 0.0161804036485819, 0.0127828047209507, -1.50499918836234], a = 0.2, v = 0.2, t = 0.2)
movej(p[-0.238611799786553, -0.130826012804855, 0.39769154956813, 0.0161803662122758, 0.0127844904297234, -1.5051196058858], a = 0.2, v = 0.2, t = 0.2)
movej(p[-0.238610098407159, -0.130869526539388, 0.397860310079552, 0.0174914365078459, 0.0117962738632804, -1.50533090265491], a = 0.2, v = 0.2, t = 0.2)
movej(p[-0.238767798025171, -0.13088069683758, 0.397859019762831, 0.0174914365078459, 0.0117962738632804, -1.50533090265491], a = 0.2, v = 0.2, t = 0.2)
movej(p[-0.239349602799814, -0.130508842536021, 0.396812460656706, 0.012792092259114, 0.0164339183113289, -1.499130444801], a = 0.2, v = 0.2, t = 0.2)
movej(p[-0.239796836264931, -0.130072821557134, 0.395512990755688, 0.00621782433271359, 0.0226165612182752, -1.49035304471319], a = 0.2, v = 0.2, t = 0.2)
movej(p[-0.240124749569599, -0.129713084787457, 0.394430609911824, -0.00171451574216401, 0.0294057953271113, -1.48162171098661], a = 0.2, v = 0.2, t = 0.2)
movej(p[-0.240516403835822, -0.129311766004162, 0.393206296316407, -0.00225062689915205, 0.0295889683486899, -1.47503765194225], a = 0.2, v = 0.2, t = 0.2)
movej(p[-0.240984684589875, -0.129023894865996, 0.392318676711399, -0.00410634541240869, 0.0311087560734851, -1.47084226064774], a = 0.2, v = 0.2, t = 0.2)
movej(p[-0.24161490374558, -0.12847132514159, 0.39063786575967, -0.00439730412174325, 0.0309252122602289, -1.46124745629821], a = 0.2, v = 0.2, t = 0.2)
movej(p[-0.241692514458725, -0.128358249338226, 0.390297847980872, -0.00440905882463585, 0.0308762851191952, -1.45941902527522], a = 0.2, v = 0.2, t = 0.2)
movej(p[-0.241692514458725, -0.128358249338226, 0.390297847980872, -0.0034087682625046, 0.030232456744397, -1.45943072744615], a = 0.2, v = 0.2, t = 0.2)
movej(p[-0.241366234260263, -0.128558730896163, 0.390850546485501, 0.00279504772889488, 0.0259218831690855, -1.46205993779186], a = 0.2, v = 0.2, t = 0.2)
movej(p[-0.240417096880313, -0.129123501170963, 0.392549912296821, 0.0108389263613558, 0.0189771761035684, -1.4758803604658], a = 0.2, v = 0.2, t = 0.2)
movej(p[-0.239496837638011, -0.129848688969041, 0.39470741589461, 0.0160668807141832, 0.0138777100167486, -1.48720139263027], a = 0.2, v = 0.2, t = 0.2)
movej(p[-0.23899192991548, -0.13006539424242, 0.395452618629588, 0.0151568748201197, 0.0129811654677876, -1.49201181538091], a = 0.2, v = 0.2, t = 0.2)
movej(p[-0.238867071061597, -0.130149592469456, 0.395771955528758, 0.0139974294416833, 0.0128958623023261, -1.49327718763944], a = 0.2, v = 0.2, t = 0.2)
movej(p[-0.238542087624847, -0.130388591295093, 0.396032406555215, 0.0150076237134495, 0.0100008743892854, -1.50209577707976], a = 0.2, v = 0.2, t = 0.2)
movej(p[-0.238455252808612, -0.130551370448602, 0.396557560048845, 0.0156870530207566, 0.0096170497049428, -1.50347771257906], a = 0.2, v = 0.2, t = 0.2)
movej(p[-0.238312364981631, -0.130829631632964, 0.397468448555841, 0.0176596148524671, 0.00795231913174326, -1.50712768630036], a = 0.2, v = 0.2, t = 0.2)
movej(p[-0.238310235701949, -0.130876431887396, 0.397637869134146, 0.0180770826221785, 0.00840623537042693, -1.50733546572534], a = 0.2, v = 0.2, t = 0.2)
movej(p[-0.23830776947044, -0.130930716388696, 0.397806393881945, 0.0181039755142609, 0.00902417226591004, -1.50732900963001], a = 0.2, v = 0.2, t = 0.2)
movej(p[-0.238411805334821, -0.130938085535448, 0.397805542648334, 0.0189857276083173, 0.00995455851836767, -1.50560373284689], a = 0.2, v = 0.2, t = 0.2)
movej(p[-0.238849122026189, -0.130800988895889, 0.397600046461332, 0.0203426028560441, 0.0113760862722686, -1.50269010093355], a = 0.2, v = 0.2, t = 0.2)
movej(p[-0.239236028585044, -0.130614792554219, 0.397155433048282, 0.0192535197339782, 0.0145195022231858, -1.49741523984701], a = 0.2, v = 0.2, t = 0.2)
movej(p[-0.239721226556146, -0.130216563074154, 0.396007709148537, 0.0142049022479633, 0.020819212050586, -1.48908605828521], a = 0.2, v = 0.2, t = 0.2)
movej(p[-0.240243518068571, -0.129645447559547, 0.39428221914711, 0.00655876294856031, 0.0276136774187117, -1.47947904219685], a = 0.2, v = 0.2, t = 0.2)
movej(p[-0.24064200394479, -0.129173943430568, 0.392844152642107, 0.00484600898572424, 0.0288362502450353, -1.47198346983783], a = 0.2, v = 0.2, t = 0.2)
movej(p[-0.241123343158062, -0.128627596637627, 0.391118834748614, 0.00482528136815684, 0.0286776512593591, -1.46562024877317], a = 0.2, v = 0.2, t = 0.2)
movej(p[-0.241884475740036, -0.128286409648914, 0.390040469299709, 0.0284184122414789, 0.00849092457096291, -1.46404222599902], a = 0.2, v = 0.2, t = 0.2)
movej(p[-0.241944376105784, -0.128236280243785, 0.389894276040888, 0.0284356742951636, 0.00850880028454134, -1.46404205061174], a = 0.2, v = 0.2, t = 0.2)
movej(p[-0.241944376105784, -0.128236280243785, 0.389894276040888, 0.0284282118161691, 0.00851608160009731, -1.46412226543362], a = 0.2, v = 0.2, t = 0.2)
movej(p[-0.241187464648356, -0.128652243868233, 0.391106645060102, 0.0211841678703154, 0.0129344134341823, -1.46941434083101], a = 0.2, v = 0.2, t = 0.2)
movej(p[-0.240385311081984, -0.129047582187919, 0.392186097795958, 0.016412622194185, 0.0149438701925378, -1.47664437868941], a = 0.2, v = 0.2, t = 0.2)
movej(p[-0.239888540958424, -0.12937772391994, 0.39314347736599, 0.0153108761532389, 0.0138725497088373, -1.48231879128046], a = 0.2, v = 0.2, t = 0.2)
movej(p[-0.239323880093299, -0.129830856550153, 0.394464876861538, 0.0161766604765081, 0.0113469913098472, -1.49126112739367], a = 0.2, v = 0.2, t = 0.2)
movej(p[-0.239288642917935, -0.12989373657137, 0.394672530911352, 0.0158035134286814, 0.0109656513447743, -1.49247251370442], a = 0.2, v = 0.2, t = 0.2)
movej(p[-0.239059336660766, -0.130071615141577, 0.395216821701908, 0.0149334439202657, 0.011768212712209, -1.49500220369285], a = 0.2, v = 0.2, t = 0.2)
movej(p[-0.238885191020018, -0.13029643174825, 0.395937216544458, 0.0134870504418851, 0.0131849413488593, -1.49760672807723], a = 0.2, v = 0.2, t = 0.2)
movej(p[-0.238639758882572, -0.130440254488674, 0.396360057359949, 0.0120080553241432, 0.0149346051201796, -1.49997516191825], a = 0.2, v = 0.2, t = 0.2)
movej(p[-0.23860116574641, -0.130642285722407, 0.397031362536779, 0.0125135750301761, 0.0155733649861935, -1.50150239158302], a = 0.2, v = 0.2, t = 0.2)
movej(p[-0.238581619593173, -0.130798941808176, 0.397567009546184, 0.012839286898064, 0.0159477491030557, -1.50308622851547], a = 0.2, v = 0.2, t = 0.2)
movej(p[-0.238572079510918, -0.13092292177218, 0.397927692960491, 0.0133629977792346, 0.015568775067314, -1.50309081124437], a = 0.2, v = 0.2, t = 0.2)
movej(p[-0.238572079510918, -0.13092292177218, 0.397927692960491, 0.0140550269235785, 0.0161420558423549, -1.50292193816451], a = 0.2, v = 0.2, t = 0.2)
movej(p[-0.239065256396661, -0.130695580503124, 0.397335331983761, 0.0150452016530242, 0.0171313730429771, -1.49902261190227], a = 0.2, v = 0.2, t = 0.2)
movej(p[-0.239482027643747, -0.130443142629347, 0.396597737991455, 0.016027552481826, 0.0175335032613915, -1.49397336061775], a = 0.2, v = 0.2, t = 0.2)
movej(p[-0.239805280419245, -0.130258822729532, 0.396047749748249, 0.0169957805255477, 0.0183177791596582, -1.48973827477261], a = 0.2, v = 0.2, t = 0.2)
movej(p[-0.24008347862352, -0.129696881293302, 0.394355713344567, 0.0172623827550794, 0.0182802079515797, -1.48058639100522], a = 0.2, v = 0.2, t = 0.2)
movej(p[-0.240972644908542, -0.129279690694769, 0.393049390745789, 0.0254910289916814, 0.0136975999209092, -1.47544396595455], a = 0.2, v = 0.2, t = 0.2)
movej(p[-0.241511280208253, -0.128497332465687, 0.390659478524537, 0.0266107953377759, 0.0126507480493404, -1.46482421124848], a = 0.2, v = 0.2, t = 0.2)
movej(p[-0.241693060889204, -0.127808343026756, 0.388593765902444, 0.0270855210662807, 0.0121062741695722, -1.4609911325204], a = 0.2, v = 0.2, t = 0.2)
movej(p[-0.241543939492032, -0.127797780347567, 0.388594986031158, 0.0262134331252133, 0.0112059170078875, -1.46100209059773], a = 0.2, v = 0.2, t = 0.2)
movej(p[-0.241507484431301, -0.128457659295931, 0.390452503207944, 0.0260490355167731, 0.0112590261143132, -1.46743365906085], a = 0.2, v = 0.2, t = 0.2)
movej(p[-0.240866824443491, -0.128843774891056, 0.391609514472893, 0.0234381903504829, 0.0119352129456749, -1.4730916026639], a = 0.2, v = 0.2, t = 0.2)
movej(p[-0.24031987638726, -0.129157897679607, 0.392556766924724, 0.0193220302935002, 0.0130300845063207, -1.47877420752535], a = 0.2, v = 0.2, t = 0.2)
movej(p[-0.239771194936126, -0.129495757518013, 0.393583429500633, 0.0152837643625604, 0.0142491456270131, -1.48462635978754], a = 0.2, v = 0.2, t = 0.2)
movej(p[-0.239216612972587, -0.129878097237896, 0.394751867335658, 0.0117837711338178, 0.0156626675054614, -1.49079209397761], a = 0.2, v = 0.2, t = 0.2)
movej(p[-0.238821637894179, -0.130189739973524, 0.395712951755866, 0.0113543667809709, 0.015275218881746, -1.49563757381149], a = 0.2, v = 0.2, t = 0.2)
movej(p[-0.238627013368932, -0.130353844424585, 0.396186263738932, 0.0118820897316254, 0.0145136161524464, -1.49868286854318], a = 0.2, v = 0.2, t = 0.2)
movej(p[-0.238465429776689, -0.130542006854423, 0.396727828197437, 0.0126106983765822, 0.0138882396293783, -1.50202391913164], a = 0.2, v = 0.2, t = 0.2)
movej(p[-0.238455871550027, -0.130705276188212, 0.397095597166964, 0.0144903283735007, 0.012894810452119, -1.50288693900889], a = 0.2, v = 0.2, t = 0.2)
movej(p[-0.2384558452725, -0.130723122359716, 0.397246880257467, 0.015084617266271, 0.0130524859584186, -1.5051249586599], a = 0.2, v = 0.2, t = 0.2)
movej(p[-0.23844569392798, -0.131009562557254, 0.398155098564616, 0.0158591855172373, 0.013888234226927, -1.50511233649339], a = 0.2, v = 0.2, t = 0.2)
movej(p[-0.238609976831753, -0.131021199167705, 0.398153754382681, 0.0144789044890628, 0.0169781622412426, -1.50317001351134], a = 0.2, v = 0.2, t = 0.2)
movej(p[-0.239004418386457, -0.130898549395611, 0.397832366605489, 0.0142624596082713, 0.0182099176223278, -1.49937131842333], a = 0.2, v = 0.2, t = 0.2)
movej(p[-0.239370800273823, -0.130653106352231, 0.39707424398014, 0.011548455545901, 0.020972450087165, -1.4932868640458], a = 0.2, v = 0.2, t = 0.2)
movej(p[-0.239679760901153, -0.130329437581703, 0.396144244583503, 0.00783500585410403, 0.024237431861713, -1.48606102938265], a = 0.2, v = 0.2, t = 0.2)
movej(p[-0.239957510679235, -0.129869087065893, 0.394799017787246, 0.00690053521728575, 0.0247130436149249, -1.48370580670711], a = 0.2, v = 0.2, t = 0.2)
movej(p[-0.24024943967201, -0.1295024028567, 0.393694086502547, 0.00765824879554733, 0.0239545559590974, -1.48103101069887], a = 0.2, v = 0.2, t = 0.2)
movej(p[-0.24075398986899, -0.129006882718608, 0.392084346554148, 0.0220393625703111, 0.0143302449247364, -1.47352110231097], a = 0.2, v = 0.2, t = 0.2)
movej(p[-0.241418362840135, -0.128450570182507, 0.390391635675885, 0.0248396772185168, 0.0145756400242755, -1.46549776357021], a = 0.2, v = 0.2, t = 0.2)
movej(p[-0.241732048978729, -0.12823993231315, 0.389780155124725, 0.0249778078154368, 0.0144736464516104, -1.46223152575623], a = 0.2, v = 0.2, t = 0.2)
movej(p[-0.241732048978729, -0.12823993231315, 0.389780155124725, 0.0250243135210108, 0.0145217197276935, -1.46223084001748], a = 0.2, v = 0.2, t = 0.2)
movej(p[-0.241146120743881, -0.128871764748171, 0.391629924139403, 0.0249170181877697, 0.0147218758134064, -1.47078995835912], a = 0.2, v = 0.2, t = 0.2)
movej(p[-0.240452945882887, -0.129360494070685, 0.393126108326394, 0.0230994669837795, 0.0134162132839153, -1.48017675175765], a = 0.2, v = 0.2, t = 0.2)
movej(p[-0.239652869941383, -0.129590105366488, 0.393931489106315, 0.0178449929582936, 0.0140424761122658, -1.48426401573477], a = 0.2, v = 0.2, t = 0.2)
movej(p[-0.239082795447047, -0.129818524076249, 0.394692112517695, 0.0122577577761689, 0.013172547355237, -1.49243598263963], a = 0.2, v = 0.2, t = 0.2)
movej(p[-0.238826691062719, -0.130019267149629, 0.395308105782932, 0.0113245355484096, 0.0124534453743233, -1.4947344269958], a = 0.2, v = 0.2, t = 0.2)
movej(p[-0.238546269016347, -0.130235894887155, 0.39596897207746, 0.0110314934723028, 0.0119430894545765, -1.4988925293532], a = 0.2, v = 0.2, t = 0.2)
movej(p[-0.238380172323505, -0.130442063375606, 0.396580440926214, 0.0110155427553292, 0.0117459826707162, -1.50153597592198], a = 0.2, v = 0.2, t = 0.2)
movej(p[-0.238325989572779, -0.130539308883014, 0.396853088887536, 0.0110159556054787, 0.0117493893771275, -1.50178728133553], a = 0.2, v = 0.2, t = 0.2)
movej(p[-0.238323238263463, -0.130594878366658, 0.396997896182879, 0.0107329243054847, 0.0128299840854021, -1.50223315235097], a = 0.2, v = 0.2, t = 0.2)
movej(p[-0.238437761619456, -0.130756865996084, 0.397448591433403, 0.0119141127009778, 0.0145719995359079, -1.50261636433668], a = 0.2, v = 0.2, t = 0.2)
movej(p[-0.238609807502285, -0.130906461107556, 0.397801421090355, 0.0108862388326195, 0.0155625052281697, -1.50299364981741], a = 0.2, v = 0.2, t = 0.2)
movej(p[-0.238602253280833, -0.131063743964986, 0.398239761981098, 0.0107974880289628, 0.0160371669236445, -1.50298669897805], a = 0.2, v = 0.2, t = 0.2)
movej(p[-0.23869032966458, -0.131069982657778, 0.398239041329824, 0.0103732086704245, 0.0175671719913035, -1.50256742530619], a = 0.2, v = 0.2, t = 0.2)
movej(p[-0.238847208899968, -0.130874265342448, 0.397657505597487, 0.0104484343998763, 0.0175930400021843, -1.49901282175943], a = 0.2, v = 0.2, t = 0.2)
movej(p[-0.239575859196864, -0.130467414926059, 0.396317007595431, 0.0183314195748106, 0.0150464066233555, -1.49359644798359], a = 0.2, v = 0.2, t = 0.2)
movej(p[-0.239733679966925, -0.130060852405027, 0.395189269407273, 0.0186068923865982, 0.0152706966515053, -1.48948734299476], a = 0.2, v = 0.2, t = 0.2)
movej(p[-0.240049866651969, -0.129860660017346, 0.394557231395666, 0.0187696926205179, 0.0157281307588456, -1.48539229499054], a = 0.2, v = 0.2, t = 0.2)
movej(p[-0.240434827253297, -0.129365072296573, 0.393193587249841, 0.0116469154501969, 0.0220753613998673, -1.47629098748204], a = 0.2, v = 0.2, t = 0.2)
movej(p[-0.240972022193758, -0.128774406890183, 0.391527452278226, 0.0116376661789571, 0.0218995358704927, -1.46763065300604], a = 0.2, v = 0.2, t = 0.2)
movej(p[-0.241159650063233, -0.128512988594917, 0.390643121363072, 0.024201847941738, 0.0148228434938987, -1.46773556760182], a = 0.2, v = 0.2, t = 0.2)
movej(p[-0.241159650063233, -0.128512988594917, 0.390643121363072, 0.0241991660614825, 0.0148358792403211, -1.46858721366888], a = 0.2, v = 0.2, t = 0.2)
movej(p[-0.240625151336663, -0.128887886075457, 0.391800109889541, 0.0229315565752231, 0.0136575373979215, -1.47607328531548], a = 0.2, v = 0.2, t = 0.2)
movej(p[-0.240134709316671, -0.129387517533059, 0.393282779320534, 0.0196824003308527, 0.0141174104801088, -1.48230939405897], a = 0.2, v = 0.2, t = 0.2)
movej(p[-0.239660874923593, -0.129688260913368, 0.394252479571713, 0.01717074034823, 0.0128535474314732, -1.48674750938364], a = 0.2, v = 0.2, t = 0.2)
movej(p[-0.238994554279869, -0.129883799747009, 0.395022233288356, 0.0143971900337221, 0.0115855350228922, -1.4923890488558], a = 0.2, v = 0.2, t = 0.2)
movej(p[-0.238677740913208, -0.130126286749047, 0.395760032932262, 0.0120106243035913, 0.0115260670602413, -1.4977100976275], a = 0.2, v = 0.2, t = 0.2)
movej(p[-0.238665662986932, -0.130229400180073, 0.396046500127659, 0.0106677470057924, 0.0127743499596543, -1.49770624547756], a = 0.2, v = 0.2, t = 0.2)
movej(p[-0.238547668489587, -0.130345247981407, 0.396388274608161, 0.0112666320715545, 0.0134169993999594, -1.49779379208642], a = 0.2, v = 0.2, t = 0.2)
movej(p[-0.238464178568656, -0.130463638819163, 0.396729665458417, 0.011897821111988, 0.0140298152034003, -1.49789198071983], a = 0.2, v = 0.2, t = 0.2)
movej(p[-0.238423974125107, -0.130638787575576, 0.397130604575797, 0.0122122964314184, 0.0137897457407776, -1.50119359412655], a = 0.2, v = 0.2, t = 0.2)
movej(p[-0.238417199703324, -0.130783301000935, 0.397553705600495, 0.0113023710647323, 0.0127304861734732, -1.50417048208813], a = 0.2, v = 0.2, t = 0.2)
movej(p[-0.23827020771837, -0.130786436011263, 0.397627438754974, 0.014677657314876, 0.00960048532350445, -1.5064313868941], a = 0.2, v = 0.2, t = 0.2)
movej(p[-0.23826391573432, -0.13090470015813, 0.397882261698412, 0.0152246724261673, 0.0101914620957916, -1.50642368627668], a = 0.2, v = 0.2, t = 0.2)
movej(p[-0.238642853652616, -0.130931541374343, 0.39787916118404, 0.0157837661009835, 0.0127580278829965, -1.50054565908869], a = 0.2, v = 0.2, t = 0.2)
movej(p[-0.239069781709217, -0.130845463955338, 0.397397040024554, 0.0107027327228421, 0.0174295306509856, -1.49702837032136], a = 0.2, v = 0.2, t = 0.2)
movej(p[-0.239459880332243, -0.130349939359916, 0.396049259571496, 0.00444501911598528, 0.0230320363500032, -1.48835368337653], a = 0.2, v = 0.2, t = 0.2)
movej(p[-0.239924062722312, -0.129866399417265, 0.394694483865849, 0.0038030618919789, 0.0254605635912592, -1.48193154205242], a = 0.2, v = 0.2, t = 0.2)
movej(p[-0.240204724628663, -0.129469478566506, 0.393592631261117, 0.00176775508132812, 0.0271181707516979, -1.4745837529786], a = 0.2, v = 0.2, t = 0.2)
movej(p[-0.240651719196494, -0.129033104473739, 0.392322170983307, 0.00174258879684437, 0.0269822789319089, -1.46889738461932], a = 0.2, v = 0.2, t = 0.2)
movej(p[-0.241306890167781, -0.128673217462939, 0.391144008058309, 0.00404122714021327, 0.028003796894533, -1.46242310243237], a = 0.2, v = 0.2, t = 0.2)
movej(p[-0.241362996153973, -0.128209897359976, 0.389824230448064, 0.00897419246285549, 0.0299155700172895, -1.4582524955847], a = 0.2, v = 0.2, t = 0.2)
movej(p[-0.241362996153973, -0.128209897359976, 0.389824230448064, 0.0114639612990586, 0.0276911664409815, -1.45830036298386], a = 0.2, v = 0.2, t = 0.2)
movej(p[-0.240726007745549, -0.128657066144463, 0.391198838674329, 0.0201954650487791, 0.0187476941047053, -1.47228562958294], a = 0.2, v = 0.2, t = 0.2)
movej(p[-0.240086371066162, -0.129158840945694, 0.392808276199439, 0.0191508714424791, 0.0174161779701755, -1.47631479981934], a = 0.2, v = 0.2, t = 0.2)
movej(p[-0.239328291629891, -0.129596337064564, 0.394248096790442, 0.0174103723077969, 0.0153310497770477, -1.48205539103338], a = 0.2, v = 0.2, t = 0.2)
movej(p[-0.238978504925043, -0.129847400208906, 0.395024627413576, 0.0168072773786407, 0.0132847228315495, -1.49090882793095], a = 0.2, v = 0.2, t = 0.2)
movej(p[-0.238621811994241, -0.13010181102714, 0.395819266242656, 0.0141134850544163, 0.0105204532955404, -1.49931804895609], a = 0.2, v = 0.2, t = 0.2)
movej(p[-0.238460298922582, -0.130234037786106, 0.39628955591073, 0.0133965137106077, 0.0112090500250807, -1.50083516866023], a = 0.2, v = 0.2, t = 0.2)
movej(p[-0.238357118870048, -0.130444698058974, 0.396799898203896, 0.0137570938061248, 0.0116112650828507, -1.50199892430083], a = 0.2, v = 0.2, t = 0.2)
movej(p[-0.23831781987857, -0.130520296031072, 0.397013315531879, 0.0149914894032496, 0.0104931565991094, -1.50200986307823], a = 0.2, v = 0.2, t = 0.2)
movej(p[-0.238308933867908, -0.13069205083158, 0.397414172036525, 0.0171960747099188, 0.00992779249599266, -1.50201776887286], a = 0.2, v = 0.2, t = 0.2)
movej(p[-0.238354334097987, -0.13078268239716, 0.397572071683229, 0.0177390953411671, 0.0105295129880048, -1.50332620135692], a = 0.2, v = 0.2, t = 0.2)
movej(p[-0.238374624213194, -0.130932467692435, 0.397966804094546, 0.0169587375993489, 0.0112589114712649, -1.50331872238774], a = 0.2, v = 0.2, t = 0.2)
movej(p[-0.238441055551332, -0.130937173207044, 0.397966260545567, 0.0157580623666659, 0.0125888729202641, -1.50311029292142], a = 0.2, v = 0.2, t = 0.2)
movej(p[-0.238802718639785, -0.130950385378923, 0.397718836640165, 0.0146858629192129, 0.0130301046522292, -1.49851927614245], a = 0.2, v = 0.2, t = 0.2)
movej(p[-0.23936616409269, -0.130396648554708, 0.396162139186865, 0.00736506280268889, 0.0211279259975299, -1.4931117857229], a = 0.2, v = 0.2, t = 0.2)
movej(p[-0.239858262483285, -0.12987789463954, 0.394704111347806, 0.00388687619589364, 0.0236411099136495, -1.48110560100763], a = 0.2, v = 0.2, t = 0.2)
movej(p[-0.240364872524554, -0.129289516761265, 0.393081373048375, 0.00025719900028156, 0.0266362876603411, -1.46962880056812], a = 0.2, v = 0.2, t = 0.2)
movej(p[-0.240818756506183, -0.128778432418903, 0.391675327577484, -0.00014509839197027, 0.0268527449338247, -1.4644684135076], a = 0.2, v = 0.2, t = 0.2)
movej(p[-0.241346388525568, -0.128458740837446, 0.390585872280161, 0.00223561216333431, 0.0291930846633819, -1.45845175349267], a = 0.2, v = 0.2, t = 0.2)
movej(p[-0.241346388525568, -0.128458740837446, 0.390585872280161, 0.00565533405567959, 0.0292465485178503, -1.45843882569029], a = 0.2, v = 0.2, t = 0.2)
movej(p[-0.241331695760648, -0.128636087804864, 0.39093809207774, 0.00960977114525925, 0.0257224614781831, -1.4589026557248], a = 0.2, v = 0.2, t = 0.2)
movej(p[-0.240651368410186, -0.128932823441074, 0.392036056807782, 0.0112616542709836, 0.0225014203568925, -1.4690529080927], a = 0.2, v = 0.2, t = 0.2)
movej(p[-0.239904385054484, -0.129126801903304, 0.392968934287677, 0.0135964253337379, 0.0175142886073354, -1.47704059609845], a = 0.2, v = 0.2, t = 0.2)
movej(p[-0.239254972826087, -0.12961376453806, 0.394468424651087, 0.0173333266823131, 0.0139420411397046, -1.48443018497322], a = 0.2, v = 0.2, t = 0.2)
movej(p[-0.23883196248406, -0.129846226096668, 0.395263032330579, 0.0183825440391093, 0.0123710032636355, -1.48909462234187], a = 0.2, v = 0.2, t = 0.2)
movej(p[-0.238642144081434, -0.129981922857904, 0.39572248053551, 0.0176519261289734, 0.0116606750856734, -1.49373358864797], a = 0.2, v = 0.2, t = 0.2)
movej(p[-0.238537726867334, -0.130206648180146, 0.396313656384935, 0.0155972889266932, 0.010680777759362, -1.49615921645136], a = 0.2, v = 0.2, t = 0.2)
movej(p[-0.238485502241739, -0.13042862023772, 0.396790376988787, 0.0152164925395628, 0.0103320059841006, -1.50089071393765], a = 0.2, v = 0.2, t = 0.2)
movej(p[-0.238482489299823, -0.130733759008298, 0.397495375423446, 0.0174428965374352, 0.00825603691538378, -1.5009094435018], a = 0.2, v = 0.2, t = 0.2)
movej(p[-0.238380238265147, -0.130841325232772, 0.397680126724551, 0.0196391244214936, 0.0106223177795898, -1.50134867903763], a = 0.2, v = 0.2, t = 0.2)
movej(p[-0.238468850267667, -0.130899169644092, 0.397873047011427, 0.0184762351392911, 0.0117071109520106, -1.50133702926074], a = 0.2, v = 0.2, t = 0.2)
movej(p[-0.238468850267667, -0.130899169644092, 0.397873047011427, 0.0167204630244463, 0.0126988241865959, -1.50132689880973], a = 0.2, v = 0.2, t = 0.2)
movej(p[-0.23865388713732, -0.130898202298841, 0.397701498531072, 0.0136552336806901, 0.0154940806737869, -1.49737642803671], a = 0.2, v = 0.2, t = 0.2)
movej(p[-0.239048601218134, -0.130655810556069, 0.396866921825524, 0.0131668033347706, 0.0150921541355446, -1.49568323450384], a = 0.2, v = 0.2, t = 0.2)
movej(p[-0.239459154698847, -0.130398302629409, 0.396048430342867, 0.00659849504875072, 0.0215278521485276, -1.48995397168094], a = 0.2, v = 0.2, t = 0.2)
movej(p[-0.239900432634845, -0.129835233157786, 0.394526345163474, 0.00635235964456958, 0.0215866178430094, -1.4825956759407], a = 0.2, v = 0.2, t = 0.2)
movej(p[-0.240446383788239, -0.129287149284784, 0.392975701108166, 0.00601529485239231, 0.0247756832123999, -1.46989320027797], a = 0.2, v = 0.2, t = 0.2)
movej(p[-0.241039814848901, -0.128655238255961, 0.391196786672929, 0.00435407961398566, 0.026152612087687, -1.4651619430365], a = 0.2, v = 0.2, t = 0.2)
movej(p[-0.242074964494214, -0.127815242586999, 0.388670214398496, -0.00138308068058178, 0.0307934610881941, -1.44857898763113], a = 0.2, v = 0.2, t = 0.2)
movej(p[-0.242074964494214, -0.127815242586999, 0.388670214398496, -0.000655180804189952, 0.031535642748708, -1.44855654760424], a = 0.2, v = 0.2, t = 0.2)
movej(p[-0.241698447555223, -0.128286289879409, 0.389860899786399, 0.00996801342258116, 0.0245951444613829, -1.45413591744996], a = 0.2, v = 0.2, t = 0.2)
movej(p[-0.240973200863993, -0.128568102828724, 0.391061797583241, 0.0125307643647599, 0.0225109123298855, -1.46334159324625], a = 0.2, v = 0.2, t = 0.2)
movej(p[-0.240377145901414, -0.128863773081204, 0.392157764915502, 0.0155511727697293, 0.0199151011097897, -1.46963291034884], a = 0.2, v = 0.2, t = 0.2)
movej(p[-0.239800149740887, -0.129070317538637, 0.393059341289327, 0.0206749375042275, 0.0160351968465621, -1.47401534087018], a = 0.2, v = 0.2, t = 0.2)
movej(p[-0.239531331403295, -0.129223053336498, 0.393605048589467, 0.0219608002898051, 0.0149202955048031, -1.47798829229103], a = 0.2, v = 0.2, t = 0.2)
movej(p[-0.239083785124026, -0.129675343899166, 0.394884605108279, 0.0209011914772162, 0.0121793362587036, -1.48789186842873], a = 0.2, v = 0.2, t = 0.2)
movej(p[-0.23880253713085, -0.129871722859481, 0.395526540876312, 0.0197665968637105, 0.0110583515502082, -1.49359173774302], a = 0.2, v = 0.2, t = 0.2)
movej(p[-0.238658783772974, -0.130046174465491, 0.396033351974514, 0.0200904612949293, 0.0107585757081357, -1.4935949620319], a = 0.2, v = 0.2, t = 0.2)
movej(p[-0.238651540169321, -0.130175546792715, 0.396268033846747, 0.0205698968419402, 0.0112664268143914, -1.49335285167626], a = 0.2, v = 0.2, t = 0.2)
movej(p[-0.238651378163796, -0.130177842158204, 0.396268104920498, 0.0205742056141446, 0.0112659756625845, -1.49320274123792], a = 0.2, v = 0.2, t = 0.2)
movej(p[-0.238527128363335, -0.13041751668266, 0.396868329519637, 0.0206214570549791, 0.0113163548935534, -1.49320209378515], a = 0.2, v = 0.2, t = 0.2)
movej(p[-0.238508295752365, -0.130763046780382, 0.39755791112056, 0.0201539582849531, 0.0117967697202362, -1.49728458485305], a = 0.2, v = 0.2, t = 0.2)
movej(p[-0.238524454726507, -0.130764191365017, 0.397557778905944, 0.0177544143954231, 0.0107641340322927, -1.49797705651275], a = 0.2, v = 0.2, t = 0.2)
movej(p[-0.238802795496805, -0.130659514233085, 0.397072578943413, 0.0128008055444248, 0.0149500308168871, -1.4979308600213], a = 0.2, v = 0.2, t = 0.2)
movej(p[-0.2393416142017, -0.130319763482574, 0.395951402079228, 0.00737009402457938, 0.0195280201473228, -1.48951874563715], a = 0.2, v = 0.2, t = 0.2)
movej(p[-0.239687937424468, -0.129965437730095, 0.394948125633525, 0.00565657489123104, 0.0209280076431524, -1.48159622933741], a = 0.2, v = 0.2, t = 0.2)
movej(p[-0.240159126110094, -0.12948530101184, 0.393609156252127, 0.00472868377212243, 0.0225001476120828, -1.47302916238615], a = 0.2, v = 0.2, t = 0.2)
movej(p[-0.240766244768532, -0.128756077735243, 0.391692703581842, 0.000900183183673678, 0.0260310566113505, -1.46457179515405], a = 0.2, v = 0.2, t = 0.2)
movej(p[-0.241597766968247, -0.128051493831783, 0.389577277968787, 0.00394936862270328, 0.0295574352258882, -1.44717576513148], a = 0.2, v = 0.2, t = 0.2)
movej(p[-0.241949513550871, -0.127909432220953, 0.388942419236201, 0.00462586004451623, 0.0302294967469479, -1.44642510995552], a = 0.2, v = 0.2, t = 0.2)
movej(p[-0.241949513550871, -0.127909432220953, 0.388942419236201, 0.00563314470872099, 0.0301784831908375, -1.44642324058992], a = 0.2, v = 0.2, t = 0.2)
movej(p[-0.241260340006382, -0.128474039967919, 0.390653303200017, 0.0138899804991998, 0.025243220265119, -1.45130313798661], a = 0.2, v = 0.2, t = 0.2)
movej(p[-0.240632153998166, -0.128731682375696, 0.391744801871018, 0.0179309552715868, 0.0218590316582249, -1.46188128170952], a = 0.2, v = 0.2, t = 0.2)
movej(p[-0.240028959057689, -0.128936467627655, 0.392749702923044, 0.0192474256856976, 0.0183713324242714, -1.46841231350671], a = 0.2, v = 0.2, t = 0.2)
movej(p[-0.239578890551614, -0.129201676929489, 0.393669791362304, 0.0199999761290043, 0.0150502981536756, -1.48064973588972], a = 0.2, v = 0.2, t = 0.2)
movej(p[-0.239225755255045, -0.129573204958158, 0.394700094597391, 0.0200316101788271, 0.0148573074372384, -1.48399871887658], a = 0.2, v = 0.2, t = 0.2)
movej(p[-0.238911358307463, -0.129929458139521, 0.395676611223015, 0.0170792609111035, 0.0118404829364195, -1.49130944039943], a = 0.2, v = 0.2, t = 0.2)
movej(p[-0.238878713549012, -0.13000418774449, 0.395887091354825, 0.0161163699430583, 0.0111623518732655, -1.49633234628218], a = 0.2, v = 0.2, t = 0.2)
movej(p[-0.238797349907986, -0.130071903943138, 0.396061912790466, 0.0161160654340073, 0.0111812477070632, -1.49778086532527], a = 0.2, v = 0.2, t = 0.2)
movej(p[-0.238762589187969, -0.130102492215145, 0.396170775869421, 0.0168436417435588, 0.0105652320119199, -1.49778699042345], a = 0.2, v = 0.2, t = 0.2)
movej(p[-0.238654292135571, -0.130307007647605, 0.396651932596827, 0.0185847809194305, 0.0124301925147876, -1.49776700877221], a = 0.2, v = 0.2, t = 0.2)
movej(p[-0.238517374466442, -0.130687375484726, 0.397461027004399, 0.0181954989600453, 0.012789281131914, -1.49755163894958], a = 0.2, v = 0.2, t = 0.2)
movej(p[-0.238469259767914, -0.130793210206807, 0.397728717735257, 0.017293204433601, 0.0130381452573863, -1.49754957472069], a = 0.2, v = 0.2, t = 0.2)
movej(p[-0.238469259767914, -0.130793210206807, 0.397728717735257, 0.0167898973915538, 0.0128122084848451, -1.49626161516858], a = 0.2, v = 0.2, t = 0.2)
movej(p[-0.238559101055359, -0.130706876168839, 0.397460868585626, 0.0154526051118876, 0.0121542419923344, -1.49622694407863], a = 0.2, v = 0.2, t = 0.2)
movej(p[-0.238913360101622, -0.130491892396635, 0.396697833779192, 0.0104108180744241, 0.0149441094233759, -1.49566931233683], a = 0.2, v = 0.2, t = 0.2)
movej(p[-0.239199281633736, -0.130136717879361, 0.395816020148228, 0.00688797847751506, 0.0180974628481081, -1.490059943199], a = 0.2, v = 0.2, t = 0.2)
movej(p[-0.239561888899359, -0.129723146421921, 0.394721692527948, 0.0076306099203314, 0.020499181286331, -1.47699293282785], a = 0.2, v = 0.2, t = 0.2)
movej(p[-0.240117621310091, -0.129176787883388, 0.393205158738337, 0.00535672568065311, 0.0238057521687843, -1.4700886204566], a = 0.2, v = 0.2, t = 0.2)
movej(p[-0.240284950767598, -0.12904476850072, 0.39279813127581, 0.00459078330336507, 0.0244181279793403, -1.46691507398095], a = 0.2, v = 0.2, t = 0.2)
movej(p[-0.240750226808556, -0.128683034732884, 0.391651273221421, 0.00570625703041035, 0.0255143407188951, -1.46136411568009], a = 0.2, v = 0.2, t = 0.2)
movej(p[-0.241028821997985, -0.12852609436633, 0.391051044047045, 0.00760761342249914, 0.0273851420879672, -1.45704242729242], a = 0.2, v = 0.2, t = 0.2)
movej(p[-0.241028821997985, -0.12852609436633, 0.391051044047045, 0.0125967323170186, 0.0237770329721262, -1.45710981682562], a = 0.2, v = 0.2, t = 0.2)
movej(p[-0.240475462197283, -0.128915222438395, 0.392329596343393, 0.015021064803569, 0.0217765144946757, -1.46528211704899], a = 0.2, v = 0.2, t = 0.2)
movej(p[-0.240109883919374, -0.129133485223543, 0.393122173544264, 0.014736707162946, 0.019894454781101, -1.47077625740391], a = 0.2, v = 0.2, t = 0.2)
movej(p[-0.239577731598402, -0.129474433469761, 0.394308793707031, 0.0168356705072556, 0.018122996595309, -1.47831158224784], a = 0.2, v = 0.2, t = 0.2)
movej(p[-0.2392778650923, -0.129687462006116, 0.395000351673666, 0.02046705555841, 0.0148850050897253, -1.48365932250508], a = 0.2, v = 0.2, t = 0.2)
movej(p[-0.238880102156037, -0.130176921072654, 0.396204351120808, 0.0227282156875753, 0.0133899549262574, -1.49341184920651], a = 0.2, v = 0.2, t = 0.2)
movej(p[-0.238730364941432, -0.130379505283649, 0.396725738226535, 0.0212764690579481, 0.0118819182687673, -1.49601190111125], a = 0.2, v = 0.2, t = 0.2)
movej(p[-0.238675400145531, -0.13049427634104, 0.396993261394872, 0.0204081883697684, 0.0126980593242874, -1.4968662676192], a = 0.2, v = 0.2, t = 0.2)
movej(p[-0.238550584000666, -0.130620678391877, 0.397327846094948, 0.0177539631833359, 0.0100193659294438, -1.5008831145606], a = 0.2, v = 0.2, t = 0.2)
movej(p[-0.238457943156574, -0.130669928971879, 0.397532894929072, 0.0177539631833359, 0.0100193659294438, -1.5008831145606], a = 0.2, v = 0.2, t = 0.2)
movej(p[-0.238442762808365, -0.130932596684316, 0.397951506538886, 0.0195188048510595, 0.0118791238473962, -1.49842748158531], a = 0.2, v = 0.2, t = 0.2)
movej(p[-0.238509094399749, -0.130937295133587, 0.397950963806046, 0.0192977033418591, 0.0123459743860006, -1.49473709196354], a = 0.2, v = 0.2, t = 0.2)
movej(p[-0.238924832530968, -0.130369579716632, 0.396514234373759, 0.0163480685011199, 0.0154907402931105, -1.48577081008808], a = 0.2, v = 0.2, t = 0.2)
movej(p[-0.239524518503918, -0.12986329381051, 0.39499445581913, 0.0117980909357273, 0.0201639452892701, -1.47857143658153], a = 0.2, v = 0.2, t = 0.2)
movej(p[-0.240071008844509, -0.129154002725552, 0.393290405231724, 0.0118994502422247, 0.0210140025044577, -1.46972781098368], a = 0.2, v = 0.2, t = 0.2)
movej(p[-0.240808437150482, -0.128540898767996, 0.391445492407013, 0.0172869457209275, 0.0265346120579687, -1.45133620312797], a = 0.2, v = 0.2, t = 0.2)
movej(p[-0.241480061367473, -0.12806064681215, 0.389876145087248, 0.0139263523882367, 0.0293293006640803, -1.44391283013987], a = 0.2, v = 0.2, t = 0.2)
movej(p[-0.242287591846418, -0.127473826295179, 0.387979973350184, 0.00988556101436457, 0.0308811724417153, -1.43648945798785], a = 0.2, v = 0.2, t = 0.2)
movej(p[-0.242287591846418, -0.127473826295179, 0.387979973350184, 0.00988556101436457, 0.0308811724417153, -1.43648945798785], a = 0.2, v = 0.2, t = 0.2)
movej(p[-0.241870611349916, -0.12781458522172, 0.389052247918343, 0.0146289867827276, 0.0291117213512759, -1.43857122901702], a = 0.2, v = 0.2, t = 0.2)
movej(p[-0.241327099892688, -0.128146500824739, 0.390230467998945, 0.0198261246024447, 0.0247336137399069, -1.44716607908058], a = 0.2, v = 0.2, t = 0.2)
movej(p[-0.240610990616462, -0.128767793399886, 0.392056216651025, 0.020222708575529, 0.0213733527318922, -1.46058276451278], a = 0.2, v = 0.2, t = 0.2)
movej(p[-0.240234565692496, -0.128997295315256, 0.392894730245106, 0.0188746500677359, 0.0193474044177642, -1.47207915185172], a = 0.2, v = 0.2, t = 0.2)
movej(p[-0.240034838274698, -0.129282450757921, 0.393535010123049, 0.0185166853162143, 0.0190028339045161, -1.47358149178094], a = 0.2, v = 0.2, t = 0.2)
movej(p[-0.239777333231614, -0.129347071872044, 0.394002182387204, 0.0177129329404987, 0.0182534323187312, -1.47847061214885], a = 0.2, v = 0.2, t = 0.2)
movej(p[-0.239374260334487, -0.129764678567248, 0.395111452213586, 0.0197930058738287, 0.0156730940818103, -1.48574646237361], a = 0.2, v = 0.2, t = 0.2)
movej(p[-0.239008365503456, -0.130228062088215, 0.396222952202395, 0.0203970519689276, 0.0138798243326017, -1.49221792920357], a = 0.2, v = 0.2, t = 0.2)
movej(p[-0.238782222774903, -0.130329971369069, 0.39668000676675, 0.0190202948380107, 0.0124365987940821, -1.49377271820334], a = 0.2, v = 0.2, t = 0.2)
movej(p[-0.23874543530753, -0.130501759922829, 0.396930348263592, 0.0182125613584955, 0.0122537101960187, -1.49605040137239], a = 0.2, v = 0.2, t = 0.2)
movej(p[-0.238650338807373, -0.130562710130158, 0.397218370759041, 0.0166355227970845, 0.011601021333623, -1.49622839298387], a = 0.2, v = 0.2, t = 0.2)
movej(p[-0.23862924874537, -0.130634471262434, 0.397271488356683, 0.0151672041933684, 0.0109160089216111, -1.49623925442368], a = 0.2, v = 0.2, t = 0.2)
movej(p[-0.23858309821771, -0.130656759186619, 0.39737454226118, 0.0133431393395239, 0.00953996760130908, -1.49788566959603], a = 0.2, v = 0.2, t = 0.2)
movej(p[-0.23858309821771, -0.130656759186619, 0.39737454226118, 0.0119806343947089, 0.0108065741237512, -1.49787428835338], a = 0.2, v = 0.2, t = 0.2)
movej(p[-0.23876932238159, -0.13060317835124, 0.397015154218993, 0.0152811029280828, 0.0146978895984971, -1.49407373144523], a = 0.2, v = 0.2, t = 0.2)
movej(p[-0.239450597637954, -0.129809452786319, 0.395100110017765, 0.018086522583471, 0.0191371209580453, -1.47386591471306], a = 0.2, v = 0.2, t = 0.2)
movej(p[-0.240347401788698, -0.128976890937737, 0.392748763205087, 0.0124059609490852, 0.0248046050779677, -1.46553968119602], a = 0.2, v = 0.2, t = 0.2)
movej(p[-0.241169544235473, -0.128314976508561, 0.390738557724132, 0.00991328473814243, 0.0269072364967728, -1.45040995181566], a = 0.2, v = 0.2, t = 0.2)
movej(p[-0.241904055043297, -0.127771829498365, 0.388995659867542, 0.00840023196630292, 0.0300906702820547, -1.43847911604195], a = 0.2, v = 0.2, t = 0.2)
movej(p[-0.242251833402048, -0.127589040483297, 0.388246151269089, 0.00682554667019663, 0.0313720747267698, -1.4351016411689], a = 0.2, v = 0.2, t = 0.2)
movej(p[-0.242251833402048, -0.127589040483297, 0.388246151269089, 0.00624425813866304, 0.0307872628068326, -1.43511853206572], a = 0.2, v = 0.2, t = 0.2)
movej(p[-0.241461116982915, -0.128127848567654, 0.390152031956002, 0.00928300117475025, 0.0246754623434544, -1.44783377466643], a = 0.2, v = 0.2, t = 0.2)
movej(p[-0.240930757808778, -0.128551971420832, 0.391444659992917, 0.0116551914956675, 0.0216321804194573, -1.45602883223074], a = 0.2, v = 0.2, t = 0.2)
movej(p[-0.240313660462411, -0.129011814280951, 0.392909467850318, 0.0106294847802167, 0.0209343864464425, -1.47572855129507], a = 0.2, v = 0.2, t = 0.2)
movej(p[-0.240013944163125, -0.129265245475863, 0.393846622340991, 0.0185365749379488, 0.0206043713872463, -1.4696741842628], a = 0.2, v = 0.2, t = 0.2)
movej(p[-0.240011744359531, -0.129268620749264, 0.393864296004834, 0.0191054414615045, 0.0207328297279137, -1.46899921219282], a = 0.2, v = 0.2, t = 0.2)
movej(p[-0.239884128799734, -0.129571869634846, 0.394150175773777, 0.0193055903626981, 0.0205520839187306, -1.46900235268633], a = 0.2, v = 0.2, t = 0.2)
movej(p[-0.239562028378585, -0.129919830031488, 0.394909832683878, 0.0177171466374715, 0.0187720933071437, -1.47280955564115], a = 0.2, v = 0.2, t = 0.2)
movej(p[-0.239252158917244, -0.13013475918572, 0.395657344547054, 0.0173085869789772, 0.0183069725300008, -1.47776150419687], a = 0.2, v = 0.2, t = 0.2)
movej(p[-0.239072910895174, -0.130306418913613, 0.396102642766682, 0.0153422418421454, 0.0150677134751174, -1.48468426386082], a = 0.2, v = 0.2, t = 0.2)
movej(p[-0.238719054375927, -0.13066467973667, 0.396991209340692, 0.0127036881667741, 0.0123883118648686, -1.49325873066289], a = 0.2, v = 0.2, t = 0.2)
movej(p[-0.23861115232525, -0.130702921522214, 0.397196213251138, 0.0107002232735016, 0.0103840323340641, -1.49328857086342], a = 0.2, v = 0.2, t = 0.2)
movej(p[-0.238542364798111, -0.130700021585694, 0.397353267784592, 0.0106847334813798, 0.0102751971319197, -1.48475806391238], a = 0.2, v = 0.2, t = 0.2)
movej(p[-0.238449447173192, -0.130913253692106, 0.397596271886974, 0.0195715113119138, 0.0118754973608379, -1.47544451586518], a = 0.2, v = 0.2, t = 0.2)
movej(p[-0.238420933920104, -0.130912299029497, 0.39768100070744, 0.0221243682773732, 0.0123016055760536, -1.47165275329314], a = 0.2, v = 0.2, t = 0.2)
movej(p[-0.238428660092179, -0.130803381346864, 0.397682373542092, 0.0221243682773732, 0.0123016055760536, -1.47165275329314], a = 0.2, v = 0.2, t = 0.2)
movej(p[-0.238734590940587, -0.13044063370803, 0.396938229606746, 0.0198825595376664, 0.0129058033621741, -1.47476933382905], a = 0.2, v = 0.2, t = 0.2)
movej(p[-0.238971894590788, -0.130218178077447, 0.396336059049492, 0.0171224862408062, 0.0154127347683664, -1.4747372371028], a = 0.2, v = 0.2, t = 0.2)
movej(p[-0.239202595528675, -0.130002855466098, 0.395748344433118, 0.0143472897104001, 0.0179591852987405, -1.47470144422873], a = 0.2, v = 0.2, t = 0.2)
movej(p[-0.239985080541387, -0.129201656554855, 0.393824163256746, 0.00917560576778559, 0.0227460852938163, -1.47322536931454], a = 0.2, v = 0.2, t = 0.2)
movej(p[-0.240829148300592, -0.128532727399388, 0.391786287678395, 0.0133034825170075, 0.0277365543413433, -1.46060899192626], a = 0.2, v = 0.2, t = 0.2)
movej(p[-0.241249387818547, -0.128401148218121, 0.390754450134687, 0.0121526298731844, 0.0287350381335114, -1.4593218210631], a = 0.2, v = 0.2, t = 0.2)
movej(p[-0.241249387818547, -0.128401148218121, 0.390754450134687, 0.00714487663491282, 0.0235732336112005, -1.45944941043562], a = 0.2, v = 0.2, t = 0.2)
movej(p[-0.240949703359493, -0.128511333803288, 0.391558168407357, 0.00754051569180606, 0.0221589636358392, -1.46438923545108], a = 0.2, v = 0.2, t = 0.2)
movej(p[-0.240745725293328, -0.128656318882958, 0.392070603413183, 0.00825834298629769, 0.0201610386540995, -1.46447062041195], a = 0.2, v = 0.2, t = 0.2)
movej(p[-0.240358022536608, -0.129122008457959, 0.392962806670388, 0.00925938378766647, 0.0191437662690428, -1.46918362945182], a = 0.2, v = 0.2, t = 0.2)
movej(p[-0.239694065567796, -0.129740949515106, 0.394586885301903, 0.00916766350568014, 0.015170130756568, -1.4849989601751], a = 0.2, v = 0.2, t = 0.2)
movej(p[-0.239508298583387, -0.129909886867018, 0.394996062450132, 0.00815334914008316, 0.0142219918290182, -1.49497407941493], a = 0.2, v = 0.2, t = 0.2)
movej(p[-0.239280282972269, -0.130124242497098, 0.39552376353497, 0.00816256537528641, 0.0142759722690301, -1.49850970501461], a = 0.2, v = 0.2, t = 0.2)
movej(p[-0.239010493109754, -0.130436944257803, 0.396134786888808, 0.012638559165194, 0.0145151981852517, -1.49916634626704], a = 0.2, v = 0.2, t = 0.2)
movej(p[-0.238834485497076, -0.13051536939948, 0.396610087969633, 0.0142648369766151, 0.0130068499511495, -1.49955548670971], a = 0.2, v = 0.2, t = 0.2)
movej(p[-0.238527932955211, -0.130759762016837, 0.397258378149766, 0.014656025337375, 0.0109791015644612, -1.49958031940922], a = 0.2, v = 0.2, t = 0.2)
movej(p[-0.238519454037669, -0.130817663380885, 0.397262480587916, 0.0145476157089479, 0.0108712158065814, -1.50025732056196], a = 0.2, v = 0.2, t = 0.2)
movej(p[-0.238492178357165, -0.130816866959469, 0.397352798985632, 0.0154916162676875, 0.00996159063418835, -1.49783987442137], a = 0.2, v = 0.2, t = 0.2)
movej(p[-0.238489663533625, -0.130817345478496, 0.397404916801032, 0.0173998712343127, 0.0112569461149507, -1.49739218399331], a = 0.2, v = 0.2, t = 0.2)
movej(p[-0.238500198579614, -0.130668830433221, 0.397406788733995, 0.017635183649786, 0.0113917365112018, -1.49504428337838], a = 0.2, v = 0.2, t = 0.2)
movej(p[-0.238637636980763, -0.130393530956131, 0.397191078989655, 0.0184879707519418, 0.0122461837316309, -1.49123432559714], a = 0.2, v = 0.2, t = 0.2)
movej(p[-0.238706385895709, -0.13037598522455, 0.396987087656514, 0.0184588413615045, 0.0122885736165696, -1.48957734193643], a = 0.2, v = 0.2, t = 0.2)
movej(p[-0.239420636752711, -0.129767600441865, 0.395217489473459, 0.0144012941597782, 0.0183755482573925, -1.48319888776621], a = 0.2, v = 0.2, t = 0.2)
movej(p[-0.240205668675943, -0.129140640621053, 0.393238298092467, 0.0134683444319576, 0.0227057756923793, -1.46697216359782], a = 0.2, v = 0.2, t = 0.2)
movej(p[-0.240860786049861, -0.128546579322857, 0.391704967403941, 0.0115621470436523, 0.0259995029801566, -1.45964622045246], a = 0.2, v = 0.2, t = 0.2)
movej(p[-0.241097875108674, -0.128413822535915, 0.391093420738745, 0.0115386432084163, 0.0258976691897074, -1.45450897752841], a = 0.2, v = 0.2, t = 0.2)
movej(p[-0.241097875108674, -0.128413822535915, 0.391093420738745, 0.0112184682603024, 0.0256184242389383, -1.45451583721703], a = 0.2, v = 0.2, t = 0.2)
movej(p[-0.241076913288026, -0.128479738521775, 0.391111610155536, 0.00812146743044988, 0.0225060178695505, -1.4580595252942], a = 0.2, v = 0.2, t = 0.2)
movej(p[-0.240558979285397, -0.128962320583992, 0.392382678832732, 0.0105652387495269, 0.015115485622233, -1.46530451837123], a = 0.2, v = 0.2, t = 0.2)
movej(p[-0.240199351514729, -0.129314950348851, 0.393191052116246, 0.011371968886353, 0.0140638386067247, -1.47032232397578], a = 0.2, v = 0.2, t = 0.2)
movej(p[-0.239737952071998, -0.129742759223501, 0.394268707553303, 0.0125294732463824, 0.013094759934872, -1.47533743775096], a = 0.2, v = 0.2, t = 0.2)
movej(p[-0.239444406421833, -0.129992099396375, 0.395005648466443, 0.0129103760884049, 0.0128379722733655, -1.48123284839969], a = 0.2, v = 0.2, t = 0.2)
movej(p[-0.239157598244934, -0.130287207261501, 0.395565420266023, 0.0124522420664114, 0.012518777686224, -1.49393486630719], a = 0.2, v = 0.2, t = 0.2)
movej(p[-0.238961288855873, -0.13044844944145, 0.39600407812036, 0.0111647029479347, 0.0112271161742231, -1.50108818899949], a = 0.2, v = 0.2, t = 0.2)
movej(p[-0.23879327006657, -0.130600662379964, 0.396354639352943, 0.0120748686870976, 0.0103782808683426, -1.5010960069403], a = 0.2, v = 0.2, t = 0.2)
movej(p[-0.238514208715026, -0.130811189253226, 0.397104485802364, 0.0153080151549682, 0.00962619427293269, -1.50083569150353], a = 0.2, v = 0.2, t = 0.2)
movej(p[-0.238356695535678, -0.130913714295706, 0.397438920809497, 0.0169508848617436, 0.00960915805005238, -1.49921499388024], a = 0.2, v = 0.2, t = 0.2)
movej(p[-0.238356980541636, -0.130914229807465, 0.397478216394736, 0.0170418198053775, 0.00957435262774511, -1.49921523495098], a = 0.2, v = 0.2, t = 0.2)
movej(p[-0.238388062868265, -0.130751632575473, 0.397480124042537, 0.0174435652561089, 0.0100787976918268, -1.49469695897818], a = 0.2, v = 0.2, t = 0.2)
movej(p[-0.238721733118691, -0.13039625961532, 0.396759284821093, 0.015146851040746, 0.0128876310867819, -1.49249657877739], a = 0.2, v = 0.2, t = 0.2)
movej(p[-0.239035258549513, -0.130101388259374, 0.39603609780678, 0.0144877322017416, 0.0155579823920673, -1.4885518811728], a = 0.2, v = 0.2, t = 0.2)
movej(p[-0.239492646929765, -0.129689999476917, 0.395026963767477, 0.0186317386099269, 0.0208997313429302, -1.47566497548505], a = 0.2, v = 0.2, t = 0.2)
movej(p[-0.240332798101991, -0.128986765774761, 0.393009868911513, 0.0169485122427705, 0.0272537089738818, -1.46449410564398], a = 0.2, v = 0.2, t = 0.2)
movej(p[-0.241211287685638, -0.128394859934967, 0.390589290371527, 0.0142850983444766, 0.0292252762828993, -1.44760557878888], a = 0.2, v = 0.2, t = 0.2)
movej(p[-0.242107956346632, -0.127719956190508, 0.388250677915795, 0.00923924853984462, 0.0328169268987827, -1.43773875473061], a = 0.2, v = 0.2, t = 0.2)
movej(p[-0.242756754656235, -0.127142927780913, 0.386521347609584, 0.00629137728076509, 0.0314192079630913, -1.42883921260653], a = 0.2, v = 0.2, t = 0.2)
movej(p[-0.242756754656235, -0.127142927780913, 0.386521347609584, 0.0012236394367458, 0.0263525220871262, -1.42898197910834], a = 0.2, v = 0.2, t = 0.2)
movej(p[-0.241888910693911, -0.127799259588906, 0.388791286927028, 0.00744967642737845, 0.0202309654691989, -1.43184909167498], a = 0.2, v = 0.2, t = 0.2)
movej(p[-0.24133786306253, -0.128259093562702, 0.390241614277832, 0.00986680246614748, 0.0168058109295053, -1.44863943862203], a = 0.2, v = 0.2, t = 0.2)
movej(p[-0.240832228196942, -0.128728142726125, 0.391403859051963, 0.0117342750011888, 0.0150855268504964, -1.46074093624889], a = 0.2, v = 0.2, t = 0.2)
movej(p[-0.240541841894205, -0.128956790591815, 0.39215174971155, 0.0117390323804115, 0.015144732556489, -1.46444581793821], a = 0.2, v = 0.2, t = 0.2)
movej(p[-0.240142928100894, -0.12935810233189, 0.392978871427372, 0.0118485352590976, 0.0153292611266881, -1.46925697886909], a = 0.2, v = 0.2, t = 0.2)
movej(p[-0.239777559003554, -0.129644276591632, 0.393956077033051, 0.0122891002423593, 0.0150054987576462, -1.47368574147897], a = 0.2, v = 0.2, t = 0.2)
movej(p[-0.239621536826983, -0.129794338567263, 0.394259374170999, 0.014737776812371, 0.0142542582389603, -1.48197757536333], a = 0.2, v = 0.2, t = 0.2)
movej(p[-0.239426817502037, -0.129917306729257, 0.394818336062034, 0.014737776812371, 0.0142542582389603, -1.48197757536333], a = 0.2, v = 0.2, t = 0.2)
movej(p[-0.239276061640619, -0.130041025061451, 0.395316662475669, 0.0191760613059385, 0.0147916083609709, -1.48196343310424], a = 0.2, v = 0.2, t = 0.2)
movej(p[-0.239116262482514, -0.130171455356646, 0.395674550652569, 0.0201326948679583, 0.0139404144413386, -1.48379863423261], a = 0.2, v = 0.2, t = 0.2)
movej(p[-0.238926421095172, -0.130312442509499, 0.396140230328293, 0.0197446069131953, 0.0135381854073111, -1.48427929003231], a = 0.2, v = 0.2, t = 0.2)
movej(p[-0.238926421095172, -0.130312442509499, 0.396140230328293, 0.018748516592297, 0.0144550717250375, -1.48451545016925], a = 0.2, v = 0.2, t = 0.2)
movej(p[-0.239060754682725, -0.13020565691945, 0.395876627264932, 0.0189078854658879, 0.0146235201862725, -1.48451287336363], a = 0.2, v = 0.2, t = 0.2)
movej(p[-0.239079558080337, -0.130205188751656, 0.395781386343805, 0.0189156600086456, 0.0146103803916691, -1.48389862394338], a = 0.2, v = 0.2, t = 0.2)
movej(p[-0.23909836147795, -0.130204720583862, 0.395686145422678, 0.0189164690187163, 0.0146010041819921, -1.48328258269424], a = 0.2, v = 0.2, t = 0.2)
movej(p[-0.239518646947201, -0.129818995806844, 0.394726549377078, 0.0174697756353543, 0.0163949317854683, -1.4766977465511], a = 0.2, v = 0.2, t = 0.2)
movej(p[-0.239525314870459, -0.129774459174689, 0.394727085283583, 0.0168652186407636, 0.0171754404327584, -1.47668621316797], a = 0.2, v = 0.2, t = 0.2)
movej(p[-0.239525322122519, -0.129774472292037, 0.394728085171248, 0.0168647288324986, 0.0171883686688998, -1.47744707794397], a = 0.2, v = 0.2, t = 0.2)
movej(p[-0.239270526757422, -0.130019265771519, 0.39539529687253, 0.0172723247759521, 0.0138311582280239, -1.48036823653387], a = 0.2, v = 0.2, t = 0.2)
movej(p[-0.238727820371875, -0.130460581896245, 0.39676129716431, 0.0187902689943122, 0.0119821845941883, -1.48951275310531], a = 0.2, v = 0.2, t = 0.2)
movej(p[-0.238390496102679, -0.130764121819649, 0.397542549583386, 0.021238367255617, 0.00975924791147203, -1.49287573606662], a = 0.2, v = 0.2, t = 0.2)
movej(p[-0.238390496102679, -0.130764121819649, 0.397542549583386, 0.021238367255617, 0.00975924791147203, -1.49287573606662], a = 0.2, v = 0.2, t = 0.2)
movej(p[-0.238574085185338, -0.130501704857377, 0.397381242278403, 0.018721893764647, 0.0127239140501856, -1.49117203309199], a = 0.2, v = 0.2, t = 0.2)
movej(p[-0.239451008224102, -0.1297289990345, 0.395213475114851, 0.0165597728590553, 0.0185253376212921, -1.4769942543905], a = 0.2, v = 0.2, t = 0.2)
movej(p[-0.240293756903542, -0.128951253742863, 0.393371158449715, 0.0130894104641831, 0.022175830796964, -1.46455858330751], a = 0.2, v = 0.2, t = 0.2)
movej(p[-0.241007629602016, -0.128360319094838, 0.391596133499992, 0.00989825631247063, 0.0256571678209441, -1.45513951881492], a = 0.2, v = 0.2, t = 0.2)
movej(p[-0.242209543375081, -0.127469162844104, 0.388104914569748, 0.00806899561172791, 0.0286615123309511, -1.43243636021461], a = 0.2, v = 0.2, t = 0.2)
movej(p[-0.24317614022958, -0.126685812406524, 0.3854708843378, 0.00500297320409245, 0.0309764276005502, -1.42048640931945], a = 0.2, v = 0.2, t = 0.2)
movej(p[-0.24317614022958, -0.126685812406524, 0.3854708843378, -0.00320839963382183, 0.0228350935684299, -1.42071154287237], a = 0.2, v = 0.2, t = 0.2)
movej(p[-0.242848940623719, -0.126936502352616, 0.386321364360407, -0.00104661684105885, 0.0184991997480995, -1.43158495425208], a = 0.2, v = 0.2, t = 0.2)
movej(p[-0.241891799399806, -0.127725703862248, 0.388801631996103, 0.00443362287368617, 0.0139308461567919, -1.44204746261833], a = 0.2, v = 0.2, t = 0.2)
movej(p[-0.241242384431296, -0.128334555057774, 0.390179709885912, 0.0092216736295974, 0.0144710971960583, -1.44822204297836], a = 0.2, v = 0.2, t = 0.2)
movej(p[-0.240739465881739, -0.128786779216452, 0.391479271086018, 0.0101398544614904, 0.0155567670458458, -1.45855937216555], a = 0.2, v = 0.2, t = 0.2)
movej(p[-0.240325469992496, -0.129138883632039, 0.392512170763728, 0.0101667519609301, 0.0157980837261924, -1.47330198583017], a = 0.2, v = 0.2, t = 0.2)
movej(p[-0.239776073453841, -0.129612976764852, 0.393883390211786, 0.0113002000402449, 0.0138455935162366, -1.4779046465351], a = 0.2, v = 0.2, t = 0.2)
movej(p[-0.239256748612433, -0.130027343543403, 0.395214870565352, 0.0135773298757788, 0.0118491361425754, -1.48340518256723], a = 0.2, v = 0.2, t = 0.2)
movej(p[-0.239048733696488, -0.130234417977806, 0.39564891159263, 0.0161030389067486, 0.0135711491594373, -1.49011882336453], a = 0.2, v = 0.2, t = 0.2)
movej(p[-0.238791232191558, -0.130428493860566, 0.396404018072995, 0.0172834797104139, 0.0128139237716209, -1.49034186289173], a = 0.2, v = 0.2, t = 0.2)
movej(p[-0.238686760805777, -0.130526139596326, 0.396697127779148, 0.0209055743978371, 0.0153771040335524, -1.49030238009227], a = 0.2, v = 0.2, t = 0.2)
movej(p[-0.23860641883561, -0.130579342979863, 0.396907936217807, 0.0248849440522795, 0.0159867090414384, -1.48606610920746], a = 0.2, v = 0.2, t = 0.2)
movej(p[-0.238444267104679, -0.13064572782997, 0.397551113610003, 0.030380155858343, 0.0157055179111287, -1.48149298226007], a = 0.2, v = 0.2, t = 0.2)
movej(p[-0.238444267104679, -0.13064572782997, 0.397551113610003, 0.030380155858343, 0.0157055179111287, -1.48149298226007], a = 0.2, v = 0.2, t = 0.2)
movej(p[-0.238641763944553, -0.130428069946858, 0.397259303664733, 0.0254449112092995, 0.0156267425538921, -1.4823150459858], a = 0.2, v = 0.2, t = 0.2)
movej(p[-0.239149051659138, -0.129962068407457, 0.396178416066549, 0.0153083323704869, 0.0170404825349684, -1.48290152877851], a = 0.2, v = 0.2, t = 0.2)
movej(p[-0.239770665632209, -0.129402512217995, 0.394818995267342, 0.0110069093992639, 0.0209794572948598, -1.48284205844502], a = 0.2, v = 0.2, t = 0.2)
movej(p[-0.2401794383505, -0.129058043941373, 0.393912247473751, 0.0151782821401482, 0.026971374399414, -1.47158891892755], a = 0.2, v = 0.2, t = 0.2)
movej(p[-0.241050431052791, -0.128322887260744, 0.391638818902742, 0.0122607276270857, 0.0292712273862687, -1.45395238538442], a = 0.2, v = 0.2, t = 0.2)
movej(p[-0.241873298516922, -0.127678323375362, 0.389267039953485, 0.007265713653854, 0.0335177206909819, -1.4473414699686], a = 0.2, v = 0.2, t = 0.2)
movej(p[-0.242756034930679, -0.127028899825231, 0.386610258561205, 0.00438629742908418, 0.030480442893476, -1.43080577389689], a = 0.2, v = 0.2, t = 0.2)
movej(p[-0.242756034930679, -0.127028899825231, 0.386610258561205, 0.0021944824455211, 0.0282848569527102, -1.43086846626764], a = 0.2, v = 0.2, t = 0.2)
movej(p[-0.242344664774068, -0.127325499157658, 0.387814386511323, 0.00821960974158444, 0.0209869173293125, -1.43198775237494], a = 0.2, v = 0.2, t = 0.2)
movej(p[-0.241398800823167, -0.128122989001893, 0.390347869620548, 0.0130719239942918, 0.0159079375495386, -1.44347746382266], a = 0.2, v = 0.2, t = 0.2)
movej(p[-0.240927475227027, -0.128568432053273, 0.391345256712103, 0.0109057208299324, 0.0139056652333589, -1.45786274703748], a = 0.2, v = 0.2, t = 0.2)
movej(p[-0.240368549195602, -0.12904979001896, 0.392741952835196, 0.0103098045873448, 0.0134720414764168, -1.47171240491997], a = 0.2, v = 0.2, t = 0.2)
movej(p[-0.23976403055745, -0.129588870703014, 0.393979504552179, 0.0108237868453859, 0.0131073687785575, -1.47797021533134], a = 0.2, v = 0.2, t = 0.2)
movej(p[-0.239212117745696, -0.130055866078299, 0.39539834070117, 0.0162074682999398, 0.0129308486703804, -1.47796109870198], a = 0.2, v = 0.2, t = 0.2)
movej(p[-0.238849359528063, -0.13033568855428, 0.396517126595556, 0.0281091413462146, 0.016154479957472, -1.47767195331165], a = 0.2, v = 0.2, t = 0.2)
movej(p[-0.238652808200065, -0.130490142036616, 0.397038984600435, 0.0317027569510448, 0.0171210770059112, -1.47728712869484], a = 0.2, v = 0.2, t = 0.2)
movej(p[-0.238582141287242, -0.130522686852467, 0.397322201994663, 0.0317924298354061, 0.0171242555872644, -1.47487472611802], a = 0.2, v = 0.2, t = 0.2)
movej(p[-0.238538069591048, -0.130549164065649, 0.397507295086854, 0.0347655277897021, 0.0184279740852227, -1.47485872944902], a = 0.2, v = 0.2, t = 0.2)
movej(p[-0.238523360759088, -0.130550122400083, 0.397666107025503, 0.0377059203955512, 0.0173668068625611, -1.47251149202458], a = 0.2, v = 0.2, t = 0.2)
movej(p[-0.238526552131444, -0.130516956380413, 0.397769030493583, 0.0377059203955512, 0.0173668068625611, -1.47251149202458], a = 0.2, v = 0.2, t = 0.2)
movej(p[-0.238563249516362, -0.130471639781535, 0.397769358832408, 0.0310470338010012, 0.0165444010073515, -1.47744357252205], a = 0.2, v = 0.2, t = 0.2)
movej(p[-0.239083082039658, -0.130036726433162, 0.396554857454422, 0.0236942865050865, 0.0232403995186204, -1.4773216869621], a = 0.2, v = 0.2, t = 0.2)
movej(p[-0.239570766379093, -0.129607258555497, 0.395428327669142, 0.0214395223525038, 0.0250607765704304, -1.47095299657935], a = 0.2, v = 0.2, t = 0.2)
movej(p[-0.240136848698773, -0.129130569785822, 0.394027717961118, 0.0177591367069589, 0.0283284612655557, -1.46816788491844], a = 0.2, v = 0.2, t = 0.2)
movej(p[-0.240232337525066, -0.129059093490459, 0.393745531350425, 0.0140768378968756, 0.0279866484003136, -1.46642941893444], a = 0.2, v = 0.2, t = 0.2)
movej(p[-0.240684203821874, -0.128689350275884, 0.392667083291831, 0.0104360120330096, 0.0301304719136315, -1.46565325882919], a = 0.2, v = 0.2, t = 0.2)
movej(p[-0.241560308520231, -0.127956372337257, 0.390338882916218, 0.00885520945926531, 0.0305148231344706, -1.44542114340382], a = 0.2, v = 0.2, t = 0.2)
movej(p[-0.242710619884683, -0.127025039750812, 0.386981180215228, 0.00872977713159705, 0.0299918062848425, -1.42919784149973], a = 0.2, v = 0.2, t = 0.2)
movej(p[-0.242710619884683, -0.127025039750812, 0.386981180215228, 0.00615331628286161, 0.026703456214718, -1.42928489545195], a = 0.2, v = 0.2, t = 0.2)
movej(p[-0.242070118647765, -0.127560402739875, 0.388579682193784, 0.0115725932871027, 0.0207251394540243, -1.43279768165325], a = 0.2, v = 0.2, t = 0.2)
movej(p[-0.240994754670627, -0.128508087698456, 0.391142537582984, 0.0109880394750273, 0.0175471718106474, -1.45728586795616], a = 0.2, v = 0.2, t = 0.2)
movej(p[-0.240576296962101, -0.128909927544561, 0.391803375425619, 0.0135539398647952, 0.0149620848949325, -1.46210022660622], a = 0.2, v = 0.2, t = 0.2)
movej(p[-0.240056256200974, -0.129382025611279, 0.39278746466556, 0.0136700090755527, 0.0149572031158891, -1.46818849794746], a = 0.2, v = 0.2, t = 0.2)
movej(p[-0.239661870802379, -0.12974956368686, 0.393606095608276, 0.0140653853277633, 0.0147710494398889, -1.47889406005313], a = 0.2, v = 0.2, t = 0.2)
movej(p[-0.239293749589687, -0.130059451166574, 0.394587010534599, 0.0206546689224682, 0.017188358503375, -1.47884831095068], a = 0.2, v = 0.2, t = 0.2)
movej(p[-0.238994734697855, -0.13027037275721, 0.395695236769204, 0.0316757787722286, 0.0180529072831383, -1.47180662007643], a = 0.2, v = 0.2, t = 0.2)
movej(p[-0.238897059373411, -0.130357053073023, 0.395915332825156, 0.0386245462810479, 0.0232721200379623, -1.46683594503015], a = 0.2, v = 0.2, t = 0.2)
movej(p[-0.238836072952496, -0.130405889838429, 0.396211667782271, 0.0410238544056233, 0.0235217495539367, -1.46584130968409], a = 0.2, v = 0.2, t = 0.2)
movej(p[-0.23878643803767, -0.13042971259003, 0.396551553427358, 0.0440802400865792, 0.0244878513558827, -1.46332039384883], a = 0.2, v = 0.2, t = 0.2)
movej(p[-0.238735007186824, -0.130446752111135, 0.396944046984378, 0.0464252265133544, 0.0223823256771522, -1.4633705977649], a = 0.2, v = 0.2, t = 0.2)
movej(p[-0.238652573819004, -0.130488853526706, 0.397550560669859, 0.0467207375353962, 0.0218140621323856, -1.46338236113115], a = 0.2, v = 0.2, t = 0.2)
movej(p[-0.238652573819004, -0.130488853526706, 0.397550560669859, 0.0469574086569767, 0.0215115503124881, -1.46427053303574], a = 0.2, v = 0.2, t = 0.2)
movej(p[-0.238681188579321, -0.130446152685153, 0.397541412247993, 0.0448107545243398, 0.0192874442821638, -1.46430082854462], a = 0.2, v = 0.2, t = 0.2)
movej(p[-0.238807180492221, -0.130316576086458, 0.397139253071852, 0.0251992806183006, 0.0124988448475352, -1.48085347715479], a = 0.2, v = 0.2, t = 0.2)
movej(p[-0.238902445673295, -0.130242669565056, 0.396808694527311, 0.0199582756014698, 0.0128080577465646, -1.48377739917757], a = 0.2, v = 0.2, t = 0.2)
movej(p[-0.239297419755748, -0.12990372006237, 0.396027688535772, 0.015504050524192, 0.0168904921246046, -1.48372400907006], a = 0.2, v = 0.2, t = 0.2)
movej(p[-0.239930121995578, -0.129358850762962, 0.394569983630013, 0.0160328480885249, 0.0207984339759506, -1.47215947400273], a = 0.2, v = 0.2, t = 0.2)
movej(p[-0.24076390154852, -0.128674939834775, 0.392125233477256, 0.0132471750690821, 0.0272327351352146, -1.45846115942039], a = 0.2, v = 0.2, t = 0.2)
movej(p[-0.241498153265314, -0.128079549977644, 0.39003318356523, 0.0111161852663878, 0.0289109042726744, -1.44972623543613], a = 0.2, v = 0.2, t = 0.2)
movej(p[-0.241826850130738, -0.12779002033908, 0.388821161544368, 0.0110330512120632, 0.0286058771321592, -1.44053664345143], a = 0.2, v = 0.2, t = 0.2)
movej(p[-0.241826850130738, -0.12779002033908, 0.388821161544368, 0.0103361338243813, 0.022664566578846, -1.44067035313888], a = 0.2, v = 0.2, t = 0.2)
movej(p[-0.241106156678967, -0.128374367940181, 0.390796044814251, 0.0119676030615904, 0.0144575723981386, -1.45622527606893], a = 0.2, v = 0.2, t = 0.2)
movej(p[-0.240476875990211, -0.128940428526269, 0.391887405780034, 0.0146384425711184, 0.0120106444289705, -1.46115465049412], a = 0.2, v = 0.2, t = 0.2)
movej(p[-0.240050564506425, -0.129307356443316, 0.392805487428083, 0.0156768517227991, 0.0107606887425221, -1.47069690013632], a = 0.2, v = 0.2, t = 0.2)
movej(p[-0.239637846912526, -0.129677756990529, 0.393858940147625, 0.0156426135861217, 0.0108086075654896, -1.47716337406206], a = 0.2, v = 0.2, t = 0.2)
movej(p[-0.239223005649634, -0.130044298115034, 0.394570420478097, 0.0153030513605558, 0.0105612810648713, -1.48581052553342], a = 0.2, v = 0.2, t = 0.2)
movej(p[-0.238897721776492, -0.13031162652236, 0.395664295696991, 0.0143189694704083, 0.00913054125862925, -1.49064965586365], a = 0.2, v = 0.2, t = 0.2)
movej(p[-0.238688606538501, -0.130493925498421, 0.396214982795594, 0.0141841668522404, 0.00870073595295751, -1.49467082554954], a = 0.2, v = 0.2, t = 0.2)
movej(p[-0.238592554244574, -0.130584195739698, 0.396456222366085, 0.0139222839499402, 0.00846878886723889, -1.49914390355494], a = 0.2, v = 0.2, t = 0.2)
movej(p[-0.238468424493903, -0.130698872887889, 0.396858963544364, 0.0130587245825173, 0.00854673048718426, -1.50365177357988], a = 0.2, v = 0.2, t = 0.2)
movej(p[-0.23837438906412, -0.130783517528744, 0.397175470736573, 0.0128346469768823, 0.00832430391673658, -1.50552572353867], a = 0.2, v = 0.2, t = 0.2)
movej(p[-0.238368424579437, -0.130791305902193, 0.39744514212208, 0.0138318550218033, 0.00739076650673843, -1.50558686000948], a = 0.2, v = 0.2, t = 0.2)
movej(p[-0.238283205098206, -0.130852149959317, 0.397971421145728, 0.0138906863061394, 0.00747305289904971, -1.50747273954564], a = 0.2, v = 0.2, t = 0.2)
movej(p[-0.238277339163188, -0.130867435066138, 0.39802396908875, 0.0132036295451287, 0.00812582832868845, -1.50746781008673], a = 0.2, v = 0.2, t = 0.2)
movej(p[-0.238283587281767, -0.130852841243533, 0.398024115225678, 0.015496424047736, 0.0105643813683346, -1.50418468650737], a = 0.2, v = 0.2, t = 0.2)
movej(p[-0.238532103056466, -0.130610274656927, 0.397735962434979, 0.0167994249572361, 0.0122363088091233, -1.49556735530439], a = 0.2, v = 0.2, t = 0.2)
movej(p[-0.239197291288002, -0.130020585397299, 0.396405324131868, 0.0196956089217634, 0.0195425651113689, -1.47942235390699], a = 0.2, v = 0.2, t = 0.2)
movej(p[-0.239775633105843, -0.12954018919578, 0.395110886075682, 0.0169532797020838, 0.0236697102093245, -1.47396518776918], a = 0.2, v = 0.2, t = 0.2)
movej(p[-0.240389679194996, -0.1290206339802, 0.393650684131306, 0.0179346143562835, 0.0277308013679333, -1.45948740318342], a = 0.2, v = 0.2, t = 0.2)
movej(p[-0.240981082081424, -0.128525659528914, 0.391865887499054, 0.0132484262268835, 0.0318504851657742, -1.45672277090618], a = 0.2, v = 0.2, t = 0.2)
movej(p[-0.241703089372477, -0.127896625437835, 0.389909782978859, 0.0121400480016427, 0.0317486245773159, -1.44318237422858], a = 0.2, v = 0.2, t = 0.2)
movej(p[-0.241701893507786, -0.127894462387224, 0.389744901502884, 0.0112166003728424, 0.0308119874266397, -1.44320841182315], a = 0.2, v = 0.2, t = 0.2)
movej(p[-0.241648720291637, -0.127931795458971, 0.389744797395665, 0.0121960705590068, 0.0230923611042243, -1.44420470935423], a = 0.2, v = 0.2, t = 0.2)
movej(p[-0.241000832205118, -0.128490112612869, 0.391607181489511, 0.011005089127842, 0.0153145969933382, -1.45994504733945], a = 0.2, v = 0.2, t = 0.2)
movej(p[-0.240411532908823, -0.128960141233042, 0.392379376339018, 0.0129915990979198, 0.0135952506416782, -1.46367121501718], a = 0.2, v = 0.2, t = 0.2)
movej(p[-0.240009080409533, -0.129326280832316, 0.393180182126745, 0.0139933776558058, 0.0128653625881388, -1.47512787524127], a = 0.2, v = 0.2, t = 0.2)
movej(p[-0.239594659855417, -0.129655118414979, 0.393984264379102, 0.0136753243251111, 0.0113271943556432, -1.47778931691413], a = 0.2, v = 0.2, t = 0.2)
movej(p[-0.239258461722927, -0.12996154103121, 0.394781072565539, 0.0140456779619417, 0.0105049899156599, -1.48573514559192], a = 0.2, v = 0.2, t = 0.2)
movej(p[-0.238857504200571, -0.130317366548518, 0.395773324311064, 0.0142764877189335, 0.00932039477955913, -1.49457144609652], a = 0.2, v = 0.2, t = 0.2)
movej(p[-0.238694443141479, -0.130433775186485, 0.39601550707266, 0.0152759730592468, 0.00839731090689816, -1.49483759937769], a = 0.2, v = 0.2, t = 0.2)
movej(p[-0.238532439035531, -0.130564456723211, 0.396461417832359, 0.0156787303312218, 0.00884703413390938, -1.49653044313213], a = 0.2, v = 0.2, t = 0.2)
movej(p[-0.238482145408945, -0.130642847164313, 0.396727584189866, 0.0158923719059815, 0.00908005227858611, -1.49690807295956], a = 0.2, v = 0.2, t = 0.2)
movej(p[-0.238446853331476, -0.130646206665578, 0.396866611680023, 0.0160119270616012, 0.0089692629338182, -1.49692999202317], a = 0.2, v = 0.2, t = 0.2)
movej(p[-0.238345618632937, -0.130749664829137, 0.397189024961704, 0.0170085708689891, 0.0079439605931099, -1.49766849329963], a = 0.2, v = 0.2, t = 0.2)
movej(p[-0.238347633980407, -0.130753310140022, 0.397466893743836, 0.0153383862443874, 0.00616839038001337, -1.49904272998308], a = 0.2, v = 0.2, t = 0.2)
movej(p[-0.238556492772917, -0.13058736672695, 0.39746755589915, 0.0145175414004649, 0.00693234676092834, -1.4990374157065], a = 0.2, v = 0.2, t = 0.2)
movej(p[-0.239121830297245, -0.130138468680361, 0.396645352027015, 0.0194117174371065, 0.0150926409458254, -1.48324354566579], a = 0.2, v = 0.2, t = 0.2)
movej(p[-0.239647721109401, -0.129711451652951, 0.395418701770425, 0.016035115069872, 0.0205767718468093, -1.47793116039638], a = 0.2, v = 0.2, t = 0.2)
movej(p[-0.240274234073212, -0.129204812352233, 0.394197166803613, 0.0139442616633495, 0.0276307602827864, -1.46860792285811], a = 0.2, v = 0.2, t = 0.2)
movej(p[-0.240587065503782, -0.128914154660625, 0.393303110355531, 0.0130279732232953, 0.029935277289799, -1.46132846201091], a = 0.2, v = 0.2, t = 0.2)
movej(p[-0.241072691551693, -0.128472076658503, 0.391521787352359, 0.0126110720668066, 0.0326099107692268, -1.45012862987432], a = 0.2, v = 0.2, t = 0.2)
movej(p[-0.241809348964542, -0.127850004673816, 0.389566285331915, 0.0108073811416463, 0.0338949756086507, -1.43941864893207], a = 0.2, v = 0.2, t = 0.2)
movej(p[-0.241809348964542, -0.127850004673816, 0.389566285331915, 0.00892705168148122, 0.0319949207761513, -1.43947430745071], a = 0.2, v = 0.2, t = 0.2)
movej(p[-0.241569081071522, -0.127990385622678, 0.38980631330691, 0.0142305111453864, 0.0211391616729073, -1.44241172100762], a = 0.2, v = 0.2, t = 0.2)
movej(p[-0.240771354408961, -0.128647944569469, 0.391540367834119, 0.0156569650402291, 0.012599323432402, -1.45640074025792], a = 0.2, v = 0.2, t = 0.2)
movej(p[-0.240119915578936, -0.129202287810248, 0.392860868932997, 0.0156566252576252, 0.0128205942001655, -1.47189612731684], a = 0.2, v = 0.2, t = 0.2)
movej(p[-0.239545421992069, -0.12969067060362, 0.393971853710475, 0.0136609145240804, 0.010933588155269, -1.47928830483939], a = 0.2, v = 0.2, t = 0.2)
movej(p[-0.239173717149191, -0.129976041966633, 0.394682385838498, 0.0130372835174759, 0.0124791657174286, -1.48760313759034], a = 0.2, v = 0.2, t = 0.2)
movej(p[-0.238797806192801, -0.130298799390301, 0.395447564202236, 0.0130416286288377, 0.0125483879058029, -1.49252975360982], a = 0.2, v = 0.2, t = 0.2)
movej(p[-0.238649328285251, -0.130412099491644, 0.395925808499646, 0.0158317836391779, 0.0112617714171924, -1.49414105502415], a = 0.2, v = 0.2, t = 0.2)
movej(p[-0.238507097304416, -0.130597541089259, 0.396922119385848, 0.0161095780374794, 0.0110652516700879, -1.49889937786237], a = 0.2, v = 0.2, t = 0.2)
movej(p[-0.238396893733113, -0.130668152484674, 0.397162819393554, 0.016598910383922, 0.00976369142369771, -1.50010577587226], a = 0.2, v = 0.2, t = 0.2)
movej(p[-0.238343873860995, -0.130730010531079, 0.397381517050733, 0.0163863044433168, 0.0095208734561416, -1.50167972894061], a = 0.2, v = 0.2, t = 0.2)
movej(p[-0.238310404857313, -0.130765502618687, 0.397482405541205, 0.0159520957569534, 0.00902096097297939, -1.50247484114176], a = 0.2, v = 0.2, t = 0.2)
movej(p[-0.238311035061326, -0.130766642516189, 0.397569295779303, 0.0164071550436558, 0.00951064731065324, -1.50246875251796], a = 0.2, v = 0.2, t = 0.2)
movej(p[-0.238395180133803, -0.130718070754294, 0.397569322689895, 0.01721986324379, 0.0103707023838446, -1.50135291490525], a = 0.2, v = 0.2, t = 0.2)
movej(p[-0.238950915092236, -0.130314735715655, 0.397242246410441, 0.0192680409303714, 0.0130033897851334, -1.48674986977751], a = 0.2, v = 0.2, t = 0.2)
movej(p[-0.239840564612232, -0.129621470125656, 0.395602204190468, 0.0183881732355795, 0.022787287519414, -1.47110962707182], a = 0.2, v = 0.2, t = 0.2)
movej(p[-0.240509658632029, -0.129052129846491, 0.393724309161668, 0.0141893811049628, 0.0281098709380931, -1.46136696751968], a = 0.2, v = 0.2, t = 0.2)
movej(p[-0.241023027140262, -0.128589354675045, 0.39202996623137, 0.0109982391876699, 0.0307498997673288, -1.45319878554388], a = 0.2, v = 0.2, t = 0.2)
movej(p[-0.24175402745123, -0.127964285060935, 0.390202558947024, 0.00891827090868345, 0.0309154155033408, -1.44529377142703], a = 0.2, v = 0.2, t = 0.2)
movej(p[-0.24175402745123, -0.127964285060935, 0.390202558947024, 0.00840476056548576, 0.0303934918978798, -1.44530837788887], a = 0.2, v = 0.2, t = 0.2)
movej(p[-0.241606568106793, -0.128066866398535, 0.390222384963131, 0.00816862258380992, 0.0258926767549394, -1.44743290048644], a = 0.2, v = 0.2, t = 0.2)
movej(p[-0.241020291164587, -0.128542440776021, 0.391473238918842, 0.0112627161031225, 0.0200585296820232, -1.45835492021205], a = 0.2, v = 0.2, t = 0.2)
movej(p[-0.240435950663052, -0.128976438499272, 0.392429291090263, 0.0112925824921918, 0.0132012549149864, -1.46962070451538], a = 0.2, v = 0.2, t = 0.2)
movej(p[-0.240011614504026, -0.129314881077786, 0.39323191909575, 0.013328985448619, 0.0114053279342845, -1.47274989765757], a = 0.2, v = 0.2, t = 0.2)
movej(p[-0.239708791566175, -0.129605183904698, 0.394280124932882, 0.0150960684009733, 0.0114291417595758, -1.47743957105579], a = 0.2, v = 0.2, t = 0.2)
movej(p[-0.239188134380983, -0.129984580635399, 0.395048010351575, 0.0152854609804914, 0.011378584675729, -1.48655300519989], a = 0.2, v = 0.2, t = 0.2)
movej(p[-0.23895692282458, -0.130142749339222, 0.395335844691633, 0.0161249819777471, 0.0106264781244587, -1.48810881326368], a = 0.2, v = 0.2, t = 0.2)
movej(p[-0.238833670342093, -0.130252978794898, 0.395770541439565, 0.0178452643854475, 0.0102889994910102, -1.48881872723567], a = 0.2, v = 0.2, t = 0.2)
movej(p[-0.238674703522289, -0.130415546838647, 0.396263317170859, 0.0190526362675939, 0.0114087405509919, -1.49210985706942], a = 0.2, v = 0.2, t = 0.2)
movej(p[-0.238541559486099, -0.130589300878907, 0.396933478829805, 0.0190476377399276, 0.011459714416627, -1.49599295301528], a = 0.2, v = 0.2, t = 0.2)
movej(p[-0.238423688970766, -0.130689170142946, 0.397311366063931, 0.01805649282741, 0.0105320758752912, -1.50058010893369], a = 0.2, v = 0.2, t = 0.2)
movej(p[-0.238416086690337, -0.130697086388756, 0.3973697239116, 0.0167346625005766, 0.0110714067444594, -1.50123023884763], a = 0.2, v = 0.2, t = 0.2)
movej(p[-0.238416133828727, -0.130697171651515, 0.397376223181423, 0.0167346625005766, 0.0110714067444594, -1.50123023884763], a = 0.2, v = 0.2, t = 0.2)
movej(p[-0.238684851357782, -0.130528250728439, 0.397376490250241, 0.0167788391582131, 0.0110107474958188, -1.49318075409699], a = 0.2, v = 0.2, t = 0.2)
movej(p[-0.239268039328587, -0.130096368644165, 0.396395915930777, 0.0202454555310273, 0.0158011167377187, -1.4818899671113], a = 0.2, v = 0.2, t = 0.2)
movej(p[-0.239916988146757, -0.129626622325028, 0.395270645133568, 0.0148883505844771, 0.0217698798471959, -1.47481904900472], a = 0.2, v = 0.2, t = 0.2)
movej(p[-0.240482622920699, -0.129123337254866, 0.393695367922833, 0.00962015156384016, 0.0274824818502925, -1.46887848853864], a = 0.2, v = 0.2, t = 0.2)
movej(p[-0.241055787143617, -0.128590065364941, 0.391726985296162, 0.010441539015997, 0.0325901792321099, -1.4553502545645], a = 0.2, v = 0.2, t = 0.2)
movej(p[-0.241763490735378, -0.127970980382204, 0.390020282017803, 0.00979788228645677, 0.032715365055403, -1.43986333579648], a = 0.2, v = 0.2, t = 0.2)
movej(p[-0.241971055283075, -0.127775179082751, 0.389297963999427, 0.00667055819366002, 0.0283718516995003, -1.43998240210916], a = 0.2, v = 0.2, t = 0.2)
movej(p[-0.241971055283075, -0.127775179082751, 0.389297963999427, 0.00970644511267462, 0.0257321933814964, -1.44097837392513], a = 0.2, v = 0.2, t = 0.2)
movej(p[-0.24172993999764, -0.128023342470977, 0.390171455460103, 0.0135288599180285, 0.0222586230558593, -1.44327097893174], a = 0.2, v = 0.2, t = 0.2)
movej(p[-0.241025797445306, -0.128594871478609, 0.39165663183664, 0.0170719281305467, 0.0162542356463344, -1.45754638528639], a = 0.2, v = 0.2, t = 0.2)
movej(p[-0.240233213726922, -0.129160405740135, 0.392805990504939, 0.0177135473750548, 0.0158521717482442, -1.46862908730558], a = 0.2, v = 0.2, t = 0.2)
movej(p[-0.239815400685963, -0.129498655020983, 0.393779292912627, 0.0185215602006331, 0.0165725742747885, -1.47193353016393], a = 0.2, v = 0.2, t = 0.2)
movej(p[-0.239508554361855, -0.129741357320855, 0.394438308600618, 0.0198337913520063, 0.0154422237154778, -1.47601839799046], a = 0.2, v = 0.2, t = 0.2)
movej(p[-0.239037347350039, -0.13017103997342, 0.395632323655004, 0.0176011944259998, 0.0126484560541293, -1.48698697989925], a = 0.2, v = 0.2, t = 0.2)
movej(p[-0.23889017130501, -0.13027125600188, 0.395948111890075, 0.0185771542558245, 0.0117734273210557, -1.4888052051801], a = 0.2, v = 0.2, t = 0.2)
movej(p[-0.238685118001534, -0.1304620616567, 0.396554264176899, 0.0185748633382682, 0.01180103876569, -1.49086629079371], a = 0.2, v = 0.2, t = 0.2)
movej(p[-0.238474125984527, -0.130606662571035, 0.396757520355976, 0.0163787038962703, 0.0139263450196229, -1.49401996115223], a = 0.2, v = 0.2, t = 0.2)
movej(p[-0.238434586760957, -0.130651266511782, 0.397114362097185, 0.0158035631992878, 0.0133514655402961, -1.4966871683538], a = 0.2, v = 0.2, t = 0.2)
movej(p[-0.238476316052073, -0.130671057356486, 0.397582652475827, 0.0156370932166807, 0.0116943938878372, -1.4950123067955], a = 0.2, v = 0.2, t = 0.2)
movej(p[-0.238638105286997, -0.130682517333505, 0.397581328697383, 0.0162985887199077, 0.011081222645932, -1.49501867363076], a = 0.2, v = 0.2, t = 0.2)
movej(p[-0.239251113331954, -0.130292773346438, 0.397167048995535, 0.020187568116965, 0.0150320502610662, -1.48328561757471], a = 0.2, v = 0.2, t = 0.2)
movej(p[-0.239669269528904, -0.12991277210071, 0.396021272399423, 0.0193302447131275, 0.0174483874657606, -1.4767295578226], a = 0.2, v = 0.2, t = 0.2)
movej(p[-0.240035863159418, -0.129570709078963, 0.394771160368756, 0.0175397035465041, 0.0190145154392076, -1.47304300105339], a = 0.2, v = 0.2, t = 0.2)
movej(p[-0.240508436840997, -0.129108416973419, 0.393241325428434, 0.017244959704404, 0.0187266111932368, -1.46723544261672], a = 0.2, v = 0.2, t = 0.2)
movej(p[-0.241096759031399, -0.128611978390168, 0.391827011961291, 0.0148202413110518, 0.0182362602309716, -1.45922820765149], a = 0.2, v = 0.2, t = 0.2)
movej(p[-0.241643294722965, -0.128009482621562, 0.389607202235964, 0.0108353658580278, 0.0151679574045767, -1.45112747188408], a = 0.2, v = 0.2, t = 0.2)
movej(p[-0.242560322038428, -0.127346680551399, 0.387986864083453, 0.0101798118698205, 0.0144103686616585, -1.44227323617545], a = 0.2, v = 0.2, t = 0.2)
movej(p[-0.242560322038428, -0.127346680551399, 0.387986864083453, 0.0101984241428887, 0.0143940068773094, -1.44227342836274], a = 0.2, v = 0.2, t = 0.2)
movej(p[-0.242048275744229, -0.127742544910936, 0.389018500672299, 0.0108032415977912, 0.0141151583480762, -1.44912712761683], a = 0.2, v = 0.2, t = 0.2)
movej(p[-0.241229895704825, -0.128388599514037, 0.390775358447111, 0.0120256169375135, 0.0143289506263338, -1.45914379858847], a = 0.2, v = 0.2, t = 0.2)
