def moving():
set_payload_mass(0)
set_tcp(p[0,0,0,0,0,0])
movej(p[-0.4025, -0.1161, 0.3402, -1.113, -1.287, 1.334], a = 0.2, v = 0.2, t = 0.2)
movej(p[-0.402554929322023, -0.116057477575295, 0.340251716660558, -1.11260983990136, -1.28658824067133, 1.33570893381171], a = 0.2, v = 0.2, t = 0.2)
movej(p[-0.4025, -0.1161, 0.3402, -1.113, -1.287, 1.334], a = 0.2, v = 0.2, t = 0.2)
movej(p[-0.402554929322023, -0.116057477575295, 0.340251716660558, -1.11260983990136, -1.28658824067133, 1.33570893381171], a = 0.2, v = 0.2, t = 0.2)
movej(p[-0.4025, -0.1161, 0.3402, -1.113, -1.287, 1.334], a = 0.2, v = 0.2, t = 0.2)
movej(p[-0.4025, -0.1161, 0.3402, -1.113, -1.287, 1.334], a = 0.2, v = 0.2, t = 0.2)
movej(p[-0.40200590949419, -0.115711206534094, 0.340030733765807, -1.12966549899554, -1.29570649503634, 1.33550907602941], a = 0.2, v = 0.2, t = 0.2)
movej(p[-0.401090866360158, -0.115254427784642, 0.339619142205629, -1.15773037082887, -1.30589201961651, 1.33243259614663], a = 0.2, v = 0.2, t = 0.2)
movej(p[-0.399649447399262, -0.114510594566976, 0.339162762666359, -1.18357926226049, -1.30614352180341, 1.31102282796519], a = 0.2, v = 0.2, t = 0.2)
movej(p[-0.398069964855001, -0.113746425331567, 0.339207672304841, -1.21752485372954, -1.31955116753187, 1.29406288467398], a = 0.2, v = 0.2, t = 0.2)
movej(p[-0.396403250041131, -0.112786130506239, 0.339535438060489, -1.24036105752386, -1.32820348522063, 1.27000754957528], a = 0.2, v = 0.2, t = 0.2)
movej(p[-0.394876236853136, -0.112042926483014, 0.339893090929401, -1.25278144891305, -1.32492063752459, 1.24924604759353], a = 0.2, v = 0.2, t = 0.2)
movej(p[-0.393652492919161, -0.11155179541993, 0.339987077875206, -1.25868337374051, -1.31292470958387, 1.22930233345157], a = 0.2, v = 0.2, t = 0.2)
movej(p[-0.392936356550302, -0.111389249090256, 0.340378190157687, -1.26888509538584, -1.3080112188614, 1.22370557301923], a = 0.2, v = 0.2, t = 0.2)
movej(p[-0.392624680178847, -0.111436420811413, 0.341037891061961, -1.26685435960276, -1.30226494147673, 1.21986770243503], a = 0.2, v = 0.2, t = 0.2)
movej(p[-0.392623612403306, -0.111614283771019, 0.3417809169279, -1.25418400325723, -1.29192396215166, 1.21378323654814], a = 0.2, v = 0.2, t = 0.2)
movej(p[-0.393535853844562, -0.112185990125911, 0.341872503207613, -1.23032689660441, -1.28366577521119, 1.22209329464902], a = 0.2, v = 0.2, t = 0.2)
movej(p[-0.394740902901047, -0.112986094804185, 0.342351359788716, -1.21141970617668, -1.28209363051342, 1.23754265224967], a = 0.2, v = 0.2, t = 0.2)
movej(p[-0.396151401771411, -0.114001838317565, 0.342970002409081, -1.18085567977228, -1.27017597140163, 1.25420283005604], a = 0.2, v = 0.2, t = 0.2)
movej(p[-0.397433021114792, -0.115054202366468, 0.343488376741823, -1.15265911307316, -1.25996947039664, 1.26405120296781], a = 0.2, v = 0.2, t = 0.2)
movej(p[-0.398635135606043, -0.115936515673236, 0.34374184954949, -1.13413597814577, -1.26395734591593, 1.28720773248539], a = 0.2, v = 0.2, t = 0.2)
movej(p[-0.399382511919676, -0.11654004648289, 0.344020361716583, -1.12353143654692, -1.26999848868083, 1.30482904759979], a = 0.2, v = 0.2, t = 0.2)
movej(p[-0.399722916952877, -0.116825019705371, 0.344344174865544, -1.10841177453034, -1.2726526474772, 1.31433902698689], a = 0.2, v = 0.2, t = 0.2)
movej(p[-0.39999776316189, -0.117032753824318, 0.344202368387496, -1.09820269082787, -1.26656135778398, 1.31029871252322], a = 0.2, v = 0.2, t = 0.2)
movej(p[-0.40038493029434, -0.117014121875295, 0.343723913215064, -1.09722984483964, -1.27200733949132, 1.31849645763861], a = 0.2, v = 0.2, t = 0.2)
movej(p[-0.400583011869564, -0.116811818490369, 0.343288938937085, -1.10652558731636, -1.27138816730448, 1.32334769731626], a = 0.2, v = 0.2, t = 0.2)
movej(p[-0.400628752089014, -0.116505214861182, 0.343153837232823, -1.10357720753543, -1.26202985139421, 1.32053267749839], a = 0.2, v = 0.2, t = 0.2)
movej(p[-0.400821689949593, -0.116409020628595, 0.34291470041012, -1.10852143293855, -1.25817302601906, 1.31491172679454], a = 0.2, v = 0.2, t = 0.2)
movej(p[-0.400835893991535, -0.116179500829501, 0.342724192038871, -1.11488298955858, -1.26705320519064, 1.3161879743059], a = 0.2, v = 0.2, t = 0.2)
movej(p[-0.400784134108516, -0.116064118278528, 0.342381919154989, -1.11393995414303, -1.26582938631139, 1.32728158870691], a = 0.2, v = 0.2, t = 0.2)
movej(p[-0.400881782600156, -0.116111611581263, 0.342025578763824, -1.10303230267853, -1.25665156037512, 1.33269285630611], a = 0.2, v = 0.2, t = 0.2)
movej(p[-0.401405927341523, -0.116324634302189, 0.341587940826063, -1.10320183597146, -1.2568973439892, 1.34242439992998], a = 0.2, v = 0.2, t = 0.2)
movej(p[-0.401780646527166, -0.116406156025744, 0.341107920090054, -1.10779834266943, -1.26033033860422, 1.3499966224265], a = 0.2, v = 0.2, t = 0.2)
movej(p[-0.40181613008207, -0.116237084836077, 0.340849842627155, -1.11739983930615, -1.27135941917377, 1.35379754562862], a = 0.2, v = 0.2, t = 0.2)
movej(p[-0.401854699929806, -0.11594500691886, 0.339866528424703, -1.12213983623901, -1.28196664329554, 1.34494426011331], a = 0.2, v = 0.2, t = 0.2)
movej(p[-0.401633349155118, -0.11545101600795, 0.339214044428877, -1.14780663317833, -1.30506594155511, 1.33956178740947], a = 0.2, v = 0.2, t = 0.2)
movej(p[-0.40067886014951, -0.114564665592051, 0.338926964120409, -1.16786642801965, -1.3200790965627, 1.32057255122928], a = 0.2, v = 0.2, t = 0.2)
movej(p[-0.399014430940627, -0.113737433870523, 0.339398515630973, -1.1918800682502, -1.31719085410235, 1.29974329760438], a = 0.2, v = 0.2, t = 0.2)
movej(p[-0.397463285567751, -0.113097161895855, 0.339879665159766, -1.20900408077599, -1.31505991288647, 1.27884442788892], a = 0.2, v = 0.2, t = 0.2)
movej(p[-0.396195636853155, -0.112751866074524, 0.340487878616586, -1.22676447126443, -1.31100042353186, 1.26448522978634], a = 0.2, v = 0.2, t = 0.2)
movej(p[-0.395496659940543, -0.112655800326542, 0.340885117710582, -1.22547067586682, -1.29279389491287, 1.25544975478988], a = 0.2, v = 0.2, t = 0.2)
movej(p[-0.395726989942028, -0.113073095507035, 0.341166913401026, -1.20697778796184, -1.26964645321392, 1.24421006260105], a = 0.2, v = 0.2, t = 0.2)
movej(p[-0.396987884659535, -0.113836061133489, 0.341291593849428, -1.18176399959782, -1.26625343898203, 1.25881367731035], a = 0.2, v = 0.2, t = 0.2)
movej(p[-0.398296433926522, -0.114738092212969, 0.341846991747893, -1.16326652651354, -1.26964612148101, 1.28149200377552], a = 0.2, v = 0.2, t = 0.2)
movej(p[-0.399089529566547, -0.115519325250088, 0.342545663448703, -1.13611516825123, -1.26258590604897, 1.29810450529241], a = 0.2, v = 0.2, t = 0.2)
movej(p[-0.399740702523908, -0.116151410936687, 0.34277623860223, -1.11953651005191, -1.25470268033953, 1.30885048679538], a = 0.2, v = 0.2, t = 0.2)
movej(p[-0.400268377445366, -0.116452799226619, 0.342706250231371, -1.10639670928853, -1.25872446565243, 1.31842786314361], a = 0.2, v = 0.2, t = 0.2)
movej(p[-0.400652875742575, -0.116451748974529, 0.342681985515963, -1.09920449193957, -1.26578781753514, 1.33177470187532], a = 0.2, v = 0.2, t = 0.2)
movej(p[-0.400830917646977, -0.116434517403103, 0.342448773449116, -1.09331437042019, -1.26313483732833, 1.3296369484777], a = 0.2, v = 0.2, t = 0.2)
movej(p[-0.401132203501703, -0.116293335313838, 0.341740281599471, -1.10576511797545, -1.27817117929256, 1.32828483475899], a = 0.2, v = 0.2, t = 0.2)
movej(p[-0.400903280620471, -0.115789799908967, 0.340998012720071, -1.12712589036497, -1.29705608329635, 1.32208093885611], a = 0.2, v = 0.2, t = 0.2)
movej(p[-0.399935141389441, -0.114935576192494, 0.340673170939889, -1.1504038089743, -1.31735867027707, 1.31474050430522], a = 0.2, v = 0.2, t = 0.2)
movej(p[-0.398490856918437, -0.114209871676162, 0.340567012715561, -1.16780243064828, -1.31508767214639, 1.29355861125215], a = 0.2, v = 0.2, t = 0.2)
movej(p[-0.397136006615057, -0.113691431828663, 0.340547970287821, -1.18938735325674, -1.3151800037954, 1.27705240329091], a = 0.2, v = 0.2, t = 0.2)
movej(p[-0.39597519235085, -0.113188625595558, 0.340767816275878, -1.20823622835319, -1.30984106574769, 1.25878964132771], a = 0.2, v = 0.2, t = 0.2)
movej(p[-0.395429421160172, -0.112985290446482, 0.341193724245957, -1.20391396851339, -1.29021583926247, 1.24895780892835], a = 0.2, v = 0.2, t = 0.2)
movej(p[-0.396061461172813, -0.113412739578415, 0.341461406729564, -1.18748774434547, -1.27095742295452, 1.24573251584628], a = 0.2, v = 0.2, t = 0.2)
movej(p[-0.397322736522196, -0.114174644201161, 0.34180553243171, -1.17174036371641, -1.26892485088259, 1.26585045853482], a = 0.2, v = 0.2, t = 0.2)
movej(p[-0.398449043173612, -0.114971901728089, 0.342453023241169, -1.14963717363214, -1.26905605295495, 1.28422551336945], a = 0.2, v = 0.2, t = 0.2)
movej(p[-0.399032141206559, -0.115678580940827, 0.343200758759562, -1.12982873230547, -1.26720509254835, 1.29814275638613], a = 0.2, v = 0.2, t = 0.2)
movej(p[-0.399670654577549, -0.116215524988921, 0.343535123084294, -1.11400411384766, -1.26776686895144, 1.3075869611067], a = 0.2, v = 0.2, t = 0.2)
movej(p[-0.400116660679812, -0.116456913977763, 0.343522576494744, -1.1117028301005, -1.27143585051245, 1.32022720060523], a = 0.2, v = 0.2, t = 0.2)
movej(p[-0.40045601869815, -0.116476027504968, 0.343321133628234, -1.10175546860538, -1.26742495768423, 1.33113803655929], a = 0.2, v = 0.2, t = 0.2)
movej(p[-0.400729580890016, -0.11646158874578, 0.34265170608965, -1.09493715757688, -1.26552731953973, 1.32717696556231], a = 0.2, v = 0.2, t = 0.2)
movej(p[-0.401149674313873, -0.116297263956148, 0.341722103618513, -1.10732175121393, -1.2791684291469, 1.3277724084549], a = 0.2, v = 0.2, t = 0.2)
movej(p[-0.400910585456671, -0.11590398086716, 0.340940541907564, -1.14009569695939, -1.29758439133759, 1.32295076452957], a = 0.2, v = 0.2, t = 0.2)
movej(p[-0.400088605206687, -0.1152895716218, 0.340491190523013, -1.16380590591487, -1.30190382743963, 1.3169531253514], a = 0.2, v = 0.2, t = 0.2)
movej(p[-0.399260966607686, -0.114940313339433, 0.340271750950371, -1.1721927579779, -1.29842744418022, 1.30442722375249], a = 0.2, v = 0.2, t = 0.2)
movej(p[-0.398649827694634, -0.114501405434009, 0.340240784484485, -1.17726676450192, -1.29751887937418, 1.29342154673093], a = 0.2, v = 0.2, t = 0.2)
movej(p[-0.398489054102533, -0.114208490887997, 0.340368997474535, -1.16827334531034, -1.28690699573217, 1.28648720223399], a = 0.2, v = 0.2, t = 0.2)
movej(p[-0.398588134901855, -0.114349564034277, 0.341106058427377, -1.15823448930375, -1.27634140706259, 1.2872519287573], a = 0.2, v = 0.2, t = 0.2)
movej(p[-0.399404372887687, -0.114990944347224, 0.341458839266212, -1.14099297600332, -1.26496909411988, 1.29665110887314], a = 0.2, v = 0.2, t = 0.2)
movej(p[-0.400079307513923, -0.115555903039397, 0.341949333272339, -1.13766636189456, -1.27179889203201, 1.31276488552134], a = 0.2, v = 0.2, t = 0.2)
movej(p[-0.400507780666409, -0.115934531367762, 0.342100144533716, -1.12453348142965, -1.26237750766595, 1.32563281812883], a = 0.2, v = 0.2, t = 0.2)
movej(p[-0.400693168214921, -0.116184727639545, 0.342162073121962, -1.10742478763505, -1.25207741109599, 1.33221297955854], a = 0.2, v = 0.2, t = 0.2)
movej(p[-0.401334215894429, -0.116478469269919, 0.341767505726473, -1.1008730066581, -1.25017551420808, 1.34355708250889], a = 0.2, v = 0.2, t = 0.2)
movej(p[-0.401707752760928, -0.116396279309773, 0.341322638579768, -1.10752723626069, -1.26531423406465, 1.34790437656181], a = 0.2, v = 0.2, t = 0.2)
movej(p[-0.401633900261404, -0.116090667747586, 0.340914565500685, -1.11948474685943, -1.27636911423014, 1.34536021126532], a = 0.2, v = 0.2, t = 0.2)
movej(p[-0.401255147064738, -0.115626711596079, 0.340440523210489, -1.13979258031717, -1.29143577629246, 1.33235515839906], a = 0.2, v = 0.2, t = 0.2)
movej(p[-0.400838550868624, -0.115114138275035, 0.339920835482197, -1.1613584079969, -1.30632301817945, 1.32270610504555], a = 0.2, v = 0.2, t = 0.2)
movej(p[-0.400319730740946, -0.114624335962513, 0.33972256970133, -1.17623742253288, -1.31102119706046, 1.31354707754049], a = 0.2, v = 0.2, t = 0.2)
movej(p[-0.399649787142351, -0.114357932361676, 0.340007656179226, -1.17650314338402, -1.29609562627482, 1.30507591890014], a = 0.2, v = 0.2, t = 0.2)
movej(p[-0.399695827277165, -0.114641342353668, 0.340086244812177, -1.16748400259124, -1.27522659245605, 1.30230766176523], a = 0.2, v = 0.2, t = 0.2)
movej(p[-0.400123858625273, -0.114828666445851, 0.340228707372009, -1.15823004633033, -1.2726376608646, 1.30790843925139], a = 0.2, v = 0.2, t = 0.2)
movej(p[-0.400671180658486, -0.114976444011166, 0.340465939089006, -1.14088791369594, -1.26813822866233, 1.31440177250936], a = 0.2, v = 0.2, t = 0.2)
movej(p[-0.400936459325357, -0.115201236286475, 0.340944733253512, -1.12232186277049, -1.26065120363078, 1.32149821817012], a = 0.2, v = 0.2, t = 0.2)
movej(p[-0.401448853528399, -0.11551199614303, 0.341011738670774, -1.10989202662398, -1.25927226655285, 1.32777210699736], a = 0.2, v = 0.2, t = 0.2)
movej(p[-0.401832068450083, -0.115758234220369, 0.340798565669747, -1.11143048793424, -1.26491030517506, 1.34251962828985], a = 0.2, v = 0.2, t = 0.2)
movej(p[-0.402112209672698, -0.115715510523168, 0.340566924985735, -1.10613931125066, -1.26143596246245, 1.34843529242822], a = 0.2, v = 0.2, t = 0.2)
movej(p[-0.402274325804825, -0.115846871370534, 0.340285973986022, -1.10569316421725, -1.25350149088612, 1.34601111166463], a = 0.2, v = 0.2, t = 0.2)
movej(p[-0.402670817446085, -0.115785876854059, 0.339506502702649, -1.12086772302999, -1.2651228577687, 1.33798883425512], a = 0.2, v = 0.2, t = 0.2)
movej(p[-0.402695560288556, -0.115426982018456, 0.338831013685971, -1.14503080426063, -1.29202303446966, 1.3389344847262], a = 0.2, v = 0.2, t = 0.2)
movej(p[-0.402073620086108, -0.114840800229193, 0.338590712645569, -1.16203366446079, -1.30168213931163, 1.33199948154667], a = 0.2, v = 0.2, t = 0.2)
movej(p[-0.401220677765926, -0.114471190733885, 0.338527451628197, -1.16939533487021, -1.29249434473487, 1.32020898301223], a = 0.2, v = 0.2, t = 0.2)
movej(p[-0.400740241075482, -0.114253440872432, 0.338574647436408, -1.17846411954561, -1.29517713036994, 1.31481115870683], a = 0.2, v = 0.2, t = 0.2)
movej(p[-0.400638300774798, -0.114217269088192, 0.338651825653033, -1.17872808514559, -1.28783710580738, 1.31230481936243], a = 0.2, v = 0.2, t = 0.2)
movej(p[-0.400733198995876, -0.114387307335761, 0.339251946451623, -1.16543679719852, -1.27706689320427, 1.31788010519306], a = 0.2, v = 0.2, t = 0.2)
movej(p[-0.401291432579836, -0.114885881254123, 0.339398218069405, -1.14140226165652, -1.2535650932506, 1.3184036267642], a = 0.2, v = 0.2, t = 0.2)
movej(p[-0.401818681986563, -0.115235313825246, 0.339537385364216, -1.13835603443305, -1.2617913158492, 1.33040327961759], a = 0.2, v = 0.2, t = 0.2)
movej(p[-0.402149385600021, -0.115291116153862, 0.3394508373367, -1.13712017535174, -1.27188628822479, 1.34183583411426], a = 0.2, v = 0.2, t = 0.2)
movej(p[-0.402185993366711, -0.115360521146427, 0.3396058246982, -1.13041091689339, -1.26714306484949, 1.34420069200929], a = 0.2, v = 0.2, t = 0.2)
movej(p[-0.402542671217198, -0.115570282858602, 0.339291284940208, -1.1232496993378, -1.26103945908138, 1.34037469462829], a = 0.2, v = 0.2, t = 0.2)
movej(p[-0.40297441300565, -0.115688990904667, 0.338744786394606, -1.13589195219467, -1.27801846594538, 1.34654968427232], a = 0.2, v = 0.2, t = 0.2)
movej(p[-0.402900762026937, -0.115422331244249, 0.338163950031987, -1.15025767944863, -1.29026135461892, 1.34866437065497], a = 0.2, v = 0.2, t = 0.2)
movej(p[-0.402346485458706, -0.11498740678402, 0.337815696561789, -1.16438909098249, -1.2904392210555, 1.34016997060097], a = 0.2, v = 0.2, t = 0.2)
movej(p[-0.401814371097592, -0.114505383361204, 0.337468755684041, -1.17375910390565, -1.2894283714887, 1.32470461303608], a = 0.2, v = 0.2, t = 0.2)
movej(p[-0.401244232814804, -0.114114984778814, 0.337616708295943, -1.19386963003429, -1.30096155348266, 1.31426022312336], a = 0.2, v = 0.2, t = 0.2)
movej(p[-0.40086693184805, -0.113858845036251, 0.338108778029584, -1.19319689072288, -1.30196435824872, 1.31183708803611], a = 0.2, v = 0.2, t = 0.2)
movej(p[-0.40074927213997, -0.113973441060626, 0.338906603495643, -1.18213546299042, -1.28713277396839, 1.30577106532651], a = 0.2, v = 0.2, t = 0.2)
movej(p[-0.401342674109555, -0.114491125619481, 0.339012237439125, -1.16259195910344, -1.27314104262721, 1.31396372132533], a = 0.2, v = 0.2, t = 0.2)
movej(p[-0.401748455301454, -0.114756375008234, 0.339164920565131, -1.16363184361878, -1.27991380953585, 1.32547736474112], a = 0.2, v = 0.2, t = 0.2)
movej(p[-0.402036101652699, -0.114818442296327, 0.339202278594583, -1.1477737138995, -1.27491294406768, 1.33489244614311], a = 0.2, v = 0.2, t = 0.2)
movej(p[-0.402219711081127, -0.114844169579191, 0.339239431902764, -1.13119174688709, -1.2665649178735, 1.33637685048216], a = 0.2, v = 0.2, t = 0.2)
movej(p[-0.402744097824842, -0.115063040890592, 0.338881305154992, -1.1282167114061, -1.26900160323006, 1.34434723471567], a = 0.2, v = 0.2, t = 0.2)
movej(p[-0.403045594586461, -0.115186853555453, 0.338561749564769, -1.14247271605027, -1.27853148092139, 1.35251119680385], a = 0.2, v = 0.2, t = 0.2)
movej(p[-0.403002007548263, -0.115063623038658, 0.338152976962542, -1.15234721427785, -1.28011813148193, 1.34988299650046], a = 0.2, v = 0.2, t = 0.2)
movej(p[-0.402740567544909, -0.114858845494636, 0.33748926308015, -1.1641631351806, -1.27699609010536, 1.33551013564282], a = 0.2, v = 0.2, t = 0.2)
movej(p[-0.402493985396997, -0.114457351624309, 0.336816061208888, -1.18030830198675, -1.28928828912712, 1.32595381136398], a = 0.2, v = 0.2, t = 0.2)
movej(p[-0.401831822448847, -0.114030215247602, 0.336612766709723, -1.20023076293255, -1.30048872162042, 1.31608242570837], a = 0.2, v = 0.2, t = 0.2)
movej(p[-0.400907157179782, -0.113628148004009, 0.337041823071771, -1.20539438633088, -1.29727254320516, 1.30768144369506], a = 0.2, v = 0.2, t = 0.2)
movej(p[-0.400506025458034, -0.113530081537575, 0.337412668160681, -1.19500734002552, -1.28390109107409, 1.29600368511188], a = 0.2, v = 0.2, t = 0.2)
movej(p[-0.400694643784915, -0.113604904206355, 0.337547072903907, -1.18707466180832, -1.28293549575349, 1.30071346769845], a = 0.2, v = 0.2, t = 0.2)
movej(p[-0.401232145587357, -0.11371736020902, 0.337801774042176, -1.1692254382778, -1.27684619133006, 1.31153148141739], a = 0.2, v = 0.2, t = 0.2)
movej(p[-0.401593553435391, -0.114104048836957, 0.338199538510679, -1.15343045541032, -1.26377705586721, 1.32095630273068], a = 0.2, v = 0.2, t = 0.2)
movej(p[-0.402064962553605, -0.114526028768811, 0.338390220324121, -1.14163025196809, -1.2567149779178, 1.32390483608216], a = 0.2, v = 0.2, t = 0.2)
movej(p[-0.402526282437477, -0.114885841245827, 0.338272707139212, -1.14571708521377, -1.26373290155116, 1.3364236815141], a = 0.2, v = 0.2, t = 0.2)
movej(p[-0.402784156801252, -0.11495263504391, 0.338130817085978, -1.14661870739766, -1.26694199541047, 1.34654789399695], a = 0.2, v = 0.2, t = 0.2)
movej(p[-0.402904765197076, -0.115022030946797, 0.338111314563063, -1.13908985663508, -1.25247131250875, 1.34870880800565], a = 0.2, v = 0.2, t = 0.2)
movej(p[-0.403277358455064, -0.115160624064955, 0.337676957832021, -1.13881864141514, -1.25735883693227, 1.3475107008358], a = 0.2, v = 0.2, t = 0.2)
movej(p[-0.403507332942021, -0.115062357769146, 0.33708358301847, -1.14996593369246, -1.27777735503568, 1.34733243290129], a = 0.2, v = 0.2, t = 0.2)
movej(p[-0.403261839486193, -0.114672230295152, 0.336642228592209, -1.16072452122638, -1.29477666567583, 1.34530095876591], a = 0.2, v = 0.2, t = 0.2)
movej(p[-0.40257817538399, -0.114275104597419, 0.336425141065023, -1.17015991258802, -1.28772688064735, 1.33033709895729], a = 0.2, v = 0.2, t = 0.2)
movej(p[-0.401988477611895, -0.113977482540639, 0.33630005733745, -1.18613259902781, -1.29066264619297, 1.32206819566121], a = 0.2, v = 0.2, t = 0.2)
movej(p[-0.401278585165863, -0.113684615308667, 0.336591655553329, -1.2079045975645, -1.30177720681087, 1.31263820418387], a = 0.2, v = 0.2, t = 0.2)
movej(p[-0.400587162428546, -0.113381770590074, 0.336978604173616, -1.21325741063129, -1.30034322079801, 1.30477860334772], a = 0.2, v = 0.2, t = 0.2)
movej(p[-0.400187164626844, -0.113439770923044, 0.337434316560993, -1.20434150920135, -1.28046532239842, 1.29783471478118], a = 0.2, v = 0.2, t = 0.2)
movej(p[-0.400621644193854, -0.113727234890333, 0.337321161475549, -1.18914171562436, -1.27044463196818, 1.30408701004468], a = 0.2, v = 0.2, t = 0.2)
movej(p[-0.401243348700809, -0.113986240449521, 0.337534704600799, -1.18076048869699, -1.27529001595479, 1.31582078462594], a = 0.2, v = 0.2, t = 0.2)
movej(p[-0.401626081321521, -0.114259054628709, 0.338061758682158, -1.16878623658796, -1.26941785822907, 1.32590250847953], a = 0.2, v = 0.2, t = 0.2)
movej(p[-0.401947597654264, -0.114441399071266, 0.338499307305911, -1.15511095333497, -1.26570464355768, 1.32684172529484], a = 0.2, v = 0.2, t = 0.2)
movej(p[-0.402405446461822, -0.114683750815729, 0.338426942989617, -1.15286377726649, -1.26843097681937, 1.33568223841794], a = 0.2, v = 0.2, t = 0.2)
movej(p[-0.402748442353895, -0.114693076137098, 0.338249887927789, -1.15224194597071, -1.2739858015258, 1.34236914737675], a = 0.2, v = 0.2, t = 0.2)
movej(p[-0.402920646628746, -0.114746663819132, 0.338040783438518, -1.14842810720515, -1.26460595365687, 1.34820919958423], a = 0.2, v = 0.2, t = 0.2)
movej(p[-0.403312509664788, -0.114871739144657, 0.337322847199338, -1.14584959699351, -1.26221014821013, 1.35981881958319], a = 0.2, v = 0.2, t = 0.2)
movej(p[-0.403649824107641, -0.114878463047955, 0.336626552492861, -1.1518767764054, -1.27454004716567, 1.3656375122454], a = 0.2, v = 0.2, t = 0.2)
movej(p[-0.40349289645469, -0.114557056886684, 0.336019078240455, -1.17930268703777, -1.30010690163893, 1.36468797506218], a = 0.2, v = 0.2, t = 0.2)
movej(p[-0.402704941491553, -0.114070229212036, 0.33614345283659, -1.187078840895, -1.29610903939092, 1.33798681727323], a = 0.2, v = 0.2, t = 0.2)
movej(p[-0.402030908625587, -0.113787627887162, 0.336293274474471, -1.19899733934045, -1.28773020222527, 1.31717762820866], a = 0.2, v = 0.2, t = 0.2)
movej(p[-0.401791267129432, -0.113701556097419, 0.336464212884231, -1.21246748896728, -1.29250626497385, 1.31400078183769], a = 0.2, v = 0.2, t = 0.2)
movej(p[-0.401778931456852, -0.113657949631013, 0.336802949710203, -1.21217282545108, -1.29074856868337, 1.31743438941642], a = 0.2, v = 0.2, t = 0.2)
movej(p[-0.401908525161415, -0.113776913775795, 0.337314973287779, -1.18962016212075, -1.27589077741764, 1.31824182210472], a = 0.2, v = 0.2, t = 0.2)
movej(p[-0.402386654349364, -0.114066798509946, 0.337248288580853, -1.17046975762309, -1.26599162557939, 1.31823895162263], a = 0.2, v = 0.2, t = 0.2)
movej(p[-0.402770459956432, -0.114371046004223, 0.337258631657463, -1.16960378282735, -1.27202354278836, 1.3279518212121], a = 0.2, v = 0.2, t = 0.2)
movej(p[-0.403048411736034, -0.114405749564744, 0.337029309556198, -1.15997329693121, -1.27098183148597, 1.3387875224203], a = 0.2, v = 0.2, t = 0.2)
movej(p[-0.403120218379258, -0.11448426755604, 0.337032364377258, -1.15333016680947, -1.26186240273053, 1.34087015104993], a = 0.2, v = 0.2, t = 0.2)
movej(p[-0.403613683125524, -0.114590631327881, 0.336146173390036, -1.14487404706557, -1.26008093590283, 1.33870823500448], a = 0.2, v = 0.2, t = 0.2)
movej(p[-0.403754545052506, -0.114544642504085, 0.335710771989358, -1.16742134060604, -1.28357539652348, 1.34167320408271], a = 0.2, v = 0.2, t = 0.2)
movej(p[-0.403375875764876, -0.114229178166546, 0.335370238375823, -1.18108925161188, -1.29401497617481, 1.33793806308378], a = 0.2, v = 0.2, t = 0.2)
movej(p[-0.402529182518383, -0.113744280539722, 0.335680685009309, -1.19332541696285, -1.29691683564079, 1.32571478042522], a = 0.2, v = 0.2, t = 0.2)
movej(p[-0.401986276264521, -0.113451102119076, 0.335713262811347, -1.20747172809506, -1.30083985523995, 1.31551071486926], a = 0.2, v = 0.2, t = 0.2)
movej(p[-0.401685742115329, -0.113274847196994, 0.335926991816423, -1.21995161727239, -1.30832291940952, 1.3114083025207], a = 0.2, v = 0.2, t = 0.2)
movej(p[-0.401564948937037, -0.113311880749779, 0.336499531565302, -1.21232829127746, -1.29255096367788, 1.31291089442018], a = 0.2, v = 0.2, t = 0.2)
movej(p[-0.401772491893747, -0.113730072637543, 0.337021265545533, -1.19245541526775, -1.26748909629774, 1.31700380406514], a = 0.2, v = 0.2, t = 0.2)
movej(p[-0.402354240490519, -0.114107044683463, 0.337219561594029, -1.17993005408301, -1.26355286605528, 1.32501993076754], a = 0.2, v = 0.2, t = 0.2)
movej(p[-0.402767436049782, -0.114339322348629, 0.33715818500143, -1.17723607937139, -1.2685018870244, 1.33590827956848], a = 0.2, v = 0.2, t = 0.2)
movej(p[-0.402951846080604, -0.114425662901676, 0.337280699518614, -1.17265256356327, -1.26484359995788, 1.34233265322108], a = 0.2, v = 0.2, t = 0.2)
movej(p[-0.40322984178683, -0.114658853348615, 0.337071003217084, -1.16228818166619, -1.25129055315439, 1.33682692199261], a = 0.2, v = 0.2, t = 0.2)
movej(p[-0.40366485823191, -0.114813349998673, 0.336633618320533, -1.16396121203469, -1.26543589163871, 1.3448273877683], a = 0.2, v = 0.2, t = 0.2)
movej(p[-0.40379527265233, -0.114667322755309, 0.33614175539121, -1.17346083235416, -1.28462713921619, 1.34919881406512], a = 0.2, v = 0.2, t = 0.2)
movej(p[-0.403349991787798, -0.114348616539742, 0.335732028915692, -1.18420738597084, -1.28969239704815, 1.34760239981536], a = 0.2, v = 0.2, t = 0.2)
movej(p[-0.402859406400895, -0.113937838463628, 0.335417260774448, -1.19468394469508, -1.28488118753628, 1.32948924673505], a = 0.2, v = 0.2, t = 0.2)
movej(p[-0.402244237917166, -0.113483812248134, 0.335440502649809, -1.21965842485465, -1.30928040021973, 1.31940065759243], a = 0.2, v = 0.2, t = 0.2)
movej(p[-0.401259019770093, -0.112963141972413, 0.335849262651717, -1.23814091597629, -1.32784888171223, 1.31045136677791], a = 0.2, v = 0.2, t = 0.2)
movej(p[-0.399768930745407, -0.112577337279751, 0.336432618741621, -1.25171539273107, -1.32769215869585, 1.29707574310535], a = 0.2, v = 0.2, t = 0.2)
movej(p[-0.398240793800794, -0.112223585068804, 0.336970494240004, -1.26046180841764, -1.32077986363214, 1.27778897362554], a = 0.2, v = 0.2, t = 0.2)
movej(p[-0.39682633300134, -0.111896491277079, 0.337455764389736, -1.27079717708205, -1.31924424667649, 1.26369233718491], a = 0.2, v = 0.2, t = 0.2)
movej(p[-0.395855240392818, -0.111522522850627, 0.338046955197929, -1.26779144675584, -1.31359916865354, 1.25205856732245], a = 0.2, v = 0.2, t = 0.2)
movej(p[-0.39553690330658, -0.111695694144491, 0.338629450341691, -1.25590587011887, -1.28502106613412, 1.24475910332369], a = 0.2, v = 0.2, t = 0.2)
movej(p[-0.396519436287867, -0.112435082273427, 0.338840711188683, -1.23479646377601, -1.2670885004522, 1.25256784255], a = 0.2, v = 0.2, t = 0.2)
movej(p[-0.397852306759251, -0.113492334820158, 0.339444109980068, -1.22265870920356, -1.26570575065554, 1.27337392198799], a = 0.2, v = 0.2, t = 0.2)
movej(p[-0.399123382732528, -0.114494640018013, 0.339890969959156, -1.19033612252204, -1.25641366997396, 1.29279402617321], a = 0.2, v = 0.2, t = 0.2)
movej(p[-0.399804083783364, -0.115107669070786, 0.340695962664928, -1.16267740510814, -1.24982393614151, 1.30041075038242], a = 0.2, v = 0.2, t = 0.2)
movej(p[-0.400522232135638, -0.115568081856107, 0.340892658773781, -1.14441246750359, -1.24816541939225, 1.30952504759207], a = 0.2, v = 0.2, t = 0.2)
movej(p[-0.40102297607989, -0.115733208090205, 0.341009962219632, -1.14122541218104, -1.25769198403133, 1.31969994180509], a = 0.2, v = 0.2, t = 0.2)
movej(p[-0.401268110910526, -0.115791995822549, 0.340801039350048, -1.13900566024278, -1.26006732952142, 1.32669432211976], a = 0.2, v = 0.2, t = 0.2)
movej(p[-0.401330029775565, -0.115657093545979, 0.340159993450765, -1.14264787590443, -1.26438274977832, 1.32264728321395], a = 0.2, v = 0.2, t = 0.2)
movej(p[-0.40141419752896, -0.115273833755655, 0.339231633175966, -1.16126543294434, -1.28515272240776, 1.32094303946615], a = 0.2, v = 0.2, t = 0.2)
movej(p[-0.400895240288687, -0.114647720356475, 0.338794919160351, -1.18705067931054, -1.30692837741444, 1.31338253670671], a = 0.2, v = 0.2, t = 0.2)
movej(p[-0.399976438820987, -0.113948608223511, 0.338943540486194, -1.19933141601614, -1.31393437211928, 1.30431430985897], a = 0.2, v = 0.2, t = 0.2)
movej(p[-0.39898244417652, -0.113666168334309, 0.339368518099909, -1.20822151350685, -1.31260282529731, 1.29081446023037], a = 0.2, v = 0.2, t = 0.2)
movej(p[-0.398138897872024, -0.113355758904268, 0.339688358259853, -1.21930897690495, -1.31422185552649, 1.28199026693484], a = 0.2, v = 0.2, t = 0.2)
movej(p[-0.397550202475003, -0.113138583607641, 0.33986729129107, -1.22299116447908, -1.30566211811726, 1.2710411907239], a = 0.2, v = 0.2, t = 0.2)
movej(p[-0.397457319597638, -0.113116440722904, 0.34021576553782, -1.20851948481733, -1.28692312860456, 1.26597227285591], a = 0.2, v = 0.2, t = 0.2)
movej(p[-0.398221895861145, -0.11360688898113, 0.340371428978884, -1.18356532013237, -1.26551379775995, 1.26709227833214], a = 0.2, v = 0.2, t = 0.2)
movej(p[-0.399355557907562, -0.114365978070641, 0.340749354019467, -1.1678560265885, -1.27036460666228, 1.29317088878992], a = 0.2, v = 0.2, t = 0.2)
movej(p[-0.400149779802933, -0.115024761448988, 0.341047217342195, -1.14959799280178, -1.26648854476342, 1.31354143676718], a = 0.2, v = 0.2, t = 0.2)
movej(p[-0.400511486536769, -0.115420283519965, 0.341409059186193, -1.12600156074011, -1.25559926428465, 1.31935215821721], a = 0.2, v = 0.2, t = 0.2)
movej(p[-0.401055845690214, -0.115705938490958, 0.340988536341026, -1.11537575048983, -1.25212992247723, 1.31362900050649], a = 0.2, v = 0.2, t = 0.2)
movej(p[-0.401367228599155, -0.115641743965614, 0.340519359509292, -1.12652205209751, -1.27402364310592, 1.31879713071133], a = 0.2, v = 0.2, t = 0.2)
movej(p[-0.40114948907454, -0.115302187548274, 0.33986529605353, -1.14918968129359, -1.29199492463201, 1.32088357000178], a = 0.2, v = 0.2, t = 0.2)
movej(p[-0.400330531914116, -0.114709932341311, 0.339655975387048, -1.16929235683011, -1.30189261783243, 1.30949422068328], a = 0.2, v = 0.2, t = 0.2)
movej(p[-0.399622039652308, -0.114209745405768, 0.339611760202218, -1.18688872884512, -1.30908729734643, 1.29470644937414], a = 0.2, v = 0.2, t = 0.2)
movej(p[-0.398834814985062, -0.113726999523561, 0.339876021113046, -1.20268708999683, -1.32024004198244, 1.28097222805588], a = 0.2, v = 0.2, t = 0.2)
movej(p[-0.397799745027494, -0.113206967307958, 0.340187538912337, -1.21071173388812, -1.32377679602213, 1.27230781954791], a = 0.2, v = 0.2, t = 0.2)
movej(p[-0.396744995422658, -0.112860137336592, 0.34044293300029, -1.21307099021182, -1.31095925289201, 1.25565212667808], a = 0.2, v = 0.2, t = 0.2)
movej(p[-0.396461288214794, -0.11282405851389, 0.340312069669834, -1.20855246424062, -1.29863783897906, 1.25213926070145], a = 0.2, v = 0.2, t = 0.2)
movej(p[-0.396909517685049, -0.113195191090851, 0.340622250489217, -1.20291602106151, -1.28767760397689, 1.26046148462004], a = 0.2, v = 0.2, t = 0.2)
movej(p[-0.397750681066377, -0.113828078475043, 0.341081713100257, -1.17834474275215, -1.27174665076291, 1.27262943868966], a = 0.2, v = 0.2, t = 0.2)
movej(p[-0.398739260982196, -0.114749771464872, 0.341731882617335, -1.15739171918197, -1.26195181210396, 1.28659207633985], a = 0.2, v = 0.2, t = 0.2)
movej(p[-0.399624629088265, -0.115418288022059, 0.342073828036261, -1.14163996730476, -1.27058228046768, 1.30542994152684], a = 0.2, v = 0.2, t = 0.2)
movej(p[-0.400166731546983, -0.115777288356864, 0.342243718050168, -1.13117606617211, -1.27349138264604, 1.31987873923261], a = 0.2, v = 0.2, t = 0.2)
movej(p[-0.400419710353518, -0.115875900209971, 0.342395519436508, -1.11465856171649, -1.26600738244868, 1.32411686861672], a = 0.2, v = 0.2, t = 0.2)
movej(p[-0.401007348271056, -0.11612033799152, 0.341646684054893, -1.109590080992, -1.25988570636362, 1.32583536632671], a = 0.2, v = 0.2, t = 0.2)
movej(p[-0.401363162630845, -0.115983409091463, 0.340954114387673, -1.12727354814292, -1.28042956474099, 1.32993227341854], a = 0.2, v = 0.2, t = 0.2)
movej(p[-0.401094605333848, -0.115492271856519, 0.340333164088521, -1.15290546211395, -1.30301359961556, 1.32793896832422], a = 0.2, v = 0.2, t = 0.2)
movej(p[-0.400141764903223, -0.114722024506209, 0.340313820107363, -1.17225757375586, -1.31179948852973, 1.31381650934158], a = 0.2, v = 0.2, t = 0.2)
movej(p[-0.399295315866819, -0.114301513846645, 0.340261017758319, -1.18815295506054, -1.31440337033159, 1.30000201125376], a = 0.2, v = 0.2, t = 0.2)
movej(p[-0.398394673605011, -0.113888657043583, 0.340591462460668, -1.20562403402721, -1.32023372122237, 1.28636845988177], a = 0.2, v = 0.2, t = 0.2)
movej(p[-0.397560272512268, -0.113562041041072, 0.340826668713632, -1.20948947526277, -1.31251162809523, 1.27353550038949], a = 0.2, v = 0.2, t = 0.2)
movej(p[-0.397206074025119, -0.113539612960062, 0.341094545375145, -1.19956358033343, -1.29180960605513, 1.26200038809839], a = 0.2, v = 0.2, t = 0.2)
movej(p[-0.397801960553276, -0.113942276003797, 0.341137482524226, -1.18886843476882, -1.28166810735099, 1.27118293349737], a = 0.2, v = 0.2, t = 0.2)
movej(p[-0.398752371141823, -0.114415786959858, 0.341408467242739, -1.17849319515893, -1.28167365427151, 1.28719177975851], a = 0.2, v = 0.2, t = 0.2)
movej(p[-0.399448591271436, -0.114992507360053, 0.341925788929912, -1.15600037926174, -1.27347078366187, 1.30529574418423], a = 0.2, v = 0.2, t = 0.2)
movej(p[-0.39994449216948, -0.115516994318761, 0.342382169075804, -1.13640348598661, -1.26729435454571, 1.3123512187344], a = 0.2, v = 0.2, t = 0.2)
movej(p[-0.400534352857349, -0.11595846914419, 0.342330453291753, -1.12480963798738, -1.26497023380655, 1.32607710799309], a = 0.2, v = 0.2, t = 0.2)
movej(p[-0.401043154799638, -0.116079635079922, 0.342058067638788, -1.11993894650994, -1.26212128266333, 1.3364997099992], a = 0.2, v = 0.2, t = 0.2)
movej(p[-0.401276265499625, -0.116060197322305, 0.341643256375645, -1.11511420455518, -1.25646053458073, 1.34048872517527], a = 0.2, v = 0.2, t = 0.2)
movej(p[-0.401555667336793, -0.11593310614147, 0.340930875137989, -1.11800068171482, -1.26835734119372, 1.33868500581453], a = 0.2, v = 0.2, t = 0.2)
movej(p[-0.40150013096174, -0.115466129691915, 0.340290162935599, -1.13700059163225, -1.30102108824099, 1.33755629615413], a = 0.2, v = 0.2, t = 0.2)
movej(p[-0.400990609027631, -0.114870334566355, 0.339867137575224, -1.15470884353209, -1.31222758309088, 1.32930880582273], a = 0.2, v = 0.2, t = 0.2)
movej(p[-0.399973703861972, -0.114406089095904, 0.340073394478408, -1.1756121763687, -1.30974653440032, 1.31612506126966], a = 0.2, v = 0.2, t = 0.2)
movej(p[-0.399369560807165, -0.114338231437935, 0.340082474748652, -1.18730779295098, -1.29655222011506, 1.30398773064467], a = 0.2, v = 0.2, t = 0.2)
movej(p[-0.399236801553886, -0.11432292499285, 0.340355979523784, -1.19525036530168, -1.2955868740686, 1.30118151213024], a = 0.2, v = 0.2, t = 0.2)
movej(p[-0.399539375310868, -0.114428991430854, 0.340653940193025, -1.17894936573179, -1.28067306991157, 1.30348365862212], a = 0.2, v = 0.2, t = 0.2)
movej(p[-0.400042360430711, -0.114788795272885, 0.341161447829398, -1.157588394229, -1.26820157302092, 1.30564531172452], a = 0.2, v = 0.2, t = 0.2)
movej(p[-0.400753982259761, -0.115252721101177, 0.341252208648929, -1.14683093126483, -1.27178381010669, 1.32131996853224], a = 0.2, v = 0.2, t = 0.2)
movej(p[-0.40124077040148, -0.115548879892719, 0.341238295285775, -1.14466530078344, -1.27509323934034, 1.33282398037969], a = 0.2, v = 0.2, t = 0.2)
movej(p[-0.401505960011882, -0.115603973563875, 0.341212868875614, -1.13335839507625, -1.26814973745893, 1.34097125070447], a = 0.2, v = 0.2, t = 0.2)
movej(p[-0.401880941286222, -0.115712041288755, 0.340819520479616, -1.11862106914356, -1.25784271765759, 1.33829660742423], a = 0.2, v = 0.2, t = 0.2)
movej(p[-0.402501000579259, -0.115708392741056, 0.340176481441188, -1.12093230526393, -1.27432373182372, 1.34278203895374], a = 0.2, v = 0.2, t = 0.2)
movej(p[-0.402623989267817, -0.115585216625398, 0.339422627036006, -1.13771555931182, -1.28596835038529, 1.34436838418429], a = 0.2, v = 0.2, t = 0.2)
movej(p[-0.402063533520049, -0.115176793102401, 0.339270498995049, -1.15893922193754, -1.29371819285279, 1.34092269742693], a = 0.2, v = 0.2, t = 0.2)
movej(p[-0.401298753921724, -0.114826728476408, 0.33916726781558, -1.17348070724931, -1.2927130523116, 1.32324614391101], a = 0.2, v = 0.2, t = 0.2)
movej(p[-0.40058222561534, -0.114457199554197, 0.339237335145334, -1.18706014585793, -1.29937471167251, 1.30993905320295], a = 0.2, v = 0.2, t = 0.2)
movej(p[-0.400106751811755, -0.11416412923961, 0.339380062715246, -1.18614267420984, -1.29651786060008, 1.29838777893121], a = 0.2, v = 0.2, t = 0.2)
movej(p[-0.39985833010544, -0.114263525927908, 0.339788562101521, -1.17842597851973, -1.2782266576711, 1.29939105186286], a = 0.2, v = 0.2, t = 0.2)
movej(p[-0.400317328674529, -0.114656836410933, 0.339919381360104, -1.16312047906351, -1.26469708048085, 1.30491552085323], a = 0.2, v = 0.2, t = 0.2)
movej(p[-0.400834109165336, -0.114989233398695, 0.340060692183554, -1.16219765547014, -1.26750471722792, 1.31851214086408], a = 0.2, v = 0.2, t = 0.2)
movej(p[-0.401181917526949, -0.115138643481655, 0.340169630994464, -1.14810365830647, -1.26438719318344, 1.32412362364996], a = 0.2, v = 0.2, t = 0.2)
movej(p[-0.40143573480905, -0.115336402966237, 0.340186885619176, -1.12673538970785, -1.25086064144213, 1.33122921380279], a = 0.2, v = 0.2, t = 0.2)
movej(p[-0.401980943454947, -0.11557672021693, 0.339815091136023, -1.11486362513364, -1.24468731543065, 1.3389351044665], a = 0.2, v = 0.2, t = 0.2)
movej(p[-0.402326946154599, -0.115555988424527, 0.339420136017665, -1.11417746789655, -1.25230425232094, 1.3482801730765], a = 0.2, v = 0.2, t = 0.2)
movej(p[-0.402407707484689, -0.11546004926488, 0.33926901004171, -1.12200668359474, -1.25681511370696, 1.35000382558183], a = 0.2, v = 0.2, t = 0.2)
movej(p[-0.402437166626014, -0.115191552939514, 0.338794128539799, -1.12827411252233, -1.2670274876848, 1.33773181232844], a = 0.2, v = 0.2, t = 0.2)
movej(p[-0.402539146598522, -0.114946409786891, 0.338128506057059, -1.14515067023447, -1.2793976829596, 1.33308521933942], a = 0.2, v = 0.2, t = 0.2)
movej(p[-0.40210478852522, -0.114401023039177, 0.337874890059976, -1.16854284908861, -1.3007875746765, 1.32245262377936], a = 0.2, v = 0.2, t = 0.2)
movej(p[-0.401244675171119, -0.114040086380373, 0.338189363990259, -1.18601507139128, -1.30109017634152, 1.31583860892842], a = 0.2, v = 0.2, t = 0.2)
movej(p[-0.400619396468222, -0.11396581684253, 0.338376982724538, -1.19049792932628, -1.28920043505798, 1.30338062789266], a = 0.2, v = 0.2, t = 0.2)
movej(p[-0.400463152825172, -0.114036325491897, 0.338419436279994, -1.19415943501391, -1.28345086894229, 1.30661341920045], a = 0.2, v = 0.2, t = 0.2)
movej(p[-0.40062712110601, -0.114149145790465, 0.338626636939042, -1.18833536590358, -1.27611768244321, 1.31176531080277], a = 0.2, v = 0.2, t = 0.2)
movej(p[-0.400989158231084, -0.114327443556292, 0.339417072730027, -1.16860953576051, -1.27143599472973, 1.31718700686713], a = 0.2, v = 0.2, t = 0.2)
movej(p[-0.401637413775426, -0.114651236455217, 0.339500116019555, -1.14792780387966, -1.26254219334154, 1.31863779596871], a = 0.2, v = 0.2, t = 0.2)
movej(p[-0.402164666854828, -0.114895163271197, 0.339399581792014, -1.1425722938549, -1.26764156361848, 1.33116125293214], a = 0.2, v = 0.2, t = 0.2)
movej(p[-0.402392587171317, -0.114977166258289, 0.339290409185837, -1.13892370194841, -1.2651427052607, 1.3406981499833], a = 0.2, v = 0.2, t = 0.2)
movej(p[-0.402471514762222, -0.115154320860994, 0.338985142070126, -1.13673772104305, -1.25882249777036, 1.34232943826996], a = 0.2, v = 0.2, t = 0.2)
movej(p[-0.402824239521475, -0.115100677494106, 0.33816757230711, -1.14741864955301, -1.26697898917444, 1.33844337072435], a = 0.2, v = 0.2, t = 0.2)
movej(p[-0.402722829751065, -0.114891830897196, 0.337268988692934, -1.16789806402234, -1.28258811934452, 1.33781736282522], a = 0.2, v = 0.2, t = 0.2)
movej(p[-0.402026225438931, -0.114265254897119, 0.337180543728543, -1.18531894865367, -1.29561962116137, 1.33259065221979], a = 0.2, v = 0.2, t = 0.2)
movej(p[-0.401123877824165, -0.113922417912685, 0.337240380980568, -1.19120705182518, -1.28815395039204, 1.3169647510574], a = 0.2, v = 0.2, t = 0.2)
movej(p[-0.40060879807262, -0.113575228258693, 0.337628353355499, -1.19847750440778, -1.29387053932341, 1.30389086106849], a = 0.2, v = 0.2, t = 0.2)
movej(p[-0.400369821758665, -0.113554434002516, 0.338021120105973, -1.20483369461367, -1.2922405267168, 1.29999215949492], a = 0.2, v = 0.2, t = 0.2)
movej(p[-0.400377435171106, -0.113706822797809, 0.338476326247211, -1.18482023167949, -1.27587876677353, 1.30163434031775], a = 0.2, v = 0.2, t = 0.2)
movej(p[-0.400807318760563, -0.114176747717174, 0.338771088761237, -1.16342435052185, -1.25823455278172, 1.30087129636048], a = 0.2, v = 0.2, t = 0.2)
movej(p[-0.401451610400711, -0.114579762440496, 0.338934897873381, -1.15402228183915, -1.26325476256064, 1.31628440411716], a = 0.2, v = 0.2, t = 0.2)
movej(p[-0.401909448346092, -0.114677043863148, 0.33915800613113, -1.14946714425901, -1.27428991014183, 1.32722327697597], a = 0.2, v = 0.2, t = 0.2)
movej(p[-0.402032633224118, -0.114759544909547, 0.339359666149153, -1.139824331155, -1.26872222303184, 1.33259596022529], a = 0.2, v = 0.2, t = 0.2)
movej(p[-0.402414621988184, -0.114928749587179, 0.3390729424801, -1.13326638340971, -1.2618565945548, 1.32973124397494], a = 0.2, v = 0.2, t = 0.2)
movej(p[-0.402814786934178, -0.115080099083947, 0.338572580675577, -1.14777796618696, -1.28004042727732, 1.33841814814007], a = 0.2, v = 0.2, t = 0.2)
movej(p[-0.402780293426931, -0.114831723507449, 0.338087477296656, -1.16502582739695, -1.29732135945835, 1.34633923832611], a = 0.2, v = 0.2, t = 0.2)
movej(p[-0.402220207477357, -0.114498029689816, 0.337706667156603, -1.17674955196941, -1.29908276181214, 1.33839723685267], a = 0.2, v = 0.2, t = 0.2)
movej(p[-0.401742795887666, -0.114251160095872, 0.337232978436012, -1.1869405332461, -1.29140812609171, 1.32930746112503], a = 0.2, v = 0.2, t = 0.2)
movej(p[-0.401098635954545, -0.113936842465536, 0.337186044249961, -1.20047815785809, -1.29040762001811, 1.31130407469427], a = 0.2, v = 0.2, t = 0.2)
movej(p[-0.400663128518957, -0.113668373486773, 0.337416843688848, -1.20069388543369, -1.28882748221109, 1.30364839056848], a = 0.2, v = 0.2, t = 0.2)
movej(p[-0.400274676629559, -0.113570072499141, 0.338137450978191, -1.18930571423363, -1.27495083021584, 1.29028552258924], a = 0.2, v = 0.2, t = 0.2)
movej(p[-0.400684696293321, -0.113868551853426, 0.338359912436413, -1.17809088507464, -1.27182562444744, 1.30143188793767], a = 0.2, v = 0.2, t = 0.2)
movej(p[-0.401164476848925, -0.114062814310017, 0.338407121401915, -1.17115020969214, -1.27211502775725, 1.312849379239], a = 0.2, v = 0.2, t = 0.2)
movej(p[-0.401483996278231, -0.11425351224383, 0.338730575250764, -1.16180160273728, -1.26576596140652, 1.3255159726034], a = 0.2, v = 0.2, t = 0.2)
movej(p[-0.401783399764758, -0.114439580210046, 0.338990859468887, -1.14328631762731, -1.25654948864284, 1.32478770504116], a = 0.2, v = 0.2, t = 0.2)
movej(p[-0.40229943866933, -0.11480471596901, 0.338982859931725, -1.14278938683032, -1.2639433289564, 1.33653897006511], a = 0.2, v = 0.2, t = 0.2)
movej(p[-0.40275723066679, -0.114823919546485, 0.338681199476414, -1.13677341269209, -1.27288204509745, 1.33992030378114], a = 0.2, v = 0.2, t = 0.2)
movej(p[-0.402866312931579, -0.114770617516856, 0.338322493090673, -1.13640099901465, -1.27080558647792, 1.3386524819327], a = 0.2, v = 0.2, t = 0.2)
movej(p[-0.402986915006563, -0.114658470348815, 0.33753048797509, -1.13828614915667, -1.27125070576522, 1.33221377817704], a = 0.2, v = 0.2, t = 0.2)
movej(p[-0.402949500661687, -0.114394334204397, 0.336777425726, -1.15995708162878, -1.29173005097826, 1.33366528297206], a = 0.2, v = 0.2, t = 0.2)
movej(p[-0.402425770120598, -0.114081432203897, 0.336373389812113, -1.18488746715601, -1.30035899399164, 1.33506634148176], a = 0.2, v = 0.2, t = 0.2)
movej(p[-0.401574208336784, -0.113684756351353, 0.336689063565942, -1.19522319726457, -1.29452899785252, 1.32568391099377], a = 0.2, v = 0.2, t = 0.2)
movej(p[-0.400957361164045, -0.113691433042081, 0.336931865516686, -1.20035418375755, -1.27623816489044, 1.30980791570744], a = 0.2, v = 0.2, t = 0.2)
movej(p[-0.400784743199263, -0.113558056703155, 0.337326425069161, -1.20508839841009, -1.2818550650233, 1.30514279047755], a = 0.2, v = 0.2, t = 0.2)
movej(p[-0.400883795981486, -0.113659049152294, 0.337759429470467, -1.20433474413546, -1.27715054125684, 1.30817312232949], a = 0.2, v = 0.2, t = 0.2)
movej(p[-0.401102840442336, -0.113887890218543, 0.338326633790416, -1.18294474499339, -1.2645823012551, 1.31397613885827], a = 0.2, v = 0.2, t = 0.2)
movej(p[-0.401650555775034, -0.114375510486873, 0.338506346945863, -1.1721384023507, -1.25787617822785, 1.32093687553594], a = 0.2, v = 0.2, t = 0.2)
movej(p[-0.402057386681957, -0.114594242934312, 0.338615278730527, -1.16908481395655, -1.27057881546141, 1.33116361892774], a = 0.2, v = 0.2, t = 0.2)
movej(p[-0.402354668827847, -0.114605056204343, 0.338671378635395, -1.16133661696648, -1.27098803970837, 1.33939769565663], a = 0.2, v = 0.2, t = 0.2)
movej(p[-0.402558485825815, -0.114663567544502, 0.338469712763189, -1.14679637264603, -1.26520481593781, 1.33916457710647], a = 0.2, v = 0.2, t = 0.2)
movej(p[-0.403142591169875, -0.114726630002187, 0.337717335453609, -1.1503230979216, -1.26598882761477, 1.33309402160714], a = 0.2, v = 0.2, t = 0.2)
movej(p[-0.403297816526922, -0.114651089949813, 0.337112364647771, -1.17175125232189, -1.28710024720991, 1.33516851397515], a = 0.2, v = 0.2, t = 0.2)
movej(p[-0.402860846266148, -0.114277516362449, 0.336896043167395, -1.19182859119509, -1.29850728820874, 1.33285978809462], a = 0.2, v = 0.2, t = 0.2)
movej(p[-0.401966410395992, -0.113920309615758, 0.336879628900885, -1.19983315535725, -1.29496231564699, 1.32275783572908], a = 0.2, v = 0.2, t = 0.2)
movej(p[-0.401422340323199, -0.113711695531941, 0.337032715420293, -1.21386084025663, -1.30043609813553, 1.31920514884206], a = 0.2, v = 0.2, t = 0.2)
movej(p[-0.401079051898081, -0.113566485133385, 0.337234814745704, -1.21821224301078, -1.30014586902581, 1.31435068461218], a = 0.2, v = 0.2, t = 0.2)
movej(p[-0.401019880177632, -0.113586117713737, 0.337674229958558, -1.19920225196408, -1.28400411788016, 1.31230818869986], a = 0.2, v = 0.2, t = 0.2)
movej(p[-0.401229912361614, -0.113893076579766, 0.338033025549748, -1.17942522150139, -1.26409774706621, 1.30692995036668], a = 0.2, v = 0.2, t = 0.2)
movej(p[-0.401781853207688, -0.114135094873707, 0.338270346909582, -1.16890831359321, -1.2733519931924, 1.31617916580594], a = 0.2, v = 0.2, t = 0.2)
movej(p[-0.402133861709296, -0.114293369238703, 0.338561135627693, -1.17007999605541, -1.28237960236405, 1.33062941484052], a = 0.2, v = 0.2, t = 0.2)
movej(p[-0.402251469280465, -0.114255625514368, 0.338703129350713, -1.15158959983202, -1.27622707394554, 1.33155016952247], a = 0.2, v = 0.2, t = 0.2)
movej(p[-0.40244552009103, -0.114315250668121, 0.338468907472873, -1.1356415707073, -1.26850567854231, 1.33130040202266], a = 0.2, v = 0.2, t = 0.2)
movej(p[-0.402858878733014, -0.114569278563561, 0.337785067342469, -1.13895484873434, -1.27221788435693, 1.33881569989251], a = 0.2, v = 0.2, t = 0.2)
movej(p[-0.403017211451092, -0.114590850442659, 0.337097097162843, -1.15338674791068, -1.28014872883252, 1.34356176459547], a = 0.2, v = 0.2, t = 0.2)
movej(p[-0.402778167535673, -0.114456468622151, 0.336615175662734, -1.17057303568844, -1.27539460434331, 1.34221333297383], a = 0.2, v = 0.2, t = 0.2)
movej(p[-0.402424892294341, -0.114090810047454, 0.336151372132927, -1.18487189672424, -1.28205348867238, 1.32943398352636], a = 0.2, v = 0.2, t = 0.2)
movej(p[-0.401844979303923, -0.11362359170457, 0.336082215900265, -1.20408986369181, -1.3013719521345, 1.32325587504992], a = 0.2, v = 0.2, t = 0.2)
movej(p[-0.401173336265532, -0.113341893341899, 0.336341695131514, -1.21599583880743, -1.30551337786212, 1.31390945827519], a = 0.2, v = 0.2, t = 0.2)
movej(p[-0.400508196820802, -0.113146967677746, 0.337191458948417, -1.21687815301234, -1.3011139518011, 1.30276550814252], a = 0.2, v = 0.2, t = 0.2)
movej(p[-0.400642978868505, -0.113334923964346, 0.337463399758051, -1.20572282313016, -1.28595921442323, 1.29789948173565], a = 0.2, v = 0.2, t = 0.2)
movej(p[-0.401071847948653, -0.113427809939695, 0.337595412324409, -1.19551707556635, -1.28843770466655, 1.30151351281608], a = 0.2, v = 0.2, t = 0.2)
movej(p[-0.401557925868255, -0.113724034108578, 0.337691343486427, -1.1787514851824, -1.27234597763721, 1.31256906539087], a = 0.2, v = 0.2, t = 0.2)
movej(p[-0.401861516595727, -0.114061813351995, 0.33793521382679, -1.15968488103944, -1.25922331248757, 1.31930250497131], a = 0.2, v = 0.2, t = 0.2)
movej(p[-0.402381990646908, -0.114439826005529, 0.337719311020147, -1.15715085045204, -1.25732960069573, 1.33304195931762], a = 0.2, v = 0.2, t = 0.2)
movej(p[-0.402686489482623, -0.114536709981425, 0.337315356611504, -1.15585737681575, -1.26470816919394, 1.34227980679455], a = 0.2, v = 0.2, t = 0.2)
movej(p[-0.402782899599683, -0.114471384419008, 0.336878990584925, -1.15463622359341, -1.2645793223349, 1.3453279092175], a = 0.2, v = 0.2, t = 0.2)
movej(p[-0.402768644510914, -0.114380678217008, 0.336226373518789, -1.15614430767787, -1.26089417445051, 1.33496277027459], a = 0.2, v = 0.2, t = 0.2)
movej(p[-0.402777523598901, -0.114186180237876, 0.335672446647884, -1.17723024453935, -1.27940098894448, 1.33150191385545], a = 0.2, v = 0.2, t = 0.2)
movej(p[-0.402146606271094, -0.113642209654243, 0.335733257087902, -1.21180837656095, -1.31067523099824, 1.32471588094122], a = 0.2, v = 0.2, t = 0.2)
movej(p[-0.40089380288804, -0.112992905854657, 0.336039467279361, -1.2332777464952, -1.32112401391517, 1.31652169405879], a = 0.2, v = 0.2, t = 0.2)
movej(p[-0.39927622147395, -0.11233424552569, 0.336268210125885, -1.24521948684957, -1.31893336620403, 1.29347107447143], a = 0.2, v = 0.2, t = 0.2)
movej(p[-0.39762622122371, -0.111880202049091, 0.336383093134056, -1.26447906865432, -1.31783475715729, 1.28496602617725], a = 0.2, v = 0.2, t = 0.2)
movej(p[-0.39593099664853, -0.111357328399436, 0.337041849535316, -1.28372193896631, -1.32235531392987, 1.26584312239274], a = 0.2, v = 0.2, t = 0.2)
movej(p[-0.39441236301895, -0.110926767350311, 0.337946858006041, -1.29255787621572, -1.31321377896793, 1.24986581893218], a = 0.2, v = 0.2, t = 0.2)
movej(p[-0.393919344023884, -0.111018895940904, 0.338753826780715, -1.28897446470276, -1.29780958290741, 1.23430952146691], a = 0.2, v = 0.2, t = 0.2)
movej(p[-0.394366763843663, -0.111548577411646, 0.339489254642589, -1.2744102217078, -1.28821607285711, 1.23863027705655], a = 0.2, v = 0.2, t = 0.2)
movej(p[-0.395659736960875, -0.112503942594235, 0.340385770520064, -1.24203812439624, -1.27307644837188, 1.24672588002831], a = 0.2, v = 0.2, t = 0.2)
movej(p[-0.396964198416472, -0.113544410666161, 0.341190067267704, -1.20099810559507, -1.26086391547185, 1.25714780250872], a = 0.2, v = 0.2, t = 0.2)
movej(p[-0.398270453712574, -0.114528511570847, 0.341562029389975, -1.17306926413009, -1.26096590812929, 1.27506858561924], a = 0.2, v = 0.2, t = 0.2)
movej(p[-0.399116347873559, -0.115227266925262, 0.341959297484195, -1.15586021057742, -1.270728531502, 1.29562155767245], a = 0.2, v = 0.2, t = 0.2)
movej(p[-0.39967913501482, -0.11563790410621, 0.342345836798211, -1.1420596952748, -1.27030745603956, 1.31044557316673], a = 0.2, v = 0.2, t = 0.2)
movej(p[-0.399950324266504, -0.115906411741782, 0.342396663822869, -1.12388899762454, -1.25713788405086, 1.31255299605457], a = 0.2, v = 0.2, t = 0.2)
movej(p[-0.40041896290008, -0.116088962156567, 0.341724665364849, -1.12920437774816, -1.2645359442654, 1.31580433570239], a = 0.2, v = 0.2, t = 0.2)
movej(p[-0.400242096181614, -0.115549340844613, 0.340786092820725, -1.14117331634527, -1.28950783065484, 1.31632591851565], a = 0.2, v = 0.2, t = 0.2)
movej(p[-0.399295013632349, -0.11461991093219, 0.340076221847951, -1.16454745757403, -1.30291869572779, 1.30291752087415], a = 0.2, v = 0.2, t = 0.2)
movej(p[-0.397918810497243, -0.113596112032965, 0.339738383688263, -1.17937028679426, -1.30300651763825, 1.2836268086607], a = 0.2, v = 0.2, t = 0.2)
movej(p[-0.396816200301859, -0.113104387729707, 0.339871944532157, -1.20581747511137, -1.30070250212057, 1.2655873687265], a = 0.2, v = 0.2, t = 0.2)
movej(p[-0.395805796434162, -0.112707330961201, 0.340370361920324, -1.22584235484927, -1.30622877347033, 1.25386088388482], a = 0.2, v = 0.2, t = 0.2)
movej(p[-0.394678312317323, -0.11227426502378, 0.341046061473174, -1.23751495659286, -1.30716831329328, 1.24070977719209], a = 0.2, v = 0.2, t = 0.2)
movej(p[-0.393927536863832, -0.112229251544127, 0.341418968465714, -1.23993444372102, -1.29692642380049, 1.23107146554893], a = 0.2, v = 0.2, t = 0.2)
movej(p[-0.393823023614087, -0.11242503759868, 0.341521471985022, -1.23647120914996, -1.29234841887501, 1.22875137903053], a = 0.2, v = 0.2, t = 0.2)
movej(p[-0.394453330130248, -0.11281729629194, 0.341724355950005, -1.21931487978767, -1.27972543625174, 1.2326817884132], a = 0.2, v = 0.2, t = 0.2)
movej(p[-0.395588309073166, -0.113480874218987, 0.342094126897849, -1.18880525546362, -1.26596805928069, 1.24064589651908], a = 0.2, v = 0.2, t = 0.2)
movej(p[-0.397089792765098, -0.114317601766202, 0.342335213672672, -1.16175603015256, -1.25841415451044, 1.25448122848422], a = 0.2, v = 0.2, t = 0.2)
movej(p[-0.398416279230581, -0.115197304005537, 0.342639256312772, -1.14635310338353, -1.26539685465426, 1.2839730254965], a = 0.2, v = 0.2, t = 0.2)
movej(p[-0.399190621530637, -0.1156946076654, 0.343132151824611, -1.13487245892995, -1.27289382815486, 1.3025643946114], a = 0.2, v = 0.2, t = 0.2)
movej(p[-0.399592183370989, -0.116074175772241, 0.343375384594614, -1.11387892707899, -1.26329684599565, 1.31131935526798], a = 0.2, v = 0.2, t = 0.2)
movej(p[-0.400135042125261, -0.11634464949982, 0.343047392330071, -1.10122310069229, -1.26063570448557, 1.31071560812242], a = 0.2, v = 0.2, t = 0.2)
movej(p[-0.400518213225776, -0.116437059195314, 0.342441739449282, -1.10337318929029, -1.26656608867885, 1.31708439857229], a = 0.2, v = 0.2, t = 0.2)
movej(p[-0.400681656048664, -0.116174240392224, 0.342037933480543, -1.10793835432208, -1.26984657027583, 1.32402163955153], a = 0.2, v = 0.2, t = 0.2)
movej(p[-0.400723119057215, -0.115975340479529, 0.341884573974637, -1.10996379596981, -1.26116673305064, 1.32111061871606], a = 0.2, v = 0.2, t = 0.2)
movej(p[-0.401073375596226, -0.115884073642544, 0.341716615209855, -1.11819695428586, -1.26138482778187, 1.32206466344601], a = 0.2, v = 0.2, t = 0.2)
movej(p[-0.401050370760054, -0.11552136907328, 0.341623619787667, -1.13109459216575, -1.26907700157376, 1.31855644081766], a = 0.2, v = 0.2, t = 0.2)
movej(p[-0.400984026166786, -0.11524491148802, 0.34150757626783, -1.13043890253669, -1.26441145002931, 1.32180842778091], a = 0.2, v = 0.2, t = 0.2)
movej(p[-0.401048572967646, -0.11518479987687, 0.341111589689265, -1.11762360383019, -1.25180489704868, 1.32216493652763], a = 0.2, v = 0.2, t = 0.2)
movej(p[-0.401550988214179, -0.115425957123488, 0.340646251484026, -1.11550820087557, -1.25360746320348, 1.33548106525866], a = 0.2, v = 0.2, t = 0.2)
movej(p[-0.401797796969026, -0.115517897889603, 0.340350138140596, -1.1228472734472, -1.25952041993526, 1.34436747617443], a = 0.2, v = 0.2, t = 0.2)
movej(p[-0.401863588501634, -0.115554205910809, 0.339945249678013, -1.12329323712546, -1.26016616061358, 1.35009883302173], a = 0.2, v = 0.2, t = 0.2)
movej(p[-0.402115030308769, -0.1154335561015, 0.339027356876844, -1.12559197124362, -1.26589929562968, 1.3384162651651], a = 0.2, v = 0.2, t = 0.2)
movej(p[-0.402104378825197, -0.115053144659177, 0.338074454318736, -1.13923428065366, -1.28877423533241, 1.33948191351368], a = 0.2, v = 0.2, t = 0.2)
movej(p[-0.401518279005083, -0.114270144548857, 0.337903648675385, -1.16512497388249, -1.31494478513633, 1.32698653610719], a = 0.2, v = 0.2, t = 0.2)
movej(p[-0.400266857987714, -0.113526027191074, 0.338241896225459, -1.18628277034787, -1.3202588643694, 1.31372792798538], a = 0.2, v = 0.2, t = 0.2)
movej(p[-0.399141838023678, -0.113111219107585, 0.338689681100588, -1.20785958039342, -1.32044147765502, 1.29615304860586], a = 0.2, v = 0.2, t = 0.2)
movej(p[-0.397958716568495, -0.112736762771263, 0.338852979889542, -1.21962262210433, -1.31312812748273, 1.27998626748971], a = 0.2, v = 0.2, t = 0.2)
movej(p[-0.397070306717837, -0.112464568949877, 0.339368547004914, -1.219528818526, -1.29873693870725, 1.26711321648237], a = 0.2, v = 0.2, t = 0.2)
movej(p[-0.396936741056912, -0.112590540555104, 0.339626960621618, -1.20497545843207, -1.27458045402054, 1.2587865914981], a = 0.2, v = 0.2, t = 0.2)
movej(p[-0.397758855518144, -0.11324886481952, 0.339822813444965, -1.19766829986027, -1.26937694921371, 1.27575856114636], a = 0.2, v = 0.2, t = 0.2)
movej(p[-0.398801024421245, -0.113972340672072, 0.340192942064616, -1.17982039486925, -1.26537314440321, 1.29406663831327], a = 0.2, v = 0.2, t = 0.2)
movej(p[-0.399415003520169, -0.11466546692042, 0.341017520693757, -1.16002088153579, -1.2608328233181, 1.30974867290932], a = 0.2, v = 0.2, t = 0.2)
movej(p[-0.40002088430216, -0.115084989185327, 0.341488761162054, -1.13819333850075, -1.26247505091953, 1.31530935499599], a = 0.2, v = 0.2, t = 0.2)
movej(p[-0.400484697844813, -0.115343279074463, 0.341548077616109, -1.12859293094696, -1.26710799386571, 1.32429378542536], a = 0.2, v = 0.2, t = 0.2)
movej(p[-0.400921174395152, -0.11538206653291, 0.341428995599955, -1.11942627510635, -1.26700407119815, 1.32804890330238], a = 0.2, v = 0.2, t = 0.2)
movej(p[-0.40109878660191, -0.115414235959859, 0.340938453562021, -1.11510188081435, -1.2601880557181, 1.32671366535318], a = 0.2, v = 0.2, t = 0.2)
movej(p[-0.401400164540686, -0.115344039993317, 0.339884095295965, -1.12346758313907, -1.27241557618848, 1.33011205759134], a = 0.2, v = 0.2, t = 0.2)
movej(p[-0.401152025570879, -0.114989158134815, 0.338862561206975, -1.14792524640249, -1.29254256245937, 1.33002513274357], a = 0.2, v = 0.2, t = 0.2)
movej(p[-0.400286864561096, -0.114364247548975, 0.338453224923515, -1.17176901286149, -1.30397326163825, 1.31999844365752], a = 0.2, v = 0.2, t = 0.2)
movej(p[-0.398943781848556, -0.1136605981755, 0.338774180397817, -1.18987812080109, -1.30240358196627, 1.29534042769025], a = 0.2, v = 0.2, t = 0.2)
movej(p[-0.397734431822205, -0.113014539877047, 0.339033880299944, -1.20923295479415, -1.31117188281783, 1.27613778466325], a = 0.2, v = 0.2, t = 0.2)
movej(p[-0.396678735131164, -0.112468611302401, 0.339425591531352, -1.2253492195833, -1.31497277821666, 1.2613275042827], a = 0.2, v = 0.2, t = 0.2)
movej(p[-0.395921380741806, -0.112270102406382, 0.339855066932801, -1.22416823591406, -1.29910220864629, 1.2508317501839], a = 0.2, v = 0.2, t = 0.2)
movej(p[-0.396094440529061, -0.112610549062616, 0.340242561220066, -1.21242418742635, -1.28164496811189, 1.24414374134066], a = 0.2, v = 0.2, t = 0.2)
movej(p[-0.397009584096297, -0.113110435361901, 0.340509576949067, -1.19587074676735, -1.28142200745304, 1.2571034344503], a = 0.2, v = 0.2, t = 0.2)
movej(p[-0.398211206234513, -0.113791231765028, 0.340896547495799, -1.17316961443283, -1.27550340405955, 1.27406195124145], a = 0.2, v = 0.2, t = 0.2)
movej(p[-0.398937723448898, -0.11449467649468, 0.341549684747168, -1.14864192975384, -1.2656940776232, 1.29350844481916], a = 0.2, v = 0.2, t = 0.2)
movej(p[-0.399654760032394, -0.115200303703979, 0.341885643146121, -1.13127400487168, -1.25861128900575, 1.30707479530737], a = 0.2, v = 0.2, t = 0.2)
movej(p[-0.400115533684497, -0.115580466969117, 0.342091127788531, -1.12854042489302, -1.26804641078361, 1.32444150471358], a = 0.2, v = 0.2, t = 0.2)
movej(p[-0.400524782074923, -0.115668241442596, 0.342114256637173, -1.12710096581622, -1.27146454955851, 1.33449106034068], a = 0.2, v = 0.2, t = 0.2)
movej(p[-0.400683496432467, -0.115751676310489, 0.341668098302148, -1.12391900199234, -1.26581797314777, 1.33568887029635], a = 0.2, v = 0.2, t = 0.2)
movej(p[-0.401069939212916, -0.115666605964736, 0.340775555419348, -1.13186552423043, -1.28023322120553, 1.33020741954139], a = 0.2, v = 0.2, t = 0.2)
movej(p[-0.401018888286404, -0.115327945518464, 0.340139553786784, -1.15548282950221, -1.30306456013493, 1.33026774248902], a = 0.2, v = 0.2, t = 0.2)
movej(p[-0.400494826383877, -0.114699472028332, 0.339925445962729, -1.17156794693189, -1.31291074284172, 1.31719627649982], a = 0.2, v = 0.2, t = 0.2)
movej(p[-0.399670783582716, -0.114299566400447, 0.339987305243675, -1.18193907512351, -1.30478658257659, 1.30647541365005], a = 0.2, v = 0.2, t = 0.2)
movej(p[-0.399227235550057, -0.114099208690033, 0.339887977427822, -1.19156415088441, -1.30300274010896, 1.29771785536314], a = 0.2, v = 0.2, t = 0.2)
movej(p[-0.399019969655388, -0.113883546058791, 0.339875147463186, -1.19348528780007, -1.29875246581199, 1.29357907231886], a = 0.2, v = 0.2, t = 0.2)
movej(p[-0.399018404593572, -0.113964307088689, 0.340215659058629, -1.17896653980698, -1.28294555218126, 1.29471087268641], a = 0.2, v = 0.2, t = 0.2)
movej(p[-0.399550000849567, -0.114362690634422, 0.34032046111539, -1.14891534499256, -1.26122385275493, 1.29802940301371], a = 0.2, v = 0.2, t = 0.2)
movej(p[-0.400271138052142, -0.114910581935506, 0.340381516661896, -1.13722653235302, -1.26217339994398, 1.3159243862234], a = 0.2, v = 0.2, t = 0.2)
movej(p[-0.400798915017193, -0.115166708130806, 0.340374878104586, -1.13225739667018, -1.25852207068242, 1.32969748841992], a = 0.2, v = 0.2, t = 0.2)
movej(p[-0.401011699212995, -0.115332791997381, 0.340608181975493, -1.12605834904988, -1.25239514302936, 1.33821093023908], a = 0.2, v = 0.2, t = 0.2)
movej(p[-0.401412410389045, -0.11558561043673, 0.340376586585398, -1.11764695645684, -1.24887685333788, 1.34026179425556], a = 0.2, v = 0.2, t = 0.2)
movej(p[-0.401806141501056, -0.115553686983635, 0.339985081305386, -1.11887112245519, -1.26855587216316, 1.34253059120899], a = 0.2, v = 0.2, t = 0.2)
movej(p[-0.401860254077001, -0.115355707950962, 0.339266204347384, -1.13054310464931, -1.28184538254192, 1.33826418772102], a = 0.2, v = 0.2, t = 0.2)
movej(p[-0.401451183485489, -0.114880370418302, 0.338716129499473, -1.14827663306797, -1.28908819043703, 1.32515279159268], a = 0.2, v = 0.2, t = 0.2)
movej(p[-0.40108559621194, -0.114484273709569, 0.338117840068887, -1.17091062091027, -1.2908696827229, 1.31589458565023], a = 0.2, v = 0.2, t = 0.2)
movej(p[-0.40056154171217, -0.114090518822084, 0.338246474550474, -1.19949048834063, -1.30447652245443, 1.31438791728221], a = 0.2, v = 0.2, t = 0.2)
movej(p[-0.400070504268082, -0.113873045454253, 0.338695553410795, -1.20443135261595, -1.2970349483289, 1.31503587843077], a = 0.2, v = 0.2, t = 0.2)
movej(p[-0.399913129452411, -0.114020811998028, 0.339557575110947, -1.19378797200872, -1.28593674620394, 1.3107379941322], a = 0.2, v = 0.2, t = 0.2)
movej(p[-0.400383393091329, -0.114326952882765, 0.339441985471688, -1.17301743252351, -1.27233443623015, 1.31274728593333], a = 0.2, v = 0.2, t = 0.2)
movej(p[-0.400832095878477, -0.114541344064742, 0.339667531608644, -1.16407889428417, -1.27264827999312, 1.32000978796254], a = 0.2, v = 0.2, t = 0.2)
movej(p[-0.40106946294454, -0.114664461636825, 0.33973732238091, -1.14497116755186, -1.26448178591836, 1.32717452739535], a = 0.2, v = 0.2, t = 0.2)
movej(p[-0.401385240370631, -0.114977095105356, 0.339803026414464, -1.1306660874453, -1.25878833652262, 1.33303745594192], a = 0.2, v = 0.2, t = 0.2)
movej(p[-0.401800954332814, -0.115120774497578, 0.339636855786503, -1.12848423980372, -1.26577423214237, 1.34379019371837], a = 0.2, v = 0.2, t = 0.2)
movej(p[-0.402046550545043, -0.11510179774303, 0.339223935253439, -1.13012499298282, -1.26358580820505, 1.34957930092618], a = 0.2, v = 0.2, t = 0.2)
movej(p[-0.402100676614702, -0.115028042209717, 0.339104131067414, -1.12795614889716, -1.25586606963333, 1.35321098620914], a = 0.2, v = 0.2, t = 0.2)
movej(p[-0.402466119888285, -0.115217574868891, 0.338611172652232, -1.12272998564447, -1.2532231708704, 1.35119930027079], a = 0.2, v = 0.2, t = 0.2)
movej(p[-0.402773663873159, -0.115325740723426, 0.338202284917634, -1.13770003134811, -1.27047605826823, 1.35406493094458], a = 0.2, v = 0.2, t = 0.2)
movej(p[-0.402816615329248, -0.115131837887591, 0.337674470228798, -1.14868757768246, -1.27784781975079, 1.35117424747757], a = 0.2, v = 0.2, t = 0.2)
movej(p[-0.402577184227773, -0.114815268509278, 0.337429363345613, -1.16112564615743, -1.27749972891787, 1.34081123286134], a = 0.2, v = 0.2, t = 0.2)
movej(p[-0.402575174009487, -0.114467591914122, 0.337063115182883, -1.167941503355, -1.28567684985753, 1.33813228946241], a = 0.2, v = 0.2, t = 0.2)
movej(p[-0.402490958456132, -0.114194649585054, 0.337020812250645, -1.1787261618575, -1.29558709249238, 1.33806769293172], a = 0.2, v = 0.2, t = 0.2)
movej(p[-0.402330862543765, -0.114106015008778, 0.337293384042347, -1.17185122185387, -1.28650167089021, 1.33932749999209], a = 0.2, v = 0.2, t = 0.2)
movej(p[-0.402311067637679, -0.114323017784337, 0.33732922945339, -1.1543403952943, -1.26633679558883, 1.33581682504838], a = 0.2, v = 0.2, t = 0.2)
movej(p[-0.402672255728905, -0.114558824891452, 0.33722722698533, -1.14934908425589, -1.26972408889152, 1.33971366842154], a = 0.2, v = 0.2, t = 0.2)
movej(p[-0.402961903141504, -0.114592197698774, 0.337017719194291, -1.15044973969125, -1.27432870358329, 1.3464797106483], a = 0.2, v = 0.2, t = 0.2)
movej(p[-0.403040524422043, -0.114492584367464, 0.336899538438786, -1.14227702847617, -1.26725942875373, 1.34983532311996], a = 0.2, v = 0.2, t = 0.2)
movej(p[-0.40324409724331, -0.114511078773893, 0.336196424787253, -1.14280519333505, -1.26990668331511, 1.34506493268025], a = 0.2, v = 0.2, t = 0.2)
movej(p[-0.403286000208173, -0.11434865716597, 0.335519055798875, -1.15603838297459, -1.29085312396246, 1.3433126828427], a = 0.2, v = 0.2, t = 0.2)
movej(p[-0.402867496899419, -0.113931112937805, 0.335470939970009, -1.1805329136917, -1.31280282798077, 1.33589132412597], a = 0.2, v = 0.2, t = 0.2)
movej(p[-0.402007866636999, -0.113503365194626, 0.335738427007148, -1.19781949013399, -1.31101953339103, 1.32348881617983], a = 0.2, v = 0.2, t = 0.2)
movej(p[-0.401264242241453, -0.113291902914322, 0.335967461420188, -1.21009243225166, -1.30667672428485, 1.31430140073729], a = 0.2, v = 0.2, t = 0.2)
movej(p[-0.400707189867155, -0.113147310573526, 0.33606491729365, -1.21473942909846, -1.30129829466963, 1.30556770612308], a = 0.2, v = 0.2, t = 0.2)
movej(p[-0.400480761817149, -0.11308577143852, 0.3367337684079, -1.20496998461459, -1.29331332637227, 1.30276613555185], a = 0.2, v = 0.2, t = 0.2)
movej(p[-0.40073181188107, -0.113392899681358, 0.337236891144273, -1.17800429374586, -1.27105043723057, 1.30368967409945], a = 0.2, v = 0.2, t = 0.2)
movej(p[-0.401456201233456, -0.113886173254856, 0.337576819751248, -1.16693807288811, -1.27058424351774, 1.32010317429963], a = 0.2, v = 0.2, t = 0.2)
movej(p[-0.402045661121246, -0.114263468413465, 0.337558351292296, -1.16459184945594, -1.27084636399004, 1.33813739625978], a = 0.2, v = 0.2, t = 0.2)
movej(p[-0.40228159770554, -0.11426737363911, 0.337942071409445, -1.15433587831142, -1.27019914650947, 1.34275239987283], a = 0.2, v = 0.2, t = 0.2)
movej(p[-0.402553513737668, -0.114516023653209, 0.337781079541451, -1.14537148565675, -1.2605252496521, 1.33978785379029], a = 0.2, v = 0.2, t = 0.2)
movej(p[-0.40297291778628, -0.11459691712807, 0.337487126042012, -1.14332445881888, -1.27466328943335, 1.34282764734913], a = 0.2, v = 0.2, t = 0.2)
movej(p[-0.40317191310976, -0.114709066307848, 0.336927967294331, -1.15783892251667, -1.28315806086704, 1.3483148463082], a = 0.2, v = 0.2, t = 0.2)
movej(p[-0.402959374465393, -0.114342214202281, 0.336568848256133, -1.16166191000692, -1.2881115243755, 1.3414321489027], a = 0.2, v = 0.2, t = 0.2)
movej(p[-0.402613159582553, -0.114088996674828, 0.336031275370401, -1.1771677567071, -1.28915697559507, 1.33290176945328], a = 0.2, v = 0.2, t = 0.2)
movej(p[-0.402177333893364, -0.113685723840733, 0.335714964747873, -1.19508591414433, -1.30336529720341, 1.32375522017986], a = 0.2, v = 0.2, t = 0.2)
movej(p[-0.401494086067433, -0.113391472121195, 0.335852290769842, -1.21413323612609, -1.30896219943464, 1.32114281604715], a = 0.2, v = 0.2, t = 0.2)
movej(p[-0.40087164597272, -0.113265618626212, 0.336566250570036, -1.21635021965414, -1.29467223399009, 1.30949510006238], a = 0.2, v = 0.2, t = 0.2)
movej(p[-0.4008852207746, -0.113404021070032, 0.33681625806652, -1.20466226918974, -1.27761369788319, 1.30062583767433], a = 0.2, v = 0.2, t = 0.2)
movej(p[-0.401272718806137, -0.113572431067205, 0.33712285553619, -1.19832139876088, -1.27873816436849, 1.30858378134808], a = 0.2, v = 0.2, t = 0.2)
movej(p[-0.401721975459101, -0.113778109152282, 0.337351574239155, -1.18209586705318, -1.26994794349513, 1.32118886884215], a = 0.2, v = 0.2, t = 0.2)
movej(p[-0.402012690187974, -0.11408073056189, 0.337854960050699, -1.16870273867983, -1.26030683327742, 1.3334770359959], a = 0.2, v = 0.2, t = 0.2)
movej(p[-0.402563524150547, -0.114385489290734, 0.337799410137381, -1.16129532205026, -1.25856170647057, 1.33874333584551], a = 0.2, v = 0.2, t = 0.2)
movej(p[-0.402922510666963, -0.114555039560366, 0.337363949936641, -1.16357441246766, -1.26854260489888, 1.34620523173396], a = 0.2, v = 0.2, t = 0.2)
movej(p[-0.403021752200769, -0.114457798407347, 0.336905290202616, -1.16224502301615, -1.27387028507906, 1.34872421202434], a = 0.2, v = 0.2, t = 0.2)
movej(p[-0.402879985960014, -0.114252748827408, 0.336429381055196, -1.16736776297089, -1.27758200682726, 1.3376017826718], a = 0.2, v = 0.2, t = 0.2)
movej(p[-0.402819497112112, -0.113951879949968, 0.335898745231342, -1.18900824025905, -1.29674561798835, 1.3295144798682], a = 0.2, v = 0.2, t = 0.2)
movej(p[-0.402275761554904, -0.113353037754876, 0.335775183567367, -1.21239908524484, -1.32549912841381, 1.3183171519577], a = 0.2, v = 0.2, t = 0.2)
movej(p[-0.401110219070865, -0.112868388569866, 0.335890049838613, -1.23186486052857, -1.33246306715018, 1.3102985058369], a = 0.2, v = 0.2, t = 0.2)
movej(p[-0.399544483971846, -0.11230366930709, 0.33622730160503, -1.23998293624896, -1.33684493856068, 1.2886170038499], a = 0.2, v = 0.2, t = 0.2)
movej(p[-0.397916081533941, -0.111896735205797, 0.336368420871711, -1.26055222453344, -1.33558539682211, 1.27625912618081], a = 0.2, v = 0.2, t = 0.2)
movej(p[-0.396150778233972, -0.111334440290565, 0.336950955975736, -1.28001935702006, -1.33791021894927, 1.25630925791863], a = 0.2, v = 0.2, t = 0.2)
movej(p[-0.394429232604071, -0.110856973547409, 0.337529595244493, -1.29732337398546, -1.32568603501342, 1.24350483626409], a = 0.2, v = 0.2, t = 0.2)
movej(p[-0.393108413577687, -0.110456950838081, 0.338253283852642, -1.31115057199214, -1.32245788529171, 1.22936074216083], a = 0.2, v = 0.2, t = 0.2)
movej(p[-0.392354783600372, -0.110366233270268, 0.338855669088419, -1.31513018153141, -1.3176837510414, 1.22714559805112], a = 0.2, v = 0.2, t = 0.2)
movej(p[-0.392377133855909, -0.110833588822828, 0.340529160879606, -1.30082733684361, -1.30590768744257, 1.22835059533313], a = 0.2, v = 0.2, t = 0.2)
movej(p[-0.392632197909028, -0.111709035390889, 0.342593758904931, -1.2653015362165, -1.28211394770617, 1.22466111361322], a = 0.2, v = 0.2, t = 0.2)
movej(p[-0.393047033755841, -0.112874461205889, 0.344863531902376, -1.23030687160312, -1.27601798932486, 1.22251822175111], a = 0.2, v = 0.2, t = 0.2)
movej(p[-0.393267657683267, -0.113882110138511, 0.346311207608891, -1.19661124437217, -1.26913791295157, 1.21937660295411], a = 0.2, v = 0.2, t = 0.2)
movej(p[-0.393885864984911, -0.114751083247822, 0.346980231580844, -1.1628666501088, -1.26016911423516, 1.22280741229865], a = 0.2, v = 0.2, t = 0.2)
movej(p[-0.395078746018787, -0.115695597135356, 0.347085136347742, -1.125940475674, -1.24755935228117, 1.23722615766036], a = 0.2, v = 0.2, t = 0.2)
movej(p[-0.396742460091326, -0.116584881615151, 0.346733022473504, -1.09838694936658, -1.25475831839146, 1.26368141671038], a = 0.2, v = 0.2, t = 0.2)
movej(p[-0.397686626098118, -0.117008559947152, 0.346594352099557, -1.09104427643057, -1.26743316211263, 1.28474568432278], a = 0.2, v = 0.2, t = 0.2)
movej(p[-0.398290031932246, -0.117115220421418, 0.346374128843362, -1.07787163163722, -1.2692559743753, 1.29526139911424], a = 0.2, v = 0.2, t = 0.2)
movej(p[-0.398740857594401, -0.1171648588093, 0.345816033965414, -1.07386272240998, -1.26683128799961, 1.29703438639115], a = 0.2, v = 0.2, t = 0.2)
movej(p[-0.399525700511348, -0.117218921800633, 0.344557213323429, -1.08381643041349, -1.26969474323599, 1.3051548939682], a = 0.2, v = 0.2, t = 0.2)
movej(p[-0.399615532131569, -0.116848192024265, 0.343360428412544, -1.11046538184988, -1.28607274543463, 1.3101832508152], a = 0.2, v = 0.2, t = 0.2)
movej(p[-0.398841635966625, -0.116064856973781, 0.342794900520158, -1.13600873349185, -1.29105266101408, 1.30223331226409], a = 0.2, v = 0.2, t = 0.2)
movej(p[-0.397641681787773, -0.115265780104449, 0.342714278212731, -1.15735906769967, -1.30219902391725, 1.28624369632984], a = 0.2, v = 0.2, t = 0.2)
movej(p[-0.39654312899258, -0.11452445206693, 0.342791027069805, -1.17970368489167, -1.31076279656327, 1.26744042960022], a = 0.2, v = 0.2, t = 0.2)
movej(p[-0.39527778132025, -0.113837466056976, 0.342971508152349, -1.20005320361024, -1.31185667189236, 1.25051232620577], a = 0.2, v = 0.2, t = 0.2)
movej(p[-0.393910628011877, -0.113222124352958, 0.343163534917934, -1.20889413668616, -1.30349885188089, 1.23505338745887], a = 0.2, v = 0.2, t = 0.2)
movej(p[-0.393089110478078, -0.113072525106192, 0.343214177755795, -1.21414435103911, -1.29129069007499, 1.22527059841714], a = 0.2, v = 0.2, t = 0.2)
movej(p[-0.393114816160667, -0.113265076556257, 0.343206651338288, -1.20804299542334, -1.28163295425867, 1.22449374692473], a = 0.2, v = 0.2, t = 0.2)
movej(p[-0.393740176178079, -0.113655856640205, 0.343717247239771, -1.19814581368496, -1.27592843699386, 1.22936716974309], a = 0.2, v = 0.2, t = 0.2)
movej(p[-0.394897996403831, -0.114415319965851, 0.344108067950889, -1.17052129641322, -1.26024109493237, 1.2400796521752], a = 0.2, v = 0.2, t = 0.2)
movej(p[-0.396391045775786, -0.115268539236129, 0.344314029865556, -1.14930701279578, -1.26063539271896, 1.26179410923142], a = 0.2, v = 0.2, t = 0.2)
movej(p[-0.397603068859929, -0.116067226462823, 0.344395272759555, -1.13064638041502, -1.26261194118419, 1.28654454176124], a = 0.2, v = 0.2, t = 0.2)
movej(p[-0.398294826331223, -0.116587690187305, 0.344637450241595, -1.11076455403146, -1.26016410958144, 1.30319627182149], a = 0.2, v = 0.2, t = 0.2)
movej(p[-0.398710569663986, -0.117002268437395, 0.344968530648468, -1.09269101875022, -1.2547647537481, 1.31223792101148], a = 0.2, v = 0.2, t = 0.2)
movej(p[-0.39945508712372, -0.117165697719856, 0.344439369839464, -1.0775099044876, -1.25830791817096, 1.31765171347074], a = 0.2, v = 0.2, t = 0.2)
movej(p[-0.399842094283099, -0.117011500700502, 0.343782137302372, -1.08871478324289, -1.27620229593982, 1.32565017969008], a = 0.2, v = 0.2, t = 0.2)
movej(p[-0.399620254590791, -0.116469837244668, 0.342972430349747, -1.11079361038176, -1.28952925694774, 1.32798257796478], a = 0.2, v = 0.2, t = 0.2)
movej(p[-0.398997680151829, -0.115873628632127, 0.342333600548326, -1.13751205132301, -1.29364689545678, 1.31445885360374], a = 0.2, v = 0.2, t = 0.2)
movej(p[-0.398290005552138, -0.115240760085443, 0.342023593696031, -1.15949279324629, -1.30196803750107, 1.30045548241748], a = 0.2, v = 0.2, t = 0.2)
movej(p[-0.397219853542753, -0.114610144002849, 0.342255654299287, -1.1797040851581, -1.30617449163953, 1.27962651540458], a = 0.2, v = 0.2, t = 0.2)
movej(p[-0.395720276258752, -0.114009452808664, 0.342693983402743, -1.19573538847725, -1.307058029337, 1.26374312128564], a = 0.2, v = 0.2, t = 0.2)
movej(p[-0.394428776952691, -0.11368629879638, 0.342757113718676, -1.2068902345301, -1.30005689403266, 1.24877368041584], a = 0.2, v = 0.2, t = 0.2)
movej(p[-0.393503955532186, -0.113373417074887, 0.342623410657645, -1.21075669425525, -1.29012912551459, 1.23927068992806], a = 0.2, v = 0.2, t = 0.2)
movej(p[-0.393238048075147, -0.113334524026865, 0.342619684385147, -1.2067149078099, -1.27587398343624, 1.2312714994563], a = 0.2, v = 0.2, t = 0.2)
movej(p[-0.393669993545072, -0.113535710648699, 0.342929322923133, -1.19609261731678, -1.2631183452454, 1.23101783263122], a = 0.2, v = 0.2, t = 0.2)
movej(p[-0.395025480488562, -0.114110474729022, 0.343180438972998, -1.18306994441593, -1.26198829958062, 1.24023683168956], a = 0.2, v = 0.2, t = 0.2)
movej(p[-0.396394515848833, -0.114805492077172, 0.343606812958717, -1.16762098917824, -1.2698173175088, 1.26431745555128], a = 0.2, v = 0.2, t = 0.2)
movej(p[-0.397456711300361, -0.115558926551632, 0.344176265517802, -1.13975040516455, -1.26296014109832, 1.28497603090832], a = 0.2, v = 0.2, t = 0.2)
movej(p[-0.398129974045134, -0.116305563643834, 0.344818514129049, -1.10900933791738, -1.25681195169686, 1.29606172958809], a = 0.2, v = 0.2, t = 0.2)
movej(p[-0.398884007767916, -0.116648192036177, 0.344655420242691, -1.09070946383502, -1.26197277055231, 1.30754127797346], a = 0.2, v = 0.2, t = 0.2)
movej(p[-0.39918687894077, -0.11657851141544, 0.344115990650114, -1.09334737548159, -1.27825928910359, 1.31042861111111], a = 0.2, v = 0.2, t = 0.2)
movej(p[-0.398845463970863, -0.115986260932141, 0.343051155195475, -1.10723236970266, -1.29232083807747, 1.31086159561177], a = 0.2, v = 0.2, t = 0.2)
movej(p[-0.397984816175009, -0.115417735086457, 0.342353511589913, -1.14717649264265, -1.30433313461716, 1.29915450155962], a = 0.2, v = 0.2, t = 0.2)
movej(p[-0.39696271487876, -0.114577827710995, 0.341878837343246, -1.17456047620298, -1.31208476597874, 1.28592004675833], a = 0.2, v = 0.2, t = 0.2)
movej(p[-0.395804991514949, -0.113948799118377, 0.342225614151807, -1.20268517045856, -1.31459432160567, 1.26943506160585], a = 0.2, v = 0.2, t = 0.2)
movej(p[-0.394608163668599, -0.113358522301631, 0.342523408721627, -1.20556228793297, -1.30402829724648, 1.25205996521515], a = 0.2, v = 0.2, t = 0.2)
movej(p[-0.394014147722865, -0.11327068814867, 0.342808306699484, -1.20634698390437, -1.29666480331259, 1.23618789156014], a = 0.2, v = 0.2, t = 0.2)
movej(p[-0.394269993363311, -0.11351180148695, 0.342922182888253, -1.19796690701804, -1.29057661412714, 1.23852398247392], a = 0.2, v = 0.2, t = 0.2)
movej(p[-0.395021160399603, -0.114024265504054, 0.343130773629329, -1.18155568653687, -1.27822753395165, 1.24597940247843], a = 0.2, v = 0.2, t = 0.2)
movej(p[-0.396089331903866, -0.114808976798941, 0.343318370630255, -1.15730393116989, -1.26003387563702, 1.26020115718207], a = 0.2, v = 0.2, t = 0.2)
movej(p[-0.39738838214401, -0.115616770102386, 0.34335238057867, -1.13907641601925, -1.25351117997805, 1.27778057457859], a = 0.2, v = 0.2, t = 0.2)
movej(p[-0.398298835176108, -0.116296699126161, 0.343878983855789, -1.13519262301924, -1.26282623112319, 1.29693027360497], a = 0.2, v = 0.2, t = 0.2)
movej(p[-0.398865158081369, -0.116741325860265, 0.344485275392261, -1.12228819726458, -1.26433759552968, 1.31788534132314], a = 0.2, v = 0.2, t = 0.2)
movej(p[-0.399102726892522, -0.117073049955883, 0.344804248407348, -1.10469495577335, -1.25694011302086, 1.32277140864005], a = 0.2, v = 0.2, t = 0.2)
movej(p[-0.39985947579908, -0.117228654663543, 0.344510319627918, -1.08738470658143, -1.25982131640071, 1.33274009769426], a = 0.2, v = 0.2, t = 0.2)
movej(p[-0.400297822024167, -0.117120759044227, 0.344096796324724, -1.08247980245348, -1.26778144606229, 1.33589647831113], a = 0.2, v = 0.2, t = 0.2)
movej(p[-0.400391997473358, -0.116934585651621, 0.343978274796488, -1.08148653549214, -1.26918600662359, 1.34034304638961], a = 0.2, v = 0.2, t = 0.2)
movej(p[-0.400467920829376, -0.116779789063177, 0.34334086425232, -1.07660443344682, -1.25531837592692, 1.33590800095358], a = 0.2, v = 0.2, t = 0.2)
movej(p[-0.400779856823946, -0.116598835551551, 0.342954624797678, -1.09096237195983, -1.26074611069828, 1.34250571027157], a = 0.2, v = 0.2, t = 0.2)
movej(p[-0.400946444191047, -0.116155283571833, 0.3424782708234, -1.10216430643435, -1.2621401092367, 1.34048462826013], a = 0.2, v = 0.2, t = 0.2)
movej(p[-0.400927315830195, -0.115858917122848, 0.34242400703125, -1.11092728933413, -1.25962273291377, 1.33873498513419], a = 0.2, v = 0.2, t = 0.2)
movej(p[-0.401049492653781, -0.115661884220198, 0.342098974891264, -1.10366381496656, -1.25192653660697, 1.32788378112473], a = 0.2, v = 0.2, t = 0.2)
movej(p[-0.401302681215759, -0.115807096909586, 0.341682287499418, -1.1118226887751, -1.2584097613986, 1.33754544648455], a = 0.2, v = 0.2, t = 0.2)
movej(p[-0.401369234907182, -0.115765846340189, 0.341198481640542, -1.11861841106562, -1.26374853144563, 1.34369541684417], a = 0.2, v = 0.2, t = 0.2)
movej(p[-0.401087178623212, -0.115702064144827, 0.340525120043458, -1.13554541712369, -1.26921264468646, 1.34019410410524], a = 0.2, v = 0.2, t = 0.2)
movej(p[-0.400619371664802, -0.115197408845225, 0.339573563090907, -1.15851377505841, -1.28308675907208, 1.32615533385501], a = 0.2, v = 0.2, t = 0.2)
movej(p[-0.399436076070568, -0.114322925648692, 0.339186298698344, -1.1940055569708, -1.30992116419709, 1.30735976386194], a = 0.2, v = 0.2, t = 0.2)
movej(p[-0.397480592886391, -0.11319793549784, 0.339445442587501, -1.22215712579407, -1.31843870272177, 1.28233785629379], a = 0.2, v = 0.2, t = 0.2)
movej(p[-0.395574591585592, -0.112580451476025, 0.340330214359515, -1.24663622026951, -1.3177745721874, 1.26308517917224], a = 0.2, v = 0.2, t = 0.2)
movej(p[-0.394275069462421, -0.112319928973634, 0.340951345351768, -1.26116162130119, -1.3103809544513, 1.24849218061524], a = 0.2, v = 0.2, t = 0.2)
movej(p[-0.393506993924253, -0.112222114772682, 0.341618936244277, -1.26427794492142, -1.30378134207122, 1.23793125369669], a = 0.2, v = 0.2, t = 0.2)
movej(p[-0.39314060138502, -0.112091119883252, 0.342009825238926, -1.2473643731084, -1.28807665351133, 1.22688605565493], a = 0.2, v = 0.2, t = 0.2)
movej(p[-0.393690953775549, -0.112571934450802, 0.342431544609918, -1.22411604116757, -1.27614661358508, 1.22486236664077], a = 0.2, v = 0.2, t = 0.2)
movej(p[-0.394917343618086, -0.113467682736429, 0.343019452377276, -1.20175564608191, -1.27275542666895, 1.23978323749652], a = 0.2, v = 0.2, t = 0.2)
movej(p[-0.396359699092305, -0.114622411393882, 0.343928671061723, -1.17396620219193, -1.26908012582768, 1.26127557930921], a = 0.2, v = 0.2, t = 0.2)
movej(p[-0.397375144253433, -0.115572724615599, 0.344598453445018, -1.14417334690305, -1.26231811895243, 1.2786853240511], a = 0.2, v = 0.2, t = 0.2)
movej(p[-0.398457967784206, -0.116320283564097, 0.344664278590094, -1.11715859378195, -1.25942385822582, 1.2966490180356], a = 0.2, v = 0.2, t = 0.2)
movej(p[-0.39911609803116, -0.116727397437983, 0.344696112060446, -1.10398994003451, -1.26131180605104, 1.31430743030509], a = 0.2, v = 0.2, t = 0.2)
movej(p[-0.399547578279889, -0.116964151553259, 0.344670422882638, -1.09110934333996, -1.2545232687087, 1.32339656652697], a = 0.2, v = 0.2, t = 0.2)
movej(p[-0.399806126752144, -0.117143173712239, 0.344634951991914, -1.0789088456678, -1.24574806600148, 1.33291914658236], a = 0.2, v = 0.2, t = 0.2)
movej(p[-0.400382405131492, -0.117302052598007, 0.344216447297612, -1.07511383057841, -1.24670121639867, 1.33882875054767], a = 0.2, v = 0.2, t = 0.2)
movej(p[-0.400757519277217, -0.117164476136945, 0.343628535199557, -1.0795387856319, -1.26178754833197, 1.34367892720778], a = 0.2, v = 0.2, t = 0.2)
movej(p[-0.400628463803621, -0.116756730871463, 0.342987631720387, -1.09409793596516, -1.276180204696, 1.34237810712714], a = 0.2, v = 0.2, t = 0.2)
movej(p[-0.400189135892198, -0.116234535034914, 0.342156708989542, -1.11462260441011, -1.28713139581645, 1.33009378769496], a = 0.2, v = 0.2, t = 0.2)
movej(p[-0.399812926112406, -0.115503754864978, 0.341437296788355, -1.13590651440588, -1.29922430663253, 1.31969090558757], a = 0.2, v = 0.2, t = 0.2)
movej(p[-0.399040965257813, -0.11470516327861, 0.341365361280722, -1.15777523701295, -1.30672775472904, 1.30053176638195], a = 0.2, v = 0.2, t = 0.2)
movej(p[-0.398136238791286, -0.114188092602517, 0.341456258730029, -1.16160558899085, -1.29667982456926, 1.28635665005364], a = 0.2, v = 0.2, t = 0.2)
movej(p[-0.397840553920003, -0.114268871096139, 0.341617264232613, -1.16226860055154, -1.28308787329327, 1.27791199662766], a = 0.2, v = 0.2, t = 0.2)
movej(p[-0.398235364368965, -0.11455834362014, 0.341632112509911, -1.15603792290545, -1.27748705230765, 1.28603177017035], a = 0.2, v = 0.2, t = 0.2)
movej(p[-0.398971961870417, -0.115011983688793, 0.342145855547788, -1.14817554892901, -1.26827710065286, 1.29979717261781], a = 0.2, v = 0.2, t = 0.2)
movej(p[-0.399473135225065, -0.115687730825757, 0.342678715633248, -1.1311035157758, -1.25027458216948, 1.31681565245454], a = 0.2, v = 0.2, t = 0.2)
movej(p[-0.400126075178784, -0.116314538559066, 0.342892812706519, -1.11695819461926, -1.23601522222364, 1.32433250075856], a = 0.2, v = 0.2, t = 0.2)
movej(p[-0.400622179511457, -0.116551125394081, 0.342822556260545, -1.11185814364182, -1.24223948533743, 1.33754791311111], a = 0.2, v = 0.2, t = 0.2)
movej(p[-0.400882973127168, -0.116356870513016, 0.342811488162826, -1.10334742190332, -1.2516374752365, 1.34301568306143], a = 0.2, v = 0.2, t = 0.2)
movej(p[-0.400980803614314, -0.116308848446111, 0.342614118940872, -1.09362520856095, -1.25393475555476, 1.34008519656612], a = 0.2, v = 0.2, t = 0.2)
movej(p[-0.401466356247002, -0.116115184840897, 0.341546356204537, -1.09534923733406, -1.26710900925693, 1.33826589135023], a = 0.2, v = 0.2, t = 0.2)
movej(p[-0.4015741888577, -0.115723677257021, 0.340735147137627, -1.11214012831509, -1.28735779029439, 1.3344683127344], a = 0.2, v = 0.2, t = 0.2)
movej(p[-0.401044301110568, -0.115183524053254, 0.340158101966567, -1.13573992374704, -1.29837807606087, 1.33103584038967], a = 0.2, v = 0.2, t = 0.2)
movej(p[-0.400092488106171, -0.114781896903838, 0.340284712670608, -1.15781557304029, -1.29668795771579, 1.31608035494125], a = 0.2, v = 0.2, t = 0.2)
movej(p[-0.399370417288365, -0.11450325401116, 0.340163931265133, -1.1746963662099, -1.29458554352615, 1.30316052542137], a = 0.2, v = 0.2, t = 0.2)
movej(p[-0.398899142574452, -0.114137395699805, 0.340368020583948, -1.18568192361748, -1.29214157550269, 1.29471569612741], a = 0.2, v = 0.2, t = 0.2)
movej(p[-0.398817666613634, -0.114165740503739, 0.340705730112979, -1.17272544550853, -1.2750300829983, 1.29700982364438], a = 0.2, v = 0.2, t = 0.2)
movej(p[-0.399330627960396, -0.114726289013838, 0.341010143867518, -1.15299931381086, -1.25144821409797, 1.30033511898266], a = 0.2, v = 0.2, t = 0.2)
movej(p[-0.400188484221188, -0.11535424111485, 0.341091695597456, -1.13655845849354, -1.24887602782041, 1.32032337289688], a = 0.2, v = 0.2, t = 0.2)
movej(p[-0.400725743944978, -0.115540469330622, 0.341449956604744, -1.12655485531297, -1.25463486633593, 1.33145859035135], a = 0.2, v = 0.2, t = 0.2)
movej(p[-0.400958772551512, -0.11565564284102, 0.341755048878392, -1.11191459545275, -1.25023008583715, 1.33719260726851], a = 0.2, v = 0.2, t = 0.2)
movej(p[-0.401302250143309, -0.115889147835892, 0.341650111849853, -1.10482334468563, -1.24361935998054, 1.334199819968], a = 0.2, v = 0.2, t = 0.2)
movej(p[-0.40172541543816, -0.116086975414745, 0.341196144517655, -1.10786622268583, -1.25504325724962, 1.34179344440775], a = 0.2, v = 0.2, t = 0.2)
movej(p[-0.401870290869762, -0.115905596946897, 0.340716777497226, -1.11554971963326, -1.27196051517913, 1.34964097510097], a = 0.2, v = 0.2, t = 0.2)
movej(p[-0.401654454403979, -0.115613771358946, 0.340307782008552, -1.1248473315518, -1.27815255213881, 1.34491085804655], a = 0.2, v = 0.2, t = 0.2)
movej(p[-0.401531981345154, -0.115348387028968, 0.33950102220132, -1.14271854292369, -1.28446062149953, 1.33827233632071], a = 0.2, v = 0.2, t = 0.2)
movej(p[-0.401141916633769, -0.114933233085948, 0.339099142769865, -1.16791440772756, -1.29555805457247, 1.32755979039945], a = 0.2, v = 0.2, t = 0.2)
movej(p[-0.400491617556141, -0.114542406100111, 0.339188660853952, -1.1803999328251, -1.29812083856481, 1.31926436136377], a = 0.2, v = 0.2, t = 0.2)
movej(p[-0.400043385398963, -0.114442200374974, 0.339559075298623, -1.17444342205512, -1.27865799041525, 1.30560892772304], a = 0.2, v = 0.2, t = 0.2)
movej(p[-0.400232927516188, -0.114708345195701, 0.339538756954735, -1.16403884877847, -1.26654264059319, 1.31155999074266], a = 0.2, v = 0.2, t = 0.2)
movej(p[-0.400632659268034, -0.114821532509456, 0.339723716787862, -1.15531643252306, -1.26419496029903, 1.31883098233707], a = 0.2, v = 0.2, t = 0.2)
movej(p[-0.400995039901727, -0.115020472505816, 0.340126872913338, -1.14184731892117, -1.25849229443545, 1.33126808775769], a = 0.2, v = 0.2, t = 0.2)
movej(p[-0.401340144904883, -0.115323146248761, 0.340484334849108, -1.12778042225509, -1.24637978345012, 1.32754535288383], a = 0.2, v = 0.2, t = 0.2)
movej(p[-0.4019153847571, -0.115670402791267, 0.340161004906287, -1.12039791281954, -1.24467220884937, 1.33941830404209], a = 0.2, v = 0.2, t = 0.2)
movej(p[-0.402251419985216, -0.115673444733712, 0.339837102776737, -1.11916494312262, -1.24909346069088, 1.34664795320247], a = 0.2, v = 0.2, t = 0.2)
movej(p[-0.402333673287425, -0.115582680297399, 0.339593319788864, -1.11007953841896, -1.24429310585905, 1.35277394346333], a = 0.2, v = 0.2, t = 0.2)
movej(p[-0.402611455470066, -0.115633483281173, 0.339312849805807, -1.11288694999212, -1.2506878704185, 1.34955891930718], a = 0.2, v = 0.2, t = 0.2)
movej(p[-0.403022252866698, -0.115607382270801, 0.338584402718774, -1.12977542984026, -1.27244759421907, 1.35107117391877], a = 0.2, v = 0.2, t = 0.2)
movej(p[-0.402843030326938, -0.115213476934694, 0.338372290465643, -1.15837658067375, -1.30093269728592, 1.34904740874499], a = 0.2, v = 0.2, t = 0.2)
movej(p[-0.402155290454635, -0.114689300613292, 0.338224191900063, -1.17397410309773, -1.30596019597924, 1.34173612015014], a = 0.2, v = 0.2, t = 0.2)
movej(p[-0.401531540613492, -0.114376843638231, 0.338204299426372, -1.18375934061696, -1.30380382148608, 1.33298995165962], a = 0.2, v = 0.2, t = 0.2)
movej(p[-0.401131227212394, -0.114208567563484, 0.338133402292655, -1.19114265724695, -1.2981339874775, 1.32620926578839], a = 0.2, v = 0.2, t = 0.2)
movej(p[-0.401045031495554, -0.114226703651565, 0.338509023272776, -1.18926406466105, -1.28504092318455, 1.32454771935322], a = 0.2, v = 0.2, t = 0.2)
movej(p[-0.40117312599953, -0.114411519099766, 0.339073496237725, -1.16951191429912, -1.26578480636132, 1.32248400813958], a = 0.2, v = 0.2, t = 0.2)
movej(p[-0.401825378567841, -0.114778344894896, 0.339153828781305, -1.15201261018862, -1.25729353923836, 1.32897205818606], a = 0.2, v = 0.2, t = 0.2)
movej(p[-0.402313813814872, -0.114932737083302, 0.339207471325216, -1.15285280610603, -1.27064690983709, 1.34203359091564], a = 0.2, v = 0.2, t = 0.2)
movej(p[-0.402569417716139, -0.115048632456846, 0.339038009557704, -1.14485555711109, -1.26274610639074, 1.35150512564704], a = 0.2, v = 0.2, t = 0.2)
movej(p[-0.402710606851869, -0.115213448034119, 0.338984440446746, -1.13567036449423, -1.25089192754178, 1.3511012822568], a = 0.2, v = 0.2, t = 0.2)
movej(p[-0.403190102985208, -0.115319361151963, 0.338337108144593, -1.13386232342506, -1.25515612837009, 1.34320007671308], a = 0.2, v = 0.2, t = 0.2)
movej(p[-0.403382970255044, -0.115148436408284, 0.337979675883564, -1.15218520507563, -1.28329508128509, 1.34531963507869], a = 0.2, v = 0.2, t = 0.2)
movej(p[-0.402987393760509, -0.114685108461154, 0.337554869276648, -1.16537285561907, -1.30089688371384, 1.34263518458755], a = 0.2, v = 0.2, t = 0.2)
movej(p[-0.402291371855233, -0.114316797964485, 0.337337010198526, -1.17599159297011, -1.30055130148618, 1.33258429834267], a = 0.2, v = 0.2, t = 0.2)
movej(p[-0.40180648472105, -0.114129954829986, 0.336912727165876, -1.18300931192585, -1.29193092461148, 1.32414155677988], a = 0.2, v = 0.2, t = 0.2)
movej(p[-0.401565056999858, -0.113947355725222, 0.33719333121499, -1.19119732164373, -1.28795023852115, 1.31755557806552], a = 0.2, v = 0.2, t = 0.2)
movej(p[-0.401551998663958, -0.114013223385122, 0.337686753216165, -1.17562199467322, -1.26569847689219, 1.32290789398512], a = 0.2, v = 0.2, t = 0.2)
movej(p[-0.401829061233733, -0.114312572710048, 0.33811009261546, -1.15810938541514, -1.2477833713093, 1.32104819455473], a = 0.2, v = 0.2, t = 0.2)
movej(p[-0.40240367948586, -0.114668165571785, 0.337936285563231, -1.15073368309761, -1.25271529188491, 1.3310640459556], a = 0.2, v = 0.2, t = 0.2)
movej(p[-0.402717644539762, -0.114734195934909, 0.337948150861333, -1.15365841258738, -1.26634878409267, 1.34187897840089], a = 0.2, v = 0.2, t = 0.2)
movej(p[-0.402828865635218, -0.11479210231259, 0.337949368461543, -1.1469530181028, -1.26345803971912, 1.34420508148341], a = 0.2, v = 0.2, t = 0.2)
movej(p[-0.403086601830195, -0.114979393768876, 0.33770518433467, -1.13575491766044, -1.25714467876065, 1.3461930210065], a = 0.2, v = 0.2, t = 0.2)
movej(p[-0.403545557655217, -0.115065763351702, 0.337005390731711, -1.1354615217975, -1.26996462006108, 1.348019457176], a = 0.2, v = 0.2, t = 0.2)
movej(p[-0.403574750390536, -0.114844177450496, 0.336750010612103, -1.15096235319321, -1.28994187998303, 1.34991625749909], a = 0.2, v = 0.2, t = 0.2)
movej(p[-0.403153140428915, -0.114395841088318, 0.33674013758767, -1.16527536612558, -1.29702812730552, 1.3377259690956], a = 0.2, v = 0.2, t = 0.2)
movej(p[-0.402632580617136, -0.114085494179555, 0.336609498728666, -1.1832967947462, -1.2977844300717, 1.32374908055862], a = 0.2, v = 0.2, t = 0.2)
movej(p[-0.402342593185121, -0.113703015642802, 0.336360350744134, -1.192862607845, -1.3054175968617, 1.32033903779846], a = 0.2, v = 0.2, t = 0.2)
movej(p[-0.402100118503065, -0.113444042596733, 0.336469982881629, -1.19638454486827, -1.30367220850442, 1.32287070716974], a = 0.2, v = 0.2, t = 0.2)
movej(p[-0.40201922194434, -0.113470565180845, 0.33698942666282, -1.17903991443877, -1.29015892408805, 1.31927989412539], a = 0.2, v = 0.2, t = 0.2)
movej(p[-0.402530168707501, -0.113889956683673, 0.336936524645176, -1.16396496780654, -1.27283389644411, 1.31969728421882], a = 0.2, v = 0.2, t = 0.2)
movej(p[-0.402994764172653, -0.114116257530452, 0.336777051796212, -1.15862208597493, -1.27822254804253, 1.32906348531869], a = 0.2, v = 0.2, t = 0.2)
movej(p[-0.403343431143923, -0.114294613963465, 0.336745233377688, -1.15664943157635, -1.27281500988769, 1.34311320775442], a = 0.2, v = 0.2, t = 0.2)
movej(p[-0.403374134290928, -0.114497863150507, 0.336817591978631, -1.15009121066185, -1.26110983201912, 1.34840627704468], a = 0.2, v = 0.2, t = 0.2)
movej(p[-0.403697206098124, -0.114791262487413, 0.336292112107562, -1.15001846900766, -1.25575807388344, 1.34948082781777], a = 0.2, v = 0.2, t = 0.2)
movej(p[-0.404000055165124, -0.114838237887373, 0.33556251577224, -1.15517336111506, -1.2659563991706, 1.35129425847698], a = 0.2, v = 0.2, t = 0.2)
movej(p[-0.404031260617024, -0.114630923734973, 0.335453177800856, -1.16307067099877, -1.27851067937654, 1.35748593058443], a = 0.2, v = 0.2, t = 0.2)
movej(p[-0.403822670989806, -0.114363719192712, 0.335247151384802, -1.15955178005294, -1.27521811892957, 1.34849499086696], a = 0.2, v = 0.2, t = 0.2)
movej(p[-0.403767063283495, -0.11408818176849, 0.334803783125505, -1.16554963916306, -1.28356334144252, 1.33832645198214], a = 0.2, v = 0.2, t = 0.2)
movej(p[-0.403544557158247, -0.113771624483576, 0.334219055256753, -1.1780379708259, -1.29752545030624, 1.33649006478403], a = 0.2, v = 0.2, t = 0.2)
movej(p[-0.403234022693759, -0.113425062051448, 0.334363636762842, -1.17846724180624, -1.2937092592725, 1.33204583330523], a = 0.2, v = 0.2, t = 0.2)
movej(p[-0.402969396531606, -0.113528320186565, 0.334843055226547, -1.17189549729758, -1.27067113189763, 1.32831351856498], a = 0.2, v = 0.2, t = 0.2)
movej(p[-0.40314328985512, -0.113835097329047, 0.334886787083034, -1.17065355037723, -1.25763130569524, 1.32501961975682], a = 0.2, v = 0.2, t = 0.2)
movej(p[-0.403411023020385, -0.114073154345903, 0.33488488944163, -1.17990633249972, -1.26730757979578, 1.33387412392354], a = 0.2, v = 0.2, t = 0.2)
movej(p[-0.403542449981338, -0.114014477611112, 0.335053466240832, -1.17841827253389, -1.26854177728551, 1.34140112620576], a = 0.2, v = 0.2, t = 0.2)
movej(p[-0.4036595596243, -0.114061898563375, 0.335320898446095, -1.16590852495205, -1.26083721839232, 1.33914451593088], a = 0.2, v = 0.2, t = 0.2)
movej(p[-0.404053665158409, -0.114193496612034, 0.334959601303601, -1.16165943628646, -1.26270301042573, 1.34223308502925], a = 0.2, v = 0.2, t = 0.2)
movej(p[-0.404293217255752, -0.114263165034663, 0.334616559741182, -1.17450167011731, -1.27667908770446, 1.34903030751415], a = 0.2, v = 0.2, t = 0.2)
movej(p[-0.404345186827263, -0.114230801206685, 0.334291793184598, -1.18166562868394, -1.27301036583461, 1.3532106796816], a = 0.2, v = 0.2, t = 0.2)
movej(p[-0.404245326943083, -0.114088600778807, 0.334187736364336, -1.18725824480726, -1.26922528064377, 1.34615565506986], a = 0.2, v = 0.2, t = 0.2)
movej(p[-0.404302654361894, -0.113914554423545, 0.333792219154505, -1.20317391386517, -1.28068730162906, 1.33931192504705], a = 0.2, v = 0.2, t = 0.2)
movej(p[-0.404118013512751, -0.113572357126493, 0.333521970418674, -1.21907349314424, -1.30003579138371, 1.34113617667601], a = 0.2, v = 0.2, t = 0.2)
movej(p[-0.403683161638996, -0.113171698222263, 0.333947174410604, -1.21658656702803, -1.30302467509964, 1.33494614215314], a = 0.2, v = 0.2, t = 0.2)
movej(p[-0.403441333942594, -0.11308940002283, 0.334222122797984, -1.19527476092802, -1.27942918922117, 1.32787922694719], a = 0.2, v = 0.2, t = 0.2)
movej(p[-0.403650393314681, -0.113192035745009, 0.334227417613893, -1.19310881604135, -1.2825133286384, 1.33030926388849], a = 0.2, v = 0.2, t = 0.2)
movej(p[-0.403911512240796, -0.113401396555482, 0.333884113230201, -1.19696927593454, -1.28243608970536, 1.34164130050898], a = 0.2, v = 0.2, t = 0.2)
movej(p[-0.404032651764279, -0.113514434016285, 0.333644635567765, -1.18598481109285, -1.26943776449259, 1.34765186453022], a = 0.2, v = 0.2, t = 0.2)
movej(p[-0.404200062673108, -0.11361940045118, 0.333578741127557, -1.17425964412399, -1.25608206070209, 1.338916951015], a = 0.2, v = 0.2, t = 0.2)
movej(p[-0.40455379680073, -0.113702136289752, 0.33322726353514, -1.17626237503509, -1.26719439027433, 1.34287433223838], a = 0.2, v = 0.2, t = 0.2)
movej(p[-0.404690943749653, -0.113608517186702, 0.332982384998014, -1.19016971453634, -1.28345512628814, 1.34499927560693], a = 0.2, v = 0.2, t = 0.2)
movej(p[-0.404596303697787, -0.113473129597251, 0.332699236501275, -1.19047941182335, -1.28297726254321, 1.34319367845934], a = 0.2, v = 0.2, t = 0.2)
movej(p[-0.404488572863484, -0.113389892372642, 0.332424627375826, -1.19163748644576, -1.27265177300029, 1.33295984272657], a = 0.2, v = 0.2, t = 0.2)
movej(p[-0.404582218327445, -0.113339876488538, 0.331886586477365, -1.20742972327016, -1.28607154869911, 1.33229733255619], a = 0.2, v = 0.2, t = 0.2)
movej(p[-0.404418364228832, -0.113172999425146, 0.331687992393663, -1.22773354353773, -1.30111020145095, 1.33897290112162], a = 0.2, v = 0.2, t = 0.2)
movej(p[-0.403826195504866, -0.112866243190385, 0.33235847086736, -1.23702925157197, -1.30777212000429, 1.33890381939206], a = 0.2, v = 0.2, t = 0.2)
movej(p[-0.403369088554166, -0.112790043378792, 0.332859361177442, -1.23542484395053, -1.29349331835187, 1.32765267589004], a = 0.2, v = 0.2, t = 0.2)
movej(p[-0.403281636694952, -0.112756181073794, 0.332961174866975, -1.23345770937829, -1.29518984912695, 1.32655037552528], a = 0.2, v = 0.2, t = 0.2)
movej(p[-0.403530190564491, -0.112768775182163, 0.33277752875733, -1.22048598037718, -1.28937885897415, 1.32913197957707], a = 0.2, v = 0.2, t = 0.2)
movej(p[-0.403712545438057, -0.112844952057588, 0.333023892225883, -1.2053245558236, -1.27697104085038, 1.33508275701413], a = 0.2, v = 0.2, t = 0.2)
