def moving():
set_payload_mass(0.606)
set_tcp(p[0.0001,-0.0009,0.0582,0,0,0])
movej(p[0.4763, -0.0211, 0.2251, -1.21, 1.207, -1.216], a = 0.2, v = 0.2, t = 0.2)
movej(p[0.476399503559594, -0.0211997494971276, 0.225200742639686, -1.2082623738881, 1.20525469812697, -1.21424848537015], a = 0.2, v = 0.2, t = 0.2)
movej(p[0.4763, -0.0211, 0.2251, -1.21, 1.207, -1.216], a = 0.2, v = 0.2, t = 0.2)
movej(p[0.476399503559594, -0.0211997494971276, 0.225200742639686, -1.2082623738881, 1.20525469812697, -1.21424848537015], a = 0.2, v = 0.2, t = 0.2)
movej(p[0.4763, -0.0211, 0.2251, -1.21, 1.207, -1.216], a = 0.2, v = 0.2, t = 0.2)
movej(p[0.476399503559594, -0.0211997494971276, 0.225200742639686, -1.2082623738881, 1.20525469812697, -1.21424848537015], a = 0.2, v = 0.2, t = 0.2)
movej(p[0.472989768333784, -0.0201130997794535, 0.225914080659803, -1.20736460836003, 1.20649534324259, -1.20873947837533], a = 0.2, v = 0.2, t = 0.2)
movej(p[0.473496484341898, -0.0202706893842545, 0.225688659423937, -1.21464140752932, 1.20917193383786, -1.20916397669568], a = 0.2, v = 0.2, t = 0.2)
movej(p[0.474001683357112, -0.0204692737807083, 0.225424443655082, -1.22205249156998, 1.20259138366832, -1.21161543499204], a = 0.2, v = 0.2, t = 0.2)
movej(p[0.475309596760928, -0.0207566124305691, 0.225270547298997, -1.20858299401587, 1.21050331665233, -1.21248519214964], a = 0.2, v = 0.2, t = 0.2)
movej(p[0.475568652402658, -0.0208173068462352, 0.225307659728106, -1.20291800312408, 1.21163018528277, -1.21389259496298], a = 0.2, v = 0.2, t = 0.2)
movej(p[0.475718498177045, -0.0208413007047656, 0.225347130966384, -1.19856571705992, 1.21611403199987, -1.21178421891525], a = 0.2, v = 0.2, t = 0.2)
movej(p[0.475821491657769, -0.0208484979978076, 0.225342106834494, -1.19536981920425, 1.21783315300326, -1.2121833927027], a = 0.2, v = 0.2, t = 0.2)
movej(p[0.475525583414845, -0.0207920416353493, 0.225493933482048, -1.19314949890853, 1.21827343071087, -1.21203063742578], a = 0.2, v = 0.2, t = 0.2)
movej(p[0.474548386768833, -0.0203359049192345, 0.226130942329109, -1.16882601519694, 1.24523581544703, -1.1983982062876], a = 0.2, v = 0.2, t = 0.2)
movej(p[0.47276714735338, -0.0198701853786113, 0.226623632936206, -1.17548735067171, 1.24752432493944, -1.19228162898642], a = 0.2, v = 0.2, t = 0.2)
movej(p[0.470463113350634, -0.0192236217323931, 0.227187386114091, -1.18795845023911, 1.2514331298925, -1.18197156387969], a = 0.2, v = 0.2, t = 0.2)
movej(p[0.468491699947425, -0.0186706514823271, 0.227552387026683, -1.20554571576397, 1.246468384891, -1.17674730646235], a = 0.2, v = 0.2, t = 0.2)
movej(p[0.466501302120171, -0.0180873978908779, 0.228158792829197, -1.20844701084356, 1.24944270984453, -1.17201988820533], a = 0.2, v = 0.2, t = 0.2)
movej(p[0.465140445221355, -0.0177170985075796, 0.228766949246309, -1.20104202427807, 1.26259582457424, -1.15963287858453], a = 0.2, v = 0.2, t = 0.2)
movej(p[0.464582046515824, -0.0175991580348355, 0.228897451700499, -1.20392060482814, 1.25634157969443, -1.16416951697999], a = 0.2, v = 0.2, t = 0.2)
movej(p[0.465962696412635, -0.018075171756418, 0.22847328464697, -1.20024881959309, 1.24861600478933, -1.17504785409454], a = 0.2, v = 0.2, t = 0.2)
movej(p[0.468222795077608, -0.0186402163995956, 0.227459505560677, -1.21510578786442, 1.22818472569921, -1.1879515821942], a = 0.2, v = 0.2, t = 0.2)
movej(p[0.470277344363749, -0.0192510092582521, 0.226800288688448, -1.21075300022055, 1.22315486179502, -1.19697530339855], a = 0.2, v = 0.2, t = 0.2)
movej(p[0.472302722813868, -0.019776542710576, 0.226352771499634, -1.19192381275629, 1.22560521584527, -1.20783576819258], a = 0.2, v = 0.2, t = 0.2)
movej(p[0.473394436866355, -0.0199766443405649, 0.225996323908428, -1.1923963752066, 1.22773251166307, -1.20381497120344], a = 0.2, v = 0.2, t = 0.2)
movej(p[0.474164592545446, -0.0201935221832362, 0.225987720925037, -1.17326817476029, 1.2352378885746, -1.2075710118998], a = 0.2, v = 0.2, t = 0.2)
movej(p[0.47480386805392, -0.0203421821805866, 0.225875663620714, -1.16568126422818, 1.23990713808313, -1.20720456259376], a = 0.2, v = 0.2, t = 0.2)
movej(p[0.475214253747823, -0.0203844330689737, 0.225921033265529, -1.15528958224869, 1.24520177213995, -1.2074350354984], a = 0.2, v = 0.2, t = 0.2)
movej(p[0.475749156492518, -0.0205125043924638, 0.225948630544696, -1.14530230828016, 1.25110694070219, -1.20689182257099], a = 0.2, v = 0.2, t = 0.2)
movej(p[0.475751930261807, -0.0204781123771679, 0.225870059904582, -1.14976820736907, 1.24884770841875, -1.20403027138969], a = 0.2, v = 0.2, t = 0.2)
movej(p[0.475415578185798, -0.0204664746966279, 0.226075822645029, -1.14874863550803, 1.25185489587197, -1.20407282927741], a = 0.2, v = 0.2, t = 0.2)
movej(p[0.474254031240733, -0.0201508839957082, 0.226276215144649, -1.16509343453282, 1.24914639714913, -1.19596534036588], a = 0.2, v = 0.2, t = 0.2)
movej(p[0.473164939815701, -0.0199392282234128, 0.22650750777742, -1.17487826265473, 1.24612191980717, -1.1968151521315], a = 0.2, v = 0.2, t = 0.2)
movej(p[0.472121874245692, -0.0197258397300468, 0.226729798280055, -1.18202635949676, 1.24555814704128, -1.19083943870438], a = 0.2, v = 0.2, t = 0.2)
movej(p[0.469496205638607, -0.0191203934783212, 0.227261314349467, -1.20787045701277, 1.23802301160186, -1.18411077457536], a = 0.2, v = 0.2, t = 0.2)
movej(p[0.46710622136757, -0.0183805509854218, 0.227737089642957, -1.21654513452126, 1.23695874165095, -1.17200503518924], a = 0.2, v = 0.2, t = 0.2)
movej(p[0.465456427281364, -0.0179602741706284, 0.228074015350001, -1.2361088582054, 1.22948373803278, -1.16802413307756], a = 0.2, v = 0.2, t = 0.2)
movej(p[0.463293568379885, -0.0175294935339696, 0.228577598655294, -1.24751662301308, 1.22313792681273, -1.16680915471688], a = 0.2, v = 0.2, t = 0.2)
movej(p[0.464580343530713, -0.0177070546458632, 0.228349290765034, -1.22083972920539, 1.23610422838557, -1.16834391053536], a = 0.2, v = 0.2, t = 0.2)
movej(p[0.466325846787637, -0.0180368377341966, 0.227981924129756, -1.209341163961, 1.23697401973652, -1.18140582630378], a = 0.2, v = 0.2, t = 0.2)
movej(p[0.468394661582629, -0.0185157147374241, 0.227528569158675, -1.20050292481175, 1.2367017423429, -1.19008506507879], a = 0.2, v = 0.2, t = 0.2)
movej(p[0.470238706287023, -0.0189822968655393, 0.22707562942105, -1.20242017147911, 1.23264464175421, -1.19474846410116], a = 0.2, v = 0.2, t = 0.2)
movej(p[0.472201551226178, -0.01966566404427, 0.226550572791851, -1.20747900713259, 1.22637954781134, -1.20567739762507], a = 0.2, v = 0.2, t = 0.2)
movej(p[0.473494406036241, -0.0201361893268936, 0.226215875229102, -1.2043305084893, 1.22399298940313, -1.20417221443676], a = 0.2, v = 0.2, t = 0.2)
movej(p[0.474194630284959, -0.0205867787204614, 0.225915100197042, -1.22091928823587, 1.21078030224775, -1.21053113590751], a = 0.2, v = 0.2, t = 0.2)
movej(p[0.474806212665623, -0.0206269125321911, 0.225793523559409, -1.21526566638879, 1.21185411958659, -1.20707779238564], a = 0.2, v = 0.2, t = 0.2)
movej(p[0.475245271459209, -0.0205418216014196, 0.225822308438687, -1.18694800771782, 1.22661025074644, -1.19724644437741], a = 0.2, v = 0.2, t = 0.2)
movej(p[0.475618801330189, -0.0204582040394654, 0.225861648860886, -1.15990378517633, 1.24066667525155, -1.18863617791946], a = 0.2, v = 0.2, t = 0.2)
movej(p[0.475544215671882, -0.0204153746277203, 0.225946258027438, -1.14788326854501, 1.24934495400893, -1.1881584598864], a = 0.2, v = 0.2, t = 0.2)
movej(p[0.475531231721427, -0.0205988945081212, 0.225818764182378, -1.1702609070623, 1.23662007873087, -1.19073626927787], a = 0.2, v = 0.2, t = 0.2)
movej(p[0.475149518113694, -0.0205251203677398, 0.225949302712638, -1.15550411833215, 1.24537602953867, -1.19050268196956], a = 0.2, v = 0.2, t = 0.2)
movej(p[0.473807324703424, -0.0200255326854844, 0.226290237218321, -1.17233015218329, 1.24006922333194, -1.1913610582702], a = 0.2, v = 0.2, t = 0.2)
movej(p[0.473016089421926, -0.0198037787658224, 0.226381167622633, -1.20879129913989, 1.22523834969533, -1.20331190101775], a = 0.2, v = 0.2, t = 0.2)
movej(p[0.471936360178933, -0.0195005753206999, 0.22664591445017, -1.20955499695306, 1.23181258257299, -1.19958076216167], a = 0.2, v = 0.2, t = 0.2)
movej(p[0.468852897792569, -0.0185635336316589, 0.227546177942088, -1.20243194767031, 1.24532035928032, -1.18487294104117], a = 0.2, v = 0.2, t = 0.2)
movej(p[0.465540584278621, -0.0175298423621198, 0.228533517262986, -1.19111464901697, 1.25813322132438, -1.1644842886314], a = 0.2, v = 0.2, t = 0.2)
movej(p[0.464006021199271, -0.0171030795797379, 0.228907577957351, -1.20205816460315, 1.25303918705197, -1.15774639675008], a = 0.2, v = 0.2, t = 0.2)
movej(p[0.463160079694822, -0.0168829217611638, 0.229127691532517, -1.20180441369824, 1.25180811342841, -1.1543723552971], a = 0.2, v = 0.2, t = 0.2)
movej(p[0.464079062195146, -0.0170577438868734, 0.229069618316133, -1.18837161894604, 1.25493632680479, -1.17370786049425], a = 0.2, v = 0.2, t = 0.2)
movej(p[0.465618372111751, -0.0175226410016627, 0.228632662628104, -1.18285200010507, 1.25311424269627, -1.17133664849432], a = 0.2, v = 0.2, t = 0.2)
movej(p[0.467386865132106, -0.0180819643581561, 0.228054619662712, -1.19837128850117, 1.23903780499839, -1.177939288217], a = 0.2, v = 0.2, t = 0.2)
movej(p[0.469735081347371, -0.0188468043427527, 0.227322871157877, -1.20724347576799, 1.22634988068462, -1.18621968486318], a = 0.2, v = 0.2, t = 0.2)
movej(p[0.471107979311405, -0.0193393982593537, 0.226859470258355, -1.21307280870184, 1.2221122491157, -1.19398143006785], a = 0.2, v = 0.2, t = 0.2)
movej(p[0.472047474014151, -0.0197854618801892, 0.226491426606488, -1.21330469123194, 1.21945660663837, -1.2011019223936], a = 0.2, v = 0.2, t = 0.2)
movej(p[0.47316767772494, -0.0199831081612408, 0.226356336103787, -1.18439591748328, 1.23292754773672, -1.19496160596997], a = 0.2, v = 0.2, t = 0.2)
movej(p[0.474080527202473, -0.020366661922708, 0.226035011714062, -1.17690782933985, 1.23309328240605, -1.19552218088463], a = 0.2, v = 0.2, t = 0.2)
movej(p[0.474871436959634, -0.0204568955935522, 0.225888707234725, -1.18203413560193, 1.23017560384628, -1.19872794196109], a = 0.2, v = 0.2, t = 0.2)
movej(p[0.475102777607091, -0.0204641328782066, 0.225863781012685, -1.17968554918476, 1.2298812826386, -1.19729095641023], a = 0.2, v = 0.2, t = 0.2)
movej(p[0.475311645234995, -0.0206869737014928, 0.225670602309173, -1.18262969673955, 1.22498906256311, -1.19785163473324], a = 0.2, v = 0.2, t = 0.2)
movej(p[0.475371528341385, -0.0206423557057461, 0.225685313462244, -1.18761259722715, 1.22388332168578, -1.20028249106063], a = 0.2, v = 0.2, t = 0.2)
movej(p[0.475712656863371, -0.0206649427628275, 0.22564862046101, -1.1877325911076, 1.22546956858976, -1.20294904490832], a = 0.2, v = 0.2, t = 0.2)
movej(p[0.475325685193983, -0.0204684777722998, 0.225813420019831, -1.18975463049697, 1.22549233509543, -1.20169081129417], a = 0.2, v = 0.2, t = 0.2)
movej(p[0.474333568520887, -0.0203180736406019, 0.225986950086776, -1.18910283324305, 1.22606581841426, -1.19853643349613], a = 0.2, v = 0.2, t = 0.2)
movej(p[0.47325234004746, -0.0199549417187284, 0.226275887407951, -1.21346403890517, 1.21959432351034, -1.2060480584159], a = 0.2, v = 0.2, t = 0.2)
movej(p[0.471817235444559, -0.0194680214494302, 0.226692772140314, -1.2289320733662, 1.22030442089965, -1.20634441868928], a = 0.2, v = 0.2, t = 0.2)
movej(p[0.469610837488362, -0.0186535074693998, 0.227472896729866, -1.21292733939575, 1.24089891204766, -1.1876208482617], a = 0.2, v = 0.2, t = 0.2)
movej(p[0.467673574010361, -0.018036775677218, 0.228102355102847, -1.20666964213141, 1.25175445138004, -1.17995062799672], a = 0.2, v = 0.2, t = 0.2)
movej(p[0.465799257748769, -0.0175587920669312, 0.228598666940134, -1.19828014081306, 1.25638186852435, -1.16960039013571], a = 0.2, v = 0.2, t = 0.2)
movej(p[0.465332114231127, -0.0173564257348497, 0.228800650755241, -1.19700483477961, 1.25223075329762, -1.16651817012288], a = 0.2, v = 0.2, t = 0.2)
movej(p[0.467043533100311, -0.0179383674266601, 0.228228791007109, -1.20201870475862, 1.23956324518719, -1.17329761639451], a = 0.2, v = 0.2, t = 0.2)
movej(p[0.469547130100198, -0.0188115149034167, 0.227341154597316, -1.20743472495011, 1.22724149896527, -1.18696682124849], a = 0.2, v = 0.2, t = 0.2)
movej(p[0.470951981564847, -0.0193809330775364, 0.22681141963976, -1.21312918748372, 1.22045685395493, -1.19404648660983], a = 0.2, v = 0.2, t = 0.2)
movej(p[0.47210171036723, -0.0197091444083813, 0.226561763449618, -1.20690286116453, 1.22662576480784, -1.20174231906803], a = 0.2, v = 0.2, t = 0.2)
movej(p[0.473235528840945, -0.0201625304797296, 0.226133007494592, -1.19664704711467, 1.22908913897338, -1.20215624500591], a = 0.2, v = 0.2, t = 0.2)
movej(p[0.474152157299853, -0.0204113098866486, 0.225886503975323, -1.19108479105191, 1.22700939719925, -1.20135889439353], a = 0.2, v = 0.2, t = 0.2)
movej(p[0.47498721087525, -0.0206599293424693, 0.225629210053115, -1.19586595180634, 1.22320866133267, -1.20559794149567], a = 0.2, v = 0.2, t = 0.2)
movej(p[0.475191807393597, -0.0207314700593994, 0.225550849664517, -1.19812278207108, 1.2218038553034, -1.20707703370344], a = 0.2, v = 0.2, t = 0.2)
movej(p[0.47519251718777, -0.0207016215572272, 0.225580199163836, -1.19696725102955, 1.22164627560696, -1.20616294314528], a = 0.2, v = 0.2, t = 0.2)
movej(p[0.475410356717934, -0.0208466955835016, 0.225443644574025, -1.19532197101654, 1.22325637396641, -1.20792737405363], a = 0.2, v = 0.2, t = 0.2)
movej(p[0.47577730077067, -0.0210267720061813, 0.22526621451976, -1.19615988158293, 1.22358148621966, -1.21091100091841], a = 0.2, v = 0.2, t = 0.2)
movej(p[0.475959007030279, -0.0208919047609197, 0.225372748558333, -1.20286982477501, 1.21751888942454, -1.21040725130242], a = 0.2, v = 0.2, t = 0.2)
movej(p[0.475780063946093, -0.0207605036680989, 0.225495563156112, -1.2052250419262, 1.21673866036666, -1.20972218426607], a = 0.2, v = 0.2, t = 0.2)
movej(p[0.475122715916523, -0.0204688145496602, 0.225799350229907, -1.20315783895275, 1.22194553199342, -1.20718472281815], a = 0.2, v = 0.2, t = 0.2)
movej(p[0.47384525772278, -0.0199955504922439, 0.226267071637581, -1.20487237416846, 1.22574478857767, -1.20296438491213], a = 0.2, v = 0.2, t = 0.2)
movej(p[0.472521668489168, -0.0195076318979708, 0.226721610795441, -1.22141439382403, 1.22217492355447, -1.20313575371207], a = 0.2, v = 0.2, t = 0.2)
movej(p[0.47114725754251, -0.019119003956244, 0.227073737992086, -1.21845708147166, 1.23177181208705, -1.19457374006346], a = 0.2, v = 0.2, t = 0.2)
movej(p[0.469283679412097, -0.018582796808577, 0.227619177848199, -1.20886788950696, 1.24680430653464, -1.1854141030128], a = 0.2, v = 0.2, t = 0.2)
movej(p[0.4671934199886, -0.0178997093939877, 0.228278242167147, -1.21145043544865, 1.2515880054906, -1.17636144841614], a = 0.2, v = 0.2, t = 0.2)
movej(p[0.46532021434926, -0.0173168671199618, 0.228845021565462, -1.20613331732218, 1.25599315368486, -1.1662579301924], a = 0.2, v = 0.2, t = 0.2)
movej(p[0.465744224421931, -0.0174017711870554, 0.228789239331157, -1.20191454131587, 1.24994608276322, -1.16635574561119], a = 0.2, v = 0.2, t = 0.2)
movej(p[0.467219416040768, -0.0179515486161049, 0.228264567361046, -1.20255246575476, 1.24189386255794, -1.17530388374059], a = 0.2, v = 0.2, t = 0.2)
movej(p[0.469177236126812, -0.0186710307759224, 0.227538280542779, -1.20797406830798, 1.22931565563871, -1.1862343040947], a = 0.2, v = 0.2, t = 0.2)
movej(p[0.469645031557978, -0.0188374051986569, 0.227354514506635, -1.21246714953196, 1.22429838850589, -1.18887008869902], a = 0.2, v = 0.2, t = 0.2)
movej(p[0.472232932869036, -0.01984644662677, 0.226355366899634, -1.20243377833824, 1.22963719582841, -1.19988324346079], a = 0.2, v = 0.2, t = 0.2)
movej(p[0.47432499390413, -0.0204336907053714, 0.225803318416628, -1.20090158283349, 1.23075078594862, -1.20807444062088], a = 0.2, v = 0.2, t = 0.2)
movej(p[0.474582758144482, -0.0205317529209919, 0.225709116833503, -1.19813404632781, 1.22314810045766, -1.20907331825877], a = 0.2, v = 0.2, t = 0.2)
movej(p[0.474997489829405, -0.0206584202621534, 0.225597125699014, -1.20048714953044, 1.22708678844022, -1.21234781066153], a = 0.2, v = 0.2, t = 0.2)
movej(p[0.475439774131127, -0.0207553035123938, 0.225496146432464, -1.20402162039209, 1.22260383956555, -1.21416246566294], a = 0.2, v = 0.2, t = 0.2)
movej(p[0.47572837787318, -0.0208565513225284, 0.225381532423652, -1.20477746640643, 1.22011855126272, -1.21528211548013], a = 0.2, v = 0.2, t = 0.2)
movej(p[0.475893646802812, -0.0208876960839959, 0.225360275078301, -1.2032884483807, 1.22046519911693, -1.21545231762939], a = 0.2, v = 0.2, t = 0.2)
movej(p[0.475898637756545, -0.0208823586758823, 0.225370159533545, -1.20513408028872, 1.22294750820846, -1.2161620521368], a = 0.2, v = 0.2, t = 0.2)
movej(p[0.475903966923133, -0.0209480142828817, 0.225283906236489, -1.20351609788446, 1.22586899196122, -1.21646544604082], a = 0.2, v = 0.2, t = 0.2)
movej(p[0.47545589525641, -0.0207417137780501, 0.22550241448161, -1.20504848466036, 1.22410397903407, -1.21426674379171], a = 0.2, v = 0.2, t = 0.2)
movej(p[0.474949921687879, -0.0203651587596342, 0.225955721492425, -1.20986831030745, 1.22073941931445, -1.21160562930293], a = 0.2, v = 0.2, t = 0.2)
movej(p[0.473866122379493, -0.0200445915010664, 0.226269970870909, -1.2046769595626, 1.2239435881623, -1.20609821709685], a = 0.2, v = 0.2, t = 0.2)
movej(p[0.471753592881159, -0.0194304076582097, 0.226838734350608, -1.21234646618134, 1.23304740193807, -1.19842852723706], a = 0.2, v = 0.2, t = 0.2)
movej(p[0.470153497117283, -0.0190287647613808, 0.227155570412089, -1.21003222597447, 1.24160398651279, -1.18982271773126], a = 0.2, v = 0.2, t = 0.2)
movej(p[0.468222508581654, -0.0184130189743271, 0.227751847873508, -1.20598271377771, 1.24457333706726, -1.17947283733149], a = 0.2, v = 0.2, t = 0.2)
movej(p[0.467106778080599, -0.0179582085159218, 0.22827304000309, -1.20209418790463, 1.24646529615937, -1.1738255159364], a = 0.2, v = 0.2, t = 0.2)
movej(p[0.467058217847499, -0.0180094630839892, 0.22819828812677, -1.19609132163391, 1.24736713937267, -1.17351071679912], a = 0.2, v = 0.2, t = 0.2)
movej(p[0.468756770110226, -0.0186413501542314, 0.227513152080978, -1.20468044652389, 1.23434369702205, -1.18471165351494], a = 0.2, v = 0.2, t = 0.2)
movej(p[0.470615825171345, -0.0193276776126904, 0.226766066088943, -1.20211186256704, 1.22309264358483, -1.19400510420598], a = 0.2, v = 0.2, t = 0.2)
movej(p[0.472322129694819, -0.0199523390420521, 0.226109511550585, -1.20431426907867, 1.22545885391154, -1.2023911378481], a = 0.2, v = 0.2, t = 0.2)
movej(p[0.473920369979433, -0.0204432065831543, 0.225630524818272, -1.20569368449924, 1.23104143355492, -1.20813922533569], a = 0.2, v = 0.2, t = 0.2)
movej(p[0.47431572994097, -0.0207539000269535, 0.225171124127379, -1.20906675908508, 1.23092061704323, -1.21093197469438], a = 0.2, v = 0.2, t = 0.2)
movej(p[0.47477751457298, -0.0209472087447937, 0.224918880766224, -1.20805628159406, 1.22915696780086, -1.21285275952136], a = 0.2, v = 0.2, t = 0.2)
movej(p[0.475168824818208, -0.0210150291073789, 0.224882135557041, -1.20987378516661, 1.22750788670648, -1.21446654017139], a = 0.2, v = 0.2, t = 0.2)
movej(p[0.475530796139105, -0.0211169020471615, 0.224780895313124, -1.2118417688377, 1.22934089818316, -1.21565311034681], a = 0.2, v = 0.2, t = 0.2)
movej(p[0.475622927844208, -0.0210907438070774, 0.224839776425466, -1.21175574889548, 1.23069144846635, -1.21531476731647], a = 0.2, v = 0.2, t = 0.2)
movej(p[0.475801244431706, -0.0211357065239549, 0.224782619459887, -1.21284339159765, 1.22797499167773, -1.21617777417525], a = 0.2, v = 0.2, t = 0.2)
movej(p[0.475804606503394, -0.0212021521355065, 0.224638564723139, -1.21570295499102, 1.23002655752643, -1.21600953732516], a = 0.2, v = 0.2, t = 0.2)
movej(p[0.475805873311339, -0.0210873850554192, 0.224867384483051, -1.21551886489299, 1.23114780246738, -1.21528141907012], a = 0.2, v = 0.2, t = 0.2)
movej(p[0.475983782673742, -0.0210851405593864, 0.224909186767757, -1.21496273403963, 1.23153596517848, -1.21524865172941], a = 0.2, v = 0.2, t = 0.2)
movej(p[0.47560140994736, -0.0208895530389589, 0.225159102833611, -1.21454082173263, 1.22655436767612, -1.21419810140878], a = 0.2, v = 0.2, t = 0.2)
movej(p[0.474633165768136, -0.0205611456164971, 0.225501680889345, -1.21282363762267, 1.23056441390655, -1.20927243527902], a = 0.2, v = 0.2, t = 0.2)
movej(p[0.472953356799141, -0.0199047238444058, 0.226281536507271, -1.21241889116474, 1.22460424096041, -1.20355755452786], a = 0.2, v = 0.2, t = 0.2)
movej(p[0.471353810975131, -0.0194186872340283, 0.22671464418472, -1.211257345319, 1.23476797125151, -1.19436355137553], a = 0.2, v = 0.2, t = 0.2)
movej(p[0.469891614559327, -0.0189038974247866, 0.22728772597985, -1.2095131575345, 1.23803660808795, -1.18702081881644], a = 0.2, v = 0.2, t = 0.2)
movej(p[0.467894097857276, -0.0182884358608967, 0.227852749924831, -1.20702445299241, 1.24506451646552, -1.17683502372178], a = 0.2, v = 0.2, t = 0.2)
movej(p[0.46562550073373, -0.0176370178620639, 0.228406260405161, -1.20358332038404, 1.25175971977854, -1.16637817766662], a = 0.2, v = 0.2, t = 0.2)
movej(p[0.464429264902899, -0.0172434557567277, 0.228817877030528, -1.2019759071913, 1.24932946369334, -1.16274674132602], a = 0.2, v = 0.2, t = 0.2)
movej(p[0.465309436346535, -0.0174740917913313, 0.228658897474141, -1.20036440071229, 1.24318966912107, -1.16822983507075], a = 0.2, v = 0.2, t = 0.2)
movej(p[0.468154871974929, -0.0184388287355861, 0.227695521896779, -1.20124439896956, 1.22323049720347, -1.18789086605762], a = 0.2, v = 0.2, t = 0.2)
movej(p[0.469731514611204, -0.0190870811913952, 0.22673888217305, -1.21030730662676, 1.21562022996857, -1.19638629227769], a = 0.2, v = 0.2, t = 0.2)
movej(p[0.471581465686562, -0.0196909199939545, 0.226043354100787, -1.21544318713844, 1.21069905115072, -1.20525337769001], a = 0.2, v = 0.2, t = 0.2)
movej(p[0.472932585938688, -0.0201368556728502, 0.225579964076527, -1.22054572555652, 1.21022818262052, -1.20972682261616], a = 0.2, v = 0.2, t = 0.2)
movej(p[0.474221276828549, -0.0204451713966604, 0.225283628093493, -1.22444605756676, 1.22618251099217, -1.20589278924695], a = 0.2, v = 0.2, t = 0.2)
movej(p[0.474962945675649, -0.0206725571187272, 0.225043409037961, -1.2272784642524, 1.22785224509859, -1.2065419338431], a = 0.2, v = 0.2, t = 0.2)
movej(p[0.475077034930163, -0.0207222562033882, 0.224906825902149, -1.23005349561388, 1.22629696922703, -1.20699067385538], a = 0.2, v = 0.2, t = 0.2)
movej(p[0.47535381136231, -0.0207793216730594, 0.224939160848867, -1.22683640249371, 1.2266500858762, -1.20658563851714], a = 0.2, v = 0.2, t = 0.2)
movej(p[0.475703550685418, -0.0208366803849418, 0.225030067636529, -1.22222339823215, 1.22804296148717, -1.20686384552686], a = 0.2, v = 0.2, t = 0.2)
movej(p[0.476296138288058, -0.0208625953221841, 0.225607285211821, -1.20522808682787, 1.23559860912602, -1.20824336276902], a = 0.2, v = 0.2, t = 0.2)
movej(p[0.47636213068528, -0.0208954408080761, 0.225573805851532, -1.20465422679388, 1.23617064168526, -1.20806618234816], a = 0.2, v = 0.2, t = 0.2)
movej(p[0.476200512284496, -0.0208730035528805, 0.225478014348218, -1.20842817643403, 1.23668248627408, -1.20531745316589], a = 0.2, v = 0.2, t = 0.2)
movej(p[0.475804885291317, -0.0207540409191509, 0.225579389069154, -1.20795347348364, 1.23629179738895, -1.20404294323796], a = 0.2, v = 0.2, t = 0.2)
movej(p[0.475199823809227, -0.0205555586012324, 0.225869973897326, -1.20275490015856, 1.23622631303618, -1.20374053984498], a = 0.2, v = 0.2, t = 0.2)
movej(p[0.474348318944076, -0.0202548909776669, 0.226421768147717, -1.19237357051501, 1.24024720081575, -1.20172518503772], a = 0.2, v = 0.2, t = 0.2)
movej(p[0.472479563386453, -0.0197098621665353, 0.226753347506073, -1.19892377077073, 1.23809587284212, -1.19594696088117], a = 0.2, v = 0.2, t = 0.2)
movej(p[0.471152640375759, -0.0193202829154038, 0.226983378179637, -1.2045147425304, 1.23794357349757, -1.19040252353907], a = 0.2, v = 0.2, t = 0.2)
movej(p[0.468847316374284, -0.0185421807415798, 0.227690658085551, -1.21185371530631, 1.24697189741665, -1.18223512034292], a = 0.2, v = 0.2, t = 0.2)
movej(p[0.46730300242766, -0.0180889662549717, 0.228030560355905, -1.21592204489556, 1.24890896438506, -1.17472688051177], a = 0.2, v = 0.2, t = 0.2)
movej(p[0.466618638587165, -0.0179213229302602, 0.228116015487423, -1.21758861750975, 1.24667877212463, -1.17264155875853], a = 0.2, v = 0.2, t = 0.2)
movej(p[0.467498086360242, -0.0181964614223599, 0.227917161157335, -1.20974525671944, 1.24400148718857, -1.17843848814105], a = 0.2, v = 0.2, t = 0.2)
movej(p[0.469028369547835, -0.0187556376634049, 0.227342864381077, -1.21094167975981, 1.23571482136957, -1.18798095270155], a = 0.2, v = 0.2, t = 0.2)
movej(p[0.471383829026698, -0.0195279153872959, 0.226627070974696, -1.21344285111914, 1.22788315810929, -1.19966223199982], a = 0.2, v = 0.2, t = 0.2)
movej(p[0.473280335589887, -0.0201039630254215, 0.226110411730718, -1.21245058436812, 1.22947477442171, -1.20530833358182], a = 0.2, v = 0.2, t = 0.2)
movej(p[0.474267507890369, -0.0204013658189747, 0.225876320813447, -1.2143578728393, 1.23119661752299, -1.20899691457505], a = 0.2, v = 0.2, t = 0.2)
movej(p[0.47506812349241, -0.0206288717425196, 0.225701740280397, -1.21675855711735, 1.23326850729702, -1.21135285850024], a = 0.2, v = 0.2, t = 0.2)
movej(p[0.475526865667003, -0.0208019632898565, 0.225490387131637, -1.21965988736554, 1.23457911582755, -1.21230967502099], a = 0.2, v = 0.2, t = 0.2)
movej(p[0.47627512118329, -0.0208929401030197, 0.225666092486738, -1.2197637971223, 1.23858992862675, -1.21473414821645], a = 0.2, v = 0.2, t = 0.2)
movej(p[0.476677974884299, -0.0209774444510922, 0.225677660145995, -1.2181171752834, 1.23774791918593, -1.21693918873974], a = 0.2, v = 0.2, t = 0.2)
movej(p[0.476550057648093, -0.0210094112316777, 0.22552032408649, -1.2182024355565, 1.2349168907074, -1.21691031575886], a = 0.2, v = 0.2, t = 0.2)
movej(p[0.47643023952719, -0.0210109032702666, 0.225440452240862, -1.21953170473275, 1.23551667591037, -1.21570734914095], a = 0.2, v = 0.2, t = 0.2)
movej(p[0.476394947495931, -0.0210456655221801, 0.225312246007116, -1.22144048482754, 1.23591068640089, -1.21479188214784], a = 0.2, v = 0.2, t = 0.2)
movej(p[0.476414094667087, -0.0210359442758996, 0.22534584129261, -1.22175989549965, 1.23753752955974, -1.21414113640538], a = 0.2, v = 0.2, t = 0.2)
movej(p[0.476529666993434, -0.0209469815692383, 0.225672059937397, -1.21877369829485, 1.24057352618486, -1.21446755386082], a = 0.2, v = 0.2, t = 0.2)
movej(p[0.475555069535232, -0.0206062701707771, 0.226051260909738, -1.21517027112553, 1.23979477979685, -1.2116480470595], a = 0.2, v = 0.2, t = 0.2)
movej(p[0.474293066990276, -0.0202499788512726, 0.226278112473915, -1.21526735942757, 1.23953167948368, -1.2064308509895], a = 0.2, v = 0.2, t = 0.2)
movej(p[0.472643291306285, -0.0198413654434185, 0.226465595500978, -1.21670570044153, 1.23390922583308, -1.20212064377469], a = 0.2, v = 0.2, t = 0.2)
movej(p[0.470850172242809, -0.0192841258698689, 0.226838288701702, -1.21855309617132, 1.24430596579683, -1.18973035302999], a = 0.2, v = 0.2, t = 0.2)
movej(p[0.469602792368612, -0.0188323985735008, 0.227333990506385, -1.21605419539447, 1.24502245772376, -1.18507252808607], a = 0.2, v = 0.2, t = 0.2)
movej(p[0.469093726110524, -0.0186655771258819, 0.227505658236289, -1.21440542391018, 1.24449902401864, -1.1835213456566], a = 0.2, v = 0.2, t = 0.2)
movej(p[0.468635266573448, -0.0185276695053444, 0.227642090750968, -1.21240830316708, 1.24218003576372, -1.18304241042697], a = 0.2, v = 0.2, t = 0.2)
movej(p[0.467671936091954, -0.0182234628649679, 0.227908802755526, -1.20930396348217, 1.24368040089151, -1.17865231562972], a = 0.2, v = 0.2, t = 0.2)
movej(p[0.467234999167432, -0.0181114287077855, 0.227963716247623, -1.21170267610499, 1.24400617194859, -1.17664534608414], a = 0.2, v = 0.2, t = 0.2)
movej(p[0.469486321100687, -0.0189336761138993, 0.227121934538398, -1.21190602303914, 1.23121562223868, -1.19120501338279], a = 0.2, v = 0.2, t = 0.2)
movej(p[0.47152895714184, -0.0195749468365573, 0.226519746732441, -1.21181529451515, 1.23212741196022, -1.19829592719938], a = 0.2, v = 0.2, t = 0.2)
movej(p[0.473945103885881, -0.0203831184497096, 0.225640775188557, -1.21805085249366, 1.23339372447637, -1.20553717512514], a = 0.2, v = 0.2, t = 0.2)
movej(p[0.475162012470299, -0.0207928683583035, 0.225222689229002, -1.22174076115383, 1.23148628866277, -1.21049389153311], a = 0.2, v = 0.2, t = 0.2)
movej(p[0.475494523730823, -0.0209168787681154, 0.225079393102458, -1.22544577442282, 1.231171602555, -1.21157139213372], a = 0.2, v = 0.2, t = 0.2)
movej(p[0.476026723243049, -0.0210110220096329, 0.2251893119328, -1.22351917927896, 1.23567123413313, -1.21336396941286], a = 0.2, v = 0.2, t = 0.2)
movej(p[0.476399097861431, -0.021057938506104, 0.225319718512172, -1.22030119242731, 1.23624895619591, -1.21568816051439], a = 0.2, v = 0.2, t = 0.2)
movej(p[0.47675513374719, -0.0211273945020488, 0.225355700906191, -1.2179490599883, 1.23609999212128, -1.21780345619873], a = 0.2, v = 0.2, t = 0.2)
movej(p[0.477573619852913, -0.0212108229648854, 0.225655432696841, -1.21368660312689, 1.24232756720388, -1.22037258820743], a = 0.2, v = 0.2, t = 0.2)
movej(p[0.476885085140722, -0.0210976203655956, 0.225495952630307, -1.21763171557352, 1.23892635974005, -1.21700559546231], a = 0.2, v = 0.2, t = 0.2)
movej(p[0.476196550164905, -0.0209845177646543, 0.225336473074447, -1.22156707123623, 1.23551500710469, -1.2136387642224], a = 0.2, v = 0.2, t = 0.2)
movej(p[0.475656032683577, -0.020829909438354, 0.225430628997351, -1.22200074718592, 1.23539834482976, -1.21091751915697], a = 0.2, v = 0.2, t = 0.2)
movej(p[0.474586095707886, -0.0204111752185883, 0.225999812668274, -1.21847915958402, 1.23941029359542, -1.20643101409776], a = 0.2, v = 0.2, t = 0.2)
movej(p[0.471892152181373, -0.0195638688137862, 0.22666373569268, -1.21950047727764, 1.24502399873063, -1.19282105958785], a = 0.2, v = 0.2, t = 0.2)
movej(p[0.468935894123766, -0.0186070121763121, 0.227456291540654, -1.21724616611243, 1.25052373579788, -1.17774867104707], a = 0.2, v = 0.2, t = 0.2)
movej(p[0.466291514183193, -0.0178012767186837, 0.228132042383952, -1.21939034718828, 1.24848403879279, -1.1677662912452], a = 0.2, v = 0.2, t = 0.2)
movej(p[0.465071351676692, -0.0175577315479428, 0.228215165290161, -1.20270882428785, 1.22882459407211, -1.17496489349974], a = 0.2, v = 0.2, t = 0.2)
movej(p[0.466016586929158, -0.0178383467255054, 0.22801569170891, -1.20274031093265, 1.2288543118737, -1.17891882966522], a = 0.2, v = 0.2, t = 0.2)
movej(p[0.468001112236555, -0.018437461626279, 0.227550955601028, -1.20401766309585, 1.22862828950346, -1.18710993562175], a = 0.2, v = 0.2, t = 0.2)
movej(p[0.470532240187488, -0.0192728315770348, 0.226692590427351, -1.21305873593811, 1.22946028679137, -1.19482018857053], a = 0.2, v = 0.2, t = 0.2)
movej(p[0.471898997684442, -0.0199022201555701, 0.225835868481951, -1.2314244103595, 1.22073438242448, -1.20294653388001], a = 0.2, v = 0.2, t = 0.2)
movej(p[0.473740193884478, -0.0202348686310564, 0.225896745445803, -1.21967393993604, 1.23515216756539, -1.20317130478145], a = 0.2, v = 0.2, t = 0.2)
movej(p[0.475017778404991, -0.0206319146164209, 0.225589037161136, -1.21852232601791, 1.23276390847244, -1.20973719421895], a = 0.2, v = 0.2, t = 0.2)
movej(p[0.475609177020101, -0.0208253760709925, 0.225373796124991, -1.22154123088462, 1.23413251979063, -1.21040742786497], a = 0.2, v = 0.2, t = 0.2)
movej(p[0.475597444636968, -0.0208854133339359, 0.225106071624349, -1.22696074333123, 1.23254731473975, -1.20900970839109], a = 0.2, v = 0.2, t = 0.2)
movej(p[0.476220357555776, -0.0209884375911756, 0.225286147602765, -1.22277991969669, 1.23758348872344, -1.21058648802369], a = 0.2, v = 0.2, t = 0.2)
movej(p[0.476051825955485, -0.0209976541768928, 0.225117600742068, -1.22352050828598, 1.23149922952337, -1.21228570753731], a = 0.2, v = 0.2, t = 0.2)
movej(p[0.476257429736179, -0.0209893606379042, 0.225339939251047, -1.22007099110934, 1.23629999569554, -1.21195973829312], a = 0.2, v = 0.2, t = 0.2)
movej(p[0.476369466802182, -0.0210395430033488, 0.225225154164735, -1.22271290471678, 1.23679126348984, -1.21102816028343], a = 0.2, v = 0.2, t = 0.2)
movej(p[0.476515942528701, -0.0210886567499082, 0.225180744690076, -1.22231779953597, 1.23603060994525, -1.21197617760319], a = 0.2, v = 0.2, t = 0.2)
movej(p[0.476419790543306, -0.0210297143438573, 0.225354622803918, -1.21795763082762, 1.23578082175715, -1.21316557248077], a = 0.2, v = 0.2, t = 0.2)
movej(p[0.476168067353286, -0.0209372714094152, 0.225467767443553, -1.21753581243334, 1.23749193478815, -1.21125557303276], a = 0.2, v = 0.2, t = 0.2)
movej(p[0.475535953491393, -0.0207073412839686, 0.225773228902685, -1.2145309188835, 1.23953359039591, -1.2086822490167], a = 0.2, v = 0.2, t = 0.2)
movej(p[0.473809162158201, -0.0201839122255121, 0.226139048875316, -1.21574594016808, 1.23953607596196, -1.2020608311428], a = 0.2, v = 0.2, t = 0.2)
movej(p[0.472006135920871, -0.0195943261594833, 0.22659395498458, -1.22112973487284, 1.24687740235448, -1.18970036864577], a = 0.2, v = 0.2, t = 0.2)
movej(p[0.469826460456302, -0.0189121678246304, 0.227044513144363, -1.22496319832447, 1.2498786274216, -1.17793023831973], a = 0.2, v = 0.2, t = 0.2)
movej(p[0.467825106563927, -0.018270061532088, 0.227655392671397, -1.22371141081233, 1.25030953962251, -1.17034685914284], a = 0.2, v = 0.2, t = 0.2)
movej(p[0.46754710412986, -0.0181528337557137, 0.227830250542536, -1.22088584796838, 1.25240286239182, -1.16883338744866], a = 0.2, v = 0.2, t = 0.2)
movej(p[0.46732767607309, -0.0180518973360255, 0.227997927604423, -1.21773546996631, 1.25465349154471, -1.16759902343352], a = 0.2, v = 0.2, t = 0.2)
movej(p[0.466493264458921, -0.0177929746924923, 0.228334471587885, -1.21581087024351, 1.25308507697129, -1.16609707201472], a = 0.2, v = 0.2, t = 0.2)
movej(p[0.468529754653728, -0.0184686832338133, 0.227584743261329, -1.21637821834871, 1.2458935670206, -1.17673420562266], a = 0.2, v = 0.2, t = 0.2)
movej(p[0.469560227179002, -0.0188065140862545, 0.227348059548765, -1.21342769751286, 1.24565843903813, -1.1819887590435], a = 0.2, v = 0.2, t = 0.2)
movej(p[0.469913553605359, -0.0189581271023661, 0.227038850267236, -1.21580447932722, 1.23554487472523, -1.18904068119348], a = 0.2, v = 0.2, t = 0.2)
movej(p[0.47092922918413, -0.0192989993218342, 0.226668945646175, -1.21706083416739, 1.23044516926654, -1.19511010423801], a = 0.2, v = 0.2, t = 0.2)
movej(p[0.473898706814235, -0.0201993334775503, 0.226102835071852, -1.21568526475243, 1.24027689758215, -1.19830177816368], a = 0.2, v = 0.2, t = 0.2)
movej(p[0.474778337492547, -0.0205143136827926, 0.225523978880664, -1.22491283095139, 1.23201168970844, -1.20366758445147], a = 0.2, v = 0.2, t = 0.2)
movej(p[0.475811124875924, -0.0208042769581445, 0.22563446127603, -1.21517628500192, 1.24223045219245, -1.20345262763036], a = 0.2, v = 0.2, t = 0.2)
movej(p[0.475891479002345, -0.0208404891281763, 0.225399529300537, -1.22259942283874, 1.23933770132581, -1.20192203576465], a = 0.2, v = 0.2, t = 0.2)
movej(p[0.476061352871469, -0.0209018305521914, 0.22534223647124, -1.2218473082286, 1.2375613174869, -1.20442557963428], a = 0.2, v = 0.2, t = 0.2)
movej(p[0.476150204344513, -0.0209299191287255, 0.225331686229249, -1.22128470303487, 1.23768916387396, -1.20465581142702], a = 0.2, v = 0.2, t = 0.2)
movej(p[0.476288440346304, -0.0209672566271259, 0.225317497888184, -1.22149891239816, 1.23965956062803, -1.20277866367864], a = 0.2, v = 0.2, t = 0.2)
movej(p[0.476407586384267, -0.0209988328461228, 0.225305435797506, -1.22179535191329, 1.24156995544867, -1.20074179417729], a = 0.2, v = 0.2, t = 0.2)
movej(p[0.476407481016242, -0.0210048554925209, 0.22530096627539, -1.22091686923838, 1.24015650115835, -1.20240273037604], a = 0.2, v = 0.2, t = 0.2)
movej(p[0.476407279283762, -0.0210081702517655, 0.225297982707868, -1.2204437714644, 1.23944903471773, -1.20307602114923], a = 0.2, v = 0.2, t = 0.2)
movej(p[0.476536023308775, -0.0210437905161556, 0.225282263522518, -1.22062115679836, 1.24127014562921, -1.20113154634638], a = 0.2, v = 0.2, t = 0.2)
movej(p[0.476477657310431, -0.0210229920893492, 0.225290921794847, -1.22124101669967, 1.2417734238926, -1.19975043088016], a = 0.2, v = 0.2, t = 0.2)
movej(p[0.475998090852567, -0.0208773065449609, 0.225353364365646, -1.22258439262983, 1.23882650224901, -1.20055775227068], a = 0.2, v = 0.2, t = 0.2)
movej(p[0.475110050785294, -0.020593355655557, 0.225687255817054, -1.21879251024454, 1.23980457108477, -1.19880127476623], a = 0.2, v = 0.2, t = 0.2)
movej(p[0.473899833212716, -0.0202076982919189, 0.225953678103839, -1.22018248567518, 1.23746528429878, -1.19654001952709], a = 0.2, v = 0.2, t = 0.2)
movej(p[0.472371757598299, -0.019674795606896, 0.226495213822808, -1.21895554169132, 1.2448999858805, -1.18772854500526], a = 0.2, v = 0.2, t = 0.2)
movej(p[0.471320497596039, -0.0193203862109189, 0.226873566737018, -1.2159132957455, 1.2463392676646, -1.18465922691153], a = 0.2, v = 0.2, t = 0.2)
movej(p[0.469276272815033, -0.0186714853576147, 0.227265408525632, -1.22390198927063, 1.24541271882306, -1.17491701117008], a = 0.2, v = 0.2, t = 0.2)
movej(p[0.467799028599895, -0.0181705057003652, 0.2276721233666, -1.22688887736914, 1.24660756252606, -1.16788225515929], a = 0.2, v = 0.2, t = 0.2)
movej(p[0.467607973644844, -0.018121118881478, 0.227707827795884, -1.22678359235849, 1.24548765316278, -1.1672409250489], a = 0.2, v = 0.2, t = 0.2)
movej(p[0.469003055152844, -0.0186640057710252, 0.227237835443612, -1.22357401441748, 1.23859973988072, -1.17866687016623], a = 0.2, v = 0.2, t = 0.2)
movej(p[0.471118489293547, -0.0193212552289834, 0.226618698103145, -1.22210309008279, 1.23356597085383, -1.19172077556706], a = 0.2, v = 0.2, t = 0.2)
movej(p[0.472945668260589, -0.0199414145599859, 0.226064102821368, -1.22220187961828, 1.23126075231196, -1.19925418952581], a = 0.2, v = 0.2, t = 0.2)
movej(p[0.473612411978122, -0.0201431250415046, 0.225349471037317, -1.2448442082645, 1.22541380614599, -1.1948652435719], a = 0.2, v = 0.2, t = 0.2)
movej(p[0.474946443834205, -0.0205530285904006, 0.225392565092104, -1.22918209212194, 1.23153395760873, -1.19714397787537], a = 0.2, v = 0.2, t = 0.2)
movej(p[0.475434639059606, -0.0207139620845612, 0.225129417353463, -1.23285263808964, 1.22768317628905, -1.2001227773399], a = 0.2, v = 0.2, t = 0.2)
movej(p[0.476111584925212, -0.020939650043212, 0.225286145590737, -1.22028701903568, 1.2367690556903, -1.19992305692896], a = 0.2, v = 0.2, t = 0.2)
movej(p[0.47614543423115, -0.0209473724144273, 0.225299263878367, -1.22002232639978, 1.23862186805055, -1.19740531818741], a = 0.2, v = 0.2, t = 0.2)
movej(p[0.476146756916505, -0.0209090985458317, 0.225118468409712, -1.22716715639593, 1.23173051293381, -1.20211249869324], a = 0.2, v = 0.2, t = 0.2)
movej(p[0.476197208348268, -0.0209233882391036, 0.225166159370064, -1.22536800088985, 1.23452330469489, -1.19960438455656], a = 0.2, v = 0.2, t = 0.2)
movej(p[0.476294314554045, -0.0209539765376855, 0.225257842688009, -1.22149689179881, 1.23905201608376, -1.19636512807336], a = 0.2, v = 0.2, t = 0.2)
movej(p[0.476442655788226, -0.0210078471302638, 0.225222862014818, -1.22044768159734, 1.23823428959525, -1.1984165812386], a = 0.2, v = 0.2, t = 0.2)
movej(p[0.476660662638798, -0.0210888252643812, 0.225300783481041, -1.21441079222344, 1.24095972951161, -1.20010444950225], a = 0.2, v = 0.2, t = 0.2)
movej(p[0.476011955129805, -0.0208674896321553, 0.225422547456352, -1.21806956849394, 1.24121125550912, -1.1949707626693], a = 0.2, v = 0.2, t = 0.2)
movej(p[0.474866509135076, -0.0205147548102939, 0.225835590781689, -1.2125858427108, 1.23976044987539, -1.19811252158997], a = 0.2, v = 0.2, t = 0.2)
movej(p[0.473223274962039, -0.0199898172057643, 0.226050394678104, -1.22363651644515, 1.23810428909562, -1.19129784844729], a = 0.2, v = 0.2, t = 0.2)
movej(p[0.47189523617402, -0.0195482453116473, 0.226474059982137, -1.2218630109358, 1.23800718298307, -1.18789703171427], a = 0.2, v = 0.2, t = 0.2)
movej(p[0.470560579101054, -0.0191263479701937, 0.226840609611596, -1.22238804480404, 1.23851214844824, -1.18401320953229], a = 0.2, v = 0.2, t = 0.2)
movej(p[0.469052392471615, -0.0186101441271883, 0.227196873970254, -1.22847507669814, 1.23990588034658, -1.17459037216968], a = 0.2, v = 0.2, t = 0.2)
movej(p[0.468639955778939, -0.0184724269275444, 0.227280613491725, -1.22921012977826, 1.23766111236028, -1.17489408251289], a = 0.2, v = 0.2, t = 0.2)
movej(p[0.469560869362985, -0.0188376176722145, 0.226995314506928, -1.22356634681075, 1.23407843169405, -1.183570598326], a = 0.2, v = 0.2, t = 0.2)
movej(p[0.471426277824062, -0.0194029260924446, 0.226489828321796, -1.22284436869937, 1.23130596854884, -1.19184296360744], a = 0.2, v = 0.2, t = 0.2)
movej(p[0.473190086341559, -0.0199647856454508, 0.22590228729659, -1.22629896737009, 1.22768322566202, -1.19865620604427], a = 0.2, v = 0.2, t = 0.2)
movej(p[0.474332228193341, -0.0203079851964456, 0.225416086393048, -1.23379467109946, 1.22433449993799, -1.19804765956721], a = 0.2, v = 0.2, t = 0.2)
movej(p[0.475028544413664, -0.0205303707862724, 0.225289538256937, -1.23193932945759, 1.22833461783677, -1.19545584329251], a = 0.2, v = 0.2, t = 0.2)
movej(p[0.475448778629746, -0.0206677007932001, 0.225207314885374, -1.23050940672953, 1.22977658324673, -1.19539868946995], a = 0.2, v = 0.2, t = 0.2)
movej(p[0.475869914111082, -0.0208113724271166, 0.22511742590959, -1.22849398852623, 1.22959186400087, -1.19828971434302], a = 0.2, v = 0.2, t = 0.2)
movej(p[0.476303998080442, -0.0209653500337458, 0.225209322559156, -1.22021758178225, 1.23734059172, -1.19476234516621], a = 0.2, v = 0.2, t = 0.2)
movej(p[0.476400596772849, -0.0210177460772299, 0.225279715863188, -1.21458496864809, 1.23764780505869, -1.19964148435631], a = 0.2, v = 0.2, t = 0.2)
movej(p[0.476403252806412, -0.0209874317649009, 0.2249900624704, -1.22685781226143, 1.23067891541712, -1.19795316050032], a = 0.2, v = 0.2, t = 0.2)
movej(p[0.476403173008229, -0.0209874759844452, 0.224981362374028, -1.22696236442089, 1.23046529051858, -1.19759760974205], a = 0.2, v = 0.2, t = 0.2)
movej(p[0.476470166647174, -0.0210243124494778, 0.225028507015131, -1.2230971439358, 1.23087126026727, -1.20064481278832], a = 0.2, v = 0.2, t = 0.2)
movej(p[0.47676780649133, -0.0211441391682325, 0.225177313132758, -1.21338169142514, 1.23828420632833, -1.1989773185689], a = 0.2, v = 0.2, t = 0.2)
movej(p[0.476593768408415, -0.0210791440471797, 0.225223377434928, -1.21458231493608, 1.2397524247626, -1.19494810890474], a = 0.2, v = 0.2, t = 0.2)
movej(p[0.47618520890309, -0.0209765774358888, 0.225534309261631, -1.20523234006016, 1.2433644052539, -1.19737910978849], a = 0.2, v = 0.2, t = 0.2)
movej(p[0.475045115354327, -0.020597877900244, 0.225825630341834, -1.20767570968486, 1.24338804667258, -1.19182358910393], a = 0.2, v = 0.2, t = 0.2)
movej(p[0.473668122996698, -0.020167600133833, 0.226088137181298, -1.21117427839727, 1.2374695209863, -1.19709626095163], a = 0.2, v = 0.2, t = 0.2)
movej(p[0.472559595265384, -0.0197833205331312, 0.226528905382727, -1.21001391401996, 1.24359326726941, -1.19012082860684], a = 0.2, v = 0.2, t = 0.2)
movej(p[0.470669068619558, -0.0191551191777561, 0.226941510216105, -1.21749119537342, 1.24384355264944, -1.18015421176953], a = 0.2, v = 0.2, t = 0.2)
movej(p[0.468724515212827, -0.0184901500091278, 0.227535204466663, -1.21885150454054, 1.24420744488508, -1.17327275378893], a = 0.2, v = 0.2, t = 0.2)
movej(p[0.467443587877351, -0.0180636320214507, 0.22789435511391, -1.22060774673935, 1.24470208214216, -1.16890036426824], a = 0.2, v = 0.2, t = 0.2)
movej(p[0.466904173372481, -0.017875785814422, 0.228153046251061, -1.21771603312032, 1.24485631208416, -1.16787384595031], a = 0.2, v = 0.2, t = 0.2)
movej(p[0.468913341822889, -0.0186061711534534, 0.227393933891518, -1.21571350077935, 1.24031008793064, -1.17899458232237], a = 0.2, v = 0.2, t = 0.2)
movej(p[0.471290633723925, -0.019400988084138, 0.226681806477381, -1.22237285311476, 1.22752535286393, -1.19712758790182], a = 0.2, v = 0.2, t = 0.2)
movej(p[0.473062197991673, -0.0198941625847913, 0.225762227047889, -1.23154175651572, 1.2236417798955, -1.19892883219207], a = 0.2, v = 0.2, t = 0.2)
movej(p[0.473673835311024, -0.02000315697423, 0.225668203047505, -1.26929860317979, 1.22139659955327, -1.19232286741344], a = 0.2, v = 0.2, t = 0.2)
movej(p[0.475295545084131, -0.0206676251097509, 0.225221358915076, -1.23755919707664, 1.22363950393562, -1.19865634800955], a = 0.2, v = 0.2, t = 0.2)
movej(p[0.475824043694354, -0.0208582680305, 0.225094758813337, -1.23901540975065, 1.2247376893037, -1.19597568259635], a = 0.2, v = 0.2, t = 0.2)
movej(p[0.476568994271946, -0.0212218194013498, 0.225137548037431, -1.23772829752923, 1.22850049765985, -1.1931373180793], a = 0.2, v = 0.2, t = 0.2)
movej(p[0.476402054356446, -0.0211952600906944, 0.225141224670422, -1.23979334286545, 1.22387414394407, -1.19927895577944], a = 0.2, v = 0.2, t = 0.2)
movej(p[0.476572928849802, -0.0212508725333973, 0.225090104970336, -1.23863528243599, 1.22647664854821, -1.19600238653671], a = 0.2, v = 0.2, t = 0.2)
movej(p[0.476572374770259, -0.0212695416036108, 0.225135099845747, -1.23321920623435, 1.22914088678886, -1.19542756868544], a = 0.2, v = 0.2, t = 0.2)
movej(p[0.476572102741041, -0.021279943249496, 0.225154252698354, -1.23098111724586, 1.23021858683038, -1.19510191820624], a = 0.2, v = 0.2, t = 0.2)
movej(p[0.47669999506483, -0.0213035162249336, 0.225088569151366, -1.23453592441301, 1.22939705776189, -1.19378067452982], a = 0.2, v = 0.2, t = 0.2)
movej(p[0.476697580452673, -0.0213131332871454, 0.225084012643652, -1.23417331671233, 1.22999908097697, -1.19440186404026], a = 0.2, v = 0.2, t = 0.2)
movej(p[0.476095676038939, -0.0212131388514776, 0.225496410278906, -1.2287599294515, 1.23300839628866, -1.19611907986403], a = 0.2, v = 0.2, t = 0.2)
movej(p[0.474177268758481, -0.0203513933104114, 0.225863355572838, -1.26464096300248, 1.22908546125109, -1.18745339504007], a = 0.2, v = 0.2, t = 0.2)
movej(p[0.473176404504876, -0.020016795472174, 0.226050123778114, -1.22842250567883, 1.23290351495506, -1.19450385947322], a = 0.2, v = 0.2, t = 0.2)
movej(p[0.471839447908445, -0.0195684221049961, 0.226489033840503, -1.22693637274208, 1.23393183394172, -1.1909015631648], a = 0.2, v = 0.2, t = 0.2)
movej(p[0.469714797462932, -0.0187825472344662, 0.227088391823891, -1.2210116865916, 1.24199276479683, -1.17609073447507], a = 0.2, v = 0.2, t = 0.2)
movej(p[0.46738311268658, -0.017953487092798, 0.227793249940979, -1.21312133415034, 1.24876491448773, -1.16578787255594], a = 0.2, v = 0.2, t = 0.2)
movej(p[0.465184779113204, -0.0172235658883005, 0.22857922586007, -1.20361719184054, 1.25745119313684, -1.15134632815589], a = 0.2, v = 0.2, t = 0.2)
movej(p[0.465188103852286, -0.0172740445514323, 0.228683193310161, -1.20910676990691, 1.25463585803507, -1.15267715705576], a = 0.2, v = 0.2, t = 0.2)
movej(p[0.467601775523369, -0.0181495584130859, 0.227931962345501, -1.20612781779588, 1.24505894673903, -1.17434586129694], a = 0.2, v = 0.2, t = 0.2)
movej(p[0.469534068676771, -0.0187471881209144, 0.227182792877601, -1.21159630656204, 1.23967442301897, -1.18243542872392], a = 0.2, v = 0.2, t = 0.2)
movej(p[0.471264561737804, -0.0192628352023328, 0.226482436437534, -1.21673762567179, 1.23378362269251, -1.19062296061654], a = 0.2, v = 0.2, t = 0.2)
movej(p[0.472959294693981, -0.0198009490323144, 0.225868113189375, -1.23252495244343, 1.22307785175389, -1.20090886167578], a = 0.2, v = 0.2, t = 0.2)
movej(p[0.474138695980517, -0.0201623248793003, 0.225464593038042, -1.23796951333527, 1.22681578917434, -1.19303268087478], a = 0.2, v = 0.2, t = 0.2)
movej(p[0.47557554302806, -0.0207355458709067, 0.225146655156137, -1.24094276388922, 1.22776611424853, -1.19095661468945], a = 0.2, v = 0.2, t = 0.2)
movej(p[0.475800160997293, -0.0208571179432902, 0.225131398055694, -1.23475110639024, 1.23017342455082, -1.19109935228427], a = 0.2, v = 0.2, t = 0.2)
movej(p[0.475958568849315, -0.0208961753573856, 0.225084564832208, -1.24473489352985, 1.22570044203301, -1.19120075682892], a = 0.2, v = 0.2, t = 0.2)
movej(p[0.476245729605757, -0.0210247452986637, 0.225043288323641, -1.24659473016371, 1.22437458833153, -1.19319962968974], a = 0.2, v = 0.2, t = 0.2)
movej(p[0.476328753823237, -0.0210628164436336, 0.225033175597382, -1.24341224438654, 1.22655584490499, -1.19078788957101], a = 0.2, v = 0.2, t = 0.2)
movej(p[0.476489606053189, -0.0211713022120309, 0.225060604198783, -1.2361755463842, 1.23110131487593, -1.19044465088072], a = 0.2, v = 0.2, t = 0.2)
movej(p[0.476389713145352, -0.0212019574870472, 0.225194131091495, -1.2405151901912, 1.23007384117102, -1.1888720868828], a = 0.2, v = 0.2, t = 0.2)
movej(p[0.475951671141977, -0.0210514693552382, 0.225337246798055, -1.24571085516984, 1.22674427622362, -1.19105323910235], a = 0.2, v = 0.2, t = 0.2)
movej(p[0.474391648678175, -0.0204247712954728, 0.225704426024484, -1.2348497947511, 1.23275195379019, -1.18696842081412], a = 0.2, v = 0.2, t = 0.2)
movej(p[0.473273971711121, -0.0200648187059535, 0.22609609658837, -1.23213128613896, 1.22878202535786, -1.19148534901865], a = 0.2, v = 0.2, t = 0.2)
movej(p[0.471790515948406, -0.0195679840309533, 0.22658871955351, -1.22423975123631, 1.2357497457477, -1.18476888940955], a = 0.2, v = 0.2, t = 0.2)
movej(p[0.469674908954874, -0.0187995911733908, 0.227235488666382, -1.21859251996401, 1.2424288290901, -1.17390957993811], a = 0.2, v = 0.2, t = 0.2)
movej(p[0.467942492902835, -0.0181469684576864, 0.227714236808505, -1.21889212278467, 1.245417174634, -1.1658917676322], a = 0.2, v = 0.2, t = 0.2)
movej(p[0.465981262817353, -0.0175472889661047, 0.228438628214567, -1.20026742321693, 1.25819535856219, -1.15383226229052], a = 0.2, v = 0.2, t = 0.2)
movej(p[0.466260204492248, -0.017636625832538, 0.228321130826074, -1.20350255047319, 1.25344169839378, -1.15745646333814], a = 0.2, v = 0.2, t = 0.2)
movej(p[0.468649416290405, -0.0184937387215655, 0.227616149713553, -1.2069921498422, 1.24330921997644, -1.17596997175199], a = 0.2, v = 0.2, t = 0.2)
movej(p[0.470291878995858, -0.0189660390796538, 0.226977268212064, -1.20533912522298, 1.24334757145377, -1.17953320505427], a = 0.2, v = 0.2, t = 0.2)
movej(p[0.472196210351812, -0.0195539859300145, 0.22630818557301, -1.21758689183327, 1.23006819563115, -1.19536143115661], a = 0.2, v = 0.2, t = 0.2)
movej(p[0.473587534709115, -0.0199240741849757, 0.225757099720974, -1.23374950986401, 1.22255070721953, -1.19821915737539], a = 0.2, v = 0.2, t = 0.2)
movej(p[0.474917433081501, -0.0204834096625509, 0.225518143757142, -1.23971585043839, 1.22580728991594, -1.18971078964959], a = 0.2, v = 0.2, t = 0.2)
movej(p[0.475690029857454, -0.0208140384167471, 0.225364125742983, -1.24038954014789, 1.22641347750896, -1.18647966559565], a = 0.2, v = 0.2, t = 0.2)
movej(p[0.47597189524508, -0.0209457225185299, 0.225317352774332, -1.23719414814521, 1.22804792285961, -1.18471801043107], a = 0.2, v = 0.2, t = 0.2)
movej(p[0.476080168898553, -0.0209133371649004, 0.225194036656838, -1.23266182171143, 1.2298915946472, -1.18351299490451], a = 0.2, v = 0.2, t = 0.2)
movej(p[0.476231503069752, -0.020993734159047, 0.225175098812196, -1.24060508288404, 1.22515230448289, -1.18698243935381], a = 0.2, v = 0.2, t = 0.2)
movej(p[0.476428830585886, -0.0210698311489294, 0.225121145225592, -1.2440926712678, 1.22329929799902, -1.18688890207031], a = 0.2, v = 0.2, t = 0.2)
movej(p[0.47668474761045, -0.0213211177706923, 0.225217525774778, -1.23718831791733, 1.22710891247028, -1.1861325055444], a = 0.2, v = 0.2, t = 0.2)
movej(p[0.47616926461781, -0.0210254319337795, 0.225241417408206, -1.23332189526346, 1.22894678244331, -1.18319348814449], a = 0.2, v = 0.2, t = 0.2)
movej(p[0.474933114349911, -0.0205483274420547, 0.225581713087211, -1.23462906882123, 1.22887038829345, -1.18319151307856], a = 0.2, v = 0.2, t = 0.2)
movej(p[0.473635595131202, -0.0201157300336182, 0.225986994852524, -1.23087241648151, 1.22692830246375, -1.19168105687511], a = 0.2, v = 0.2, t = 0.2)
movej(p[0.472068409502513, -0.019417620082119, 0.226332991992468, -1.22767134071644, 1.23021381569715, -1.18440063299874], a = 0.2, v = 0.2, t = 0.2)
movej(p[0.471821806713056, -0.0194207103254943, 0.226501337840732, -1.21693659438092, 1.23666688191795, -1.1830826426085], a = 0.2, v = 0.2, t = 0.2)
movej(p[0.470603773574612, -0.0190196538074218, 0.226920165648982, -1.22591447037206, 1.23449003402253, -1.17674846087529], a = 0.2, v = 0.2, t = 0.2)
movej(p[0.468063327648897, -0.0181415300577798, 0.227705789444979, -1.21066536554462, 1.2466592291575, -1.16489773876953], a = 0.2, v = 0.2, t = 0.2)
movej(p[0.466805293566711, -0.0177367451056703, 0.228129105379717, -1.20416837324252, 1.25187515641986, -1.15648140212195], a = 0.2, v = 0.2, t = 0.2)
movej(p[0.468106369052066, -0.018237611775687, 0.227751481359989, -1.19751403838771, 1.2484659430587, -1.16988136404415], a = 0.2, v = 0.2, t = 0.2)
movej(p[0.47036441102232, -0.0189533074078081, 0.227020872221849, -1.20256532315712, 1.24136789856931, -1.17789906541999], a = 0.2, v = 0.2, t = 0.2)
movej(p[0.472027512129436, -0.0194548582092994, 0.226461189444703, -1.22295837325191, 1.22474842374706, -1.19200513087372], a = 0.2, v = 0.2, t = 0.2)
movej(p[0.473380310085985, -0.0198762080424573, 0.226034978197955, -1.24697161735677, 1.21074044160848, -1.19902241418824], a = 0.2, v = 0.2, t = 0.2)
movej(p[0.474776555828617, -0.0205001744058212, 0.225746105953576, -1.22912511718847, 1.22529976211996, -1.18283175433843], a = 0.2, v = 0.2, t = 0.2)
movej(p[0.475494080551008, -0.0207179637556005, 0.225492681562722, -1.22853970111299, 1.22610052704792, -1.17867083231812], a = 0.2, v = 0.2, t = 0.2)
movej(p[0.476130943145983, -0.0209436323772054, 0.225299611113547, -1.23771111887313, 1.22035640508399, -1.18189441372179], a = 0.2, v = 0.2, t = 0.2)
movej(p[0.476234180613486, -0.0209917432895055, 0.22527259638754, -1.24215101686995, 1.2176501451185, -1.18260492134339], a = 0.2, v = 0.2, t = 0.2)
movej(p[0.476235143862781, -0.020853198778003, 0.225144288240942, -1.23388164516811, 1.22106538728769, -1.18334817531289], a = 0.2, v = 0.2, t = 0.2)
movej(p[0.476235355635595, -0.0208512136519429, 0.22514147853868, -1.23055261340357, 1.22312293144492, -1.17993915959111], a = 0.2, v = 0.2, t = 0.2)
movej(p[0.476268763467368, -0.0209063986613141, 0.225161838585755, -1.22540906090104, 1.2253876720523, -1.18065669131191], a = 0.2, v = 0.2, t = 0.2)
movej(p[0.476494430994755, -0.0209563255253338, 0.225077416519135, -1.242985801606, 1.21590574842447, -1.18310347151122], a = 0.2, v = 0.2, t = 0.2)
movej(p[0.476494437421233, -0.0209558367819078, 0.225075214000449, -1.23877499683504, 1.21826027514175, -1.18128299414515], a = 0.2, v = 0.2, t = 0.2)
movej(p[0.476372481486973, -0.0210204920463093, 0.225197463323081, -1.2312633565885, 1.22261151773811, -1.18030835546684], a = 0.2, v = 0.2, t = 0.2)
movej(p[0.475760694301065, -0.0209378465364968, 0.225497324939276, -1.24117874328766, 1.2181967707357, -1.18355203827461], a = 0.2, v = 0.2, t = 0.2)
movej(p[0.474500766464552, -0.0204684544516999, 0.225862105225897, -1.24957649142548, 1.21174307577819, -1.1931759466107], a = 0.2, v = 0.2, t = 0.2)
movej(p[0.473893503243451, -0.020271307572539, 0.226066290407376, -1.24937113355751, 1.21351488990397, -1.19302968925632], a = 0.2, v = 0.2, t = 0.2)
movej(p[0.472876669899862, -0.0199048145511186, 0.226361260162802, -1.24616078321123, 1.2181608262649, -1.18748549204371], a = 0.2, v = 0.2, t = 0.2)
movej(p[0.471400498989124, -0.0192956312763362, 0.226729723661696, -1.24830251481643, 1.22032750791363, -1.1837485651898], a = 0.2, v = 0.2, t = 0.2)
movej(p[0.46802508299591, -0.0180944799993682, 0.227734860539236, -1.23934159449566, 1.23198431209535, -1.16918315826127], a = 0.2, v = 0.2, t = 0.2)
movej(p[0.466565136596419, -0.0177217483535458, 0.228298173729936, -1.22578918111486, 1.24156489511266, -1.15763293144526], a = 0.2, v = 0.2, t = 0.2)
movej(p[0.467398836609807, -0.0178055666827232, 0.227863631263229, -1.18831969080777, 1.25448679153226, -1.16404303766054], a = 0.2, v = 0.2, t = 0.2)
movej(p[0.469362747007153, -0.0184600696704312, 0.227214527573302, -1.18212384290039, 1.25160937586003, -1.17571983414096], a = 0.2, v = 0.2, t = 0.2)
movej(p[0.47118034045615, -0.0190975163525912, 0.22667709869283, -1.21237198426417, 1.23224253197801, -1.18485696018908], a = 0.2, v = 0.2, t = 0.2)
movej(p[0.472930539745614, -0.0196445346206695, 0.22611015051041, -1.22757153183734, 1.22013414301881, -1.19341259012962], a = 0.2, v = 0.2, t = 0.2)
movej(p[0.473809253958293, -0.0198229719384007, 0.225734597270408, -1.23518413863244, 1.21566588322914, -1.19499892397966], a = 0.2, v = 0.2, t = 0.2)
movej(p[0.47521837051811, -0.0206641087556996, 0.225556767027103, -1.21816368485445, 1.22739459948886, -1.17871122589521], a = 0.2, v = 0.2, t = 0.2)
movej(p[0.475714496411073, -0.0206821638296786, 0.2253126074837, -1.23809094292649, 1.21584322588744, -1.18062773207733], a = 0.2, v = 0.2, t = 0.2)
movej(p[0.475963125061008, -0.0208023328217738, 0.225251598240378, -1.2300216184499, 1.21956303170257, -1.18102469577955], a = 0.2, v = 0.2, t = 0.2)
movej(p[0.476045476934653, -0.0206720242974512, 0.225119121120104, -1.2256027721603, 1.22154685497368, -1.17845824890357], a = 0.2, v = 0.2, t = 0.2)
movej(p[0.47623846953973, -0.0209286418314511, 0.225176982209182, -1.21762453569857, 1.22553614744725, -1.1778083809654], a = 0.2, v = 0.2, t = 0.2)
movej(p[0.476377103130946, -0.0209878006849919, 0.225139305990765, -1.22414682631303, 1.2217493481837, -1.17999117993573], a = 0.2, v = 0.2, t = 0.2)
movej(p[0.476497653519171, -0.0210373937882214, 0.225105138930444, -1.22947997256343, 1.21860183692633, -1.18144844895973], a = 0.2, v = 0.2, t = 0.2)
movej(p[0.476498682677076, -0.0208567512919119, 0.224995915996217, -1.22691208695738, 1.21983960839007, -1.17746500898238], a = 0.2, v = 0.2, t = 0.2)
movej(p[0.476498824294191, -0.0208484951508237, 0.224987373977784, -1.21882842047582, 1.22381804500324, -1.17805177433213], a = 0.2, v = 0.2, t = 0.2)
movej(p[0.476498688927188, -0.0208575696850369, 0.224992320138374, -1.21941723187306, 1.22346638246936, -1.17956188104558], a = 0.2, v = 0.2, t = 0.2)
movej(p[0.476498950732831, -0.020815683124249, 0.224970106235449, -1.22427315552526, 1.2210911900445, -1.17767908708403], a = 0.2, v = 0.2, t = 0.2)
movej(p[0.476622589046996, -0.0209695835597693, 0.224995180589222, -1.22267336935891, 1.22182199660118, -1.17823572207729], a = 0.2, v = 0.2, t = 0.2)
movej(p[0.476637721297542, -0.0209913000837111, 0.224999826833006, -1.22229014152043, 1.22199705566978, -1.17853386097253], a = 0.2, v = 0.2, t = 0.2)
movej(p[0.476184580211162, -0.0207119259337217, 0.225073247403366, -1.22601408278116, 1.22073987688605, -1.17661528418271], a = 0.2, v = 0.2, t = 0.2)
movej(p[0.474805222184525, -0.0201855452885565, 0.225471859534076, -1.2264748116405, 1.22280979823452, -1.18363688051831], a = 0.2, v = 0.2, t = 0.2)
movej(p[0.473874792172893, -0.0199913658539528, 0.225828911912071, -1.22654789244772, 1.22154220654737, -1.19254534446213], a = 0.2, v = 0.2, t = 0.2)
movej(p[0.472794140146746, -0.0196287683527504, 0.226170154128839, -1.22073777318237, 1.2257977176026, -1.18918305497783], a = 0.2, v = 0.2, t = 0.2)
movej(p[0.471199591234319, -0.0189894304961853, 0.226605589636166, -1.22018603789942, 1.22985801810225, -1.18892914284691], a = 0.2, v = 0.2, t = 0.2)
movej(p[0.469447677279446, -0.0183440844403341, 0.22711803024045, -1.21176485625977, 1.23918975936342, -1.17827873332276], a = 0.2, v = 0.2, t = 0.2)
movej(p[0.468324282494025, -0.0179755471514374, 0.227484143232274, -1.21461126561319, 1.2416615977884, -1.16765404267217], a = 0.2, v = 0.2, t = 0.2)
movej(p[0.469064489595387, -0.0182401897740997, 0.227271311704148, -1.21824171511312, 1.23464217961797, -1.17873804166931], a = 0.2, v = 0.2, t = 0.2)
movej(p[0.47102440252576, -0.018900584392538, 0.226700130083912, -1.20551365968448, 1.23644838542629, -1.18630338141624], a = 0.2, v = 0.2, t = 0.2)
movej(p[0.47329285148006, -0.0196349111496072, 0.225988440667394, -1.21643995464982, 1.22431199017221, -1.20015950314379], a = 0.2, v = 0.2, t = 0.2)
movej(p[0.473967952717365, -0.0197867959238758, 0.225733380782788, -1.23613617937836, 1.21700689355242, -1.19335791534707], a = 0.2, v = 0.2, t = 0.2)
movej(p[0.475015155410153, -0.0204522166065873, 0.225586712261155, -1.22938659203621, 1.22025625648444, -1.18330134928294], a = 0.2, v = 0.2, t = 0.2)
movej(p[0.475452241473002, -0.0205078084346849, 0.225402908500825, -1.21534583940615, 1.22727723905503, -1.18123017927897], a = 0.2, v = 0.2, t = 0.2)
movej(p[0.47585077122537, -0.0205928266932305, 0.225252866199485, -1.21559944501767, 1.22642364266191, -1.17891177850737], a = 0.2, v = 0.2, t = 0.2)
movej(p[0.476241070550979, -0.0207364568175518, 0.225135604979055, -1.22433507154647, 1.22114706044743, -1.18384718540805], a = 0.2, v = 0.2, t = 0.2)
movej(p[0.476317803002204, -0.0208620773221189, 0.225152025690408, -1.21449285503415, 1.22604928054885, -1.18183863282827], a = 0.2, v = 0.2, t = 0.2)
movej(p[0.476500342324314, -0.0210474153707463, 0.225141496986093, -1.23101417152266, 1.21670252297994, -1.18241996107348], a = 0.2, v = 0.2, t = 0.2)
movej(p[0.476454711796828, -0.0210710462719642, 0.225170712315442, -1.23189509919647, 1.21712546103398, -1.18429237022348], a = 0.2, v = 0.2, t = 0.2)
movej(p[0.476414210290677, -0.021088719799856, 0.225194209004814, -1.22747878285568, 1.22014718886433, -1.18373452169539], a = 0.2, v = 0.2, t = 0.2)
movej(p[0.476463005189731, -0.0210794016620077, 0.225164174189459, -1.22361974877109, 1.22149982448082, -1.17911990272974], a = 0.2, v = 0.2, t = 0.2)
movej(p[0.476673295531481, -0.0211334430968085, 0.225108137902187, -1.2269343180078, 1.21952633103973, -1.18248307381363], a = 0.2, v = 0.2, t = 0.2)
movej(p[0.476673421025648, -0.0211269618729249, 0.22510450499864, -1.22569360985253, 1.22016501875256, -1.18103528360183], a = 0.2, v = 0.2, t = 0.2)
movej(p[0.47667330517212, -0.0211308492751917, 0.225106924643568, -1.22640463154492, 1.21984547977496, -1.18190249756669], a = 0.2, v = 0.2, t = 0.2)
movej(p[0.476673197113852, -0.0211328428442815, 0.225108134604598, -1.22678500621046, 1.21967624696636, -1.18236372180842], a = 0.2, v = 0.2, t = 0.2)
movej(p[0.476787524849452, -0.0211588530374669, 0.225067332414424, -1.22691976047757, 1.21941079587326, -1.18248611321307], a = 0.2, v = 0.2, t = 0.2)
movej(p[0.476767920647748, -0.0211562776108603, 0.225071973799274, -1.22712424477981, 1.21927531391169, -1.18258447135685], a = 0.2, v = 0.2, t = 0.2)
movej(p[0.476673299188967, -0.0211358650425202, 0.225103850226174, -1.22709532678508, 1.2194340561224, -1.18249153481501], a = 0.2, v = 0.2, t = 0.2)
movej(p[0.4766251539175, -0.0211050812784093, 0.225114881214461, -1.22580971221964, 1.22024083019217, -1.18208460832687], a = 0.2, v = 0.2, t = 0.2)
movej(p[0.476069219336543, -0.0207680197556143, 0.225250069126445, -1.21796639369661, 1.22581387875981, -1.1811631046003], a = 0.2, v = 0.2, t = 0.2)
movej(p[0.474948409204751, -0.0201540109696964, 0.225513231432424, -1.24088113628472, 1.21467598845471, -1.18931268589664], a = 0.2, v = 0.2, t = 0.2)
movej(p[0.474157788107809, -0.0198929072208361, 0.225770764699015, -1.23109416220162, 1.21967057601588, -1.19638755170793], a = 0.2, v = 0.2, t = 0.2)
movej(p[0.472954190978681, -0.0196009391207326, 0.226180083632461, -1.21537086852136, 1.2304079757655, -1.1915012803229], a = 0.2, v = 0.2, t = 0.2)
movej(p[0.47155814264374, -0.0190301992680602, 0.226581530250432, -1.22777957244879, 1.22869593014802, -1.18648426799216], a = 0.2, v = 0.2, t = 0.2)
movej(p[0.470185874913637, -0.0185268297664844, 0.227001276830882, -1.21964153661043, 1.23744015846124, -1.17821128294837], a = 0.2, v = 0.2, t = 0.2)
movej(p[0.470158228080489, -0.0184721776512479, 0.226997033139434, -1.22407074553461, 1.2327895336414, -1.18145077423674], a = 0.2, v = 0.2, t = 0.2)
movej(p[0.471913354252277, -0.0191718340756836, 0.226503977981411, -1.22631420275658, 1.22561616084325, -1.19011132555711], a = 0.2, v = 0.2, t = 0.2)
movej(p[0.473484276867975, -0.0197194807708306, 0.226054318584998, -1.22621569901994, 1.22166513997421, -1.2019214120924], a = 0.2, v = 0.2, t = 0.2)
movej(p[0.47398209618484, -0.0198002307243992, 0.225870984483547, -1.2387541460218, 1.21488047540635, -1.20246393557976], a = 0.2, v = 0.2, t = 0.2)
movej(p[0.474275733839635, -0.0197606299600688, 0.225728861589012, -1.24327303025762, 1.21246473185073, -1.19581603228966], a = 0.2, v = 0.2, t = 0.2)
movej(p[0.475218684567005, -0.0203454745239232, 0.225523438095024, -1.22905058884308, 1.22260052703659, -1.18778570504311], a = 0.2, v = 0.2, t = 0.2)
movej(p[0.475775273851277, -0.0205669481601966, 0.225366260370557, -1.22705557832357, 1.22271528921279, -1.18521976515048], a = 0.2, v = 0.2, t = 0.2)
movej(p[0.476363015326184, -0.0207559494083928, 0.225180488502786, -1.21148969086212, 1.23019689186022, -1.18677942328354], a = 0.2, v = 0.2, t = 0.2)
movej(p[0.476237935294866, -0.0206857798521311, 0.225207639730008, -1.21738004641409, 1.22728614237289, -1.18760727834081], a = 0.2, v = 0.2, t = 0.2)
movej(p[0.476418834033471, -0.0208691320926454, 0.225173896697103, -1.22290315816671, 1.22378614222614, -1.18834925327702], a = 0.2, v = 0.2, t = 0.2)
movej(p[0.47641958254633, -0.0209211018960115, 0.225180364252018, -1.22601476999906, 1.22172078399098, -1.18763809774476], a = 0.2, v = 0.2, t = 0.2)
movej(p[0.476538744314447, -0.0208403407038058, 0.225116527014823, -1.22846030274516, 1.22013671944404, -1.18658922639427], a = 0.2, v = 0.2, t = 0.2)
movej(p[0.476679364610586, -0.0209392860048831, 0.225082658892514, -1.22961214774046, 1.21903581606695, -1.18469815412878], a = 0.2, v = 0.2, t = 0.2)
movej(p[0.476679390289866, -0.0210911227288404, 0.225115135785816, -1.21742141043368, 1.22599591829172, -1.18760835736379], a = 0.2, v = 0.2, t = 0.2)
movej(p[0.476679859573914, -0.0210057212989674, 0.225095799924104, -1.21889261751524, 1.22597029708547, -1.18955384249665], a = 0.2, v = 0.2, t = 0.2)
movej(p[0.476680925615399, -0.0209869605351828, 0.225088606364639, -1.21390254892236, 1.22753984411294, -1.18432884939158], a = 0.2, v = 0.2, t = 0.2)
movej(p[0.476641911878278, -0.0210888586080211, 0.225108337078456, -1.21895083032007, 1.22455811009973, -1.18468491034099], a = 0.2, v = 0.2, t = 0.2)
movej(p[0.476423424035468, -0.0209550795723507, 0.225167246688533, -1.22379315094595, 1.22295680479595, -1.18551207516048], a = 0.2, v = 0.2, t = 0.2)
movej(p[0.47561294125849, -0.0204450053372759, 0.225388360308499, -1.22761844732508, 1.22359826966414, -1.18844822860779], a = 0.2, v = 0.2, t = 0.2)
movej(p[0.474423504626334, -0.0199661242915554, 0.225767755988674, -1.22422008291189, 1.22708125247047, -1.19587607799754], a = 0.2, v = 0.2, t = 0.2)
movej(p[0.473123724197703, -0.0195105736755766, 0.226182215291414, -1.22257058584223, 1.23103012864784, -1.19117660343091], a = 0.2, v = 0.2, t = 0.2)
movej(p[0.471460934323563, -0.0188880265716206, 0.226701779520183, -1.22263644052922, 1.23644114737701, -1.1874798483413], a = 0.2, v = 0.2, t = 0.2)
movej(p[0.470303766288828, -0.0185469988522307, 0.227068254749898, -1.21301492681393, 1.24457198160035, -1.18018890644325], a = 0.2, v = 0.2, t = 0.2)
movej(p[0.470018983064698, -0.0184558641295076, 0.227162729019243, -1.20382897110934, 1.25000474067971, -1.17892272685969], a = 0.2, v = 0.2, t = 0.2)
movej(p[0.470137626435713, -0.0185386090124948, 0.227137127166699, -1.21748454982497, 1.24142523292599, -1.18060373380924], a = 0.2, v = 0.2, t = 0.2)
movej(p[0.472350962466745, -0.019182662096573, 0.226489449230819, -1.2162543804451, 1.23338954135774, -1.19480470038121], a = 0.2, v = 0.2, t = 0.2)
movej(p[0.473816751137073, -0.0197554850494812, 0.226068574892614, -1.23391977875901, 1.22169023924664, -1.20529024818265], a = 0.2, v = 0.2, t = 0.2)
movej(p[0.474969192896553, -0.0201628688061258, 0.225767228985343, -1.23559034279925, 1.21873967873906, -1.20776484499072], a = 0.2, v = 0.2, t = 0.2)
movej(p[0.475685883207588, -0.0205329639261121, 0.225571482286186, -1.22869549488206, 1.22398227809126, -1.18905694556036], a = 0.2, v = 0.2, t = 0.2)
movej(p[0.475976380539742, -0.0206482648981783, 0.225486644995732, -1.22857467513661, 1.22355524191047, -1.18913106899808], a = 0.2, v = 0.2, t = 0.2)
movej(p[0.476298671188869, -0.0208825634871465, 0.225399489911581, -1.22804002553212, 1.22344203052744, -1.18866929272442], a = 0.2, v = 0.2, t = 0.2)
movej(p[0.476420715688427, -0.0207997603437538, 0.225345349080669, -1.23233027325122, 1.22084428404796, -1.18960468431676], a = 0.2, v = 0.2, t = 0.2)
movej(p[0.476648444470663, -0.0209258086455891, 0.225277621262559, -1.21574558616707, 1.23040296741066, -1.19126782055556], a = 0.2, v = 0.2, t = 0.2)
movej(p[0.476893924301539, -0.0209305731285705, 0.225195914333021, -1.21070456452489, 1.23181432518155, -1.18856586993535], a = 0.2, v = 0.2, t = 0.2)
movej(p[0.476681044459995, -0.0208360334574364, 0.225250137516678, -1.2160870188792, 1.22932095977726, -1.18896954939078], a = 0.2, v = 0.2, t = 0.2)
movej(p[0.47680650148089, -0.0210326252599504, 0.225219233486318, -1.22314845044364, 1.2254144606175, -1.19070173484984], a = 0.2, v = 0.2, t = 0.2)
movej(p[0.476940357752312, -0.0211206687453088, 0.225182193868516, -1.22548135158846, 1.22379339285404, -1.19102237287305], a = 0.2, v = 0.2, t = 0.2)
movej(p[0.476939975418497, -0.021001677565364, 0.22517988455775, -1.22097010280498, 1.22624370646355, -1.19001247468567], a = 0.2, v = 0.2, t = 0.2)
movej(p[0.476521603093097, -0.0208809459697078, 0.225302597756509, -1.21969059055667, 1.22771020033571, -1.18908938052176], a = 0.2, v = 0.2, t = 0.2)
movej(p[0.475467928027998, -0.0204084108063972, 0.225606039920066, -1.22022414595291, 1.2283494684629, -1.19113280920493], a = 0.2, v = 0.2, t = 0.2)
movej(p[0.474270879672111, -0.0198518933538747, 0.225949220410049, -1.22180117853454, 1.22793988924602, -1.19857078635323], a = 0.2, v = 0.2, t = 0.2)
movej(p[0.472450850319422, -0.0192587165503147, 0.226452269438544, -1.22950303280761, 1.23214673787143, -1.19156776026109], a = 0.2, v = 0.2, t = 0.2)
movej(p[0.470731693552204, -0.0186156948350694, 0.226937697562422, -1.20996394121134, 1.24687309961503, -1.18218337143826], a = 0.2, v = 0.2, t = 0.2)
movej(p[0.469644908793169, -0.0182895192846246, 0.227252011335299, -1.21107226626572, 1.24786894977921, -1.1799255636602], a = 0.2, v = 0.2, t = 0.2)
movej(p[0.469286407270447, -0.0181238596378543, 0.227352233486734, -1.21116234559966, 1.24849516419932, -1.17971222573658], a = 0.2, v = 0.2, t = 0.2)
movej(p[0.468861318510564, -0.0180404707346911, 0.227482822142636, -1.21610353876523, 1.24628849322676, -1.18155626621778], a = 0.2, v = 0.2, t = 0.2)
movej(p[0.46738174568267, -0.0176326022697087, 0.227925608210881, -1.21236187318978, 1.24836152035597, -1.17195883793979], a = 0.2, v = 0.2, t = 0.2)
movej(p[0.468605840786707, -0.0179461063133941, 0.227578647966955, -1.21024873204626, 1.24506961168106, -1.17902307352867], a = 0.2, v = 0.2, t = 0.2)
movej(p[0.47005094204407, -0.0184564616914994, 0.227179706550194, -1.20295510472839, 1.24428141216805, -1.18213903643049], a = 0.2, v = 0.2, t = 0.2)
movej(p[0.471389820812115, -0.0190195554796845, 0.226816488695199, -1.22157489133843, 1.23377374006632, -1.197439450773], a = 0.2, v = 0.2, t = 0.2)
movej(p[0.471728907544041, -0.0190737463487115, 0.226719351586197, -1.23353023684941, 1.22739009883432, -1.20223974139942], a = 0.2, v = 0.2, t = 0.2)
movej(p[0.473040428964831, -0.0196287148904097, 0.226346928519597, -1.2302850767203, 1.22682358485481, -1.20505565653704], a = 0.2, v = 0.2, t = 0.2)
movej(p[0.473794148429272, -0.0198570295819696, 0.226126842512453, -1.23308749216699, 1.22390626657744, -1.20605111503218], a = 0.2, v = 0.2, t = 0.2)
movej(p[0.474930059779961, -0.0201887238873522, 0.22579507075182, -1.23551152494582, 1.22039363642089, -1.20544162815728], a = 0.2, v = 0.2, t = 0.2)
movej(p[0.475341810610695, -0.0204983032866015, 0.225640607232016, -1.22324888961892, 1.22993064939976, -1.19040275887765], a = 0.2, v = 0.2, t = 0.2)
movej(p[0.4753934755121, -0.0204912400588311, 0.225620890772491, -1.22879032649085, 1.22691883647142, -1.19183346844603], a = 0.2, v = 0.2, t = 0.2)
movej(p[0.475394506905512, -0.0206745731793501, 0.225615530441493, -1.22507900253116, 1.22760483273779, -1.18828599208708], a = 0.2, v = 0.2, t = 0.2)
movej(p[0.475394646375674, -0.0206223781317033, 0.225614463881964, -1.22842187615434, 1.22607024203894, -1.18962926508618], a = 0.2, v = 0.2, t = 0.2)
movej(p[0.475394789040773, -0.0205688825942383, 0.225613490682088, -1.23136737876545, 1.22478895373931, -1.19100992921231], a = 0.2, v = 0.2, t = 0.2)
movej(p[0.475394489492283, -0.0204499543511176, 0.225618482000443, -1.21490646205706, 1.23596860748301, -1.194161997568], a = 0.2, v = 0.2, t = 0.2)
movej(p[0.475816083444822, -0.0205661153834551, 0.225491652848631, -1.21592141638116, 1.23413817968676, -1.19398103059115], a = 0.2, v = 0.2, t = 0.2)
movej(p[0.474890899653942, -0.020230832040326, 0.225773394774717, -1.22126839502572, 1.23223300793645, -1.19687839019677], a = 0.2, v = 0.2, t = 0.2)
movej(p[0.472537845359508, -0.0193997709894559, 0.226467392870659, -1.21691633819593, 1.23679596921699, -1.18781174386168], a = 0.2, v = 0.2, t = 0.2)
movej(p[0.470322918616011, -0.0185170726127433, 0.227122347065005, -1.21440813915198, 1.24506916103082, -1.18054901529748], a = 0.2, v = 0.2, t = 0.2)
movej(p[0.467908352527876, -0.0178388292580312, 0.227820783739167, -1.20377562567236, 1.25723996515733, -1.1752913526125], a = 0.2, v = 0.2, t = 0.2)
movej(p[0.465912621291113, -0.0172470582703456, 0.2284082333104, -1.20590757946332, 1.25961156889553, -1.17139551308204], a = 0.2, v = 0.2, t = 0.2)
movej(p[0.464957279972882, -0.0169620406564528, 0.228700862385258, -1.22310718487444, 1.25234010929936, -1.1756075446894], a = 0.2, v = 0.2, t = 0.2)
movej(p[0.465575233226755, -0.0170850859837246, 0.228541423859598, -1.20898143454396, 1.255471893254, -1.16419839538113], a = 0.2, v = 0.2, t = 0.2)
movej(p[0.467932294625764, -0.0178251869281206, 0.227860970214296, -1.20770377115293, 1.24946161691145, -1.17861282470495], a = 0.2, v = 0.2, t = 0.2)
movej(p[0.47014597351459, -0.0185856485703361, 0.227192587930058, -1.20744572721055, 1.24229153327616, -1.18058859106709], a = 0.2, v = 0.2, t = 0.2)
movej(p[0.471173408114231, -0.0189576035770003, 0.226890970612123, -1.22473348990033, 1.2314446958867, -1.18723604585143], a = 0.2, v = 0.2, t = 0.2)
movej(p[0.472756437696043, -0.0194862063242816, 0.226416941574326, -1.22971860505015, 1.22783399120499, -1.19929807177004], a = 0.2, v = 0.2, t = 0.2)
movej(p[0.473872043110785, -0.0199517487015976, 0.22606570670487, -1.23627818053339, 1.22124451273383, -1.201867296798], a = 0.2, v = 0.2, t = 0.2)
movej(p[0.474831746144719, -0.020251378132837, 0.225773062465917, -1.23151345788848, 1.22161769167441, -1.20679032975309], a = 0.2, v = 0.2, t = 0.2)
movej(p[0.475486665239507, -0.020596065287437, 0.225507741330806, -1.22277402735776, 1.23185545267395, -1.19622064168462], a = 0.2, v = 0.2, t = 0.2)
movej(p[0.47566744703773, -0.0207909653020098, 0.225425456303306, -1.22288968995557, 1.2291961624344, -1.19314693852419], a = 0.2, v = 0.2, t = 0.2)
movej(p[0.475667212451348, -0.0204916974070302, 0.225476826450315, -1.22275947339234, 1.23236107559309, -1.19760824249966], a = 0.2, v = 0.2, t = 0.2)
movej(p[0.475926940617323, -0.0207304395185168, 0.225368448482064, -1.2173851877814, 1.23267091093788, -1.19443860527378], a = 0.2, v = 0.2, t = 0.2)
movej(p[0.475633812171837, -0.0205291058176379, 0.225477640172853, -1.21559318401716, 1.23540879356756, -1.19518081076246], a = 0.2, v = 0.2, t = 0.2)
movej(p[0.47562549060307, -0.0204520305857833, 0.225487826935234, -1.22593201404419, 1.22988526040391, -1.19664746627571], a = 0.2, v = 0.2, t = 0.2)
movej(p[0.475352111782345, -0.0204204595307198, 0.225556331817257, -1.22463844164187, 1.23034198610661, -1.19451538127657], a = 0.2, v = 0.2, t = 0.2)
movej(p[0.475238139516096, -0.0203797871802776, 0.225589859752409, -1.22342458657671, 1.23314167325099, -1.19712725679356], a = 0.2, v = 0.2, t = 0.2)
movej(p[0.475414515120941, -0.0205774781578745, 0.225507078755844, -1.21765785349196, 1.23347806948928, -1.19355744667198], a = 0.2, v = 0.2, t = 0.2)
movej(p[0.475863573290092, -0.0205241321121989, 0.225414847252931, -1.21725382209529, 1.23581122783456, -1.19882965520477], a = 0.2, v = 0.2, t = 0.2)
movej(p[0.476034970892134, -0.020718438656239, 0.225326437304636, -1.2197151292228, 1.23236613544548, -1.19747210406149], a = 0.2, v = 0.2, t = 0.2)
movej(p[0.47614835828351, -0.0208554597092342, 0.225263800170977, -1.22308302453187, 1.22870866582961, -1.19622332907217], a = 0.2, v = 0.2, t = 0.2)
movej(p[0.476192061390501, -0.0206735086457014, 0.225295771860306, -1.2235268234896, 1.23005829748389, -1.19820642174898], a = 0.2, v = 0.2, t = 0.2)
movej(p[0.475040876777671, -0.0202188624823806, 0.225668580166763, -1.21896678210727, 1.23420870776744, -1.19366607693971], a = 0.2, v = 0.2, t = 0.2)
movej(p[0.473717164240266, -0.0197623734869856, 0.226097779334282, -1.21697216769682, 1.23699087674044, -1.19345175905126], a = 0.2, v = 0.2, t = 0.2)
movej(p[0.471650402694798, -0.0189562912133161, 0.226767569526992, -1.21727157229109, 1.24219629375315, -1.18688574413066], a = 0.2, v = 0.2, t = 0.2)
movej(p[0.469083254825673, -0.0181678721073579, 0.22753878974289, -1.21218981221272, 1.25049015185152, -1.17404251894865], a = 0.2, v = 0.2, t = 0.2)
movej(p[0.465996646534958, -0.0171371198097669, 0.228478367419665, -1.20663983977007, 1.26274795485436, -1.16340894107028], a = 0.2, v = 0.2, t = 0.2)
movej(p[0.463568257975233, -0.0165285547374249, 0.229193728521296, -1.21753677280571, 1.26088250364306, -1.1652222366041], a = 0.2, v = 0.2, t = 0.2)
movej(p[0.461816986913267, -0.0159883532785154, 0.229698108082055, -1.20284251365742, 1.26543506006713, -1.13981117443364], a = 0.2, v = 0.2, t = 0.2)
movej(p[0.461695246172582, -0.0159825112745325, 0.22972179590692, -1.20653902695688, 1.2597268933477, -1.1367001402917], a = 0.2, v = 0.2, t = 0.2)
movej(p[0.463227898804993, -0.0162729362295088, 0.229334133484327, -1.19906880075388, 1.26391226617966, -1.14529783688064], a = 0.2, v = 0.2, t = 0.2)
movej(p[0.46539052903234, -0.0170031018871366, 0.228677677954848, -1.19964515374561, 1.25783088707805, -1.15922779456828], a = 0.2, v = 0.2, t = 0.2)
movej(p[0.467794344058665, -0.0177073550783862, 0.227971849185365, -1.20596075214835, 1.24820405707893, -1.16950537475804], a = 0.2, v = 0.2, t = 0.2)
movej(p[0.470042445304017, -0.0184318676641018, 0.22729156283846, -1.21189708492311, 1.24085922195535, -1.17930617157282], a = 0.2, v = 0.2, t = 0.2)
movej(p[0.471227135878157, -0.018888425744152, 0.226914142034735, -1.22017978417072, 1.23383057490106, -1.18779715970109], a = 0.2, v = 0.2, t = 0.2)
movej(p[0.472494614438736, -0.0193819876476225, 0.22650050208754, -1.230764658084, 1.22694643565437, -1.19406232302921], a = 0.2, v = 0.2, t = 0.2)
movej(p[0.473620883822344, -0.0198719195699991, 0.226137316491756, -1.23035764914833, 1.22566701674297, -1.20192799793085], a = 0.2, v = 0.2, t = 0.2)
movej(p[0.475095480494928, -0.0203547398113057, 0.225642901273759, -1.21421727368987, 1.2380980456148, -1.19456895714567], a = 0.2, v = 0.2, t = 0.2)
movej(p[0.47542480531647, -0.0203405132841676, 0.225563491967994, -1.21168501181686, 1.23814418014587, -1.19290083053935], a = 0.2, v = 0.2, t = 0.2)
movej(p[0.475425124491256, -0.0203312024654555, 0.225565745139618, -1.21040240714846, 1.23822038556011, -1.19206780686244], a = 0.2, v = 0.2, t = 0.2)
movej(p[0.475839555095555, -0.0205800323777969, 0.225402577100639, -1.22126877592613, 1.23324596665081, -1.19749825612711], a = 0.2, v = 0.2, t = 0.2)
movej(p[0.475943766477323, -0.0206042700772095, 0.225370742499381, -1.21898086933445, 1.23273370707298, -1.19529023885211], a = 0.2, v = 0.2, t = 0.2)
movej(p[0.476157037745466, -0.0205723200665277, 0.225333873772769, -1.21453688529671, 1.23306192905928, -1.19243861681171], a = 0.2, v = 0.2, t = 0.2)
movej(p[0.474969947789638, -0.0201916564933038, 0.225711377045329, -1.21748852453451, 1.23767225486094, -1.19606566774444], a = 0.2, v = 0.2, t = 0.2)
movej(p[0.47340064045465, -0.0195616735975871, 0.226247020573672, -1.22630037843413, 1.23368328979569, -1.19474822716779], a = 0.2, v = 0.2, t = 0.2)
movej(p[0.471675915980212, -0.019020921802357, 0.226774959332647, -1.22186526770863, 1.24338089173404, -1.18887579192674], a = 0.2, v = 0.2, t = 0.2)
movej(p[0.469773305287628, -0.0182203127538636, 0.22741725823031, -1.21899203690175, 1.24995175010056, -1.18295292025955], a = 0.2, v = 0.2, t = 0.2)
movej(p[0.468163652389748, -0.0177305943125016, 0.227900324402315, -1.21053093188019, 1.25700166951081, -1.17273656091193], a = 0.2, v = 0.2, t = 0.2)
movej(p[0.465385815976904, -0.0169773125587965, 0.228712235698585, -1.2036419707523, 1.26691949739751, -1.16184152003113], a = 0.2, v = 0.2, t = 0.2)
movej(p[0.462996153175818, -0.0161924655258828, 0.229443485664079, -1.20499653788775, 1.26791180456899, -1.14905648361945], a = 0.2, v = 0.2, t = 0.2)
movej(p[0.46244320674621, -0.0161232970180866, 0.229582450276526, -1.20340331271262, 1.26317267413147, -1.14289115559975], a = 0.2, v = 0.2, t = 0.2)
movej(p[0.464178133127692, -0.016491241216271, 0.229119452687051, -1.19774868064431, 1.26314426247197, -1.15136229011046], a = 0.2, v = 0.2, t = 0.2)
movej(p[0.466857852969984, -0.0173086611889517, 0.228327941818466, -1.20561034415667, 1.25162610170853, -1.16546737694902], a = 0.2, v = 0.2, t = 0.2)
movej(p[0.467832618371764, -0.017572057980599, 0.228049347522683, -1.21544390039089, 1.24488362961875, -1.17320021721563], a = 0.2, v = 0.2, t = 0.2)
movej(p[0.469701856854865, -0.018399073576211, 0.227408206167045, -1.21399661443716, 1.24133285212302, -1.18102352124822], a = 0.2, v = 0.2, t = 0.2)
movej(p[0.471522322356619, -0.01904754881554, 0.226827539661295, -1.22024325482223, 1.23885544662882, -1.18995067365334], a = 0.2, v = 0.2, t = 0.2)
movej(p[0.473290346832791, -0.0197062556895824, 0.226252803795227, -1.24180826967442, 1.22297799285627, -1.20150357691064], a = 0.2, v = 0.2, t = 0.2)
movej(p[0.474622547353075, -0.0201494830130483, 0.225800856172722, -1.21165638937295, 1.2406666485893, -1.19287638793336], a = 0.2, v = 0.2, t = 0.2)
movej(p[0.475107856251399, -0.0203919333090289, 0.225611519680764, -1.21334268319482, 1.23710856721328, -1.19264601457282], a = 0.2, v = 0.2, t = 0.2)
movej(p[0.475393304764203, -0.0205594145896648, 0.225488936863149, -1.21877513698407, 1.23225979112256, -1.19280183374154], a = 0.2, v = 0.2, t = 0.2)
movej(p[0.47581885139608, -0.0207394313440832, 0.225353443238845, -1.21681177741829, 1.23082421033864, -1.19599716994853], a = 0.2, v = 0.2, t = 0.2)
movej(p[0.475955684030559, -0.0205821121967812, 0.225388157155846, -1.21291213723459, 1.23121517461625, -1.19464690798398], a = 0.2, v = 0.2, t = 0.2)
movej(p[0.476449797179728, -0.020708464055074, 0.225241848189189, -1.20757326385082, 1.23091692700604, -1.19250278375564], a = 0.2, v = 0.2, t = 0.2)
movej(p[0.475775081843893, -0.0203572959005312, 0.22551279030999, -1.20984257655631, 1.23572094307236, -1.19589925969467], a = 0.2, v = 0.2, t = 0.2)
movej(p[0.474636936060805, -0.0199204526338149, 0.225891820014318, -1.21946955835289, 1.23287835119631, -1.19429765062795], a = 0.2, v = 0.2, t = 0.2)
movej(p[0.47306988442868, -0.019365491884372, 0.226404952003997, -1.22417115546365, 1.23749948025442, -1.19354429917859], a = 0.2, v = 0.2, t = 0.2)
movej(p[0.471485156893507, -0.0188184832317607, 0.226898783304376, -1.22394020284345, 1.24510755018468, -1.18911962249696], a = 0.2, v = 0.2, t = 0.2)
movej(p[0.470083139876719, -0.0183008458191727, 0.227355588441964, -1.21949110531147, 1.25202076285616, -1.18131088244201], a = 0.2, v = 0.2, t = 0.2)
movej(p[0.467864791860148, -0.0176739333619262, 0.228031942830079, -1.21770439536639, 1.25973584241044, -1.17576240777246], a = 0.2, v = 0.2, t = 0.2)
movej(p[0.465115694557324, -0.0167885898095691, 0.228889946369645, -1.20659622717834, 1.26923328644471, -1.16184066421924], a = 0.2, v = 0.2, t = 0.2)
movej(p[0.463397977384724, -0.0163586728915233, 0.229375867421394, -1.20726683734574, 1.26710871816806, -1.1529874445623], a = 0.2, v = 0.2, t = 0.2)
movej(p[0.464263380977373, -0.016583544648902, 0.22912392263664, -1.21065587133532, 1.26023744818596, -1.15484284752272], a = 0.2, v = 0.2, t = 0.2)
movej(p[0.466885377903325, -0.0172896598817782, 0.228381509424071, -1.20734896643128, 1.25469056727246, -1.16434296987135], a = 0.2, v = 0.2, t = 0.2)
movej(p[0.468612341216114, -0.0178639769803879, 0.227842047297018, -1.21343550610868, 1.24803891197765, -1.17438653237516], a = 0.2, v = 0.2, t = 0.2)
movej(p[0.470317531237238, -0.0185484922424298, 0.227252897258495, -1.22456992005057, 1.23633506167458, -1.18379058118317], a = 0.2, v = 0.2, t = 0.2)
movej(p[0.471563080153763, -0.0190247508921817, 0.226828517752535, -1.23807684857134, 1.22677214483722, -1.19258107340792], a = 0.2, v = 0.2, t = 0.2)
movej(p[0.473242538781846, -0.0196141197775327, 0.226274022041516, -1.22893811679599, 1.22969308069062, -1.19663017315206], a = 0.2, v = 0.2, t = 0.2)
movej(p[0.474535441545202, -0.0203045972181285, 0.225714445631599, -1.21950786308859, 1.23220540105255, -1.19577257908879], a = 0.2, v = 0.2, t = 0.2)
movej(p[0.474860304060271, -0.020286098156084, 0.22566650461569, -1.2184858104125, 1.23174133487405, -1.19553779465995], a = 0.2, v = 0.2, t = 0.2)
movej(p[0.475188048419811, -0.0204817433724061, 0.225514163537447, -1.21422915380778, 1.2313388206674, -1.1943258845422], a = 0.2, v = 0.2, t = 0.2)
movej(p[0.475675825359504, -0.0204348584404793, 0.225449555408998, -1.20959138785138, 1.23097043077643, -1.19212481015713], a = 0.2, v = 0.2, t = 0.2)
movej(p[0.475966405831473, -0.020640021259302, 0.225313776960477, -1.2109349373783, 1.2338761870118, -1.19795707217121], a = 0.2, v = 0.2, t = 0.2)
movej(p[0.47620285104605, -0.0204055656197506, 0.225387228397402, -1.21005644748547, 1.23389908991962, -1.19680967427475], a = 0.2, v = 0.2, t = 0.2)
movej(p[0.476232920036504, -0.0206514356804216, 0.225252753198652, -1.21849506706485, 1.22668315276707, -1.19724053518675], a = 0.2, v = 0.2, t = 0.2)
movej(p[0.475733082392373, -0.0203485553077538, 0.225479447573002, -1.21770343567318, 1.2275248041745, -1.19423675858845], a = 0.2, v = 0.2, t = 0.2)
movej(p[0.474767986089601, -0.0200200603266756, 0.22580163216882, -1.21979117636245, 1.22951953067961, -1.19315001074417], a = 0.2, v = 0.2, t = 0.2)
movej(p[0.47332490897953, -0.0194768365688433, 0.226312812003434, -1.22757092812767, 1.23393486623185, -1.19504160749086], a = 0.2, v = 0.2, t = 0.2)
movej(p[0.472125391680324, -0.0190542580529476, 0.226706272365872, -1.22435183709967, 1.23912577551377, -1.18971462268483], a = 0.2, v = 0.2, t = 0.2)
movej(p[0.470452153107208, -0.0184548917990026, 0.227263431446449, -1.21883753646797, 1.24760151147001, -1.18351218476559], a = 0.2, v = 0.2, t = 0.2)
movej(p[0.468390374724149, -0.0178693805177952, 0.227863859867435, -1.2162195691633, 1.25570810149713, -1.17433209073666], a = 0.2, v = 0.2, t = 0.2)
movej(p[0.46653558099412, -0.0172511086756928, 0.228465401419041, -1.20418495044871, 1.26212726794416, -1.16470313709148], a = 0.2, v = 0.2, t = 0.2)
movej(p[0.466066491925642, -0.0171858077931948, 0.228575680068739, -1.20763160849475, 1.26000181908265, -1.16202201236475], a = 0.2, v = 0.2, t = 0.2)
movej(p[0.468005590047966, -0.0177236662305584, 0.228020023850063, -1.21327965304128, 1.24892791219554, -1.17035744613773], a = 0.2, v = 0.2, t = 0.2)
movej(p[0.470043156566497, -0.0184550904751615, 0.227346284088009, -1.22090464416629, 1.24045710666953, -1.1815978507272], a = 0.2, v = 0.2, t = 0.2)
movej(p[0.471516866496902, -0.0191029310892433, 0.226789209551013, -1.22193334605483, 1.23442286407646, -1.18814007523863], a = 0.2, v = 0.2, t = 0.2)
movej(p[0.473175234442502, -0.0196673212787356, 0.226258737533831, -1.22456479603942, 1.23264346032832, -1.19852917734649], a = 0.2, v = 0.2, t = 0.2)
movej(p[0.474212594713516, -0.0203402532658383, 0.225693577964456, -1.21569677876161, 1.23136535002341, -1.19299134564412], a = 0.2, v = 0.2, t = 0.2)
movej(p[0.475311217162388, -0.0203340225830394, 0.225522594387978, -1.21500420140206, 1.22929050888714, -1.19399475734081], a = 0.2, v = 0.2, t = 0.2)
movej(p[0.475725958670268, -0.020495411253064, 0.225367380120499, -1.21406891284715, 1.22921848679594, -1.19557151633429], a = 0.2, v = 0.2, t = 0.2)
movej(p[0.475725651119772, -0.0204883533172001, 0.225378543496066, -1.21527071424239, 1.23137127597351, -1.19824387799598], a = 0.2, v = 0.2, t = 0.2)
movej(p[0.475853514982289, -0.0204639880953622, 0.225378915822639, -1.21434817998731, 1.23252950480118, -1.19878940739069], a = 0.2, v = 0.2, t = 0.2)
movej(p[0.476096382724337, -0.0205577944049486, 0.22528795794143, -1.2160128382405, 1.2290573713645, -1.19807394255819], a = 0.2, v = 0.2, t = 0.2)
movej(p[0.476401626499519, -0.0207690692795716, 0.225118244255871, -1.2195930313473, 1.22418825052359, -1.19849642788174], a = 0.2, v = 0.2, t = 0.2)
movej(p[0.476666950870828, -0.0208158878985924, 0.225055898727546, -1.2190041990824, 1.22521822679767, -1.20003369527521], a = 0.2, v = 0.2, t = 0.2)
movej(p[0.47650279170525, -0.0206514187724297, 0.225179978600596, -1.22023387533994, 1.22836100375448, -1.20184764977691], a = 0.2, v = 0.2, t = 0.2)
movej(p[0.476170793202304, -0.0204900412185173, 0.225316984765182, -1.21826046740741, 1.22929922382346, -1.19949689472551], a = 0.2, v = 0.2, t = 0.2)
movej(p[0.475516258320279, -0.0201938811620736, 0.225577354827171, -1.21644105758798, 1.23099557753701, -1.19609468028289], a = 0.2, v = 0.2, t = 0.2)
movej(p[0.474235602931941, -0.0197473688115873, 0.226013805096025, -1.2142882635964, 1.23406452442213, -1.19088322705198], a = 0.2, v = 0.2, t = 0.2)
movej(p[0.473155056087269, -0.019183361116865, 0.226493519955879, -1.22899101283011, 1.23606505388278, -1.19368156868953], a = 0.2, v = 0.2, t = 0.2)
movej(p[0.471259700265559, -0.0187180903184724, 0.227035248654834, -1.22267288331229, 1.24811506752857, -1.18822306958129], a = 0.2, v = 0.2, t = 0.2)
movej(p[0.46940121834375, -0.0181582522488598, 0.227608879966849, -1.21381663470727, 1.25612696510416, -1.17872451737658], a = 0.2, v = 0.2, t = 0.2)
movej(p[0.466990911353234, -0.0173062680651472, 0.228434440220357, -1.20805367488846, 1.2647303817682, -1.16950274036339], a = 0.2, v = 0.2, t = 0.2)
movej(p[0.466343367472306, -0.0171775328784973, 0.228596180982042, -1.19912627109966, 1.26601603178576, -1.16341744943791], a = 0.2, v = 0.2, t = 0.2)
movej(p[0.467972965611712, -0.0176589548119985, 0.228103118545844, -1.20272697400781, 1.25744367130381, -1.16907543348551], a = 0.2, v = 0.2, t = 0.2)
movej(p[0.469657495829341, -0.0182295857018841, 0.227539038654871, -1.21709100915687, 1.24423929186044, -1.17723455981761], a = 0.2, v = 0.2, t = 0.2)
movej(p[0.471052485735083, -0.0188803931392906, 0.22698699658012, -1.22962594441361, 1.23473198098705, -1.18858485502192], a = 0.2, v = 0.2, t = 0.2)
movej(p[0.47242175672652, -0.0193924304616863, 0.226513286507941, -1.23155395379953, 1.23005114966272, -1.19509114167653], a = 0.2, v = 0.2, t = 0.2)
movej(p[0.473471303451355, -0.0197844038492328, 0.226141221774537, -1.23804561782507, 1.22264515597579, -1.19980366725965], a = 0.2, v = 0.2, t = 0.2)
movej(p[0.474188770614375, -0.0201422358104047, 0.225840712527506, -1.22809511719599, 1.2263851926468, -1.20075535890854], a = 0.2, v = 0.2, t = 0.2)
movej(p[0.474962982809097, -0.0203790559679827, 0.225571416815492, -1.21367335879967, 1.23438256223842, -1.19638088194142], a = 0.2, v = 0.2, t = 0.2)
movej(p[0.475490217994697, -0.0204930718893522, 0.225429621756553, -1.21189469920617, 1.23314343498038, -1.19655742394482], a = 0.2, v = 0.2, t = 0.2)
movej(p[0.475739370265352, -0.020530454795758, 0.225365890411549, -1.22163427093068, 1.22643327473242, -1.19809816645973], a = 0.2, v = 0.2, t = 0.2)
movej(p[0.475841293988357, -0.0205965356261308, 0.225324564287293, -1.22289119331043, 1.22991662492911, -1.20201325893429], a = 0.2, v = 0.2, t = 0.2)
movej(p[0.47615487327562, -0.0207005111653547, 0.225217422335458, -1.22063608168459, 1.22931080000324, -1.2017991844589], a = 0.2, v = 0.2, t = 0.2)
movej(p[0.476456713078136, -0.0206666134353073, 0.225196449555131, -1.21908866564287, 1.22879077282174, -1.20117030323218], a = 0.2, v = 0.2, t = 0.2)
movej(p[0.476324201472794, -0.0206480335835471, 0.225221947271857, -1.21663819559627, 1.2292056637469, -1.19965292389175], a = 0.2, v = 0.2, t = 0.2)
movej(p[0.47625850993412, -0.0206265561882492, 0.22524228524712, -1.21466871322488, 1.22987713674283, -1.19874812127559], a = 0.2, v = 0.2, t = 0.2)
movej(p[0.476230023342992, -0.0205804454244977, 0.225288284068759, -1.21640646644456, 1.23393731403233, -1.20221372290823], a = 0.2, v = 0.2, t = 0.2)
movej(p[0.475987411668486, -0.0203605554314374, 0.225454099075154, -1.21576530958503, 1.23425008041495, -1.20007339911503], a = 0.2, v = 0.2, t = 0.2)
movej(p[0.475473338095713, -0.0201292524254403, 0.225658526008783, -1.22282709132942, 1.2312094730904, -1.1990669251206], a = 0.2, v = 0.2, t = 0.2)
movej(p[0.474499850978103, -0.0197707830170439, 0.226010438334641, -1.21599962559278, 1.23795196122274, -1.19518217015988], a = 0.2, v = 0.2, t = 0.2)
movej(p[0.472832145154406, -0.0192050779430272, 0.226558582225275, -1.22462646172934, 1.23968833396687, -1.19084863404737], a = 0.2, v = 0.2, t = 0.2)
movej(p[0.47099669730135, -0.0186154030699169, 0.227151214769718, -1.22241390198165, 1.25036692436139, -1.18580585438219], a = 0.2, v = 0.2, t = 0.2)
movej(p[0.469265545958347, -0.0181416425405763, 0.227658180792701, -1.21595826915138, 1.25781344131674, -1.17754993059249], a = 0.2, v = 0.2, t = 0.2)
movej(p[0.468018427923249, -0.0178230989680955, 0.228020562054586, -1.21747254254828, 1.25754297475747, -1.17462726405974], a = 0.2, v = 0.2, t = 0.2)
movej(p[0.468893694077018, -0.0179904020804223, 0.227806546427416, -1.2165575861819, 1.24792939008867, -1.17417818794279], a = 0.2, v = 0.2, t = 0.2)
movej(p[0.469990908906838, -0.018413711085505, 0.227413052255363, -1.22166700676851, 1.2416412774431, -1.18018647431042], a = 0.2, v = 0.2, t = 0.2)
movej(p[0.47135191165409, -0.0189253941222439, 0.22692612096464, -1.22560502908209, 1.23422295863394, -1.18610436777547], a = 0.2, v = 0.2, t = 0.2)
movej(p[0.472426537870435, -0.0194296157739, 0.226479587202036, -1.22318153031794, 1.23599522805256, -1.19098830950419], a = 0.2, v = 0.2, t = 0.2)
movej(p[0.473368642576129, -0.0197987842413, 0.226150857075357, -1.23812879053407, 1.22317667166781, -1.20100953423924], a = 0.2, v = 0.2, t = 0.2)
movej(p[0.474597784380129, -0.0202157805781132, 0.225710436218965, -1.22422392594006, 1.22710150424573, -1.19936170830745], a = 0.2, v = 0.2, t = 0.2)
movej(p[0.475349810249987, -0.0203279738778207, 0.225532453229429, -1.22262628080278, 1.23104447707413, -1.19959753507909], a = 0.2, v = 0.2, t = 0.2)
movej(p[0.47568486277101, -0.0204569913257473, 0.225408688911926, -1.22172309143276, 1.23165066921634, -1.20102759249948], a = 0.2, v = 0.2, t = 0.2)
movej(p[0.475752950668459, -0.0204893295488681, 0.225377711863224, -1.21972345188684, 1.23152351513218, -1.20016870975748], a = 0.2, v = 0.2, t = 0.2)
movej(p[0.476011813781245, -0.0206781961011349, 0.2252247761765, -1.21680263945727, 1.23122798460681, -1.2000796230546], a = 0.2, v = 0.2, t = 0.2)
movej(p[0.47608716325201, -0.0206524537512616, 0.225232719644157, -1.21561315018094, 1.23181175837273, -1.19981273888369], a = 0.2, v = 0.2, t = 0.2)
movej(p[0.476527830335231, -0.0206696551998613, 0.225185830072482, -1.22005070478061, 1.233582509655, -1.20440397678432], a = 0.2, v = 0.2, t = 0.2)
movej(p[0.476529426323122, -0.0208836448075646, 0.225032725465701, -1.22530864037527, 1.22822714256654, -1.20506253464312], a = 0.2, v = 0.2, t = 0.2)
movej(p[0.476530251670233, -0.0208612736499771, 0.225047013226559, -1.22328933018334, 1.22838910739394, -1.20389704472643], a = 0.2, v = 0.2, t = 0.2)
movej(p[0.476387367810202, -0.0207226550976024, 0.225152674380633, -1.22193726391341, 1.22868766476043, -1.20224648818087], a = 0.2, v = 0.2, t = 0.2)
movej(p[0.475738812215287, -0.020325905195064, 0.225492145270608, -1.2207211308834, 1.23021779605582, -1.19838690971821], a = 0.2, v = 0.2, t = 0.2)
movej(p[0.475172663512291, -0.0199391439821265, 0.225817658358307, -1.22020156627803, 1.23152826732267, -1.1950011790412], a = 0.2, v = 0.2, t = 0.2)
movej(p[0.473840563904376, -0.0194065231174293, 0.226326850060007, -1.22578212292555, 1.23462493773958, -1.19269288253316], a = 0.2, v = 0.2, t = 0.2)
movej(p[0.47210087805568, -0.0188713298677215, 0.226874782814381, -1.22709624488131, 1.2442387265356, -1.1890242612188], a = 0.2, v = 0.2, t = 0.2)
movej(p[0.47115281149565, -0.0186119235334856, 0.227149459445186, -1.22411795723711, 1.25170445714416, -1.18599382468776], a = 0.2, v = 0.2, t = 0.2)
movej(p[0.469543402131581, -0.0181274122263598, 0.227650853095042, -1.21381298681866, 1.25617531885389, -1.17637762702204], a = 0.2, v = 0.2, t = 0.2)
movej(p[0.467690169588057, -0.017524749438474, 0.22825147806432, -1.20623885814196, 1.26018302297121, -1.16668482440095], a = 0.2, v = 0.2, t = 0.2)
movej(p[0.469036361906546, -0.0178361555494511, 0.227908390661918, -1.21894415286235, 1.24683724878473, -1.17355906564854], a = 0.2, v = 0.2, t = 0.2)
movej(p[0.469903178696694, -0.0183190890395191, 0.227489265959129, -1.21809677549239, 1.24179791760159, -1.17674060731761], a = 0.2, v = 0.2, t = 0.2)
movej(p[0.470584070377304, -0.0185832583131353, 0.227240593716701, -1.21684100477655, 1.24140451485088, -1.1798587623296], a = 0.2, v = 0.2, t = 0.2)
movej(p[0.472154367857897, -0.0192474377262454, 0.226627926115433, -1.22215848787303, 1.23525211913116, -1.18884160477496], a = 0.2, v = 0.2, t = 0.2)
movej(p[0.47364067817063, -0.0198333746291483, 0.226097464750128, -1.23195849538277, 1.22264513014397, -1.19936579148063], a = 0.2, v = 0.2, t = 0.2)
movej(p[0.47517272634529, -0.0203399951415144, 0.22555440385394, -1.21482591486951, 1.2352659284463, -1.19836626355768], a = 0.2, v = 0.2, t = 0.2)
movej(p[0.475644743045677, -0.0205604195402389, 0.225343623544131, -1.22100561531068, 1.2298633254414, -1.20080913171762], a = 0.2, v = 0.2, t = 0.2)
movej(p[0.475854435544034, -0.0206970205940149, 0.225236707183176, -1.2209393797347, 1.23345662273373, -1.20419431561132], a = 0.2, v = 0.2, t = 0.2)
movej(p[0.476026209452174, -0.0206613273103101, 0.225245623683655, -1.21900476236359, 1.23313340217629, -1.20329633085803], a = 0.2, v = 0.2, t = 0.2)
movej(p[0.476114475280922, -0.0206194618163675, 0.225264714883001, -1.21618847657973, 1.23302200091994, -1.20184762288411], a = 0.2, v = 0.2, t = 0.2)
movej(p[0.476532197309817, -0.0207350709103538, 0.225126473738753, -1.21431728647954, 1.2321876485296, -1.20143116732848], a = 0.2, v = 0.2, t = 0.2)
movej(p[0.476632063379332, -0.0207920867715417, 0.225077196363288, -1.2223462027774, 1.23090761754186, -1.20482528580422], a = 0.2, v = 0.2, t = 0.2)
movej(p[0.47663328654509, -0.0207722263368662, 0.225089597855135, -1.22204898595918, 1.23096719105874, -1.20457122393625], a = 0.2, v = 0.2, t = 0.2)
movej(p[0.476633811469597, -0.0207578997644099, 0.225095025909659, -1.22111227440253, 1.23100344623074, -1.20401138505361], a = 0.2, v = 0.2, t = 0.2)
movej(p[0.476364098259884, -0.0205741245111329, 0.225263662681417, -1.22334818565208, 1.2315895672559, -1.20340872441275], a = 0.2, v = 0.2, t = 0.2)
movej(p[0.476053633681079, -0.020326179413556, 0.225483477544188, -1.22371043837463, 1.2320494117804, -1.20141714029224], a = 0.2, v = 0.2, t = 0.2)
movej(p[0.47487832959858, -0.0197791772365471, 0.226011160083229, -1.22773868167657, 1.23222027771857, -1.19863695017505], a = 0.2, v = 0.2, t = 0.2)
movej(p[0.473368452469417, -0.0194242244184796, 0.226396245426728, -1.22613474831723, 1.23908522795358, -1.19186780320689], a = 0.2, v = 0.2, t = 0.2)
movej(p[0.47180658735753, -0.018874660188619, 0.226951917721814, -1.2248496551378, 1.24921731697159, -1.18747783355373], a = 0.2, v = 0.2, t = 0.2)
