def moving():
set_payload_mass(0)
set_tcp(p[0,0,0,0,0,0])
movej(p[-0.4841, -0.1724, 0.3522, -0.838, -1.524, 1.716], a = 0.2, v = 0.2, t = 0.2)
movej(p[-0.484083788106437, -0.172382674615382, 0.35241847557782, -0.838, -1.524, 1.716], a = 0.2, v = 0.2, t = 0.2)
movej(p[-0.484067576212873, -0.172365349230765, 0.352636951155641, -0.838, -1.524, 1.716], a = 0.2, v = 0.2, t = 0.2)
movej(p[-0.48405136431931, -0.172348023846147, 0.352855426733461, -0.838, -1.524, 1.716], a = 0.2, v = 0.2, t = 0.2)
movej(p[-0.484035152425746, -0.172330698461529, 0.353073902311281, -0.838, -1.524, 1.716], a = 0.2, v = 0.2, t = 0.2)
movej(p[-0.484018940532183, -0.172313373076911, 0.353292377889102, -0.838, -1.524, 1.716], a = 0.2, v = 0.2, t = 0.2)
movej(p[-0.484002728638619, -0.172296047692294, 0.353510853466922, -0.838, -1.524, 1.716], a = 0.2, v = 0.2, t = 0.2)
movej(p[-0.483986516745056, -0.172278722307676, 0.353729329044742, -0.838, -1.524, 1.716], a = 0.2, v = 0.2, t = 0.2)
movej(p[-0.483970304851492, -0.172261396923058, 0.353947804622563, -0.838, -1.524, 1.716], a = 0.2, v = 0.2, t = 0.2)
movej(p[-0.483954092957929, -0.17224407153844, 0.354166280200383, -0.838, -1.524, 1.716], a = 0.2, v = 0.2, t = 0.2)
movej(p[-0.483937881064365, -0.172226746153823, 0.354384755778203, -0.838, -1.524, 1.716], a = 0.2, v = 0.2, t = 0.2)
movej(p[-0.483980433935405, -0.172272221708819, 0.353811302526007, -0.838, -1.524, 1.716], a = 0.2, v = 0.2, t = 0.2)
movej(p[-0.484004162252348, -0.17229757977176, 0.353491533725743, -0.838, -1.524, 1.716], a = 0.2, v = 0.2, t = 0.2)
movej(p[-0.48402492955402, -0.17231977344627, 0.353211668316138, -0.838, -1.524, 1.716], a = 0.2, v = 0.2, t = 0.2)
movej(p[-0.484032245003512, -0.172327591347098, 0.353113083468626, -0.838, -1.524, 1.716], a = 0.2, v = 0.2, t = 0.2)
movej(p[-0.484034522707566, -0.172330025492044, 0.353082388552734, -0.838, -1.524, 1.716], a = 0.2, v = 0.2, t = 0.2)
movej(p[-0.484036733420325, -0.172332388044492, 0.353052596428486, -0.838, -1.524, 1.716], a = 0.2, v = 0.2, t = 0.2)
movej(p[-0.484044919756662, -0.172341136647799, 0.352942275289603, -0.838, -1.524, 1.716], a = 0.2, v = 0.2, t = 0.2)
movej(p[-0.484037309545468, -0.172333003739978, 0.353044832420348, -0.838, -1.524, 1.716], a = 0.2, v = 0.2, t = 0.2)
movej(p[-0.483987280445827, -0.172279538462158, 0.353719037220002, -0.838, -1.524, 1.716], a = 0.2, v = 0.2, t = 0.2)
movej(p[-0.483921294019546, -0.172209019851214, 0.35460828698923, -0.838, -1.524, 1.716], a = 0.2, v = 0.2, t = 0.2)
movej(p[-0.483849479350537, -0.172132272692907, 0.355576079631475, -0.838, -1.524, 1.716], a = 0.2, v = 0.2, t = 0.2)
movej(p[-0.483753320044665, -0.172029508820675, 0.356871946757109, -0.838, -1.524, 1.716], a = 0.2, v = 0.2, t = 0.2)
movej(p[-0.483673439623653, -0.171944141925558, 0.357948435513278, -0.838, -1.524, 1.716], a = 0.2, v = 0.2, t = 0.2)
movej(p[-0.483656383639763, -0.17192591447546, 0.358178286265811, -0.838, -1.524, 1.716], a = 0.2, v = 0.2, t = 0.2)
movej(p[-0.483738648950903, -0.172013830063521, 0.357069658127119, -0.838, -1.524, 1.716], a = 0.2, v = 0.2, t = 0.2)
movej(p[-0.483851556080705, -0.172134492060358, 0.355548093090515, -0.838, -1.524, 1.716], a = 0.2, v = 0.2, t = 0.2)
movej(p[-0.483934156348323, -0.172222765610911, 0.354434950993603, -0.838, -1.524, 1.716], a = 0.2, v = 0.2, t = 0.2)
movej(p[-0.483995547171718, -0.172288372976463, 0.353607632731147, -0.838, -1.524, 1.716], a = 0.2, v = 0.2, t = 0.2)
movej(p[-0.484016408261205, -0.172310666880471, 0.353326503413241, -0.838, -1.524, 1.716], a = 0.2, v = 0.2, t = 0.2)
movej(p[-0.484025666458273, -0.172320560963753, 0.353201737608056, -0.838, -1.524, 1.716], a = 0.2, v = 0.2, t = 0.2)
movej(p[-0.484036720022066, -0.172332373725992, 0.353052776986814, -0.838, -1.524, 1.716], a = 0.2, v = 0.2, t = 0.2)
movej(p[-0.484037939263648, -0.172333676709463, 0.353036346178896, -0.838, -1.524, 1.716], a = 0.2, v = 0.2, t = 0.2)
movej(p[-0.484017426528899, -0.172311755086447, 0.353312780980254, -0.838, -1.524, 1.716], a = 0.2, v = 0.2, t = 0.2)
movej(p[-0.483957094167977, -0.17224727888237, 0.354125835134737, -0.838, -1.524, 1.716], a = 0.2, v = 0.2, t = 0.2)
movej(p[-0.483881099242116, -0.172166064352162, 0.355149961975561, -0.838, -1.524, 1.716], a = 0.2, v = 0.2, t = 0.2)
movej(p[-0.483791330905855, -0.172070130404278, 0.356359702778368, -0.838, -1.524, 1.716], a = 0.2, v = 0.2, t = 0.2)
movej(p[-0.48370680128892, -0.171979794989772, 0.357498845274623, -0.838, -1.524, 1.716], a = 0.2, v = 0.2, t = 0.2)
movej(p[-0.483661207013055, -0.171931069135347, 0.358113285267451, -0.838, -1.524, 1.716], a = 0.2, v = 0.2, t = 0.2)
movej(p[-0.483699392051613, -0.171971876859446, 0.357598694030437, -0.838, -1.524, 1.716], a = 0.2, v = 0.2, t = 0.2)
movej(p[-0.483802156699243, -0.172081699752023, 0.356213811648716, -0.838, -1.524, 1.716], a = 0.2, v = 0.2, t = 0.2)
movej(p[-0.483903045590593, -0.172189518054644, 0.354854207433024, -0.838, -1.524, 1.716], a = 0.2, v = 0.2, t = 0.2)
movej(p[-0.483979683632893, -0.172271419872837, 0.353821413792419, -0.838, -1.524, 1.716], a = 0.2, v = 0.2, t = 0.2)
movej(p[-0.484008556881347, -0.172302276239656, 0.353432310593904, -0.838, -1.524, 1.716], a = 0.2, v = 0.2, t = 0.2)
movej(p[-0.484023589728105, -0.172318341596302, 0.353229724149016, -0.838, -1.524, 1.716], a = 0.2, v = 0.2, t = 0.2)
movej(p[-0.484032419180881, -0.172327777487594, 0.353110736210352, -0.838, -1.524, 1.716], a = 0.2, v = 0.2, t = 0.2)
movej(p[-0.484039560453004, -0.172335409247925, 0.353014498621114, -0.838, -1.524, 1.716], a = 0.2, v = 0.2, t = 0.2)
movej(p[-0.484033477643353, -0.172328908649069, 0.353096472102378, -0.838, -1.524, 1.716], a = 0.2, v = 0.2, t = 0.2)
movej(p[-0.483990442434985, -0.172282917628083, 0.353676425454411, -0.838, -1.524, 1.716], a = 0.2, v = 0.2, t = 0.2)
movej(p[-0.483925983410246, -0.172214031326103, 0.354545091574158, -0.838, -1.524, 1.716], a = 0.2, v = 0.2, t = 0.2)
movej(p[-0.483828872827975, -0.172110250840393, 0.355853778341134, -0.838, -1.524, 1.716], a = 0.2, v = 0.2, t = 0.2)
movej(p[-0.483743619705046, -0.172019142226903, 0.357002670987143, -0.838, -1.524, 1.716], a = 0.2, v = 0.2, t = 0.2)
movej(p[-0.483682255678169, -0.17195356349835, 0.357829628132942, -0.838, -1.524, 1.716], a = 0.2, v = 0.2, t = 0.2)
movej(p[-0.483658889114223, -0.171928592034901, 0.35814452185833, -0.838, -1.524, 1.716], a = 0.2, v = 0.2, t = 0.2)
movej(p[-0.483713821976711, -0.171987297883606, 0.357404232710344, -0.838, -1.524, 1.716], a = 0.2, v = 0.2, t = 0.2)
movej(p[-0.483831900834541, -0.172113486821322, 0.355812972158831, -0.838, -1.524, 1.716], a = 0.2, v = 0.2, t = 0.2)
movej(p[-0.483935536369015, -0.172224240416378, 0.354416353485739, -0.838, -1.524, 1.716], a = 0.2, v = 0.2, t = 0.2)
movej(p[-0.483982939409864, -0.17227489926826, 0.353777538118526, -0.838, -1.524, 1.716], a = 0.2, v = 0.2, t = 0.2)
movej(p[-0.484010352248072, -0.172304194918614, 0.353408115777848, -0.838, -1.524, 1.716], a = 0.2, v = 0.2, t = 0.2)
movej(p[-0.484026939292891, -0.172321921221223, 0.353184584566822, -0.838, -1.524, 1.716], a = 0.2, v = 0.2, t = 0.2)
movej(p[-0.484036224286478, -0.172331843941504, 0.353059457644979, -0.838, -1.524, 1.716], a = 0.2, v = 0.2, t = 0.2)
movej(p[-0.48403775168802, -0.172333476250468, 0.353038873995499, -0.838, -1.524, 1.716], a = 0.2, v = 0.2, t = 0.2)
movej(p[-0.484019128107811, -0.172313573535907, 0.353289850072499, -0.838, -1.524, 1.716], a = 0.2, v = 0.2, t = 0.2)
movej(p[-0.483959130703367, -0.172249455294322, 0.354098390268763, -0.838, -1.524, 1.716], a = 0.2, v = 0.2, t = 0.2)
movej(p[-0.483862435467129, -0.172146118682102, 0.355401479727547, -0.838, -1.524, 1.716], a = 0.2, v = 0.2, t = 0.2)
movej(p[-0.483768594060089, -0.172045831910315, 0.356666110262303, -0.838, -1.524, 1.716], a = 0.2, v = 0.2, t = 0.2)
movej(p[-0.483707913344429, -0.171980983425245, 0.357483858933334, -0.838, -1.524, 1.716], a = 0.2, v = 0.2, t = 0.2)
movej(p[-0.483651506673435, -0.171920702541575, 0.358244009497486, -0.838, -1.524, 1.716], a = 0.2, v = 0.2, t = 0.2)
movej(p[-0.48366942014591, -0.171939846375653, 0.358002603011911, -0.838, -1.524, 1.716], a = 0.2, v = 0.2, t = 0.2)
movej(p[-0.4837900044782, -0.17206871287281, 0.356377578052917, -0.838, -1.524, 1.716], a = 0.2, v = 0.2, t = 0.2)
movej(p[-0.483912705735435, -0.172199841692916, 0.354724024877976, -0.838, -1.524, 1.716], a = 0.2, v = 0.2, t = 0.2)
movej(p[-0.483973681212796, -0.172265005184979, 0.353902303923711, -0.838, -1.524, 1.716], a = 0.2, v = 0.2, t = 0.2)
movej(p[-0.484004336429716, -0.172297765912256, 0.353489186467469, -0.838, -1.524, 1.716], a = 0.2, v = 0.2, t = 0.2)
movej(p[-0.484027930764068, -0.172322980790199, 0.353171223250492, -0.838, -1.524, 1.716], a = 0.2, v = 0.2, t = 0.2)
movej(p[-0.484034227945865, -0.172329710485051, 0.353086360835967, -0.838, -1.524, 1.716], a = 0.2, v = 0.2, t = 0.2)
movej(p[-0.484035808940444, -0.172331400068014, 0.353065054953171, -0.838, -1.524, 1.716], a = 0.2, v = 0.2, t = 0.2)
movej(p[-0.484020682305871, -0.17231523448187, 0.353268905306361, -0.838, -1.524, 1.716], a = 0.2, v = 0.2, t = 0.2)
movej(p[-0.483971095348782, -0.17226224171454, 0.353937151681165, -0.838, -1.524, 1.716], a = 0.2, v = 0.2, t = 0.2)
movej(p[-0.483882894608841, -0.172167983031119, 0.355125767159505, -0.838, -1.524, 1.716], a = 0.2, v = 0.2, t = 0.2)
movej(p[-0.483797708477207, -0.172076946010128, 0.35627375701387, -0.838, -1.524, 1.716], a = 0.2, v = 0.2, t = 0.2)
movej(p[-0.483729685515537, -0.172004250987232, 0.357190451649071, -0.838, -1.524, 1.716], a = 0.2, v = 0.2, t = 0.2)
movej(p[-0.483664435993508, -0.171934519893771, 0.358069770710216, -0.838, -1.524, 1.716], a = 0.2, v = 0.2, t = 0.2)
movej(p[-0.483661354393905, -0.171931226638843, 0.358111299125835, -0.838, -1.524, 1.716], a = 0.2, v = 0.2, t = 0.2)
movej(p[-0.483759335863021, -0.172035937827033, 0.356790876067488, -0.838, -1.524, 1.716], a = 0.2, v = 0.2, t = 0.2)
movej(p[-0.483885145516377, -0.172170388539066, 0.35509543336027, -0.838, -1.524, 1.716], a = 0.2, v = 0.2, t = 0.2)
movej(p[-0.483959170898144, -0.172249498249821, 0.354097848593777, -0.838, -1.524, 1.716], a = 0.2, v = 0.2, t = 0.2)
movej(p[-0.48400067870497, -0.172293856961842, 0.353538478891225, -0.838, -1.524, 1.716], a = 0.2, v = 0.2, t = 0.2)
movej(p[-0.484028721261357, -0.172323825581681, 0.353160570309094, -0.838, -1.524, 1.716], a = 0.2, v = 0.2, t = 0.2)
movej(p[-0.484034241344124, -0.172329724803551, 0.353086180277638, -0.838, -1.524, 1.716], a = 0.2, v = 0.2, t = 0.2)
movej(p[-0.484034643291899, -0.172330154358541, 0.353080763527775, -0.838, -1.524, 1.716], a = 0.2, v = 0.2, t = 0.2)
movej(p[-0.484025773644346, -0.17232067551175, 0.353200293141425, -0.838, -1.524, 1.716], a = 0.2, v = 0.2, t = 0.2)
movej(p[-0.483974846861342, -0.172266250894451, 0.353886595349107, -0.838, -1.524, 1.716], a = 0.2, v = 0.2, t = 0.2)
movej(p[-0.483888079735129, -0.172173524290497, 0.355055891086268, -0.838, -1.524, 1.716], a = 0.2, v = 0.2, t = 0.2)
movej(p[-0.483808226110635, -0.17208818603238, 0.35613201872578, -0.838, -1.524, 1.716], a = 0.2, v = 0.2, t = 0.2)
movej(p[-0.483739653820339, -0.172014903950997, 0.357056116252461, -0.838, -1.524, 1.716], a = 0.2, v = 0.2, t = 0.2)
movej(p[-0.483672247178589, -0.171942867579086, 0.357964505204539, -0.838, -1.524, 1.716], a = 0.2, v = 0.2, t = 0.2)
movej(p[-0.483655552947696, -0.17192502672848, 0.358189480882195, -0.838, -1.524, 1.716], a = 0.2, v = 0.2, t = 0.2)
movej(p[-0.483751578270977, -0.172027647415716, 0.35689541933985, -0.838, -1.524, 1.716], a = 0.2, v = 0.2, t = 0.2)
movej(p[-0.48386069369344, -0.172144257277143, 0.355424952310289, -0.838, -1.524, 1.716], a = 0.2, v = 0.2, t = 0.2)
movej(p[-0.483942449870733, -0.172231628762215, 0.35432318538809, -0.838, -1.524, 1.716], a = 0.2, v = 0.2, t = 0.2)
movej(p[-0.483993818796289, -0.172286525890004, 0.353630924755559, -0.838, -1.524, 1.716], a = 0.2, v = 0.2, t = 0.2)
movej(p[-0.484027488621516, -0.17232250827971, 0.353177181675342, -0.838, -1.524, 1.716], a = 0.2, v = 0.2, t = 0.2)
movej(p[-0.484034294937161, -0.172329782077549, 0.353085458044323, -0.838, -1.524, 1.716], a = 0.2, v = 0.2, t = 0.2)
movej(p[-0.484037376536764, -0.172333075332477, 0.353043929628704, -0.838, -1.524, 1.716], a = 0.2, v = 0.2, t = 0.2)
movej(p[-0.484042119520501, -0.172338144081365, 0.352980011980317, -0.838, -1.524, 1.716], a = 0.2, v = 0.2, t = 0.2)
movej(p[-0.484024969748797, -0.172319816401769, 0.353211126641152, -0.838, -1.524, 1.716], a = 0.2, v = 0.2, t = 0.2)
movej(p[-0.483951801855615, -0.172241623074994, 0.354197155674604, -0.838, -1.524, 1.716], a = 0.2, v = 0.2, t = 0.2)
movej(p[-0.48386929537581, -0.17215344975394, 0.355309033863214, -0.838, -1.524, 1.716], a = 0.2, v = 0.2, t = 0.2)
movej(p[-0.483798271204091, -0.172077547387115, 0.356266173564061, -0.838, -1.524, 1.716], a = 0.2, v = 0.2, t = 0.2)
movej(p[-0.483709963278077, -0.171983174155697, 0.357456233509031, -0.838, -1.524, 1.716], a = 0.2, v = 0.2, t = 0.2)
movej(p[-0.483647862346948, -0.171916807909661, 0.358293121362913, -0.838, -1.524, 1.716], a = 0.2, v = 0.2, t = 0.2)
movej(p[-0.483681331198288, -0.171952575521872, 0.357842086657628, -0.838, -1.524, 1.716], a = 0.2, v = 0.2, t = 0.2)
movej(p[-0.483789602530426, -0.172068283317819, 0.35638299480278, -0.838, -1.524, 1.716], a = 0.2, v = 0.2, t = 0.2)
movej(p[-0.483890437828739, -0.172176044346441, 0.355024112820403, -0.838, -1.524, 1.716], a = 0.2, v = 0.2, t = 0.2)
movej(p[-0.483963659314957, -0.172254294947215, 0.354037361553636, -0.838, -1.524, 1.716], a = 0.2, v = 0.2, t = 0.2)
movej(p[-0.484012737138199, -0.172306743611558, 0.353375976395326, -0.838, -1.524, 1.716], a = 0.2, v = 0.2, t = 0.2)
movej(p[-0.484026992885928, -0.172321978495221, 0.353183862333507, -0.838, -1.524, 1.716], a = 0.2, v = 0.2, t = 0.2)
movej(p[-0.484033290067725, -0.172328708190073, 0.353098999918981, -0.838, -1.524, 1.716], a = 0.2, v = 0.2, t = 0.2)
movej(p[-0.484043137788196, -0.172339232287341, 0.35296628954733, -0.838, -1.524, 1.716], a = 0.2, v = 0.2, t = 0.2)
movej(p[-0.484043204779491, -0.172339303879839, 0.352965386755686, -0.838, -1.524, 1.716], a = 0.2, v = 0.2, t = 0.2)
movej(p[-0.484025894228678, -0.172320804378247, 0.353198668116466, -0.838, -1.524, 1.716], a = 0.2, v = 0.2, t = 0.2)
movej(p[-0.483967625199664, -0.172258533223121, 0.353983916288318, -0.838, -1.524, 1.716], a = 0.2, v = 0.2, t = 0.2)
movej(p[-0.483905202710315, -0.172191823333093, 0.354825137542091, -0.838, -1.524, 1.716], a = 0.2, v = 0.2, t = 0.2)
movej(p[-0.4838212894133, -0.172102146569572, 0.355955974355222, -0.838, -1.524, 1.716], a = 0.2, v = 0.2, t = 0.2)
movej(p[-0.483747210438496, -0.172022979584819, 0.356954281355031, -0.838, -1.524, 1.716], a = 0.2, v = 0.2, t = 0.2)
movej(p[-0.48371179883958, -0.171985135790154, 0.357431497017989, -0.838, -1.524, 1.716], a = 0.2, v = 0.2, t = 0.2)
movej(p[-0.483755946103458, -0.172032315246613, 0.356836557324668, -0.838, -1.524, 1.716], a = 0.2, v = 0.2, t = 0.2)
movej(p[-0.483856660817438, -0.172139947408738, 0.35547930036725, -0.838, -1.524, 1.716], a = 0.2, v = 0.2, t = 0.2)
movej(p[-0.48393780067481, -0.172226660242825, 0.354385839128176, -0.838, -1.524, 1.716], a = 0.2, v = 0.2, t = 0.2)
movej(p[-0.484000330350233, -0.17229348468085, 0.353543173407773, -0.838, -1.524, 1.716], a = 0.2, v = 0.2, t = 0.2)
movej(p[-0.484020173172024, -0.172314690378882, 0.353275766522854, -0.838, -1.524, 1.716], a = 0.2, v = 0.2, t = 0.2)
movej(p[-0.484030931974116, -0.172326188134129, 0.353130778184846, -0.838, -1.524, 1.716], a = 0.2, v = 0.2, t = 0.2)
movej(p[-0.484042079325723, -0.172338101125866, 0.352980553655304, -0.838, -1.524, 1.716], a = 0.2, v = 0.2, t = 0.2)
movej(p[-0.484043325363824, -0.172339432746336, 0.352963761730727, -0.838, -1.524, 1.716], a = 0.2, v = 0.2, t = 0.2)
movej(p[-0.48404323157601, -0.172339332516839, 0.352965025639029, -0.838, -1.524, 1.716], a = 0.2, v = 0.2, t = 0.2)
movej(p[-0.484027073275483, -0.17232206440622, 0.353182778983534, -0.838, -1.524, 1.716], a = 0.2, v = 0.2, t = 0.2)
movej(p[-0.48397753991143, -0.172269128912888, 0.353850303125023, -0.838, -1.524, 1.716], a = 0.2, v = 0.2, t = 0.2)
movej(p[-0.483903434140108, -0.172189933291135, 0.354848971241489, -0.838, -1.524, 1.716], a = 0.2, v = 0.2, t = 0.2)
movej(p[-0.483832182197983, -0.172113787509815, 0.355809180433926, -0.838, -1.524, 1.716], a = 0.2, v = 0.2, t = 0.2)
movej(p[-0.483777999638007, -0.172055883497093, 0.356539358315501, -0.838, -1.524, 1.716], a = 0.2, v = 0.2, t = 0.2)
movej(p[-0.483717385913643, -0.171991106604522, 0.357356204194889, -0.838, -1.524, 1.716], a = 0.2, v = 0.2, t = 0.2)
movej(p[-0.483716541823317, -0.171990204539042, 0.357367579369602, -0.838, -1.524, 1.716], a = 0.2, v = 0.2, t = 0.2)
movej(p[-0.483805157909291, -0.172084907095952, 0.35617336658307, -0.838, -1.524, 1.716], a = 0.2, v = 0.2, t = 0.2)
movej(p[-0.483906153986714, -0.172192839946571, 0.354812317900748, -0.838, -1.524, 1.716], a = 0.2, v = 0.2, t = 0.2)
movej(p[-0.483968563077804, -0.172259535518099, 0.353971277205304, -0.838, -1.524, 1.716], a = 0.2, v = 0.2, t = 0.2)
movej(p[-0.484004242641902, -0.172297665682758, 0.35349045037577, -0.838, -1.524, 1.716], a = 0.2, v = 0.2, t = 0.2)
movej(p[-0.484030824788043, -0.172326073586131, 0.353132222651476, -0.838, -1.524, 1.716], a = 0.2, v = 0.2, t = 0.2)
movej(p[-0.484038903938306, -0.172334707641441, 0.353023345979224, -0.838, -1.524, 1.716], a = 0.2, v = 0.2, t = 0.2)
movej(p[-0.484042843026494, -0.172338917280348, 0.352970261830563, -0.838, -1.524, 1.716], a = 0.2, v = 0.2, t = 0.2)
movej(p[-0.484044584800183, -0.172340778685307, 0.352946789247822, -0.838, -1.524, 1.716], a = 0.2, v = 0.2, t = 0.2)
movej(p[-0.484053668819882, -0.172350486628092, 0.352824370700911, -0.838, -1.524, 1.716], a = 0.2, v = 0.2, t = 0.2)
movej(p[-0.484053508040773, -0.172350314806096, 0.352826537400857, -0.838, -1.524, 1.716], a = 0.2, v = 0.2, t = 0.2)
movej(p[-0.484032673747805, -0.172328049539088, 0.353107305602105, -0.838, -1.524, 1.716], a = 0.2, v = 0.2, t = 0.2)
movej(p[-0.483986932091089, -0.172279166181166, 0.35372373173655, -0.838, -1.524, 1.716], a = 0.2, v = 0.2, t = 0.2)
movej(p[-0.483930284251431, -0.172218627564502, 0.35448713235062, -0.838, -1.524, 1.716], a = 0.2, v = 0.2, t = 0.2)
movej(p[-0.483859487850117, -0.172142968612171, 0.355441202559878, -0.838, -1.524, 1.716], a = 0.2, v = 0.2, t = 0.2)
movej(p[-0.483800026376039, -0.172079423110573, 0.356242520422991, -0.838, -1.524, 1.716], a = 0.2, v = 0.2, t = 0.2)
movej(p[-0.483750225046803, -0.172026201247248, 0.356913655731056, -0.838, -1.524, 1.716], a = 0.2, v = 0.2, t = 0.2)
movej(p[-0.483717171541497, -0.171990877508527, 0.357359093128149, -0.838, -1.524, 1.716], a = 0.2, v = 0.2, t = 0.2)
movej(p[-0.483781416194089, -0.172059534714512, 0.356493315941663, -0.838, -1.524, 1.716], a = 0.2, v = 0.2, t = 0.2)
movej(p[-0.483881594977704, -0.17216659413665, 0.355143281317396, -0.838, -1.524, 1.716], a = 0.2, v = 0.2, t = 0.2)
movej(p[-0.483969139202947, -0.172260151213586, 0.353963513197166, -0.838, -1.524, 1.716], a = 0.2, v = 0.2, t = 0.2)
movej(p[-0.484006386363365, -0.172299956642707, 0.353461561043166, -0.838, -1.524, 1.716], a = 0.2, v = 0.2, t = 0.2)
movej(p[-0.484027260851111, -0.172322264865215, 0.353180251166931, -0.838, -1.524, 1.716], a = 0.2, v = 0.2, t = 0.2)
movej(p[-0.484042534866534, -0.172338587954855, 0.352974414672125, -0.838, -1.524, 1.716], a = 0.2, v = 0.2, t = 0.2)
movej(p[-0.484046554344277, -0.17234288350476, 0.352920247173492, -0.838, -1.524, 1.716], a = 0.2, v = 0.2, t = 0.2)
movej(p[-0.484048818650072, -0.172345303331207, 0.352889732815929, -0.838, -1.524, 1.716], a = 0.2, v = 0.2, t = 0.2)
movej(p[-0.484048724862258, -0.172345203101709, 0.35289099672423, -0.838, -1.524, 1.716], a = 0.2, v = 0.2, t = 0.2)
movej(p[-0.484054995247537, -0.172351904159561, 0.352806495426362, -0.838, -1.524, 1.716], a = 0.2, v = 0.2, t = 0.2)
movej(p[-0.484043888090708, -0.172340034123323, 0.352956178280919, -0.838, -1.524, 1.716], a = 0.2, v = 0.2, t = 0.2)
movej(p[-0.48399129992357, -0.172283834012063, 0.353664869721369, -0.838, -1.524, 1.716], a = 0.2, v = 0.2, t = 0.2)
movej(p[-0.483933955374436, -0.172222550833415, 0.354437659368535, -0.838, -1.524, 1.716], a = 0.2, v = 0.2, t = 0.2)
movej(p[-0.483866535334427, -0.172150500143005, 0.355346228878942, -0.838, -1.524, 1.716], a = 0.2, v = 0.2, t = 0.2)
movej(p[-0.483790915559822, -0.172069686530788, 0.35636530008656, -0.838, -1.524, 1.716], a = 0.2, v = 0.2, t = 0.2)
movej(p[-0.48373354421417, -0.172008374715141, 0.357138450850384, -0.838, -1.524, 1.716], a = 0.2, v = 0.2, t = 0.2)
movej(p[-0.483729645320759, -0.172004208031733, 0.357190993324058, -0.838, -1.524, 1.716], a = 0.2, v = 0.2, t = 0.2)
movej(p[-0.483810436823394, -0.172090548584828, 0.356102226601532, -0.838, -1.524, 1.716], a = 0.2, v = 0.2, t = 0.2)
movej(p[-0.483897029772237, -0.172183089048286, 0.354935278122645, -0.838, -1.524, 1.716], a = 0.2, v = 0.2, t = 0.2)
movej(p[-0.483965267106054, -0.172256013167177, 0.354015694554183, -0.838, -1.524, 1.716], a = 0.2, v = 0.2, t = 0.2)
movej(p[-0.484012268199129, -0.172306242464069, 0.353382295936833, -0.838, -1.524, 1.716], a = 0.2, v = 0.2, t = 0.2)
movej(p[-0.484030342450714, -0.172325558120143, 0.353138722751312, -0.838, -1.524, 1.716], a = 0.2, v = 0.2, t = 0.2)
movej(p[-0.484039064717416, -0.172334879463437, 0.353021179279278, -0.838, -1.524, 1.716], a = 0.2, v = 0.2, t = 0.2)
movej(p[-0.484051270531496, -0.172347923616649, 0.352856690641762, -0.838, -1.524, 1.716], a = 0.2, v = 0.2, t = 0.2)
movej(p[-0.484050721202871, -0.172347336558162, 0.352864093533242, -0.838, -1.524, 1.716], a = 0.2, v = 0.2, t = 0.2)
movej(p[-0.484051699275788, -0.172348381808639, 0.352850912775242, -0.838, -1.524, 1.716], a = 0.2, v = 0.2, t = 0.2)
movej(p[-0.484048282719707, -0.172344730591219, 0.35289695514908, -0.838, -1.524, 1.716], a = 0.2, v = 0.2, t = 0.2)
movej(p[-0.484013447245934, -0.172307502492041, 0.3533664068039, -0.838, -1.524, 1.716], a = 0.2, v = 0.2, t = 0.2)
movej(p[-0.483946268374589, -0.172235709534625, 0.354271726264389, -0.838, -1.524, 1.716], a = 0.2, v = 0.2, t = 0.2)
movej(p[-0.48388040253264, -0.172165319790178, 0.355159351008657, -0.838, -1.524, 1.716], a = 0.2, v = 0.2, t = 0.2)
movej(p[-0.483830400229517, -0.172111883149357, 0.355833194691654, -0.838, -1.524, 1.716], a = 0.2, v = 0.2, t = 0.2)
movej(p[-0.483756240865159, -0.172032630253606, 0.356832585041435, -0.838, -1.524, 1.716], a = 0.2, v = 0.2, t = 0.2)
movej(p[-0.483691138723981, -0.171963056663641, 0.357709917960963, -0.838, -1.524, 1.716], a = 0.2, v = 0.2, t = 0.2)
movej(p[-0.483725210496983, -0.171999468608338, 0.357250758130883, -0.838, -1.524, 1.716], a = 0.2, v = 0.2, t = 0.2)
movej(p[-0.48383598730358, -0.172117853963725, 0.355757901868554, -0.838, -1.524, 1.716], a = 0.2, v = 0.2, t = 0.2)
movej(p[-0.483914715474306, -0.172201989467869, 0.354696941128659, -0.838, -1.524, 1.716], a = 0.2, v = 0.2, t = 0.2)
movej(p[-0.483979067312972, -0.172270761221852, 0.353829719475542, -0.838, -1.524, 1.716], a = 0.2, v = 0.2, t = 0.2)
movej(p[-0.484025438687867, -0.172320317549258, 0.353204807099645, -0.838, -1.524, 1.716], a = 0.2, v = 0.2, t = 0.2)
movej(p[-0.484036854004657, -0.172332516910989, 0.353050971403527, -0.838, -1.524, 1.716], a = 0.2, v = 0.2, t = 0.2)
movej(p[-0.484043177982973, -0.17233927524284, 0.352965747872344, -0.838, -1.524, 1.716], a = 0.2, v = 0.2, t = 0.2)
movej(p[-0.484046540946018, -0.172342869186261, 0.352920427731821, -0.838, -1.524, 1.716], a = 0.2, v = 0.2, t = 0.2)
movej(p[-0.484054311936321, -0.172351173916077, 0.35281570390113, -0.838, -1.524, 1.716], a = 0.2, v = 0.2, t = 0.2)
movej(p[-0.484053508040773, -0.172350314806096, 0.352826537400857, -0.838, -1.524, 1.716], a = 0.2, v = 0.2, t = 0.2)
movej(p[-0.48404855068489, -0.172345016961213, 0.352893343982504, -0.838, -1.524, 1.716], a = 0.2, v = 0.2, t = 0.2)
movej(p[-0.484015055037031, -0.172309220712003, 0.353344739804447, -0.838, -1.524, 1.716], a = 0.2, v = 0.2, t = 0.2)
movej(p[-0.483951332916545, -0.172241121927506, 0.354203475216111, -0.838, -1.524, 1.716], a = 0.2, v = 0.2, t = 0.2)
movej(p[-0.48388337694617, -0.172168498497108, 0.355119267059669, -0.838, -1.524, 1.716], a = 0.2, v = 0.2, t = 0.2)
movej(p[-0.483825952007482, -0.172107129407462, 0.355893140056808, -0.838, -1.524, 1.716], a = 0.2, v = 0.2, t = 0.2)
movej(p[-0.483776271262578, -0.172054036410633, 0.356562650339913, -0.838, -1.524, 1.716], a = 0.2, v = 0.2, t = 0.2)
movej(p[-0.483726992465449, -0.172001372968795, 0.357226743873156, -0.838, -1.524, 1.716], a = 0.2, v = 0.2, t = 0.2)
movej(p[-0.483754284719324, -0.172030539752652, 0.356858946557437, -0.838, -1.524, 1.716], a = 0.2, v = 0.2, t = 0.2)
movej(p[-0.48386116263251, -0.172144758424632, 0.355418632768781, -0.838, -1.524, 1.716], a = 0.2, v = 0.2, t = 0.2)
movej(p[-0.483937693488737, -0.172226545694827, 0.354387283594806, -0.838, -1.524, 1.716], a = 0.2, v = 0.2, t = 0.2)
movej(p[-0.483992505766893, -0.172285122677035, 0.353648619471779, -0.838, -1.524, 1.716], a = 0.2, v = 0.2, t = 0.2)
movej(p[-0.484019154904329, -0.172313602172906, 0.353289488955841, -0.838, -1.524, 1.716], a = 0.2, v = 0.2, t = 0.2)
movej(p[-0.484044517808887, -0.172340707092808, 0.352947692039466, -0.838, -1.524, 1.716], a = 0.2, v = 0.2, t = 0.2)
movej(p[-0.484049220597847, -0.172345732886197, 0.352884316066065, -0.838, -1.524, 1.716], a = 0.2, v = 0.2, t = 0.2)
movej(p[-0.48405057382202, -0.172347179054665, 0.352866079674859, -0.838, -1.524, 1.716], a = 0.2, v = 0.2, t = 0.2)
movej(p[-0.484059564053905, -0.172356786767953, 0.352744925036249, -0.838, -1.524, 1.716], a = 0.2, v = 0.2, t = 0.2)
movej(p[-0.484058880742689, -0.17235605652447, 0.352754133511017, -0.838, -1.524, 1.716], a = 0.2, v = 0.2, t = 0.2)
movej(p[-0.484057112172482, -0.172354166482511, 0.352777967210416, -0.838, -1.524, 1.716], a = 0.2, v = 0.2, t = 0.2)
movej(p[-0.48402226330045, -0.172316924064833, 0.353247599423565, -0.838, -1.524, 1.716], a = 0.2, v = 0.2, t = 0.2)
movej(p[-0.48397252896251, -0.172263773794006, 0.353917831939986, -0.838, -1.524, 1.716], a = 0.2, v = 0.2, t = 0.2)
movej(p[-0.483904733771245, -0.172191322185604, 0.354831457083598, -0.838, -1.524, 1.716], a = 0.2, v = 0.2, t = 0.2)
movej(p[-0.483835973905321, -0.172117839645226, 0.355758082426882, -0.838, -1.524, 1.716], a = 0.2, v = 0.2, t = 0.2)
movej(p[-0.483790754780712, -0.172069514708792, 0.356367466786505, -0.838, -1.524, 1.716], a = 0.2, v = 0.2, t = 0.2)
movej(p[-0.483744436998853, -0.172020015655384, 0.356991656929088, -0.838, -1.524, 1.716], a = 0.2, v = 0.2, t = 0.2)
movej(p[-0.483738153215315, -0.172013300279032, 0.357076338785284, -0.838, -1.524, 1.716], a = 0.2, v = 0.2, t = 0.2)
movej(p[-0.483835411178437, -0.172117238268239, 0.355765665876691, -0.838, -1.524, 1.716], a = 0.2, v = 0.2, t = 0.2)
movej(p[-0.483931449899977, -0.172219873273974, 0.354471423776016, -0.838, -1.524, 1.716], a = 0.2, v = 0.2, t = 0.2)
movej(p[-0.483984748174849, -0.172276832265718, 0.353753162744141, -0.838, -1.524, 1.716], a = 0.2, v = 0.2, t = 0.2)
movej(p[-0.484017131767198, -0.172311440079454, 0.353316753263487, -0.838, -1.524, 1.716], a = 0.2, v = 0.2, t = 0.2)
movej(p[-0.484033303465984, -0.172328722508573, 0.353098819360653, -0.838, -1.524, 1.716], a = 0.2, v = 0.2, t = 0.2)
movej(p[-0.484050707804612, -0.172347322239662, 0.352864274091571, -0.838, -1.524, 1.716], a = 0.2, v = 0.2, t = 0.2)
movej(p[-0.484052208409636, -0.172348925911627, 0.352844051558748, -0.838, -1.524, 1.716], a = 0.2, v = 0.2, t = 0.2)
movej(p[-0.484051953842712, -0.172348653860133, 0.352847482166995, -0.838, -1.524, 1.716], a = 0.2, v = 0.2, t = 0.2)
movej(p[-0.484057125570741, -0.172354180801011, 0.352777786652087, -0.838, -1.524, 1.716], a = 0.2, v = 0.2, t = 0.2)
movej(p[-0.484019489860808, -0.172313960135398, 0.353284974997622, -0.838, -1.524, 1.716], a = 0.2, v = 0.2, t = 0.2)
movej(p[-0.483953798196228, -0.172243756531447, 0.354170252483616, -0.838, -1.524, 1.716], a = 0.2, v = 0.2, t = 0.2)
movej(p[-0.483884381815606, -0.172169572384584, 0.355105725185011, -0.838, -1.524, 1.716], a = 0.2, v = 0.2, t = 0.2)
movej(p[-0.48382660852218, -0.172107831013947, 0.355884292698698, -0.838, -1.524, 1.716], a = 0.2, v = 0.2, t = 0.2)
movej(p[-0.483752851105595, -0.172029007673186, 0.356878266298616, -0.838, -1.524, 1.716], a = 0.2, v = 0.2, t = 0.2)
movej(p[-0.483699472441168, -0.171971962770444, 0.357597610680464, -0.838, -1.524, 1.716], a = 0.2, v = 0.2, t = 0.2)
movej(p[-0.483748818229593, -0.172024697804781, 0.356932614355578, -0.838, -1.524, 1.716], a = 0.2, v = 0.2, t = 0.2)
movej(p[-0.483850939760784, -0.172133833409373, 0.355556398773638, -0.838, -1.524, 1.716], a = 0.2, v = 0.2, t = 0.2)
movej(p[-0.483935991909826, -0.172224727245367, 0.354410214502561, -0.838, -1.524, 1.716], a = 0.2, v = 0.2, t = 0.2)
movej(p[-0.483992465572115, -0.172285079721536, 0.353649161146765, -0.838, -1.524, 1.716], a = 0.2, v = 0.2, t = 0.2)
movej(p[-0.48403196364007, -0.172327290658604, 0.35311687519353, -0.838, -1.524, 1.716], a = 0.2, v = 0.2, t = 0.2)
movej(p[-0.484041784564022, -0.172337786118873, 0.352984525938537, -0.838, -1.524, 1.716], a = 0.2, v = 0.2, t = 0.2)
movej(p[-0.484046232786058, -0.172342539860768, 0.352924580573383, -0.838, -1.524, 1.716], a = 0.2, v = 0.2, t = 0.2)
movej(p[-0.484052154816599, -0.172348868637628, 0.352844773792063, -0.838, -1.524, 1.716], a = 0.2, v = 0.2, t = 0.2)
movej(p[-0.484058451998396, -0.17235559833248, 0.352759911377538, -0.838, -1.524, 1.716], a = 0.2, v = 0.2, t = 0.2)
movej(p[-0.48405668342819, -0.172353708290521, 0.352783745076936, -0.838, -1.524, 1.716], a = 0.2, v = 0.2, t = 0.2)
movej(p[-0.484024983147056, -0.172319830720269, 0.353210946082823, -0.838, -1.524, 1.716], a = 0.2, v = 0.2, t = 0.2)
movej(p[-0.483966915091929, -0.172257774342638, 0.353993485879743, -0.838, -1.524, 1.716], a = 0.2, v = 0.2, t = 0.2)
movej(p[-0.483892393974574, -0.172178134847395, 0.354997751304402, -0.838, -1.524, 1.716], a = 0.2, v = 0.2, t = 0.2)
movej(p[-0.483816533031304, -0.172097063502184, 0.356020072561938, -0.838, -1.524, 1.716], a = 0.2, v = 0.2, t = 0.2)
movej(p[-0.483762806012139, -0.172039646318451, 0.356744111460334, -0.838, -1.524, 1.716], a = 0.2, v = 0.2, t = 0.2)
movej(p[-0.483718189809192, -0.171991965714503, 0.357345370695162, -0.838, -1.524, 1.716], a = 0.2, v = 0.2, t = 0.2)
movej(p[-0.483727635581888, -0.17200206025678, 0.357218077073374, -0.838, -1.524, 1.716], a = 0.2, v = 0.2, t = 0.2)
movej(p[-0.483836402649613, -0.172118297837216, 0.355752304560362, -0.838, -1.524, 1.716], a = 0.2, v = 0.2, t = 0.2)
movej(p[-0.483944004068794, -0.172233289708178, 0.354302240621952, -0.838, -1.524, 1.716], a = 0.2, v = 0.2, t = 0.2)
movej(p[-0.483995654357792, -0.17228848752446, 0.353606188264516, -0.838, -1.524, 1.716], a = 0.2, v = 0.2, t = 0.2)
movej(p[-0.484024273039322, -0.172319071839786, 0.353220515674248, -0.838, -1.524, 1.716], a = 0.2, v = 0.2, t = 0.2)
movej(p[-0.484041838157059, -0.172337843392871, 0.352983803705222, -0.838, -1.524, 1.716], a = 0.2, v = 0.2, t = 0.2)
movej(p[-0.484051752868825, -0.172348439082638, 0.352850190541927, -0.838, -1.524, 1.716], a = 0.2, v = 0.2, t = 0.2)
movej(p[-0.484053642023364, -0.172350457991093, 0.352824731817569, -0.838, -1.524, 1.716], a = 0.2, v = 0.2, t = 0.2)
movej(p[-0.484053414252959, -0.172350214576598, 0.352827801309158, -0.838, -1.524, 1.716], a = 0.2, v = 0.2, t = 0.2)
movej(p[-0.48406137281889, -0.172358719765411, 0.352720549661865, -0.838, -1.524, 1.716], a = 0.2, v = 0.2, t = 0.2)
movej(p[-0.484048724862258, -0.172345203101709, 0.35289099672423, -0.838, -1.524, 1.716], a = 0.2, v = 0.2, t = 0.2)
movej(p[-0.483996833404596, -0.172289747552433, 0.353590299131584, -0.838, -1.524, 1.716], a = 0.2, v = 0.2, t = 0.2)
movej(p[-0.48394531709819, -0.172234692921147, 0.354284545905732, -0.838, -1.524, 1.716], a = 0.2, v = 0.2, t = 0.2)
movej(p[-0.483879799610979, -0.172164675457692, 0.355167476133452, -0.838, -1.524, 1.716], a = 0.2, v = 0.2, t = 0.2)
movej(p[-0.483807449011605, -0.172087355559398, 0.356142491108849, -0.838, -1.524, 1.716], a = 0.2, v = 0.2, t = 0.2)
movej(p[-0.483751162924943, -0.172027203542226, 0.356901016648042, -0.838, -1.524, 1.716], a = 0.2, v = 0.2, t = 0.2)
movej(p[-0.48371993158288, -0.171993827119462, 0.357321898112421, -0.838, -1.524, 1.716], a = 0.2, v = 0.2, t = 0.2)
movej(p[-0.483768540467052, -0.172045774636316, 0.356666832495618, -0.838, -1.524, 1.716], a = 0.2, v = 0.2, t = 0.2)
movej(p[-0.483858442785904, -0.172141851769196, 0.355455286109523, -0.838, -1.524, 1.716], a = 0.2, v = 0.2, t = 0.2)
movej(p[-0.483950663003588, -0.172240406002521, 0.35421250313255, -0.838, -1.524, 1.716], a = 0.2, v = 0.2, t = 0.2)
movej(p[-0.48400583703474, -0.17229936958422, 0.353468963934646, -0.838, -1.524, 1.716], a = 0.2, v = 0.2, t = 0.2)
movej(p[-0.484027381435443, -0.172322393731712, 0.353178626141972, -0.838, -1.524, 1.716], a = 0.2, v = 0.2, t = 0.2)
movej(p[-0.484040900278919, -0.172336841097894, 0.352996442788236, -0.838, -1.524, 1.716], a = 0.2, v = 0.2, t = 0.2)
movej(p[-0.484055383797053, -0.172352319396052, 0.352801259234828, -0.838, -1.524, 1.716], a = 0.2, v = 0.2, t = 0.2)
movej(p[-0.484055718753531, -0.172352677358544, 0.352796745276608, -0.838, -1.524, 1.716], a = 0.2, v = 0.2, t = 0.2)
movej(p[-0.484054593299763, -0.172351474604571, 0.352811912176226, -0.838, -1.524, 1.716], a = 0.2, v = 0.2, t = 0.2)
movej(p[-0.484056897800336, -0.172353937386516, 0.352780856143676, -0.838, -1.524, 1.716], a = 0.2, v = 0.2, t = 0.2)
movej(p[-0.484025478882645, -0.172320360504757, 0.353204265424658, -0.838, -1.524, 1.716], a = 0.2, v = 0.2, t = 0.2)
movej(p[-0.483964690980911, -0.172255397471691, 0.35402345856232, -0.838, -1.524, 1.716], a = 0.2, v = 0.2, t = 0.2)
movej(p[-0.483903675308772, -0.172190191024129, 0.354845721191571, -0.838, -1.524, 1.716], a = 0.2, v = 0.2, t = 0.2)
movej(p[-0.483853900776055, -0.172136997797803, 0.355516495382979, -0.838, -1.524, 1.716], a = 0.2, v = 0.2, t = 0.2)
movej(p[-0.483806363752614, -0.172086195760924, 0.35615711633348, -0.838, -1.524, 1.716], a = 0.2, v = 0.2, t = 0.2)
movej(p[-0.483847335629074, -0.172129981732958, 0.355604968964079, -0.838, -1.524, 1.716], a = 0.2, v = 0.2, t = 0.2)
movej(p[-0.483938256215621, -0.172227147071814, 0.354379700144998, -0.838, -1.524, 1.716], a = 0.2, v = 0.2, t = 0.2)
movej(p[-0.483998936931282, -0.172291995556883, 0.353561951473966, -0.838, -1.524, 1.716], a = 0.2, v = 0.2, t = 0.2)
movej(p[-0.484025438687867, -0.172320317549258, 0.353204807099645, -0.838, -1.524, 1.716], a = 0.2, v = 0.2, t = 0.2)
movej(p[-0.484039573851263, -0.172335423566425, 0.353014318062785, -0.838, -1.524, 1.716], a = 0.2, v = 0.2, t = 0.2)
movej(p[-0.484055490983126, -0.17235243394405, 0.352799814768198, -0.838, -1.524, 1.716], a = 0.2, v = 0.2, t = 0.2)
movej(p[-0.484056067108269, -0.172353049639536, 0.35279205076006, -0.838, -1.524, 1.716], a = 0.2, v = 0.2, t = 0.2)
movej(p[-0.48405432533458, -0.172351188234577, 0.352815523342801, -0.838, -1.524, 1.716], a = 0.2, v = 0.2, t = 0.2)
movej(p[-0.484028614075284, -0.172323711033683, 0.353162014775725, -0.838, -1.524, 1.716], a = 0.2, v = 0.2, t = 0.2)
movej(p[-0.483973453442391, -0.172264761770484, 0.3539053734153, -0.838, -1.524, 1.716], a = 0.2, v = 0.2, t = 0.2)
movej(p[-0.483889674127967, -0.172175228191959, 0.355034404645144, -0.838, -1.524, 1.716], a = 0.2, v = 0.2, t = 0.2)
movej(p[-0.483811495285866, -0.172091679746303, 0.356087962493558, -0.838, -1.524, 1.716], a = 0.2, v = 0.2, t = 0.2)
movej(p[-0.483751873032678, -0.172027962422709, 0.356891447056616, -0.838, -1.524, 1.716], a = 0.2, v = 0.2, t = 0.2)
movej(p[-0.483702138694738, -0.171974812151882, 0.357561679573037, -0.838, -1.524, 1.716], a = 0.2, v = 0.2, t = 0.2)
movej(p[-0.483735138607008, -0.172010078616603, 0.357116964409259, -0.838, -1.524, 1.716], a = 0.2, v = 0.2, t = 0.2)
movej(p[-0.483833709599526, -0.172115419818779, 0.355788596784446, -0.838, -1.524, 1.716], a = 0.2, v = 0.2, t = 0.2)
movej(p[-0.483921361010842, -0.172209091443712, 0.354607384197586, -0.838, -1.524, 1.716], a = 0.2, v = 0.2, t = 0.2)
movej(p[-0.483975315800412, -0.17226675204194, 0.3538802758076, -0.838, -1.524, 1.716], a = 0.2, v = 0.2, t = 0.2)
movej(p[-0.484012040428724, -0.172305999049574, 0.353385365428422, -0.838, -1.524, 1.716], a = 0.2, v = 0.2, t = 0.2)
movej(p[-0.484041851555318, -0.172337857711371, 0.352983623146893, -0.838, -1.524, 1.716], a = 0.2, v = 0.2, t = 0.2)
movej(p[-0.484047009885088, -0.172343370333749, 0.352914108190314, -0.838, -1.524, 1.716], a = 0.2, v = 0.2, t = 0.2)
movej(p[-0.484049287589142, -0.172345804478696, 0.352883413274421, -0.838, -1.524, 1.716], a = 0.2, v = 0.2, t = 0.2)
movej(p[-0.484045040340994, -0.172341265514296, 0.352940650264644, -0.838, -1.524, 1.716], a = 0.2, v = 0.2, t = 0.2)
movej(p[-0.484012375385202, -0.172306357012066, 0.353380851470203, -0.838, -1.524, 1.716], a = 0.2, v = 0.2, t = 0.2)
movej(p[-0.483942784827212, -0.172231986724707, 0.354318671429871, -0.838, -1.524, 1.716], a = 0.2, v = 0.2, t = 0.2)
movej(p[-0.483859769213559, -0.172143269300665, 0.355437410834974, -0.838, -1.524, 1.716], a = 0.2, v = 0.2, t = 0.2)
movej(p[-0.483769840098189, -0.172047163530785, 0.356649318337726, -0.838, -1.524, 1.716], a = 0.2, v = 0.2, t = 0.2)
movej(p[-0.483690013270213, -0.171961853909667, 0.357725084860581, -0.838, -1.524, 1.716], a = 0.2, v = 0.2, t = 0.2)
movej(p[-0.483668401878215, -0.171938758169677, 0.358016325444898, -0.838, -1.524, 1.716], a = 0.2, v = 0.2, t = 0.2)
movej(p[-0.483761479584484, -0.172038228786982, 0.356761986734883, -0.838, -1.524, 1.716], a = 0.2, v = 0.2, t = 0.2)
movej(p[-0.483855763134076, -0.172138988069259, 0.355491397775278, -0.838, -1.524, 1.716], a = 0.2, v = 0.2, t = 0.2)
movej(p[-0.483934397516988, -0.172223023343905, 0.354431700943685, -0.838, -1.524, 1.716], a = 0.2, v = 0.2, t = 0.2)
movej(p[-0.483990228062838, -0.172282688532088, 0.353679314387671, -0.838, -1.524, 1.716], a = 0.2, v = 0.2, t = 0.2)
movej(p[-0.484031467904482, -0.172326760874116, 0.353123555851695, -0.838, -1.524, 1.716], a = 0.2, v = 0.2, t = 0.2)
movej(p[-0.484041382616248, -0.172337356563882, 0.3529899426884, -0.838, -1.524, 1.716], a = 0.2, v = 0.2, t = 0.2)
movej(p[-0.484047076876384, -0.172343441926248, 0.35291320539867, -0.838, -1.524, 1.716], a = 0.2, v = 0.2, t = 0.2)
movej(p[-0.484053976979843, -0.172350815953585, 0.352820217859349, -0.838, -1.524, 1.716], a = 0.2, v = 0.2, t = 0.2)
movej(p[-0.484058063448881, -0.172355183095989, 0.352765147569072, -0.838, -1.524, 1.716], a = 0.2, v = 0.2, t = 0.2)
movej(p[-0.484040270560739, -0.172336168128408, 0.353004929029689, -0.838, -1.524, 1.716], a = 0.2, v = 0.2, t = 0.2)
movej(p[-0.483981036857066, -0.172272866041305, 0.353803177401212, -0.838, -1.524, 1.716], a = 0.2, v = 0.2, t = 0.2)
movej(p[-0.483913013895395, -0.172200171018409, 0.354719872036414, -0.838, -1.524, 1.716], a = 0.2, v = 0.2, t = 0.2)
movej(p[-0.483822548849659, -0.172103492508542, 0.355939001872317, -0.838, -1.524, 1.716], a = 0.2, v = 0.2, t = 0.2)
movej(p[-0.48373541997045, -0.172010379305097, 0.357113172684355, -0.838, -1.524, 1.716], a = 0.2, v = 0.2, t = 0.2)
movej(p[-0.483685377472549, -0.171956899708777, 0.357787558042337, -0.838, -1.524, 1.716], a = 0.2, v = 0.2, t = 0.2)
movej(p[-0.483711249510955, -0.171984548731667, 0.357438899909469, -0.838, -1.524, 1.716], a = 0.2, v = 0.2, t = 0.2)
movej(p[-0.483799651224783, -0.172079022192582, 0.356247576056197, -0.838, -1.524, 1.716], a = 0.2, v = 0.2, t = 0.2)
movej(p[-0.48390198712812, -0.172188386893169, 0.354868471540997, -0.838, -1.524, 1.716], a = 0.2, v = 0.2, t = 0.2)
movej(p[-0.483986932091089, -0.172279166181166, 0.35372373173655, -0.838, -1.524, 1.716], a = 0.2, v = 0.2, t = 0.2)
movej(p[-0.484019878410323, -0.172314375371889, 0.353279738806087, -0.838, -1.524, 1.716], a = 0.2, v = 0.2, t = 0.2)
movej(p[-0.4840361840917, -0.172331800986005, 0.353059999319966, -0.838, -1.524, 1.716], a = 0.2, v = 0.2, t = 0.2)
movej(p[-0.484046849105978, -0.172343198511753, 0.352916274890259, -0.838, -1.524, 1.716], a = 0.2, v = 0.2, t = 0.2)
movej(p[-0.484058800353134, -0.172355970613471, 0.35275521686099, -0.838, -1.524, 1.716], a = 0.2, v = 0.2, t = 0.2)
movej(p[-0.48405699158815, -0.172354037616014, 0.352779592235375, -0.838, -1.524, 1.716], a = 0.2, v = 0.2, t = 0.2)
movej(p[-0.484032633553027, -0.172328006583588, 0.353107847277091, -0.838, -1.524, 1.716], a = 0.2, v = 0.2, t = 0.2)
movej(p[-0.483982175709093, -0.172274083113778, 0.353787829943266, -0.838, -1.524, 1.716], a = 0.2, v = 0.2, t = 0.2)
movej(p[-0.483895020033366, -0.172180941273333, 0.354962361871961, -0.838, -1.524, 1.716], a = 0.2, v = 0.2, t = 0.2)
movej(p[-0.483808815634037, -0.172088816046366, 0.356124074159314, -0.838, -1.524, 1.716], a = 0.2, v = 0.2, t = 0.2)
movej(p[-0.483746419941207, -0.172022134793337, 0.356964934296429, -0.838, -1.524, 1.716], a = 0.2, v = 0.2, t = 0.2)
movej(p[-0.483691111927463, -0.171963028026642, 0.357710279077621, -0.838, -1.524, 1.716], a = 0.2, v = 0.2, t = 0.2)
movej(p[-0.483722825606855, -0.171996919915394, 0.357282897513405, -0.838, -1.524, 1.716], a = 0.2, v = 0.2, t = 0.2)
movej(p[-0.483818073831105, -0.172098710129648, 0.355999308354129, -0.838, -1.524, 1.716], a = 0.2, v = 0.2, t = 0.2)
movej(p[-0.483927912759563, -0.172216093190058, 0.354519091174814, -0.838, -1.524, 1.716], a = 0.2, v = 0.2, t = 0.2)
movej(p[-0.483980527723219, -0.172272321938317, 0.353810038617706, -0.838, -1.524, 1.716], a = 0.2, v = 0.2, t = 0.2)
movej(p[-0.484015778543025, -0.172309993910986, 0.353334989654693, -0.838, -1.524, 1.716], a = 0.2, v = 0.2, t = 0.2)
movej(p[-0.484035112230969, -0.17233065550603, 0.353074443986268, -0.838, -1.524, 1.716], a = 0.2, v = 0.2, t = 0.2)
movej(p[-0.484052905119111, -0.17234967047361, 0.352834662525652, -0.838, -1.524, 1.716], a = 0.2, v = 0.2, t = 0.2)
movej(p[-0.484055330204016, -0.172352262122053, 0.352801981468143, -0.838, -1.524, 1.716], a = 0.2, v = 0.2, t = 0.2)
movej(p[-0.484052181613117, -0.172348897274628, 0.352844412675406, -0.838, -1.524, 1.716], a = 0.2, v = 0.2, t = 0.2)
movej(p[-0.484027649400626, -0.172322680101706, 0.353175014975397, -0.838, -1.524, 1.716], a = 0.2, v = 0.2, t = 0.2)
movej(p[-0.483952284192944, -0.172242138540983, 0.354190655574768, -0.838, -1.524, 1.716], a = 0.2, v = 0.2, t = 0.2)
movej(p[-0.483872631542337, -0.172157015060361, 0.355264074839348, -0.838, -1.524, 1.716], a = 0.2, v = 0.2, t = 0.2)
movej(p[-0.483802692629609, -0.17208227249201, 0.356206589315565, -0.838, -1.524, 1.716], a = 0.2, v = 0.2, t = 0.2)
movej(p[-0.483745656240435, -0.172021318638855, 0.356975226121169, -0.838, -1.524, 1.716], a = 0.2, v = 0.2, t = 0.2)
movej(p[-0.483696149672901, -0.171968411782523, 0.357642389146001, -0.838, -1.524, 1.716], a = 0.2, v = 0.2, t = 0.2)
movej(p[-0.48375465987058, -0.172030940670643, 0.356853890924231, -0.838, -1.524, 1.716], a = 0.2, v = 0.2, t = 0.2)
movej(p[-0.483865021331144, -0.172148882152541, 0.355366631970093, -0.838, -1.524, 1.716], a = 0.2, v = 0.2, t = 0.2)
movej(p[-0.483946603331068, -0.172236067497117, 0.354267212306169, -0.838, -1.524, 1.716], a = 0.2, v = 0.2, t = 0.2)
movej(p[-0.484000115978086, -0.172293255584855, 0.353546062341034, -0.838, -1.524, 1.716], a = 0.2, v = 0.2, t = 0.2)
movej(p[-0.484030757796747, -0.172326001993633, 0.35313312544312, -0.838, -1.524, 1.716], a = 0.2, v = 0.2, t = 0.2)
movej(p[-0.484051431310605, -0.172348095438645, 0.352854523941817, -0.838, -1.524, 1.716], a = 0.2, v = 0.2, t = 0.2)
movej(p[-0.484055048840574, -0.17235196143356, 0.352805773193047, -0.838, -1.524, 1.716], a = 0.2, v = 0.2, t = 0.2)
movej(p[-0.484056134099565, -0.172353121232034, 0.352791147968416, -0.838, -1.524, 1.716], a = 0.2, v = 0.2, t = 0.2)
movej(p[-0.484058385007101, -0.172355526739981, 0.352760814169182, -0.838, -1.524, 1.716], a = 0.2, v = 0.2, t = 0.2)
movej(p[-0.484006922293731, -0.172300529382695, 0.353454338710015, -0.838, -1.524, 1.716], a = 0.2, v = 0.2, t = 0.2)
movej(p[-0.483927591201343, -0.172215749546065, 0.354523424574704, -0.838, -1.524, 1.716], a = 0.2, v = 0.2, t = 0.2)
movej(p[-0.483856419648774, -0.172139689675744, 0.355482550417168, -0.838, -1.524, 1.716], a = 0.2, v = 0.2, t = 0.2)
movej(p[-0.48379031263816, -0.172069042198302, 0.356373425211355, -0.838, -1.524, 1.716], a = 0.2, v = 0.2, t = 0.2)
movej(p[-0.48372072208017, -0.171994671910943, 0.357311245171023, -0.838, -1.524, 1.716], a = 0.2, v = 0.2, t = 0.2)
movej(p[-0.483676976764067, -0.171947922009475, 0.357900768114481, -0.838, -1.524, 1.716], a = 0.2, v = 0.2, t = 0.2)
movej(p[-0.483725947401236, -0.17200025612582, 0.3572408274228, -0.838, -1.524, 1.716], a = 0.2, v = 0.2, t = 0.2)
movej(p[-0.483822709628769, -0.172103664330538, 0.355936835172372, -0.838, -1.524, 1.716], a = 0.2, v = 0.2, t = 0.2)
movej(p[-0.48391325506406, -0.172200428751403, 0.354716621986496, -0.838, -1.524, 1.716], a = 0.2, v = 0.2, t = 0.2)
movej(p[-0.483982631249904, -0.172274569942768, 0.353781690960088, -0.838, -1.524, 1.716], a = 0.2, v = 0.2, t = 0.2)
movej(p[-0.484028346110101, -0.17232342466369, 0.3531656259423, -0.838, -1.524, 1.716], a = 0.2, v = 0.2, t = 0.2)
movej(p[-0.484041677377949, -0.172337671570875, 0.352985970405167, -0.838, -1.524, 1.716], a = 0.2, v = 0.2, t = 0.2)
movej(p[-0.484048483693594, -0.172344945368715, 0.352894246774148, -0.838, -1.524, 1.716], a = 0.2, v = 0.2, t = 0.2)
movej(p[-0.484057983059326, -0.172355097184991, 0.352766230919045, -0.838, -1.524, 1.716], a = 0.2, v = 0.2, t = 0.2)
movej(p[-0.484058518989692, -0.172355669924978, 0.352759008585894, -0.838, -1.524, 1.716], a = 0.2, v = 0.2, t = 0.2)
movej(p[-0.48405151170016, -0.172348181349643, 0.352853440591844, -0.838, -1.524, 1.716], a = 0.2, v = 0.2, t = 0.2)
movej(p[-0.483999003922577, -0.172292067149381, 0.353561048682322, -0.838, -1.524, 1.716], a = 0.2, v = 0.2, t = 0.2)
movej(p[-0.483941337815224, -0.172230440326741, 0.354338171729379, -0.838, -1.524, 1.716], a = 0.2, v = 0.2, t = 0.2)
movej(p[-0.483856580427883, -0.17213986149774, 0.355480383717223, -0.838, -1.524, 1.716], a = 0.2, v = 0.2, t = 0.2)
movej(p[-0.48377639184691, -0.172054165277131, 0.356561025314954, -0.838, -1.524, 1.716], a = 0.2, v = 0.2, t = 0.2)
movej(p[-0.483726228764678, -0.172000556814313, 0.357237035697896, -0.838, -1.524, 1.716], a = 0.2, v = 0.2, t = 0.2)
movej(p[-0.48368271121898, -0.17195405032734, 0.357823489149764, -0.838, -1.524, 1.716], a = 0.2, v = 0.2, t = 0.2)
movej(p[-0.483746151976024, -0.172021848423344, 0.356968545463004, -0.838, -1.524, 1.716], a = 0.2, v = 0.2, t = 0.2)
movej(p[-0.48385913949538, -0.172142596331179, 0.355445897076427, -0.838, -1.524, 1.716], a = 0.2, v = 0.2, t = 0.2)
movej(p[-0.483959197694662, -0.17224952688682, 0.354097487477119, -0.838, -1.524, 1.716], a = 0.2, v = 0.2, t = 0.2)
movej(p[-0.4840036531185, -0.172297035668772, 0.353498394942236, -0.838, -1.524, 1.716], a = 0.2, v = 0.2, t = 0.2)
movej(p[-0.484027595807589, -0.172322622827707, 0.353175737208712, -0.838, -1.524, 1.716], a = 0.2, v = 0.2, t = 0.2)
movej(p[-0.484048148737115, -0.172344587406223, 0.352898760732368, -0.838, -1.524, 1.716], a = 0.2, v = 0.2, t = 0.2)
movej(p[-0.484053668819882, -0.172350486628092, 0.352824370700911, -0.838, -1.524, 1.716], a = 0.2, v = 0.2, t = 0.2)
movej(p[-0.484053280270367, -0.172350071391602, 0.352829606892446, -0.838, -1.524, 1.716], a = 0.2, v = 0.2, t = 0.2)
movej(p[-0.484036787013362, -0.172332445318491, 0.353051874195171, -0.838, -1.524, 1.716], a = 0.2, v = 0.2, t = 0.2)
movej(p[-0.483989182998625, -0.172281571689113, 0.353693397937316, -0.838, -1.524, 1.716], a = 0.2, v = 0.2, t = 0.2)
movej(p[-0.483909088205466, -0.172195975698002, 0.354772775626745, -0.838, -1.524, 1.716], a = 0.2, v = 0.2, t = 0.2)
movej(p[-0.483819520843093, -0.172100256527614, 0.355979808054621, -0.838, -1.524, 1.716], a = 0.2, v = 0.2, t = 0.2)
movej(p[-0.483750841366724, -0.172026859898233, 0.356905350047932, -0.838, -1.524, 1.716], a = 0.2, v = 0.2, t = 0.2)
movej(p[-0.483684319010077, -0.171955768547302, 0.357801822150311, -0.838, -1.524, 1.716], a = 0.2, v = 0.2, t = 0.2)
movej(p[-0.483675623539893, -0.171946475841007, 0.357919004505687, -0.838, -1.524, 1.716], a = 0.2, v = 0.2, t = 0.2)
movej(p[-0.483777852257157, -0.172055725993596, 0.356541344457118, -0.838, -1.524, 1.716], a = 0.2, v = 0.2, t = 0.2)
movej(p[-0.483893439038787, -0.172179251690371, 0.354983667754757, -0.838, -1.524, 1.716], a = 0.2, v = 0.2, t = 0.2)
movej(p[-0.483958835941666, -0.172249140287329, 0.354102362551996, -0.838, -1.524, 1.716], a = 0.2, v = 0.2, t = 0.2)
movej(p[-0.484003090391616, -0.172296434291785, 0.353505978392045, -0.838, -1.524, 1.716], a = 0.2, v = 0.2, t = 0.2)
movej(p[-0.484031173142781, -0.172326445867123, 0.353127528134928, -0.838, -1.524, 1.716], a = 0.2, v = 0.2, t = 0.2)
movej(p[-0.484049716333435, -0.172346262670686, 0.352877635407901, -0.838, -1.524, 1.716], a = 0.2, v = 0.2, t = 0.2)
movej(p[-0.484052811331297, -0.172349570244113, 0.352835926433953, -0.838, -1.524, 1.716], a = 0.2, v = 0.2, t = 0.2)
movej(p[-0.484052087825303, -0.17234879704513, 0.352845676583707, -0.838, -1.524, 1.716], a = 0.2, v = 0.2, t = 0.2)
movej(p[-0.484043204779491, -0.172339303879839, 0.352965386755686, -0.838, -1.524, 1.716], a = 0.2, v = 0.2, t = 0.2)
movej(p[-0.483978035647018, -0.172269658697376, 0.353843622466858, -0.838, -1.524, 1.716], a = 0.2, v = 0.2, t = 0.2)
movej(p[-0.483904921346873, -0.1721915226446, 0.354828929266995, -0.838, -1.524, 1.716], a = 0.2, v = 0.2, t = 0.2)
movej(p[-0.48383333444827, -0.172115018900788, 0.355793652417651, -0.838, -1.524, 1.716], a = 0.2, v = 0.2, t = 0.2)
movej(p[-0.483772734122164, -0.172050256326717, 0.35661031773871, -0.838, -1.524, 1.716], a = 0.2, v = 0.2, t = 0.2)
movej(p[-0.483702540642512, -0.171975241706872, 0.357556262823174, -0.838, -1.524, 1.716], a = 0.2, v = 0.2, t = 0.2)
movej(p[-0.483682590634648, -0.171953921460842, 0.357825114174723, -0.838, -1.524, 1.716], a = 0.2, v = 0.2, t = 0.2)
movej(p[-0.483756616016415, -0.172033031171597, 0.356827529408229, -0.838, -1.524, 1.716], a = 0.2, v = 0.2, t = 0.2)
movej(p[-0.483838787539741, -0.172120846530159, 0.355720165177839, -0.838, -1.524, 1.716], a = 0.2, v = 0.2, t = 0.2)
movej(p[-0.483917033373138, -0.172204466568314, 0.354665704537781, -0.838, -1.524, 1.716], a = 0.2, v = 0.2, t = 0.2)
movej(p[-0.48397628047507, -0.172267782973917, 0.353867275607928, -0.838, -1.524, 1.716], a = 0.2, v = 0.2, t = 0.2)
movej(p[-0.48402539849309, -0.172320274593759, 0.353205348774631, -0.838, -1.524, 1.716], a = 0.2, v = 0.2, t = 0.2)
movej(p[-0.484040350950294, -0.172336254039407, 0.353003845679716, -0.838, -1.524, 1.716], a = 0.2, v = 0.2, t = 0.2)
movej(p[-0.484046259582576, -0.172342568497767, 0.352924219456725, -0.838, -1.524, 1.716], a = 0.2, v = 0.2, t = 0.2)
movej(p[-0.484052690746965, -0.172349441377616, 0.352837551458912, -0.838, -1.524, 1.716], a = 0.2, v = 0.2, t = 0.2)
movej(p[-0.484052556764373, -0.172349298192619, 0.3528393570422, -0.838, -1.524, 1.716], a = 0.2, v = 0.2, t = 0.2)
movej(p[-0.484010472832404, -0.172304323785111, 0.353406490752889, -0.838, -1.524, 1.716], a = 0.2, v = 0.2, t = 0.2)
movej(p[-0.483948492485607, -0.172238086405573, 0.354241753581812, -0.838, -1.524, 1.716], a = 0.2, v = 0.2, t = 0.2)
movej(p[-0.483886927484843, -0.172172292899524, 0.355071419102543, -0.838, -1.524, 1.716], a = 0.2, v = 0.2, t = 0.2)
movej(p[-0.483804769359776, -0.172084491859462, 0.356178602774604, -0.838, -1.524, 1.716], a = 0.2, v = 0.2, t = 0.2)
movej(p[-0.48372837248614, -0.172002847774263, 0.357208146365292, -0.838, -1.524, 1.716], a = 0.2, v = 0.2, t = 0.2)
movej(p[-0.483686529722836, -0.17195813109975, 0.357772030026063, -0.838, -1.524, 1.716], a = 0.2, v = 0.2, t = 0.2)
movej(p[-0.483742681826906, -0.172018139931926, 0.357015310070158, -0.838, -1.524, 1.716], a = 0.2, v = 0.2, t = 0.2)
movej(p[-0.483837447713827, -0.172119414680191, 0.355738221010717, -0.838, -1.524, 1.716], a = 0.2, v = 0.2, t = 0.2)
movej(p[-0.483926626526685, -0.172214718614088, 0.354536424774376, -0.838, -1.524, 1.716], a = 0.2, v = 0.2, t = 0.2)
movej(p[-0.483997154962816, -0.172290091196425, 0.353585965731693, -0.838, -1.524, 1.716], a = 0.2, v = 0.2, t = 0.2)
movej(p[-0.484025974618233, -0.172320890289246, 0.353197584766494, -0.838, -1.524, 1.716], a = 0.2, v = 0.2, t = 0.2)
movej(p[-0.484040310755516, -0.172336211083907, 0.353004387354702, -0.838, -1.524, 1.716], a = 0.2, v = 0.2, t = 0.2)
movej(p[-0.484046527547759, -0.172342854867761, 0.35292060829015, -0.838, -1.524, 1.716], a = 0.2, v = 0.2, t = 0.2)
movej(p[-0.484058023254104, -0.17235514014049, 0.352765689244059, -0.838, -1.524, 1.716], a = 0.2, v = 0.2, t = 0.2)
movej(p[-0.484052851526075, -0.172349613199612, 0.352835384758967, -0.838, -1.524, 1.716], a = 0.2, v = 0.2, t = 0.2)
movej(p[-0.484007190258914, -0.172300815752688, 0.353450727543439, -0.838, -1.524, 1.716], a = 0.2, v = 0.2, t = 0.2)
movej(p[-0.483955392589066, -0.17224546043291, 0.354148766042492, -0.838, -1.524, 1.716], a = 0.2, v = 0.2, t = 0.2)
movej(p[-0.483876624223562, -0.172161281973267, 0.355210268457373, -0.838, -1.524, 1.716], a = 0.2, v = 0.2, t = 0.2)
movej(p[-0.48378796794281, -0.172066536460858, 0.356405022918891, -0.838, -1.524, 1.716], a = 0.2, v = 0.2, t = 0.2)
movej(p[-0.483715965698174, -0.171989588843556, 0.357375343377739, -0.838, -1.524, 1.716], a = 0.2, v = 0.2, t = 0.2)
movej(p[-0.483688405479116, -0.171960135689705, 0.357746751860034, -0.838, -1.524, 1.716], a = 0.2, v = 0.2, t = 0.2)
movej(p[-0.483743592908527, -0.172019113589904, 0.357003032103801, -0.838, -1.524, 1.716], a = 0.2, v = 0.2, t = 0.2)
movej(p[-0.483841078642054, -0.172123294993605, 0.355689289703618, -0.838, -1.524, 1.716], a = 0.2, v = 0.2, t = 0.2)
movej(p[-0.483933406045811, -0.172221963774928, 0.354445062260015, -0.838, -1.524, 1.716], a = 0.2, v = 0.2, t = 0.2)
movej(p[-0.483999821216385, -0.172292940577862, 0.353550034624267, -0.838, -1.524, 1.716], a = 0.2, v = 0.2, t = 0.2)
movej(p[-0.484025693254791, -0.172320589600752, 0.353201376491398, -0.838, -1.524, 1.716], a = 0.2, v = 0.2, t = 0.2)
movej(p[-0.484039761426891, -0.17233562402542, 0.353011790246182, -0.838, -1.524, 1.716], a = 0.2, v = 0.2, t = 0.2)
movej(p[-0.484054579901504, -0.172351460286071, 0.352812092734554, -0.838, -1.524, 1.716], a = 0.2, v = 0.2, t = 0.2)
movej(p[-0.484057192562037, -0.172354252393509, 0.352776883860443, -0.838, -1.524, 1.716], a = 0.2, v = 0.2, t = 0.2)
movej(p[-0.484056723622967, -0.17235375124602, 0.35278320340195, -0.838, -1.524, 1.716], a = 0.2, v = 0.2, t = 0.2)
movej(p[-0.484034643291899, -0.172330154358541, 0.353080763527775, -0.838, -1.524, 1.716], a = 0.2, v = 0.2, t = 0.2)
movej(p[-0.483994689683133, -0.172287456592483, 0.353619188464188, -0.838, -1.524, 1.716], a = 0.2, v = 0.2, t = 0.2)
movej(p[-0.483908833638542, -0.172195703646508, 0.354776206234992, -0.838, -1.524, 1.716], a = 0.2, v = 0.2, t = 0.2)
movej(p[-0.483830132264334, -0.172111596779363, 0.355836805858229, -0.838, -1.524, 1.716], a = 0.2, v = 0.2, t = 0.2)
movej(p[-0.483780344333358, -0.172058389234537, 0.356507760607965, -0.838, -1.524, 1.716], a = 0.2, v = 0.2, t = 0.2)
movej(p[-0.483717211736274, -0.171990920464026, 0.357358551453163, -0.838, -1.524, 1.716], a = 0.2, v = 0.2, t = 0.2)
movej(p[-0.483647259425287, -0.171916163577176, 0.358301246487708, -0.838, -1.524, 1.716], a = 0.2, v = 0.2, t = 0.2)
movej(p[-0.483612651721919, -0.171879178892492, 0.35876762865094, -0.838, -1.524, 1.716], a = 0.2, v = 0.2, t = 0.2)
movej(p[-0.483724245822324, -0.17199843767636, 0.357263758330555, -0.838, -1.524, 1.716], a = 0.2, v = 0.2, t = 0.2)
movej(p[-0.483833977564708, -0.172115706188773, 0.35578498561787, -0.838, -1.524, 1.716], a = 0.2, v = 0.2, t = 0.2)
movej(p[-0.483913965171794, -0.172201187631887, 0.354707052395071, -0.838, -1.524, 1.716], a = 0.2, v = 0.2, t = 0.2)
movej(p[-0.483984239041001, -0.17227628816273, 0.353760023960635, -0.838, -1.524, 1.716], a = 0.2, v = 0.2, t = 0.2)
movej(p[-0.484023187780331, -0.172317912041311, 0.353235140898879, -0.838, -1.524, 1.716], a = 0.2, v = 0.2, t = 0.2)
movej(p[-0.484040163374666, -0.172336053580411, 0.353006373496319, -0.838, -1.524, 1.716], a = 0.2, v = 0.2, t = 0.2)
movej(p[-0.484048443498816, -0.172344902413216, 0.352894788449134, -0.838, -1.524, 1.716], a = 0.2, v = 0.2, t = 0.2)
movej(p[-0.484059939205161, -0.172357187685945, 0.352739869403044, -0.838, -1.524, 1.716], a = 0.2, v = 0.2, t = 0.2)
movej(p[-0.484059041521799, -0.172356228346466, 0.352751966811072, -0.838, -1.524, 1.716], a = 0.2, v = 0.2, t = 0.2)
movej(p[-0.484059952603421, -0.172357202004444, 0.352739688844715, -0.838, -1.524, 1.716], a = 0.2, v = 0.2, t = 0.2)
movej(p[-0.4840593362835, -0.172356543353459, 0.352747994527839, -0.838, -1.524, 1.716], a = 0.2, v = 0.2, t = 0.2)
movej(p[-0.48404368711682, -0.172339819345828, 0.35295888665585, -0.838, -1.524, 1.716], a = 0.2, v = 0.2, t = 0.2)
movej(p[-0.483976963786287, -0.172268513217401, 0.35385806713316, -0.838, -1.524, 1.716], a = 0.2, v = 0.2, t = 0.2)
movej(p[-0.483896373257539, -0.172182387441802, 0.354944125480755, -0.838, -1.524, 1.716], a = 0.2, v = 0.2, t = 0.2)
movej(p[-0.483838465981522, -0.172120502886167, 0.35572449857773, -0.838, -1.524, 1.716], a = 0.2, v = 0.2, t = 0.2)
movej(p[-0.483760220148124, -0.172036882848012, 0.356778959217788, -0.838, -1.524, 1.716], a = 0.2, v = 0.2, t = 0.2)
movej(p[-0.483695948699014, -0.171968197005027, 0.357645097520932, -0.838, -1.524, 1.716], a = 0.2, v = 0.2, t = 0.2)
movej(p[-0.483723455325035, -0.171997592884879, 0.357274411271953, -0.838, -1.524, 1.716], a = 0.2, v = 0.2, t = 0.2)
movej(p[-0.483835893515766, -0.172117753734228, 0.355759165776855, -0.838, -1.524, 1.716], a = 0.2, v = 0.2, t = 0.2)
movej(p[-0.483916417053218, -0.172203807917329, 0.354674010220904, -0.838, -1.524, 1.716], a = 0.2, v = 0.2, t = 0.2)
movej(p[-0.483973480238909, -0.172264790407483, 0.353905012298643, -0.838, -1.524, 1.716], a = 0.2, v = 0.2, t = 0.2)
movej(p[-0.484016743217683, -0.172311024842963, 0.353321989455021, -0.838, -1.524, 1.716], a = 0.2, v = 0.2, t = 0.2)
movej(p[-0.484043445948156, -0.172339561612834, 0.352962136705768, -0.838, -1.524, 1.716], a = 0.2, v = 0.2, t = 0.2)
movej(p[-0.484051149947163, -0.172347794750152, 0.352858315666721, -0.838, -1.524, 1.716], a = 0.2, v = 0.2, t = 0.2)
movej(p[-0.484050681008093, -0.172347293602663, 0.352864635208229, -0.838, -1.524, 1.716], a = 0.2, v = 0.2, t = 0.2)
movej(p[-0.48402868106658, -0.172323782626182, 0.353161111984081, -0.838, -1.524, 1.716], a = 0.2, v = 0.2, t = 0.2)
movej(p[-0.483948492485607, -0.172238086405573, 0.354241753581812, -0.838, -1.524, 1.716], a = 0.2, v = 0.2, t = 0.2)
movej(p[-0.483849814307016, -0.172132630655399, 0.355571565673256, -0.838, -1.524, 1.716], a = 0.2, v = 0.2, t = 0.2)
movej(p[-0.483765351681376, -0.172042366833391, 0.356709805377867, -0.838, -1.524, 1.716], a = 0.2, v = 0.2, t = 0.2)
movej(p[-0.483705689233411, -0.171978606554298, 0.357513831615911, -0.838, -1.524, 1.716], a = 0.2, v = 0.2, t = 0.2)
movej(p[-0.483648733233792, -0.171917738612141, 0.358281385071543, -0.838, -1.524, 1.716], a = 0.2, v = 0.2, t = 0.2)
movej(p[-0.483714264119262, -0.171987770394096, 0.357398274285494, -0.838, -1.524, 1.716], a = 0.2, v = 0.2, t = 0.2)
movej(p[-0.483827653586393, -0.172108947856922, 0.355870209149053, -0.838, -1.524, 1.716], a = 0.2, v = 0.2, t = 0.2)
movej(p[-0.48390183974727, -0.172188229389673, 0.354870457682614, -0.838, -1.524, 1.716], a = 0.2, v = 0.2, t = 0.2)
movej(p[-0.483953691010154, -0.17224364198345, 0.354171696950246, -0.838, -1.524, 1.716], a = 0.2, v = 0.2, t = 0.2)
movej(p[-0.483982711639459, -0.172274655853766, 0.353780607610115, -0.838, -1.524, 1.716], a = 0.2, v = 0.2, t = 0.2)
movej(p[-0.483998910134763, -0.172291966919884, 0.353562312590624, -0.838, -1.524, 1.716], a = 0.2, v = 0.2, t = 0.2)
movej(p[-0.483985471680843, -0.172277605464701, 0.353743412594387, -0.838, -1.524, 1.716], a = 0.2, v = 0.2, t = 0.2)
movej(p[-0.48389260834672, -0.17217836394339, 0.354994862371141, -0.838, -1.524, 1.716], a = 0.2, v = 0.2, t = 0.2)
movej(p[-0.483791518481483, -0.172070330863274, 0.356357174961765, -0.838, -1.524, 1.716], a = 0.2, v = 0.2, t = 0.2)
movej(p[-0.48369756988837, -0.171969929543489, 0.35762324996315, -0.838, -1.524, 1.716], a = 0.2, v = 0.2, t = 0.2)
movej(p[-0.483611633454224, -0.171878090686516, 0.358781351083927, -0.838, -1.524, 1.716], a = 0.2, v = 0.2, t = 0.2)
movej(p[-0.483497855437579, -0.171756497987198, 0.360314652411902, -0.838, -1.524, 1.716], a = 0.2, v = 0.2, t = 0.2)
movej(p[-0.483386971444908, -0.171637998083813, 0.361808953140862, -0.838, -1.524, 1.716], a = 0.2, v = 0.2, t = 0.2)
movej(p[-0.483362291851566, -0.171611623407395, 0.362141541582469, -0.838, -1.524, 1.716], a = 0.2, v = 0.2, t = 0.2)
movej(p[-0.483526916261661, -0.171787554813013, 0.359923021396785, -0.838, -1.524, 1.716], a = 0.2, v = 0.2, t = 0.2)
movej(p[-0.483666740494081, -0.171936982675716, 0.358038714677666, -0.838, -1.524, 1.716], a = 0.2, v = 0.2, t = 0.2)
movej(p[-0.48376544546919, -0.172042467062889, 0.356708541469565, -0.838, -1.524, 1.716], a = 0.2, v = 0.2, t = 0.2)
movej(p[-0.483834191936855, -0.172115935284768, 0.35578209668461, -0.838, -1.524, 1.716], a = 0.2, v = 0.2, t = 0.2)
movej(p[-0.483893037091012, -0.17217882213538, 0.354989084504621, -0.838, -1.524, 1.716], a = 0.2, v = 0.2, t = 0.2)
movej(p[-0.483949135602046, -0.172238773693557, 0.354233086782031, -0.838, -1.524, 1.716], a = 0.2, v = 0.2, t = 0.2)
movej(p[-0.483981103848362, -0.172272937633804, 0.353802274609568, -0.838, -1.524, 1.716], a = 0.2, v = 0.2, t = 0.2)
movej(p[-0.484007498418874, -0.172301145078181, 0.353446574701877, -0.838, -1.524, 1.716], a = 0.2, v = 0.2, t = 0.2)
movej(p[-0.484024942952279, -0.17231978776477, 0.35321148775781, -0.838, -1.524, 1.716], a = 0.2, v = 0.2, t = 0.2)
movej(p[-0.4840408734824, -0.172336812460894, 0.352996803904894, -0.838, -1.524, 1.716], a = 0.2, v = 0.2, t = 0.2)
movej(p[-0.48403165548011, -0.172326961333112, 0.353121028035092, -0.838, -1.524, 1.716], a = 0.2, v = 0.2, t = 0.2)
movej(p[-0.48395907711033, -0.172249398020323, 0.354099112502078, -0.838, -1.524, 1.716], a = 0.2, v = 0.2, t = 0.2)
movej(p[-0.483888481682904, -0.172173953845488, 0.355050474336405, -0.838, -1.524, 1.716], a = 0.2, v = 0.2, t = 0.2)
movej(p[-0.483793702397724, -0.172072664778722, 0.356327743954174, -0.838, -1.524, 1.716], a = 0.2, v = 0.2, t = 0.2)
movej(p[-0.483723857272809, -0.171998022439869, 0.357268994522089, -0.838, -1.524, 1.716], a = 0.2, v = 0.2, t = 0.2)
movej(p[-0.48373369159502, -0.172008532218638, 0.357136464708767, -0.838, -1.524, 1.716], a = 0.2, v = 0.2, t = 0.2)
movej(p[-0.483856821596548, -0.172140119230734, 0.355477133667305, -0.838, -1.524, 1.716], a = 0.2, v = 0.2, t = 0.2)
movej(p[-0.483943642315797, -0.172232903108687, 0.354307115696829, -0.838, -1.524, 1.716], a = 0.2, v = 0.2, t = 0.2)
movej(p[-0.483998776152172, -0.172291823734887, 0.353564118173911, -0.838, -1.524, 1.716], a = 0.2, v = 0.2, t = 0.2)
movej(p[-0.484031896648774, -0.172327219066106, 0.353117777985174, -0.838, -1.524, 1.716], a = 0.2, v = 0.2, t = 0.2)
movej(p[-0.484046406963427, -0.172342726001264, 0.352922233315109, -0.838, -1.524, 1.716], a = 0.2, v = 0.2, t = 0.2)
movej(p[-0.484051243734977, -0.17234789497965, 0.35285705175842, -0.838, -1.524, 1.716], a = 0.2, v = 0.2, t = 0.2)
movej(p[-0.484049394775216, -0.172345919026693, 0.352881968807791, -0.838, -1.524, 1.716], a = 0.2, v = 0.2, t = 0.2)
movej(p[-0.484024741978392, -0.172319572987275, 0.353214196132741, -0.838, -1.524, 1.716], a = 0.2, v = 0.2, t = 0.2)
movej(p[-0.483943816493166, -0.172233089249183, 0.354304768438555, -0.838, -1.524, 1.716], a = 0.2, v = 0.2, t = 0.2)
movej(p[-0.483867433017789, -0.172151459482484, 0.355334131470914, -0.838, -1.524, 1.716], a = 0.2, v = 0.2, t = 0.2)
movej(p[-0.483797762070244, -0.172077003284127, 0.356273034780555, -0.838, -1.524, 1.716], a = 0.2, v = 0.2, t = 0.2)
movej(p[-0.483729819498128, -0.172004394172229, 0.357188646065784, -0.838, -1.524, 1.716], a = 0.2, v = 0.2, t = 0.2)
movej(p[-0.483697543091852, -0.17196990090649, 0.357623611079808, -0.838, -1.524, 1.716], a = 0.2, v = 0.2, t = 0.2)
movej(p[-0.483781121432388, -0.172059219707519, 0.356497288224896, -0.838, -1.524, 1.716], a = 0.2, v = 0.2, t = 0.2)
movej(p[-0.483902080915934, -0.172188487122667, 0.354867207632696, -0.838, -1.524, 1.716], a = 0.2, v = 0.2, t = 0.2)
movej(p[-0.483968549679544, -0.1722595211996, 0.353971457763633, -0.838, -1.524, 1.716], a = 0.2, v = 0.2, t = 0.2)
movej(p[-0.484010767594105, -0.172304638792104, 0.353402518469656, -0.838, -1.524, 1.716], a = 0.2, v = 0.2, t = 0.2)
movej(p[-0.484030998965412, -0.172326259726627, 0.353129875393202, -0.838, -1.524, 1.716], a = 0.2, v = 0.2, t = 0.2)
movej(p[-0.484050493432465, -0.172347093143667, 0.352867163024832, -0.838, -1.524, 1.716], a = 0.2, v = 0.2, t = 0.2)
movej(p[-0.484052958712148, -0.172349727747609, 0.352833940292337, -0.838, -1.524, 1.716], a = 0.2, v = 0.2, t = 0.2)
movej(p[-0.484048255923188, -0.17234470195422, 0.352897316265737, -0.838, -1.524, 1.716], a = 0.2, v = 0.2, t = 0.2)
movej(p[-0.484016984386348, -0.172311282575957, 0.353318739405103, -0.838, -1.524, 1.716], a = 0.2, v = 0.2, t = 0.2)
movej(p[-0.48394859967168, -0.17223820095357, 0.354240309115182, -0.838, -1.524, 1.716], a = 0.2, v = 0.2, t = 0.2)
movej(p[-0.483869737518362, -0.17215392226443, 0.355303075438364, -0.838, -1.524, 1.716], a = 0.2, v = 0.2, t = 0.2)
movej(p[-0.483806537929983, -0.17208638190142, 0.356154769075206, -0.838, -1.524, 1.716], a = 0.2, v = 0.2, t = 0.2)
movej(p[-0.4837587195431, -0.172035279176047, 0.356799181750611, -0.838, -1.524, 1.716], a = 0.2, v = 0.2, t = 0.2)
movej(p[-0.483745870612582, -0.17202154773485, 0.356972337187909, -0.838, -1.524, 1.716], a = 0.2, v = 0.2, t = 0.2)
movej(p[-0.483832249189279, -0.172113859102314, 0.355808277642282, -0.838, -1.524, 1.716], a = 0.2, v = 0.2, t = 0.2)
movej(p[-0.483918949324196, -0.172206514113769, 0.354639884696765, -0.838, -1.524, 1.716], a = 0.2, v = 0.2, t = 0.2)
movej(p[-0.48399097836535, -0.172283490368071, 0.35366920312126, -0.838, -1.524, 1.716], a = 0.2, v = 0.2, t = 0.2)
movej(p[-0.484019087913033, -0.172313530580408, 0.353290391747485, -0.838, -1.524, 1.716], a = 0.2, v = 0.2, t = 0.2)
movej(p[-0.484034214547606, -0.172329696166551, 0.353086541394296, -0.838, -1.524, 1.716], a = 0.2, v = 0.2, t = 0.2)
movej(p[-0.484047344841567, -0.172343728296242, 0.352909594232094, -0.838, -1.524, 1.716], a = 0.2, v = 0.2, t = 0.2)
movej(p[-0.484055236416202, -0.172352161892556, 0.352803245376444, -0.838, -1.524, 1.716], a = 0.2, v = 0.2, t = 0.2)
movej(p[-0.484055906329159, -0.17235287781754, 0.352794217460006, -0.838, -1.524, 1.716], a = 0.2, v = 0.2, t = 0.2)
movej(p[-0.484055973320455, -0.172352949410038, 0.352793314668362, -0.838, -1.524, 1.716], a = 0.2, v = 0.2, t = 0.2)
movej(p[-0.484064213249828, -0.172361755287344, 0.352682271296164, -0.838, -1.524, 1.716], a = 0.2, v = 0.2, t = 0.2)
movej(p[-0.484049850316026, -0.172346405855683, 0.352875829824613, -0.838, -1.524, 1.716], a = 0.2, v = 0.2, t = 0.2)
movej(p[-0.484004832165305, -0.172298295696744, 0.353482505809304, -0.838, -1.524, 1.716], a = 0.2, v = 0.2, t = 0.2)
movej(p[-0.483948050343055, -0.172237613895083, 0.354247712006662, -0.838, -1.524, 1.716], a = 0.2, v = 0.2, t = 0.2)
movej(p[-0.483886324563182, -0.172171648567038, 0.355079544227338, -0.838, -1.524, 1.716], a = 0.2, v = 0.2, t = 0.2)
movej(p[-0.483806149380468, -0.172085966664929, 0.35616000526674, -0.838, -1.524, 1.716], a = 0.2, v = 0.2, t = 0.2)
movej(p[-0.483730141056347, -0.172004737816221, 0.357184312665893, -0.838, -1.524, 1.716], a = 0.2, v = 0.2, t = 0.2)
movej(p[-0.483693845172328, -0.171965949000577, 0.35767344517855, -0.838, -1.524, 1.716], a = 0.2, v = 0.2, t = 0.2)
movej(p[-0.483775855916545, -0.172053592537143, 0.356568247648105, -0.838, -1.524, 1.716], a = 0.2, v = 0.2, t = 0.2)
movej(p[-0.483871050547758, -0.172155325477399, 0.355285380722144, -0.838, -1.524, 1.716], a = 0.2, v = 0.2, t = 0.2)
movej(p[-0.483949832311521, -0.172239518255541, 0.354223697748934, -0.838, -1.524, 1.716], a = 0.2, v = 0.2, t = 0.2)
movej(p[-0.484009293785599, -0.172303063757139, 0.353422379885821, -0.838, -1.524, 1.716], a = 0.2, v = 0.2, t = 0.2)
movej(p[-0.484033223076429, -0.172328636597575, 0.353099902710625, -0.838, -1.524, 1.716], a = 0.2, v = 0.2, t = 0.2)
movej(p[-0.484043472744674, -0.172339590249833, 0.352961775589111, -0.838, -1.524, 1.716], a = 0.2, v = 0.2, t = 0.2)
movej(p[-0.484048403304039, -0.172344859457717, 0.352895330124121, -0.838, -1.524, 1.716], a = 0.2, v = 0.2, t = 0.2)
movej(p[-0.484058679768802, -0.172355841746974, 0.352756841885949, -0.838, -1.524, 1.716], a = 0.2, v = 0.2, t = 0.2)
movej(p[-0.484057433730702, -0.172354510126504, 0.352773633810525, -0.838, -1.524, 1.716], a = 0.2, v = 0.2, t = 0.2)
movej(p[-0.484057326544628, -0.172354395578506, 0.352775078277155, -0.838, -1.524, 1.716], a = 0.2, v = 0.2, t = 0.2)
movej(p[-0.484040203569443, -0.17233609653591, 0.353005831821332, -0.838, -1.524, 1.716], a = 0.2, v = 0.2, t = 0.2)
movej(p[-0.483994971046575, -0.172287757280977, 0.353615396739284, -0.838, -1.524, 1.716], a = 0.2, v = 0.2, t = 0.2)
movej(p[-0.483924656982591, -0.172212613794635, 0.354562966848706, -0.838, -1.524, 1.716], a = 0.2, v = 0.2, t = 0.2)
movej(p[-0.483854182139497, -0.172137298486296, 0.355512703658074, -0.838, -1.524, 1.716], a = 0.2, v = 0.2, t = 0.2)
movej(p[-0.483801031245475, -0.17208049699805, 0.356228978548333, -0.838, -1.524, 1.716], a = 0.2, v = 0.2, t = 0.2)
movej(p[-0.483747505200197, -0.172023294591812, 0.356950309071798, -0.838, -1.524, 1.716], a = 0.2, v = 0.2, t = 0.2)
movej(p[-0.483726362747269, -0.17200069999931, 0.357235230114608, -0.838, -1.524, 1.716], a = 0.2, v = 0.2, t = 0.2)
movej(p[-0.483809592733068, -0.172089646519348, 0.356113601776245, -0.838, -1.524, 1.716], a = 0.2, v = 0.2, t = 0.2)
movej(p[-0.483920463327479, -0.172208132104233, 0.354619481605614, -0.838, -1.524, 1.716], a = 0.2, v = 0.2, t = 0.2)
movej(p[-0.483978343806978, -0.172269988022869, 0.353839469625296, -0.838, -1.524, 1.716], a = 0.2, v = 0.2, t = 0.2)
movej(p[-0.484009829715965, -0.172303636497126, 0.35341515755267, -0.838, -1.524, 1.716], a = 0.2, v = 0.2, t = 0.2)
movej(p[-0.484032713942582, -0.172328092494587, 0.353106763927119, -0.838, -1.524, 1.716], a = 0.2, v = 0.2, t = 0.2)
movej(p[-0.484048443498816, -0.172344902413216, 0.352894788449134, -0.838, -1.524, 1.716], a = 0.2, v = 0.2, t = 0.2)
movej(p[-0.484051940444453, -0.172348639541633, 0.352847662725324, -0.838, -1.524, 1.716], a = 0.2, v = 0.2, t = 0.2)
movej(p[-0.48405385639551, -0.172350687087088, 0.352821842884308, -0.838, -1.524, 1.716], a = 0.2, v = 0.2, t = 0.2)
movej(p[-0.484062511670917, -0.172359936837884, 0.352705202203918, -0.838, -1.524, 1.716], a = 0.2, v = 0.2, t = 0.2)
movej(p[-0.484059738231274, -0.172356972908449, 0.352742577777975, -0.838, -1.524, 1.716], a = 0.2, v = 0.2, t = 0.2)
movej(p[-0.484031039160189, -0.172326302682126, 0.353129333718216, -0.838, -1.524, 1.716], a = 0.2, v = 0.2, t = 0.2)
movej(p[-0.483975382791708, -0.172266823634438, 0.353879373015956, -0.838, -1.524, 1.716], a = 0.2, v = 0.2, t = 0.2)
movej(p[-0.483926438951057, -0.172214518155093, 0.354538952590979, -0.838, -1.524, 1.716], a = 0.2, v = 0.2, t = 0.2)
movej(p[-0.483854704671603, -0.172137856907784, 0.355505661883252, -0.838, -1.524, 1.716], a = 0.2, v = 0.2, t = 0.2)
movej(p[-0.483794519691531, -0.172073538207203, 0.356316729896119, -0.838, -1.524, 1.716], a = 0.2, v = 0.2, t = 0.2)
movej(p[-0.483753963161104, -0.17203019610866, 0.356863279957327, -0.838, -1.524, 1.716], a = 0.2, v = 0.2, t = 0.2)
movej(p[-0.483731011943192, -0.172005668518701, 0.357172576374522, -0.838, -1.524, 1.716], a = 0.2, v = 0.2, t = 0.2)
movej(p[-0.483814040955103, -0.172094400261243, 0.356053656411091, -0.838, -1.524, 1.716], a = 0.2, v = 0.2, t = 0.2)
movej(p[-0.48390636835886, -0.172193069042566, 0.354809428967487, -0.838, -1.524, 1.716], a = 0.2, v = 0.2, t = 0.2)
movej(p[-0.483985016140032, -0.172277118635711, 0.353749551577565, -0.838, -1.524, 1.716], a = 0.2, v = 0.2, t = 0.2)
movej(p[-0.484016863802015, -0.17231115370946, 0.353320364430062, -0.838, -1.524, 1.716], a = 0.2, v = 0.2, t = 0.2)
movej(p[-0.484035527577002, -0.17233109937952, 0.353068846678076, -0.838, -1.524, 1.716], a = 0.2, v = 0.2, t = 0.2)
movej(p[-0.484047800382377, -0.172344215125231, 0.352903455248916, -0.838, -1.524, 1.716], a = 0.2, v = 0.2, t = 0.2)
movej(p[-0.48405760790807, -0.172354696267, 0.352771286552251, -0.838, -1.524, 1.716], a = 0.2, v = 0.2, t = 0.2)
movej(p[-0.484056495852562, -0.172353507831526, 0.352786272893539, -0.838, -1.524, 1.716], a = 0.2, v = 0.2, t = 0.2)
movej(p[-0.484023013602962, -0.172317725900815, 0.353237488157153, -0.838, -1.524, 1.716], a = 0.2, v = 0.2, t = 0.2)
movej(p[-0.483970626409712, -0.172261740567051, 0.353943471222672, -0.838, -1.524, 1.716], a = 0.2, v = 0.2, t = 0.2)
movej(p[-0.483895435379399, -0.172181385146824, 0.354956764563769, -0.838, -1.524, 1.716], a = 0.2, v = 0.2, t = 0.2)
movej(p[-0.483819507444834, -0.172100242209114, 0.355979988612949, -0.838, -1.524, 1.716], a = 0.2, v = 0.2, t = 0.2)
movej(p[-0.483758866923951, -0.172035436679544, 0.356797195608995, -0.838, -1.524, 1.716], a = 0.2, v = 0.2, t = 0.2)
movej(p[-0.483732592937771, -0.172007358101663, 0.357151270491727, -0.838, -1.524, 1.716], a = 0.2, v = 0.2, t = 0.2)
movej(p[-0.483802464859203, -0.172082029077516, 0.356209658807154, -0.838, -1.524, 1.716], a = 0.2, v = 0.2, t = 0.2)
movej(p[-0.483901652171642, -0.172188028930677, 0.354872985499217, -0.838, -1.524, 1.716], a = 0.2, v = 0.2, t = 0.2)
movej(p[-0.483981693371764, -0.17227356764779, 0.353794330043102, -0.838, -1.524, 1.716], a = 0.2, v = 0.2, t = 0.2)
movej(p[-0.484018578779186, -0.17231298647742, 0.353297252963979, -0.838, -1.524, 1.716], a = 0.2, v = 0.2, t = 0.2)
movej(p[-0.484036452056883, -0.172332087355998, 0.35305638815339, -0.838, -1.524, 1.716], a = 0.2, v = 0.2, t = 0.2)
movej(p[-0.484045629864396, -0.172341895528282, 0.352932705698178, -0.838, -1.524, 1.716], a = 0.2, v = 0.2, t = 0.2)
movej(p[-0.484058224227991, -0.172355354917985, 0.352762980869127, -0.838, -1.524, 1.716], a = 0.2, v = 0.2, t = 0.2)
movej(p[-0.484058880742689, -0.17235605652447, 0.352754133511017, -0.838, -1.524, 1.716], a = 0.2, v = 0.2, t = 0.2)
movej(p[-0.484050587220279, -0.172347193373165, 0.35286589911653, -0.838, -1.524, 1.716], a = 0.2, v = 0.2, t = 0.2)
movej(p[-0.484012308393907, -0.172306285419568, 0.353381754261846, -0.838, -1.524, 1.716], a = 0.2, v = 0.2, t = 0.2)
movej(p[-0.483941123443078, -0.172230211230746, 0.354341060662639, -0.838, -1.524, 1.716], a = 0.2, v = 0.2, t = 0.2)
movej(p[-0.48386085447255, -0.172144429099139, 0.355422785610343, -0.838, -1.524, 1.716], a = 0.2, v = 0.2, t = 0.2)
movej(p[-0.483794157938534, -0.172073151607712, 0.356321604970996, -0.838, -1.524, 1.716], a = 0.2, v = 0.2, t = 0.2)
movej(p[-0.483748148316636, -0.172023981879797, 0.356941642272016, -0.838, -1.524, 1.716], a = 0.2, v = 0.2, t = 0.2)
movej(p[-0.483726054587309, -0.172000370673818, 0.35723938295617, -0.838, -1.524, 1.716], a = 0.2, v = 0.2, t = 0.2)
movej(p[-0.483809030006184, -0.172089045142361, 0.356121185226053, -0.838, -1.524, 1.716], a = 0.2, v = 0.2, t = 0.2)
movej(p[-0.48392028915011, -0.172207945963738, 0.354621828863888, -0.838, -1.524, 1.716], a = 0.2, v = 0.2, t = 0.2)
movej(p[-0.483988030748339, -0.17228034029814, 0.353708925953591, -0.838, -1.524, 1.716], a = 0.2, v = 0.2, t = 0.2)
movej(p[-0.484021754166603, -0.172316379961845, 0.353254460640059, -0.838, -1.524, 1.716], a = 0.2, v = 0.2, t = 0.2)
movej(p[-0.484040243764221, -0.172336139491409, 0.353005290146346, -0.838, -1.524, 1.716], a = 0.2, v = 0.2, t = 0.2)
movej(p[-0.48405729974811, -0.172354366941507, 0.352775439393813, -0.838, -1.524, 1.716], a = 0.2, v = 0.2, t = 0.2)
movej(p[-0.484058358210582, -0.172355498102982, 0.352761175285839, -0.838, -1.524, 1.716], a = 0.2, v = 0.2, t = 0.2)
movej(p[-0.484058679768802, -0.172355841746974, 0.352756841885949, -0.838, -1.524, 1.716], a = 0.2, v = 0.2, t = 0.2)
movej(p[-0.484060408144231, -0.172357688833434, 0.352733549861536, -0.838, -1.524, 1.716], a = 0.2, v = 0.2, t = 0.2)
movej(p[-0.48406559327052, -0.172363230092811, 0.3526636737883, -0.838, -1.524, 1.716], a = 0.2, v = 0.2, t = 0.2)
movej(p[-0.484037550714133, -0.172333261472973, 0.35304158237043, -0.838, -1.524, 1.716], a = 0.2, v = 0.2, t = 0.2)
movej(p[-0.483980782290142, -0.172272593989811, 0.353806608009459, -0.838, -1.524, 1.716], a = 0.2, v = 0.2, t = 0.2)
movej(p[-0.483932669141559, -0.172221176257446, 0.354454992968098, -0.838, -1.524, 1.716], a = 0.2, v = 0.2, t = 0.2)
movej(p[-0.483871867841566, -0.172156198905879, 0.355274366664088, -0.838, -1.524, 1.716], a = 0.2, v = 0.2, t = 0.2)
movej(p[-0.483806779098647, -0.172086639634414, 0.356151519025288, -0.838, -1.524, 1.716], a = 0.2, v = 0.2, t = 0.2)
movej(p[-0.483758786534396, -0.172035350768546, 0.356798278958967, -0.838, -1.524, 1.716], a = 0.2, v = 0.2, t = 0.2)
movej(p[-0.483770389426814, -0.172047750589272, 0.356641915446246, -0.838, -1.524, 1.716], a = 0.2, v = 0.2, t = 0.2)
movej(p[-0.483851194327708, -0.172134105460867, 0.355552968165392, -0.838, -1.524, 1.716], a = 0.2, v = 0.2, t = 0.2)
movej(p[-0.483936045502863, -0.172224784519366, 0.354409492269246, -0.838, -1.524, 1.716], a = 0.2, v = 0.2, t = 0.2)
movej(p[-0.484002661647323, -0.172295976099795, 0.353511756258566, -0.838, -1.524, 1.716], a = 0.2, v = 0.2, t = 0.2)
movej(p[-0.484028104941437, -0.172323166930695, 0.353168875992218, -0.838, -1.524, 1.716], a = 0.2, v = 0.2, t = 0.2)
movej(p[-0.484043365558601, -0.172339475701835, 0.352963220055741, -0.838, -1.524, 1.716], a = 0.2, v = 0.2, t = 0.2)
movej(p[-0.484050841787203, -0.172347465424659, 0.352862468508283, -0.838, -1.524, 1.716], a = 0.2, v = 0.2, t = 0.2)
movej(p[-0.484063677319462, -0.172361182547356, 0.352689493629315, -0.838, -1.524, 1.716], a = 0.2, v = 0.2, t = 0.2)
movej(p[-0.484064400825456, -0.172361955746339, 0.352679743479561, -0.838, -1.524, 1.716], a = 0.2, v = 0.2, t = 0.2)
movej(p[-0.484063154787356, -0.172360624125869, 0.352696535404137, -0.838, -1.524, 1.716], a = 0.2, v = 0.2, t = 0.2)
movej(p[-0.484061828359701, -0.1723592065944, 0.352714410678686, -0.838, -1.524, 1.716], a = 0.2, v = 0.2, t = 0.2)
movej(p[-0.484012120818279, -0.172306084960572, 0.353384282078449, -0.838, -1.524, 1.716], a = 0.2, v = 0.2, t = 0.2)
movej(p[-0.483954963844773, -0.17224500224092, 0.354154543909013, -0.838, -1.524, 1.716], a = 0.2, v = 0.2, t = 0.2)
movej(p[-0.483895287998549, -0.172181227643327, 0.354958750705386, -0.838, -1.524, 1.716], a = 0.2, v = 0.2, t = 0.2)
movej(p[-0.483847844762922, -0.172130525835946, 0.355598107747586, -0.838, -1.524, 1.716], a = 0.2, v = 0.2, t = 0.2)
movej(p[-0.483789414954798, -0.172068082858824, 0.356385522619383, -0.838, -1.524, 1.716], a = 0.2, v = 0.2, t = 0.2)
movej(p[-0.483747424810642, -0.172023208680814, 0.35695139242177, -0.838, -1.524, 1.716], a = 0.2, v = 0.2, t = 0.2)
movej(p[-0.483818355194547, -0.172099010818141, 0.355995516629224, -0.838, -1.524, 1.716], a = 0.2, v = 0.2, t = 0.2)
movej(p[-0.483906395155378, -0.172193097679565, 0.35480906785083, -0.838, -1.524, 1.716], a = 0.2, v = 0.2, t = 0.2)
movej(p[-0.483969594743758, -0.172260638042575, 0.353957374213988, -0.838, -1.524, 1.716], a = 0.2, v = 0.2, t = 0.2)
movej(p[-0.484010955169733, -0.1723048392511, 0.353399990653053, -0.838, -1.524, 1.716], a = 0.2, v = 0.2, t = 0.2)
movej(p[-0.484043459346415, -0.172339575931333, 0.35296195614744, -0.838, -1.524, 1.716], a = 0.2, v = 0.2, t = 0.2)
movej(p[-0.484051806461861, -0.172348496356636, 0.352849468308611, -0.838, -1.524, 1.716], a = 0.2, v = 0.2, t = 0.2)
movej(p[-0.484055531177903, -0.172352476899549, 0.352799273093211, -0.838, -1.524, 1.716], a = 0.2, v = 0.2, t = 0.2)
movej(p[-0.484060488533786, -0.172357774744432, 0.352732466511564, -0.838, -1.524, 1.716], a = 0.2, v = 0.2, t = 0.2)
movej(p[-0.484047036681606, -0.172343398970749, 0.352913747073656, -0.838, -1.524, 1.716], a = 0.2, v = 0.2, t = 0.2)
movej(p[-0.483987816376193, -0.172280111202145, 0.353711814886851, -0.838, -1.524, 1.716], a = 0.2, v = 0.2, t = 0.2)
movej(p[-0.483926814102313, -0.172214919073084, 0.354533896957773, -0.838, -1.524, 1.716], a = 0.2, v = 0.2, t = 0.2)
movej(p[-0.483872135806749, -0.172156485275873, 0.355270755497513, -0.838, -1.524, 1.716], a = 0.2, v = 0.2, t = 0.2)
movej(p[-0.483798525771015, -0.172077819438609, 0.356262742955814, -0.838, -1.524, 1.716], a = 0.2, v = 0.2, t = 0.2)
movej(p[-0.483732807309917, -0.172007587197658, 0.357148381558466, -0.838, -1.524, 1.716], a = 0.2, v = 0.2, t = 0.2)
movej(p[-0.48371711794846, -0.171990820234528, 0.357359815361464, -0.838, -1.524, 1.716], a = 0.2, v = 0.2, t = 0.2)
movej(p[-0.483819601232648, -0.172100342438612, 0.355978724704648, -0.838, -1.524, 1.716], a = 0.2, v = 0.2, t = 0.2)
movej(p[-0.483903541326181, -0.172190047839132, 0.354847526774859, -0.838, -1.524, 1.716], a = 0.2, v = 0.2, t = 0.2)
movej(p[-0.483972354785141, -0.17226358765351, 0.35392017919826, -0.838, -1.524, 1.716], a = 0.2, v = 0.2, t = 0.2)
movej(p[-0.484024165853249, -0.172318957291788, 0.353221960140879, -0.838, -1.524, 1.716], a = 0.2, v = 0.2, t = 0.2)
movej(p[-0.48404368711682, -0.172339819345828, 0.35295888665585, -0.838, -1.524, 1.716], a = 0.2, v = 0.2, t = 0.2)
movej(p[-0.484052985508666, -0.172349756384609, 0.352833579175679, -0.838, -1.524, 1.716], a = 0.2, v = 0.2, t = 0.2)
movej(p[-0.484056964791632, -0.172354008979015, 0.352779953352032, -0.838, -1.524, 1.716], a = 0.2, v = 0.2, t = 0.2)
movej(p[-0.484067897771093, -0.172365692874757, 0.35263261775575, -0.838, -1.524, 1.716], a = 0.2, v = 0.2, t = 0.2)
movej(p[-0.48406762980591, -0.172365406504763, 0.352636228922326, -0.838, -1.524, 1.716], a = 0.2, v = 0.2, t = 0.2)
movej(p[-0.484055772346568, -0.172352734632543, 0.352796023043293, -0.838, -1.524, 1.716], a = 0.2, v = 0.2, t = 0.2)
movej(p[-0.48401632787165, -0.172310580969473, 0.353327586763213, -0.838, -1.524, 1.716], a = 0.2, v = 0.2, t = 0.2)
movej(p[-0.483956986981904, -0.172247164334372, 0.354127279601367, -0.838, -1.524, 1.716], a = 0.2, v = 0.2, t = 0.2)
movej(p[-0.483881219826448, -0.172166193218659, 0.355148336950602, -0.838, -1.524, 1.716], a = 0.2, v = 0.2, t = 0.2)
movej(p[-0.483811656064976, -0.172091851568299, 0.356085795793613, -0.838, -1.524, 1.716], a = 0.2, v = 0.2, t = 0.2)
movej(p[-0.48375825060403, -0.172034778028558, 0.356805501292119, -0.838, -1.524, 1.716], a = 0.2, v = 0.2, t = 0.2)
movej(p[-0.483709842693745, -0.1719830452892, 0.35745785853399, -0.838, -1.524, 1.716], a = 0.2, v = 0.2, t = 0.2)
movej(p[-0.483766155576925, -0.172043225943372, 0.35669897187814, -0.838, -1.524, 1.716], a = 0.2, v = 0.2, t = 0.2)
movej(p[-0.483882800821027, -0.172167882801622, 0.355127031067806, -0.838, -1.524, 1.716], a = 0.2, v = 0.2, t = 0.2)
movej(p[-0.48397565075689, -0.172267110004432, 0.353875761849381, -0.838, -1.524, 1.716], a = 0.2, v = 0.2, t = 0.2)
movej(p[-0.484017520316713, -0.172311855315945, 0.353311517071952, -0.838, -1.524, 1.716], a = 0.2, v = 0.2, t = 0.2)
movej(p[-0.484038769955715, -0.172334564456444, 0.353025151562512, -0.838, -1.524, 1.716], a = 0.2, v = 0.2, t = 0.2)
movej(p[-0.484058492193174, -0.172355641287979, 0.352759369702552, -0.838, -1.524, 1.716], a = 0.2, v = 0.2, t = 0.2)
movej(p[-0.484062069528365, -0.172359464327394, 0.352711160628768, -0.838, -1.524, 1.716], a = 0.2, v = 0.2, t = 0.2)
movej(p[-0.484060327754677, -0.172357602922435, 0.352734633211509, -0.838, -1.524, 1.716], a = 0.2, v = 0.2, t = 0.2)
movej(p[-0.484020508128502, -0.172315048341374, 0.353271252564635, -0.838, -1.524, 1.716], a = 0.2, v = 0.2, t = 0.2)
movej(p[-0.483965561867755, -0.17225632817417, 0.35401172227095, -0.838, -1.524, 1.716], a = 0.2, v = 0.2, t = 0.2)
movej(p[-0.483890089474001, -0.17217567206545, 0.355028807336951, -0.838, -1.524, 1.716], a = 0.2, v = 0.2, t = 0.2)
movej(p[-0.483811227320683, -0.172091393376309, 0.356091573660134, -0.838, -1.524, 1.716], a = 0.2, v = 0.2, t = 0.2)
movej(p[-0.483754860844467, -0.172031155448138, 0.356851182549299, -0.838, -1.524, 1.716], a = 0.2, v = 0.2, t = 0.2)
movej(p[-0.483705555250819, -0.171978463369301, 0.357515637199199, -0.838, -1.524, 1.716], a = 0.2, v = 0.2, t = 0.2)
movej(p[-0.483744745158814, -0.172020344980877, 0.356987504087526, -0.838, -1.524, 1.716], a = 0.2, v = 0.2, t = 0.2)
movej(p[-0.483849264978391, -0.172132043596912, 0.355578968564735, -0.838, -1.524, 1.716], a = 0.2, v = 0.2, t = 0.2)
movej(p[-0.483953878585782, -0.172243842442446, 0.354169169133643, -0.838, -1.524, 1.716], a = 0.2, v = 0.2, t = 0.2)
movej(p[-0.48400349233939, -0.172296863846776, 0.353500561642182, -0.838, -1.524, 1.716], a = 0.2, v = 0.2, t = 0.2)
movej(p[-0.484032847925173, -0.172328235679583, 0.353104958343831, -0.838, -1.524, 1.716], a = 0.2, v = 0.2, t = 0.2)
movej(p[-0.484050024493395, -0.172346591996178, 0.352873482566339, -0.838, -1.524, 1.716], a = 0.2, v = 0.2, t = 0.2)
movej(p[-0.484062216909216, -0.172359621830891, 0.352709174487152, -0.838, -1.524, 1.716], a = 0.2, v = 0.2, t = 0.2)
movej(p[-0.484062726043063, -0.172360165933879, 0.352702313270658, -0.838, -1.524, 1.716], a = 0.2, v = 0.2, t = 0.2)
movej(p[-0.484045978219134, -0.172342267809274, 0.352928011181629, -0.838, -1.524, 1.716], a = 0.2, v = 0.2, t = 0.2)
movej(p[-0.483993510636329, -0.172286196564511, 0.353635077597121, -0.838, -1.524, 1.716], a = 0.2, v = 0.2, t = 0.2)
movej(p[-0.483912571752843, -0.17219969850792, 0.354725830461263, -0.838, -1.524, 1.716], a = 0.2, v = 0.2, t = 0.2)
movej(p[-0.483832222392761, -0.172113830465314, 0.35580863875894, -0.838, -1.524, 1.716], a = 0.2, v = 0.2, t = 0.2)
movej(p[-0.483765123910971, -0.172042123418896, 0.356712874869456, -0.838, -1.524, 1.716], a = 0.2, v = 0.2, t = 0.2)
movej(p[-0.483711919423912, -0.171985264656651, 0.35742987199303, -0.838, -1.524, 1.716], a = 0.2, v = 0.2, t = 0.2)
movej(p[-0.48371195961869, -0.17198530761215, 0.357429330318044, -0.838, -1.524, 1.716], a = 0.2, v = 0.2, t = 0.2)
movej(p[-0.483812312579674, -0.172092553174784, 0.356076948435503, -0.838, -1.524, 1.716], a = 0.2, v = 0.2, t = 0.2)
movej(p[-0.483920851876994, -0.172208547340724, 0.354614245414079, -0.838, -1.524, 1.716], a = 0.2, v = 0.2, t = 0.2)
movej(p[-0.483984694581812, -0.172276774991719, 0.353753884977456, -0.838, -1.524, 1.716], a = 0.2, v = 0.2, t = 0.2)
movej(p[-0.484024983147056, -0.172319830720269, 0.353210946082823, -0.838, -1.524, 1.716], a = 0.2, v = 0.2, t = 0.2)
movej(p[-0.484043566532488, -0.172339690479331, 0.352960511680809, -0.838, -1.524, 1.716], a = 0.2, v = 0.2, t = 0.2)
movej(p[-0.484062190112697, -0.172359593193892, 0.352709535603809, -0.838, -1.524, 1.716], a = 0.2, v = 0.2, t = 0.2)
movej(p[-0.484064628595862, -0.172362199160834, 0.352676673987972, -0.838, -1.524, 1.716], a = 0.2, v = 0.2, t = 0.2)
movej(p[-0.48406512433145, -0.172362728945322, 0.352669993329807, -0.838, -1.524, 1.716], a = 0.2, v = 0.2, t = 0.2)
movej(p[-0.48407152869932, -0.172369573188171, 0.352583686448651, -0.838, -1.524, 1.716], a = 0.2, v = 0.2, t = 0.2)
movej(p[-0.484042682247385, -0.172338745458352, 0.352972428530509, -0.838, -1.524, 1.716], a = 0.2, v = 0.2, t = 0.2)
movej(p[-0.483982792029014, -0.172274741764764, 0.353779524260142, -0.838, -1.524, 1.716], a = 0.2, v = 0.2, t = 0.2)
movej(p[-0.483919860405817, -0.172207487771748, 0.354627606730409, -0.838, -1.524, 1.716], a = 0.2, v = 0.2, t = 0.2)
movej(p[-0.483863815487821, -0.172147593487569, 0.355382882219683, -0.838, -1.524, 1.716], a = 0.2, v = 0.2, t = 0.2)
movej(p[-0.483788704847063, -0.17206732397834, 0.356395092210808, -0.838, -1.524, 1.716], a = 0.2, v = 0.2, t = 0.2)
movej(p[-0.483728077724439, -0.17200253276727, 0.357212118648525, -0.838, -1.524, 1.716], a = 0.2, v = 0.2, t = 0.2)
movej(p[-0.483741489381842, -0.172016865585454, 0.357031379761419, -0.838, -1.524, 1.716], a = 0.2, v = 0.2, t = 0.2)
movej(p[-0.483814952036725, -0.172095373919221, 0.356041378444734, -0.838, -1.524, 1.716], a = 0.2, v = 0.2, t = 0.2)
movej(p[-0.483896453647094, -0.1721824733528, 0.354943042130782, -0.838, -1.524, 1.716], a = 0.2, v = 0.2, t = 0.2)
movej(p[-0.483967598403145, -0.172258504586122, 0.353984277404976, -0.838, -1.524, 1.716], a = 0.2, v = 0.2, t = 0.2)
movej(p[-0.484022531265633, -0.172317210434827, 0.353243988256989, -0.838, -1.524, 1.716], a = 0.2, v = 0.2, t = 0.2)
movej(p[-0.484039922206001, -0.172335795847417, 0.353009623546237, -0.838, -1.524, 1.716], a = 0.2, v = 0.2, t = 0.2)
movej(p[-0.48405088198198, -0.172347508380158, 0.352861926833297, -0.838, -1.524, 1.716], a = 0.2, v = 0.2, t = 0.2)
movej(p[-0.484059537257387, -0.172356758130954, 0.352745286152907, -0.838, -1.524, 1.716], a = 0.2, v = 0.2, t = 0.2)
movej(p[-0.484068112143239, -0.172365921970752, 0.35262972882249, -0.838, -1.524, 1.716], a = 0.2, v = 0.2, t = 0.2)
movej(p[-0.484067964762388, -0.172365764467255, 0.352631714964106, -0.838, -1.524, 1.716], a = 0.2, v = 0.2, t = 0.2)
movej(p[-0.484044799172329, -0.172341007781302, 0.352943900314562, -0.838, -1.524, 1.716], a = 0.2, v = 0.2, t = 0.2)
movej(p[-0.484000973466671, -0.172294171968835, 0.353534506607992, -0.838, -1.524, 1.716], a = 0.2, v = 0.2, t = 0.2)
movej(p[-0.483934705676948, -0.172223352669398, 0.354427548102124, -0.838, -1.524, 1.716], a = 0.2, v = 0.2, t = 0.2)
movej(p[-0.483861658368099, -0.17214528820912, 0.355411952110617, -0.838, -1.524, 1.716], a = 0.2, v = 0.2, t = 0.2)
movej(p[-0.4838015805741, -0.172081084056537, 0.356221575656853, -0.838, -1.524, 1.716], a = 0.2, v = 0.2, t = 0.2)
movej(p[-0.483755262792241, -0.172031585003129, 0.356845765799436, -0.838, -1.524, 1.716], a = 0.2, v = 0.2, t = 0.2)
movej(p[-0.483739184881269, -0.172014402803508, 0.357062435793968, -0.838, -1.524, 1.716], a = 0.2, v = 0.2, t = 0.2)
movej(p[-0.483813572016033, -0.172093899113754, 0.356059975952598, -0.838, -1.524, 1.716], a = 0.2, v = 0.2, t = 0.2)
movej(p[-0.48392342434275, -0.172211296492664, 0.354579578214954, -0.838, -1.524, 1.716], a = 0.2, v = 0.2, t = 0.2)
movej(p[-0.48398285902031, -0.172274813357262, 0.353778621468499, -0.838, -1.524, 1.716], a = 0.2, v = 0.2, t = 0.2)
movej(p[-0.484020173172024, -0.172314690378882, 0.353275766522854, -0.838, -1.524, 1.716], a = 0.2, v = 0.2, t = 0.2)
movej(p[-0.484041757767504, -0.172337757481873, 0.352984887055194, -0.838, -1.524, 1.716], a = 0.2, v = 0.2, t = 0.2)
movej(p[-0.484062484874399, -0.172359908200885, 0.352705563320576, -0.838, -1.524, 1.716], a = 0.2, v = 0.2, t = 0.2)
movej(p[-0.484065660261816, -0.17236330168531, 0.352662770996656, -0.838, -1.524, 1.716], a = 0.2, v = 0.2, t = 0.2)
movej(p[-0.484066115802626, -0.172363788514299, 0.352656632013477, -0.838, -1.524, 1.716], a = 0.2, v = 0.2, t = 0.2)
movej(p[-0.484071341123692, -0.172369372729176, 0.352586214265254, -0.838, -1.524, 1.716], a = 0.2, v = 0.2, t = 0.2)
movej(p[-0.484037671298465, -0.17233339033947, 0.353039957345471, -0.838, -1.524, 1.716], a = 0.2, v = 0.2, t = 0.2)
movej(p[-0.483969541150721, -0.172260580768576, 0.353958096447303, -0.838, -1.524, 1.716], a = 0.2, v = 0.2, t = 0.2)
movej(p[-0.483894738669924, -0.17218064058484, 0.354966153596866, -0.838, -1.524, 1.716], a = 0.2, v = 0.2, t = 0.2)
movej(p[-0.483819668223943, -0.17210041403111, 0.355977821913004, -0.838, -1.524, 1.716], a = 0.2, v = 0.2, t = 0.2)
movej(p[-0.483739359058638, -0.172014588944004, 0.357060088535694, -0.838, -1.524, 1.716], a = 0.2, v = 0.2, t = 0.2)
movej(p[-0.483682295872946, -0.171953606453849, 0.357829086457956, -0.838, -1.524, 1.716], a = 0.2, v = 0.2, t = 0.2)
movej(p[-0.483722316473008, -0.171996375812406, 0.357289758729899, -0.838, -1.524, 1.716], a = 0.2, v = 0.2, t = 0.2)
movej(p[-0.48384302138963, -0.17212537117606, 0.355663108745946, -0.838, -1.524, 1.716], a = 0.2, v = 0.2, t = 0.2)
movej(p[-0.483940145370161, -0.172229165980269, 0.35435424142064, -0.838, -1.524, 1.716], a = 0.2, v = 0.2, t = 0.2)
movej(p[-0.483998668966099, -0.172291709186889, 0.353565562640542, -0.838, -1.524, 1.716], a = 0.2, v = 0.2, t = 0.2)
movej(p[-0.484044062268076, -0.172340220263819, 0.352953831022645, -0.838, -1.524, 1.716], a = 0.2, v = 0.2, t = 0.2)
movej(p[-0.484054043971138, -0.172350887546084, 0.352819315067706, -0.838, -1.524, 1.716], a = 0.2, v = 0.2, t = 0.2)
movej(p[-0.48406027416164, -0.172357545648437, 0.352735355444824, -0.838, -1.524, 1.716], a = 0.2, v = 0.2, t = 0.2)
movej(p[-0.484066075607849, -0.1723637455588, 0.352657173688464, -0.838, -1.524, 1.716], a = 0.2, v = 0.2, t = 0.2)
movej(p[-0.484072881923494, -0.172371019356639, 0.352565450057445, -0.838, -1.524, 1.716], a = 0.2, v = 0.2, t = 0.2)
movej(p[-0.484048577481408, -0.172345045598213, 0.352892982865847, -0.838, -1.524, 1.716], a = 0.2, v = 0.2, t = 0.2)
movej(p[-0.483984466811407, -0.172276531577224, 0.353756954469045, -0.838, -1.524, 1.716], a = 0.2, v = 0.2, t = 0.2)
movej(p[-0.483922741031533, -0.17221056624918, 0.354588786689722, -0.838, -1.524, 1.716], a = 0.2, v = 0.2, t = 0.2)
movej(p[-0.483839028708406, -0.172121104263154, 0.355716915127921, -0.838, -1.524, 1.716], a = 0.2, v = 0.2, t = 0.2)
movej(p[-0.483757513699777, -0.172033990511076, 0.356815432000201, -0.838, -1.524, 1.716], a = 0.2, v = 0.2, t = 0.2)
movej(p[-0.483710405420629, -0.171983646666187, 0.357450275084182, -0.838, -1.524, 1.716], a = 0.2, v = 0.2, t = 0.2)
movej(p[-0.483711812237839, -0.171985150108653, 0.35743131645966, -0.838, -1.524, 1.716], a = 0.2, v = 0.2, t = 0.2)
movej(p[-0.483795497764449, -0.17207458345768, 0.356303549138118, -0.838, -1.524, 1.716], a = 0.2, v = 0.2, t = 0.2)
movej(p[-0.483899669229288, -0.172185909792724, 0.354899708131876, -0.838, -1.524, 1.716], a = 0.2, v = 0.2, t = 0.2)
movej(p[-0.483986114797281, -0.172278292752685, 0.353734745794606, -0.838, -1.524, 1.716], a = 0.2, v = 0.2, t = 0.2)
movej(p[-0.484023589728105, -0.172318341596302, 0.353229724149016, -0.838, -1.524, 1.716], a = 0.2, v = 0.2, t = 0.2)
movej(p[-0.484042213308315, -0.172338244310863, 0.352978748072016, -0.838, -1.524, 1.716], a = 0.2, v = 0.2, t = 0.2)
movej(p[-0.484056160896083, -0.172353149869034, 0.352790786851759, -0.838, -1.524, 1.716], a = 0.2, v = 0.2, t = 0.2)
movej(p[-0.484067736991983, -0.172365521052761, 0.352634784455695, -0.838, -1.524, 1.716], a = 0.2, v = 0.2, t = 0.2)
movej(p[-0.484067710195465, -0.172365492415761, 0.352635145572353, -0.838, -1.524, 1.716], a = 0.2, v = 0.2, t = 0.2)
movej(p[-0.484042119520501, -0.172338144081365, 0.352980011980317, -0.838, -1.524, 1.716], a = 0.2, v = 0.2, t = 0.2)
movej(p[-0.483990603214094, -0.17228308945008, 0.353674258754465, -0.838, -1.524, 1.716], a = 0.2, v = 0.2, t = 0.2)
movej(p[-0.483906261172787, -0.172192954494568, 0.354810873434117, -0.838, -1.524, 1.716], a = 0.2, v = 0.2, t = 0.2)
movej(p[-0.483819601232648, -0.172100342438612, 0.355978724704648, -0.838, -1.524, 1.716], a = 0.2, v = 0.2, t = 0.2)
movej(p[-0.483751122730166, -0.172027160586726, 0.356901558323028, -0.838, -1.524, 1.716], a = 0.2, v = 0.2, t = 0.2)
movej(p[-0.483696390841565, -0.171968669515517, 0.357639139096083, -0.838, -1.524, 1.716], a = 0.2, v = 0.2, t = 0.2)
movej(p[-0.483699432246391, -0.171971919814945, 0.35759815235545, -0.838, -1.524, 1.716], a = 0.2, v = 0.2, t = 0.2)
movej(p[-0.483800401527295, -0.172079824028565, 0.356237464789786, -0.838, -1.524, 1.716], a = 0.2, v = 0.2, t = 0.2)
movej(p[-0.483918386597312, -0.172205912736782, 0.354647468146574, -0.838, -1.524, 1.716], a = 0.2, v = 0.2, t = 0.2)
movej(p[-0.483978504586088, -0.172270159844865, 0.353837302925351, -0.838, -1.524, 1.716], a = 0.2, v = 0.2, t = 0.2)
movej(p[-0.48401881994785, -0.172313244210414, 0.353294002914061, -0.838, -1.524, 1.716], a = 0.2, v = 0.2, t = 0.2)
movej(p[-0.484042561663052, -0.172338616591854, 0.352974053555468, -0.838, -1.524, 1.716], a = 0.2, v = 0.2, t = 0.2)
movej(p[-0.484062484874399, -0.172359908200885, 0.352705563320576, -0.838, -1.524, 1.716], a = 0.2, v = 0.2, t = 0.2)
movej(p[-0.484065204721005, -0.17236281485632, 0.352668909979834, -0.838, -1.524, 1.716], a = 0.2, v = 0.2, t = 0.2)
movej(p[-0.484066075607849, -0.1723637455588, 0.352657173688464, -0.838, -1.524, 1.716], a = 0.2, v = 0.2, t = 0.2)
movej(p[-0.484051766267084, -0.172348453401137, 0.352850009983598, -0.838, -1.524, 1.716], a = 0.2, v = 0.2, t = 0.2)
movej(p[-0.483977633699244, -0.172269229142385, 0.353849039216722, -0.838, -1.524, 1.716], a = 0.2, v = 0.2, t = 0.2)
movej(p[-0.483890451226998, -0.172176058664941, 0.355023932262075, -0.838, -1.524, 1.716], a = 0.2, v = 0.2, t = 0.2)
movej(p[-0.483811227320683, -0.172091393376309, 0.356091573660134, -0.838, -1.524, 1.716], a = 0.2, v = 0.2, t = 0.2)
movej(p[-0.483747103252423, -0.172022865036821, 0.356955725821661, -0.838, -1.524, 1.716], a = 0.2, v = 0.2, t = 0.2)
movej(p[-0.483680098558447, -0.171951258219901, 0.357858698023876, -0.838, -1.524, 1.716], a = 0.2, v = 0.2, t = 0.2)
movej(p[-0.483686007190729, -0.171957572678262, 0.357779071800885, -0.838, -1.524, 1.716], a = 0.2, v = 0.2, t = 0.2)
movej(p[-0.483791987420553, -0.172070832010763, 0.356350855420258, -0.838, -1.524, 1.716], a = 0.2, v = 0.2, t = 0.2)
movej(p[-0.483894001765671, -0.172179853067357, 0.354976084304949, -0.838, -1.524, 1.716], a = 0.2, v = 0.2, t = 0.2)
movej(p[-0.483968402298694, -0.172259363696103, 0.353973443905249, -0.838, -1.524, 1.716], a = 0.2, v = 0.2, t = 0.2)
movej(p[-0.484014532504924, -0.172308662290515, 0.353351781579269, -0.838, -1.524, 1.716], a = 0.2, v = 0.2, t = 0.2)
movej(p[-0.484049461766511, -0.172345990619192, 0.352881066016147, -0.838, -1.524, 1.716], a = 0.2, v = 0.2, t = 0.2)
movej(p[-0.484060260763381, -0.172357531329937, 0.352735536003153, -0.838, -1.524, 1.716], a = 0.2, v = 0.2, t = 0.2)
movej(p[-0.484064588401084, -0.172362156205335, 0.352677215662958, -0.838, -1.524, 1.716], a = 0.2, v = 0.2, t = 0.2)
movej(p[-0.484071300928915, -0.172369329773677, 0.352586755940241, -0.838, -1.524, 1.716], a = 0.2, v = 0.2, t = 0.2)
movej(p[-0.48406637036955, -0.172364060565793, 0.352653201405231, -0.838, -1.524, 1.716], a = 0.2, v = 0.2, t = 0.2)
movej(p[-0.484022960009926, -0.172317668626817, 0.353238210390469, -0.838, -1.524, 1.716], a = 0.2, v = 0.2, t = 0.2)
movej(p[-0.48395000648889, -0.172239704396037, 0.35422135049066, -0.838, -1.524, 1.716], a = 0.2, v = 0.2, t = 0.2)
movej(p[-0.483881594977704, -0.17216659413665, 0.355143281317396, -0.838, -1.524, 1.716], a = 0.2, v = 0.2, t = 0.2)
movej(p[-0.483797520901579, -0.172076745551132, 0.356276284830473, -0.838, -1.524, 1.716], a = 0.2, v = 0.2, t = 0.2)
movej(p[-0.483724808549208, -0.171999039053347, 0.357256174880746, -0.838, -1.524, 1.716], a = 0.2, v = 0.2, t = 0.2)
movej(p[-0.483695640539053, -0.171967867679535, 0.357649250362494, -0.838, -1.524, 1.716], a = 0.2, v = 0.2, t = 0.2)
movej(p[-0.483763181163395, -0.172040047236442, 0.356739055827129, -0.838, -1.524, 1.716], a = 0.2, v = 0.2, t = 0.2)
movej(p[-0.483862515856684, -0.1721462045931, 0.355400396377575, -0.838, -1.524, 1.716], a = 0.2, v = 0.2, t = 0.2)
movej(p[-0.483947581403985, -0.172237112747594, 0.354254031548169, -0.838, -1.524, 1.716], a = 0.2, v = 0.2, t = 0.2)
movej(p[-0.484014988045735, -0.172309149119505, 0.353345642596091, -0.838, -1.524, 1.716], a = 0.2, v = 0.2, t = 0.2)
movej(p[-0.484038810150492, -0.172334607411943, 0.353024609887525, -0.838, -1.524, 1.716], a = 0.2, v = 0.2, t = 0.2)
movej(p[-0.484053642023364, -0.172350457991093, 0.352824731817569, -0.838, -1.524, 1.716], a = 0.2, v = 0.2, t = 0.2)
movej(p[-0.484061024464152, -0.172358347484419, 0.352725244178413, -0.838, -1.524, 1.716], a = 0.2, v = 0.2, t = 0.2)
movej(p[-0.484073015906085, -0.172371162541636, 0.352563644474157, -0.838, -1.524, 1.716], a = 0.2, v = 0.2, t = 0.2)
