def moving():
set_payload_mass(0.606)
set_tcp(p[0.0001,-0.0009,0.0582,0,0,0])
movej(p[0.4763, -0.0211, 0.2251, -1.21, 1.207, -1.216], a = 0.2, v = 0.2, t = 0.2)
movej(p[0.476399503559594, -0.0211997494971276, 0.225200742639686, -1.2082623738881, 1.20525469812697, -1.21424848537015], a = 0.2, v = 0.2, t = 0.2)
movej(p[0.4763, -0.0211, 0.2251, -1.21, 1.207, -1.216], a = 0.2, v = 0.2, t = 0.2)
movej(p[0.476399503559594, -0.0211997494971276, 0.225200742639686, -1.2082623738881, 1.20525469812697, -1.21424848537015], a = 0.2, v = 0.2, t = 0.2)
movej(p[0.4763, -0.0211, 0.2251, -1.21, 1.207, -1.216], a = 0.2, v = 0.2, t = 0.2)
movej(p[0.476399503559594, -0.0211997494971276, 0.225200742639686, -1.2082623738881, 1.20525469812697, -1.21424848537015], a = 0.2, v = 0.2, t = 0.2)
movej(p[0.4763, -0.0211, 0.2251, -1.21, 1.207, -1.216], a = 0.2, v = 0.2, t = 0.2)
movej(p[0.477330781307193, -0.0210994340242007, 0.224940088035432, -1.20987508475309, 1.20305782517778, -1.22154296978467], a = 0.2, v = 0.2, t = 0.2)
movej(p[0.478361562582959, -0.0210989685580371, 0.224780076583116, -1.20975627780799, 1.19909746489192, -1.22707220792606], a = 0.2, v = 0.2, t = 0.2)
movej(p[0.479389349626347, -0.0210972003531425, 0.224619051501544, -1.20955960559607, 1.19527880673923, -1.23254083403229], a = 0.2, v = 0.2, t = 0.2)
movej(p[0.480125978454619, -0.0209825032908193, 0.224352171297608, -1.20114065667769, 1.20747569377292, -1.23378385906328], a = 0.2, v = 0.2, t = 0.2)
movej(p[0.480623013358493, -0.0210826851108077, 0.224397238328519, -1.19699909030583, 1.20068851420004, -1.24620094004843], a = 0.2, v = 0.2, t = 0.2)
movej(p[0.481047101173555, -0.0211369644647546, 0.224385400387368, -1.20123497138485, 1.2030617287504, -1.24260976039878], a = 0.2, v = 0.2, t = 0.2)
movej(p[0.48133517520584, -0.0211831289119951, 0.224345404690918, -1.20332054172979, 1.23474754840629, -1.21391680675372], a = 0.2, v = 0.2, t = 0.2)
movej(p[0.481442878760898, -0.0211584960680498, 0.224329028573337, -1.1943581422665, 1.22017149509643, -1.23640046072462], a = 0.2, v = 0.2, t = 0.2)
movej(p[0.481231195964072, -0.0212787210731567, 0.224528554891589, -1.18256021188194, 1.22782103718756, -1.23778169975109], a = 0.2, v = 0.2, t = 0.2)
movej(p[0.480021358329357, -0.0213213805130971, 0.224793267962311, -1.18635174317143, 1.21998146472345, -1.26161392467926], a = 0.2, v = 0.2, t = 0.2)
movej(p[0.478250993928598, -0.0214747994027184, 0.225286049397463, -1.17784101151052, 1.23433816170806, -1.26206160987879], a = 0.2, v = 0.2, t = 0.2)
movej(p[0.475759202651396, -0.0214917312201937, 0.225599255023879, -1.17291025585763, 1.25445305185384, -1.24229957934407], a = 0.2, v = 0.2, t = 0.2)
movej(p[0.473596170345332, -0.0215433981512884, 0.225977502642716, -1.19175270328497, 1.24212630455128, -1.2457022538771], a = 0.2, v = 0.2, t = 0.2)
movej(p[0.471487369181262, -0.0215846528216967, 0.226268621574741, -1.19663179395869, 1.25628534007739, -1.22357034155937], a = 0.2, v = 0.2, t = 0.2)
movej(p[0.468900450796431, -0.0216764131857757, 0.226723191135763, -1.20786098465735, 1.2512129569913, -1.23036102951391], a = 0.2, v = 0.2, t = 0.2)
movej(p[0.466264511398028, -0.0217906912907068, 0.227246963092519, -1.2191949879341, 1.24270079217647, -1.23194770530371], a = 0.2, v = 0.2, t = 0.2)
movej(p[0.463823238919567, -0.0218782471640844, 0.227601347763383, -1.23009303878966, 1.25304236660781, -1.21581647183467], a = 0.2, v = 0.2, t = 0.2)
movej(p[0.463877696074835, -0.0218878140333184, 0.227694724598054, -1.21930477127887, 1.23644209893429, -1.21688802120726], a = 0.2, v = 0.2, t = 0.2)
movej(p[0.464916990544913, -0.0218724647674477, 0.227888362390087, -1.20540422722503, 1.19861567746076, -1.23805070536666], a = 0.2, v = 0.2, t = 0.2)
movej(p[0.46568945206602, -0.0218184705313305, 0.227796278510526, -1.18923078542331, 1.19355857617748, -1.238862467695], a = 0.2, v = 0.2, t = 0.2)
movej(p[0.466418303245521, -0.0217794441081776, 0.227648869024958, -1.18715992512404, 1.178182850414, -1.25150365279492], a = 0.2, v = 0.2, t = 0.2)
movej(p[0.467263951294268, -0.0217137007422356, 0.227447493287876, -1.17930127000726, 1.20407302986308, -1.23418559640377], a = 0.2, v = 0.2, t = 0.2)
movej(p[0.468425790497833, -0.0216629348607015, 0.227276728799963, -1.18874646697343, 1.17956903883957, -1.2504582984278], a = 0.2, v = 0.2, t = 0.2)
movej(p[0.469390960219974, -0.0216322916985947, 0.226941307938838, -1.18804030783313, 1.18381122205209, -1.24639413766471], a = 0.2, v = 0.2, t = 0.2)
movej(p[0.470136767941072, -0.021589008889442, 0.226774515758016, -1.19024094504747, 1.19389369631221, -1.23942889943301], a = 0.2, v = 0.2, t = 0.2)
movej(p[0.471288660362234, -0.0215460153490745, 0.226486566065266, -1.19673046596185, 1.19573705477859, -1.23421477013685], a = 0.2, v = 0.2, t = 0.2)
movej(p[0.472138079335917, -0.0215724487803188, 0.226194068935605, -1.18653266268842, 1.17357007922675, -1.24335822091326], a = 0.2, v = 0.2, t = 0.2)
movej(p[0.472965295725068, -0.0215513259732179, 0.22599887863733, -1.18957102516658, 1.17739097041674, -1.24257622817981], a = 0.2, v = 0.2, t = 0.2)
movej(p[0.47405521404488, -0.021516756335732, 0.22573302846091, -1.19546137488197, 1.19977330137793, -1.22933230147455], a = 0.2, v = 0.2, t = 0.2)
movej(p[0.474821003859262, -0.0214286729529474, 0.225752756559281, -1.19516689019397, 1.17172489384554, -1.25574199157116], a = 0.2, v = 0.2, t = 0.2)
movej(p[0.475667526836592, -0.0213903347780808, 0.225531322656727, -1.18883008532349, 1.18680104803013, -1.2445202596154], a = 0.2, v = 0.2, t = 0.2)
movej(p[0.476686547305335, -0.0214298918304125, 0.225223886201675, -1.19217974163873, 1.18645697747953, -1.24218278111204], a = 0.2, v = 0.2, t = 0.2)
movej(p[0.477742499448769, -0.0214500030954325, 0.224924836209541, -1.19952400452092, 1.20222698224688, -1.2371639499551], a = 0.2, v = 0.2, t = 0.2)
movej(p[0.478359108605746, -0.0214747386890875, 0.224766291932006, -1.20125332412284, 1.20028912582093, -1.24023516043653], a = 0.2, v = 0.2, t = 0.2)
movej(p[0.47913146140321, -0.0214030418778979, 0.224655016986425, -1.20112843806873, 1.2125845270251, -1.24154821025609], a = 0.2, v = 0.2, t = 0.2)
movej(p[0.479743340681161, -0.0214245813371809, 0.224512845642942, -1.20110760638599, 1.20883576762281, -1.25377361766891], a = 0.2, v = 0.2, t = 0.2)
movej(p[0.480461154143051, -0.0212589146658046, 0.22452386553066, -1.19888825150739, 1.19564587602746, -1.26223944091889], a = 0.2, v = 0.2, t = 0.2)
movej(p[0.48077321574659, -0.0212636135425841, 0.224450212994019, -1.20338462794219, 1.20740212927325, -1.26067511484896], a = 0.2, v = 0.2, t = 0.2)
movej(p[0.480327769299211, -0.0212090107697518, 0.224573101438211, -1.19602112920674, 1.21998998916904, -1.2625509272877], a = 0.2, v = 0.2, t = 0.2)
movej(p[0.47929828781858, -0.0210622317948088, 0.224898665676961, -1.19248544811271, 1.22865986922864, -1.26323763723401], a = 0.2, v = 0.2, t = 0.2)
movej(p[0.478066513412223, -0.0213777046885252, 0.22491531876, -1.17638719635292, 1.22944322418663, -1.24903841245928], a = 0.2, v = 0.2, t = 0.2)
movej(p[0.477030764683738, -0.0212360731872452, 0.225306695802362, -1.19102351187479, 1.22213996162081, -1.27655724314899], a = 0.2, v = 0.2, t = 0.2)
movej(p[0.476085103064165, -0.0213169302120152, 0.225453815728995, -1.1916184861536, 1.2301886104819, -1.26752331539646], a = 0.2, v = 0.2, t = 0.2)
movej(p[0.474040826923003, -0.021416369025614, 0.225840283478002, -1.19289358701612, 1.2436468916207, -1.2618793454389], a = 0.2, v = 0.2, t = 0.2)
movej(p[0.47172923123415, -0.0216545880081467, 0.226249740444774, -1.19547742716824, 1.23255205093129, -1.26597533464775], a = 0.2, v = 0.2, t = 0.2)
movej(p[0.469532015827988, -0.0217115768716812, 0.226743137717118, -1.1983673624361, 1.21514267455844, -1.27168084804718], a = 0.2, v = 0.2, t = 0.2)
movej(p[0.466781036772208, -0.0219006784873231, 0.227242324729794, -1.19949223152525, 1.22259024865756, -1.25375752228213], a = 0.2, v = 0.2, t = 0.2)
movej(p[0.46463177588493, -0.0220473095701367, 0.227654590401381, -1.2003447200352, 1.21840499835981, -1.25500944155058], a = 0.2, v = 0.2, t = 0.2)
movej(p[0.463296797177902, -0.0222024610530374, 0.227895787683983, -1.19974431820705, 1.20998118654639, -1.25707568019682], a = 0.2, v = 0.2, t = 0.2)
movej(p[0.462723223444864, -0.0221528727619061, 0.228067205023104, -1.20008204235425, 1.18905078971472, -1.24949264901053], a = 0.2, v = 0.2, t = 0.2)
movej(p[0.463721969432721, -0.0216544670834935, 0.228053575589335, -1.19881092791941, 1.17484181255468, -1.25453944639664], a = 0.2, v = 0.2, t = 0.2)
movej(p[0.464384710963969, -0.0215245417083408, 0.227969448841801, -1.19794264290462, 1.1669261362117, -1.25196659767577], a = 0.2, v = 0.2, t = 0.2)
movej(p[0.465041713810338, -0.0214188561937122, 0.227874632535921, -1.19680253637278, 1.16011132906258, -1.24783916790918], a = 0.2, v = 0.2, t = 0.2)
movej(p[0.465698616657324, -0.0213131704166479, 0.2277798159965, -1.19563722838195, 1.15332420421804, -1.24369180096091], a = 0.2, v = 0.2, t = 0.2)
movej(p[0.466302192053561, -0.0211695853009205, 0.227696382036991, -1.19696119191057, 1.15836068562682, -1.23159011680693], a = 0.2, v = 0.2, t = 0.2)
movej(p[0.4668553135169, -0.0211619952547841, 0.227568725552654, -1.199522690559, 1.1689975461588, -1.2205362845258], a = 0.2, v = 0.2, t = 0.2)
movej(p[0.467683815070919, -0.0212197788256565, 0.227334041053965, -1.20088091516016, 1.1746724044191, -1.21571730109182], a = 0.2, v = 0.2, t = 0.2)
movej(p[0.469020812470996, -0.0208751577625737, 0.227126480255484, -1.20205312079713, 1.17488224482076, -1.21530300873623], a = 0.2, v = 0.2, t = 0.2)
movej(p[0.470469250967465, -0.0209405666063871, 0.226697771164028, -1.2035920147747, 1.16662176491806, -1.22214370982304], a = 0.2, v = 0.2, t = 0.2)
movej(p[0.471539337835208, -0.0207531713194437, 0.226445793780288, -1.20927988836257, 1.18618293132535, -1.20515542241925], a = 0.2, v = 0.2, t = 0.2)
movej(p[0.472357794737816, -0.0207262621610373, 0.226282554061571, -1.20691935963073, 1.17901789018787, -1.20725445521827], a = 0.2, v = 0.2, t = 0.2)
movej(p[0.472878186965825, -0.0207602429240888, 0.226163434261494, -1.20597291979267, 1.18419923086658, -1.2134652165188], a = 0.2, v = 0.2, t = 0.2)
movej(p[0.473461586568048, -0.0208523207528975, 0.226018857404535, -1.20518642707942, 1.18775788495035, -1.21648306991124], a = 0.2, v = 0.2, t = 0.2)
movej(p[0.474758888859062, -0.0208208779803598, 0.225756904817632, -1.20401931932268, 1.19231327426242, -1.21398139078979], a = 0.2, v = 0.2, t = 0.2)
movej(p[0.475621998315891, -0.020642887364032, 0.22561259661956, -1.2009303965723, 1.2020049350513, -1.22299121540189], a = 0.2, v = 0.2, t = 0.2)
movej(p[0.476614536908443, -0.0204135416978724, 0.225428225749549, -1.19988515020152, 1.20627447832831, -1.24126684958693], a = 0.2, v = 0.2, t = 0.2)
movej(p[0.477425276230201, -0.020379551769771, 0.225237631476434, -1.20139230309996, 1.20548594349574, -1.23556900251781], a = 0.2, v = 0.2, t = 0.2)
movej(p[0.478104295608529, -0.0207405593484444, 0.22503955080601, -1.19960818344666, 1.2069360376443, -1.23020614691074], a = 0.2, v = 0.2, t = 0.2)
movej(p[0.47883882378499, -0.0208030443902702, 0.224873573224594, -1.19880661026385, 1.20591018425232, -1.23059419913134], a = 0.2, v = 0.2, t = 0.2)
movej(p[0.47948816961771, -0.0207078934163412, 0.224748492523888, -1.19914622932093, 1.20213593262456, -1.23005525248348], a = 0.2, v = 0.2, t = 0.2)
movej(p[0.479953596262216, -0.0206247686544705, 0.224660446839451, -1.19897030169595, 1.20153866870978, -1.23064567449675], a = 0.2, v = 0.2, t = 0.2)
movej(p[0.480225233037049, -0.0207086254436868, 0.224594005275198, -1.19791043501462, 1.20544443220378, -1.23184390395819], a = 0.2, v = 0.2, t = 0.2)
movej(p[0.480535679472565, -0.0210449461020711, 0.224496744155425, -1.19717194201729, 1.20658600372459, -1.23382152332206], a = 0.2, v = 0.2, t = 0.2)
movej(p[0.480931321390765, -0.0210246962286296, 0.224416958033897, -1.19736126885685, 1.20584909134629, -1.23278059808481], a = 0.2, v = 0.2, t = 0.2)
movej(p[0.481171628285174, -0.0208634066656513, 0.224381790813733, -1.19746699659141, 1.20558091460947, -1.23265566714734], a = 0.2, v = 0.2, t = 0.2)
movej(p[0.481168513297556, -0.0209902396602461, 0.224374131940822, -1.1984331031932, 1.20341128657373, -1.23196114408641], a = 0.2, v = 0.2, t = 0.2)
movej(p[0.481165732366448, -0.0211032685571767, 0.224367403279675, -1.1993320391971, 1.20141061140906, -1.23116129670038], a = 0.2, v = 0.2, t = 0.2)
movej(p[0.48076817359177, -0.0210894994273571, 0.224449811056857, -1.19899905377981, 1.20367613080889, -1.2328239784652], a = 0.2, v = 0.2, t = 0.2)
movej(p[0.479358645162525, -0.0211906545712718, 0.224729959774523, -1.19828691000591, 1.20975928458215, -1.23638424970294], a = 0.2, v = 0.2, t = 0.2)
movej(p[0.476605225846454, -0.0208047136541453, 0.225293102010886, -1.19092337817251, 1.23097744102928, -1.26597380051103], a = 0.2, v = 0.2, t = 0.2)
movej(p[0.474930340623575, -0.0208113419639559, 0.225617451969556, -1.19048006289271, 1.23046513396374, -1.27725782149857], a = 0.2, v = 0.2, t = 0.2)
movej(p[0.473336868525538, -0.0209359354025549, 0.225932293958236, -1.19264424411503, 1.22758260747894, -1.27160154246102], a = 0.2, v = 0.2, t = 0.2)
movej(p[0.4720770096334, -0.0211077042038235, 0.226189350879582, -1.19406442477918, 1.22855839745362, -1.2689011723003], a = 0.2, v = 0.2, t = 0.2)
movej(p[0.470667929462017, -0.0210385606262941, 0.22646892991367, -1.19734018237359, 1.22493069263699, -1.25088971815592], a = 0.2, v = 0.2, t = 0.2)
movej(p[0.469195765408292, -0.0209987369110548, 0.226751312421318, -1.19998929703507, 1.22026757122867, -1.24826389839785], a = 0.2, v = 0.2, t = 0.2)
movej(p[0.468266219628156, -0.021044267533244, 0.226931389668837, -1.20130265865932, 1.22059093929721, -1.24332503411257], a = 0.2, v = 0.2, t = 0.2)
movej(p[0.467263105192512, -0.0209954681966502, 0.227118213901072, -1.2034198056816, 1.21737400977242, -1.23743720855533], a = 0.2, v = 0.2, t = 0.2)
movej(p[0.46699410718458, -0.021088427360209, 0.227183465610926, -1.20677185083243, 1.20826577432766, -1.2355315029229], a = 0.2, v = 0.2, t = 0.2)
movej(p[0.467422720631975, -0.0210191569211609, 0.227085405124563, -1.20620318835985, 1.20798684160522, -1.23184467022609], a = 0.2, v = 0.2, t = 0.2)
movej(p[0.467959797521741, -0.0212251444899215, 0.226993703946841, -1.20769867809408, 1.20535375298324, -1.22451621482384], a = 0.2, v = 0.2, t = 0.2)
movej(p[0.468332063145876, -0.0209903624864149, 0.226887866260187, -1.20980326815779, 1.20290024148327, -1.22224616102195], a = 0.2, v = 0.2, t = 0.2)
movej(p[0.468955862380015, -0.0208276095565601, 0.226730180086689, -1.20821701234892, 1.19656807057787, -1.2279254524165], a = 0.2, v = 0.2, t = 0.2)
movej(p[0.469758356073389, -0.0209544303798326, 0.226592489706202, -1.20704669440793, 1.19978450206998, -1.22560750637083], a = 0.2, v = 0.2, t = 0.2)
movej(p[0.470608914505198, -0.0207939145047662, 0.226407541070278, -1.20726686698675, 1.19972093739286, -1.22549866830259], a = 0.2, v = 0.2, t = 0.2)
movej(p[0.471030508211664, -0.0207314214926233, 0.226310298949252, -1.20930704141703, 1.19783656019867, -1.22209465930951], a = 0.2, v = 0.2, t = 0.2)
movej(p[0.471547683003754, -0.0206157692029135, 0.226195506692057, -1.20904181458661, 1.19389140532373, -1.22252748680035], a = 0.2, v = 0.2, t = 0.2)
movej(p[0.472395151127805, -0.0205611196889811, 0.226015892245688, -1.20644834220735, 1.19655080744613, -1.22394120967607], a = 0.2, v = 0.2, t = 0.2)
movej(p[0.473346335533931, -0.0205261912979842, 0.225807419002694, -1.20731925607261, 1.19737698200512, -1.21762276812143], a = 0.2, v = 0.2, t = 0.2)
movej(p[0.473902408945705, -0.0204194895227124, 0.225683262682388, -1.20813906025978, 1.19686641770968, -1.2174879769401], a = 0.2, v = 0.2, t = 0.2)
movej(p[0.474798404892204, -0.0204616291564919, 0.225511555911635, -1.2062366730942, 1.19896354045727, -1.22038218916449], a = 0.2, v = 0.2, t = 0.2)
movej(p[0.475643702253677, -0.0204304543144084, 0.225335856509507, -1.20625158971994, 1.19857531043473, -1.21455125778559], a = 0.2, v = 0.2, t = 0.2)
movej(p[0.475998594294448, -0.0203025435640473, 0.225227024853546, -1.20771687989996, 1.19662825803333, -1.21602966027592], a = 0.2, v = 0.2, t = 0.2)
movej(p[0.476518831340259, -0.0203391181836388, 0.225128618281772, -1.20280993307698, 1.20123259491441, -1.22473095407717], a = 0.2, v = 0.2, t = 0.2)
movej(p[0.477069969323023, -0.0204651346463117, 0.225057841201516, -1.20865795618631, 1.19508748943521, -1.2110067210059], a = 0.2, v = 0.2, t = 0.2)
movej(p[0.477937018281931, -0.0204838796409012, 0.224889647658138, -1.20422924858168, 1.20368143807893, -1.23791488577734], a = 0.2, v = 0.2, t = 0.2)
movej(p[0.478696419662118, -0.0204083517116101, 0.224719022115891, -1.20200567102931, 1.20371666335969, -1.24225705134942], a = 0.2, v = 0.2, t = 0.2)
movej(p[0.479460755343651, -0.0206263141343993, 0.224632109929245, -1.20484160816998, 1.20209377371211, -1.24116065695087], a = 0.2, v = 0.2, t = 0.2)
movej(p[0.480030424073048, -0.0203784185233204, 0.224454562429247, -1.20662056673117, 1.20187078968047, -1.23779649385354], a = 0.2, v = 0.2, t = 0.2)
movej(p[0.480492297919236, -0.0203619338449094, 0.22435704906819, -1.20540200802717, 1.20190702634953, -1.24042534546855], a = 0.2, v = 0.2, t = 0.2)
movej(p[0.480898009772063, -0.0205036836333797, 0.224322215320982, -1.20619071406156, 1.20069371497774, -1.24226962219034], a = 0.2, v = 0.2, t = 0.2)
movej(p[0.481239446165321, -0.0207152643904164, 0.224326689984152, -1.20890878735189, 1.19913544837376, -1.24173458267008], a = 0.2, v = 0.2, t = 0.2)
movej(p[0.481235327101159, -0.0208113086461962, 0.224355371933913, -1.20497043616687, 1.205121551723, -1.24178656021355], a = 0.2, v = 0.2, t = 0.2)
movej(p[0.480683071681546, -0.0207180395880607, 0.224396813390246, -1.18074742628953, 1.2308514957044, -1.26329194884051], a = 0.2, v = 0.2, t = 0.2)
movej(p[0.479624095236433, -0.0208108987392091, 0.224622132800733, -1.17874629640292, 1.23288282163095, -1.26578772950445], a = 0.2, v = 0.2, t = 0.2)
movej(p[0.478029720550215, -0.0207759593545366, 0.224903256491212, -1.17712316306948, 1.23340820932559, -1.27459218031944], a = 0.2, v = 0.2, t = 0.2)
movej(p[0.475934848814389, -0.0207617771997865, 0.225286925784907, -1.17441969886667, 1.23859139687918, -1.27443445681785], a = 0.2, v = 0.2, t = 0.2)
movej(p[0.473844304989237, -0.0208240514433568, 0.225701196522114, -1.1799569805412, 1.22902884345857, -1.27253041110781], a = 0.2, v = 0.2, t = 0.2)
movej(p[0.472432494421229, -0.0207508294313445, 0.22595554796602, -1.1926921337193, 1.21934299879727, -1.25830426569171], a = 0.2, v = 0.2, t = 0.2)
movej(p[0.470221612697493, -0.0206786245754979, 0.226322750964974, -1.19541801513488, 1.21576112118659, -1.25423952086236], a = 0.2, v = 0.2, t = 0.2)
movej(p[0.468859888633219, -0.0206876403708246, 0.226576239166299, -1.19607081411332, 1.21823971758116, -1.24715097320304], a = 0.2, v = 0.2, t = 0.2)
movej(p[0.468703099681962, -0.0208275464885431, 0.226670791918712, -1.197235577445, 1.21514050025628, -1.24400818348431], a = 0.2, v = 0.2, t = 0.2)
movej(p[0.468868229409043, -0.0208374013026404, 0.226647425364121, -1.19957775529861, 1.21573794260959, -1.23947706707709], a = 0.2, v = 0.2, t = 0.2)
movej(p[0.468973264730898, -0.0208618762116266, 0.226647894398175, -1.20390537838302, 1.21656986654507, -1.22759339696892], a = 0.2, v = 0.2, t = 0.2)
movej(p[0.46910798829742, -0.02082601202092, 0.226592822985914, -1.20014665133412, 1.20476392136527, -1.24529153872916], a = 0.2, v = 0.2, t = 0.2)
movej(p[0.469774305256452, -0.0209496710318667, 0.226534001483742, -1.19737428818113, 1.21151448654944, -1.23626466122889], a = 0.2, v = 0.2, t = 0.2)
movej(p[0.470603669833281, -0.0209354616856462, 0.226396052423647, -1.19849981004359, 1.21436478931744, -1.22609959519107], a = 0.2, v = 0.2, t = 0.2)
movej(p[0.47109906234362, -0.0209189053181816, 0.226290716402282, -1.19719651373192, 1.20428179380467, -1.24205423589843], a = 0.2, v = 0.2, t = 0.2)
movej(p[0.47209905974498, -0.0208021182614363, 0.226040337308405, -1.20288610759408, 1.20460313659851, -1.23176698539212], a = 0.2, v = 0.2, t = 0.2)
movej(p[0.473852764424234, -0.0206929236050474, 0.225651844946862, -1.20332647690389, 1.21331214728614, -1.22127759497231], a = 0.2, v = 0.2, t = 0.2)
movej(p[0.474939923225533, -0.0205496657361572, 0.22536233228089, -1.20473907891507, 1.20447159705105, -1.22699839944334], a = 0.2, v = 0.2, t = 0.2)
movej(p[0.476018244336311, -0.0206110305683256, 0.225201547333137, -1.19965177340676, 1.21020884178602, -1.22704371139868], a = 0.2, v = 0.2, t = 0.2)
movej(p[0.476756438446427, -0.0205720226301759, 0.225035759346383, -1.19902139270078, 1.20613890068713, -1.23382573922239], a = 0.2, v = 0.2, t = 0.2)
movej(p[0.477192583925376, -0.0204890819799302, 0.224896545806348, -1.210940445102, 1.19124431564152, -1.23575701858978], a = 0.2, v = 0.2, t = 0.2)
movej(p[0.477713273210642, -0.0205456497466827, 0.224838943150392, -1.19666707871771, 1.20842112329994, -1.23707779800138], a = 0.2, v = 0.2, t = 0.2)
movej(p[0.478387116672975, -0.0205965047898367, 0.224764966648328, -1.19887929750751, 1.20883981329858, -1.24069234633214], a = 0.2, v = 0.2, t = 0.2)
movej(p[0.479060165861786, -0.0204782463332931, 0.224536021203087, -1.20455998327198, 1.20754016629302, -1.25071502090139], a = 0.2, v = 0.2, t = 0.2)
movej(p[0.479497953982445, -0.0204303676877589, 0.224424791185951, -1.20490065277973, 1.20526009758952, -1.23780333310401], a = 0.2, v = 0.2, t = 0.2)
movej(p[0.480201320478022, -0.0205904860203504, 0.224432343170255, -1.19788459949582, 1.21824350520065, -1.24808692319544], a = 0.2, v = 0.2, t = 0.2)
movej(p[0.480750652972533, -0.0205496374178667, 0.224294507680814, -1.19840438523657, 1.22092483027711, -1.24609839078201], a = 0.2, v = 0.2, t = 0.2)
movej(p[0.481095575784188, -0.0205145459918981, 0.22419662762246, -1.18909243480054, 1.22107185810265, -1.25064270887574], a = 0.2, v = 0.2, t = 0.2)
movej(p[0.481167512339743, -0.0206058467147012, 0.224292662980483, -1.1776368181175, 1.20686118637966, -1.27961828305897], a = 0.2, v = 0.2, t = 0.2)
movej(p[0.480593183753324, -0.0206646228127732, 0.224451432420609, -1.18756567612982, 1.22173673379582, -1.25379942226057], a = 0.2, v = 0.2, t = 0.2)
movej(p[0.47960069445072, -0.0206301071695042, 0.224568653257432, -1.17433942436188, 1.23631881063154, -1.25397584933422], a = 0.2, v = 0.2, t = 0.2)
movej(p[0.478269960104228, -0.0206913449707661, 0.224853580916258, -1.16556239486966, 1.24715883507238, -1.25214140662549], a = 0.2, v = 0.2, t = 0.2)
movej(p[0.477015838639559, -0.0208876398185589, 0.225323979921984, -1.19236387016314, 1.21710234119973, -1.25138870200842], a = 0.2, v = 0.2, t = 0.2)
movej(p[0.475029053742512, -0.020708285777833, 0.225385350606674, -1.17784470057158, 1.22653061071628, -1.27129515197871], a = 0.2, v = 0.2, t = 0.2)
movej(p[0.472887953159443, -0.0206810816851642, 0.225710245051876, -1.19707835290989, 1.21640265948801, -1.23418875432887], a = 0.2, v = 0.2, t = 0.2)
movej(p[0.471067900804949, -0.0207712069979542, 0.226097585838389, -1.20114576696382, 1.21599703148953, -1.24403251394156], a = 0.2, v = 0.2, t = 0.2)
movej(p[0.469483945821718, -0.0207763688105052, 0.22632523791237, -1.20708556280546, 1.2194292105173, -1.23975025937472], a = 0.2, v = 0.2, t = 0.2)
movej(p[0.467780887008089, -0.0206797360224262, 0.226411690741072, -1.21652849759874, 1.20705895518857, -1.24761653703359], a = 0.2, v = 0.2, t = 0.2)
movej(p[0.466480920216773, -0.0207498345683593, 0.226700635208631, -1.2176769190073, 1.21697043670402, -1.22900584764923], a = 0.2, v = 0.2, t = 0.2)
movej(p[0.466394902050688, -0.0207129945537434, 0.22666394653972, -1.2120152197944, 1.19504543047324, -1.24065544758247], a = 0.2, v = 0.2, t = 0.2)
movej(p[0.466398934682436, -0.0207989592260617, 0.226810297737168, -1.21903787747641, 1.20175496265018, -1.23304924820659], a = 0.2, v = 0.2, t = 0.2)
movej(p[0.466875560254672, -0.0208267062404146, 0.22681224634841, -1.21030737550341, 1.19789665724926, -1.23841469160034], a = 0.2, v = 0.2, t = 0.2)
movej(p[0.467178727231684, -0.0208324810655426, 0.226777879279237, -1.20445186850924, 1.21086151177226, -1.22404814205322], a = 0.2, v = 0.2, t = 0.2)
movej(p[0.467408057054318, -0.0208106595008811, 0.226704599051572, -1.20378850002334, 1.2014089111128, -1.22853770879679], a = 0.2, v = 0.2, t = 0.2)
movej(p[0.468426789716165, -0.020917807468174, 0.22682981433335, -1.19635244126272, 1.17846973549552, -1.24543678573198], a = 0.2, v = 0.2, t = 0.2)
movej(p[0.468892037985579, -0.0209042928052118, 0.226739924113124, -1.19479111249488, 1.19207566097447, -1.23421346285931], a = 0.2, v = 0.2, t = 0.2)
movej(p[0.46944878609214, -0.0207939096050988, 0.226416647397332, -1.19353520631466, 1.20038401838883, -1.22115822270467], a = 0.2, v = 0.2, t = 0.2)
movej(p[0.470932507942931, -0.0207894163029838, 0.226202166209993, -1.19262499222274, 1.20623495322263, -1.21896481633154], a = 0.2, v = 0.2, t = 0.2)
movej(p[0.47254633266437, -0.0207166080059694, 0.225763834303377, -1.19759957086228, 1.20677650880356, -1.21782054875659], a = 0.2, v = 0.2, t = 0.2)
movej(p[0.473545067021341, -0.020657027674387, 0.22543334350427, -1.19813078031161, 1.19103826143355, -1.23875233732144], a = 0.2, v = 0.2, t = 0.2)
movej(p[0.475046900032839, -0.0207066054697525, 0.225410283847264, -1.19400367752596, 1.21812007314063, -1.21874842009875], a = 0.2, v = 0.2, t = 0.2)
movej(p[0.476443530561583, -0.0206283274087328, 0.224932219028079, -1.19577267444748, 1.20266774468639, -1.23582401146348], a = 0.2, v = 0.2, t = 0.2)
movej(p[0.477900782536005, -0.0205937319733243, 0.224567320098382, -1.19229329122436, 1.21146502924003, -1.24155616487629], a = 0.2, v = 0.2, t = 0.2)
movej(p[0.478933137069224, -0.0205923696649378, 0.224505409260411, -1.19897876508987, 1.18907880184853, -1.25605568095254], a = 0.2, v = 0.2, t = 0.2)
movej(p[0.479664565815843, -0.0205866741054703, 0.224372976412441, -1.19511731352939, 1.21603586364679, -1.24036642124591], a = 0.2, v = 0.2, t = 0.2)
movej(p[0.480260833329107, -0.0205849758282313, 0.224347551847948, -1.19347504490761, 1.21013371469357, -1.24994031263205], a = 0.2, v = 0.2, t = 0.2)
movej(p[0.480195598199867, -0.0206048865081868, 0.224468504081233, -1.19109168225559, 1.2241132573285, -1.23987895626248], a = 0.2, v = 0.2, t = 0.2)
movej(p[0.478983203681574, -0.0206339928540988, 0.224644340518419, -1.1949928248328, 1.22601864200258, -1.23723825393187], a = 0.2, v = 0.2, t = 0.2)
movej(p[0.477770809163282, -0.0206630992000109, 0.224820176955605, -1.19889733895489, 1.22791711033988, -1.23459676297602], a = 0.2, v = 0.2, t = 0.2)
movej(p[0.47655851487657, -0.0206922063196458, 0.224995913627909, -1.20280218568369, 1.22981414522739, -1.23195365305193], a = 0.2, v = 0.2, t = 0.2)
movej(p[0.475346120621904, -0.0207212126672093, 0.22517174955442, -1.20670827623294, 1.23170425007087, -1.22931189568508], a = 0.2, v = 0.2, t = 0.2)
movej(p[0.474133726103611, -0.0207503190131214, 0.225347585991606, -1.2106142719969, 1.23359034434839, -1.22666808312234], a = 0.2, v = 0.2, t = 0.2)
movej(p[0.472921331817516, -0.0207794258703206, 0.225523322430369, -1.21452359172803, 1.23547164200393, -1.22402139252581], a = 0.2, v = 0.2, t = 0.2)
movej(p[0.471709037298607, -0.0208085324786683, 0.225699159101096, -1.21843328433194, 1.23734732626089, -1.22137736476863], a = 0.2, v = 0.2, t = 0.2)
movej(p[0.470496642780315, -0.0208376388245804, 0.225874995538282, -1.22234287291419, 1.239219012426, -1.21873129472087], a = 0.2, v = 0.2, t = 0.2)
movej(p[0.469284248262022, -0.0208667451704924, 0.226050831975468, -1.22625621155555, 1.24108641722583, -1.21608494215955], a = 0.2, v = 0.2, t = 0.2)
movej(p[0.46815357179114, -0.0208617275864918, 0.226214683499856, -1.22677614516959, 1.23304994887389, -1.22083721638929], a = 0.2, v = 0.2, t = 0.2)
movej(p[0.467352740048552, -0.0208246886270165, 0.226396237474048, -1.23253323582386, 1.22815283363128, -1.22039692026311], a = 0.2, v = 0.2, t = 0.2)
movej(p[0.466709844122057, -0.0208351784139538, 0.226595101452853, -1.23660744869612, 1.2320251037981, -1.21093050029453], a = 0.2, v = 0.2, t = 0.2)
movej(p[0.466077971857951, -0.0209120120028139, 0.226752129576055, -1.22948755876286, 1.22436093876236, -1.21656255876578], a = 0.2, v = 0.2, t = 0.2)
movej(p[0.466899017181844, -0.021091284250889, 0.226790353222982, -1.21356685730708, 1.21651661708493, -1.22343353415927], a = 0.2, v = 0.2, t = 0.2)
movej(p[0.468239587295074, -0.0213129801155306, 0.226857300553877, -1.19417768489893, 1.22515535083077, -1.21926548235167], a = 0.2, v = 0.2, t = 0.2)
movej(p[0.469992092156881, -0.0212755772128811, 0.226430871870252, -1.19183983730931, 1.21673075073441, -1.21919924399611], a = 0.2, v = 0.2, t = 0.2)
movej(p[0.471035534470649, -0.0211907234183206, 0.226039854707732, -1.19642102358222, 1.19920182507438, -1.23378163086235], a = 0.2, v = 0.2, t = 0.2)
movej(p[0.472135765854532, -0.021260277981675, 0.225951163644847, -1.19366943615644, 1.20235844302559, -1.23485404237915], a = 0.2, v = 0.2, t = 0.2)
movej(p[0.472901354671412, -0.0211531315029115, 0.225650188752942, -1.1958280215087, 1.21191912398881, -1.21508100687301], a = 0.2, v = 0.2, t = 0.2)
movej(p[0.473262755218393, -0.021130726284291, 0.225504811069577, -1.19732885907062, 1.19713246087114, -1.22811361983363], a = 0.2, v = 0.2, t = 0.2)
movej(p[0.473358736221373, -0.0211274174371986, 0.225516917208421, -1.19756732525669, 1.2108937363974, -1.2173454236355], a = 0.2, v = 0.2, t = 0.2)
movej(p[0.47345471748798, -0.0211240085917576, 0.225529022836589, -1.1977816693961, 1.22453722605586, -1.20643787998834], a = 0.2, v = 0.2, t = 0.2)
movej(p[0.473711696487668, -0.0211031915236381, 0.225390810921784, -1.19998446378595, 1.18788137155437, -1.24107070798403], a = 0.2, v = 0.2, t = 0.2)
movej(p[0.474679672544938, -0.0211063708995533, 0.225228772240842, -1.20046973062726, 1.20276929411179, -1.22898485179127], a = 0.2, v = 0.2, t = 0.2)
movej(p[0.475405838805082, -0.0210369957515528, 0.225109001787604, -1.20750643730351, 1.2329838459915, -1.20513615041403], a = 0.2, v = 0.2, t = 0.2)
movej(p[0.475934674516386, -0.021001267221714, 0.224878343419872, -1.2012578530329, 1.22657002009766, -1.21093995008664], a = 0.2, v = 0.2, t = 0.2)
movej(p[0.476757443713676, -0.0210827266000804, 0.224802169161312, -1.19023911326787, 1.23510199338966, -1.21321154859742], a = 0.2, v = 0.2, t = 0.2)
movej(p[0.478234518029718, -0.0210213968144872, 0.22441497921789, -1.19960193180548, 1.21032134388415, -1.23206604711697], a = 0.2, v = 0.2, t = 0.2)
movej(p[0.47941108671246, -0.0211177688231957, 0.224323202473952, -1.19104348576754, 1.22069616215289, -1.23715807445759], a = 0.2, v = 0.2, t = 0.2)
movej(p[0.480140932319629, -0.021165539017967, 0.224294740952765, -1.18847884365048, 1.24226256472373, -1.22298893005595], a = 0.2, v = 0.2, t = 0.2)
movej(p[0.480417798309935, -0.0211629505687092, 0.224141668181371, -1.18611557122643, 1.22757853600498, -1.24532821901967], a = 0.2, v = 0.2, t = 0.2)
movej(p[0.480560737369181, -0.0212246915357058, 0.224227217105011, -1.18536775928931, 1.24057721975999, -1.24484204462045], a = 0.2, v = 0.2, t = 0.2)
movej(p[0.480445686040553, -0.0212987477485215, 0.224294129653343, -1.17942781543015, 1.23924427243588, -1.2560055143456], a = 0.2, v = 0.2, t = 0.2)
movej(p[0.479426271844244, -0.0213285840777626, 0.22456371939688, -1.17395007967766, 1.26055443937438, -1.24566512943618], a = 0.2, v = 0.2, t = 0.2)
movej(p[0.477746755786031, -0.021403048556873, 0.224996307147004, -1.1715672322337, 1.26533626474404, -1.25096438224205], a = 0.2, v = 0.2, t = 0.2)
movej(p[0.475982846233082, -0.0213348341111165, 0.225243666517971, -1.17983755918213, 1.24690970357, -1.25850192058504], a = 0.2, v = 0.2, t = 0.2)
movej(p[0.474153014309082, -0.0211533580114311, 0.225370791830767, -1.1819258543962, 1.25682114405809, -1.22591058677586], a = 0.2, v = 0.2, t = 0.2)
movej(p[0.472683808622174, -0.0210661717694482, 0.225510136793952, -1.19237308120145, 1.23633190966991, -1.23999211312255], a = 0.2, v = 0.2, t = 0.2)
movej(p[0.471384197554905, -0.0210635747292295, 0.225856911316106, -1.19976108785313, 1.2429694431115, -1.22326753381529], a = 0.2, v = 0.2, t = 0.2)
movej(p[0.469772669907506, -0.0209433396617075, 0.226128058914668, -1.21778548456222, 1.2431338887849, -1.21097967312972], a = 0.2, v = 0.2, t = 0.2)
movej(p[0.468757540601687, -0.0208964244709074, 0.226233463598334, -1.21793325916168, 1.24108168846274, -1.20892508211006], a = 0.2, v = 0.2, t = 0.2)
movej(p[0.468432489119662, -0.0210765278854184, 0.226437632900912, -1.20475717786155, 1.21804613454024, -1.22857475433889], a = 0.2, v = 0.2, t = 0.2)
movej(p[0.467829644590796, -0.0209948982789487, 0.226504016794774, -1.21978056779313, 1.20146527693051, -1.23921019938723], a = 0.2, v = 0.2, t = 0.2)
movej(p[0.467814418549111, -0.0210446128504934, 0.226630537619268, -1.21925857549088, 1.22253235309046, -1.22626128819566], a = 0.2, v = 0.2, t = 0.2)
movej(p[0.468069068202301, -0.0209704746311518, 0.226436346788993, -1.21003132706508, 1.24649079148506, -1.19787253770277], a = 0.2, v = 0.2, t = 0.2)
movej(p[0.468538654201908, -0.021254046291755, 0.226724391563769, -1.20341305287714, 1.22544468632453, -1.22444431814166], a = 0.2, v = 0.2, t = 0.2)
movej(p[0.469012208531988, -0.0214239167429737, 0.226896862391057, -1.2040994701763, 1.22610422218342, -1.23409728584939], a = 0.2, v = 0.2, t = 0.2)
movej(p[0.47000909251912, -0.0213922447007051, 0.226642211182659, -1.1967872874965, 1.23695313985351, -1.21654906392587], a = 0.2, v = 0.2, t = 0.2)
movej(p[0.471005976506252, -0.0213605726584364, 0.226387559974262, -1.18950944222293, 1.24762917312743, -1.19888839309501], a = 0.2, v = 0.2, t = 0.2)
movej(p[0.471790465396183, -0.0213928100870078, 0.226315345226644, -1.20549887943396, 1.2275925679964, -1.23854585944742], a = 0.2, v = 0.2, t = 0.2)
movej(p[0.472703191071135, -0.0213005155833226, 0.225982287413533, -1.20673335257441, 1.2231968584467, -1.24636429432086], a = 0.2, v = 0.2, t = 0.2)
movej(p[0.473772263708044, -0.0212022179469308, 0.225593461061942, -1.20249276130389, 1.22472007035396, -1.24296857538219], a = 0.2, v = 0.2, t = 0.2)
movej(p[0.475288528116227, -0.0211493365690381, 0.225158304556362, -1.19102315605451, 1.23242828862751, -1.22745030418321], a = 0.2, v = 0.2, t = 0.2)
movej(p[0.476136576414964, -0.021265403729481, 0.225309169520074, -1.20904252158313, 1.23610241139077, -1.24308603660068], a = 0.2, v = 0.2, t = 0.2)
movej(p[0.477389725272529, -0.0213368457609842, 0.225125641683168, -1.20696794499838, 1.22767030590789, -1.2592764919226], a = 0.2, v = 0.2, t = 0.2)
movej(p[0.478296732746925, -0.0213294919752226, 0.224919006876749, -1.20369713881744, 1.23069092135696, -1.25945837019883], a = 0.2, v = 0.2, t = 0.2)
movej(p[0.479128688686309, -0.0213579977014787, 0.22477958220714, -1.20006531069602, 1.23492290126967, -1.2593065406796], a = 0.2, v = 0.2, t = 0.2)
movej(p[0.479728118122506, -0.0215056721149402, 0.224859530369272, -1.19529626163041, 1.24271547997608, -1.25858764690017], a = 0.2, v = 0.2, t = 0.2)
movej(p[0.479778526487603, -0.0214519695493211, 0.224787971713791, -1.20033907312299, 1.23720524402934, -1.26209224737108], a = 0.2, v = 0.2, t = 0.2)
movej(p[0.4797779165093, -0.0213795037455022, 0.224702398439906, -1.20626939615336, 1.23041885826478, -1.26597594992018], a = 0.2, v = 0.2, t = 0.2)
movej(p[0.479302478970523, -0.0213379099871148, 0.224592680091463, -1.17852509697924, 1.25105784555682, -1.25289246668177], a = 0.2, v = 0.2, t = 0.2)
movej(p[0.478806409537744, -0.0215379094565836, 0.225081458507593, -1.1996561923923, 1.23969564725698, -1.25887823293731], a = 0.2, v = 0.2, t = 0.2)
movej(p[0.477654918824852, -0.0211087947306496, 0.224743085429305, -1.20788451167538, 1.23007810202528, -1.25000581961109], a = 0.2, v = 0.2, t = 0.2)
movej(p[0.47619928968816, -0.0211378685791194, 0.224975957814416, -1.18893209341214, 1.24944654289551, -1.23551641727073], a = 0.2, v = 0.2, t = 0.2)
movej(p[0.474580887205027, -0.0214477914560905, 0.225566493827645, -1.15831933674176, 1.27588108359587, -1.22778744527835], a = 0.2, v = 0.2, t = 0.2)
movej(p[0.473978760946504, -0.0213607538959727, 0.225673952386753, -1.18865933577199, 1.23802827124508, -1.24968183221565], a = 0.2, v = 0.2, t = 0.2)
movej(p[0.472350927557425, -0.0212651050024692, 0.225919887432184, -1.20376914965203, 1.22007690800361, -1.24845416559541], a = 0.2, v = 0.2, t = 0.2)
movej(p[0.469850424213464, -0.0211631594323555, 0.226243365186559, -1.2021462112246, 1.21740980650407, -1.24029950633695], a = 0.2, v = 0.2, t = 0.2)
movej(p[0.469005051876036, -0.0212313270316948, 0.226538055429885, -1.20587904586126, 1.22486664958359, -1.23069096007608], a = 0.2, v = 0.2, t = 0.2)
movej(p[0.468623361429597, -0.0212723080259926, 0.226658180577973, -1.20744017473171, 1.21864265103777, -1.23709475409726], a = 0.2, v = 0.2, t = 0.2)
movej(p[0.468620836508143, -0.0212526712284699, 0.226605273480579, -1.20570350184144, 1.21321330767144, -1.24288405031871], a = 0.2, v = 0.2, t = 0.2)
movej(p[0.468700720293126, -0.0212486407576953, 0.226574137870706, -1.20373461250728, 1.215965360161, -1.24067551666296], a = 0.2, v = 0.2, t = 0.2)
movej(p[0.469484438299211, -0.0215533090465287, 0.226868420015457, -1.20673589526495, 1.23298017799853, -1.23273967365471], a = 0.2, v = 0.2, t = 0.2)
movej(p[0.469939294191101, -0.021585446525841, 0.226723938217169, -1.1889997667507, 1.23684026665399, -1.23197880462637], a = 0.2, v = 0.2, t = 0.2)
movej(p[0.470287513868195, -0.0215292286344247, 0.226437054817215, -1.16448210984551, 1.23639686400412, -1.23371237899927], a = 0.2, v = 0.2, t = 0.2)
movej(p[0.471759675187001, -0.0214452525507933, 0.226252140867533, -1.20498337540531, 1.22383518860179, -1.2476958047601], a = 0.2, v = 0.2, t = 0.2)
movej(p[0.473065587361802, -0.0200119420120562, 0.224221412815516, -1.21608565853458, 1.18538158411021, -1.24877823465621], a = 0.2, v = 0.2, t = 0.2)
movej(p[0.473672455874075, -0.0201132103074357, 0.224208339515868, -1.21364362281787, 1.19019444894607, -1.2474592103412], a = 0.2, v = 0.2, t = 0.2)
movej(p[0.474250159975286, -0.0202783729879004, 0.224279426507819, -1.21063066870452, 1.19679635628747, -1.24603703246612], a = 0.2, v = 0.2, t = 0.2)
movej(p[0.474827864308696, -0.0204435361796522, 0.224350413501347, -1.20759548715265, 1.20337925114403, -1.24459730621183], a = 0.2, v = 0.2, t = 0.2)
movej(p[0.475405568642106, -0.020608699371404, 0.224421400494875, -1.20453817661448, 1.20994083063172, -1.24314216055738], a = 0.2, v = 0.2, t = 0.2)
movej(p[0.475983272975515, -0.0207738625631558, 0.224492387488403, -1.20145622215895, 1.21648258589036, -1.24166909738047], a = 0.2, v = 0.2, t = 0.2)
movej(p[0.476560977076727, -0.0209390252436205, 0.224563474480354, -1.19834973135601, 1.22300221071695, -1.24018027830971], a = 0.2, v = 0.2, t = 0.2)
movej(p[0.477138681410137, -0.0211041884353723, 0.224634461473882, -1.19522132127069, 1.22950216989428, -1.23867409838977], a = 0.2, v = 0.2, t = 0.2)
movej(p[0.477716385743546, -0.0212693516271241, 0.22470544846741, -1.1920719689899, 1.23597891474922, -1.23715144170399], a = 0.2, v = 0.2, t = 0.2)
movej(p[0.478294090076956, -0.021434514818876, 0.224776435460938, -1.18889617541351, 1.24243512690955, -1.23561321616488], a = 0.2, v = 0.2, t = 0.2)
movej(p[0.478871794178168, -0.0215996774993406, 0.224847522452889, -1.18569870442352, 1.2488711864962, -1.23405777888006], a = 0.2, v = 0.2, t = 0.2)
movej(p[0.479427646709398, -0.0216019191328366, 0.224695522194322, -1.17676044035322, 1.24504582875274, -1.24488999851657], a = 0.2, v = 0.2, t = 0.2)
movej(p[0.479209818156635, -0.0215954293709121, 0.224757284193898, -1.17172584623117, 1.26832252218203, -1.22757020562666], a = 0.2, v = 0.2, t = 0.2)
movej(p[0.479002729987062, -0.0216285654668497, 0.224800073435171, -1.16787873363643, 1.2669600928872, -1.23467445606034], a = 0.2, v = 0.2, t = 0.2)
movej(p[0.478563416744592, -0.0217435151827535, 0.224975143843306, -1.16572703889173, 1.26758356099196, -1.24644568145357], a = 0.2, v = 0.2, t = 0.2)
movej(p[0.477894689218002, -0.021775994673406, 0.225162760094915, -1.1662923691396, 1.28051232832575, -1.23170136508076], a = 0.2, v = 0.2, t = 0.2)
movej(p[0.476775518451307, -0.0217478050477042, 0.225307419557023, -1.1594943152249, 1.27688638378444, -1.2431243616565], a = 0.2, v = 0.2, t = 0.2)
movej(p[0.475513205092184, -0.0217498649505489, 0.225564403078244, -1.16327264719191, 1.28134668050973, -1.23577739154258], a = 0.2, v = 0.2, t = 0.2)
movej(p[0.474146186485343, -0.0215081410860893, 0.225626293965316, -1.17860692112105, 1.25273083657659, -1.25103106052145], a = 0.2, v = 0.2, t = 0.2)
movej(p[0.473377371140163, -0.0214321537987751, 0.225716221698422, -1.18412922272794, 1.24668879806199, -1.2504803857759], a = 0.2, v = 0.2, t = 0.2)
movej(p[0.473350094224828, -0.0214241868858767, 0.225715217612422, -1.18435286094945, 1.24685817849518, -1.24987072508118], a = 0.2, v = 0.2, t = 0.2)
movej(p[0.47247076617674, -0.0210874868704015, 0.225632253021027, -1.20346390752611, 1.23217734113205, -1.25087695856299], a = 0.2, v = 0.2, t = 0.2)
movej(p[0.471625353157145, -0.0209627418316975, 0.225732953773845, -1.20404463464244, 1.22937268447518, -1.24779878780299], a = 0.2, v = 0.2, t = 0.2)
movej(p[0.470500637890589, -0.0210059767507538, 0.225987667281437, -1.20929617809433, 1.22368506521748, -1.24247606046698], a = 0.2, v = 0.2, t = 0.2)
movej(p[0.469311792027316, -0.0210756098240832, 0.22626846726092, -1.21426023030251, 1.21895105129713, -1.23813428342831], a = 0.2, v = 0.2, t = 0.2)
movej(p[0.469897720144406, -0.0212524511303486, 0.226230531341232, -1.20457839800597, 1.22696827169413, -1.24118968227947], a = 0.2, v = 0.2, t = 0.2)
movej(p[0.470607008462633, -0.0215211013258941, 0.226235251940674, -1.2005047038054, 1.23172281130102, -1.23664337297142], a = 0.2, v = 0.2, t = 0.2)
movej(p[0.471088470197499, -0.0216380159348163, 0.226207167210282, -1.20090314057189, 1.23186588260133, -1.22967803609409], a = 0.2, v = 0.2, t = 0.2)
movej(p[0.471700445380015, -0.0218712972928931, 0.226214181050707, -1.19719017871707, 1.23892531420567, -1.22227689360652], a = 0.2, v = 0.2, t = 0.2)
movej(p[0.472900629577192, -0.0218481077355086, 0.225950445127335, -1.19535514590297, 1.2310987790692, -1.22895560750085], a = 0.2, v = 0.2, t = 0.2)
movej(p[0.473944060754698, -0.0217340240098194, 0.225682680433358, -1.19391409624382, 1.2302864535177, -1.23727500565189], a = 0.2, v = 0.2, t = 0.2)
movej(p[0.475237452990846, -0.0217358216312283, 0.225430488875152, -1.19395919553497, 1.23848351169241, -1.22967782999705], a = 0.2, v = 0.2, t = 0.2)
movej(p[0.475927419341068, -0.0216620450712038, 0.225272711263458, -1.20940372545924, 1.23204934724252, -1.23349813047612], a = 0.2, v = 0.2, t = 0.2)
movej(p[0.475251901202698, -0.0214852911142277, 0.225306039531137, -1.20758932224244, 1.23146239473536, -1.23376848729679], a = 0.2, v = 0.2, t = 0.2)
movej(p[0.474762890934117, -0.0215072565190921, 0.225412918051952, -1.20748583291767, 1.23177557163194, -1.23296896768643], a = 0.2, v = 0.2, t = 0.2)
movej(p[0.474273780697581, -0.0215291211518852, 0.225519895826975, -1.20738465686854, 1.2320864359036, -1.23216927784997], a = 0.2, v = 0.2, t = 0.2)
movej(p[0.473784770196803, -0.0215510860454625, 0.225626874346213, -1.20728405933919, 1.23239967557297, -1.23136984273599], a = 0.2, v = 0.2, t = 0.2)
movej(p[0.473295759928222, -0.021573051450327, 0.225733752867029, -1.20718320772138, 1.2327100951059, -1.23056978973725], a = 0.2, v = 0.2, t = 0.2)
movej(p[0.472806649428061, -0.0215950160814686, 0.225840731152725, -1.20708036607314, 1.23302238048709, -1.22976954236259], a = 0.2, v = 0.2, t = 0.2)
movej(p[0.47231763915948, -0.0216169814863331, 0.225947609673541, -1.2069811058615, 1.23333366256196, -1.22896828439132], a = 0.2, v = 0.2, t = 0.2)
movej(p[0.471828628658701, -0.0216389463799104, 0.226054588192779, -1.20687988780848, 1.23364470220177, -1.22816896450987], a = 0.2, v = 0.2, t = 0.2)
movej(p[0.471339518422165, -0.0216608110127035, 0.226161565967802, -1.20678095153233, 1.23395553794241, -1.22736734352391], a = 0.2, v = 0.2, t = 0.2)
movej(p[0.470850508153585, -0.0216827764175679, 0.226268444488617, -1.20667875596245, 1.23426693061303, -1.22656637003172], a = 0.2, v = 0.2, t = 0.2)
movej(p[0.470361397653423, -0.0217047410487096, 0.226375422774314, -1.20657887505661, 1.23457601503153, -1.22576523049275], a = 0.2, v = 0.2, t = 0.2)
movej(p[0.469872387152645, -0.0217267059422869, 0.226482401293552, -1.20647956981438, 1.23488746771117, -1.22496434256607], a = 0.2, v = 0.2, t = 0.2)
movej(p[0.47020095377519, -0.0218043227347197, 0.226453160601327, -1.20539123321238, 1.23668461906965, -1.22482809640206], a = 0.2, v = 0.2, t = 0.2)
movej(p[0.470634573532414, -0.0218811265650518, 0.226402359343554, -1.20409471417011, 1.23866321628696, -1.22482835613594], a = 0.2, v = 0.2, t = 0.2)
movej(p[0.470829286716159, -0.0219039977049019, 0.226371527914171, -1.20270046708852, 1.24016380500112, -1.22490111208907], a = 0.2, v = 0.2, t = 0.2)
movej(p[0.471538225158184, -0.0219333473817625, 0.226238322013824, -1.20231713951865, 1.23570561339483, -1.23213758256452], a = 0.2, v = 0.2, t = 0.2)
movej(p[0.472670559592931, -0.0218792116250554, 0.22598767052723, -1.20193291392541, 1.23184327032473, -1.23386581036252], a = 0.2, v = 0.2, t = 0.2)
movej(p[0.474080807989773, -0.0217448482463553, 0.22565065279525, -1.20129965011707, 1.22997835727295, -1.22873950467483], a = 0.2, v = 0.2, t = 0.2)
movej(p[0.475491056618813, -0.0216104853789424, 0.225313535064846, -1.20067117748011, 1.22811971221086, -1.22360933381515], a = 0.2, v = 0.2, t = 0.2)
movej(p[0.476901205016272, -0.0214761217378067, 0.224976517099325, -1.20004405060224, 1.22627020527428, -1.21847402971685], a = 0.2, v = 0.2, t = 0.2)
movej(p[0.478311453381686, -0.0213418588687423, 0.224639399879596, -1.19942086847432, 1.22442820763771, -1.2133361965172], a = 0.2, v = 0.2, t = 0.2)
movej(p[0.479721601779145, -0.0212074952276066, 0.224302381914074, -1.19879819776921, 1.22259658514219, -1.20819456912676], a = 0.2, v = 0.2, t = 0.2)
movej(p[0.480511938480996, -0.021569042425159, 0.224310665732589, -1.20195822438292, 1.22639422507791, -1.22967547506826], a = 0.2, v = 0.2, t = 0.2)
movej(p[0.480331212062557, -0.0216133281919006, 0.224357373253851, -1.19737320587999, 1.23124853980695, -1.25340388955489], a = 0.2, v = 0.2, t = 0.2)
movej(p[0.480018912801501, -0.0212826127474651, 0.224256855611836, -1.18752759234472, 1.2337503472538, -1.26553374056903], a = 0.2, v = 0.2, t = 0.2)
movej(p[0.478986629449446, -0.0214199454230149, 0.224520865000486, -1.18041298938572, 1.24857421929981, -1.26446177711899], a = 0.2, v = 0.2, t = 0.2)
movej(p[0.477673538618081, -0.0214447335462418, 0.224785346942276, -1.18324989750875, 1.24507736415306, -1.26736863342952], a = 0.2, v = 0.2, t = 0.2)
movej(p[0.476172701391988, -0.0213435776501822, 0.225039448842043, -1.18520007363455, 1.24704121086249, -1.26090753892403], a = 0.2, v = 0.2, t = 0.2)
movej(p[0.474141336906278, -0.0212877569458151, 0.225424152721879, -1.19402329670195, 1.23981936717666, -1.25702944771244], a = 0.2, v = 0.2, t = 0.2)
movej(p[0.472747876369963, -0.0212824271925719, 0.225709294383973, -1.19216783037363, 1.23630844749456, -1.25909654534875], a = 0.2, v = 0.2, t = 0.2)
movej(p[0.471245208724915, -0.0213711621588284, 0.226062764487786, -1.19675533155775, 1.22880467021292, -1.2519086460128], a = 0.2, v = 0.2, t = 0.2)
movej(p[0.470125254847043, -0.0213400532782162, 0.226289108493644, -1.20217597984093, 1.2268247717619, -1.24001654770257], a = 0.2, v = 0.2, t = 0.2)
movej(p[0.470631751265954, -0.021432286008403, 0.226231155227017, -1.20155467927465, 1.22095401673559, -1.24260880938936], a = 0.2, v = 0.2, t = 0.2)
movej(p[0.471123193594117, -0.0216143405782059, 0.226181026376006, -1.19333136784747, 1.22796683614906, -1.24239151598404], a = 0.2, v = 0.2, t = 0.2)
movej(p[0.471861757357117, -0.0217701578271159, 0.226109036842565, -1.19983496413161, 1.22457256565144, -1.23466891833072], a = 0.2, v = 0.2, t = 0.2)
movej(p[0.472649184436295, -0.0217199868632527, 0.22594180607577, -1.20150751125927, 1.21834979175174, -1.23655935678059], a = 0.2, v = 0.2, t = 0.2)
movej(p[0.473712702579432, -0.0215434049683524, 0.225664268324084, -1.19684954893753, 1.21964972628297, -1.24207620314622], a = 0.2, v = 0.2, t = 0.2)
movej(p[0.475189164262886, -0.0214658150441772, 0.225386395545712, -1.19876012709508, 1.20770931451258, -1.23972439349698], a = 0.2, v = 0.2, t = 0.2)
movej(p[0.476395190847618, -0.0215424144633137, 0.225206484718061, -1.20305461198831, 1.20950815337648, -1.25169718871131], a = 0.2, v = 0.2, t = 0.2)
movej(p[0.477265448329729, -0.0214594572023864, 0.225020478353411, -1.20169482187486, 1.20632306574105, -1.25515930061864], a = 0.2, v = 0.2, t = 0.2)
movej(p[0.478700327753854, -0.021544942192005, 0.224765743167834, -1.20113667777829, 1.20643409012548, -1.2577073188159], a = 0.2, v = 0.2, t = 0.2)
movej(p[0.479911983911679, -0.0216556989549512, 0.224577619924541, -1.20341428390757, 1.20342601630143, -1.2584317896442], a = 0.2, v = 0.2, t = 0.2)
movej(p[0.480592428474776, -0.0216352191769611, 0.224454893255698, -1.20398854019919, 1.19907299469983, -1.25782641013743], a = 0.2, v = 0.2, t = 0.2)
movej(p[0.480843240428803, -0.0213067554525976, 0.224262893215348, -1.19005097845442, 1.20528126586233, -1.25588849049753], a = 0.2, v = 0.2, t = 0.2)
movej(p[0.480943512368261, -0.0213489814317619, 0.224270542061075, -1.19175507090253, 1.20587495346646, -1.26288198858028], a = 0.2, v = 0.2, t = 0.2)
movej(p[0.480602830573407, -0.0214817799861488, 0.224369531548434, -1.19778751035724, 1.20228423835949, -1.26819231506727], a = 0.2, v = 0.2, t = 0.2)
movej(p[0.480311877418087, -0.0213651038341507, 0.224351359125242, -1.18800052204783, 1.21391917057091, -1.27297536634079], a = 0.2, v = 0.2, t = 0.2)
movej(p[0.480020923999143, -0.0212485276805011, 0.224333187212724, -1.17810467715938, 1.22548136329941, -1.27775222297829], a = 0.2, v = 0.2, t = 0.2)
movej(p[0.478762021460816, -0.0212756457366563, 0.224600206931142, -1.18253047445228, 1.22478133894657, -1.28517056130971], a = 0.2, v = 0.2, t = 0.2)
movej(p[0.477199762794565, -0.0214551920078586, 0.225018904000897, -1.19808553810767, 1.21201594010791, -1.25802516421725], a = 0.2, v = 0.2, t = 0.2)
movej(p[0.474454328366338, -0.0211858097917547, 0.225457558764871, -1.1887783038955, 1.22406459257788, -1.26630024145371], a = 0.2, v = 0.2, t = 0.2)
movej(p[0.473200163734346, -0.0212472017457704, 0.225712664534783, -1.18712912594496, 1.22837622980718, -1.26756213179485], a = 0.2, v = 0.2, t = 0.2)
movej(p[0.472583451152489, -0.0212004503545902, 0.225854595746297, -1.19291259012304, 1.22144453028432, -1.24922202134855], a = 0.2, v = 0.2, t = 0.2)
movej(p[0.472994645655236, -0.0213182762308122, 0.225768451600801, -1.19151215463311, 1.22927917747459, -1.25028958010524], a = 0.2, v = 0.2, t = 0.2)
movej(p[0.473653765016986, -0.0215099758662272, 0.22571776139713, -1.19693866048544, 1.22306647949251, -1.24210287696159], a = 0.2, v = 0.2, t = 0.2)
movej(p[0.474572520109138, -0.0212856013717599, 0.225520544417951, -1.19367080286749, 1.22363395849981, -1.24334852234579], a = 0.2, v = 0.2, t = 0.2)
movej(p[0.475660024697466, -0.0213691820147256, 0.225341894098925, -1.19540628141527, 1.21501697890717, -1.24236574200819], a = 0.2, v = 0.2, t = 0.2)
movej(p[0.47669595591316, -0.0212861199030405, 0.225124871399759, -1.19052773616319, 1.22262245278077, -1.23923495099921], a = 0.2, v = 0.2, t = 0.2)
movej(p[0.4780559771292, -0.0212131439836347, 0.224901652701826, -1.19287915279337, 1.20054349164192, -1.24431243421552], a = 0.2, v = 0.2, t = 0.2)
movej(p[0.478932058727439, -0.0209874894946077, 0.224737230608394, -1.1838306374972, 1.20329244925911, -1.25618171684997], a = 0.2, v = 0.2, t = 0.2)
movej(p[0.479917088594915, -0.0211062216161519, 0.224593622622909, -1.18288360022262, 1.20995534646458, -1.24626371676464], a = 0.2, v = 0.2, t = 0.2)
movej(p[0.480760085703032, -0.0212010909191079, 0.224447662796027, -1.18117602038492, 1.21627004712495, -1.24487392244317], a = 0.2, v = 0.2, t = 0.2)
movej(p[0.481315872369393, -0.0210011997284883, 0.224379730230879, -1.1791609284907, 1.21629634416728, -1.23205446897242], a = 0.2, v = 0.2, t = 0.2)
movej(p[0.481515100637803, -0.0210099343385223, 0.224358337155972, -1.17815253069747, 1.2161654767677, -1.23972379224663], a = 0.2, v = 0.2, t = 0.2)
movej(p[0.481413395560328, -0.0209126526200378, 0.224341103338501, -1.1683854925751, 1.22272436295093, -1.25188387459672], a = 0.2, v = 0.2, t = 0.2)
movej(p[0.480932082218049, -0.0210680245943422, 0.224470682179925, -1.17207468026002, 1.22118990934986, -1.2538279999751], a = 0.2, v = 0.2, t = 0.2)
movej(p[0.480278882949553, -0.0210395115820809, 0.224586321506142, -1.16700920487697, 1.23479693002541, -1.25638890081519], a = 0.2, v = 0.2, t = 0.2)
movej(p[0.479089941372756, -0.020951860587842, 0.224785115797237, -1.16929814753556, 1.23324656574416, -1.26307786768516], a = 0.2, v = 0.2, t = 0.2)
movej(p[0.477900768886091, -0.0208969297054085, 0.224960376474837, -1.16681797456202, 1.23847955821008, -1.266860773672], a = 0.2, v = 0.2, t = 0.2)
movej(p[0.476177834924055, -0.0208660280970625, 0.225304823296661, -1.17375364823228, 1.23257523360108, -1.26262728095037], a = 0.2, v = 0.2, t = 0.2)
movej(p[0.47392999049906, -0.0210744549243275, 0.22572597615335, -1.18340870835612, 1.22967686005968, -1.2606952502284], a = 0.2, v = 0.2, t = 0.2)
movej(p[0.471987511185234, -0.0209185334949338, 0.226058473797271, -1.18658404783889, 1.22988092139503, -1.25492532026012], a = 0.2, v = 0.2, t = 0.2)
movej(p[0.470453011005531, -0.0211176115317419, 0.226387433770144, -1.19518875165463, 1.2166167253822, -1.24705247108693], a = 0.2, v = 0.2, t = 0.2)
movej(p[0.46953466491241, -0.0209780174291482, 0.226518789736021, -1.19399419174528, 1.22200495420622, -1.23218893614582], a = 0.2, v = 0.2, t = 0.2)
movej(p[0.469380386026086, -0.0210417698645343, 0.226566158208835, -1.19701125953714, 1.21962030513394, -1.23116939318492], a = 0.2, v = 0.2, t = 0.2)
movej(p[0.469772711388623, -0.0212218158163531, 0.226525289086701, -1.19971358970917, 1.21841043432092, -1.23067796318822], a = 0.2, v = 0.2, t = 0.2)
movej(p[0.470392312089555, -0.0213782051159407, 0.226436525984127, -1.19748760390651, 1.22132900060514, -1.22657189897399], a = 0.2, v = 0.2, t = 0.2)
movej(p[0.471374783867938, -0.0213306397800801, 0.226290561764177, -1.19677341723916, 1.21394891675691, -1.22670821858814], a = 0.2, v = 0.2, t = 0.2)
movej(p[0.472919232511504, -0.0213565580222637, 0.225987775681092, -1.19290104795933, 1.22162079453759, -1.22293169855496], a = 0.2, v = 0.2, t = 0.2)
movej(p[0.474340731505382, -0.0211327386288692, 0.225686827264344, -1.18571751109246, 1.22294433123699, -1.22812888302052], a = 0.2, v = 0.2, t = 0.2)
movej(p[0.475462579020135, -0.0210161445166176, 0.225500733103684, -1.1891885610666, 1.20929139153138, -1.22250890748186], a = 0.2, v = 0.2, t = 0.2)
movej(p[0.476898897298137, -0.0210211108450222, 0.225191388716539, -1.18278588547043, 1.21517050390894, -1.22415309160952], a = 0.2, v = 0.2, t = 0.2)
movej(p[0.478483089295525, -0.0211936787775452, 0.22491944520388, -1.18334559763402, 1.21029707164117, -1.23337182014103], a = 0.2, v = 0.2, t = 0.2)
movej(p[0.479631502666609, -0.020998483320294, 0.224707910448855, -1.182967482097, 1.2047047431345, -1.22738576086477], a = 0.2, v = 0.2, t = 0.2)
movej(p[0.480410399863974, -0.021286785930527, 0.224601291403326, -1.18482290701421, 1.20537326677219, -1.24432535576934], a = 0.2, v = 0.2, t = 0.2)
movej(p[0.48103827863366, -0.0215930367884796, 0.224524813938796, -1.18715939355976, 1.20797985564562, -1.24775005373577], a = 0.2, v = 0.2, t = 0.2)
movej(p[0.481028634723103, -0.0216439900520767, 0.224529152131734, -1.18674189944909, 1.21073963066423, -1.24648500148815], a = 0.2, v = 0.2, t = 0.2)
movej(p[0.480183073763117, -0.0212356570494154, 0.224626502539461, -1.17844433806437, 1.21865213478792, -1.2502669809995], a = 0.2, v = 0.2, t = 0.2)
movej(p[0.479275788815198, -0.0210620485709696, 0.224727109793133, -1.16742901946193, 1.23799039459234, -1.26558716862864], a = 0.2, v = 0.2, t = 0.2)
movej(p[0.478175042000728, -0.0210511216598013, 0.224927801180707, -1.1693836696152, 1.23778837133024, -1.25947293167172], a = 0.2, v = 0.2, t = 0.2)
movej(p[0.476559338607121, -0.0209302060933466, 0.225232136127232, -1.17451201881932, 1.23777977351007, -1.25691874442746], a = 0.2, v = 0.2, t = 0.2)
movej(p[0.474635917212893, -0.0209252367119605, 0.225584350132453, -1.17791370860513, 1.23485770476603, -1.25630942814418], a = 0.2, v = 0.2, t = 0.2)
movej(p[0.472771693721525, -0.021121281531748, 0.225925829184322, -1.17984807989922, 1.23997229943183, -1.25863544790553], a = 0.2, v = 0.2, t = 0.2)
movej(p[0.470994930494933, -0.0212350325759263, 0.226291390939134, -1.19055205454425, 1.2307517093465, -1.23863921063324], a = 0.2, v = 0.2, t = 0.2)
movej(p[0.470708304012668, -0.0212701879060118, 0.226348106037924, -1.19322518383717, 1.22673586903165, -1.23190884362685], a = 0.2, v = 0.2, t = 0.2)
movej(p[0.471189225923294, -0.0213442232397641, 0.226256799821069, -1.19360953493059, 1.22361557725591, -1.22919955484807], a = 0.2, v = 0.2, t = 0.2)
movej(p[0.471712341339233, -0.02135824699504, 0.226150184503713, -1.19175653817908, 1.23226585880621, -1.22518062193198], a = 0.2, v = 0.2, t = 0.2)
movej(p[0.472634630849577, -0.0213189099433402, 0.225987222344079, -1.19209863287635, 1.22517241145202, -1.2269730195009], a = 0.2, v = 0.2, t = 0.2)
movej(p[0.47352328819678, -0.0213064691426675, 0.225807719347612, -1.19172072858617, 1.22124769382525, -1.22066818920825], a = 0.2, v = 0.2, t = 0.2)
movej(p[0.474734367312777, -0.0212500243281723, 0.225540738640983, -1.1837497016718, 1.22813330895443, -1.23398326991478], a = 0.2, v = 0.2, t = 0.2)
movej(p[0.476138022296805, -0.0214350910859242, 0.225312940526443, -1.18777345450881, 1.22005572557747, -1.23585672293456], a = 0.2, v = 0.2, t = 0.2)
movej(p[0.477532030623351, -0.0212374332293558, 0.225064162860126, -1.18489026410485, 1.21463859380365, -1.23723943072486], a = 0.2, v = 0.2, t = 0.2)
movej(p[0.479084432094653, -0.0210331751561962, 0.224740518052583, -1.17754259654053, 1.21859833653178, -1.23315121737751], a = 0.2, v = 0.2, t = 0.2)
movej(p[0.480080817698152, -0.0212440331315749, 0.22459800747979, -1.18171150356325, 1.20595972925612, -1.24337287068863], a = 0.2, v = 0.2, t = 0.2)
movej(p[0.480901514524723, -0.0214542324017409, 0.224493786197519, -1.18668854755662, 1.1995427329761, -1.24811884148315], a = 0.2, v = 0.2, t = 0.2)
movej(p[0.481388128177127, -0.0215322877411416, 0.224401513735294, -1.18651599702462, 1.19985441154085, -1.24878055245768], a = 0.2, v = 0.2, t = 0.2)
movej(p[0.481577722502432, -0.0217244035728562, 0.224359835575345, -1.18756021546553, 1.20221226500141, -1.2482277307912], a = 0.2, v = 0.2, t = 0.2)
movej(p[0.481589117463791, -0.021655060698691, 0.224354307405833, -1.1864619569379, 1.20230884814929, -1.24843024565026], a = 0.2, v = 0.2, t = 0.2)
movej(p[0.480827400651255, -0.0215390585320842, 0.2244898477498, -1.18584750194513, 1.2036519195572, -1.24765088190031], a = 0.2, v = 0.2, t = 0.2)
movej(p[0.479525043861756, -0.0210486643134721, 0.22467641932641, -1.17376466889545, 1.22500565844176, -1.26082899121601], a = 0.2, v = 0.2, t = 0.2)
movej(p[0.478306558319283, -0.020951000736875, 0.224862393621923, -1.16914979022101, 1.23589174110208, -1.26784654965948], a = 0.2, v = 0.2, t = 0.2)
movej(p[0.477012454528519, -0.0208823284452945, 0.225109041518932, -1.17178262930928, 1.2371333644483, -1.26377330413288], a = 0.2, v = 0.2, t = 0.2)
movej(p[0.47520058146238, -0.020915860217109, 0.225440411059596, -1.17559014085023, 1.23455196169741, -1.26418884139681], a = 0.2, v = 0.2, t = 0.2)
movej(p[0.473440379641454, -0.0210747299668852, 0.225771841417608, -1.18269154356027, 1.23536331009506, -1.24930409357013], a = 0.2, v = 0.2, t = 0.2)
movej(p[0.472750494328375, -0.0211157138807385, 0.22588895091169, -1.1865862749113, 1.23063745556211, -1.24884059370407], a = 0.2, v = 0.2, t = 0.2)
movej(p[0.472832989213431, -0.0211276879724193, 0.225877903510723, -1.19095660757121, 1.22065165889917, -1.2342689989588], a = 0.2, v = 0.2, t = 0.2)
movej(p[0.473200757251964, -0.0211757780794496, 0.225795702042128, -1.18839961121908, 1.22437032537022, -1.24063739062237], a = 0.2, v = 0.2, t = 0.2)
movej(p[0.473791436078697, -0.0213047230791159, 0.225661430746944, -1.18699133734828, 1.23112849330549, -1.24044519109115], a = 0.2, v = 0.2, t = 0.2)
movej(p[0.474820900977866, -0.0210681716504299, 0.225516809403547, -1.18637962648012, 1.2205952370074, -1.24039681154205], a = 0.2, v = 0.2, t = 0.2)
movej(p[0.475668693244998, -0.0210735841096209, 0.225345002922073, -1.18593996287815, 1.21896733968509, -1.23492499672117], a = 0.2, v = 0.2, t = 0.2)
movej(p[0.476501498744692, -0.0210232842338799, 0.225187277013676, -1.18327406941948, 1.21673626460455, -1.23832004717079], a = 0.2, v = 0.2, t = 0.2)
movej(p[0.477746919606434, -0.0210044814097055, 0.224988669584457, -1.18432639593905, 1.2058244782973, -1.23366596672911], a = 0.2, v = 0.2, t = 0.2)
movej(p[0.478693556608516, -0.0209002572992363, 0.224835532354867, -1.18192833818203, 1.20779637758193, -1.2376906459889], a = 0.2, v = 0.2, t = 0.2)
movej(p[0.479545401326156, -0.0208961402349883, 0.22465198637477, -1.17682099366266, 1.21441518962322, -1.24422171609086], a = 0.2, v = 0.2, t = 0.2)
movej(p[0.479887808749923, -0.0209597016569964, 0.224621105931413, -1.18103531007726, 1.20150245453227, -1.23782909216849], a = 0.2, v = 0.2, t = 0.2)
movej(p[0.48122077741939, -0.0211745657672322, 0.22439659608675, -1.18037193971942, 1.21216401964753, -1.24912779740064], a = 0.2, v = 0.2, t = 0.2)
movej(p[0.48185448062802, -0.0212071597479109, 0.224274632256881, -1.17962358512336, 1.21218903730412, -1.2494850202515], a = 0.2, v = 0.2, t = 0.2)
movej(p[0.481854119822291, -0.021316719031594, 0.224263191401228, -1.18068323419842, 1.21427390802289, -1.24839063602747], a = 0.2, v = 0.2, t = 0.2)
movej(p[0.481517964199642, -0.0213656600763559, 0.224316761929499, -1.18123919731393, 1.21528210936216, -1.24830836539359], a = 0.2, v = 0.2, t = 0.2)
movej(p[0.480807125230036, -0.0213028302457987, 0.224444992158699, -1.18130338300245, 1.21590176003908, -1.24830669692053], a = 0.2, v = 0.2, t = 0.2)
movej(p[0.479581553398775, -0.0211163039846147, 0.224639295787872, -1.17620575182784, 1.22869717659622, -1.2587959650511], a = 0.2, v = 0.2, t = 0.2)
movej(p[0.478163057760943, -0.0209515261719266, 0.224861663091894, -1.1702297809212, 1.24614812032478, -1.2701946528913], a = 0.2, v = 0.2, t = 0.2)
movej(p[0.476721425788477, -0.0208206660954128, 0.225147051084523, -1.17400227146399, 1.24302829492675, -1.26469166431474], a = 0.2, v = 0.2, t = 0.2)
movej(p[0.47463847049303, -0.0210151587562504, 0.225503314543289, -1.18087179551487, 1.24477839282567, -1.25579657587664], a = 0.2, v = 0.2, t = 0.2)
movej(p[0.472678423464467, -0.0212660980422503, 0.225835751620887, -1.18914218348122, 1.23952202813783, -1.24494387922526], a = 0.2, v = 0.2, t = 0.2)
movej(p[0.471452237280064, -0.0212720344292205, 0.226076838597906, -1.19340983185305, 1.22884988558997, -1.24700622330163], a = 0.2, v = 0.2, t = 0.2)
movej(p[0.471005964652345, -0.0212295607110129, 0.226154486424729, -1.19660495711792, 1.22263394227298, -1.23746438836784], a = 0.2, v = 0.2, t = 0.2)
movej(p[0.471413048152065, -0.0211375373743208, 0.226094760218089, -1.19466680776575, 1.22598898582499, -1.23782118088074], a = 0.2, v = 0.2, t = 0.2)
movej(p[0.471915809911143, -0.0212549480866796, 0.225980526124091, -1.19506465759381, 1.22119974652586, -1.24101948596461], a = 0.2, v = 0.2, t = 0.2)
movej(p[0.472394360462286, -0.0214470633906713, 0.225872717868499, -1.1963850292349, 1.2268064421485, -1.2340407268057], a = 0.2, v = 0.2, t = 0.2)
movej(p[0.47350959804046, -0.0211472504377953, 0.225725472197882, -1.19368129395958, 1.21613916298194, -1.23402367113473], a = 0.2, v = 0.2, t = 0.2)
movej(p[0.474558538878987, -0.021160340857999, 0.225524771579623, -1.19004087650581, 1.22092584147793, -1.23558936511433], a = 0.2, v = 0.2, t = 0.2)
movej(p[0.475858283925819, -0.0211516918335116, 0.225304541864072, -1.18980525497002, 1.21274701284435, -1.23234612719867], a = 0.2, v = 0.2, t = 0.2)
movej(p[0.476667957667387, -0.0210014238515985, 0.225187051754591, -1.18811474150097, 1.20498738220108, -1.23305814494086], a = 0.2, v = 0.2, t = 0.2)
movej(p[0.477888009230792, -0.0211735457479964, 0.224931960701407, -1.18562033137223, 1.21289588476952, -1.23504427260015], a = 0.2, v = 0.2, t = 0.2)
movej(p[0.478678744700448, -0.0210823657986994, 0.224807228613017, -1.18380859789304, 1.20732776314448, -1.23222136492953], a = 0.2, v = 0.2, t = 0.2)
movej(p[0.480043260067024, -0.021075852708702, 0.224554659703535, -1.18052865700701, 1.21020880218614, -1.234802939525], a = 0.2, v = 0.2, t = 0.2)
movej(p[0.480167719730813, -0.0210238288652042, 0.224545082553795, -1.18096358541812, 1.2010427176548, -1.23287329224855], a = 0.2, v = 0.2, t = 0.2)
movej(p[0.480490230011546, -0.0210260285381599, 0.224496241891835, -1.18106671311533, 1.19664518143487, -1.23250054069648], a = 0.2, v = 0.2, t = 0.2)
movej(p[0.481702653456256, -0.0212193724107478, 0.224272142120195, -1.17792869211622, 1.21767649257564, -1.24094874666217], a = 0.2, v = 0.2, t = 0.2)
movej(p[0.481989956165963, -0.0212218648724036, 0.224226121248515, -1.17611675769336, 1.22073882975972, -1.24441683974239], a = 0.2, v = 0.2, t = 0.2)
movej(p[0.481778026429617, -0.0213414763848997, 0.224232340808872, -1.1774410436679, 1.21693865652879, -1.24804397988287], a = 0.2, v = 0.2, t = 0.2)
movej(p[0.481207387286411, -0.0213925319738684, 0.224318678199822, -1.17882926580033, 1.21768877451029, -1.24759409786653], a = 0.2, v = 0.2, t = 0.2)
movej(p[0.480075217860019, -0.0210190359149348, 0.224593844029647, -1.17346755193543, 1.23253423658222, -1.25475341192672], a = 0.2, v = 0.2, t = 0.2)
movej(p[0.478944052676659, -0.0207729476785143, 0.224809662675391, -1.16982592590325, 1.24746393660878, -1.26625378120629], a = 0.2, v = 0.2, t = 0.2)
movej(p[0.477293098609985, -0.0208484847916821, 0.225086119768386, -1.174204933396, 1.23908382679668, -1.27840922254543], a = 0.2, v = 0.2, t = 0.2)
movej(p[0.475667953751267, -0.0208708222282084, 0.225375664993025, -1.17729980823333, 1.25051911752972, -1.2628224527629], a = 0.2, v = 0.2, t = 0.2)
movej(p[0.473659204961202, -0.020980271640679, 0.225739266058097, -1.18484314595141, 1.23552316352929, -1.25991949699461], a = 0.2, v = 0.2, t = 0.2)
movej(p[0.472070153330717, -0.0210424998426434, 0.226029799062304, -1.19017277611183, 1.22506000043801, -1.25421315330922], a = 0.2, v = 0.2, t = 0.2)
movej(p[0.472215189394474, -0.021110733118884, 0.225980883929436, -1.18995267345705, 1.23008945119325, -1.25024880211377], a = 0.2, v = 0.2, t = 0.2)
movej(p[0.472486966761023, -0.0210880029517846, 0.225931197990426, -1.18981209628672, 1.23291889013501, -1.24388542160829], a = 0.2, v = 0.2, t = 0.2)
movej(p[0.472878354569151, -0.021150764004205, 0.225866926659746, -1.19041973480557, 1.22646458620456, -1.24264339117908], a = 0.2, v = 0.2, t = 0.2)
movej(p[0.4734757745412, -0.0209702476743065, 0.225805889936069, -1.18733523991508, 1.22578601843175, -1.24497448034773], a = 0.2, v = 0.2, t = 0.2)
movej(p[0.474087151089913, -0.0210493739328028, 0.225685812207493, -1.18853820437207, 1.21271204307923, -1.24424949112922], a = 0.2, v = 0.2, t = 0.2)
movej(p[0.474617244226527, -0.0210086709810022, 0.225607433726836, -1.18733231468362, 1.21571719845679, -1.23692780134956], a = 0.2, v = 0.2, t = 0.2)
movej(p[0.475632386486128, -0.0209610451015602, 0.225431444584048, -1.18454364931028, 1.22112234718708, -1.23668749332205], a = 0.2, v = 0.2, t = 0.2)
movej(p[0.477071328077233, -0.0210713193467731, 0.225122244716277, -1.18416746694901, 1.21968613447925, -1.23076499376219], a = 0.2, v = 0.2, t = 0.2)
movej(p[0.477988335944257, -0.0209830268401386, 0.22500642073306, -1.18197480709303, 1.20979972066575, -1.2312171865037], a = 0.2, v = 0.2, t = 0.2)
movej(p[0.478800080184239, -0.0209350511478518, 0.224872258175669, -1.17933429093942, 1.21365441158104, -1.23261246795577], a = 0.2, v = 0.2, t = 0.2)
movej(p[0.479751215441959, -0.0211148764190906, 0.224614782053773, -1.17987159375325, 1.21628408420539, -1.23329381707673], a = 0.2, v = 0.2, t = 0.2)
movej(p[0.480633173198232, -0.0209409267771096, 0.224530939235335, -1.17775563719646, 1.18526821520287, -1.24159939414674], a = 0.2, v = 0.2, t = 0.2)
movej(p[0.481553779980924, -0.020997035044746, 0.224338960710587, -1.17465778131656, 1.22140341018452, -1.23683973903703], a = 0.2, v = 0.2, t = 0.2)
movej(p[0.482244231519587, -0.0211332425163506, 0.224165657602026, -1.17483286090229, 1.2219147989624, -1.23564681267216], a = 0.2, v = 0.2, t = 0.2)
movej(p[0.482684099339516, -0.0212060635743905, 0.224055949559947, -1.17504122695801, 1.21740951350283, -1.23927672134053], a = 0.2, v = 0.2, t = 0.2)
movej(p[0.482841353039593, -0.0211547165967264, 0.224048252047568, -1.17437374164235, 1.21119244502307, -1.24445607516483], a = 0.2, v = 0.2, t = 0.2)
movej(p[0.482776219294556, -0.0211441109413815, 0.224074446996168, -1.17391361318598, 1.21260241116252, -1.24509559640591], a = 0.2, v = 0.2, t = 0.2)
movej(p[0.48258664733899, -0.021295069176896, 0.224063578473115, -1.17493862625794, 1.21567829999444, -1.24931677831607], a = 0.2, v = 0.2, t = 0.2)
movej(p[0.482317668184474, -0.0209718236501351, 0.224245904071606, -1.17138862242336, 1.21464435145679, -1.24981021663175], a = 0.2, v = 0.2, t = 0.2)
movej(p[0.481345869379005, -0.0211373997094464, 0.224356495889887, -1.17512482318939, 1.21670704729458, -1.2476568301862], a = 0.2, v = 0.2, t = 0.2)
movej(p[0.480012150789716, -0.0209457393490493, 0.224619123232024, -1.17312226689214, 1.2430570763355, -1.26311989508312], a = 0.2, v = 0.2, t = 0.2)
movej(p[0.47859427858854, -0.0206272296815884, 0.225004208537985, -1.1726577197084, 1.24317339386651, -1.27441617538622], a = 0.2, v = 0.2, t = 0.2)
movej(p[0.476622124650041, -0.0205351788284678, 0.225425265236423, -1.17364858412758, 1.2511263620537, -1.26260389726908], a = 0.2, v = 0.2, t = 0.2)
movej(p[0.474670931006631, -0.0207662812373985, 0.225671520089175, -1.18091847298668, 1.25382413910285, -1.25433264069197], a = 0.2, v = 0.2, t = 0.2)
movej(p[0.473090063286192, -0.0206902560583754, 0.225995865757606, -1.18505026190159, 1.2490425124876, -1.24848797296091], a = 0.2, v = 0.2, t = 0.2)
movej(p[0.472200742989795, -0.0207450009352449, 0.22615478318545, -1.18890785756083, 1.24186347920728, -1.23930177662539], a = 0.2, v = 0.2, t = 0.2)
movej(p[0.471474869983857, -0.0207769654661547, 0.226276663077207, -1.19270703329992, 1.2269008808166, -1.24531343418401], a = 0.2, v = 0.2, t = 0.2)
movej(p[0.471583011573806, -0.0207580310698914, 0.226280417429553, -1.19196127018434, 1.23233777894624, -1.23907555169495], a = 0.2, v = 0.2, t = 0.2)
movej(p[0.472248031733322, -0.0208253252903162, 0.226155103681964, -1.19186839171491, 1.22255027087455, -1.23902180243765], a = 0.2, v = 0.2, t = 0.2)
movej(p[0.472671654140623, -0.0209017250344511, 0.226060776458276, -1.19235672812705, 1.22184766661869, -1.23069522517007], a = 0.2, v = 0.2, t = 0.2)
movej(p[0.472861942825344, -0.0208233858569555, 0.226068517888148, -1.19066426523596, 1.22107633087072, -1.23223759536805], a = 0.2, v = 0.2, t = 0.2)
movej(p[0.472971369222129, -0.0207680306692658, 0.22607688908176, -1.18970269858526, 1.21645492955976, -1.23774249086909], a = 0.2, v = 0.2, t = 0.2)
movej(p[0.474163379339536, -0.0208397666592975, 0.225823819688642, -1.18870665618024, 1.21586623986455, -1.23422475416218], a = 0.2, v = 0.2, t = 0.2)
movej(p[0.475462929412799, -0.0208722649200398, 0.225555199138179, -1.18692918960245, 1.218548056639, -1.23788577762852], a = 0.2, v = 0.2, t = 0.2)
movej(p[0.476979851769692, -0.0210107640681089, 0.225222724283277, -1.18593790781855, 1.2162515834279, -1.22845953381865], a = 0.2, v = 0.2, t = 0.2)
movej(p[0.478104035444616, -0.021026762235043, 0.225000612906511, -1.18417379424928, 1.21419074735829, -1.23098373011338], a = 0.2, v = 0.2, t = 0.2)
movej(p[0.478952327149444, -0.020866961290192, 0.224929064450585, -1.18053765149016, 1.21547382804213, -1.22896575864584], a = 0.2, v = 0.2, t = 0.2)
movej(p[0.479692669847706, -0.0208751998089086, 0.224775023203061, -1.17985385774528, 1.21812143449703, -1.23297859143263], a = 0.2, v = 0.2, t = 0.2)
movej(p[0.480875444750159, -0.0210810691910104, 0.224471917383847, -1.17764174869114, 1.23387905847791, -1.23230536490712], a = 0.2, v = 0.2, t = 0.2)
movej(p[0.481433019277183, -0.0210773920445863, 0.224402792168416, -1.17444114433577, 1.23685836977329, -1.23386393571067], a = 0.2, v = 0.2, t = 0.2)
movej(p[0.4817854191682, -0.0211071057373474, 0.224327561168997, -1.17384963669687, 1.2366711136678, -1.23275060435466], a = 0.2, v = 0.2, t = 0.2)
movej(p[0.482135587110878, -0.0211624914606825, 0.224237156005587, -1.1739000634074, 1.23260662058212, -1.23564658267876], a = 0.2, v = 0.2, t = 0.2)
movej(p[0.482142553071195, -0.021120110055032, 0.224256555795585, -1.17388392878724, 1.22401077470048, -1.24319523775668], a = 0.2, v = 0.2, t = 0.2)
movej(p[0.481553912212281, -0.0211016331790783, 0.224378896444073, -1.17459484918471, 1.22307293642304, -1.24307008442326], a = 0.2, v = 0.2, t = 0.2)
movej(p[0.480844533012328, -0.0211687296117605, 0.22446399367902, -1.17716162713054, 1.22479343974329, -1.24474293519683], a = 0.2, v = 0.2, t = 0.2)
movej(p[0.479483925095275, -0.0208286867770742, 0.224845901804924, -1.17709015469369, 1.24348526153507, -1.26377932728034], a = 0.2, v = 0.2, t = 0.2)
movej(p[0.478514904162308, -0.0205981540944529, 0.225154177937173, -1.17431771221218, 1.25834552455574, -1.25816420164194], a = 0.2, v = 0.2, t = 0.2)
movej(p[0.477033769128214, -0.0207533365851385, 0.225333435030098, -1.17955384418524, 1.26274800353255, -1.25837213635187], a = 0.2, v = 0.2, t = 0.2)
movej(p[0.475094667817998, -0.0209363961198413, 0.225594172552281, -1.18395450859652, 1.27369506869467, -1.24813202627425], a = 0.2, v = 0.2, t = 0.2)
movej(p[0.473289765580443, -0.0209887909449498, 0.225916854586439, -1.18969597836407, 1.26640465783935, -1.2333032599568], a = 0.2, v = 0.2, t = 0.2)
movej(p[0.471935015386865, -0.0210778096525823, 0.226134467459891, -1.1965891246179, 1.24191009852258, -1.23439374973454], a = 0.2, v = 0.2, t = 0.2)
movej(p[0.471618640595244, -0.021018757820475, 0.226274833133586, -1.19471478328399, 1.2347003293083, -1.23191038288385], a = 0.2, v = 0.2, t = 0.2)
movej(p[0.472186594436692, -0.0210324814724305, 0.226152220143403, -1.1946277788008, 1.23289433961047, -1.23250825567609], a = 0.2, v = 0.2, t = 0.2)
movej(p[0.472803290715632, -0.0209936231472878, 0.2260706521343, -1.19337447309719, 1.22044929093255, -1.24104245500406], a = 0.2, v = 0.2, t = 0.2)
movej(p[0.473544476330685, -0.0210816609758643, 0.22593702116941, -1.19087112018383, 1.21224367144534, -1.23525976450676], a = 0.2, v = 0.2, t = 0.2)
movej(p[0.474445467560887, -0.0210535363528725, 0.225760666672212, -1.19013942843907, 1.22900064727353, -1.22480015157189], a = 0.2, v = 0.2, t = 0.2)
movej(p[0.474886963289724, -0.0210913210709923, 0.225678383706206, -1.18933587908493, 1.20521406502304, -1.23805327174165], a = 0.2, v = 0.2, t = 0.2)
movej(p[0.475671777403008, -0.021089153836437, 0.225548392896202, -1.1872517761372, 1.21386459840831, -1.22210456651271], a = 0.2, v = 0.2, t = 0.2)
movej(p[0.476942343817544, -0.0211216303526817, 0.225229904148919, -1.18824731840866, 1.22558022211529, -1.22831653468443], a = 0.2, v = 0.2, t = 0.2)
movej(p[0.47822795292455, -0.021160539364943, 0.224971584167605, -1.18764861165523, 1.21490774521564, -1.22917652137342], a = 0.2, v = 0.2, t = 0.2)
movej(p[0.478894176586528, -0.0211462119929507, 0.224850855966126, -1.18636920542722, 1.21673638391562, -1.23755838913656], a = 0.2, v = 0.2, t = 0.2)
movej(p[0.479798958580788, -0.0211052029657826, 0.224692944685483, -1.1849388869039, 1.21540073803334, -1.24781244364543], a = 0.2, v = 0.2, t = 0.2)
movej(p[0.481017289327334, -0.0212923801390709, 0.22438702581091, -1.18038059644708, 1.23647560724692, -1.24019697581466], a = 0.2, v = 0.2, t = 0.2)
movej(p[0.481421868347722, -0.0211979076788686, 0.224374782015512, -1.17869007608686, 1.23794149108656, -1.23689613883064], a = 0.2, v = 0.2, t = 0.2)
movej(p[0.481902257467508, -0.0212142753621201, 0.224276679607102, -1.17774663425933, 1.23824564383587, -1.23475722525784], a = 0.2, v = 0.2, t = 0.2)
movej(p[0.482252626553691, -0.0212897798986503, 0.224163177411482, -1.17763857332527, 1.23804913790261, -1.23303180749568], a = 0.2, v = 0.2, t = 0.2)
movej(p[0.482194311175012, -0.0212753100483891, 0.224185868379794, -1.17717464291154, 1.23705700217859, -1.23238053863142], a = 0.2, v = 0.2, t = 0.2)
movej(p[0.481879926398185, -0.0212107284424347, 0.224293909891593, -1.17646246283696, 1.23622918097823, -1.23171786663145], a = 0.2, v = 0.2, t = 0.2)
movej(p[0.481126257318357, -0.0210851593692726, 0.224505421205655, -1.17801490599594, 1.23231097878703, -1.24513527550024], a = 0.2, v = 0.2, t = 0.2)
movej(p[0.480117139713043, -0.0209274291169145, 0.224773175824919, -1.17999444308997, 1.23895550070724, -1.25958798188192], a = 0.2, v = 0.2, t = 0.2)
movej(p[0.47908350482513, -0.0208531584209239, 0.224997299545673, -1.18049931758773, 1.26152881554481, -1.25026977751462], a = 0.2, v = 0.2, t = 0.2)
movej(p[0.478333064868304, -0.0208080874406323, 0.225191529661603, -1.18053567799528, 1.25607214182577, -1.25185371083232], a = 0.2, v = 0.2, t = 0.2)
movej(p[0.475470034883908, -0.020897082349794, 0.225653444074235, -1.18791957870379, 1.2607416279417, -1.25892401161114], a = 0.2, v = 0.2, t = 0.2)
movej(p[0.473421831957885, -0.0209301074097939, 0.226040363147482, -1.19222849539844, 1.24987694026747, -1.2468685992135], a = 0.2, v = 0.2, t = 0.2)
movej(p[0.472098452707168, -0.0209648511671645, 0.226288671846677, -1.1928295491105, 1.25958813216975, -1.22841680621223], a = 0.2, v = 0.2, t = 0.2)
movej(p[0.471209171219719, -0.0209732328492565, 0.226440252199907, -1.19712534463807, 1.25189221868201, -1.2329377105356], a = 0.2, v = 0.2, t = 0.2)
movej(p[0.471419101462359, -0.0210059377959742, 0.226391106094412, -1.19666757441038, 1.24651619466602, -1.23297566246352], a = 0.2, v = 0.2, t = 0.2)
movej(p[0.471861353524728, -0.021002510501573, 0.226331014522763, -1.19588544056101, 1.22601593249715, -1.23488873165062], a = 0.2, v = 0.2, t = 0.2)
movej(p[0.47230879062043, -0.0210215936284579, 0.226252049785963, -1.19402218165838, 1.22119400767694, -1.23474726582063], a = 0.2, v = 0.2, t = 0.2)
movej(p[0.473278083289581, -0.0210459345682423, 0.226059121871495, -1.19168755949737, 1.22449460967347, -1.23370478707785], a = 0.2, v = 0.2, t = 0.2)
movej(p[0.474210066913996, -0.0209479726813443, 0.22596458355895, -1.18999914270005, 1.2095830063254, -1.23665801417338], a = 0.2, v = 0.2, t = 0.2)
movej(p[0.475009957656922, -0.0210415636468297, 0.225694215142599, -1.19352097403119, 1.20917451840489, -1.23840907567479], a = 0.2, v = 0.2, t = 0.2)
movej(p[0.476070300639166, -0.0211077944865988, 0.225432911744477, -1.19281499270456, 1.22392267701109, -1.22489815490251], a = 0.2, v = 0.2, t = 0.2)
movej(p[0.477223284647462, -0.0210476493742162, 0.22525347860353, -1.19073778497298, 1.22217552427813, -1.22327431159351], a = 0.2, v = 0.2, t = 0.2)
movej(p[0.477915990513147, -0.0210499294563098, 0.225164597307012, -1.18599422367826, 1.20444447132587, -1.22511495074984], a = 0.2, v = 0.2, t = 0.2)
movej(p[0.478685417839319, -0.0210367057925485, 0.22499851367008, -1.1868834732223, 1.22151534389302, -1.2205113585942], a = 0.2, v = 0.2, t = 0.2)
movej(p[0.479649583058025, -0.0211189250185349, 0.224709468258568, -1.18868392650119, 1.22343860029571, -1.23173491463591], a = 0.2, v = 0.2, t = 0.2)
movej(p[0.480339788182038, -0.0210713285420982, 0.224634126356433, -1.1833090500996, 1.23698555460399, -1.23478219477023], a = 0.2, v = 0.2, t = 0.2)
movej(p[0.4812060954509, -0.0211843040679285, 0.224420712166465, -1.17958107643318, 1.2312387571052, -1.23901083361889], a = 0.2, v = 0.2, t = 0.2)
movej(p[0.482127042307302, -0.0212541800891654, 0.224196104309657, -1.17787263257392, 1.23147633279876, -1.23678448824172], a = 0.2, v = 0.2, t = 0.2)
movej(p[0.482614173454869, -0.0213844944613395, 0.223994798523661, -1.17818209673649, 1.23153760935652, -1.23496008498853], a = 0.2, v = 0.2, t = 0.2)
movej(p[0.482671008518954, -0.0213821064560731, 0.223982618091764, -1.17810573273625, 1.23317798717553, -1.23378144155029], a = 0.2, v = 0.2, t = 0.2)
movej(p[0.483091551877903, -0.0212525144370637, 0.223982331991942, -1.17721806527442, 1.24566190973629, -1.22831896180927], a = 0.2, v = 0.2, t = 0.2)
movej(p[0.483143002250776, -0.0212109201490876, 0.224007639191293, -1.17701069361379, 1.23618152922402, -1.23751162994077], a = 0.2, v = 0.2, t = 0.2)
movej(p[0.482832587233983, -0.0211426616699148, 0.224132771390867, -1.1763211222783, 1.23111104919901, -1.24119141159793], a = 0.2, v = 0.2, t = 0.2)
movej(p[0.482045943659662, -0.0210978895458474, 0.224328118988463, -1.176621302068, 1.23056601924803, -1.24008863955769], a = 0.2, v = 0.2, t = 0.2)
movej(p[0.481046977825803, -0.0210112710480754, 0.224579460506374, -1.17816487447212, 1.23868513304551, -1.24275125613898], a = 0.2, v = 0.2, t = 0.2)
movej(p[0.479945640766738, -0.0207716853031875, 0.224947284055345, -1.18007245771342, 1.26502074869704, -1.25525112610482], a = 0.2, v = 0.2, t = 0.2)
movej(p[0.478311959383324, -0.0208830139692215, 0.225195263803723, -1.18194126704482, 1.26430312217609, -1.24785912158504], a = 0.2, v = 0.2, t = 0.2)
movej(p[0.476458958706843, -0.0210560805314433, 0.225381548982951, -1.18971728853082, 1.24573478755591, -1.23475623131726], a = 0.2, v = 0.2, t = 0.2)
movej(p[0.474338238679086, -0.0210179686023069, 0.225855537331678, -1.18953599095053, 1.25346267539894, -1.22787871419037], a = 0.2, v = 0.2, t = 0.2)
movej(p[0.472522400778352, -0.0211709543358265, 0.226037606064845, -1.19988592674899, 1.22340114495244, -1.24638362209809], a = 0.2, v = 0.2, t = 0.2)
movej(p[0.471309523921033, -0.0211475773244144, 0.226307674527123, -1.19984435427945, 1.23548355057022, -1.23185452315224], a = 0.2, v = 0.2, t = 0.2)
movej(p[0.470900034128985, -0.0211618705791718, 0.226371797791832, -1.2007158830251, 1.23269049250646, -1.23047894448617], a = 0.2, v = 0.2, t = 0.2)
movej(p[0.471357753574637, -0.0210715122362872, 0.226423399428858, -1.194130366794, 1.22111639226753, -1.2269228653159], a = 0.2, v = 0.2, t = 0.2)
movej(p[0.471694337501361, -0.0210735086897178, 0.226343289913539, -1.19562501495901, 1.20652296517038, -1.24014443985691], a = 0.2, v = 0.2, t = 0.2)
movej(p[0.472534895456471, -0.0210104329923667, 0.226263117907799, -1.19046854528669, 1.22083950141804, -1.22698350364057], a = 0.2, v = 0.2, t = 0.2)
movej(p[0.473602075632252, -0.0210088729524926, 0.226062084729701, -1.18831746698207, 1.21135933753556, -1.23107397627808], a = 0.2, v = 0.2, t = 0.2)
movej(p[0.47448356607911, -0.0209553492974371, 0.22591455554463, -1.18908293586461, 1.20722121178943, -1.23813313665949], a = 0.2, v = 0.2, t = 0.2)
movej(p[0.475433628970764, -0.0210207295383559, 0.22564539160574, -1.189978006529, 1.20376101765314, -1.24309528959531], a = 0.2, v = 0.2, t = 0.2)
movej(p[0.476449072570663, -0.0211466877032671, 0.225316588266163, -1.18965600100757, 1.20349406706818, -1.24234735771971], a = 0.2, v = 0.2, t = 0.2)
movej(p[0.476953656301608, -0.0210785393290618, 0.225273010777037, -1.18931858029034, 1.20338796303707, -1.24555579592325], a = 0.2, v = 0.2, t = 0.2)
movej(p[0.478074325915585, -0.0210872743986361, 0.225022253653773, -1.18900189319638, 1.21879995532864, -1.22785123153952], a = 0.2, v = 0.2, t = 0.2)
movej(p[0.479233099505862, -0.0211458046756439, 0.224713938696057, -1.18944395354285, 1.22098563545743, -1.23256197883305], a = 0.2, v = 0.2, t = 0.2)
movej(p[0.480320623695037, -0.0209805709468418, 0.224635217842243, -1.18923405819156, 1.22086076485641, -1.2413174203861], a = 0.2, v = 0.2, t = 0.2)
movej(p[0.480891578517087, -0.0208830832499326, 0.224594344499717, -1.19046796779831, 1.22747340968866, -1.2568214513021], a = 0.2, v = 0.2, t = 0.2)
movej(p[0.481604609309356, -0.0210834927287518, 0.224315020404667, -1.18141097093779, 1.24123410364792, -1.23237881457965], a = 0.2, v = 0.2, t = 0.2)
movej(p[0.481959356519393, -0.0211208600956551, 0.22421093353296, -1.18069768835466, 1.23455436209499, -1.23698276046653], a = 0.2, v = 0.2, t = 0.2)
movej(p[0.482116312737671, -0.0211405077581505, 0.224165197716555, -1.18038014376743, 1.22446788972923, -1.24501103168214], a = 0.2, v = 0.2, t = 0.2)
movej(p[0.481991164888169, -0.0210601122127028, 0.22427569781627, -1.17941426334236, 1.22830895727694, -1.24218458239509], a = 0.2, v = 0.2, t = 0.2)
movej(p[0.481231507909915, -0.0209995091151996, 0.224451826831379, -1.18423367808901, 1.2407675192175, -1.24463254428273], a = 0.2, v = 0.2, t = 0.2)
movej(p[0.48018062622685, -0.0207878816973278, 0.224893111642135, -1.18377649157325, 1.24999125744313, -1.25384137275525], a = 0.2, v = 0.2, t = 0.2)
movej(p[0.479152020833145, -0.0207951204482685, 0.225098663495752, -1.18167286071986, 1.27404364126066, -1.23833626461909], a = 0.2, v = 0.2, t = 0.2)
movej(p[0.477654099175395, -0.0208295116639159, 0.225365065394264, -1.18695396714754, 1.26057845114467, -1.25419270098217], a = 0.2, v = 0.2, t = 0.2)
movej(p[0.476104688817539, -0.0209022130234308, 0.22558344285485, -1.19315958594495, 1.26236901646854, -1.25447878170022], a = 0.2, v = 0.2, t = 0.2)
movej(p[0.473897281963193, -0.0209485700002604, 0.225999460883407, -1.19483556050323, 1.27207491118998, -1.23392205359814], a = 0.2, v = 0.2, t = 0.2)
movej(p[0.472232835967698, -0.0210007549829924, 0.226298667610702, -1.19659125283894, 1.2626467269604, -1.23215548950044], a = 0.2, v = 0.2, t = 0.2)
movej(p[0.470913568462874, -0.021140539727003, 0.22642392097815, -1.20046558838479, 1.24785997932837, -1.22349655188998], a = 0.2, v = 0.2, t = 0.2)
movej(p[0.470652835916261, -0.021047512007595, 0.226627343131708, -1.19714358339526, 1.23930382103622, -1.22609200724049], a = 0.2, v = 0.2, t = 0.2)
movej(p[0.470965326456481, -0.0210803183792286, 0.226552535282836, -1.19488205853191, 1.243998117913, -1.22085267098751], a = 0.2, v = 0.2, t = 0.2)
movej(p[0.471385893995836, -0.0210004655503428, 0.226486002504749, -1.20244354790592, 1.22865980183128, -1.24525532795862], a = 0.2, v = 0.2, t = 0.2)
movej(p[0.472437576192463, -0.0209404957993407, 0.226435337070161, -1.18918630527486, 1.21901702648443, -1.23326907616439], a = 0.2, v = 0.2, t = 0.2)
movej(p[0.473357128008504, -0.0209912878423079, 0.226187228029642, -1.18732282539979, 1.21441630868325, -1.23323429662098], a = 0.2, v = 0.2, t = 0.2)
movej(p[0.474480200351396, -0.021066033743101, 0.225818312127375, -1.19096998164627, 1.21299607289438, -1.23765977519025], a = 0.2, v = 0.2, t = 0.2)
movej(p[0.476066963198527, -0.0210281642512068, 0.225495597844224, -1.19098824094829, 1.22705085723552, -1.22604756320916], a = 0.2, v = 0.2, t = 0.2)
movej(p[0.477164356065668, -0.0210137371528235, 0.225303669175234, -1.1880762918128, 1.21421612227063, -1.24063154475103], a = 0.2, v = 0.2, t = 0.2)
movej(p[0.477842638275391, -0.021009628239059, 0.225146420643283, -1.18879171611026, 1.22805164268056, -1.22706735344948], a = 0.2, v = 0.2, t = 0.2)
movej(p[0.478830369242874, -0.0210164189456629, 0.224914045188082, -1.18941527107573, 1.22200721608308, -1.23375431418361], a = 0.2, v = 0.2, t = 0.2)
movej(p[0.480368125218916, -0.0210625707791236, 0.22454254593315, -1.18682475883127, 1.23126019898756, -1.23306973292508], a = 0.2, v = 0.2, t = 0.2)
movej(p[0.481296018436326, -0.0210405374496003, 0.22440138560064, -1.18187781250976, 1.24235957408957, -1.22761382814976], a = 0.2, v = 0.2, t = 0.2)
movej(p[0.481949171684497, -0.0210061249001079, 0.224290524512605, -1.18251634091804, 1.24694777085577, -1.22676497697091], a = 0.2, v = 0.2, t = 0.2)
movej(p[0.482142177045586, -0.0210493100289927, 0.224197391998229, -1.18266903404751, 1.23409197229255, -1.23808061979146], a = 0.2, v = 0.2, t = 0.2)
movej(p[0.482045812973513, -0.0210537426958247, 0.224219591256734, -1.18113840829633, 1.23392340703562, -1.23574771030633], a = 0.2, v = 0.2, t = 0.2)
movej(p[0.481632184286954, -0.0209888845244027, 0.22438930188473, -1.17937455764698, 1.23230021316474, -1.23527098225642], a = 0.2, v = 0.2, t = 0.2)
movej(p[0.480409214554821, -0.0208279865137507, 0.224853646847508, -1.1825611530594, 1.26876037248636, -1.24107663253833], a = 0.2, v = 0.2, t = 0.2)
movej(p[0.47958293617804, -0.0208360195684195, 0.225047272372935, -1.18521087495455, 1.25909627144851, -1.25094704815541], a = 0.2, v = 0.2, t = 0.2)
movej(p[0.478339589744779, -0.0208580719535281, 0.225296002023774, -1.18695351392096, 1.27206520919242, -1.24129210050067], a = 0.2, v = 0.2, t = 0.2)
movej(p[0.476352162705066, -0.0208995523470683, 0.225683905463782, -1.18820519136969, 1.27655330513141, -1.23741115335525], a = 0.2, v = 0.2, t = 0.2)
movej(p[0.47462091190956, -0.0209838363528329, 0.225948920650956, -1.19086629523247, 1.27363605850572, -1.23487785776304], a = 0.2, v = 0.2, t = 0.2)
movej(p[0.472893940116305, -0.021044267054405, 0.226206923704444, -1.19686616538895, 1.27906124272195, -1.21684267211145], a = 0.2, v = 0.2, t = 0.2)
movej(p[0.47163354701255, -0.0211286500603637, 0.226362730996674, -1.19882819556412, 1.2548262968915, -1.22499242714621], a = 0.2, v = 0.2, t = 0.2)
movej(p[0.471201411471302, -0.0211075803668189, 0.226486121806722, -1.20031196802899, 1.24191491617236, -1.23807535683038], a = 0.2, v = 0.2, t = 0.2)
movej(p[0.471226394361067, -0.0211187728906515, 0.226480936960603, -1.19903942790822, 1.2368144264257, -1.2351097683395], a = 0.2, v = 0.2, t = 0.2)
movej(p[0.471369233132986, -0.0210936691646651, 0.226535741140902, -1.19401577006149, 1.22504498044856, -1.23886283225578], a = 0.2, v = 0.2, t = 0.2)
movej(p[0.471818511332971, -0.0210491623713796, 0.226553457076356, -1.18814364785438, 1.24307268932439, -1.22015200826286], a = 0.2, v = 0.2, t = 0.2)
movej(p[0.472407227761552, -0.0211083389196197, 0.226353023464261, -1.18447295994399, 1.2267286841344, -1.22696241678404], a = 0.2, v = 0.2, t = 0.2)
movej(p[0.473114812138431, -0.021008642821061, 0.226345156601544, -1.18447889005697, 1.20409819343385, -1.24455246368359], a = 0.2, v = 0.2, t = 0.2)
movej(p[0.473784671195754, -0.0210110989715237, 0.226190422117194, -1.18356348094191, 1.20804830968956, -1.24097683544844], a = 0.2, v = 0.2, t = 0.2)
movej(p[0.474799757136432, -0.0210910211731731, 0.225809581750738, -1.18420019204523, 1.22463837968222, -1.22642810534679], a = 0.2, v = 0.2, t = 0.2)
movej(p[0.476026246603529, -0.0210349227388464, 0.225580639197321, -1.18749118543643, 1.22069970193372, -1.2300634324415], a = 0.2, v = 0.2, t = 0.2)
movej(p[0.477132986954792, -0.0209804119688259, 0.225370627005204, -1.19077061248743, 1.21648044192273, -1.23688212698355], a = 0.2, v = 0.2, t = 0.2)
movej(p[0.478208292033569, -0.0210325554255004, 0.225055785477634, -1.18754115650591, 1.21797830418909, -1.2327167567084], a = 0.2, v = 0.2, t = 0.2)
movej(p[0.47923692651136, -0.0210628148173236, 0.224752823878902, -1.18832024478817, 1.22561001611309, -1.22431020041061], a = 0.2, v = 0.2, t = 0.2)
movej(p[0.480085459119697, -0.0209372449526573, 0.224753752144169, -1.19013150368287, 1.23579807037961, -1.22927861422445], a = 0.2, v = 0.2, t = 0.2)
movej(p[0.480824068733553, -0.0210718525098111, 0.224429050290345, -1.18114715187665, 1.23145911661094, -1.24126147957511], a = 0.2, v = 0.2, t = 0.2)
movej(p[0.481319781907278, -0.0210687194189214, 0.224299783267726, -1.18303584417057, 1.23427729059928, -1.24173571473102], a = 0.2, v = 0.2, t = 0.2)
movej(p[0.481732965287337, -0.0210302828844946, 0.224265545609159, -1.18308155562692, 1.24247451323534, -1.23605395821028], a = 0.2, v = 0.2, t = 0.2)
movej(p[0.482087327026364, -0.0209895126576294, 0.224285860296333, -1.17890290985749, 1.24454523683491, -1.23137578777443], a = 0.2, v = 0.2, t = 0.2)
movej(p[0.482088643059151, -0.0209149849245532, 0.224448384863892, -1.17529223068699, 1.24655635088927, -1.22756841100217], a = 0.2, v = 0.2, t = 0.2)
movej(p[0.482090255618458, -0.0209220760921555, 0.224392223978976, -1.18177740488748, 1.24284009202963, -1.23763188441767], a = 0.2, v = 0.2, t = 0.2)
movej(p[0.481380481702086, -0.0208885854922141, 0.224630908430406, -1.18101867362942, 1.24288517520678, -1.23627860100198], a = 0.2, v = 0.2, t = 0.2)
movej(p[0.480362815317952, -0.0208375656209927, 0.224970889934819, -1.18129519036713, 1.2700328388793, -1.23112574853462], a = 0.2, v = 0.2, t = 0.2)
movej(p[0.478556815913645, -0.0208544406798201, 0.22537508909864, -1.18131065195898, 1.28195874633565, -1.22801446737091], a = 0.2, v = 0.2, t = 0.2)
movej(p[0.476384032497041, -0.0208913855485679, 0.225791739409095, -1.18659812537631, 1.27865831660111, -1.23239310279737], a = 0.2, v = 0.2, t = 0.2)
movej(p[0.474164299051393, -0.0209904929627055, 0.226074196415977, -1.19289169270142, 1.2867833084523, -1.21747114589844], a = 0.2, v = 0.2, t = 0.2)
movej(p[0.472361588009307, -0.0210764045038921, 0.226277353020181, -1.20162365379929, 1.27976697493071, -1.22075228095851], a = 0.2, v = 0.2, t = 0.2)
movej(p[0.471619582295165, -0.0210928659798805, 0.226430616681854, -1.20073933703015, 1.25017738277977, -1.23125274505415], a = 0.2, v = 0.2, t = 0.2)
movej(p[0.471837233598585, -0.0210501847114731, 0.226500004933359, -1.19601842989652, 1.23356821102905, -1.2370319615859], a = 0.2, v = 0.2, t = 0.2)
movej(p[0.472366610036672, -0.0210490524328667, 0.226427127195031, -1.18815428202414, 1.23169270371726, -1.22526885161159], a = 0.2, v = 0.2, t = 0.2)
movej(p[0.472979470623531, -0.0210374629354779, 0.226330189459216, -1.18576299136058, 1.23321003558474, -1.22805277834622], a = 0.2, v = 0.2, t = 0.2)
movej(p[0.474003990812179, -0.0209627199995791, 0.226279785425799, -1.18062222128243, 1.21721952404358, -1.23979964156335], a = 0.2, v = 0.2, t = 0.2)
movej(p[0.474834085422178, -0.0210176132610277, 0.225965688596303, -1.18014564682473, 1.22710442613489, -1.22469128160396], a = 0.2, v = 0.2, t = 0.2)
movej(p[0.475814971940463, -0.0210722200016808, 0.22557013915297, -1.18311396585783, 1.2154460261562, -1.23126220568926], a = 0.2, v = 0.2, t = 0.2)
movej(p[0.477379067974949, -0.020991297189173, 0.225324353324819, -1.19056489390782, 1.23917008144024, -1.21991925998394], a = 0.2, v = 0.2, t = 0.2)
movej(p[0.478480215197507, -0.0209642260264861, 0.225123368583099, -1.18808332968662, 1.23222105846269, -1.2173203615205], a = 0.2, v = 0.2, t = 0.2)
movej(p[0.479145752427816, -0.0210062883807005, 0.224847824660228, -1.19035503711025, 1.22348858753872, -1.22965319064628], a = 0.2, v = 0.2, t = 0.2)
movej(p[0.480252574035984, -0.0210473870784275, 0.224538399928287, -1.18564515012568, 1.24553036468127, -1.21568703309079], a = 0.2, v = 0.2, t = 0.2)
movej(p[0.481054932029797, -0.021039830794415, 0.224395722101222, -1.18246607635452, 1.23672208028135, -1.23765145596111], a = 0.2, v = 0.2, t = 0.2)
movej(p[0.481824206809104, -0.02103536087247, 0.224199482391376, -1.18454531606115, 1.24828604547266, -1.22987938987669], a = 0.2, v = 0.2, t = 0.2)
movej(p[0.482118045255807, -0.0210203291017718, 0.224200687840983, -1.18107365755937, 1.25016964361924, -1.22646492711515], a = 0.2, v = 0.2, t = 0.2)
movej(p[0.482118906202589, -0.0210218547442009, 0.224215697877152, -1.17889797899269, 1.25119004344693, -1.2235093569346], a = 0.2, v = 0.2, t = 0.2)
movej(p[0.481139576235572, -0.0210317844864711, 0.22442887802614, -1.1792476382798, 1.23316461878107, -1.23912861134059], a = 0.2, v = 0.2, t = 0.2)
movej(p[0.480188740097633, -0.0209589618916153, 0.224823404094313, -1.18478211127955, 1.25645089533214, -1.23712762517278], a = 0.2, v = 0.2, t = 0.2)
movej(p[0.479798202481119, -0.0209426052202325, 0.224985316198211, -1.18402761844192, 1.26812150186972, -1.23164617567188], a = 0.2, v = 0.2, t = 0.2)
movej(p[0.479872064034499, -0.0209134470649481, 0.225034739400382, -1.18501092870666, 1.26616084810433, -1.22865761350585], a = 0.2, v = 0.2, t = 0.2)
movej(p[0.480159500965397, -0.0209374759827752, 0.224864226990675, -1.1893397518497, 1.26146478455128, -1.22797507261441], a = 0.2, v = 0.2, t = 0.2)
movej(p[0.480631126906957, -0.0209672154849307, 0.22464967076667, -1.19020522990413, 1.24808804641821, -1.23233448674942], a = 0.2, v = 0.2, t = 0.2)
movej(p[0.481217224084291, -0.0209653920082457, 0.224526020398072, -1.18407782619344, 1.23935167800855, -1.23664701428755], a = 0.2, v = 0.2, t = 0.2)
movej(p[0.481763143606979, -0.0210356642631196, 0.224226042573988, -1.18029841700241, 1.24554428058524, -1.22827246210647], a = 0.2, v = 0.2, t = 0.2)
movej(p[0.482502942700575, -0.0209775239932118, 0.224165262148436, -1.18436685010929, 1.24289000398623, -1.23640649922179], a = 0.2, v = 0.2, t = 0.2)
movej(p[0.482858731376253, -0.0209412422414457, 0.224169002836603, -1.18168305716421, 1.24426385985213, -1.23471378491768], a = 0.2, v = 0.2, t = 0.2)
movej(p[0.48274824205021, -0.0209456826841824, 0.224201969506117, -1.17881450112979, 1.24547120856651, -1.2309113915136], a = 0.2, v = 0.2, t = 0.2)
movej(p[0.48240484616935, -0.0209198865912279, 0.224356742696936, -1.18031692984842, 1.2525082538543, -1.22481594359498], a = 0.2, v = 0.2, t = 0.2)
movej(p[0.481765926242998, -0.0209203137462337, 0.224491563449233, -1.18427942509451, 1.25015449027054, -1.22892409893517], a = 0.2, v = 0.2, t = 0.2)
movej(p[0.480723992502653, -0.0208919131182181, 0.224834904307649, -1.1902179130644, 1.24916318041902, -1.24988498642471], a = 0.2, v = 0.2, t = 0.2)
movej(p[0.479646545075399, -0.0208744523775317, 0.225171718535433, -1.19209716989151, 1.25891424076631, -1.25268347824842], a = 0.2, v = 0.2, t = 0.2)
movej(p[0.478223552751319, -0.0209665550563983, 0.225318087596901, -1.18478055698562, 1.28013582286202, -1.22815057589681], a = 0.2, v = 0.2, t = 0.2)
movej(p[0.476387020785401, -0.0210498356641929, 0.225490251729428, -1.19093736936157, 1.27367665078306, -1.23162179264857], a = 0.2, v = 0.2, t = 0.2)
movej(p[0.474828830839563, -0.0210314785874684, 0.22593064673442, -1.19414241892109, 1.25436999985902, -1.24635868373737], a = 0.2, v = 0.2, t = 0.2)
movej(p[0.474429953095909, -0.0209934877918876, 0.226134029514097, -1.19581027494936, 1.26865414699104, -1.22661756672378], a = 0.2, v = 0.2, t = 0.2)
movej(p[0.474491631996723, -0.0210222060304075, 0.226025317849724, -1.19486406585408, 1.2556993763088, -1.23301424306926], a = 0.2, v = 0.2, t = 0.2)
movej(p[0.474870140684002, -0.0210099659880054, 0.225993533655292, -1.19185027078399, 1.24960868476764, -1.23431546211637], a = 0.2, v = 0.2, t = 0.2)
movej(p[0.475816969773376, -0.0209615904960573, 0.225909483507791, -1.19086746928013, 1.24200051587308, -1.23825654994108], a = 0.2, v = 0.2, t = 0.2)
movej(p[0.47690985746068, -0.0209860198726123, 0.225547640367051, -1.18824020775402, 1.25080845702299, -1.22430327040078], a = 0.2, v = 0.2, t = 0.2)
movej(p[0.477978841233463, -0.0209884513959615, 0.225212129664955, -1.19343905601193, 1.216613809099, -1.25255468264869], a = 0.2, v = 0.2, t = 0.2)
movej(p[0.479064054390002, -0.0209479868717123, 0.22504073991278, -1.19651976076603, 1.22418533847606, -1.24714418141734], a = 0.2, v = 0.2, t = 0.2)
movej(p[0.480021807611387, -0.0209831482208563, 0.224681237901027, -1.19145878154503, 1.23754067238027, -1.22948245249918], a = 0.2, v = 0.2, t = 0.2)
movej(p[0.481249835152121, -0.0210033951123294, 0.224307386978086, -1.1904562269329, 1.24998699864917, -1.22810630980962], a = 0.2, v = 0.2, t = 0.2)
movej(p[0.48232967388358, -0.0210065420680827, 0.224033206105832, -1.18507967740323, 1.24966044089558, -1.22622610140025], a = 0.2, v = 0.2, t = 0.2)
movej(p[0.482672776438393, -0.0209170578825374, 0.22430484954385, -1.18026302464619, 1.25242064018859, -1.22227360170613], a = 0.2, v = 0.2, t = 0.2)
movej(p[0.482316948533297, -0.0209343632048509, 0.224296411666493, -1.18657877790571, 1.24778670237347, -1.23024936021152], a = 0.2, v = 0.2, t = 0.2)
movej(p[0.481897011164392, -0.020923662516902, 0.224451784320054, -1.1878044414744, 1.24644241712882, -1.2317357481056], a = 0.2, v = 0.2, t = 0.2)
