def moving():
set_payload_mass(0)
set_tcp(p[0,0,0,0,0,0])
movej(p[0.3673, -0.1134, 0.2738, -1.155, 1.264, -1.201], a = 0.2, v = 0.2, t = 0.2)
movej(p[0.36768847040923, -0.113496438747462, 0.273941594441755, -1.15346684807167, 1.26190429406212, -1.19908246078539], a = 0.2, v = 0.2, t = 0.2)
movej(p[0.368815850875486, -0.113776315384766, 0.274352519245187, -1.14900744134852, 1.25585990241048, -1.19350420081794], a = 0.2, v = 0.2, t = 0.2)
movej(p[0.370571799724886, -0.114212232319312, 0.274992544759489, -1.1420326531504, 1.24655668310755, -1.18477685607254], a = 0.2, v = 0.2, t = 0.2)
movej(p[0.37278441082841, -0.114761516060393, 0.275799034723439, -1.1331947541469, 1.23502637150842, -1.17371376913153], a = 0.2, v = 0.2, t = 0.2)
movej(p[0.375237119495101, -0.11537041123169, 0.276693028464864, -1.12333674025261, 1.22249503620356, -1.16136682556572], a = 0.2, v = 0.2, t = 0.2)
movej(p[0.377689788195068, -0.115979304778292, 0.277587022352153, -1.11341710042203, 1.21022582795303, -1.14893505570961], a = 0.2, v = 0.2, t = 0.2)
movej(p[0.379902459167183, -0.116528592952311, 0.278393511998487, -1.10441786203948, 1.19938178086369, -1.13764986305686], a = 0.2, v = 0.2, t = 0.2)
movej(p[0.381658347942619, -0.116964510394137, 0.279033536584585, -1.09724362619597, 1.19092684922638, -1.12864795173375], a = 0.2, v = 0.2, t = 0.2)
movej(p[0.382785816736633, -0.117244380875408, 0.279444462550102, -1.09262275345273, 1.18556868238799, -1.12284746589891], a = 0.2, v = 0.2, t = 0.2)
movej(p[0.383174238990203, -0.117340822463381, 0.279586056929728, -1.09102785375974, 1.1837350727814, -1.12084501322268], a = 0.2, v = 0.2, t = 0.2)
movej(p[0.382785816736633, -0.117244380875408, 0.279444462550102, -1.09262275345273, 1.18556868238799, -1.12284746589891], a = 0.2, v = 0.2, t = 0.2)
movej(p[0.381658347942619, -0.116964510394137, 0.279033536584585, -1.09724362619597, 1.19092684922638, -1.12864795173375], a = 0.2, v = 0.2, t = 0.2)
movej(p[0.379902459167183, -0.116528592952311, 0.278393511998487, -1.10441786203948, 1.19938178086369, -1.13764986305686], a = 0.2, v = 0.2, t = 0.2)
movej(p[0.377689788195068, -0.115979304778292, 0.277587022352153, -1.11341710042203, 1.21022582795303, -1.14893505570961], a = 0.2, v = 0.2, t = 0.2)
movej(p[0.375237119495101, -0.11537041123169, 0.276693028464864, -1.12333674025261, 1.22249503620356, -1.16136682556572], a = 0.2, v = 0.2, t = 0.2)
movej(p[0.37278441082841, -0.114761516060393, 0.275799034723439, -1.1331947541469, 1.23502637150842, -1.17371376913153], a = 0.2, v = 0.2, t = 0.2)
movej(p[0.370571799724886, -0.114212232319312, 0.274992544759489, -1.1420326531504, 1.24655668310755, -1.18477685607254], a = 0.2, v = 0.2, t = 0.2)
movej(p[0.368815850875486, -0.113776315384766, 0.274352519245187, -1.14900744134852, 1.25585990241048, -1.19350420081794], a = 0.2, v = 0.2, t = 0.2)
movej(p[0.36768847040923, -0.113496438747462, 0.273941594441755, -1.15346684807167, 1.26190429406212, -1.19908246078539], a = 0.2, v = 0.2, t = 0.2)
movej(p[0.3673, -0.1134, 0.2738, -1.155, 1.264, -1.201], a = 0.2, v = 0.2, t = 0.2)
movej(p[0.36768847040923, -0.113496438747462, 0.273941594441755, -1.15346684807167, 1.26190429406212, -1.19908246078539], a = 0.2, v = 0.2, t = 0.2)
movej(p[0.368815850875486, -0.113776315384766, 0.274352519245187, -1.14900744134852, 1.25585990241048, -1.19350420081794], a = 0.2, v = 0.2, t = 0.2)
movej(p[0.370571799724886, -0.114212232319312, 0.274992544759489, -1.1420326531504, 1.24655668310755, -1.18477685607254], a = 0.2, v = 0.2, t = 0.2)
movej(p[0.37278441082841, -0.114761516060393, 0.275799034723439, -1.1331947541469, 1.23502637150842, -1.17371376913153], a = 0.2, v = 0.2, t = 0.2)
movej(p[0.375237119495101, -0.11537041123169, 0.276693028464864, -1.12333674025261, 1.22249503620356, -1.16136682556572], a = 0.2, v = 0.2, t = 0.2)
movej(p[0.377689788195068, -0.115979304778292, 0.277587022352153, -1.11341710042203, 1.21022582795303, -1.14893505570961], a = 0.2, v = 0.2, t = 0.2)
movej(p[0.379902459167183, -0.116528592952311, 0.278393511998487, -1.10441786203948, 1.19938178086369, -1.13764986305686], a = 0.2, v = 0.2, t = 0.2)
movej(p[0.381658347942619, -0.116964510394137, 0.279033536584585, -1.09724362619597, 1.19092684922638, -1.12864795173375], a = 0.2, v = 0.2, t = 0.2)
movej(p[0.382785816736633, -0.117244380875408, 0.279444462550102, -1.09262275345273, 1.18556868238799, -1.12284746589891], a = 0.2, v = 0.2, t = 0.2)
movej(p[0.383174238990203, -0.117340822463381, 0.279586056929728, -1.09102785375974, 1.1837350727814, -1.12084501322268], a = 0.2, v = 0.2, t = 0.2)
movej(p[0.382785816736633, -0.117244380875408, 0.279444462550102, -1.09262275345273, 1.18556868238799, -1.12284746589891], a = 0.2, v = 0.2, t = 0.2)
movej(p[0.381658347942619, -0.116964510394137, 0.279033536584585, -1.09724362619597, 1.19092684922638, -1.12864795173375], a = 0.2, v = 0.2, t = 0.2)
movej(p[0.379902459167183, -0.116528592952311, 0.278393511998487, -1.10441786203948, 1.19938178086369, -1.13764986305686], a = 0.2, v = 0.2, t = 0.2)
movej(p[0.377689788195068, -0.115979304778292, 0.277587022352153, -1.11341710042203, 1.21022582795303, -1.14893505570961], a = 0.2, v = 0.2, t = 0.2)
movej(p[0.375237119495101, -0.11537041123169, 0.276693028464864, -1.12333674025261, 1.22249503620356, -1.16136682556572], a = 0.2, v = 0.2, t = 0.2)
movej(p[0.37278441082841, -0.114761516060393, 0.275799034723439, -1.1331947541469, 1.23502637150842, -1.17371376913153], a = 0.2, v = 0.2, t = 0.2)
movej(p[0.370571799724886, -0.114212232319312, 0.274992544759489, -1.1420326531504, 1.24655668310755, -1.18477685607254], a = 0.2, v = 0.2, t = 0.2)
movej(p[0.368815850875486, -0.113776315384766, 0.274352519245187, -1.14900744134852, 1.25585990241048, -1.19350420081794], a = 0.2, v = 0.2, t = 0.2)
movej(p[0.36768847040923, -0.113496438747462, 0.273941594441755, -1.15346684807167, 1.26190429406212, -1.19908246078539], a = 0.2, v = 0.2, t = 0.2)
movej(p[0.3673, -0.1134, 0.2738, -1.155, 1.264, -1.201], a = 0.2, v = 0.2, t = 0.2)
movej(p[0.36768847040923, -0.113496438747462, 0.273941594441755, -1.15346684807167, 1.26190429406212, -1.19908246078539], a = 0.2, v = 0.2, t = 0.2)
movej(p[0.368815850875486, -0.113776315384766, 0.274352519245187, -1.14900744134852, 1.25585990241048, -1.19350420081794], a = 0.2, v = 0.2, t = 0.2)
movej(p[0.370571799724886, -0.114212232319312, 0.274992544759489, -1.1420326531504, 1.24655668310755, -1.18477685607254], a = 0.2, v = 0.2, t = 0.2)
movej(p[0.37278441082841, -0.114761516060393, 0.275799034723439, -1.1331947541469, 1.23502637150842, -1.17371376913153], a = 0.2, v = 0.2, t = 0.2)
movej(p[0.375237119495101, -0.11537041123169, 0.276693028464864, -1.12333674025261, 1.22249503620356, -1.16136682556572], a = 0.2, v = 0.2, t = 0.2)
movej(p[0.377689788195068, -0.115979304778292, 0.277587022352153, -1.11341710042203, 1.21022582795303, -1.14893505570961], a = 0.2, v = 0.2, t = 0.2)
movej(p[0.379902459167183, -0.116528592952311, 0.278393511998487, -1.10441786203948, 1.19938178086369, -1.13764986305686], a = 0.2, v = 0.2, t = 0.2)
movej(p[0.381658347942619, -0.116964510394137, 0.279033536584585, -1.09724362619597, 1.19092684922638, -1.12864795173375], a = 0.2, v = 0.2, t = 0.2)
movej(p[0.382785816736633, -0.117244380875408, 0.279444462550102, -1.09262275345273, 1.18556868238799, -1.12284746589891], a = 0.2, v = 0.2, t = 0.2)
movej(p[0.383174238990203, -0.117340822463381, 0.279586056929728, -1.09102785375974, 1.1837350727814, -1.12084501322268], a = 0.2, v = 0.2, t = 0.2)
movej(p[0.382785816736633, -0.117244380875408, 0.279444462550102, -1.09262275345273, 1.18556868238799, -1.12284746589891], a = 0.2, v = 0.2, t = 0.2)
movej(p[0.381658347942619, -0.116964510394137, 0.279033536584585, -1.09724362619597, 1.19092684922638, -1.12864795173375], a = 0.2, v = 0.2, t = 0.2)
movej(p[0.379902459167183, -0.116528592952311, 0.278393511998487, -1.10441786203948, 1.19938178086369, -1.13764986305686], a = 0.2, v = 0.2, t = 0.2)
movej(p[0.377689788195068, -0.115979304778292, 0.277587022352153, -1.11341710042203, 1.21022582795303, -1.14893505570961], a = 0.2, v = 0.2, t = 0.2)
movej(p[0.375237119495101, -0.11537041123169, 0.276693028464864, -1.12333674025261, 1.22249503620356, -1.16136682556572], a = 0.2, v = 0.2, t = 0.2)
movej(p[0.37278441082841, -0.114761516060393, 0.275799034723439, -1.1331947541469, 1.23502637150842, -1.17371376913153], a = 0.2, v = 0.2, t = 0.2)
movej(p[0.370571799724886, -0.114212232319312, 0.274992544759489, -1.1420326531504, 1.24655668310755, -1.18477685607254], a = 0.2, v = 0.2, t = 0.2)
movej(p[0.368815850875486, -0.113776315384766, 0.274352519245187, -1.14900744134852, 1.25585990241048, -1.19350420081794], a = 0.2, v = 0.2, t = 0.2)
movej(p[0.36768847040923, -0.113496438747462, 0.273941594441755, -1.15346684807167, 1.26190429406212, -1.19908246078539], a = 0.2, v = 0.2, t = 0.2)
movej(p[0.3673, -0.1134, 0.2738, -1.155, 1.264, -1.201], a = 0.2, v = 0.2, t = 0.2)
movej(p[0.36768847040923, -0.113496438747462, 0.273941594441755, -1.15346684807167, 1.26190429406212, -1.19908246078539], a = 0.2, v = 0.2, t = 0.2)
movej(p[0.368815850875486, -0.113776315384766, 0.274352519245187, -1.14900744134852, 1.25585990241048, -1.19350420081794], a = 0.2, v = 0.2, t = 0.2)
movej(p[0.370571799724886, -0.114212232319312, 0.274992544759489, -1.1420326531504, 1.24655668310755, -1.18477685607254], a = 0.2, v = 0.2, t = 0.2)
movej(p[0.37278441082841, -0.114761516060393, 0.275799034723439, -1.1331947541469, 1.23502637150842, -1.17371376913153], a = 0.2, v = 0.2, t = 0.2)
movej(p[0.375237119495101, -0.11537041123169, 0.276693028464864, -1.12333674025261, 1.22249503620356, -1.16136682556572], a = 0.2, v = 0.2, t = 0.2)
movej(p[0.377689788195068, -0.115979304778292, 0.277587022352153, -1.11341710042203, 1.21022582795303, -1.14893505570961], a = 0.2, v = 0.2, t = 0.2)
movej(p[0.379902459167183, -0.116528592952311, 0.278393511998487, -1.10441786203948, 1.19938178086369, -1.13764986305686], a = 0.2, v = 0.2, t = 0.2)
movej(p[0.381658347942619, -0.116964510394137, 0.279033536584585, -1.09724362619597, 1.19092684922638, -1.12864795173375], a = 0.2, v = 0.2, t = 0.2)
movej(p[0.382785816736633, -0.117244380875408, 0.279444462550102, -1.09262275345273, 1.18556868238799, -1.12284746589891], a = 0.2, v = 0.2, t = 0.2)
movej(p[0.383174238990203, -0.117340822463381, 0.279586056929728, -1.09102785375974, 1.1837350727814, -1.12084501322268], a = 0.2, v = 0.2, t = 0.2)
movej(p[0.382785816736633, -0.117244380875408, 0.279444462550102, -1.09262275345273, 1.18556868238799, -1.12284746589891], a = 0.2, v = 0.2, t = 0.2)
movej(p[0.381658347942619, -0.116964510394137, 0.279033536584585, -1.09724362619597, 1.19092684922638, -1.12864795173375], a = 0.2, v = 0.2, t = 0.2)
movej(p[0.379902459167183, -0.116528592952311, 0.278393511998487, -1.10441786203948, 1.19938178086369, -1.13764986305686], a = 0.2, v = 0.2, t = 0.2)
movej(p[0.377689788195068, -0.115979304778292, 0.277587022352153, -1.11341710042203, 1.21022582795303, -1.14893505570961], a = 0.2, v = 0.2, t = 0.2)
movej(p[0.375237119495101, -0.11537041123169, 0.276693028464864, -1.12333674025261, 1.22249503620356, -1.16136682556572], a = 0.2, v = 0.2, t = 0.2)
movej(p[0.37278441082841, -0.114761516060393, 0.275799034723439, -1.1331947541469, 1.23502637150842, -1.17371376913153], a = 0.2, v = 0.2, t = 0.2)
movej(p[0.370571799724886, -0.114212232319312, 0.274992544759489, -1.1420326531504, 1.24655668310755, -1.18477685607254], a = 0.2, v = 0.2, t = 0.2)
movej(p[0.368815850875486, -0.113776315384766, 0.274352519245187, -1.14900744134852, 1.25585990241048, -1.19350420081794], a = 0.2, v = 0.2, t = 0.2)
movej(p[0.36768847040923, -0.113496438747462, 0.273941594441755, -1.15346684807167, 1.26190429406212, -1.19908246078539], a = 0.2, v = 0.2, t = 0.2)
movej(p[0.3673, -0.1134, 0.2738, -1.155, 1.264, -1.201], a = 0.2, v = 0.2, t = 0.2)
movej(p[0.36768847040923, -0.113496438747462, 0.273941594441755, -1.15346684807167, 1.26190429406212, -1.19908246078539], a = 0.2, v = 0.2, t = 0.2)
movej(p[0.368815850875486, -0.113776315384766, 0.274352519245187, -1.14900744134852, 1.25585990241048, -1.19350420081794], a = 0.2, v = 0.2, t = 0.2)
movej(p[0.370571799724886, -0.114212232319312, 0.274992544759489, -1.1420326531504, 1.24655668310755, -1.18477685607254], a = 0.2, v = 0.2, t = 0.2)
movej(p[0.37278441082841, -0.114761516060393, 0.275799034723439, -1.1331947541469, 1.23502637150842, -1.17371376913153], a = 0.2, v = 0.2, t = 0.2)
movej(p[0.375237119495101, -0.11537041123169, 0.276693028464864, -1.12333674025261, 1.22249503620356, -1.16136682556572], a = 0.2, v = 0.2, t = 0.2)
movej(p[0.377689788195068, -0.115979304778292, 0.277587022352153, -1.11341710042203, 1.21022582795303, -1.14893505570961], a = 0.2, v = 0.2, t = 0.2)
movej(p[0.379902459167183, -0.116528592952311, 0.278393511998487, -1.10441786203948, 1.19938178086369, -1.13764986305686], a = 0.2, v = 0.2, t = 0.2)
movej(p[0.381658347942619, -0.116964510394137, 0.279033536584585, -1.09724362619597, 1.19092684922638, -1.12864795173375], a = 0.2, v = 0.2, t = 0.2)
movej(p[0.382785816736633, -0.117244380875408, 0.279444462550102, -1.09262275345273, 1.18556868238799, -1.12284746589891], a = 0.2, v = 0.2, t = 0.2)
movej(p[0.383174238990203, -0.117340822463381, 0.279586056929728, -1.09102785375974, 1.1837350727814, -1.12084501322268], a = 0.2, v = 0.2, t = 0.2)
movej(p[0.382785816736633, -0.117244380875408, 0.279444462550102, -1.09262275345273, 1.18556868238799, -1.12284746589891], a = 0.2, v = 0.2, t = 0.2)
movej(p[0.381658347942619, -0.116964510394137, 0.279033536584585, -1.09724362619597, 1.19092684922638, -1.12864795173375], a = 0.2, v = 0.2, t = 0.2)
movej(p[0.379902459167183, -0.116528592952311, 0.278393511998487, -1.10441786203948, 1.19938178086369, -1.13764986305686], a = 0.2, v = 0.2, t = 0.2)
movej(p[0.377689788195068, -0.115979304778292, 0.277587022352153, -1.11341710042203, 1.21022582795303, -1.14893505570961], a = 0.2, v = 0.2, t = 0.2)
movej(p[0.375237119495101, -0.11537041123169, 0.276693028464864, -1.12333674025261, 1.22249503620356, -1.16136682556572], a = 0.2, v = 0.2, t = 0.2)
movej(p[0.37278441082841, -0.114761516060393, 0.275799034723439, -1.1331947541469, 1.23502637150842, -1.17371376913153], a = 0.2, v = 0.2, t = 0.2)
movej(p[0.370571799724886, -0.114212232319312, 0.274992544759489, -1.1420326531504, 1.24655668310755, -1.18477685607254], a = 0.2, v = 0.2, t = 0.2)
movej(p[0.368815850875486, -0.113776315384766, 0.274352519245187, -1.14900744134852, 1.25585990241048, -1.19350420081794], a = 0.2, v = 0.2, t = 0.2)
movej(p[0.36768847040923, -0.113496438747462, 0.273941594441755, -1.15346684807167, 1.26190429406212, -1.19908246078539], a = 0.2, v = 0.2, t = 0.2)
movej(p[0.3673, -0.1134, 0.2738, -1.155, 1.264, -1.201], a = 0.2, v = 0.2, t = 0.2)
movej(p[0.36768847040923, -0.113496438747462, 0.273941594441755, -1.15346684807167, 1.26190429406212, -1.19908246078539], a = 0.2, v = 0.2, t = 0.2)
movej(p[0.368815850875486, -0.113776315384766, 0.274352519245187, -1.14900744134852, 1.25585990241048, -1.19350420081794], a = 0.2, v = 0.2, t = 0.2)
movej(p[0.370571799724886, -0.114212232319312, 0.274992544759489, -1.1420326531504, 1.24655668310755, -1.18477685607254], a = 0.2, v = 0.2, t = 0.2)
movej(p[0.37278441082841, -0.114761516060393, 0.275799034723439, -1.1331947541469, 1.23502637150842, -1.17371376913153], a = 0.2, v = 0.2, t = 0.2)
movej(p[0.375237119495101, -0.11537041123169, 0.276693028464864, -1.12333674025261, 1.22249503620356, -1.16136682556572], a = 0.2, v = 0.2, t = 0.2)
movej(p[0.377689788195068, -0.115979304778292, 0.277587022352153, -1.11341710042203, 1.21022582795303, -1.14893505570961], a = 0.2, v = 0.2, t = 0.2)
movej(p[0.379902459167183, -0.116528592952311, 0.278393511998487, -1.10441786203948, 1.19938178086369, -1.13764986305686], a = 0.2, v = 0.2, t = 0.2)
movej(p[0.381658347942619, -0.116964510394137, 0.279033536584585, -1.09724362619597, 1.19092684922638, -1.12864795173375], a = 0.2, v = 0.2, t = 0.2)
movej(p[0.382785816736633, -0.117244380875408, 0.279444462550102, -1.09262275345273, 1.18556868238799, -1.12284746589891], a = 0.2, v = 0.2, t = 0.2)
movej(p[0.383174238990203, -0.117340822463381, 0.279586056929728, -1.09102785375974, 1.1837350727814, -1.12084501322268], a = 0.2, v = 0.2, t = 0.2)
movej(p[0.382785816736633, -0.117244380875408, 0.279444462550102, -1.09262275345273, 1.18556868238799, -1.12284746589891], a = 0.2, v = 0.2, t = 0.2)
movej(p[0.381658347942619, -0.116964510394137, 0.279033536584585, -1.09724362619597, 1.19092684922638, -1.12864795173375], a = 0.2, v = 0.2, t = 0.2)
movej(p[0.379902459167183, -0.116528592952311, 0.278393511998487, -1.10441786203948, 1.19938178086369, -1.13764986305686], a = 0.2, v = 0.2, t = 0.2)
movej(p[0.377689788195068, -0.115979304778292, 0.277587022352153, -1.11341710042203, 1.21022582795303, -1.14893505570961], a = 0.2, v = 0.2, t = 0.2)
movej(p[0.375237119495101, -0.11537041123169, 0.276693028464864, -1.12333674025261, 1.22249503620356, -1.16136682556572], a = 0.2, v = 0.2, t = 0.2)
movej(p[0.37278441082841, -0.114761516060393, 0.275799034723439, -1.1331947541469, 1.23502637150842, -1.17371376913153], a = 0.2, v = 0.2, t = 0.2)
movej(p[0.370571799724886, -0.114212232319312, 0.274992544759489, -1.1420326531504, 1.24655668310755, -1.18477685607254], a = 0.2, v = 0.2, t = 0.2)
movej(p[0.368815850875486, -0.113776315384766, 0.274352519245187, -1.14900744134852, 1.25585990241048, -1.19350420081794], a = 0.2, v = 0.2, t = 0.2)
movej(p[0.36768847040923, -0.113496438747462, 0.273941594441755, -1.15346684807167, 1.26190429406212, -1.19908246078539], a = 0.2, v = 0.2, t = 0.2)
movej(p[0.3673, -0.1134, 0.2738, -1.155, 1.264, -1.201], a = 0.2, v = 0.2, t = 0.2)
movej(p[0.36768847040923, -0.113496438747462, 0.273941594441755, -1.15346684807167, 1.26190429406212, -1.19908246078539], a = 0.2, v = 0.2, t = 0.2)
movej(p[0.368815850875486, -0.113776315384766, 0.274352519245187, -1.14900744134852, 1.25585990241048, -1.19350420081794], a = 0.2, v = 0.2, t = 0.2)
movej(p[0.370571799724886, -0.114212232319312, 0.274992544759489, -1.1420326531504, 1.24655668310755, -1.18477685607254], a = 0.2, v = 0.2, t = 0.2)
movej(p[0.37278441082841, -0.114761516060393, 0.275799034723439, -1.1331947541469, 1.23502637150842, -1.17371376913153], a = 0.2, v = 0.2, t = 0.2)
movej(p[0.375237119495101, -0.11537041123169, 0.276693028464864, -1.12333674025261, 1.22249503620356, -1.16136682556572], a = 0.2, v = 0.2, t = 0.2)
movej(p[0.377689788195068, -0.115979304778292, 0.277587022352153, -1.11341710042203, 1.21022582795303, -1.14893505570961], a = 0.2, v = 0.2, t = 0.2)
movej(p[0.379902459167183, -0.116528592952311, 0.278393511998487, -1.10441786203948, 1.19938178086369, -1.13764986305686], a = 0.2, v = 0.2, t = 0.2)
movej(p[0.381658347942619, -0.116964510394137, 0.279033536584585, -1.09724362619597, 1.19092684922638, -1.12864795173375], a = 0.2, v = 0.2, t = 0.2)
movej(p[0.382785816736633, -0.117244380875408, 0.279444462550102, -1.09262275345273, 1.18556868238799, -1.12284746589891], a = 0.2, v = 0.2, t = 0.2)
movej(p[0.383174238990203, -0.117340822463381, 0.279586056929728, -1.09102785375974, 1.1837350727814, -1.12084501322268], a = 0.2, v = 0.2, t = 0.2)
movej(p[0.382785816736633, -0.117244380875408, 0.279444462550102, -1.09262275345273, 1.18556868238799, -1.12284746589891], a = 0.2, v = 0.2, t = 0.2)
movej(p[0.381658347942619, -0.116964510394137, 0.279033536584585, -1.09724362619597, 1.19092684922638, -1.12864795173375], a = 0.2, v = 0.2, t = 0.2)
movej(p[0.379902459167183, -0.116528592952311, 0.278393511998487, -1.10441786203948, 1.19938178086369, -1.13764986305686], a = 0.2, v = 0.2, t = 0.2)
movej(p[0.377689788195068, -0.115979304778292, 0.277587022352153, -1.11341710042203, 1.21022582795303, -1.14893505570961], a = 0.2, v = 0.2, t = 0.2)
movej(p[0.375237119495101, -0.11537041123169, 0.276693028464864, -1.12333674025261, 1.22249503620356, -1.16136682556572], a = 0.2, v = 0.2, t = 0.2)
movej(p[0.37278441082841, -0.114761516060393, 0.275799034723439, -1.1331947541469, 1.23502637150842, -1.17371376913153], a = 0.2, v = 0.2, t = 0.2)
movej(p[0.370571799724886, -0.114212232319312, 0.274992544759489, -1.1420326531504, 1.24655668310755, -1.18477685607254], a = 0.2, v = 0.2, t = 0.2)
movej(p[0.368815850875486, -0.113776315384766, 0.274352519245187, -1.14900744134852, 1.25585990241048, -1.19350420081794], a = 0.2, v = 0.2, t = 0.2)
movej(p[0.36768847040923, -0.113496438747462, 0.273941594441755, -1.15346684807167, 1.26190429406212, -1.19908246078539], a = 0.2, v = 0.2, t = 0.2)
movej(p[0.3673, -0.1134, 0.2738, -1.155, 1.264, -1.201], a = 0.2, v = 0.2, t = 0.2)
movej(p[0.36768847040923, -0.113496438747462, 0.273941594441755, -1.15346684807167, 1.26190429406212, -1.19908246078539], a = 0.2, v = 0.2, t = 0.2)
movej(p[0.368815850875486, -0.113776315384766, 0.274352519245187, -1.14900744134852, 1.25585990241048, -1.19350420081794], a = 0.2, v = 0.2, t = 0.2)
movej(p[0.370571799724886, -0.114212232319312, 0.274992544759489, -1.1420326531504, 1.24655668310755, -1.18477685607254], a = 0.2, v = 0.2, t = 0.2)
movej(p[0.37278441082841, -0.114761516060393, 0.275799034723439, -1.1331947541469, 1.23502637150842, -1.17371376913153], a = 0.2, v = 0.2, t = 0.2)
movej(p[0.375237119495101, -0.11537041123169, 0.276693028464864, -1.12333674025261, 1.22249503620356, -1.16136682556572], a = 0.2, v = 0.2, t = 0.2)
movej(p[0.377689788195068, -0.115979304778292, 0.277587022352153, -1.11341710042203, 1.21022582795303, -1.14893505570961], a = 0.2, v = 0.2, t = 0.2)
movej(p[0.379902459167183, -0.116528592952311, 0.278393511998487, -1.10441786203948, 1.19938178086369, -1.13764986305686], a = 0.2, v = 0.2, t = 0.2)
movej(p[0.381658347942619, -0.116964510394137, 0.279033536584585, -1.09724362619597, 1.19092684922638, -1.12864795173375], a = 0.2, v = 0.2, t = 0.2)
movej(p[0.382785816736633, -0.117244380875408, 0.279444462550102, -1.09262275345273, 1.18556868238799, -1.12284746589891], a = 0.2, v = 0.2, t = 0.2)
movej(p[0.383174238990203, -0.117340822463381, 0.279586056929728, -1.09102785375974, 1.1837350727814, -1.12084501322268], a = 0.2, v = 0.2, t = 0.2)
movej(p[0.382785816736633, -0.117244380875408, 0.279444462550102, -1.09262275345273, 1.18556868238799, -1.12284746589891], a = 0.2, v = 0.2, t = 0.2)
movej(p[0.381658347942619, -0.116964510394137, 0.279033536584585, -1.09724362619597, 1.19092684922638, -1.12864795173375], a = 0.2, v = 0.2, t = 0.2)
movej(p[0.379902459167183, -0.116528592952311, 0.278393511998487, -1.10441786203948, 1.19938178086369, -1.13764986305686], a = 0.2, v = 0.2, t = 0.2)
movej(p[0.377689788195068, -0.115979304778292, 0.277587022352153, -1.11341710042203, 1.21022582795303, -1.14893505570961], a = 0.2, v = 0.2, t = 0.2)
movej(p[0.375237119495101, -0.11537041123169, 0.276693028464864, -1.12333674025261, 1.22249503620356, -1.16136682556572], a = 0.2, v = 0.2, t = 0.2)
movej(p[0.37278441082841, -0.114761516060393, 0.275799034723439, -1.1331947541469, 1.23502637150842, -1.17371376913153], a = 0.2, v = 0.2, t = 0.2)
movej(p[0.370571799724886, -0.114212232319312, 0.274992544759489, -1.1420326531504, 1.24655668310755, -1.18477685607254], a = 0.2, v = 0.2, t = 0.2)
movej(p[0.368815850875486, -0.113776315384766, 0.274352519245187, -1.14900744134852, 1.25585990241048, -1.19350420081794], a = 0.2, v = 0.2, t = 0.2)
movej(p[0.36768847040923, -0.113496438747462, 0.273941594441755, -1.15346684807167, 1.26190429406212, -1.19908246078539], a = 0.2, v = 0.2, t = 0.2)
movej(p[0.3673, -0.1134, 0.2738, -1.155, 1.264, -1.201], a = 0.2, v = 0.2, t = 0.2)
movej(p[0.36768847040923, -0.113496438747462, 0.273941594441755, -1.15346684807167, 1.26190429406212, -1.19908246078539], a = 0.2, v = 0.2, t = 0.2)
movej(p[0.368815850875486, -0.113776315384766, 0.274352519245187, -1.14900744134852, 1.25585990241048, -1.19350420081794], a = 0.2, v = 0.2, t = 0.2)
movej(p[0.370571799724886, -0.114212232319312, 0.274992544759489, -1.1420326531504, 1.24655668310755, -1.18477685607254], a = 0.2, v = 0.2, t = 0.2)
movej(p[0.37278441082841, -0.114761516060393, 0.275799034723439, -1.1331947541469, 1.23502637150842, -1.17371376913153], a = 0.2, v = 0.2, t = 0.2)
movej(p[0.375237119495101, -0.11537041123169, 0.276693028464864, -1.12333674025261, 1.22249503620356, -1.16136682556572], a = 0.2, v = 0.2, t = 0.2)
movej(p[0.377689788195068, -0.115979304778292, 0.277587022352153, -1.11341710042203, 1.21022582795303, -1.14893505570961], a = 0.2, v = 0.2, t = 0.2)
movej(p[0.379902459167183, -0.116528592952311, 0.278393511998487, -1.10441786203948, 1.19938178086369, -1.13764986305686], a = 0.2, v = 0.2, t = 0.2)
movej(p[0.381658347942619, -0.116964510394137, 0.279033536584585, -1.09724362619597, 1.19092684922638, -1.12864795173375], a = 0.2, v = 0.2, t = 0.2)
movej(p[0.382785816736633, -0.117244380875408, 0.279444462550102, -1.09262275345273, 1.18556868238799, -1.12284746589891], a = 0.2, v = 0.2, t = 0.2)
movej(p[0.383174238990203, -0.117340822463381, 0.279586056929728, -1.09102785375974, 1.1837350727814, -1.12084501322268], a = 0.2, v = 0.2, t = 0.2)
movej(p[0.382785816736633, -0.117244380875408, 0.279444462550102, -1.09262275345273, 1.18556868238799, -1.12284746589891], a = 0.2, v = 0.2, t = 0.2)
movej(p[0.381658347942619, -0.116964510394137, 0.279033536584585, -1.09724362619597, 1.19092684922638, -1.12864795173375], a = 0.2, v = 0.2, t = 0.2)
movej(p[0.379902459167183, -0.116528592952311, 0.278393511998487, -1.10441786203948, 1.19938178086369, -1.13764986305686], a = 0.2, v = 0.2, t = 0.2)
movej(p[0.377689788195068, -0.115979304778292, 0.277587022352153, -1.11341710042203, 1.21022582795303, -1.14893505570961], a = 0.2, v = 0.2, t = 0.2)
movej(p[0.375237119495101, -0.11537041123169, 0.276693028464864, -1.12333674025261, 1.22249503620356, -1.16136682556572], a = 0.2, v = 0.2, t = 0.2)
movej(p[0.37278441082841, -0.114761516060393, 0.275799034723439, -1.1331947541469, 1.23502637150842, -1.17371376913153], a = 0.2, v = 0.2, t = 0.2)
movej(p[0.370571799724886, -0.114212232319312, 0.274992544759489, -1.1420326531504, 1.24655668310755, -1.18477685607254], a = 0.2, v = 0.2, t = 0.2)
movej(p[0.368815850875486, -0.113776315384766, 0.274352519245187, -1.14900744134852, 1.25585990241048, -1.19350420081794], a = 0.2, v = 0.2, t = 0.2)
movej(p[0.36768847040923, -0.113496438747462, 0.273941594441755, -1.15346684807167, 1.26190429406212, -1.19908246078539], a = 0.2, v = 0.2, t = 0.2)
movej(p[0.3673, -0.1134, 0.2738, -1.155, 1.264, -1.201], a = 0.2, v = 0.2, t = 0.2)
movej(p[0.36768847040923, -0.113496438747462, 0.273941594441755, -1.15346684807167, 1.26190429406212, -1.19908246078539], a = 0.2, v = 0.2, t = 0.2)
movej(p[0.368815850875486, -0.113776315384766, 0.274352519245187, -1.14900744134852, 1.25585990241048, -1.19350420081794], a = 0.2, v = 0.2, t = 0.2)
movej(p[0.370571799724886, -0.114212232319312, 0.274992544759489, -1.1420326531504, 1.24655668310755, -1.18477685607254], a = 0.2, v = 0.2, t = 0.2)
movej(p[0.37278441082841, -0.114761516060393, 0.275799034723439, -1.1331947541469, 1.23502637150842, -1.17371376913153], a = 0.2, v = 0.2, t = 0.2)
movej(p[0.375237119495101, -0.11537041123169, 0.276693028464864, -1.12333674025261, 1.22249503620356, -1.16136682556572], a = 0.2, v = 0.2, t = 0.2)
movej(p[0.377689788195068, -0.115979304778292, 0.277587022352153, -1.11341710042203, 1.21022582795303, -1.14893505570961], a = 0.2, v = 0.2, t = 0.2)
movej(p[0.379902459167183, -0.116528592952311, 0.278393511998487, -1.10441786203948, 1.19938178086369, -1.13764986305686], a = 0.2, v = 0.2, t = 0.2)
movej(p[0.381658347942619, -0.116964510394137, 0.279033536584585, -1.09724362619597, 1.19092684922638, -1.12864795173375], a = 0.2, v = 0.2, t = 0.2)
movej(p[0.382785816736633, -0.117244380875408, 0.279444462550102, -1.09262275345273, 1.18556868238799, -1.12284746589891], a = 0.2, v = 0.2, t = 0.2)
movej(p[0.383174238990203, -0.117340822463381, 0.279586056929728, -1.09102785375974, 1.1837350727814, -1.12084501322268], a = 0.2, v = 0.2, t = 0.2)
movej(p[0.382785816736633, -0.117244380875408, 0.279444462550102, -1.09262275345273, 1.18556868238799, -1.12284746589891], a = 0.2, v = 0.2, t = 0.2)
movej(p[0.381658347942619, -0.116964510394137, 0.279033536584585, -1.09724362619597, 1.19092684922638, -1.12864795173375], a = 0.2, v = 0.2, t = 0.2)
movej(p[0.379902459167183, -0.116528592952311, 0.278393511998487, -1.10441786203948, 1.19938178086369, -1.13764986305686], a = 0.2, v = 0.2, t = 0.2)
movej(p[0.377689788195068, -0.115979304778292, 0.277587022352153, -1.11341710042203, 1.21022582795303, -1.14893505570961], a = 0.2, v = 0.2, t = 0.2)
movej(p[0.375237119495101, -0.11537041123169, 0.276693028464864, -1.12333674025261, 1.22249503620356, -1.16136682556572], a = 0.2, v = 0.2, t = 0.2)
movej(p[0.37278441082841, -0.114761516060393, 0.275799034723439, -1.1331947541469, 1.23502637150842, -1.17371376913153], a = 0.2, v = 0.2, t = 0.2)
movej(p[0.370571799724886, -0.114212232319312, 0.274992544759489, -1.1420326531504, 1.24655668310755, -1.18477685607254], a = 0.2, v = 0.2, t = 0.2)
movej(p[0.368815850875486, -0.113776315384766, 0.274352519245187, -1.14900744134852, 1.25585990241048, -1.19350420081794], a = 0.2, v = 0.2, t = 0.2)
movej(p[0.36768847040923, -0.113496438747462, 0.273941594441755, -1.15346684807167, 1.26190429406212, -1.19908246078539], a = 0.2, v = 0.2, t = 0.2)
movej(p[0.3673, -0.1134, 0.2738, -1.155, 1.264, -1.201], a = 0.2, v = 0.2, t = 0.2)
movej(p[0.36768847040923, -0.113496438747462, 0.273941594441755, -1.15346684807167, 1.26190429406212, -1.19908246078539], a = 0.2, v = 0.2, t = 0.2)
movej(p[0.368815850875486, -0.113776315384766, 0.274352519245187, -1.14900744134852, 1.25585990241048, -1.19350420081794], a = 0.2, v = 0.2, t = 0.2)
movej(p[0.370571799724886, -0.114212232319312, 0.274992544759489, -1.1420326531504, 1.24655668310755, -1.18477685607254], a = 0.2, v = 0.2, t = 0.2)
movej(p[0.37278441082841, -0.114761516060393, 0.275799034723439, -1.1331947541469, 1.23502637150842, -1.17371376913153], a = 0.2, v = 0.2, t = 0.2)
movej(p[0.375237119495101, -0.11537041123169, 0.276693028464864, -1.12333674025261, 1.22249503620356, -1.16136682556572], a = 0.2, v = 0.2, t = 0.2)
movej(p[0.377689788195068, -0.115979304778292, 0.277587022352153, -1.11341710042203, 1.21022582795303, -1.14893505570961], a = 0.2, v = 0.2, t = 0.2)
movej(p[0.379902459167183, -0.116528592952311, 0.278393511998487, -1.10441786203948, 1.19938178086369, -1.13764986305686], a = 0.2, v = 0.2, t = 0.2)
movej(p[0.381658347942619, -0.116964510394137, 0.279033536584585, -1.09724362619597, 1.19092684922638, -1.12864795173375], a = 0.2, v = 0.2, t = 0.2)
movej(p[0.382785816736633, -0.117244380875408, 0.279444462550102, -1.09262275345273, 1.18556868238799, -1.12284746589891], a = 0.2, v = 0.2, t = 0.2)
movej(p[0.383174238990203, -0.117340822463381, 0.279586056929728, -1.09102785375974, 1.1837350727814, -1.12084501322268], a = 0.2, v = 0.2, t = 0.2)
movej(p[0.382785816736633, -0.117244380875408, 0.279444462550102, -1.09262275345273, 1.18556868238799, -1.12284746589891], a = 0.2, v = 0.2, t = 0.2)
movej(p[0.381658347942619, -0.116964510394137, 0.279033536584585, -1.09724362619597, 1.19092684922638, -1.12864795173375], a = 0.2, v = 0.2, t = 0.2)
movej(p[0.379902459167183, -0.116528592952311, 0.278393511998487, -1.10441786203948, 1.19938178086369, -1.13764986305686], a = 0.2, v = 0.2, t = 0.2)
movej(p[0.377689788195068, -0.115979304778292, 0.277587022352153, -1.11341710042203, 1.21022582795303, -1.14893505570961], a = 0.2, v = 0.2, t = 0.2)
movej(p[0.375237119495101, -0.11537041123169, 0.276693028464864, -1.12333674025261, 1.22249503620356, -1.16136682556572], a = 0.2, v = 0.2, t = 0.2)
movej(p[0.37278441082841, -0.114761516060393, 0.275799034723439, -1.1331947541469, 1.23502637150842, -1.17371376913153], a = 0.2, v = 0.2, t = 0.2)
movej(p[0.370571799724886, -0.114212232319312, 0.274992544759489, -1.1420326531504, 1.24655668310755, -1.18477685607254], a = 0.2, v = 0.2, t = 0.2)
movej(p[0.368815850875486, -0.113776315384766, 0.274352519245187, -1.14900744134852, 1.25585990241048, -1.19350420081794], a = 0.2, v = 0.2, t = 0.2)
movej(p[0.36768847040923, -0.113496438747462, 0.273941594441755, -1.15346684807167, 1.26190429406212, -1.19908246078539], a = 0.2, v = 0.2, t = 0.2)
movej(p[0.3673, -0.1134, 0.2738, -1.155, 1.264, -1.201], a = 0.2, v = 0.2, t = 0.2)
movej(p[0.36768847040923, -0.113496438747462, 0.273941594441755, -1.15346684807167, 1.26190429406212, -1.19908246078539], a = 0.2, v = 0.2, t = 0.2)
movej(p[0.368815850875486, -0.113776315384766, 0.274352519245187, -1.14900744134852, 1.25585990241048, -1.19350420081794], a = 0.2, v = 0.2, t = 0.2)
movej(p[0.370571799724886, -0.114212232319312, 0.274992544759489, -1.1420326531504, 1.24655668310755, -1.18477685607254], a = 0.2, v = 0.2, t = 0.2)
movej(p[0.37278441082841, -0.114761516060393, 0.275799034723439, -1.1331947541469, 1.23502637150842, -1.17371376913153], a = 0.2, v = 0.2, t = 0.2)
movej(p[0.375237119495101, -0.11537041123169, 0.276693028464864, -1.12333674025261, 1.22249503620356, -1.16136682556572], a = 0.2, v = 0.2, t = 0.2)
movej(p[0.377689788195068, -0.115979304778292, 0.277587022352153, -1.11341710042203, 1.21022582795303, -1.14893505570961], a = 0.2, v = 0.2, t = 0.2)
movej(p[0.379902459167183, -0.116528592952311, 0.278393511998487, -1.10441786203948, 1.19938178086369, -1.13764986305686], a = 0.2, v = 0.2, t = 0.2)
movej(p[0.381658347942619, -0.116964510394137, 0.279033536584585, -1.09724362619597, 1.19092684922638, -1.12864795173375], a = 0.2, v = 0.2, t = 0.2)
movej(p[0.382785816736633, -0.117244380875408, 0.279444462550102, -1.09262275345273, 1.18556868238799, -1.12284746589891], a = 0.2, v = 0.2, t = 0.2)
movej(p[0.383174238990203, -0.117340822463381, 0.279586056929728, -1.09102785375974, 1.1837350727814, -1.12084501322268], a = 0.2, v = 0.2, t = 0.2)
movej(p[0.382785816736633, -0.117244380875408, 0.279444462550102, -1.09262275345273, 1.18556868238799, -1.12284746589891], a = 0.2, v = 0.2, t = 0.2)
movej(p[0.381658347942619, -0.116964510394137, 0.279033536584585, -1.09724362619597, 1.19092684922638, -1.12864795173375], a = 0.2, v = 0.2, t = 0.2)
movej(p[0.379902459167183, -0.116528592952311, 0.278393511998487, -1.10441786203948, 1.19938178086369, -1.13764986305686], a = 0.2, v = 0.2, t = 0.2)
movej(p[0.377689788195068, -0.115979304778292, 0.277587022352153, -1.11341710042203, 1.21022582795303, -1.14893505570961], a = 0.2, v = 0.2, t = 0.2)
movej(p[0.375237119495101, -0.11537041123169, 0.276693028464864, -1.12333674025261, 1.22249503620356, -1.16136682556572], a = 0.2, v = 0.2, t = 0.2)
movej(p[0.37278441082841, -0.114761516060393, 0.275799034723439, -1.1331947541469, 1.23502637150842, -1.17371376913153], a = 0.2, v = 0.2, t = 0.2)
movej(p[0.370571799724886, -0.114212232319312, 0.274992544759489, -1.1420326531504, 1.24655668310755, -1.18477685607254], a = 0.2, v = 0.2, t = 0.2)
movej(p[0.368815850875486, -0.113776315384766, 0.274352519245187, -1.14900744134852, 1.25585990241048, -1.19350420081794], a = 0.2, v = 0.2, t = 0.2)
movej(p[0.36768847040923, -0.113496438747462, 0.273941594441755, -1.15346684807167, 1.26190429406212, -1.19908246078539], a = 0.2, v = 0.2, t = 0.2)
movej(p[0.3673, -0.1134, 0.2738, -1.155, 1.264, -1.201], a = 0.2, v = 0.2, t = 0.2)
movej(p[0.36768847040923, -0.113496438747462, 0.273941594441755, -1.15346684807167, 1.26190429406212, -1.19908246078539], a = 0.2, v = 0.2, t = 0.2)
movej(p[0.368815850875486, -0.113776315384766, 0.274352519245187, -1.14900744134852, 1.25585990241048, -1.19350420081794], a = 0.2, v = 0.2, t = 0.2)
movej(p[0.370571799724886, -0.114212232319312, 0.274992544759489, -1.1420326531504, 1.24655668310755, -1.18477685607254], a = 0.2, v = 0.2, t = 0.2)
movej(p[0.37278441082841, -0.114761516060393, 0.275799034723439, -1.1331947541469, 1.23502637150842, -1.17371376913153], a = 0.2, v = 0.2, t = 0.2)
movej(p[0.375237119495101, -0.11537041123169, 0.276693028464864, -1.12333674025261, 1.22249503620356, -1.16136682556572], a = 0.2, v = 0.2, t = 0.2)
movej(p[0.377689788195068, -0.115979304778292, 0.277587022352153, -1.11341710042203, 1.21022582795303, -1.14893505570961], a = 0.2, v = 0.2, t = 0.2)
movej(p[0.379902459167183, -0.116528592952311, 0.278393511998487, -1.10441786203948, 1.19938178086369, -1.13764986305686], a = 0.2, v = 0.2, t = 0.2)
movej(p[0.381658347942619, -0.116964510394137, 0.279033536584585, -1.09724362619597, 1.19092684922638, -1.12864795173375], a = 0.2, v = 0.2, t = 0.2)
movej(p[0.382785816736633, -0.117244380875408, 0.279444462550102, -1.09262275345273, 1.18556868238799, -1.12284746589891], a = 0.2, v = 0.2, t = 0.2)
movej(p[0.383174238990203, -0.117340822463381, 0.279586056929728, -1.09102785375974, 1.1837350727814, -1.12084501322268], a = 0.2, v = 0.2, t = 0.2)
movej(p[0.382785816736633, -0.117244380875408, 0.279444462550102, -1.09262275345273, 1.18556868238799, -1.12284746589891], a = 0.2, v = 0.2, t = 0.2)
movej(p[0.381658347942619, -0.116964510394137, 0.279033536584585, -1.09724362619597, 1.19092684922638, -1.12864795173375], a = 0.2, v = 0.2, t = 0.2)
movej(p[0.379902459167183, -0.116528592952311, 0.278393511998487, -1.10441786203948, 1.19938178086369, -1.13764986305686], a = 0.2, v = 0.2, t = 0.2)
movej(p[0.377689788195068, -0.115979304778292, 0.277587022352153, -1.11341710042203, 1.21022582795303, -1.14893505570961], a = 0.2, v = 0.2, t = 0.2)
movej(p[0.375237119495101, -0.11537041123169, 0.276693028464864, -1.12333674025261, 1.22249503620356, -1.16136682556572], a = 0.2, v = 0.2, t = 0.2)
movej(p[0.37278441082841, -0.114761516060393, 0.275799034723439, -1.1331947541469, 1.23502637150842, -1.17371376913153], a = 0.2, v = 0.2, t = 0.2)
movej(p[0.370571799724886, -0.114212232319312, 0.274992544759489, -1.1420326531504, 1.24655668310755, -1.18477685607254], a = 0.2, v = 0.2, t = 0.2)
movej(p[0.368815850875486, -0.113776315384766, 0.274352519245187, -1.14900744134852, 1.25585990241048, -1.19350420081794], a = 0.2, v = 0.2, t = 0.2)
movej(p[0.36768847040923, -0.113496438747462, 0.273941594441755, -1.15346684807167, 1.26190429406212, -1.19908246078539], a = 0.2, v = 0.2, t = 0.2)
movej(p[0.3673, -0.1134, 0.2738, -1.155, 1.264, -1.201], a = 0.2, v = 0.2, t = 0.2)
movej(p[0.36768847040923, -0.113496438747462, 0.273941594441755, -1.15346684807167, 1.26190429406212, -1.19908246078539], a = 0.2, v = 0.2, t = 0.2)
movej(p[0.368815850875486, -0.113776315384766, 0.274352519245187, -1.14900744134852, 1.25585990241048, -1.19350420081794], a = 0.2, v = 0.2, t = 0.2)
movej(p[0.370571799724886, -0.114212232319312, 0.274992544759489, -1.1420326531504, 1.24655668310755, -1.18477685607254], a = 0.2, v = 0.2, t = 0.2)
movej(p[0.37278441082841, -0.114761516060393, 0.275799034723439, -1.1331947541469, 1.23502637150842, -1.17371376913153], a = 0.2, v = 0.2, t = 0.2)
movej(p[0.375237119495101, -0.11537041123169, 0.276693028464864, -1.12333674025261, 1.22249503620356, -1.16136682556572], a = 0.2, v = 0.2, t = 0.2)
movej(p[0.377689788195068, -0.115979304778292, 0.277587022352153, -1.11341710042203, 1.21022582795303, -1.14893505570961], a = 0.2, v = 0.2, t = 0.2)
movej(p[0.379902459167183, -0.116528592952311, 0.278393511998487, -1.10441786203948, 1.19938178086369, -1.13764986305686], a = 0.2, v = 0.2, t = 0.2)
movej(p[0.381658347942619, -0.116964510394137, 0.279033536584585, -1.09724362619597, 1.19092684922638, -1.12864795173375], a = 0.2, v = 0.2, t = 0.2)
movej(p[0.382785816736633, -0.117244380875408, 0.279444462550102, -1.09262275345273, 1.18556868238799, -1.12284746589891], a = 0.2, v = 0.2, t = 0.2)
movej(p[0.383174238990203, -0.117340822463381, 0.279586056929728, -1.09102785375974, 1.1837350727814, -1.12084501322268], a = 0.2, v = 0.2, t = 0.2)
movej(p[0.382785816736633, -0.117244380875408, 0.279444462550102, -1.09262275345273, 1.18556868238799, -1.12284746589891], a = 0.2, v = 0.2, t = 0.2)
movej(p[0.381658347942619, -0.116964510394137, 0.279033536584585, -1.09724362619597, 1.19092684922638, -1.12864795173375], a = 0.2, v = 0.2, t = 0.2)
movej(p[0.379902459167183, -0.116528592952311, 0.278393511998487, -1.10441786203948, 1.19938178086369, -1.13764986305686], a = 0.2, v = 0.2, t = 0.2)
movej(p[0.377689788195068, -0.115979304778292, 0.277587022352153, -1.11341710042203, 1.21022582795303, -1.14893505570961], a = 0.2, v = 0.2, t = 0.2)
movej(p[0.375237119495101, -0.11537041123169, 0.276693028464864, -1.12333674025261, 1.22249503620356, -1.16136682556572], a = 0.2, v = 0.2, t = 0.2)
movej(p[0.37278441082841, -0.114761516060393, 0.275799034723439, -1.1331947541469, 1.23502637150842, -1.17371376913153], a = 0.2, v = 0.2, t = 0.2)
movej(p[0.370571799724886, -0.114212232319312, 0.274992544759489, -1.1420326531504, 1.24655668310755, -1.18477685607254], a = 0.2, v = 0.2, t = 0.2)
movej(p[0.368815850875486, -0.113776315384766, 0.274352519245187, -1.14900744134852, 1.25585990241048, -1.19350420081794], a = 0.2, v = 0.2, t = 0.2)
movej(p[0.36768847040923, -0.113496438747462, 0.273941594441755, -1.15346684807167, 1.26190429406212, -1.19908246078539], a = 0.2, v = 0.2, t = 0.2)
movej(p[0.3673, -0.1134, 0.2738, -1.155, 1.264, -1.201], a = 0.2, v = 0.2, t = 0.2)
movej(p[0.36768847040923, -0.113496438747462, 0.273941594441755, -1.15346684807167, 1.26190429406212, -1.19908246078539], a = 0.2, v = 0.2, t = 0.2)
movej(p[0.368815850875486, -0.113776315384766, 0.274352519245187, -1.14900744134852, 1.25585990241048, -1.19350420081794], a = 0.2, v = 0.2, t = 0.2)
movej(p[0.370571799724886, -0.114212232319312, 0.274992544759489, -1.1420326531504, 1.24655668310755, -1.18477685607254], a = 0.2, v = 0.2, t = 0.2)
movej(p[0.37278441082841, -0.114761516060393, 0.275799034723439, -1.1331947541469, 1.23502637150842, -1.17371376913153], a = 0.2, v = 0.2, t = 0.2)
movej(p[0.375237119495101, -0.11537041123169, 0.276693028464864, -1.12333674025261, 1.22249503620356, -1.16136682556572], a = 0.2, v = 0.2, t = 0.2)
movej(p[0.377689788195068, -0.115979304778292, 0.277587022352153, -1.11341710042203, 1.21022582795303, -1.14893505570961], a = 0.2, v = 0.2, t = 0.2)
movej(p[0.379902459167183, -0.116528592952311, 0.278393511998487, -1.10441786203948, 1.19938178086369, -1.13764986305686], a = 0.2, v = 0.2, t = 0.2)
movej(p[0.381658347942619, -0.116964510394137, 0.279033536584585, -1.09724362619597, 1.19092684922638, -1.12864795173375], a = 0.2, v = 0.2, t = 0.2)
movej(p[0.382785816736633, -0.117244380875408, 0.279444462550102, -1.09262275345273, 1.18556868238799, -1.12284746589891], a = 0.2, v = 0.2, t = 0.2)
movej(p[0.383174238990203, -0.117340822463381, 0.279586056929728, -1.09102785375974, 1.1837350727814, -1.12084501322268], a = 0.2, v = 0.2, t = 0.2)
movej(p[0.382785816736633, -0.117244380875408, 0.279444462550102, -1.09262275345273, 1.18556868238799, -1.12284746589891], a = 0.2, v = 0.2, t = 0.2)
movej(p[0.381658347942619, -0.116964510394137, 0.279033536584585, -1.09724362619597, 1.19092684922638, -1.12864795173375], a = 0.2, v = 0.2, t = 0.2)
movej(p[0.379902459167183, -0.116528592952311, 0.278393511998487, -1.10441786203948, 1.19938178086369, -1.13764986305686], a = 0.2, v = 0.2, t = 0.2)
movej(p[0.377689788195068, -0.115979304778292, 0.277587022352153, -1.11341710042203, 1.21022582795303, -1.14893505570961], a = 0.2, v = 0.2, t = 0.2)
movej(p[0.375237119495101, -0.11537041123169, 0.276693028464864, -1.12333674025261, 1.22249503620356, -1.16136682556572], a = 0.2, v = 0.2, t = 0.2)
movej(p[0.37278441082841, -0.114761516060393, 0.275799034723439, -1.1331947541469, 1.23502637150842, -1.17371376913153], a = 0.2, v = 0.2, t = 0.2)
movej(p[0.370571799724886, -0.114212232319312, 0.274992544759489, -1.1420326531504, 1.24655668310755, -1.18477685607254], a = 0.2, v = 0.2, t = 0.2)
movej(p[0.368815850875486, -0.113776315384766, 0.274352519245187, -1.14900744134852, 1.25585990241048, -1.19350420081794], a = 0.2, v = 0.2, t = 0.2)
movej(p[0.36768847040923, -0.113496438747462, 0.273941594441755, -1.15346684807167, 1.26190429406212, -1.19908246078539], a = 0.2, v = 0.2, t = 0.2)
movej(p[0.3673, -0.1134, 0.2738, -1.155, 1.264, -1.201], a = 0.2, v = 0.2, t = 0.2)
movej(p[0.36768847040923, -0.113496438747462, 0.273941594441755, -1.15346684807167, 1.26190429406212, -1.19908246078539], a = 0.2, v = 0.2, t = 0.2)
movej(p[0.368815850875486, -0.113776315384766, 0.274352519245187, -1.14900744134852, 1.25585990241048, -1.19350420081794], a = 0.2, v = 0.2, t = 0.2)
movej(p[0.370571799724886, -0.114212232319312, 0.274992544759489, -1.1420326531504, 1.24655668310755, -1.18477685607254], a = 0.2, v = 0.2, t = 0.2)
movej(p[0.37278441082841, -0.114761516060393, 0.275799034723439, -1.1331947541469, 1.23502637150842, -1.17371376913153], a = 0.2, v = 0.2, t = 0.2)
movej(p[0.375237119495101, -0.11537041123169, 0.276693028464864, -1.12333674025261, 1.22249503620356, -1.16136682556572], a = 0.2, v = 0.2, t = 0.2)
movej(p[0.377689788195068, -0.115979304778292, 0.277587022352153, -1.11341710042203, 1.21022582795303, -1.14893505570961], a = 0.2, v = 0.2, t = 0.2)
movej(p[0.379902459167183, -0.116528592952311, 0.278393511998487, -1.10441786203948, 1.19938178086369, -1.13764986305686], a = 0.2, v = 0.2, t = 0.2)
movej(p[0.381658347942619, -0.116964510394137, 0.279033536584585, -1.09724362619597, 1.19092684922638, -1.12864795173375], a = 0.2, v = 0.2, t = 0.2)
movej(p[0.382785816736633, -0.117244380875408, 0.279444462550102, -1.09262275345273, 1.18556868238799, -1.12284746589891], a = 0.2, v = 0.2, t = 0.2)
movej(p[0.383174238990203, -0.117340822463381, 0.279586056929728, -1.09102785375974, 1.1837350727814, -1.12084501322268], a = 0.2, v = 0.2, t = 0.2)
movej(p[0.382785816736633, -0.117244380875408, 0.279444462550102, -1.09262275345273, 1.18556868238799, -1.12284746589891], a = 0.2, v = 0.2, t = 0.2)
movej(p[0.381658347942619, -0.116964510394137, 0.279033536584585, -1.09724362619597, 1.19092684922638, -1.12864795173375], a = 0.2, v = 0.2, t = 0.2)
movej(p[0.379902459167183, -0.116528592952311, 0.278393511998487, -1.10441786203948, 1.19938178086369, -1.13764986305686], a = 0.2, v = 0.2, t = 0.2)
movej(p[0.377689788195068, -0.115979304778292, 0.277587022352153, -1.11341710042203, 1.21022582795303, -1.14893505570961], a = 0.2, v = 0.2, t = 0.2)
movej(p[0.375237119495101, -0.11537041123169, 0.276693028464864, -1.12333674025261, 1.22249503620356, -1.16136682556572], a = 0.2, v = 0.2, t = 0.2)
movej(p[0.37278441082841, -0.114761516060393, 0.275799034723439, -1.1331947541469, 1.23502637150842, -1.17371376913153], a = 0.2, v = 0.2, t = 0.2)
movej(p[0.370571799724886, -0.114212232319312, 0.274992544759489, -1.1420326531504, 1.24655668310755, -1.18477685607254], a = 0.2, v = 0.2, t = 0.2)
movej(p[0.368815850875486, -0.113776315384766, 0.274352519245187, -1.14900744134852, 1.25585990241048, -1.19350420081794], a = 0.2, v = 0.2, t = 0.2)
movej(p[0.36768847040923, -0.113496438747462, 0.273941594441755, -1.15346684807167, 1.26190429406212, -1.19908246078539], a = 0.2, v = 0.2, t = 0.2)
movej(p[0.3673, -0.1134, 0.2738, -1.155, 1.264, -1.201], a = 0.2, v = 0.2, t = 0.2)
movej(p[0.36768847040923, -0.113496438747462, 0.273941594441755, -1.15346684807167, 1.26190429406212, -1.19908246078539], a = 0.2, v = 0.2, t = 0.2)
movej(p[0.368815850875486, -0.113776315384766, 0.274352519245187, -1.14900744134852, 1.25585990241048, -1.19350420081794], a = 0.2, v = 0.2, t = 0.2)
movej(p[0.370571799724886, -0.114212232319312, 0.274992544759489, -1.1420326531504, 1.24655668310755, -1.18477685607254], a = 0.2, v = 0.2, t = 0.2)
movej(p[0.37278441082841, -0.114761516060393, 0.275799034723439, -1.1331947541469, 1.23502637150842, -1.17371376913153], a = 0.2, v = 0.2, t = 0.2)
movej(p[0.375237119495101, -0.11537041123169, 0.276693028464864, -1.12333674025261, 1.22249503620356, -1.16136682556572], a = 0.2, v = 0.2, t = 0.2)
movej(p[0.377689788195068, -0.115979304778292, 0.277587022352153, -1.11341710042203, 1.21022582795303, -1.14893505570961], a = 0.2, v = 0.2, t = 0.2)
movej(p[0.379902459167183, -0.116528592952311, 0.278393511998487, -1.10441786203948, 1.19938178086369, -1.13764986305686], a = 0.2, v = 0.2, t = 0.2)
movej(p[0.381658347942619, -0.116964510394137, 0.279033536584585, -1.09724362619597, 1.19092684922638, -1.12864795173375], a = 0.2, v = 0.2, t = 0.2)
movej(p[0.382785816736633, -0.117244380875408, 0.279444462550102, -1.09262275345273, 1.18556868238799, -1.12284746589891], a = 0.2, v = 0.2, t = 0.2)
movej(p[0.383174238990203, -0.117340822463381, 0.279586056929728, -1.09102785375974, 1.1837350727814, -1.12084501322268], a = 0.2, v = 0.2, t = 0.2)
movej(p[0.382785816736633, -0.117244380875408, 0.279444462550102, -1.09262275345273, 1.18556868238799, -1.12284746589891], a = 0.2, v = 0.2, t = 0.2)
movej(p[0.381658347942619, -0.116964510394137, 0.279033536584585, -1.09724362619597, 1.19092684922638, -1.12864795173375], a = 0.2, v = 0.2, t = 0.2)
movej(p[0.379902459167183, -0.116528592952311, 0.278393511998487, -1.10441786203948, 1.19938178086369, -1.13764986305686], a = 0.2, v = 0.2, t = 0.2)
movej(p[0.377689788195068, -0.115979304778292, 0.277587022352153, -1.11341710042203, 1.21022582795303, -1.14893505570961], a = 0.2, v = 0.2, t = 0.2)
movej(p[0.375237119495101, -0.11537041123169, 0.276693028464864, -1.12333674025261, 1.22249503620356, -1.16136682556572], a = 0.2, v = 0.2, t = 0.2)
movej(p[0.37278441082841, -0.114761516060393, 0.275799034723439, -1.1331947541469, 1.23502637150842, -1.17371376913153], a = 0.2, v = 0.2, t = 0.2)
movej(p[0.370571799724886, -0.114212232319312, 0.274992544759489, -1.1420326531504, 1.24655668310755, -1.18477685607254], a = 0.2, v = 0.2, t = 0.2)
movej(p[0.368815850875486, -0.113776315384766, 0.274352519245187, -1.14900744134852, 1.25585990241048, -1.19350420081794], a = 0.2, v = 0.2, t = 0.2)
movej(p[0.36768847040923, -0.113496438747462, 0.273941594441755, -1.15346684807167, 1.26190429406212, -1.19908246078539], a = 0.2, v = 0.2, t = 0.2)
movej(p[0.3673, -0.1134, 0.2738, -1.155, 1.264, -1.201], a = 0.2, v = 0.2, t = 0.2)
movej(p[0.36768847040923, -0.113496438747462, 0.273941594441755, -1.15346684807167, 1.26190429406212, -1.19908246078539], a = 0.2, v = 0.2, t = 0.2)
movej(p[0.368815850875486, -0.113776315384766, 0.274352519245187, -1.14900744134852, 1.25585990241048, -1.19350420081794], a = 0.2, v = 0.2, t = 0.2)
movej(p[0.370571799724886, -0.114212232319312, 0.274992544759489, -1.1420326531504, 1.24655668310755, -1.18477685607254], a = 0.2, v = 0.2, t = 0.2)
movej(p[0.37278441082841, -0.114761516060393, 0.275799034723439, -1.1331947541469, 1.23502637150842, -1.17371376913153], a = 0.2, v = 0.2, t = 0.2)
movej(p[0.375237119495101, -0.11537041123169, 0.276693028464864, -1.12333674025261, 1.22249503620356, -1.16136682556572], a = 0.2, v = 0.2, t = 0.2)
movej(p[0.377689788195068, -0.115979304778292, 0.277587022352153, -1.11341710042203, 1.21022582795303, -1.14893505570961], a = 0.2, v = 0.2, t = 0.2)
movej(p[0.379902459167183, -0.116528592952311, 0.278393511998487, -1.10441786203948, 1.19938178086369, -1.13764986305686], a = 0.2, v = 0.2, t = 0.2)
movej(p[0.381658347942619, -0.116964510394137, 0.279033536584585, -1.09724362619597, 1.19092684922638, -1.12864795173375], a = 0.2, v = 0.2, t = 0.2)
movej(p[0.382785816736633, -0.117244380875408, 0.279444462550102, -1.09262275345273, 1.18556868238799, -1.12284746589891], a = 0.2, v = 0.2, t = 0.2)
movej(p[0.383174238990203, -0.117340822463381, 0.279586056929728, -1.09102785375974, 1.1837350727814, -1.12084501322268], a = 0.2, v = 0.2, t = 0.2)
movej(p[0.382785816736633, -0.117244380875408, 0.279444462550102, -1.09262275345273, 1.18556868238799, -1.12284746589891], a = 0.2, v = 0.2, t = 0.2)
movej(p[0.381658347942619, -0.116964510394137, 0.279033536584585, -1.09724362619597, 1.19092684922638, -1.12864795173375], a = 0.2, v = 0.2, t = 0.2)
movej(p[0.379902459167183, -0.116528592952311, 0.278393511998487, -1.10441786203948, 1.19938178086369, -1.13764986305686], a = 0.2, v = 0.2, t = 0.2)
movej(p[0.377689788195068, -0.115979304778292, 0.277587022352153, -1.11341710042203, 1.21022582795303, -1.14893505570961], a = 0.2, v = 0.2, t = 0.2)
movej(p[0.375237119495101, -0.11537041123169, 0.276693028464864, -1.12333674025261, 1.22249503620356, -1.16136682556572], a = 0.2, v = 0.2, t = 0.2)
movej(p[0.37278441082841, -0.114761516060393, 0.275799034723439, -1.1331947541469, 1.23502637150842, -1.17371376913153], a = 0.2, v = 0.2, t = 0.2)
movej(p[0.370571799724886, -0.114212232319312, 0.274992544759489, -1.1420326531504, 1.24655668310755, -1.18477685607254], a = 0.2, v = 0.2, t = 0.2)
movej(p[0.368815850875486, -0.113776315384766, 0.274352519245187, -1.14900744134852, 1.25585990241048, -1.19350420081794], a = 0.2, v = 0.2, t = 0.2)
movej(p[0.36768847040923, -0.113496438747462, 0.273941594441755, -1.15346684807167, 1.26190429406212, -1.19908246078539], a = 0.2, v = 0.2, t = 0.2)
movej(p[0.3673, -0.1134, 0.2738, -1.155, 1.264, -1.201], a = 0.2, v = 0.2, t = 0.2)
movej(p[0.36768847040923, -0.113496438747462, 0.273941594441755, -1.15346684807167, 1.26190429406212, -1.19908246078539], a = 0.2, v = 0.2, t = 0.2)
movej(p[0.368815850875486, -0.113776315384766, 0.274352519245187, -1.14900744134852, 1.25585990241048, -1.19350420081794], a = 0.2, v = 0.2, t = 0.2)
movej(p[0.370571799724886, -0.114212232319312, 0.274992544759489, -1.1420326531504, 1.24655668310755, -1.18477685607254], a = 0.2, v = 0.2, t = 0.2)
movej(p[0.37278441082841, -0.114761516060393, 0.275799034723439, -1.1331947541469, 1.23502637150842, -1.17371376913153], a = 0.2, v = 0.2, t = 0.2)
movej(p[0.375237119495101, -0.11537041123169, 0.276693028464864, -1.12333674025261, 1.22249503620356, -1.16136682556572], a = 0.2, v = 0.2, t = 0.2)
movej(p[0.377689788195068, -0.115979304778292, 0.277587022352153, -1.11341710042203, 1.21022582795303, -1.14893505570961], a = 0.2, v = 0.2, t = 0.2)
movej(p[0.379902459167183, -0.116528592952311, 0.278393511998487, -1.10441786203948, 1.19938178086369, -1.13764986305686], a = 0.2, v = 0.2, t = 0.2)
movej(p[0.381658347942619, -0.116964510394137, 0.279033536584585, -1.09724362619597, 1.19092684922638, -1.12864795173375], a = 0.2, v = 0.2, t = 0.2)
movej(p[0.382785816736633, -0.117244380875408, 0.279444462550102, -1.09262275345273, 1.18556868238799, -1.12284746589891], a = 0.2, v = 0.2, t = 0.2)
movej(p[0.383174238990203, -0.117340822463381, 0.279586056929728, -1.09102785375974, 1.1837350727814, -1.12084501322268], a = 0.2, v = 0.2, t = 0.2)
movej(p[0.382785816736633, -0.117244380875408, 0.279444462550102, -1.09262275345273, 1.18556868238799, -1.12284746589891], a = 0.2, v = 0.2, t = 0.2)
movej(p[0.381658347942619, -0.116964510394137, 0.279033536584585, -1.09724362619597, 1.19092684922638, -1.12864795173375], a = 0.2, v = 0.2, t = 0.2)
movej(p[0.379902459167183, -0.116528592952311, 0.278393511998487, -1.10441786203948, 1.19938178086369, -1.13764986305686], a = 0.2, v = 0.2, t = 0.2)
movej(p[0.377689788195068, -0.115979304778292, 0.277587022352153, -1.11341710042203, 1.21022582795303, -1.14893505570961], a = 0.2, v = 0.2, t = 0.2)
movej(p[0.375237119495101, -0.11537041123169, 0.276693028464864, -1.12333674025261, 1.22249503620356, -1.16136682556572], a = 0.2, v = 0.2, t = 0.2)
movej(p[0.37278441082841, -0.114761516060393, 0.275799034723439, -1.1331947541469, 1.23502637150842, -1.17371376913153], a = 0.2, v = 0.2, t = 0.2)
movej(p[0.370571799724886, -0.114212232319312, 0.274992544759489, -1.1420326531504, 1.24655668310755, -1.18477685607254], a = 0.2, v = 0.2, t = 0.2)
movej(p[0.368815850875486, -0.113776315384766, 0.274352519245187, -1.14900744134852, 1.25585990241048, -1.19350420081794], a = 0.2, v = 0.2, t = 0.2)
movej(p[0.36768847040923, -0.113496438747462, 0.273941594441755, -1.15346684807167, 1.26190429406212, -1.19908246078539], a = 0.2, v = 0.2, t = 0.2)
movej(p[0.3673, -0.1134, 0.2738, -1.155, 1.264, -1.201], a = 0.2, v = 0.2, t = 0.2)
movej(p[0.36768847040923, -0.113496438747462, 0.273941594441755, -1.15346684807167, 1.26190429406212, -1.19908246078539], a = 0.2, v = 0.2, t = 0.2)
movej(p[0.368815850875486, -0.113776315384766, 0.274352519245187, -1.14900744134852, 1.25585990241048, -1.19350420081794], a = 0.2, v = 0.2, t = 0.2)
movej(p[0.370571799724886, -0.114212232319312, 0.274992544759489, -1.1420326531504, 1.24655668310755, -1.18477685607254], a = 0.2, v = 0.2, t = 0.2)
movej(p[0.37278441082841, -0.114761516060393, 0.275799034723439, -1.1331947541469, 1.23502637150842, -1.17371376913153], a = 0.2, v = 0.2, t = 0.2)
movej(p[0.375237119495101, -0.11537041123169, 0.276693028464864, -1.12333674025261, 1.22249503620356, -1.16136682556572], a = 0.2, v = 0.2, t = 0.2)
movej(p[0.377689788195068, -0.115979304778292, 0.277587022352153, -1.11341710042203, 1.21022582795303, -1.14893505570961], a = 0.2, v = 0.2, t = 0.2)
movej(p[0.379902459167183, -0.116528592952311, 0.278393511998487, -1.10441786203948, 1.19938178086369, -1.13764986305686], a = 0.2, v = 0.2, t = 0.2)
movej(p[0.381658347942619, -0.116964510394137, 0.279033536584585, -1.09724362619597, 1.19092684922638, -1.12864795173375], a = 0.2, v = 0.2, t = 0.2)
movej(p[0.382785816736633, -0.117244380875408, 0.279444462550102, -1.09262275345273, 1.18556868238799, -1.12284746589891], a = 0.2, v = 0.2, t = 0.2)
movej(p[0.383174238990203, -0.117340822463381, 0.279586056929728, -1.09102785375974, 1.1837350727814, -1.12084501322268], a = 0.2, v = 0.2, t = 0.2)
movej(p[0.382785816736633, -0.117244380875408, 0.279444462550102, -1.09262275345273, 1.18556868238799, -1.12284746589891], a = 0.2, v = 0.2, t = 0.2)
movej(p[0.381658347942619, -0.116964510394137, 0.279033536584585, -1.09724362619597, 1.19092684922638, -1.12864795173375], a = 0.2, v = 0.2, t = 0.2)
movej(p[0.379902459167183, -0.116528592952311, 0.278393511998487, -1.10441786203948, 1.19938178086369, -1.13764986305686], a = 0.2, v = 0.2, t = 0.2)
movej(p[0.377689788195068, -0.115979304778292, 0.277587022352153, -1.11341710042203, 1.21022582795303, -1.14893505570961], a = 0.2, v = 0.2, t = 0.2)
movej(p[0.375237119495101, -0.11537041123169, 0.276693028464864, -1.12333674025261, 1.22249503620356, -1.16136682556572], a = 0.2, v = 0.2, t = 0.2)
movej(p[0.37278441082841, -0.114761516060393, 0.275799034723439, -1.1331947541469, 1.23502637150842, -1.17371376913153], a = 0.2, v = 0.2, t = 0.2)
movej(p[0.370571799724886, -0.114212232319312, 0.274992544759489, -1.1420326531504, 1.24655668310755, -1.18477685607254], a = 0.2, v = 0.2, t = 0.2)
movej(p[0.368815850875486, -0.113776315384766, 0.274352519245187, -1.14900744134852, 1.25585990241048, -1.19350420081794], a = 0.2, v = 0.2, t = 0.2)
movej(p[0.36768847040923, -0.113496438747462, 0.273941594441755, -1.15346684807167, 1.26190429406212, -1.19908246078539], a = 0.2, v = 0.2, t = 0.2)
movej(p[0.3673, -0.1134, 0.2738, -1.155, 1.264, -1.201], a = 0.2, v = 0.2, t = 0.2)
movej(p[0.36768847040923, -0.113496438747462, 0.273941594441755, -1.15346684807167, 1.26190429406212, -1.19908246078539], a = 0.2, v = 0.2, t = 0.2)
movej(p[0.368815850875486, -0.113776315384766, 0.274352519245187, -1.14900744134852, 1.25585990241048, -1.19350420081794], a = 0.2, v = 0.2, t = 0.2)
movej(p[0.370571799724886, -0.114212232319312, 0.274992544759489, -1.1420326531504, 1.24655668310755, -1.18477685607254], a = 0.2, v = 0.2, t = 0.2)
movej(p[0.37278441082841, -0.114761516060393, 0.275799034723439, -1.1331947541469, 1.23502637150842, -1.17371376913153], a = 0.2, v = 0.2, t = 0.2)
movej(p[0.375237119495101, -0.11537041123169, 0.276693028464864, -1.12333674025261, 1.22249503620356, -1.16136682556572], a = 0.2, v = 0.2, t = 0.2)
movej(p[0.377689788195068, -0.115979304778292, 0.277587022352153, -1.11341710042203, 1.21022582795303, -1.14893505570961], a = 0.2, v = 0.2, t = 0.2)
movej(p[0.379902459167183, -0.116528592952311, 0.278393511998487, -1.10441786203948, 1.19938178086369, -1.13764986305686], a = 0.2, v = 0.2, t = 0.2)
movej(p[0.381658347942619, -0.116964510394137, 0.279033536584585, -1.09724362619597, 1.19092684922638, -1.12864795173375], a = 0.2, v = 0.2, t = 0.2)
movej(p[0.382785816736633, -0.117244380875408, 0.279444462550102, -1.09262275345273, 1.18556868238799, -1.12284746589891], a = 0.2, v = 0.2, t = 0.2)
movej(p[0.383174238990203, -0.117340822463381, 0.279586056929728, -1.09102785375974, 1.1837350727814, -1.12084501322268], a = 0.2, v = 0.2, t = 0.2)
movej(p[0.382785816736633, -0.117244380875408, 0.279444462550102, -1.09262275345273, 1.18556868238799, -1.12284746589891], a = 0.2, v = 0.2, t = 0.2)
movej(p[0.381658347942619, -0.116964510394137, 0.279033536584585, -1.09724362619597, 1.19092684922638, -1.12864795173375], a = 0.2, v = 0.2, t = 0.2)
movej(p[0.379902459167183, -0.116528592952311, 0.278393511998487, -1.10441786203948, 1.19938178086369, -1.13764986305686], a = 0.2, v = 0.2, t = 0.2)
movej(p[0.377689788195068, -0.115979304778292, 0.277587022352153, -1.11341710042203, 1.21022582795303, -1.14893505570961], a = 0.2, v = 0.2, t = 0.2)
movej(p[0.375237119495101, -0.11537041123169, 0.276693028464864, -1.12333674025261, 1.22249503620356, -1.16136682556572], a = 0.2, v = 0.2, t = 0.2)
movej(p[0.37278441082841, -0.114761516060393, 0.275799034723439, -1.1331947541469, 1.23502637150842, -1.17371376913153], a = 0.2, v = 0.2, t = 0.2)
movej(p[0.370571799724886, -0.114212232319312, 0.274992544759489, -1.1420326531504, 1.24655668310755, -1.18477685607254], a = 0.2, v = 0.2, t = 0.2)
movej(p[0.368815850875486, -0.113776315384766, 0.274352519245187, -1.14900744134852, 1.25585990241048, -1.19350420081794], a = 0.2, v = 0.2, t = 0.2)
movej(p[0.36768847040923, -0.113496438747462, 0.273941594441755, -1.15346684807167, 1.26190429406212, -1.19908246078539], a = 0.2, v = 0.2, t = 0.2)
movej(p[0.3673, -0.1134, 0.2738, -1.155, 1.264, -1.201], a = 0.2, v = 0.2, t = 0.2)
movej(p[0.36768847040923, -0.113496438747462, 0.273941594441755, -1.15346684807167, 1.26190429406212, -1.19908246078539], a = 0.2, v = 0.2, t = 0.2)
movej(p[0.368815850875486, -0.113776315384766, 0.274352519245187, -1.14900744134852, 1.25585990241048, -1.19350420081794], a = 0.2, v = 0.2, t = 0.2)
movej(p[0.370571799724886, -0.114212232319312, 0.274992544759489, -1.1420326531504, 1.24655668310755, -1.18477685607254], a = 0.2, v = 0.2, t = 0.2)
movej(p[0.37278441082841, -0.114761516060393, 0.275799034723439, -1.1331947541469, 1.23502637150842, -1.17371376913153], a = 0.2, v = 0.2, t = 0.2)
movej(p[0.375237119495101, -0.11537041123169, 0.276693028464864, -1.12333674025261, 1.22249503620356, -1.16136682556572], a = 0.2, v = 0.2, t = 0.2)
movej(p[0.377689788195068, -0.115979304778292, 0.277587022352153, -1.11341710042203, 1.21022582795303, -1.14893505570961], a = 0.2, v = 0.2, t = 0.2)
movej(p[0.379902459167183, -0.116528592952311, 0.278393511998487, -1.10441786203948, 1.19938178086369, -1.13764986305686], a = 0.2, v = 0.2, t = 0.2)
movej(p[0.381658347942619, -0.116964510394137, 0.279033536584585, -1.09724362619597, 1.19092684922638, -1.12864795173375], a = 0.2, v = 0.2, t = 0.2)
movej(p[0.382785816736633, -0.117244380875408, 0.279444462550102, -1.09262275345273, 1.18556868238799, -1.12284746589891], a = 0.2, v = 0.2, t = 0.2)
movej(p[0.383174238990203, -0.117340822463381, 0.279586056929728, -1.09102785375974, 1.1837350727814, -1.12084501322268], a = 0.2, v = 0.2, t = 0.2)
movej(p[0.382785816736633, -0.117244380875408, 0.279444462550102, -1.09262275345273, 1.18556868238799, -1.12284746589891], a = 0.2, v = 0.2, t = 0.2)
movej(p[0.381658347942619, -0.116964510394137, 0.279033536584585, -1.09724362619597, 1.19092684922638, -1.12864795173375], a = 0.2, v = 0.2, t = 0.2)
movej(p[0.379902459167183, -0.116528592952311, 0.278393511998487, -1.10441786203948, 1.19938178086369, -1.13764986305686], a = 0.2, v = 0.2, t = 0.2)
movej(p[0.377689788195068, -0.115979304778292, 0.277587022352153, -1.11341710042203, 1.21022582795303, -1.14893505570961], a = 0.2, v = 0.2, t = 0.2)
movej(p[0.375237119495101, -0.11537041123169, 0.276693028464864, -1.12333674025261, 1.22249503620356, -1.16136682556572], a = 0.2, v = 0.2, t = 0.2)
movej(p[0.37278441082841, -0.114761516060393, 0.275799034723439, -1.1331947541469, 1.23502637150842, -1.17371376913153], a = 0.2, v = 0.2, t = 0.2)
movej(p[0.370571799724886, -0.114212232319312, 0.274992544759489, -1.1420326531504, 1.24655668310755, -1.18477685607254], a = 0.2, v = 0.2, t = 0.2)
movej(p[0.368815850875486, -0.113776315384766, 0.274352519245187, -1.14900744134852, 1.25585990241048, -1.19350420081794], a = 0.2, v = 0.2, t = 0.2)
movej(p[0.36768847040923, -0.113496438747462, 0.273941594441755, -1.15346684807167, 1.26190429406212, -1.19908246078539], a = 0.2, v = 0.2, t = 0.2)
movej(p[0.3673, -0.1134, 0.2738, -1.155, 1.264, -1.201], a = 0.2, v = 0.2, t = 0.2)
movej(p[0.36768847040923, -0.113496438747462, 0.273941594441755, -1.15346684807167, 1.26190429406212, -1.19908246078539], a = 0.2, v = 0.2, t = 0.2)
movej(p[0.368815850875486, -0.113776315384766, 0.274352519245187, -1.14900744134852, 1.25585990241048, -1.19350420081794], a = 0.2, v = 0.2, t = 0.2)
movej(p[0.370571799724886, -0.114212232319312, 0.274992544759489, -1.1420326531504, 1.24655668310755, -1.18477685607254], a = 0.2, v = 0.2, t = 0.2)
movej(p[0.37278441082841, -0.114761516060393, 0.275799034723439, -1.1331947541469, 1.23502637150842, -1.17371376913153], a = 0.2, v = 0.2, t = 0.2)
movej(p[0.375237119495101, -0.11537041123169, 0.276693028464864, -1.12333674025261, 1.22249503620356, -1.16136682556572], a = 0.2, v = 0.2, t = 0.2)
movej(p[0.377689788195068, -0.115979304778292, 0.277587022352153, -1.11341710042203, 1.21022582795303, -1.14893505570961], a = 0.2, v = 0.2, t = 0.2)
movej(p[0.379902459167183, -0.116528592952311, 0.278393511998487, -1.10441786203948, 1.19938178086369, -1.13764986305686], a = 0.2, v = 0.2, t = 0.2)
movej(p[0.381658347942619, -0.116964510394137, 0.279033536584585, -1.09724362619597, 1.19092684922638, -1.12864795173375], a = 0.2, v = 0.2, t = 0.2)
movej(p[0.382785816736633, -0.117244380875408, 0.279444462550102, -1.09262275345273, 1.18556868238799, -1.12284746589891], a = 0.2, v = 0.2, t = 0.2)
movej(p[0.383174238990203, -0.117340822463381, 0.279586056929728, -1.09102785375974, 1.1837350727814, -1.12084501322268], a = 0.2, v = 0.2, t = 0.2)
movej(p[0.382785816736633, -0.117244380875408, 0.279444462550102, -1.09262275345273, 1.18556868238799, -1.12284746589891], a = 0.2, v = 0.2, t = 0.2)
movej(p[0.381658347942619, -0.116964510394137, 0.279033536584585, -1.09724362619597, 1.19092684922638, -1.12864795173375], a = 0.2, v = 0.2, t = 0.2)
movej(p[0.379902459167183, -0.116528592952311, 0.278393511998487, -1.10441786203948, 1.19938178086369, -1.13764986305686], a = 0.2, v = 0.2, t = 0.2)
movej(p[0.377689788195068, -0.115979304778292, 0.277587022352153, -1.11341710042203, 1.21022582795303, -1.14893505570961], a = 0.2, v = 0.2, t = 0.2)
movej(p[0.375237119495101, -0.11537041123169, 0.276693028464864, -1.12333674025261, 1.22249503620356, -1.16136682556572], a = 0.2, v = 0.2, t = 0.2)
movej(p[0.37278441082841, -0.114761516060393, 0.275799034723439, -1.1331947541469, 1.23502637150842, -1.17371376913153], a = 0.2, v = 0.2, t = 0.2)
movej(p[0.370571799724886, -0.114212232319312, 0.274992544759489, -1.1420326531504, 1.24655668310755, -1.18477685607254], a = 0.2, v = 0.2, t = 0.2)
movej(p[0.368815850875486, -0.113776315384766, 0.274352519245187, -1.14900744134852, 1.25585990241048, -1.19350420081794], a = 0.2, v = 0.2, t = 0.2)
movej(p[0.36768847040923, -0.113496438747462, 0.273941594441755, -1.15346684807167, 1.26190429406212, -1.19908246078539], a = 0.2, v = 0.2, t = 0.2)
movej(p[0.3673, -0.1134, 0.2738, -1.155, 1.264, -1.201], a = 0.2, v = 0.2, t = 0.2)
movej(p[0.36768847040923, -0.113496438747462, 0.273941594441755, -1.15346684807167, 1.26190429406212, -1.19908246078539], a = 0.2, v = 0.2, t = 0.2)
movej(p[0.368815850875486, -0.113776315384766, 0.274352519245187, -1.14900744134852, 1.25585990241048, -1.19350420081794], a = 0.2, v = 0.2, t = 0.2)
movej(p[0.370571799724886, -0.114212232319312, 0.274992544759489, -1.1420326531504, 1.24655668310755, -1.18477685607254], a = 0.2, v = 0.2, t = 0.2)
movej(p[0.37278441082841, -0.114761516060393, 0.275799034723439, -1.1331947541469, 1.23502637150842, -1.17371376913153], a = 0.2, v = 0.2, t = 0.2)
movej(p[0.375237119495101, -0.11537041123169, 0.276693028464864, -1.12333674025261, 1.22249503620356, -1.16136682556572], a = 0.2, v = 0.2, t = 0.2)
movej(p[0.377689788195068, -0.115979304778292, 0.277587022352153, -1.11341710042203, 1.21022582795303, -1.14893505570961], a = 0.2, v = 0.2, t = 0.2)
movej(p[0.379902459167183, -0.116528592952311, 0.278393511998487, -1.10441786203948, 1.19938178086369, -1.13764986305686], a = 0.2, v = 0.2, t = 0.2)
movej(p[0.381658347942619, -0.116964510394137, 0.279033536584585, -1.09724362619597, 1.19092684922638, -1.12864795173375], a = 0.2, v = 0.2, t = 0.2)
movej(p[0.382785816736633, -0.117244380875408, 0.279444462550102, -1.09262275345273, 1.18556868238799, -1.12284746589891], a = 0.2, v = 0.2, t = 0.2)
movej(p[0.383174238990203, -0.117340822463381, 0.279586056929728, -1.09102785375974, 1.1837350727814, -1.12084501322268], a = 0.2, v = 0.2, t = 0.2)
movej(p[0.382785816736633, -0.117244380875408, 0.279444462550102, -1.09262275345273, 1.18556868238799, -1.12284746589891], a = 0.2, v = 0.2, t = 0.2)
movej(p[0.381658347942619, -0.116964510394137, 0.279033536584585, -1.09724362619597, 1.19092684922638, -1.12864795173375], a = 0.2, v = 0.2, t = 0.2)
movej(p[0.379902459167183, -0.116528592952311, 0.278393511998487, -1.10441786203948, 1.19938178086369, -1.13764986305686], a = 0.2, v = 0.2, t = 0.2)
movej(p[0.377689788195068, -0.115979304778292, 0.277587022352153, -1.11341710042203, 1.21022582795303, -1.14893505570961], a = 0.2, v = 0.2, t = 0.2)
movej(p[0.375237119495101, -0.11537041123169, 0.276693028464864, -1.12333674025261, 1.22249503620356, -1.16136682556572], a = 0.2, v = 0.2, t = 0.2)
movej(p[0.37278441082841, -0.114761516060393, 0.275799034723439, -1.1331947541469, 1.23502637150842, -1.17371376913153], a = 0.2, v = 0.2, t = 0.2)
movej(p[0.370571799724886, -0.114212232319312, 0.274992544759489, -1.1420326531504, 1.24655668310755, -1.18477685607254], a = 0.2, v = 0.2, t = 0.2)
movej(p[0.368815850875486, -0.113776315384766, 0.274352519245187, -1.14900744134852, 1.25585990241048, -1.19350420081794], a = 0.2, v = 0.2, t = 0.2)
movej(p[0.36768847040923, -0.113496438747462, 0.273941594441755, -1.15346684807167, 1.26190429406212, -1.19908246078539], a = 0.2, v = 0.2, t = 0.2)
movej(p[0.3673, -0.1134, 0.2738, -1.155, 1.264, -1.201], a = 0.2, v = 0.2, t = 0.2)
movej(p[0.36768847040923, -0.113496438747462, 0.273941594441755, -1.15346684807167, 1.26190429406212, -1.19908246078539], a = 0.2, v = 0.2, t = 0.2)
movej(p[0.368815850875486, -0.113776315384766, 0.274352519245187, -1.14900744134852, 1.25585990241048, -1.19350420081794], a = 0.2, v = 0.2, t = 0.2)
movej(p[0.370571799724886, -0.114212232319312, 0.274992544759489, -1.1420326531504, 1.24655668310755, -1.18477685607254], a = 0.2, v = 0.2, t = 0.2)
movej(p[0.37278441082841, -0.114761516060393, 0.275799034723439, -1.1331947541469, 1.23502637150842, -1.17371376913153], a = 0.2, v = 0.2, t = 0.2)
movej(p[0.375237119495101, -0.11537041123169, 0.276693028464864, -1.12333674025261, 1.22249503620356, -1.16136682556572], a = 0.2, v = 0.2, t = 0.2)
movej(p[0.377689788195068, -0.115979304778292, 0.277587022352153, -1.11341710042203, 1.21022582795303, -1.14893505570961], a = 0.2, v = 0.2, t = 0.2)
movej(p[0.379902459167183, -0.116528592952311, 0.278393511998487, -1.10441786203948, 1.19938178086369, -1.13764986305686], a = 0.2, v = 0.2, t = 0.2)
movej(p[0.381658347942619, -0.116964510394137, 0.279033536584585, -1.09724362619597, 1.19092684922638, -1.12864795173375], a = 0.2, v = 0.2, t = 0.2)
movej(p[0.382785816736633, -0.117244380875408, 0.279444462550102, -1.09262275345273, 1.18556868238799, -1.12284746589891], a = 0.2, v = 0.2, t = 0.2)
movej(p[0.383174238990203, -0.117340822463381, 0.279586056929728, -1.09102785375974, 1.1837350727814, -1.12084501322268], a = 0.2, v = 0.2, t = 0.2)
movej(p[0.382785816736633, -0.117244380875408, 0.279444462550102, -1.09262275345273, 1.18556868238799, -1.12284746589891], a = 0.2, v = 0.2, t = 0.2)
movej(p[0.381658347942619, -0.116964510394137, 0.279033536584585, -1.09724362619597, 1.19092684922638, -1.12864795173375], a = 0.2, v = 0.2, t = 0.2)
movej(p[0.379902459167183, -0.116528592952311, 0.278393511998487, -1.10441786203948, 1.19938178086369, -1.13764986305686], a = 0.2, v = 0.2, t = 0.2)
movej(p[0.377689788195068, -0.115979304778292, 0.277587022352153, -1.11341710042203, 1.21022582795303, -1.14893505570961], a = 0.2, v = 0.2, t = 0.2)
movej(p[0.375237119495101, -0.11537041123169, 0.276693028464864, -1.12333674025261, 1.22249503620356, -1.16136682556572], a = 0.2, v = 0.2, t = 0.2)
movej(p[0.37278441082841, -0.114761516060393, 0.275799034723439, -1.1331947541469, 1.23502637150842, -1.17371376913153], a = 0.2, v = 0.2, t = 0.2)
movej(p[0.370571799724886, -0.114212232319312, 0.274992544759489, -1.1420326531504, 1.24655668310755, -1.18477685607254], a = 0.2, v = 0.2, t = 0.2)
movej(p[0.368815850875486, -0.113776315384766, 0.274352519245187, -1.14900744134852, 1.25585990241048, -1.19350420081794], a = 0.2, v = 0.2, t = 0.2)
movej(p[0.36768847040923, -0.113496438747462, 0.273941594441755, -1.15346684807167, 1.26190429406212, -1.19908246078539], a = 0.2, v = 0.2, t = 0.2)
movej(p[0.3673, -0.1134, 0.2738, -1.155, 1.264, -1.201], a = 0.2, v = 0.2, t = 0.2)
movej(p[0.36768847040923, -0.113496438747462, 0.273941594441755, -1.15346684807167, 1.26190429406212, -1.19908246078539], a = 0.2, v = 0.2, t = 0.2)
movej(p[0.368815850875486, -0.113776315384766, 0.274352519245187, -1.14900744134852, 1.25585990241048, -1.19350420081794], a = 0.2, v = 0.2, t = 0.2)
movej(p[0.370571799724886, -0.114212232319312, 0.274992544759489, -1.1420326531504, 1.24655668310755, -1.18477685607254], a = 0.2, v = 0.2, t = 0.2)
movej(p[0.37278441082841, -0.114761516060393, 0.275799034723439, -1.1331947541469, 1.23502637150842, -1.17371376913153], a = 0.2, v = 0.2, t = 0.2)
movej(p[0.375237119495101, -0.11537041123169, 0.276693028464864, -1.12333674025261, 1.22249503620356, -1.16136682556572], a = 0.2, v = 0.2, t = 0.2)
movej(p[0.377689788195068, -0.115979304778292, 0.277587022352153, -1.11341710042203, 1.21022582795303, -1.14893505570961], a = 0.2, v = 0.2, t = 0.2)
movej(p[0.379902459167183, -0.116528592952311, 0.278393511998487, -1.10441786203948, 1.19938178086369, -1.13764986305686], a = 0.2, v = 0.2, t = 0.2)
movej(p[0.381658347942619, -0.116964510394137, 0.279033536584585, -1.09724362619597, 1.19092684922638, -1.12864795173375], a = 0.2, v = 0.2, t = 0.2)
movej(p[0.382785816736633, -0.117244380875408, 0.279444462550102, -1.09262275345273, 1.18556868238799, -1.12284746589891], a = 0.2, v = 0.2, t = 0.2)
movej(p[0.383174238990203, -0.117340822463381, 0.279586056929728, -1.09102785375974, 1.1837350727814, -1.12084501322268], a = 0.2, v = 0.2, t = 0.2)
movej(p[0.382785816736633, -0.117244380875408, 0.279444462550102, -1.09262275345273, 1.18556868238799, -1.12284746589891], a = 0.2, v = 0.2, t = 0.2)
movej(p[0.381658347942619, -0.116964510394137, 0.279033536584585, -1.09724362619597, 1.19092684922638, -1.12864795173375], a = 0.2, v = 0.2, t = 0.2)
movej(p[0.379902459167183, -0.116528592952311, 0.278393511998487, -1.10441786203948, 1.19938178086369, -1.13764986305686], a = 0.2, v = 0.2, t = 0.2)
movej(p[0.377689788195068, -0.115979304778292, 0.277587022352153, -1.11341710042203, 1.21022582795303, -1.14893505570961], a = 0.2, v = 0.2, t = 0.2)
movej(p[0.375237119495101, -0.11537041123169, 0.276693028464864, -1.12333674025261, 1.22249503620356, -1.16136682556572], a = 0.2, v = 0.2, t = 0.2)
movej(p[0.37278441082841, -0.114761516060393, 0.275799034723439, -1.1331947541469, 1.23502637150842, -1.17371376913153], a = 0.2, v = 0.2, t = 0.2)
movej(p[0.370571799724886, -0.114212232319312, 0.274992544759489, -1.1420326531504, 1.24655668310755, -1.18477685607254], a = 0.2, v = 0.2, t = 0.2)
movej(p[0.368815850875486, -0.113776315384766, 0.274352519245187, -1.14900744134852, 1.25585990241048, -1.19350420081794], a = 0.2, v = 0.2, t = 0.2)
movej(p[0.36768847040923, -0.113496438747462, 0.273941594441755, -1.15346684807167, 1.26190429406212, -1.19908246078539], a = 0.2, v = 0.2, t = 0.2)
movej(p[0.3673, -0.1134, 0.2738, -1.155, 1.264, -1.201], a = 0.2, v = 0.2, t = 0.2)
movej(p[0.36768847040923, -0.113496438747462, 0.273941594441755, -1.15346684807167, 1.26190429406212, -1.19908246078539], a = 0.2, v = 0.2, t = 0.2)
movej(p[0.368815850875486, -0.113776315384766, 0.274352519245187, -1.14900744134852, 1.25585990241048, -1.19350420081794], a = 0.2, v = 0.2, t = 0.2)
movej(p[0.370571799724886, -0.114212232319312, 0.274992544759489, -1.1420326531504, 1.24655668310755, -1.18477685607254], a = 0.2, v = 0.2, t = 0.2)
movej(p[0.37278441082841, -0.114761516060393, 0.275799034723439, -1.1331947541469, 1.23502637150842, -1.17371376913153], a = 0.2, v = 0.2, t = 0.2)
movej(p[0.375237119495101, -0.11537041123169, 0.276693028464864, -1.12333674025261, 1.22249503620356, -1.16136682556572], a = 0.2, v = 0.2, t = 0.2)
movej(p[0.377689788195068, -0.115979304778292, 0.277587022352153, -1.11341710042203, 1.21022582795303, -1.14893505570961], a = 0.2, v = 0.2, t = 0.2)
movej(p[0.379902459167183, -0.116528592952311, 0.278393511998487, -1.10441786203948, 1.19938178086369, -1.13764986305686], a = 0.2, v = 0.2, t = 0.2)
movej(p[0.381658347942619, -0.116964510394137, 0.279033536584585, -1.09724362619597, 1.19092684922638, -1.12864795173375], a = 0.2, v = 0.2, t = 0.2)
movej(p[0.382785816736633, -0.117244380875408, 0.279444462550102, -1.09262275345273, 1.18556868238799, -1.12284746589891], a = 0.2, v = 0.2, t = 0.2)
movej(p[0.383174238990203, -0.117340822463381, 0.279586056929728, -1.09102785375974, 1.1837350727814, -1.12084501322268], a = 0.2, v = 0.2, t = 0.2)
movej(p[0.382785816736633, -0.117244380875408, 0.279444462550102, -1.09262275345273, 1.18556868238799, -1.12284746589891], a = 0.2, v = 0.2, t = 0.2)
movej(p[0.381658347942619, -0.116964510394137, 0.279033536584585, -1.09724362619597, 1.19092684922638, -1.12864795173375], a = 0.2, v = 0.2, t = 0.2)
movej(p[0.379902459167183, -0.116528592952311, 0.278393511998487, -1.10441786203948, 1.19938178086369, -1.13764986305686], a = 0.2, v = 0.2, t = 0.2)
movej(p[0.377689788195068, -0.115979304778292, 0.277587022352153, -1.11341710042203, 1.21022582795303, -1.14893505570961], a = 0.2, v = 0.2, t = 0.2)
movej(p[0.375237119495101, -0.11537041123169, 0.276693028464864, -1.12333674025261, 1.22249503620356, -1.16136682556572], a = 0.2, v = 0.2, t = 0.2)
movej(p[0.37278441082841, -0.114761516060393, 0.275799034723439, -1.1331947541469, 1.23502637150842, -1.17371376913153], a = 0.2, v = 0.2, t = 0.2)
movej(p[0.370571799724886, -0.114212232319312, 0.274992544759489, -1.1420326531504, 1.24655668310755, -1.18477685607254], a = 0.2, v = 0.2, t = 0.2)
movej(p[0.368815850875486, -0.113776315384766, 0.274352519245187, -1.14900744134852, 1.25585990241048, -1.19350420081794], a = 0.2, v = 0.2, t = 0.2)
movej(p[0.36768847040923, -0.113496438747462, 0.273941594441755, -1.15346684807167, 1.26190429406212, -1.19908246078539], a = 0.2, v = 0.2, t = 0.2)
movej(p[0.3673, -0.1134, 0.2738, -1.155, 1.264, -1.201], a = 0.2, v = 0.2, t = 0.2)
movej(p[0.36768847040923, -0.113496438747462, 0.273941594441755, -1.15346684807167, 1.26190429406212, -1.19908246078539], a = 0.2, v = 0.2, t = 0.2)
movej(p[0.368815850875486, -0.113776315384766, 0.274352519245187, -1.14900744134852, 1.25585990241048, -1.19350420081794], a = 0.2, v = 0.2, t = 0.2)
movej(p[0.370571799724886, -0.114212232319312, 0.274992544759489, -1.1420326531504, 1.24655668310755, -1.18477685607254], a = 0.2, v = 0.2, t = 0.2)
movej(p[0.37278441082841, -0.114761516060393, 0.275799034723439, -1.1331947541469, 1.23502637150842, -1.17371376913153], a = 0.2, v = 0.2, t = 0.2)
movej(p[0.375237119495101, -0.11537041123169, 0.276693028464864, -1.12333674025261, 1.22249503620356, -1.16136682556572], a = 0.2, v = 0.2, t = 0.2)
movej(p[0.377689788195068, -0.115979304778292, 0.277587022352153, -1.11341710042203, 1.21022582795303, -1.14893505570961], a = 0.2, v = 0.2, t = 0.2)
movej(p[0.379902459167183, -0.116528592952311, 0.278393511998487, -1.10441786203948, 1.19938178086369, -1.13764986305686], a = 0.2, v = 0.2, t = 0.2)
movej(p[0.381658347942619, -0.116964510394137, 0.279033536584585, -1.09724362619597, 1.19092684922638, -1.12864795173375], a = 0.2, v = 0.2, t = 0.2)
movej(p[0.382785816736633, -0.117244380875408, 0.279444462550102, -1.09262275345273, 1.18556868238799, -1.12284746589891], a = 0.2, v = 0.2, t = 0.2)
movej(p[0.383174238990203, -0.117340822463381, 0.279586056929728, -1.09102785375974, 1.1837350727814, -1.12084501322268], a = 0.2, v = 0.2, t = 0.2)
movej(p[0.382785816736633, -0.117244380875408, 0.279444462550102, -1.09262275345273, 1.18556868238799, -1.12284746589891], a = 0.2, v = 0.2, t = 0.2)
movej(p[0.381658347942619, -0.116964510394137, 0.279033536584585, -1.09724362619597, 1.19092684922638, -1.12864795173375], a = 0.2, v = 0.2, t = 0.2)
movej(p[0.379902459167183, -0.116528592952311, 0.278393511998487, -1.10441786203948, 1.19938178086369, -1.13764986305686], a = 0.2, v = 0.2, t = 0.2)
movej(p[0.377689788195068, -0.115979304778292, 0.277587022352153, -1.11341710042203, 1.21022582795303, -1.14893505570961], a = 0.2, v = 0.2, t = 0.2)
movej(p[0.375237119495101, -0.11537041123169, 0.276693028464864, -1.12333674025261, 1.22249503620356, -1.16136682556572], a = 0.2, v = 0.2, t = 0.2)
movej(p[0.37278441082841, -0.114761516060393, 0.275799034723439, -1.1331947541469, 1.23502637150842, -1.17371376913153], a = 0.2, v = 0.2, t = 0.2)
movej(p[0.370571799724886, -0.114212232319312, 0.274992544759489, -1.1420326531504, 1.24655668310755, -1.18477685607254], a = 0.2, v = 0.2, t = 0.2)
movej(p[0.368815850875486, -0.113776315384766, 0.274352519245187, -1.14900744134852, 1.25585990241048, -1.19350420081794], a = 0.2, v = 0.2, t = 0.2)
movej(p[0.36768847040923, -0.113496438747462, 0.273941594441755, -1.15346684807167, 1.26190429406212, -1.19908246078539], a = 0.2, v = 0.2, t = 0.2)
movej(p[0.3673, -0.1134, 0.2738, -1.155, 1.264, -1.201], a = 0.2, v = 0.2, t = 0.2)
movej(p[0.36768847040923, -0.113496438747462, 0.273941594441755, -1.15346684807167, 1.26190429406212, -1.19908246078539], a = 0.2, v = 0.2, t = 0.2)
movej(p[0.368815850875486, -0.113776315384766, 0.274352519245187, -1.14900744134852, 1.25585990241048, -1.19350420081794], a = 0.2, v = 0.2, t = 0.2)
movej(p[0.370571799724886, -0.114212232319312, 0.274992544759489, -1.1420326531504, 1.24655668310755, -1.18477685607254], a = 0.2, v = 0.2, t = 0.2)
movej(p[0.37278441082841, -0.114761516060393, 0.275799034723439, -1.1331947541469, 1.23502637150842, -1.17371376913153], a = 0.2, v = 0.2, t = 0.2)
movej(p[0.375237119495101, -0.11537041123169, 0.276693028464864, -1.12333674025261, 1.22249503620356, -1.16136682556572], a = 0.2, v = 0.2, t = 0.2)
movej(p[0.377689788195068, -0.115979304778292, 0.277587022352153, -1.11341710042203, 1.21022582795303, -1.14893505570961], a = 0.2, v = 0.2, t = 0.2)
movej(p[0.379902459167183, -0.116528592952311, 0.278393511998487, -1.10441786203948, 1.19938178086369, -1.13764986305686], a = 0.2, v = 0.2, t = 0.2)
movej(p[0.381658347942619, -0.116964510394137, 0.279033536584585, -1.09724362619597, 1.19092684922638, -1.12864795173375], a = 0.2, v = 0.2, t = 0.2)
movej(p[0.382785816736633, -0.117244380875408, 0.279444462550102, -1.09262275345273, 1.18556868238799, -1.12284746589891], a = 0.2, v = 0.2, t = 0.2)
movej(p[0.383174238990203, -0.117340822463381, 0.279586056929728, -1.09102785375974, 1.1837350727814, -1.12084501322268], a = 0.2, v = 0.2, t = 0.2)
movej(p[0.382785816736633, -0.117244380875408, 0.279444462550102, -1.09262275345273, 1.18556868238799, -1.12284746589891], a = 0.2, v = 0.2, t = 0.2)
movej(p[0.381658347942619, -0.116964510394137, 0.279033536584585, -1.09724362619597, 1.19092684922638, -1.12864795173375], a = 0.2, v = 0.2, t = 0.2)
movej(p[0.379902459167183, -0.116528592952311, 0.278393511998487, -1.10441786203948, 1.19938178086369, -1.13764986305686], a = 0.2, v = 0.2, t = 0.2)
movej(p[0.377689788195068, -0.115979304778292, 0.277587022352153, -1.11341710042203, 1.21022582795303, -1.14893505570961], a = 0.2, v = 0.2, t = 0.2)
movej(p[0.375237119495101, -0.11537041123169, 0.276693028464864, -1.12333674025261, 1.22249503620356, -1.16136682556572], a = 0.2, v = 0.2, t = 0.2)
movej(p[0.37278441082841, -0.114761516060393, 0.275799034723439, -1.1331947541469, 1.23502637150842, -1.17371376913153], a = 0.2, v = 0.2, t = 0.2)
movej(p[0.370571799724886, -0.114212232319312, 0.274992544759489, -1.1420326531504, 1.24655668310755, -1.18477685607254], a = 0.2, v = 0.2, t = 0.2)
movej(p[0.368815850875486, -0.113776315384766, 0.274352519245187, -1.14900744134852, 1.25585990241048, -1.19350420081794], a = 0.2, v = 0.2, t = 0.2)
movej(p[0.36768847040923, -0.113496438747462, 0.273941594441755, -1.15346684807167, 1.26190429406212, -1.19908246078539], a = 0.2, v = 0.2, t = 0.2)
movej(p[0.3673, -0.1134, 0.2738, -1.155, 1.264, -1.201], a = 0.2, v = 0.2, t = 0.2)
movej(p[0.36768847040923, -0.113496438747462, 0.273941594441755, -1.15346684807167, 1.26190429406212, -1.19908246078539], a = 0.2, v = 0.2, t = 0.2)
movej(p[0.368815850875486, -0.113776315384766, 0.274352519245187, -1.14900744134852, 1.25585990241048, -1.19350420081794], a = 0.2, v = 0.2, t = 0.2)
movej(p[0.370571799724886, -0.114212232319312, 0.274992544759489, -1.1420326531504, 1.24655668310755, -1.18477685607254], a = 0.2, v = 0.2, t = 0.2)
movej(p[0.37278441082841, -0.114761516060393, 0.275799034723439, -1.1331947541469, 1.23502637150842, -1.17371376913153], a = 0.2, v = 0.2, t = 0.2)
movej(p[0.375237119495101, -0.11537041123169, 0.276693028464864, -1.12333674025261, 1.22249503620356, -1.16136682556572], a = 0.2, v = 0.2, t = 0.2)
movej(p[0.377689788195068, -0.115979304778292, 0.277587022352153, -1.11341710042203, 1.21022582795303, -1.14893505570961], a = 0.2, v = 0.2, t = 0.2)
movej(p[0.379902459167183, -0.116528592952311, 0.278393511998487, -1.10441786203948, 1.19938178086369, -1.13764986305686], a = 0.2, v = 0.2, t = 0.2)
movej(p[0.381658347942619, -0.116964510394137, 0.279033536584585, -1.09724362619597, 1.19092684922638, -1.12864795173375], a = 0.2, v = 0.2, t = 0.2)
movej(p[0.382785816736633, -0.117244380875408, 0.279444462550102, -1.09262275345273, 1.18556868238799, -1.12284746589891], a = 0.2, v = 0.2, t = 0.2)
movej(p[0.383174238990203, -0.117340822463381, 0.279586056929728, -1.09102785375974, 1.1837350727814, -1.12084501322268], a = 0.2, v = 0.2, t = 0.2)
movej(p[0.382785816736633, -0.117244380875408, 0.279444462550102, -1.09262275345273, 1.18556868238799, -1.12284746589891], a = 0.2, v = 0.2, t = 0.2)
movej(p[0.381658347942619, -0.116964510394137, 0.279033536584585, -1.09724362619597, 1.19092684922638, -1.12864795173375], a = 0.2, v = 0.2, t = 0.2)
movej(p[0.379902459167183, -0.116528592952311, 0.278393511998487, -1.10441786203948, 1.19938178086369, -1.13764986305686], a = 0.2, v = 0.2, t = 0.2)
movej(p[0.377689788195068, -0.115979304778292, 0.277587022352153, -1.11341710042203, 1.21022582795303, -1.14893505570961], a = 0.2, v = 0.2, t = 0.2)
movej(p[0.375237119495101, -0.11537041123169, 0.276693028464864, -1.12333674025261, 1.22249503620356, -1.16136682556572], a = 0.2, v = 0.2, t = 0.2)
movej(p[0.37278441082841, -0.114761516060393, 0.275799034723439, -1.1331947541469, 1.23502637150842, -1.17371376913153], a = 0.2, v = 0.2, t = 0.2)
movej(p[0.370571799724886, -0.114212232319312, 0.274992544759489, -1.1420326531504, 1.24655668310755, -1.18477685607254], a = 0.2, v = 0.2, t = 0.2)
movej(p[0.368815850875486, -0.113776315384766, 0.274352519245187, -1.14900744134852, 1.25585990241048, -1.19350420081794], a = 0.2, v = 0.2, t = 0.2)
movej(p[0.36768847040923, -0.113496438747462, 0.273941594441755, -1.15346684807167, 1.26190429406212, -1.19908246078539], a = 0.2, v = 0.2, t = 0.2)
movej(p[0.3673, -0.1134, 0.2738, -1.155, 1.264, -1.201], a = 0.2, v = 0.2, t = 0.2)
movej(p[0.36768847040923, -0.113496438747462, 0.273941594441755, -1.15346684807167, 1.26190429406212, -1.19908246078539], a = 0.2, v = 0.2, t = 0.2)
movej(p[0.368815850875486, -0.113776315384766, 0.274352519245187, -1.14900744134852, 1.25585990241048, -1.19350420081794], a = 0.2, v = 0.2, t = 0.2)
movej(p[0.370571799724886, -0.114212232319312, 0.274992544759489, -1.1420326531504, 1.24655668310755, -1.18477685607254], a = 0.2, v = 0.2, t = 0.2)
movej(p[0.37278441082841, -0.114761516060393, 0.275799034723439, -1.1331947541469, 1.23502637150842, -1.17371376913153], a = 0.2, v = 0.2, t = 0.2)
movej(p[0.375237119495101, -0.11537041123169, 0.276693028464864, -1.12333674025261, 1.22249503620356, -1.16136682556572], a = 0.2, v = 0.2, t = 0.2)
movej(p[0.377689788195068, -0.115979304778292, 0.277587022352153, -1.11341710042203, 1.21022582795303, -1.14893505570961], a = 0.2, v = 0.2, t = 0.2)
movej(p[0.379902459167183, -0.116528592952311, 0.278393511998487, -1.10441786203948, 1.19938178086369, -1.13764986305686], a = 0.2, v = 0.2, t = 0.2)
movej(p[0.381658347942619, -0.116964510394137, 0.279033536584585, -1.09724362619597, 1.19092684922638, -1.12864795173375], a = 0.2, v = 0.2, t = 0.2)
movej(p[0.382785816736633, -0.117244380875408, 0.279444462550102, -1.09262275345273, 1.18556868238799, -1.12284746589891], a = 0.2, v = 0.2, t = 0.2)
movej(p[0.383174238990203, -0.117340822463381, 0.279586056929728, -1.09102785375974, 1.1837350727814, -1.12084501322268], a = 0.2, v = 0.2, t = 0.2)
movej(p[0.382785816736633, -0.117244380875408, 0.279444462550102, -1.09262275345273, 1.18556868238799, -1.12284746589891], a = 0.2, v = 0.2, t = 0.2)
movej(p[0.381658347942619, -0.116964510394137, 0.279033536584585, -1.09724362619597, 1.19092684922638, -1.12864795173375], a = 0.2, v = 0.2, t = 0.2)
movej(p[0.379902459167183, -0.116528592952311, 0.278393511998487, -1.10441786203948, 1.19938178086369, -1.13764986305686], a = 0.2, v = 0.2, t = 0.2)
movej(p[0.377689788195068, -0.115979304778292, 0.277587022352153, -1.11341710042203, 1.21022582795303, -1.14893505570961], a = 0.2, v = 0.2, t = 0.2)
movej(p[0.375237119495101, -0.11537041123169, 0.276693028464864, -1.12333674025261, 1.22249503620356, -1.16136682556572], a = 0.2, v = 0.2, t = 0.2)
movej(p[0.37278441082841, -0.114761516060393, 0.275799034723439, -1.1331947541469, 1.23502637150842, -1.17371376913153], a = 0.2, v = 0.2, t = 0.2)
movej(p[0.370571799724886, -0.114212232319312, 0.274992544759489, -1.1420326531504, 1.24655668310755, -1.18477685607254], a = 0.2, v = 0.2, t = 0.2)
movej(p[0.368815850875486, -0.113776315384766, 0.274352519245187, -1.14900744134852, 1.25585990241048, -1.19350420081794], a = 0.2, v = 0.2, t = 0.2)
movej(p[0.36768847040923, -0.113496438747462, 0.273941594441755, -1.15346684807167, 1.26190429406212, -1.19908246078539], a = 0.2, v = 0.2, t = 0.2)
movej(p[0.3673, -0.1134, 0.2738, -1.155, 1.264, -1.201], a = 0.2, v = 0.2, t = 0.2)
movej(p[0.36768847040923, -0.113496438747462, 0.273941594441755, -1.15346684807167, 1.26190429406212, -1.19908246078539], a = 0.2, v = 0.2, t = 0.2)
movej(p[0.368815850875486, -0.113776315384766, 0.274352519245187, -1.14900744134852, 1.25585990241048, -1.19350420081794], a = 0.2, v = 0.2, t = 0.2)
movej(p[0.370571799724886, -0.114212232319312, 0.274992544759489, -1.1420326531504, 1.24655668310755, -1.18477685607254], a = 0.2, v = 0.2, t = 0.2)
movej(p[0.37278441082841, -0.114761516060393, 0.275799034723439, -1.1331947541469, 1.23502637150842, -1.17371376913153], a = 0.2, v = 0.2, t = 0.2)
movej(p[0.375237119495101, -0.11537041123169, 0.276693028464864, -1.12333674025261, 1.22249503620356, -1.16136682556572], a = 0.2, v = 0.2, t = 0.2)
movej(p[0.377689788195068, -0.115979304778292, 0.277587022352153, -1.11341710042203, 1.21022582795303, -1.14893505570961], a = 0.2, v = 0.2, t = 0.2)
movej(p[0.379902459167183, -0.116528592952311, 0.278393511998487, -1.10441786203948, 1.19938178086369, -1.13764986305686], a = 0.2, v = 0.2, t = 0.2)
movej(p[0.381658347942619, -0.116964510394137, 0.279033536584585, -1.09724362619597, 1.19092684922638, -1.12864795173375], a = 0.2, v = 0.2, t = 0.2)
movej(p[0.382785816736633, -0.117244380875408, 0.279444462550102, -1.09262275345273, 1.18556868238799, -1.12284746589891], a = 0.2, v = 0.2, t = 0.2)
movej(p[0.383174238990203, -0.117340822463381, 0.279586056929728, -1.09102785375974, 1.1837350727814, -1.12084501322268], a = 0.2, v = 0.2, t = 0.2)
movej(p[0.382785816736633, -0.117244380875408, 0.279444462550102, -1.09262275345273, 1.18556868238799, -1.12284746589891], a = 0.2, v = 0.2, t = 0.2)
movej(p[0.381658347942619, -0.116964510394137, 0.279033536584585, -1.09724362619597, 1.19092684922638, -1.12864795173375], a = 0.2, v = 0.2, t = 0.2)
movej(p[0.379902459167183, -0.116528592952311, 0.278393511998487, -1.10441786203948, 1.19938178086369, -1.13764986305686], a = 0.2, v = 0.2, t = 0.2)
movej(p[0.377689788195068, -0.115979304778292, 0.277587022352153, -1.11341710042203, 1.21022582795303, -1.14893505570961], a = 0.2, v = 0.2, t = 0.2)
movej(p[0.375237119495101, -0.11537041123169, 0.276693028464864, -1.12333674025261, 1.22249503620356, -1.16136682556572], a = 0.2, v = 0.2, t = 0.2)
movej(p[0.37278441082841, -0.114761516060393, 0.275799034723439, -1.1331947541469, 1.23502637150842, -1.17371376913153], a = 0.2, v = 0.2, t = 0.2)
movej(p[0.370571799724886, -0.114212232319312, 0.274992544759489, -1.1420326531504, 1.24655668310755, -1.18477685607254], a = 0.2, v = 0.2, t = 0.2)
movej(p[0.368815850875486, -0.113776315384766, 0.274352519245187, -1.14900744134852, 1.25585990241048, -1.19350420081794], a = 0.2, v = 0.2, t = 0.2)
movej(p[0.36768847040923, -0.113496438747462, 0.273941594441755, -1.15346684807167, 1.26190429406212, -1.19908246078539], a = 0.2, v = 0.2, t = 0.2)
movej(p[0.3673, -0.1134, 0.2738, -1.155, 1.264, -1.201], a = 0.2, v = 0.2, t = 0.2)
movej(p[0.36768847040923, -0.113496438747462, 0.273941594441755, -1.15346684807167, 1.26190429406212, -1.19908246078539], a = 0.2, v = 0.2, t = 0.2)
movej(p[0.368815850875486, -0.113776315384766, 0.274352519245187, -1.14900744134852, 1.25585990241048, -1.19350420081794], a = 0.2, v = 0.2, t = 0.2)
movej(p[0.370571799724886, -0.114212232319312, 0.274992544759489, -1.1420326531504, 1.24655668310755, -1.18477685607254], a = 0.2, v = 0.2, t = 0.2)
movej(p[0.37278441082841, -0.114761516060393, 0.275799034723439, -1.1331947541469, 1.23502637150842, -1.17371376913153], a = 0.2, v = 0.2, t = 0.2)
movej(p[0.375237119495101, -0.11537041123169, 0.276693028464864, -1.12333674025261, 1.22249503620356, -1.16136682556572], a = 0.2, v = 0.2, t = 0.2)
movej(p[0.377689788195068, -0.115979304778292, 0.277587022352153, -1.11341710042203, 1.21022582795303, -1.14893505570961], a = 0.2, v = 0.2, t = 0.2)
movej(p[0.379902459167183, -0.116528592952311, 0.278393511998487, -1.10441786203948, 1.19938178086369, -1.13764986305686], a = 0.2, v = 0.2, t = 0.2)
movej(p[0.381658347942619, -0.116964510394137, 0.279033536584585, -1.09724362619597, 1.19092684922638, -1.12864795173375], a = 0.2, v = 0.2, t = 0.2)
movej(p[0.382785816736633, -0.117244380875408, 0.279444462550102, -1.09262275345273, 1.18556868238799, -1.12284746589891], a = 0.2, v = 0.2, t = 0.2)
movej(p[0.383174238990203, -0.117340822463381, 0.279586056929728, -1.09102785375974, 1.1837350727814, -1.12084501322268], a = 0.2, v = 0.2, t = 0.2)
movej(p[0.382785816736633, -0.117244380875408, 0.279444462550102, -1.09262275345273, 1.18556868238799, -1.12284746589891], a = 0.2, v = 0.2, t = 0.2)
movej(p[0.381658347942619, -0.116964510394137, 0.279033536584585, -1.09724362619597, 1.19092684922638, -1.12864795173375], a = 0.2, v = 0.2, t = 0.2)
movej(p[0.379902459167183, -0.116528592952311, 0.278393511998487, -1.10441786203948, 1.19938178086369, -1.13764986305686], a = 0.2, v = 0.2, t = 0.2)
movej(p[0.377689788195068, -0.115979304778292, 0.277587022352153, -1.11341710042203, 1.21022582795303, -1.14893505570961], a = 0.2, v = 0.2, t = 0.2)
movej(p[0.375237119495101, -0.11537041123169, 0.276693028464864, -1.12333674025261, 1.22249503620356, -1.16136682556572], a = 0.2, v = 0.2, t = 0.2)
movej(p[0.37278441082841, -0.114761516060393, 0.275799034723439, -1.1331947541469, 1.23502637150842, -1.17371376913153], a = 0.2, v = 0.2, t = 0.2)
movej(p[0.370571799724886, -0.114212232319312, 0.274992544759489, -1.1420326531504, 1.24655668310755, -1.18477685607254], a = 0.2, v = 0.2, t = 0.2)
movej(p[0.368815850875486, -0.113776315384766, 0.274352519245187, -1.14900744134852, 1.25585990241048, -1.19350420081794], a = 0.2, v = 0.2, t = 0.2)
movej(p[0.36768847040923, -0.113496438747462, 0.273941594441755, -1.15346684807167, 1.26190429406212, -1.19908246078539], a = 0.2, v = 0.2, t = 0.2)
movej(p[0.3673, -0.1134, 0.2738, -1.155, 1.264, -1.201], a = 0.2, v = 0.2, t = 0.2)
movej(p[0.36768847040923, -0.113496438747462, 0.273941594441755, -1.15346684807167, 1.26190429406212, -1.19908246078539], a = 0.2, v = 0.2, t = 0.2)
movej(p[0.368815850875486, -0.113776315384766, 0.274352519245187, -1.14900744134852, 1.25585990241048, -1.19350420081794], a = 0.2, v = 0.2, t = 0.2)
movej(p[0.370571799724886, -0.114212232319312, 0.274992544759489, -1.1420326531504, 1.24655668310755, -1.18477685607254], a = 0.2, v = 0.2, t = 0.2)
movej(p[0.37278441082841, -0.114761516060393, 0.275799034723439, -1.1331947541469, 1.23502637150842, -1.17371376913153], a = 0.2, v = 0.2, t = 0.2)
movej(p[0.375237119495101, -0.11537041123169, 0.276693028464864, -1.12333674025261, 1.22249503620356, -1.16136682556572], a = 0.2, v = 0.2, t = 0.2)
movej(p[0.377689788195068, -0.115979304778292, 0.277587022352153, -1.11341710042203, 1.21022582795303, -1.14893505570961], a = 0.2, v = 0.2, t = 0.2)
movej(p[0.379902459167183, -0.116528592952311, 0.278393511998487, -1.10441786203948, 1.19938178086369, -1.13764986305686], a = 0.2, v = 0.2, t = 0.2)
movej(p[0.381658347942619, -0.116964510394137, 0.279033536584585, -1.09724362619597, 1.19092684922638, -1.12864795173375], a = 0.2, v = 0.2, t = 0.2)
movej(p[0.382785816736633, -0.117244380875408, 0.279444462550102, -1.09262275345273, 1.18556868238799, -1.12284746589891], a = 0.2, v = 0.2, t = 0.2)
movej(p[0.383174238990203, -0.117340822463381, 0.279586056929728, -1.09102785375974, 1.1837350727814, -1.12084501322268], a = 0.2, v = 0.2, t = 0.2)
movej(p[0.382785816736633, -0.117244380875408, 0.279444462550102, -1.09262275345273, 1.18556868238799, -1.12284746589891], a = 0.2, v = 0.2, t = 0.2)
movej(p[0.381658347942619, -0.116964510394137, 0.279033536584585, -1.09724362619597, 1.19092684922638, -1.12864795173375], a = 0.2, v = 0.2, t = 0.2)
movej(p[0.379902459167183, -0.116528592952311, 0.278393511998487, -1.10441786203948, 1.19938178086369, -1.13764986305686], a = 0.2, v = 0.2, t = 0.2)
movej(p[0.377689788195068, -0.115979304778292, 0.277587022352153, -1.11341710042203, 1.21022582795303, -1.14893505570961], a = 0.2, v = 0.2, t = 0.2)
movej(p[0.375237119495101, -0.11537041123169, 0.276693028464864, -1.12333674025261, 1.22249503620356, -1.16136682556572], a = 0.2, v = 0.2, t = 0.2)
movej(p[0.37278441082841, -0.114761516060393, 0.275799034723439, -1.1331947541469, 1.23502637150842, -1.17371376913153], a = 0.2, v = 0.2, t = 0.2)
movej(p[0.370571799724886, -0.114212232319312, 0.274992544759489, -1.1420326531504, 1.24655668310755, -1.18477685607254], a = 0.2, v = 0.2, t = 0.2)
movej(p[0.368815850875486, -0.113776315384766, 0.274352519245187, -1.14900744134852, 1.25585990241048, -1.19350420081794], a = 0.2, v = 0.2, t = 0.2)
movej(p[0.36768847040923, -0.113496438747462, 0.273941594441755, -1.15346684807167, 1.26190429406212, -1.19908246078539], a = 0.2, v = 0.2, t = 0.2)
movej(p[0.3673, -0.1134, 0.2738, -1.155, 1.264, -1.201], a = 0.2, v = 0.2, t = 0.2)
movej(p[0.36768847040923, -0.113496438747462, 0.273941594441755, -1.15346684807167, 1.26190429406212, -1.19908246078539], a = 0.2, v = 0.2, t = 0.2)
movej(p[0.368815850875486, -0.113776315384766, 0.274352519245187, -1.14900744134852, 1.25585990241048, -1.19350420081794], a = 0.2, v = 0.2, t = 0.2)
movej(p[0.370571799724886, -0.114212232319312, 0.274992544759489, -1.1420326531504, 1.24655668310755, -1.18477685607254], a = 0.2, v = 0.2, t = 0.2)
