def moving():
set_payload_mass(0.62)
set_tcp(p[0,0.005,0.058,0,0,0])
movej(p[0.4431, -0.1037, 0.3786, -1.201, 1.094, -1.2], a = 0.2, v = 0.2, t = 0.2)
movej(p[0.444342861276817, -0.104837080408716, 0.379960089699507, -1.201, 1.094, -1.2], a = 0.2, v = 0.2, t = 0.2)
movej(p[0.445585722553633, -0.105974160817432, 0.381320179399014, -1.201, 1.094, -1.2], a = 0.2, v = 0.2, t = 0.2)
movej(p[0.446828583830449, -0.107111241226148, 0.38268026909852, -1.201, 1.094, -1.2], a = 0.2, v = 0.2, t = 0.2)
movej(p[0.448071445107266, -0.108248321634864, 0.384040358798027, -1.201, 1.094, -1.2], a = 0.2, v = 0.2, t = 0.2)
movej(p[0.446828583830449, -0.107111241226148, 0.38268026909852, -1.201, 1.094, -1.2], a = 0.2, v = 0.2, t = 0.2)
movej(p[0.445585722553633, -0.105974160817432, 0.381320179399014, -1.201, 1.094, -1.2], a = 0.2, v = 0.2, t = 0.2)
movej(p[0.444342861276817, -0.104837080408716, 0.379960089699507, -1.201, 1.094, -1.2], a = 0.2, v = 0.2, t = 0.2)
movej(p[0.4431, -0.1037, 0.3786, -1.201, 1.094, -1.2], a = 0.2, v = 0.2, t = 0.2)
movej(p[0.443174573838409, -0.103554046677424, 0.378459917862473, -1.20032191999258, 1.0960828479841, -1.20834658351712], a = 0.2, v = 0.2, t = 0.2)
movej(p[0.443435835689833, -0.10348002827534, 0.378342896269408, -1.20392881277413, 1.09923628200113, -1.21250188821511], a = 0.2, v = 0.2, t = 0.2)
movej(p[0.443467537169412, -0.103475252817668, 0.378256278480839, -1.20255117627904, 1.10209033341585, -1.21039694851988], a = 0.2, v = 0.2, t = 0.2)
movej(p[0.44346653031489, -0.103627461031157, 0.378285073201443, -1.2066538719646, 1.10229784439484, -1.21560756930962], a = 0.2, v = 0.2, t = 0.2)
movej(p[0.443413014639447, -0.103657832472807, 0.378238718934812, -1.20348373616468, 1.10395043765233, -1.21614676327075], a = 0.2, v = 0.2, t = 0.2)
movej(p[0.443286894533806, -0.103637482401163, 0.378095563460022, -1.20365915916959, 1.10266774926113, -1.21971888693331], a = 0.2, v = 0.2, t = 0.2)
movej(p[0.442821628331357, -0.103764860173031, 0.377973703907287, -1.1965401098527, 1.10223430367171, -1.21289594443261], a = 0.2, v = 0.2, t = 0.2)
movej(p[0.441939771434429, -0.103910199376271, 0.377872944691342, -1.19164091939367, 1.09850379594043, -1.2261709556945], a = 0.2, v = 0.2, t = 0.2)
movej(p[0.440988725920257, -0.10383761403152, 0.377736467858573, -1.1904193864323, 1.0924260199269, -1.23596242411165], a = 0.2, v = 0.2, t = 0.2)
movej(p[0.440015234769716, -0.103605829103844, 0.377655487026638, -1.19095906632974, 1.08375945988808, -1.24756976410005], a = 0.2, v = 0.2, t = 0.2)
movej(p[0.439153158858294, -0.103548033927023, 0.377714340520856, -1.18403893049222, 1.07709028790305, -1.23498306361923], a = 0.2, v = 0.2, t = 0.2)
movej(p[0.438616574358028, -0.103439479219952, 0.377774454591151, -1.18168090095981, 1.06867292270003, -1.24059017942274], a = 0.2, v = 0.2, t = 0.2)
movej(p[0.438786016375419, -0.10327081242178, 0.377790368828079, -1.18758502894201, 1.06199326269954, -1.2420159688642], a = 0.2, v = 0.2, t = 0.2)
movej(p[0.439669385168985, -0.103171847296182, 0.377889168516689, -1.19388783404842, 1.0594591112126, -1.24339830777882], a = 0.2, v = 0.2, t = 0.2)
movej(p[0.440760224367564, -0.103152079722382, 0.378036762106891, -1.19561095706587, 1.06323975952918, -1.23878553276387], a = 0.2, v = 0.2, t = 0.2)
movej(p[0.441930763610769, -0.103023817212881, 0.378088469643812, -1.19727962918507, 1.07314676088425, -1.23797082814277], a = 0.2, v = 0.2, t = 0.2)
movej(p[0.442845580932924, -0.10293661277258, 0.37807003698863, -1.1993612829991, 1.08463564937015, -1.2321960142407], a = 0.2, v = 0.2, t = 0.2)
movej(p[0.44336649017609, -0.103051376067929, 0.378089566566835, -1.20663853739408, 1.09320887967617, -1.22847061008245], a = 0.2, v = 0.2, t = 0.2)
movej(p[0.443441580766447, -0.103224376174259, 0.378072183729048, -1.20523143525814, 1.09778914011857, -1.22607174427458], a = 0.2, v = 0.2, t = 0.2)
movej(p[0.443397710959891, -0.103272657596662, 0.377972456280352, -1.20346530221315, 1.1006401295476, -1.22206131723279], a = 0.2, v = 0.2, t = 0.2)
movej(p[0.443085260193002, -0.103408562035961, 0.377870040192386, -1.19681413932446, 1.10007957118583, -1.2157715156028], a = 0.2, v = 0.2, t = 0.2)
movej(p[0.442400471903431, -0.103620082248528, 0.377847771520076, -1.19445088364536, 1.09907880464944, -1.22096580173995], a = 0.2, v = 0.2, t = 0.2)
movej(p[0.441482651780609, -0.103711288511072, 0.377742742958647, -1.19286775384776, 1.09287162979729, -1.23572728872704], a = 0.2, v = 0.2, t = 0.2)
movej(p[0.440439521451829, -0.103588088629495, 0.377656566263072, -1.19283466917771, 1.08610440627809, -1.2464498045044], a = 0.2, v = 0.2, t = 0.2)
movej(p[0.439586593338032, -0.103547368836036, 0.377694218562001, -1.18962764193962, 1.07807887708471, -1.24215114695196], a = 0.2, v = 0.2, t = 0.2)
movej(p[0.438822063414722, -0.103462027509647, 0.377782618677804, -1.19172810556234, 1.06849809319108, -1.24870739109256], a = 0.2, v = 0.2, t = 0.2)
movej(p[0.438663023949437, -0.103332354396495, 0.377806973872468, -1.19446695552759, 1.06124801075828, -1.24928376832845], a = 0.2, v = 0.2, t = 0.2)
movej(p[0.439078040811919, -0.103183461751074, 0.377807842949342, -1.19416566022776, 1.05891594985689, -1.24522485131586], a = 0.2, v = 0.2, t = 0.2)
movej(p[0.440051610740974, -0.103208993843923, 0.377933298345699, -1.19595584694983, 1.06081206313854, -1.24088901427431], a = 0.2, v = 0.2, t = 0.2)
movej(p[0.441224850079911, -0.103143433538755, 0.378005342193858, -1.1951533522056, 1.06860617680057, -1.2385029788512], a = 0.2, v = 0.2, t = 0.2)
movej(p[0.442317111903057, -0.103028928095374, 0.378021708373408, -1.20456036601467, 1.07687461523197, -1.23979000399341], a = 0.2, v = 0.2, t = 0.2)
movej(p[0.442983601001104, -0.103074254548477, 0.3780462061597, -1.20069801509072, 1.08957609936988, -1.22323586650631], a = 0.2, v = 0.2, t = 0.2)
movej(p[0.443216259653177, -0.103188327905624, 0.378076389456485, -1.20540971471455, 1.09444636365475, -1.22725951137851], a = 0.2, v = 0.2, t = 0.2)
movej(p[0.44326287198627, -0.103259984410093, 0.378007809883207, -1.20730876629888, 1.09658488787873, -1.22946028754889], a = 0.2, v = 0.2, t = 0.2)
movej(p[0.443158699564596, -0.103302461044223, 0.377890600717116, -1.20950856313907, 1.09543510532186, -1.23234382944242], a = 0.2, v = 0.2, t = 0.2)
movej(p[0.442739735792956, -0.103554562259113, 0.377837344667659, -1.20259759532448, 1.09429171631721, -1.22807171602537], a = 0.2, v = 0.2, t = 0.2)
movej(p[0.442002803660686, -0.103620212643707, 0.377710683642751, -1.19405531457666, 1.09146593080644, -1.23347993800391], a = 0.2, v = 0.2, t = 0.2)
movej(p[0.441061494021672, -0.103560886723434, 0.377575601112113, -1.19001663857359, 1.08654022376144, -1.24225974447404], a = 0.2, v = 0.2, t = 0.2)
movej(p[0.440054814737968, -0.103476751656743, 0.377535736856019, -1.18587041260643, 1.08150238432129, -1.24097344302234], a = 0.2, v = 0.2, t = 0.2)
movej(p[0.43914384541938, -0.103459868860219, 0.377602446123537, -1.18401552148999, 1.07546717519923, -1.24330084854217], a = 0.2, v = 0.2, t = 0.2)
movej(p[0.438721668316603, -0.10330251354743, 0.377630510975725, -1.18798299425544, 1.06781982716252, -1.24325349032779], a = 0.2, v = 0.2, t = 0.2)
movej(p[0.438806635304592, -0.103209334231543, 0.377695221924898, -1.1951246762015, 1.0601631231575, -1.24618792587161], a = 0.2, v = 0.2, t = 0.2)
movej(p[0.439327520692155, -0.103229082976286, 0.377848662768888, -1.19583200408195, 1.05913826066997, -1.2392575696415], a = 0.2, v = 0.2, t = 0.2)
movej(p[0.440330159857617, -0.103209724992872, 0.377973494749, -1.19950765379996, 1.06285328488984, -1.24095816990563], a = 0.2, v = 0.2, t = 0.2)
movej(p[0.441535459256992, -0.103136948063242, 0.378061831400972, -1.19919346256029, 1.07400316300008, -1.2309304078276], a = 0.2, v = 0.2, t = 0.2)
movej(p[0.442565585134487, -0.103177653283598, 0.378134592284354, -1.20226237480386, 1.08434468821067, -1.22133173337359], a = 0.2, v = 0.2, t = 0.2)
movej(p[0.44301365701837, -0.103310787868701, 0.378204168818815, -1.20017010044353, 1.09239514217476, -1.21405865782081], a = 0.2, v = 0.2, t = 0.2)
movej(p[0.443232339024912, -0.103383309381343, 0.378181488006576, -1.19708452061615, 1.09892786649653, -1.20707938121522], a = 0.2, v = 0.2, t = 0.2)
movej(p[0.443277518013127, -0.103505321455153, 0.378145772528581, -1.19528516807566, 1.10098241653207, -1.20460889891093], a = 0.2, v = 0.2, t = 0.2)
movej(p[0.443058312036501, -0.103696365959732, 0.378084516206013, -1.18985137312144, 1.10235342765617, -1.2027843019001], a = 0.2, v = 0.2, t = 0.2)
movej(p[0.442490607907105, -0.103801871923929, 0.37792853290149, -1.1942488065709, 1.09618165121045, -1.22246950052083], a = 0.2, v = 0.2, t = 0.2)
movej(p[0.44154517657048, -0.103793491279701, 0.377738771126551, -1.1917838942841, 1.09138806790762, -1.22909719241732], a = 0.2, v = 0.2, t = 0.2)
movej(p[0.440507921775401, -0.103808047071151, 0.377695261285753, -1.19524355559861, 1.08432019168255, -1.23697850750169], a = 0.2, v = 0.2, t = 0.2)
movej(p[0.439490111506037, -0.10376893580765, 0.377704042598067, -1.18678662769944, 1.07906507111635, -1.23374760007228], a = 0.2, v = 0.2, t = 0.2)
movej(p[0.43882471660924, -0.103577366591122, 0.377670771376346, -1.18527393891363, 1.07305835675482, -1.23164147137012], a = 0.2, v = 0.2, t = 0.2)
movej(p[0.438672100633005, -0.103461524762133, 0.377702572191656, -1.18321791575459, 1.06828087041047, -1.2241219346389], a = 0.2, v = 0.2, t = 0.2)
movej(p[0.438963277368089, -0.103445341922694, 0.377849177522915, -1.18795006545908, 1.0641817663018, -1.22490355161371], a = 0.2, v = 0.2, t = 0.2)
movej(p[0.43992115360275, -0.103392989720121, 0.378004100307738, -1.19400873506899, 1.06461639782184, -1.23085739373918], a = 0.2, v = 0.2, t = 0.2)
movej(p[0.441191944093047, -0.103268463088165, 0.378105173054832, -1.1960018016034, 1.07324310077276, -1.22417978937552], a = 0.2, v = 0.2, t = 0.2)
movej(p[0.442366878546724, -0.103278359223441, 0.378208579295783, -1.19811981033971, 1.08427863974279, -1.21208691207518], a = 0.2, v = 0.2, t = 0.2)
movej(p[0.44294721711591, -0.103348425096599, 0.378258051498428, -1.19665813426854, 1.09314434098717, -1.20409051024412], a = 0.2, v = 0.2, t = 0.2)
movej(p[0.443219278225089, -0.103413186554378, 0.378207357634316, -1.19915881295949, 1.09728383950723, -1.20469019536728], a = 0.2, v = 0.2, t = 0.2)
movej(p[0.443270659781022, -0.103544096586539, 0.378161136139432, -1.19879786937164, 1.09862511546411, -1.20467119429197], a = 0.2, v = 0.2, t = 0.2)
movej(p[0.443036735160963, -0.103688688525249, 0.378088060585051, -1.19680613409563, 1.09892449413563, -1.21152551932284], a = 0.2, v = 0.2, t = 0.2)
movej(p[0.442574209601572, -0.103755845446142, 0.377939629594193, -1.19609290744295, 1.09567897910987, -1.22295702835211], a = 0.2, v = 0.2, t = 0.2)
movej(p[0.441719020125956, -0.103737951817504, 0.377782646476148, -1.19205673204145, 1.09198636701402, -1.22818297051331], a = 0.2, v = 0.2, t = 0.2)
movej(p[0.440726906543933, -0.103839697678648, 0.377783078490246, -1.18874916416212, 1.08832023758604, -1.22732048768908], a = 0.2, v = 0.2, t = 0.2)
movej(p[0.439774391156128, -0.103766353182336, 0.377790685033346, -1.18098300332959, 1.08286589983542, -1.22768890411517], a = 0.2, v = 0.2, t = 0.2)
movej(p[0.439144087338898, -0.103556011379992, 0.37775608676356, -1.18457204753636, 1.07496017639828, -1.23281370994665], a = 0.2, v = 0.2, t = 0.2)
movej(p[0.438789643414567, -0.103438677522996, 0.377746789699123, -1.18560118540211, 1.06740231660617, -1.23129176602239], a = 0.2, v = 0.2, t = 0.2)
movej(p[0.438885889780972, -0.103455608959156, 0.377837180218113, -1.19693754214885, 1.06083632974184, -1.24464235794709], a = 0.2, v = 0.2, t = 0.2)
movej(p[0.439623464477612, -0.103429178547661, 0.377953900809372, -1.20248070357143, 1.06134512378557, -1.24749055593138], a = 0.2, v = 0.2, t = 0.2)
movej(p[0.440859436042703, -0.10329363387827, 0.378033010658239, -1.20444110844224, 1.06844227645662, -1.24079683311914], a = 0.2, v = 0.2, t = 0.2)
movej(p[0.442053645303362, -0.103325248764312, 0.378199986693755, -1.20752548685069, 1.07770594807907, -1.23215092400723], a = 0.2, v = 0.2, t = 0.2)
movej(p[0.442786340593843, -0.103364485709679, 0.378229577267005, -1.20082428301461, 1.08831395245381, -1.21863027967335], a = 0.2, v = 0.2, t = 0.2)
movej(p[0.443174266081308, -0.103434811753513, 0.378204412431671, -1.20444409844469, 1.09334392929773, -1.21806480902914], a = 0.2, v = 0.2, t = 0.2)
movej(p[0.443245876036012, -0.10357032815418, 0.378164564483397, -1.20107956094537, 1.09762375036074, -1.20797983035722], a = 0.2, v = 0.2, t = 0.2)
movej(p[0.443064443848903, -0.103729672308171, 0.378148175251107, -1.20804505252323, 1.09583852081473, -1.22165826475453], a = 0.2, v = 0.2, t = 0.2)
movej(p[0.442560532731832, -0.103805729858791, 0.377982085517127, -1.21018705557351, 1.09245897804684, -1.23282027842196], a = 0.2, v = 0.2, t = 0.2)
movej(p[0.441728631616542, -0.103835663375862, 0.37781024454695, -1.20655153923162, 1.08903230930564, -1.23794067803822], a = 0.2, v = 0.2, t = 0.2)
movej(p[0.440724241589468, -0.10392814488064, 0.377745912256358, -1.19576917059437, 1.08634705941738, -1.23338935973819], a = 0.2, v = 0.2, t = 0.2)
movej(p[0.439801004265052, -0.103823287345546, 0.377712535684705, -1.18546139144535, 1.08223297440688, -1.23025572278966], a = 0.2, v = 0.2, t = 0.2)
movej(p[0.439131682730335, -0.103636033221693, 0.377683776046946, -1.18702921953599, 1.07291570126122, -1.23441843518314], a = 0.2, v = 0.2, t = 0.2)
movej(p[0.438761227491414, -0.103572076995932, 0.377721382274386, -1.18778695290355, 1.06650711849459, -1.22776944968487], a = 0.2, v = 0.2, t = 0.2)
movej(p[0.438640448792137, -0.103631756423414, 0.37782466653619, -1.19342951454167, 1.0593146988087, -1.23632338520811], a = 0.2, v = 0.2, t = 0.2)
movej(p[0.439298064575488, -0.103608177028538, 0.377922563738016, -1.20039880006139, 1.05865739803468, -1.23840303959682], a = 0.2, v = 0.2, t = 0.2)
movej(p[0.440444166867621, -0.103499254708035, 0.378034381567831, -1.2056305397915, 1.06219606576956, -1.24075899432021], a = 0.2, v = 0.2, t = 0.2)
movej(p[0.441760915891835, -0.103510827999045, 0.378207332560793, -1.20485056511538, 1.07351357466364, -1.22973492929402], a = 0.2, v = 0.2, t = 0.2)
movej(p[0.442698108016754, -0.103468140658324, 0.378270178884728, -1.20441895180113, 1.08430854657548, -1.22379873290091], a = 0.2, v = 0.2, t = 0.2)
movej(p[0.443251342079132, -0.10353060029831, 0.37827913798051, -1.20184778219707, 1.09334905289895, -1.21261163220759], a = 0.2, v = 0.2, t = 0.2)
movej(p[0.443387748081666, -0.103640995001331, 0.378276255712886, -1.20611373851516, 1.09701823799655, -1.21373512536905], a = 0.2, v = 0.2, t = 0.2)
movej(p[0.443322818540159, -0.103784230312092, 0.378269089529034, -1.20573223093295, 1.0985604045056, -1.21498814264703], a = 0.2, v = 0.2, t = 0.2)
movej(p[0.443079039385131, -0.103872302923913, 0.378156761849747, -1.20704904311715, 1.09759106168222, -1.21891352749197], a = 0.2, v = 0.2, t = 0.2)
movej(p[0.44246205038989, -0.104005619259935, 0.378013104292811, -1.20284803822834, 1.09433236701871, -1.21895878415041], a = 0.2, v = 0.2, t = 0.2)
movej(p[0.441455846425424, -0.104189268786948, 0.377912236066787, -1.1922544532591, 1.09269705480617, -1.21807343310082], a = 0.2, v = 0.2, t = 0.2)
movej(p[0.44041264621883, -0.104082688273388, 0.377795639900082, -1.18574717408477, 1.08684563843449, -1.22505804736934], a = 0.2, v = 0.2, t = 0.2)
movej(p[0.439509719582812, -0.103873246219897, 0.377736445280396, -1.18395451027493, 1.07946348266207, -1.22872573960839], a = 0.2, v = 0.2, t = 0.2)
movej(p[0.438796297182271, -0.103788196764208, 0.37776930572004, -1.18502496176167, 1.07137475116119, -1.22382693320042], a = 0.2, v = 0.2, t = 0.2)
movej(p[0.438489846558177, -0.103754920652899, 0.377861147624465, -1.18704586716985, 1.06479594428372, -1.22928806184155], a = 0.2, v = 0.2, t = 0.2)
movej(p[0.438819792704219, -0.103639461310626, 0.377928411032007, -1.19263081180545, 1.06147593543776, -1.2310983125189], a = 0.2, v = 0.2, t = 0.2)
movej(p[0.439914992914736, -0.10352505629112, 0.378050217905764, -1.19451730650658, 1.06375059882215, -1.22949611804413], a = 0.2, v = 0.2, t = 0.2)
movej(p[0.441206117483986, -0.103437667260645, 0.378193272532156, -1.19641306167003, 1.0726568089561, -1.22446931529488], a = 0.2, v = 0.2, t = 0.2)
movej(p[0.442340359639102, -0.10337504317466, 0.378278269108635, -1.20167382712243, 1.08261720091129, -1.22354933461097], a = 0.2, v = 0.2, t = 0.2)
movej(p[0.443098650749799, -0.10337511347537, 0.378313494656197, -1.20206444337248, 1.09430483814417, -1.21136788191732], a = 0.2, v = 0.2, t = 0.2)
movej(p[0.443444214630662, -0.103562784513314, 0.378385667817508, -1.20708298263208, 1.10019414206519, -1.2065750853281], a = 0.2, v = 0.2, t = 0.2)
movej(p[0.443443461613772, -0.103721177145592, 0.378356120675485, -1.19684518116198, 1.10516919141607, -1.19570543588239], a = 0.2, v = 0.2, t = 0.2)
movej(p[0.443408802154662, -0.103751072939264, 0.378267947614747, -1.19617697841575, 1.10588525697368, -1.19640151268546], a = 0.2, v = 0.2, t = 0.2)
movej(p[0.443169158720214, -0.103883803947966, 0.378179151239956, -1.19181659220221, 1.10482568772496, -1.19138962593507], a = 0.2, v = 0.2, t = 0.2)
movej(p[0.442604842758032, -0.104012229697285, 0.378067052790645, -1.18994032093336, 1.10133326313752, -1.20103007631504], a = 0.2, v = 0.2, t = 0.2)
movej(p[0.441822366580249, -0.104046808527239, 0.377914675290269, -1.1921391498138, 1.09512251260304, -1.21691352935521], a = 0.2, v = 0.2, t = 0.2)
movej(p[0.440811663509624, -0.103978896786102, 0.377758587106622, -1.18768385673774, 1.0899047399807, -1.2222966306626], a = 0.2, v = 0.2, t = 0.2)
movej(p[0.439930169216452, -0.103986230512683, 0.377819494733472, -1.18956718510436, 1.08308360249917, -1.224569713345], a = 0.2, v = 0.2, t = 0.2)
movej(p[0.43924421395867, -0.103890066310502, 0.377839277368291, -1.18451157385324, 1.07747078077794, -1.22539315633367], a = 0.2, v = 0.2, t = 0.2)
movej(p[0.439187343758753, -0.103706738842768, 0.377867751476457, -1.19022971324091, 1.07082571540671, -1.22775093150188], a = 0.2, v = 0.2, t = 0.2)
movej(p[0.439686527145249, -0.103601964001966, 0.377908233525337, -1.18788586784381, 1.06942890393892, -1.2193339653447], a = 0.2, v = 0.2, t = 0.2)
movej(p[0.440628042561001, -0.103581677674292, 0.378084660590469, -1.19247720116398, 1.07240026348306, -1.22045441628343], a = 0.2, v = 0.2, t = 0.2)
movej(p[0.44177189077852, -0.103528661333439, 0.378196364021846, -1.19727491056767, 1.07963649355097, -1.21898184627814], a = 0.2, v = 0.2, t = 0.2)
movej(p[0.442652072497362, -0.103462732890771, 0.378264592731804, -1.20510616460989, 1.08855992565205, -1.21770449636534], a = 0.2, v = 0.2, t = 0.2)
movej(p[0.443181973600978, -0.103642554295225, 0.378355704400208, -1.20635132873933, 1.09609236255363, -1.20907175024211], a = 0.2, v = 0.2, t = 0.2)
movej(p[0.44331577470175, -0.103749135804565, 0.378330859198337, -1.20133352069241, 1.10272239528679, -1.2038707870253], a = 0.2, v = 0.2, t = 0.2)
movej(p[0.443387612776198, -0.103781349489324, 0.378250124221222, -1.1990571308294, 1.10513821966922, -1.20345134087059], a = 0.2, v = 0.2, t = 0.2)
movej(p[0.443335098913679, -0.103846763328479, 0.378175449294429, -1.19530635765164, 1.10619670016107, -1.19807250412253], a = 0.2, v = 0.2, t = 0.2)
movej(p[0.443100484124464, -0.103983498489047, 0.378162887449584, -1.2047607906269, 1.10075681998139, -1.21469518714108], a = 0.2, v = 0.2, t = 0.2)
movej(p[0.4426102878857, -0.103999492407667, 0.378017325029406, -1.20622082688034, 1.09645280696955, -1.22446339999175], a = 0.2, v = 0.2, t = 0.2)
movej(p[0.441833759006413, -0.10397743336943, 0.377898325947617, -1.21044590717927, 1.09021484123472, -1.23920717062524], a = 0.2, v = 0.2, t = 0.2)
movej(p[0.440838760082361, -0.104063341067146, 0.377895908219688, -1.19450919502032, 1.0900018451643, -1.22574078306412], a = 0.2, v = 0.2, t = 0.2)
movej(p[0.440006944436386, -0.103973132466291, 0.377903480064815, -1.18862668481534, 1.08473790532726, -1.23018044428557], a = 0.2, v = 0.2, t = 0.2)
movej(p[0.439500744008606, -0.103766254321588, 0.377859480389873, -1.1894122856348, 1.07719468573615, -1.23331940264859], a = 0.2, v = 0.2, t = 0.2)
movej(p[0.439320818846662, -0.103624329676281, 0.377869490207756, -1.19473162473238, 1.06940289656984, -1.23554345869676], a = 0.2, v = 0.2, t = 0.2)
movej(p[0.439440566368305, -0.103686619387707, 0.378004080251262, -1.19856647772552, 1.06501093846471, -1.23785075413979], a = 0.2, v = 0.2, t = 0.2)
movej(p[0.440149296721809, -0.103637192985708, 0.378073476983953, -1.19774913095178, 1.06778511347056, -1.23239138405711], a = 0.2, v = 0.2, t = 0.2)
movej(p[0.441196198225434, -0.103536201589343, 0.378134838377094, -1.19586133583068, 1.07494549516044, -1.22230582252798], a = 0.2, v = 0.2, t = 0.2)
movej(p[0.442230293294801, -0.103517012392888, 0.378241611070938, -1.19643505231686, 1.08574746878135, -1.20959732272526], a = 0.2, v = 0.2, t = 0.2)
movej(p[0.442828560503333, -0.10353939177811, 0.378297564875204, -1.19530624112329, 1.09442527857925, -1.20353471483788], a = 0.2, v = 0.2, t = 0.2)
movej(p[0.443201384794478, -0.103489889246291, 0.378226835705325, -1.19645430659642, 1.10092252685476, -1.19971752252977], a = 0.2, v = 0.2, t = 0.2)
movej(p[0.443338326627176, -0.103556172897069, 0.378136674709474, -1.19290067869203, 1.10224987002707, -1.19306556149098], a = 0.2, v = 0.2, t = 0.2)
movej(p[0.443297003958507, -0.103636002704863, 0.378071679315594, -1.19357788431189, 1.10253087474899, -1.20028165880978], a = 0.2, v = 0.2, t = 0.2)
movej(p[0.443249135965831, -0.103634826084646, 0.377979643978695, -1.19942020057654, 1.10009281372646, -1.21635794415055], a = 0.2, v = 0.2, t = 0.2)
movej(p[0.443179437975877, -0.10355652538068, 0.377855925395424, -1.20239047595964, 1.09927905265496, -1.22418236796688], a = 0.2, v = 0.2, t = 0.2)
movej(p[0.443018623560777, -0.103686318034268, 0.377806214759181, -1.19871123074562, 1.09922570207065, -1.21713572229447], a = 0.2, v = 0.2, t = 0.2)
movej(p[0.44244033155427, -0.103775959180166, 0.377708405990184, -1.19318311837997, 1.09566317247917, -1.22854427107064], a = 0.2, v = 0.2, t = 0.2)
movej(p[0.441819728215604, -0.103690696181397, 0.377543455283843, -1.19151315464439, 1.09127976054421, -1.23821195973128], a = 0.2, v = 0.2, t = 0.2)
movej(p[0.4411189480798, -0.103497812857008, 0.377392451525494, -1.19365650950255, 1.08421636490479, -1.25119396241613], a = 0.2, v = 0.2, t = 0.2)
movej(p[0.440503719016819, -0.10350644516961, 0.377456999654373, -1.19309219148481, 1.08036018173392, -1.25001681828948], a = 0.2, v = 0.2, t = 0.2)
movej(p[0.439910606816876, -0.103378554018559, 0.377456028180524, -1.18972393788353, 1.07419589768794, -1.25492856393437], a = 0.2, v = 0.2, t = 0.2)
movej(p[0.439638805619462, -0.103147407390166, 0.37744193424682, -1.19149328634168, 1.06895507148582, -1.25656639820591], a = 0.2, v = 0.2, t = 0.2)
movej(p[0.43972070059563, -0.102999475679415, 0.377469139184473, -1.19065421963405, 1.06451741140616, -1.25001175911028], a = 0.2, v = 0.2, t = 0.2)
movej(p[0.440182628738344, -0.10304189199426, 0.37760351020294, -1.20012745008631, 1.06118977081797, -1.25663412757463], a = 0.2, v = 0.2, t = 0.2)
movej(p[0.44112755396381, -0.103020715968868, 0.377715446107936, -1.2011206468702, 1.06604317922861, -1.25166203116515], a = 0.2, v = 0.2, t = 0.2)
movej(p[0.442091458809131, -0.102958267969299, 0.377781118901517, -1.20835228005447, 1.0721833534377, -1.25322316347361], a = 0.2, v = 0.2, t = 0.2)
movej(p[0.442842585368346, -0.1030699336945, 0.377887476575694, -1.19864261441978, 1.08495676080781, -1.22781342117204], a = 0.2, v = 0.2, t = 0.2)
movej(p[0.443117722036343, -0.103191467190042, 0.377917526198704, -1.20059447734585, 1.08925468805604, -1.23196927003983], a = 0.2, v = 0.2, t = 0.2)
movej(p[0.443237992959783, -0.103214876524908, 0.377849915864209, -1.19699995765805, 1.09315861160847, -1.22717980710777], a = 0.2, v = 0.2, t = 0.2)
movej(p[0.443272401777011, -0.103271913620907, 0.377796328478781, -1.1940462113708, 1.09482423438048, -1.22266836806891], a = 0.2, v = 0.2, t = 0.2)
movej(p[0.443219666898019, -0.1034172930127, 0.377767756157989, -1.18667055972958, 1.09746456590587, -1.21740546134804], a = 0.2, v = 0.2, t = 0.2)
movej(p[0.443178350313628, -0.103435716679139, 0.377712895138628, -1.19085835049646, 1.09542721116601, -1.22815312938192], a = 0.2, v = 0.2, t = 0.2)
movej(p[0.44305179995229, -0.103447303042446, 0.37759768944072, -1.18966448667948, 1.09481580602186, -1.22988421672925], a = 0.2, v = 0.2, t = 0.2)
movej(p[0.442637426679955, -0.103561153111623, 0.377572986519382, -1.19253840803754, 1.09297194216492, -1.23098411670512], a = 0.2, v = 0.2, t = 0.2)
movej(p[0.4418945025372, -0.103684085511015, 0.377507967003143, -1.18673517484581, 1.08995683932619, -1.237467314304], a = 0.2, v = 0.2, t = 0.2)
movej(p[0.441134486340347, -0.103586007544847, 0.37739787664265, -1.18793940369152, 1.08545366473022, -1.24497706457953], a = 0.2, v = 0.2, t = 0.2)
movej(p[0.440400141489808, -0.103436924023322, 0.377347059207688, -1.18532535884536, 1.07921851069888, -1.24570316833609], a = 0.2, v = 0.2, t = 0.2)
movej(p[0.439752990932393, -0.103427361196829, 0.377455906492388, -1.18710181791697, 1.07408247168935, -1.24304420772005], a = 0.2, v = 0.2, t = 0.2)
movej(p[0.439345191163653, -0.10334655125277, 0.377521105093269, -1.18254217298626, 1.0701530453099, -1.24183970062529], a = 0.2, v = 0.2, t = 0.2)
movej(p[0.439576948629809, -0.103190722500575, 0.377575410291643, -1.18711528692474, 1.06611167296441, -1.24225960723391], a = 0.2, v = 0.2, t = 0.2)
movej(p[0.440256880131284, -0.103165939571524, 0.377631974317567, -1.17998289042515, 1.06704712057446, -1.22573219880656], a = 0.2, v = 0.2, t = 0.2)
movej(p[0.441129952512268, -0.103226817986396, 0.377786242446374, -1.18898665048384, 1.06834824086795, -1.23356743953387], a = 0.2, v = 0.2, t = 0.2)
movej(p[0.442081417590705, -0.103238841971038, 0.37787546535604, -1.19638061350055, 1.07439598058929, -1.23551780393896], a = 0.2, v = 0.2, t = 0.2)
movej(p[0.442774112680398, -0.103210364482622, 0.377912793622378, -1.20255867791786, 1.08212649198654, -1.23265290450751], a = 0.2, v = 0.2, t = 0.2)
movej(p[0.443196240943883, -0.103416095065088, 0.377998262920992, -1.19728386004562, 1.09197456993209, -1.21527720664026], a = 0.2, v = 0.2, t = 0.2)
movej(p[0.443277760018106, -0.103542168262172, 0.377985903616199, -1.18986219031071, 1.09778867806634, -1.21012516573635], a = 0.2, v = 0.2, t = 0.2)
movej(p[0.443336973856098, -0.10357140171292, 0.377951210779077, -1.18672505451853, 1.10247468919799, -1.20823704693516], a = 0.2, v = 0.2, t = 0.2)
movej(p[0.443292876085887, -0.103600559758006, 0.377949756734659, -1.18851024083181, 1.10270486590679, -1.20980526400193], a = 0.2, v = 0.2, t = 0.2)
movej(p[0.443164677906806, -0.103726087142407, 0.377962557598445, -1.19855835913611, 1.09906971607625, -1.22403854533734], a = 0.2, v = 0.2, t = 0.2)
movej(p[0.442794904940321, -0.103799191209318, 0.377839363553901, -1.20223344783063, 1.09472224861247, -1.23251391153674], a = 0.2, v = 0.2, t = 0.2)
movej(p[0.44218670964346, -0.103879930043087, 0.37770017665839, -1.20311441523716, 1.09044702473168, -1.23982929254073], a = 0.2, v = 0.2, t = 0.2)
movej(p[0.441254442376254, -0.104070862063946, 0.377649591815136, -1.18317639867475, 1.09247013078289, -1.2198548018122], a = 0.2, v = 0.2, t = 0.2)
movej(p[0.440392117107099, -0.104059933900417, 0.377610505706098, -1.17479575449302, 1.08886413888681, -1.22085768699485], a = 0.2, v = 0.2, t = 0.2)
movej(p[0.439791557329656, -0.103843978607319, 0.377557895958897, -1.17518037406146, 1.08252683362884, -1.22480682797584], a = 0.2, v = 0.2, t = 0.2)
movej(p[0.439298087851773, -0.10364744015819, 0.377569352280801, -1.18010627111781, 1.07364620501483, -1.22890157823855], a = 0.2, v = 0.2, t = 0.2)
movej(p[0.438985676863141, -0.103627504011404, 0.377684989890743, -1.18146001801948, 1.06696010132254, -1.23225159261273], a = 0.2, v = 0.2, t = 0.2)
movej(p[0.439310204213227, -0.103548457480691, 0.377732764155033, -1.18102428387216, 1.06535281982235, -1.22756815561325], a = 0.2, v = 0.2, t = 0.2)
movej(p[0.440224659200836, -0.103432009829938, 0.377832716863204, -1.18380805394707, 1.06769289769513, -1.22418379402282], a = 0.2, v = 0.2, t = 0.2)
movej(p[0.44139805553384, -0.103364573128509, 0.377944979376058, -1.18220720580643, 1.07678921652235, -1.21285877307071], a = 0.2, v = 0.2, t = 0.2)
movej(p[0.442363394521625, -0.103312261206106, 0.378030396841707, -1.18885771581406, 1.08345471505883, -1.21711261509663], a = 0.2, v = 0.2, t = 0.2)
movej(p[0.443089356652376, -0.103303947604132, 0.378050175326313, -1.19634394248371, 1.08913909663761, -1.21813757337296], a = 0.2, v = 0.2, t = 0.2)
movej(p[0.443389875850552, -0.103418857804386, 0.378083439079573, -1.20343121612169, 1.0932854581906, -1.21836487002244], a = 0.2, v = 0.2, t = 0.2)
movej(p[0.44340543294789, -0.103605615951136, 0.378105859958368, -1.20310908351756, 1.09485620277781, -1.21986966863751], a = 0.2, v = 0.2, t = 0.2)
movej(p[0.443400752700896, -0.103652652580511, 0.378041701482621, -1.19365481861683, 1.1000372031034, -1.21099569633721], a = 0.2, v = 0.2, t = 0.2)
movej(p[0.443394459855754, -0.103711587090588, 0.378017934930114, -1.19153609320991, 1.10020687635357, -1.20904116788235], a = 0.2, v = 0.2, t = 0.2)
movej(p[0.443333705273643, -0.1038590903165, 0.378071892025086, -1.18932486618164, 1.10225512013728, -1.20202538396792], a = 0.2, v = 0.2, t = 0.2)
movej(p[0.442934353783534, -0.103965277453383, 0.377993189634979, -1.19511111124848, 1.09787719003962, -1.21835215966982], a = 0.2, v = 0.2, t = 0.2)
movej(p[0.442311589056927, -0.104006781411853, 0.377832523265054, -1.19610273140004, 1.09473002829299, -1.22664714667397], a = 0.2, v = 0.2, t = 0.2)
movej(p[0.44148384103744, -0.104109718980289, 0.377749552757998, -1.19315236520803, 1.09159159965152, -1.22885436892062], a = 0.2, v = 0.2, t = 0.2)
movej(p[0.44067519616638, -0.104139848917437, 0.377766627540418, -1.18833814470883, 1.08723619703315, -1.23286551742845], a = 0.2, v = 0.2, t = 0.2)
movej(p[0.440102395786491, -0.103984895899676, 0.377746113600982, -1.18527628696714, 1.08220076328568, -1.23396821603169], a = 0.2, v = 0.2, t = 0.2)
movej(p[0.439689877823552, -0.103774022309112, 0.377688609364788, -1.1850179945435, 1.07553585256728, -1.23302063513666], a = 0.2, v = 0.2, t = 0.2)
movej(p[0.439579281352063, -0.103770226215248, 0.377784428438909, -1.18877576733872, 1.07039567148647, -1.22819765659642], a = 0.2, v = 0.2, t = 0.2)
movej(p[0.439752646361216, -0.103793979939972, 0.377903930813209, -1.18991709220675, 1.06748055598242, -1.23191605394844], a = 0.2, v = 0.2, t = 0.2)
movej(p[0.440555560778757, -0.103680592358657, 0.378014516945285, -1.19659959693743, 1.06856971073018, -1.23086582667402], a = 0.2, v = 0.2, t = 0.2)
movej(p[0.441531489364292, -0.103610239695843, 0.378097555796861, -1.19216327531268, 1.07592572427927, -1.21764313638238], a = 0.2, v = 0.2, t = 0.2)
movej(p[0.442373160963456, -0.103598590206282, 0.378197937314347, -1.20424646030015, 1.08113237800952, -1.223866086367], a = 0.2, v = 0.2, t = 0.2)
movej(p[0.442949337831477, -0.10358784631085, 0.378202005983605, -1.20732702676008, 1.08778655850035, -1.2231842392902], a = 0.2, v = 0.2, t = 0.2)
movej(p[0.443187279802245, -0.103561312280594, 0.378134059152112, -1.21255242891796, 1.09184268952862, -1.22688402362448], a = 0.2, v = 0.2, t = 0.2)
movej(p[0.443264402475526, -0.103696375367375, 0.378112631117537, -1.19906721926534, 1.09958040938639, -1.20837758997487], a = 0.2, v = 0.2, t = 0.2)
movej(p[0.443198465872773, -0.103743491197956, 0.378030206765197, -1.18944702178549, 1.10270719349847, -1.20724958365381], a = 0.2, v = 0.2, t = 0.2)
movej(p[0.443231755560637, -0.103692000510299, 0.37794875043784, -1.18782090703706, 1.10376325351992, -1.20894618537601], a = 0.2, v = 0.2, t = 0.2)
movej(p[0.443190749791493, -0.103690413763328, 0.377868335698613, -1.18721607421915, 1.10308672230603, -1.20791742317829], a = 0.2, v = 0.2, t = 0.2)
movej(p[0.442916464894485, -0.103880224814174, 0.377851945345847, -1.18615052794782, 1.10160971949352, -1.21146275164664], a = 0.2, v = 0.2, t = 0.2)
movej(p[0.4424297881051, -0.10390138108801, 0.377692711621244, -1.18635657372508, 1.09753109250384, -1.22363649186144], a = 0.2, v = 0.2, t = 0.2)
movej(p[0.441746468187722, -0.103848782003086, 0.377530999863476, -1.1873051012619, 1.0914823187305, -1.2343379120436], a = 0.2, v = 0.2, t = 0.2)
movej(p[0.441008983431834, -0.103855540012365, 0.377502209920701, -1.18863328511421, 1.08549922820165, -1.23789266255787], a = 0.2, v = 0.2, t = 0.2)
movej(p[0.440322107621646, -0.10384417132834, 0.377524897545166, -1.18288768435675, 1.08211153280721, -1.23421641062289], a = 0.2, v = 0.2, t = 0.2)
movej(p[0.439841890357361, -0.10368674474459, 0.377475736358523, -1.18059728382628, 1.07880552219753, -1.22891306972532], a = 0.2, v = 0.2, t = 0.2)
movej(p[0.439643028412894, -0.103549629127899, 0.377511943008494, -1.17881602791698, 1.07493778684826, -1.22236368372505], a = 0.2, v = 0.2, t = 0.2)
movej(p[0.439796149568629, -0.103592710252649, 0.377698873651398, -1.18252034912803, 1.07145177543207, -1.21954774515465], a = 0.2, v = 0.2, t = 0.2)
movej(p[0.440454194732763, -0.103586541845162, 0.377866908614453, -1.19167022223069, 1.07025282761166, -1.23035585785499], a = 0.2, v = 0.2, t = 0.2)
movej(p[0.441428717303172, -0.103479446687935, 0.377963394485241, -1.19898386568226, 1.07544515669818, -1.22937804438442], a = 0.2, v = 0.2, t = 0.2)
movej(p[0.442352816895923, -0.103516980604904, 0.378072582738527, -1.19867346993273, 1.08380853710337, -1.21704840450613], a = 0.2, v = 0.2, t = 0.2)
movej(p[0.442817593791151, -0.103603282365878, 0.378143177165464, -1.19485542458959, 1.09114501137215, -1.2124388598025], a = 0.2, v = 0.2, t = 0.2)
movej(p[0.44313260158948, -0.103631077559437, 0.378125276607509, -1.19654549411896, 1.09411840561334, -1.214094928459], a = 0.2, v = 0.2, t = 0.2)
movej(p[0.443214046071083, -0.103625176779385, 0.378027483769984, -1.19801188009247, 1.09616403224579, -1.21405538745748], a = 0.2, v = 0.2, t = 0.2)
movej(p[0.443314286471658, -0.103784174898308, 0.378061694889825, -1.19836672173722, 1.09831308974291, -1.20736261611378], a = 0.2, v = 0.2, t = 0.2)
movej(p[0.443210912161402, -0.103879000456197, 0.378029946537565, -1.1889442069108, 1.10100726599812, -1.20295512686909], a = 0.2, v = 0.2, t = 0.2)
movej(p[0.442957907597117, -0.103887220144415, 0.377897907914894, -1.18622803120211, 1.10095633097307, -1.20370012772262], a = 0.2, v = 0.2, t = 0.2)
movej(p[0.442387347778238, -0.103955488283909, 0.377762338063117, -1.18107335579502, 1.09860781625996, -1.20443353436883], a = 0.2, v = 0.2, t = 0.2)
movej(p[0.441526432920445, -0.104098920391421, 0.377701582070276, -1.18814020656067, 1.09064010301122, -1.223719167161], a = 0.2, v = 0.2, t = 0.2)
movej(p[0.440717909984937, -0.104033586117003, 0.377607781030075, -1.18562496980589, 1.08513253926928, -1.23177649826708], a = 0.2, v = 0.2, t = 0.2)
movej(p[0.440045591181709, -0.103818965092597, 0.377528477707889, -1.18753722309492, 1.07734070834648, -1.23738062202081], a = 0.2, v = 0.2, t = 0.2)
movej(p[0.439492812887871, -0.103746643511015, 0.377544230117181, -1.17645105165454, 1.07615019952408, -1.21541950219683], a = 0.2, v = 0.2, t = 0.2)
movej(p[0.439191869217058, -0.103749157747713, 0.377660709453596, -1.17665310890519, 1.07097628981735, -1.21826218272151], a = 0.2, v = 0.2, t = 0.2)
movej(p[0.439561378205655, -0.103697853786358, 0.377759986593943, -1.18478517868213, 1.06737685175648, -1.22165652724356], a = 0.2, v = 0.2, t = 0.2)
movej(p[0.440434281457683, -0.103623420179895, 0.377893821035432, -1.19183224426496, 1.06669307008418, -1.22557210855508], a = 0.2, v = 0.2, t = 0.2)
movej(p[0.441571709681372, -0.103691186803891, 0.378086540607679, -1.1875959706175, 1.07540607149015, -1.21123849707154], a = 0.2, v = 0.2, t = 0.2)
movej(p[0.442504924881522, -0.103645150321401, 0.3781424212214, -1.18480498479231, 1.08531505769721, -1.20396295353037], a = 0.2, v = 0.2, t = 0.2)
movej(p[0.443153181300957, -0.103633997557799, 0.378185353160265, -1.18453376099295, 1.09623431140872, -1.19246031528519], a = 0.2, v = 0.2, t = 0.2)
movej(p[0.44334808919592, -0.103741426919012, 0.378215336993584, -1.18913677636109, 1.10084250090575, -1.1911361248752], a = 0.2, v = 0.2, t = 0.2)
movej(p[0.443322695778762, -0.103889822377723, 0.378268258448732, -1.19137076673778, 1.10379938589369, -1.19506233014211], a = 0.2, v = 0.2, t = 0.2)
movej(p[0.443341703313247, -0.103901766993316, 0.378213028108419, -1.18990299347391, 1.10558576476525, -1.19257282327027], a = 0.2, v = 0.2, t = 0.2)
movej(p[0.443311584274399, -0.103971606790072, 0.378164719031757, -1.1884575803628, 1.10628755096775, -1.19017553241988], a = 0.2, v = 0.2, t = 0.2)
movej(p[0.44304881552087, -0.104138959965684, 0.378091858830813, -1.18393597216432, 1.10566639761321, -1.18924215491485], a = 0.2, v = 0.2, t = 0.2)
movej(p[0.442494011745645, -0.104182758915332, 0.377913812633422, -1.18223899559544, 1.10326865238533, -1.19924393800544], a = 0.2, v = 0.2, t = 0.2)
movej(p[0.44164565851535, -0.104190414170482, 0.377716908883798, -1.18402157860039, 1.09727019694247, -1.2124036395983], a = 0.2, v = 0.2, t = 0.2)
movej(p[0.440729009125542, -0.104219495958236, 0.377673694601595, -1.18345267521639, 1.0921402542027, -1.21311656561179], a = 0.2, v = 0.2, t = 0.2)
movej(p[0.439876572004717, -0.104224345096177, 0.377679418289265, -1.17912511717854, 1.08524916381424, -1.21572208711634], a = 0.2, v = 0.2, t = 0.2)
movej(p[0.439340073688232, -0.104010845479845, 0.377649867270403, -1.17828710028497, 1.079459670058, -1.21239530717274], a = 0.2, v = 0.2, t = 0.2)
movej(p[0.439190529559854, -0.103867176710291, 0.377655070456298, -1.17898902730711, 1.0727639106503, -1.21063603601899], a = 0.2, v = 0.2, t = 0.2)
movej(p[0.439477103199044, -0.103855475907625, 0.377800443937505, -1.18820941190983, 1.06857228118802, -1.2168819084673], a = 0.2, v = 0.2, t = 0.2)
movej(p[0.440306094450174, -0.103857055649683, 0.37795806963049, -1.19483930123154, 1.06913708000419, -1.22379658826627], a = 0.2, v = 0.2, t = 0.2)
movej(p[0.441415630703989, -0.103759206133889, 0.378108538105029, -1.19933242988775, 1.07597230876944, -1.21724795818905], a = 0.2, v = 0.2, t = 0.2)
movej(p[0.442413213426757, -0.103774035309086, 0.378286359905271, -1.19515713599271, 1.08856014711812, -1.19642564441869], a = 0.2, v = 0.2, t = 0.2)
movej(p[0.442972492341378, -0.103805301197173, 0.378393522554414, -1.19038887210951, 1.09790011579693, -1.18627773522003], a = 0.2, v = 0.2, t = 0.2)
movej(p[0.443287997740033, -0.10382000478655, 0.378361295006446, -1.18722718929756, 1.10499143582568, -1.18126713234171], a = 0.2, v = 0.2, t = 0.2)
movej(p[0.443355579182964, -0.103905006439019, 0.378292220097478, -1.18713987843168, 1.10552209099597, -1.18214768180619], a = 0.2, v = 0.2, t = 0.2)
movej(p[0.443361233931527, -0.104071247415905, 0.37830129492103, -1.19361225182876, 1.10436568110905, -1.18936467297052], a = 0.2, v = 0.2, t = 0.2)
movej(p[0.443314167959152, -0.104142346275576, 0.378275130362982, -1.19665262408178, 1.10386850631382, -1.19699848871809], a = 0.2, v = 0.2, t = 0.2)
movej(p[0.443185301114941, -0.104141173960634, 0.378158401206685, -1.19580008801619, 1.10501409018636, -1.19468553759252], a = 0.2, v = 0.2, t = 0.2)
movej(p[0.442755860115111, -0.104284598138765, 0.378067219364953, -1.18732633480539, 1.10709614608036, -1.18718650069271], a = 0.2, v = 0.2, t = 0.2)
movej(p[0.442046884044705, -0.104352485782349, 0.377955932730349, -1.18216340289715, 1.10314665316605, -1.19704837232335], a = 0.2, v = 0.2, t = 0.2)
movej(p[0.441301734782359, -0.104284418155216, 0.377843635378817, -1.1786833731347, 1.09786502430346, -1.20406342186577], a = 0.2, v = 0.2, t = 0.2)
movej(p[0.440530880345532, -0.104168167790787, 0.377758899159913, -1.17605532386034, 1.09151454848543, -1.20675581766041], a = 0.2, v = 0.2, t = 0.2)
movej(p[0.439806771605503, -0.104192587336194, 0.377782822013329, -1.17723203699567, 1.0846677496683, -1.20907028665659], a = 0.2, v = 0.2, t = 0.2)
movej(p[0.439300956578606, -0.104092840699495, 0.377771622646539, -1.17596160197915, 1.08003371649608, -1.20866456838584], a = 0.2, v = 0.2, t = 0.2)
movej(p[0.439213769300092, -0.103910980388262, 0.377809276589025, -1.18160975354708, 1.07350483086126, -1.21090091426576], a = 0.2, v = 0.2, t = 0.2)
movej(p[0.439645189420812, -0.103871703873867, 0.377947525884662, -1.1782510432191, 1.0739375324518, -1.1980193445504], a = 0.2, v = 0.2, t = 0.2)
movej(p[0.440443138632324, -0.103852188486504, 0.378128819360286, -1.18295399543711, 1.07544036950687, -1.2041593140097], a = 0.2, v = 0.2, t = 0.2)
movej(p[0.441590877070178, -0.103727646426231, 0.37822420437535, -1.19230001134739, 1.08047887252999, -1.20370277658656], a = 0.2, v = 0.2, t = 0.2)
movej(p[0.442521294163641, -0.103645701078922, 0.378309545490939, -1.20034926221378, 1.08759311238572, -1.20341178924484], a = 0.2, v = 0.2, t = 0.2)
movej(p[0.44305423031153, -0.103810362590892, 0.378443097101181, -1.20487092350555, 1.09154590448085, -1.20088589710989], a = 0.2, v = 0.2, t = 0.2)
movej(p[0.443261366923553, -0.103874872105637, 0.378420563051038, -1.19891990329689, 1.09735530222049, -1.19655142745891], a = 0.2, v = 0.2, t = 0.2)
movej(p[0.443373822333187, -0.10392173012828, 0.37835987932292, -1.19943722239736, 1.09916221460361, -1.19745102439484], a = 0.2, v = 0.2, t = 0.2)
movej(p[0.443374796596536, -0.103984834079399, 0.378326855662249, -1.19918903287507, 1.10124557834185, -1.19443522826533], a = 0.2, v = 0.2, t = 0.2)
movej(p[0.443272540614852, -0.104099202667163, 0.378312807853073, -1.20015300611415, 1.10241778463291, -1.19731082140375], a = 0.2, v = 0.2, t = 0.2)
movej(p[0.442987837956094, -0.10413532644558, 0.378157768644389, -1.19559788081141, 1.10394014320837, -1.19565466620217], a = 0.2, v = 0.2, t = 0.2)
movej(p[0.442394254132275, -0.104245183320736, 0.378035176545211, -1.19177652980924, 1.10230813268435, -1.19854009726551], a = 0.2, v = 0.2, t = 0.2)
movej(p[0.441559701166994, -0.104403244019346, 0.377988207834397, -1.17988611987079, 1.10081192280074, -1.19585580222694], a = 0.2, v = 0.2, t = 0.2)
movej(p[0.440828129245293, -0.104344475109652, 0.377951871913704, -1.17743544810904, 1.09457917170947, -1.20573642635196], a = 0.2, v = 0.2, t = 0.2)
movej(p[0.440349172230297, -0.104149628293386, 0.377911972798708, -1.1763081097561, 1.089572900185, -1.2062469365851], a = 0.2, v = 0.2, t = 0.2)
movej(p[0.44038127521598, -0.104113342621711, 0.378019647806213, -1.18166622567888, 1.0846061970557, -1.20670074011918], a = 0.2, v = 0.2, t = 0.2)
movej(p[0.440789802564955, -0.104140906672917, 0.378220637957764, -1.18094327631242, 1.08431921332523, -1.20399836968886], a = 0.2, v = 0.2, t = 0.2)
movej(p[0.44171877378046, -0.104034570135124, 0.378335993101535, -1.17795242773245, 1.09007160567941, -1.19347152421976], a = 0.2, v = 0.2, t = 0.2)
movej(p[0.442554312746012, -0.10395590339099, 0.378420521635247, -1.17596962837041, 1.0973898747505, -1.1814239877155], a = 0.2, v = 0.2, t = 0.2)
movej(p[0.443175657422572, -0.10398832579715, 0.378490932711175, -1.18194107533551, 1.1014588050642, -1.17878322336027], a = 0.2, v = 0.2, t = 0.2)
movej(p[0.443418126968972, -0.104057036379517, 0.378510214184227, -1.18599970282068, 1.10413616195823, -1.18022509257423], a = 0.2, v = 0.2, t = 0.2)
movej(p[0.443515870113246, -0.104026599430458, 0.378429670297559, -1.19030536197733, 1.10484378504149, -1.18276125518013], a = 0.2, v = 0.2, t = 0.2)
movej(p[0.443480632033513, -0.104145682653979, 0.378388378053582, -1.18742073928132, 1.10652860842034, -1.17489739065696], a = 0.2, v = 0.2, t = 0.2)
movej(p[0.443117802338638, -0.104259991306793, 0.378281946726388, -1.1840927441253, 1.10501975942907, -1.18293156168447], a = 0.2, v = 0.2, t = 0.2)
movej(p[0.44251660715712, -0.104313744658055, 0.378126620815323, -1.18388190497874, 1.10142235289149, -1.19261986704419], a = 0.2, v = 0.2, t = 0.2)
movej(p[0.44151208855376, -0.104329767445034, 0.377963319510055, -1.18074313790942, 1.09763076578389, -1.19917452331713], a = 0.2, v = 0.2, t = 0.2)
movej(p[0.440440685635839, -0.104422687152829, 0.377955552021801, -1.18345181065746, 1.08963343788643, -1.20815241804406], a = 0.2, v = 0.2, t = 0.2)
movej(p[0.439539121823505, -0.104329664411827, 0.37792385785286, -1.17971130645953, 1.0822389121305, -1.21263122241117], a = 0.2, v = 0.2, t = 0.2)
movej(p[0.438993978698274, -0.104116013871475, 0.377862281123316, -1.18025105989465, 1.07446194729735, -1.21362025921045], a = 0.2, v = 0.2, t = 0.2)
movej(p[0.438787284336369, -0.104041731683683, 0.377879854220893, -1.17673736918803, 1.07057199466844, -1.20508149043144], a = 0.2, v = 0.2, t = 0.2)
movej(p[0.438976491469663, -0.104094731519831, 0.378013396299367, -1.17859564763525, 1.06888990001482, -1.20655359159965], a = 0.2, v = 0.2, t = 0.2)
movej(p[0.439743462593611, -0.104053591057115, 0.378164314693825, -1.18511350829069, 1.07043503984758, -1.20777457561399], a = 0.2, v = 0.2, t = 0.2)
movej(p[0.440787539845115, -0.103907553301957, 0.378265351952231, -1.18988008024585, 1.07471382352505, -1.20717535813504], a = 0.2, v = 0.2, t = 0.2)
movej(p[0.441863825724331, -0.103886393829555, 0.378401476966288, -1.19420667924573, 1.08107491914088, -1.20269786727404], a = 0.2, v = 0.2, t = 0.2)
movej(p[0.442684543644569, -0.10381318124421, 0.378412565443922, -1.18940954340801, 1.09036918080553, -1.19309643411521], a = 0.2, v = 0.2, t = 0.2)
movej(p[0.443250746247472, -0.103770407697419, 0.378399369198174, -1.19303221308804, 1.09678661172228, -1.1912952361745], a = 0.2, v = 0.2, t = 0.2)
movej(p[0.443422566483453, -0.103866546943451, 0.378371397314364, -1.19078193047868, 1.10226636519009, -1.18489727078229], a = 0.2, v = 0.2, t = 0.2)
movej(p[0.443286390094028, -0.103985679598, 0.378348648780717, -1.19572840142067, 1.10309023697832, -1.19704465783686], a = 0.2, v = 0.2, t = 0.2)
movej(p[0.442868867841093, -0.104081696555277, 0.378200133384478, -1.19681166093356, 1.10190425645301, -1.20303842440246], a = 0.2, v = 0.2, t = 0.2)
movej(p[0.442028324135775, -0.104174826887045, 0.378069099782089, -1.1946565603811, 1.10076430164756, -1.20512830560669], a = 0.2, v = 0.2, t = 0.2)
movej(p[0.440906555351718, -0.104391894076926, 0.378024088143691, -1.18742509195789, 1.09605784745307, -1.20507287119536], a = 0.2, v = 0.2, t = 0.2)
movej(p[0.439724273827207, -0.104347641803866, 0.377926322766746, -1.17850709992042, 1.09001760980729, -1.20432001948258], a = 0.2, v = 0.2, t = 0.2)
movej(p[0.4387312071987, -0.104204367803996, 0.377832051863992, -1.17958388760614, 1.07754932255956, -1.21019708688281], a = 0.2, v = 0.2, t = 0.2)
movej(p[0.438189202408437, -0.104102433213046, 0.377825460086996, -1.18389330357573, 1.06781053865691, -1.21059377884246], a = 0.2, v = 0.2, t = 0.2)
movej(p[0.438111218193994, -0.104099857585614, 0.377919253353626, -1.19255613707962, 1.05806597393763, -1.22530802525948], a = 0.2, v = 0.2, t = 0.2)
movej(p[0.438887323074392, -0.104005563169166, 0.37800467483799, -1.19542572784635, 1.05921108156285, -1.22065396825034], a = 0.2, v = 0.2, t = 0.2)
movej(p[0.440047568451035, -0.103890014920751, 0.378137832305005, -1.19685841566206, 1.06346077325984, -1.21633991667278], a = 0.2, v = 0.2, t = 0.2)
movej(p[0.441295164175301, -0.103840924366113, 0.378304946921197, -1.19142410216898, 1.07491448290306, -1.20211150343929], a = 0.2, v = 0.2, t = 0.2)
movej(p[0.442301377371565, -0.103724531310101, 0.378374149504584, -1.19738598394914, 1.08395701932053, -1.20807299597355], a = 0.2, v = 0.2, t = 0.2)
movej(p[0.442997819004243, -0.103664031174644, 0.378348151720704, -1.19868606747249, 1.09401658076118, -1.20094841956928], a = 0.2, v = 0.2, t = 0.2)
movej(p[0.443344072196013, -0.103767915383061, 0.378362964617101, -1.20416375913571, 1.09979570178454, -1.19663038129645], a = 0.2, v = 0.2, t = 0.2)
movej(p[0.443377573005173, -0.103906789237852, 0.378371378512148, -1.19766189007044, 1.10373650602479, -1.19029914793564], a = 0.2, v = 0.2, t = 0.2)
movej(p[0.443395512264144, -0.103933592161201, 0.378308746180341, -1.19233442551927, 1.10776462785826, -1.1865067178422], a = 0.2, v = 0.2, t = 0.2)
movej(p[0.443147637036882, -0.104053344155745, 0.378245945910267, -1.19015526412363, 1.10725743398295, -1.18705979932149], a = 0.2, v = 0.2, t = 0.2)
movej(p[0.442529588286904, -0.104230298080636, 0.378185671497678, -1.18853114916356, 1.10625495031762, -1.19428081489687], a = 0.2, v = 0.2, t = 0.2)
movej(p[0.441581137538688, -0.104289668722177, 0.378037341953312, -1.19267056233884, 1.0985275490529, -1.21687241294152], a = 0.2, v = 0.2, t = 0.2)
movej(p[0.440504901096924, -0.104209532666633, 0.377885042246081, -1.19150008314215, 1.09028292313183, -1.22714166296913], a = 0.2, v = 0.2, t = 0.2)
movej(p[0.439496628475383, -0.104217729217603, 0.377876171772506, -1.18593233226863, 1.08411465545398, -1.21778777273534], a = 0.2, v = 0.2, t = 0.2)
movej(p[0.438657577165621, -0.104184143935888, 0.377922511398523, -1.18289148179722, 1.07324765000746, -1.22027311811519], a = 0.2, v = 0.2, t = 0.2)
movej(p[0.438425404654111, -0.104020598838216, 0.377930604357837, -1.18552221891055, 1.06539871408106, -1.22053703309366], a = 0.2, v = 0.2, t = 0.2)
movej(p[0.438786765672772, -0.103866917254863, 0.377956561616817, -1.18620136458361, 1.06093490766266, -1.21766916742024], a = 0.2, v = 0.2, t = 0.2)
movej(p[0.439662170179446, -0.103860362338625, 0.378114637296691, -1.19211254016386, 1.06106197688958, -1.21688472393996], a = 0.2, v = 0.2, t = 0.2)
movej(p[0.440791781088862, -0.103778240133272, 0.378218036648732, -1.19124679935014, 1.06950986603935, -1.21115697083118], a = 0.2, v = 0.2, t = 0.2)
movej(p[0.442006059252418, -0.103618943448304, 0.378269642679502, -1.19713724173919, 1.07968915640542, -1.20758624678549], a = 0.2, v = 0.2, t = 0.2)
movej(p[0.442929353316934, -0.103627836703176, 0.378328501822573, -1.19096655356912, 1.09315167605547, -1.18819841672808], a = 0.2, v = 0.2, t = 0.2)
movej(p[0.443276009694031, -0.103727255074811, 0.378392712683021, -1.19783675252834, 1.09886088698328, -1.19552473687055], a = 0.2, v = 0.2, t = 0.2)
movej(p[0.443441668403955, -0.103773362149367, 0.378335172730369, -1.20236814796261, 1.10024633499639, -1.20316994563971], a = 0.2, v = 0.2, t = 0.2)
movej(p[0.443366364252736, -0.10377256546019, 0.378244893584181, -1.20835158605096, 1.09989545168798, -1.21149094998611], a = 0.2, v = 0.2, t = 0.2)
movej(p[0.443055665012461, -0.104045387425858, 0.378212887821788, -1.19850087072323, 1.10092906407864, -1.20186276370813], a = 0.2, v = 0.2, t = 0.2)
movej(p[0.442396247748608, -0.104149300497077, 0.3780895929501, -1.18945499557216, 1.10000946298717, -1.20553505228058], a = 0.2, v = 0.2, t = 0.2)
movej(p[0.441478716970391, -0.104154852639956, 0.377899743517041, -1.18410143896073, 1.09572043228186, -1.20957864652626], a = 0.2, v = 0.2, t = 0.2)
movej(p[0.440466778227306, -0.104096138593834, 0.377810282189459, -1.18248711280352, 1.08869107585696, -1.21559764601341], a = 0.2, v = 0.2, t = 0.2)
movej(p[0.439511044398462, -0.104056912391617, 0.377837740240848, -1.17827506976901, 1.08209986102526, -1.21837319066488], a = 0.2, v = 0.2, t = 0.2)
movej(p[0.438957316748073, -0.103871220653643, 0.377830355133733, -1.18142071494918, 1.07437055758513, -1.22218827689627], a = 0.2, v = 0.2, t = 0.2)
movej(p[0.438826504525875, -0.103720634101165, 0.377834939731459, -1.18477626486219, 1.06700294576275, -1.22331086984874], a = 0.2, v = 0.2, t = 0.2)
movej(p[0.439131684988943, -0.103775493623337, 0.377930934011957, -1.18067086005643, 1.06631886299032, -1.20860980067868], a = 0.2, v = 0.2, t = 0.2)
movej(p[0.439848517144788, -0.103801633685604, 0.378075807705882, -1.18257756939831, 1.06756899441038, -1.20843741793034], a = 0.2, v = 0.2, t = 0.2)
movej(p[0.440845634401846, -0.103733261487843, 0.378200002646403, -1.18609212504988, 1.0739479531419, -1.20501072122652], a = 0.2, v = 0.2, t = 0.2)
movej(p[0.441884861619704, -0.10369790702417, 0.378323744926912, -1.19273891165963, 1.08131513822765, -1.20264275993527], a = 0.2, v = 0.2, t = 0.2)
movej(p[0.442592123823645, -0.103748946753306, 0.378408478891988, -1.19186682804041, 1.08921618059128, -1.19718953348736], a = 0.2, v = 0.2, t = 0.2)
movej(p[0.443100066690795, -0.103720588124733, 0.378378922124915, -1.19202625045281, 1.09575514107715, -1.19220005645005], a = 0.2, v = 0.2, t = 0.2)
movej(p[0.443289496445368, -0.103769016914982, 0.378333942675936, -1.19702761324244, 1.09758987944177, -1.19667841390409], a = 0.2, v = 0.2, t = 0.2)
movej(p[0.443249857238248, -0.103887604406723, 0.378294736638257, -1.19949639138629, 1.09846605861681, -1.20128052012367], a = 0.2, v = 0.2, t = 0.2)
movej(p[0.442914019633576, -0.104006649680557, 0.378147244899622, -1.20168286750836, 1.09583720978585, -1.21761484470698], a = 0.2, v = 0.2, t = 0.2)
movej(p[0.442294636936619, -0.104050961108258, 0.377960471272239, -1.20038368265468, 1.0922586896973, -1.22648035544372], a = 0.2, v = 0.2, t = 0.2)
movej(p[0.441404018410124, -0.10415876450281, 0.377840026386139, -1.19633988144991, 1.08898778685446, -1.22749982693587], a = 0.2, v = 0.2, t = 0.2)
movej(p[0.440414175042516, -0.104169584078882, 0.377808510276368, -1.18819470965995, 1.08471362130622, -1.23052429405055], a = 0.2, v = 0.2, t = 0.2)
movej(p[0.439733066220664, -0.10396337919015, 0.377738449139299, -1.18491490504219, 1.07993778220201, -1.23006533345838], a = 0.2, v = 0.2, t = 0.2)
movej(p[0.439247388591166, -0.103767837508775, 0.377704544231175, -1.18074296374965, 1.07591322491924, -1.22420568610313], a = 0.2, v = 0.2, t = 0.2)
movej(p[0.439095109936575, -0.103731916440713, 0.377801380775028, -1.18598875905518, 1.0703757902273, -1.22326480754945], a = 0.2, v = 0.2, t = 0.2)
movej(p[0.439451646892825, -0.103769431461634, 0.377922745143908, -1.19025269049427, 1.06774753708712, -1.22779781077645], a = 0.2, v = 0.2, t = 0.2)
movej(p[0.440388082686214, -0.103671870147598, 0.378042627143654, -1.19377108882651, 1.07112891368884, -1.22339803550718], a = 0.2, v = 0.2, t = 0.2)
movej(p[0.441666309983148, -0.103674700030374, 0.378201254905842, -1.18663771597628, 1.08131874461033, -1.20204543936505], a = 0.2, v = 0.2, t = 0.2)
movej(p[0.44253451943015, -0.103661638278236, 0.378299559716667, -1.18440797980943, 1.09071963324665, -1.1958424094324], a = 0.2, v = 0.2, t = 0.2)
movej(p[0.44319521699251, -0.10365482777516, 0.378326347415809, -1.19334590984757, 1.0957837967123, -1.20019548269821], a = 0.2, v = 0.2, t = 0.2)
movej(p[0.443385226270435, -0.103668802397367, 0.378271857117906, -1.20029882304415, 1.09913339801647, -1.20479907600416], a = 0.2, v = 0.2, t = 0.2)
movej(p[0.443474909514722, -0.103876105199864, 0.378298673336806, -1.19984835450752, 1.10269036887666, -1.19533794171941], a = 0.2, v = 0.2, t = 0.2)
movej(p[0.443303661206595, -0.104012442776668, 0.378218328344337, -1.19028154505631, 1.10536607010633, -1.18854931080367], a = 0.2, v = 0.2, t = 0.2)
movej(p[0.44287048689064, -0.104078925860249, 0.378051752177691, -1.18673655463256, 1.10448436554531, -1.18955643967726], a = 0.2, v = 0.2, t = 0.2)
movej(p[0.442052093149772, -0.104194263947036, 0.377916807924222, -1.1825903687232, 1.10103080248214, -1.19315293831821], a = 0.2, v = 0.2, t = 0.2)
movej(p[0.441059174533537, -0.104253888428375, 0.37783103216215, -1.18174318815384, 1.0946360973159, -1.20944369825266], a = 0.2, v = 0.2, t = 0.2)
movej(p[0.440192498337172, -0.104129483673381, 0.377732466231981, -1.18380138080196, 1.0858941190275, -1.22091270439872], a = 0.2, v = 0.2, t = 0.2)
movej(p[0.43949764406407, -0.103895467620311, 0.377668043119526, -1.18882073876487, 1.07606742181848, -1.23165929326019], a = 0.2, v = 0.2, t = 0.2)
movej(p[0.438952271774927, -0.103915610432161, 0.377730836296274, -1.18483174863681, 1.072583511132, -1.22107470029615], a = 0.2, v = 0.2, t = 0.2)
movej(p[0.438694836386922, -0.103893341132882, 0.377791735558278, -1.18384075657173, 1.06798691071639, -1.22170285968084], a = 0.2, v = 0.2, t = 0.2)
movej(p[0.439062594677635, -0.103798919589664, 0.377818189584223, -1.18539399802251, 1.0653969598758, -1.21969275895722], a = 0.2, v = 0.2, t = 0.2)
movej(p[0.439974035271223, -0.103720718253066, 0.377924195083672, -1.19338032757843, 1.06427777852115, -1.22416056646553], a = 0.2, v = 0.2, t = 0.2)
movej(p[0.441066161076331, -0.103721901669573, 0.378107450267344, -1.20032565406099, 1.0691143986853, -1.22893415380096], a = 0.2, v = 0.2, t = 0.2)
movej(p[0.442167912849847, -0.103654417619168, 0.37820746953497, -1.20233786860979, 1.08048093665978, -1.22110507656185], a = 0.2, v = 0.2, t = 0.2)
movej(p[0.442918541617827, -0.103636483543964, 0.378254496805745, -1.20439497412835, 1.08936571640155, -1.21468058405086], a = 0.2, v = 0.2, t = 0.2)
movej(p[0.443284116206396, -0.103777673456598, 0.3782837327205, -1.19396795940734, 1.09904774735425, -1.19458727107263], a = 0.2, v = 0.2, t = 0.2)
movej(p[0.443362996658313, -0.103863535069215, 0.378258490623038, -1.19744149519287, 1.10064139947339, -1.20523596855081], a = 0.2, v = 0.2, t = 0.2)
movej(p[0.443397749844423, -0.103877755616702, 0.378200047201814, -1.20057113316587, 1.10096800444618, -1.20882191779477], a = 0.2, v = 0.2, t = 0.2)
movej(p[0.44330625757329, -0.103974900199923, 0.378133875829802, -1.19828961817297, 1.1017188350337, -1.20363169751897], a = 0.2, v = 0.2, t = 0.2)
movej(p[0.442817453632837, -0.104180414694559, 0.378072403034263, -1.19133340448239, 1.10082479658454, -1.20391120884477], a = 0.2, v = 0.2, t = 0.2)
movej(p[0.44213262056696, -0.10417622027489, 0.377877569848626, -1.18239509734205, 1.09958869659069, -1.2060954643009], a = 0.2, v = 0.2, t = 0.2)
movej(p[0.441172112069803, -0.104107718829316, 0.377739919345746, -1.18113471545157, 1.09405134513614, -1.21461834515477], a = 0.2, v = 0.2, t = 0.2)
movej(p[0.440210652741405, -0.104058482435587, 0.377705782852534, -1.18293092710271, 1.08745395690384, -1.22000727893262], a = 0.2, v = 0.2, t = 0.2)
movej(p[0.439416037699515, -0.103969309766344, 0.377697795519585, -1.18214355721935, 1.08023267328682, -1.22558982325789], a = 0.2, v = 0.2, t = 0.2)
movej(p[0.438923138479473, -0.103762136111981, 0.377644773066372, -1.18383503137336, 1.07459616080907, -1.22343676675527], a = 0.2, v = 0.2, t = 0.2)
movej(p[0.438983959301902, -0.10370628796338, 0.377705154738732, -1.18061633082162, 1.07170807802546, -1.20950715859051], a = 0.2, v = 0.2, t = 0.2)
movej(p[0.439480373633683, -0.10374851209993, 0.37788362724052, -1.18354278489438, 1.07091382999552, -1.20791402119712], a = 0.2, v = 0.2, t = 0.2)
movej(p[0.440592721958385, -0.103691622526394, 0.378034696953421, -1.19207181644391, 1.07277004540435, -1.21682405530308], a = 0.2, v = 0.2, t = 0.2)
movej(p[0.441832500681313, -0.103545892994191, 0.378136755096749, -1.19886040225677, 1.08050608755669, -1.21796917250048], a = 0.2, v = 0.2, t = 0.2)
movej(p[0.442890318981234, -0.103612485534824, 0.3782756760987, -1.19872740687892, 1.09087701378251, -1.20496272549199], a = 0.2, v = 0.2, t = 0.2)
movej(p[0.443306360560533, -0.103690647670298, 0.378339195842012, -1.19651474037571, 1.09754535860517, -1.20461959500071], a = 0.2, v = 0.2, t = 0.2)
movej(p[0.443537961336069, -0.103713803324708, 0.378303933552626, -1.19458031304433, 1.10219175253024, -1.20026484655927], a = 0.2, v = 0.2, t = 0.2)
movej(p[0.443515428178696, -0.103763298887507, 0.378229659152878, -1.19323019971483, 1.10360588870992, -1.19770489758211], a = 0.2, v = 0.2, t = 0.2)
movej(p[0.443287198605879, -0.103950373583194, 0.378215930261938, -1.19669821150097, 1.10172011185686, -1.20372097356411], a = 0.2, v = 0.2, t = 0.2)
movej(p[0.442739320612843, -0.10407731468587, 0.378089849681362, -1.1924522786799, 1.10011937890601, -1.2075190304485], a = 0.2, v = 0.2, t = 0.2)
movej(p[0.441794101579454, -0.10409893026381, 0.377925502053723, -1.19018913040518, 1.09622454445981, -1.21542660840261], a = 0.2, v = 0.2, t = 0.2)
movej(p[0.440685300451954, -0.104224944418774, 0.37787278329422, -1.18014092635221, 1.09260652574005, -1.20753892357652], a = 0.2, v = 0.2, t = 0.2)
movej(p[0.439567962572958, -0.104238873563319, 0.377883357909672, -1.18372497670385, 1.08141046231373, -1.22350068262447], a = 0.2, v = 0.2, t = 0.2)
movej(p[0.438798963231807, -0.104086331314011, 0.377854853213394, -1.18894118736601, 1.07027482103271, -1.23074642526979], a = 0.2, v = 0.2, t = 0.2)
movej(p[0.438369860460083, -0.103967742853871, 0.377822906668587, -1.18773364279297, 1.06335768069137, -1.22511128319399], a = 0.2, v = 0.2, t = 0.2)
movej(p[0.438330901871454, -0.104074701814875, 0.377973675534926, -1.18268861661014, 1.06203273694174, -1.21314615939782], a = 0.2, v = 0.2, t = 0.2)
movej(p[0.439040669428355, -0.104027594340251, 0.378090711841092, -1.17696676564035, 1.06528827561404, -1.20569051680983], a = 0.2, v = 0.2, t = 0.2)
movej(p[0.440217339313598, -0.103863836896953, 0.378204280964252, -1.18267039827931, 1.06941743115878, -1.20757640697404], a = 0.2, v = 0.2, t = 0.2)
movej(p[0.441610310905211, -0.103729915091241, 0.378305056053353, -1.18371996848233, 1.0804561498355, -1.196786472067], a = 0.2, v = 0.2, t = 0.2)
movej(p[0.442579251937558, -0.10374910257832, 0.378406460575259, -1.18656601204594, 1.08989368223863, -1.19465114252828], a = 0.2, v = 0.2, t = 0.2)
movej(p[0.443167961526752, -0.103721594665441, 0.378364257922816, -1.18939585143419, 1.09831893423349, -1.19080115898735], a = 0.2, v = 0.2, t = 0.2)
movej(p[0.443425931247212, -0.103759331372386, 0.378298078283089, -1.19118862005984, 1.10233538966051, -1.19029217191675], a = 0.2, v = 0.2, t = 0.2)
movej(p[0.443404708401238, -0.103890312999848, 0.3782510164319, -1.18882741677894, 1.10569719622622, -1.18709692386347], a = 0.2, v = 0.2, t = 0.2)
movej(p[0.443136249164221, -0.104016779675814, 0.378190811623692, -1.19203974436612, 1.10405671431849, -1.19952172914004], a = 0.2, v = 0.2, t = 0.2)
movej(p[0.442567074736518, -0.1040586679693, 0.378037724844191, -1.19020572572813, 1.10250825109637, -1.20355574799053], a = 0.2, v = 0.2, t = 0.2)
movej(p[0.441725615069736, -0.104187138567666, 0.37798595343185, -1.19015884654364, 1.09833107860771, -1.20850783348981], a = 0.2, v = 0.2, t = 0.2)
movej(p[0.440726129381925, -0.104242939583411, 0.377943766373381, -1.18427917108225, 1.09249356350217, -1.21614123291171], a = 0.2, v = 0.2, t = 0.2)
movej(p[0.439939416771067, -0.104090044422201, 0.377877762441717, -1.18520655695219, 1.08408814087516, -1.22607739302549], a = 0.2, v = 0.2, t = 0.2)
movej(p[0.439292845897916, -0.10390708172991, 0.377783787900069, -1.18293358987437, 1.07649831826841, -1.22489412097289], a = 0.2, v = 0.2, t = 0.2)
movej(p[0.438917079328762, -0.103882776965279, 0.377816215680118, -1.18722765743391, 1.06894134625131, -1.22458680640893], a = 0.2, v = 0.2, t = 0.2)
movej(p[0.438785640563618, -0.103907484281331, 0.377850361182765, -1.1837681277113, 1.06632945623881, -1.22235273326696], a = 0.2, v = 0.2, t = 0.2)
movej(p[0.439243143040081, -0.103829522213095, 0.377885955914782, -1.18966569505967, 1.06518541150287, -1.22520565893637], a = 0.2, v = 0.2, t = 0.2)
movej(p[0.44007928091274, -0.103800851035322, 0.377981913225964, -1.1860218467816, 1.07045954599267, -1.21222774927374], a = 0.2, v = 0.2, t = 0.2)
movej(p[0.44103134396368, -0.103843541824431, 0.378181654530578, -1.19490622047673, 1.07360282161672, -1.21958523818086], a = 0.2, v = 0.2, t = 0.2)
movej(p[0.442011058862435, -0.103793189698355, 0.378274644229096, -1.1954472301149, 1.08273767816161, -1.21197000393577], a = 0.2, v = 0.2, t = 0.2)
movej(p[0.442743539084217, -0.103743309048028, 0.378289957470261, -1.19848099999807, 1.09097433899065, -1.20681200142564], a = 0.2, v = 0.2, t = 0.2)
movej(p[0.44318994320077, -0.103871396093944, 0.378333351732584, -1.19105852113553, 1.1001214410808, -1.18856392099306], a = 0.2, v = 0.2, t = 0.2)
movej(p[0.443285463573745, -0.103993327986588, 0.378303636825504, -1.19377523415539, 1.1011708199132, -1.1985233136344], a = 0.2, v = 0.2, t = 0.2)
movej(p[0.443202130936931, -0.104011334084885, 0.378227647554901, -1.19510049539147, 1.10220360634143, -1.20223608481692], a = 0.2, v = 0.2, t = 0.2)
movej(p[0.442821435229122, -0.104075999275394, 0.378119471735453, -1.1997656700439, 1.09902422391816, -1.21071242079463], a = 0.2, v = 0.2, t = 0.2)
movej(p[0.442049032273909, -0.10429822253577, 0.378123968870753, -1.19230738244296, 1.09910438217635, -1.20740114857379], a = 0.2, v = 0.2, t = 0.2)
movej(p[0.441206515632696, -0.104307807002013, 0.378004855770775, -1.1829826713031, 1.09662361860896, -1.2107073864114], a = 0.2, v = 0.2, t = 0.2)
movej(p[0.440389165977354, -0.104141200756953, 0.377864835177575, -1.17617727856858, 1.09279420302487, -1.21130565656461], a = 0.2, v = 0.2, t = 0.2)
movej(p[0.439666643949403, -0.104061012299869, 0.377842468361425, -1.17563035798451, 1.0856824085187, -1.20841417705893], a = 0.2, v = 0.2, t = 0.2)
movej(p[0.43902649389347, -0.104057671822499, 0.377900069236774, -1.17668872337314, 1.07699488123208, -1.21380828387427], a = 0.2, v = 0.2, t = 0.2)
movej(p[0.438923397690901, -0.103926342684429, 0.377917980605386, -1.18163800748324, 1.07111094259144, -1.21713723098001], a = 0.2, v = 0.2, t = 0.2)
movej(p[0.439369835459715, -0.10379891220378, 0.377958190076622, -1.18393655406215, 1.06851630356157, -1.21720809481334], a = 0.2, v = 0.2, t = 0.2)
movej(p[0.440322882330149, -0.103723468266681, 0.378072809923118, -1.18979539820063, 1.07042024721972, -1.21767413769434], a = 0.2, v = 0.2, t = 0.2)
movej(p[0.441392248606032, -0.103649294646878, 0.378169434017059, -1.1935362005203, 1.07637572830322, -1.21993256951723], a = 0.2, v = 0.2, t = 0.2)
movej(p[0.44247445341088, -0.103506727996883, 0.378157691629119, -1.19441403074008, 1.08720492777259, -1.20782133043877], a = 0.2, v = 0.2, t = 0.2)
movej(p[0.443168161951517, -0.103577826052907, 0.378214007628623, -1.19557610653002, 1.09597928138518, -1.19554011262186], a = 0.2, v = 0.2, t = 0.2)
movej(p[0.44341337101261, -0.103737081151424, 0.378287431683498, -1.19546769823985, 1.10264473652006, -1.19243989658665], a = 0.2, v = 0.2, t = 0.2)
movej(p[0.443489890081402, -0.103809116414167, 0.378262914937614, -1.20533440249724, 1.1011207761698, -1.20854828699621], a = 0.2, v = 0.2, t = 0.2)
movej(p[0.443334140457649, -0.103839528252138, 0.378150473435438, -1.20456540928673, 1.1005529169776, -1.20945868028825], a = 0.2, v = 0.2, t = 0.2)
movej(p[0.442964921111034, -0.104085870357888, 0.378100340820099, -1.2006022531034, 1.09838377813123, -1.20529274033792], a = 0.2, v = 0.2, t = 0.2)
movej(p[0.442188351443744, -0.104227532755313, 0.378027358009793, -1.1897995704484, 1.09679341599706, -1.20893104801697], a = 0.2, v = 0.2, t = 0.2)
movej(p[0.441330989666617, -0.10417705169844, 0.377895322801916, -1.18496836423298, 1.09406179491148, -1.21354964001083], a = 0.2, v = 0.2, t = 0.2)
movej(p[0.44038605544745, -0.104026929396793, 0.3778054561396, -1.1818180419967, 1.08835984668144, -1.21716405244207], a = 0.2, v = 0.2, t = 0.2)
movej(p[0.439518501122306, -0.10404650143219, 0.377911274306079, -1.18617869966186, 1.08061379244119, -1.22345735642188], a = 0.2, v = 0.2, t = 0.2)
movej(p[0.438898071644812, -0.103944723287192, 0.377946424713661, -1.1861536668492, 1.07209902479933, -1.22802565827361], a = 0.2, v = 0.2, t = 0.2)
movej(p[0.438873524878764, -0.103764725951332, 0.377958249058207, -1.18994215599142, 1.06536256492882, -1.22849996249677], a = 0.2, v = 0.2, t = 0.2)
movej(p[0.439439853873627, -0.10366863571742, 0.378023102460764, -1.18691657955399, 1.06628589259228, -1.21703634051852], a = 0.2, v = 0.2, t = 0.2)
movej(p[0.440357437171629, -0.103683258088826, 0.378166223123081, -1.19219921856701, 1.068339278526, -1.2212616077686], a = 0.2, v = 0.2, t = 0.2)
movej(p[0.441571291957115, -0.103596389285837, 0.378246869425667, -1.19242628979107, 1.0800660904317, -1.21424717591195], a = 0.2, v = 0.2, t = 0.2)
movej(p[0.442579816388618, -0.103546810617985, 0.378292542125996, -1.19512068676032, 1.08860004147235, -1.2096988583383], a = 0.2, v = 0.2, t = 0.2)
movej(p[0.443212744427981, -0.103634542147641, 0.378377387041229, -1.18670723721222, 1.10158006101519, -1.19001520746345], a = 0.2, v = 0.2, t = 0.2)
movej(p[0.44347817916278, -0.103682416254875, 0.378384533986891, -1.1909343339937, 1.10465322998656, -1.2000116459584], a = 0.2, v = 0.2, t = 0.2)
movej(p[0.443592843218672, -0.103690941693289, 0.378322159333264, -1.19451011892963, 1.10603970585066, -1.2037890623258], a = 0.2, v = 0.2, t = 0.2)
movej(p[0.443606319437425, -0.103788173047299, 0.378291191568256, -1.19505272629576, 1.10700635354279, -1.2014760785665], a = 0.2, v = 0.2, t = 0.2)
movej(p[0.443326076271446, -0.104023104261015, 0.378273117538703, -1.18975277714248, 1.10640740646846, -1.20001085541113], a = 0.2, v = 0.2, t = 0.2)
movej(p[0.442801912024489, -0.104070778089537, 0.378123911915529, -1.18617041871278, 1.10444713015914, -1.20684696099575], a = 0.2, v = 0.2, t = 0.2)
movej(p[0.441887953882344, -0.104095445428806, 0.377958646665159, -1.1844583596161, 1.09999614366265, -1.21562197712931], a = 0.2, v = 0.2, t = 0.2)
movej(p[0.440815406029847, -0.104149044886248, 0.377945619068832, -1.18515064010675, 1.09486928173221, -1.22186206035647], a = 0.2, v = 0.2, t = 0.2)
movej(p[0.43991246278947, -0.104124784814439, 0.377999443710708, -1.18076045268411, 1.08951725826026, -1.22271146452141], a = 0.2, v = 0.2, t = 0.2)
movej(p[0.439227300366677, -0.103923954658912, 0.378047505341476, -1.18135236634215, 1.08195147698809, -1.22160850457186], a = 0.2, v = 0.2, t = 0.2)
movej(p[0.438658209369408, -0.103811713108371, 0.378227504558986, -1.18410098491711, 1.07372362556543, -1.21668994052641], a = 0.2, v = 0.2, t = 0.2)
movej(p[0.438133927035123, -0.103835446796811, 0.378490936154255, -1.186857011593, 1.06688507618424, -1.21493855835877], a = 0.2, v = 0.2, t = 0.2)
movej(p[0.438136304245171, -0.103771568841147, 0.378677783999446, -1.19015565450853, 1.06185878304661, -1.22203727778977], a = 0.2, v = 0.2, t = 0.2)
movej(p[0.438852977760702, -0.103561177351179, 0.378710507047672, -1.1925206820139, 1.0599983391447, -1.22474065785068], a = 0.2, v = 0.2, t = 0.2)
movej(p[0.439974864331117, -0.103503089670948, 0.378778830473593, -1.18991169716161, 1.063902123675, -1.21666057523299], a = 0.2, v = 0.2, t = 0.2)
movej(p[0.441002421598035, -0.103479540515644, 0.378864957988871, -1.19140626121942, 1.07033917332849, -1.22213021437153], a = 0.2, v = 0.2, t = 0.2)
movej(p[0.441974179736176, -0.103470004477133, 0.378897626924058, -1.19803950837816, 1.07867415816472, -1.22331569387177], a = 0.2, v = 0.2, t = 0.2)
movej(p[0.44271949172689, -0.103455822783379, 0.378864159509157, -1.201466819068, 1.08802732091599, -1.22121189323348], a = 0.2, v = 0.2, t = 0.2)
movej(p[0.443197156853394, -0.103637508839498, 0.378889769478886, -1.20294695183828, 1.09541056769362, -1.21382606854823], a = 0.2, v = 0.2, t = 0.2)
movej(p[0.44336187654133, -0.103695464842807, 0.378818569684027, -1.19605751960232, 1.1016849668088, -1.20647392498362], a = 0.2, v = 0.2, t = 0.2)
movej(p[0.443462788119379, -0.10368900397817, 0.378705600980424, -1.19773364904948, 1.10378688828042, -1.20818160818851], a = 0.2, v = 0.2, t = 0.2)
movej(p[0.443468673624689, -0.103746507880681, 0.37864238443107, -1.19393642580008, 1.1066993763142, -1.20000448513274], a = 0.2, v = 0.2, t = 0.2)
movej(p[0.443402649605746, -0.103911519917402, 0.378638611144885, -1.19657296351039, 1.10593683741175, -1.20423422620324], a = 0.2, v = 0.2, t = 0.2)
movej(p[0.443169763073267, -0.103974125034917, 0.378519423124006, -1.19432018145844, 1.10695687638354, -1.20394418074357], a = 0.2, v = 0.2, t = 0.2)
movej(p[0.442597393819878, -0.104058806424747, 0.378373427078044, -1.19327375449203, 1.10373820677888, -1.20958113756682], a = 0.2, v = 0.2, t = 0.2)
movej(p[0.441642461117637, -0.104235218694258, 0.3783262455885, -1.18813810227311, 1.10107511352681, -1.20948111535633], a = 0.2, v = 0.2, t = 0.2)
movej(p[0.440664449140057, -0.104231747285819, 0.378299872685088, -1.18777120143861, 1.09252643810489, -1.22552375989616], a = 0.2, v = 0.2, t = 0.2)
movej(p[0.439910931410397, -0.104015351468281, 0.378245916649845, -1.19122421897202, 1.0843772762541, -1.23340228606529], a = 0.2, v = 0.2, t = 0.2)
movej(p[0.439339773371212, -0.10384710470151, 0.378252815321436, -1.19086195559172, 1.07658949608718, -1.23298066436715], a = 0.2, v = 0.2, t = 0.2)
movej(p[0.438976991191731, -0.103858500363465, 0.378361890030918, -1.18698836845376, 1.0730638334239, -1.22222881370983], a = 0.2, v = 0.2, t = 0.2)
movej(p[0.439195043219187, -0.103833799465584, 0.378460021232007, -1.18914400017998, 1.07001927839687, -1.22575638518615], a = 0.2, v = 0.2, t = 0.2)
movej(p[0.43995473010933, -0.103723519870905, 0.37852388565827, -1.19386627234539, 1.06955284806929, -1.22505218385263], a = 0.2, v = 0.2, t = 0.2)
movej(p[0.441076896165312, -0.103725459029858, 0.378668056872329, -1.1973826518918, 1.07328889178801, -1.22114045035755], a = 0.2, v = 0.2, t = 0.2)
movej(p[0.441978712810887, -0.103699072430421, 0.378736929681037, -1.19625084309467, 1.08094298041816, -1.2205786082073], a = 0.2, v = 0.2, t = 0.2)
movej(p[0.442839840134628, -0.10361340053252, 0.378725074971445, -1.2046384193447, 1.08823484432127, -1.22536064732923], a = 0.2, v = 0.2, t = 0.2)
movej(p[0.443288796655438, -0.103583815236637, 0.378649354918282, -1.20404375130098, 1.09653105557776, -1.21722438074878], a = 0.2, v = 0.2, t = 0.2)
movej(p[0.44345004950431, -0.103763713604322, 0.37864876941933, -1.20590261671929, 1.10033071254589, -1.21154616818629], a = 0.2, v = 0.2, t = 0.2)
movej(p[0.443135654329179, -0.103897648607094, 0.378518393622079, -1.19185475465141, 1.10359139702248, -1.20131555148132], a = 0.2, v = 0.2, t = 0.2)
movej(p[0.442440167501986, -0.103936061033199, 0.37829795917483, -1.1883395166509, 1.10034799677073, -1.20742548338757], a = 0.2, v = 0.2, t = 0.2)
movej(p[0.441367425823208, -0.104006122610741, 0.37815663830848, -1.1796980099522, 1.09630936428302, -1.2052850253051], a = 0.2, v = 0.2, t = 0.2)
movej(p[0.440204180855733, -0.104032990927459, 0.378178576706353, -1.18541943808352, 1.08728531798077, -1.22541924424216], a = 0.2, v = 0.2, t = 0.2)
movej(p[0.439358658558048, -0.103845506741992, 0.378208474746704, -1.19229112262981, 1.07822047150591, -1.23678495367347], a = 0.2, v = 0.2, t = 0.2)
movej(p[0.438843868815401, -0.103595519799741, 0.378219076063155, -1.19960774303211, 1.06782865437036, -1.24624668327542], a = 0.2, v = 0.2, t = 0.2)
movej(p[0.438765857925644, -0.103627423023291, 0.378334827754851, -1.1942965263395, 1.06505268565965, -1.22829239675657], a = 0.2, v = 0.2, t = 0.2)
movej(p[0.438996205112314, -0.103675064073636, 0.378425215136294, -1.1916816368237, 1.06336433188652, -1.22854103200955], a = 0.2, v = 0.2, t = 0.2)
movej(p[0.439728836632151, -0.103627812075769, 0.378491686836579, -1.19547048218128, 1.06517756797322, -1.22746044839455], a = 0.2, v = 0.2, t = 0.2)
movej(p[0.440546360466041, -0.103613232017204, 0.378577396244554, -1.19928445519047, 1.06980374175062, -1.22821152001286], a = 0.2, v = 0.2, t = 0.2)
movej(p[0.441203866513756, -0.103744233703364, 0.378694448629583, -1.19547334218198, 1.0774632722348, -1.21780224028524], a = 0.2, v = 0.2, t = 0.2)
movej(p[0.441622681352644, -0.103779476989849, 0.378664723056317, -1.19090209814884, 1.08429040337787, -1.21370926654923], a = 0.2, v = 0.2, t = 0.2)
movej(p[0.442097467235065, -0.103748220636999, 0.378495059980675, -1.21334135623841, 1.07511724218946, -1.23085025389778], a = 0.2, v = 0.2, t = 0.2)
movej(p[0.442203967414208, -0.103756704031873, 0.378380855196389, -1.21922760073147, 1.07735456857834, -1.23601079863751], a = 0.2, v = 0.2, t = 0.2)
movej(p[0.441887552753657, -0.103961658985627, 0.378323760077152, -1.21082603829882, 1.08024635443869, -1.22753156679991], a = 0.2, v = 0.2, t = 0.2)
movej(p[0.441274807474935, -0.103935111684392, 0.378207169454898, -1.20259372696024, 1.07994126186043, -1.23262793851025], a = 0.2, v = 0.2, t = 0.2)
movej(p[0.440513386728248, -0.103722223535722, 0.378064883842746, -1.20006585395504, 1.07668380215073, -1.24045791456835], a = 0.2, v = 0.2, t = 0.2)
movej(p[0.439870103295538, -0.103532225430187, 0.378034715017862, -1.19935556809428, 1.07149037618416, -1.24234004456757], a = 0.2, v = 0.2, t = 0.2)
movej(p[0.439334428729616, -0.10363414901233, 0.378154623555202, -1.1976366416387, 1.06727578915641, -1.23962916947442], a = 0.2, v = 0.2, t = 0.2)
movej(p[0.439528127172901, -0.103651474947355, 0.378229799644117, -1.19268800638625, 1.06565900530482, -1.23130266468227], a = 0.2, v = 0.2, t = 0.2)
movej(p[0.440209275011961, -0.103608111291897, 0.37827128454775, -1.19191714971567, 1.06731719590145, -1.22393578413896], a = 0.2, v = 0.2, t = 0.2)
movej(p[0.441325684829562, -0.103555036879402, 0.378367570361359, -1.19178668949305, 1.0746696483235, -1.21131200342105], a = 0.2, v = 0.2, t = 0.2)
movej(p[0.442219326070004, -0.103528524701724, 0.378427887621865, -1.19740942026226, 1.08237525321112, -1.21344275417594], a = 0.2, v = 0.2, t = 0.2)
movej(p[0.442865587221209, -0.103473601040187, 0.378397799282803, -1.20027398760186, 1.09078254066195, -1.20990150787436], a = 0.2, v = 0.2, t = 0.2)
movej(p[0.443174497836922, -0.103553924630142, 0.378354607335401, -1.19966077426131, 1.09582928588805, -1.20544319623906], a = 0.2, v = 0.2, t = 0.2)
movej(p[0.443154181179375, -0.103737470120277, 0.378349104798322, -1.19634307483414, 1.10045843988898, -1.20341229219397], a = 0.2, v = 0.2, t = 0.2)
movej(p[0.442857478364528, -0.103856418299039, 0.378264469237544, -1.19990893327642, 1.09825438180528, -1.21656563842347], a = 0.2, v = 0.2, t = 0.2)
movej(p[0.442212093908948, -0.103883482205437, 0.378121059218838, -1.20082909130494, 1.0951394875788, -1.22744900030601], a = 0.2, v = 0.2, t = 0.2)
movej(p[0.441360317950259, -0.103980088573669, 0.378087919968455, -1.20252617333537, 1.09111560265552, -1.23401877599858], a = 0.2, v = 0.2, t = 0.2)
movej(p[0.440454803697927, -0.10394896633276, 0.378091174048126, -1.19703848762534, 1.08665019238795, -1.2398949806668], a = 0.2, v = 0.2, t = 0.2)
movej(p[0.439778338738905, -0.103747054558571, 0.378073727239582, -1.1951368235526, 1.08160397834505, -1.24049738369923], a = 0.2, v = 0.2, t = 0.2)
movej(p[0.439369895594288, -0.103576488708564, 0.378058303811743, -1.19063827489563, 1.07452445256999, -1.23301670045656], a = 0.2, v = 0.2, t = 0.2)
movej(p[0.439319479540422, -0.103650786967633, 0.378207293666136, -1.19330645495072, 1.06980918014579, -1.22611906212032], a = 0.2, v = 0.2, t = 0.2)
movej(p[0.439730140730404, -0.103719336363572, 0.378349018461197, -1.19612713774215, 1.06817101391912, -1.23027822645349], a = 0.2, v = 0.2, t = 0.2)
movej(p[0.440728215710564, -0.103644211142149, 0.378417081195086, -1.20250710282378, 1.07097451036165, -1.23192488915006], a = 0.2, v = 0.2, t = 0.2)
movej(p[0.4418180976121, -0.103609408528489, 0.378458555561418, -1.19896755048277, 1.07933531213728, -1.21915756079862], a = 0.2, v = 0.2, t = 0.2)
movej(p[0.442565803287198, -0.103700148699575, 0.378549671205616, -1.20717019711157, 1.08412961721817, -1.22286679903163], a = 0.2, v = 0.2, t = 0.2)
movej(p[0.442993983411196, -0.103748388966078, 0.378525620176054, -1.20916294208358, 1.09031413041753, -1.21864309322232], a = 0.2, v = 0.2, t = 0.2)
movej(p[0.443167838177714, -0.103771140882345, 0.378443175712734, -1.21265106885586, 1.09293055614015, -1.21960439401673], a = 0.2, v = 0.2, t = 0.2)
movej(p[0.443132140314828, -0.103934212597231, 0.378389989920434, -1.20586740660181, 1.09541099136822, -1.21057620715609], a = 0.2, v = 0.2, t = 0.2)
movej(p[0.44280516217613, -0.104056891272631, 0.378270915778507, -1.20729239027432, 1.09305166465586, -1.22614262949024], a = 0.2, v = 0.2, t = 0.2)
movej(p[0.442223760933146, -0.104040117653083, 0.378103784555683, -1.20904675663355, 1.08908765184218, -1.23908807206698], a = 0.2, v = 0.2, t = 0.2)
movej(p[0.441443490222359, -0.103999302609478, 0.377991009448481, -1.20543467536788, 1.08676843844022, -1.24247030047759], a = 0.2, v = 0.2, t = 0.2)
movej(p[0.440510286680986, -0.104060275014316, 0.378053477400395, -1.19152639927037, 1.086331401117, -1.2279075840254], a = 0.2, v = 0.2, t = 0.2)
movej(p[0.439861102051777, -0.103912141818307, 0.378056222287157, -1.18452236040694, 1.08254383946292, -1.22864761983408], a = 0.2, v = 0.2, t = 0.2)
movej(p[0.439588102998299, -0.10366933959686, 0.378034183741732, -1.18905930109841, 1.07628197836267, -1.23170412978473], a = 0.2, v = 0.2, t = 0.2)
movej(p[0.439836418313017, -0.103604860952275, 0.378109423936898, -1.1941271981796, 1.07199330478673, -1.23126702536823], a = 0.2, v = 0.2, t = 0.2)
movej(p[0.440408743473036, -0.103651656849316, 0.378263480704777, -1.19788116834591, 1.07103487374775, -1.23363695272698], a = 0.2, v = 0.2, t = 0.2)
movej(p[0.441321641837295, -0.103615559439356, 0.378327604880628, -1.19999914623785, 1.07560258510924, -1.23376381176256], a = 0.2, v = 0.2, t = 0.2)
movej(p[0.442271608723377, -0.103512133791585, 0.378327247346025, -1.20253766150913, 1.08272154695956, -1.22800336635103], a = 0.2, v = 0.2, t = 0.2)
movej(p[0.443006347169397, -0.103611680936271, 0.378389578844396, -1.20431213387369, 1.09091446857699, -1.2160167591855], a = 0.2, v = 0.2, t = 0.2)
movej(p[0.443210576034078, -0.103695552096214, 0.378396680673528, -1.20356567351968, 1.0945895308075, -1.2171507927126], a = 0.2, v = 0.2, t = 0.2)
movej(p[0.443404978987267, -0.103698867621836, 0.378324823135837, -1.20818209295157, 1.09495960127244, -1.22353854319589], a = 0.2, v = 0.2, t = 0.2)
movej(p[0.443455368667979, -0.103703802908292, 0.378237694360072, -1.20810027129975, 1.09626714159111, -1.22372085619071], a = 0.2, v = 0.2, t = 0.2)
movej(p[0.443516182277076, -0.103919516110542, 0.378275985116916, -1.20138341513311, 1.10032771686869, -1.21318409495621], a = 0.2, v = 0.2, t = 0.2)
movej(p[0.443448343007791, -0.104001206381012, 0.378223342555681, -1.1941754780372, 1.10295971275471, -1.21229014873362], a = 0.2, v = 0.2, t = 0.2)
movej(p[0.443308470427135, -0.103994556271476, 0.37812304874668, -1.19686744360051, 1.10150190481493, -1.21478985896623], a = 0.2, v = 0.2, t = 0.2)
movej(p[0.442838789482987, -0.10409574853051, 0.378055569390463, -1.19971887599698, 1.09878818971161, -1.21993616084534], a = 0.2, v = 0.2, t = 0.2)
movej(p[0.442020888393765, -0.104341639464196, 0.378088179246048, -1.19745493627609, 1.0964238208382, -1.22558084217019], a = 0.2, v = 0.2, t = 0.2)
movej(p[0.441164041848146, -0.104297192954885, 0.378018114489777, -1.19289933125338, 1.09320431483333, -1.23229013453569], a = 0.2, v = 0.2, t = 0.2)
movej(p[0.44037644071035, -0.104099956513584, 0.377938158475841, -1.19088376629908, 1.08692149314425, -1.23715172493729], a = 0.2, v = 0.2, t = 0.2)
movej(p[0.439747482758299, -0.103984227122308, 0.377955959586232, -1.18965642323414, 1.08022509398325, -1.2311712320413], a = 0.2, v = 0.2, t = 0.2)
movej(p[0.439142357684263, -0.103984513155127, 0.378047243109576, -1.18930878703064, 1.07197886763554, -1.23418017560846], a = 0.2, v = 0.2, t = 0.2)
movej(p[0.439155829582756, -0.103849909334292, 0.378076448291163, -1.19005660847342, 1.06776197619459, -1.22996846614267], a = 0.2, v = 0.2, t = 0.2)
movej(p[0.439703021545698, -0.103704126689131, 0.378103161888089, -1.19617793798961, 1.06325006446212, -1.23527247868944], a = 0.2, v = 0.2, t = 0.2)
movej(p[0.440768962804367, -0.103708028925309, 0.378227507164723, -1.19828685577231, 1.0673302567571, -1.22632521092368], a = 0.2, v = 0.2, t = 0.2)
movej(p[0.441813028547213, -0.103662868571287, 0.378286995573174, -1.19362535589747, 1.07632681909197, -1.224116903401], a = 0.2, v = 0.2, t = 0.2)
movej(p[0.442750306987671, -0.103542274151254, 0.378223162263613, -1.19370314449981, 1.08690866982317, -1.21525937418568], a = 0.2, v = 0.2, t = 0.2)
movej(p[0.443300478542582, -0.103505965198468, 0.378159213744363, -1.19211696571167, 1.09729813982279, -1.205367592604], a = 0.2, v = 0.2, t = 0.2)
movej(p[0.44347678333691, -0.1036785086054, 0.378175978811803, -1.20101469939576, 1.09929652633446, -1.21051193236075], a = 0.2, v = 0.2, t = 0.2)
movej(p[0.443491762869175, -0.103774096333744, 0.378155849780004, -1.20003498744794, 1.10142567712272, -1.21328754403974], a = 0.2, v = 0.2, t = 0.2)
movej(p[0.443512679242276, -0.103746935663554, 0.378061692545916, -1.20050047826847, 1.10094735335386, -1.21672867948583], a = 0.2, v = 0.2, t = 0.2)
movej(p[0.443497592929541, -0.103833984026337, 0.378000027830674, -1.19379385956934, 1.10362307838328, -1.20638033860076], a = 0.2, v = 0.2, t = 0.2)
movej(p[0.443272633625863, -0.103995813763812, 0.378003100998107, -1.19787744525567, 1.10083366989752, -1.21905939131936], a = 0.2, v = 0.2, t = 0.2)
movej(p[0.442809556402777, -0.104014395843376, 0.377884247756343, -1.19422797939207, 1.09961575973489, -1.22019424987045], a = 0.2, v = 0.2, t = 0.2)
movej(p[0.442067115158678, -0.104022559299207, 0.37779652851758, -1.19499726650277, 1.0946787572891, -1.23055092800545], a = 0.2, v = 0.2, t = 0.2)
movej(p[0.441168886548408, -0.104077147691978, 0.377842924108615, -1.18769131312066, 1.09299949844054, -1.22632195324795], a = 0.2, v = 0.2, t = 0.2)
movej(p[0.440339159415792, -0.104030861575186, 0.377919493881984, -1.19101319469595, 1.08563909812033, -1.24379357457633], a = 0.2, v = 0.2, t = 0.2)
movej(p[0.439811113671886, -0.10377988137506, 0.377915016071458, -1.19748658941371, 1.07755549870899, -1.25097964493866], a = 0.2, v = 0.2, t = 0.2)
movej(p[0.439626241510065, -0.103624113195135, 0.377929080509112, -1.19866833280173, 1.07090501605473, -1.24985764666426], a = 0.2, v = 0.2, t = 0.2)
movej(p[0.439642251957603, -0.103669641641405, 0.378079388044352, -1.20092318382312, 1.06771448378735, -1.24488001397225], a = 0.2, v = 0.2, t = 0.2)
movej(p[0.440237931214427, -0.103638176534271, 0.378192767827485, -1.20312518030325, 1.06816724011677, -1.24672073108742], a = 0.2, v = 0.2, t = 0.2)
movej(p[0.441187716175567, -0.103526797803373, 0.378258605855212, -1.20920412980803, 1.07204388275252, -1.24445155603573], a = 0.2, v = 0.2, t = 0.2)
movej(p[0.442278633943242, -0.103527532579359, 0.378332170893624, -1.20845879682364, 1.07983008770481, -1.2300873755674], a = 0.2, v = 0.2, t = 0.2)
movej(p[0.442894283118399, -0.103584161108991, 0.378357990726305, -1.20265107437921, 1.08839175670989, -1.22013457925275], a = 0.2, v = 0.2, t = 0.2)
movej(p[0.443328462908632, -0.103585135496727, 0.378308934619428, -1.19666855324112, 1.09634436403908, -1.20842813219021], a = 0.2, v = 0.2, t = 0.2)
movej(p[0.443480956916929, -0.103624023924031, 0.378245275644065, -1.1983656998617, 1.09944665922228, -1.20776041739945], a = 0.2, v = 0.2, t = 0.2)
movej(p[0.443583566757538, -0.103791915299143, 0.378263333614112, -1.19908044655307, 1.10282986738979, -1.20242113426763], a = 0.2, v = 0.2, t = 0.2)
movej(p[0.443554413049165, -0.103874475520331, 0.378248036023926, -1.19731104850674, 1.1045701173846, -1.20382090587434], a = 0.2, v = 0.2, t = 0.2)
movej(p[0.443536040790872, -0.103854583356229, 0.378159928348706, -1.19243629501148, 1.10705701151971, -1.19831277556712], a = 0.2, v = 0.2, t = 0.2)
movej(p[0.443274664604349, -0.103981138550073, 0.378101559705331, -1.18651458850562, 1.10697114738262, -1.19236413198209], a = 0.2, v = 0.2, t = 0.2)
movej(p[0.442663233330898, -0.104175910915672, 0.378058926423205, -1.19022581942399, 1.10262182767384, -1.21149512854516], a = 0.2, v = 0.2, t = 0.2)
movej(p[0.441975335070776, -0.104211874213765, 0.377942459066782, -1.18802797021975, 1.09965048393552, -1.21907731601353], a = 0.2, v = 0.2, t = 0.2)
movej(p[0.441223340540884, -0.104112937016072, 0.377834552162346, -1.18580659975371, 1.09489185182058, -1.22638873737958], a = 0.2, v = 0.2, t = 0.2)
movej(p[0.44048133841138, -0.104153029349014, 0.37789116056676, -1.17850508313819, 1.0913883284677, -1.21448915280623], a = 0.2, v = 0.2, t = 0.2)
movej(p[0.439819288910008, -0.10408444921151, 0.377928532601407, -1.17658924080256, 1.08502067999496, -1.21966731129561], a = 0.2, v = 0.2, t = 0.2)
movej(p[0.439547997384836, -0.103866597083033, 0.377933545593311, -1.1830454822046, 1.07783499405749, -1.22395453555086], a = 0.2, v = 0.2, t = 0.2)
movej(p[0.43974909937379, -0.103700599924234, 0.377988347304139, -1.18684329080274, 1.07326203219567, -1.22444243479497], a = 0.2, v = 0.2, t = 0.2)
movej(p[0.440330852695786, -0.103746202232078, 0.378138719983723, -1.18483755253803, 1.07445986154994, -1.21711961358997], a = 0.2, v = 0.2, t = 0.2)
movej(p[0.441328785043385, -0.103684404426139, 0.378229368492249, -1.18765451259946, 1.07844169493193, -1.21856884029482], a = 0.2, v = 0.2, t = 0.2)
movej(p[0.442364979004704, -0.103576417219852, 0.378253076330694, -1.18992516556712, 1.08719846302824, -1.21092885585012], a = 0.2, v = 0.2, t = 0.2)
movej(p[0.443082110150859, -0.103636702161799, 0.378320659477342, -1.19697405606274, 1.09373855504538, -1.20640027712289], a = 0.2, v = 0.2, t = 0.2)
movej(p[0.443347070767631, -0.103804711121424, 0.378377071942698, -1.1971066799505, 1.09954161216547, -1.20336450429852], a = 0.2, v = 0.2, t = 0.2)
movej(p[0.443469164643415, -0.103852837884251, 0.378309984639907, -1.19755282097737, 1.10269970239246, -1.20083254823094], a = 0.2, v = 0.2, t = 0.2)
movej(p[0.443416343193183, -0.10392299692276, 0.378234868834573, -1.19625334993616, 1.10263821127429, -1.20090698984512], a = 0.2, v = 0.2, t = 0.2)
movej(p[0.443103060077559, -0.104043277899718, 0.3781581961788, -1.19608879193322, 1.10204993719347, -1.20476672927843], a = 0.2, v = 0.2, t = 0.2)
movej(p[0.44249681197907, -0.104052318095927, 0.378015481588495, -1.19897111195856, 1.09713862425523, -1.22559801077545], a = 0.2, v = 0.2, t = 0.2)
movej(p[0.441732275081328, -0.103927964747891, 0.377831394877611, -1.20012230988059, 1.09251506691592, -1.23769496265214], a = 0.2, v = 0.2, t = 0.2)
movej(p[0.440919207243099, -0.103871987104452, 0.377777956757473, -1.19146586722929, 1.0891238193149, -1.2301871873288], a = 0.2, v = 0.2, t = 0.2)
movej(p[0.440069914454265, -0.103825550424981, 0.377806745379582, -1.18339282222676, 1.08446307149903, -1.22984866461621], a = 0.2, v = 0.2, t = 0.2)
movej(p[0.439644871586731, -0.103642647529078, 0.377776017347937, -1.18041050673468, 1.07799587459465, -1.22993552492902], a = 0.2, v = 0.2, t = 0.2)
movej(p[0.439709127847425, -0.103448827122237, 0.377781588869596, -1.18710981954508, 1.07072192399991, -1.2355200825246], a = 0.2, v = 0.2, t = 0.2)
movej(p[0.440358646145061, -0.10348514660582, 0.377927951044179, -1.19073869416542, 1.06914707317766, -1.23035687192071], a = 0.2, v = 0.2, t = 0.2)
movej(p[0.441253656003653, -0.103475212749162, 0.378042399376692, -1.19149008020042, 1.07230721632443, -1.23110010887678], a = 0.2, v = 0.2, t = 0.2)
movej(p[0.442274839365984, -0.103375210457607, 0.378077081934026, -1.19241903258865, 1.08168930391775, -1.22502391989422], a = 0.2, v = 0.2, t = 0.2)
movej(p[0.443020888413805, -0.103339771100734, 0.378053985609015, -1.19122470585025, 1.09076078694312, -1.21421273284116], a = 0.2, v = 0.2, t = 0.2)
movej(p[0.443303796739804, -0.103489757205037, 0.378108210294321, -1.19887544735119, 1.09655613176194, -1.21475321103235], a = 0.2, v = 0.2, t = 0.2)
movej(p[0.443410257865541, -0.103602515542532, 0.378079840505796, -1.20054218270127, 1.09967838053817, -1.213891070501], a = 0.2, v = 0.2, t = 0.2)
movej(p[0.443460778177368, -0.103621149848445, 0.378002500243985, -1.20303987072102, 1.09988289483023, -1.21727926497919], a = 0.2, v = 0.2, t = 0.2)
movej(p[0.443366339218452, -0.103796905573566, 0.377976567125966, -1.19672258557203, 1.1003861420709, -1.2076384101904], a = 0.2, v = 0.2, t = 0.2)
movej(p[0.442951159357115, -0.103921005568603, 0.377887381316711, -1.19654527941725, 1.09768780541283, -1.22128836988253], a = 0.2, v = 0.2, t = 0.2)
movej(p[0.442278783703231, -0.10391677234079, 0.377725734392996, -1.19500347365579, 1.09495268432201, -1.22982739860732], a = 0.2, v = 0.2, t = 0.2)
movej(p[0.441390303962567, -0.103902232858821, 0.377612925381173, -1.18899664099205, 1.09261097140774, -1.23055598592476], a = 0.2, v = 0.2, t = 0.2)
movej(p[0.440500911949252, -0.103954374961837, 0.377644495820583, -1.18176292641935, 1.08845809239031, -1.22716839217626], a = 0.2, v = 0.2, t = 0.2)
movej(p[0.439797174466922, -0.103823381344793, 0.377655988328352, -1.18258036250758, 1.08057270251675, -1.23380400396292], a = 0.2, v = 0.2, t = 0.2)
movej(p[0.439465111064359, -0.103627535337008, 0.377673166535848, -1.19235197912567, 1.07050807732362, -1.24173003807102], a = 0.2, v = 0.2, t = 0.2)
movej(p[0.439635703090307, -0.103547068653124, 0.37775974161002, -1.19703802962687, 1.06712595386184, -1.23979573459131], a = 0.2, v = 0.2, t = 0.2)
movej(p[0.440200663458535, -0.103598180597755, 0.37791027524363, -1.1986791835613, 1.0666188784931, -1.24137078776875], a = 0.2, v = 0.2, t = 0.2)
movej(p[0.441291155311506, -0.103530179766679, 0.377997846538445, -1.19968223611581, 1.07455714172186, -1.23404322212517], a = 0.2, v = 0.2, t = 0.2)
movej(p[0.442322617330005, -0.10351822875692, 0.378063026105495, -1.19880717709169, 1.08228942206831, -1.22355417832166], a = 0.2, v = 0.2, t = 0.2)
movej(p[0.443048672675619, -0.103621972181488, 0.378159862042529, -1.20288518983883, 1.09093712906187, -1.21565879040311], a = 0.2, v = 0.2, t = 0.2)
movej(p[0.443312316653423, -0.103722978140845, 0.378172838364295, -1.20865300395334, 1.09398177081866, -1.22278743914959], a = 0.2, v = 0.2, t = 0.2)
movej(p[0.443405472338889, -0.103754975063065, 0.378121055810834, -1.21260848622894, 1.09633860244515, -1.22556180351525], a = 0.2, v = 0.2, t = 0.2)
movej(p[0.443443457014547, -0.103865974113383, 0.378118408354573, -1.20539431117917, 1.1013749731984, -1.21208404015967], a = 0.2, v = 0.2, t = 0.2)
movej(p[0.443361740152895, -0.103964840325402, 0.378117107991986, -1.19279028080279, 1.10546856894888, -1.20214004718447], a = 0.2, v = 0.2, t = 0.2)
movej(p[0.443358315876603, -0.103958855655221, 0.378074067412823, -1.18151867390515, 1.11134980938285, -1.18963885388273], a = 0.2, v = 0.2, t = 0.2)
movej(p[0.443096577979917, -0.104012799550835, 0.377979267856256, -1.18145917802804, 1.1105630656847, -1.19075360758281], a = 0.2, v = 0.2, t = 0.2)
movej(p[0.442589238302233, -0.104177292584098, 0.377979442318346, -1.18486030340894, 1.10884994072633, -1.1952336215609], a = 0.2, v = 0.2, t = 0.2)
movej(p[0.441854499066024, -0.104228357337168, 0.377899669429036, -1.1812743592484, 1.10471096225694, -1.20460750034727], a = 0.2, v = 0.2, t = 0.2)
movej(p[0.441157672148927, -0.104124788724533, 0.377810943687083, -1.18123291603704, 1.09964751038619, -1.21288960586194], a = 0.2, v = 0.2, t = 0.2)
movej(p[0.440504187913584, -0.104084288223102, 0.37775090542476, -1.17194951950626, 1.09644560355477, -1.20225477564097], a = 0.2, v = 0.2, t = 0.2)
movej(p[0.439907989935756, -0.104021559441357, 0.377756941091927, -1.17545855175553, 1.08984461499483, -1.2115084593029], a = 0.2, v = 0.2, t = 0.2)
movej(p[0.439678089960832, -0.103863386897779, 0.377760028150726, -1.17944806642189, 1.08366437499901, -1.21402235528537], a = 0.2, v = 0.2, t = 0.2)
movej(p[0.439893866934869, -0.103703643871703, 0.377831004954649, -1.1875091156583, 1.07722138746153, -1.22207813020915], a = 0.2, v = 0.2, t = 0.2)
movej(p[0.44060820604914, -0.103756662325835, 0.378012915258765, -1.19197259650274, 1.07593138862266, -1.21961512879155], a = 0.2, v = 0.2, t = 0.2)
movej(p[0.441470547377085, -0.103757526794463, 0.378114824078315, -1.1938576082825, 1.07937287903041, -1.22352912138682], a = 0.2, v = 0.2, t = 0.2)
movej(p[0.442416665914181, -0.103688147401288, 0.378149011790884, -1.20006963530463, 1.08709280335521, -1.22177592720536], a = 0.2, v = 0.2, t = 0.2)
movej(p[0.443014533041643, -0.103717372646492, 0.378183587466187, -1.19928057456662, 1.09601013927297, -1.20801322574964], a = 0.2, v = 0.2, t = 0.2)
movej(p[0.44329005167504, -0.103896805870429, 0.378293555530023, -1.20224010761435, 1.10035670063666, -1.20464171085641], a = 0.2, v = 0.2, t = 0.2)
movej(p[0.443422018461575, -0.103938337179332, 0.378248215986217, -1.19203175274112, 1.10661614997927, -1.19000340081126], a = 0.2, v = 0.2, t = 0.2)
movej(p[0.443492576907411, -0.103976879898795, 0.378203240620765, -1.19601850725172, 1.106252025984, -1.19482052521657], a = 0.2, v = 0.2, t = 0.2)
movej(p[0.443470002311004, -0.104078082178622, 0.37816703489256, -1.18645468153422, 1.11033343993055, -1.18502798026426], a = 0.2, v = 0.2, t = 0.2)
movej(p[0.443323064186012, -0.104151371339498, 0.37810400635599, -1.19530193076909, 1.10608663093732, -1.207245077632], a = 0.2, v = 0.2, t = 0.2)
movej(p[0.44298332230339, -0.104178938083065, 0.377960987425629, -1.1954258025008, 1.10494677041212, -1.20982633479364], a = 0.2, v = 0.2, t = 0.2)
movej(p[0.442366264680266, -0.1042473475679, 0.377871364616432, -1.19622914650984, 1.10148651992517, -1.21516958568342], a = 0.2, v = 0.2, t = 0.2)
movej(p[0.441523936224691, -0.104402579905014, 0.377892988756717, -1.18632209855771, 1.10017341289893, -1.21177814860738], a = 0.2, v = 0.2, t = 0.2)
movej(p[0.440878895069185, -0.104261512056647, 0.377815467884948, -1.17832467353776, 1.09777875478235, -1.21197566647553], a = 0.2, v = 0.2, t = 0.2)
movej(p[0.440317882796892, -0.104055401855811, 0.377744801075563, -1.17643879728103, 1.09271975796779, -1.21314387172875], a = 0.2, v = 0.2, t = 0.2)
movej(p[0.439895075586338, -0.103982410346315, 0.377749172423283, -1.18227511915005, 1.08430441598487, -1.2161344224811], a = 0.2, v = 0.2, t = 0.2)
movej(p[0.439741796011049, -0.103975726532015, 0.377874612887255, -1.18643120866118, 1.07852479748402, -1.22420122168636], a = 0.2, v = 0.2, t = 0.2)
movej(p[0.44017335193631, -0.103861388252705, 0.377991998651694, -1.1927762437886, 1.07559761139853, -1.22720676700366], a = 0.2, v = 0.2, t = 0.2)
movej(p[0.441062001496506, -0.103804155075562, 0.378117734364193, -1.18759221193, 1.08042416541557, -1.21178067574619], a = 0.2, v = 0.2, t = 0.2)
movej(p[0.441985123803613, -0.103786256574586, 0.378235610001804, -1.18578889203086, 1.08741753271729, -1.20182027822417], a = 0.2, v = 0.2, t = 0.2)
movej(p[0.442722707192863, -0.103764425987223, 0.378241734175292, -1.18801664072844, 1.09391855138165, -1.20090951533877], a = 0.2, v = 0.2, t = 0.2)
movej(p[0.443161598531224, -0.103723238057992, 0.378196114344631, -1.19569821086622, 1.09816410820263, -1.20449316600767], a = 0.2, v = 0.2, t = 0.2)
movej(p[0.443434531280619, -0.103882184365487, 0.378217564380112, -1.19790375946956, 1.10153375644564, -1.19889292114113], a = 0.2, v = 0.2, t = 0.2)
movej(p[0.443412291668559, -0.1039873550403, 0.378195224484977, -1.19539316353551, 1.10453951619822, -1.20191889384079], a = 0.2, v = 0.2, t = 0.2)
movej(p[0.443284617155471, -0.10402196689516, 0.378084965394146, -1.19801889442654, 1.10417519350432, -1.20799081182088], a = 0.2, v = 0.2, t = 0.2)
movej(p[0.442738213209986, -0.104067974071605, 0.377944710267059, -1.19599357835409, 1.10294452174191, -1.20958131292485], a = 0.2, v = 0.2, t = 0.2)
movej(p[0.441904987566613, -0.104260784960547, 0.377939686629716, -1.19796078012553, 1.09874708224204, -1.21812135941885], a = 0.2, v = 0.2, t = 0.2)
movej(p[0.441048636269476, -0.104285069755499, 0.377871133873203, -1.183417454583, 1.09762095170987, -1.21196202749434], a = 0.2, v = 0.2, t = 0.2)
movej(p[0.440299142774255, -0.104133595678754, 0.377782788337969, -1.18164572268785, 1.09164708375498, -1.21604349103071], a = 0.2, v = 0.2, t = 0.2)
movej(p[0.439649801657648, -0.104018707137034, 0.377747085501042, -1.1750919259665, 1.08545182221348, -1.20589067446371], a = 0.2, v = 0.2, t = 0.2)
movej(p[0.439175250457342, -0.103985871293892, 0.377843487822679, -1.18213865490877, 1.07778759894734, -1.21629828652221], a = 0.2, v = 0.2, t = 0.2)
movej(p[0.439243292793835, -0.10388356826446, 0.377939442586071, -1.18585317220555, 1.07339083078288, -1.21745323532185], a = 0.2, v = 0.2, t = 0.2)
movej(p[0.439875305816076, -0.103737146744263, 0.378031064138891, -1.19171872679476, 1.07049577062481, -1.22170137493961], a = 0.2, v = 0.2, t = 0.2)
movej(p[0.440888516749936, -0.103734968091732, 0.378159499909144, -1.18647499017579, 1.07532494728514, -1.20614050254482], a = 0.2, v = 0.2, t = 0.2)
movej(p[0.441906471286518, -0.103666827812807, 0.378237889739734, -1.19270552197837, 1.08081893540676, -1.21483101678205], a = 0.2, v = 0.2, t = 0.2)
