def moving():
set_payload_mass(0.606)
set_tcp(p[0.0001,-0.0009,0.0582,0,0,0])
movej(p[0.4763, -0.0211, 0.2251, -1.21, 1.207, -1.216], a = 0.2, v = 0.2, t = 0.2)
movej(p[0.476399503559594, -0.0211997494971276, 0.225200742639686, -1.2082623738881, 1.20525469812697, -1.21424848537015], a = 0.2, v = 0.2, t = 0.2)
movej(p[0.4763, -0.0211, 0.2251, -1.21, 1.207, -1.216], a = 0.2, v = 0.2, t = 0.2)
movej(p[0.476399503559594, -0.0211997494971276, 0.225200742639686, -1.2082623738881, 1.20525469812697, -1.21424848537015], a = 0.2, v = 0.2, t = 0.2)
movej(p[0.4763, -0.0211, 0.2251, -1.21, 1.207, -1.216], a = 0.2, v = 0.2, t = 0.2)
movej(p[0.476399503559594, -0.0211997494971276, 0.225200742639686, -1.2082623738881, 1.20525469812697, -1.21424848537015], a = 0.2, v = 0.2, t = 0.2)
movej(p[0.4763, -0.0211, 0.2251, -1.21, 1.207, -1.216], a = 0.2, v = 0.2, t = 0.2)
movej(p[0.476256401481616, -0.0212149329046209, 0.225161498372012, -1.20951065891486, 1.20862674139776, -1.22204919028677], a = 0.2, v = 0.2, t = 0.2)
movej(p[0.47615584794451, -0.0212676288182364, 0.225126225760306, -1.21522661129404, 1.20831799652539, -1.23529628164181], a = 0.2, v = 0.2, t = 0.2)
movej(p[0.475787962700625, -0.0211662597462688, 0.224941677342514, -1.21331870519208, 1.20852500396667, -1.23844611456971], a = 0.2, v = 0.2, t = 0.2)
movej(p[0.475130094653345, -0.0211535283095232, 0.224824952853502, -1.21234360564514, 1.20377939061469, -1.24520293432578], a = 0.2, v = 0.2, t = 0.2)
movej(p[0.474254794988042, -0.0212965963784442, 0.224875822718493, -1.20060938547236, 1.20029270835861, -1.23809502900111], a = 0.2, v = 0.2, t = 0.2)
movej(p[0.4733408616382, -0.0212697546165659, 0.225003488360677, -1.20196273198006, 1.19469006565623, -1.25684241855836], a = 0.2, v = 0.2, t = 0.2)
movej(p[0.472728161127298, -0.0209849869951226, 0.224979536326362, -1.20873087892067, 1.18848635704243, -1.26482020198932], a = 0.2, v = 0.2, t = 0.2)
movej(p[0.472157899224065, -0.0206551128408099, 0.22490421439969, -1.21238706923993, 1.18036267013308, -1.27086679558313], a = 0.2, v = 0.2, t = 0.2)
movej(p[0.471734522824685, -0.0205788035309078, 0.224935921669676, -1.21656478340564, 1.17166034548693, -1.26920980249082], a = 0.2, v = 0.2, t = 0.2)
movej(p[0.471282369423328, -0.0206643786996857, 0.225032705840668, -1.21265603311598, 1.16773561218134, -1.26691164317859], a = 0.2, v = 0.2, t = 0.2)
movej(p[0.471363609501122, -0.0206043123887213, 0.225040438488861, -1.21798223995491, 1.16444334178275, -1.27420582549914], a = 0.2, v = 0.2, t = 0.2)
movej(p[0.471817370931876, -0.0204399529161346, 0.224943114229157, -1.21970074566358, 1.16603843455131, -1.27077968961963], a = 0.2, v = 0.2, t = 0.2)
movej(p[0.472604695011796, -0.0204217759252191, 0.224955309633214, -1.22129351305769, 1.16758195186861, -1.26711875880656], a = 0.2, v = 0.2, t = 0.2)
movej(p[0.473414679390902, -0.0205727946316341, 0.22509416792683, -1.21536681603063, 1.17625224292929, -1.25437419526952], a = 0.2, v = 0.2, t = 0.2)
movej(p[0.474265577771195, -0.0206470052210445, 0.225184993354485, -1.21412907181082, 1.18431458084942, -1.25699818034473], a = 0.2, v = 0.2, t = 0.2)
movej(p[0.475085325778221, -0.0206072789032318, 0.225125606738611, -1.22049628999439, 1.19422474873424, -1.25287585928384], a = 0.2, v = 0.2, t = 0.2)
movej(p[0.475732772975612, -0.0206453888662856, 0.225042873643012, -1.22721204728041, 1.2006712591786, -1.25397512748521], a = 0.2, v = 0.2, t = 0.2)
movej(p[0.47617684714007, -0.0208981360634952, 0.225105079617662, -1.22593822742498, 1.20718938347898, -1.23975194516999], a = 0.2, v = 0.2, t = 0.2)
movej(p[0.47625214226909, -0.0210408291359705, 0.225153404184444, -1.21564450458266, 1.2125450515806, -1.23705374659879], a = 0.2, v = 0.2, t = 0.2)
movej(p[0.476352090357049, -0.0210211044152353, 0.225094439781976, -1.21719414986747, 1.21632377629835, -1.2371730470495], a = 0.2, v = 0.2, t = 0.2)
movej(p[0.476126490602368, -0.0209984180234698, 0.224969365679939, -1.2192910976347, 1.21457414812253, -1.24254876725603], a = 0.2, v = 0.2, t = 0.2)
movej(p[0.475673560788803, -0.0211874703862637, 0.224944050188592, -1.22260843482663, 1.21161684651978, -1.24565821240985], a = 0.2, v = 0.2, t = 0.2)
movej(p[0.474743776474932, -0.0213698365555612, 0.225016834813134, -1.20998241530391, 1.20953080850723, -1.24651274416746], a = 0.2, v = 0.2, t = 0.2)
movej(p[0.473831984552164, -0.0212063452254178, 0.224980591171713, -1.20722716127401, 1.2046636095829, -1.25594886916003], a = 0.2, v = 0.2, t = 0.2)
movej(p[0.472911223659682, -0.0208626645479326, 0.224919425026669, -1.20706768901846, 1.19695616049115, -1.26153323395391], a = 0.2, v = 0.2, t = 0.2)
movej(p[0.472121176335445, -0.0206587688512856, 0.224952628586028, -1.2109941082025, 1.18536161482454, -1.26495728011979], a = 0.2, v = 0.2, t = 0.2)
movej(p[0.471359579603083, -0.0206844932281251, 0.22513440456737, -1.20935664961683, 1.17708985732126, -1.25974543651533], a = 0.2, v = 0.2, t = 0.2)
movej(p[0.470965356696356, -0.0205840196182722, 0.225213256725456, -1.20569947085275, 1.170130291772, -1.26172666566458], a = 0.2, v = 0.2, t = 0.2)
movej(p[0.471185787283163, -0.0203535288038417, 0.225160017250934, -1.21122343432454, 1.16434570412027, -1.26380941034006], a = 0.2, v = 0.2, t = 0.2)
movej(p[0.471797188082425, -0.0201837590655185, 0.225095150875975, -1.21434175744659, 1.1621111583333, -1.26621892667799], a = 0.2, v = 0.2, t = 0.2)
movej(p[0.472720533527979, -0.020357539618282, 0.225182582758947, -1.21259551803863, 1.16834193430534, -1.25378988938922], a = 0.2, v = 0.2, t = 0.2)
movej(p[0.473566021515018, -0.02049766396419, 0.225246594409581, -1.20748264374733, 1.17894583735025, -1.2520868173148], a = 0.2, v = 0.2, t = 0.2)
movej(p[0.474625628392558, -0.0204935215916103, 0.225165466333825, -1.2150266503816, 1.18877665603325, -1.25315178756963], a = 0.2, v = 0.2, t = 0.2)
movej(p[0.475420935375487, -0.0204897100237983, 0.225078941166066, -1.22300169359133, 1.19642000346195, -1.25342200026466], a = 0.2, v = 0.2, t = 0.2)
movej(p[0.47607117772658, -0.0206370230651455, 0.225063979970566, -1.23011666026326, 1.20234666592245, -1.2490550238971], a = 0.2, v = 0.2, t = 0.2)
movej(p[0.476338713923137, -0.0209109812798346, 0.225111290642471, -1.22238377390048, 1.20903860042117, -1.23993213494051], a = 0.2, v = 0.2, t = 0.2)
movej(p[0.476486951256858, -0.0209382460295175, 0.225020526816262, -1.21937732488452, 1.21148029253586, -1.24357875778565], a = 0.2, v = 0.2, t = 0.2)
movej(p[0.476294889087507, -0.0209065490259072, 0.224859985258426, -1.2205998558418, 1.21061611956432, -1.24783347970861], a = 0.2, v = 0.2, t = 0.2)
movej(p[0.475684741209472, -0.0209585904622776, 0.224785753419876, -1.21807539733418, 1.20630321103205, -1.25111197287617], a = 0.2, v = 0.2, t = 0.2)
movej(p[0.474685125018801, -0.0211843661364644, 0.224904578569522, -1.21151849741918, 1.20360095333874, -1.25038833507059], a = 0.2, v = 0.2, t = 0.2)
movej(p[0.473740046425033, -0.0210851323952104, 0.224961607648594, -1.20312103522246, 1.19817768263482, -1.25797476329771], a = 0.2, v = 0.2, t = 0.2)
movej(p[0.473001100377304, -0.0207417796573882, 0.224937015926805, -1.20488950057429, 1.19065416423268, -1.26222700127461], a = 0.2, v = 0.2, t = 0.2)
movej(p[0.472360567219453, -0.0204256860318354, 0.224919352199043, -1.20663775875692, 1.18012191588541, -1.26703418436055], a = 0.2, v = 0.2, t = 0.2)
movej(p[0.471838954705586, -0.0203938098219967, 0.225044790025568, -1.21051661972481, 1.17155535282233, -1.2641792748691], a = 0.2, v = 0.2, t = 0.2)
movej(p[0.47139058100255, -0.0204336962345178, 0.225158799643792, -1.21460566705038, 1.16330475463094, -1.27641280980886], a = 0.2, v = 0.2, t = 0.2)
movej(p[0.471640921245388, -0.0202583738131932, 0.225082329621428, -1.21878831314704, 1.16041477789848, -1.27753430917489], a = 0.2, v = 0.2, t = 0.2)
movej(p[0.472245948056526, -0.0200910369026642, 0.224960755690862, -1.22076412587196, 1.15921916810866, -1.27880748824959], a = 0.2, v = 0.2, t = 0.2)
movej(p[0.473173040437452, -0.0200895317892815, 0.224925340124194, -1.21869916740478, 1.16510922433533, -1.2674689425039], a = 0.2, v = 0.2, t = 0.2)
movej(p[0.474085773690451, -0.0203320159113473, 0.225026398853255, -1.22104646143719, 1.17318077361909, -1.2683262767036], a = 0.2, v = 0.2, t = 0.2)
movej(p[0.475047939230032, -0.0204228984609449, 0.224984388987912, -1.22353729231528, 1.18369789916305, -1.26893194022777], a = 0.2, v = 0.2, t = 0.2)
movej(p[0.47584354822411, -0.0204765145855109, 0.224896699123451, -1.22439082438869, 1.19464169087287, -1.25987542161801], a = 0.2, v = 0.2, t = 0.2)
movej(p[0.476373665810188, -0.0206049402218568, 0.224852445970305, -1.22292533589712, 1.20167566442449, -1.24980508980435], a = 0.2, v = 0.2, t = 0.2)
movej(p[0.476602187817676, -0.0208856175957963, 0.224944423110597, -1.22441533020141, 1.20771406848144, -1.24228021732798], a = 0.2, v = 0.2, t = 0.2)
movej(p[0.476624308086148, -0.021003097509904, 0.22497934568364, -1.22320280078797, 1.21057652944187, -1.24350936065165], a = 0.2, v = 0.2, t = 0.2)
movej(p[0.476572558611937, -0.0209455238530303, 0.224859559267227, -1.21740973742816, 1.2131349042881, -1.23572929326329], a = 0.2, v = 0.2, t = 0.2)
movej(p[0.476197178169376, -0.0209806686097424, 0.224755035685112, -1.21053420216506, 1.21106478548524, -1.23395509271661], a = 0.2, v = 0.2, t = 0.2)
movej(p[0.475518881607329, -0.0211508880143041, 0.224761741111733, -1.19982597485079, 1.20903787983134, -1.22865009644226], a = 0.2, v = 0.2, t = 0.2)
movej(p[0.47450844210415, -0.0211944189534297, 0.224885499413806, -1.20475735595916, 1.20225599327058, -1.25355741175919], a = 0.2, v = 0.2, t = 0.2)
movej(p[0.473658468483141, -0.0208698638398361, 0.224894116521971, -1.19878030198716, 1.19776058572086, -1.25574685818934], a = 0.2, v = 0.2, t = 0.2)
movej(p[0.472927826359267, -0.020505686212632, 0.22489126794954, -1.20336629200834, 1.18901350377442, -1.26724115513259], a = 0.2, v = 0.2, t = 0.2)
movej(p[0.472336523137436, -0.0203841978102047, 0.224984785276962, -1.19775566461903, 1.18224835387765, -1.25487386072478], a = 0.2, v = 0.2, t = 0.2)
movej(p[0.471820017456708, -0.0203860842424763, 0.225069370941377, -1.20188193256265, 1.17458577302334, -1.26417497739523], a = 0.2, v = 0.2, t = 0.2)
movej(p[0.47183499528139, -0.0202699412860333, 0.225038142403187, -1.2053716580218, 1.16900678155801, -1.26451141787536], a = 0.2, v = 0.2, t = 0.2)
movej(p[0.472313912750018, -0.0200891155626799, 0.224935393279872, -1.21013009669792, 1.16588047311253, -1.26855689490508], a = 0.2, v = 0.2, t = 0.2)
movej(p[0.473277662094578, -0.0200527605880706, 0.224914844881381, -1.21351517322194, 1.16734152672013, -1.26354332330114], a = 0.2, v = 0.2, t = 0.2)
movej(p[0.474231776138602, -0.0202382405060273, 0.225002657031674, -1.21090279058612, 1.17650939864225, -1.2580656970445], a = 0.2, v = 0.2, t = 0.2)
movej(p[0.475233749496395, -0.0203240151615201, 0.224963144522539, -1.20941051471293, 1.18751548724363, -1.25314700408511], a = 0.2, v = 0.2, t = 0.2)
movej(p[0.476057590989811, -0.0203703909965716, 0.224878313239693, -1.21584745275995, 1.1968472023495, -1.24831453262571], a = 0.2, v = 0.2, t = 0.2)
movej(p[0.476565946017775, -0.0205258282428924, 0.224844137820165, -1.22066147691958, 1.2037104928453, -1.2430690739218], a = 0.2, v = 0.2, t = 0.2)
movej(p[0.476778567884734, -0.0208601311352675, 0.224956372540464, -1.22387066311604, 1.20941021381962, -1.23812857388773], a = 0.2, v = 0.2, t = 0.2)
movej(p[0.47680932012577, -0.0210193079710436, 0.224943617596027, -1.21869416863408, 1.21373478125731, -1.23733433185499], a = 0.2, v = 0.2, t = 0.2)
movej(p[0.476869304973278, -0.0209858632825664, 0.224846544350556, -1.21848687396508, 1.21518862775773, -1.23880316810396], a = 0.2, v = 0.2, t = 0.2)
movej(p[0.476891438886026, -0.0210467185830545, 0.224759415516581, -1.21309212975586, 1.21566394774186, -1.23248811273311], a = 0.2, v = 0.2, t = 0.2)
movej(p[0.47681680875645, -0.0212243310762794, 0.224795190901009, -1.21147845038463, 1.21695108550023, -1.22907365830973], a = 0.2, v = 0.2, t = 0.2)
movej(p[0.476542006219162, -0.021335312564609, 0.224833550854713, -1.21467692196736, 1.21538999198014, -1.24218201535495], a = 0.2, v = 0.2, t = 0.2)
movej(p[0.47625123214441, -0.0211698732843504, 0.224705287791985, -1.21441645214829, 1.21393913558617, -1.24853523240572], a = 0.2, v = 0.2, t = 0.2)
movej(p[0.47572597435621, -0.0210280971669622, 0.224599361602354, -1.21193479852684, 1.21036378743862, -1.25627658655561], a = 0.2, v = 0.2, t = 0.2)
movej(p[0.475101935527821, -0.021090816513633, 0.224620933614623, -1.20092765539021, 1.20810902426384, -1.24638996265825], a = 0.2, v = 0.2, t = 0.2)
movej(p[0.474392605700272, -0.0211211750066439, 0.224726173445437, -1.1980323364481, 1.20467523149576, -1.25543592101016], a = 0.2, v = 0.2, t = 0.2)
movej(p[0.474001013765914, -0.0208650971662548, 0.224666893950308, -1.19784823782077, 1.20048080615434, -1.25835909269454], a = 0.2, v = 0.2, t = 0.2)
movej(p[0.473644507370707, -0.0205538435158443, 0.224590263542615, -1.1980787660373, 1.19401292906436, -1.25888660123686], a = 0.2, v = 0.2, t = 0.2)
movej(p[0.473360143395051, -0.020419418841384, 0.224596686061215, -1.19669728244282, 1.18787024348317, -1.25265037070968], a = 0.2, v = 0.2, t = 0.2)
movej(p[0.47294037992821, -0.0204956759952743, 0.224793974383693, -1.19663199664063, 1.1834312093456, -1.25156079403446], a = 0.2, v = 0.2, t = 0.2)
movej(p[0.472972772889905, -0.0204417881049237, 0.224943266431392, -1.20391463508012, 1.17976685273975, -1.26038289166177], a = 0.2, v = 0.2, t = 0.2)
movej(p[0.473342933894176, -0.020262727835833, 0.224990880175327, -1.21314086691753, 1.17728425703599, -1.26646263946962], a = 0.2, v = 0.2, t = 0.2)
movej(p[0.474067260524035, -0.0201470259262388, 0.224982951351108, -1.21861471727166, 1.17541908842941, -1.26793345363158], a = 0.2, v = 0.2, t = 0.2)
movej(p[0.474732795048988, -0.0202558284650942, 0.225018938567727, -1.21722135732394, 1.1787773366978, -1.26257476916451], a = 0.2, v = 0.2, t = 0.2)
movej(p[0.475263201058414, -0.0203171154458456, 0.224948897406401, -1.21681489741604, 1.18363883138198, -1.26619544139642], a = 0.2, v = 0.2, t = 0.2)
movej(p[0.475761753352943, -0.0203591730221064, 0.224803487775705, -1.22140955897895, 1.18905212402744, -1.26308964122309], a = 0.2, v = 0.2, t = 0.2)
movej(p[0.476102722516563, -0.0204714918775468, 0.224678531799967, -1.22139970425609, 1.19356794842771, -1.25744338660874], a = 0.2, v = 0.2, t = 0.2)
movej(p[0.47632418628089, -0.0207848422965447, 0.224729168952462, -1.21772677493791, 1.1996787341445, -1.24281635620688], a = 0.2, v = 0.2, t = 0.2)
movej(p[0.476389908381063, -0.0210227724854644, 0.224798489157038, -1.21042688303989, 1.20603500699572, -1.23923326365345], a = 0.2, v = 0.2, t = 0.2)
movej(p[0.476541282757558, -0.0210269385016377, 0.224736240963716, -1.20729357100953, 1.21124860442585, -1.23313993110917], a = 0.2, v = 0.2, t = 0.2)
movej(p[0.476612311918651, -0.0210353182516188, 0.224697398123955, -1.20643111205937, 1.21219259574605, -1.23133868713362], a = 0.2, v = 0.2, t = 0.2)
movej(p[0.476655397874556, -0.0211706830528965, 0.224726970737616, -1.20011814001604, 1.21453208054122, -1.21564195779802], a = 0.2, v = 0.2, t = 0.2)
movej(p[0.476496410181862, -0.0213880464641484, 0.22481529431556, -1.20273462106714, 1.21319713708593, -1.22545197071627], a = 0.2, v = 0.2, t = 0.2)
movej(p[0.476430575450973, -0.0213756883241604, 0.22470257648607, -1.19693684816256, 1.21402491666446, -1.2216330049974], a = 0.2, v = 0.2, t = 0.2)
movej(p[0.476226914475463, -0.0213530754137046, 0.22460968650851, -1.1963171461918, 1.21218276266043, -1.22604778716679], a = 0.2, v = 0.2, t = 0.2)
movej(p[0.47600039023361, -0.021519671812929, 0.224623232523952, -1.18758289819556, 1.21351046537224, -1.21392362039945], a = 0.2, v = 0.2, t = 0.2)
movej(p[0.475601232476937, -0.0217691345808617, 0.224824744337012, -1.18810629251021, 1.21542914742212, -1.21706243100976], a = 0.2, v = 0.2, t = 0.2)
movej(p[0.475364852910001, -0.0217372940465788, 0.224786922076216, -1.18589671469515, 1.21598688767573, -1.2217306993409], a = 0.2, v = 0.2, t = 0.2)
movej(p[0.475024577993099, -0.0215041339028006, 0.224694738394465, -1.18439798221571, 1.21523015393008, -1.2230954832953], a = 0.2, v = 0.2, t = 0.2)
movej(p[0.47457437167716, -0.0213208364088459, 0.224645315070033, -1.18894924241603, 1.2074411563886, -1.23286540522499], a = 0.2, v = 0.2, t = 0.2)
movej(p[0.473913717068027, -0.0212787547437029, 0.224799878324044, -1.19207412333976, 1.20022554233647, -1.23778273693821], a = 0.2, v = 0.2, t = 0.2)
movej(p[0.473317135397657, -0.0210893563611908, 0.2249176465624, -1.20186371551464, 1.19010197565708, -1.26241815938858], a = 0.2, v = 0.2, t = 0.2)
movej(p[0.473192291102596, -0.0206821134371745, 0.224880083903938, -1.20679260299276, 1.18485876811774, -1.26345971355945], a = 0.2, v = 0.2, t = 0.2)
movej(p[0.473351677291598, -0.0204085160188605, 0.224851314673027, -1.21352353596431, 1.17885579190145, -1.26841174881685], a = 0.2, v = 0.2, t = 0.2)
movej(p[0.473769189637228, -0.0204261220438911, 0.224912985116758, -1.20690992473579, 1.18056730855711, -1.25077945085064], a = 0.2, v = 0.2, t = 0.2)
movej(p[0.474168909933526, -0.020461259685637, 0.22495150351963, -1.2026146588683, 1.18313610973349, -1.2507770864726], a = 0.2, v = 0.2, t = 0.2)
movej(p[0.474730644477786, -0.0203747050514287, 0.224864183934873, -1.20718675313211, 1.18657605248777, -1.25143662588331], a = 0.2, v = 0.2, t = 0.2)
movej(p[0.475186007688713, -0.0202850864812789, 0.224767751549139, -1.21379284820615, 1.18844026329629, -1.25355078386072], a = 0.2, v = 0.2, t = 0.2)
movej(p[0.475619321872006, -0.0204501882881937, 0.22477426194163, -1.22250195393079, 1.1901274108178, -1.25385364133055], a = 0.2, v = 0.2, t = 0.2)
movej(p[0.475815591637693, -0.0207195227301249, 0.224861876129219, -1.21426399669141, 1.19621631989601, -1.2461083666237], a = 0.2, v = 0.2, t = 0.2)
movej(p[0.476070570543384, -0.0208340251258855, 0.224832833162468, -1.21991177597459, 1.19919364828839, -1.25442701834745], a = 0.2, v = 0.2, t = 0.2)
movej(p[0.476276123769141, -0.0208348360943362, 0.224739023119635, -1.22205509990834, 1.20305078965705, -1.25098647149872], a = 0.2, v = 0.2, t = 0.2)
movej(p[0.476434942807494, -0.0209581608159113, 0.224714742054381, -1.22650217361616, 1.20334075834637, -1.25090563528463], a = 0.2, v = 0.2, t = 0.2)
movej(p[0.476476768119194, -0.0212382027369929, 0.224813232542948, -1.21386154553554, 1.20780236950006, -1.23501207400746], a = 0.2, v = 0.2, t = 0.2)
movej(p[0.476490755935899, -0.021324818331947, 0.224819637977715, -1.20507405249016, 1.21018121075447, -1.23519100186138], a = 0.2, v = 0.2, t = 0.2)
movej(p[0.476510986160298, -0.0212475694358608, 0.224717998385654, -1.20561889636898, 1.2097440026035, -1.23708277638454], a = 0.2, v = 0.2, t = 0.2)
movej(p[0.476336766245686, -0.0212515070500282, 0.224626582542217, -1.20450830910393, 1.20731329096113, -1.23811009771609], a = 0.2, v = 0.2, t = 0.2)
movej(p[0.476012138119821, -0.0214804052220084, 0.224706830355306, -1.20654790746251, 1.20613966969593, -1.23860451298119], a = 0.2, v = 0.2, t = 0.2)
movej(p[0.475553016509024, -0.0216227999651696, 0.224768953310955, -1.20000821930682, 1.20714919024071, -1.24210061017393], a = 0.2, v = 0.2, t = 0.2)
movej(p[0.475347256701745, -0.0214459964008394, 0.224684400234437, -1.20214297444798, 1.20783476627874, -1.24619596334937], a = 0.2, v = 0.2, t = 0.2)
movej(p[0.475070057821846, -0.0212720212403615, 0.224578955409909, -1.19915849394569, 1.20549396346514, -1.24447536072283], a = 0.2, v = 0.2, t = 0.2)
movej(p[0.474764918483522, -0.0212693884261252, 0.224555133046551, -1.19733604276794, 1.20348782913909, -1.23966127671897], a = 0.2, v = 0.2, t = 0.2)
movej(p[0.47424326930991, -0.0213951833709968, 0.224647546419585, -1.19635489697266, 1.20146739156727, -1.24796238652624], a = 0.2, v = 0.2, t = 0.2)
movej(p[0.474026255081949, -0.0212020120243135, 0.224570403641033, -1.19729311794778, 1.19896461835488, -1.2543447553241], a = 0.2, v = 0.2, t = 0.2)
movej(p[0.473904161109962, -0.020922767230192, 0.224538741899756, -1.20174178436981, 1.19525380272492, -1.255678149241], a = 0.2, v = 0.2, t = 0.2)
movej(p[0.474068943914259, -0.0207962711519957, 0.224603048777375, -1.20430326504992, 1.19086376284091, -1.25481482150593], a = 0.2, v = 0.2, t = 0.2)
movej(p[0.474309096440959, -0.0208655237699157, 0.224803103639927, -1.21240036676989, 1.18791785887054, -1.25976062143474], a = 0.2, v = 0.2, t = 0.2)
movej(p[0.474783887295827, -0.0208085699284624, 0.22482945531118, -1.21173497649617, 1.18970824787093, -1.26257732440585], a = 0.2, v = 0.2, t = 0.2)
movej(p[0.475307971690071, -0.0206458206432142, 0.224729238526854, -1.21695777503919, 1.19260268670364, -1.26230155436544], a = 0.2, v = 0.2, t = 0.2)
movej(p[0.475733336282556, -0.0206584797014706, 0.224667069957592, -1.21659219116992, 1.19568166213786, -1.25405754429944], a = 0.2, v = 0.2, t = 0.2)
movej(p[0.476011006157124, -0.0209231007487673, 0.224760149141544, -1.22123704419682, 1.19822866690701, -1.25143830887663], a = 0.2, v = 0.2, t = 0.2)
movej(p[0.476148593315584, -0.0211252966559373, 0.224842813720746, -1.2195422447487, 1.20122229170372, -1.2516577982501], a = 0.2, v = 0.2, t = 0.2)
movej(p[0.476366061825718, -0.0210977225059938, 0.224795796953245, -1.21665549727065, 1.20552310291584, -1.24293310925411], a = 0.2, v = 0.2, t = 0.2)
movej(p[0.476496514476284, -0.0211161799042927, 0.224746433453302, -1.21650908448979, 1.20629185407962, -1.24071367219789], a = 0.2, v = 0.2, t = 0.2)
movej(p[0.476561077519154, -0.0212969073319388, 0.224777717896524, -1.21095125309913, 1.20884939447741, -1.22992304327352], a = 0.2, v = 0.2, t = 0.2)
movej(p[0.4764969093547, -0.0215019348730604, 0.224863228527162, -1.21601094277643, 1.20780081477392, -1.24256885846082], a = 0.2, v = 0.2, t = 0.2)
movej(p[0.476458326927038, -0.0214760579782788, 0.224781915352386, -1.21189443098522, 1.20972547709124, -1.23911846622806], a = 0.2, v = 0.2, t = 0.2)
movej(p[0.47623203084739, -0.0213796879249649, 0.224641294953311, -1.20847570660795, 1.2082907088804, -1.23837914403], a = 0.2, v = 0.2, t = 0.2)
movej(p[0.475903840841203, -0.0214563332596946, 0.224561153517839, -1.19733127861733, 1.20839253989347, -1.22624457246839], a = 0.2, v = 0.2, t = 0.2)
movej(p[0.475402392510332, -0.0216791528836727, 0.224655559902883, -1.18974912371858, 1.20999968835244, -1.22314039698172], a = 0.2, v = 0.2, t = 0.2)
movej(p[0.475057215229112, -0.0216352193350081, 0.224660033853142, -1.18520263316914, 1.21036427411377, -1.2293117038235], a = 0.2, v = 0.2, t = 0.2)
movej(p[0.474792635692454, -0.0213798182877352, 0.224552201972725, -1.18369081649253, 1.21014183150452, -1.22793621835234], a = 0.2, v = 0.2, t = 0.2)
movej(p[0.474543983336758, -0.0212734830068875, 0.2244793597806, -1.18409064289312, 1.20503286705658, -1.23082255120591], a = 0.2, v = 0.2, t = 0.2)
movej(p[0.474190017967148, -0.0213468177499183, 0.224552463984868, -1.18526698715886, 1.20145110355886, -1.22867864671142], a = 0.2, v = 0.2, t = 0.2)
movej(p[0.473792517713588, -0.0213422711500065, 0.224642269168175, -1.18953335477811, 1.19667950851914, -1.24662347438712], a = 0.2, v = 0.2, t = 0.2)
movej(p[0.473669820142808, -0.0210418205276659, 0.224593157327557, -1.19243056285541, 1.19333369219466, -1.24914862419415], a = 0.2, v = 0.2, t = 0.2)
movej(p[0.473720071448547, -0.0207726376681686, 0.22453125673666, -1.19779824163229, 1.18770795176675, -1.25287629930311], a = 0.2, v = 0.2, t = 0.2)
movej(p[0.474047037806308, -0.0207599499757881, 0.224603602215124, -1.19482563456729, 1.18639371901258, -1.23827070342682], a = 0.2, v = 0.2, t = 0.2)
movej(p[0.47436671864364, -0.0208362322042713, 0.224741026694606, -1.20016843888012, 1.18705550091221, -1.24580839648074], a = 0.2, v = 0.2, t = 0.2)
movej(p[0.474894573431732, -0.020757499327247, 0.224678978831922, -1.20244925628172, 1.1904353810495, -1.24837921965648], a = 0.2, v = 0.2, t = 0.2)
movej(p[0.475217952739939, -0.0206343843500077, 0.224527307848861, -1.20698254319779, 1.19343128551756, -1.24780932575735], a = 0.2, v = 0.2, t = 0.2)
movej(p[0.475423657096149, -0.0207479464152963, 0.22444547482763, -1.2052138207773, 1.19439629843971, -1.23685321460542], a = 0.2, v = 0.2, t = 0.2)
movej(p[0.475403508109261, -0.0210138623639381, 0.224570079600758, -1.2058297129195, 1.19516843651103, -1.23471542209384], a = 0.2, v = 0.2, t = 0.2)
movej(p[0.475513959169664, -0.021131501062527, 0.224651818825852, -1.20926959906304, 1.19516781545982, -1.24409662982175], a = 0.2, v = 0.2, t = 0.2)
movej(p[0.475802558713905, -0.0210529925683524, 0.224625387126788, -1.21091242147445, 1.19939418366371, -1.24431058956223], a = 0.2, v = 0.2, t = 0.2)
movej(p[0.476081944179669, -0.0210606216539899, 0.224598084429469, -1.20707239064325, 1.20272141524098, -1.23623949161496], a = 0.2, v = 0.2, t = 0.2)
movej(p[0.476248196570743, -0.0212621729016006, 0.224673742162145, -1.19768528721664, 1.20737403859282, -1.21978466357002], a = 0.2, v = 0.2, t = 0.2)
movej(p[0.476292149744715, -0.0214012078185156, 0.224774246672654, -1.20441212226242, 1.20600225622017, -1.23330769574143], a = 0.2, v = 0.2, t = 0.2)
movej(p[0.476446573391452, -0.0213286500028249, 0.224722103439912, -1.2072786306233, 1.2083456609928, -1.23368543051072], a = 0.2, v = 0.2, t = 0.2)
movej(p[0.476456290855936, -0.0212652887584739, 0.224648830890493, -1.21144943650513, 1.20691709725903, -1.23868400259957], a = 0.2, v = 0.2, t = 0.2)
movej(p[0.476313114758621, -0.0214526690497806, 0.224663586722848, -1.20145701987555, 1.20796117742367, -1.22405544219906], a = 0.2, v = 0.2, t = 0.2)
movej(p[0.475923689796229, -0.0216684087575351, 0.224747246855442, -1.19200964935462, 1.20909959264557, -1.22610850579995], a = 0.2, v = 0.2, t = 0.2)
movej(p[0.475684258766992, -0.0216066605009521, 0.224730804931983, -1.19089592706119, 1.20961394633666, -1.23220268126812], a = 0.2, v = 0.2, t = 0.2)
movej(p[0.475387675465192, -0.0213878900964255, 0.224647566415076, -1.1912186206023, 1.20918043123666, -1.23717271920868], a = 0.2, v = 0.2, t = 0.2)
movej(p[0.475025356079654, -0.0212927508237034, 0.224599107918921, -1.19869483098529, 1.20380525257865, -1.24623483769288], a = 0.2, v = 0.2, t = 0.2)
movej(p[0.474395726421927, -0.0213744487849958, 0.224646794396364, -1.1935061620146, 1.20185584520411, -1.24215021127544], a = 0.2, v = 0.2, t = 0.2)
movej(p[0.473753846478168, -0.0212668157016642, 0.224629003371306, -1.19010493931788, 1.19702114435231, -1.25138584160015], a = 0.2, v = 0.2, t = 0.2)
movej(p[0.473297052647922, -0.02087143969662, 0.224555620042923, -1.19384042043029, 1.19249929719417, -1.25193230985696], a = 0.2, v = 0.2, t = 0.2)
movej(p[0.472920767741646, -0.0205619037155249, 0.224553443666094, -1.19977158524967, 1.18368840217122, -1.25825645922826], a = 0.2, v = 0.2, t = 0.2)
movej(p[0.472807308948533, -0.0205593884433978, 0.224752420494321, -1.20509550552543, 1.17967560509963, -1.25436009170829], a = 0.2, v = 0.2, t = 0.2)
movej(p[0.473069691550394, -0.0206110928032219, 0.224916556686295, -1.19982057845789, 1.17854288853715, -1.25641990934172], a = 0.2, v = 0.2, t = 0.2)
movej(p[0.473956030157354, -0.0205442659513757, 0.224934643352213, -1.20522865555633, 1.18091482398547, -1.25603070958854], a = 0.2, v = 0.2, t = 0.2)
movej(p[0.474947096868748, -0.0204804612893083, 0.224894757732418, -1.20994843356231, 1.18490567054957, -1.25632529168581], a = 0.2, v = 0.2, t = 0.2)
movej(p[0.47590268560634, -0.0206249404394229, 0.224932435884823, -1.21820324940085, 1.19226113937651, -1.24966011746222], a = 0.2, v = 0.2, t = 0.2)
movej(p[0.476368030243821, -0.0208810413610248, 0.225042109544588, -1.21606650641899, 1.2008249622241, -1.24299332218548], a = 0.2, v = 0.2, t = 0.2)
movej(p[0.476709078062029, -0.0209462891172049, 0.224987752196117, -1.21780712720972, 1.20712481065089, -1.24034698605934], a = 0.2, v = 0.2, t = 0.2)
movej(p[0.476834557370882, -0.020927695697654, 0.224880816804411, -1.21907081409663, 1.21013244841666, -1.23709702892172], a = 0.2, v = 0.2, t = 0.2)
movej(p[0.476855225594566, -0.0210407143883867, 0.224848832141277, -1.22185402174148, 1.21068957321227, -1.23509694337576], a = 0.2, v = 0.2, t = 0.2)
movej(p[0.476688688988513, -0.0213080364942853, 0.22493191354054, -1.21491072195655, 1.21249417271233, -1.22986182473513], a = 0.2, v = 0.2, t = 0.2)
movej(p[0.4763574399066, -0.0213289037784483, 0.224861379967457, -1.20817624683931, 1.21184125582469, -1.23806184914664], a = 0.2, v = 0.2, t = 0.2)
movej(p[0.475762887750107, -0.0211663166076568, 0.224691035458001, -1.20768442995906, 1.20872399306516, -1.24832528401076], a = 0.2, v = 0.2, t = 0.2)
movej(p[0.47497324091134, -0.0210541900272336, 0.224616627454283, -1.20730815402419, 1.20238439384437, -1.25916921734032], a = 0.2, v = 0.2, t = 0.2)
movej(p[0.474015005699143, -0.021097184883969, 0.224752134417834, -1.20674363024942, 1.19604709526168, -1.25962058679518], a = 0.2, v = 0.2, t = 0.2)
movej(p[0.473196743371925, -0.0210035694241732, 0.224881857833054, -1.20392371808513, 1.18905507563623, -1.26769750527562], a = 0.2, v = 0.2, t = 0.2)
movej(p[0.472726687106398, -0.0206760573418718, 0.224844551257911, -1.20327093100648, 1.18415282125152, -1.26416652276262], a = 0.2, v = 0.2, t = 0.2)
movej(p[0.472441491687456, -0.0204485708145683, 0.224797735193252, -1.20141989511024, 1.17691320401062, -1.26167341987541], a = 0.2, v = 0.2, t = 0.2)
movej(p[0.472422189955551, -0.0205013856960844, 0.224910352186356, -1.19949119984104, 1.17420596873333, -1.24951114582203], a = 0.2, v = 0.2, t = 0.2)
movej(p[0.472793298887106, -0.0206078579865194, 0.225001957716179, -1.20072305769509, 1.17345641275676, -1.25671340411333], a = 0.2, v = 0.2, t = 0.2)
movej(p[0.473735616397011, -0.0205622224448733, 0.224962593806459, -1.20448463191102, 1.1806990081619, -1.25357704020437], a = 0.2, v = 0.2, t = 0.2)
movej(p[0.474768931070807, -0.0205029596048083, 0.224897179104704, -1.20796948301505, 1.18850605585164, -1.25106529349079], a = 0.2, v = 0.2, t = 0.2)
movej(p[0.475633606137947, -0.0206968322823492, 0.224936348723922, -1.2111025757517, 1.19594601631912, -1.24101579810821], a = 0.2, v = 0.2, t = 0.2)
movej(p[0.476155849230068, -0.020957833524601, 0.225049891616302, -1.2177575831101, 1.20092228370322, -1.24655586567459], a = 0.2, v = 0.2, t = 0.2)
movej(p[0.476487532725568, -0.021040148425083, 0.225008154985187, -1.22369109963682, 1.20594397586014, -1.24928795037207], a = 0.2, v = 0.2, t = 0.2)
movej(p[0.476591689542307, -0.0210183481107312, 0.224935807232036, -1.22404924038611, 1.21101288116552, -1.24471187739309], a = 0.2, v = 0.2, t = 0.2)
movej(p[0.476591665589628, -0.0211132116200992, 0.224903691694976, -1.22479822556096, 1.2130087807984, -1.24087467134515], a = 0.2, v = 0.2, t = 0.2)
movej(p[0.476363060907784, -0.0213380457264638, 0.224959881313931, -1.21367200088295, 1.21496457747077, -1.23227152369831], a = 0.2, v = 0.2, t = 0.2)
movej(p[0.475985802840712, -0.021354903000439, 0.22487146012435, -1.20995058468656, 1.21404173983754, -1.24511878317709], a = 0.2, v = 0.2, t = 0.2)
movej(p[0.475445826836412, -0.021158516544575, 0.224712199702828, -1.20616263374135, 1.211198411983, -1.24771229895479], a = 0.2, v = 0.2, t = 0.2)
movej(p[0.474762556964961, -0.0210324403861154, 0.224633637316082, -1.20710240740709, 1.2046697878731, -1.25627604124756], a = 0.2, v = 0.2, t = 0.2)
movej(p[0.473954971893072, -0.0211011323251986, 0.224762015359267, -1.20620447024898, 1.19862855979785, -1.25376730625514], a = 0.2, v = 0.2, t = 0.2)
movej(p[0.473168572539245, -0.0210421144818462, 0.224868799291057, -1.20578720010436, 1.19272729705463, -1.26525021189223], a = 0.2, v = 0.2, t = 0.2)
movej(p[0.472721421461955, -0.0207434592271554, 0.224839723572252, -1.2120206502341, 1.18711610689941, -1.27082565158886], a = 0.2, v = 0.2, t = 0.2)
movej(p[0.472480065133708, -0.0204701883300978, 0.22478491508535, -1.2136617940304, 1.17981809473798, -1.27366402535898], a = 0.2, v = 0.2, t = 0.2)
movej(p[0.472577294768648, -0.0204333977440472, 0.224856643875716, -1.21310374464683, 1.17609742582717, -1.26485460268125], a = 0.2, v = 0.2, t = 0.2)
movej(p[0.472909365660002, -0.0205656555331663, 0.225021096746601, -1.20996701308559, 1.1762453055365, -1.26587454759321], a = 0.2, v = 0.2, t = 0.2)
movej(p[0.473842560392178, -0.0205165476086205, 0.225038182790181, -1.21287049748159, 1.18057256056251, -1.26608892768486], a = 0.2, v = 0.2, t = 0.2)
movej(p[0.474844376626301, -0.0204226348198243, 0.224968134715994, -1.21875745475151, 1.18766471133823, -1.26370238894424], a = 0.2, v = 0.2, t = 0.2)
movej(p[0.475730253606337, -0.0205330051196699, 0.224920535260601, -1.21717892670504, 1.19542161268686, -1.2467399439453], a = 0.2, v = 0.2, t = 0.2)
movej(p[0.476235291638882, -0.0208445237588265, 0.225000412961389, -1.2178226159564, 1.20268119410368, -1.2378364691756], a = 0.2, v = 0.2, t = 0.2)
movej(p[0.476505346289572, -0.0210054710995066, 0.224972851490554, -1.21383260961577, 1.20739978285918, -1.2348827636856], a = 0.2, v = 0.2, t = 0.2)
movej(p[0.476711257882025, -0.0210241217054246, 0.22487896349038, -1.21674106553479, 1.21048180343268, -1.23506051635792], a = 0.2, v = 0.2, t = 0.2)
movej(p[0.476748849464306, -0.0210991931344395, 0.224811153538586, -1.21688775853755, 1.21099959982432, -1.23300650809492], a = 0.2, v = 0.2, t = 0.2)
movej(p[0.476746758038327, -0.0213094007003446, 0.224870994390056, -1.21354614618095, 1.21261783943857, -1.22611505574138], a = 0.2, v = 0.2, t = 0.2)
movej(p[0.476600433979289, -0.0214936891871171, 0.224939297949186, -1.20921409111543, 1.2144615613897, -1.23184267502875], a = 0.2, v = 0.2, t = 0.2)
movej(p[0.476539529249048, -0.021376880721964, 0.224811227283915, -1.20979079173225, 1.21449387326212, -1.23702254660955], a = 0.2, v = 0.2, t = 0.2)
movej(p[0.476219599051515, -0.0213307399865056, 0.224687186546015, -1.20829302138884, 1.21228369950118, -1.24023760009552], a = 0.2, v = 0.2, t = 0.2)
movej(p[0.475728335595021, -0.021423921349178, 0.224676432098327, -1.20767775850453, 1.20873296140116, -1.24019333604704], a = 0.2, v = 0.2, t = 0.2)
movej(p[0.475033534431708, -0.0215968825889038, 0.224823285429956, -1.20075774687404, 1.20962578108531, -1.2448664731094], a = 0.2, v = 0.2, t = 0.2)
movej(p[0.474583803032065, -0.0214325419238664, 0.224806120640703, -1.19962916938277, 1.20789494329202, -1.25322918162545], a = 0.2, v = 0.2, t = 0.2)
movej(p[0.47416946516136, -0.0211162303256076, 0.224705679713607, -1.20301850787331, 1.20288651533202, -1.25869808902677], a = 0.2, v = 0.2, t = 0.2)
movej(p[0.473803191012053, -0.0209155904967168, 0.224662192702203, -1.20500569817524, 1.19355253583148, -1.26069429899218], a = 0.2, v = 0.2, t = 0.2)
movej(p[0.473488433667665, -0.0210136599759456, 0.224832625946677, -1.20426423160538, 1.18901537965704, -1.25453317773667], a = 0.2, v = 0.2, t = 0.2)
movej(p[0.473491555216318, -0.0210135084144986, 0.224952034302595, -1.20107394240855, 1.18780505456873, -1.25813904912151], a = 0.2, v = 0.2, t = 0.2)
movej(p[0.473989309792019, -0.020856466116287, 0.224935176874423, -1.20538780065664, 1.19033552689141, -1.25686691105862], a = 0.2, v = 0.2, t = 0.2)
movej(p[0.474670355475667, -0.0207118331854198, 0.224865847664178, -1.21059060502094, 1.19170714808059, -1.25816054335384], a = 0.2, v = 0.2, t = 0.2)
movej(p[0.475386060356131, -0.0208245833393243, 0.224914506758649, -1.21577217268009, 1.19471274904384, -1.24982353958761], a = 0.2, v = 0.2, t = 0.2)
movej(p[0.4758046041958, -0.0210088329225179, 0.224998091970068, -1.20886108647058, 1.20064766932369, -1.24280903035938], a = 0.2, v = 0.2, t = 0.2)
movej(p[0.476262808176851, -0.0210205960849426, 0.224952265330168, -1.21161193284576, 1.20707584059635, -1.24206974282964], a = 0.2, v = 0.2, t = 0.2)
movej(p[0.476489595712095, -0.020984256027753, 0.224855594599397, -1.21108959173992, 1.21292894995743, -1.23634822808541], a = 0.2, v = 0.2, t = 0.2)
movej(p[0.476653645142403, -0.0210905051197553, 0.224852488707359, -1.21805249230275, 1.21319467028405, -1.23736240294321], a = 0.2, v = 0.2, t = 0.2)
movej(p[0.476517965741078, -0.0213621047956995, 0.224936323638886, -1.21653737710888, 1.21278015572396, -1.23568695746807], a = 0.2, v = 0.2, t = 0.2)
movej(p[0.476210950044439, -0.021450909871215, 0.224898534208613, -1.21709778715531, 1.21155484923245, -1.25083441074731], a = 0.2, v = 0.2, t = 0.2)
movej(p[0.475760147081156, -0.0212790842135913, 0.2247016158273, -1.21049483041863, 1.21203182833766, -1.25042295244804], a = 0.2, v = 0.2, t = 0.2)
movej(p[0.475093521372081, -0.0211254991579219, 0.224545180210666, -1.20483912480688, 1.2078149458619, -1.25301150724054], a = 0.2, v = 0.2, t = 0.2)
movej(p[0.474365188180909, -0.0211873633721945, 0.224616406464524, -1.19363397682025, 1.20392201697507, -1.24125039598943], a = 0.2, v = 0.2, t = 0.2)
movej(p[0.47347016558804, -0.0212269077919973, 0.224793373218364, -1.19998835620248, 1.19506537941709, -1.25960916813821], a = 0.2, v = 0.2, t = 0.2)
movej(p[0.47284751008922, -0.020984339350328, 0.224831157801149, -1.20473216921621, 1.18837503073696, -1.26523475885836], a = 0.2, v = 0.2, t = 0.2)
movej(p[0.472332214347797, -0.020655975392939, 0.224811592105171, -1.21243112689468, 1.17968685405112, -1.27299236945618], a = 0.2, v = 0.2, t = 0.2)
movej(p[0.472083751395597, -0.0204803084292351, 0.224821197168783, -1.20656094822141, 1.17454361803901, -1.25974911396618], a = 0.2, v = 0.2, t = 0.2)
movej(p[0.472070376975408, -0.020563858128504, 0.224973235689681, -1.20434456891787, 1.17179467093978, -1.25777996569716], a = 0.2, v = 0.2, t = 0.2)
movej(p[0.472588065575108, -0.0205502238430573, 0.22503762505555, -1.20831142236482, 1.17232788264062, -1.26595239826602], a = 0.2, v = 0.2, t = 0.2)
movej(p[0.473507255007901, -0.0204099475786897, 0.224988115397172, -1.21190111954739, 1.17782984293243, -1.26523333259807], a = 0.2, v = 0.2, t = 0.2)
movej(p[0.474578503514165, -0.0203938291787737, 0.224945469727862, -1.21350523796635, 1.18423514857553, -1.25990717020158], a = 0.2, v = 0.2, t = 0.2)
movej(p[0.475448911309, -0.020601232058462, 0.225011101253739, -1.20933281976241, 1.1929681063157, -1.24388034515931], a = 0.2, v = 0.2, t = 0.2)
movej(p[0.476023430710254, -0.020790445188465, 0.225078575760786, -1.21126045206868, 1.19890524682843, -1.24737505494136], a = 0.2, v = 0.2, t = 0.2)
movej(p[0.476455858345382, -0.0208092679628972, 0.224978223504005, -1.21270485728255, 1.2071102822232, -1.24114977928431], a = 0.2, v = 0.2, t = 0.2)
movej(p[0.476659147659113, -0.0208523902118509, 0.22487921445458, -1.21008724011043, 1.21252097423573, -1.23342093050501], a = 0.2, v = 0.2, t = 0.2)
movej(p[0.47674809103608, -0.0210742494306949, 0.224877045282479, -1.20607132538852, 1.21667932882605, -1.22190070682904], a = 0.2, v = 0.2, t = 0.2)
movej(p[0.476630332568932, -0.0212804267728803, 0.224974097538425, -1.2098358512853, 1.21519441171419, -1.22999313591227], a = 0.2, v = 0.2, t = 0.2)
movej(p[0.476429288896568, -0.0212377027679274, 0.224869000620283, -1.21064955363727, 1.21456154692314, -1.24040230288156], a = 0.2, v = 0.2, t = 0.2)
movej(p[0.475963237304801, -0.0210961636319401, 0.224689231953486, -1.20629970228684, 1.21250668356422, -1.24397266998198], a = 0.2, v = 0.2, t = 0.2)
movej(p[0.475304807062248, -0.0210714403735609, 0.224595485208711, -1.19700662402163, 1.21012899537546, -1.24267543138573], a = 0.2, v = 0.2, t = 0.2)
movej(p[0.474435854581578, -0.0211909901198628, 0.224755361284224, -1.19198127277503, 1.20599710605761, -1.24360573379649], a = 0.2, v = 0.2, t = 0.2)
movej(p[0.473766736480724, -0.0210756816581885, 0.224848099512246, -1.19708439173917, 1.19950444433078, -1.26036546862033], a = 0.2, v = 0.2, t = 0.2)
movej(p[0.473284286777959, -0.0207362065733921, 0.224821393161665, -1.20554010347972, 1.19301684565688, -1.26810870976711], a = 0.2, v = 0.2, t = 0.2)
movej(p[0.472937281722958, -0.0205052971644167, 0.224782386198824, -1.21127729136584, 1.18492156737771, -1.27294282078242], a = 0.2, v = 0.2, t = 0.2)
movej(p[0.472700381432122, -0.0205290861064727, 0.224883609347549, -1.21048198330392, 1.18118072261116, -1.26429305475607], a = 0.2, v = 0.2, t = 0.2)
movej(p[0.472823004479043, -0.0206256619225556, 0.225022454044271, -1.21065831127248, 1.17912119575684, -1.2705476855998], a = 0.2, v = 0.2, t = 0.2)
movej(p[0.473574274300832, -0.0205606193418682, 0.225024812958354, -1.21252411738548, 1.18250837344094, -1.2658341983295], a = 0.2, v = 0.2, t = 0.2)
movej(p[0.47449478631398, -0.0204677601450521, 0.224955173490959, -1.21288182620471, 1.18666297263297, -1.26015126371126], a = 0.2, v = 0.2, t = 0.2)
movej(p[0.475404333926369, -0.0206067964869208, 0.224926535862977, -1.20825590343361, 1.19394799182723, -1.24130598809115], a = 0.2, v = 0.2, t = 0.2)
movej(p[0.475909785779652, -0.0208640310341178, 0.224972005434573, -1.20292116760319, 1.20152410492143, -1.23129484743414], a = 0.2, v = 0.2, t = 0.2)
movej(p[0.476352365699677, -0.0210118139740301, 0.224942878230869, -1.20861349653518, 1.20698428909933, -1.23407058748171], a = 0.2, v = 0.2, t = 0.2)
movej(p[0.476628502209782, -0.0210255258004371, 0.224862468252497, -1.21334508944454, 1.21059753998583, -1.23364574753619], a = 0.2, v = 0.2, t = 0.2)
movej(p[0.476777024486432, -0.0211694522962995, 0.224850018799164, -1.21823085918257, 1.21147073891119, -1.23373859173451], a = 0.2, v = 0.2, t = 0.2)
movej(p[0.476735695085572, -0.0213919248321082, 0.224929361557651, -1.21235936672161, 1.21272908701755, -1.22741317805424], a = 0.2, v = 0.2, t = 0.2)
movej(p[0.476678464839992, -0.0214984054016945, 0.224950963432372, -1.21537940542448, 1.21327542866219, -1.24069565750859], a = 0.2, v = 0.2, t = 0.2)
movej(p[0.476719392538513, -0.021390058695138, 0.22483402265902, -1.21663141268733, 1.21554548837735, -1.23881683832965], a = 0.2, v = 0.2, t = 0.2)
movej(p[0.476727474689549, -0.0213608644435044, 0.224733190569355, -1.21627112665714, 1.21544463096798, -1.23742621593515], a = 0.2, v = 0.2, t = 0.2)
movej(p[0.476728400823219, -0.021533486678731, 0.224759245725885, -1.20712838118345, 1.21761184064797, -1.2217353349835], a = 0.2, v = 0.2, t = 0.2)
movej(p[0.476554842714435, -0.021634732963592, 0.224794070936249, -1.20184183270143, 1.21659857796017, -1.22878243410582], a = 0.2, v = 0.2, t = 0.2)
movej(p[0.47645865335182, -0.0215062666003078, 0.224676708904381, -1.20060394493499, 1.21637245505074, -1.23372872002684], a = 0.2, v = 0.2, t = 0.2)
movej(p[0.476105412955793, -0.0213749945809347, 0.224592236179525, -1.19999896390224, 1.21420462204031, -1.23839675092459], a = 0.2, v = 0.2, t = 0.2)
movej(p[0.475757622344385, -0.0214576891223445, 0.224631392041632, -1.19616992355933, 1.21283009856805, -1.23276826791994], a = 0.2, v = 0.2, t = 0.2)
movej(p[0.475260215116419, -0.021601741511494, 0.22478387599898, -1.19129954526818, 1.21240295759172, -1.23379228139649], a = 0.2, v = 0.2, t = 0.2)
movej(p[0.474991955792712, -0.0214749029062802, 0.224779824533667, -1.19299246196504, 1.21044356753369, -1.240750575369], a = 0.2, v = 0.2, t = 0.2)
movej(p[0.474676281445078, -0.0212066049735231, 0.224684128263498, -1.19504226582924, 1.20720508929372, -1.24637225612158], a = 0.2, v = 0.2, t = 0.2)
movej(p[0.474328980679092, -0.0210348740788649, 0.224619602783807, -1.19985271552903, 1.20110108482978, -1.25314979398321], a = 0.2, v = 0.2, t = 0.2)
movej(p[0.473856087868976, -0.0210954002261716, 0.224718535759827, -1.19724393819107, 1.19806235401594, -1.25095656277112], a = 0.2, v = 0.2, t = 0.2)
movej(p[0.473695976647965, -0.0210141410636813, 0.224814230026398, -1.19854777553543, 1.19496921656249, -1.25968630738849], a = 0.2, v = 0.2, t = 0.2)
movej(p[0.474033898737528, -0.0207545154832384, 0.224840497655693, -1.20065168657151, 1.19451665409159, -1.25629930975802], a = 0.2, v = 0.2, t = 0.2)
movej(p[0.474640059907679, -0.0205479636640402, 0.224833918971391, -1.20479888118397, 1.19295140222024, -1.2554435366147], a = 0.2, v = 0.2, t = 0.2)
movej(p[0.475280949758492, -0.0206356711405965, 0.224869856106517, -1.20708802792901, 1.19511560697789, -1.24479267162274], a = 0.2, v = 0.2, t = 0.2)
movej(p[0.475701284261338, -0.0207910442818596, 0.224908537126296, -1.20865159642179, 1.19768242839176, -1.24847472994338], a = 0.2, v = 0.2, t = 0.2)
movej(p[0.476156058788569, -0.0208409628975905, 0.224808886758585, -1.21162206896438, 1.20118431703055, -1.24802868827855], a = 0.2, v = 0.2, t = 0.2)
movej(p[0.47642905217851, -0.0209232587263888, 0.224741370346424, -1.2111906154543, 1.20455856793818, -1.24368269103287], a = 0.2, v = 0.2, t = 0.2)
movej(p[0.476642302223728, -0.0211130964665804, 0.224746966212275, -1.20906262795953, 1.20834314042701, -1.23191393672342], a = 0.2, v = 0.2, t = 0.2)
movej(p[0.476615876337163, -0.0213734631960115, 0.224889308317802, -1.20710681297523, 1.21230788819439, -1.23036807364793], a = 0.2, v = 0.2, t = 0.2)
movej(p[0.476654334708011, -0.0213863301506222, 0.224862802986436, -1.20494751801852, 1.21411489918566, -1.23037979544926], a = 0.2, v = 0.2, t = 0.2)
movej(p[0.476516924215831, -0.0213088605628474, 0.22474845602754, -1.20256775729289, 1.21348639255057, -1.23011116133377], a = 0.2, v = 0.2, t = 0.2)
movej(p[0.47622798515264, -0.0213785659247818, 0.224655260042841, -1.19606162699885, 1.21123124749925, -1.22646693333954], a = 0.2, v = 0.2, t = 0.2)
movej(p[0.475691270211179, -0.0215503578870821, 0.224724963252274, -1.19883979256518, 1.20906633835938, -1.24108128381998], a = 0.2, v = 0.2, t = 0.2)
movej(p[0.475309052754501, -0.0214585579960333, 0.224676155621581, -1.19498217076995, 1.2090298734218, -1.24650459004353], a = 0.2, v = 0.2, t = 0.2)
movej(p[0.47496264207568, -0.021206235144503, 0.224616520229451, -1.1979689345037, 1.20727234108276, -1.25212940059387], a = 0.2, v = 0.2, t = 0.2)
movej(p[0.47464347056031, -0.0210624119325935, 0.224551002737981, -1.19604595802974, 1.2026384609555, -1.25126465134037], a = 0.2, v = 0.2, t = 0.2)
movej(p[0.474139709840306, -0.0211024577500848, 0.224616308795952, -1.19237226308783, 1.19862449309497, -1.24831625833096], a = 0.2, v = 0.2, t = 0.2)
movej(p[0.473722951861734, -0.0209867338754854, 0.224598799136177, -1.19164304302232, 1.19332958124881, -1.26014477104764], a = 0.2, v = 0.2, t = 0.2)
movej(p[0.473530833521594, -0.0206639274346874, 0.224497880982897, -1.19616714573605, 1.18943119203682, -1.26096662237367], a = 0.2, v = 0.2, t = 0.2)
movej(p[0.473513178011264, -0.0204288273858529, 0.224486057764512, -1.20348471046403, 1.18373022560857, -1.26636301348579], a = 0.2, v = 0.2, t = 0.2)
movej(p[0.473725237657668, -0.0205072245184503, 0.224672713939516, -1.20532777621553, 1.18126132174198, -1.25914984941042], a = 0.2, v = 0.2, t = 0.2)
movej(p[0.474078338346361, -0.0205659668640438, 0.224821436518094, -1.20680849839708, 1.1815408418666, -1.2651984822558], a = 0.2, v = 0.2, t = 0.2)
movej(p[0.474719625908214, -0.0204480791550688, 0.224832473002379, -1.21971329231871, 1.18282669181318, -1.27327058149131], a = 0.2, v = 0.2, t = 0.2)
movej(p[0.475238060795892, -0.0203783096413824, 0.224768849070577, -1.22876120869275, 1.1847431145481, -1.27554081711268], a = 0.2, v = 0.2, t = 0.2)
movej(p[0.475666648645219, -0.0205194246222689, 0.224787886044578, -1.23288221456826, 1.18826837912699, -1.26965657599921], a = 0.2, v = 0.2, t = 0.2)
movej(p[0.475865633608351, -0.0207922324724209, 0.224835123659279, -1.23167623014201, 1.19181465153284, -1.26857209600261], a = 0.2, v = 0.2, t = 0.2)
movej(p[0.476143536320494, -0.0208687740450412, 0.224757249062366, -1.22801732636836, 1.19675933827039, -1.26363317649579], a = 0.2, v = 0.2, t = 0.2)
movej(p[0.476316479693884, -0.0209099016217082, 0.224668939520558, -1.229436863004, 1.1993951929733, -1.26237456873964], a = 0.2, v = 0.2, t = 0.2)
movej(p[0.476452465670524, -0.0210806711603615, 0.224674378485288, -1.22197173398739, 1.20421339670643, -1.24805185743208], a = 0.2, v = 0.2, t = 0.2)
movej(p[0.476389089094837, -0.0213247323887236, 0.224776150784587, -1.2232967006655, 1.20676497402788, -1.25242644557403], a = 0.2, v = 0.2, t = 0.2)
movej(p[0.476300966319202, -0.0213415361932233, 0.224716261136961, -1.22043223305625, 1.20752693191564, -1.25564434366229], a = 0.2, v = 0.2, t = 0.2)
movej(p[0.476016266908351, -0.0212098913611294, 0.224587434957247, -1.21552477307613, 1.2064380905414, -1.25605560016894], a = 0.2, v = 0.2, t = 0.2)
movej(p[0.475522435464878, -0.0212037456306019, 0.224529425955067, -1.20829596443502, 1.20467180714606, -1.25305692619016], a = 0.2, v = 0.2, t = 0.2)
movej(p[0.474832811583234, -0.0213064989833048, 0.224645021851511, -1.2015907216959, 1.20415730780637, -1.25080842101855], a = 0.2, v = 0.2, t = 0.2)
movej(p[0.47416474575784, -0.0212404413666275, 0.224702853785768, -1.20304358095092, 1.19991594042344, -1.26704505392859], a = 0.2, v = 0.2, t = 0.2)
movej(p[0.473737990724498, -0.0209036273447006, 0.22458994900354, -1.20131158345571, 1.19667101544651, -1.26386922388728], a = 0.2, v = 0.2, t = 0.2)
movej(p[0.473416939312939, -0.020629000373102, 0.224534348520567, -1.20228231646797, 1.19006967293901, -1.26641765910407], a = 0.2, v = 0.2, t = 0.2)
movej(p[0.473098539332275, -0.0205911890556209, 0.224618807210372, -1.19615215005039, 1.18694901606277, -1.25139644934487], a = 0.2, v = 0.2, t = 0.2)
movej(p[0.472978580772988, -0.0205979204627379, 0.224807276057697, -1.19616728078085, 1.18215210765519, -1.25952442118132], a = 0.2, v = 0.2, t = 0.2)
movej(p[0.473380036981608, -0.0204757418144301, 0.224878744672892, -1.19966621962103, 1.18151436387379, -1.25820304993989], a = 0.2, v = 0.2, t = 0.2)
movej(p[0.474060482360696, -0.020283271334656, 0.224863300331108, -1.20640824112099, 1.18159594292517, -1.2633693016507], a = 0.2, v = 0.2, t = 0.2)
movej(p[0.474795833547069, -0.020315408198106, 0.224850031902083, -1.21117586799309, 1.18478752435971, -1.25914332134571], a = 0.2, v = 0.2, t = 0.2)
movej(p[0.475206667797615, -0.0204202178040688, 0.224847131682052, -1.2095288357961, 1.18901995617529, -1.25965660208361], a = 0.2, v = 0.2, t = 0.2)
movej(p[0.475656177828281, -0.0204547767823237, 0.224715270050588, -1.21259023419126, 1.19098191863235, -1.26095280970535], a = 0.2, v = 0.2, t = 0.2)
movej(p[0.475967964746035, -0.0204694828161375, 0.224585277153141, -1.21514310636951, 1.19440386976131, -1.25885460586273], a = 0.2, v = 0.2, t = 0.2)
movej(p[0.476246181134408, -0.0206249008740316, 0.224541797112179, -1.22356042367048, 1.19500277546187, -1.26011402808952], a = 0.2, v = 0.2, t = 0.2)
movej(p[0.476376290514226, -0.0209549188033135, 0.224651558292917, -1.21755601335576, 1.19963777212286, -1.2507758454618], a = 0.2, v = 0.2, t = 0.2)
movej(p[0.476504655429813, -0.0210718862244099, 0.224693055046927, -1.21924175967319, 1.20092255708042, -1.25971420637151], a = 0.2, v = 0.2, t = 0.2)
movej(p[0.476623255309113, -0.0210324768793727, 0.224630657954417, -1.22128886612845, 1.20235815495258, -1.25889866975494], a = 0.2, v = 0.2, t = 0.2)
movej(p[0.476666352342036, -0.0210636798666419, 0.224592696963075, -1.22191777124952, 1.20281150876321, -1.25624809997727], a = 0.2, v = 0.2, t = 0.2)
movej(p[0.476568186456896, -0.0213753336685655, 0.224647243329931, -1.21398879933353, 1.20461229359105, -1.24263409703632], a = 0.2, v = 0.2, t = 0.2)
movej(p[0.476335594119286, -0.0215557208576676, 0.224669295900049, -1.201887744747, 1.20770258470763, -1.24381028480596], a = 0.2, v = 0.2, t = 0.2)
movej(p[0.476203306320467, -0.021471338358121, 0.22458555597367, -1.19707938523607, 1.20934135696758, -1.24515476246915], a = 0.2, v = 0.2, t = 0.2)
movej(p[0.475921286263705, -0.0213482642555634, 0.224530450998727, -1.19220370659963, 1.21010939358281, -1.24480176907749], a = 0.2, v = 0.2, t = 0.2)
movej(p[0.475567009075027, -0.0213717628565087, 0.2245789792857, -1.18786373942336, 1.20958602107686, -1.2362216316715], a = 0.2, v = 0.2, t = 0.2)
movej(p[0.474953174658957, -0.0215327151600912, 0.224706678918118, -1.18637118557381, 1.20775767363984, -1.2396801327357], a = 0.2, v = 0.2, t = 0.2)
movej(p[0.474523940322829, -0.0213884359532675, 0.224625463284361, -1.18313373445749, 1.20552563359846, -1.24329359442613], a = 0.2, v = 0.2, t = 0.2)
movej(p[0.474120782946982, -0.0211211434710897, 0.224521138885317, -1.18595769863482, 1.20085123847431, -1.2483972688035], a = 0.2, v = 0.2, t = 0.2)
movej(p[0.473830911173997, -0.0209432223060108, 0.224494125695813, -1.18760593045518, 1.19500610377056, -1.24986539305222], a = 0.2, v = 0.2, t = 0.2)
movej(p[0.473429249363801, -0.0209319025430974, 0.224660707796285, -1.19945633614795, 1.18782639034949, -1.2650760763597], a = 0.2, v = 0.2, t = 0.2)
movej(p[0.473357028624793, -0.020781409005699, 0.224752872100429, -1.20431659454036, 1.18498435081509, -1.27154282944267], a = 0.2, v = 0.2, t = 0.2)
movej(p[0.473583305419388, -0.0205263357607638, 0.22479312398791, -1.21098991962738, 1.18177070855993, -1.27527615006998], a = 0.2, v = 0.2, t = 0.2)
movej(p[0.474069108845934, -0.0203489512009424, 0.224820995507305, -1.21082909406308, 1.18202605275044, -1.2672325747248], a = 0.2, v = 0.2, t = 0.2)
movej(p[0.474534437675557, -0.0204085617558604, 0.224871351565175, -1.2125876949938, 1.18177508099708, -1.26431659438652], a = 0.2, v = 0.2, t = 0.2)
movej(p[0.474943610711148, -0.0204657249361653, 0.224819743109835, -1.21202573208419, 1.18613456346122, -1.26520899979395], a = 0.2, v = 0.2, t = 0.2)
movej(p[0.475455550539356, -0.02045037987336, 0.224675701093943, -1.21005459818328, 1.1927162147071, -1.25532372748577], a = 0.2, v = 0.2, t = 0.2)
movej(p[0.475868056195214, -0.0205178128945682, 0.224620002820762, -1.20817189097945, 1.19684989542974, -1.24771729643565], a = 0.2, v = 0.2, t = 0.2)
movej(p[0.476175510327797, -0.0207848426983725, 0.224691503138512, -1.20535514197856, 1.20073815057289, -1.2363223536132], a = 0.2, v = 0.2, t = 0.2)
movej(p[0.476245123230421, -0.0210220717720492, 0.224772838982177, -1.21063486521237, 1.20073340303708, -1.24691078473744], a = 0.2, v = 0.2, t = 0.2)
movej(p[0.476399485676783, -0.0210838373363686, 0.224712212251723, -1.21279399414989, 1.20339057469357, -1.24575535459398], a = 0.2, v = 0.2, t = 0.2)
movej(p[0.476465443151901, -0.0210855699484034, 0.224640013123747, -1.21352667257886, 1.20456824897653, -1.24422377069907], a = 0.2, v = 0.2, t = 0.2)
movej(p[0.476525970682679, -0.0212415632565867, 0.224632931129324, -1.20923903826488, 1.20500797486081, -1.23622837919142], a = 0.2, v = 0.2, t = 0.2)
movej(p[0.476345480864772, -0.0214824689810367, 0.224723485183812, -1.20204777334915, 1.20759402087392, -1.23430507645125], a = 0.2, v = 0.2, t = 0.2)
movej(p[0.476238397547828, -0.0214982566652877, 0.224672626457341, -1.19781682254105, 1.20934880967817, -1.23918290800801], a = 0.2, v = 0.2, t = 0.2)
movej(p[0.476013391016871, -0.0213946949000816, 0.224587813162161, -1.19410272777587, 1.21085506652884, -1.23696783310823], a = 0.2, v = 0.2, t = 0.2)
movej(p[0.475789716373149, -0.0213912048132848, 0.22455459542669, -1.19502785397606, 1.20852276785643, -1.23881486286389], a = 0.2, v = 0.2, t = 0.2)
movej(p[0.475315670188293, -0.0215392065482619, 0.224672283271721, -1.19072878697172, 1.20771311545836, -1.23476685657257], a = 0.2, v = 0.2, t = 0.2)
movej(p[0.47492139669091, -0.0214754779162991, 0.224675841997554, -1.18949984880639, 1.20511444215983, -1.24668431071737], a = 0.2, v = 0.2, t = 0.2)
movej(p[0.474625253990449, -0.0211696249451128, 0.224566028842767, -1.18852274585359, 1.20381280316982, -1.24613778783377], a = 0.2, v = 0.2, t = 0.2)
movej(p[0.474364334901442, -0.0209575657814703, 0.224469257237681, -1.18697607689352, 1.19986773523184, -1.24633234883118], a = 0.2, v = 0.2, t = 0.2)
movej(p[0.474051830545078, -0.0210095759572762, 0.224540308651334, -1.18573097377781, 1.19826332550222, -1.23994684742356], a = 0.2, v = 0.2, t = 0.2)
movej(p[0.473626096223696, -0.0210248079737183, 0.224665219954811, -1.18589060206004, 1.19401538427573, -1.24950031398994], a = 0.2, v = 0.2, t = 0.2)
movej(p[0.47349585267834, -0.020789148914, 0.224691423050996, -1.19103172707158, 1.19054625540965, -1.25099284395511], a = 0.2, v = 0.2, t = 0.2)
movej(p[0.473537442122066, -0.0206001532224547, 0.224779974706248, -1.19308662563829, 1.18636386487088, -1.25139348571816], a = 0.2, v = 0.2, t = 0.2)
movej(p[0.473878439131139, -0.020557468050056, 0.224915760390546, -1.19480348616886, 1.18480198168498, -1.24537136596534], a = 0.2, v = 0.2, t = 0.2)
movej(p[0.474383544390987, -0.02073270483599, 0.225103295653261, -1.19579995566568, 1.18534219112484, -1.25064689172621], a = 0.2, v = 0.2, t = 0.2)
movej(p[0.475042619074701, -0.0207078007457242, 0.22501540579237, -1.20235022898617, 1.1891513877292, -1.25778865410226], a = 0.2, v = 0.2, t = 0.2)
movej(p[0.475634201110813, -0.0207077286251138, 0.224896285185366, -1.20733882110977, 1.19368825847179, -1.25182928574837], a = 0.2, v = 0.2, t = 0.2)
movej(p[0.475911313822167, -0.020924796602949, 0.224844617660706, -1.21043785297244, 1.19802265279558, -1.2445977291965], a = 0.2, v = 0.2, t = 0.2)
movej(p[0.476016998544808, -0.0212937233324091, 0.22494213087053, -1.21063384866185, 1.20090282986377, -1.23942451007927], a = 0.2, v = 0.2, t = 0.2)
movej(p[0.47603281701377, -0.021457706815249, 0.224938395968202, -1.20901481340933, 1.20248553666803, -1.24495618910038], a = 0.2, v = 0.2, t = 0.2)
movej(p[0.47612556619632, -0.0214033760053681, 0.224884432692412, -1.21008712838257, 1.2046505127172, -1.24542156098573], a = 0.2, v = 0.2, t = 0.2)
movej(p[0.476199984246738, -0.0214035793195797, 0.224873246352561, -1.20985542742242, 1.20538262923989, -1.24238073602885], a = 0.2, v = 0.2, t = 0.2)
movej(p[0.476205489288143, -0.0215953625446631, 0.224958321039423, -1.20838334919566, 1.20668050388316, -1.23693746349715], a = 0.2, v = 0.2, t = 0.2)
movej(p[0.476002959316093, -0.0217853361507375, 0.224988792560515, -1.20118578276807, 1.20774483812016, -1.23780258340308], a = 0.2, v = 0.2, t = 0.2)
movej(p[0.475832199417124, -0.0216946071493119, 0.224859030128339, -1.19545698162786, 1.20780480685444, -1.23993517509801], a = 0.2, v = 0.2, t = 0.2)
movej(p[0.475486389154513, -0.0216233448051449, 0.224788441696735, -1.19310823192219, 1.20741260035365, -1.24513736881028], a = 0.2, v = 0.2, t = 0.2)
movej(p[0.475107621014535, -0.0216300296602802, 0.224834797115506, -1.18980451874644, 1.20717774098046, -1.2425555752677], a = 0.2, v = 0.2, t = 0.2)
movej(p[0.474557412917578, -0.0216408954271227, 0.224953056964797, -1.19493266980655, 1.20589615864225, -1.25693110723955], a = 0.2, v = 0.2, t = 0.2)
movej(p[0.474258975504145, -0.0213640656986955, 0.224893997674062, -1.19144226221708, 1.20507935655906, -1.25452111953468], a = 0.2, v = 0.2, t = 0.2)
movej(p[0.473940718725261, -0.021013106015813, 0.224798022764267, -1.19227174153195, 1.20055288291796, -1.25597662522617], a = 0.2, v = 0.2, t = 0.2)
movej(p[0.473703654795103, -0.0208177672632838, 0.22478736339732, -1.19196492406733, 1.19538731369584, -1.24967212840217], a = 0.2, v = 0.2, t = 0.2)
movej(p[0.473326002229032, -0.020850314476945, 0.224943575369406, -1.19551553974624, 1.19106807361307, -1.25055361465236], a = 0.2, v = 0.2, t = 0.2)
movej(p[0.473112100271991, -0.0207720789323137, 0.225031763076141, -1.19733379955159, 1.18867700448817, -1.25407703963845], a = 0.2, v = 0.2, t = 0.2)
movej(p[0.473214598289547, -0.0205606197892207, 0.22505640929939, -1.20051491964094, 1.1861506558052, -1.25398171796726], a = 0.2, v = 0.2, t = 0.2)
movej(p[0.473635542641314, -0.0204566698999096, 0.225069703449687, -1.20239597711946, 1.18234207432584, -1.25482845071234], a = 0.2, v = 0.2, t = 0.2)
movej(p[0.4742390518277, -0.0205371426491836, 0.225191030143847, -1.20458375177121, 1.18088637265498, -1.25335415087253], a = 0.2, v = 0.2, t = 0.2)
movej(p[0.474762368688508, -0.0206144120842086, 0.225269639581633, -1.20631375690406, 1.18267768243045, -1.26119536880007], a = 0.2, v = 0.2, t = 0.2)
movej(p[0.475308307082623, -0.0205741692354498, 0.225201380405294, -1.20972889069634, 1.18790625216931, -1.25786558896171], a = 0.2, v = 0.2, t = 0.2)
movej(p[0.475693962766724, -0.0205726328356097, 0.225090362883128, -1.21389157505609, 1.19142436146501, -1.25670323133737], a = 0.2, v = 0.2, t = 0.2)
movej(p[0.475992620611246, -0.0207668054464514, 0.225019463421484, -1.20867643605286, 1.19722766912994, -1.23937071977562], a = 0.2, v = 0.2, t = 0.2)
movej(p[0.476112915957664, -0.0210082141776604, 0.225041666386341, -1.21058048734909, 1.1995415352915, -1.24114655146196], a = 0.2, v = 0.2, t = 0.2)
movej(p[0.476284660353498, -0.021062432022397, 0.224984450479633, -1.2075968967281, 1.20434178344725, -1.23718447130595], a = 0.2, v = 0.2, t = 0.2)
movej(p[0.476381932110646, -0.0210246301345134, 0.224875711351777, -1.20820647708468, 1.20695493347368, -1.23689146652044], a = 0.2, v = 0.2, t = 0.2)
movej(p[0.476484212581878, -0.0211437301203454, 0.224814736826209, -1.2072816449969, 1.20897993537487, -1.23133987584307], a = 0.2, v = 0.2, t = 0.2)
movej(p[0.476405515461831, -0.0214166808095582, 0.224857690332277, -1.20795850720076, 1.20853315646346, -1.23458953022807], a = 0.2, v = 0.2, t = 0.2)
movej(p[0.476275837347289, -0.0215444811748503, 0.224830252216888, -1.20700560762187, 1.20849549463963, -1.24155744116729], a = 0.2, v = 0.2, t = 0.2)
movej(p[0.476041434396718, -0.0214681880075665, 0.224735076360887, -1.2009756671663, 1.20918636567102, -1.23848267374708], a = 0.2, v = 0.2, t = 0.2)
movej(p[0.475635140673071, -0.0214771802689621, 0.224669827903739, -1.19978054685342, 1.20827147357584, -1.24237356967281], a = 0.2, v = 0.2, t = 0.2)
movej(p[0.475039761635569, -0.0215438793651559, 0.224742757621068, -1.1922439943156, 1.20783326947151, -1.23515549130454], a = 0.2, v = 0.2, t = 0.2)
movej(p[0.474299985119128, -0.0214936728497008, 0.22482998455285, -1.19523249376947, 1.20275761465518, -1.25422484522004], a = 0.2, v = 0.2, t = 0.2)
movej(p[0.473853184060483, -0.0211364310471403, 0.224759689451412, -1.19321863054632, 1.19866610726252, -1.25374590899412], a = 0.2, v = 0.2, t = 0.2)
movej(p[0.473449907553496, -0.0207532001814369, 0.224665382155654, -1.19671502006564, 1.19055722274483, -1.26001751399839], a = 0.2, v = 0.2, t = 0.2)
movej(p[0.47315106353767, -0.0206190225964895, 0.22466294217554, -1.19105806420435, 1.18610517196932, -1.24837138697305], a = 0.2, v = 0.2, t = 0.2)
movej(p[0.472707726538977, -0.0206249269093367, 0.22479943509726, -1.19197961019582, 1.18054424285069, -1.25378229546366], a = 0.2, v = 0.2, t = 0.2)
movej(p[0.472693937321915, -0.0205282063536031, 0.224860649524411, -1.19742676191126, 1.17660084217835, -1.25906343456802], a = 0.2, v = 0.2, t = 0.2)
movej(p[0.472979167963012, -0.020341380914714, 0.224886947023598, -1.20679640867403, 1.1727075879801, -1.26623901087102], a = 0.2, v = 0.2, t = 0.2)
movej(p[0.473637552437884, -0.020274789178232, 0.224927345939173, -1.21233558069635, 1.17142630624138, -1.26725785244841], a = 0.2, v = 0.2, t = 0.2)
movej(p[0.474324541208055, -0.0203722225060758, 0.224995757353964, -1.21071543630373, 1.17675243329066, -1.26285877229229], a = 0.2, v = 0.2, t = 0.2)
movej(p[0.475017634043434, -0.0204225643788989, 0.224944086276409, -1.20990001045095, 1.1841368324139, -1.26448910316505], a = 0.2, v = 0.2, t = 0.2)
movej(p[0.475620435645429, -0.0204219061631336, 0.224851531143198, -1.21614537487071, 1.19158071210247, -1.2601123399044], a = 0.2, v = 0.2, t = 0.2)
movej(p[0.47608370577009, -0.0205490100453268, 0.224808356030824, -1.22154415952735, 1.19430996804292, -1.25734228437024], a = 0.2, v = 0.2, t = 0.2)
movej(p[0.476403844515301, -0.0209110163387223, 0.224916771986552, -1.21996188285015, 1.198755313381, -1.24200736760085], a = 0.2, v = 0.2, t = 0.2)
movej(p[0.476480546004525, -0.0211186376489362, 0.224939941991989, -1.2166563823563, 1.2016189507028, -1.2451931639632], a = 0.2, v = 0.2, t = 0.2)
movej(p[0.476621011746117, -0.021137878341563, 0.224852005138924, -1.22253333887636, 1.20347492180154, -1.24856196305634], a = 0.2, v = 0.2, t = 0.2)
movej(p[0.476609432292404, -0.021141022860282, 0.224771133054137, -1.22212411500431, 1.20488435610054, -1.24808377102444], a = 0.2, v = 0.2, t = 0.2)
movej(p[0.476564798378129, -0.0213139886078714, 0.22480098423747, -1.21894344090483, 1.20587931565109, -1.23860192167676], a = 0.2, v = 0.2, t = 0.2)
movej(p[0.476231479552471, -0.0215484054698431, 0.224877020020896, -1.20799357525716, 1.20760340731635, -1.23831147954588], a = 0.2, v = 0.2, t = 0.2)
movej(p[0.476019502741395, -0.0214744479607021, 0.224762947881862, -1.20629424386861, 1.20556229781941, -1.24658728394205], a = 0.2, v = 0.2, t = 0.2)
movej(p[0.475643226162233, -0.0213773889005159, 0.224642616028598, -1.20500066531507, 1.20363954218665, -1.25394097604681], a = 0.2, v = 0.2, t = 0.2)
movej(p[0.475278475006289, -0.021352834536213, 0.224609793023998, -1.20016915175132, 1.20142151466099, -1.24911473945844], a = 0.2, v = 0.2, t = 0.2)
movej(p[0.47472258930932, -0.0214596606559782, 0.224739070496675, -1.19692384017706, 1.20132771951227, -1.25007480139621], a = 0.2, v = 0.2, t = 0.2)
movej(p[0.474360090399441, -0.0212793177307718, 0.224726206509568, -1.1958560876648, 1.20014590634914, -1.25642863350673], a = 0.2, v = 0.2, t = 0.2)
movej(p[0.47408770411121, -0.0209485651217813, 0.224620281269281, -1.19690052155885, 1.19677187199394, -1.25906003399547], a = 0.2, v = 0.2, t = 0.2)
movej(p[0.473898431337047, -0.0207872920912412, 0.224532435828985, -1.19590862338175, 1.19209379848553, -1.25633635127813], a = 0.2, v = 0.2, t = 0.2)
movej(p[0.473508846911587, -0.0208465306207001, 0.22462944563141, -1.19701519352542, 1.18670977289241, -1.25471659800726], a = 0.2, v = 0.2, t = 0.2)
movej(p[0.473264487132169, -0.0208562690557748, 0.224771910271181, -1.199576437039, 1.18133985212296, -1.26077776180333], a = 0.2, v = 0.2, t = 0.2)
movej(p[0.473459479843519, -0.020711468530901, 0.224852623965909, -1.20707353190349, 1.17867088129997, -1.26348794551316], a = 0.2, v = 0.2, t = 0.2)
movej(p[0.474092176626679, -0.0206043417186328, 0.224890415943527, -1.21093636971953, 1.17692185419908, -1.2619525785765], a = 0.2, v = 0.2, t = 0.2)
movej(p[0.474867098823416, -0.0207215324726905, 0.224922544982836, -1.21074442931325, 1.18106713931655, -1.25197752447981], a = 0.2, v = 0.2, t = 0.2)
movej(p[0.475429565076948, -0.0208586785209326, 0.22495564274846, -1.21151935883128, 1.18582012537888, -1.25480233768968], a = 0.2, v = 0.2, t = 0.2)
movej(p[0.475964604327354, -0.0209183818936508, 0.224894569390021, -1.21089220563578, 1.19240646290244, -1.24825990109135], a = 0.2, v = 0.2, t = 0.2)
movej(p[0.476284252931371, -0.0209655794693346, 0.224850682229897, -1.21345709392704, 1.19731220392477, -1.24586758859414], a = 0.2, v = 0.2, t = 0.2)
movej(p[0.476489978138719, -0.0211742350207442, 0.224876577156342, -1.20923897741445, 1.20313141908204, -1.23186368933833], a = 0.2, v = 0.2, t = 0.2)
movej(p[0.476466502271176, -0.0214067600287852, 0.224977413106195, -1.21032038890047, 1.20751553598655, -1.2349189589326], a = 0.2, v = 0.2, t = 0.2)
movej(p[0.476496766564435, -0.0214370512543462, 0.224945897757433, -1.21086655987061, 1.21087837509466, -1.23658949579943], a = 0.2, v = 0.2, t = 0.2)
movej(p[0.476413110125491, -0.02134755281862, 0.224796373557633, -1.2077426720172, 1.21128587348623, -1.23425185061016], a = 0.2, v = 0.2, t = 0.2)
movej(p[0.476089210899235, -0.021422349191059, 0.22470257241638, -1.2065780753251, 1.20908588792292, -1.23526329190652], a = 0.2, v = 0.2, t = 0.2)
movej(p[0.475448164464164, -0.0216161929999004, 0.224729875450231, -1.19817313638044, 1.2068506940106, -1.23330245228308], a = 0.2, v = 0.2, t = 0.2)
movej(p[0.47465930950731, -0.0216486645936956, 0.22477478047826, -1.19709520511038, 1.20381604355947, -1.25057415491568], a = 0.2, v = 0.2, t = 0.2)
movej(p[0.47415581085997, -0.0212737519932468, 0.224637522322029, -1.19371308604429, 1.20094327699879, -1.2518739177922], a = 0.2, v = 0.2, t = 0.2)
movej(p[0.47374686048693, -0.0209318354940696, 0.224528402853184, -1.19466936662535, 1.19683491002274, -1.25710222554944], a = 0.2, v = 0.2, t = 0.2)
movej(p[0.473423398695486, -0.0207783131429312, 0.224555247265579, -1.19271140255844, 1.19320229098311, -1.24895770641695], a = 0.2, v = 0.2, t = 0.2)
movej(p[0.473036425923239, -0.020757310877433, 0.224694623539325, -1.19674525624052, 1.18842541154842, -1.2595988048955], a = 0.2, v = 0.2, t = 0.2)
movej(p[0.47292458750434, -0.0204938566671813, 0.224664276367156, -1.19504400563784, 1.18463256918494, -1.25857122118144], a = 0.2, v = 0.2, t = 0.2)
movej(p[0.472903098189317, -0.0202210845036194, 0.224666431854488, -1.20431543570006, 1.17652940217381, -1.2660441770705], a = 0.2, v = 0.2, t = 0.2)
movej(p[0.473036706929744, -0.0201742746459193, 0.224715643534034, -1.20542658117333, 1.17067911701661, -1.26166041589549], a = 0.2, v = 0.2, t = 0.2)
movej(p[0.473070878605236, -0.020399733211989, 0.224902698569732, -1.21281888471516, 1.1658305646999, -1.2662243222857], a = 0.2, v = 0.2, t = 0.2)
movej(p[0.473341363104864, -0.0204629337934215, 0.22488184943623, -1.21150080338631, 1.16872989198761, -1.26914463341887], a = 0.2, v = 0.2, t = 0.2)
movej(p[0.473897138423127, -0.0203121906089522, 0.224763547338002, -1.2149429766404, 1.17313396215614, -1.27047874252124], a = 0.2, v = 0.2, t = 0.2)
movej(p[0.474645041027274, -0.0202181111013591, 0.224698851914193, -1.2170742163864, 1.17618334554051, -1.26901725226111], a = 0.2, v = 0.2, t = 0.2)
movej(p[0.475255868751224, -0.0203763424214849, 0.224767700343986, -1.21553288370994, 1.1796505382091, -1.26034705944679], a = 0.2, v = 0.2, t = 0.2)
movej(p[0.475623757812902, -0.0205388012921425, 0.224813455926622, -1.21873797812807, 1.18203662412088, -1.26643759724981], a = 0.2, v = 0.2, t = 0.2)
movej(p[0.475952001224305, -0.0205669037865253, 0.224729900467315, -1.21665107053364, 1.18722211286796, -1.2581554745089], a = 0.2, v = 0.2, t = 0.2)
movej(p[0.476167131068293, -0.0205993474613059, 0.224664104836817, -1.21914101103534, 1.19026786955063, -1.25918839626502], a = 0.2, v = 0.2, t = 0.2)
movej(p[0.476336938344229, -0.0207994687493146, 0.224683622627517, -1.21124613449802, 1.19518955938103, -1.24542520377365], a = 0.2, v = 0.2, t = 0.2)
movej(p[0.476314710621729, -0.0209947649035275, 0.224730320275617, -1.21042830023324, 1.19790969381574, -1.25092992973391], a = 0.2, v = 0.2, t = 0.2)
movej(p[0.476284257121551, -0.0210206301104939, 0.224608899894373, -1.21032643463741, 1.19937945380206, -1.25537190684062], a = 0.2, v = 0.2, t = 0.2)
movej(p[0.476092419949311, -0.0209955276503438, 0.224429003270862, -1.20885449993557, 1.19784018141249, -1.25656720790381], a = 0.2, v = 0.2, t = 0.2)
movej(p[0.475886213432418, -0.0211263339706864, 0.224335641787957, -1.20405217396633, 1.19637274783265, -1.25060546668028], a = 0.2, v = 0.2, t = 0.2)
movej(p[0.475542976070302, -0.0213730019798477, 0.224437507586561, -1.19621254476423, 1.19802039345935, -1.2419997380834], a = 0.2, v = 0.2, t = 0.2)
movej(p[0.475309985749974, -0.0213673829307754, 0.224477598491025, -1.19613223422625, 1.19796713897266, -1.25304619371893], a = 0.2, v = 0.2, t = 0.2)
movej(p[0.475116832651838, -0.0211315346934197, 0.224405172990394, -1.19769470371807, 1.1995241727927, -1.25513105976916], a = 0.2, v = 0.2, t = 0.2)
movej(p[0.474916590873789, -0.0209672697878238, 0.224350207301654, -1.20056729868037, 1.19580559207305, -1.26357609463455], a = 0.2, v = 0.2, t = 0.2)
movej(p[0.474555407279628, -0.0209679234593821, 0.224384312521526, -1.19443644250241, 1.19535685461934, -1.25198923601577], a = 0.2, v = 0.2, t = 0.2)
movej(p[0.473999013754545, -0.0209123498339851, 0.224485338040609, -1.19788841601054, 1.19013767129492, -1.27015571655381], a = 0.2, v = 0.2, t = 0.2)
movej(p[0.473732911947401, -0.020581309451845, 0.224429216706635, -1.1980576630833, 1.18703012423512, -1.27204466911678], a = 0.2, v = 0.2, t = 0.2)
movej(p[0.473657049483295, -0.0202000349510681, 0.224413200895784, -1.20621004669393, 1.18124791785753, -1.28108842800874], a = 0.2, v = 0.2, t = 0.2)
movej(p[0.473995309536808, -0.0201100153741624, 0.224489537272902, -1.20620003428724, 1.17956050313389, -1.27088738270424], a = 0.2, v = 0.2, t = 0.2)
movej(p[0.474343118353361, -0.020224526571232, 0.224700553684997, -1.21841017274837, 1.17689045482897, -1.27989509679676], a = 0.2, v = 0.2, t = 0.2)
movej(p[0.47484155395821, -0.0202660131328073, 0.224725643552029, -1.22033161938154, 1.17956473574825, -1.28086619510632], a = 0.2, v = 0.2, t = 0.2)
movej(p[0.475293185175401, -0.0201958467641419, 0.224621041828491, -1.22366210658735, 1.18198004191702, -1.27889206398759], a = 0.2, v = 0.2, t = 0.2)
movej(p[0.475643332833841, -0.0202903884931012, 0.224529576800888, -1.21931742937357, 1.18665783419958, -1.26855837034544], a = 0.2, v = 0.2, t = 0.2)
movej(p[0.475802706684197, -0.0205721302354793, 0.224592838369982, -1.22093379396831, 1.19000254636933, -1.2622280142977], a = 0.2, v = 0.2, t = 0.2)
movej(p[0.475760380732001, -0.020861658880366, 0.224668141600063, -1.22248878685896, 1.19239889856809, -1.26766961249054], a = 0.2, v = 0.2, t = 0.2)
movej(p[0.47590459812557, -0.0209002233704375, 0.22462630298515, -1.22083751188873, 1.19597596113393, -1.26333563089891], a = 0.2, v = 0.2, t = 0.2)
movej(p[0.476080215089695, -0.0209468400162583, 0.224588528513031, -1.21812132479596, 1.19807526199253, -1.25813387926668], a = 0.2, v = 0.2, t = 0.2)
movej(p[0.476315190172532, -0.0211002775324685, 0.224635069359825, -1.21108722339055, 1.20191159217903, -1.24191936614113], a = 0.2, v = 0.2, t = 0.2)
movej(p[0.476397356596939, -0.0213589641243111, 0.224774314975049, -1.20830474414613, 1.20437183219878, -1.24035211956855], a = 0.2, v = 0.2, t = 0.2)
movej(p[0.476497947427381, -0.0213518860961478, 0.224720091500673, -1.2069169600631, 1.20542952422319, -1.24343912919374], a = 0.2, v = 0.2, t = 0.2)
movej(p[0.476420021159693, -0.0213136500848177, 0.224577132807892, -1.20908387258403, 1.20419273396362, -1.24835250838077], a = 0.2, v = 0.2, t = 0.2)
movej(p[0.476134330684742, -0.021401137645371, 0.224491115397614, -1.207168810931, 1.20181245062155, -1.24819099940754], a = 0.2, v = 0.2, t = 0.2)
movej(p[0.475689651531107, -0.0216951642994858, 0.224574517498258, -1.20324964530814, 1.20303930804856, -1.24313510380231], a = 0.2, v = 0.2, t = 0.2)
movej(p[0.475271266238471, -0.0217755539196143, 0.224609517590852, -1.19901493856457, 1.20373241929302, -1.25083309490136], a = 0.2, v = 0.2, t = 0.2)
movej(p[0.475051840853244, -0.0215554340920235, 0.224481790631992, -1.19570778559113, 1.20566905764419, -1.24705051849778], a = 0.2, v = 0.2, t = 0.2)
movej(p[0.47475143695758, -0.0213519962077181, 0.224368721166622, -1.19521996357595, 1.20108599713427, -1.25109108378652], a = 0.2, v = 0.2, t = 0.2)
movej(p[0.474166555665081, -0.0212375719200254, 0.224402108575479, -1.19601625458113, 1.19611402196623, -1.24915342617502], a = 0.2, v = 0.2, t = 0.2)
movej(p[0.473220571091813, -0.0211370135082473, 0.224591640867148, -1.20174405892113, 1.18585047964803, -1.26996559231618], a = 0.2, v = 0.2, t = 0.2)
movej(p[0.472747418802138, -0.0207040266500371, 0.224628328990805, -1.20661560618931, 1.17809166706775, -1.27731282878972], a = 0.2, v = 0.2, t = 0.2)
movej(p[0.472779017464224, -0.0203229715884907, 0.22467181476232, -1.21226339980803, 1.17001745319123, -1.27970488045628], a = 0.2, v = 0.2, t = 0.2)
movej(p[0.47341971472944, -0.0201758452789719, 0.224711550835245, -1.21364677297101, 1.1684339658125, -1.26998299343098], a = 0.2, v = 0.2, t = 0.2)
movej(p[0.474070085481452, -0.0202845191921134, 0.224817768291581, -1.2185515718414, 1.16992849842801, -1.27055466933635], a = 0.2, v = 0.2, t = 0.2)
movej(p[0.47470332846214, -0.0203209637633468, 0.224760084094121, -1.21354115554928, 1.17683985878072, -1.26435601958697], a = 0.2, v = 0.2, t = 0.2)
movej(p[0.475258022237611, -0.0203209710202886, 0.224635750157074, -1.2131128494248, 1.18354886020558, -1.25776116255533], a = 0.2, v = 0.2, t = 0.2)
movej(p[0.475689999976135, -0.0204557875989991, 0.224572001494149, -1.20903519956267, 1.18887083495376, -1.24607774535023], a = 0.2, v = 0.2, t = 0.2)
movej(p[0.476002198846487, -0.0207652772358677, 0.22467941048689, -1.20618837505126, 1.19393792564199, -1.23407393032167], a = 0.2, v = 0.2, t = 0.2)
movej(p[0.476170466912461, -0.0209922870694959, 0.224755293069935, -1.20538467606797, 1.19632493678748, -1.23574241374988], a = 0.2, v = 0.2, t = 0.2)
movej(p[0.476414624691918, -0.0209978897580097, 0.224716338030314, -1.20610875435019, 1.19965522502672, -1.235829778269], a = 0.2, v = 0.2, t = 0.2)
movej(p[0.476532621271766, -0.0210620458457561, 0.224641738861296, -1.20842347631898, 1.19967635483442, -1.23649686887723], a = 0.2, v = 0.2, t = 0.2)
movej(p[0.476614900465071, -0.0212508206341375, 0.22466567547028, -1.20411530808127, 1.20348192331145, -1.22501151179206], a = 0.2, v = 0.2, t = 0.2)
movej(p[0.476527449315776, -0.0214852737979176, 0.224779282930777, -1.2055388721997, 1.20435826150221, -1.22965110498272], a = 0.2, v = 0.2, t = 0.2)
movej(p[0.476540944156352, -0.0214831958152533, 0.224715352633062, -1.20069529453805, 1.20716461600928, -1.22823817361542], a = 0.2, v = 0.2, t = 0.2)
movej(p[0.476389559869907, -0.0214558304370798, 0.224636209958764, -1.2024423611215, 1.20631051852626, -1.23483578906672], a = 0.2, v = 0.2, t = 0.2)
movej(p[0.476076655633986, -0.0216012394780271, 0.224606536392186, -1.1929110126513, 1.20682005374024, -1.22374067368517], a = 0.2, v = 0.2, t = 0.2)
movej(p[0.475539720966659, -0.0218953728611217, 0.224760445935007, -1.19198284161999, 1.20679681614722, -1.22493957838849], a = 0.2, v = 0.2, t = 0.2)
movej(p[0.475112745839535, -0.0218731633103538, 0.224765061026781, -1.18884273883018, 1.20610742188063, -1.23325239189989], a = 0.2, v = 0.2, t = 0.2)
movej(p[0.474769148798294, -0.0216134921677456, 0.224669314027628, -1.19113891286163, 1.20377491844751, -1.23986469591302], a = 0.2, v = 0.2, t = 0.2)
movej(p[0.474512662333057, -0.0214192029032352, 0.224624254385523, -1.19057068874199, 1.19923047319303, -1.24413654156322], a = 0.2, v = 0.2, t = 0.2)
movej(p[0.474149112262563, -0.0214327016010319, 0.224758021356787, -1.18956451598913, 1.19672493719874, -1.2381826988084], a = 0.2, v = 0.2, t = 0.2)
movej(p[0.473863542871682, -0.0213894620397009, 0.224835568415581, -1.18943724321443, 1.19480417642756, -1.24838427661302], a = 0.2, v = 0.2, t = 0.2)
movej(p[0.473854719852876, -0.0210668079854881, 0.224736966685473, -1.1926353299901, 1.19409515938159, -1.24784534224247], a = 0.2, v = 0.2, t = 0.2)
movej(p[0.473902175439972, -0.020825624292509, 0.224641762234026, -1.19661437600446, 1.18926223246347, -1.25256079315592], a = 0.2, v = 0.2, t = 0.2)
movej(p[0.474136224007345, -0.0207952998269657, 0.224655660863458, -1.19369501498815, 1.18844410853523, -1.23884570687704], a = 0.2, v = 0.2, t = 0.2)
movej(p[0.474394153082573, -0.0208477671836711, 0.22475620961299, -1.19561188959132, 1.18799507222014, -1.24409541975511], a = 0.2, v = 0.2, t = 0.2)
movej(p[0.474945016228328, -0.0207389397310067, 0.224724461783222, -1.19971258338577, 1.19144998273412, -1.24513277204992], a = 0.2, v = 0.2, t = 0.2)
movej(p[0.475419817777216, -0.0205996267788199, 0.224628970466721, -1.20979307505005, 1.19403494241973, -1.25100335806753], a = 0.2, v = 0.2, t = 0.2)
movej(p[0.475794054520946, -0.0207118220882115, 0.22460804274604, -1.2119773686029, 1.19586560084945, -1.24687854535588], a = 0.2, v = 0.2, t = 0.2)
movej(p[0.475950701688921, -0.0209711851426913, 0.224695023938468, -1.2153883514383, 1.19644145466694, -1.24967178012904], a = 0.2, v = 0.2, t = 0.2)
movej(p[0.476083166102922, -0.0210784655624138, 0.224731360601671, -1.21567166479783, 1.19685088133154, -1.25585243849979], a = 0.2, v = 0.2, t = 0.2)
movej(p[0.476241901372926, -0.0210156093583086, 0.224674696912238, -1.21650088875399, 1.19841853717584, -1.25452384110154], a = 0.2, v = 0.2, t = 0.2)
movej(p[0.476414724530212, -0.0210693477105559, 0.224597571744903, -1.21412388213081, 1.20110192226867, -1.25124151875017], a = 0.2, v = 0.2, t = 0.2)
movej(p[0.476569879423672, -0.0212001541521804, 0.224641581501377, -1.19694535059901, 1.20781939018224, -1.22413377810092], a = 0.2, v = 0.2, t = 0.2)
movej(p[0.476420369699782, -0.0214364255983215, 0.224735243845469, -1.20246562046693, 1.21087498827607, -1.23558357036483], a = 0.2, v = 0.2, t = 0.2)
movej(p[0.47641099492966, -0.0213727702344862, 0.224680335750071, -1.20077536148249, 1.21518993093237, -1.22840756000609], a = 0.2, v = 0.2, t = 0.2)
movej(p[0.476204192792397, -0.021381293042141, 0.224614178093203, -1.21047503376263, 1.21157963182166, -1.24121898960882], a = 0.2, v = 0.2, t = 0.2)
movej(p[0.47612533679531, -0.0215316509405211, 0.224611573710909, -1.19679153631197, 1.21255864084388, -1.21774823362977], a = 0.2, v = 0.2, t = 0.2)
movej(p[0.475842330367888, -0.0217226966534569, 0.224737165348794, -1.19635476509646, 1.21137189656308, -1.22363528042579], a = 0.2, v = 0.2, t = 0.2)
movej(p[0.475457380697488, -0.0217621895629412, 0.224772983991422, -1.19496317292102, 1.2112488225793, -1.21404377536246], a = 0.2, v = 0.2, t = 0.2)
movej(p[0.475180422955979, -0.0217448154481323, 0.224705171001126, -1.19677768134801, 1.21040191317579, -1.22898742236141], a = 0.2, v = 0.2, t = 0.2)
movej(p[0.475085481889806, -0.0215292480283773, 0.224707828423588, -1.1820191646345, 1.21320128475949, -1.21321517880012], a = 0.2, v = 0.2, t = 0.2)
movej(p[0.474769991945916, -0.0218842603658237, 0.224774762050899, -1.18305732903431, 1.21171908888902, -1.22070803046393], a = 0.2, v = 0.2, t = 0.2)
movej(p[0.474370549728459, -0.0216431561630005, 0.224848622985052, -1.18431297476428, 1.2104245180266, -1.23202470318571], a = 0.2, v = 0.2, t = 0.2)
movej(p[0.473777748660955, -0.0214910657522735, 0.22476150752241, -1.19798446631004, 1.19990466117065, -1.24631363866259], a = 0.2, v = 0.2, t = 0.2)
movej(p[0.473344037092619, -0.0210632524859935, 0.22468941196327, -1.20144988615241, 1.19228428536299, -1.25930260039269], a = 0.2, v = 0.2, t = 0.2)
movej(p[0.473047495773976, -0.0209256782905398, 0.224689640005599, -1.19660887390386, 1.1851305290164, -1.24856635292714], a = 0.2, v = 0.2, t = 0.2)
movej(p[0.472978731963798, -0.0209351455630438, 0.22479178035297, -1.20162454132286, 1.18142798059697, -1.26395317356161], a = 0.2, v = 0.2, t = 0.2)
movej(p[0.473476450474813, -0.0207395088610165, 0.224790915764991, -1.20371560389831, 1.18286783610999, -1.25982294994592], a = 0.2, v = 0.2, t = 0.2)
movej(p[0.4742801444258, -0.0206061607659539, 0.224774199868648, -1.2132610389063, 1.18453521333799, -1.26337359917184], a = 0.2, v = 0.2, t = 0.2)
movej(p[0.475142600931298, -0.0206563693009125, 0.224824319972802, -1.21160008176247, 1.18978237776312, -1.2467658775528], a = 0.2, v = 0.2, t = 0.2)
movej(p[0.475745337732675, -0.0208750266093599, 0.224936969256551, -1.21393697643894, 1.19558315761723, -1.24359152679623], a = 0.2, v = 0.2, t = 0.2)
movej(p[0.476271228946848, -0.0209802051755313, 0.225009335269283, -1.2156423602599, 1.20385232369864, -1.23808732223803], a = 0.2, v = 0.2, t = 0.2)
movej(p[0.476550312277444, -0.0210192237480523, 0.225130509701804, -1.2165599737842, 1.21034634712209, -1.23048381393345], a = 0.2, v = 0.2, t = 0.2)
movej(p[0.476706408319853, -0.0211687106162633, 0.225311468313444, -1.21609762410487, 1.21278889615447, -1.22633071207662], a = 0.2, v = 0.2, t = 0.2)
movej(p[0.476676811514299, -0.0214657431718257, 0.225545731973112, -1.20694553113891, 1.21513076128963, -1.21739287902906], a = 0.2, v = 0.2, t = 0.2)
movej(p[0.476616844023814, -0.021579424696089, 0.225579464500827, -1.20677318229794, 1.21589489645899, -1.22865326103371], a = 0.2, v = 0.2, t = 0.2)
movej(p[0.476460052737796, -0.0214769779931527, 0.225403553864747, -1.2042669403896, 1.21794989566643, -1.22662283773358], a = 0.2, v = 0.2, t = 0.2)
movej(p[0.476039622939707, -0.0214566950126075, 0.225296692247316, -1.20194820457847, 1.21590160105472, -1.23152046359017], a = 0.2, v = 0.2, t = 0.2)
movej(p[0.475416952816272, -0.0216287522348709, 0.225307286295083, -1.19053857506327, 1.21405027028954, -1.22324153574547], a = 0.2, v = 0.2, t = 0.2)
movej(p[0.474742680594833, -0.0216557796692999, 0.225378849966618, -1.18695565479277, 1.20904835373203, -1.23727473287584], a = 0.2, v = 0.2, t = 0.2)
movej(p[0.474331410738085, -0.0213869189279402, 0.22532442949909, -1.19398948953875, 1.20255121560265, -1.24963789617012], a = 0.2, v = 0.2, t = 0.2)
movej(p[0.47393439979561, -0.0210453643818307, 0.225240870006943, -1.19355575253321, 1.19600455768944, -1.25199305620429], a = 0.2, v = 0.2, t = 0.2)
movej(p[0.473586366977288, -0.0208858856615292, 0.225261936820736, -1.1893995359088, 1.19089228649425, -1.24455604933066], a = 0.2, v = 0.2, t = 0.2)
movej(p[0.473113845421216, -0.0208815670292962, 0.225360409108526, -1.18185182595233, 1.18752478138154, -1.24058632077454], a = 0.2, v = 0.2, t = 0.2)
movej(p[0.472939329599523, -0.0206187012296448, 0.225319559243746, -1.18425687713536, 1.18387091422385, -1.24723204178876], a = 0.2, v = 0.2, t = 0.2)
movej(p[0.472874054199156, -0.0203084663821292, 0.22527210073667, -1.1956869087293, 1.17844398576356, -1.25540938231047], a = 0.2, v = 0.2, t = 0.2)
movej(p[0.473009384980437, -0.020146575602993, 0.225398379235903, -1.20767269984056, 1.17255829796499, -1.26254519840462], a = 0.2, v = 0.2, t = 0.2)
movej(p[0.47329826831974, -0.0202033730611808, 0.225642184258445, -1.21464796199145, 1.17028332517073, -1.2644054130906], a = 0.2, v = 0.2, t = 0.2)
movej(p[0.473810585174272, -0.0201521488026863, 0.225693882758461, -1.2143965953048, 1.17241592549985, -1.26799692988795], a = 0.2, v = 0.2, t = 0.2)
movej(p[0.474511713455961, -0.0200093168521441, 0.225501577448807, -1.21951298475131, 1.17579573943349, -1.26906664903417], a = 0.2, v = 0.2, t = 0.2)
movej(p[0.474996266372337, -0.0200234594821314, 0.225293031590905, -1.2192144945418, 1.17944237650058, -1.26390227034542], a = 0.2, v = 0.2, t = 0.2)
movej(p[0.475316123850141, -0.0203066934514383, 0.225250721764345, -1.21970487550388, 1.18452876591513, -1.25369364512832], a = 0.2, v = 0.2, t = 0.2)
movej(p[0.475437998638749, -0.0206020334200001, 0.225306765673662, -1.21041938450987, 1.19147959469173, -1.24484486847327], a = 0.2, v = 0.2, t = 0.2)
movej(p[0.475737341820612, -0.0207130168710402, 0.22526711756062, -1.22053208704563, 1.19582743247896, -1.25225773643024], a = 0.2, v = 0.2, t = 0.2)
movej(p[0.475879374989724, -0.0208271006175395, 0.225257830507454, -1.22316098734847, 1.19622320228386, -1.25544360188078], a = 0.2, v = 0.2, t = 0.2)
movej(p[0.476109824073156, -0.021011569934078, 0.225252788693296, -1.22448734094064, 1.19651756494893, -1.25085343419202], a = 0.2, v = 0.2, t = 0.2)
movej(p[0.476274601976506, -0.0212508704990459, 0.225318345850394, -1.21105736351778, 1.20072014448905, -1.24034638901849], a = 0.2, v = 0.2, t = 0.2)
movej(p[0.476676662070432, -0.0212377507986349, 0.225253611324692, -1.20880023046889, 1.20352095932355, -1.24204128478607], a = 0.2, v = 0.2, t = 0.2)
movej(p[0.477002860580883, -0.0211850336197041, 0.225151638606208, -1.21113362863578, 1.20482559021067, -1.24416545316754], a = 0.2, v = 0.2, t = 0.2)
movej(p[0.477451296631689, -0.021283655839207, 0.225112200885308, -1.20925487620952, 1.20367453767992, -1.24067522989389], a = 0.2, v = 0.2, t = 0.2)
movej(p[0.477748956711998, -0.0216304309732909, 0.225254228901086, -1.19904163067147, 1.20677659478206, -1.22606446912951], a = 0.2, v = 0.2, t = 0.2)
movej(p[0.477903794470682, -0.0217030616401048, 0.225285310272096, -1.18839354116015, 1.20797464806795, -1.22937953776546], a = 0.2, v = 0.2, t = 0.2)
movej(p[0.477821242694414, -0.0214982237094697, 0.225237710528313, -1.19639587167633, 1.20617648174416, -1.24425705073222], a = 0.2, v = 0.2, t = 0.2)
movej(p[0.477354681889821, -0.0212381067331879, 0.225126623488781, -1.20106519998338, 1.2001022699708, -1.25795933998744], a = 0.2, v = 0.2, t = 0.2)
movej(p[0.47683655469708, -0.0211847722019366, 0.225158294216115, -1.20304426554847, 1.19653878571041, -1.25730766282426], a = 0.2, v = 0.2, t = 0.2)
movej(p[0.476209969103069, -0.0211476572792759, 0.225223006555264, -1.19472266225472, 1.19388832917841, -1.25632877573556], a = 0.2, v = 0.2, t = 0.2)
movej(p[0.475933421010693, -0.0208070435652438, 0.22513234947353, -1.2008306203835, 1.18883544676195, -1.26390672822572], a = 0.2, v = 0.2, t = 0.2)
movej(p[0.475663442733707, -0.020469385045699, 0.225030760583927, -1.20211122532894, 1.18267112508365, -1.26192404734263], a = 0.2, v = 0.2, t = 0.2)
movej(p[0.475584263765474, -0.0203061197595871, 0.225076553699799, -1.20539919149385, 1.1768826086124, -1.2584651116915], a = 0.2, v = 0.2, t = 0.2)
movej(p[0.475570583971179, -0.0204196459617438, 0.225342791578165, -1.20146725156882, 1.17549491063897, -1.25349358305344], a = 0.2, v = 0.2, t = 0.2)
movej(p[0.476010590263579, -0.0203601816677046, 0.225476591338939, -1.20519519230004, 1.17501417910401, -1.26357392294255], a = 0.2, v = 0.2, t = 0.2)
movej(p[0.477465037464306, -0.0201647826052382, 0.225410038432292, -1.21937996190607, 1.17337122108013, -1.27905461029083], a = 0.2, v = 0.2, t = 0.2)
movej(p[0.479736043286609, -0.0200821782442952, 0.225249456778239, -1.22248901893044, 1.1750949360859, -1.27760751960272], a = 0.2, v = 0.2, t = 0.2)
movej(p[0.481908583916175, -0.0203219041292572, 0.225268147349848, -1.22210657825228, 1.17960855864429, -1.26580611917731], a = 0.2, v = 0.2, t = 0.2)
movej(p[0.483266866765857, -0.0205185876832436, 0.225272156932269, -1.21481473312786, 1.18791971915198, -1.25754067436734], a = 0.2, v = 0.2, t = 0.2)
movej(p[0.483709286810104, -0.0205752995918316, 0.225243833735554, -1.22400840995193, 1.19155752660511, -1.26009268812909], a = 0.2, v = 0.2, t = 0.2)
movej(p[0.483375064605021, -0.0206153449150416, 0.22520745885236, -1.2278505762654, 1.19418634994911, -1.25898799592499], a = 0.2, v = 0.2, t = 0.2)
movej(p[0.482583554502834, -0.0208244194638056, 0.225274484012137, -1.23074699484422, 1.19529734778163, -1.25267644243723], a = 0.2, v = 0.2, t = 0.2)
movej(p[0.48122294122105, -0.0210795853656205, 0.225375210917949, -1.21984524836802, 1.20162519974869, -1.24149875703371], a = 0.2, v = 0.2, t = 0.2)
movej(p[0.479859406518748, -0.0211270353331754, 0.225333146764122, -1.21902852906595, 1.20460072404555, -1.24405043601965], a = 0.2, v = 0.2, t = 0.2)
movej(p[0.478508065650755, -0.0210732739826666, 0.225236212578542, -1.21325812614763, 1.2087041296589, -1.2350414875171], a = 0.2, v = 0.2, t = 0.2)
movej(p[0.477146727684674, -0.0212122415364446, 0.225229732004157, -1.2130837821914, 1.20672630070512, -1.23057885974918], a = 0.2, v = 0.2, t = 0.2)
movej(p[0.475377246501014, -0.0215159594194937, 0.22538096856451, -1.20399934092887, 1.20904664676178, -1.22156556587399], a = 0.2, v = 0.2, t = 0.2)
movej(p[0.473677064615071, -0.0216552193134975, 0.225469144189451, -1.19994863258899, 1.20901387339943, -1.23539323269422], a = 0.2, v = 0.2, t = 0.2)
movej(p[0.472349204807348, -0.0214834781471344, 0.225384501504538, -1.19609099858838, 1.2109799014596, -1.23465740597928], a = 0.2, v = 0.2, t = 0.2)
movej(p[0.471596148953817, -0.0213489272343604, 0.225257892988494, -1.1941405523778, 1.20706277194779, -1.23914614164184], a = 0.2, v = 0.2, t = 0.2)
movej(p[0.471050776794056, -0.0213932239950734, 0.225237572810147, -1.18654709721846, 1.20662455493364, -1.22420199489035], a = 0.2, v = 0.2, t = 0.2)
movej(p[0.470478952411291, -0.021460109855727, 0.22529979800697, -1.18767973954086, 1.2037351309985, -1.2332119093768], a = 0.2, v = 0.2, t = 0.2)
movej(p[0.470306138917126, -0.0212307162451933, 0.22522034262527, -1.18534916928606, 1.20323231619174, -1.23331627706944], a = 0.2, v = 0.2, t = 0.2)
movej(p[0.470218045948186, -0.0209433735474144, 0.225111803217899, -1.18838526246468, 1.19924985005611, -1.23714363078267], a = 0.2, v = 0.2, t = 0.2)
movej(p[0.47021973066924, -0.0208188613056781, 0.22504417244841, -1.18790004129398, 1.19564354029021, -1.23555105591412], a = 0.2, v = 0.2, t = 0.2)
movej(p[0.470036734599346, -0.0209562399111029, 0.225187363192509, -1.19178375683945, 1.19208266862341, -1.23693011977587], a = 0.2, v = 0.2, t = 0.2)
movej(p[0.470077996447505, -0.020942529808037, 0.225347671431101, -1.19775958695549, 1.19099134237149, -1.24818222025689], a = 0.2, v = 0.2, t = 0.2)
movej(p[0.470394997598765, -0.0207034008665178, 0.225402635731585, -1.20648239716645, 1.19032571511124, -1.2521315116393], a = 0.2, v = 0.2, t = 0.2)
movej(p[0.470924445709326, -0.0205496156353452, 0.225427789210406, -1.21136215165888, 1.18977492585496, -1.25164825695402], a = 0.2, v = 0.2, t = 0.2)
movej(p[0.471388942664319, -0.020609544808623, 0.225448614500137, -1.21415544082613, 1.19029680938217, -1.24416455358455], a = 0.2, v = 0.2, t = 0.2)
movej(p[0.471703409135429, -0.0207823172551692, 0.225483748601268, -1.21885375210913, 1.19003779543358, -1.25265115285312], a = 0.2, v = 0.2, t = 0.2)
movej(p[0.472017891750247, -0.0208153930721206, 0.225412036804401, -1.21908802878302, 1.19362868956668, -1.25029971952046], a = 0.2, v = 0.2, t = 0.2)
movej(p[0.472231650122957, -0.020813477657631, 0.225304121651695, -1.22015126459944, 1.19580640796348, -1.25111403917192], a = 0.2, v = 0.2, t = 0.2)
movej(p[0.472391207413379, -0.020996511459178, 0.225288427720875, -1.2097027645737, 1.20080907940997, -1.23252644015405], a = 0.2, v = 0.2, t = 0.2)
movej(p[0.472430489562158, -0.0212601949828172, 0.225385238639414, -1.21152225138302, 1.20283537458457, -1.23686018373245], a = 0.2, v = 0.2, t = 0.2)
movej(p[0.472494482481387, -0.0213328984208744, 0.2253923790654, -1.21008063810461, 1.20549130897235, -1.2386815641453], a = 0.2, v = 0.2, t = 0.2)
movej(p[0.472587643169479, -0.0212391908301465, 0.2253006648215, -1.21217552830701, 1.20723424839098, -1.24102500716778], a = 0.2, v = 0.2, t = 0.2)
movej(p[0.47263015491263, -0.0212883710421717, 0.225240484036033, -1.2110933640022, 1.20730748357914, -1.23833970540379], a = 0.2, v = 0.2, t = 0.2)
movej(p[0.472614941311697, -0.0214695608339215, 0.225256755367026, -1.20493323616887, 1.20912821668178, -1.23086101519644], a = 0.2, v = 0.2, t = 0.2)
movej(p[0.472793103069653, -0.0216126721077815, 0.22524124051943, -1.20107113046717, 1.20739876087388, -1.24114091514043], a = 0.2, v = 0.2, t = 0.2)
movej(p[0.473343963183908, -0.0214907157869168, 0.225011449433933, -1.19276996087792, 1.20886976518736, -1.2337585818416], a = 0.2, v = 0.2, t = 0.2)
movej(p[0.473717479599029, -0.021445222837157, 0.224842434466058, -1.19004808069282, 1.20652801918686, -1.23450373820244], a = 0.2, v = 0.2, t = 0.2)
movej(p[0.473751074616684, -0.0215359837243787, 0.224785485623756, -1.18094094824053, 1.20904393430894, -1.21811161974355], a = 0.2, v = 0.2, t = 0.2)
movej(p[0.473122422017847, -0.0216575978084556, 0.224926599928947, -1.18339679586824, 1.20738060671015, -1.22949711284747], a = 0.2, v = 0.2, t = 0.2)
movej(p[0.472530881996806, -0.0213873139810569, 0.224946164768691, -1.18845330316031, 1.20194595306487, -1.24316473522663], a = 0.2, v = 0.2, t = 0.2)
movej(p[0.471874299451086, -0.020950773080755, 0.224956498384634, -1.19664307020183, 1.19198632819257, -1.25749768805763], a = 0.2, v = 0.2, t = 0.2)
movej(p[0.471444141008351, -0.0206690866141669, 0.224997190981576, -1.1985963109887, 1.18327676035628, -1.26104117379497], a = 0.2, v = 0.2, t = 0.2)
movej(p[0.471085392189775, -0.0206427413371217, 0.225175208081798, -1.2027487627434, 1.17867469736081, -1.2619610269755], a = 0.2, v = 0.2, t = 0.2)
movej(p[0.470925668495428, -0.0205483761955678, 0.22524815288033, -1.20427179840723, 1.17566231034634, -1.26687279093416], a = 0.2, v = 0.2, t = 0.2)
movej(p[0.47099225864471, -0.020290406664114, 0.225285519125259, -1.21172694712681, 1.17259576972751, -1.26710299207844], a = 0.2, v = 0.2, t = 0.2)
movej(p[0.47135683095328, -0.0201244015893376, 0.225313607334047, -1.2129430874981, 1.16939352072458, -1.26645706478199], a = 0.2, v = 0.2, t = 0.2)
movej(p[0.471905071821737, -0.0201039136201855, 0.225406217044519, -1.21653284296414, 1.1680134545932, -1.2630674058985], a = 0.2, v = 0.2, t = 0.2)
movej(p[0.47250414244315, -0.0201305250853879, 0.225433294560629, -1.22004632409585, 1.16926378532521, -1.27258976171809], a = 0.2, v = 0.2, t = 0.2)
movej(p[0.473230031478382, -0.0200656750538578, 0.225298686366078, -1.22136549386721, 1.17646243314734, -1.26689298206049], a = 0.2, v = 0.2, t = 0.2)
movej(p[0.473750048946354, -0.0201077063564503, 0.225159711544142, -1.2220335574931, 1.18290342102908, -1.26248960357633], a = 0.2, v = 0.2, t = 0.2)
movej(p[0.474140057604814, -0.0203569419014139, 0.225176695712309, -1.21674786318542, 1.1891960829174, -1.24804485297466], a = 0.2, v = 0.2, t = 0.2)
movej(p[0.474271544847971, -0.0206058922716935, 0.225245305955609, -1.2185047218072, 1.19211201901498, -1.25429056157101], a = 0.2, v = 0.2, t = 0.2)
movej(p[0.474461890809818, -0.0207083054057861, 0.225239501468205, -1.21785974991251, 1.19512042148619, -1.25389844496957], a = 0.2, v = 0.2, t = 0.2)
movej(p[0.474609556887035, -0.0207241671374443, 0.225150955048349, -1.21818464530864, 1.19753251973235, -1.25105214412832], a = 0.2, v = 0.2, t = 0.2)
movej(p[0.474749506617286, -0.0208881620767727, 0.225117021958404, -1.21347860547633, 1.19912634841097, -1.23937581172862], a = 0.2, v = 0.2, t = 0.2)
movej(p[0.474526464603303, -0.0211549965498866, 0.225177126297936, -1.2054485659077, 1.2018465693836, -1.23111596545637], a = 0.2, v = 0.2, t = 0.2)
movej(p[0.474218312296706, -0.0212321644042854, 0.225154812972873, -1.20288649640086, 1.20215116362961, -1.24241873136447], a = 0.2, v = 0.2, t = 0.2)
movej(p[0.473835217120571, -0.0210866898902234, 0.224972656770238, -1.19771552486266, 1.20413253226226, -1.24277215555312], a = 0.2, v = 0.2, t = 0.2)
movej(p[0.473482176890426, -0.0209927095076228, 0.22483764438066, -1.19604364778547, 1.20094656932889, -1.24860994289023], a = 0.2, v = 0.2, t = 0.2)
movej(p[0.473043112054593, -0.0210820308915792, 0.224849511758065, -1.18801728165432, 1.20063152676811, -1.23786172918073], a = 0.2, v = 0.2, t = 0.2)
movej(p[0.472660288612414, -0.0210526504901955, 0.224891553295488, -1.18942115790444, 1.19689527337563, -1.25149947228241], a = 0.2, v = 0.2, t = 0.2)
movej(p[0.472539782240509, -0.0207568427552276, 0.224798179583408, -1.18967936887897, 1.19667061777192, -1.24933345340593], a = 0.2, v = 0.2, t = 0.2)
movej(p[0.472410490162281, -0.0204493667462208, 0.224668955247493, -1.1922022364532, 1.19284165122191, -1.25146786290576], a = 0.2, v = 0.2, t = 0.2)
movej(p[0.472247600193637, -0.0203911148811293, 0.224686869468895, -1.18974779196722, 1.19034808890261, -1.24014516655437], a = 0.2, v = 0.2, t = 0.2)
movej(p[0.47186398217712, -0.020511564555423, 0.224943588607968, -1.19054095857958, 1.18847979514852, -1.23926483702993], a = 0.2, v = 0.2, t = 0.2)
movej(p[0.472003830795286, -0.020465015099904, 0.225146724534638, -1.1944172496961, 1.18776173485546, -1.23843248563152], a = 0.2, v = 0.2, t = 0.2)
movej(p[0.472341826329342, -0.0202978383679431, 0.225294570930419, -1.20170565971408, 1.18715833324932, -1.24266627367291], a = 0.2, v = 0.2, t = 0.2)
movej(p[0.473013283620262, -0.0202124620350573, 0.225324933999316, -1.2048202544009, 1.18581763771766, -1.24450172228664], a = 0.2, v = 0.2, t = 0.2)
movej(p[0.473440549372879, -0.0203561010915784, 0.225393411588225, -1.20575454815927, 1.18739090194491, -1.24894335632401], a = 0.2, v = 0.2, t = 0.2)
movej(p[0.473826116141521, -0.0204436448316429, 0.225353103829742, -1.20978459361292, 1.18937010107627, -1.25593162889461], a = 0.2, v = 0.2, t = 0.2)
movej(p[0.474137954900101, -0.0204757810739522, 0.225258400727481, -1.21682987356907, 1.19423507416262, -1.25606151946183], a = 0.2, v = 0.2, t = 0.2)
movej(p[0.474336724544825, -0.0205866755636205, 0.225190128178842, -1.22198985561822, 1.19572151185488, -1.25691983566605], a = 0.2, v = 0.2, t = 0.2)
movej(p[0.474511763097827, -0.0208990299194282, 0.225251272605986, -1.21663168079917, 1.19985299136269, -1.24499378388467], a = 0.2, v = 0.2, t = 0.2)
movej(p[0.474570180257275, -0.0210954310063282, 0.225280292880312, -1.2087876802727, 1.20285254046576, -1.2458226526979], a = 0.2, v = 0.2, t = 0.2)
movej(p[0.474637371736972, -0.0210810337009026, 0.225171840575884, -1.21210721257417, 1.20219091408303, -1.24983623262829], a = 0.2, v = 0.2, t = 0.2)
movej(p[0.474386283492799, -0.0210947288440401, 0.225022297218468, -1.20936807360114, 1.2003138183304, -1.24865308786531], a = 0.2, v = 0.2, t = 0.2)
movej(p[0.473992877066319, -0.0213025686161654, 0.225004550115989, -1.20633613563436, 1.19872687648648, -1.24138594280133], a = 0.2, v = 0.2, t = 0.2)
