def moving():
set_payload_mass(0)
set_tcp(p[0,0,0,0,0,0])
movej(p[-0.4025, -0.1161, 0.3402, -1.113, -1.287, 1.334], a = 0.2, v = 0.2, t = 0.2)
movej(p[-0.402554929322023, -0.116057477575295, 0.340251716660558, -1.11260983990136, -1.28658824067133, 1.33570893381171], a = 0.2, v = 0.2, t = 0.2)
movej(p[-0.4025, -0.1161, 0.3402, -1.113, -1.287, 1.334], a = 0.2, v = 0.2, t = 0.2)
movej(p[-0.402554929322023, -0.116057477575295, 0.340251716660558, -1.11260983990136, -1.28658824067133, 1.33570893381171], a = 0.2, v = 0.2, t = 0.2)
movej(p[-0.4025, -0.1161, 0.3402, -1.113, -1.287, 1.334], a = 0.2, v = 0.2, t = 0.2)
movej(p[-0.399056105898137, -0.116580276092732, 0.340909409148447, -1.11514340773163, -1.2873642506196, 1.34149769876903], a = 0.2, v = 0.2, t = 0.2)
movej(p[-0.399587464533221, -0.116501349762186, 0.340700031582153, -1.11620430181291, -1.29356814618871, 1.33521674640149], a = 0.2, v = 0.2, t = 0.2)
movej(p[-0.400124609851787, -0.116382054566973, 0.340451605852523, -1.10815986205455, -1.29950836095206, 1.33266481506058], a = 0.2, v = 0.2, t = 0.2)
movej(p[-0.401464841835972, -0.11629203475748, 0.340339535684922, -1.11749373107711, -1.28689580480152, 1.3355261378013], a = 0.2, v = 0.2, t = 0.2)
movej(p[-0.40172869706443, -0.116269766910262, 0.340384873653509, -1.11909164501695, -1.28128871300008, 1.33717680920054], a = 0.2, v = 0.2, t = 0.2)
movej(p[-0.401879104556587, -0.116267692674926, 0.340429153715059, -1.12457908251118, -1.27800167055727, 1.3387792567546], a = 0.2, v = 0.2, t = 0.2)
movej(p[-0.401982140426232, -0.116275791322866, 0.340427504027792, -1.12658782261073, -1.27493339471244, 1.33936339391365], a = 0.2, v = 0.2, t = 0.2)
movej(p[-0.401676443577392, -0.116286491863823, 0.34056975477483, -1.12742208012847, -1.27298939544948, 1.34054275226688], a = 0.2, v = 0.2, t = 0.2)
movej(p[-0.400622807173432, -0.116587172782795, 0.341176545985392, -1.16045116610964, -1.25502267746964, 1.34932269929292], a = 0.2, v = 0.2, t = 0.2)
movej(p[-0.398777535217272, -0.116780429285548, 0.341612522948033, -1.163260135308, -1.26313733627425, 1.34874861055645], a = 0.2, v = 0.2, t = 0.2)
movej(p[-0.396386511592071, -0.117074836950848, 0.342103201081172, -1.16781620469819, -1.27794304349111, 1.3469096136016], a = 0.2, v = 0.2, t = 0.2)
movej(p[-0.394344453687209, -0.117327703679597, 0.34240574116229, -1.16175514105037, -1.29586678108644, 1.34337289501425], a = 0.2, v = 0.2, t = 0.2)
movej(p[-0.392271449441903, -0.11760523605787, 0.342949087679673, -1.16541609246032, -1.3000856751389, 1.34341052159428], a = 0.2, v = 0.2, t = 0.2)
movej(p[-0.390852130569313, -0.117764825529575, 0.343513864182753, -1.18264698454856, -1.29743959900803, 1.34924094598797], a = 0.2, v = 0.2, t = 0.2)
movej(p[-0.390278562125773, -0.117797906312345, 0.343626446874083, -1.17498371255948, -1.29863242364465, 1.34790611024442], a = 0.2, v = 0.2, t = 0.2)
movej(p[-0.391727162380005, -0.11753477664004, 0.34324563068615, -1.16519342396517, -1.2916552276717, 1.34656050967287], a = 0.2, v = 0.2, t = 0.2)
movej(p[-0.394077107136649, -0.117319168776714, 0.342304173119399, -1.13989164892595, -1.30105951324666, 1.34001858572898], a = 0.2, v = 0.2, t = 0.2)
movej(p[-0.396219277376065, -0.11702438962795, 0.341710018687607, -1.13333115727181, -1.29404021027683, 1.33872414306279], a = 0.2, v = 0.2, t = 0.2)
movej(p[-0.39831327140524, -0.116807456575626, 0.341326946936384, -1.13560037112203, -1.27312729491094, 1.34018183494257], a = 0.2, v = 0.2, t = 0.2)
movej(p[-0.399433383904802, -0.116773973708687, 0.341005758508902, -1.13867747710796, -1.27493404238835, 1.34174318410111], a = 0.2, v = 0.2, t = 0.2)
movej(p[-0.400226982870788, -0.116672961776355, 0.341021476355805, -1.14773188739969, -1.25611446442311, 1.34564627903844], a = 0.2, v = 0.2, t = 0.2)
movej(p[-0.400884443655593, -0.116621216361165, 0.340929838271743, -1.15342667730003, -1.24923693071763, 1.34755589918304], a = 0.2, v = 0.2, t = 0.2)
movej(p[-0.401294911217841, -0.116639387408664, 0.340988542218585, -1.15999278219786, -1.23957918339581, 1.35020550337411], a = 0.2, v = 0.2, t = 0.2)
movej(p[-0.401841696159472, -0.116591195942778, 0.341033136278975, -1.16727893060222, -1.23051673003869, 1.35278698867457], a = 0.2, v = 0.2, t = 0.2)
movej(p[-0.401841875406194, -0.116626430286679, 0.340954890775076, -1.16533176704107, -1.23566203738314, 1.35381841241537], a = 0.2, v = 0.2, t = 0.2)
movej(p[-0.401501085745659, -0.116586291460778, 0.341149461435577, -1.1682375948242, -1.23460400254983, 1.35254512588505], a = 0.2, v = 0.2, t = 0.2)
movej(p[-0.400299890896711, -0.116725325867109, 0.341313004453517, -1.16542796062192, -1.25237439553611, 1.35100967711089], a = 0.2, v = 0.2, t = 0.2)
movej(p[-0.399184665191833, -0.116771913728789, 0.341509258824991, -1.16068606031873, -1.26100290593043, 1.34646288247549], a = 0.2, v = 0.2, t = 0.2)
movej(p[-0.398114970153616, -0.116827085282479, 0.341698050045333, -1.16075641095118, -1.26962601820788, 1.34719312586799], a = 0.2, v = 0.2, t = 0.2)
movej(p[-0.395413091009508, -0.117033799470937, 0.342145630725129, -1.15135248969279, -1.29559195898966, 1.34144796485511], a = 0.2, v = 0.2, t = 0.2)
movej(p[-0.392926153416299, -0.117408716170492, 0.342546046428962, -1.15253178074042, -1.30791574526647, 1.34606312024166], a = 0.2, v = 0.2, t = 0.2)
movej(p[-0.391222500523163, -0.117577989428188, 0.342830450092685, -1.14336821653235, -1.32721458136919, 1.34154269904043], a = 0.2, v = 0.2, t = 0.2)
movej(p[-0.389004785996724, -0.117680385819171, 0.343264482336112, -1.13584779390811, -1.33811580215728, 1.33914737124244], a = 0.2, v = 0.2, t = 0.2)
movej(p[-0.390310306593037, -0.117696596287582, 0.343077945682033, -1.15209718692835, -1.31316962075204, 1.34673887777915], a = 0.2, v = 0.2, t = 0.2)
movej(p[-0.39209619672693, -0.117631232265916, 0.342766785394822, -1.15095755271518, -1.29796097229863, 1.34325858845438], a = 0.2, v = 0.2, t = 0.2)
movej(p[-0.394226434065578, -0.117466900610944, 0.342379574136976, -1.14962611131526, -1.2868507876791, 1.34210411896957], a = 0.2, v = 0.2, t = 0.2)
movej(p[-0.396132649163073, -0.117281628613733, 0.341985401016211, -1.14415642490967, -1.28701812814877, 1.33980418577347], a = 0.2, v = 0.2, t = 0.2)
movej(p[-0.398190584279733, -0.116900182950826, 0.34152189515663, -1.13423469254341, -1.28775693036604, 1.33209039815947], a = 0.2, v = 0.2, t = 0.2)
movej(p[-0.399548727144273, -0.116628631144316, 0.34122762039407, -1.13306048564604, -1.28561376144384, 1.33655648830209], a = 0.2, v = 0.2, t = 0.2)
movej(p[-0.400317003417929, -0.116289185018614, 0.340947730567383, -1.1161749618644, -1.29856022328705, 1.32941762299645], a = 0.2, v = 0.2, t = 0.2)
movej(p[-0.400931384408, -0.116340797559958, 0.340846257641852, -1.11917077990007, -1.29478486742508, 1.33487876021937], a = 0.2, v = 0.2, t = 0.2)
movej(p[-0.401351943103747, -0.116489308632783, 0.340890035543582, -1.14059334749513, -1.27250846093158, 1.35072095462337], a = 0.2, v = 0.2, t = 0.2)
movej(p[-0.401707603581052, -0.116626604770147, 0.340942184614026, -1.16084840775561, -1.25067946561129, 1.36483614881709], a = 0.2, v = 0.2, t = 0.2)
movej(p[-0.401624851660563, -0.116657109751314, 0.341024511133323, -1.17105291835882, -1.23959832245191, 1.36689905291687], a = 0.2, v = 0.2, t = 0.2)
movej(p[-0.401643159496368, -0.116475003656575, 0.340895650730533, -1.15467776391752, -1.25944894946745, 1.35960209880124], a = 0.2, v = 0.2, t = 0.2)
movej(p[-0.401250765833511, -0.116490417508242, 0.34101387863133, -1.16535588706634, -1.24583131170369, 1.36309429305875], a = 0.2, v = 0.2, t = 0.2)
movej(p[-0.399839363453949, -0.116783384165323, 0.341312912410033, -1.15728305397179, -1.26094502961537, 1.35582542702054], a = 0.2, v = 0.2, t = 0.2)
movej(p[-0.39902157688511, -0.116885265512528, 0.341378804207083, -1.13367428205972, -1.28985023233881, 1.33379826109449], a = 0.2, v = 0.2, t = 0.2)
movej(p[-0.397901033702986, -0.117023431637984, 0.341609307024356, -1.14066981388645, -1.29162422169395, 1.33229531910665], a = 0.2, v = 0.2, t = 0.2)
movej(p[-0.394685912247827, -0.117486896802998, 0.342412087093486, -1.15875752686235, -1.29011728268676, 1.33973861968232], a = 0.2, v = 0.2, t = 0.2)
movej(p[-0.391227522977653, -0.118011357326616, 0.343294845387194, -1.1788337577471, -1.28692077435426, 1.35428143149538], a = 0.2, v = 0.2, t = 0.2)
movej(p[-0.38963563806182, -0.118203629560845, 0.343620215211685, -1.17429934280194, -1.29951150592294, 1.35594513624725], a = 0.2, v = 0.2, t = 0.2)
movej(p[-0.388759880158395, -0.118294544271024, 0.34381339670682, -1.17426797822922, -1.30060080001567, 1.35941965016291], a = 0.2, v = 0.2, t = 0.2)
movej(p[-0.389695978309922, -0.118257551776885, 0.343784832461924, -1.1735163229586, -1.28119545142111, 1.35084581722743], a = 0.2, v = 0.2, t = 0.2)
movej(p[-0.391300190029914, -0.118028910770324, 0.343396550776086, -1.17357525505259, -1.2771784719498, 1.35706481998296], a = 0.2, v = 0.2, t = 0.2)
movej(p[-0.393149395361082, -0.117742079517169, 0.342874333076851, -1.15586438252964, -1.2893338187565, 1.35128928217615], a = 0.2, v = 0.2, t = 0.2)
movej(p[-0.395606908461864, -0.117338929926551, 0.342216567740984, -1.14012662271405, -1.29476856003285, 1.34720746812984], a = 0.2, v = 0.2, t = 0.2)
movej(p[-0.397051544671959, -0.117058665023941, 0.341796191974736, -1.1328682502051, -1.29726727769869, 1.34023911199548], a = 0.2, v = 0.2, t = 0.2)
movej(p[-0.398057832198511, -0.116759620482041, 0.341457020991507, -1.1282575767409, -1.29493800788181, 1.33619588263986], a = 0.2, v = 0.2, t = 0.2)
movej(p[-0.399198673865828, -0.116730477248011, 0.341358021940887, -1.14752292250403, -1.27078864868143, 1.35022385586397], a = 0.2, v = 0.2, t = 0.2)
movej(p[-0.400167908345772, -0.116488852462938, 0.341065004866083, -1.14881548539245, -1.26384623979808, 1.35411541304465], a = 0.2, v = 0.2, t = 0.2)
movej(p[-0.400967742510472, -0.116517574096519, 0.340944482101667, -1.14426902204488, -1.26740751711758, 1.35035964013761], a = 0.2, v = 0.2, t = 0.2)
movej(p[-0.401198297116386, -0.116544736994918, 0.340927192201651, -1.14484736598674, -1.26583356113636, 1.35303308163347], a = 0.2, v = 0.2, t = 0.2)
movej(p[-0.401443813807559, -0.116357084873118, 0.34073981566753, -1.13967785391704, -1.26847692376294, 1.35377744453266], a = 0.2, v = 0.2, t = 0.2)
movej(p[-0.401495959663287, -0.116409879841366, 0.340756747030677, -1.1370585566691, -1.27210624705874, 1.3496026246569], a = 0.2, v = 0.2, t = 0.2)
movej(p[-0.401837684641911, -0.116438148213688, 0.340731248832487, -1.13768426827928, -1.27117203190151, 1.34652752506767], a = 0.2, v = 0.2, t = 0.2)
movej(p[-0.401420901218382, -0.116573781290724, 0.340884218457856, -1.13773252791135, -1.27344293512538, 1.34628625517679], a = 0.2, v = 0.2, t = 0.2)
movej(p[-0.400412419712148, -0.116574663434663, 0.341025618080935, -1.13932648415493, -1.27399110424687, 1.34876901657981], a = 0.2, v = 0.2, t = 0.2)
movej(p[-0.399280781959449, -0.116771631263761, 0.341280577393308, -1.12687465423467, -1.29323450787564, 1.33221098815215], a = 0.2, v = 0.2, t = 0.2)
movej(p[-0.397776974658879, -0.11703760496924, 0.34165237174607, -1.12471313802927, -1.30679874903094, 1.32216496845331], a = 0.2, v = 0.2, t = 0.2)
movej(p[-0.395450782715856, -0.117510267355379, 0.342363455885217, -1.15200566402634, -1.2986635227116, 1.33396946702026], a = 0.2, v = 0.2, t = 0.2)
movej(p[-0.393424629539855, -0.117828497149263, 0.342931785750405, -1.16539165938006, -1.29543367043483, 1.33703434955527], a = 0.2, v = 0.2, t = 0.2)
movej(p[-0.391485422209743, -0.118020140928724, 0.343368366570681, -1.17434207226226, -1.29154970667797, 1.34715404372572], a = 0.2, v = 0.2, t = 0.2)
movej(p[-0.390987326832783, -0.118149422170269, 0.343555876613175, -1.17173351824707, -1.29174105998083, 1.35281516224296], a = 0.2, v = 0.2, t = 0.2)
movej(p[-0.392783250518642, -0.117831752664173, 0.343037824058441, -1.15712307788109, -1.29430594235269, 1.35232535428948], a = 0.2, v = 0.2, t = 0.2)
movej(p[-0.395415320678083, -0.117345969310859, 0.34222880980676, -1.14068436536879, -1.29462227959016, 1.34598640039662], a = 0.2, v = 0.2, t = 0.2)
movej(p[-0.39690499549089, -0.116995111035491, 0.341742773550196, -1.13132151947959, -1.29736577895554, 1.34113601012561], a = 0.2, v = 0.2, t = 0.2)
movej(p[-0.398097943048738, -0.116842362342643, 0.341529533846906, -1.13574710447687, -1.28869026445165, 1.33531950666506], a = 0.2, v = 0.2, t = 0.2)
movej(p[-0.39929934818493, -0.116565315129531, 0.341136080583559, -1.13967492752451, -1.27928421522496, 1.33968232172253], a = 0.2, v = 0.2, t = 0.2)
movej(p[-0.400250048253088, -0.116456772910597, 0.340918707914824, -1.13898901570992, -1.27469195088468, 1.34484974597713], a = 0.2, v = 0.2, t = 0.2)
movej(p[-0.401120428987919, -0.116336488728358, 0.340687850032271, -1.13339560697199, -1.27757054821091, 1.34098551904487], a = 0.2, v = 0.2, t = 0.2)
movej(p[-0.4013357379287, -0.116296665909953, 0.340615916985942, -1.1312715039438, -1.27910049068975, 1.33932784624759], a = 0.2, v = 0.2, t = 0.2)
movej(p[-0.401331099163545, -0.116325989168904, 0.340645437459217, -1.13160394973214, -1.27841192115665, 1.34081696404609], a = 0.2, v = 0.2, t = 0.2)
movej(p[-0.401572205058328, -0.116215988872617, 0.340515377579477, -1.13283279043254, -1.27622713329436, 1.3394817443478], a = 0.2, v = 0.2, t = 0.2)
movej(p[-0.401967176423073, -0.116093746192923, 0.340349211312465, -1.13208580731304, -1.27586594127606, 1.33648437107246], a = 0.2, v = 0.2, t = 0.2)
movej(p[-0.402123504318419, -0.116252792333387, 0.340462444498149, -1.12552621857174, -1.28228569713675, 1.33644448732557], a = 0.2, v = 0.2, t = 0.2)
movej(p[-0.401923305102548, -0.116355138528779, 0.340579985258115, -1.12460662495113, -1.28466843411383, 1.33602100175098], a = 0.2, v = 0.2, t = 0.2)
movej(p[-0.401220756056888, -0.116543707163836, 0.340863432375432, -1.13048863213201, -1.28354397819113, 1.33614880061771], a = 0.2, v = 0.2, t = 0.2)
movej(p[-0.399873179583257, -0.116818862389471, 0.341291180980949, -1.13493039073416, -1.2864675574557, 1.33612265918696], a = 0.2, v = 0.2, t = 0.2)
movej(p[-0.398478260035709, -0.117101855071177, 0.341704307424027, -1.12870614680569, -1.30126204150865, 1.32810677079101], a = 0.2, v = 0.2, t = 0.2)
movej(p[-0.397051018537416, -0.117280218066945, 0.342012850836355, -1.14057261192434, -1.3014052078595, 1.33076870336324], a = 0.2, v = 0.2, t = 0.2)
movej(p[-0.395112268597673, -0.117530521891033, 0.342499207553996, -1.15879617633696, -1.29559432947849, 1.33454424512601], a = 0.2, v = 0.2, t = 0.2)
movej(p[-0.392924138430388, -0.117891547136124, 0.343092424035073, -1.16549184487016, -1.30104774003969, 1.33697486959523], a = 0.2, v = 0.2, t = 0.2)
movej(p[-0.390968310648432, -0.118186337491382, 0.34360004564984, -1.17361370555201, -1.29985401795905, 1.34519188691277], a = 0.2, v = 0.2, t = 0.2)
movej(p[-0.391401769655763, -0.118165372294421, 0.343557871611855, -1.16880815700996, -1.29631855560552, 1.35137383680255], a = 0.2, v = 0.2, t = 0.2)
movej(p[-0.392957920068405, -0.117844244620329, 0.343079333086584, -1.15854758895626, -1.29393289965215, 1.3490584161632], a = 0.2, v = 0.2, t = 0.2)
movej(p[-0.395022643940549, -0.117428415812738, 0.342414345609577, -1.14271289650702, -1.29528507712904, 1.34498326200442], a = 0.2, v = 0.2, t = 0.2)
movej(p[-0.395515492799177, -0.11733464026919, 0.342245262434834, -1.13651953442108, -1.2985369140792, 1.34323206748008], a = 0.2, v = 0.2, t = 0.2)
movej(p[-0.398254509040644, -0.116728015376114, 0.341326845313871, -1.13984722021254, -1.28526362321743, 1.3376433962045], a = 0.2, v = 0.2, t = 0.2)
movej(p[-0.400426863969319, -0.11646094480063, 0.340841170647479, -1.13865379414697, -1.28082867232411, 1.33159023581877], a = 0.2, v = 0.2, t = 0.2)
movej(p[-0.400699149733056, -0.116402883107705, 0.340755020530354, -1.1318981148745, -1.27831972375732, 1.33698394792727], a = 0.2, v = 0.2, t = 0.2)
movej(p[-0.401131392645932, -0.116339825822306, 0.340656132497578, -1.13409598225443, -1.27904470125895, 1.33071859662219], a = 0.2, v = 0.2, t = 0.2)
movej(p[-0.401586127498943, -0.1163101697524, 0.340569326328589, -1.12884491813397, -1.28171138438321, 1.32985682986163], a = 0.2, v = 0.2, t = 0.2)
movej(p[-0.401890021538648, -0.11625370891819, 0.340463779197731, -1.12611045021879, -1.28207594458824, 1.33000495258245], a = 0.2, v = 0.2, t = 0.2)
movej(p[-0.402058670478173, -0.116247459637811, 0.340447836434731, -1.12663544703148, -1.28067503063629, 1.33056028503211], a = 0.2, v = 0.2, t = 0.2)
movej(p[-0.402062501183936, -0.11625337149436, 0.340457909946804, -1.12836462414448, -1.28194830890907, 1.3274441887826], a = 0.2, v = 0.2, t = 0.2)
movej(p[-0.402080209393002, -0.116190109645246, 0.340371521013611, -1.13121794276016, -1.28027477619909, 1.32645199539713], a = 0.2, v = 0.2, t = 0.2)
movej(p[-0.401599859174281, -0.116325919713768, 0.340576199450829, -1.13000213619075, -1.28252153846956, 1.32827560328559], a = 0.2, v = 0.2, t = 0.2)
movej(p[-0.401029655719007, -0.116619171149594, 0.341014562080373, -1.12688761501277, -1.28793012265357, 1.32942125198679], a = 0.2, v = 0.2, t = 0.2)
movej(p[-0.399900946345162, -0.116773400866843, 0.34129450015158, -1.13237508307446, -1.28521277650475, 1.33489337208901], a = 0.2, v = 0.2, t = 0.2)
movej(p[-0.397703849682785, -0.117063929786038, 0.341796350501072, -1.14165219066784, -1.29447997972366, 1.33075705738236], a = 0.2, v = 0.2, t = 0.2)
movej(p[-0.396052716237427, -0.117222298331796, 0.342062219471306, -1.15249142075978, -1.29523219606235, 1.33361366896723], a = 0.2, v = 0.2, t = 0.2)
movej(p[-0.394033971639374, -0.117540819207626, 0.342597589539102, -1.15910372876155, -1.29533106058824, 1.34217759588715], a = 0.2, v = 0.2, t = 0.2)
movej(p[-0.392847284005477, -0.117820984888105, 0.343084033771299, -1.16327291411712, -1.2938623584985, 1.34768988382123], a = 0.2, v = 0.2, t = 0.2)
movej(p[-0.392809228440703, -0.117763912729042, 0.343007434080376, -1.16527012007891, -1.28855165191683, 1.35099629369155], a = 0.2, v = 0.2, t = 0.2)
movej(p[-0.394603419010782, -0.117396119081877, 0.342375468502717, -1.148367826544, -1.29268296021163, 1.34512737372579], a = 0.2, v = 0.2, t = 0.2)
movej(p[-0.396566283231924, -0.116998753745847, 0.341686604641651, -1.13568982491899, -1.28743276789607, 1.34625509777425], a = 0.2, v = 0.2, t = 0.2)
movej(p[-0.398366158325097, -0.116638953192582, 0.341083500918526, -1.13493987760681, -1.28619453710674, 1.33706905773779], a = 0.2, v = 0.2, t = 0.2)
movej(p[-0.40003379894081, -0.116393737073167, 0.340655020963802, -1.13805730592252, -1.28505580327606, 1.32849773844509], a = 0.2, v = 0.2, t = 0.2)
movej(p[-0.400485135685765, -0.116149401356407, 0.340207266443814, -1.13651066599802, -1.28702514892635, 1.32439512823359], a = 0.2, v = 0.2, t = 0.2)
movej(p[-0.400978203236353, -0.116028807981758, 0.339969397470327, -1.1345035788028, -1.28549579850724, 1.32457059949353], a = 0.2, v = 0.2, t = 0.2)
movej(p[-0.40137620887117, -0.11601972806634, 0.33994526057347, -1.13219787595827, -1.28658368792079, 1.32321358404292], a = 0.2, v = 0.2, t = 0.2)
movej(p[-0.401752295032568, -0.115973313975274, 0.339855506178841, -1.13316325779654, -1.28780867602167, 1.32003088156233], a = 0.2, v = 0.2, t = 0.2)
movej(p[-0.401837631818448, -0.116012144125386, 0.339917549247898, -1.13450808304149, -1.28779818237393, 1.31954209517469], a = 0.2, v = 0.2, t = 0.2)
movej(p[-0.402022364090034, -0.115994519832111, 0.339866083316241, -1.13158756986171, -1.28856154368963, 1.31983342920745], a = 0.2, v = 0.2, t = 0.2)
movej(p[-0.402040090922002, -0.115930783334479, 0.339721856036235, -1.13300073868584, -1.29106388232413, 1.3170249156289], a = 0.2, v = 0.2, t = 0.2)
movej(p[-0.40201710425794, -0.116042119043273, 0.339951219379476, -1.13427103886748, -1.29112117265336, 1.31703081722743], a = 0.2, v = 0.2, t = 0.2)
movej(p[-0.40219130915486, -0.116070103925622, 0.339998902817366, -1.13473145985173, -1.29062406172842, 1.31716091658857], a = 0.2, v = 0.2, t = 0.2)
movej(p[-0.401776482098721, -0.116204668153741, 0.340237088463462, -1.13059153347884, -1.29086047603266, 1.32117550429088], a = 0.2, v = 0.2, t = 0.2)
movej(p[-0.400759942709421, -0.116383374791868, 0.340549209525697, -1.13602586582922, -1.29098816268804, 1.32362185246796], a = 0.2, v = 0.2, t = 0.2)
movej(p[-0.398977635650082, -0.116777217011083, 0.34127659687271, -1.13238304544882, -1.29301278166687, 1.33179705625733], a = 0.2, v = 0.2, t = 0.2)
movej(p[-0.397310882786465, -0.117017936224531, 0.341659153851344, -1.14464951764462, -1.29494515141082, 1.33350316591928], a = 0.2, v = 0.2, t = 0.2)
movej(p[-0.395771192912149, -0.117305873549947, 0.342186313065964, -1.15018297267179, -1.29597471499756, 1.33821942107649], a = 0.2, v = 0.2, t = 0.2)
movej(p[-0.393687722622277, -0.11761463982795, 0.342688242251, -1.16017922131549, -1.29722195681818, 1.3432636714449], a = 0.2, v = 0.2, t = 0.2)
movej(p[-0.391331341162517, -0.117919172249275, 0.343169883809071, -1.1701623078101, -1.29772312371964, 1.34923852921786], a = 0.2, v = 0.2, t = 0.2)
movej(p[-0.390077605460766, -0.118128036982593, 0.34354381141347, -1.16935309073759, -1.29774678176409, 1.35446273029777], a = 0.2, v = 0.2, t = 0.2)
movej(p[-0.390986793660555, -0.118031168287386, 0.343412805599652, -1.16230896580667, -1.294540440312, 1.35499779660269], a = 0.2, v = 0.2, t = 0.2)
movej(p[-0.393972716335915, -0.117505914136692, 0.342538913361473, -1.13781588791644, -1.2889151875795, 1.35140063033421], a = 0.2, v = 0.2, t = 0.2)
movej(p[-0.395657481738239, -0.117106784940424, 0.341631469570476, -1.12667988968811, -1.29418805831148, 1.34390317782316], a = 0.2, v = 0.2, t = 0.2)
movej(p[-0.397597531692105, -0.116789132252486, 0.340994286295156, -1.11862363045348, -1.29567095807149, 1.33685486943175], a = 0.2, v = 0.2, t = 0.2)
movej(p[-0.399013757038222, -0.116551807734824, 0.340573456493059, -1.11597344816215, -1.29855292943575, 1.33058720269917], a = 0.2, v = 0.2, t = 0.2)
movej(p[-0.400342631591641, -0.116439679784987, 0.34031827507888, -1.1310006986743, -1.30273676595603, 1.32177475850321], a = 0.2, v = 0.2, t = 0.2)
movej(p[-0.401117019718306, -0.116326470154536, 0.34010150619538, -1.13182597172778, -1.30492219876898, 1.31856156355252], a = 0.2, v = 0.2, t = 0.2)
movej(p[-0.401241496517628, -0.116295523678044, 0.339968505623866, -1.12978401490047, -1.30727562476895, 1.31744472750817], a = 0.2, v = 0.2, t = 0.2)
movej(p[-0.40152248690135, -0.116279503613059, 0.340009675658764, -1.13079624599179, -1.30456987156701, 1.31951002735013], a = 0.2, v = 0.2, t = 0.2)
movej(p[-0.401873776398746, -0.116273332638757, 0.340111799446864, -1.13279680143475, -1.30032358156123, 1.32127911995226], a = 0.2, v = 0.2, t = 0.2)
movej(p[-0.402444957575265, -0.116329001840833, 0.340708175824272, -1.14225733735754, -1.28440311247017, 1.32598040827536], a = 0.2, v = 0.2, t = 0.2)
movej(p[-0.402516108492054, -0.116306578594969, 0.340676720537196, -1.14293272817476, -1.28393318096781, 1.32611893076582], a = 0.2, v = 0.2, t = 0.2)
movej(p[-0.402356092164983, -0.116305960883716, 0.340575753495525, -1.14356725898358, -1.2882795562181, 1.32565996040204], a = 0.2, v = 0.2, t = 0.2)
movej(p[-0.40194421075562, -0.116364320457646, 0.340664621514247, -1.14368254834009, -1.28834687132113, 1.32715776469363], a = 0.2, v = 0.2, t = 0.2)
movej(p[-0.401307519466726, -0.11646853839553, 0.340936093417157, -1.14463241499822, -1.2838369464388, 1.33054958761567], a = 0.2, v = 0.2, t = 0.2)
movej(p[-0.400403789810305, -0.116634839843712, 0.341461026733339, -1.15074078108633, -1.27514294131363, 1.33588489163465], a = 0.2, v = 0.2, t = 0.2)
movej(p[-0.398465452997727, -0.11689531278616, 0.341733520508052, -1.14938870801284, -1.28321301331297, 1.33771248010529], a = 0.2, v = 0.2, t = 0.2)
movej(p[-0.39708891593258, -0.117082868719779, 0.341921614261381, -1.14995307130109, -1.29026211630635, 1.3387019984682], a = 0.2, v = 0.2, t = 0.2)
movej(p[-0.395893225813143, -0.117272516065847, 0.342120055392224, -1.15230846357593, -1.29545796951447, 1.34030662333457], a = 0.2, v = 0.2, t = 0.2)
movej(p[-0.392691488977544, -0.117762159259185, 0.342995596252941, -1.16293665856715, -1.29899432427096, 1.34703913763117], a = 0.2, v = 0.2, t = 0.2)
movej(p[-0.391169209469649, -0.117992920434676, 0.343510136552364, -1.16635876776231, -1.2937605689182, 1.35214043244469], a = 0.2, v = 0.2, t = 0.2)
movej(p[-0.388924186345229, -0.120529194063729, 0.340800972891861, -1.15841829042067, -1.29753877496019, 1.35046255399712], a = 0.2, v = 0.2, t = 0.2)
movej(p[-0.390360296624637, -0.120094673482898, 0.340793694141146, -1.15686730418078, -1.29500276915579, 1.34795208682046], a = 0.2, v = 0.2, t = 0.2)
movej(p[-0.391796502289491, -0.119660166804297, 0.340786518871565, -1.1553159400123, -1.29247425384738, 1.34543825268096], a = 0.2, v = 0.2, t = 0.2)
movej(p[-0.393232725927276, -0.119225561738821, 0.340779243617, -1.15375845559522, -1.28995583835262, 1.34292180054192], a = 0.2, v = 0.2, t = 0.2)
movej(p[-0.39466893159213, -0.11879105506022, 0.340772068347419, -1.15220089281384, -1.28744761762177, 1.34040236650229], a = 0.2, v = 0.2, t = 0.2)
movej(p[-0.396105140756716, -0.118356548941822, 0.340764793140667, -1.15064030543481, -1.2849482839205, 1.33787702796898], a = 0.2, v = 0.2, t = 0.2)
movej(p[-0.397541346421569, -0.117922042263221, 0.340757617871086, -1.14907635303457, -1.28245762333886, 1.33535173472932], a = 0.2, v = 0.2, t = 0.2)
movej(p[-0.398977555586156, -0.117487536144823, 0.340750342664334, -1.14751061527047, -1.27997724900572, 1.33281970049278], a = 0.2, v = 0.2, t = 0.2)
movej(p[-0.400413775724208, -0.117052930519143, 0.34074316734694, -1.14594275371719, -1.27750692562171, 1.33028688127018], a = 0.2, v = 0.2, t = 0.2)
movej(p[-0.401849984888795, -0.116618424400746, 0.340735892140189, -1.14436981519013, -1.27504538558222, 1.32775034791903], a = 0.2, v = 0.2, t = 0.2)
movej(p[-0.402906476016881, -0.116294696807424, 0.340792488532277, -1.14058940471974, -1.27617578218554, 1.32369959029969], a = 0.2, v = 0.2, t = 0.2)
movej(p[-0.401614545325769, -0.116504078142292, 0.341084430797069, -1.13683906550635, -1.28872949753285, 1.31860868544791], a = 0.2, v = 0.2, t = 0.2)
movej(p[-0.399928347661753, -0.116688067608396, 0.341295781889403, -1.14346884976215, -1.29521518329399, 1.31964899869024], a = 0.2, v = 0.2, t = 0.2)
movej(p[-0.39800583777938, -0.116944152850848, 0.341635547250757, -1.1493395047241, -1.30159611353343, 1.322264524239], a = 0.2, v = 0.2, t = 0.2)
movej(p[-0.396231097038964, -0.117230999950383, 0.342077720809213, -1.15756013302724, -1.3041481085422, 1.32602736844821], a = 0.2, v = 0.2, t = 0.2)
movej(p[-0.39467262924053, -0.117505703337024, 0.342556418261274, -1.15939327051092, -1.2994330689936, 1.33506101780324], a = 0.2, v = 0.2, t = 0.2)
movej(p[-0.393068294730297, -0.117723054182529, 0.342847471313542, -1.16274602497795, -1.30577644189761, 1.33713031473054], a = 0.2, v = 0.2, t = 0.2)
movej(p[-0.392364311866798, -0.117787210416888, 0.342911133197691, -1.16105099590488, -1.30815132427255, 1.33905568016741], a = 0.2, v = 0.2, t = 0.2)
movej(p[-0.393280622890526, -0.117646631570994, 0.342740006589936, -1.158226033305, -1.29910570473666, 1.34103626095099], a = 0.2, v = 0.2, t = 0.2)
movej(p[-0.39489420560585, -0.117324831979409, 0.342213644230278, -1.14751338802583, -1.29699668937577, 1.3380153014408], a = 0.2, v = 0.2, t = 0.2)
movej(p[-0.397359466357013, -0.116915228043078, 0.341572024027888, -1.13637085996528, -1.29522648095387, 1.33222501900505], a = 0.2, v = 0.2, t = 0.2)
movej(p[-0.399335724673201, -0.116630071741929, 0.341115303378459, -1.13629472500296, -1.29217613196372, 1.32754119828285], a = 0.2, v = 0.2, t = 0.2)
movej(p[-0.400362936095698, -0.116483697905537, 0.340912405563015, -1.13641407447445, -1.29242245058756, 1.32253226241935], a = 0.2, v = 0.2, t = 0.2)
movej(p[-0.401193516456917, -0.116378371797806, 0.340763189864824, -1.13716399802288, -1.29358099696106, 1.31804081452005], a = 0.2, v = 0.2, t = 0.2)
movej(p[-0.401679287921816, -0.116276904282084, 0.340566198374795, -1.13755330415308, -1.29573186038689, 1.3147720931899], a = 0.2, v = 0.2, t = 0.2)
movej(p[-0.402426778387239, -0.116295288062175, 0.340766087120677, -1.14044061652409, -1.29473950115731, 1.31045940221867], a = 0.2, v = 0.2, t = 0.2)
movej(p[-0.402837112687249, -0.11627090817684, 0.340790526503372, -1.13930158435529, -1.29250549898476, 1.31026470358233], a = 0.2, v = 0.2, t = 0.2)
movej(p[-0.402720402527363, -0.116222079649624, 0.340628866850059, -1.13672870930967, -1.29271973015185, 1.31192086077219], a = 0.2, v = 0.2, t = 0.2)
movej(p[-0.40260472872631, -0.11620378539395, 0.340545063437484, -1.13740109034553, -1.29431301985708, 1.31168448930076], a = 0.2, v = 0.2, t = 0.2)
movej(p[-0.402579064479729, -0.116165530071602, 0.340415569589138, -1.13769748778848, -1.29632037899229, 1.31099745606903], a = 0.2, v = 0.2, t = 0.2)
movej(p[-0.402595485096454, -0.116177617549552, 0.340449833509275, -1.13931273826493, -1.29676998510036, 1.31033373830256], a = 0.2, v = 0.2, t = 0.2)
movej(p[-0.402686189136916, -0.116279257567822, 0.34078018485819, -1.14249410343151, -1.29387355194538, 1.31007770186932], a = 0.2, v = 0.2, t = 0.2)
movej(p[-0.40166038432232, -0.116468820074227, 0.341128765377607, -1.14328127177657, -1.29177081097109, 1.31488033393188], a = 0.2, v = 0.2, t = 0.2)
movej(p[-0.4003530357423, -0.116633044713356, 0.341315649080008, -1.1446095299176, -1.29380506898389, 1.31897914964534], a = 0.2, v = 0.2, t = 0.2)
movej(p[-0.398655895873094, -0.116792326857355, 0.341450630830457, -1.14054737259471, -1.29693864883503, 1.32477371783702], a = 0.2, v = 0.2, t = 0.2)
movej(p[-0.396789214519234, -0.117075589721052, 0.341766787458095, -1.15346163928605, -1.30272140101115, 1.3268877984429], a = 0.2, v = 0.2, t = 0.2)
movej(p[-0.395473654654558, -0.117333584295758, 0.342223378546354, -1.15599000472531, -1.30220684957984, 1.33152729195762], a = 0.2, v = 0.2, t = 0.2)
movej(p[-0.394940328292688, -0.117421849867474, 0.342379005795201, -1.15628392493197, -1.30134282255389, 1.33402894859438], a = 0.2, v = 0.2, t = 0.2)
movej(p[-0.394462419570926, -0.117489333438225, 0.342500934919463, -1.15467062549593, -1.29984949266985, 1.33700868231587], a = 0.2, v = 0.2, t = 0.2)
movej(p[-0.393456731088615, -0.117645610623678, 0.342737262463041, -1.15794562103513, -1.29864656440265, 1.34133504923524], a = 0.2, v = 0.2, t = 0.2)
movej(p[-0.39300651926931, -0.117691514283939, 0.34277828918278, -1.15843133322665, -1.30152347621095, 1.34121339249622], a = 0.2, v = 0.2, t = 0.2)
movej(p[-0.395380231150453, -0.117218454137002, 0.34200702807738, -1.14224742645017, -1.29685821402305, 1.33765672623429], a = 0.2, v = 0.2, t = 0.2)
movej(p[-0.397513298221407, -0.116891188427535, 0.341469308525739, -1.14094683323956, -1.29409813200783, 1.33172912169876], a = 0.2, v = 0.2, t = 0.2)
movej(p[-0.400049058829811, -0.116456703203933, 0.34066641491676, -1.13880623318847, -1.29688223004039, 1.32164691773632], a = 0.2, v = 0.2, t = 0.2)
movej(p[-0.401325824930805, -0.11623493868808, 0.34028661736166, -1.13492307933768, -1.29838720432311, 1.31674345064368], a = 0.2, v = 0.2, t = 0.2)
movej(p[-0.401677397456183, -0.116162725668207, 0.3401537334305, -1.13365776585709, -1.30127182785458, 1.3138537612761], a = 0.2, v = 0.2, t = 0.2)
movej(p[-0.402213875581764, -0.116146843281798, 0.340280699530602, -1.137543592658, -1.29869729642527, 1.31097489072054], a = 0.2, v = 0.2, t = 0.2)
movej(p[-0.402584738880466, -0.11615392554809, 0.340423107905285, -1.13793500122087, -1.29496614295478, 1.31079801221198], a = 0.2, v = 0.2, t = 0.2)
movej(p[-0.402945791949509, -0.116137283601656, 0.340470480333481, -1.13757657649658, -1.29211116009914, 1.31068409719849], a = 0.2, v = 0.2, t = 0.2)
movej(p[-0.403757632698966, -0.116172194546357, 0.340796693122106, -1.14319024824903, -1.28711463851123, 1.30756363244525], a = 0.2, v = 0.2, t = 0.2)
movej(p[-0.403065382204467, -0.116184419283784, 0.340615120605845, -1.14043499267508, -1.29199869071393, 1.30980402538018], a = 0.2, v = 0.2, t = 0.2)
movej(p[-0.402373146183168, -0.116196545074134, 0.340433548041772, -1.13766431290256, -1.29687928670401, 1.31204069145922], a = 0.2, v = 0.2, t = 0.2)
movej(p[-0.401813006708879, -0.116268899973065, 0.340510598401562, -1.13830347210391, -1.29828099576792, 1.31393357287168], a = 0.2, v = 0.2, t = 0.2)
movej(p[-0.400675376182255, -0.116519632312977, 0.341046325578973, -1.14392958459402, -1.29665427969371, 1.31710928657136], a = 0.2, v = 0.2, t = 0.2)
movej(p[-0.397866098753328, -0.116954138177317, 0.341625306261874, -1.15299967789789, -1.30237356621329, 1.32352025424937], a = 0.2, v = 0.2, t = 0.2)
movej(p[-0.394777242848285, -0.117457042674512, 0.342324761310167, -1.16304841846332, -1.30574759185773, 1.33304236852094], a = 0.2, v = 0.2, t = 0.2)
movej(p[-0.392022715261091, -0.117857608907035, 0.342916976275151, -1.16388202394309, -1.31150466603487, 1.34056034704579], a = 0.2, v = 0.2, t = 0.2)
movej(p[-0.3907779498097, -0.117917965997513, 0.342960978577964, -1.14662323095796, -1.29478507599704, 1.35710132919662], a = 0.2, v = 0.2, t = 0.2)
movej(p[-0.391760122357791, -0.117781663718725, 0.342791381866401, -1.14544070753768, -1.29334133683001, 1.35403275049877], a = 0.2, v = 0.2, t = 0.2)
movej(p[-0.393825134847561, -0.117486117442772, 0.342389343527599, -1.14251708237765, -1.29145267857952, 1.34711131601647], a = 0.2, v = 0.2, t = 0.2)
movej(p[-0.396477913113267, -0.117041449606758, 0.341610703419068, -1.13934292194385, -1.29661690295428, 1.33523445319137], a = 0.2, v = 0.2, t = 0.2)
movej(p[-0.397949222836843, -0.116629042264259, 0.340796273304717, -1.12567968700462, -1.31025810029708, 1.32299165209659], a = 0.2, v = 0.2, t = 0.2)
movej(p[-0.399816450794178, -0.116570516281674, 0.340916268824262, -1.14083479761354, -1.299121525164, 1.32142714736772], a = 0.2, v = 0.2, t = 0.2)
movej(p[-0.401147797559461, -0.116369111972712, 0.340648866122518, -1.13688144721591, -1.29576500907248, 1.31851462170894], a = 0.2, v = 0.2, t = 0.2)
movej(p[-0.401767834783562, -0.116267070778148, 0.340452270610509, -1.13738923394635, -1.29812286444277, 1.31535710037607], a = 0.2, v = 0.2, t = 0.2)
movej(p[-0.401773645844125, -0.116208725773591, 0.340183978564376, -1.13541073683005, -1.30350328006643, 1.31407734809807], a = 0.2, v = 0.2, t = 0.2)
movej(p[-0.402398866870862, -0.116196692918691, 0.340384017905829, -1.14024882781757, -1.29899217725564, 1.31241163062507], a = 0.2, v = 0.2, t = 0.2)
movej(p[-0.402239009998034, -0.116164500790561, 0.340209933624241, -1.13408087910956, -1.29929082789302, 1.3142812764261], a = 0.2, v = 0.2, t = 0.2)
movej(p[-0.402433932005577, -0.116200683696146, 0.340439001994643, -1.13914856038337, -1.29614700235367, 1.31376655955462], a = 0.2, v = 0.2, t = 0.2)
movej(p[-0.40255575499876, -0.116168732164048, 0.340327716560158, -1.1394082423128, -1.29880482576095, 1.31258656345128], a = 0.2, v = 0.2, t = 0.2)
movej(p[-0.402709216165584, -0.116142182386762, 0.340287913550182, -1.13850143009534, -1.29813761519212, 1.31255319089396], a = 0.2, v = 0.2, t = 0.2)
movej(p[-0.402599916236731, -0.116184527329075, 0.340458832950524, -1.13868652941456, -1.2938547357667, 1.3144291755006], a = 0.2, v = 0.2, t = 0.2)
movej(p[-0.402333825991667, -0.116237725368376, 0.340564084649306, -1.14089203572612, -1.29411359299612, 1.3151289962674], a = 0.2, v = 0.2, t = 0.2)
movej(p[-0.401665278248568, -0.116368909831601, 0.340849701616247, -1.14405780419318, -1.29231693819898, 1.31769668896937], a = 0.2, v = 0.2, t = 0.2)
movej(p[-0.399869371628437, -0.116628569867024, 0.34116099989407, -1.14585721642389, -1.29585340846772, 1.32203496425436], a = 0.2, v = 0.2, t = 0.2)
movej(p[-0.397985498796653, -0.116941517922015, 0.341559172693922, -1.1553504261147, -1.30489857261773, 1.32378883760569], a = 0.2, v = 0.2, t = 0.2)
movej(p[-0.395715775271508, -0.117290609398275, 0.341941033978434, -1.16101240143014, -1.31257576977394, 1.32858037641556], a = 0.2, v = 0.2, t = 0.2)
movej(p[-0.393623116543125, -0.117624690438523, 0.342488812213735, -1.1639719099826, -1.31429720273758, 1.33484107123601], a = 0.2, v = 0.2, t = 0.2)
movej(p[-0.39332542058619, -0.117697895641181, 0.342655008168944, -1.16686386513742, -1.31224754090259, 1.33644434892044], a = 0.2, v = 0.2, t = 0.2)
movej(p[-0.393088260508716, -0.117763686804861, 0.342815877838038, -1.16987323935761, -1.30979194047883, 1.33793218029415], a = 0.2, v = 0.2, t = 0.2)
movej(p[-0.392214462720359, -0.11789343820544, 0.343126018981889, -1.16925487392994, -1.30871331033337, 1.34120736556784], a = 0.2, v = 0.2, t = 0.2)
movej(p[-0.391528476777628, -0.117966413229072, 0.343145332249389, -1.16775252065765, -1.31094492539164, 1.34336563856118], a = 0.2, v = 0.2, t = 0.2)
movej(p[-0.395427309494828, -0.117352772589331, 0.34223617212128, -1.15798826145591, -1.30098968094318, 1.33508986059356], a = 0.2, v = 0.2, t = 0.2)
movej(p[-0.395808830882253, -0.1172580359973, 0.341938006296497, -1.14617015640456, -1.30094128397901, 1.33435697860415], a = 0.2, v = 0.2, t = 0.2)
movej(p[-0.39687497000266, -0.117074267064808, 0.341600076517714, -1.13944634541018, -1.30002429666304, 1.33199789934147], a = 0.2, v = 0.2, t = 0.2)
movej(p[-0.399961322244907, -0.116626876156939, 0.341127687501828, -1.14768644662808, -1.29716459595692, 1.32450471836746], a = 0.2, v = 0.2, t = 0.2)
movej(p[-0.400895831284723, -0.116450839489825, 0.340576560387331, -1.13689716593031, -1.30371682394485, 1.31973419100322], a = 0.2, v = 0.2, t = 0.2)
movej(p[-0.401956029404151, -0.116314985249609, 0.340719593296052, -1.14798373995604, -1.29470720029696, 1.31969733025908], a = 0.2, v = 0.2, t = 0.2)
movej(p[-0.402048310206097, -0.116293425310281, 0.340487256121651, -1.14450067790713, -1.3019847550642, 1.31810290371794], a = 0.2, v = 0.2, t = 0.2)
movej(p[-0.4022271167269, -0.116258359972314, 0.340435284781554, -1.14226010181359, -1.30046683525751, 1.31770797978374], a = 0.2, v = 0.2, t = 0.2)
movej(p[-0.402319430670178, -0.116243770849424, 0.340427528921202, -1.14240642393289, -1.29987732647773, 1.31779699017636], a = 0.2, v = 0.2, t = 0.2)
movej(p[-0.402462043942233, -0.11622734327187, 0.340417721815141, -1.14472880711538, -1.30067618464508, 1.31792390288634], a = 0.2, v = 0.2, t = 0.2)
movej(p[-0.402584868178862, -0.116213781028652, 0.340409439155211, -1.14703152827271, -1.30161009444009, 1.3181553450162], a = 0.2, v = 0.2, t = 0.2)
movej(p[-0.402585795173622, -0.116207854950731, 0.340404935569841, -1.14539820914703, -1.30027832993954, 1.31826713711619], a = 0.2, v = 0.2, t = 0.2)
movej(p[-0.402586180010831, -0.116204577578419, 0.340401928788996, -1.14463478451552, -1.29964118711293, 1.31846323803031], a = 0.2, v = 0.2, t = 0.2)
movej(p[-0.40271920564261, -0.11618846657316, 0.340390286761708, -1.14684960024566, -1.30043916223732, 1.31875079121119], a = 0.2, v = 0.2, t = 0.2)
movej(p[-0.402658163743542, -0.116200353752444, 0.34039712134486, -1.1476171142617, -1.30148008849234, 1.31912767681013], a = 0.2, v = 0.2, t = 0.2)
movej(p[-0.402160606452427, -0.116273185529183, 0.340444445908838, -1.14445294848883, -1.30250497063136, 1.31946132191153], a = 0.2, v = 0.2, t = 0.2)
movej(p[-0.401230187490608, -0.116419821870782, 0.340750297357763, -1.14655166767273, -1.2997564374273, 1.32252222406298], a = 0.2, v = 0.2, t = 0.2)
movej(p[-0.399968434891017, -0.116620307702957, 0.340978605961463, -1.14486216593545, -1.30194124924473, 1.32480963686799], a = 0.2, v = 0.2, t = 0.2)
movej(p[-0.398361956566749, -0.116916784587877, 0.341472154480218, -1.15454402559914, -1.30379953804435, 1.32781102636078], a = 0.2, v = 0.2, t = 0.2)
movej(p[-0.39725837393734, -0.117108615625274, 0.341817423611704, -1.15734298500517, -1.30217401919889, 1.33113123067751], a = 0.2, v = 0.2, t = 0.2)
movej(p[-0.395129331047687, -0.117445364128596, 0.342144905030301, -1.15805549439851, -1.31298209236015, 1.33423099962516], a = 0.2, v = 0.2, t = 0.2)
movej(p[-0.393582117927516, -0.117719143298858, 0.34250521680738, -1.1607732455605, -1.31823728564922, 1.33701037809649], a = 0.2, v = 0.2, t = 0.2)
movej(p[-0.393384826002064, -0.117739488902945, 0.342534844708855, -1.15996512924824, -1.31844036551219, 1.33824219631366], a = 0.2, v = 0.2, t = 0.2)
movej(p[-0.394859020634394, -0.117412816343783, 0.342108339579813, -1.15073722597934, -1.31160295059979, 1.33569757839537], a = 0.2, v = 0.2, t = 0.2)
movej(p[-0.397066950361078, -0.117080640949068, 0.341556003333336, -1.14242705906492, -1.30562859490365, 1.32965885916314], a = 0.2, v = 0.2, t = 0.2)
movej(p[-0.3989823938285, -0.116742039398393, 0.341058829507607, -1.13802621283237, -1.30300184255432, 1.32521156486097], a = 0.2, v = 0.2, t = 0.2)
movej(p[-0.399694084546187, -0.116648086019024, 0.340365574882766, -1.12998312531075, -1.3249385612799, 1.31812853039345], a = 0.2, v = 0.2, t = 0.2)
movej(p[-0.401071921068515, -0.116438657282128, 0.340450575658653, -1.1376720240857, -1.3099614216937, 1.32240122422936], a = 0.2, v = 0.2, t = 0.2)
movej(p[-0.401586669602238, -0.116354085829577, 0.340202861071996, -1.13261159575836, -1.31226437218994, 1.32016502639891], a = 0.2, v = 0.2, t = 0.2)
movej(p[-0.402284143912017, -0.116228929861417, 0.340380681405008, -1.1431822449503, -1.30080249944512, 1.32257524194103], a = 0.2, v = 0.2, t = 0.2)
movej(p[-0.402318325458325, -0.116226140874517, 0.340394870959056, -1.14568094937701, -1.30142252188862, 1.32355210561921], a = 0.2, v = 0.2, t = 0.2)
movej(p[-0.402319763563321, -0.116266055557053, 0.340214431523311, -1.13671016033403, -1.30630556550752, 1.31971700088983], a = 0.2, v = 0.2, t = 0.2)
movej(p[-0.402370221230795, -0.116258859071763, 0.340263688039555, -1.14033070339456, -1.30552487785132, 1.32106813289702], a = 0.2, v = 0.2, t = 0.2)
movej(p[-0.402467797883094, -0.11624195831474, 0.3403583677699, -1.14612629133268, -1.30309850859782, 1.32319236746529], a = 0.2, v = 0.2, t = 0.2)
movej(p[-0.402623503606963, -0.116210881204752, 0.340328023894254, -1.14494496335277, -1.30143982244686, 1.32275262612159], a = 0.2, v = 0.2, t = 0.2)
movej(p[-0.402848468385745, -0.116162086561332, 0.340412676898225, -1.14798501561448, -1.29533140509604, 1.32348630792456], a = 0.2, v = 0.2, t = 0.2)
movej(p[-0.402170653608184, -0.116284222580915, 0.340514103127776, -1.14912799877972, -1.30047925086242, 1.32504460542948], a = 0.2, v = 0.2, t = 0.2)
movej(p[-0.400973102556931, -0.116460171069453, 0.340890914458583, -1.14782483487231, -1.29450636963924, 1.32683468067968], a = 0.2, v = 0.2, t = 0.2)
movej(p[-0.399264398170883, -0.116735184554238, 0.341054057507124, -1.14642273266676, -1.30693729605473, 1.3263267614702], a = 0.2, v = 0.2, t = 0.2)
movej(p[-0.397872902710521, -0.116972001562408, 0.341435925466545, -1.14768640339094, -1.3066426574502, 1.33006328645218], a = 0.2, v = 0.2, t = 0.2)
movej(p[-0.39647959159115, -0.117188974291225, 0.341760382643361, -1.14923762195211, -1.30854276141823, 1.33240177936066], a = 0.2, v = 0.2, t = 0.2)
movej(p[-0.39490115667369, -0.117473775277612, 0.342069331214315, -1.15229692902151, -1.31743760062502, 1.33500140526188], a = 0.2, v = 0.2, t = 0.2)
movej(p[-0.394470455161094, -0.117548390786796, 0.342140120287178, -1.15001767057578, -1.31808373996766, 1.33567179341123], a = 0.2, v = 0.2, t = 0.2)
movej(p[-0.395443801814576, -0.117325743593257, 0.341883476293745, -1.1451087874621, -1.30996365902426, 1.33468215061969], a = 0.2, v = 0.2, t = 0.2)
movej(p[-0.397387377211548, -0.117046514562787, 0.34143695144021, -1.14019410807883, -1.30634484587771, 1.3304637877031], a = 0.2, v = 0.2, t = 0.2)
movej(p[-0.399232629243974, -0.116756583117744, 0.340905071948216, -1.13421629817321, -1.30701888087659, 1.32529934187471], a = 0.2, v = 0.2, t = 0.2)
movej(p[-0.400427844772058, -0.116590333713953, 0.340455087240512, -1.13001208057994, -1.31403293025554, 1.32315881545884], a = 0.2, v = 0.2, t = 0.2)
movej(p[-0.401153030639919, -0.116474218738549, 0.34035045058565, -1.13477187950156, -1.31318419121035, 1.32390527820693], a = 0.2, v = 0.2, t = 0.2)
movej(p[-0.401591334807586, -0.116401118684352, 0.340281437190702, -1.13635949284318, -1.31187370357855, 1.32396830135539], a = 0.2, v = 0.2, t = 0.2)
movej(p[-0.402031710232842, -0.116321958261856, 0.34020475751712, -1.13567808002591, -1.30901197025099, 1.32310299277758], a = 0.2, v = 0.2, t = 0.2)
movej(p[-0.402480598255482, -0.116232635841798, 0.340310133218332, -1.14528262486292, -1.30264253521464, 1.32622214954989], a = 0.2, v = 0.2, t = 0.2)
movej(p[-0.402581570108982, -0.116194311140389, 0.340383398299118, -1.14508059084746, -1.29580965391262, 1.32572182977233], a = 0.2, v = 0.2, t = 0.2)
movej(p[-0.402588978176848, -0.116227672888156, 0.340094162730219, -1.13706165014732, -1.30764008717256, 1.3237138130219], a = 0.2, v = 0.2, t = 0.2)
movej(p[-0.402589183768436, -0.116227707163477, 0.340085464652425, -1.13695553017823, -1.3078759039328, 1.32404906026284], a = 0.2, v = 0.2, t = 0.2)
movej(p[-0.402659337343377, -0.116200652270896, 0.34013459914856, -1.13709246669865, -1.30329271747383, 1.32383359688719], a = 0.2, v = 0.2, t = 0.2)
movej(p[-0.402966488615148, -0.116124428806824, 0.3402925208373, -1.14607574652894, -1.2949591789588, 1.3265769403726], a = 0.2, v = 0.2, t = 0.2)
movej(p[-0.402783385378597, -0.116162610507362, 0.340333152136916, -1.14842725370595, -1.29745814074914, 1.32805370752622], a = 0.2, v = 0.2, t = 0.2)
movej(p[-0.402354443076562, -0.116200687373502, 0.340630940709212, -1.15263624270559, -1.28807379596677, 1.32966047424715], a = 0.2, v = 0.2, t = 0.2)
movej(p[-0.401162242088443, -0.116404360114529, 0.340886418356945, -1.15392522063847, -1.2923076042337, 1.33242980564521], a = 0.2, v = 0.2, t = 0.2)
movej(p[-0.399729168464352, -0.116624461241974, 0.34110553529292, -1.14629762385283, -1.29373338890826, 1.32984041147528], a = 0.2, v = 0.2, t = 0.2)
movej(p[-0.398562574060151, -0.116836758960906, 0.341511451940304, -1.15421766781751, -1.29501367054722, 1.33219689978118], a = 0.2, v = 0.2, t = 0.2)
movej(p[-0.396587858660692, -0.117175451760136, 0.341864661465783, -1.15616613487012, -1.30538184380477, 1.33511514108677], a = 0.2, v = 0.2, t = 0.2)
movej(p[-0.39454852647311, -0.11754068612971, 0.342397270979379, -1.15836890198176, -1.30915835799439, 1.33930401796307], a = 0.2, v = 0.2, t = 0.2)
movej(p[-0.393207884460579, -0.117770216659833, 0.342716138271492, -1.15985086460723, -1.31234579467264, 1.34125350369772], a = 0.2, v = 0.2, t = 0.2)
movej(p[-0.392638676002066, -0.117873910229939, 0.342957850257698, -1.16082990380879, -1.31014262639916, 1.34371042117996], a = 0.2, v = 0.2, t = 0.2)
movej(p[-0.394756817041371, -0.117455197127323, 0.342261696499317, -1.15361045014292, -1.3043969811949, 1.33921784318263], a = 0.2, v = 0.2, t = 0.2)
movej(p[-0.397246867625637, -0.117026477764054, 0.341624339468012, -1.13522868034316, -1.30411897890106, 1.32895932733213], a = 0.2, v = 0.2, t = 0.2)
movej(p[-0.399100263332021, -0.116809046704144, 0.340761243030906, -1.12951533699631, -1.31174092686723, 1.324278138136], a = 0.2, v = 0.2, t = 0.2)
movej(p[-0.39972397555776, -0.116792276773554, 0.340686930657158, -1.1226949451736, -1.34757923578631, 1.30713638675054], a = 0.2, v = 0.2, t = 0.2)
movej(p[-0.401439396646576, -0.116378485780031, 0.340290398600795, -1.12852653628736, -1.31716050035446, 1.32078861554208], a = 0.2, v = 0.2, t = 0.2)
movej(p[-0.401994006691014, -0.116269056014774, 0.340180326283274, -1.13007274877882, -1.3194083282989, 1.3212877848062], a = 0.2, v = 0.2, t = 0.2)
movej(p[-0.402782682256427, -0.11601873563369, 0.340245766632712, -1.13458922128376, -1.31916919057788, 1.32201359225366], a = 0.2, v = 0.2, t = 0.2)
movej(p[-0.402613619515846, -0.11602038503013, 0.340244058054787, -1.12815710002517, -1.31888546424553, 1.31879663773006], a = 0.2, v = 0.2, t = 0.2)
movej(p[-0.402792372932625, -0.115991069567274, 0.340198320984188, -1.13171951149804, -1.3189814311316, 1.32047071208757], a = 0.2, v = 0.2, t = 0.2)
movej(p[-0.402793141446487, -0.1159720591882, 0.340243169561355, -1.13528819269126, -1.31428929240134, 1.32266113931228], a = 0.2, v = 0.2, t = 0.2)
movej(p[-0.402793794913063, -0.115961533821181, 0.340262245452699, -1.13676824861383, -1.3123822731668, 1.3236424370739], a = 0.2, v = 0.2, t = 0.2)
movej(p[-0.402925797856291, -0.115957728224006, 0.34020070521863, -1.13578333158812, -1.31606270301321, 1.32295620723719], a = 0.2, v = 0.2, t = 0.2)
movej(p[-0.402924975026871, -0.115947907975538, 0.3401960184637, -1.13621009198253, -1.31547956122283, 1.32234675924847], a = 0.2, v = 0.2, t = 0.2)
movej(p[-0.402302040253972, -0.115953924941726, 0.340588797899046, -1.13940088854728, -1.30990449347517, 1.32256332046564], a = 0.2, v = 0.2, t = 0.2)
movej(p[-0.400266773708423, -0.116519969536821, 0.340896733484735, -1.13199809180463, -1.34499471175737, 1.30920684841226], a = 0.2, v = 0.2, t = 0.2)
movej(p[-0.399222052643911, -0.11670160315833, 0.341052086163835, -1.13985382822761, -1.31021771427764, 1.32406620714927], a = 0.2, v = 0.2, t = 0.2)
movej(p[-0.397820251239242, -0.116943676753, 0.341448932301059, -1.14214775598899, -1.31020710648648, 1.32711207494808], a = 0.2, v = 0.2, t = 0.2)
movej(p[-0.395584869977032, -0.117401915642376, 0.341981901861939, -1.1550891545712, -1.31013006129281, 1.33717957168925], a = 0.2, v = 0.2, t = 0.2)
movej(p[-0.393135085348851, -0.117871293541919, 0.342613692367526, -1.16588335966522, -1.30663153407263, 1.34572259798443], a = 0.2, v = 0.2, t = 0.2)
movej(p[-0.39082915621658, -0.118261416831069, 0.343330426813614, -1.1800682853673, -1.30309537540748, 1.35714361072554], a = 0.2, v = 0.2, t = 0.2)
movej(p[-0.390836567076725, -0.11821090799974, 0.343434168401753, -1.17607124072159, -1.3076687148725, 1.35452685271015], a = 0.2, v = 0.2, t = 0.2)
movej(p[-0.393375733097313, -0.117708135814555, 0.342758491356341, -1.16110227274011, -1.29734713314833, 1.34570931733324], a = 0.2, v = 0.2, t = 0.2)
movej(p[-0.395397979819234, -0.117409302090157, 0.342070458224259, -1.15271140452048, -1.29946723597273, 1.33947716019353], a = 0.2, v = 0.2, t = 0.2)
movej(p[-0.397207085762266, -0.117161335320296, 0.341424977428318, -1.14391384126907, -1.30126103690382, 1.333635020462], a = 0.2, v = 0.2, t = 0.2)
movej(p[-0.398981406532714, -0.11688499478348, 0.340864173495315, -1.12823321439108, -1.31189067509897, 1.32249321112681], a = 0.2, v = 0.2, t = 0.2)
movej(p[-0.400213494264632, -0.116705401414121, 0.340497957094072, -1.13303970605844, -1.31950095015844, 1.32294611619827], a = 0.2, v = 0.2, t = 0.2)
movej(p[-0.401728592539131, -0.116353308017564, 0.340224637320347, -1.13400060580383, -1.32286886867129, 1.32212662308512], a = 0.2, v = 0.2, t = 0.2)
movej(p[-0.401969057357935, -0.11626629888464, 0.340216160191969, -1.13726196809296, -1.31722902106252, 1.32440678920449], a = 0.2, v = 0.2, t = 0.2)
movej(p[-0.402132908061372, -0.116251477236586, 0.34017438525053, -1.13136293101973, -1.3262208417484, 1.32081814969945], a = 0.2, v = 0.2, t = 0.2)
movej(p[-0.40243706275063, -0.116167024443238, 0.340141936356897, -1.12922079732219, -1.32716341350247, 1.31892735319171], a = 0.2, v = 0.2, t = 0.2)
movej(p[-0.402525074674595, -0.11614169955066, 0.34013436991415, -1.13250456938226, -1.32517019908742, 1.32144501349425], a = 0.2, v = 0.2, t = 0.2)
movej(p[-0.402699210153455, -0.116057803799561, 0.340166514399677, -1.1380520084308, -1.31869255424621, 1.32347477148405], a = 0.2, v = 0.2, t = 0.2)
movej(p[-0.402600717289388, -0.116011397969958, 0.340296489107627, -1.13681187910103, -1.32317229208089, 1.32260470247862], a = 0.2, v = 0.2, t = 0.2)
movej(p[-0.402140923038667, -0.11609426167508, 0.340425843015094, -1.13218570232675, -1.32708800487434, 1.31970481506118], a = 0.2, v = 0.2, t = 0.2)
movej(p[-0.400494599035803, -0.116480601377331, 0.34074459063008, -1.14084705354301, -1.31875592523908, 1.32595484085646], a = 0.2, v = 0.2, t = 0.2)
movej(p[-0.399324117104881, -0.11666799792711, 0.341101000622246, -1.1363424222628, -1.31482981711831, 1.3265533177456], a = 0.2, v = 0.2, t = 0.2)
movej(p[-0.397768630370619, -0.116935876570542, 0.341546943591614, -1.14615207933696, -1.31003392054644, 1.33235306266022], a = 0.2, v = 0.2, t = 0.2)
movej(p[-0.39554325292735, -0.117377667394402, 0.34212750101594, -1.15659230429895, -1.30877235654226, 1.34005529242478], a = 0.2, v = 0.2, t = 0.2)
movej(p[-0.393719121621214, -0.117763112621473, 0.342552187400115, -1.16174281333091, -1.31191219806513, 1.3441558484671], a = 0.2, v = 0.2, t = 0.2)
movej(p[-0.391668758694606, -0.118059968499481, 0.343214509305901, -1.18057871257314, -1.29911565649844, 1.35683019600917], a = 0.2, v = 0.2, t = 0.2)
movej(p[-0.391961436553881, -0.118013895197296, 0.343105825859527, -1.17449813124423, -1.30089962211766, 1.35504258993622], a = 0.2, v = 0.2, t = 0.2)
movej(p[-0.394472231065955, -0.117525243664979, 0.342475663588279, -1.15884517626448, -1.29759640764186, 1.345007881631], a = 0.2, v = 0.2, t = 0.2)
movej(p[-0.396185957188621, -0.117306552537502, 0.341888945677136, -1.15807913204936, -1.29478932876202, 1.34326292450267], a = 0.2, v = 0.2, t = 0.2)
movej(p[-0.398176575510987, -0.11701235210436, 0.341280081332804, -1.13893271892237, -1.3004150079548, 1.3317106048559], a = 0.2, v = 0.2, t = 0.2)
movej(p[-0.399624158400184, -0.116856868820686, 0.340773353469545, -1.12833984526131, -1.31401029195928, 1.32411128580034], a = 0.2, v = 0.2, t = 0.2)
movej(p[-0.401028961554357, -0.116501946318644, 0.340575505230814, -1.13280485824735, -1.32234967856409, 1.32499956446048], a = 0.2, v = 0.2, t = 0.2)
movej(p[-0.401846398089871, -0.116290289184657, 0.340445345836073, -1.13421008038637, -1.32414253151145, 1.32668428391979], a = 0.2, v = 0.2, t = 0.2)
movej(p[-0.402145953019199, -0.116202033334196, 0.340407211085849, -1.13680751781876, -1.32190587502678, 1.3290302045838], a = 0.2, v = 0.2, t = 0.2)
movej(p[-0.402252149221047, -0.116251278967639, 0.34028772847498, -1.13966931987588, -1.31825852332222, 1.33164582515649], a = 0.2, v = 0.2, t = 0.2)
movej(p[-0.402414213798893, -0.116194241197901, 0.340273371754223, -1.13286681016218, -1.32420175683703, 1.32691762712382], a = 0.2, v = 0.2, t = 0.2)
movej(p[-0.402622229312407, -0.116148589881902, 0.340225565964981, -1.13057600876945, -1.32740735449566, 1.32592571185534], a = 0.2, v = 0.2, t = 0.2)
movej(p[-0.402909201404519, -0.115936743903262, 0.340328987431238, -1.13552322533107, -1.32140887242261, 1.32851551314606], a = 0.2, v = 0.2, t = 0.2)
movej(p[-0.402355245035934, -0.116153042115367, 0.340337417445674, -1.13878313237508, -1.31900914308043, 1.33204659604584], a = 0.2, v = 0.2, t = 0.2)
movej(p[-0.401052007877497, -0.116439392764109, 0.340639201383012, -1.13847990096947, -1.320172609552, 1.33128715220731], a = 0.2, v = 0.2, t = 0.2)
movej(p[-0.399692593488468, -0.1166720171091, 0.341003657667109, -1.13481390826702, -1.31372706095453, 1.32828064334728], a = 0.2, v = 0.2, t = 0.2)
movej(p[-0.398029331589428, -0.117128150274461, 0.34130139028316, -1.14058771538545, -1.31347899790415, 1.33384617029217], a = 0.2, v = 0.2, t = 0.2)
movej(p[-0.397780631000119, -0.117087046015333, 0.341461456727986, -1.14880940893369, -1.3041257078831, 1.33754793919898], a = 0.2, v = 0.2, t = 0.2)
movej(p[-0.396504011832376, -0.117300039127226, 0.341841910700019, -1.14714071375174, -1.31460191710642, 1.3381960775581], a = 0.2, v = 0.2, t = 0.2)
movej(p[-0.393838039947105, -0.117786370908229, 0.342547776746613, -1.16467216650663, -1.30486576955831, 1.3491797831107], a = 0.2, v = 0.2, t = 0.2)
movej(p[-0.392521184685386, -0.117997115372529, 0.342931411964559, -1.17324431339238, -1.30193682974864, 1.35634093693758], a = 0.2, v = 0.2, t = 0.2)
movej(p[-0.393893300952375, -0.117697207863005, 0.342594340494992, -1.16714720626982, -1.29112450462565, 1.35224334166686], a = 0.2, v = 0.2, t = 0.2)
movej(p[-0.396254387347509, -0.117329374853629, 0.341934997335533, -1.15726489624997, -1.29300397532379, 1.34738492093592], a = 0.2, v = 0.2, t = 0.2)
movej(p[-0.39799029975028, -0.117083975478286, 0.341427956324876, -1.1341288191587, -1.30668395319211, 1.33417568921622], a = 0.2, v = 0.2, t = 0.2)
movej(p[-0.39940336928341, -0.116870830952856, 0.341044475000929, -1.11495923600981, -1.32591656490843, 1.32227919165047], a = 0.2, v = 0.2, t = 0.2)
movej(p[-0.400884887854919, -0.116462269824875, 0.340798580924184, -1.13630117685991, -1.31558969806856, 1.33708200382367], a = 0.2, v = 0.2, t = 0.2)
movej(p[-0.401634414806461, -0.116355132591962, 0.340567867222304, -1.13839614144957, -1.31660345609228, 1.34014027530747], a = 0.2, v = 0.2, t = 0.2)
movej(p[-0.402303437600252, -0.116227702622866, 0.340394758602168, -1.13051739809065, -1.32379499042893, 1.33543577103568], a = 0.2, v = 0.2, t = 0.2)
movej(p[-0.402413452131443, -0.116195598615641, 0.340370913987537, -1.12702888884916, -1.32758519371869, 1.33374267803508], a = 0.2, v = 0.2, t = 0.2)
movej(p[-0.402398067752826, -0.116334091155716, 0.340243471344602, -1.13141464393231, -1.31981372728546, 1.33627390330856], a = 0.2, v = 0.2, t = 0.2)
movej(p[-0.402398074051718, -0.116336114707852, 0.340240681148, -1.13492146032553, -1.31805174177637, 1.3397068642005], a = 0.2, v = 0.2, t = 0.2)
movej(p[-0.402438588730839, -0.116286243257386, 0.340261832961259, -1.13770079227483, -1.31310100415685, 1.34097387801773], a = 0.2, v = 0.2, t = 0.2)
movej(p[-0.402671732858676, -0.116270962677951, 0.340184658292182, -1.12512999325488, -1.32821561699827, 1.33387473118414], a = 0.2, v = 0.2, t = 0.2)
movej(p[-0.402671737486804, -0.11627146973783, 0.340182459913493, -1.12858684467653, -1.32506787988838, 1.33648501242917], a = 0.2, v = 0.2, t = 0.2)
movej(p[-0.402556809740945, -0.116188304029864, 0.340300245855992, -1.13421406560052, -1.31856747305258, 1.33929114534108], a = 0.2, v = 0.2, t = 0.2)
movej(p[-0.401930259761862, -0.116176867971073, 0.340580130064675, -1.12742076012354, -1.32633836258312, 1.3333009632785], a = 0.2, v = 0.2, t = 0.2)
movej(p[-0.400603872764479, -0.116451836954158, 0.340905554912394, -1.11714492849569, -1.33039242793764, 1.32453837888634], a = 0.2, v = 0.2, t = 0.2)
movej(p[-0.399967962259372, -0.116555301286279, 0.341090595614601, -1.1188474866017, -1.33018497227426, 1.32373770479424], a = 0.2, v = 0.2, t = 0.2)
movej(p[-0.398899293514905, -0.116765013017605, 0.341353735205587, -1.12532382393512, -1.32924878326335, 1.32722737738077], a = 0.2, v = 0.2, t = 0.2)
movej(p[-0.39733840304229, -0.117146363254231, 0.341676447305649, -1.12804228196701, -1.33246378710943, 1.32745750449803], a = 0.2, v = 0.2, t = 0.2)
movej(p[-0.393792364545298, -0.117826974329014, 0.342575823313075, -1.14472907797802, -1.32952645583089, 1.33715406480543], a = 0.2, v = 0.2, t = 0.2)
movej(p[-0.39227616510052, -0.117974841648543, 0.343092513374398, -1.15950629074974, -1.32137956427214, 1.34852349995927], a = 0.2, v = 0.2, t = 0.2)
movej(p[-0.39312656179916, -0.118019182800785, 0.342685367580903, -1.17613337228376, -1.28473317655656, 1.35853446904766], a = 0.2, v = 0.2, t = 0.2)
movej(p[-0.395185255687391, -0.11766772185572, 0.342098078479477, -1.1709604483299, -1.27498078942571, 1.3550616709466], a = 0.2, v = 0.2, t = 0.2)
movej(p[-0.39709322494527, -0.117310433787511, 0.341617648914084, -1.14503273967705, -1.29959445807504, 1.34162222877993], a = 0.2, v = 0.2, t = 0.2)
movej(p[-0.398922176588516, -0.117032964709847, 0.341105981465823, -1.1286642684874, -1.31045894758862, 1.33301106702631], a = 0.2, v = 0.2, t = 0.2)
movej(p[-0.399829143906709, -0.116989742817465, 0.34075876261301, -1.12275011940162, -1.31680822992765, 1.32975609329358], a = 0.2, v = 0.2, t = 0.2)
movej(p[-0.40135187169587, -0.116367139589964, 0.340623080922199, -1.14142248641855, -1.30728298851037, 1.34569886125454], a = 0.2, v = 0.2, t = 0.2)
movej(p[-0.401852778327158, -0.116424853349265, 0.340395391575239, -1.12668457407094, -1.32482164453986, 1.33883917338824], a = 0.2, v = 0.2, t = 0.2)
movej(p[-0.402118233536734, -0.116343239411502, 0.340341991042737, -1.13142064245955, -1.31733238548909, 1.3413201841529], a = 0.2, v = 0.2, t = 0.2)
movej(p[-0.40218465353697, -0.1164856132544, 0.340213032125142, -1.13480217087613, -1.31427777588219, 1.3448216111137], a = 0.2, v = 0.2, t = 0.2)
movej(p[-0.40241143894413, -0.11625962686651, 0.340275842487245, -1.14008493280758, -1.3072246617347, 1.34782886869259], a = 0.2, v = 0.2, t = 0.2)
movej(p[-0.402558414378111, -0.116221917830951, 0.340242454009542, -1.13478557544817, -1.31239339599937, 1.3444234421232], a = 0.2, v = 0.2, t = 0.2)
movej(p[-0.402685990650609, -0.116190970900155, 0.340212026354852, -1.13050672415585, -1.31673425530419, 1.34189997690921], a = 0.2, v = 0.2, t = 0.2)
movej(p[-0.402663852079842, -0.116370913093545, 0.340103891666974, -1.13329837536241, -1.31589691078528, 1.34579033274069], a = 0.2, v = 0.2, t = 0.2)
movej(p[-0.402663047166781, -0.116379187780786, 0.340095404519866, -1.13821806235452, -1.30828579473654, 1.34793213625414], a = 0.2, v = 0.2, t = 0.2)
movej(p[-0.402664093855822, -0.116370141684269, 0.340100293546339, -1.13733389906787, -1.30825991573946, 1.34662651074567], a = 0.2, v = 0.2, t = 0.2)
movej(p[-0.402658883938554, -0.116411837164298, 0.340078330993956, -1.13485471179962, -1.31340723071766, 1.34650484408224], a = 0.2, v = 0.2, t = 0.2)
movej(p[-0.402803005815471, -0.11627756893541, 0.340106640485389, -1.13564357736141, -1.31173780233125, 1.34662618109803], a = 0.2, v = 0.2, t = 0.2)
movej(p[-0.402821019558742, -0.116258270500074, 0.34011166596516, -1.13578279050467, -1.31127583257554, 1.34652898049768], a = 0.2, v = 0.2, t = 0.2)
movej(p[-0.402329514662571, -0.116467104231128, 0.340171572140252, -1.13454209514156, -1.31537657145729, 1.34645684935588], a = 0.2, v = 0.2, t = 0.2)
movej(p[-0.400875578612098, -0.11678050299614, 0.34052716735285, -1.13424709811463, -1.31304398505753, 1.33957709635846], a = 0.2, v = 0.2, t = 0.2)
movej(p[-0.39991575693069, -0.116831870557046, 0.3408542694372, -1.13039496349399, -1.30981321469785, 1.33346879032895], a = 0.2, v = 0.2, t = 0.2)
movej(p[-0.398783096799502, -0.117027855059818, 0.341161520314969, -1.13633390216849, -1.30572078537063, 1.33706820055383], a = 0.2, v = 0.2, t = 0.2)
movej(p[-0.397098596747863, -0.117420908049194, 0.341547411664405, -1.14022519117372, -1.30514099260767, 1.33517871817239], a = 0.2, v = 0.2, t = 0.2)
movej(p[-0.395255187797194, -0.117795937744744, 0.342005085760298, -1.1535108884983, -1.3011919479327, 1.34284211451507], a = 0.2, v = 0.2, t = 0.2)
movej(p[-0.394078603789528, -0.117991246721249, 0.342335810383814, -1.1585282060479, -1.30760026040816, 1.3477140371009], a = 0.2, v = 0.2, t = 0.2)
movej(p[-0.394856167458049, -0.117840690496549, 0.342146160457371, -1.14804763987515, -1.30701071518787, 1.34128634660455], a = 0.2, v = 0.2, t = 0.2)
movej(p[-0.396909289229122, -0.11748200991417, 0.341636584728973, -1.14966079489756, -1.29274238217409, 1.3421402323057], a = 0.2, v = 0.2, t = 0.2)
movej(p[-0.399282807106387, -0.117097087038284, 0.340996392932774, -1.13242929074739, -1.29786329868259, 1.3321482009208], a = 0.2, v = 0.2, t = 0.2)
movej(p[-0.399980727603899, -0.117048902708798, 0.34076300171712, -1.12429862114254, -1.31821013051087, 1.32963469242165], a = 0.2, v = 0.2, t = 0.2)
movej(p[-0.40111877277613, -0.116546479379074, 0.340647443057945, -1.13148657103692, -1.31587598162514, 1.33956024295645], a = 0.2, v = 0.2, t = 0.2)
movej(p[-0.40156492439968, -0.116557751535411, 0.340477913805909, -1.14105269397822, -1.30382856464547, 1.34556095509898], a = 0.2, v = 0.2, t = 0.2)
movej(p[-0.401976223245168, -0.116533894046762, 0.34034068829831, -1.14092637656802, -1.30496197184939, 1.34769052133027], a = 0.2, v = 0.2, t = 0.2)
movej(p[-0.402386984104402, -0.116450516615407, 0.340235630740459, -1.133038194719, -1.31113624821548, 1.34171667051653], a = 0.2, v = 0.2, t = 0.2)
movej(p[-0.402480842483164, -0.116337401176332, 0.340253893330059, -1.13989273189923, -1.30289431845072, 1.34634776106963], a = 0.2, v = 0.2, t = 0.2)
movej(p[-0.402688965298854, -0.116181079892246, 0.340248397901841, -1.12819745248551, -1.31781746277381, 1.34133684465667], a = 0.2, v = 0.2, t = 0.2)
movej(p[-0.402646409715599, -0.116150687554251, 0.34027595562535, -1.12786891680519, -1.31787294973977, 1.33911214969687], a = 0.2, v = 0.2, t = 0.2)
movej(p[-0.402608228369229, -0.116127001556619, 0.34029800054099, -1.1315955711909, -1.3140211491227, 1.34046690880531], a = 0.2, v = 0.2, t = 0.2)
movej(p[-0.402656049443262, -0.116143712302157, 0.340269649952604, -1.13491253781097, -1.31226318437466, 1.3455613650865], a = 0.2, v = 0.2, t = 0.2)
movej(p[-0.402873692562323, -0.116121805148241, 0.340220313157683, -1.1314980630784, -1.31403690998818, 1.34212673545321], a = 0.2, v = 0.2, t = 0.2)
movej(p[-0.402872976679934, -0.116128271338081, 0.340216722071307, -1.13274047317122, -1.31344948673732, 1.3436170390774], a = 0.2, v = 0.2, t = 0.2)
movej(p[-0.402873358255937, -0.116124384494714, 0.340219115154756, -1.1320598053273, -1.31376999380559, 1.34270681776308], a = 0.2, v = 0.2, t = 0.2)
movej(p[-0.402873506837949, -0.116122384368276, 0.340220309900593, -1.13169815912829, -1.31394226331085, 1.34222082595079], a = 0.2, v = 0.2, t = 0.2)
movej(p[-0.402991665151865, -0.116113914227871, 0.340183174343856, -1.13139360744479, -1.31402803879308, 1.34220187918663], a = 0.2, v = 0.2, t = 0.2)
movej(p[-0.402971757339602, -0.116113526938452, 0.340187177969441, -1.13120327902408, -1.31417903364284, 1.3420813465217], a = 0.2, v = 0.2, t = 0.2)
movej(p[-0.402874190407621, -0.116119454507148, 0.340216014711858, -1.13138214562288, -1.31418117218031, 1.34207605374233], a = 0.2, v = 0.2, t = 0.2)
movej(p[-0.402821703483163, -0.116142698117437, 0.340225614052547, -1.13247399371651, -1.3131538496293, 1.34269828420613], a = 0.2, v = 0.2, t = 0.2)
movej(p[-0.402218100093896, -0.11639281424218, 0.34034416519176, -1.13926388747663, -1.30625846765378, 1.34488812414033], a = 0.2, v = 0.2, t = 0.2)
movej(p[-0.401011152292452, -0.116832348619115, 0.340573431578486, -1.12252558644407, -1.32404826407493, 1.33116726344797], a = 0.2, v = 0.2, t = 0.2)
movej(p[-0.400182845953954, -0.116971520332796, 0.340806068879267, -1.1267257773573, -1.31248234078105, 1.32884639104435], a = 0.2, v = 0.2, t = 0.2)
movej(p[-0.398936892167563, -0.117078843688013, 0.34117689804425, -1.14080452542884, -1.29986989690639, 1.33581116120756], a = 0.2, v = 0.2, t = 0.2)
movej(p[-0.397459823288236, -0.117433628953528, 0.3415350171042, -1.13854916037318, -1.31286044053292, 1.33309563044152], a = 0.2, v = 0.2, t = 0.2)
movej(p[-0.396015615335672, -0.117725094595841, 0.341911843243291, -1.15052031429757, -1.3083265070314, 1.33914961176644], a = 0.2, v = 0.2, t = 0.2)
movej(p[-0.395980359379051, -0.11777512099207, 0.341906986577452, -1.14448333922593, -1.31126941297318, 1.33676341392232], a = 0.2, v = 0.2, t = 0.2)
movej(p[-0.397834335397172, -0.117346648809893, 0.341468494965978, -1.13489744726545, -1.31033594451981, 1.33305669540168], a = 0.2, v = 0.2, t = 0.2)
movej(p[-0.399482409431022, -0.117040950517499, 0.341068109060908, -1.12775671137721, -1.30599321562638, 1.32641401822063], a = 0.2, v = 0.2, t = 0.2)
movej(p[-0.399992294542975, -0.117036277942936, 0.340900922459604, -1.11918020660952, -1.31717794908389, 1.32230193144191], a = 0.2, v = 0.2, t = 0.2)
movej(p[-0.400281268018315, -0.117120147895096, 0.340768822604668, -1.11814240100305, -1.32379399559971, 1.32601461627438], a = 0.2, v = 0.2, t = 0.2)
movej(p[-0.401306247240882, -0.116682673684276, 0.340591532000926, -1.13234919823809, -1.3137785382297, 1.33494796123684], a = 0.2, v = 0.2, t = 0.2)
movej(p[-0.401894150736979, -0.116547202599586, 0.340451660257927, -1.13358069988612, -1.31296820129245, 1.33806665798807], a = 0.2, v = 0.2, t = 0.2)
movej(p[-0.402508973325896, -0.116448730221599, 0.340284420684468, -1.14273165885155, -1.29818199356068, 1.34190964571454], a = 0.2, v = 0.2, t = 0.2)
movej(p[-0.402374108337747, -0.116499433632618, 0.340307799501431, -1.13876911195425, -1.30325500281283, 1.33943478635956], a = 0.2, v = 0.2, t = 0.2)
movej(p[-0.402581058106272, -0.116345074343159, 0.340279059406352, -1.13435809756704, -1.30805044810909, 1.33758020737156], a = 0.2, v = 0.2, t = 0.2)
movej(p[-0.402589257153048, -0.116293717291912, 0.340285262544203, -1.13212657258292, -1.31117754518411, 1.33744588216263], a = 0.2, v = 0.2, t = 0.2)
movej(p[-0.402697180889856, -0.11639179843312, 0.340225851713768, -1.13055458255044, -1.31381757510933, 1.33768677953223], a = 0.2, v = 0.2, t = 0.2)
movej(p[-0.402851867255491, -0.116314992004309, 0.340196116368136, -1.12990699966286, -1.3156045454958, 1.33907711119037], a = 0.2, v = 0.2, t = 0.2)
movej(p[-0.402873251528924, -0.116164487173434, 0.340227741496325, -1.1375792476405, -1.30334947936107, 1.34017769066898], a = 0.2, v = 0.2, t = 0.2)
movej(p[-0.402861736163432, -0.116249221728439, 0.340208901338531, -1.13670742661148, -1.30393233950449, 1.3378065953832], a = 0.2, v = 0.2, t = 0.2)
movej(p[-0.402860252534785, -0.116268008177891, 0.340201850227765, -1.1406111358508, -1.30136920534121, 1.34390989468926], a = 0.2, v = 0.2, t = 0.2)
movej(p[-0.402836085659003, -0.116161278130624, 0.340219717771677, -1.13687226867003, -1.3058720691551, 1.34234037009793], a = 0.2, v = 0.2, t = 0.2)
movej(p[-0.402598485554011, -0.116260812774528, 0.340272092906723, -1.13429407565196, -1.30994577820191, 1.33969979498806], a = 0.2, v = 0.2, t = 0.2)
movej(p[-0.40171498453579, -0.116643679029687, 0.340469041304691, -1.13331867608705, -1.31221184570074, 1.33472820585369], a = 0.2, v = 0.2, t = 0.2)
movej(p[-0.400456414700292, -0.116938261717584, 0.34081146012597, -1.13487252596471, -1.3062464711953, 1.32905502076293], a = 0.2, v = 0.2, t = 0.2)
movej(p[-0.39909108611438, -0.117193160208479, 0.341185140004784, -1.14019247252086, -1.30636423986026, 1.33130514310547], a = 0.2, v = 0.2, t = 0.2)
movej(p[-0.397338915703431, -0.117558690260364, 0.341652760237626, -1.14624548174693, -1.30755917397042, 1.33084989041743], a = 0.2, v = 0.2, t = 0.2)
movej(p[-0.396132991494672, -0.117721814323009, 0.341982577160958, -1.15762348874045, -1.30134461883997, 1.33737121609773], a = 0.2, v = 0.2, t = 0.2)
movej(p[-0.395835009357701, -0.11776904318309, 0.342068066872745, -1.16462211036329, -1.29335836987249, 1.34059898503627], a = 0.2, v = 0.2, t = 0.2)
movej(p[-0.39596531682159, -0.117704938441518, 0.342045954275365, -1.15381990573664, -1.30532104556731, 1.33623833534688], a = 0.2, v = 0.2, t = 0.2)
movej(p[-0.398268992320335, -0.117400524886967, 0.341468408559176, -1.14237057879065, -1.2992881636613, 1.33096318869202], a = 0.2, v = 0.2, t = 0.2)
movej(p[-0.399815930633773, -0.117054148689517, 0.341093171095354, -1.12541063465803, -1.31153687864354, 1.31910223613614], a = 0.2, v = 0.2, t = 0.2)
movej(p[-0.401024889691679, -0.11682402756667, 0.340827925633326, -1.12168721171578, -1.31221312963561, 1.31791892786818], a = 0.2, v = 0.2, t = 0.2)
movej(p[-0.401794214741728, -0.116565534949529, 0.340653992588015, -1.13329579458998, -1.31292109710083, 1.33337374056046], a = 0.2, v = 0.2, t = 0.2)
movej(p[-0.402101102258601, -0.116495146498305, 0.340578190886701, -1.1329039494066, -1.31280547179615, 1.33364482872746], a = 0.2, v = 0.2, t = 0.2)
movej(p[-0.402457045543437, -0.116311769218467, 0.340500471833574, -1.1330341482513, -1.31251001556359, 1.3343932763614], a = 0.2, v = 0.2, t = 0.2)
movej(p[-0.402567208012318, -0.116412194371979, 0.340450858639845, -1.12961129979004, -1.31608209430278, 1.33258187715688], a = 0.2, v = 0.2, t = 0.2)
movej(p[-0.402813084620615, -0.116321757441899, 0.340390018807745, -1.14080418428874, -1.30029081361737, 1.3357654389288], a = 0.2, v = 0.2, t = 0.2)
movej(p[-0.403059065750139, -0.116354033794945, 0.340316462088457, -1.14380946382468, -1.29674323023064, 1.34004885865752], a = 0.2, v = 0.2, t = 0.2)
movej(p[-0.402832947081304, -0.116415632992981, 0.340364123565624, -1.14044971716037, -1.30150215706592, 1.33796424690461], a = 0.2, v = 0.2, t = 0.2)
movej(p[-0.40298695237782, -0.116239986361554, 0.340336311886182, -1.1350972705333, -1.30731170690134, 1.33466161332764], a = 0.2, v = 0.2, t = 0.2)
movej(p[-0.403133445464372, -0.116172999085145, 0.340303242710325, -1.13310272336775, -1.30933697496634, 1.33395265981305], a = 0.2, v = 0.2, t = 0.2)
movej(p[-0.40311558965646, -0.116290654394239, 0.340301575867297, -1.13645081612814, -1.30559635582932, 1.33602598409029], a = 0.2, v = 0.2, t = 0.2)
movej(p[-0.402680280797717, -0.116347194265561, 0.34041102672591, -1.13829921338124, -1.30473780711487, 1.33663950659178], a = 0.2, v = 0.2, t = 0.2)
movej(p[-0.401559280058596, -0.116656274411304, 0.340681996422365, -1.13817195773606, -1.30441802225891, 1.33436899289852], a = 0.2, v = 0.2, t = 0.2)
movej(p[-0.40028289104942, -0.117026895946665, 0.340988394961498, -1.13527361245548, -1.30305308346172, 1.32795545246003], a = 0.2, v = 0.2, t = 0.2)
movej(p[-0.398380142135749, -0.117340395085766, 0.341434140125585, -1.13985872009774, -1.31231432851648, 1.32609764899667], a = 0.2, v = 0.2, t = 0.2)
movej(p[-0.396570321003006, -0.117718227923418, 0.341865889120101, -1.15965755949775, -1.29777146799998, 1.33630557345455], a = 0.2, v = 0.2, t = 0.2)
movej(p[-0.395437831074937, -0.117877564243848, 0.342145823487079, -1.16106380535176, -1.29955549680709, 1.33675169981444], a = 0.2, v = 0.2, t = 0.2)
movej(p[-0.395055798721402, -0.117987587752289, 0.342235025776525, -1.16168508970329, -1.2996860680993, 1.33647934742398], a = 0.2, v = 0.2, t = 0.2)
movej(p[-0.394619106938019, -0.118006123760231, 0.342351920013919, -1.15821645568448, -1.30350584780545, 1.3334113540188], a = 0.2, v = 0.2, t = 0.2)
movej(p[-0.393082173704284, -0.11818709662555, 0.342747693935569, -1.16374179121907, -1.30366014214955, 1.34173746598858], a = 0.2, v = 0.2, t = 0.2)
movej(p[-0.394349575046015, -0.118060848083958, 0.342439748867864, -1.15893245140184, -1.29928775031751, 1.33963769960325], a = 0.2, v = 0.2, t = 0.2)
movej(p[-0.3958661479989, -0.117772982804542, 0.342086090035817, -1.15855666475947, -1.29164622922603, 1.3421438161603], a = 0.2, v = 0.2, t = 0.2)
movej(p[-0.397284353000754, -0.117416947508378, 0.34176432673679, -1.14097755278208, -1.30300971898703, 1.32548307114843], a = 0.2, v = 0.2, t = 0.2)
movej(p[-0.397630652340177, -0.117414281217914, 0.341678177224833, -1.1315883535249, -1.31207947089208, 1.31830451144943], a = 0.2, v = 0.2, t = 0.2)
movej(p[-0.399020908949894, -0.117062348907117, 0.341346352470247, -1.13080286436629, -1.30818207063629, 1.31847334083855], a = 0.2, v = 0.2, t = 0.2)
movej(p[-0.399806703468734, -0.116949787159204, 0.341150099299402, -1.1273505891969, -1.3104152087749, 1.31772144666628], a = 0.2, v = 0.2, t = 0.2)
movej(p[-0.400989129051621, -0.116792406293933, 0.340854313542169, -1.12390140830825, -1.31294330555925, 1.31877374844497], a = 0.2, v = 0.2, t = 0.2)
movej(p[-0.401446762369033, -0.116548439802606, 0.340711873281344, -1.13930098740794, -1.30730728924188, 1.33213893072074], a = 0.2, v = 0.2, t = 0.2)
movej(p[-0.401497423524311, -0.116563236474877, 0.340693917896758, -1.13512991315955, -1.31182493061148, 1.32944767324782], a = 0.2, v = 0.2, t = 0.2)
movej(p[-0.401525656659408, -0.116382118710505, 0.340687587374557, -1.13748755751485, -1.30983438066465, 1.33402496216176], a = 0.2, v = 0.2, t = 0.2)
movej(p[-0.401518129647254, -0.11643377356678, 0.340686812835202, -1.13508333071882, -1.31236702538414, 1.33186312581701], a = 0.2, v = 0.2, t = 0.2)
movej(p[-0.401510410983777, -0.116486714174864, 0.340686138854578, -1.13297156099042, -1.31451731121899, 1.32976070726408], a = 0.2, v = 0.2, t = 0.2)
movej(p[-0.401492413053738, -0.116604244104416, 0.340691770921145, -1.14515884417461, -1.29821226549012, 1.33072918247784], a = 0.2, v = 0.2, t = 0.2)
movej(p[-0.401930363960051, -0.116552741564883, 0.340578338244721, -1.14336302139499, -1.29926542796359, 1.33134818389142], a = 0.2, v = 0.2, t = 0.2)
movej(p[-0.400957321105805, -0.116745216887526, 0.340831121420534, -1.13979681330252, -1.30301830159678, 1.32701887709307], a = 0.2, v = 0.2, t = 0.2)
movej(p[-0.398486463556765, -0.117213539270107, 0.34145136125989, -1.14748929766258, -1.30233260144634, 1.3338697903095], a = 0.2, v = 0.2, t = 0.2)
movej(p[-0.396145782053359, -0.11775367476157, 0.342037437748479, -1.15771718238962, -1.30242915631514, 1.33594890957806], a = 0.2, v = 0.2, t = 0.2)
movej(p[-0.39363651666576, -0.118061750281, 0.342659236686179, -1.17236219259575, -1.2943205669627, 1.33898093409843], a = 0.2, v = 0.2, t = 0.2)
movej(p[-0.391557589375245, -0.118347117015182, 0.343183507816202, -1.17535596265848, -1.29756398413027, 1.33920183102926], a = 0.2, v = 0.2, t = 0.2)
movej(p[-0.39056180098869, -0.118485324338992, 0.343445896982988, -1.16430853954037, -1.31168008139449, 1.32998258818391], a = 0.2, v = 0.2, t = 0.2)
movej(p[-0.391195919248822, -0.118456262263219, 0.343306338938005, -1.17326424194617, -1.30319987543036, 1.34534761784573], a = 0.2, v = 0.2, t = 0.2)
movej(p[-0.39365688833387, -0.118078353918279, 0.342700268434466, -1.16352739632649, -1.29696260432455, 1.3388250060558], a = 0.2, v = 0.2, t = 0.2)
movej(p[-0.395978734917545, -0.11765907101024, 0.342101401759066, -1.15641244854482, -1.29632861568168, 1.34182205163707], a = 0.2, v = 0.2, t = 0.2)
movej(p[-0.397058901525717, -0.117445586688229, 0.341831939455867, -1.14137937065838, -1.30974538402724, 1.33274677070701], a = 0.2, v = 0.2, t = 0.2)
movej(p[-0.398716913361737, -0.117160757856277, 0.341407703273882, -1.13355377649376, -1.30979742788696, 1.32262713153247], a = 0.2, v = 0.2, t = 0.2)
movej(p[-0.39989963049602, -0.116868205915344, 0.341091057379972, -1.12560827592904, -1.3149281133098, 1.32053717312784], a = 0.2, v = 0.2, t = 0.2)
movej(p[-0.400901886417221, -0.116716189225402, 0.340828717229791, -1.12532211450352, -1.3088523435878, 1.31947000840186], a = 0.2, v = 0.2, t = 0.2)
movej(p[-0.401608622832999, -0.116474448573452, 0.340583342708276, -1.13938387188695, -1.30461704486284, 1.32683032914423], a = 0.2, v = 0.2, t = 0.2)
movej(p[-0.401818711172894, -0.116309151598509, 0.340506020657638, -1.13786418720575, -1.30599280812806, 1.33069721548887], a = 0.2, v = 0.2, t = 0.2)
movej(p[-0.401772694981761, -0.116604576851462, 0.340558998483859, -1.1394280015169, -1.30406152773359, 1.32547580997567], a = 0.2, v = 0.2, t = 0.2)
movej(p[-0.402068125882963, -0.116407811673421, 0.340457972015419, -1.14162478213903, -1.30046241911804, 1.3309865122074], a = 0.2, v = 0.2, t = 0.2)
movej(p[-0.401745169169176, -0.116562651785807, 0.340558499974793, -1.14421646237316, -1.29846842863985, 1.32986814892641], a = 0.2, v = 0.2, t = 0.2)
movej(p[-0.401725248593942, -0.116637552347363, 0.340568828893468, -1.13689617896492, -1.30734654283291, 1.32575087379677], a = 0.2, v = 0.2, t = 0.2)
movej(p[-0.401448155762536, -0.116627817156607, 0.340628414284666, -1.13818662688546, -1.30697878759882, 1.32789977502595], a = 0.2, v = 0.2, t = 0.2)
movej(p[-0.401328418524633, -0.116650916239447, 0.340658372025423, -1.14016704090762, -1.3047952364076, 1.32497256675678], a = 0.2, v = 0.2, t = 0.2)
movej(p[-0.401534578664953, -0.116482215200314, 0.34058039301582, -1.14258047190012, -1.30099703976943, 1.33101291920912], a = 0.2, v = 0.2, t = 0.2)
movej(p[-0.40197357094941, -0.116602050017647, 0.340503379505694, -1.14318052585905, -1.29856456237296, 1.3258263988922], a = 0.2, v = 0.2, t = 0.2)
movej(p[-0.402174490727113, -0.116436021428963, 0.340419628442015, -1.14001435585104, -1.30141230463133, 1.32742984486819], a = 0.2, v = 0.2, t = 0.2)
movej(p[-0.402308791562949, -0.116317843227897, 0.340360029127537, -1.1364559946706, -1.30503381138356, 1.32851499235023], a = 0.2, v = 0.2, t = 0.2)
movej(p[-0.402324134183031, -0.116503906448869, 0.340394430025931, -1.13701075799286, -1.30462308422735, 1.32592278866042], a = 0.2, v = 0.2, t = 0.2)
movej(p[-0.401107163393462, -0.116780220096535, 0.34073139893466, -1.14298178827309, -1.30208599473744, 1.32969700933281], a = 0.2, v = 0.2, t = 0.2)
movej(p[-0.399717567504006, -0.117032370732477, 0.341119022890062, -1.14594011940913, -1.30026649719921, 1.32940660533471], a = 0.2, v = 0.2, t = 0.2)
movej(p[-0.397534181193031, -0.11751839286462, 0.341724413279903, -1.15263854542483, -1.30274448826176, 1.331110690776], a = 0.2, v = 0.2, t = 0.2)
movej(p[-0.394855505155882, -0.117912219482367, 0.342414506587478, -1.16507399972546, -1.30262632104142, 1.33895982614745], a = 0.2, v = 0.2, t = 0.2)
movej(p[-0.391622195154834, -0.118467499943686, 0.343256989404157, -1.18058523946802, -1.30104614807298, 1.34289160505499], a = 0.2, v = 0.2, t = 0.2)
movej(p[-0.389109002720486, -0.118704450518071, 0.343894862560226, -1.17633577822599, -1.31020215024712, 1.33603168409571], a = 0.2, v = 0.2, t = 0.2)
movej(p[-0.387281996045879, -0.118975665174233, 0.344343923704422, -1.19117430330982, -1.30632902739735, 1.36139841000142], a = 0.2, v = 0.2, t = 0.2)
movej(p[-0.387160031295931, -0.118963273087082, 0.344363598204314, -1.18623331628003, -1.31111274553313, 1.3650416558133], a = 0.2, v = 0.2, t = 0.2)
movej(p[-0.388730351874425, -0.118905704297431, 0.344025320189634, -1.18872956218425, -1.30094599589787, 1.36048806552049], a = 0.2, v = 0.2, t = 0.2)
movej(p[-0.390996884731888, -0.118508745811912, 0.343436849275471, -1.1786654577875, -1.29656237094477, 1.35333288033364], a = 0.2, v = 0.2, t = 0.2)
movej(p[-0.393499594917251, -0.118173438587264, 0.342807163414761, -1.16550807029748, -1.29885559925418, 1.34758810763708], a = 0.2, v = 0.2, t = 0.2)
movej(p[-0.395850547260434, -0.117794902292768, 0.342197736992762, -1.15470028923021, -1.30084923003081, 1.34096932087721], a = 0.2, v = 0.2, t = 0.2)
movej(p[-0.397101069589573, -0.117521678842187, 0.341857257403981, -1.14420226332185, -1.30537761124681, 1.33367221241354], a = 0.2, v = 0.2, t = 0.2)
movej(p[-0.39844004693905, -0.117224420689927, 0.341483117712819, -1.13413285567284, -1.31273365724098, 1.32651648451929], a = 0.2, v = 0.2, t = 0.2)
movej(p[-0.399637285242457, -0.116909439874047, 0.341154747006932, -1.13067414759102, -1.30947361909207, 1.3215087857434], a = 0.2, v = 0.2, t = 0.2)
movej(p[-0.401182004443464, -0.116654136188491, 0.340706796386684, -1.14709975508852, -1.29735071362693, 1.32955834909896], a = 0.2, v = 0.2, t = 0.2)
movej(p[-0.401507995503532, -0.116717517574449, 0.340638417306037, -1.14810035531376, -1.29571702391593, 1.33234033245193], a = 0.2, v = 0.2, t = 0.2)
movej(p[-0.401506865657675, -0.116726750155294, 0.340640730939389, -1.14865192014271, -1.29488140643456, 1.33370789542076], a = 0.2, v = 0.2, t = 0.2)
movej(p[-0.401958465376943, -0.11654335210526, 0.340490013625182, -1.14053296258178, -1.30274049071937, 1.32593958228843], a = 0.2, v = 0.2, t = 0.2)
movej(p[-0.402066075267556, -0.116535052941128, 0.34046151528634, -1.14114070806356, -1.30155894872963, 1.32932726680014], a = 0.2, v = 0.2, t = 0.2)
movej(p[-0.402273368745766, -0.116598436475206, 0.340431906478539, -1.14309418859891, -1.29865804870771, 1.3340131167723], a = 0.2, v = 0.2, t = 0.2)
movej(p[-0.40103166660016, -0.116796242600788, 0.340771971999106, -1.14567432023589, -1.29971840335072, 1.32668500154986], a = 0.2, v = 0.2, t = 0.2)
movej(p[-0.399370297409695, -0.117182725932551, 0.341258799481121, -1.14086914874594, -1.30821021727558, 1.32471214200868], a = 0.2, v = 0.2, t = 0.2)
movej(p[-0.397568699389125, -0.117458150683196, 0.341732288793576, -1.15228752855187, -1.30602564780566, 1.32608039790714], a = 0.2, v = 0.2, t = 0.2)
movej(p[-0.395549269267039, -0.117963213557228, 0.342315610013219, -1.16060746536094, -1.30537954566557, 1.32836679952254], a = 0.2, v = 0.2, t = 0.2)
movej(p[-0.393870385930406, -0.118205570626034, 0.342747782806411, -1.17172233930407, -1.30132178364697, 1.33698192987237], a = 0.2, v = 0.2, t = 0.2)
movej(p[-0.390987317582193, -0.118533202138703, 0.343471373147308, -1.18543024457052, -1.29874096281517, 1.34331758853463], a = 0.2, v = 0.2, t = 0.2)
movej(p[-0.388485897465202, -0.11895004196893, 0.344127377441692, -1.1901255679454, -1.30468368040775, 1.35155851909923], a = 0.2, v = 0.2, t = 0.2)
movej(p[-0.387924642534756, -0.118935600537192, 0.344248330110532, -1.18802040221259, -1.30579122851376, 1.36013557012748], a = 0.2, v = 0.2, t = 0.2)
movej(p[-0.389708761094912, -0.118831922662395, 0.343841032784753, -1.18635069890563, -1.29753068683044, 1.35716800605109], a = 0.2, v = 0.2, t = 0.2)
movej(p[-0.392503645621879, -0.118426197841642, 0.343134229310836, -1.16995792425022, -1.29988728499078, 1.34878556870168], a = 0.2, v = 0.2, t = 0.2)
movej(p[-0.393514998059526, -0.118312089809785, 0.342886629141345, -1.15962285172434, -1.30611266920161, 1.34102933981433], a = 0.2, v = 0.2, t = 0.2)
movej(p[-0.395505296318176, -0.117775983807846, 0.342303214420669, -1.15423131527662, -1.30205920264065, 1.33809689709581], a = 0.2, v = 0.2, t = 0.2)
movej(p[-0.397419112850914, -0.117408656971702, 0.3417796061277, -1.14812394308584, -1.30439501528963, 1.32897348830243], a = 0.2, v = 0.2, t = 0.2)
movej(p[-0.399282408779276, -0.117023427712576, 0.341260132055908, -1.12631655797832, -1.3198615195069, 1.31638341896539], a = 0.2, v = 0.2, t = 0.2)
movej(p[-0.400679166054335, -0.116785877995723, 0.340850126462541, -1.15041355374445, -1.29558547314596, 1.33086000820438], a = 0.2, v = 0.2, t = 0.2)
movej(p[-0.401200727204838, -0.116619496135802, 0.340675638001677, -1.14693832972924, -1.29733429915191, 1.33215369194278], a = 0.2, v = 0.2, t = 0.2)
movej(p[-0.40151152642496, -0.116497144960012, 0.340561658115055, -1.14149852909747, -1.30232782831498, 1.33164020747864], a = 0.2, v = 0.2, t = 0.2)
movej(p[-0.401963080500657, -0.116383157562905, 0.340439345891536, -1.13956831210307, -1.29945479195842, 1.33124330422456], a = 0.2, v = 0.2, t = 0.2)
movej(p[-0.402074031573403, -0.116558543239092, 0.340479436589273, -1.14102522293475, -1.29647241007287, 1.33440907203996], a = 0.2, v = 0.2, t = 0.2)
movej(p[-0.402585796527678, -0.116507840562632, 0.340348880929975, -1.14234770446141, -1.29252578152056, 1.33945915371587], a = 0.2, v = 0.2, t = 0.2)
movej(p[-0.401858355077182, -0.116753018334294, 0.340599253225532, -1.14530319194327, -1.29307204959474, 1.33260991309227], a = 0.2, v = 0.2, t = 0.2)
movej(p[-0.400656700991655, -0.117013579808312, 0.340942774050218, -1.1414866535621, -1.3023572835079, 1.32970336409791], a = 0.2, v = 0.2, t = 0.2)
movej(p[-0.399009346910549, -0.117326427163871, 0.34140676516391, -1.1450928547675, -1.3065973858047, 1.32464820430975], a = 0.2, v = 0.2, t = 0.2)
movej(p[-0.397346308984187, -0.117629005969109, 0.341850837345095, -1.1534134852775, -1.30769318075957, 1.32358633452939], a = 0.2, v = 0.2, t = 0.2)
movej(p[-0.39586940398529, -0.117929820463948, 0.342263794248328, -1.16290854716713, -1.30633906185928, 1.32805402324904], a = 0.2, v = 0.2, t = 0.2)
movej(p[-0.39356238605269, -0.118216247296472, 0.342869740069563, -1.17197466212844, -1.30645375004863, 1.32864550068579], a = 0.2, v = 0.2, t = 0.2)
movej(p[-0.390686775455012, -0.118678250182803, 0.343641074162897, -1.18700370765189, -1.30127525490766, 1.34009400758535], a = 0.2, v = 0.2, t = 0.2)
movej(p[-0.388909795411858, -0.118845519407412, 0.344072192525684, -1.18773449386375, -1.30529126071083, 1.34770430394919], a = 0.2, v = 0.2, t = 0.2)
movej(p[-0.389806504748534, -0.118753136495737, 0.343847816450426, -1.1802463636889, -1.30797452542246, 1.34848937741788], a = 0.2, v = 0.2, t = 0.2)
movej(p[-0.392526341112612, -0.118448491254273, 0.343188782756682, -1.17279947523433, -1.30172051460084, 1.34670876430295], a = 0.2, v = 0.2, t = 0.2)
movej(p[-0.394335471482779, -0.118140317412369, 0.342703666289316, -1.16250367819894, -1.30372614081599, 1.33943269072763], a = 0.2, v = 0.2, t = 0.2)
movej(p[-0.396140920039686, -0.11772045912184, 0.342167563272879, -1.14692567296582, -1.31066770960919, 1.3325455563897], a = 0.2, v = 0.2, t = 0.2)
movej(p[-0.397456009758284, -0.117437196460528, 0.341782058841328, -1.13311642837673, -1.31976871817791, 1.32325030284434], a = 0.2, v = 0.2, t = 0.2)
movej(p[-0.399220880082064, -0.117107295985031, 0.341280261196348, -1.13619164162166, -1.31002383911207, 1.32403977938205], a = 0.2, v = 0.2, t = 0.2)
movej(p[-0.400618698588219, -0.1166205284958, 0.340760027359233, -1.14041890522374, -1.30187069459272, 1.32895305011382], a = 0.2, v = 0.2, t = 0.2)
movej(p[-0.400938642883421, -0.116687153900637, 0.340722974513218, -1.14024781409154, -1.30107197171762, 1.33003121630781], a = 0.2, v = 0.2, t = 0.2)
movej(p[-0.401296358476195, -0.116543482160302, 0.340580499232148, -1.14100212271922, -1.29775842029868, 1.33378352319911], a = 0.2, v = 0.2, t = 0.2)
movej(p[-0.401773696541001, -0.116662342785273, 0.340532340393718, -1.1421541801046, -1.29446370070035, 1.33849836356277], a = 0.2, v = 0.2, t = 0.2)
movej(p[-0.402095548677502, -0.116503614622045, 0.340405135234909, -1.14280123687026, -1.29336263884322, 1.33147624435785], a = 0.2, v = 0.2, t = 0.2)
movej(p[-0.40229235579613, -0.116769559643314, 0.340487664646149, -1.14332596501767, -1.29300609032163, 1.33287308735128], a = 0.2, v = 0.2, t = 0.2)
movej(p[-0.40236264333889, -0.116532197692097, 0.340352910145492, -1.1351118794213, -1.30067245283149, 1.33173329531239], a = 0.2, v = 0.2, t = 0.2)
movej(p[-0.401816612687163, -0.116755822980806, 0.340564586284026, -1.13692733650093, -1.30105320343183, 1.33401680063806], a = 0.2, v = 0.2, t = 0.2)
movej(p[-0.400803823737493, -0.116935290130128, 0.34085643012196, -1.13870899508403, -1.30322508787827, 1.33239092277177], a = 0.2, v = 0.2, t = 0.2)
movej(p[-0.399280817715332, -0.117254803819831, 0.341322511744162, -1.1407832889107, -1.30921365225429, 1.32356069988956], a = 0.2, v = 0.2, t = 0.2)
movej(p[-0.398020138168481, -0.117492071266834, 0.341678344076511, -1.1477082561891, -1.30811785275127, 1.326484426828], a = 0.2, v = 0.2, t = 0.2)
movej(p[-0.396259856913003, -0.117832747995423, 0.342183064532022, -1.15832157071855, -1.30514478937683, 1.32946103795874], a = 0.2, v = 0.2, t = 0.2)
movej(p[-0.394116147698132, -0.118102064577347, 0.342718085308046, -1.16901911607784, -1.30586309765897, 1.33310203952124], a = 0.2, v = 0.2, t = 0.2)
movej(p[-0.39217218434274, -0.118434248827452, 0.343261253962219, -1.18005758688259, -1.29839361904031, 1.34377991835097], a = 0.2, v = 0.2, t = 0.2)
movej(p[-0.391695313176016, -0.118428625665419, 0.343356292956297, -1.17833097586686, -1.30258597361349, 1.3450348251995], a = 0.2, v = 0.2, t = 0.2)
movej(p[-0.393709288021951, -0.118187913980018, 0.342862217795566, -1.16458971256083, -1.30505297655323, 1.34205227825524], a = 0.2, v = 0.2, t = 0.2)
movej(p[-0.395852927574677, -0.11777147401994, 0.342252323347618, -1.15201801013869, -1.30803880195223, 1.33397787155042], a = 0.2, v = 0.2, t = 0.2)
movej(p[-0.397423113154227, -0.117353473452139, 0.341740812613525, -1.14432670576063, -1.30678051468726, 1.3319854523929], a = 0.2, v = 0.2, t = 0.2)
movej(p[-0.399162682416719, -0.117044924709304, 0.341262463845065, -1.13908619187501, -1.30530330041527, 1.32350224396486], a = 0.2, v = 0.2, t = 0.2)
movej(p[-0.400305475924865, -0.116537940748707, 0.340728282797631, -1.14117048052301, -1.29956058438702, 1.33390009629678], a = 0.2, v = 0.2, t = 0.2)
movej(p[-0.401396057663286, -0.116707633844508, 0.340593816388966, -1.13909298120575, -1.29866348366023, 1.33478952348161], a = 0.2, v = 0.2, t = 0.2)
movej(p[-0.401834812714005, -0.116610682945815, 0.340451539128972, -1.13871588777431, -1.29724679691461, 1.33419038187257], a = 0.2, v = 0.2, t = 0.2)
movej(p[-0.401833110964434, -0.116617503111111, 0.340462724807035, -1.1396609419123, -1.29722318115658, 1.33012938245175], a = 0.2, v = 0.2, t = 0.2)
movej(p[-0.401955904341873, -0.116660424907697, 0.34046746567563, -1.14071596319029, -1.29614822672386, 1.32957871407651], a = 0.2, v = 0.2, t = 0.2)
movej(p[-0.402212732848574, -0.116604345602862, 0.340384087442769, -1.13746853622205, -1.29804981694056, 1.33118869395714], a = 0.2, v = 0.2, t = 0.2)
movej(p[-0.402551066048978, -0.116442081546573, 0.340223418243665, -1.13225948910151, -1.30128995686925, 1.33158343832092], a = 0.2, v = 0.2, t = 0.2)
movej(p[-0.402822248981945, -0.116435486667366, 0.340169638187553, -1.1328425414597, -1.30014705899727, 1.33015099335654], a = 0.2, v = 0.2, t = 0.2)
movej(p[-0.40263174626198, -0.116572702480253, 0.34028911485632, -1.13494801224336, -1.30041972736868, 1.32614663731253], a = 0.2, v = 0.2, t = 0.2)
movej(p[-0.402275369784497, -0.116682013729425, 0.340415934677725, -1.13686201693127, -1.29950431994125, 1.32858982287074], a = 0.2, v = 0.2, t = 0.2)
movej(p[-0.401576329282366, -0.116875866491387, 0.340656106997235, -1.13976099948076, -1.29908123173095, 1.33129134461188], a = 0.2, v = 0.2, t = 0.2)
movej(p[-0.400230537270195, -0.117124414900549, 0.341052349206347, -1.14452682918686, -1.29897139873074, 1.33475480970044], a = 0.2, v = 0.2, t = 0.2)
movej(p[-0.399063848415451, -0.117518190241472, 0.341499104852195, -1.14288352972179, -1.31088228152709, 1.32245553875169], a = 0.2, v = 0.2, t = 0.2)
movej(p[-0.397104266720347, -0.117693693919765, 0.341980310244015, -1.15665293610532, -1.30676187873582, 1.32322449530026], a = 0.2, v = 0.2, t = 0.2)
movej(p[-0.395166168298418, -0.117967829353455, 0.342495141158893, -1.16847143331488, -1.3020585923821, 1.33097020240074], a = 0.2, v = 0.2, t = 0.2)
movej(p[-0.392631424437013, -0.118447058163181, 0.343245087740323, -1.18022607356736, -1.29994114363209, 1.33618871115216], a = 0.2, v = 0.2, t = 0.2)
movej(p[-0.391967141671528, -0.118477366950389, 0.343385997941858, -1.18492864660395, -1.29414690420922, 1.34540963373511], a = 0.2, v = 0.2, t = 0.2)
movej(p[-0.393664837383082, -0.118246255480602, 0.342944540696473, -1.1746752409784, -1.29568288320918, 1.3442203583014], a = 0.2, v = 0.2, t = 0.2)
movej(p[-0.395432263478915, -0.117935733396756, 0.342433435207154, -1.15749640011827, -1.30610051530963, 1.33734371970293], a = 0.2, v = 0.2, t = 0.2)
movej(p[-0.396924907579864, -0.117503155457458, 0.341924330577109, -1.14310002344019, -1.31342541492044, 1.32675175709156], a = 0.2, v = 0.2, t = 0.2)
movej(p[-0.398369155696444, -0.117203232435395, 0.341493424486884, -1.13651669790106, -1.31290091576325, 1.32339888260478], a = 0.2, v = 0.2, t = 0.2)
movej(p[-0.399476384602225, -0.116973931725354, 0.341154176841973, -1.127189450379, -1.31720237846507, 1.32020009079489], a = 0.2, v = 0.2, t = 0.2)
movej(p[-0.400248015729043, -0.116728763180006, 0.340875633418971, -1.1320822701829, -1.3078804063902, 1.32336508269728], a = 0.2, v = 0.2, t = 0.2)
movej(p[-0.401056894994817, -0.116611314288551, 0.340630830270917, -1.14325648289601, -1.29636137422381, 1.33072621200664], a = 0.2, v = 0.2, t = 0.2)
movej(p[-0.401599438778226, -0.116577642905727, 0.340505950764741, -1.1423872577823, -1.29476957712051, 1.33240778781758], a = 0.2, v = 0.2, t = 0.2)
movej(p[-0.4018532873282, -0.116578013420423, 0.340450301897772, -1.13406972176375, -1.30314987386979, 1.32931448317157], a = 0.2, v = 0.2, t = 0.2)
movej(p[-0.401965111016293, -0.116528090544026, 0.340412011700678, -1.13584609395137, -1.30264203301299, 1.32347889235509], a = 0.2, v = 0.2, t = 0.2)
movej(p[-0.40229385814657, -0.116472532291743, 0.340314744620235, -1.13575766696587, -1.30075150634383, 1.32537482459155], a = 0.2, v = 0.2, t = 0.2)
movej(p[-0.402587910496982, -0.116550719477631, 0.340303966903409, -1.13574676011097, -1.29963764921542, 1.32710623100389], a = 0.2, v = 0.2, t = 0.2)
movej(p[-0.402453361556607, -0.116549321082778, 0.340325163533704, -1.1370165550416, -1.29801010075597, 1.32951010762776], a = 0.2, v = 0.2, t = 0.2)
movej(p[-0.402384604731617, -0.116560680643079, 0.34034343234338, -1.13825113837929, -1.29656748234461, 1.33099785841888], a = 0.2, v = 0.2, t = 0.2)
movej(p[-0.402348173354352, -0.116601617236984, 0.340388715121894, -1.14059777408776, -1.2966373007921, 1.324866828996], a = 0.2, v = 0.2, t = 0.2)
movej(p[-0.402070608622982, -0.116781664527046, 0.340547609562453, -1.14164474679133, -1.29685108722916, 1.32670895364606], a = 0.2, v = 0.2, t = 0.2)
movej(p[-0.401521774438317, -0.116932630058221, 0.34073616601591, -1.13792507757052, -1.30362831448516, 1.32500476584128], a = 0.2, v = 0.2, t = 0.2)
movej(p[-0.400495319700188, -0.117140201091396, 0.341057607622987, -1.14646289786538, -1.29871283112933, 1.32809650556155], a = 0.2, v = 0.2, t = 0.2)
movej(p[-0.398745760985047, -0.11744849303682, 0.341553316255814, -1.14782651167688, -1.30790946145981, 1.32511355034556], a = 0.2, v = 0.2, t = 0.2)
movej(p[-0.396825424691621, -0.117755334060215, 0.342088064529783, -1.15949131426622, -1.30733017918407, 1.3238573403214], a = 0.2, v = 0.2, t = 0.2)
movej(p[-0.395028024918279, -0.11796377140599, 0.34254001196885, -1.16998503994146, -1.30432372802685, 1.32952946734374], a = 0.2, v = 0.2, t = 0.2)
movej(p[-0.393736628340303, -0.118091455163286, 0.342862634529305, -1.17037297140513, -1.3067797622146, 1.33099154531113], a = 0.2, v = 0.2, t = 0.2)
movej(p[-0.394633383910034, -0.118057071194734, 0.342676809205779, -1.16190596318097, -1.30659561438133, 1.33775598765827], a = 0.2, v = 0.2, t = 0.2)
movej(p[-0.395793041652606, -0.117804018088076, 0.342317550795574, -1.15339509467037, -1.30919123447754, 1.33387265795035], a = 0.2, v = 0.2, t = 0.2)
movej(p[-0.397229486371386, -0.117503364419363, 0.341873159041174, -1.14410677978499, -1.31081586680655, 1.33141405765932], a = 0.2, v = 0.2, t = 0.2)
movej(p[-0.39838044367817, -0.117167506122529, 0.341459698205774, -1.14467440285957, -1.3067479755892, 1.32810585125314], a = 0.2, v = 0.2, t = 0.2)
movej(p[-0.399376712996351, -0.116944493149143, 0.341160327550311, -1.12729910191022, -1.31679572564593, 1.31891287191156], a = 0.2, v = 0.2, t = 0.2)
movej(p[-0.400667354626353, -0.116717593293242, 0.340758573037831, -1.13384094404061, -1.30494276197026, 1.32637122040709], a = 0.2, v = 0.2, t = 0.2)
movej(p[-0.401433001502902, -0.116719197215212, 0.34060498111791, -1.13765003371803, -1.30325939906584, 1.32481911059294], a = 0.2, v = 0.2, t = 0.2)
movej(p[-0.40178720072814, -0.116642204677819, 0.340491674639601, -1.13793093422169, -1.30189682504399, 1.32391252193123], a = 0.2, v = 0.2, t = 0.2)
movej(p[-0.401860268374341, -0.116620565873325, 0.34046279244407, -1.13842898349514, -1.30045095321446, 1.32586180179547], a = 0.2, v = 0.2, t = 0.2)
movej(p[-0.402148910847447, -0.116473462264939, 0.340317478779472, -1.13870377171239, -1.29790613832711, 1.32787880078486], a = 0.2, v = 0.2, t = 0.2)
movej(p[-0.402219346348756, -0.116509935513671, 0.340328054803403, -1.13952751358864, -1.29692318621811, 1.32845625300425], a = 0.2, v = 0.2, t = 0.2)
movej(p[-0.402659001079077, -0.116558292251013, 0.340295692107896, -1.13896651400719, -1.29906713940771, 1.32119059018993], a = 0.2, v = 0.2, t = 0.2)
movej(p[-0.402697034461304, -0.116348461239482, 0.340141550846594, -1.13296056442071, -1.30371771153188, 1.32067377111815], a = 0.2, v = 0.2, t = 0.2)
movej(p[-0.402694094057746, -0.116370561467918, 0.340155980812982, -1.13381604355579, -1.30235959399312, 1.32270062501021], a = 0.2, v = 0.2, t = 0.2)
movej(p[-0.402529024443173, -0.11648553257788, 0.34025761174439, -1.13482438382382, -1.30176563263781, 1.32461118583691], a = 0.2, v = 0.2, t = 0.2)
movej(p[-0.401818530233442, -0.116778937672935, 0.340577591053307, -1.13759945081978, -1.30206064873145, 1.32739823021016], a = 0.2, v = 0.2, t = 0.2)
movej(p[-0.401191418272557, -0.117074741494813, 0.340886294871679, -1.13991112978199, -1.30280580406701, 1.32952569791709], a = 0.2, v = 0.2, t = 0.2)
movej(p[-0.399779746031046, -0.117400129820289, 0.341354006813144, -1.1424430532723, -1.30847870690747, 1.32603589968351], a = 0.2, v = 0.2, t = 0.2)
movej(p[-0.397963539144766, -0.117667647644236, 0.341846952783916, -1.15208543148516, -1.31056773232235, 1.32225362029335], a = 0.2, v = 0.2, t = 0.2)
movej(p[-0.396979293493659, -0.117781780617702, 0.342091499840011, -1.16034319386039, -1.30870674303073, 1.32186187501085], a = 0.2, v = 0.2, t = 0.2)
movej(p[-0.395300833440992, -0.118018834361335, 0.342541969233237, -1.16924458172037, -1.30292995218575, 1.33272690889875], a = 0.2, v = 0.2, t = 0.2)
movej(p[-0.393360745064859, -0.118335819868255, 0.343084187760396, -1.17728975347675, -1.29958861884997, 1.34222907361754], a = 0.2, v = 0.2, t = 0.2)
movej(p[-0.394748411861416, -0.118229584519293, 0.342784168757057, -1.16066884760633, -1.30900828468426, 1.33743358223237], a = 0.2, v = 0.2, t = 0.2)
movej(p[-0.395689924364629, -0.117883899528578, 0.342391335823754, -1.15523515597995, -1.30729738022265, 1.33858391489637], a = 0.2, v = 0.2, t = 0.2)
